其他预设/Curves/H1 - JPEG.xmp
<x:xmpmeta xmlns:x="adobe:ns:meta/" x:xmptk="Adobe XMP Core 7.0-c000 1.000000, 0000/00/00-00:00:00        ">
 <rdf:RDF xmlns:rdf="http://www.w3.org/1999/02/22-rdf-syntax-ns#">
  <rdf:Description rdf:about=""
    xmlns:crs="http://ns.adobe.com/camera-raw-settings/1.0/"
   crs:PresetType="Normal"
   crs:Cluster=""
   crs:UUID="FC1898F5BD3B98A00E3186E625641804"
   crs:SupportsAmount2="True"
   crs:SupportsAmount="True"
   crs:SupportsColor="True"
   crs:SupportsMonochrome="True"
   crs:SupportsHighDynamicRange="True"
   crs:SupportsNormalDynamicRange="True"
   crs:SupportsSceneReferred="True"
   crs:SupportsOutputReferred="True"
   crs:RequiresRGBTables="False"
   crs:CameraModelRestriction=""
   crs:Copyright=""
   crs:ContactInfo=""
   crs:Version="17.1"
   crs:ToneCurveName="Custom"
   crs:ToneCurveName2012="Custom"
   crs:HasSettings="True">
   <crs:Name>
    <rdf:Alt>
     <rdf:li xml:lang="x-default">H1 - JPEG</rdf:li>
    </rdf:Alt>
   </crs:Name>
   <crs:ShortName>
    <rdf:Alt>
     <rdf:li xml:lang="x-default"/>
    </rdf:Alt>
   </crs:ShortName>
   <crs:SortName>
    <rdf:Alt>
     <rdf:li xml:lang="x-default"/>
    </rdf:Alt>
   </crs:SortName>
   <crs:Group>
    <rdf:Alt>
     <rdf:li xml:lang="x-default"/>
    </rdf:Alt>
   </crs:Group>
   <crs:Description>
    <rdf:Alt>
     <rdf:li xml:lang="x-default"/>
    </rdf:Alt>
   </crs:Description>
   <crs:ToneCurve>
    <rdf:Seq>
     <rdf:li>0, 0</rdf:li>
     <rdf:li>24, 23</rdf:li>
     <rdf:li>54, 55</rdf:li>
     <rdf:li>129, 129</rdf:li>
     <rdf:li>188, 188</rdf:li>
     <rdf:li>255, 243</rdf:li>
    </rdf:Seq>
   </crs:ToneCurve>
   <crs:ToneCurveRed>
    <rdf:Seq>
     <rdf:li>0, 20</rdf:li>
     <rdf:li>51, 52</rdf:li>
     <rdf:li>111, 126</rdf:li>
     <rdf:li>143, 166</rdf:li>
     <rdf:li>214, 214</rdf:li>
     <rdf:li>255, 236</rdf:li>
    </rdf:Seq>
   </crs:ToneCurveRed>
   <crs:ToneCurveGreen>
    <rdf:Seq>
     <rdf:li>0, 20</rdf:li>
     <rdf:li>45, 48</rdf:li>
     <rdf:li>112, 128</rdf:li>
     <rdf:li>173, 183</rdf:li>
     <rdf:li>255, 238</rdf:li>
    </rdf:Seq>
   </crs:ToneCurveGreen>
   <crs:ToneCurveBlue>
    <rdf:Seq>
     <rdf:li>0, 34</rdf:li>
     <rdf:li>50, 57</rdf:li>
     <rdf:li>113, 129</rdf:li>
     <rdf:li>168, 182</rdf:li>
     <rdf:li>218, 210</rdf:li>
     <rdf:li>255, 225</rdf:li>
    </rdf:Seq>
   </crs:ToneCurveBlue>
   <crs:ToneCurvePV2012>
    <rdf:Seq>
     <rdf:li>0, 0</rdf:li>
     <rdf:li>24, 23</rdf:li>
     <rdf:li>54, 55</rdf:li>
     <rdf:li>129, 129</rdf:li>
     <rdf:li>188, 188</rdf:li>
     <rdf:li>255, 243</rdf:li>
    </rdf:Seq>
   </crs:ToneCurvePV2012>
   <crs:ToneCurvePV2012Red>
    <rdf:Seq>
     <rdf:li>0, 20</rdf:li>
     <rdf:li>51, 52</rdf:li>
     <rdf:li>111, 126</rdf:li>
     <rdf:li>143, 166</rdf:li>
     <rdf:li>214, 214</rdf:li>
     <rdf:li>255, 236</rdf:li>
    </rdf:Seq>
   </crs:ToneCurvePV2012Red>
   <crs:ToneCurvePV2012Green>
    <rdf:Seq>
     <rdf:li>0, 20</rdf:li>
     <rdf:li>45, 48</rdf:li>
     <rdf:li>112, 128</rdf:li>
     <rdf:li>173, 183</rdf:li>
     <rdf:li>255, 238</rdf:li>
    </rdf:Seq>
   </crs:ToneCurvePV2012Green>
   <crs:ToneCurvePV2012Blue>
    <rdf:Seq>
     <rdf:li>0, 34</rdf:li>
     <rdf:li>50, 57</rdf:li>
     <rdf:li>113, 129</rdf:li>
     <rdf:li>168, 182</rdf:li>
     <rdf:li>218, 210</rdf:li>
     <rdf:li>255, 225</rdf:li>
    </rdf:Seq>
   </crs:ToneCurvePV2012Blue>
  </rdf:Description>
 </rdf:RDF>
</x:xmpmeta>
