其他预设/Curves/KK2 - RAW.xmp
<x:xmpmeta xmlns:x="adobe:ns:meta/" x:xmptk="Adobe XMP Core 7.0-c000 1.000000, 0000/00/00-00:00:00        ">
 <rdf:RDF xmlns:rdf="http://www.w3.org/1999/02/22-rdf-syntax-ns#">
  <rdf:Description rdf:about=""
    xmlns:crs="http://ns.adobe.com/camera-raw-settings/1.0/"
   crs:PresetType="Normal"
   crs:Cluster=""
   crs:UUID="759D0EF139C2632ED85D2A06336643AF"
   crs:SupportsAmount2="True"
   crs:SupportsAmount="True"
   crs:SupportsColor="True"
   crs:SupportsMonochrome="True"
   crs:SupportsHighDynamicRange="True"
   crs:SupportsNormalDynamicRange="True"
   crs:SupportsSceneReferred="True"
   crs:SupportsOutputReferred="True"
   crs:RequiresRGBTables="False"
   crs:CameraModelRestriction=""
   crs:Copyright=""
   crs:ContactInfo=""
   crs:Version="17.1"
   crs:ToneCurveName="Custom"
   crs:ToneCurveName2012="Custom"
   crs:HasSettings="True">
   <crs:Name>
    <rdf:Alt>
     <rdf:li xml:lang="x-default">KK2 - RAW</rdf:li>
    </rdf:Alt>
   </crs:Name>
   <crs:ShortName>
    <rdf:Alt>
     <rdf:li xml:lang="x-default"/>
    </rdf:Alt>
   </crs:ShortName>
   <crs:SortName>
    <rdf:Alt>
     <rdf:li xml:lang="x-default"/>
    </rdf:Alt>
   </crs:SortName>
   <crs:Group>
    <rdf:Alt>
     <rdf:li xml:lang="x-default"/>
    </rdf:Alt>
   </crs:Group>
   <crs:Description>
    <rdf:Alt>
     <rdf:li xml:lang="x-default"/>
    </rdf:Alt>
   </crs:Description>
   <crs:ToneCurve>
    <rdf:Seq>
     <rdf:li>0, 0</rdf:li>
     <rdf:li>23, 28</rdf:li>
     <rdf:li>71, 73</rdf:li>
     <rdf:li>126, 126</rdf:li>
     <rdf:li>193, 192</rdf:li>
     <rdf:li>255, 246</rdf:li>
    </rdf:Seq>
   </crs:ToneCurve>
   <crs:ToneCurveRed>
    <rdf:Seq>
     <rdf:li>0, 0</rdf:li>
     <rdf:li>42, 38</rdf:li>
     <rdf:li>74, 80</rdf:li>
     <rdf:li>110, 129</rdf:li>
     <rdf:li>158, 179</rdf:li>
     <rdf:li>211, 219</rdf:li>
     <rdf:li>255, 255</rdf:li>
    </rdf:Seq>
   </crs:ToneCurveRed>
   <crs:ToneCurveGreen>
    <rdf:Seq>
     <rdf:li>0, 0</rdf:li>
     <rdf:li>50, 40</rdf:li>
     <rdf:li>100, 110</rdf:li>
     <rdf:li>158, 177</rdf:li>
     <rdf:li>204, 211</rdf:li>
     <rdf:li>255, 246</rdf:li>
    </rdf:Seq>
   </crs:ToneCurveGreen>
   <crs:ToneCurveBlue>
    <rdf:Seq>
     <rdf:li>0, 0</rdf:li>
     <rdf:li>50, 28</rdf:li>
     <rdf:li>107, 112</rdf:li>
     <rdf:li>159, 170</rdf:li>
     <rdf:li>206, 208</rdf:li>
     <rdf:li>255, 235</rdf:li>
    </rdf:Seq>
   </crs:ToneCurveBlue>
   <crs:ToneCurvePV2012>
    <rdf:Seq>
     <rdf:li>0, 0</rdf:li>
     <rdf:li>23, 28</rdf:li>
     <rdf:li>71, 73</rdf:li>
     <rdf:li>126, 126</rdf:li>
     <rdf:li>193, 192</rdf:li>
     <rdf:li>255, 246</rdf:li>
    </rdf:Seq>
   </crs:ToneCurvePV2012>
   <crs:ToneCurvePV2012Red>
    <rdf:Seq>
     <rdf:li>0, 0</rdf:li>
     <rdf:li>42, 38</rdf:li>
     <rdf:li>74, 80</rdf:li>
     <rdf:li>110, 129</rdf:li>
     <rdf:li>158, 179</rdf:li>
     <rdf:li>211, 219</rdf:li>
     <rdf:li>255, 255</rdf:li>
    </rdf:Seq>
   </crs:ToneCurvePV2012Red>
   <crs:ToneCurvePV2012Green>
    <rdf:Seq>
     <rdf:li>0, 0</rdf:li>
     <rdf:li>50, 40</rdf:li>
     <rdf:li>100, 110</rdf:li>
     <rdf:li>158, 177</rdf:li>
     <rdf:li>204, 211</rdf:li>
     <rdf:li>255, 246</rdf:li>
    </rdf:Seq>
   </crs:ToneCurvePV2012Green>
   <crs:ToneCurvePV2012Blue>
    <rdf:Seq>
     <rdf:li>0, 0</rdf:li>
     <rdf:li>50, 28</rdf:li>
     <rdf:li>107, 112</rdf:li>
     <rdf:li>159, 170</rdf:li>
     <rdf:li>206, 208</rdf:li>
     <rdf:li>255, 235</rdf:li>
    </rdf:Seq>
   </crs:ToneCurvePV2012Blue>
  </rdf:Description>
 </rdf:RDF>
</x:xmpmeta>
