其他预设/Curves/PX-680.xmp
<x:xmpmeta xmlns:x="adobe:ns:meta/" x:xmptk="Adobe XMP Core 7.0-c000 1.000000, 0000/00/00-00:00:00        ">
 <rdf:RDF xmlns:rdf="http://www.w3.org/1999/02/22-rdf-syntax-ns#">
  <rdf:Description rdf:about=""
    xmlns:crs="http://ns.adobe.com/camera-raw-settings/1.0/"
   crs:PresetType="Normal"
   crs:Cluster=""
   crs:UUID="D1E82B7BC2D998EEE19751BF5D19F7C1"
   crs:SupportsAmount2="True"
   crs:SupportsAmount="True"
   crs:SupportsColor="True"
   crs:SupportsMonochrome="True"
   crs:SupportsHighDynamicRange="True"
   crs:SupportsNormalDynamicRange="True"
   crs:SupportsSceneReferred="True"
   crs:SupportsOutputReferred="True"
   crs:RequiresRGBTables="False"
   crs:CameraModelRestriction=""
   crs:Copyright=""
   crs:ContactInfo=""
   crs:Version="17.1"
   crs:ToneCurveName="Custom"
   crs:HasSettings="True">
   <crs:Name>
    <rdf:Alt>
     <rdf:li xml:lang="x-default">PX-680</rdf:li>
    </rdf:Alt>
   </crs:Name>
   <crs:ShortName>
    <rdf:Alt>
     <rdf:li xml:lang="x-default"/>
    </rdf:Alt>
   </crs:ShortName>
   <crs:SortName>
    <rdf:Alt>
     <rdf:li xml:lang="x-default"/>
    </rdf:Alt>
   </crs:SortName>
   <crs:Group>
    <rdf:Alt>
     <rdf:li xml:lang="x-default"/>
    </rdf:Alt>
   </crs:Group>
   <crs:Description>
    <rdf:Alt>
     <rdf:li xml:lang="x-default"/>
    </rdf:Alt>
   </crs:Description>
   <crs:ToneCurve>
    <rdf:Seq>
     <rdf:li>0, 57</rdf:li>
     <rdf:li>31, 60</rdf:li>
     <rdf:li>69, 83</rdf:li>
     <rdf:li>119, 126</rdf:li>
     <rdf:li>169, 172</rdf:li>
     <rdf:li>223, 220</rdf:li>
     <rdf:li>243, 236</rdf:li>
     <rdf:li>255, 255</rdf:li>
    </rdf:Seq>
   </crs:ToneCurve>
   <crs:ToneCurveRed>
    <rdf:Seq>
     <rdf:li>0, 0</rdf:li>
     <rdf:li>49, 20</rdf:li>
     <rdf:li>98, 121</rdf:li>
     <rdf:li>173, 196</rdf:li>
     <rdf:li>209, 215</rdf:li>
     <rdf:li>239, 229</rdf:li>
     <rdf:li>255, 240</rdf:li>
    </rdf:Seq>
   </crs:ToneCurveRed>
   <crs:ToneCurveGreen>
    <rdf:Seq>
     <rdf:li>0, 20</rdf:li>
     <rdf:li>47, 32</rdf:li>
     <rdf:li>101, 121</rdf:li>
     <rdf:li>177, 196</rdf:li>
     <rdf:li>209, 217</rdf:li>
     <rdf:li>235, 237</rdf:li>
     <rdf:li>255, 247</rdf:li>
    </rdf:Seq>
   </crs:ToneCurveGreen>
   <crs:ToneCurveBlue>
    <rdf:Seq>
     <rdf:li>0, 24</rdf:li>
     <rdf:li>47, 43</rdf:li>
     <rdf:li>105, 106</rdf:li>
     <rdf:li>214, 181</rdf:li>
     <rdf:li>255, 211</rdf:li>
    </rdf:Seq>
   </crs:ToneCurveBlue>
  </rdf:Description>
 </rdf:RDF>
</x:xmpmeta>
