其他预设/Curves/Q3 - JPEG - 12.xmp
<x:xmpmeta xmlns:x="adobe:ns:meta/" x:xmptk="Adobe XMP Core 7.0-c000 1.000000, 0000/00/00-00:00:00        ">
 <rdf:RDF xmlns:rdf="http://www.w3.org/1999/02/22-rdf-syntax-ns#">
  <rdf:Description rdf:about=""
    xmlns:crs="http://ns.adobe.com/camera-raw-settings/1.0/"
   crs:PresetType="Normal"
   crs:Cluster=""
   crs:UUID="424B64E2A3605AFDA19CCA51E9B0D670"
   crs:SupportsAmount2="True"
   crs:SupportsAmount="True"
   crs:SupportsColor="True"
   crs:SupportsMonochrome="True"
   crs:SupportsHighDynamicRange="True"
   crs:SupportsNormalDynamicRange="True"
   crs:SupportsSceneReferred="True"
   crs:SupportsOutputReferred="True"
   crs:RequiresRGBTables="False"
   crs:CameraModelRestriction=""
   crs:Copyright=""
   crs:ContactInfo=""
   crs:Version="17.1"
   crs:ToneCurveName="Custom"
   crs:ToneCurveName2012="Custom"
   crs:HasSettings="True">
   <crs:Name>
    <rdf:Alt>
     <rdf:li xml:lang="x-default">Q3 - JPEG - 12</rdf:li>
    </rdf:Alt>
   </crs:Name>
   <crs:ShortName>
    <rdf:Alt>
     <rdf:li xml:lang="x-default"/>
    </rdf:Alt>
   </crs:ShortName>
   <crs:SortName>
    <rdf:Alt>
     <rdf:li xml:lang="x-default"/>
    </rdf:Alt>
   </crs:SortName>
   <crs:Group>
    <rdf:Alt>
     <rdf:li xml:lang="x-default"/>
    </rdf:Alt>
   </crs:Group>
   <crs:Description>
    <rdf:Alt>
     <rdf:li xml:lang="x-default"/>
    </rdf:Alt>
   </crs:Description>
   <crs:ToneCurve>
    <rdf:Seq>
     <rdf:li>0, 0</rdf:li>
     <rdf:li>13, 23</rdf:li>
     <rdf:li>44, 56</rdf:li>
     <rdf:li>77, 80</rdf:li>
     <rdf:li>128, 124</rdf:li>
     <rdf:li>226, 227</rdf:li>
     <rdf:li>255, 255</rdf:li>
    </rdf:Seq>
   </crs:ToneCurve>
   <crs:ToneCurveRed>
    <rdf:Seq>
     <rdf:li>0, 0</rdf:li>
     <rdf:li>64, 44</rdf:li>
     <rdf:li>87, 74</rdf:li>
     <rdf:li>109, 107</rdf:li>
     <rdf:li>137, 147</rdf:li>
     <rdf:li>169, 184</rdf:li>
     <rdf:li>207, 218</rdf:li>
     <rdf:li>255, 255</rdf:li>
    </rdf:Seq>
   </crs:ToneCurveRed>
   <crs:ToneCurveGreen>
    <rdf:Seq>
     <rdf:li>0, 0</rdf:li>
     <rdf:li>36, 21</rdf:li>
     <rdf:li>74, 53</rdf:li>
     <rdf:li>114, 119</rdf:li>
     <rdf:li>156, 174</rdf:li>
     <rdf:li>209, 220</rdf:li>
     <rdf:li>255, 255</rdf:li>
    </rdf:Seq>
   </crs:ToneCurveGreen>
   <crs:ToneCurveBlue>
    <rdf:Seq>
     <rdf:li>0, 0</rdf:li>
     <rdf:li>53, 33</rdf:li>
     <rdf:li>84, 72</rdf:li>
     <rdf:li>106, 116</rdf:li>
     <rdf:li>124, 146</rdf:li>
     <rdf:li>155, 180</rdf:li>
     <rdf:li>255, 255</rdf:li>
    </rdf:Seq>
   </crs:ToneCurveBlue>
   <crs:ToneCurvePV2012>
    <rdf:Seq>
     <rdf:li>0, 0</rdf:li>
     <rdf:li>13, 23</rdf:li>
     <rdf:li>44, 56</rdf:li>
     <rdf:li>77, 80</rdf:li>
     <rdf:li>128, 124</rdf:li>
     <rdf:li>226, 227</rdf:li>
     <rdf:li>255, 255</rdf:li>
    </rdf:Seq>
   </crs:ToneCurvePV2012>
   <crs:ToneCurvePV2012Red>
    <rdf:Seq>
     <rdf:li>0, 0</rdf:li>
     <rdf:li>64, 44</rdf:li>
     <rdf:li>87, 74</rdf:li>
     <rdf:li>109, 107</rdf:li>
     <rdf:li>137, 147</rdf:li>
     <rdf:li>169, 184</rdf:li>
     <rdf:li>207, 218</rdf:li>
     <rdf:li>255, 255</rdf:li>
    </rdf:Seq>
   </crs:ToneCurvePV2012Red>
   <crs:ToneCurvePV2012Green>
    <rdf:Seq>
     <rdf:li>0, 0</rdf:li>
     <rdf:li>36, 21</rdf:li>
     <rdf:li>74, 53</rdf:li>
     <rdf:li>114, 119</rdf:li>
     <rdf:li>156, 174</rdf:li>
     <rdf:li>209, 220</rdf:li>
     <rdf:li>255, 255</rdf:li>
    </rdf:Seq>
   </crs:ToneCurvePV2012Green>
   <crs:ToneCurvePV2012Blue>
    <rdf:Seq>
     <rdf:li>0, 0</rdf:li>
     <rdf:li>53, 33</rdf:li>
     <rdf:li>84, 72</rdf:li>
     <rdf:li>106, 116</rdf:li>
     <rdf:li>124, 146</rdf:li>
     <rdf:li>155, 180</rdf:li>
     <rdf:li>255, 255</rdf:li>
    </rdf:Seq>
   </crs:ToneCurvePV2012Blue>
  </rdf:Description>
 </rdf:RDF>
</x:xmpmeta>
