其他预设/Curves/V4 - RAW - 12.xmp
<x:xmpmeta xmlns:x="adobe:ns:meta/" x:xmptk="Adobe XMP Core 7.0-c000 1.000000, 0000/00/00-00:00:00        ">
 <rdf:RDF xmlns:rdf="http://www.w3.org/1999/02/22-rdf-syntax-ns#">
  <rdf:Description rdf:about=""
    xmlns:crs="http://ns.adobe.com/camera-raw-settings/1.0/"
   crs:PresetType="Normal"
   crs:Cluster=""
   crs:UUID="821B79AF8764EB07B14FF9CD4882DB80"
   crs:SupportsAmount2="True"
   crs:SupportsAmount="True"
   crs:SupportsColor="True"
   crs:SupportsMonochrome="True"
   crs:SupportsHighDynamicRange="True"
   crs:SupportsNormalDynamicRange="True"
   crs:SupportsSceneReferred="True"
   crs:SupportsOutputReferred="True"
   crs:RequiresRGBTables="False"
   crs:CameraModelRestriction=""
   crs:Copyright=""
   crs:ContactInfo=""
   crs:Version="17.1"
   crs:ToneCurveName="Custom"
   crs:ToneCurveName2012="Custom"
   crs:HasSettings="True">
   <crs:Name>
    <rdf:Alt>
     <rdf:li xml:lang="x-default">V4 - RAW - 12</rdf:li>
    </rdf:Alt>
   </crs:Name>
   <crs:ShortName>
    <rdf:Alt>
     <rdf:li xml:lang="x-default"/>
    </rdf:Alt>
   </crs:ShortName>
   <crs:SortName>
    <rdf:Alt>
     <rdf:li xml:lang="x-default"/>
    </rdf:Alt>
   </crs:SortName>
   <crs:Group>
    <rdf:Alt>
     <rdf:li xml:lang="x-default"/>
    </rdf:Alt>
   </crs:Group>
   <crs:Description>
    <rdf:Alt>
     <rdf:li xml:lang="x-default"/>
    </rdf:Alt>
   </crs:Description>
   <crs:ToneCurve>
    <rdf:Seq>
     <rdf:li>0, 0</rdf:li>
     <rdf:li>24, 23</rdf:li>
     <rdf:li>48, 51</rdf:li>
     <rdf:li>111, 116</rdf:li>
     <rdf:li>154, 152</rdf:li>
     <rdf:li>193, 184</rdf:li>
     <rdf:li>226, 216</rdf:li>
     <rdf:li>255, 248</rdf:li>
    </rdf:Seq>
   </crs:ToneCurve>
   <crs:ToneCurveRed>
    <rdf:Seq>
     <rdf:li>0, 0</rdf:li>
     <rdf:li>57, 49</rdf:li>
     <rdf:li>83, 76</rdf:li>
     <rdf:li>116, 113</rdf:li>
     <rdf:li>131, 130</rdf:li>
     <rdf:li>176, 179</rdf:li>
     <rdf:li>220, 223</rdf:li>
     <rdf:li>255, 255</rdf:li>
    </rdf:Seq>
   </crs:ToneCurveRed>
   <crs:ToneCurveGreen>
    <rdf:Seq>
     <rdf:li>0, 0</rdf:li>
     <rdf:li>53, 43</rdf:li>
     <rdf:li>57, 47</rdf:li>
     <rdf:li>116, 109</rdf:li>
     <rdf:li>136, 130</rdf:li>
     <rdf:li>176, 172</rdf:li>
     <rdf:li>206, 200</rdf:li>
     <rdf:li>220, 214</rdf:li>
     <rdf:li>255, 246</rdf:li>
    </rdf:Seq>
   </crs:ToneCurveGreen>
   <crs:ToneCurveBlue>
    <rdf:Seq>
     <rdf:li>0, 0</rdf:li>
     <rdf:li>57, 52</rdf:li>
     <rdf:li>111, 113</rdf:li>
     <rdf:li>116, 119</rdf:li>
     <rdf:li>176, 185</rdf:li>
     <rdf:li>189, 198</rdf:li>
     <rdf:li>220, 226</rdf:li>
     <rdf:li>255, 255</rdf:li>
    </rdf:Seq>
   </crs:ToneCurveBlue>
   <crs:ToneCurvePV2012>
    <rdf:Seq>
     <rdf:li>0, 0</rdf:li>
     <rdf:li>24, 23</rdf:li>
     <rdf:li>48, 51</rdf:li>
     <rdf:li>111, 116</rdf:li>
     <rdf:li>154, 152</rdf:li>
     <rdf:li>193, 184</rdf:li>
     <rdf:li>226, 216</rdf:li>
     <rdf:li>255, 248</rdf:li>
    </rdf:Seq>
   </crs:ToneCurvePV2012>
   <crs:ToneCurvePV2012Red>
    <rdf:Seq>
     <rdf:li>0, 0</rdf:li>
     <rdf:li>57, 49</rdf:li>
     <rdf:li>83, 76</rdf:li>
     <rdf:li>116, 113</rdf:li>
     <rdf:li>131, 130</rdf:li>
     <rdf:li>176, 179</rdf:li>
     <rdf:li>220, 223</rdf:li>
     <rdf:li>255, 255</rdf:li>
    </rdf:Seq>
   </crs:ToneCurvePV2012Red>
   <crs:ToneCurvePV2012Green>
    <rdf:Seq>
     <rdf:li>0, 0</rdf:li>
     <rdf:li>53, 43</rdf:li>
     <rdf:li>57, 47</rdf:li>
     <rdf:li>116, 109</rdf:li>
     <rdf:li>136, 130</rdf:li>
     <rdf:li>176, 172</rdf:li>
     <rdf:li>206, 200</rdf:li>
     <rdf:li>220, 214</rdf:li>
     <rdf:li>255, 246</rdf:li>
    </rdf:Seq>
   </crs:ToneCurvePV2012Green>
   <crs:ToneCurvePV2012Blue>
    <rdf:Seq>
     <rdf:li>0, 0</rdf:li>
     <rdf:li>57, 52</rdf:li>
     <rdf:li>111, 113</rdf:li>
     <rdf:li>116, 119</rdf:li>
     <rdf:li>176, 185</rdf:li>
     <rdf:li>189, 198</rdf:li>
     <rdf:li>220, 226</rdf:li>
     <rdf:li>255, 255</rdf:li>
    </rdf:Seq>
   </crs:ToneCurvePV2012Blue>
  </rdf:Description>
 </rdf:RDF>
</x:xmpmeta>
