其他预设/Curves/Vista 800 Soft Hi.xmp
<x:xmpmeta xmlns:x="adobe:ns:meta/" x:xmptk="Adobe XMP Core 7.0-c000 1.000000, 0000/00/00-00:00:00        ">
 <rdf:RDF xmlns:rdf="http://www.w3.org/1999/02/22-rdf-syntax-ns#">
  <rdf:Description rdf:about=""
    xmlns:crs="http://ns.adobe.com/camera-raw-settings/1.0/"
   crs:PresetType="Normal"
   crs:Cluster=""
   crs:UUID="93E1AF47952143EB80D9A4DA1DEE222D"
   crs:SupportsAmount2="True"
   crs:SupportsAmount="True"
   crs:SupportsColor="True"
   crs:SupportsMonochrome="True"
   crs:SupportsHighDynamicRange="True"
   crs:SupportsNormalDynamicRange="True"
   crs:SupportsSceneReferred="True"
   crs:SupportsOutputReferred="True"
   crs:RequiresRGBTables="False"
   crs:CameraModelRestriction=""
   crs:Copyright=""
   crs:ContactInfo=""
   crs:Version="17.1"
   crs:ToneCurveName="Custom"
   crs:ToneCurveName2012="Custom"
   crs:HasSettings="True">
   <crs:Name>
    <rdf:Alt>
     <rdf:li xml:lang="x-default">Vista 800 Soft Hi</rdf:li>
    </rdf:Alt>
   </crs:Name>
   <crs:ShortName>
    <rdf:Alt>
     <rdf:li xml:lang="x-default"/>
    </rdf:Alt>
   </crs:ShortName>
   <crs:SortName>
    <rdf:Alt>
     <rdf:li xml:lang="x-default"/>
    </rdf:Alt>
   </crs:SortName>
   <crs:Group>
    <rdf:Alt>
     <rdf:li xml:lang="x-default"/>
    </rdf:Alt>
   </crs:Group>
   <crs:Description>
    <rdf:Alt>
     <rdf:li xml:lang="x-default"/>
    </rdf:Alt>
   </crs:Description>
   <crs:ToneCurve>
    <rdf:Seq>
     <rdf:li>0, 27</rdf:li>
     <rdf:li>33, 37</rdf:li>
     <rdf:li>79, 75</rdf:li>
     <rdf:li>133, 133</rdf:li>
     <rdf:li>189, 184</rdf:li>
     <rdf:li>231, 212</rdf:li>
     <rdf:li>255, 238</rdf:li>
    </rdf:Seq>
   </crs:ToneCurve>
   <crs:ToneCurveRed>
    <rdf:Seq>
     <rdf:li>0, 0</rdf:li>
     <rdf:li>36, 11</rdf:li>
     <rdf:li>83, 62</rdf:li>
     <rdf:li>118, 121</rdf:li>
     <rdf:li>174, 196</rdf:li>
     <rdf:li>255, 255</rdf:li>
    </rdf:Seq>
   </crs:ToneCurveRed>
   <crs:ToneCurveGreen>
    <rdf:Seq>
     <rdf:li>0, 0</rdf:li>
     <rdf:li>31, 13</rdf:li>
     <rdf:li>80, 65</rdf:li>
     <rdf:li>115, 120</rdf:li>
     <rdf:li>178, 200</rdf:li>
     <rdf:li>216, 225</rdf:li>
     <rdf:li>255, 252</rdf:li>
    </rdf:Seq>
   </crs:ToneCurveGreen>
   <crs:ToneCurveBlue>
    <rdf:Seq>
     <rdf:li>0, 0</rdf:li>
     <rdf:li>70, 56</rdf:li>
     <rdf:li>115, 120</rdf:li>
     <rdf:li>148, 170</rdf:li>
     <rdf:li>178, 206</rdf:li>
     <rdf:li>217, 232</rdf:li>
     <rdf:li>255, 255</rdf:li>
    </rdf:Seq>
   </crs:ToneCurveBlue>
   <crs:ToneCurvePV2012>
    <rdf:Seq>
     <rdf:li>0, 27</rdf:li>
     <rdf:li>33, 37</rdf:li>
     <rdf:li>79, 75</rdf:li>
     <rdf:li>133, 133</rdf:li>
     <rdf:li>189, 184</rdf:li>
     <rdf:li>231, 212</rdf:li>
     <rdf:li>255, 238</rdf:li>
    </rdf:Seq>
   </crs:ToneCurvePV2012>
   <crs:ToneCurvePV2012Red>
    <rdf:Seq>
     <rdf:li>0, 0</rdf:li>
     <rdf:li>36, 11</rdf:li>
     <rdf:li>83, 62</rdf:li>
     <rdf:li>118, 121</rdf:li>
     <rdf:li>174, 196</rdf:li>
     <rdf:li>255, 255</rdf:li>
    </rdf:Seq>
   </crs:ToneCurvePV2012Red>
   <crs:ToneCurvePV2012Green>
    <rdf:Seq>
     <rdf:li>0, 0</rdf:li>
     <rdf:li>31, 13</rdf:li>
     <rdf:li>80, 65</rdf:li>
     <rdf:li>115, 120</rdf:li>
     <rdf:li>178, 200</rdf:li>
     <rdf:li>216, 225</rdf:li>
     <rdf:li>255, 252</rdf:li>
    </rdf:Seq>
   </crs:ToneCurvePV2012Green>
   <crs:ToneCurvePV2012Blue>
    <rdf:Seq>
     <rdf:li>0, 0</rdf:li>
     <rdf:li>70, 56</rdf:li>
     <rdf:li>115, 120</rdf:li>
     <rdf:li>148, 170</rdf:li>
     <rdf:li>178, 206</rdf:li>
     <rdf:li>217, 232</rdf:li>
     <rdf:li>255, 255</rdf:li>
    </rdf:Seq>
   </crs:ToneCurvePV2012Blue>
  </rdf:Description>
 </rdf:RDF>
</x:xmpmeta>
