其他预设/【237】莫兰迪灰色调LR预设合集/Placid/Lightroom Desktop/Placid no.3.lrtemplate
s = {
	id = "4B616485-7FF5-4CCD-B108-9CB4D62A8284",
	internalName = "Placid no.3",
	title = "Placid no.3",
	type = "Develop",
	value = {
		settings = {
			AutoLateralCA = 0,
			Blacks2012 = 41,
			BlueHue = 0,
			BlueSaturation = 0,
			CameraProfile = "Adobe Standard",
			ChromaticAberrationB = 0,
			ChromaticAberrationR = 0,
			Clarity2012 = 32,
			ColorNoiseReduction = 28,
			ColorNoiseReductionDetail = 50,
			ColorNoiseReductionSmoothness = 50,
			Contrast2012 = 5,
			ConvertToGrayscale = false,
			CropConstrainToWarp = 0,
			Defringe = 0,
			DefringeGreenAmount = 0,
			DefringeGreenHueHi = 60,
			DefringeGreenHueLo = 40,
			DefringePurpleAmount = 0,
			DefringePurpleHueHi = 70,
			DefringePurpleHueLo = 30,
			Dehaze = 5,
			EnableCalibration = true,
			EnableColorAdjustments = true,
			EnableDetail = true,
			EnableEffects = true,
			EnableLensCorrections = true,
			EnableSplitToning = true,
			Exposure2012 = 0.25,
			GrainAmount = 0,
			GrainFrequency = 50,
			GrainSize = 25,
			GreenHue = 0,
			GreenSaturation = 0,
			Highlights2012 = -84,
			HueAdjustmentAqua = 21,
			HueAdjustmentBlue = -49,
			HueAdjustmentGreen = 57,
			HueAdjustmentMagenta = 72,
			HueAdjustmentOrange = 4,
			HueAdjustmentPurple = -11,
			HueAdjustmentRed = 30,
			HueAdjustmentYellow = -10,
			LensManualDistortionAmount = 0,
			LuminanceAdjustmentAqua = -11,
			LuminanceAdjustmentBlue = 48,
			LuminanceAdjustmentGreen = -38,
			LuminanceAdjustmentMagenta = 0,
			LuminanceAdjustmentOrange = -32,
			LuminanceAdjustmentPurple = 0,
			LuminanceAdjustmentRed = -21,
			LuminanceAdjustmentYellow = 6,
			LuminanceNoiseReductionContrast = 0,
			LuminanceNoiseReductionDetail = 50,
			LuminanceSmoothing = 17,
			ParametricDarks = 30,
			ParametricHighlightSplit = 75,
			ParametricHighlights = -27,
			ParametricLights = 0,
			ParametricMidtoneSplit = 50,
			ParametricShadowSplit = 25,
			ParametricShadows = 0,
			PostCropVignetteAmount = 0,
			PostCropVignetteFeather = 50,
			PostCropVignetteHighlightContrast = 0,
			PostCropVignetteMidpoint = 50,
			PostCropVignetteRoundness = 0,
			PostCropVignetteStyle = 1,
			ProcessVersion = "10.0",
			RedHue = 0,
			RedSaturation = 0,
			Saturation = -7,
			SaturationAdjustmentAqua = -20,
			SaturationAdjustmentBlue = -70,
			SaturationAdjustmentGreen = -71,
			SaturationAdjustmentMagenta = -25,
			SaturationAdjustmentOrange = -26,
			SaturationAdjustmentPurple = 0,
			SaturationAdjustmentRed = -28,
			SaturationAdjustmentYellow = -72,
			ShadowTint = 0,
			Shadows2012 = 59,
			SharpenDetail = 25,
			SharpenEdgeMasking = 0,
			SharpenRadius = 1,
			Sharpness = 26,
			SplitToningBalance = 0,
			SplitToningHighlightHue = 0,
			SplitToningHighlightSaturation = 0,
			SplitToningShadowHue = 324,
			SplitToningShadowSaturation = 8,
			Temperature = 5663,
			Tint = 21,
			ToneCurveName2012 = "Linear",
			ToneCurvePV2012 = {
				0,
				0,
				255,
				255,
			},
			ToneCurvePV2012Blue = {
				0,
				0,
				255,
				255,
			},
			ToneCurvePV2012Green = {
				0,
				0,
				255,
				255,
			},
			ToneCurvePV2012Red = {
				0,
				0,
				255,
				255,
			},
			Vibrance = 11,
			VignetteAmount = 0,
			VignetteMidpoint = 50,
			WhiteBalance = "Custom",
			Whites2012 = 0,
		},
		uuid = "3E84A6EF-D7DD-4055-8738-73D2D187D00A",
	},
	version = 0,
}
