其他预设/【237】莫兰迪灰色调LR预设合集/Placid/Lightroom Desktop/Placid no.2.lrtemplate
s = {
	id = "9B99A5A8-C6B2-4E6E-AEE5-4DCCDED7A83B",
	internalName = "Placid no.2",
	title = "Placid no.2",
	type = "Develop",
	value = {
		settings = {
			AutoLateralCA = 1,
			Blacks2012 = 20,
			BlueHue = 7,
			BlueSaturation = -28,
			CameraProfile = "Adobe Standard",
			ChromaticAberrationB = 0,
			ChromaticAberrationR = 0,
			Clarity2012 = 9,
			ColorNoiseReduction = 28,
			ColorNoiseReductionDetail = 36,
			ColorNoiseReductionSmoothness = 50,
			Contrast2012 = 10,
			ConvertToGrayscale = false,
			CropConstrainToWarp = 0,
			Defringe = 0,
			DefringeGreenAmount = 0,
			DefringeGreenHueHi = 60,
			DefringeGreenHueLo = 40,
			DefringePurpleAmount = 0,
			DefringePurpleHueHi = 70,
			DefringePurpleHueLo = 30,
			Dehaze = 0,
			EnableCalibration = true,
			EnableColorAdjustments = true,
			EnableDetail = true,
			EnableEffects = true,
			EnableLensCorrections = true,
			EnableSplitToning = true,
			Exposure2012 = 0.5,
			GrainAmount = 2,
			GrainFrequency = 4,
			GrainSize = 1,
			GreenHue = 44,
			GreenSaturation = 13,
			Highlights2012 = -42,
			HueAdjustmentAqua = 0,
			HueAdjustmentBlue = 0,
			HueAdjustmentGreen = 6,
			HueAdjustmentMagenta = 11,
			HueAdjustmentOrange = 3,
			HueAdjustmentPurple = -16,
			HueAdjustmentRed = 11,
			HueAdjustmentYellow = 12,
			LensManualDistortionAmount = 0,
			LuminanceAdjustmentAqua = 0,
			LuminanceAdjustmentBlue = -16,
			LuminanceAdjustmentGreen = 0,
			LuminanceAdjustmentMagenta = -3,
			LuminanceAdjustmentOrange = 0,
			LuminanceAdjustmentPurple = -15,
			LuminanceAdjustmentRed = 0,
			LuminanceAdjustmentYellow = 21,
			LuminanceNoiseReductionContrast = 0,
			LuminanceNoiseReductionDetail = 6,
			LuminanceSmoothing = 6,
			ParametricDarks = 0,
			ParametricHighlightSplit = 75,
			ParametricHighlights = 0,
			ParametricLights = 0,
			ParametricMidtoneSplit = 50,
			ParametricShadowSplit = 25,
			ParametricShadows = 0,
			PostCropVignetteAmount = 0,
			PostCropVignetteFeather = 50,
			PostCropVignetteHighlightContrast = 0,
			PostCropVignetteMidpoint = 50,
			PostCropVignetteRoundness = 0,
			PostCropVignetteStyle = 1,
			ProcessVersion = "10.0",
			RedHue = 11,
			RedSaturation = -21,
			Saturation = -36,
			SaturationAdjustmentAqua = -3,
			SaturationAdjustmentBlue = -4,
			SaturationAdjustmentGreen = -17,
			SaturationAdjustmentMagenta = -9,
			SaturationAdjustmentOrange = -7,
			SaturationAdjustmentPurple = -18,
			SaturationAdjustmentRed = -10,
			SaturationAdjustmentYellow = 3,
			ShadowTint = 0,
			Shadows2012 = -11,
			SharpenDetail = 7,
			SharpenEdgeMasking = 1,
			SharpenRadius = 0.8,
			Sharpness = 32,
			SplitToningBalance = -6,
			SplitToningHighlightHue = 278,
			SplitToningHighlightSaturation = 7,
			SplitToningShadowHue = 42,
			SplitToningShadowSaturation = 4,
			ToneCurveName2012 = "Custom",
			ToneCurvePV2012 = {
				0,
				24,
				84,
				75,
				172,
				184,
				255,
				255,
			},
			ToneCurvePV2012Blue = {
				0,
				0,
				255,
				255,
			},
			ToneCurvePV2012Green = {
				0,
				0,
				255,
				255,
			},
			ToneCurvePV2012Red = {
				0,
				0,
				255,
				255,
			},
			Vibrance = 5,
			VignetteAmount = 0,
			VignetteMidpoint = 50,
			WhiteBalance = "As Shot",
			Whites2012 = 16,
		},
		uuid = "47122D95-9454-4021-9ADF-1FFE48A4647C",
	},
	version = 0,
}
