其他预设/【241】古典暖黄色预设9款/3.XMP格式(PS)预设/古典暖黄色[]-2.xmp
<x:xmpmeta xmlns:x="adobe:ns:meta/" x:xmptk="Adobe XMP Core 5.6-c140 79.160451, 2017/05/06-01:08:21        ">
 <rdf:RDF xmlns:rdf="http://www.w3.org/1999/02/22-rdf-syntax-ns#">
  <rdf:Description rdf:about=""
    xmlns:crs="http://ns.adobe.com/camera-raw-settings/1.0/"
   crs:PresetType="Normal"
   crs:Cluster=""
   crs:UUID="0E73A525E683DE930538723804789934"
   crs:SupportsAmount="False"
   crs:SupportsColor="True"
   crs:SupportsMonochrome="True"
   crs:SupportsHighDynamicRange="True"
   crs:SupportsNormalDynamicRange="True"
   crs:SupportsSceneReferred="True"
   crs:SupportsOutputReferred="True"
   crs:CameraModelRestriction=""
   crs:Copyright=""
   crs:ContactInfo=""
   crs:Version="10.5"
   crs:ProcessVersion="6.7"
   crs:WhiteBalance="Custom"
   crs:Temperature="6662"
   crs:Tint="+21"
   crs:Saturation="-22"
   crs:Sharpness="47"
   crs:LuminanceSmoothing="0"
   crs:ColorNoiseReduction="0"
   crs:VignetteAmount="0"
   crs:ShadowTint="-2"
   crs:RedHue="+30"
   crs:RedSaturation="+37"
   crs:GreenHue="+75"
   crs:GreenSaturation="+25"
   crs:BlueHue="-5"
   crs:BlueSaturation="+40"
   crs:Vibrance="+31"
   crs:HueAdjustmentRed="-3"
   crs:HueAdjustmentOrange="+22"
   crs:HueAdjustmentYellow="-87"
   crs:HueAdjustmentGreen="-17"
   crs:HueAdjustmentAqua="-77"
   crs:HueAdjustmentBlue="-58"
   crs:HueAdjustmentPurple="+72"
   crs:HueAdjustmentMagenta="+37"
   crs:SaturationAdjustmentRed="+18"
   crs:SaturationAdjustmentOrange="-9"
   crs:SaturationAdjustmentYellow="-9"
   crs:SaturationAdjustmentGreen="-65"
   crs:SaturationAdjustmentAqua="-65"
   crs:SaturationAdjustmentBlue="-29"
   crs:SaturationAdjustmentPurple="-64"
   crs:SaturationAdjustmentMagenta="-40"
   crs:LuminanceAdjustmentRed="-67"
   crs:LuminanceAdjustmentOrange="+11"
   crs:LuminanceAdjustmentYellow="-4"
   crs:LuminanceAdjustmentGreen="-45"
   crs:LuminanceAdjustmentAqua="-52"
   crs:LuminanceAdjustmentBlue="-75"
   crs:LuminanceAdjustmentPurple="-55"
   crs:LuminanceAdjustmentMagenta="-37"
   crs:SplitToningShadowHue="13"
   crs:SplitToningShadowSaturation="45"
   crs:SplitToningHighlightHue="208"
   crs:SplitToningHighlightSaturation="11"
   crs:SplitToningBalance="+75"
   crs:ParametricShadows="0"
   crs:ParametricDarks="0"
   crs:ParametricLights="0"
   crs:ParametricHighlights="0"
   crs:ParametricShadowSplit="14"
   crs:ParametricMidtoneSplit="60"
   crs:ParametricHighlightSplit="75"
   crs:SharpenRadius="+1.0"
   crs:SharpenDetail="25"
   crs:SharpenEdgeMasking="0"
   crs:PostCropVignetteAmount="0"
   crs:GrainAmount="0"
   crs:LensProfileEnable="0"
   crs:LensManualDistortionAmount="0"
   crs:PerspectiveVertical="0"
   crs:PerspectiveHorizontal="0"
   crs:PerspectiveRotate="0.0"
   crs:PerspectiveScale="100"
   crs:PerspectiveAspect="0"
   crs:PerspectiveUpright="0"
   crs:PerspectiveX="0.00"
   crs:PerspectiveY="0.00"
   crs:AutoLateralCA="1"
   crs:Exposure2012="+0.10"
   crs:Contrast2012="-23"
   crs:Highlights2012="-21"
   crs:Shadows2012="+42"
   crs:Whites2012="-65"
   crs:Blacks2012="+38"
   crs:Clarity2012="0"
   crs:DefringePurpleAmount="0"
   crs:DefringePurpleHueLo="30"
   crs:DefringePurpleHueHi="70"
   crs:DefringeGreenAmount="0"
   crs:DefringeGreenHueLo="40"
   crs:DefringeGreenHueHi="60"
   crs:Dehaze="0"
   crs:ConvertToGrayscale="False"
   crs:OverrideLookVignette="False"
   crs:ToneCurveName2012="Custom"
   crs:CameraProfile="Adobe Standard"
   crs:LensProfileSetup="LensDefaults"
   crs:HasSettings="True">
   <crs:Name>
    <rdf:Alt>
     <rdf:li xml:lang="x-default">古典暖黄色[素锦印象]-2</rdf:li>
    </rdf:Alt>
   </crs:Name>
   <crs:ShortName>
    <rdf:Alt>
     <rdf:li xml:lang="x-default"/>
    </rdf:Alt>
   </crs:ShortName>
   <crs:SortName>
    <rdf:Alt>
     <rdf:li xml:lang="x-default"/>
    </rdf:Alt>
   </crs:SortName>
   <crs:Group>
    <rdf:Alt>
     <rdf:li xml:lang="x-default">古典暖黄色预设[sujinyinxiang.taobao.com]</rdf:li>
    </rdf:Alt>
   </crs:Group>
   <crs:Description>
    <rdf:Alt>
     <rdf:li xml:lang="x-default"/>
    </rdf:Alt>
   </crs:Description>
   <crs:ToneCurvePV2012>
    <rdf:Seq>
     <rdf:li>0, 58</rdf:li>
     <rdf:li>77, 74</rdf:li>
     <rdf:li>126, 126</rdf:li>
     <rdf:li>186, 187</rdf:li>
     <rdf:li>255, 250</rdf:li>
    </rdf:Seq>
   </crs:ToneCurvePV2012>
   <crs:ToneCurvePV2012Red>
    <rdf:Seq>
     <rdf:li>0, 0</rdf:li>
     <rdf:li>27, 7</rdf:li>
     <rdf:li>74, 47</rdf:li>
     <rdf:li>119, 121</rdf:li>
     <rdf:li>184, 200</rdf:li>
     <rdf:li>255, 255</rdf:li>
    </rdf:Seq>
   </crs:ToneCurvePV2012Red>
   <crs:ToneCurvePV2012Green>
    <rdf:Seq>
     <rdf:li>0, 0</rdf:li>
     <rdf:li>28, 9</rdf:li>
     <rdf:li>120, 124</rdf:li>
     <rdf:li>181, 198</rdf:li>
     <rdf:li>255, 255</rdf:li>
    </rdf:Seq>
   </crs:ToneCurvePV2012Green>
   <crs:ToneCurvePV2012Blue>
    <rdf:Seq>
     <rdf:li>0, 0</rdf:li>
     <rdf:li>24, 14</rdf:li>
     <rdf:li>78, 71</rdf:li>
     <rdf:li>117, 122</rdf:li>
     <rdf:li>182, 202</rdf:li>
     <rdf:li>255, 255</rdf:li>
    </rdf:Seq>
   </crs:ToneCurvePV2012Blue>
   <crs:Look
    crs:Name=""/>
  </rdf:Description>
 </rdf:RDF>
</x:xmpmeta>
