其他预设/【241】古典暖黄色预设9款/3.XMP格式(PS)预设/古典暖黄色[]-7.xmp
<x:xmpmeta xmlns:x="adobe:ns:meta/" x:xmptk="Adobe XMP Core 5.6-c140 79.160451, 2017/05/06-01:08:21        ">
 <rdf:RDF xmlns:rdf="http://www.w3.org/1999/02/22-rdf-syntax-ns#">
  <rdf:Description rdf:about=""
    xmlns:crs="http://ns.adobe.com/camera-raw-settings/1.0/"
   crs:PresetType="Normal"
   crs:Cluster=""
   crs:UUID="80C8D54F36CA35B0C74A544ED710966E"
   crs:SupportsAmount="False"
   crs:SupportsColor="True"
   crs:SupportsMonochrome="True"
   crs:SupportsHighDynamicRange="True"
   crs:SupportsNormalDynamicRange="True"
   crs:SupportsSceneReferred="True"
   crs:SupportsOutputReferred="True"
   crs:CameraModelRestriction=""
   crs:Copyright=""
   crs:ContactInfo=""
   crs:Version="10.5"
   crs:ProcessVersion="6.7"
   crs:WhiteBalance="Custom"
   crs:Temperature="7496"
   crs:Tint="+8"
   crs:Saturation="0"
   crs:Sharpness="93"
   crs:LuminanceSmoothing="25"
   crs:ColorNoiseReduction="25"
   crs:VignetteAmount="0"
   crs:ShadowTint="0"
   crs:RedHue="+19"
   crs:RedSaturation="+10"
   crs:GreenHue="+64"
   crs:GreenSaturation="-42"
   crs:BlueHue="-16"
   crs:BlueSaturation="+41"
   crs:Vibrance="+41"
   crs:HueAdjustmentRed="+6"
   crs:HueAdjustmentOrange="+23"
   crs:HueAdjustmentYellow="+12"
   crs:HueAdjustmentGreen="+15"
   crs:HueAdjustmentAqua="-29"
   crs:HueAdjustmentBlue="+12"
   crs:HueAdjustmentPurple="+4"
   crs:HueAdjustmentMagenta="+25"
   crs:SaturationAdjustmentRed="-15"
   crs:SaturationAdjustmentOrange="-12"
   crs:SaturationAdjustmentYellow="-23"
   crs:SaturationAdjustmentGreen="-44"
   crs:SaturationAdjustmentAqua="-18"
   crs:SaturationAdjustmentBlue="+44"
   crs:SaturationAdjustmentPurple="-10"
   crs:SaturationAdjustmentMagenta="-26"
   crs:LuminanceAdjustmentRed="+45"
   crs:LuminanceAdjustmentOrange="+57"
   crs:LuminanceAdjustmentYellow="+47"
   crs:LuminanceAdjustmentGreen="+50"
   crs:LuminanceAdjustmentAqua="+31"
   crs:LuminanceAdjustmentBlue="-35"
   crs:LuminanceAdjustmentPurple="+50"
   crs:LuminanceAdjustmentMagenta="+37"
   crs:SplitToningShadowHue="16"
   crs:SplitToningShadowSaturation="4"
   crs:SplitToningHighlightHue="107"
   crs:SplitToningHighlightSaturation="4"
   crs:SplitToningBalance="0"
   crs:ParametricShadows="0"
   crs:ParametricDarks="0"
   crs:ParametricLights="0"
   crs:ParametricHighlights="0"
   crs:ParametricShadowSplit="14"
   crs:ParametricMidtoneSplit="60"
   crs:ParametricHighlightSplit="75"
   crs:SharpenRadius="+1.0"
   crs:SharpenDetail="25"
   crs:SharpenEdgeMasking="0"
   crs:PostCropVignetteAmount="-5"
   crs:PostCropVignetteMidpoint="50"
   crs:PostCropVignetteFeather="50"
   crs:PostCropVignetteRoundness="0"
   crs:PostCropVignetteStyle="1"
   crs:PostCropVignetteHighlightContrast="0"
   crs:GrainAmount="0"
   crs:LuminanceNoiseReductionDetail="50"
   crs:ColorNoiseReductionDetail="50"
   crs:LuminanceNoiseReductionContrast="12"
   crs:ColorNoiseReductionSmoothness="50"
   crs:LensProfileEnable="0"
   crs:LensManualDistortionAmount="0"
   crs:PerspectiveVertical="0"
   crs:PerspectiveHorizontal="0"
   crs:PerspectiveRotate="0.0"
   crs:PerspectiveScale="100"
   crs:PerspectiveAspect="0"
   crs:PerspectiveUpright="0"
   crs:PerspectiveX="0.00"
   crs:PerspectiveY="0.00"
   crs:AutoLateralCA="0"
   crs:Exposure2012="-0.26"
   crs:Contrast2012="-32"
   crs:Highlights2012="-93"
   crs:Shadows2012="-16"
   crs:Whites2012="-51"
   crs:Blacks2012="+15"
   crs:Clarity2012="-8"
   crs:DefringePurpleAmount="0"
   crs:DefringePurpleHueLo="30"
   crs:DefringePurpleHueHi="70"
   crs:DefringeGreenAmount="0"
   crs:DefringeGreenHueLo="40"
   crs:DefringeGreenHueHi="60"
   crs:Dehaze="0"
   crs:ConvertToGrayscale="False"
   crs:OverrideLookVignette="True"
   crs:ToneCurveName2012="Custom"
   crs:CameraProfile="Adobe Standard"
   crs:LensProfileSetup="LensDefaults"
   crs:HasSettings="True">
   <crs:Name>
    <rdf:Alt>
     <rdf:li xml:lang="x-default">古典暖黄色[素锦印象]-7</rdf:li>
    </rdf:Alt>
   </crs:Name>
   <crs:ShortName>
    <rdf:Alt>
     <rdf:li xml:lang="x-default"/>
    </rdf:Alt>
   </crs:ShortName>
   <crs:SortName>
    <rdf:Alt>
     <rdf:li xml:lang="x-default"/>
    </rdf:Alt>
   </crs:SortName>
   <crs:Group>
    <rdf:Alt>
     <rdf:li xml:lang="x-default">古典暖黄色预设[sujinyinxiang.taobao.com]</rdf:li>
    </rdf:Alt>
   </crs:Group>
   <crs:Description>
    <rdf:Alt>
     <rdf:li xml:lang="x-default"/>
    </rdf:Alt>
   </crs:Description>
   <crs:ToneCurvePV2012>
    <rdf:Seq>
     <rdf:li>0, 12</rdf:li>
     <rdf:li>31, 43</rdf:li>
     <rdf:li>123, 127</rdf:li>
     <rdf:li>255, 251</rdf:li>
    </rdf:Seq>
   </crs:ToneCurvePV2012>
   <crs:ToneCurvePV2012Red>
    <rdf:Seq>
     <rdf:li>0, 0</rdf:li>
     <rdf:li>44, 22</rdf:li>
     <rdf:li>113, 123</rdf:li>
     <rdf:li>178, 203</rdf:li>
     <rdf:li>255, 255</rdf:li>
    </rdf:Seq>
   </crs:ToneCurvePV2012Red>
   <crs:ToneCurvePV2012Green>
    <rdf:Seq>
     <rdf:li>0, 0</rdf:li>
     <rdf:li>43, 22</rdf:li>
     <rdf:li>112, 122</rdf:li>
     <rdf:li>180, 202</rdf:li>
     <rdf:li>255, 255</rdf:li>
    </rdf:Seq>
   </crs:ToneCurvePV2012Green>
   <crs:ToneCurvePV2012Blue>
    <rdf:Seq>
     <rdf:li>0, 0</rdf:li>
     <rdf:li>43, 22</rdf:li>
     <rdf:li>113, 123</rdf:li>
     <rdf:li>178, 203</rdf:li>
     <rdf:li>255, 255</rdf:li>
    </rdf:Seq>
   </crs:ToneCurvePV2012Blue>
   <crs:Look
    crs:Name=""/>
  </rdf:Description>
 </rdf:RDF>
</x:xmpmeta>
