其他预设/【234】港风调色预设/3.PS用ACR预设/1.港风色调-明亮场景.xmp
<x:xmpmeta xmlns:x="adobe:ns:meta/" x:xmptk="Adobe XMP Core 5.6-c140 79.160451, 2017/05/06-01:08:21        ">
 <rdf:RDF xmlns:rdf="http://www.w3.org/1999/02/22-rdf-syntax-ns#">
  <rdf:Description rdf:about=""
    xmlns:crs="http://ns.adobe.com/camera-raw-settings/1.0/"
   crs:PresetType="Normal"
   crs:Cluster=""
   crs:UUID="ED94F602BB83E2BAE8A39CFFFC9F553C"
   crs:SupportsAmount="False"
   crs:SupportsColor="True"
   crs:SupportsMonochrome="True"
   crs:SupportsHighDynamicRange="True"
   crs:SupportsNormalDynamicRange="True"
   crs:SupportsSceneReferred="True"
   crs:SupportsOutputReferred="True"
   crs:CameraModelRestriction=""
   crs:Copyright=""
   crs:ContactInfo=""
   crs:Version="10.5"
   crs:ProcessVersion="6.7"
   crs:WhiteBalance="Custom"
   crs:Temperature="5122"
   crs:Tint="0"
   crs:Saturation="-12"
   crs:Sharpness="10"
   crs:LuminanceSmoothing="0"
   crs:ColorNoiseReduction="50"
   crs:VignetteAmount="0"
   crs:ShadowTint="0"
   crs:RedHue="+48"
   crs:RedSaturation="+35"
   crs:GreenHue="+21"
   crs:GreenSaturation="-37"
   crs:BlueHue="-27"
   crs:BlueSaturation="0"
   crs:Vibrance="+14"
   crs:HueAdjustmentRed="+11"
   crs:HueAdjustmentOrange="+12"
   crs:HueAdjustmentYellow="+11"
   crs:HueAdjustmentGreen="-45"
   crs:HueAdjustmentAqua="-8"
   crs:HueAdjustmentBlue="-18"
   crs:HueAdjustmentPurple="+4"
   crs:HueAdjustmentMagenta="+23"
   crs:SaturationAdjustmentRed="-28"
   crs:SaturationAdjustmentOrange="-23"
   crs:SaturationAdjustmentYellow="-16"
   crs:SaturationAdjustmentGreen="-97"
   crs:SaturationAdjustmentAqua="+6"
   crs:SaturationAdjustmentBlue="-35"
   crs:SaturationAdjustmentPurple="-45"
   crs:SaturationAdjustmentMagenta="-30"
   crs:LuminanceAdjustmentRed="+8"
   crs:LuminanceAdjustmentOrange="+4"
   crs:LuminanceAdjustmentYellow="+22"
   crs:LuminanceAdjustmentGreen="0"
   crs:LuminanceAdjustmentAqua="+9"
   crs:LuminanceAdjustmentBlue="-22"
   crs:LuminanceAdjustmentPurple="+17"
   crs:LuminanceAdjustmentMagenta="+8"
   crs:SplitToningShadowHue="65"
   crs:SplitToningShadowSaturation="0"
   crs:SplitToningHighlightHue="75"
   crs:SplitToningHighlightSaturation="0"
   crs:SplitToningBalance="-50"
   crs:ParametricShadows="0"
   crs:ParametricDarks="0"
   crs:ParametricLights="0"
   crs:ParametricHighlights="0"
   crs:ParametricShadowSplit="14"
   crs:ParametricMidtoneSplit="43"
   crs:ParametricHighlightSplit="75"
   crs:SharpenRadius="+1.7"
   crs:SharpenDetail="24"
   crs:SharpenEdgeMasking="0"
   crs:PostCropVignetteAmount="0"
   crs:GrainAmount="65"
   crs:GrainSize="30"
   crs:GrainFrequency="72"
   crs:ColorNoiseReductionDetail="50"
   crs:ColorNoiseReductionSmoothness="50"
   crs:LensProfileEnable="0"
   crs:LensManualDistortionAmount="0"
   crs:PerspectiveVertical="0"
   crs:PerspectiveHorizontal="0"
   crs:PerspectiveRotate="0.0"
   crs:PerspectiveScale="100"
   crs:PerspectiveAspect="0"
   crs:PerspectiveUpright="0"
   crs:PerspectiveX="0.00"
   crs:PerspectiveY="0.00"
   crs:AutoLateralCA="0"
   crs:Exposure2012="-0.20"
   crs:Contrast2012="+7"
   crs:Highlights2012="-54"
   crs:Shadows2012="+64"
   crs:Whites2012="-60"
   crs:Blacks2012="+51"
   crs:Clarity2012="+2"
   crs:DefringePurpleAmount="0"
   crs:DefringePurpleHueLo="30"
   crs:DefringePurpleHueHi="70"
   crs:DefringeGreenAmount="0"
   crs:DefringeGreenHueLo="40"
   crs:DefringeGreenHueHi="60"
   crs:Dehaze="0"
   crs:ConvertToGrayscale="False"
   crs:OverrideLookVignette="False"
   crs:ToneCurveName2012="Custom"
   crs:CameraProfile="Embedded"
   crs:LensProfileSetup="LensDefaults"
   crs:HasSettings="True">
   <crs:Name>
    <rdf:Alt>
     <rdf:li xml:lang="x-default">1.港风色调-明亮场景 [素锦印象]</rdf:li>
    </rdf:Alt>
   </crs:Name>
   <crs:ShortName>
    <rdf:Alt>
     <rdf:li xml:lang="x-default"/>
    </rdf:Alt>
   </crs:ShortName>
   <crs:SortName>
    <rdf:Alt>
     <rdf:li xml:lang="x-default"/>
    </rdf:Alt>
   </crs:SortName>
   <crs:Group>
    <rdf:Alt>
     <rdf:li xml:lang="x-default">509</rdf:li>
    </rdf:Alt>
   </crs:Group>
   <crs:Description>
    <rdf:Alt>
     <rdf:li xml:lang="x-default"/>
    </rdf:Alt>
   </crs:Description>
   <crs:ToneCurvePV2012>
    <rdf:Seq>
     <rdf:li>0, 15</rdf:li>
     <rdf:li>24, 24</rdf:li>
     <rdf:li>47, 45</rdf:li>
     <rdf:li>255, 255</rdf:li>
    </rdf:Seq>
   </crs:ToneCurvePV2012>
   <crs:ToneCurvePV2012Red>
    <rdf:Seq>
     <rdf:li>0, 0</rdf:li>
     <rdf:li>21, 4</rdf:li>
     <rdf:li>62, 21</rdf:li>
     <rdf:li>119, 122</rdf:li>
     <rdf:li>179, 205</rdf:li>
     <rdf:li>255, 255</rdf:li>
    </rdf:Seq>
   </crs:ToneCurvePV2012Red>
   <crs:ToneCurvePV2012Green>
    <rdf:Seq>
     <rdf:li>0, 0</rdf:li>
     <rdf:li>53, 23</rdf:li>
     <rdf:li>122, 127</rdf:li>
     <rdf:li>179, 207</rdf:li>
     <rdf:li>255, 255</rdf:li>
    </rdf:Seq>
   </crs:ToneCurvePV2012Green>
   <crs:ToneCurvePV2012Blue>
    <rdf:Seq>
     <rdf:li>0, 0</rdf:li>
     <rdf:li>47, 19</rdf:li>
     <rdf:li>122, 120</rdf:li>
     <rdf:li>175, 202</rdf:li>
     <rdf:li>255, 255</rdf:li>
    </rdf:Seq>
   </crs:ToneCurvePV2012Blue>
   <crs:Look
    crs:Name=""/>
  </rdf:Description>
 </rdf:RDF>
</x:xmpmeta>
