其他预设/【234】港风调色预设/3.PS用ACR预设/6.港风色调.xmp
<x:xmpmeta xmlns:x="adobe:ns:meta/" x:xmptk="Adobe XMP Core 5.6-c140 79.160451, 2017/05/06-01:08:21        ">
 <rdf:RDF xmlns:rdf="http://www.w3.org/1999/02/22-rdf-syntax-ns#">
  <rdf:Description rdf:about=""
    xmlns:crs="http://ns.adobe.com/camera-raw-settings/1.0/"
   crs:PresetType="Normal"
   crs:Cluster=""
   crs:UUID="3F18DBCED9D27BB4C55C3989AF67BC98"
   crs:SupportsAmount="False"
   crs:SupportsColor="True"
   crs:SupportsMonochrome="True"
   crs:SupportsHighDynamicRange="True"
   crs:SupportsNormalDynamicRange="True"
   crs:SupportsSceneReferred="True"
   crs:SupportsOutputReferred="True"
   crs:CameraModelRestriction=""
   crs:Copyright=""
   crs:ContactInfo=""
   crs:Version="10.5"
   crs:ProcessVersion="6.7"
   crs:WhiteBalance="As Shot"
   crs:Saturation="-12"
   crs:Sharpness="0"
   crs:LuminanceSmoothing="0"
   crs:ColorNoiseReduction="0"
   crs:VignetteAmount="0"
   crs:ShadowTint="-6"
   crs:RedHue="+38"
   crs:RedSaturation="+53"
   crs:GreenHue="+50"
   crs:GreenSaturation="0"
   crs:BlueHue="-8"
   crs:BlueSaturation="-8"
   crs:Vibrance="+4"
   crs:HueAdjustmentRed="+45"
   crs:HueAdjustmentOrange="+3"
   crs:HueAdjustmentYellow="+6"
   crs:HueAdjustmentGreen="-30"
   crs:HueAdjustmentAqua="-50"
   crs:HueAdjustmentBlue="-12"
   crs:HueAdjustmentPurple="+31"
   crs:HueAdjustmentMagenta="+25"
   crs:SaturationAdjustmentRed="-35"
   crs:SaturationAdjustmentOrange="-23"
   crs:SaturationAdjustmentYellow="-8"
   crs:SaturationAdjustmentGreen="-51"
   crs:SaturationAdjustmentAqua="-27"
   crs:SaturationAdjustmentBlue="-26"
   crs:SaturationAdjustmentPurple="-60"
   crs:SaturationAdjustmentMagenta="-56"
   crs:LuminanceAdjustmentRed="-11"
   crs:LuminanceAdjustmentOrange="-8"
   crs:LuminanceAdjustmentYellow="+28"
   crs:LuminanceAdjustmentGreen="+46"
   crs:LuminanceAdjustmentAqua="-9"
   crs:LuminanceAdjustmentBlue="-23"
   crs:LuminanceAdjustmentPurple="+18"
   crs:LuminanceAdjustmentMagenta="+22"
   crs:SplitToningShadowHue="20"
   crs:SplitToningShadowSaturation="0"
   crs:SplitToningHighlightHue="33"
   crs:SplitToningHighlightSaturation="0"
   crs:SplitToningBalance="0"
   crs:ParametricShadows="0"
   crs:ParametricDarks="0"
   crs:ParametricLights="0"
   crs:ParametricHighlights="0"
   crs:ParametricShadowSplit="20"
   crs:ParametricMidtoneSplit="48"
   crs:ParametricHighlightSplit="75"
   crs:SharpenRadius="+1.5"
   crs:SharpenDetail="32"
   crs:SharpenEdgeMasking="0"
   crs:PostCropVignetteAmount="0"
   crs:GrainAmount="28"
   crs:GrainSize="37"
   crs:GrainFrequency="50"
   crs:LensProfileEnable="0"
   crs:AutoLateralCA="0"
   crs:Exposure2012="0.00"
   crs:Contrast2012="0"
   crs:Highlights2012="-12"
   crs:Shadows2012="+12"
   crs:Whites2012="-40"
   crs:Blacks2012="+30"
   crs:Clarity2012="-8"
   crs:DefringePurpleAmount="0"
   crs:DefringePurpleHueLo="30"
   crs:DefringePurpleHueHi="70"
   crs:DefringeGreenAmount="0"
   crs:DefringeGreenHueLo="40"
   crs:DefringeGreenHueHi="60"
   crs:Dehaze="0"
   crs:ConvertToGrayscale="False"
   crs:OverrideLookVignette="False"
   crs:ToneCurveName2012="Custom"
   crs:CameraProfile="Embedded"
   crs:LensProfileSetup="LensDefaults"
   crs:HasSettings="True">
   <crs:Name>
    <rdf:Alt>
     <rdf:li xml:lang="x-default">6.港风色调 [素锦印象]</rdf:li>
    </rdf:Alt>
   </crs:Name>
   <crs:ShortName>
    <rdf:Alt>
     <rdf:li xml:lang="x-default"/>
    </rdf:Alt>
   </crs:ShortName>
   <crs:SortName>
    <rdf:Alt>
     <rdf:li xml:lang="x-default"/>
    </rdf:Alt>
   </crs:SortName>
   <crs:Group>
    <rdf:Alt>
     <rdf:li xml:lang="x-default">509</rdf:li>
    </rdf:Alt>
   </crs:Group>
   <crs:Description>
    <rdf:Alt>
     <rdf:li xml:lang="x-default"/>
    </rdf:Alt>
   </crs:Description>
   <crs:ToneCurvePV2012>
    <rdf:Seq>
     <rdf:li>0, 23</rdf:li>
     <rdf:li>44, 42</rdf:li>
     <rdf:li>106, 107</rdf:li>
     <rdf:li>146, 149</rdf:li>
     <rdf:li>200, 203</rdf:li>
     <rdf:li>255, 245</rdf:li>
    </rdf:Seq>
   </crs:ToneCurvePV2012>
   <crs:ToneCurvePV2012Red>
    <rdf:Seq>
     <rdf:li>0, 0</rdf:li>
     <rdf:li>28, 9</rdf:li>
     <rdf:li>111, 122</rdf:li>
     <rdf:li>171, 196</rdf:li>
     <rdf:li>255, 255</rdf:li>
    </rdf:Seq>
   </crs:ToneCurvePV2012Red>
   <crs:ToneCurvePV2012Green>
    <rdf:Seq>
     <rdf:li>0, 0</rdf:li>
     <rdf:li>38, 20</rdf:li>
     <rdf:li>66, 51</rdf:li>
     <rdf:li>114, 123</rdf:li>
     <rdf:li>172, 197</rdf:li>
     <rdf:li>255, 255</rdf:li>
    </rdf:Seq>
   </crs:ToneCurvePV2012Green>
   <crs:ToneCurvePV2012Blue>
    <rdf:Seq>
     <rdf:li>0, 0</rdf:li>
     <rdf:li>32, 20</rdf:li>
     <rdf:li>119, 129</rdf:li>
     <rdf:li>175, 198</rdf:li>
     <rdf:li>255, 255</rdf:li>
    </rdf:Seq>
   </crs:ToneCurvePV2012Blue>
   <crs:Look
    crs:Name=""/>
  </rdf:Description>
 </rdf:RDF>
</x:xmpmeta>
