其他预设/【233】日式怀旧街道调色预设208款/1.3D LUT预设（视频调色-PR-AE-PS-FCPX-达芬奇用）/1.日式城市街拍预设/JA – Neon 2.cube
# Created by Adobe Lightroom plugin Export LUT (1.17.0)
# www.johnrellis.com/lightroom/exportlut.htm
# Preset: JA – Neon 2
# Color profile: /Library/Application Support/Adobe/Color/Profiles/Recommended/AdobeRGB1998.icc
LUT_3D_SIZE 5
DOMAIN_MIN 0.000000 0.000000 0.000000
DOMAIN_MAX 0.903226 0.903226 0.903226
0.118349 0.118349 0.118349
0.173739 0.108949 0.117189
0.450477 0.072633 0.092775
0.842832 0.000000 0.000000
1.000000 0.000000 0.000000
0.112642 0.156100 0.116365
0.151186 0.147890 0.120882
0.436011 0.203189 0.076814
0.835050 0.242222 0.000000
1.000000 0.203922 0.000000
0.069490 0.333135 0.076967
0.186648 0.331212 0.071656
0.320195 0.300755 0.101137
0.805264 0.475044 0.000000
1.000000 0.431037 0.000000
0.000000 0.667323 0.000000
0.180606 0.665949 0.000000
0.460121 0.651392 0.000000
0.632807 0.584649 0.000000
0.970672 0.653864 0.000000
0.000000 0.925780 0.000000
0.000000 0.922850 0.000000
0.420844 0.908934 0.000000
0.697444 0.890654 0.000000
0.917510 0.857145 0.148898
0.105501 0.120363 0.165682
0.165042 0.111299 0.162936
0.419989 0.000000 0.136660
0.815183 0.000000 0.000000
1.000000 0.010163 0.000000
0.104799 0.158022 0.161257
0.156497 0.156100 0.156283
0.416632 0.168490 0.133181
0.812894 0.210025 0.000000
1.000000 0.216129 0.000000
0.000000 0.337011 0.180240
0.126558 0.338720 0.129152
0.318883 0.300969 0.143557
0.795712 0.457527 0.000000
1.000000 0.431830 0.000000
0.000000 0.670649 0.120241
0.000000 0.672572 0.000000
0.440131 0.659754 0.000000
0.633661 0.585321 0.000000
0.970794 0.652216 0.000000
0.000000 0.927977 0.000000
0.000000 0.925444 0.000000
0.406165 0.915221 0.000000
0.698695 0.893156 0.000000
0.919890 0.858640 0.158022
0.000000 0.116274 0.374121
0.158572 0.091615 0.390997
0.399359 0.000000 0.388617
0.740169 0.000000 0.378759
1.000000 0.000000 0.289738
0.000000 0.197177 0.347814
0.000000 0.147494 0.368536
0.392401 0.035920 0.382605
0.754971 0.000000 0.359228
1.000000 0.000000 0.302403
0.000000 0.348425 0.363043
0.000000 0.346563 0.360021
0.349767 0.345647 0.348333
0.783871 0.386633 0.346899
1.000000 0.356786 0.248234
0.000000 0.677333 0.455573
0.000000 0.675593 0.426795
0.302403 0.675532 0.303868
0.654719 0.613001 0.323644
0.982666 0.632990 0.217990
0.000000 0.926818 0.407507
0.000000 0.928344 0.364660
0.155459 0.926085 0.172152
0.655573 0.901457 0.015412
0.916014 0.856626 0.291722
0.000000 0.109651 0.692103
0.000000 0.046143 0.705226
0.443427 0.000000 0.749996
0.752804 0.000000 0.730220
0.951873 0.000000 0.600916
0.000000 0.226261 0.672602
0.000000 0.138827 0.688624
0.397925 0.000000 0.735561
0.745083 0.000000 0.723171
0.953979 0.000000 0.592187
0.000000 0.412726 0.635004
0.000000 0.392309 0.630823
0.111696 0.288823 0.677394
0.720485 0.234440 0.702113
0.963165 0.262272 0.594324
0.000000 0.649134 0.681270
0.000000 0.646387 0.677729
0.000000 0.646326 0.673426
0.670893 0.657679 0.666224
0.952178 0.705653 0.694118
0.000000 0.932311 0.716732
0.000000 0.933074 0.703182
0.000000 0.931701 0.654963
0.636622 0.906126 0.633906
0.899443 0.863157 0.647974
0.000000 0.099855 0.913024
0.000000 0.011200 0.914641
0.297124 0.000000 0.921416
0.664729 0.000000 0.932128
0.946044 0.000000 0.919951
0.000000 0.204440 0.908293
0.000000 0.128115 0.910948
0.228855 0.000000 0.918273
0.648829 0.000000 0.929137
0.943816 0.000000 0.918242
0.000000 0.435218 0.892058
0.000000 0.401373 0.895384
0.000000 0.249485 0.907897
0.589899 0.222477 0.921050
0.938415 0.144167 0.915587
0.000000 0.636652 0.891417
0.000000 0.625177 0.890135
0.000000 0.579980 0.888304
0.450843 0.532403 0.901396
0.921538 0.641352 0.907866
0.000000 0.859922 0.900237
0.000000 0.860197 0.900328
0.000000 0.861906 0.900114
0.446815 0.867399 0.894072
0.888182 0.879057 0.884947
