其他预设/【233】日式怀旧街道调色预设208款/1.3D LUT预设（视频调色-PR-AE-PS-FCPX-达芬奇用）/1.日式城市街拍预设/JA – Cityscape Pop 3.cube
# Created by Adobe Lightroom plugin Export LUT (1.17.0)
# www.johnrellis.com/lightroom/exportlut.htm
# Preset: JA – Cityscape Pop 3
# Color profile: /Library/Application Support/Adobe/Color/Profiles/Recommended/AdobeRGB1998.icc
LUT_3D_SIZE 32
0.106172 0.108827 0.110536
0.106172 0.108827 0.110536
0.106172 0.108827 0.110536
0.108675 0.108431 0.110506
0.123690 0.105959 0.110292
0.143832 0.102205 0.109895
0.174960 0.094118 0.109194
0.216892 0.078126 0.107942
0.265293 0.059724 0.105470
0.315496 0.027161 0.101625
0.366461 0.000000 0.096345
0.417456 0.000000 0.089265
0.469215 0.000000 0.079652
0.522240 0.000000 0.065797
0.576074 0.000000 0.031373
0.629633 0.000000 0.000000
0.681147 0.016785 0.000000
0.727230 0.053132 0.000000
0.767788 0.072847 0.000000
0.811856 0.088228 0.000000
0.850248 0.101656 0.000000
0.882353 0.111360 0.000000
0.909056 0.118166 0.000000
0.931609 0.122774 0.000000
0.951080 0.124758 0.000000
0.968414 0.124178 0.000000
0.984314 0.122499 0.000000
0.998993 0.118441 0.000000
1.000000 0.111971 0.000000
1.000000 0.102754 0.000000
1.000000 0.090761 0.000000
1.000000 0.074434 0.000000
0.106172 0.108827 0.110536
0.106172 0.108827 0.110536
0.106172 0.108827 0.110536
0.109224 0.108339 0.110506
0.124178 0.105867 0.110262
0.144045 0.102174 0.109895
0.174502 0.094301 0.109194
0.215122 0.083864 0.107729
0.262333 0.072663 0.105104
0.312688 0.060426 0.101198
0.363134 0.040711 0.095918
0.413611 0.022950 0.088899
0.465034 0.017029 0.079225
0.517510 0.023407 0.065431
0.571069 0.030976 0.031464
0.624537 0.050507 0.000000
0.676112 0.064851 0.000000
0.722591 0.076722 0.000000
0.763577 0.089906 0.000000
0.807614 0.102113 0.000000
0.845792 0.112642 0.000000
0.878080 0.120912 0.000000
0.905180 0.125887 0.000000
0.928161 0.130190 0.000000
0.948058 0.131411 0.000000
0.965789 0.131441 0.000000
0.982086 0.128450 0.000000
0.997070 0.124849 0.000000
1.000000 0.118929 0.000000
1.000000 0.110323 0.000000
1.000000 0.098665 0.000000
1.000000 0.083650 0.000000
0.106172 0.108827 0.110536
0.106172 0.108827 0.110536
0.106172 0.108827 0.110536
0.110079 0.108186 0.110475
0.124849 0.105959 0.110231
0.144198 0.102663 0.109865
0.173098 0.098878 0.108949
0.212985 0.093446 0.107240
0.259709 0.086610 0.104494
0.309575 0.079347 0.100526
0.359930 0.073274 0.095125
0.410468 0.069459 0.087953
0.461769 0.068635 0.078187
0.514092 0.071778 0.064179
0.567407 0.076539 0.028229
0.620844 0.082399 0.000000
0.672480 0.090669 0.000000
0.719326 0.099397 0.000000
0.760830 0.108217 0.000000
0.805081 0.118379 0.000000
0.843168 0.126528 0.000000
0.875669 0.132723 0.000000
0.902953 0.138094 0.000000
0.926207 0.140627 0.000000
0.946319 0.141451 0.000000
0.964263 0.140658 0.000000
0.980713 0.138369 0.000000
0.995941 0.133974 0.000000
1.000000 0.127626 0.000000
1.000000 0.119966 0.000000
1.000000 0.108827 0.000000
1.000000 0.094911 0.000000
0.105623 0.111971 0.110719
0.105501 0.112673 0.110658
0.105409 0.113375 0.110597
0.109987 0.114260 0.110201
0.124147 0.113649 0.109621
0.142794 0.112886 0.109071
0.171328 0.111818 0.108003
0.210178 0.110780 0.106050
0.256474 0.108736 0.103059
0.305943 0.107393 0.098756
0.356085 0.106081 0.093111
0.406348 0.106386 0.085573
0.457099 0.108614 0.075380
0.509178 0.111757 0.060548
0.562341 0.115633 0.019348
0.615747 0.121004 0.000000
0.667536 0.126589 0.000000
0.714656 0.132723 0.000000
0.757504 0.139590 0.000000
0.800900 0.146242 0.000000
0.838560 0.152407 0.000000
0.871092 0.156527 0.000000
0.898985 0.159640 0.000000
0.923064 0.161410 0.000000
0.944091 0.161288 0.000000
0.962829 0.159579 0.000000
0.979797 0.156588 0.000000
0.995331 0.152529 0.000000
1.000000 0.146426 0.000000
1.000000 0.138155 0.000000
1.000000 0.128450 0.000000
1.000000 0.116365 0.000000
0.103761 0.124117 0.110780
0.103914 0.124483 0.110933
0.103792 0.125307 0.110872
0.107027 0.125704 0.109682
0.121065 0.125460 0.109316
0.140688 0.126528 0.107881
0.167819 0.128023 0.106661
0.205478 0.130983 0.104372
0.250736 0.133852 0.100984
0.299779 0.136995 0.096223
0.349401 0.139528 0.090089
0.399390 0.142550 0.082002
0.450050 0.146151 0.071046
0.502037 0.150515 0.051911
0.555261 0.155062 0.005219
0.609064 0.160098 0.000000
0.661982 0.165560 0.000000
0.710018 0.170504 0.000000
0.755520 0.175570 0.000000
0.798154 0.180667 0.000000
0.835355 0.184421 0.000000
0.867857 0.187289 0.000000
0.895933 0.188632 0.000000
0.920470 0.188846 0.000000
0.941894 0.187259 0.000000
0.960937 0.185275 0.000000
0.978241 0.181521 0.000000
0.993988 0.176730 0.000000
1.000000 0.170321 0.000000
1.000000 0.162905 0.000000
1.000000 0.153231 0.000000
1.000000 0.142428 0.000000
0.101167 0.139376 0.110811
0.101015 0.140108 0.110719
0.100801 0.140810 0.110872
0.103243 0.141299 0.108583
0.117647 0.140414 0.108492
0.136751 0.141299 0.107576
0.165743 0.146853 0.104860
0.201999 0.153048 0.101930
0.245945 0.159701 0.097993
0.294499 0.166201 0.092561
0.343847 0.172030 0.085542
0.393561 0.177157 0.076478
0.444038 0.182223 0.063966
0.495888 0.187350 0.033387
0.549126 0.192966 0.000000
0.603296 0.198672 0.000000
0.656672 0.204227 0.000000
0.705379 0.208896 0.000000
0.753475 0.213870 0.000000
0.795987 0.217472 0.000000
0.833402 0.220035 0.000000
0.866270 0.221408 0.000000
0.916533 0.229709 0.000000
0.938354 0.227909 0.000000
0.957305 0.224796 0.000000
0.974121 0.220462 0.000000
0.989319 0.215091 0.000000
1.000000 0.209171 0.000000
1.000000 0.202090 0.000000
1.000000 0.193851 0.000000
1.000000 0.184573 0.000000
1.000000 0.173892 0.000000
0.094484 0.166018 0.110750
0.094331 0.166476 0.110903
0.094453 0.167178 0.110811
0.098024 0.167544 0.105592
0.116335 0.166354 0.105745
0.137942 0.166629 0.104982
0.164492 0.169192 0.103059
0.204227 0.180087 0.098451
0.249729 0.190951 0.092378
0.296880 0.199344 0.085878
0.346349 0.207462 0.077180
0.396460 0.214420 0.065644
0.447150 0.221012 0.040986
0.499245 0.226902 0.000000
0.552361 0.233127 0.000000
0.605585 0.239109 0.000000
0.658289 0.244663 0.000000
0.710262 0.249973 0.000000
0.758816 0.254734 0.000000
0.801968 0.257908 0.000000
0.840543 0.260075 0.000000
0.874937 0.260746 0.000000
0.904692 0.260319 0.000000
0.930083 0.258244 0.000000
0.951690 0.255100 0.000000
0.970062 0.250431 0.000000
0.986175 0.244755 0.000000
1.000000 0.238041 0.000000
1.000000 0.230655 0.000000
1.000000 0.222385 0.000000
1.000000 0.212955 0.000000
1.000000 0.202823 0.000000
0.083528 0.198489 0.110475
0.083284 0.199069 0.110384
0.083162 0.199435 0.110323
0.089723 0.199405 0.101076
0.113008 0.197818 0.101228
0.136843 0.196109 0.101228
0.166110 0.198825 0.098970
0.198123 0.202487 0.095979
0.243687 0.215976 0.088869
0.293523 0.229282 0.078553
0.340978 0.238163 0.068452
0.388220 0.245151 0.052857
0.438422 0.252903 0.014405
0.490089 0.260227 0.000000
0.542809 0.267399 0.000000
0.596185 0.274205 0.000000
0.650752 0.281041 0.000000
0.705348 0.287755 0.000000
0.752865 0.291966 0.000000
0.795682 0.294438 0.000000
0.834440 0.295720 0.000000
0.869047 0.295750 0.000000
0.899290 0.294316 0.000000
0.925231 0.291478 0.000000
0.947356 0.287297 0.000000
0.966278 0.282078 0.000000
0.982849 0.275639 0.000000
0.997772 0.268437 0.000000
1.000000 0.260563 0.000000
1.000000 0.251774 0.000000
1.000000 0.242527 0.000000
1.000000 0.232334 0.000000
0.060700 0.237522 0.112642
0.061707 0.237980 0.111910
0.065095 0.238041 0.105684
0.076722 0.237644 0.094636
0.108186 0.235843 0.094545
0.137270 0.233463 0.094606
0.167422 0.233738 0.093141
0.201511 0.237308 0.088777
0.237888 0.241642 0.084077
0.286961 0.255894 0.073335
0.338109 0.269780 0.053346
0.385840 0.278447 0.017853
0.433173 0.285679 0.000000
0.481544 0.292149 0.000000
0.534112 0.300359 0.000000
0.588434 0.308843 0.000000
0.647120 0.317937 0.000000
0.700496 0.324651 0.000000
0.747524 0.328069 0.000000
0.790219 0.330388 0.000000
0.829129 0.331243 0.000000
0.864073 0.330785 0.000000
0.894652 0.329015 0.000000
0.920989 0.325414 0.000000
0.943542 0.320653 0.000000
0.962951 0.314275 0.000000
0.979980 0.307347 0.000000
0.995209 0.299748 0.000000
1.000000 0.291264 0.000000
1.000000 0.282231 0.000000
1.000000 0.272557 0.000000
1.000000 0.262333 0.000000
0.000000 0.279881 0.120058
0.000000 0.280095 0.116152
0.009125 0.279973 0.109834
0.027131 0.279728 0.091707
0.091005 0.278050 0.088014
0.130739 0.275303 0.088075
0.164279 0.272435 0.087648
0.200748 0.274571 0.084321
0.239353 0.278569 0.078279
0.279515 0.282994 0.070466
0.330571 0.296208 0.050507
0.381384 0.308690 0.000000
0.430488 0.317571 0.000000
0.478706 0.324498 0.000000
0.530114 0.332372 0.000000
0.586267 0.341955 0.000000
0.644068 0.351568 0.000000
0.697230 0.358251 0.000000
0.744137 0.362066 0.000000
0.786709 0.363714 0.000000
0.825193 0.364141 0.000000
0.859464 0.363012 0.000000
0.889647 0.360845 0.000000
0.915770 0.357610 0.000000
0.938415 0.353521 0.000000
0.958343 0.346807 0.000000
0.976043 0.339361 0.000000
0.992035 0.331212 0.000000
1.000000 0.322332 0.000000
1.000000 0.313085 0.000000
1.000000 0.303166 0.000000
1.000000 0.292851 0.000000
0.000000 0.321202 0.124849
0.000000 0.321324 0.120577
0.000000 0.321386 0.114076
0.000000 0.321111 0.094606
0.052155 0.320073 0.078950
0.115602 0.317754 0.078553
0.157778 0.315007 0.077913
0.195224 0.312444 0.076753
0.236851 0.316167 0.070375
0.278935 0.320348 0.060700
0.321843 0.324895 0.037995
0.374609 0.337377 0.000000
0.426337 0.349187 0.000000
0.479988 0.360479 0.000000
0.532555 0.369482 0.000000
0.585565 0.377691 0.000000
0.638056 0.384222 0.000000
0.689937 0.390845 0.000000
0.737179 0.394659 0.000000
0.780148 0.396338 0.000000
0.819059 0.396521 0.000000
0.853971 0.395270 0.000000
0.884794 0.392615 0.000000
0.911498 0.389105 0.000000
0.934630 0.384405 0.000000
0.954772 0.379248 0.000000
0.972808 0.371801 0.000000
0.989105 0.363043 0.000000
1.000000 0.353796 0.000000
1.000000 0.343969 0.000000
1.000000 0.333806 0.000000
1.000000 0.323217 0.000000
0.000000 0.362982 0.130343
0.000000 0.363165 0.125704
0.000000 0.363195 0.119356
0.000000 0.363073 0.099397
0.000000 0.362463 0.065522
0.088594 0.360204 0.064515
0.144991 0.357549 0.063996
0.188907 0.354284 0.063264
0.230472 0.353887 0.058808
0.274876 0.358038 0.036011
0.319677 0.362463 0.006043
0.367498 0.369726 0.000000
0.445655 0.402106 0.000000
0.504509 0.416175 0.000000
0.563134 0.428260 0.000000
0.617487 0.436011 0.000000
0.668666 0.441016 0.000000
0.714260 0.442603 0.000000
0.755428 0.441657 0.000000
0.795956 0.441352 0.000000
0.832303 0.439399 0.000000
0.864622 0.436042 0.000000
0.892851 0.431342 0.000000
0.917601 0.425788 0.000000
0.939300 0.419715 0.000000
0.958465 0.413001 0.000000
0.975525 0.406104 0.000000
0.991058 0.397528 0.000000
1.000000 0.387396 0.000000
1.000000 0.376837 0.000000
1.000000 0.365972 0.000000
1.000000 0.354833 0.000000
0.000000 0.412177 0.136812
0.000000 0.412238 0.132509
0.000000 0.411963 0.125490
0.000000 0.411261 0.105806
0.000000 0.410193 0.053681
0.000000 0.407233 0.024994
0.124880 0.403876 0.024750
0.178897 0.400366 0.022248
0.223453 0.396612 0.020661
0.271244 0.401221 0.000000
0.321935 0.409705 0.000000
0.374182 0.419104 0.000000
0.428351 0.429084 0.000000
0.493385 0.446845 0.000000
0.554162 0.461311 0.000000
0.612543 0.472847 0.000000
0.664332 0.478462 0.000000
0.709560 0.479469 0.000000
0.750088 0.477668 0.000000
0.787259 0.474617 0.000000
0.823026 0.471626 0.000000
0.856260 0.468177 0.000000
0.885435 0.463264 0.000000
0.910979 0.457282 0.000000
0.933471 0.450660 0.000000
0.953277 0.443519 0.000000
0.970977 0.436042 0.000000
0.986969 0.428565 0.000000
1.000000 0.418585 0.000000
1.000000 0.407752 0.000000
1.000000 0.396582 0.000000
1.000000 0.385199 0.000000
0.000000 0.453590 0.142977
0.000000 0.453559 0.138582
0.000000 0.453285 0.131777
0.000000 0.452766 0.114168
0.000000 0.451453 0.068666
0.000000 0.449195 0.000000
0.088136 0.447425 0.000000
0.162325 0.445441 0.000000
0.215457 0.443305 0.000000
0.261875 0.442023 0.000000
0.314488 0.449653 0.000000
0.367651 0.458412 0.000000
0.422095 0.467720 0.000000
0.477760 0.476905 0.000000
0.542779 0.493355 0.000000
0.602960 0.506126 0.000000
0.657404 0.514275 0.000000
0.704097 0.516228 0.000000
0.744717 0.514275 0.000000
0.782193 0.510735 0.000000
0.816617 0.506065 0.000000
0.847990 0.500389 0.000000
0.878019 0.495338 0.000000
0.904631 0.489174 0.000000
0.927886 0.482246 0.000000
0.948516 0.474556 0.000000
0.966827 0.466560 0.000000
0.983429 0.458381 0.000000
0.998566 0.450080 0.000000
1.000000 0.438911 0.000000
1.000000 0.427466 0.000000
1.000000 0.415686 0.000000
0.000000 0.500908 0.150454
0.000000 0.501122 0.146548
0.000000 0.501030 0.140017
0.000000 0.500755 0.122530
0.000000 0.500023 0.080201
0.000000 0.498726 0.000000
0.000000 0.495888 0.000000
0.137636 0.493019 0.000000
0.201968 0.490333 0.000000
0.254093 0.487831 0.000000
0.304051 0.489204 0.000000
0.358862 0.497566 0.000000
0.414160 0.506615 0.000000
0.470039 0.515465 0.000000
0.526177 0.523796 0.000000
0.589075 0.537102 0.000000
0.648249 0.548455 0.000000
0.696986 0.552178 0.000000
0.739956 0.551293 0.000000
0.777371 0.547356 0.000000
0.811887 0.542138 0.000000
0.843442 0.535821 0.000000
0.871733 0.528527 0.000000
0.897642 0.520836 0.000000
0.921996 0.513542 0.000000
0.943572 0.505577 0.000000
0.962860 0.497353 0.000000
0.980285 0.488869 0.000000
0.996216 0.480293 0.000000
1.000000 0.470558 0.000000
1.000000 0.458869 0.000000
1.000000 0.446784 0.000000
0.000000 0.551263 0.160128
0.000000 0.551507 0.155612
0.000000 0.551415 0.149538
0.000000 0.551141 0.133883
0.000000 0.550317 0.094270
0.000000 0.549615 0.000000
0.000000 0.547326 0.000000
0.094514 0.544518 0.000000
0.183871 0.541436 0.000000
0.244175 0.538415 0.000000
0.295598 0.534905 0.000000
0.349248 0.538750 0.000000
0.404639 0.546044 0.000000
0.460029 0.553216 0.000000
0.515160 0.560113 0.000000
0.570397 0.566552 0.000000
0.629297 0.575860 0.000000
0.687221 0.585931 0.000000
0.732418 0.586755 0.000000
0.773342 0.584863 0.000000
0.808560 0.579522 0.000000
0.840574 0.572839 0.000000
0.869291 0.564843 0.000000
0.894957 0.556085 0.000000
0.918059 0.546685 0.000000
0.939879 0.537804 0.000000
0.959838 0.529015 0.000000
0.977752 0.520043 0.000000
0.994018 0.510826 0.000000
1.000000 0.501579 0.000000
1.000000 0.489998 0.000000
1.000000 0.477516 0.000000
0.000000 0.598016 0.168215
0.000000 0.597955 0.164340
0.000000 0.597650 0.158602
0.000000 0.597253 0.144808
0.000000 0.596460 0.110933
0.000000 0.595544 0.000000
0.000000 0.593591 0.000000
0.000000 0.590509 0.000000
0.155367 0.587243 0.000000
0.227909 0.583856 0.000000
0.284855 0.580255 0.000000
0.335180 0.576410 0.000000
0.392248 0.583398 0.000000
0.448096 0.590204 0.000000
0.503258 0.596368 0.000000
0.557610 0.601648 0.000000
0.611566 0.606470 0.000000
0.666407 0.612024 0.000000
0.723232 0.620996 0.000000
0.765042 0.619501 0.000000
0.802914 0.615595 0.000000
0.835721 0.608728 0.000000
0.864805 0.600336 0.000000
0.890929 0.591058 0.000000
0.914488 0.580957 0.000000
0.935790 0.570733 0.000000
0.955261 0.560021 0.000000
0.973968 0.550744 0.000000
0.990875 0.541039 0.000000
1.000000 0.531365 0.000000
1.000000 0.520897 0.000000
1.000000 0.508110 0.000000
0.000000 0.643519 0.178500
0.000000 0.644038 0.174441
0.000000 0.664027 0.174105
0.000000 0.663478 0.162081
0.000000 0.662440 0.132998
0.000000 0.660914 0.052491
0.000000 0.658930 0.000000
0.000000 0.654932 0.000000
0.115877 0.650874 0.000000
0.212100 0.646723 0.000000
0.278660 0.642115 0.000000
0.334112 0.637232 0.000000
0.386969 0.634791 0.000000
0.444190 0.639582 0.000000
0.499733 0.643702 0.000000
0.553857 0.647456 0.000000
0.607172 0.650629 0.000000
0.659815 0.653437 0.000000
0.711879 0.656092 0.000000
0.765347 0.661769 0.000000
0.802579 0.656489 0.000000
0.836301 0.649348 0.000000
0.865660 0.639948 0.000000
0.891112 0.629236 0.000000
0.913909 0.617670 0.000000
0.934569 0.605951 0.000000
0.953460 0.594079 0.000000
0.970947 0.582513 0.000000
0.987549 0.571557 0.000000
1.000000 0.561273 0.000000
1.000000 0.550988 0.000000
1.000000 0.538537 0.000000
0.000000 0.689937 0.189944
0.000000 0.692287 0.186923
0.000000 0.694667 0.182773
0.000000 0.696437 0.173129
0.000000 0.697292 0.150423
0.000000 0.696864 0.094148
0.000000 0.695827 0.000000
0.000000 0.692714 0.000000
0.000000 0.688960 0.000000
0.181857 0.684871 0.000000
0.258030 0.680690 0.000000
0.318700 0.675929 0.000000
0.371374 0.670436 0.000000
0.425696 0.670619 0.000000
0.481209 0.674006 0.000000
0.535180 0.676905 0.000000
0.587884 0.679500 0.000000
0.639796 0.681880 0.000000
0.691279 0.684169 0.000000
0.742336 0.686580 0.000000
0.793545 0.690517 0.000000
0.828428 0.683986 0.000000
0.859617 0.675196 0.000000
0.886931 0.664698 0.000000
0.910277 0.652674 0.000000
0.931395 0.640284 0.000000
0.950652 0.627863 0.000000
0.968444 0.615534 0.000000
0.985016 0.603449 0.000000
1.000000 0.591577 0.000000
1.000000 0.580591 0.000000
1.000000 0.568994 0.000000
0.000000 0.725063 0.199252
0.000000 0.727169 0.197421
0.000000 0.729183 0.193606
0.000000 0.730648 0.185428
0.000000 0.731319 0.168032
0.000000 0.731044 0.122805
0.000000 0.730159 0.000000
0.000000 0.728023 0.000000
0.000000 0.724636 0.000000
0.142153 0.720943 0.000000
0.234104 0.716976 0.000000
0.300511 0.712642 0.000000
0.356909 0.707485 0.000000
0.407233 0.701686 0.000000
0.462776 0.703975 0.000000
0.516747 0.706325 0.000000
0.569177 0.708431 0.000000
0.620600 0.710323 0.000000
0.671382 0.712154 0.000000
0.721767 0.714137 0.000000
0.771633 0.716121 0.000000
0.820523 0.718837 0.000000
0.852995 0.710292 0.000000
0.881407 0.699916 0.000000
0.906554 0.688045 0.000000
0.928069 0.674952 0.000000
0.947601 0.661738 0.000000
0.965606 0.648585 0.000000
0.982391 0.635828 0.000000
0.997986 0.623163 0.000000
1.000000 0.610925 0.000000
1.000000 0.598749 0.000000
0.000000 0.757809 0.209079
0.000000 0.759579 0.207340
0.000000 0.761349 0.204837
0.000000 0.762600 0.197452
0.000000 0.763149 0.185519
0.000000 0.762905 0.148074
0.000000 0.762112 0.070710
0.000000 0.760891 0.000000
0.000000 0.757656 0.000000
0.080110 0.754177 0.000000
0.205631 0.750423 0.000000
0.279728 0.746334 0.000000
0.340032 0.741512 0.000000
0.392859 0.736263 0.000000
0.443427 0.732662 0.000000
0.497963 0.734981 0.000000
0.551141 0.737270 0.000000
0.602991 0.739590 0.000000
0.654078 0.742031 0.000000
0.704616 0.744442 0.000000
0.754696 0.746792 0.000000
0.804227 0.748959 0.000000
0.850797 0.750027 0.000000
0.880491 0.739284 0.000000
0.906218 0.727016 0.000000
0.929015 0.713588 0.000000
0.948882 0.699306 0.000000
0.966827 0.685115 0.000000
0.983459 0.671077 0.000000
0.998840 0.657404 0.000000
1.000000 0.644007 0.000000
1.000000 0.630793 0.000000
0.000000 0.795041 0.223148
0.000000 0.795712 0.221256
0.000000 0.796201 0.218509
0.000000 0.796292 0.212406
0.000000 0.795987 0.202365
0.000000 0.795377 0.173770
0.000000 0.794675 0.119051
0.000000 0.794003 0.000000
0.000000 0.791806 0.000000
0.000000 0.788937 0.000000
0.175021 0.785794 0.000000
0.259495 0.782193 0.000000
0.324407 0.777920 0.000000
0.380072 0.773190 0.000000
0.430304 0.767819 0.000000
0.482033 0.766354 0.000000
0.534936 0.767910 0.000000
0.586297 0.769436 0.000000
0.636469 0.770962 0.000000
0.686122 0.772335 0.000000
0.734829 0.773587 0.000000
0.782681 0.774655 0.000000
0.829801 0.775387 0.000000
0.873533 0.774624 0.000000
0.900389 0.761746 0.000000
0.923827 0.748043 0.000000
0.944915 0.733639 0.000000
0.963775 0.718898 0.000000
0.980652 0.704158 0.000000
0.996277 0.689631 0.000000
1.000000 0.675471 0.000000
1.000000 0.661494 0.000000
0.000000 0.822263 0.233494
0.000000 0.822873 0.232425
0.000000 0.823362 0.230442
0.000000 0.823423 0.225101
0.000000 0.823117 0.217594
0.000000 0.822446 0.195438
0.000000 0.821775 0.152682
0.000000 0.821042 0.062684
0.000000 0.819608 0.000000
0.000000 0.816922 0.000000
0.133577 0.813901 0.000000
0.234012 0.810636 0.000000
0.303990 0.806851 0.000000
0.362707 0.802640 0.000000
0.414954 0.797940 0.000000
0.463050 0.792966 0.000000
0.515282 0.793606 0.000000
0.566735 0.794827 0.000000
0.616815 0.796017 0.000000
0.665858 0.797177 0.000000
0.713985 0.798215 0.000000
0.761288 0.799069 0.000000
0.807736 0.799649 0.000000
0.853330 0.799924 0.000000
0.892332 0.795560 0.000000
0.917144 0.781369 0.000000
0.939025 0.766842 0.000000
0.958831 0.751888 0.000000
0.976837 0.736690 0.000000
0.992798 0.721492 0.000000
1.000000 0.706661 0.000000
1.000000 0.692134 0.000000
0.000000 0.851713 0.247623
0.000000 0.852293 0.246586
0.000000 0.852567 0.245060
0.000000 0.852354 0.241642
0.000000 0.851652 0.235233
0.000000 0.850736 0.219516
0.000000 0.849943 0.185031
0.000000 0.848966 0.126955
0.000000 0.847837 0.000000
0.000000 0.844877 0.000000
0.075990 0.841642 0.000000
0.207797 0.838254 0.000000
0.283635 0.834501 0.000000
0.345006 0.830228 0.000000
0.398657 0.825498 0.000000
0.447425 0.820462 0.000000
0.494545 0.816342 0.000000
0.545464 0.816739 0.000000
0.595026 0.817472 0.000000
0.643519 0.818387 0.000000
0.691127 0.819211 0.000000
0.737636 0.819852 0.000000
0.783200 0.820005 0.000000
0.827665 0.819699 0.000000
0.870970 0.818845 0.000000
0.911315 0.816617 0.000000
0.934142 0.800992 0.000000
0.954253 0.785550 0.000000
0.972717 0.769741 0.000000
0.989624 0.753994 0.000000
1.000000 0.738399 0.000000
1.000000 0.723079 0.000000
0.000000 0.873228 0.258122
0.000000 0.873777 0.257633
0.000000 0.873991 0.256199
0.000000 0.873777 0.253727
0.000000 0.873136 0.248753
0.000000 0.872282 0.238712
0.000000 0.871672 0.209903
0.000000 0.871061 0.165591
0.000000 0.870451 0.078340
0.000000 0.868498 0.000000
0.000000 0.865843 0.000000
0.180026 0.863005 0.000000
0.263310 0.859892 0.000000
0.327733 0.856291 0.000000
0.383032 0.852384 0.000000
0.433234 0.848081 0.000000
0.479927 0.843565 0.000000
0.527550 0.841428 0.000000
0.576837 0.841733 0.000000
0.624781 0.842130 0.000000
0.671565 0.842435 0.000000
0.717403 0.842557 0.000000
0.762142 0.842344 0.000000
0.805753 0.841764 0.000000
0.848417 0.840726 0.000000
0.890074 0.839261 0.000000
0.929473 0.836942 0.000000
0.950561 0.820127 0.000000
0.969390 0.804044 0.000000
0.986694 0.787655 0.000000
1.000000 0.771267 0.000000
1.000000 0.755062 0.000000
0.000000 0.894438 0.269780
0.000000 0.894713 0.269535
0.000000 0.894713 0.268681
0.000000 0.894316 0.266575
0.000000 0.893523 0.262852
0.000000 0.892424 0.258885
0.000000 0.891875 0.233371
0.000000 0.891325 0.196780
0.000000 0.890837 0.139315
0.000000 0.889799 0.067079
0.000000 0.887449 0.058930
0.148562 0.885069 0.046754
0.242161 0.882353 0.027192
0.309819 0.879240 0.000000
0.366735 0.875822 0.000000
0.417884 0.872007 0.000000
0.465187 0.867948 0.000000
0.509758 0.863828 0.000000
0.557641 0.863096 0.000000
0.604974 0.863066 0.000000
0.651179 0.862974 0.000000
0.696223 0.862730 0.000000
0.740169 0.862211 0.000000
0.783047 0.861387 0.000000
0.824949 0.860136 0.000000
0.865873 0.858579 0.000000
0.906126 0.856718 0.000000
0.945129 0.854856 0.000000
0.964508 0.836881 0.000000
0.982238 0.820310 0.000000
0.998566 0.803433 0.000000
1.000000 0.786587 0.000000
0.000000 0.912688 0.280430
0.000000 0.912779 0.280247
0.000000 0.912749 0.279728
0.000000 0.912444 0.278386
0.000000 0.911864 0.276127
0.000000 0.911162 0.274144
0.000000 0.911131 0.255558
0.000000 0.911406 0.227237
0.000000 0.911864 0.185611
0.000000 0.912413 0.119173
0.000000 0.911101 0.117830
0.130068 0.909636 0.116670
0.230777 0.907836 0.115328
0.300145 0.905608 0.112520
0.358160 0.902922 0.108095
0.409613 0.899779 0.101442
0.457191 0.896361 0.093751
0.501884 0.892760 0.084932
0.545373 0.889647 0.074464
0.591974 0.889097 0.025055
0.637232 0.888457 0.000000
0.681300 0.887663 0.000000
0.724178 0.886625 0.000000
0.766079 0.885283 0.000000
0.807065 0.883635 0.000000
0.847135 0.881712 0.000000
0.886412 0.879545 0.000000
0.925048 0.877165 0.000000
0.963775 0.875669 0.000000
0.980896 0.856107 0.000000
0.997131 0.838499 0.000000
1.000000 0.820584 0.000000
0.000000 0.933837 0.297002
0.000000 0.933837 0.296971
0.000000 0.933654 0.296544
0.000000 0.933196 0.296178
0.000000 0.932494 0.295537
0.000000 0.931518 0.294926
0.000000 0.931090 0.282444
0.000000 0.931060 0.257664
0.000000 0.931151 0.224002
0.000000 0.931334 0.176394
0.000000 0.930266 0.154269
0.107088 0.928527 0.152193
0.215763 0.926543 0.149630
0.286351 0.924254 0.146456
0.344549 0.921691 0.142458
