其他预设/【233】日式怀旧街道调色预设208款/1.3D LUT预设（视频调色-PR-AE-PS-FCPX-达芬奇用）/1.日式城市街拍预设/JA – Faded Soft 1.cube
# Created by Adobe Lightroom plugin Export LUT (1.17.0)
# www.johnrellis.com/lightroom/exportlut.htm
# Preset: JA – Faded Soft 1
# Color profile: /Library/Application Support/Adobe/Color/Profiles/Recommended/AdobeRGB1998.icc
LUT_3D_SIZE 32
0.087770 0.083711 0.080781
0.087770 0.083711 0.080781
0.087770 0.083711 0.080781
0.113680 0.078492 0.080659
0.150271 0.066896 0.080385
0.190829 0.029633 0.080018
0.242344 0.000000 0.077699
0.302129 0.000000 0.071382
0.364843 0.000000 0.061738
0.425177 0.000000 0.039002
0.481758 0.000000 0.003296
0.532525 0.000000 0.000000
0.577661 0.000000 0.000000
0.617731 0.000000 0.000000
0.653529 0.000000 0.000000
0.685664 0.000000 0.000000
0.714992 0.000000 0.000000
0.742000 0.000000 0.000000
0.766781 0.000000 0.000000
0.790097 0.000000 0.000000
0.812589 0.000000 0.000000
0.833463 0.000000 0.000000
0.854368 0.000000 0.000000
0.875700 0.000000 0.000000
0.897581 0.000000 0.000000
0.920256 0.000000 0.000000
0.943969 0.000000 0.000000
0.968566 0.000000 0.000000
0.993683 0.000000 0.000000
1.000000 0.000000 0.000000
1.000000 0.000000 0.000000
1.000000 0.000000 0.000000
0.087770 0.083711 0.080781
0.087770 0.083711 0.080781
0.087770 0.083711 0.080781
0.115755 0.077943 0.080598
0.151400 0.066438 0.080354
0.192203 0.033417 0.078828
0.244785 0.000000 0.074800
0.304204 0.000000 0.068482
0.365515 0.000000 0.059113
0.425574 0.000000 0.032837
0.481636 0.000000 0.000000
0.532372 0.000000 0.000000
0.577447 0.000000 0.000000
0.617334 0.000000 0.000000
0.653071 0.000000 0.000000
0.685237 0.000000 0.000000
0.714534 0.000000 0.000000
0.741543 0.000000 0.000000
0.766262 0.000000 0.000000
0.789609 0.000000 0.000000
0.811917 0.000000 0.000000
0.832639 0.000000 0.000000
0.853452 0.000000 0.000000
0.874723 0.000000 0.000000
0.896574 0.000000 0.000000
0.919219 0.000000 0.000000
0.942962 0.000000 0.000000
0.967559 0.000000 0.000000
0.992767 0.000000 0.000000
1.000000 0.000000 0.000000
1.000000 0.000000 0.000000
1.000000 0.000000 0.000000
0.087770 0.083711 0.080781
0.087770 0.083711 0.080781
0.087709 0.084047 0.080751
0.118959 0.081300 0.079896
0.153658 0.075898 0.078553
0.194980 0.066255 0.076417
0.246738 0.040253 0.072511
0.305364 0.000000 0.066041
0.366247 0.000000 0.053681
0.426184 0.000000 0.024201
0.482185 0.000000 0.000000
0.532769 0.000000 0.000000
0.577630 0.000000 0.000000
0.617609 0.000000 0.000000
0.653132 0.000000 0.000000
0.685298 0.000000 0.000000
0.714595 0.000000 0.000000
0.741482 0.000000 0.000000
0.766201 0.000000 0.000000
0.789609 0.000000 0.000000
0.811765 0.000000 0.000000
0.832395 0.000000 0.000000
0.853117 0.000000 0.000000
0.874357 0.000000 0.000000
0.896178 0.000000 0.000000
0.918791 0.000000 0.000000
0.942535 0.000000 0.000000
0.967163 0.000000 0.000000
0.992340 0.000000 0.000000
1.000000 0.000000 0.000000
1.000000 0.000000 0.000000
1.000000 0.000000 0.000000
0.088411 0.106813 0.080659
0.088502 0.108248 0.080507
0.092226 0.109407 0.080873
0.118807 0.109743 0.079225
0.155306 0.106630 0.075410
0.197818 0.102510 0.072724
0.250248 0.098024 0.067750
0.308965 0.091066 0.059632
0.369482 0.081880 0.037385
0.428901 0.069001 0.004364
0.484535 0.054902 0.000000
0.534722 0.034516 0.000000
0.579126 0.020569 0.000000
0.618555 0.016815 0.000000
0.653956 0.011200 0.000000
0.686030 0.014069 0.000000
0.715114 0.017365 0.000000
0.741878 0.013306 0.000000
0.766445 0.011414 0.000000
0.789761 0.005402 0.000000
0.811612 0.000000 0.000000
0.832029 0.000000 0.000000
0.852750 0.000000 0.000000
0.874022 0.000000 0.000000
0.895995 0.000000 0.000000
0.918791 0.000000 0.000000
0.942657 0.000000 0.000000
0.967376 0.000000 0.000000
0.992584 0.000000 0.000000
1.000000 0.000000 0.000000
1.000000 0.000000 0.000000
1.000000 0.000000 0.000000
0.089845 0.135500 0.080903
0.090059 0.136049 0.080812
0.098665 0.135653 0.081209
0.121492 0.133822 0.081270
0.149569 0.135836 0.077607
0.199008 0.141665 0.066316
0.255253 0.144625 0.058808
0.313695 0.146212 0.038270
0.374151 0.145724 0.007599
0.432929 0.144686 0.000000
0.487648 0.142367 0.000000
0.537285 0.139803 0.000000
0.581048 0.136782 0.000000
0.620356 0.134340 0.000000
0.655482 0.131350 0.000000
0.687282 0.129152 0.000000
0.716304 0.125978 0.000000
0.742947 0.122316 0.000000
0.767391 0.118502 0.000000
0.790799 0.114992 0.000000
0.812222 0.109468 0.000000
0.832456 0.102113 0.000000
0.853056 0.093324 0.000000
0.874296 0.079957 0.000000
0.896178 0.060792 0.000000
0.919005 0.003021 0.000000
0.942809 0.000000 0.000000
0.967498 0.000000 0.000000
0.992584 0.000000 0.000000
1.000000 0.000000 0.000000
1.000000 0.000000 0.000000
1.000000 0.000000 0.000000
0.090425 0.165927 0.080018
0.094331 0.165896 0.080232
0.106447 0.164797 0.080354
0.127565 0.162295 0.080903
0.153628 0.163272 0.078706
0.186679 0.168215 0.073365
0.251713 0.186679 0.040558
0.317113 0.196750 0.001556
0.381231 0.202518 0.000000
0.439033 0.204471 0.000000
0.493050 0.204807 0.000000
0.541772 0.203098 0.000000
0.584802 0.200351 0.000000
0.623377 0.197024 0.000000
0.658045 0.192569 0.000000
0.689601 0.188449 0.000000
0.718379 0.183932 0.000000
0.744808 0.179263 0.000000
0.769284 0.174350 0.000000
0.792325 0.168856 0.000000
0.813504 0.163149 0.000000
0.833677 0.155856 0.000000
0.860990 0.150179 0.000000
0.882383 0.141115 0.000000
0.904265 0.130037 0.000000
0.926940 0.115785 0.000000
0.950439 0.097780 0.000000
0.974578 0.071595 0.000000
0.998932 0.000000 0.000000
1.000000 0.000000 0.000000
1.000000 0.000000 0.000000
1.000000 0.000000 0.000000
0.097414 0.204562 0.076783
0.107546 0.203494 0.076997
0.118654 0.202243 0.077211
0.139742 0.199039 0.077668
0.164370 0.196078 0.077943
0.196414 0.203281 0.071931
0.235569 0.211856 0.061830
0.308019 0.237400 0.000000
0.381994 0.254368 0.000000
0.447608 0.262730 0.000000
0.503532 0.264958 0.000000
0.550591 0.262791 0.000000
0.592432 0.259129 0.000000
0.630060 0.254215 0.000000
0.663813 0.248386 0.000000
0.694392 0.242405 0.000000
0.722560 0.236240 0.000000
0.748501 0.230106 0.000000
0.773312 0.224155 0.000000
0.796017 0.217350 0.000000
0.817197 0.210758 0.000000
0.837888 0.203067 0.000000
0.859251 0.195468 0.000000
0.881224 0.187015 0.000000
0.903716 0.177707 0.000000
0.926726 0.166873 0.000000
0.950347 0.154635 0.000000
0.974456 0.139284 0.000000
0.998810 0.119509 0.000000
1.000000 0.093355 0.000000
1.000000 0.026520 0.000000
1.000000 0.000000 0.000000
0.116030 0.245762 0.070161
0.124758 0.244511 0.070192
0.135439 0.242893 0.070588
0.154879 0.239567 0.071626
0.178531 0.234195 0.072816
0.207431 0.238193 0.068147
0.244846 0.248569 0.055390
0.288090 0.259709 0.019776
0.362432 0.287907 0.000000
0.439246 0.308934 0.000000
0.500450 0.316075 0.000000
0.555230 0.317815 0.000000
0.597589 0.313512 0.000000
0.634363 0.307195 0.000000
0.667506 0.300359 0.000000
0.697597 0.292851 0.000000
0.725307 0.285191 0.000000
0.751705 0.277684 0.000000
0.775662 0.270451 0.000000
0.797696 0.262547 0.000000
0.818326 0.254643 0.000000
0.838865 0.246525 0.000000
0.860044 0.238224 0.000000
0.881865 0.229618 0.000000
0.904173 0.220737 0.000000
0.927062 0.210941 0.000000
0.950591 0.200137 0.000000
0.974578 0.187747 0.000000
0.998779 0.173587 0.000000
1.000000 0.156649 0.000000
1.000000 0.134768 0.000000
1.000000 0.101076 0.000000
0.139193 0.289281 0.057099
0.146792 0.287938 0.058198
0.155917 0.286473 0.058289
0.173892 0.282689 0.059724
0.196262 0.277440 0.061036
0.221317 0.274632 0.060029
0.256138 0.285283 0.037964
0.297368 0.298100 0.000000
0.343359 0.311131 0.000000
0.414862 0.338201 0.000000
0.490486 0.359960 0.000000
0.546715 0.364508 0.000000
0.595941 0.364019 0.000000
0.639704 0.359655 0.000000
0.672114 0.351293 0.000000
0.701595 0.342168 0.000000
0.729427 0.333501 0.000000
0.755398 0.324620 0.000000
0.778470 0.315526 0.000000
0.799893 0.306401 0.000000
0.820035 0.297032 0.000000
0.840421 0.287999 0.000000
0.861448 0.279240 0.000000
0.883116 0.270481 0.000000
0.905272 0.261753 0.000000
0.928038 0.252018 0.000000
0.951385 0.241855 0.000000
0.975189 0.230991 0.000000
0.999207 0.218601 0.000000
1.000000 0.204623 0.000000
1.000000 0.188632 0.000000
1.000000 0.166323 0.000000
0.157687 0.336950 0.035401
0.164279 0.335760 0.036957
0.173404 0.334051 0.037629
0.190829 0.330083 0.038483
0.212985 0.324132 0.039246
0.236606 0.316228 0.041444
0.267430 0.321813 0.018097
0.305852 0.334020 0.000000
0.350072 0.348425 0.000000
0.397375 0.362066 0.000000
0.463478 0.385351 0.000000
0.532921 0.403388 0.000000
0.586877 0.407538 0.000000
0.631586 0.404639 0.000000
0.671901 0.398993 0.000000
0.707088 0.391363 0.000000
0.734646 0.381262 0.000000
0.759670 0.370825 0.000000
0.781979 0.360082 0.000000
0.802670 0.349523 0.000000
0.822385 0.339178 0.000000
0.842435 0.329046 0.000000
0.863096 0.319493 0.000000
0.884337 0.310124 0.000000
0.906218 0.300877 0.000000
0.928801 0.291386 0.000000
0.952056 0.281529 0.000000
0.975769 0.271244 0.000000
0.999664 0.259831 0.000000
1.000000 0.247410 0.000000
1.000000 0.233249 0.000000
1.000000 0.215640 0.000000
0.173190 0.383703 0.003876
0.180240 0.382452 0.004547
0.189029 0.380560 0.004730
0.205600 0.376898 0.004761
0.227512 0.370916 0.007843
0.251499 0.363226 0.009949
0.277317 0.357031 0.007507
0.313054 0.368963 0.000000
0.354345 0.382574 0.000000
0.400610 0.397742 0.000000
0.448219 0.411078 0.000000
0.507866 0.428779 0.000000
0.570611 0.442603 0.000000
0.622919 0.445930 0.000000
0.664546 0.441962 0.000000
0.702327 0.435309 0.000000
0.736660 0.427192 0.000000
0.763546 0.416388 0.000000
0.785092 0.403937 0.000000
0.805173 0.391791 0.000000
0.824613 0.380255 0.000000
0.844572 0.369390 0.000000
0.865171 0.359167 0.000000
0.886290 0.349279 0.000000
0.907988 0.339757 0.000000
0.930419 0.329961 0.000000
0.953429 0.320134 0.000000
0.976867 0.309880 0.000000
1.000000 0.298985 0.000000
1.000000 0.287236 0.000000
1.000000 0.274266 0.000000
1.000000 0.259190 0.000000
0.189120 0.427527 0.000000
0.195377 0.426429 0.000000
0.203525 0.424720 0.000000
0.219394 0.421149 0.000000
0.240818 0.415442 0.000000
0.264378 0.408057 0.000000
0.288853 0.398566 0.000000
0.319127 0.400855 0.000000
0.357397 0.413764 0.000000
0.400244 0.427893 0.000000
0.447120 0.443091 0.000000
0.494789 0.455909 0.000000
0.554467 0.474006 0.000000
0.612360 0.484199 0.000000
0.662470 0.485878 0.000000
0.700587 0.479500 0.000000
0.735225 0.471565 0.000000
0.765927 0.462013 0.000000
0.792813 0.450385 0.000000
0.812589 0.436561 0.000000
0.831693 0.423804 0.000000
0.851377 0.411872 0.000000
0.871550 0.400549 0.000000
0.892332 0.389868 0.000000
0.913664 0.379400 0.000000
0.935698 0.369360 0.000000
0.958251 0.359136 0.000000
0.981079 0.348638 0.000000
1.000000 0.337743 0.000000
1.000000 0.326177 0.000000
1.000000 0.313634 0.000000
1.000000 0.299687 0.000000
0.204746 0.469978 0.000000
0.210636 0.468757 0.000000
0.218235 0.467048 0.000000
0.232975 0.463416 0.000000
0.253178 0.457832 0.000000
0.276341 0.450599 0.000000
0.300572 0.441138 0.000000
0.324193 0.430549 0.000000
0.359899 0.442542 0.000000
0.399817 0.456153 0.000000
0.444526 0.471473 0.000000
0.492714 0.487434 0.000000
0.540337 0.499947 0.000000
0.589441 0.508812 0.000000
0.642725 0.515923 0.000000
0.689296 0.515831 0.000000
0.726345 0.508965 0.000000
0.757870 0.499550 0.000000
0.785550 0.488502 0.000000
0.810697 0.476661 0.000000
0.834012 0.464454 0.000000
0.853574 0.451514 0.000000
0.873594 0.439582 0.000000
0.894133 0.428138 0.000000
0.915343 0.417243 0.000000
0.937163 0.406561 0.000000
0.959472 0.396216 0.000000
0.982025 0.385657 0.000000
1.000000 0.374640 0.000000
1.000000 0.363195 0.000000
1.000000 0.350866 0.000000
1.000000 0.337377 0.000000
0.218753 0.505333 0.000000
0.224216 0.504265 0.000000
0.231052 0.502708 0.000000
0.244663 0.499397 0.000000
0.263249 0.494240 0.000000
0.285405 0.487434 0.000000
0.309117 0.478859 0.000000
0.333074 0.469215 0.000000
0.361089 0.467689 0.000000
0.398474 0.480629 0.000000
0.439399 0.494697 0.000000
0.483589 0.509300 0.000000
0.530938 0.524285 0.000000
0.576684 0.535149 0.000000
0.620630 0.540063 0.000000
0.669886 0.544427 0.000000
0.713100 0.542779 0.000000
0.748836 0.535607 0.000000
0.777646 0.524620 0.000000
0.803494 0.512932 0.000000
0.828519 0.501640 0.000000
0.853910 0.490547 0.000000
0.875975 0.478492 0.000000
0.896483 0.466285 0.000000
0.917510 0.454963 0.000000
0.939147 0.443885 0.000000
0.961181 0.433051 0.000000
0.983429 0.422217 0.000000
1.000000 0.411200 0.000000
1.000000 0.399573 0.000000
1.000000 0.387243 0.000000
1.000000 0.373693 0.000000
0.232883 0.537743 0.000000
0.237613 0.536736 0.000000
0.243320 0.535454 0.000000
0.255741 0.532555 0.000000
0.273350 0.527916 0.000000
0.294377 0.521569 0.000000
0.317205 0.513878 0.000000
0.340429 0.504509 0.000000
0.363317 0.493721 0.000000
0.396124 0.501915 0.000000
0.433906 0.514794 0.000000
0.474922 0.528466 0.000000
0.518578 0.542504 0.000000
0.564721 0.556542 0.000000
0.608728 0.565972 0.000000
0.648707 0.568048 0.000000
0.694240 0.570306 0.000000
0.734737 0.567315 0.000000
0.768917 0.559442 0.000000
0.795865 0.547967 0.000000
0.821286 0.536370 0.000000
0.846952 0.525689 0.000000
0.872923 0.515251 0.000000
0.898985 0.504509 0.000000
0.919921 0.492500 0.000000
0.941405 0.481056 0.000000
0.963287 0.469795 0.000000
0.985412 0.458656 0.000000
1.000000 0.447303 0.000000
1.000000 0.435554 0.000000
1.000000 0.423072 0.000000
1.000000 0.409400 0.000000
0.246616 0.567285 0.000000
0.250950 0.566491 0.000000
0.256077 0.565393 0.000000
0.267430 0.562646 0.000000
0.283543 0.558312 0.000000
0.302953 0.552636 0.000000
0.324437 0.545525 0.000000
0.346807 0.537072 0.000000
0.369329 0.526757 0.000000
0.394141 0.521233 0.000000
0.429114 0.533135 0.000000
0.466987 0.545830 0.000000
0.507256 0.558770 0.000000
0.549950 0.571893 0.000000
0.594690 0.584771 0.000000
0.636683 0.592859 0.000000
0.673548 0.592859 0.000000
0.716243 0.593896 0.000000
0.754330 0.589807 0.000000
0.787472 0.581567 0.000000
0.813870 0.570245 0.000000
0.840085 0.559625 0.000000
0.866514 0.549798 0.000000
0.893278 0.539513 0.000000
0.920317 0.529412 0.000000
0.944549 0.518303 0.000000
0.966155 0.506584 0.000000
0.987854 0.495003 0.000000
1.000000 0.483345 0.000000
1.000000 0.471107 0.000000
1.000000 0.458167 0.000000
1.000000 0.444221 0.000000
0.259861 0.593317 0.000000
0.263523 0.592523 0.000000
0.268132 0.591455 0.000000
0.278141 0.588983 0.000000
0.292638 0.585138 0.000000
0.310582 0.579797 0.000000
0.330694 0.573358 0.000000
0.352087 0.565270 0.000000
0.373846 0.555871 0.000000
0.395148 0.545006 0.000000
0.424201 0.548852 0.000000
0.459419 0.560845 0.000000
0.496864 0.573175 0.000000
0.536706 0.585626 0.000000
0.578424 0.598108 0.000000
0.621729 0.610071 0.000000
0.662135 0.617334 0.000000
0.696529 0.615808 0.000000
0.736873 0.616114 0.000000
0.772641 0.610834 0.000000
0.804135 0.602167 0.000000
0.832212 0.592157 0.000000
0.859159 0.582300 0.000000
0.886351 0.572778 0.000000
0.913909 0.563134 0.000000
0.941466 0.553246 0.000000
0.968383 0.543053 0.000000
0.989837 0.531029 0.000000
1.000000 0.518730 0.000000
1.000000 0.506157 0.000000
1.000000 0.492775 0.000000
1.000000 0.478462 0.000000
0.272587 0.617243 0.036805
0.275944 0.616602 0.037629
0.282383 0.619471 0.047272
0.291447 0.617060 0.039521
0.304601 0.613489 0.026978
0.320867 0.608576 0.012512
0.339361 0.602289 0.000000
0.359411 0.594781 0.000000
0.380194 0.585962 0.000000
0.401099 0.575830 0.000000
0.422278 0.566369 0.000000
0.455085 0.577630 0.000000
0.490211 0.589319 0.000000
0.527459 0.601221 0.000000
0.566552 0.613123 0.000000
0.607233 0.624842 0.000000
0.649714 0.636316 0.000000
0.688716 0.642786 0.000000
0.720943 0.639887 0.000000
0.758236 0.638544 0.000000
0.791653 0.631830 0.000000
0.823056 0.623651 0.000000
0.852995 0.614862 0.000000
0.880552 0.605768 0.000000
0.908385 0.596429 0.000000
0.936217 0.586969 0.000000
0.963561 0.576959 0.000000
0.989715 0.566247 0.000000
1.000000 0.553979 0.000000
1.000000 0.540856 0.000000
1.000000 0.526940 0.000000
1.000000 0.512078 0.000000
0.286076 0.640558 0.077882
0.289189 0.640375 0.077363
0.293339 0.640009 0.077516
0.301671 0.638422 0.074708
0.313542 0.635462 0.070527
0.328588 0.631159 0.063691
0.345678 0.625605 0.050294
0.364477 0.618677 0.027161
0.384253 0.610651 0.000000
0.404334 0.601282 0.000000
0.424201 0.590570 0.000000
0.449653 0.590509 0.000000
0.482399 0.601801 0.000000
0.517418 0.613275 0.000000
0.554009 0.624842 0.000000
0.592523 0.636316 0.000000
0.632441 0.647578 0.000000
0.673854 0.658625 0.000000
0.711757 0.664485 0.000000
0.741512 0.660426 0.000000
0.775967 0.657710 0.000000
0.808774 0.651026 0.000000
0.841123 0.643977 0.000000
0.872984 0.636469 0.000000
0.901335 0.627985 0.000000
0.929931 0.619074 0.000000
0.958038 0.609766 0.000000
0.985016 0.599603 0.000000
1.000000 0.588220 0.000000
1.000000 0.575250 0.000000
1.000000 0.560693 0.000000
1.000000 0.545373 0.000000
0.298772 0.661799 0.100618
0.301671 0.661555 0.100069
0.305303 0.661189 0.099458
0.312688 0.659693 0.097932
0.323491 0.657130 0.094789
0.336889 0.653285 0.089204
0.352850 0.648096 0.081239
0.370184 0.641993 0.072358
0.388922 0.634638 0.058625
0.408209 0.626032 0.028290
0.427466 0.616297 0.000000
0.446357 0.605188 0.000000
0.476509 0.614466 0.000000
0.509483 0.625605 0.000000
0.544060 0.636835 0.000000
0.580407 0.648096 0.000000
0.618097 0.659205 0.000000
0.657343 0.670130 0.000000
0.697902 0.680751 0.000000
0.734188 0.685695 0.000000
0.761349 0.680018 0.000000
0.793454 0.676295 0.000000
0.827024 0.670680 0.000000
0.860349 0.664668 0.000000
0.893370 0.658289 0.000000
0.923278 0.650233 0.000000
0.952178 0.641566 0.000000
0.979980 0.632105 0.000000
1.000000 0.621302 0.000000
1.000000 0.608820 0.000000
1.000000 0.594263 0.000000
1.000000 0.578149 0.000000
0.311589 0.682704 0.121950
0.314183 0.682551 0.121462
0.317449 0.682155 0.120668
0.324132 0.680903 0.119539
0.333867 0.678462 0.115724
0.346258 0.674952 0.111299
0.360662 0.670283 0.104280
0.376837 0.664668 0.096284
0.394415 0.657923 0.085176
0.412757 0.650080 0.071626
0.431434 0.641260 0.051789
0.450050 0.630976 0.004608
0.472145 0.627558 0.000000
0.503288 0.638270 0.000000
0.536187 0.649256 0.000000
0.570550 0.660334 0.000000
0.606500 0.671412 0.000000
0.644007 0.682460 0.000000
0.682551 0.692988 0.000000
0.721889 0.702815 0.000000
0.756588 0.706844 0.000000
0.781491 0.699855 0.000000
0.813107 0.696651 0.000000
0.848142 0.692195 0.000000
0.882658 0.687190 0.000000
0.917021 0.681544 0.000000
0.948302 0.673976 0.000000
0.976959 0.665126 0.000000
1.000000 0.654810 0.000000
1.000000 0.642603 0.000000
1.000000 0.628138 0.000000
1.000000 0.611658 0.000000
0.326268 0.705196 0.144289
0.328435 0.704952 0.144289
0.331212 0.704341 0.143160
0.336919 0.703029 0.141573
0.345800 0.700618 0.137850
0.356878 0.697353 0.133455
0.370092 0.693172 0.127565
0.385199 0.688014 0.120119
0.401678 0.681941 0.110384
0.419043 0.674983 0.099367
0.437171 0.666926 0.085573
0.455299 0.657801 0.068544
0.473182 0.647425 0.027741
0.500023 0.653010 0.002838
0.531243 0.663600 0.000000
0.563958 0.674342 0.000000
0.598230 0.685145 0.000000
0.633661 0.695735 0.000000
0.669978 0.705745 0.000000
0.707027 0.715053 0.000000
0.744747 0.723659 0.000000
0.777462 0.726345 0.000000
0.801266 0.719051 0.000000
0.832670 0.716609 0.000000
0.868772 0.713130 0.000000
0.904479 0.708949 0.000000
0.939483 0.703670 0.000000
0.971557 0.696132 0.000000
0.999207 0.686549 0.000000
1.000000 0.674952 0.000000
1.000000 0.660822 0.000000
1.000000 0.644465 0.000000
0.340429 0.726101 0.165591
0.342290 0.725856 0.165072
0.344854 0.725490 0.165103
0.350072 0.724239 0.163088
0.357885 0.722164 0.160006
0.368078 0.719173 0.155032
0.380224 0.715389 0.149172
0.394049 0.710811 0.142306
0.409552 0.705257 0.133974
0.426032 0.698970 0.123781
0.443366 0.691676 0.112245
0.460914 0.683497 0.098116
0.478523 0.674159 0.079652
0.498146 0.667750 0.059754
0.527764 0.678004 0.055451
0.558953 0.688502 0.041138
0.591516 0.698878 0.021515
0.625086 0.708949 0.000000
0.659327 0.718441 0.000000
0.694484 0.727413 0.000000
0.730190 0.735744 0.000000
0.766720 0.743618 0.000000
0.798856 0.746212 0.000000
0.822782 0.739528 0.000000
0.852873 0.736812 0.000000
0.890288 0.734371 0.000000
0.927062 0.730922 0.000000
0.962219 0.725551 0.000000
0.994141 0.717311 0.000000
1.000000 0.706477 0.000000
1.000000 0.692805 0.000000
1.000000 0.676692 0.000000
0.356512 0.747890 0.190646
0.358373 0.747768 0.190616
0.360632 0.747341 0.190097
0.365332 0.746181 0.188174
0.372168 0.744381 0.184848
0.381323 0.741756 0.180850
0.392432 0.738430 0.174777
0.405188 0.734310 0.168124
0.419471 0.729397 0.159884
0.434974 0.723812 0.150362
0.451453 0.717281 0.139437
0.468360 0.709957 0.126589
0.485664 0.701564 0.111635
0.502800 0.692226 0.093935
0.526726 0.694148 0.085634
0.556268 0.703822 0.083711
0.586725 0.713344 0.081575
0.618280 0.722499 0.077729
0.650721 0.731411 0.070344
0.683894 0.739895 0.055024
0.717861 0.747951 0.006073
0.752926 0.756039 0.000000
0.789303 0.764065 0.000000
0.821073 0.766629 0.000000
0.844724 0.760128 0.000000
0.875395 0.758572 0.000000
0.913787 0.757595 0.000000
0.951049 0.753994 0.000000
0.985565 0.747524 0.000000
1.000000 0.737575 0.000000
1.000000 0.724483 0.000000
1.000000 0.708492 0.000000
0.372442 0.767697 0.215549
0.374029 0.767575 0.215335
0.376074 0.767239 0.214572
0.380194 0.766262 0.212772
0.386572 0.764706 0.209964
0.394934 0.762478 0.206119
0.405035 0.759640 0.200626
0.416876 0.756191 0.194308
0.430274 0.752132 0.187381
0.444923 0.747402 0.178714
0.460548 0.742061 0.168917
0.477180 0.735805 0.157534
0.494209 0.728908 0.145083
0.511406 0.721096 0.129885
0.528893 0.712795 0.113558
0.556725 0.721645 0.115358
0.585595 0.730282 0.116304
0.615412 0.738674 0.117037
0.645991 0.746822 0.115969
0.677394 0.754788 0.112551
0.710018 0.762875 0.105135
0.743893 0.771115 0.090913
0.778836 0.779324 0.062867
0.815152 0.787442 0.000000
0.846616 0.789883 0.000000
0.870115 0.783474 0.000000
0.899687 0.782681 0.000000
0.938781 0.782254 0.000000
0.975860 0.777829 0.000000
1.000000 0.769192 0.000000
1.000000 0.756283 0.000000
1.000000 0.740169 0.000000
0.390509 0.788113 0.243809
0.392004 0.787930 0.243381
0.393683 0.787625 0.242741
0.397436 0.786740 0.241093
0.402930 0.785245 0.238163
0.410407 0.783322 0.234470
0.419593 0.780850 0.229892
0.430335 0.777859 0.224094
0.442725 0.774380 0.217319
0.456519 0.770443 0.209598
0.471473 0.765927 0.201022
0.487373 0.760922 0.191501
0.503929 0.755245 0.180331
0.521111 0.748836 0.168093
0.538354 0.741726 0.154086
0.559838 0.740871 0.147311
0.586969 0.748531 0.149966
0.614984 0.755978 0.152499
0.643977 0.763638 0.153567
0.674189 0.771572 0.152865
0.705684 0.779721 0.149264
0.738277 0.787991 0.142550
0.772000 0.796323 0.129519
0.806943 0.804532 0.107027
0.843107 0.812528 0.055879
0.873808 0.814847 0.024109
0.896452 0.808774 0.102907
0.924743 0.808011 0.154574
0.963165 0.806882 0.000000
0.998657 0.800839 0.000000
1.000000 0.788693 0.000000
1.000000 0.772030 0.000000
0.410620 0.810269 0.274235
0.411902 0.810117 0.273991
0.413458 0.809781 0.273228
0.416785 0.809018 0.271580
0.421912 0.807797 0.269352
0.428809 0.806210 0.266697
0.437385 0.804257 0.262882
0.447639 0.801877 0.258183
0.459449 0.799161 0.253239
0.472602 0.796048 0.247562
0.486976 0.792508 0.241154
0.502373 0.788479 0.233616
0.518517 0.783963 0.225437
0.535302 0.778836 0.215549
0.552575 0.773190 0.204776
0.570184 0.766873 0.192660
0.594842 0.772061 0.194736
0.621607 0.779324 0.198032
0.649561 0.786954 0.200504
0.678737 0.794888 0.201114
0.709010 0.803006 0.200137
0.740383 0.811246 0.195621
0.772854 0.819455 0.187381
0.806485 0.827604 0.173831
0.840848 0.835538 0.170138
0.876036 0.843168 0.170779
0.905974 0.845090 0.173373
0.927306 0.838437 0.199130
0.953368 0.836637 0.238010
0.988647 0.833555 0.159518
1.000000 0.824125 0.000000
1.000000 0.807156 0.000000
0.436713 0.837797 0.312322
0.437812 0.837675 0.312169
0.439216 0.837369 0.311650
0.442176 0.836606 0.310430
0.446845 0.835477 0.308598
0.452949 0.834012 0.305760
0.460700 0.832181 0.302281
0.470008 0.830045 0.298680
0.480812 0.827512 0.294224
0.492897 0.824674 0.289128
0.506188 0.821439 0.283513
0.520653 0.817838 0.277317
0.535973 0.813870 0.270298
0.552117 0.809384 0.262638
0.568811 0.804501 0.254307
0.586084 0.799191 0.245335
