其他预设/【233】日式怀旧街道调色预设208款/1.3D LUT预设（视频调色-PR-AE-PS-FCPX-达芬奇用）/1.日式城市街拍预设/JA – Harsh Shade 2.cube
# Created by Adobe Lightroom plugin Export LUT (1.17.0)
# www.johnrellis.com/lightroom/exportlut.htm
# Preset: JA – Harsh Shade 2
# Color profile: /Library/Application Support/Adobe/Color/Profiles/Recommended/AdobeRGB1998.icc
LUT_3D_SIZE 5
DOMAIN_MIN 0.000000 0.000000 0.000000
DOMAIN_MAX 0.903226 0.903226 0.903226
0.034760 0.039002 0.057343
0.153780 0.013245 0.043732
0.534325 0.000000 0.021118
0.793362 0.249332 0.267857
0.968597 0.457221 0.476478
0.000000 0.130922 0.048066
0.199954 0.187137 0.000000
0.572351 0.253056 0.074342
0.812924 0.356847 0.295171
0.975311 0.503929 0.495705
0.000000 0.489693 0.091829
0.195560 0.501518 0.000000
0.623621 0.595941 0.222538
0.878233 0.610590 0.410193
0.980316 0.623346 0.535546
0.000000 0.727810 0.244694
0.251804 0.737026 0.264225
0.533837 0.756680 0.312444
0.866575 0.831083 0.478035
0.977935 0.789364 0.619013
0.303655 0.937194 0.453559
0.383459 0.937285 0.465034
0.557214 0.932036 0.484840
0.778347 0.935515 0.564538
0.966705 0.935363 0.691341
0.000000 0.036713 0.163455
0.128298 0.000000 0.160464
0.485389 0.000000 0.229984
0.733669 0.283085 0.345068
0.949950 0.456123 0.507225
0.000000 0.158145 0.192660
0.170504 0.180636 0.214267
0.520043 0.261906 0.278508
0.763363 0.372900 0.377142
0.955505 0.500114 0.522820
0.000000 0.482795 0.258213
0.165133 0.501366 0.254032
0.583703 0.568811 0.355413
0.845090 0.605798 0.485664
0.968780 0.634638 0.580987
0.000000 0.719478 0.329808
0.262089 0.730922 0.356847
0.530083 0.753353 0.398657
0.856657 0.828458 0.546380
0.970306 0.801236 0.669581
0.281682 0.935332 0.489570
0.367254 0.935576 0.499275
0.563836 0.936248 0.536309
0.780362 0.936126 0.605921
0.963470 0.936400 0.726711
0.000000 0.000000 0.482368
0.141329 0.000000 0.477119
0.455390 0.000000 0.452766
0.655421 0.237125 0.454475
0.921019 0.438087 0.587091
0.000000 0.230411 0.504326
0.000000 0.152102 0.508476
0.469306 0.227420 0.476997
0.666957 0.336828 0.482612
0.924254 0.488594 0.601465
0.000000 0.488624 0.505058
0.000000 0.497566 0.515007
0.506493 0.525658 0.544396
0.752743 0.566949 0.588678
0.941619 0.647059 0.669123
0.000000 0.693385 0.508598
0.181430 0.700221 0.521721
0.486488 0.740719 0.556237
0.829801 0.821500 0.691798
0.953857 0.828458 0.772915
0.197971 0.926207 0.596551
0.297704 0.928985 0.598505
0.531273 0.932555 0.624567
0.765316 0.930114 0.681209
0.953033 0.936034 0.797421
0.000000 0.000000 0.710811
0.000000 0.000000 0.707729
0.408667 0.092622 0.694148
0.643763 0.222599 0.656947
0.894133 0.372015 0.698848
0.000000 0.201205 0.722683
0.000000 0.159945 0.722469
0.416052 0.257664 0.703822
0.646937 0.308598 0.662776
0.893614 0.406958 0.698085
0.000000 0.468482 0.731838
0.000000 0.467720 0.736019
0.401007 0.476692 0.740383
0.671717 0.478859 0.693660
0.906126 0.547936 0.717067
0.000000 0.710018 0.728511
0.000000 0.711696 0.729824
0.379217 0.725124 0.741604
0.743374 0.761654 0.774746
0.927428 0.800900 0.813016
0.000000 0.917540 0.743923
0.122255 0.919646 0.743618
0.419562 0.926909 0.744411
0.737789 0.927764 0.785885
0.942687 0.938079 0.877989
0.000000 0.058778 0.926238
0.000000 0.094148 0.924804
0.393896 0.259464 0.917876
0.690181 0.390112 0.904540
0.903258 0.402899 0.889708
0.000000 0.194278 0.928588
0.000000 0.221317 0.926787
0.385595 0.325872 0.919432
0.685817 0.421271 0.905760
0.902983 0.433722 0.890471
0.000000 0.439124 0.931395
0.000000 0.425299 0.931487
0.299382 0.462165 0.927367
0.668086 0.518944 0.913115
0.905150 0.538964 0.896391
0.000000 0.686824 0.931029
0.000000 0.683436 0.931243
0.000000 0.676478 0.931945
0.638209 0.699489 0.928679
0.909209 0.722866 0.909300
0.000000 0.921233 0.926787
0.000000 0.921599 0.927062
0.175448 0.923674 0.928618
0.629999 0.924987 0.929229
0.925200 0.932525 0.936584
