其他预设/【233】日式怀旧街道调色预设208款/1.3D LUT预设（视频调色-PR-AE-PS-FCPX-达芬奇用）/1.日式城市街拍预设/JA – Controlled Contrast 2.cube
# Created by Adobe Lightroom plugin Export LUT (1.17.0)
# www.johnrellis.com/lightroom/exportlut.htm
# Preset: JA – Controlled Contrast 2
# Color profile: /Library/Application Support/Adobe/Color/Profiles/Recommended/AdobeRGB1998.icc
LUT_3D_SIZE 5
DOMAIN_MIN 0.000000 0.000000 0.000000
DOMAIN_MAX 0.903226 0.903226 0.903226
0.096010 0.089631 0.085206
0.123995 0.083467 0.085023
0.451820 0.000000 0.053193
0.712367 0.000000 0.000000
0.996582 0.000000 0.000000
0.096223 0.108278 0.084871
0.125612 0.113741 0.082216
0.463081 0.163119 0.000000
0.726741 0.000000 0.000000
1.000000 0.000000 0.000000
0.142947 0.341527 0.007202
0.219791 0.330083 0.002350
0.440040 0.393378 0.000000
0.775662 0.429389 0.000000
1.000000 0.366125 0.000000
0.281041 0.569665 0.172396
0.326879 0.563714 0.166201
0.443427 0.547143 0.126925
0.661555 0.603754 0.000000
0.996277 0.666194 0.000000
0.502556 0.867185 0.415717
0.529808 0.863951 0.412360
0.607019 0.841703 0.390204
0.759945 0.868711 0.358709
0.979065 0.904540 0.195224
0.090944 0.091859 0.110811
0.127413 0.083803 0.115846
0.439551 0.000000 0.181521
0.690791 0.000000 0.131350
0.978058 0.000000 0.100649
0.092988 0.122103 0.113313
0.138094 0.129274 0.123079
0.455268 0.000000 0.106661
0.702876 0.000000 0.099794
0.982940 0.000000 0.112978
0.059571 0.374548 0.144900
0.212192 0.373877 0.148745
0.437354 0.393652 0.079316
0.744320 0.407599 0.141176
0.996277 0.370672 0.187442
0.308537 0.582666 0.280674
0.350896 0.577050 0.279149
0.449256 0.549950 0.246525
0.660517 0.607111 0.124483
0.992523 0.675105 0.265934
0.496071 0.871794 0.450446
0.523461 0.868284 0.446326
0.615930 0.862974 0.437781
0.763119 0.876524 0.406287
0.980529 0.908995 0.286442
0.000000 0.147829 0.427436
0.137942 0.083192 0.435828
0.442573 0.000000 0.440131
0.660945 0.000000 0.437964
0.965759 0.000000 0.456977
0.000000 0.274907 0.428687
0.146365 0.235935 0.436439
0.449683 0.184970 0.445167
0.669429 0.190677 0.444617
0.968536 0.000000 0.457160
0.121645 0.447547 0.422339
0.264073 0.447364 0.427466
0.460853 0.452033 0.447150
0.703822 0.426215 0.447761
0.977844 0.381781 0.453620
0.339422 0.616266 0.453315
0.380865 0.612238 0.454383
0.489509 0.606867 0.459297
0.666133 0.632807 0.423438
0.988403 0.694697 0.512352
0.469978 0.881895 0.552850
0.495338 0.884337 0.549248
0.594476 0.880308 0.543969
0.738643 0.869383 0.507378
0.968170 0.906035 0.429969
0.000000 0.319280 0.691615
0.172183 0.295323 0.698848
0.456031 0.284062 0.714839
0.681514 0.265049 0.704494
0.917144 0.328466 0.736965
0.233188 0.423926 0.688655
0.284001 0.403265 0.693507
0.466590 0.371405 0.708309
0.678676 0.342840 0.699702
0.913176 0.371008 0.730648
0.304540 0.554742 0.677760
0.361791 0.555657 0.680934
0.483986 0.531975 0.695766
0.677821 0.489570 0.694270
0.932616 0.469154 0.721431
0.374609 0.694331 0.676081
0.411231 0.692439 0.676051
0.519341 0.696590 0.686854
0.697139 0.701595 0.706294
0.961822 0.684718 0.714504
0.523461 0.905364 0.749844
0.547143 0.905913 0.749813
0.621759 0.909422 0.748165
0.734646 0.902708 0.721828
0.951293 0.912413 0.659236
0.352331 0.534112 0.931670
0.362219 0.507561 0.933715
0.514061 0.495399 0.937713
0.707729 0.463783 0.943572
0.908385 0.431159 0.938933
0.406409 0.589166 0.927672
0.412940 0.565484 0.929778
0.519310 0.532708 0.935088
0.706508 0.500572 0.940398
0.907378 0.467109 0.937102
0.420905 0.685603 0.922972
0.453559 0.679103 0.923980
0.562799 0.659480 0.928893
0.711238 0.618891 0.935821
0.911589 0.588708 0.937407
0.487526 0.813382 0.921202
0.513420 0.811124 0.921141
0.602716 0.806851 0.924590
0.755337 0.800504 0.934630
0.924498 0.780575 0.941772
0.585718 0.944915 0.923217
0.605829 0.943908 0.923339
0.681361 0.942626 0.926574
0.802243 0.938994 0.931670
0.931579 0.936065 0.939757
