其他预设/【233】日式怀旧街道调色预设208款/1.3D LUT预设（视频调色-PR-AE-PS-FCPX-达芬奇用）/1.日式城市街拍预设/JA – Gritty Contrast 3.cube
# Created by Adobe Lightroom plugin Export LUT (1.17.0)
# www.johnrellis.com/lightroom/exportlut.htm
# Preset: JA – Gritty Contrast 3
# Color profile: /Library/Application Support/Adobe/Color/Profiles/Recommended/AdobeRGB1998.icc
LUT_3D_SIZE 5
DOMAIN_MIN 0.000000 0.000000 0.000000
DOMAIN_MAX 0.903226 0.903226 0.903226
0.106477 0.112825 0.121218
0.132326 0.114412 0.126101
0.376867 0.078218 0.121645
0.626307 0.015747 0.098146
0.940185 0.164431 0.211124
0.106264 0.140352 0.123445
0.165042 0.155673 0.116548
0.539818 0.236851 0.061280
0.695644 0.202914 0.035096
0.980926 0.252934 0.186374
0.061036 0.465461 0.010437
0.290654 0.490059 0.000000
0.604486 0.496529 0.000000
0.943999 0.542290 0.000000
1.000000 0.466499 0.000000
0.208927 0.679225 0.188602
0.320714 0.694728 0.153750
0.606592 0.746670 0.000000
0.937469 0.768704 0.000000
1.000000 0.697719 0.000000
0.469886 0.973938 0.387762
0.523613 0.977111 0.378485
0.683497 0.982971 0.337957
0.887114 0.975494 0.081605
1.000000 0.894285 0.000000
0.109895 0.120394 0.148196
0.128756 0.119051 0.146517
0.340215 0.000000 0.153323
0.609277 0.000000 0.132509
0.949371 0.193179 0.236667
0.109041 0.138949 0.150088
0.144045 0.151614 0.161685
0.470222 0.156558 0.141787
0.668696 0.166781 0.132448
0.987518 0.274479 0.229953
0.000000 0.448219 0.241459
0.190982 0.483742 0.194705
0.597436 0.496223 0.096071
0.918334 0.513085 0.078706
1.000000 0.473548 0.160464
0.262608 0.663905 0.328618
0.351415 0.680720 0.325505
0.597223 0.740383 0.265812
0.929229 0.772457 0.146761
1.000000 0.708644 0.155001
0.461494 0.971435 0.434058
0.516808 0.975036 0.428260
0.678126 0.980194 0.401831
0.883909 0.974304 0.307073
1.000000 0.899962 0.235233
0.000000 0.136294 0.408087
0.112032 0.132418 0.414008
0.405310 0.000000 0.409186
0.583276 0.070832 0.364843
0.811978 0.194156 0.377386
0.000000 0.234134 0.407965
0.083864 0.221866 0.424414
0.432929 0.225956 0.426398
0.582238 0.196078 0.362554
0.811765 0.236271 0.366308
0.000000 0.413275 0.419013
0.173159 0.430732 0.430610
0.503746 0.483650 0.464027
0.674464 0.451118 0.430884
0.999084 0.474037 0.430365
0.275914 0.612818 0.458839
0.371954 0.625574 0.471992
0.552453 0.697322 0.487312
0.894652 0.777249 0.469764
1.000000 0.752163 0.497444
0.456947 0.954894 0.572137
0.493843 0.961456 0.562951
0.634730 0.976928 0.532341
0.862486 0.974731 0.500359
1.000000 0.913756 0.470710
0.088014 0.285100 0.577142
0.246006 0.318059 0.579126
0.447822 0.350622 0.585901
0.624140 0.345922 0.571832
0.913085 0.394293 0.646448
0.157137 0.345403 0.575708
0.280217 0.368872 0.579858
0.478096 0.414649 0.590265
0.636103 0.406622 0.578454
0.918914 0.411475 0.642725
0.249180 0.468910 0.578088
0.340917 0.483131 0.581811
0.515892 0.521782 0.602411
0.678737 0.521080 0.607782
0.927733 0.447333 0.606683
0.325841 0.605982 0.580957
0.390051 0.612879 0.585382
0.520989 0.636896 0.603265
0.761410 0.717800 0.671229
1.000000 0.663386 0.602594
0.444221 0.910491 0.724880
0.471107 0.919921 0.726314
0.583185 0.947082 0.724422
0.848508 0.964233 0.759426
1.000000 0.942931 0.775753
0.460517 0.561578 0.920897
0.472786 0.561242 0.921324
0.603784 0.572473 0.922728
0.763333 0.567468 0.925231
0.942565 0.525444 0.915404
0.462470 0.586877 0.922728
0.479561 0.585657 0.923430
0.611505 0.599878 0.925597
0.770230 0.599481 0.928222
0.945800 0.558495 0.919219
0.466102 0.658534 0.926696
0.477455 0.654200 0.927489
0.605219 0.663478 0.931029
0.793759 0.699184 0.932830
0.952728 0.664332 0.925689
0.478859 0.780819 0.930816
0.505425 0.780056 0.932036
0.603723 0.777890 0.934081
0.818479 0.819272 0.934508
0.960784 0.834623 0.930510
0.543359 0.927123 0.935607
0.571435 0.928374 0.936095
0.663722 0.931456 0.935393
0.836698 0.940764 0.935058
0.971405 0.958129 0.943359
