其他预设/【233】日式怀旧街道调色预设208款/1.3D LUT预设（视频调色-PR-AE-PS-FCPX-达芬奇用）/1.日式城市街拍预设/JA – Cool Normal 1.cube
# Created by Adobe Lightroom plugin Export LUT (1.17.0)
# www.johnrellis.com/lightroom/exportlut.htm
# Preset: JA – Cool Normal 1
# Color profile: /Library/Application Support/Adobe/Color/Profiles/Recommended/AdobeRGB1998.icc
LUT_3D_SIZE 8
DOMAIN_MIN 0.000000 0.000000 0.000000
DOMAIN_MAX 0.903226 0.903226 0.903226
0.092317 0.109651 0.111635
0.125216 0.106081 0.111940
0.243412 0.096651 0.109285
0.404913 0.060609 0.101198
0.565484 0.000000 0.089784
0.720089 0.000000 0.071534
0.857084 0.000000 0.049287
0.962890 0.000000 0.062013
0.087770 0.140932 0.110689
0.124605 0.144656 0.107362
0.235935 0.153384 0.104402
0.396857 0.150637 0.096803
0.557641 0.120119 0.083558
0.711727 0.000000 0.061799
0.850340 0.000000 0.022919
0.959594 0.000000 0.041138
0.062745 0.256229 0.102449
0.125185 0.256352 0.102113
0.251926 0.280858 0.080995
0.396124 0.285588 0.068116
0.545769 0.277043 0.047517
0.703609 0.258427 0.000000
0.848478 0.225132 0.000000
0.958587 0.179324 0.000000
0.000000 0.409491 0.068757
0.098604 0.408881 0.067933
0.244572 0.408362 0.064302
0.424445 0.452979 0.000000
0.583703 0.447761 0.000000
0.690120 0.410193 0.000000
0.836027 0.391974 0.000000
0.950835 0.361364 0.000000
0.000000 0.554772 0.000000
0.000000 0.554345 0.000000
0.233616 0.553765 0.000000
0.393256 0.566094 0.000000
0.586145 0.605402 0.000000
0.739284 0.591180 0.000000
0.837308 0.543603 0.000000
0.939269 0.509545 0.000000
0.000000 0.690120 0.000000
0.000000 0.692378 0.000000
0.212284 0.691341 0.000000
0.377905 0.689723 0.000000
0.542046 0.708675 0.000000
0.728939 0.738186 0.000000
0.873472 0.720302 0.000000
0.951904 0.658534 0.000000
0.000000 0.818936 0.000000
0.000000 0.819211 0.000000
0.186465 0.817380 0.000000
0.363653 0.815152 0.000000
0.517082 0.811307 0.000000
0.674434 0.829587 0.000000
0.839322 0.842252 0.000000
0.959442 0.812131 0.000000
0.000000 0.923827 0.024872
0.000000 0.923308 0.029786
0.178408 0.921874 0.054017
0.352728 0.919615 0.076967
0.498726 0.912963 0.085603
0.636988 0.911315 0.000000
0.771908 0.914336 0.000000
0.910704 0.910948 0.000000
0.086091 0.109651 0.147097
0.125124 0.105928 0.148440
0.245609 0.091218 0.161196
0.409979 0.000000 0.144930
0.568231 0.000000 0.138552
0.717647 0.000000 0.132021
0.852873 0.000000 0.129305
0.959777 0.000000 0.137057
0.084138 0.141421 0.145083
0.122225 0.143984 0.146548
0.244053 0.138369 0.145571
0.404334 0.116182 0.140536
0.562707 0.047608 0.133516
0.712276 0.000000 0.127230
0.847532 0.000000 0.123262
0.956481 0.000000 0.130922
0.029541 0.257969 0.154482
0.105104 0.263615 0.140475
0.250889 0.280735 0.127535
0.392767 0.274693 0.122835
0.549096 0.264683 0.115999
0.702144 0.242527 0.108431
0.842496 0.208194 0.104219
0.954589 0.163729 0.115267
0.000000 0.410498 0.143618
0.025086 0.412909 0.122438
0.238315 0.412634 0.122072
0.418311 0.447364 0.056428
0.572045 0.434302 0.000000
0.683497 0.400275 0.059327
0.829252 0.382025 0.035065
0.946838 0.354070 0.066255
0.000000 0.556970 0.117342
0.000000 0.556420 0.100893
0.223209 0.554711 0.100954
0.386358 0.561578 0.080751
0.579706 0.599481 0.000000
0.732662 0.583307 0.000000
0.831388 0.536492 0.000000
0.937041 0.504723 0.000000
0.000000 0.689265 0.079133
0.000000 0.689082 0.079530
0.200107 0.688228 0.080995
0.372381 0.687221 0.084596
0.537682 0.705501 0.000000
0.727169 0.736507 0.000000
0.871153 0.716823 0.000000
0.949554 0.654536 0.000000
0.000000 0.815885 0.075349
0.000000 0.814969 0.075532
0.174594 0.813840 0.079072
0.358709 0.812680 0.085908
0.514397 0.809720 0.096284
0.671595 0.827268 0.000000
0.836851 0.839994 0.000000
0.957153 0.809201 0.000000
0.000000 0.922301 0.130495
0.000000 0.922087 0.132113
0.172610 0.920775 0.137331
0.350439 0.918669 0.146181
0.499977 0.914427 0.157809
0.637629 0.911376 0.133577
0.771176 0.913817 0.000000
0.910002 0.910338 0.000000
0.045747 0.106630 0.276066
0.125063 0.100618 0.281834
0.255131 0.071473 0.289433
0.420752 0.000000 0.299992
0.579065 0.000000 0.307927
0.727993 0.000000 0.326329
0.862181 0.000000 0.286198
0.962097 0.000000 0.288273
0.000000 0.152346 0.273594
0.099611 0.140841 0.279515
0.253391 0.126741 0.287999
0.417670 0.097444 0.294133
0.575982 0.080171 0.305760
0.725765 0.000000 0.301244
0.857939 0.000000 0.281437
0.960021 0.000000 0.284062
0.000000 0.264134 0.271000
0.065980 0.267948 0.274357
0.243961 0.277745 0.280949
0.409064 0.267735 0.278660
0.570031 0.250248 0.275425
0.717983 0.223636 0.272282
0.850950 0.190768 0.270390
0.956054 0.161196 0.274144
0.000000 0.415351 0.283421
0.000000 0.419501 0.279545
0.223758 0.428992 0.269078
0.418738 0.448951 0.257420
0.562097 0.420233 0.251804
0.699458 0.397772 0.251286
0.838956 0.376440 0.250553
0.949523 0.350774 0.255436
0.000000 0.558434 0.278660
0.000000 0.561212 0.274144
0.201297 0.567102 0.259312
0.383642 0.564599 0.261662
0.582208 0.602258 0.227970
0.729580 0.575006 0.210086
0.825101 0.527886 0.214755
0.939239 0.500938 0.221866
0.000000 0.690852 0.272557
0.000000 0.692500 0.269169
0.175845 0.695094 0.251804
0.366918 0.692805 0.253605
0.533471 0.703273 0.242039
0.725093 0.734859 0.188418
0.866575 0.710231 0.162875
0.945983 0.648981 0.145480
0.000000 0.817594 0.272221
0.000000 0.817777 0.269535
0.152102 0.817563 0.248539
0.352300 0.815152 0.250614
0.512200 0.811490 0.253849
0.669795 0.826108 0.215671
0.837339 0.840604 0.114015
0.955810 0.806760 0.001434
0.000000 0.921691 0.286870
0.000000 0.921324 0.284031
0.162234 0.920623 0.265537
0.348730 0.918853 0.272038
0.499458 0.914397 0.277745
0.639338 0.909880 0.278050
0.771084 0.913146 0.184482
0.909850 0.910399 0.000000
0.000000 0.100649 0.425483
0.096773 0.092409 0.431281
0.260349 0.005829 0.447608
0.424262 0.000000 0.454505
0.591333 0.000000 0.450263
0.734096 0.000000 0.450019
0.858732 0.000000 0.457557
0.952911 0.161807 0.473762
0.000000 0.139590 0.426734
0.000000 0.135195 0.431189
0.248844 0.113313 0.446296
0.424231 0.029786 0.454292
0.591028 0.000000 0.448035
0.731685 0.000000 0.449378
0.856413 0.112886 0.458625
0.951202 0.216495 0.477180
0.000000 0.273564 0.414221
0.000000 0.270970 0.417304
0.215732 0.262669 0.436561
0.419867 0.261234 0.450721
0.585229 0.262791 0.445960
0.728603 0.276432 0.454719
0.855253 0.302312 0.471839
0.953704 0.259159 0.449683
0.000000 0.413489 0.418799
0.000000 0.416480 0.421332
0.209110 0.426429 0.429572
0.409613 0.441291 0.441505
0.569329 0.428473 0.437201
0.715328 0.411597 0.432136
0.846403 0.391882 0.426917
0.948638 0.375250 0.424201
0.000000 0.562860 0.426368
0.000000 0.564508 0.425452
0.190982 0.570855 0.424628
0.389014 0.580407 0.425879
0.580804 0.600793 0.421759
0.710933 0.562646 0.407202
0.829252 0.531731 0.398291
0.939910 0.507897 0.397253
0.000000 0.694270 0.417853
0.000000 0.697353 0.418311
0.176791 0.700557 0.415473
0.368414 0.705318 0.411017
0.535760 0.701869 0.412421
0.725734 0.735164 0.397803
0.858061 0.701869 0.376287
0.936278 0.644831 0.361028
0.000000 0.817899 0.410803
0.000000 0.818662 0.410010
0.164767 0.820279 0.407813
0.350469 0.821622 0.399115
0.515007 0.817502 0.401312
0.670771 0.824643 0.393469
0.837247 0.840269 0.364508
0.949401 0.801938 0.342718
0.000000 0.922240 0.410651
0.000000 0.922087 0.410651
0.196658 0.920958 0.411505
0.351476 0.919280 0.403174
0.502373 0.914519 0.406897
0.643183 0.908354 0.412757
0.772702 0.911192 0.375219
0.909087 0.909697 0.298344
0.000000 0.091035 0.561547
0.000000 0.080690 0.565789
0.242283 0.000000 0.578973
0.420783 0.000000 0.602441
0.591089 0.000000 0.605402
0.740627 0.000000 0.589258
0.863951 0.000000 0.574762
0.953674 0.090547 0.568841
0.000000 0.134066 0.561242
0.000000 0.129091 0.565637
0.228428 0.107179 0.578332
0.415381 0.000000 0.600732
0.590234 0.000000 0.604639
0.740139 0.000000 0.588342
0.862913 0.000000 0.575341
0.952453 0.173983 0.570764
0.000000 0.269108 0.551324
0.000000 0.265415 0.557031
0.188968 0.252628 0.570367
0.399756 0.252079 0.593530
0.586572 0.241093 0.601129
0.735805 0.239933 0.583886
0.857542 0.266148 0.577691
0.947356 0.315862 0.578210
0.000000 0.405646 0.542596
0.000000 0.406012 0.544396
0.175845 0.409064 0.551080
0.378912 0.417670 0.577478
0.581262 0.424781 0.595697
0.728481 0.427802 0.584314
0.849424 0.440772 0.587732
0.939239 0.467292 0.597375
0.000000 0.548241 0.548730
0.000000 0.550591 0.550805
0.170626 0.557977 0.557031
0.379431 0.571221 0.568444
0.569757 0.588830 0.584344
0.711452 0.573632 0.577356
0.837613 0.556695 0.570092
0.935607 0.541344 0.563775
0.000000 0.692103 0.555993
0.000000 0.693233 0.555993
0.143587 0.696193 0.555627
0.362676 0.701534 0.556603
0.540154 0.707729 0.559258
0.720668 0.728878 0.564080
0.835630 0.687800 0.541711
0.926757 0.649012 0.526482
0.000000 0.816739 0.544945
0.000000 0.816922 0.544335
0.131777 0.817868 0.542412
0.350408 0.819516 0.541711
0.517449 0.820401 0.540764
0.670497 0.816373 0.543236
0.835233 0.837247 0.539422
0.937835 0.794553 0.512200
0.000000 0.920073 0.532494
0.000000 0.919738 0.532128
0.168856 0.918547 0.531273
0.360266 0.917388 0.534356
0.510063 0.913512 0.535454
0.648554 0.907103 0.539818
0.776822 0.906615 0.531884
0.907500 0.907408 0.496803
0.000000 0.077852 0.691035
0.000000 0.065644 0.693751
0.219638 0.000000 0.702174
0.394171 0.000000 0.718532
0.574731 0.000000 0.738796
0.735500 0.000000 0.735866
0.863615 0.000000 0.709377
0.954070 0.000000 0.674434
0.000000 0.128695 0.688319
0.000000 0.123659 0.690700
0.204349 0.103182 0.699611
0.387762 0.014374 0.715846
0.571923 0.000000 0.736995
0.733913 0.000000 0.734249
0.862333 0.000000 0.708278
0.952758 0.066835 0.674983
0.000000 0.247288 0.683742
0.000000 0.247288 0.686244
0.162173 0.246677 0.695125
0.373571 0.244785 0.711330
0.566003 0.240696 0.733577
0.732509 0.226810 0.732876
0.860319 0.237308 0.707057
0.948974 0.279515 0.678828
0.000000 0.401099 0.662409
0.000000 0.400793 0.665827
0.146853 0.401770 0.679316
0.354650 0.400580 0.700893
0.556237 0.414008 0.725490
0.731777 0.414252 0.731624
0.857237 0.419715 0.707179
0.942138 0.444404 0.688685
0.000000 0.534569 0.664637
0.000000 0.535119 0.665766
0.120333 0.537163 0.669551
0.339086 0.541833 0.676478
0.532647 0.557336 0.703731
0.723751 0.573632 0.723323
0.846494 0.578058 0.707820
0.929534 0.595575 0.705562
0.000000 0.674006 0.670344
0.000000 0.675746 0.671931
0.110964 0.680201 0.675715
0.345678 0.687984 0.682551
0.531151 0.699550 0.693233
0.714473 0.720943 0.713649
0.830625 0.707118 0.706477
0.920195 0.694850 0.700282
0.000000 0.816434 0.679286
0.000000 0.817380 0.679835
0.076509 0.818997 0.680598
0.337438 0.820371 0.679866
0.519554 0.820523 0.680171
0.686458 0.820645 0.689052
0.833982 0.834409 0.698848
0.918822 0.792172 0.670802
0.000000 0.919463 0.659113
0.000000 0.919097 0.658534
0.132662 0.917876 0.656855
0.343786 0.915862 0.655634
0.515862 0.911162 0.660365
0.667659 0.904723 0.672816
0.787320 0.899107 0.677363
0.906004 0.904601 0.673426
0.000000 0.070985 0.808713
0.000000 0.060334 0.810788
0.192081 0.000000 0.815427
0.367468 0.000000 0.823972
0.533074 0.000000 0.835416
0.697444 0.000000 0.844144
0.847501 0.000000 0.841245
0.944671 0.000000 0.798276
0.000000 0.127687 0.805264
0.000000 0.123323 0.807218
0.176089 0.106142 0.812161
0.360754 0.060761 0.820584
0.528923 0.000000 0.832059
0.694484 0.000000 0.841245
0.844358 0.000000 0.838132
0.942138 0.000000 0.796017
0.000000 0.245823 0.802792
0.000000 0.245151 0.804105
0.131075 0.242985 0.808591
0.347539 0.239292 0.817136
0.522942 0.234073 0.828611
0.693538 0.231601 0.840177
0.844236 0.220859 0.837949
0.941009 0.249424 0.796719
0.000000 0.398138 0.791897
0.000000 0.396460 0.793393
0.000000 0.380316 0.799924
0.327733 0.383398 0.809751
0.514611 0.391272 0.822568
0.694057 0.407050 0.838712
0.843565 0.403357 0.837095
0.937163 0.417090 0.797147
0.000000 0.523064 0.777157
0.000000 0.521782 0.776883
0.000000 0.518181 0.777188
0.303349 0.519036 0.788907
0.491829 0.523919 0.807553
0.683070 0.550011 0.826841
0.837705 0.558129 0.830961
0.928985 0.570886 0.798154
0.000000 0.653986 0.780087
0.000000 0.653925 0.780392
0.000000 0.653773 0.781491
0.288914 0.653681 0.783871
0.470344 0.655299 0.787106
0.669642 0.681788 0.809842
0.834226 0.708431 0.827054
0.917662 0.716487 0.807797
0.000000 0.790555 0.785641
0.000000 0.791379 0.786343
0.000000 0.792905 0.787625
0.300450 0.795804 0.790127
0.490822 0.799680 0.793423
0.670161 0.807401 0.800687
0.827146 0.826780 0.819669
0.904448 0.816159 0.813260
0.000000 0.915435 0.782742
0.000000 0.915282 0.782589
0.000000 0.915709 0.782956
0.320867 0.914244 0.782528
0.505180 0.909819 0.782620
0.669551 0.902525 0.785702
0.805631 0.895964 0.799832
0.903777 0.901549 0.809781
0.000000 0.097963 0.901274
0.000000 0.092622 0.901946
0.162570 0.067414 0.903044
0.337377 0.000000 0.905791
0.489204 0.000000 0.909453
0.639033 0.000000 0.913725
0.783566 0.000000 0.915221
0.919860 0.000000 0.912779
0.000000 0.146151 0.899901
0.000000 0.143374 0.900603
0.150790 0.131777 0.901854
0.333257 0.108553 0.904479
0.487373 0.061860 0.908171
0.637873 0.000000 0.912566
0.782620 0.000000 0.914092
0.918761 0.000000 0.911681
0.000000 0.253544 0.897276
0.000000 0.252781 0.897795
0.114351 0.249119 0.898833
0.324407 0.245609 0.902342
0.483436 0.238285 0.905913
0.636011 0.232486 0.910094
0.781979 0.231571 0.912322
0.917205 0.225162 0.910124
0.000000 0.388891 0.892271
0.000000 0.378729 0.893339
0.000000 0.373907 0.894865
0.309880 0.375280 0.897917
0.478309 0.377813 0.901946
0.634791 0.384222 0.906584
0.782712 0.394812 0.910094
0.915221 0.392157 0.908080
0.000000 0.513878 0.882506
0.000000 0.513146 0.883391
0.000000 0.509606 0.885405
0.301915 0.507134 0.889647
0.463203 0.502312 0.894713
0.630365 0.517388 0.900023
0.785397 0.545220 0.905913
0.911620 0.550011 0.904356
0.000000 0.634028 0.879149
0.000000 0.632990 0.878874
0.000000 0.629664 0.878355
0.241825 0.623774 0.878080
0.440284 0.625391 0.881651
0.627070 0.645594 0.890623
0.789944 0.683955 0.899229
0.908171 0.701534 0.900786
0.000000 0.757961 0.879850
0.000000 0.757565 0.879698
0.000000 0.756313 0.879393
0.255497 0.755062 0.879332
0.440894 0.755306 0.879026
0.609766 0.759884 0.878447
0.787991 0.791714 0.887572
0.902953 0.817929 0.895415
0.000000 0.884276 0.881285
0.000000 0.884245 0.881132
0.000000 0.884276 0.881010
0.287907 0.884611 0.881010
0.473793 0.884794 0.880766
0.641260 0.884886 0.880369
0.790097 0.886259 0.881224
0.898894 0.896635 0.891295
