其他预设/【233】日式怀旧街道调色预设208款/1.3D LUT预设（视频调色-PR-AE-PS-FCPX-达芬奇用）/1.日式城市街拍预设/JA – Neon 1.cube
# Created by Adobe Lightroom plugin Export LUT (1.17.0)
# www.johnrellis.com/lightroom/exportlut.htm
# Preset: JA – Neon 1
# Color profile: /Library/Application Support/Adobe/Color/Profiles/Recommended/AdobeRGB1998.icc
LUT_3D_SIZE 8
DOMAIN_MIN 0.000000 0.000000 0.000000
DOMAIN_MAX 0.903226 0.903226 0.903226
0.091188 0.081727 0.082094
0.114687 0.078889 0.082429
0.192660 0.073091 0.080385
0.327672 0.060761 0.068055
0.497932 0.000000 0.009247
0.695613 0.000000 0.000000
0.869383 0.000000 0.000000
0.985504 0.000000 0.000000
0.087648 0.105440 0.080537
0.114626 0.104433 0.079042
0.197452 0.104341 0.076356
0.332738 0.108858 0.063416
0.502342 0.107820 0.000000
0.695033 0.103487 0.000000
0.865446 0.095460 0.000000
0.983368 0.086732 0.000000
0.074220 0.192294 0.066773
0.120668 0.193820 0.064851
0.209476 0.193423 0.058686
0.364019 0.218936 0.000000
0.549493 0.240177 0.000000
0.732937 0.254520 0.000000
0.890745 0.256321 0.000000
0.991974 0.243931 0.000000
0.000000 0.351141 0.000000
0.111238 0.353185 0.000000
0.255344 0.361975 0.000000
0.396979 0.375494 0.000000
0.602747 0.421881 0.000000
0.794095 0.427771 0.000000
0.914763 0.410437 0.000000
0.997101 0.382696 0.000000
0.000000 0.569268 0.000000
0.000000 0.571832 0.000000
0.273899 0.582422 0.000000
0.454536 0.596094 0.000000
0.607202 0.590967 0.000000
0.782864 0.602899 0.000000
0.923125 0.574609 0.000000
1.000000 0.521263 0.000000
0.000000 0.765866 0.000000
0.000000 0.772122 0.000000
0.240940 0.775784 0.000000
0.451606 0.781918 0.000000
0.621942 0.778073 0.000000
0.775998 0.769039 0.000000
0.916533 0.749020 0.000000
0.997620 0.679500 0.000000
0.000000 0.904967 0.000000
0.000000 0.905455 0.000000
0.151614 0.903746 0.000000
0.400641 0.901640 0.000000
0.582544 0.897459 0.000000
0.732937 0.886778 0.000000
0.875212 0.874174 0.000000
0.985809 0.836393 0.000000
0.000000 0.979980 0.000000
0.000000 0.979187 0.000000
0.000000 0.976806 0.000000
0.327276 0.972961 0.000000
0.510307 0.964141 0.000000
0.664851 0.955657 0.000000
0.800259 0.944579 0.000000
0.928557 0.930785 0.000000
0.090028 0.082307 0.105226
0.117098 0.076509 0.105318
0.192447 0.065522 0.103670
0.318456 0.000000 0.096468
0.484932 0.000000 0.076783
0.676478 0.000000 0.000000
0.853391 0.000000 0.000000
0.978454 0.000000 0.000000
0.088380 0.102876 0.104036
0.115084 0.103365 0.103792
0.193912 0.100496 0.101808
0.326848 0.089845 0.093629
0.493385 0.066346 0.070344
0.681544 0.000000 0.000000
0.852232 0.000000 0.000000
0.976257 0.000000 0.000000
0.075013 0.186862 0.108980
0.105653 0.190311 0.095399
0.207462 0.191135 0.090486
0.361517 0.206882 0.076204
0.536889 0.221347 0.000000
0.715908 0.230442 0.000000
0.873564 0.231144 0.000000
0.984405 0.222568 0.000000
0.000000 0.341833 0.091066
0.031434 0.346227 0.026703
0.240177 0.357427 0.000000
0.383917 0.362280 0.000000
0.580255 0.397620 0.000000
0.769192 0.404608 0.000000
0.899168 0.392889 0.000000
0.990661 0.370245 0.000000
0.000000 0.562402 0.000000
0.000000 0.564843 0.000000
0.246098 0.573510 0.000000
0.438697 0.583551 0.000000
0.593194 0.576074 0.000000
0.772854 0.589746 0.000000
0.917906 0.564141 0.000000
0.998627 0.514092 0.000000
0.000000 0.758480 0.000000
0.000000 0.760128 0.000000
0.201297 0.764736 0.000000
0.434455 0.772915 0.000000
0.613367 0.772366 0.000000
0.772702 0.765408 0.000000
0.914580 0.744228 0.000000
0.996094 0.674128 0.000000
0.000000 0.899870 0.000000
0.000000 0.898924 0.000000
0.070283 0.898253 0.000000
0.384192 0.897856 0.000000
0.574334 0.895079 0.000000
0.728542 0.884398 0.000000
0.872221 0.871031 0.000000
0.983581 0.832303 0.000000
0.000000 0.978912 0.000000
0.000000 0.978393 0.000000
0.000000 0.976196 0.000000
0.309575 0.972503 0.000000
0.502861 0.965972 0.000000
0.661341 0.956542 0.000000
0.798306 0.944396 0.000000
0.927886 0.930053 0.000000
0.102785 0.076143 0.196567
0.138643 0.069459 0.197055
0.217105 0.027802 0.195438
0.359594 0.000000 0.213230
0.504814 0.000000 0.187625
0.665095 0.000000 0.150546
0.847044 0.000000 0.129061
0.977905 0.000000 0.110231
0.082124 0.106294 0.194156
0.125704 0.102083 0.194339
0.214450 0.084657 0.193149
0.351995 0.000000 0.200168
0.497597 0.000000 0.168978
0.668452 0.000000 0.150301
0.847929 0.000000 0.125154
0.977447 0.000000 0.104677
0.067781 0.185977 0.188083
0.103792 0.186496 0.188357
0.206485 0.186618 0.187015
0.347662 0.178195 0.179263
0.524224 0.168154 0.167239
0.704677 0.155367 0.145510
0.866636 0.145510 0.115084
0.982116 0.146944 0.090486
0.000000 0.333196 0.214817
0.000000 0.338354 0.208194
0.187442 0.355413 0.170321
0.385260 0.362188 0.162936
0.592340 0.379644 0.155734
0.761654 0.373846 0.131655
0.896239 0.361059 0.092622
0.989960 0.341619 0.055451
0.000000 0.549310 0.228702
0.000000 0.554253 0.210941
0.121248 0.569848 0.113436
0.415839 0.587274 0.092317
0.596765 0.579217 0.018494
0.780636 0.579553 0.000000
0.921141 0.546136 0.000000
0.996979 0.500267 0.000000
0.000000 0.750179 0.194125
0.000000 0.753262 0.162844
0.000000 0.761501 0.000000
0.388952 0.768643 0.000000
0.598627 0.770077 0.000000
0.769162 0.761288 0.000000
0.914672 0.734279 0.000000
0.996704 0.663020 0.000000
0.000000 0.897887 0.092409
0.000000 0.898222 0.000000
0.000000 0.899504 0.000000
0.334142 0.897948 0.000000
0.553002 0.894591 0.000000
0.721706 0.884886 0.000000
0.873442 0.871885 0.000000
0.985901 0.827665 0.000000
0.000000 0.977905 0.000000
0.000000 0.977691 0.000000
0.000000 0.977050 0.000000
0.250645 0.973816 0.000000
0.478553 0.966918 0.000000
0.650813 0.957549 0.000000
0.793729 0.945190 0.000000
0.928435 0.930480 0.000000
0.131838 0.035157 0.361425
0.177432 0.000000 0.363500
0.283177 0.000000 0.364782
0.396307 0.000000 0.360327
0.588464 0.000000 0.399634
0.733333 0.000000 0.367468
0.863218 0.000000 0.312657
0.974304 0.000000 0.241245
0.090272 0.097139 0.362432
0.152834 0.086610 0.362982
0.272679 0.000000 0.363653
0.395544 0.000000 0.359747
0.589349 0.000000 0.395300
0.726802 0.000000 0.354833
0.857877 0.000000 0.298436
0.970428 0.000000 0.247288
0.000000 0.218540 0.353796
0.040345 0.211612 0.354314
0.228367 0.187564 0.355138
0.389685 0.159365 0.355291
0.571679 0.083619 0.361578
0.713954 0.000000 0.316228
0.851072 0.000000 0.268162
0.974304 0.000000 0.266850
0.000000 0.339818 0.342473
0.000000 0.340978 0.343389
0.187472 0.344060 0.345525
0.375708 0.347234 0.344793
0.551263 0.332189 0.327977
0.721736 0.317113 0.308324
0.873777 0.305241 0.288212
0.981628 0.301823 0.277134
0.000000 0.530083 0.380316
0.000000 0.533104 0.376684
0.072694 0.546410 0.363317
0.355871 0.570153 0.328771
0.593194 0.572839 0.324010
0.783108 0.562127 0.333165
0.909758 0.530327 0.323888
0.989136 0.491585 0.297032
0.000000 0.739620 0.393256
0.000000 0.745937 0.387121
0.000000 0.752255 0.356786
0.319493 0.764767 0.298985
0.586908 0.773312 0.303807
0.769986 0.760525 0.282506
0.913817 0.723232 0.281956
0.991882 0.657801 0.306249
0.000000 0.891386 0.360998
0.000000 0.892607 0.351202
0.000000 0.895232 0.318547
0.272862 0.898070 0.260655
0.533593 0.895018 0.263279
0.718685 0.886198 0.253239
0.874052 0.871397 0.216678
0.983337 0.818936 0.181643
0.000000 0.976501 0.299351
0.000000 0.976501 0.289708
0.000000 0.975372 0.260288
0.195315 0.973358 0.194949
0.460060 0.966522 0.182834
0.644129 0.957092 0.169802
0.790829 0.944915 0.087129
0.928862 0.930053 0.000000
0.175174 0.000000 0.573602
0.223392 0.000000 0.574823
0.339391 0.000000 0.575586
0.482216 0.000000 0.578119
0.621302 0.000000 0.577234
0.787228 0.000000 0.583185
0.905547 0.000000 0.541375
0.985840 0.000000 0.478584
0.129183 0.043153 0.573205
0.193179 0.000000 0.575280
0.325231 0.000000 0.575860
0.475044 0.000000 0.576745
0.620111 0.000000 0.576287
0.787015 0.000000 0.580560
0.903563 0.000000 0.535821
0.984710 0.000000 0.473823
0.000000 0.211185 0.568963
0.000000 0.198489 0.569604
0.263584 0.182803 0.569116
0.451820 0.131868 0.575433
0.612970 0.000000 0.570123
0.781521 0.000000 0.569207
0.893370 0.000000 0.514580
0.979278 0.000000 0.454170
0.000000 0.390173 0.559228
0.000000 0.386664 0.559960
0.177096 0.375738 0.562799
0.404761 0.357000 0.564385
0.600458 0.333928 0.560357
0.762570 0.315801 0.540490
0.874174 0.248325 0.475135
0.970977 0.184726 0.415137
0.000000 0.536248 0.538872
0.000000 0.536980 0.539330
0.070161 0.538231 0.539422
0.355596 0.540978 0.539422
0.569696 0.543267 0.534997
0.730526 0.517357 0.506065
0.869932 0.493843 0.478187
0.970306 0.479835 0.459846
0.000000 0.706905 0.546136
0.000000 0.709346 0.544640
0.000000 0.715785 0.537316
0.288731 0.727626 0.526024
0.546288 0.742580 0.515862
0.759182 0.745968 0.521294
0.899290 0.719295 0.540764
0.973388 0.676478 0.530938
0.000000 0.878447 0.538903
0.000000 0.878782 0.534356
0.000000 0.880644 0.520134
0.263706 0.882811 0.503807
0.529137 0.883024 0.503258
0.727016 0.880003 0.520317
0.871519 0.866209 0.497353
0.970062 0.813626 0.483162
0.000000 0.970764 0.484718
0.000000 0.970489 0.480079
0.000000 0.969329 0.466712
0.241978 0.966522 0.461799
0.495003 0.959075 0.472663
0.663630 0.950683 0.477546
0.801511 0.940154 0.463996
0.927855 0.926909 0.419867
0.212741 0.000000 0.762203
0.256565 0.000000 0.762387
0.368383 0.000000 0.761654
0.510002 0.000000 0.765438
0.664546 0.000000 0.769131
0.803098 0.000000 0.761929
0.916106 0.000000 0.722042
0.990326 0.000000 0.668086
0.178775 0.000000 0.758297
0.229984 0.000000 0.758328
0.352819 0.000000 0.758633
0.501030 0.000000 0.763058
0.659541 0.000000 0.766018
0.800168 0.000000 0.759213
0.914672 0.000000 0.720211
0.988891 0.000000 0.666163
0.000000 0.211093 0.760006
0.101289 0.205905 0.760311
0.303349 0.185550 0.761715
0.476600 0.138918 0.763699
0.648096 0.000000 0.764675
0.797116 0.000000 0.757137
0.912444 0.000000 0.717800
0.984619 0.050324 0.662226
0.000000 0.401648 0.757931
0.000000 0.395544 0.757473
0.202731 0.378241 0.758145
0.444099 0.378729 0.760830
0.631250 0.360327 0.762325
0.792813 0.338109 0.755398
0.907195 0.368627 0.719661
0.976165 0.354894 0.658045
0.000000 0.561212 0.740505
0.000000 0.560174 0.740902
0.130617 0.558007 0.742000
0.403418 0.562615 0.743740
0.603906 0.567315 0.742855
0.772000 0.552361 0.738521
0.887236 0.553429 0.705989
0.961028 0.504448 0.639368
0.000000 0.712001 0.717189
0.000000 0.713497 0.718379
0.000000 0.714687 0.718532
0.327398 0.716762 0.718135
0.553613 0.719722 0.715938
0.742947 0.725490 0.714443
0.859739 0.699275 0.685023
0.947936 0.680629 0.663508
0.000000 0.867887 0.706233
0.000000 0.868467 0.705226
0.000000 0.867582 0.698970
0.211002 0.867948 0.690181
0.514427 0.866361 0.687984
0.735195 0.864622 0.710384
0.868589 0.860594 0.713924
0.946807 0.831693 0.721645
0.000000 0.965148 0.651698
0.000000 0.964782 0.649195
0.000000 0.963409 0.641474
0.199924 0.959899 0.634791
0.511681 0.950103 0.650019
0.717403 0.937621 0.694392
0.834501 0.931060 0.708797
0.926116 0.922301 0.685786
0.243198 0.000000 0.878721
0.277958 0.000000 0.878721
0.373877 0.000000 0.879362
0.498878 0.000000 0.880156
0.637049 0.000000 0.880217
0.777523 0.000000 0.879179
0.909819 0.000000 0.875120
0.979492 0.000000 0.807492
0.226108 0.000000 0.879942
0.263920 0.000000 0.879850
0.365026 0.000000 0.880186
0.493751 0.000000 0.880552
0.634546 0.000000 0.880766
0.777340 0.000000 0.880095
0.910338 0.000000 0.876005
0.979278 0.000000 0.808469
0.165957 0.227481 0.878721
0.218204 0.224216 0.878782
0.338750 0.212222 0.879057
0.478553 0.187869 0.879118
0.625696 0.143404 0.879271
0.773800 0.019196 0.878599
0.907073 0.000000 0.873808
0.975311 0.181704 0.808408
0.000000 0.387518 0.875731
0.118624 0.387457 0.875669
0.332372 0.408331 0.874968
0.473701 0.401770 0.874723
0.620447 0.392706 0.874601
0.769833 0.379126 0.874113
0.899870 0.371283 0.869017
0.967254 0.420142 0.811337
0.000000 0.550683 0.869535
0.068940 0.552789 0.869718
0.307561 0.563653 0.869718
0.484993 0.580835 0.868681
0.636194 0.596185 0.867430
0.767880 0.590875 0.867277
0.890074 0.584375 0.863340
0.954681 0.612421 0.821103
0.000000 0.691188 0.860014
0.000000 0.691737 0.860014
0.218418 0.694942 0.859831
0.442542 0.705715 0.858976
0.629755 0.729397 0.857694
0.771328 0.750668 0.855955
0.875700 0.744625 0.853483
0.939300 0.749081 0.828092
0.000000 0.835752 0.845853
0.000000 0.835752 0.845670
0.000000 0.836454 0.845274
0.342870 0.837980 0.844175
0.564019 0.840940 0.842771
0.739315 0.844877 0.840879
0.858152 0.848386 0.839292
0.924193 0.830594 0.819150
0.000000 0.960632 0.813626
0.000000 0.960143 0.812497
0.000000 0.957641 0.807919
0.165469 0.952697 0.801633
0.484810 0.943145 0.798398
0.710628 0.929839 0.810178
0.853819 0.921721 0.837034
0.923980 0.918883 0.838560
0.288426 0.021027 0.945586
0.312749 0.000000 0.945464
0.385718 0.000000 0.945373
0.487800 0.000000 0.944945
0.604517 0.000000 0.944305
0.729366 0.000000 0.943511
0.850767 0.000000 0.941711
0.967712 0.000000 0.938933
0.287846 0.140658 0.945464
0.312169 0.136629 0.945342
0.385351 0.121736 0.945159
0.487831 0.086854 0.944762
0.604608 0.000000 0.944121
0.729305 0.000000 0.943267
0.850828 0.000000 0.941527
0.967071 0.000000 0.938720
0.301061 0.291661 0.943816
0.324132 0.290501 0.943725
0.395056 0.287419 0.943603
0.493904 0.279057 0.942901
0.608484 0.268528 0.942229
0.730800 0.254093 0.941375
0.850919 0.246159 0.939635
0.963745 0.259037 0.936706
0.376623 0.469337 0.939086
0.393378 0.469001 0.938964
0.448707 0.468757 0.938750
0.531640 0.467353 0.938201
0.631586 0.464912 0.937469
0.741360 0.461402 0.936614
0.853117 0.457862 0.935180
0.956878 0.463050 0.932464
0.368231 0.577752 0.935485
0.396826 0.582818 0.935027
0.482765 0.602197 0.933684
0.605768 0.643671 0.930724
0.679530 0.642603 0.930327
0.765713 0.641047 0.929747
0.860197 0.638331 0.928954
0.947021 0.640803 0.926452
0.326329 0.677821 0.931365
0.362402 0.682155 0.931060
0.463935 0.697963 0.929717
0.593347 0.727077 0.927184
0.715114 0.762051 0.924071
0.800381 0.780606 0.922118
0.868498 0.778470 0.921630
0.936584 0.777066 0.920012
0.206790 0.782956 0.926238
0.259892 0.784726 0.925994
0.387304 0.791165 0.925109
0.537499 0.804349 0.923186
0.685542 0.826139 0.920378
0.805203 0.852506 0.917662
0.878264 0.867948 0.916747
0.929473 0.865537 0.916197
0.000000 0.905486 0.919280
0.000000 0.905699 0.919188
0.232334 0.906340 0.918517
0.442237 0.907530 0.917021
0.621424 0.909575 0.914916
0.765652 0.912169 0.912718
0.861723 0.914611 0.911284
0.922210 0.916869 0.910857
