其他预设/【233】日式怀旧街道调色预设208款/1.3D LUT预设（视频调色-PR-AE-PS-FCPX-达芬奇用）/1.日式城市街拍预设/JA – Night Candy 1.cube
# Created by Adobe Lightroom plugin Export LUT (1.17.0)
# www.johnrellis.com/lightroom/exportlut.htm
# Preset: JA – Night Candy 1
# Color profile: /Library/Application Support/Adobe/Color/Profiles/Recommended/AdobeRGB1998.icc
LUT_3D_SIZE 8
DOMAIN_MIN 0.000000 0.000000 0.000000
DOMAIN_MAX 0.903226 0.903226 0.903226
0.079255 0.087068 0.087587
0.128969 0.076783 0.087343
0.374975 0.000000 0.076356
0.558038 0.000000 0.038941
0.672450 0.000000 0.000000
0.786007 0.000000 0.000000
0.957061 0.000000 0.000000
1.000000 0.000000 0.000000
0.072938 0.122866 0.085206
0.107973 0.114687 0.091157
0.373480 0.073640 0.062440
0.559991 0.000000 0.000000
0.672328 0.000000 0.000000
0.779721 0.000000 0.000000
0.944305 0.000000 0.000000
1.000000 0.000000 0.000000
0.000000 0.348913 0.013611
0.000000 0.348302 0.000000
0.310521 0.310826 0.083833
0.553155 0.305333 0.160037
0.695796 0.177981 0.000000
0.808988 0.000000 0.002228
0.977295 0.000000 0.043763
1.000000 0.000000 0.117067
0.000000 0.534295 0.146975
0.000000 0.535393 0.052979
0.265812 0.528283 0.000000
0.521691 0.515526 0.248600
0.662684 0.524926 0.480232
0.824613 0.448127 0.377386
0.992523 0.316136 0.242557
1.000000 0.192508 0.231052
0.000000 0.652522 0.206912
0.000000 0.653651 0.158022
0.017792 0.653315 0.000000
0.429328 0.645258 0.000000
0.628351 0.624323 0.429389
0.765774 0.645563 0.600336
0.939879 0.639094 0.603815
1.000000 0.569177 0.551293
0.000000 0.752255 0.243778
0.000000 0.759274 0.215671
0.000000 0.760708 0.127840
0.332830 0.754513 0.157565
0.577264 0.755764 0.248692
0.747250 0.741146 0.567163
0.913054 0.776913 0.696468
0.986572 0.768612 0.764340
0.000000 0.912749 0.293004
0.000000 0.915190 0.276555
0.000000 0.913725 0.216617
0.232425 0.909331 0.236942
0.515160 0.900053 0.264042
0.746273 0.904448 0.397436
0.901518 0.883940 0.664332
0.967987 0.860899 0.798032
0.000000 1.000000 0.303410
0.000000 1.000000 0.303593
0.000000 1.000000 0.283421
0.117098 1.000000 0.357763
0.448096 1.000000 0.363653
0.658930 0.988830 0.399481
0.844236 0.968627 0.579248
0.958831 0.945556 0.790341
0.070069 0.088563 0.118196
0.122408 0.076844 0.123934
0.358526 0.000000 0.166720
0.545342 0.000000 0.149325
0.659663 0.000000 0.109865
0.760891 0.000000 0.085023
0.923857 0.000000 0.077913
1.000000 0.000000 0.097261
0.060304 0.124056 0.121675
0.111635 0.122774 0.124147
0.353979 0.000000 0.111849
0.545006 0.000000 0.096620
0.661311 0.000000 0.088472
0.761807 0.000000 0.088319
0.916594 0.000000 0.082551
1.000000 0.000000 0.100984
0.000000 0.340185 0.182681
0.000000 0.346593 0.146120
0.315129 0.319921 0.172580
0.546441 0.301091 0.214725
0.682460 0.165438 0.133669
0.783932 0.000000 0.131044
0.941711 0.000000 0.130953
1.000000 0.000000 0.158846
0.000000 0.525994 0.231327
0.000000 0.529412 0.185794
0.242283 0.527947 0.066926
0.506554 0.505455 0.303777
0.641840 0.512261 0.483345
0.790707 0.428565 0.376165
0.965087 0.295354 0.248539
1.000000 0.190249 0.259464
0.000000 0.649653 0.256870
0.000000 0.650080 0.222538
0.000000 0.649256 0.127443
0.418952 0.636194 0.160586
0.615808 0.615229 0.449897
0.748074 0.636652 0.606928
0.928222 0.628962 0.600549
1.000000 0.558679 0.545037
0.000000 0.744503 0.278294
0.000000 0.745785 0.255039
0.000000 0.747311 0.200992
0.327977 0.743404 0.224613
0.568719 0.745449 0.300145
0.740566 0.736873 0.582238
0.907866 0.773983 0.702663
0.986053 0.763729 0.760525
0.000000 0.897673 0.323583
0.000000 0.896330 0.304417
0.000000 0.897276 0.256687
0.226749 0.897337 0.280003
0.509453 0.891966 0.306310
0.738430 0.897459 0.418219
0.892638 0.876493 0.666957
0.966003 0.857206 0.794858
0.000000 1.000000 0.330541
0.000000 1.000000 0.330846
0.000000 1.000000 0.310124
0.104463 1.000000 0.383062
0.453834 1.000000 0.405249
0.659510 0.989044 0.431708
0.842527 0.968383 0.587762
0.957855 0.944945 0.792508
0.000000 0.110597 0.340337
0.091402 0.035645 0.352544
0.366583 0.000000 0.378058
0.559747 0.000000 0.356268
0.668940 0.000000 0.306920
0.772305 0.000000 0.283177
0.934020 0.000000 0.272557
1.000000 0.000000 0.262577
0.000000 0.197543 0.340856
0.000000 0.133577 0.355444
0.358343 0.000000 0.372992
0.552758 0.000000 0.334874
0.664820 0.000000 0.291844
0.763638 0.000000 0.269322
0.921782 0.000000 0.257755
1.000000 0.000000 0.253849
0.000000 0.354253 0.356298
0.000000 0.359594 0.363714
0.318029 0.346624 0.375036
0.532464 0.248356 0.319646
0.657527 0.156100 0.295506
0.759701 0.000000 0.279759
0.922423 0.000000 0.272190
1.000000 0.000000 0.283665
0.000000 0.531029 0.383398
0.000000 0.534844 0.370550
0.198245 0.538659 0.350683
0.504204 0.519738 0.463752
0.643366 0.515862 0.530632
0.788388 0.426917 0.441840
0.949523 0.331792 0.392279
1.000000 0.237797 0.381323
0.000000 0.649317 0.379400
0.000000 0.650813 0.365362
0.000000 0.650294 0.351476
0.421180 0.640101 0.380957
0.613031 0.624170 0.554101
0.752529 0.652155 0.663111
0.930785 0.622827 0.622522
1.000000 0.544610 0.561761
0.000000 0.744228 0.379370
0.000000 0.745480 0.368353
0.000000 0.745205 0.358404
0.340124 0.740536 0.392523
0.560967 0.737118 0.432929
0.734218 0.736843 0.632197
0.905608 0.776547 0.734524
0.986633 0.761624 0.771664
0.000000 0.900938 0.419135
0.000000 0.900420 0.406287
0.000000 0.898466 0.383551
0.230869 0.895445 0.411933
0.505943 0.889403 0.429175
0.731930 0.895811 0.505119
0.895415 0.882414 0.702449
0.962615 0.866178 0.832151
0.000000 1.000000 0.416327
0.000000 1.000000 0.413825
0.000000 1.000000 0.396185
0.000000 1.000000 0.450141
0.449836 1.000000 0.488594
0.655756 0.988434 0.510185
0.838010 0.968811 0.622736
0.954742 0.945464 0.822934
0.000000 0.125154 0.561059
0.000000 0.060365 0.572107
0.307988 0.000000 0.598718
0.549920 0.000000 0.586511
0.678279 0.000000 0.511437
0.783322 0.000000 0.463569
0.935637 0.000000 0.453986
1.000000 0.000000 0.428717
0.000000 0.225589 0.563989
0.000000 0.155795 0.574762
0.279118 0.000000 0.598901
0.547356 0.000000 0.586938
0.675288 0.000000 0.508141
0.776730 0.000000 0.459907
0.928374 0.000000 0.448554
1.000000 0.000000 0.424414
0.000000 0.379919 0.561242
0.000000 0.367590 0.565911
0.182864 0.323644 0.583886
0.529076 0.273228 0.590295
0.658808 0.214481 0.514031
0.764675 0.116732 0.472572
0.930327 0.000000 0.458106
1.000000 0.000000 0.432136
0.000000 0.541802 0.570794
0.000000 0.544274 0.574945
0.000000 0.543481 0.586542
0.489906 0.527733 0.600793
0.620813 0.460456 0.548455
0.732723 0.395209 0.507561
0.905333 0.298741 0.478340
1.000000 0.189792 0.471015
0.000000 0.652216 0.537682
0.000000 0.652064 0.533074
0.000000 0.649500 0.533928
0.420935 0.641138 0.572656
0.606409 0.631800 0.653254
0.757321 0.648737 0.697230
0.933959 0.589929 0.639582
1.000000 0.513695 0.593439
0.000000 0.748806 0.516747
0.000000 0.753506 0.515923
0.000000 0.750546 0.517967
0.342962 0.746120 0.554162
0.556970 0.741512 0.580316
0.739040 0.749142 0.700404
0.908659 0.788876 0.794491
0.989349 0.749111 0.780697
0.000000 0.901061 0.545586
0.000000 0.902617 0.539788
0.000000 0.904326 0.532708
0.172641 0.903288 0.549523
0.493874 0.898863 0.568353
0.718410 0.897337 0.604334
0.896300 0.888731 0.756313
0.956085 0.877775 0.877989
0.000000 1.000000 0.543877
0.000000 1.000000 0.541985
0.000000 1.000000 0.521691
0.000000 1.000000 0.536889
0.424598 1.000000 0.586633
0.640528 0.988678 0.600885
0.827420 0.969909 0.667353
0.949859 0.945892 0.866026
0.000000 0.149538 0.701106
0.000000 0.092714 0.706691
0.136263 0.000000 0.720912
0.471107 0.000000 0.742672
0.666835 0.000000 0.717433
0.805905 0.000000 0.672389
0.949676 0.000000 0.648127
1.000000 0.000000 0.603784
0.000000 0.230838 0.699672
0.000000 0.183108 0.706661
0.062013 0.115328 0.720912
0.464973 0.000000 0.743221
0.663294 0.000000 0.717708
0.802731 0.000000 0.673335
0.946990 0.000000 0.648188
1.000000 0.000000 0.603449
0.000000 0.371618 0.692042
0.000000 0.361791 0.694453
0.000000 0.330571 0.709651
0.444343 0.321813 0.737118
0.647639 0.268803 0.718105
0.780667 0.190616 0.671015
0.931975 0.000000 0.645869
1.000000 0.000000 0.601251
0.000000 0.512230 0.694667
0.000000 0.508721 0.696407
0.000000 0.503288 0.702358
0.420020 0.506096 0.717006
0.623346 0.484840 0.723323
0.751614 0.420783 0.677546
0.912688 0.303258 0.643244
1.000000 0.049195 0.595636
0.000000 0.653040 0.697078
0.000000 0.653223 0.698695
0.000000 0.649348 0.702815
0.378241 0.638880 0.710628
0.588983 0.628107 0.721767
0.708766 0.564202 0.673518
0.884245 0.486061 0.633417
1.000000 0.417365 0.613001
0.000000 0.739651 0.654231
0.000000 0.739559 0.653590
0.000000 0.736355 0.655634
0.285130 0.731472 0.672328
0.518578 0.731899 0.689845
0.725582 0.745785 0.761654
0.908659 0.778073 0.826505
0.998871 0.697841 0.764218
0.000000 0.895628 0.680537
0.000000 0.895079 0.677333
0.000000 0.894285 0.674067
0.000000 0.893919 0.681209
0.425544 0.895293 0.679774
0.672053 0.890654 0.680995
0.889097 0.889616 0.819364
0.948791 0.890440 0.918944
0.000000 1.000000 0.677729
0.000000 1.000000 0.675380
0.000000 1.000000 0.661463
0.000000 1.000000 0.657862
0.313268 1.000000 0.665522
0.597223 0.990570 0.681544
0.806821 0.970520 0.722774
0.944549 0.945617 0.905699
0.000000 0.180697 0.814176
0.000000 0.131197 0.818601
0.000000 0.089967 0.829740
0.380194 0.000000 0.857389
0.635309 0.000000 0.875639
0.808377 0.000000 0.853391
0.958312 0.000000 0.828885
1.000000 0.000000 0.766201
0.000000 0.248661 0.807401
0.000000 0.216434 0.811643
0.000000 0.171481 0.824460
0.371771 0.144686 0.851804
0.629023 0.000000 0.871550
0.801572 0.000000 0.850156
0.954528 0.000000 0.828153
1.000000 0.000000 0.766659
0.000000 0.374670 0.801511
0.000000 0.367987 0.805386
0.000000 0.352667 0.820462
0.365820 0.343236 0.846555
0.625605 0.333410 0.874083
0.792538 0.255100 0.851987
0.948608 0.060639 0.831693
1.000000 0.000000 0.770230
0.000000 0.500572 0.802670
0.000000 0.497658 0.802853
0.000000 0.497108 0.806271
0.362280 0.505852 0.831174
0.609430 0.505943 0.873899
0.784787 0.453834 0.859953
0.942229 0.365087 0.836942
1.000000 0.243687 0.773281
0.000000 0.625727 0.799924
0.000000 0.624750 0.801083
0.000000 0.622705 0.804471
0.307042 0.622126 0.811154
0.529686 0.611841 0.833310
0.754452 0.582452 0.851225
0.917296 0.498085 0.814817
1.000000 0.406104 0.757046
0.000000 0.752438 0.799405
0.000000 0.753689 0.801694
0.000000 0.751400 0.804868
0.216983 0.745693 0.810330
0.478157 0.740963 0.819455
0.709133 0.743832 0.842832
0.882414 0.635920 0.772274
1.000000 0.570123 0.739101
0.000000 0.900389 0.814847
0.000000 0.901884 0.815702
0.000000 0.900481 0.816068
0.000000 0.897795 0.819059
0.357214 0.896818 0.818875
0.599420 0.899443 0.800809
0.885374 0.895628 0.899290
0.946777 0.900725 0.945617
0.000000 1.000000 0.805844
0.000000 1.000000 0.804044
0.000000 1.000000 0.796567
0.000000 1.000000 0.791836
0.150027 1.000000 0.787381
0.509148 0.995453 0.771481
0.778347 0.971313 0.805631
0.940002 0.945922 0.945922
0.000000 0.229465 0.946075
0.000000 0.180911 0.949248
0.000000 0.165133 0.956664
0.310338 0.130617 0.968170
0.599420 0.013733 0.979889
0.808255 0.000000 0.979339
0.952087 0.000000 0.954009
1.000000 0.000000 0.892912
0.000000 0.295476 0.944457
0.000000 0.267430 0.947387
0.000000 0.224521 0.955322
0.305364 0.207950 0.966217
0.596460 0.181399 0.978546
0.806577 0.000000 0.979034
0.950500 0.000000 0.954162
1.000000 0.000000 0.893706
0.000000 0.403845 0.938293
0.000000 0.399176 0.940642
0.000000 0.379919 0.948852
0.293278 0.358038 0.961212
0.586328 0.351293 0.974578
0.800778 0.308232 0.978241
0.945647 0.195193 0.954925
1.000000 0.000000 0.896178
0.000000 0.523735 0.931548
0.000000 0.520195 0.931518
0.000000 0.514855 0.935424
0.265263 0.504967 0.949920
0.554131 0.492317 0.967193
0.787869 0.471595 0.977630
0.938323 0.394446 0.956023
1.000000 0.323552 0.898528
0.000000 0.650813 0.931395
0.000000 0.648676 0.931884
0.000000 0.643030 0.933257
0.102571 0.632441 0.935698
0.461006 0.603754 0.952544
0.747616 0.593469 0.974884
0.929656 0.528008 0.957000
1.000000 0.470649 0.897581
0.000000 0.784482 0.931975
0.000000 0.783200 0.932311
0.000000 0.779080 0.933471
0.000000 0.771054 0.935424
0.375647 0.753170 0.939300
0.630426 0.713924 0.955261
0.912840 0.690822 0.957488
0.991333 0.601862 0.890898
0.000000 0.921294 0.932341
0.000000 0.921050 0.932616
0.000000 0.919127 0.933440
0.000000 0.914397 0.934844
0.267826 0.908019 0.937133
0.541436 0.902037 0.941558
0.872282 0.890745 0.952575
0.966613 0.793912 0.904662
0.000000 1.000000 0.909728
0.000000 1.000000 0.909026
0.000000 1.000000 0.907012
0.000000 1.000000 0.905272
0.000000 1.000000 0.903258
0.437293 0.997253 0.894316
0.779660 0.968017 0.917967
0.938140 0.946777 0.971283
0.000000 0.302251 1.000000
0.000000 0.272923 1.000000
0.000000 0.256748 1.000000
0.253208 0.247562 1.000000
0.531029 0.234958 1.000000
0.737301 0.219394 1.000000
0.905089 0.000000 1.000000
1.000000 0.000000 0.982300
0.000000 0.358007 1.000000
0.000000 0.335180 1.000000
0.000000 0.298466 1.000000
0.256382 0.291936 1.000000
0.531395 0.282383 1.000000
0.736324 0.270695 1.000000
0.903349 0.150790 1.000000
1.000000 0.000000 0.982361
0.000000 0.434943 1.000000
0.000000 0.435950 1.000000
0.000000 0.425360 1.000000
0.258244 0.399756 1.000000
0.529351 0.394049 1.000000
0.731594 0.386450 1.000000
0.897032 0.319860 1.000000
0.999023 0.219303 0.982483
0.000000 0.531670 1.000000
0.000000 0.529229 1.000000
0.000000 0.529686 1.000000
0.251987 0.526604 1.000000
0.508202 0.507469 1.000000
0.715572 0.499947 1.000000
0.884947 0.457221 1.000000
0.993225 0.383185 0.982696
0.000000 0.650813 1.000000
0.000000 0.647395 1.000000
0.000000 0.638270 1.000000
0.000000 0.623407 1.000000
0.439277 0.610529 1.000000
0.673640 0.596155 1.000000
0.865080 0.578973 1.000000
0.985962 0.511894 0.982849
0.000000 0.776333 1.000000
0.000000 0.773739 1.000000
0.000000 0.765988 1.000000
0.000000 0.753872 1.000000
0.286076 0.731991 1.000000
0.600885 0.707362 1.000000
0.848447 0.741115 0.996002
0.972717 0.674708 0.982788
0.000000 0.903471 0.994659
0.000000 0.901946 0.994720
0.000000 0.896544 0.994781
0.000000 0.887266 0.994446
0.027344 0.872587 0.993805
0.481239 0.845701 0.993561
0.838560 0.872953 0.987030
0.948608 0.882475 0.981689
0.000000 1.000000 0.986694
0.000000 1.000000 0.986694
0.000000 1.000000 0.986664
0.000000 1.000000 0.986267
0.000000 1.000000 0.985412
0.382025 0.998566 0.984375
0.755947 0.969665 0.982025
0.938506 0.947875 0.980774
