其他预设/【233】日式怀旧街道调色预设208款/1.3D LUT预设（视频调色-PR-AE-PS-FCPX-达芬奇用）/1.日式城市街拍预设/JA – Controlled Contrast 3.cube
# Created by Adobe Lightroom plugin Export LUT (1.17.0)
# www.johnrellis.com/lightroom/exportlut.htm
# Preset: JA – Controlled Contrast 3
# Color profile: /Library/Application Support/Adobe/Color/Profiles/Recommended/AdobeRGB1998.icc
LUT_3D_SIZE 32
0.064149 0.059663 0.054932
0.064149 0.059663 0.054932
0.064149 0.059663 0.054932
0.064149 0.059663 0.054932
0.064149 0.059663 0.054932
0.064149 0.059663 0.054932
0.072755 0.057557 0.054719
0.097200 0.046326 0.054658
0.146487 0.000519 0.052003
0.217594 0.000000 0.046540
0.292058 0.000000 0.040162
0.348302 0.000000 0.030579
0.387671 0.000000 0.022156
0.420905 0.000000 0.014313
0.456886 0.000000 0.000000
0.498665 0.000000 0.000000
0.544305 0.000000 0.000000
0.592309 0.000000 0.000000
0.640772 0.000000 0.000000
0.690120 0.000000 0.000000
0.750301 0.000000 0.000000
0.802518 0.000000 0.000000
0.837797 0.000000 0.000000
0.864012 0.000000 0.016846
0.884672 0.000000 0.098756
0.902342 0.000000 0.142123
0.919219 0.000000 0.181338
0.937224 0.000000 0.216373
0.957885 0.000000 0.246403
0.981262 0.000000 0.272862
1.000000 0.000000 0.297704
1.000000 0.000000 0.324254
0.064149 0.059663 0.054932
0.064149 0.059663 0.054932
0.064149 0.059663 0.054932
0.064149 0.059663 0.054932
0.064149 0.059663 0.054932
0.064149 0.059663 0.054932
0.072328 0.057710 0.054719
0.095277 0.047456 0.054749
0.142519 0.004974 0.053101
0.212467 0.000000 0.048005
0.286717 0.000000 0.039063
0.344182 0.000000 0.030518
0.384009 0.000000 0.021027
0.417212 0.000000 0.006775
0.452003 0.000000 0.000000
0.492836 0.000000 0.000000
0.537591 0.000000 0.000000
0.585046 0.000000 0.000000
0.633356 0.000000 0.000000
0.682765 0.000000 0.000000
0.743282 0.000000 0.000000
0.795560 0.000000 0.000000
0.831785 0.000000 0.000000
0.858671 0.000000 0.000000
0.880034 0.000000 0.085115
0.898253 0.000000 0.131044
0.915373 0.000000 0.171359
0.933257 0.000000 0.208408
0.953796 0.000000 0.240024
0.977142 0.000000 0.267796
1.000000 0.000000 0.292943
1.000000 0.000000 0.319127
0.064149 0.059663 0.054932
0.064149 0.059663 0.054932
0.064149 0.059663 0.054932
0.064149 0.059663 0.054932
0.064149 0.059663 0.054932
0.064149 0.059663 0.054932
0.071870 0.057893 0.054719
0.093629 0.048310 0.054810
0.139284 0.008545 0.053285
0.208072 0.000000 0.049256
0.282444 0.000000 0.040986
0.341131 0.000000 0.031281
0.381811 0.000000 0.022736
0.415076 0.000000 0.000000
0.449256 0.000000 0.000000
0.489509 0.000000 0.000000
0.533806 0.000000 0.000000
0.581018 0.000000 0.000000
0.629236 0.000000 0.000000
0.678859 0.000000 0.000000
0.740108 0.000000 0.000000
0.792142 0.000000 0.000000
0.828733 0.000000 0.000000
0.855863 0.000000 0.000000
0.877562 0.000000 0.078309
0.895995 0.000000 0.125124
0.913268 0.000000 0.166140
0.931182 0.000000 0.204044
0.951659 0.000000 0.236545
0.974945 0.000000 0.264958
1.000000 0.000000 0.290349
1.000000 0.000000 0.316686
0.064149 0.059663 0.054932
0.064149 0.059663 0.054932
0.064149 0.059663 0.054932
0.064149 0.059663 0.054932
0.064149 0.059663 0.054932
0.064149 0.059663 0.054932
0.071870 0.057893 0.054719
0.093690 0.048310 0.053986
0.138247 0.009674 0.053376
0.205753 0.000000 0.049500
0.279271 0.000000 0.040528
0.338598 0.000000 0.031891
0.379736 0.000000 0.008850
0.412573 0.000000 0.000000
0.446296 0.000000 0.000000
0.485847 0.000000 0.000000
0.529808 0.000000 0.000000
0.576440 0.000000 0.000000
0.624048 0.000000 0.000000
0.673060 0.000000 0.000000
0.734737 0.000000 0.000000
0.785885 0.000000 0.000000
0.823484 0.000000 0.000000
0.851774 0.000000 0.000000
0.874754 0.000000 0.070405
0.894255 0.000000 0.121706
0.912200 0.000000 0.164675
0.930510 0.000000 0.203555
0.951080 0.000000 0.236728
0.974273 0.000000 0.264652
0.999390 0.000000 0.289555
1.000000 0.000000 0.315007
0.064149 0.059663 0.054932
0.064149 0.059663 0.054932
0.064149 0.059663 0.054932
0.064149 0.059663 0.054932
0.064149 0.059663 0.054932
0.064149 0.059663 0.054932
0.071870 0.057893 0.054719
0.092012 0.049134 0.054047
0.134493 0.013703 0.052766
0.200443 0.000000 0.049226
0.273594 0.000000 0.033753
0.334142 0.000000 0.016449
0.376135 0.000000 0.000000
0.409277 0.000000 0.000000
0.442847 0.000000 0.000000
0.482368 0.000000 0.000000
0.526757 0.000000 0.000000
0.573816 0.000000 0.000000
0.621820 0.000000 0.000000
0.673426 0.000000 0.000000
0.733852 0.000000 0.000000
0.783505 0.000000 0.000000
0.820737 0.000000 0.000000
0.849119 0.000000 0.000000
0.872435 0.000000 0.064912
0.892241 0.000000 0.118624
0.910307 0.000000 0.162783
0.928557 0.000000 0.201419
0.949004 0.000000 0.234623
0.972076 0.000000 0.262608
0.997192 0.000000 0.287572
1.000000 0.000000 0.312810
0.064149 0.059663 0.054932
0.064149 0.059663 0.054932
0.064149 0.059663 0.054932
0.064149 0.059663 0.054932
0.064088 0.060151 0.054871
0.064088 0.060151 0.054871
0.072389 0.061433 0.054200
0.093477 0.059785 0.052979
0.136446 0.048676 0.049531
0.201968 0.007202 0.039521
0.274510 0.000000 0.021576
0.333837 0.000000 0.001434
0.375189 0.000000 0.000000
0.408270 0.000000 0.000000
0.441718 0.000000 0.000000
0.481361 0.000000 0.000000
0.526116 0.000000 0.000000
0.573266 0.000000 0.000000
0.621668 0.000000 0.000000
0.678370 0.000000 0.000000
0.737057 0.000000 0.000000
0.785519 0.000000 0.000000
0.857511 0.000000 0.009796
0.880034 0.000000 0.105165
0.898405 0.000000 0.151614
0.915129 0.000000 0.189853
0.932128 0.000000 0.221103
0.950866 0.000000 0.247898
0.971679 0.000000 0.270695
0.994202 0.035126 0.291905
1.000000 0.114351 0.313939
1.000000 0.168002 0.340276
0.063416 0.068330 0.053590
0.063416 0.068330 0.053590
0.063355 0.068757 0.053498
0.063294 0.069184 0.053437
0.063172 0.070039 0.053315
0.066072 0.070436 0.053895
0.076936 0.072938 0.051972
0.103761 0.079988 0.048524
0.156710 0.090120 0.037537
0.227024 0.097322 0.017243
0.297124 0.097658 0.000000
0.349157 0.088930 0.000000
0.386297 0.075837 0.000000
0.418372 0.057221 0.000000
0.453132 0.010590 0.000000
0.493446 0.000000 0.000000
0.538018 0.000000 0.000000
0.585229 0.000000 0.000000
0.634668 0.000000 0.000000
0.699825 0.000000 0.000000
0.759518 0.000000 0.000000
0.807187 0.000000 0.000000
0.842435 0.000000 0.000000
0.869902 0.000000 0.077699
0.891691 0.000000 0.137179
0.910033 0.000000 0.181277
0.927642 0.000000 0.215244
0.946502 0.000000 0.243168
0.967376 0.073732 0.266514
0.989715 0.117861 0.287907
1.000000 0.151461 0.309392
1.000000 0.189914 0.335058
0.062715 0.086061 0.051698
0.062654 0.086397 0.051606
0.062593 0.086702 0.051545
0.062928 0.087617 0.051331
0.062196 0.088624 0.051118
0.067384 0.089845 0.051392
0.081788 0.089754 0.051331
0.105684 0.099733 0.043580
0.154238 0.118868 0.027039
0.225986 0.140230 0.000000
0.297734 0.152956 0.000000
0.348211 0.152560 0.000000
0.384741 0.145327 0.000000
0.416510 0.137026 0.000000
0.451118 0.129061 0.000000
0.491096 0.120180 0.000000
0.535332 0.103243 0.000000
0.582208 0.075410 0.000000
0.639765 0.000000 0.000000
0.700465 0.000000 0.000000
0.757046 0.000000 0.000000
0.803311 0.000000 0.000000
0.838071 0.000000 0.000000
0.865446 0.000000 0.069276
0.887358 0.000000 0.131167
0.905791 0.000000 0.175357
0.923339 0.053803 0.210117
0.942138 0.111330 0.238407
0.962951 0.142336 0.262547
0.985412 0.165530 0.284092
1.000000 0.188144 0.305760
1.000000 0.216922 0.330968
0.061280 0.121096 0.045502
0.059998 0.121828 0.045258
0.061036 0.121950 0.045106
0.060700 0.123018 0.044648
0.060700 0.124666 0.043885
0.072023 0.125795 0.043610
0.094606 0.125734 0.042603
0.120943 0.132937 0.034607
0.160372 0.149386 0.014343
0.222232 0.175387 0.000000
0.293278 0.196628 0.000000
0.346899 0.201144 0.000000
0.384924 0.196262 0.000000
0.416663 0.189456 0.000000
0.451484 0.183932 0.000000
0.491493 0.177554 0.000000
0.535637 0.169223 0.000000
0.588220 0.160952 0.000000
0.645899 0.148745 0.000000
0.703334 0.131228 0.000000
0.757168 0.108583 0.000000
0.801694 0.079835 0.000000
0.835538 0.058045 0.000000
0.862486 0.066316 0.066835
0.884245 0.096956 0.129946
0.902708 0.128176 0.173373
0.920195 0.155337 0.208164
0.938842 0.176425 0.236362
0.959564 0.193545 0.260136
0.981933 0.208530 0.281743
1.000000 0.224460 0.303014
1.000000 0.246220 0.327611
0.051240 0.173251 0.023316
0.050996 0.173526 0.023133
0.051881 0.173648 0.023011
0.052033 0.174594 0.022339
0.051667 0.176089 0.021302
0.082033 0.176364 0.020142
0.112367 0.175662 0.019409
0.140871 0.175296 0.017426
0.179507 0.191867 0.000000
0.226627 0.209995 0.000000
0.284977 0.230686 0.000000
0.339147 0.240513 0.000000
0.379156 0.238224 0.000000
0.414588 0.233005 0.000000
0.452277 0.229191 0.000000
0.493446 0.225498 0.000000
0.544274 0.224155 0.000000
0.600305 0.222416 0.000000
0.655482 0.217685 0.000000
0.709957 0.209842 0.000000
0.759945 0.199832 0.000000
0.800900 0.189120 0.000000
0.832547 0.180423 0.000000
0.858244 0.179232 0.059724
0.879576 0.185458 0.124239
0.898039 0.197513 0.168399
0.915709 0.211734 0.203861
0.934630 0.224887 0.232609
0.955779 0.237095 0.257511
0.978759 0.248234 0.279667
1.000000 0.260960 0.301579
1.000000 0.279179 0.326787
0.027649 0.228916 0.000000
0.027131 0.229221 0.000000
0.026093 0.229740 0.000000
0.024445 0.230716 0.000000
0.054536 0.231815 0.000000
0.095918 0.231540 0.000000
0.131319 0.230991 0.000000
0.164584 0.230198 0.000000
0.199588 0.237369 0.000000
0.242161 0.252171 0.000000
0.287907 0.266209 0.000000
0.331243 0.273716 0.000000
0.372137 0.274571 0.000000
0.407385 0.270573 0.000000
0.446845 0.268223 0.000000
0.500847 0.272953 0.000000
0.553704 0.275395 0.000000
0.606622 0.275395 0.000000
0.659297 0.273442 0.000000
0.711482 0.269749 0.000000
0.759335 0.264073 0.000000
0.799161 0.256931 0.000000
0.830320 0.250645 0.000000
0.855741 0.248112 0.061433
0.876951 0.250156 0.125246
0.895293 0.255497 0.169223
0.912840 0.262577 0.203342
0.931456 0.270390 0.231571
0.952361 0.277836 0.255619
0.975250 0.285588 0.277226
0.999481 0.295171 0.299290
1.000000 0.309850 0.324437
0.000000 0.282017 0.000000
0.000000 0.282261 0.000000
0.000000 0.282628 0.000000
0.008087 0.283268 0.000000
0.074189 0.282994 0.000000
0.113069 0.282414 0.000000
0.149294 0.281407 0.000000
0.183352 0.280095 0.000000
0.216526 0.278813 0.000000
0.252873 0.289036 0.000000
0.291752 0.298589 0.000000
0.331975 0.307103 0.000000
0.380865 0.320195 0.000000
0.424353 0.323583 0.000000
0.477699 0.331914 0.000000
0.538903 0.342412 0.000000
0.602991 0.351476 0.000000
0.663050 0.355840 0.000000
0.712367 0.353735 0.000000
0.756924 0.349157 0.000000
0.794125 0.342321 0.000000
0.823514 0.335027 0.000000
0.847898 0.329046 0.064912
0.868620 0.325963 0.126619
0.886809 0.325139 0.168765
0.903777 0.325566 0.201541
0.920989 0.326482 0.227481
0.939696 0.327855 0.249180
0.960235 0.330205 0.269291
0.982422 0.334051 0.288609
1.000000 0.340978 0.309728
1.000000 0.354345 0.336217
0.000000 0.331121 0.000000
0.000000 0.331151 0.000000
0.023743 0.330510 0.000000
0.069459 0.329595 0.000000
0.102571 0.327977 0.000000
0.135256 0.325811 0.000000
0.168093 0.323766 0.000000
0.199588 0.321569 0.000000
0.231601 0.319432 0.000000
0.263401 0.322545 0.000000
0.297704 0.329961 0.000000
0.336126 0.339208 0.000000
0.378943 0.351171 0.000000
0.417121 0.355352 0.000000
0.468757 0.365942 0.000000
0.527367 0.378515 0.000000
0.589197 0.389837 0.000000
0.649866 0.397742 0.000000
0.708156 0.401801 0.000000
0.753506 0.398688 0.000000
0.789609 0.392340 0.000000
0.818662 0.384344 0.000000
0.842802 0.377325 0.059419
0.863645 0.372015 0.123629
0.881865 0.368444 0.165164
0.898894 0.365911 0.197208
0.916014 0.364446 0.223087
0.934600 0.363867 0.245457
0.955169 0.364416 0.265232
0.977508 0.366705 0.284825
1.000000 0.371862 0.306188
1.000000 0.382879 0.332616
0.058717 0.357153 0.000000
0.067353 0.357092 0.000000
0.078523 0.356420 0.000000
0.097475 0.355535 0.000000
0.122530 0.354009 0.000000
0.150027 0.352087 0.000000
0.178561 0.350072 0.000000
0.207584 0.347997 0.000000
0.237095 0.345983 0.000000
0.267796 0.345586 0.000000
0.300328 0.354620 0.000000
0.335790 0.364691 0.000000
0.374578 0.375921 0.000000
0.417578 0.388525 0.000000
0.456764 0.393866 0.000000
0.512108 0.407965 0.000000
0.570916 0.421088 0.000000
0.630365 0.431769 0.000000
0.688502 0.439216 0.000000
0.742245 0.442176 0.000000
0.785275 0.439155 0.000000
0.814267 0.431067 0.000000
0.838499 0.423133 0.055879
0.859495 0.416388 0.122988
0.877897 0.410986 0.164584
0.895079 0.406317 0.196231
0.912322 0.402686 0.221439
0.930938 0.400214 0.243168
0.951537 0.399359 0.263371
0.974029 0.400458 0.283055
0.997711 0.404395 0.304540
1.000000 0.413733 0.331487
0.098756 0.380377 0.000000
0.104036 0.380316 0.000000
0.110689 0.379767 0.000000
0.124697 0.378759 0.000000
0.143557 0.377325 0.000000
0.166110 0.375494 0.000000
0.192142 0.375006 0.000000
0.219577 0.374640 0.000000
0.248020 0.374212 0.000000
0.276951 0.374426 0.000000
0.305913 0.379065 0.000000
0.338109 0.389471 0.000000
0.374456 0.401617 0.000000
0.414862 0.415076 0.000000
0.458717 0.428779 0.000000
0.496193 0.432746 0.000000
0.552087 0.447822 0.000000
0.610254 0.461067 0.000000
0.668238 0.471595 0.000000
0.723690 0.478553 0.000000
0.770840 0.479408 0.000000
0.807736 0.474617 0.000000
0.834043 0.466468 0.050080
0.855131 0.458412 0.122072
0.873899 0.451301 0.163577
0.891508 0.445411 0.195102
0.909300 0.440558 0.221439
0.928771 0.437507 0.243961
0.950378 0.436164 0.264591
0.973846 0.436896 0.285374
0.998352 0.440986 0.308965
1.000000 0.450935 0.339055
0.137057 0.410132 0.000000
0.141176 0.410407 0.000000
0.146822 0.410254 0.000000
0.157443 0.410010 0.000000
0.173648 0.409430 0.000000
0.193454 0.408759 0.000000
0.215305 0.408301 0.000000
0.239384 0.408148 0.004150
0.265049 0.408148 0.032929
0.291600 0.408362 0.063203
0.319036 0.408728 0.081544
0.347662 0.417945 0.070741
0.379797 0.429450 0.033875
0.415595 0.441657 0.000000
0.454597 0.454078 0.000000
0.496559 0.466255 0.000000
0.531609 0.468452 0.000000
0.587457 0.484169 0.000000
0.646601 0.499031 0.000000
0.704738 0.510887 0.000000
0.755856 0.516381 0.000000
0.796292 0.514855 0.000000
0.827665 0.508995 0.068055
0.853422 0.501762 0.131044
0.872343 0.493385 0.170321
0.890257 0.485939 0.200565
0.908507 0.479774 0.224979
0.928344 0.475471 0.246952
0.950134 0.472969 0.267185
0.973480 0.472602 0.287755
0.997559 0.475502 0.311528
1.000000 0.483955 0.342321
0.172671 0.445380 0.045014
0.175753 0.445258 0.045655
0.179873 0.444892 0.048280
0.188632 0.444373 0.053223
0.201572 0.443793 0.060121
0.217960 0.442969 0.065797
0.237186 0.442329 0.073579
0.258824 0.441810 0.082765
0.282048 0.441596 0.092531
0.306798 0.441505 0.104067
0.332555 0.441840 0.117647
0.358923 0.444648 0.125856
0.387854 0.456428 0.114290
0.420203 0.468666 0.096407
0.455482 0.480812 0.069795
0.493385 0.492470 0.000000
0.534234 0.503807 0.000000
0.568475 0.505638 0.000000
0.622766 0.520409 0.000000
0.681697 0.536065 0.000000
0.736141 0.546227 0.000000
0.780484 0.548425 0.000000
0.814664 0.544427 0.058381
0.842893 0.538170 0.127138
0.866941 0.530663 0.168765
0.886900 0.522667 0.200015
0.905486 0.515587 0.224887
0.925750 0.510399 0.246738
0.947906 0.507195 0.267124
0.971618 0.506401 0.288518
0.996033 0.508843 0.313390
1.000000 0.516747 0.346075
0.207401 0.484596 0.102480
0.210544 0.485237 0.104067
0.238224 0.513085 0.134493
0.245426 0.512261 0.135470
0.256138 0.511040 0.138216
0.269688 0.509300 0.140902
0.285893 0.507408 0.144808
0.304448 0.505669 0.149813
0.325292 0.504326 0.156710
0.347601 0.503349 0.164553
0.371069 0.502495 0.173404
0.395026 0.501579 0.182712
0.420050 0.507439 0.180301
0.448585 0.518608 0.168887
0.479988 0.529747 0.153292
0.514031 0.540429 0.133242
0.551171 0.550805 0.103365
0.591089 0.560815 0.049134
0.624964 0.562036 0.000000
0.673884 0.571923 0.000000
0.729244 0.584680 0.000000
0.774136 0.588220 0.000000
0.808927 0.584741 0.089662
0.837461 0.577966 0.139620
0.861448 0.569329 0.175418
0.883085 0.560510 0.203494
0.904387 0.552575 0.227726
0.924041 0.545525 0.247562
0.945830 0.541039 0.267369
0.969482 0.539422 0.289036
0.993957 0.541253 0.314855
1.000000 0.548028 0.348180
0.247379 0.533165 0.149538
0.252934 0.537072 0.153719
0.259281 0.541100 0.158389
0.268498 0.544121 0.162417
0.280217 0.545861 0.166873
0.293400 0.545678 0.170565
0.308385 0.544244 0.173922
0.325292 0.542321 0.177859
0.344152 0.540826 0.182559
0.364630 0.539513 0.188937
0.386511 0.538384 0.195224
0.409003 0.537133 0.202213
0.431495 0.535210 0.209201
0.456672 0.544640 0.200320
0.484718 0.554864 0.189212
0.515221 0.564721 0.174502
0.548486 0.574456 0.155306
0.584588 0.584009 0.130678
0.624048 0.594018 0.096742
0.658778 0.596429 0.031708
0.703334 0.603265 0.000000
0.754849 0.613733 0.000000
0.794003 0.614099 0.080201
0.825284 0.609186 0.132876
0.851347 0.601617 0.170108
0.874357 0.593042 0.199344
0.896513 0.584985 0.223880
0.919982 0.578820 0.246281
0.943847 0.574517 0.267796
0.967590 0.572351 0.290013
0.992065 0.573663 0.317174
1.000000 0.579675 0.351904
0.274998 0.571496 0.178378
0.280064 0.575433 0.182254
0.285679 0.579309 0.185794
0.293858 0.582361 0.189395
0.304204 0.584009 0.192325
0.315953 0.583795 0.195254
0.329686 0.582330 0.197452
0.345037 0.580560 0.200717
0.362585 0.579004 0.204349
0.381720 0.577539 0.208743
0.402411 0.576410 0.213657
0.423835 0.575006 0.218906
0.445319 0.572839 0.223819
0.467750 0.573632 0.225193
0.493202 0.583001 0.215885
0.521080 0.592157 0.204746
0.551324 0.601190 0.190890
0.584344 0.610285 0.174594
0.620294 0.619623 0.153628
0.659602 0.629664 0.127718
0.694484 0.632654 0.096254
0.733974 0.635584 0.029175
0.778470 0.641016 0.073793
0.812650 0.638544 0.126680
0.840879 0.632136 0.163210
0.865232 0.623926 0.193332
0.888060 0.615808 0.218784
0.911864 0.609430 0.241794
0.937713 0.605463 0.264500
0.964691 0.604028 0.289982
0.989349 0.604822 0.318242
1.000000 0.609888 0.354009
0.299443 0.610834 0.201938
0.303685 0.614679 0.204807
0.308629 0.618555 0.207340
0.315953 0.621546 0.210056
0.325383 0.623102 0.212436
0.336309 0.622797 0.214298
0.348760 0.621424 0.216464
0.363134 0.619562 0.218509
0.379583 0.617731 0.221256
0.397528 0.615991 0.224186
0.417029 0.614466 0.227756
0.437537 0.612726 0.231601
0.458350 0.610468 0.235477
0.479713 0.607752 0.239536
0.503075 0.612299 0.236606
0.529503 0.621637 0.227634
0.558862 0.631556 0.217655
0.590997 0.641871 0.206271
0.626062 0.652522 0.193179
0.663783 0.663264 0.178073
0.703670 0.673701 0.160159
0.738979 0.677241 0.142489
0.771054 0.674037 0.126040
0.807584 0.673487 0.139559
0.837675 0.668452 0.173526
0.863371 0.660975 0.201907
0.887510 0.653285 0.227268
0.912749 0.647517 0.250523
0.939849 0.644282 0.274601
0.967498 0.643641 0.302861
0.994232 0.646143 0.338323
1.000000 0.652155 0.380224
0.329473 0.666987 0.227756
0.332006 0.668727 0.228946
0.334997 0.669947 0.229648
0.340642 0.670588 0.230716
0.348363 0.670405 0.231876
0.358221 0.669245 0.232853
0.370153 0.667689 0.234195
0.384039 0.666224 0.235874
0.400183 0.665003 0.238041
0.418097 0.664057 0.240909
0.437568 0.663111 0.243870
0.458106 0.661830 0.246921
0.479103 0.659876 0.250034
0.500420 0.657160 0.253178
0.521935 0.653895 0.256352
0.546502 0.661402 0.249332
0.573297 0.669429 0.241398
0.602380 0.677485 0.232395
0.633478 0.685634 0.222141
0.666712 0.693538 0.210819
0.701564 0.700954 0.198001
0.737758 0.707698 0.183413
0.769528 0.708186 0.169100
0.794156 0.699062 0.158816
0.825834 0.695125 0.165316
0.853269 0.688808 0.194400
0.878538 0.681575 0.219913
0.904417 0.675990 0.244633
0.932219 0.672969 0.269718
0.960845 0.672450 0.299046
0.988678 0.674800 0.335210
1.000000 0.680415 0.379370
0.347112 0.704463 0.241672
0.349371 0.706050 0.242863
0.352453 0.707332 0.243565
0.357671 0.707973 0.244663
0.365026 0.707759 0.245487
0.374273 0.706477 0.246128
0.385382 0.704860 0.247166
0.398627 0.703029 0.248234
0.413886 0.701534 0.249973
0.430915 0.700191 0.252049
0.449714 0.699001 0.254582
0.469581 0.697688 0.257145
0.490120 0.695827 0.259953
0.511437 0.693507 0.262638
0.533196 0.690730 0.265415
0.555657 0.690822 0.265568
0.580621 0.697780 0.258976
0.607446 0.704768 0.251652
0.636072 0.711635 0.243870
0.666407 0.718257 0.235416
0.698177 0.724544 0.226139
0.731319 0.730220 0.216068
0.765621 0.735348 0.204501
0.796384 0.735439 0.193057
0.811887 0.718624 0.179904
0.840665 0.713161 0.182101
0.867308 0.706874 0.209354
0.893614 0.701350 0.234653
0.921965 0.698421 0.260349
0.951690 0.698116 0.289982
0.981170 0.700557 0.326757
1.000000 0.705959 0.372015
0.369787 0.747677 0.261997
0.372198 0.749142 0.263249
0.374823 0.749844 0.264012
0.379400 0.749752 0.264469
0.385901 0.748836 0.264927
0.394385 0.747250 0.265080
0.404547 0.745174 0.265385
0.416663 0.742763 0.265751
0.430732 0.740230 0.266361
0.446448 0.737758 0.267491
0.463569 0.735195 0.268986
0.482063 0.732937 0.270817
0.501640 0.730312 0.272801
0.521752 0.727169 0.274784
0.542138 0.723445 0.276799
0.563012 0.719387 0.278904
0.584649 0.720638 0.275273
0.608362 0.725338 0.268406
0.634119 0.730648 0.261601
0.661860 0.736263 0.254704
0.691218 0.741817 0.247623
0.721828 0.747036 0.239628
0.753323 0.751431 0.230289
0.785519 0.754971 0.219303
0.814481 0.754147 0.207889
0.831540 0.739895 0.202060
0.858183 0.733425 0.201846
0.884855 0.727932 0.227390
0.913512 0.724880 0.253239
0.943999 0.724697 0.282872
0.974609 0.727199 0.320348
1.000000 0.732326 0.366217
0.385199 0.772396 0.277653
0.387610 0.773526 0.279088
0.390051 0.774136 0.280034
0.394324 0.774044 0.280583
0.400458 0.773281 0.280858
0.408270 0.772030 0.281285
0.418067 0.770474 0.281376
0.429603 0.768673 0.281865
0.443000 0.766812 0.282902
0.458259 0.765103 0.284276
0.474952 0.763302 0.285832
0.493141 0.761624 0.288212
0.512352 0.759701 0.290654
0.532250 0.757382 0.293095
0.552605 0.754604 0.295506
0.573449 0.751431 0.297826
0.594812 0.748165 0.300572
0.616266 0.751705 0.294560
0.639704 0.755795 0.288701
0.664881 0.760189 0.282658
0.691615 0.764675 0.276493
0.719631 0.768887 0.269749
0.748501 0.772580 0.261967
0.778225 0.775631 0.252842
0.808743 0.778012 0.242222
0.837095 0.777096 0.231083
0.852049 0.761868 0.226627
0.878843 0.756252 0.223789
0.908598 0.754055 0.251286
0.940307 0.754757 0.282811
0.972168 0.757809 0.322057
1.000000 0.763455 0.371527
0.405341 0.796811 0.301549
0.407507 0.797482 0.302647
0.409552 0.797635 0.303349
0.413123 0.797208 0.303655
0.418280 0.796201 0.303349
0.425055 0.794858 0.303288
0.433783 0.793271 0.303105
0.444282 0.791531 0.303380
0.456794 0.789853 0.304204
0.471107 0.788327 0.305486
0.487037 0.786801 0.307530
0.504417 0.785458 0.310460
0.522911 0.783902 0.313298
0.542168 0.781979 0.316472
0.561730 0.779629 0.319249
0.581781 0.776852 0.321996
0.602350 0.773983 0.325048
0.623041 0.773068 0.325597
0.644129 0.776303 0.319585
0.666926 0.779904 0.314000
0.691249 0.783627 0.308659
0.716732 0.787228 0.302678
0.743282 0.790494 0.295628
0.770779 0.793332 0.287480
0.799161 0.795682 0.277562
0.828428 0.797604 0.266545
0.856809 0.797391 0.254643
0.870970 0.782193 0.248997
0.899413 0.778866 0.245731
0.932647 0.780240 0.274876
0.965728 0.783658 0.314702
0.997589 0.789548 0.364782
0.427131 0.816373 0.329534
0.428901 0.816739 0.330541
0.430884 0.816831 0.331212
0.434241 0.816556 0.331395
0.439399 0.816037 0.332128
0.446387 0.815488 0.332982
0.455756 0.815213 0.335088
0.467170 0.815061 0.338048
0.480842 0.815091 0.342260
0.496132 0.815274 0.347356
0.512993 0.815427 0.353338
0.531090 0.815457 0.359777
0.549889 0.815183 0.366155
0.569055 0.814420 0.372259
0.588281 0.813077 0.377722
0.607446 0.811124 0.381964
0.626978 0.808927 0.386236
0.647059 0.806699 0.391211
0.666163 0.807797 0.389654
0.685878 0.810605 0.384680
0.706996 0.813657 0.379553
0.729580 0.816770 0.374121
0.753231 0.819730 0.367346
0.778103 0.822599 0.359258
0.804257 0.825254 0.349737
0.831724 0.827787 0.338262
0.860746 0.830289 0.325109
0.890135 0.831510 0.310582
0.905333 0.817960 0.301915
0.937163 0.818143 0.298680
0.972290 0.822843 0.335698
1.000000 0.828336 0.390478
0.471687 0.842771 0.388769
0.473121 0.842924 0.389807
0.474403 0.842802 0.389868
0.476844 0.842344 0.389685
0.480690 0.841611 0.389441
0.486061 0.840787 0.389563
0.493294 0.839963 0.390417
0.502403 0.839200 0.391882
0.513420 0.838529 0.394537
0.526055 0.837888 0.398138
0.540124 0.837186 0.402319
0.555413 0.836484 0.406989
0.571618 0.835569 0.412085
0.588434 0.834440 0.417121
0.605676 0.832975 0.421759
