其他预设/【233】日式怀旧街道调色预设208款/1.3D LUT预设（视频调色-PR-AE-PS-FCPX-达芬奇用）/1.日式城市街拍预设/JA – Controlled Contrast 3.cube
# Created by Adobe Lightroom plugin Export LUT (1.17.0)
# www.johnrellis.com/lightroom/exportlut.htm
# Preset: JA – Controlled Contrast 3
# Color profile: /Library/Application Support/Adobe/Color/Profiles/Recommended/AdobeRGB1998.icc
LUT_3D_SIZE 5
DOMAIN_MIN 0.000000 0.000000 0.000000
DOMAIN_MAX 0.903226 0.903226 0.903226
0.064149 0.059663 0.054932
0.097200 0.046326 0.054658
0.456886 0.000000 0.000000
0.802518 0.000000 0.000000
0.957885 0.000000 0.246403
0.062715 0.086061 0.051698
0.105684 0.099733 0.043580
0.451118 0.129061 0.000000
0.803311 0.000000 0.000000
0.962951 0.142336 0.262547
0.098756 0.380377 0.000000
0.219577 0.374640 0.000000
0.458717 0.428779 0.000000
0.807736 0.474617 0.000000
0.950378 0.436164 0.264591
0.329473 0.666987 0.227756
0.384039 0.666224 0.235874
0.521935 0.653895 0.256352
0.737758 0.707698 0.183413
0.932219 0.672969 0.269718
0.507500 0.860929 0.436408
0.535576 0.858427 0.441718
0.610346 0.843595 0.440894
0.741085 0.850614 0.474403
0.910918 0.880705 0.413001
0.044862 0.065675 0.100465
0.125978 0.015412 0.116518
0.451698 0.000000 0.192569
0.777615 0.000000 0.256199
0.940032 0.000000 0.324193
0.018280 0.114595 0.103090
0.148226 0.139010 0.132448
0.457343 0.079652 0.158419
0.779904 0.000000 0.244236
0.940154 0.145022 0.326421
0.098390 0.395758 0.155062
0.267552 0.394995 0.220401
0.448463 0.423407 0.217777
0.786099 0.469215 0.245274
0.941161 0.439063 0.338628
0.320806 0.683619 0.290440
0.381659 0.683131 0.298711
0.525078 0.667994 0.310582
0.737514 0.709438 0.267918
0.928985 0.676448 0.353277
0.519738 0.860746 0.485054
0.545861 0.858183 0.489174
0.635065 0.853452 0.516716
0.751888 0.855222 0.540368
0.912871 0.885679 0.484291
0.000000 0.061585 0.437812
0.183047 0.000000 0.452491
0.484749 0.152163 0.483497
0.753323 0.186862 0.541772
0.927764 0.173098 0.536950
0.000000 0.266941 0.440833
0.232090 0.260594 0.452430
0.492805 0.284123 0.489754
0.760983 0.261265 0.535698
0.927306 0.298070 0.543969
0.224949 0.465919 0.441169
0.300328 0.472633 0.451942
0.505791 0.499458 0.496468
0.779049 0.486732 0.518151
0.917937 0.541985 0.588006
0.297490 0.716823 0.479347
0.358831 0.713832 0.478950
0.548211 0.714748 0.518914
0.742519 0.726619 0.510185
0.915496 0.719997 0.604974
0.530755 0.860197 0.587549
0.569360 0.859586 0.605158
0.661067 0.854582 0.640894
0.756893 0.846525 0.656397
0.897765 0.879667 0.620600
0.000000 0.280430 0.760525
0.264500 0.291295 0.767178
0.528588 0.308690 0.782712
0.755947 0.345953 0.781979
0.882231 0.539757 0.771298
0.160250 0.383581 0.757259
0.252659 0.359014 0.762600
0.525963 0.380774 0.776364
0.752224 0.418524 0.776455
0.875578 0.574151 0.770047
0.213718 0.569543 0.741421
0.307347 0.567468 0.744411
0.535821 0.567681 0.759823
0.749935 0.608148 0.768215
0.877134 0.665919 0.780301
0.352789 0.762905 0.737514
0.418555 0.759579 0.737728
0.597559 0.755795 0.746822
0.754788 0.761196 0.767117
0.900328 0.758145 0.778622
0.608026 0.867369 0.749508
0.632349 0.866575 0.754299
0.694240 0.868101 0.766201
0.768917 0.866758 0.770108
0.891295 0.884306 0.759182
0.406744 0.500542 0.908568
0.463386 0.513817 0.909239
0.611902 0.561486 0.911955
0.777066 0.636957 0.916777
0.894041 0.671412 0.915404
0.454414 0.559899 0.905150
0.499519 0.568750 0.906035
0.632563 0.609216 0.909087
0.782223 0.667475 0.914794
0.894316 0.690608 0.914977
0.531365 0.685603 0.897337
0.579461 0.696132 0.897795
0.667536 0.705623 0.903197
0.788540 0.731197 0.912352
0.898253 0.740475 0.916869
0.593042 0.803586 0.893065
0.617578 0.804654 0.893492
0.680903 0.805356 0.897246
0.773587 0.797330 0.911345
0.907591 0.809720 0.922972
0.668452 0.909270 0.893004
0.681086 0.909056 0.893797
0.721035 0.910185 0.897917
0.786984 0.913146 0.906126
0.915496 0.920684 0.925017
