其他预设/【233】日式怀旧街道调色预设208款/1.3D LUT预设（视频调色-PR-AE-PS-FCPX-达芬奇用）/1.日式城市街拍预设/JA – Faded Soft 1.cube
# Created by Adobe Lightroom plugin Export LUT (1.17.0)
# www.johnrellis.com/lightroom/exportlut.htm
# Preset: JA – Faded Soft 1
# Color profile: /Library/Application Support/Adobe/Color/Profiles/Recommended/AdobeRGB1998.icc
LUT_3D_SIZE 5
DOMAIN_MIN 0.000000 0.000000 0.000000
DOMAIN_MAX 0.903226 0.903226 0.903226
0.087770 0.083711 0.080781
0.302129 0.000000 0.071382
0.653529 0.000000 0.000000
0.833463 0.000000 0.000000
0.993683 0.000000 0.000000
0.116030 0.245762 0.070161
0.288090 0.259709 0.019776
0.667506 0.300359 0.000000
0.838865 0.246525 0.000000
0.998779 0.173587 0.000000
0.232883 0.537743 0.000000
0.340429 0.504509 0.000000
0.608728 0.565972 0.000000
0.846952 0.525689 0.000000
1.000000 0.447303 0.000000
0.326268 0.705196 0.144289
0.385199 0.688014 0.120119
0.531243 0.663600 0.000000
0.777462 0.726345 0.000000
0.999207 0.686549 0.000000
0.464118 0.866697 0.351385
0.495369 0.860349 0.340612
0.587243 0.836515 0.302434
0.754330 0.862791 0.299290
0.965484 0.901854 0.329503
0.000000 0.127596 0.374090
0.307195 0.000000 0.317082
0.636896 0.000000 0.261051
0.823026 0.000000 0.186618
0.990692 0.000000 0.000000
0.000000 0.339208 0.339635
0.313115 0.309941 0.308995
0.649653 0.284337 0.257176
0.828061 0.249180 0.185245
0.994476 0.157992 0.000000
0.165652 0.587549 0.277806
0.354376 0.563470 0.296666
0.608270 0.578668 0.279271
0.842618 0.528466 0.184482
1.000000 0.440925 0.000000
0.355871 0.727077 0.341894
0.407752 0.711208 0.324620
0.528313 0.664973 0.251133
0.771145 0.730800 0.298192
1.000000 0.684504 0.000000
0.481056 0.873442 0.445197
0.507866 0.867033 0.432563
0.593683 0.846220 0.392218
0.752651 0.863279 0.384649
0.967254 0.903105 0.333684
0.000000 0.246647 0.748867
0.147402 0.196109 0.730220
0.605097 0.208072 0.671077
0.787686 0.318029 0.580377
0.945464 0.408362 0.571160
0.000000 0.465980 0.745266
0.322454 0.448280 0.723507
0.606561 0.402136 0.664973
0.779019 0.438605 0.598199
0.941619 0.477272 0.588067
0.205753 0.677943 0.700313
0.397772 0.668116 0.689601
0.605676 0.627924 0.647181
0.780423 0.617609 0.628992
0.964111 0.574517 0.572412
0.401770 0.776913 0.615290
0.469429 0.766964 0.617365
0.585260 0.728817 0.598138
0.752895 0.747036 0.611902
0.976745 0.746029 0.571252
0.502983 0.901549 0.622156
0.533715 0.896696 0.621118
0.609949 0.873655 0.593011
0.731930 0.855680 0.538567
0.949859 0.907073 0.581109
0.000000 0.434974 0.903502
0.227909 0.421851 0.897002
0.546593 0.460853 0.867796
0.758328 0.463935 0.828763
0.936034 0.490761 0.793057
0.349584 0.580865 0.899474
0.430335 0.578149 0.891936
0.583612 0.557031 0.865446
0.758663 0.534783 0.825071
0.933013 0.539605 0.795224
0.431891 0.725521 0.894591
0.524315 0.736904 0.891478
0.655940 0.722621 0.867399
0.759731 0.668116 0.816800
0.930266 0.648615 0.797299
0.490242 0.841184 0.860044
0.547906 0.837949 0.856931
0.661006 0.826963 0.846403
0.758816 0.784024 0.805295
0.946258 0.772366 0.788449
0.562127 0.942535 0.829709
0.590631 0.939788 0.827909
0.656062 0.930846 0.813046
0.729335 0.894377 0.747524
0.934905 0.916136 0.761807
0.437415 0.621118 0.987823
0.460700 0.610620 0.987366
0.590143 0.621698 0.982513
0.748379 0.628809 0.972656
0.911284 0.609613 0.962310
0.535241 0.696742 0.983581
0.548638 0.686122 0.983307
0.623651 0.672358 0.980255
0.757900 0.665583 0.971283
0.912078 0.638697 0.961151
0.543999 0.765896 0.981994
0.591669 0.773068 0.980529
0.695338 0.781979 0.976135
0.776608 0.749142 0.969879
0.916014 0.710109 0.959533
0.574121 0.858946 0.975250
0.611810 0.862181 0.974670
0.712184 0.871092 0.973327
0.833738 0.877226 0.968658
0.924407 0.820249 0.957549
0.603693 0.959258 0.964935
0.629694 0.958862 0.964599
0.712520 0.957763 0.963653
0.835386 0.955108 0.961639
0.928771 0.940063 0.949310
