其他预设/【233】日式怀旧街道调色预设208款/1.3D LUT预设（视频调色-PR-AE-PS-FCPX-达芬奇用）/1.日式城市街拍预设/JA – Neon 2.cube
# Created by Adobe Lightroom plugin Export LUT (1.17.0)
# www.johnrellis.com/lightroom/exportlut.htm
# Preset: JA – Neon 2
# Color profile: /Library/Application Support/Adobe/Color/Profiles/Recommended/AdobeRGB1998.icc
LUT_3D_SIZE 8
DOMAIN_MIN 0.000000 0.000000 0.000000
DOMAIN_MAX 0.903226 0.903226 0.903226
0.118349 0.118349 0.118349
0.131838 0.116152 0.118135
0.196567 0.106325 0.116365
0.346136 0.086946 0.106264
0.567773 0.045136 0.065522
0.799069 0.000000 0.000000
0.937652 0.000000 0.000000
1.000000 0.000000 0.000000
0.117128 0.127779 0.117952
0.127382 0.126528 0.119173
0.191226 0.125673 0.115023
0.334997 0.127718 0.104036
0.553246 0.131807 0.060273
0.781796 0.135012 0.000000
0.928191 0.124117 0.000000
1.000000 0.084932 0.000000
0.109651 0.170352 0.115297
0.124239 0.169955 0.114137
0.163333 0.158785 0.121004
0.322972 0.205386 0.096590
0.558160 0.250553 0.000000
0.785794 0.275151 0.000000
0.935943 0.268528 0.000000
1.000000 0.237583 0.000000
0.091890 0.266178 0.097383
0.124269 0.264500 0.097108
0.194736 0.259648 0.097841
0.255406 0.241917 0.113283
0.503929 0.346899 0.000000
0.794095 0.417334 0.000000
0.932464 0.404791 0.000000
1.000000 0.367773 0.000000
0.000000 0.418189 0.000000
0.102663 0.416663 0.000000
0.222477 0.414588 0.000000
0.324712 0.401190 0.000000
0.389105 0.363256 0.079286
0.656611 0.479103 0.000000
0.905882 0.532158 0.000000
1.000000 0.494026 0.000000
0.000000 0.610925 0.000000
0.000000 0.618128 0.000000
0.232395 0.614099 0.000000
0.385107 0.608850 0.000000
0.495338 0.575982 0.000000
0.579553 0.535943 0.000000
0.817166 0.621790 0.000000
0.982300 0.623468 0.000000
0.000000 0.798337 0.000000
0.000000 0.798795 0.000000
0.201785 0.793118 0.000000
0.388525 0.787137 0.000000
0.539879 0.774563 0.000000
0.667689 0.748348 0.000000
0.777218 0.719112 0.000000
0.926482 0.732509 0.000000
0.000000 0.925780 0.000000
0.000000 0.924773 0.000000
0.000000 0.922118 0.000000
0.330449 0.918700 0.000000
0.505943 0.905638 0.000000
0.661250 0.894499 0.000000
0.800107 0.877592 0.000000
0.917510 0.857145 0.148898
0.115602 0.118746 0.130892
0.130190 0.115816 0.129702
0.187564 0.110018 0.122988
0.327764 0.107027 0.113039
0.545739 0.113191 0.068605
0.772641 0.112673 0.000000
0.923430 0.085023 0.000000
1.000000 0.000000 0.000000
0.114382 0.127596 0.129702
0.128267 0.128054 0.128267
0.184756 0.128664 0.124086
0.324498 0.135958 0.110719
0.540307 0.156008 0.062470
0.764797 0.167361 0.000000
0.916350 0.151308 0.000000
1.000000 0.105379 0.000000
0.108583 0.169162 0.128511
0.124605 0.169375 0.125002
0.164614 0.160342 0.127718
0.314733 0.202518 0.105196
0.538811 0.250584 0.000000
0.765042 0.280705 0.000000
0.919219 0.273625 0.000000
1.000000 0.240848 0.000000
0.084443 0.262547 0.123415
0.109682 0.262852 0.111604
0.191318 0.260258 0.108217
0.248661 0.235843 0.120516
0.468910 0.325353 0.040192
0.761318 0.404730 0.000000
0.914885 0.400946 0.000000
1.000000 0.366949 0.000000
0.000000 0.417090 0.072023
0.011994 0.414862 0.044953
0.205753 0.410010 0.022583
0.314549 0.392096 0.037659
0.375952 0.350988 0.091341
0.636042 0.465370 0.000000
0.895811 0.527703 0.000000
0.999969 0.492287 0.000000
0.000000 0.603601 0.000000
0.000000 0.602838 0.000000
0.201968 0.599573 0.000000
0.367498 0.596796 0.000000
0.486824 0.566888 0.000000
0.572686 0.529076 0.000000
0.811460 0.617426 0.000000
0.979156 0.621088 0.000000
0.000000 0.788815 0.000000
0.000000 0.786007 0.000000
0.156313 0.782040 0.000000
0.374731 0.778592 0.000000
0.536553 0.767300 0.000000
0.661799 0.740475 0.000000
0.767025 0.709010 0.000000
0.920378 0.726528 0.000000
0.000000 0.921843 0.000000
0.000000 0.921386 0.000000
0.000000 0.918883 0.000000
0.329198 0.915953 0.000000
0.508110 0.909300 0.000000
0.662196 0.895872 0.000000
0.799069 0.876310 0.000000
0.915221 0.854520 0.139345
0.097780 0.121370 0.185428
0.121553 0.114412 0.187503
0.185092 0.107881 0.182162
0.302525 0.057557 0.182345
0.539483 0.000000 0.143618
0.775082 0.000000 0.100282
0.928954 0.000000 0.000000
1.000000 0.000000 0.000000
0.102876 0.134951 0.179904
0.115877 0.127413 0.181827
0.181399 0.121004 0.178988
0.303624 0.083955 0.175021
0.534112 0.000000 0.146487
0.767147 0.000000 0.093324
0.923827 0.000000 0.000000
1.000000 0.097475 0.000000
0.097932 0.174350 0.178714
0.113100 0.173709 0.177340
0.172244 0.171572 0.172061
0.310948 0.177401 0.164004
0.538445 0.193820 0.137453
0.768093 0.215854 0.058076
0.922484 0.232151 0.000000
1.000000 0.238193 0.000000
0.025818 0.270298 0.198703
0.074464 0.271855 0.192416
0.160037 0.274083 0.160891
0.265537 0.254124 0.168429
0.513359 0.332250 0.127199
0.767086 0.377417 0.000000
0.921050 0.381537 0.000000
1.000000 0.367132 0.000000
0.000000 0.422278 0.210269
0.000000 0.423713 0.195468
0.124849 0.425422 0.129488
0.310338 0.416358 0.121340
0.397833 0.372900 0.152956
0.667811 0.477760 0.041657
0.905821 0.519860 0.000000
1.000000 0.492348 0.000000
0.000000 0.609277 0.194644
0.000000 0.610651 0.166171
0.000000 0.610224 0.000000
0.327001 0.603418 0.000000
0.481025 0.576959 0.000000
0.578363 0.535515 0.095460
0.817227 0.618341 0.000000
0.981506 0.620478 0.000000
0.000000 0.795926 0.113466
0.000000 0.795346 0.000000
0.000000 0.791928 0.000000
0.314916 0.784604 0.000000
0.513878 0.774655 0.000000
0.659541 0.745357 0.000000
0.773373 0.714412 0.000000
0.927611 0.730831 0.000000
0.000000 0.924804 0.000000
0.000000 0.924376 0.000000
0.000000 0.922057 0.000000
0.264805 0.919219 0.000000
0.489326 0.910643 0.000000
0.660090 0.896544 0.000000
0.799557 0.877256 0.000000
0.917784 0.856077 0.149081
0.000000 0.116335 0.298283
0.083497 0.112062 0.303807
0.205509 0.088075 0.318120
0.310765 0.000000 0.303166
0.447700 0.000000 0.291203
0.723354 0.000000 0.296452
0.918853 0.000000 0.220279
1.000000 0.000000 0.169497
0.000000 0.143435 0.293339
0.030701 0.126894 0.298375
0.191379 0.107362 0.312291
0.308843 0.054719 0.301579
0.453956 0.000000 0.289250
0.725795 0.000000 0.285252
0.916747 0.000000 0.234134
1.000000 0.000000 0.160708
0.000000 0.199985 0.278538
0.021912 0.194644 0.277653
0.127932 0.162509 0.289342
0.299138 0.142672 0.293126
0.479500 0.068177 0.281712
0.754025 0.000000 0.255772
0.923919 0.000000 0.235721
1.000000 0.000000 0.144533
0.000000 0.278202 0.288548
0.000000 0.277867 0.288121
0.115480 0.277073 0.285466
0.278996 0.276707 0.278202
0.503746 0.294743 0.277073
0.748898 0.311894 0.256443
0.916930 0.315404 0.211093
1.000000 0.292393 0.098878
0.000000 0.437873 0.343755
0.000000 0.437263 0.337469
0.000000 0.437964 0.314641
0.262730 0.437690 0.263279
0.422370 0.401678 0.272313
0.717891 0.489967 0.250401
0.913848 0.492683 0.184970
1.000000 0.452918 0.000000
0.000000 0.625727 0.369909
0.000000 0.632471 0.362829
0.000000 0.631037 0.320287
0.220157 0.629297 0.224643
0.475044 0.611170 0.211215
0.602045 0.561608 0.249790
0.843626 0.629114 0.222141
0.991333 0.603693 0.000000
0.000000 0.801205 0.358892
0.000000 0.802457 0.344671
0.000000 0.804379 0.286748
0.129000 0.803738 0.144076
0.466957 0.791928 0.093660
0.655329 0.763668 0.131014
0.782467 0.726497 0.210819
0.936004 0.734218 0.204959
0.000000 0.929137 0.306188
0.000000 0.929595 0.287541
0.000000 0.929625 0.207645
0.000000 0.927489 0.000000
0.418982 0.917632 0.000000
0.629999 0.904295 0.000000
0.793484 0.881132 0.000000
0.919890 0.857694 0.196262
0.000000 0.115633 0.458900
0.000000 0.108370 0.465217
0.178744 0.063203 0.484627
0.373449 0.000000 0.522515
0.504448 0.000000 0.489967
0.634546 0.000000 0.444648
0.864256 0.000000 0.442145
0.996765 0.000000 0.386084
0.000000 0.144778 0.452003
0.000000 0.124605 0.459876
0.151247 0.091829 0.479438
0.360266 0.000000 0.515740
0.501091 0.000000 0.486885
0.633326 0.000000 0.439734
0.867521 0.000000 0.438056
0.997314 0.000000 0.384863
0.000000 0.227543 0.421790
0.000000 0.217777 0.428626
0.000000 0.157717 0.452125
0.310094 0.110964 0.492500
0.488228 0.000000 0.475196
0.630426 0.000000 0.423072
0.875639 0.000000 0.423377
0.997070 0.000000 0.388922
0.000000 0.313115 0.424231
0.000000 0.308598 0.423011
0.000000 0.292332 0.420966
0.198734 0.250919 0.447456
0.471107 0.233585 0.460853
0.672084 0.184543 0.425544
0.893431 0.231479 0.427497
0.996094 0.299809 0.411139
0.000000 0.428016 0.447456
0.000000 0.427955 0.447272
0.000000 0.426337 0.444312
0.190799 0.425666 0.439857
0.432349 0.425635 0.429999
0.705745 0.460212 0.445106
0.893858 0.474891 0.437140
0.995300 0.441505 0.375067
0.000000 0.616571 0.513390
0.000000 0.619287 0.512169
0.000000 0.625849 0.504112
0.080537 0.624720 0.469459
0.402380 0.616327 0.401373
0.608911 0.577722 0.413611
0.867399 0.641230 0.433875
0.991119 0.594965 0.356878
0.000000 0.804746 0.537865
0.000000 0.804440 0.530724
0.000000 0.804562 0.504753
0.000000 0.804868 0.453651
0.368963 0.799680 0.370123
0.630518 0.777798 0.351476
0.782071 0.734005 0.394568
0.941741 0.738674 0.396368
0.000000 0.927520 0.499886
0.000000 0.927520 0.490913
0.000000 0.927489 0.458320
0.000000 0.929595 0.399634
0.306737 0.923705 0.311894
0.580621 0.910185 0.263981
0.777401 0.885588 0.303868
0.913451 0.858579 0.394781
0.000000 0.111177 0.653681
0.000000 0.099489 0.657984
0.000000 0.000000 0.670802
0.346075 0.000000 0.699763
0.575433 0.000000 0.737636
0.712093 0.000000 0.690608
0.824063 0.000000 0.613581
0.964721 0.000000 0.563439
0.000000 0.134951 0.642267
0.000000 0.119448 0.646448
0.000000 0.070192 0.661433
0.327398 0.000000 0.690974
0.563561 0.000000 0.729824
0.706874 0.000000 0.685603
0.821378 0.000000 0.608667
0.964935 0.000000 0.560418
0.000000 0.253758 0.621454
0.000000 0.236484 0.627100
0.000000 0.152804 0.647242
0.257267 0.083314 0.678096
0.532982 0.000000 0.718502
0.702724 0.000000 0.682246
0.820127 0.000000 0.597650
0.968933 0.000000 0.554376
0.000000 0.355566 0.593927
0.000000 0.347845 0.591547
0.000000 0.321111 0.603296
0.000000 0.238651 0.649744
0.472236 0.213870 0.699855
0.700252 0.126406 0.681605
0.820554 0.000000 0.579004
0.974243 0.142977 0.560327
0.000000 0.467384 0.609705
0.000000 0.464118 0.609125
0.000000 0.451484 0.606622
0.000000 0.425910 0.602502
0.323156 0.381445 0.636408
0.671473 0.384283 0.657404
0.840085 0.370855 0.586816
0.966522 0.507836 0.619928
0.000000 0.602930 0.632593
0.000000 0.604425 0.634028
0.000000 0.604089 0.632807
0.000000 0.603693 0.630182
0.312169 0.604273 0.625177
0.625971 0.613428 0.621546
0.855589 0.664271 0.658625
0.962432 0.663691 0.646448
0.000000 0.800565 0.692500
0.000000 0.803311 0.692256
0.000000 0.808255 0.687251
0.000000 0.815976 0.676387
0.309758 0.811337 0.643427
0.609979 0.792020 0.606714
0.784207 0.752407 0.608362
0.943481 0.770962 0.634974
0.000000 0.931548 0.674434
0.000000 0.931487 0.669520
0.000000 0.931456 0.651972
0.000000 0.931456 0.620325
0.229191 0.925353 0.583185
0.573693 0.909972 0.571862
0.766171 0.891844 0.550347
0.902953 0.862394 0.601312
0.000000 0.104738 0.809567
0.000000 0.090883 0.812985
0.000000 0.000000 0.819364
0.269230 0.000000 0.831754
0.501610 0.000000 0.847868
0.715175 0.000000 0.865049
0.858152 0.000000 0.833219
0.943572 0.000000 0.736110
0.000000 0.123537 0.801877
0.000000 0.112795 0.805173
0.000000 0.046693 0.812436
0.244205 0.000000 0.824765
0.489143 0.000000 0.841611
0.708522 0.000000 0.860410
0.851469 0.000000 0.826719
0.938598 0.000000 0.730007
0.000000 0.257267 0.794186
0.000000 0.235203 0.796933
0.000000 0.145480 0.805173
0.116732 0.065522 0.818479
0.453590 0.000000 0.836027
0.694881 0.000000 0.857786
0.852293 0.000000 0.828061
0.941924 0.000000 0.727108
0.000000 0.382696 0.773739
0.000000 0.371954 0.775326
0.000000 0.329259 0.784421
0.000000 0.221103 0.804959
0.376104 0.185977 0.826322
0.667048 0.147799 0.852262
0.852110 0.000000 0.829465
0.943084 0.000000 0.717800
0.000000 0.492287 0.764065
0.000000 0.486336 0.762081
0.000000 0.465492 0.757870
0.000000 0.423133 0.760128
0.133791 0.339452 0.796475
0.607233 0.368292 0.830930
0.838041 0.340459 0.818631
0.937224 0.237766 0.700008
0.000000 0.614893 0.775875
0.000000 0.612482 0.775509
0.000000 0.603449 0.774044
0.000000 0.585840 0.772061
0.000000 0.554070 0.766812
0.503990 0.545098 0.792355
0.822507 0.593194 0.809567
0.932708 0.591516 0.737819
0.000000 0.756710 0.793606
0.000000 0.757412 0.794247
0.000000 0.757473 0.793759
0.000000 0.758328 0.793118
0.000000 0.758480 0.789517
0.511864 0.762142 0.783871
0.786130 0.773281 0.781582
0.927092 0.810513 0.809781
0.000000 0.919890 0.815946
0.000000 0.920714 0.814786
0.000000 0.925750 0.812222
0.000000 0.929534 0.802976
0.000000 0.928435 0.789120
0.551354 0.912718 0.776822
0.776791 0.892729 0.773190
0.891508 0.868528 0.772976
0.000000 0.099855 0.913024
0.000000 0.086305 0.914000
0.000000 0.000000 0.915129
0.120180 0.000000 0.918944
0.414191 0.000000 0.924010
0.616083 0.000000 0.930266
0.799710 0.000000 0.933928
0.946044 0.000000 0.919951
0.000000 0.118135 0.910704
0.000000 0.107790 0.911711
0.000000 0.040131 0.913298
0.008667 0.000000 0.916899
0.402625 0.000000 0.922179
0.610040 0.000000 0.928679
0.796963 0.000000 0.932525
0.944182 0.000000 0.918242
0.000000 0.242161 0.905974
0.000000 0.216251 0.907164
0.000000 0.137819 0.909209
0.000000 0.062470 0.914824
0.360235 0.000000 0.920012
0.590692 0.000000 0.926238
0.791226 0.000000 0.931640
0.942657 0.000000 0.917327
0.000000 0.371435 0.898497
0.000000 0.359777 0.899901
0.000000 0.312413 0.903014
0.000000 0.204715 0.910063
0.257542 0.165042 0.916289
0.554559 0.107485 0.923461
0.783810 0.112215 0.931487
0.940978 0.000000 0.916930
0.000000 0.495918 0.886015
0.000000 0.490425 0.886534
0.000000 0.463325 0.889189
0.000000 0.401770 0.897337
0.000000 0.306401 0.907500
0.486397 0.313390 0.915953
0.763546 0.377264 0.925170
0.935180 0.330602 0.914214
0.000000 0.605951 0.888457
0.000000 0.602045 0.887785
0.000000 0.587945 0.886412
0.000000 0.559960 0.885283
0.000000 0.509819 0.885588
0.360510 0.475990 0.903349
0.745235 0.578027 0.915984
0.925597 0.593164 0.910399
0.000000 0.727016 0.893462
0.000000 0.725154 0.893126
0.000000 0.718471 0.892363
0.000000 0.706569 0.892119
0.000000 0.687861 0.891325
0.193088 0.666987 0.888487
0.692866 0.712581 0.895079
0.908965 0.766018 0.900145
0.000000 0.859922 0.900237
0.000000 0.859861 0.900175
0.000000 0.860410 0.900420
0.000000 0.861204 0.900389
0.000000 0.862730 0.899351
0.322179 0.866117 0.895598
0.701656 0.871733 0.888792
0.888182 0.879057 0.884947
