其他预设/【233】日式怀旧街道调色预设208款/1.3D LUT预设（视频调色-PR-AE-PS-FCPX-达芬奇用）/1.日式城市街拍预设/JA – Subdued 2.cube
# Created by Adobe Lightroom plugin Export LUT (1.17.0)
# www.johnrellis.com/lightroom/exportlut.htm
# Preset: JA – Subdued 2
# Color profile: /Library/Application Support/Adobe/Color/Profiles/Recommended/AdobeRGB1998.icc
LUT_3D_SIZE 32
0.105257 0.103426 0.114748
0.105257 0.103426 0.114748
0.108003 0.103212 0.114900
0.119814 0.102266 0.114870
0.132082 0.100954 0.115023
0.146670 0.101320 0.114504
0.164675 0.101808 0.113802
0.187137 0.102968 0.112947
0.216770 0.104982 0.111421
0.257328 0.108614 0.108675
0.312108 0.114900 0.103700
0.379919 0.124849 0.095247
0.452369 0.138766 0.081544
0.521111 0.155428 0.061006
0.581781 0.172366 0.003693
0.635248 0.188815 0.000000
0.682338 0.203922 0.000000
0.723903 0.217990 0.000000
0.759670 0.230686 0.000000
0.797299 0.244022 0.000000
0.828305 0.254765 0.000000
0.853819 0.263096 0.000000
0.875425 0.269841 0.000000
0.894224 0.274937 0.000000
0.910857 0.279026 0.000000
0.926238 0.281865 0.000000
0.941070 0.284184 0.000000
0.955779 0.286046 0.000000
0.970764 0.287205 0.000000
0.986114 0.288273 0.000000
1.000000 0.288823 0.000000
1.000000 0.289250 0.000000
0.105257 0.103426 0.114748
0.105257 0.103426 0.114748
0.108278 0.103151 0.114900
0.120241 0.102968 0.114595
0.132753 0.103395 0.114412
0.147005 0.104311 0.114076
0.164584 0.105135 0.113558
0.186343 0.106477 0.112703
0.215488 0.108888 0.111177
0.255283 0.113039 0.108461
0.308965 0.120058 0.103517
0.375891 0.130617 0.095125
0.447669 0.145296 0.081453
0.516320 0.161288 0.061128
0.577264 0.177920 0.005158
0.630854 0.194400 0.000000
0.678218 0.208896 0.000000
0.720058 0.222599 0.000000
0.756252 0.234348 0.000000
0.794064 0.247379 0.000000
0.824887 0.257816 0.000000
0.850401 0.265934 0.000000
0.872160 0.272282 0.000000
0.891203 0.277195 0.000000
0.908110 0.280888 0.000000
0.923735 0.283940 0.000000
0.938811 0.286107 0.000000
0.953674 0.287785 0.000000
0.968811 0.289097 0.000000
0.984314 0.290074 0.000000
1.000000 0.290562 0.000000
1.000000 0.290806 0.000000
0.105104 0.106203 0.114748
0.105043 0.106691 0.114717
0.109071 0.106996 0.114809
0.120058 0.108186 0.114443
0.132662 0.108095 0.114290
0.146792 0.108522 0.113771
0.164248 0.109377 0.113252
0.185763 0.110964 0.112154
0.214572 0.113649 0.110842
0.254002 0.118685 0.108064
0.306798 0.126680 0.103304
0.373327 0.138186 0.094545
0.444831 0.153414 0.080995
0.513603 0.169802 0.059754
0.574517 0.186526 0.000244
0.628351 0.201755 0.000000
0.675746 0.216373 0.000000
0.717769 0.229252 0.000000
0.754330 0.240696 0.000000
0.792325 0.253086 0.000000
0.823117 0.263005 0.000000
0.848600 0.270695 0.000000
0.870481 0.276677 0.000000
0.889616 0.281254 0.000000
0.906676 0.284825 0.000000
0.922393 0.287205 0.000000
0.937530 0.289281 0.000000
0.952544 0.291020 0.000000
0.967773 0.292088 0.000000
0.983337 0.292729 0.000000
0.999237 0.293309 0.000000
1.000000 0.293309 0.000000
0.104555 0.117159 0.114107
0.105318 0.117678 0.114046
0.111360 0.117220 0.113924
0.121309 0.116915 0.113893
0.132509 0.116609 0.113802
0.146975 0.117617 0.113252
0.164431 0.118379 0.112490
0.185824 0.120455 0.111788
0.214572 0.123964 0.110170
0.253727 0.129976 0.107210
0.306035 0.140108 0.101839
0.371771 0.153262 0.092927
0.442603 0.170230 0.078187
0.510887 0.187594 0.052705
0.571832 0.203342 0.000000
0.625666 0.218173 0.000000
0.673243 0.231205 0.000000
0.715175 0.243320 0.000000
0.753140 0.254368 0.000000
0.790036 0.265171 0.000000
0.820188 0.273747 0.000000
0.845487 0.280430 0.000000
0.867613 0.285618 0.000000
0.887297 0.290105 0.000000
0.904997 0.293095 0.000000
0.921324 0.295506 0.000000
0.936889 0.296971 0.000000
0.952148 0.298375 0.000000
0.967468 0.299199 0.000000
0.983001 0.299443 0.000000
0.998749 0.299748 0.000000
1.000000 0.299443 0.000000
0.104067 0.128176 0.113558
0.107179 0.128176 0.113283
0.112245 0.127871 0.113375
0.121950 0.127413 0.113161
0.133730 0.127230 0.112825
0.146639 0.126802 0.112856
0.164065 0.129854 0.111879
0.185550 0.133059 0.110811
0.213901 0.137575 0.108797
0.252262 0.145754 0.105776
0.303929 0.157656 0.099794
0.368597 0.173983 0.089967
0.439277 0.192264 0.074159
0.507439 0.210422 0.039582
0.568688 0.226535 0.000000
0.623163 0.240696 0.000000
0.671321 0.253056 0.000000
0.713741 0.264042 0.000000
0.753902 0.274510 0.000000
0.789548 0.283848 0.000000
0.818967 0.291203 0.000000
0.843931 0.296391 0.000000
0.865965 0.300603 0.000000
0.885740 0.303868 0.000000
0.903593 0.306157 0.000000
0.920104 0.307805 0.000000
0.935760 0.308965 0.000000
0.951080 0.309514 0.000000
0.966430 0.309697 0.000000
0.981933 0.309667 0.000000
0.997742 0.309331 0.000000
1.000000 0.308690 0.000000
0.105318 0.140566 0.113954
0.108675 0.140352 0.113893
0.113497 0.140108 0.113588
0.122896 0.139559 0.113191
0.134859 0.139376 0.112612
0.148592 0.139742 0.111696
0.164065 0.140169 0.111025
0.185611 0.145480 0.109682
0.214817 0.154299 0.107240
0.253727 0.164797 0.103182
0.305486 0.179446 0.096712
0.369879 0.198795 0.085054
0.439643 0.219364 0.066011
0.507530 0.238529 0.012543
0.568353 0.254368 0.000000
0.622797 0.268223 0.000000
0.670954 0.279606 0.000000
0.713375 0.289342 0.000000
0.755520 0.299321 0.000000
0.790341 0.307012 0.000000
0.819303 0.312718 0.000000
0.844236 0.317327 0.000000
0.885435 0.328313 0.000000
0.903166 0.329625 0.000000
0.919097 0.330358 0.000000
0.933959 0.330175 0.000000
0.948211 0.329870 0.000000
0.962371 0.328954 0.000000
0.976715 0.328191 0.000000
0.991333 0.327184 0.000000
1.000000 0.325872 0.000000
1.000000 0.324498 0.000000
0.106905 0.157504 0.115541
0.110506 0.157290 0.115267
0.115450 0.157046 0.115175
0.125124 0.156680 0.114748
0.138796 0.155764 0.114015
0.152743 0.156588 0.113222
0.169375 0.157626 0.111788
0.189395 0.159731 0.110384
0.220310 0.170382 0.107210
0.262943 0.186801 0.101595
0.320775 0.210239 0.091615
0.387335 0.232731 0.076570
0.457069 0.254673 0.045869
0.522545 0.273442 0.000000
0.580896 0.288060 0.000000
0.632563 0.300206 0.000000
0.678676 0.309758 0.000000
0.724422 0.319463 0.000000
0.764828 0.327947 0.000000
0.798734 0.333928 0.000000
0.827756 0.338842 0.000000
0.853574 0.342504 0.000000
0.876555 0.345739 0.000000
0.896910 0.348241 0.000000
0.914824 0.349065 0.000000
0.930816 0.348455 0.000000
0.945678 0.347448 0.000000
0.960113 0.345983 0.000000
0.974640 0.344396 0.000000
0.989258 0.342687 0.000000
1.000000 0.340764 0.000000
1.000000 0.338964 0.000000
0.108888 0.175845 0.117037
0.112673 0.175631 0.116762
0.117494 0.175418 0.116670
0.127443 0.175021 0.116243
0.141085 0.174197 0.115511
0.156832 0.174228 0.114534
0.173404 0.176028 0.113619
0.193027 0.178531 0.112154
0.218997 0.183505 0.109773
0.260746 0.200748 0.103822
0.317449 0.225467 0.093599
0.386481 0.255833 0.075502
0.457465 0.283421 0.031861
0.522026 0.302831 0.000000
0.579828 0.317601 0.000000
0.631220 0.328954 0.000000
0.680140 0.339361 0.000000
0.726070 0.348882 0.000000
0.764401 0.355108 0.000000
0.797147 0.359716 0.000000
0.825589 0.362737 0.000000
0.851041 0.365515 0.000000
0.873869 0.367529 0.000000
0.894133 0.368963 0.000000
0.912139 0.369665 0.000000
0.928222 0.369421 0.000000
0.943236 0.367437 0.000000
0.957824 0.365179 0.000000
0.972503 0.362951 0.000000
0.987274 0.360510 0.000000
1.000000 0.358099 0.000000
1.000000 0.355596 0.000000
0.110323 0.199832 0.117372
0.114290 0.199496 0.117311
0.119478 0.199527 0.117189
0.130159 0.198978 0.116762
0.145357 0.198428 0.116152
0.162570 0.197726 0.115419
0.181033 0.199344 0.114168
0.201755 0.202762 0.112398
0.225986 0.207401 0.110018
0.259739 0.216342 0.105592
0.315801 0.242588 0.094820
0.383764 0.274052 0.075776
0.455665 0.305882 0.022797
0.523644 0.333684 0.000000
0.581292 0.350134 0.000000
0.635065 0.362860 0.000000
0.685206 0.373358 0.000000
0.728481 0.380774 0.000000
0.764950 0.385168 0.000000
0.796750 0.388251 0.000000
0.824582 0.389899 0.000000
0.849607 0.391028 0.000000
0.872160 0.391699 0.000000
0.892332 0.391974 0.000000
0.910246 0.391760 0.000000
0.926360 0.391089 0.000000
0.941405 0.389868 0.000000
0.956085 0.386694 0.000000
0.970764 0.383734 0.000000
0.985565 0.380438 0.000000
1.000000 0.377417 0.000000
1.000000 0.374334 0.000000
0.110231 0.231144 0.115877
0.114687 0.230930 0.115785
0.120638 0.230869 0.115450
0.133120 0.230350 0.115175
0.149996 0.229801 0.114504
0.169894 0.229038 0.113466
0.191348 0.228244 0.112184
0.213748 0.232944 0.110079
0.239933 0.238926 0.106966
0.270451 0.246464 0.102937
0.312963 0.259617 0.095064
0.379919 0.292302 0.074983
0.451209 0.325231 0.016449
0.518730 0.353765 0.000000
0.585016 0.380468 0.000000
0.643000 0.401099 0.000000
0.690822 0.410010 0.000000
0.732509 0.415564 0.000000
0.767605 0.418463 0.000000
0.798032 0.419318 0.000000
0.824704 0.419257 0.000000
0.848600 0.418585 0.000000
0.870268 0.417762 0.000000
0.889799 0.416327 0.000000
0.907469 0.414984 0.000000
0.923583 0.413397 0.000000
0.938842 0.411933 0.000000
0.953765 0.409705 0.000000
0.968811 0.405951 0.000000
0.983948 0.402167 0.000000
0.999268 0.398627 0.000000
1.000000 0.394995 0.000000
0.108370 0.269841 0.111727
0.113893 0.269871 0.111574
0.121798 0.269688 0.111391
0.136019 0.269383 0.110811
0.155734 0.268864 0.109773
0.178256 0.268406 0.108888
0.203159 0.268040 0.107057
0.229038 0.270329 0.104646
0.257816 0.277714 0.100557
0.291051 0.287053 0.094575
0.328954 0.298009 0.086580
0.376989 0.312779 0.072694
0.452003 0.349371 0.000000
0.522911 0.381140 0.000000
0.586297 0.406317 0.000000
0.642420 0.426123 0.000000
0.691798 0.441871 0.000000
0.733547 0.450629 0.000000
0.767575 0.451484 0.000000
0.797299 0.451026 0.000000
0.823484 0.449500 0.000000
0.847227 0.447395 0.000000
0.868772 0.445441 0.000000
0.888304 0.443030 0.000000
0.905882 0.440162 0.000000
0.921965 0.437659 0.000000
0.937163 0.435065 0.000000
0.952026 0.432959 0.000000
0.967010 0.429603 0.000000
0.982147 0.425147 0.000000
0.997528 0.420935 0.000000
1.000000 0.416846 0.000000
0.103975 0.318822 0.103120
0.111086 0.318822 0.102907
0.120668 0.318608 0.102693
0.138552 0.318273 0.101930
0.161868 0.318181 0.100771
0.188540 0.317601 0.099092
0.217227 0.317510 0.096590
0.246921 0.316930 0.093996
0.278233 0.323278 0.088777
0.313542 0.333562 0.080354
0.356085 0.348211 0.065827
0.404791 0.365026 0.025635
0.490883 0.407538 0.000000
0.560204 0.435676 0.000000
0.620478 0.457649 0.000000
0.672969 0.473945 0.000000
0.718715 0.486000 0.000000
0.756802 0.493690 0.000000
0.788510 0.498329 0.000000
0.814603 0.495521 0.000000
0.837736 0.490486 0.000000
0.858885 0.485542 0.000000
0.878141 0.480659 0.000000
0.895750 0.475929 0.000000
0.911955 0.471199 0.000000
0.927123 0.466865 0.000000
0.941619 0.462806 0.000000
0.955901 0.459388 0.000000
0.970245 0.456489 0.000000
0.984894 0.451667 0.000000
0.999756 0.446601 0.000000
1.000000 0.441688 0.000000
0.095125 0.383795 0.084291
0.105043 0.383673 0.084016
0.117250 0.383001 0.083894
0.140841 0.381628 0.082948
0.169192 0.380468 0.081666
0.200412 0.378637 0.079469
0.233280 0.377081 0.076722
0.266941 0.376715 0.072480
0.304662 0.380102 0.064057
0.345464 0.395026 0.031220
0.391852 0.411963 0.000000
0.443061 0.430030 0.000000
0.498268 0.448585 0.000000
0.548882 0.458503 0.000000
0.612421 0.480629 0.000000
0.665949 0.497505 0.000000
0.712001 0.509117 0.000000
0.750423 0.516228 0.000000
0.782620 0.520195 0.000000
0.810330 0.522301 0.000000
0.834806 0.522698 0.000000
0.855894 0.516442 0.000000
0.875059 0.510216 0.000000
0.892699 0.504143 0.000000
0.908965 0.498421 0.000000
0.924193 0.492958 0.000000
0.938811 0.487922 0.000000
0.953185 0.483589 0.000000
0.967681 0.479835 0.000000
0.982452 0.476326 0.000000
0.997498 0.470710 0.000000
1.000000 0.465339 0.000000
0.083375 0.438392 0.056001
0.096498 0.438453 0.055665
0.112215 0.438300 0.053651
0.140139 0.438087 0.049989
0.173281 0.437629 0.043214
0.209018 0.437079 0.034272
0.245945 0.437263 0.019104
0.283940 0.437659 0.002960
0.323278 0.438270 0.000000
0.363653 0.444221 0.000000
0.407599 0.458076 0.000000
0.455573 0.473426 0.000000
0.506493 0.488838 0.000000
0.559655 0.503838 0.000000
0.602136 0.506065 0.000000
0.658015 0.520775 0.000000
0.704067 0.532128 0.000000
0.743099 0.539025 0.000000
0.776150 0.542382 0.000000
0.804562 0.543938 0.000000
0.829679 0.544335 0.000000
0.852445 0.544305 0.000000
0.872435 0.540887 0.000000
0.890196 0.533745 0.000000
0.906554 0.526818 0.000000
0.921874 0.520317 0.000000
0.936614 0.514275 0.000000
0.951110 0.508995 0.000000
0.965728 0.504479 0.000000
0.980621 0.500572 0.000000
0.995758 0.495979 0.000000
1.000000 0.490089 0.000000
0.066041 0.498451 0.000000
0.084321 0.498573 0.000000
0.105440 0.497871 0.000000
0.138003 0.496864 0.000000
0.176028 0.495308 0.000000
0.214481 0.493660 0.000000
0.253605 0.492134 0.000000
0.293645 0.491005 0.000000
0.334234 0.490578 0.000000
0.375830 0.490852 0.000000
0.418067 0.499672 0.000000
0.463294 0.512718 0.000000
0.511223 0.526055 0.000000
0.560845 0.538872 0.000000
0.611322 0.550713 0.000000
0.647181 0.546960 0.000000
0.696498 0.555810 0.000000
0.736202 0.562463 0.000000
0.769711 0.565484 0.000000
0.798856 0.566369 0.000000
0.824399 0.566064 0.000000
0.847501 0.565240 0.000000
0.868376 0.563989 0.000000
0.887327 0.562493 0.000000
0.904051 0.555993 0.000000
0.919677 0.548516 0.000000
0.934752 0.541741 0.000000
0.949737 0.535729 0.000000
0.964813 0.530480 0.000000
0.980102 0.526146 0.000000
0.995666 0.522362 0.000000
1.000000 0.516533 0.000000
0.036194 0.548882 0.000000
0.069795 0.549126 0.000000
0.095857 0.548699 0.000000
0.134401 0.547875 0.000000
0.174868 0.546563 0.000000
0.217014 0.545037 0.000000
0.258366 0.543786 0.000000
0.300420 0.542596 0.000000
0.342596 0.541650 0.000000
0.384955 0.540795 0.000000
0.427344 0.540490 0.000000
0.469642 0.550622 0.000000
0.513603 0.560754 0.000000
0.559167 0.570794 0.000000
0.605768 0.580194 0.000000
0.652766 0.588922 0.000000
0.683803 0.581170 0.000000
0.728145 0.585504 0.000000
0.763210 0.588830 0.000000
0.793545 0.589776 0.000000
0.819974 0.589014 0.000000
0.843809 0.587671 0.000000
0.865232 0.585779 0.000000
0.884611 0.583551 0.000000
0.902312 0.581353 0.000000
0.918791 0.578485 0.000000
0.934020 0.570611 0.000000
0.949096 0.563684 0.000000
0.964233 0.557610 0.000000
0.979492 0.552300 0.000000
0.994903 0.547662 0.000000
1.000000 0.542840 0.000000
0.000000 0.591150 0.000000
0.051057 0.591058 0.000000
0.086122 0.590448 0.000000
0.127352 0.589593 0.000000
0.171786 0.588251 0.000000
0.214969 0.586694 0.000000
0.258000 0.585199 0.000000
0.300938 0.583581 0.000000
0.343603 0.582116 0.000000
0.386206 0.580713 0.000000
0.429023 0.579492 0.000000
0.470741 0.582238 0.000000
0.512627 0.591241 0.000000
0.555871 0.599969 0.000000
0.599969 0.608179 0.000000
0.644434 0.615656 0.000000
0.689143 0.622522 0.000000
0.716365 0.612177 0.000000
0.755947 0.612055 0.000000
0.787045 0.612665 0.000000
0.814115 0.611505 0.000000
0.838407 0.609522 0.000000
0.860380 0.607080 0.000000
0.880339 0.604273 0.000000
0.898528 0.601434 0.000000
0.915526 0.598627 0.000000
0.931731 0.596155 0.000000
0.947356 0.591730 0.000000
0.962707 0.584924 0.000000
0.978149 0.578882 0.000000
0.993774 0.573663 0.000000
1.000000 0.569024 0.000000
0.000000 0.629877 0.000000
0.016114 0.630152 0.000000
0.073915 0.649042 0.000000
0.124117 0.648035 0.000000
0.171817 0.646509 0.000000
0.218021 0.644312 0.000000
0.263188 0.641901 0.000000
0.307408 0.639338 0.000000
0.351476 0.636835 0.000000
0.395453 0.634455 0.000000
0.438666 0.632013 0.000000
0.481331 0.629328 0.000000
0.521904 0.633387 0.000000
0.563073 0.640070 0.000000
0.604639 0.646265 0.000000
0.646601 0.651789 0.000000
0.688594 0.656764 0.000000
0.730434 0.661250 0.000000
0.754208 0.647852 0.000000
0.787381 0.641871 0.000000
0.813840 0.639033 0.000000
0.837888 0.635706 0.000000
0.859678 0.632074 0.000000
0.879362 0.628107 0.000000
0.897185 0.623926 0.000000
0.913787 0.619898 0.000000
0.929686 0.616419 0.000000
0.945403 0.613581 0.000000
0.961120 0.611566 0.000000
0.976684 0.605890 0.000000
0.992370 0.599939 0.000000
1.000000 0.594659 0.000000
0.000000 0.669612 0.000000
0.000000 0.671809 0.000000
0.065003 0.673823 0.000000
0.116823 0.675166 0.000000
0.165743 0.675502 0.000000
0.212406 0.674495 0.000000
0.258488 0.672511 0.000000
0.302464 0.670253 0.000000
0.346807 0.667903 0.000000
0.390082 0.665431 0.000000
0.433051 0.662959 0.000000
0.475807 0.660212 0.000000
0.517296 0.657679 0.000000
0.556023 0.663233 0.000000
0.595392 0.668269 0.000000
0.635218 0.672847 0.000000
0.675013 0.677028 0.000000
0.714961 0.680751 0.000000
0.755001 0.684382 0.000000
0.778012 0.671290 0.000000
0.806760 0.661982 0.000000
0.831846 0.658106 0.000000
0.854459 0.654078 0.000000
0.874846 0.649775 0.000000
0.893278 0.645136 0.000000
0.910399 0.640589 0.000000
0.926787 0.636530 0.000000
0.942809 0.633204 0.000000
0.958862 0.630671 0.000000
0.974945 0.628748 0.000000
0.990997 0.626886 0.000000
1.000000 0.620966 0.000000
0.000000 0.699092 0.000000
0.000000 0.700862 0.000000
0.048280 0.702571 0.000000
0.111055 0.703548 0.000000
0.160861 0.703792 0.000000
0.207340 0.702785 0.000000
0.253361 0.701076 0.000000
0.297337 0.698970 0.000000
0.341253 0.696773 0.000000
0.384253 0.694392 0.000000
0.427039 0.691981 0.000000
0.469276 0.689265 0.000000
0.510765 0.685969 0.000000
0.549889 0.685756 0.000000
0.587366 0.689967 0.000000
0.625208 0.693721 0.000000
0.663172 0.697139 0.000000
0.701320 0.700252 0.000000
0.739651 0.703243 0.000000
0.777981 0.706142 0.000000
0.800168 0.693294 0.000000
0.825681 0.682063 0.000000
0.849363 0.676722 0.000000
0.870390 0.671901 0.000000
0.889372 0.666773 0.000000
0.906889 0.661707 0.000000
0.923552 0.657008 0.000000
0.939879 0.653071 0.000000
0.956207 0.649989 0.000000
0.972503 0.647608 0.000000
0.988861 0.645899 0.000000
1.000000 0.644739 0.000000
0.000000 0.725856 0.000000
0.000000 0.727352 0.000000
0.031678 0.728756 0.000000
0.106935 0.729549 0.000000
0.155917 0.729641 0.000000
0.203891 0.728664 0.000000
0.247623 0.727108 0.000000
0.291997 0.725063 0.000000
0.335088 0.722805 0.000000
0.377813 0.720485 0.000000
0.419776 0.718044 0.000000
0.461585 0.715297 0.000000
0.502525 0.712123 0.000000
0.542809 0.708614 0.000000
0.579706 0.710353 0.000000
0.616022 0.713802 0.000000
0.652857 0.717189 0.000000
0.690059 0.720424 0.000000
0.727413 0.723537 0.000000
0.765011 0.726741 0.000000
0.802701 0.729854 0.000000
0.825101 0.717983 0.000000
0.847776 0.704921 0.000000
0.870024 0.697963 0.000000
0.889525 0.692348 0.000000
0.907469 0.686702 0.000000
0.924498 0.681453 0.000000
0.941161 0.676936 0.000000
0.957733 0.673213 0.000000
0.974182 0.670253 0.000000
0.990631 0.667842 0.000000
1.000000 0.666072 0.000000
0.000000 0.756130 0.000000
0.000000 0.756588 0.000000
0.026642 0.756893 0.000000
0.103334 0.756771 0.000000
0.154330 0.756069 0.000000
0.200229 0.754879 0.000000
0.244388 0.753323 0.000000
0.287480 0.751553 0.000000
0.330327 0.749660 0.000000
0.372839 0.747646 0.000000
0.414435 0.745510 0.000000
0.455909 0.743069 0.000000
0.496529 0.740078 0.000000
0.536309 0.736751 0.000000
0.575280 0.733577 0.000000
0.610010 0.736141 0.000000
0.645167 0.738643 0.000000
0.680659 0.741115 0.000000
0.716365 0.743587 0.000000
0.752377 0.745968 0.000000
0.788296 0.748226 0.000000
0.824002 0.750362 0.000000
0.845243 0.738308 0.000000
0.864652 0.723079 0.000000
0.885191 0.714534 0.000000
0.903593 0.708431 0.000000
0.921080 0.702754 0.000000
0.938109 0.697810 0.000000
0.955016 0.693660 0.000000
0.971740 0.690181 0.000000
0.988434 0.687373 0.000000
1.000000 0.685237 0.000000
0.000000 0.777462 0.000000
0.000000 0.777920 0.000000
0.027802 0.778286 0.000000
0.103975 0.778134 0.000000
0.151247 0.777523 0.000000
0.196536 0.776364 0.000000
0.239780 0.774807 0.000000
0.282231 0.773037 0.000000
0.324285 0.771145 0.000000
0.365698 0.769131 0.000000
0.406683 0.767025 0.000000
0.447303 0.764614 0.000000
0.487129 0.761898 0.000000
0.526696 0.758816 0.000000
0.565362 0.755459 0.000000
0.601831 0.754391 0.000000
0.635798 0.756619 0.000000
0.670008 0.758907 0.000000
0.704677 0.761135 0.000000
0.739406 0.763363 0.000000
0.774228 0.765530 0.000000
0.809049 0.767544 0.000000
0.843595 0.769375 0.000000
0.864347 0.757809 0.000000
0.878843 0.738918 0.000000
0.898528 0.729427 0.000000
0.916503 0.723354 0.000000
0.933959 0.718044 0.000000
0.951202 0.713497 0.000000
0.968322 0.709712 0.000000
0.985443 0.706661 0.000000
1.000000 0.704341 0.000000
0.000000 0.801724 0.000000
0.000000 0.802243 0.000000
0.062684 0.802396 0.000000
0.110018 0.802029 0.000000
0.154665 0.801205 0.000000
0.197147 0.799893 0.000000
0.238529 0.798215 0.000000
0.279973 0.796139 0.000000
0.320439 0.793973 0.000000
0.360784 0.791592 0.000000
0.400336 0.789090 0.000000
0.439857 0.786435 0.000000
0.478981 0.783536 0.000000
0.517571 0.780270 0.000000
0.555413 0.776638 0.000000
0.592767 0.772763 0.000000
0.626215 0.772915 0.000000
0.658961 0.774472 0.000000
0.692164 0.776333 0.000000
0.725795 0.778378 0.000000
0.759518 0.780423 0.000000
0.793210 0.782254 0.000000
0.826596 0.783780 0.000000
0.859525 0.784939 0.000000
0.879271 0.773342 0.000000
0.894011 0.755581 0.000000
0.913115 0.745327 0.000000
0.930724 0.739406 0.000000
0.948150 0.734340 0.000000
0.965484 0.730068 0.000000
0.982940 0.726741 0.000000
1.000000 0.724178 0.000000
0.000000 0.819913 0.000000
0.039643 0.820340 0.000000
0.078065 0.820523 0.000000
0.116457 0.820249 0.000000
0.157290 0.819486 0.000000
0.197635 0.818296 0.000000
0.237308 0.816831 0.000000
0.276707 0.815122 0.000000
0.316014 0.813260 0.000000
0.355261 0.811276 0.000000
0.394263 0.809171 0.000000
0.433234 0.806882 0.000000
0.471565 0.804410 0.000000
0.509514 0.801602 0.000000
0.546960 0.798428 0.000000
0.584039 0.795010 0.000000
0.620111 0.791928 0.000000
0.651728 0.793210 0.000000
0.683803 0.794736 0.000000
0.716213 0.796323 0.000000
0.748745 0.797940 0.000000
0.781338 0.799435 0.000000
0.813596 0.800717 0.000000
0.845609 0.801694 0.000000
0.877165 0.802335 0.000000
0.896483 0.791135 0.000000
0.909697 0.772702 0.000000
0.928710 0.762234 0.000000
0.946471 0.756802 0.000000
0.964202 0.752316 0.000000
0.982055 0.748653 0.000000
1.000000 0.745846 0.000000
0.054627 0.838773 0.000000
0.077577 0.839017 0.000000
0.097841 0.838987 0.000000
0.128054 0.838529 0.000000
0.163241 0.837705 0.000000
0.200076 0.836515 0.000000
0.237644 0.835050 0.000000
0.275425 0.833402 0.000000
0.313390 0.831662 0.000000
0.351049 0.829862 0.000000
0.389105 0.827909 0.000000
0.426734 0.825956 0.000000
0.464393 0.823789 0.000000
0.501732 0.821256 0.000000
0.538323 0.818418 0.000000
0.574853 0.815244 0.000000
0.610895 0.811887 0.000000
0.644434 0.810422 0.000000
0.675349 0.811521 0.000000
0.706569 0.812802 0.000000
0.738003 0.814115 0.000000
0.769558 0.815335 0.000000
0.800870 0.816403 0.000000
0.831937 0.817258 0.000000
0.862760 0.817899 0.000000
0.893278 0.818265 0.000000
0.912322 0.807645 0.000000
0.924407 0.788968 0.000000
0.943236 0.778195 0.000000
0.961395 0.773465 0.000000
0.979583 0.769558 0.000000
0.997833 0.766445 0.000000
0.091157 0.855772 0.000000
0.103182 0.855894 0.000000
0.118349 0.855833 0.000000
0.142184 0.855497 0.000000
0.173159 0.854887 0.000000
0.206851 0.854185 0.000000
0.241855 0.853483 0.000000
0.278141 0.852750 0.000000
0.314916 0.851987 0.000000
0.351751 0.851225 0.000000
0.388739 0.850278 0.000000
0.426001 0.849210 0.000000
0.462806 0.847837 0.000000
0.499580 0.846067 0.000000
0.535851 0.843839 0.000000
0.571740 0.841154 0.000000
0.607294 0.838224 0.000000
0.642542 0.835172 0.000000
0.673732 0.835080 0.000000
0.703944 0.835935 0.000000
0.734371 0.836851 0.000000
0.764889 0.837736 0.000000
0.795254 0.838468 0.000000
0.825559 0.839048 0.000000
0.855528 0.839475 0.000000
0.885222 0.839750 0.000000
0.914702 0.839902 0.000000
0.933593 0.829709 0.000000
0.944701 0.810788 0.000000
0.963348 0.799588 0.000000
0.981567 0.795254 0.000000
0.999817 0.791592 0.000000
0.137758 0.877501 0.000000
0.145754 0.877501 0.000000
0.154391 0.877348 0.000000
0.172335 0.876921 0.000000
0.196201 0.876249 0.000000
0.223972 0.875364 0.000000
0.254459 0.874418 0.000000
0.286870 0.873381 0.000000
0.320470 0.872313 0.000000
0.354894 0.871153 0.000000
0.389563 0.869841 0.000000
0.424628 0.868437 0.000000
0.459785 0.866789 0.000000
0.495033 0.864866 0.000000
0.530053 0.862669 0.000000
0.564935 0.860258 0.000000
