其他预设/【233】日式怀旧街道调色预设208款/1.3D LUT预设（视频调色-PR-AE-PS-FCPX-达芬奇用）/1.日式城市街拍预设/JA – Chrome 2.cube
# Created by Adobe Lightroom plugin Export LUT (1.17.0)
# www.johnrellis.com/lightroom/exportlut.htm
# Preset: JA – Chrome 2
# Color profile: /Library/Application Support/Adobe/Color/Profiles/Recommended/AdobeRGB1998.icc
LUT_3D_SIZE 32
0.109712 0.106752 0.111879
0.109712 0.106752 0.111879
0.109712 0.106752 0.111879
0.119417 0.105989 0.111879
0.131960 0.104646 0.112032
0.144808 0.103182 0.111727
0.159701 0.103609 0.111330
0.176944 0.104097 0.110140
0.198398 0.105715 0.109133
0.229374 0.108156 0.107332
0.276127 0.112490 0.103487
0.343114 0.121462 0.096010
0.421485 0.134463 0.082948
0.499458 0.152407 0.061067
0.566674 0.170993 0.000000
0.624689 0.188602 0.000000
0.675471 0.205173 0.000000
0.720546 0.220493 0.000000
0.760647 0.232486 0.000000
0.801724 0.244388 0.000000
0.838895 0.255650 0.000000
0.871366 0.265843 0.000000
0.899413 0.274327 0.000000
0.923919 0.282261 0.000000
0.945373 0.289097 0.000000
0.964263 0.295079 0.000000
0.981231 0.300389 0.000000
0.996674 0.305180 0.000000
1.000000 0.309270 0.000000
1.000000 0.311620 0.000000
1.000000 0.312139 0.000000
1.000000 0.311681 0.000000
0.109712 0.106752 0.111879
0.109712 0.106752 0.111879
0.110018 0.106722 0.111879
0.119905 0.105898 0.111879
0.132357 0.105318 0.111757
0.145602 0.105501 0.111086
0.160250 0.106203 0.110475
0.176852 0.107332 0.110109
0.198306 0.109163 0.108858
0.229160 0.112001 0.107027
0.275731 0.117159 0.103090
0.342351 0.126772 0.095491
0.420478 0.141207 0.082124
0.498054 0.159243 0.059815
0.565118 0.177371 0.000000
0.622950 0.194766 0.000000
0.673823 0.211002 0.000000
0.718929 0.225406 0.000000
0.758968 0.236667 0.000000
0.799893 0.248386 0.000000
0.836759 0.259556 0.000000
0.869169 0.268620 0.000000
0.897337 0.277379 0.000000
0.922026 0.284916 0.000000
0.943694 0.291508 0.000000
0.962799 0.297124 0.000000
0.980011 0.302464 0.000000
0.995636 0.307408 0.000000
1.000000 0.311498 0.000000
1.000000 0.313970 0.000000
1.000000 0.314153 0.000000
1.000000 0.313725 0.000000
0.109621 0.107515 0.111818
0.109834 0.107942 0.111788
0.110536 0.108553 0.111727
0.120455 0.109438 0.111391
0.132784 0.109621 0.111208
0.145754 0.110079 0.110719
0.160403 0.110262 0.110140
0.177310 0.111482 0.109529
0.198550 0.113283 0.108522
0.229557 0.116579 0.106600
0.276371 0.122988 0.102663
0.342931 0.134157 0.094545
0.420905 0.149722 0.080659
0.498116 0.168246 0.056367
0.565118 0.186618 0.000000
0.623041 0.203494 0.000000
0.673732 0.219303 0.000000
0.718471 0.232273 0.000000
0.758511 0.242893 0.000000
0.799283 0.253880 0.000000
0.835996 0.264622 0.000000
0.868315 0.273899 0.000000
0.896483 0.281956 0.000000
0.921202 0.288975 0.000000
0.942931 0.295354 0.000000
0.962158 0.301183 0.000000
0.979431 0.306279 0.000000
0.995087 0.310857 0.000000
1.000000 0.314611 0.000000
1.000000 0.317021 0.000000
1.000000 0.317327 0.000000
1.000000 0.316686 0.000000
0.109224 0.117861 0.110994
0.109194 0.118105 0.110964
0.112062 0.118318 0.110872
0.121675 0.118257 0.110811
0.133242 0.118318 0.110445
0.146517 0.118898 0.110170
0.161257 0.119234 0.109560
0.178195 0.120302 0.108919
0.199802 0.122621 0.107820
0.231724 0.127077 0.105440
0.279301 0.135409 0.101076
0.346197 0.149477 0.092348
0.424262 0.167971 0.076509
0.500755 0.187808 0.043214
0.566857 0.205295 0.000000
0.624201 0.221744 0.000000
0.674281 0.234775 0.000000
0.718654 0.245792 0.000000
0.759091 0.256016 0.000000
0.798856 0.266484 0.000000
0.834928 0.275731 0.000000
0.866911 0.284123 0.000000
0.895171 0.291600 0.000000
0.920134 0.298375 0.000000
0.942290 0.304265 0.000000
0.961791 0.309331 0.000000
0.979309 0.313878 0.000000
0.995056 0.318090 0.000000
1.000000 0.321691 0.000000
1.000000 0.324254 0.000000
1.000000 0.324102 0.000000
1.000000 0.323217 0.000000
0.108400 0.129458 0.110140
0.108827 0.129793 0.110323
0.113130 0.129580 0.110018
0.122927 0.129091 0.109987
0.134524 0.129335 0.109804
0.146548 0.128511 0.109468
0.161898 0.130800 0.108614
0.179385 0.132937 0.107820
0.201816 0.135866 0.106355
0.234745 0.142214 0.103792
0.283604 0.153536 0.098360
0.351385 0.171420 0.088075
0.429145 0.193027 0.069764
0.504540 0.213870 0.019379
0.570184 0.231144 0.000000
0.626337 0.244785 0.000000
0.676020 0.256107 0.000000
0.720241 0.266361 0.000000
0.761471 0.275547 0.000000
0.800412 0.284977 0.000000
0.835630 0.292973 0.000000
0.867124 0.300328 0.000000
0.895109 0.307103 0.000000
0.920012 0.312627 0.000000
0.942046 0.317754 0.000000
0.961578 0.322148 0.000000
0.979004 0.325994 0.000000
0.994751 0.329107 0.000000
1.000000 0.332341 0.000000
1.000000 0.334813 0.000000
1.000000 0.334508 0.000000
1.000000 0.333379 0.000000
0.107454 0.141665 0.109316
0.110445 0.141482 0.109255
0.114626 0.141299 0.109163
0.123415 0.140841 0.108949
0.135073 0.140688 0.108583
0.148287 0.141634 0.108003
0.161898 0.140871 0.107759
0.179995 0.144594 0.106508
0.204837 0.151705 0.104524
0.240421 0.162020 0.100771
0.291936 0.177707 0.094026
0.361059 0.199435 0.081086
0.438209 0.223117 0.059480
0.511742 0.243656 0.000000
0.575311 0.259922 0.000000
0.630579 0.272557 0.000000
0.679713 0.283055 0.000000
0.723384 0.292027 0.000000
0.765042 0.300267 0.000000
0.803281 0.308293 0.000000
0.837949 0.315648 0.000000
0.869108 0.321630 0.000000
0.910094 0.331762 0.000000
0.932982 0.336156 0.000000
0.953033 0.339452 0.000000
0.970703 0.342229 0.000000
0.986542 0.344671 0.000000
1.000000 0.346624 0.000000
1.000000 0.348455 0.000000
1.000000 0.349828 0.000000
1.000000 0.349767 0.000000
1.000000 0.347845 0.000000
0.109102 0.155581 0.109804
0.112276 0.155520 0.109743
0.116365 0.155367 0.109651
0.124819 0.154818 0.109468
0.136843 0.154147 0.108919
0.149844 0.155306 0.108309
0.165499 0.157046 0.107454
0.181521 0.156985 0.106722
0.207309 0.165255 0.104402
0.246952 0.180972 0.099763
0.308202 0.207645 0.089540
0.381933 0.235264 0.072236
0.458015 0.260502 0.027771
0.528344 0.280888 0.000000
0.588800 0.295628 0.000000
0.641444 0.307225 0.000000
0.688808 0.316197 0.000000
0.733272 0.324224 0.000000
0.774136 0.331914 0.000000
0.811948 0.338201 0.000000
0.846372 0.344121 0.000000
0.877745 0.349035 0.000000
0.905577 0.353338 0.000000
0.930053 0.356878 0.000000
0.951293 0.359655 0.000000
0.969604 0.361639 0.000000
0.985718 0.363073 0.000000
1.000000 0.364141 0.000000
1.000000 0.365057 0.000000
1.000000 0.365728 0.000000
1.000000 0.365881 0.000000
1.000000 0.363195 0.000000
0.111055 0.170291 0.111086
0.113893 0.170291 0.110994
0.117922 0.170169 0.110903
0.126009 0.169680 0.110750
0.137697 0.169253 0.110201
0.151492 0.169039 0.109957
0.166659 0.171633 0.108949
0.185245 0.175204 0.107576
0.206210 0.177981 0.106264
0.245609 0.194736 0.101350
0.306065 0.223178 0.090852
0.385504 0.260716 0.068391
0.469520 0.297856 0.000000
0.537072 0.318181 0.000000
0.595758 0.332158 0.000000
0.647120 0.342657 0.000000
0.695003 0.351171 0.000000
0.738613 0.358190 0.000000
0.777920 0.363958 0.000000
0.814359 0.368841 0.000000
0.847898 0.373022 0.000000
0.878416 0.376745 0.000000
0.905730 0.379644 0.000000
0.929839 0.381842 0.000000
0.950774 0.383154 0.000000
0.968963 0.383795 0.000000
0.985016 0.384344 0.000000
0.999481 0.384253 0.000000
1.000000 0.384131 0.000000
1.000000 0.383886 0.000000
1.000000 0.383398 0.000000
1.000000 0.381201 0.000000
0.112673 0.189303 0.112337
0.116060 0.189120 0.112062
0.119997 0.188998 0.111971
0.128328 0.188785 0.111757
0.140108 0.188479 0.111421
0.154604 0.188052 0.110933
0.170962 0.189761 0.110018
0.190372 0.195224 0.108400
0.214847 0.202335 0.105806
0.243809 0.209812 0.102480
0.304845 0.240574 0.090700
0.383429 0.280247 0.066255
0.467536 0.320226 0.000000
0.543175 0.352544 0.000000
0.605035 0.373053 0.000000
0.656672 0.383032 0.000000
0.703548 0.390478 0.000000
0.745205 0.395544 0.000000
0.782834 0.399298 0.000000
0.818082 0.402350 0.000000
0.850614 0.405341 0.000000
0.880278 0.407416 0.000000
0.906889 0.408637 0.000000
0.930449 0.409369 0.000000
0.951019 0.409491 0.000000
0.968902 0.408820 0.000000
0.984802 0.407752 0.000000
0.999115 0.406867 0.000000
1.000000 0.405707 0.000000
1.000000 0.404456 0.000000
1.000000 0.402960 0.000000
1.000000 0.401343 0.000000
0.113924 0.215549 0.111757
0.117433 0.215488 0.111666
0.121798 0.215457 0.111543
0.131044 0.215274 0.111299
0.144106 0.215091 0.110903
0.160037 0.214817 0.110353
0.178073 0.214603 0.109377
0.199313 0.220798 0.107332
0.226139 0.230930 0.103883
0.260288 0.244144 0.098299
0.299413 0.257237 0.091096
0.380407 0.300206 0.063172
0.463691 0.341955 0.000000
0.539239 0.375555 0.000000
0.607141 0.402655 0.000000
0.665797 0.423743 0.000000
0.713283 0.433082 0.000000
0.753384 0.436469 0.000000
0.789700 0.438117 0.000000
0.823545 0.439490 0.000000
0.854582 0.440284 0.000000
0.882750 0.440345 0.000000
0.908202 0.440131 0.000000
0.930816 0.439002 0.000000
0.950805 0.437720 0.000000
0.968444 0.435584 0.000000
0.984253 0.433692 0.000000
0.998566 0.431434 0.000000
1.000000 0.429084 0.000000
1.000000 0.426734 0.000000
1.000000 0.424567 0.000000
1.000000 0.422065 0.000000
0.112734 0.251865 0.108797
0.117037 0.251835 0.108675
0.122316 0.251835 0.108522
0.133639 0.251957 0.107912
0.149386 0.251804 0.107393
0.168032 0.252140 0.106294
0.188998 0.252201 0.105257
0.212100 0.254032 0.103517
0.242130 0.267247 0.098299
0.279850 0.284154 0.090211
0.325902 0.304387 0.077394
0.372320 0.319829 0.061311
0.463172 0.367346 0.000000
0.539574 0.402777 0.000000
0.605646 0.429084 0.000000
0.663447 0.449409 0.000000
0.714656 0.465339 0.000000
0.760006 0.478340 0.000000
0.795438 0.478798 0.000000
0.827970 0.478065 0.000000
0.857939 0.476967 0.000000
0.885313 0.475532 0.000000
0.910063 0.473610 0.000000
0.932067 0.470954 0.000000
0.951537 0.468055 0.000000
0.968780 0.464759 0.000000
0.984222 0.461250 0.000000
0.998291 0.457710 0.000000
1.000000 0.454200 0.000000
1.000000 0.450843 0.000000
1.000000 0.447486 0.000000
1.000000 0.444221 0.000000
0.108583 0.301457 0.100282
0.114290 0.301610 0.100069
0.121401 0.301579 0.099855
0.135714 0.301640 0.099306
0.155612 0.301884 0.098146
0.178134 0.302129 0.096986
0.203525 0.302708 0.095247
0.230320 0.303197 0.092958
0.261051 0.310552 0.087648
0.301061 0.329656 0.075288
0.350072 0.353185 0.049897
0.406989 0.378973 0.000000
0.479713 0.412909 0.000000
0.559075 0.446632 0.000000
0.622858 0.470893 0.000000
0.679042 0.489174 0.000000
0.728328 0.503105 0.000000
0.772183 0.513878 0.000000
0.811063 0.522271 0.000000
0.844938 0.526726 0.000000
0.872068 0.522332 0.000000
0.896757 0.517876 0.000000
0.919066 0.512840 0.000000
0.939055 0.508049 0.000000
0.956970 0.502647 0.000000
0.972992 0.497353 0.000000
0.987457 0.492226 0.000000
1.000000 0.486946 0.000000
1.000000 0.482185 0.000000
1.000000 0.477394 0.000000
1.000000 0.472816 0.000000
1.000000 0.468299 0.000000
0.099367 0.366094 0.081697
0.107790 0.365911 0.081514
0.117983 0.365728 0.080903
0.137148 0.365270 0.080262
0.162417 0.364569 0.078859
0.189792 0.364141 0.077180
0.219699 0.363806 0.074434
0.251133 0.364965 0.070466
0.284886 0.366827 0.064271
0.326299 0.383825 0.030121
0.376349 0.408240 0.000000
0.432807 0.433845 0.000000
0.493782 0.459236 0.000000
0.548943 0.475013 0.000000
0.616175 0.496559 0.000000
0.672908 0.515251 0.000000
0.722530 0.528862 0.000000
0.766476 0.539055 0.000000
0.805814 0.546960 0.000000
0.841154 0.553002 0.000000
0.872587 0.557610 0.000000
0.898466 0.555810 0.000000
0.920043 0.549279 0.000000
0.939513 0.542535 0.000000
0.956970 0.535668 0.000000
0.972656 0.528985 0.000000
0.986938 0.522332 0.000000
1.000000 0.515953 0.000000
1.000000 0.509880 0.000000
1.000000 0.504051 0.000000
1.000000 0.498451 0.000000
1.000000 0.492927 0.000000
0.086519 0.427100 0.039216
0.097963 0.427131 0.039033
0.111696 0.426886 0.036744
0.135866 0.427008 0.032868
0.165805 0.426520 0.027100
0.198184 0.426276 0.019898
0.232395 0.426398 0.008576
0.267857 0.426429 0.000000
0.304082 0.427039 0.000000
0.341680 0.429206 0.000000
0.388678 0.450538 0.000000
0.440864 0.472938 0.000000
0.496651 0.495125 0.000000
0.555749 0.516716 0.000000
0.608728 0.529778 0.000000
0.666163 0.541497 0.000000
0.715785 0.554772 0.000000
0.760067 0.564691 0.000000
0.799985 0.571923 0.000000
0.835813 0.577508 0.000000
0.867887 0.581476 0.000000
0.896147 0.584131 0.000000
0.920867 0.585382 0.000000
0.940398 0.578637 0.000000
0.957366 0.570214 0.000000
0.972717 0.561822 0.000000
0.986755 0.553918 0.000000
0.999634 0.546227 0.000000
1.000000 0.538811 0.000000
1.000000 0.531853 0.000000
1.000000 0.525200 0.000000
1.000000 0.518700 0.000000
0.068299 0.486305 0.000000
0.084413 0.486244 0.000000
0.102235 0.485969 0.000000
0.132296 0.485298 0.000000
0.166567 0.484291 0.000000
0.203037 0.483192 0.000000
0.240024 0.482277 0.000000
0.277562 0.481392 0.000000
0.315770 0.481025 0.000000
0.354711 0.481025 0.000000
0.396307 0.488197 0.000000
0.444648 0.507836 0.000000
0.496529 0.527581 0.000000
0.551141 0.547143 0.000000
0.608087 0.565637 0.000000
0.659663 0.577325 0.000000
0.707942 0.581445 0.000000
0.753872 0.590875 0.000000
0.794186 0.597864 0.000000
0.830564 0.602869 0.000000
0.863005 0.606256 0.000000
0.891814 0.608118 0.000000
0.916960 0.608576 0.000000
0.938933 0.607996 0.000000
0.957794 0.605646 0.000000
0.972900 0.596002 0.000000
0.986725 0.586572 0.000000
0.999542 0.577630 0.000000
1.000000 0.569146 0.000000
1.000000 0.561059 0.000000
1.000000 0.553338 0.000000
1.000000 0.545769 0.000000
0.030396 0.536431 0.000000
0.066712 0.536492 0.000000
0.090181 0.536248 0.000000
0.125826 0.535668 0.000000
0.163668 0.534813 0.000000
0.204562 0.533684 0.000000
0.243595 0.532708 0.000000
0.283146 0.531914 0.000000
0.323186 0.530877 0.000000
0.362829 0.530083 0.000000
0.402960 0.529107 0.000000
0.446754 0.540337 0.000000
0.494606 0.557458 0.000000
0.545251 0.574578 0.000000
0.598077 0.591394 0.000000
0.652338 0.607385 0.000000
0.702602 0.618097 0.000000
0.744167 0.617060 0.000000
0.788174 0.624140 0.000000
0.825467 0.629053 0.000000
0.858762 0.632074 0.000000
0.888151 0.633356 0.000000
0.913848 0.633173 0.000000
0.936187 0.631861 0.000000
0.955627 0.629541 0.000000
0.972686 0.626734 0.000000
0.987182 0.620539 0.000000
0.999695 0.610346 0.000000
1.000000 0.600427 0.000000
1.000000 0.591150 0.000000
1.000000 0.582086 0.000000
1.000000 0.573480 0.000000
0.000000 0.579248 0.000000
0.030518 0.579065 0.000000
0.078004 0.578729 0.000000
0.118288 0.578119 0.000000
0.160067 0.577264 0.000000
0.201938 0.576196 0.000000
0.243046 0.574975 0.000000
0.283726 0.573724 0.000000
0.324285 0.572442 0.000000
0.364782 0.571160 0.000000
0.405432 0.569757 0.000000
0.445838 0.568383 0.000000
0.491005 0.584070 0.000000
0.538537 0.599878 0.000000
0.588128 0.615381 0.000000
0.638911 0.630121 0.000000
0.691096 0.644465 0.000000
0.741054 0.655360 0.000000
0.777462 0.650538 0.000000
0.819425 0.655116 0.000000
0.853300 0.657679 0.000000
0.883268 0.658534 0.000000
0.909514 0.657771 0.000000
0.932433 0.655787 0.000000
0.952392 0.652735 0.000000
0.969818 0.649195 0.000000
0.985229 0.645197 0.000000
0.998962 0.641047 0.000000
1.000000 0.632227 0.000000
1.000000 0.621668 0.000000
1.000000 0.611597 0.000000
1.000000 0.601862 0.000000
0.000000 0.618250 0.000000
0.000000 0.618341 0.000000
0.056733 0.628870 0.000000
0.109224 0.628168 0.000000
0.156832 0.627008 0.000000
0.201175 0.625605 0.000000
0.243900 0.623926 0.000000
0.286290 0.622126 0.000000
0.328038 0.620294 0.000000
0.369970 0.618341 0.000000
0.410773 0.616510 0.000000
0.451667 0.614282 0.000000
0.493019 0.616785 0.000000
0.537926 0.630884 0.000000
0.584863 0.644862 0.000000
0.633021 0.658473 0.000000
0.682582 0.671839 0.000000
0.732845 0.684596 0.000000
0.782040 0.695186 0.000000
0.812955 0.686122 0.000000
0.851499 0.687068 0.000000
0.881437 0.686732 0.000000
0.907713 0.684932 0.000000
0.930602 0.681758 0.000000
0.950347 0.677668 0.000000
0.967681 0.672999 0.000000
0.983093 0.667964 0.000000
0.996826 0.662928 0.000000
1.000000 0.657832 0.000000
1.000000 0.652766 0.000000
1.000000 0.641688 0.000000
1.000000 0.630823 0.000000
0.000000 0.657069 0.000000
0.000000 0.658289 0.000000
0.019104 0.659388 0.000000
0.099031 0.660029 0.000000
0.148745 0.660060 0.000000
0.195377 0.659174 0.000000
0.239872 0.657862 0.000000
0.282383 0.656184 0.000000
0.324651 0.654414 0.000000
0.366308 0.652522 0.000000
0.407935 0.650568 0.000000
0.448676 0.648341 0.000000
0.489082 0.645838 0.000000
0.530846 0.652857 0.000000
0.575219 0.665980 0.000000
0.621149 0.678859 0.000000
0.668177 0.691463 0.000000
0.716091 0.703670 0.000000
0.764645 0.715267 0.000000
0.813016 0.726070 0.000000
0.839567 0.714015 0.000000
0.875944 0.712551 0.000000
0.903014 0.710323 0.000000
0.926452 0.706813 0.000000
0.946838 0.702052 0.000000
0.964630 0.696712 0.000000
0.980377 0.691005 0.000000
0.994476 0.685206 0.000000
1.000000 0.679438 0.000000
1.000000 0.673671 0.000000
1.000000 0.667872 0.000000
1.000000 0.660426 0.000000
0.000000 0.690150 0.000000
0.000000 0.691279 0.000000
0.000000 0.692195 0.000000
0.089021 0.692714 0.000000
0.142306 0.692653 0.000000
0.190158 0.691951 0.000000
0.234836 0.690639 0.000000
0.278355 0.689082 0.000000
0.320653 0.687465 0.000000
0.362860 0.685664 0.000000
0.404120 0.683803 0.000000
0.445197 0.681727 0.000000
0.485664 0.679255 0.000000
0.525414 0.676478 0.000000
0.567681 0.687739 0.000000
0.611322 0.699825 0.000000
0.656123 0.711727 0.000000
0.701839 0.723140 0.000000
0.747829 0.733974 0.000000
0.794217 0.744259 0.000000
0.840421 0.753811 0.000000
0.864378 0.740475 0.000000
0.898253 0.736324 0.000000
0.922332 0.732235 0.000000
0.943206 0.726925 0.000000
0.961395 0.720912 0.000000
0.977508 0.714473 0.000000
0.991852 0.708003 0.000000
1.000000 0.701503 0.000000
1.000000 0.695033 0.000000
1.000000 0.688563 0.000000
1.000000 0.682094 0.000000
0.000000 0.722377 0.000000
0.000000 0.723262 0.000000
0.000000 0.724208 0.000000
0.075349 0.724666 0.000000
0.135256 0.724605 0.000000
0.183963 0.723903 0.000000
0.229892 0.722713 0.000000
0.273594 0.721248 0.000000
0.316503 0.719539 0.000000
0.358618 0.717830 0.000000
0.400031 0.715908 0.000000
0.440986 0.713863 0.000000
0.481575 0.711452 0.000000
0.521508 0.708858 0.000000
0.561334 0.709560 0.000000
0.603113 0.721157 0.000000
0.646204 0.732540 0.000000
0.689998 0.743557 0.000000
0.734340 0.754086 0.000000
0.779019 0.764065 0.000000
0.823606 0.773373 0.000000
0.867887 0.781857 0.000000
0.889647 0.767391 0.000000
0.920287 0.760433 0.000000
0.941772 0.754208 0.000000
0.960235 0.747372 0.000000
0.976410 0.740139 0.000000
0.990845 0.732876 0.000000
1.000000 0.725551 0.000000
1.000000 0.718318 0.000000
1.000000 0.711116 0.000000
1.000000 0.703822 0.000000
0.000000 0.757809 0.000000
0.000000 0.758145 0.000000
0.000000 0.758358 0.000000
0.054200 0.758236 0.000000
0.126894 0.757717 0.000000
0.178408 0.756771 0.000000
0.224460 0.755703 0.000000
0.269200 0.754330 0.000000
0.312413 0.752987 0.000000
0.354894 0.751431 0.000000
0.396979 0.749813 0.000000
0.438209 0.747921 0.000000
0.478950 0.745693 0.000000
0.518791 0.743191 0.000000
0.558282 0.740352 0.000000
0.598047 0.744869 0.000000
0.638941 0.755032 0.000000
0.680598 0.764920 0.000000
0.722621 0.774289 0.000000
0.764950 0.783139 0.000000
0.807218 0.791318 0.000000
0.849119 0.798764 0.000000
0.890410 0.805325 0.000000
0.910094 0.790097 0.000000
0.936828 0.780514 0.000000
0.956634 0.772305 0.000000
0.973266 0.764462 0.000000
0.988037 0.756466 0.000000
1.000000 0.748592 0.000000
1.000000 0.740719 0.000000
1.000000 0.732967 0.000000
1.000000 0.725032 0.000000
0.000000 0.787503 0.000000
0.000000 0.787839 0.000000
0.000000 0.788083 0.000000
0.019287 0.787961 0.000000
0.119020 0.787442 0.000000
0.172335 0.786557 0.000000
0.219883 0.785428 0.000000
0.264042 0.784085 0.000000
0.307897 0.782650 0.000000
0.350103 0.781155 0.000000
0.391852 0.779538 0.000000
0.432990 0.777707 0.000000
0.473396 0.775601 0.000000
0.513756 0.773220 0.000000
0.553124 0.770687 0.000000
0.592096 0.767880 0.000000
0.631128 0.775540 0.000000
0.670954 0.784604 0.000000
0.711086 0.793149 0.000000
0.751522 0.801236 0.000000
0.791867 0.808652 0.000000
0.832029 0.815427 0.000000
0.871611 0.821469 0.000000
0.910460 0.826627 0.000000
0.928069 0.810483 0.000000
0.951019 0.798367 0.000000
0.969482 0.788571 0.000000
0.984649 0.780056 0.000000
0.998199 0.771572 0.000000
1.000000 0.763210 0.000000
1.000000 0.754910 0.000000
1.000000 0.746548 0.000000
0.000000 0.818723 0.000000
0.000000 0.819089 0.000000
0.000000 0.819181 0.000000
0.000000 0.818936 0.000000
0.112398 0.818296 0.000000
0.167575 0.817288 0.000000
0.215396 0.816007 0.000000
0.260380 0.814450 0.000000
0.303746 0.812772 0.000000
0.345922 0.810971 0.000000
0.387396 0.809018 0.000000
0.428260 0.807004 0.000000
0.468421 0.804807 0.000000
0.508171 0.802243 0.000000
0.547265 0.799466 0.000000
0.585840 0.796506 0.000000
0.623865 0.795346 0.000000
0.661524 0.803098 0.000000
0.699794 0.810666 0.000000
0.738369 0.817899 0.000000
0.776974 0.824643 0.000000
0.815366 0.830686 0.000000
0.853208 0.835966 0.000000
0.890257 0.840360 0.000000
0.926574 0.844022 0.000000
0.944732 0.829679 0.000000
0.964508 0.815610 0.000000
0.981598 0.804227 0.000000
0.995331 0.795163 0.000000
1.000000 0.786191 0.000000
1.000000 0.777340 0.000000
1.000000 0.768490 0.000000
0.000000 0.844755 0.000000
0.000000 0.845060 0.000000
0.000000 0.845182 0.000000
0.000000 0.844938 0.000000
0.107485 0.844358 0.000000
0.163333 0.843473 0.000000
0.211276 0.842344 0.000000
0.256260 0.841001 0.000000
0.299443 0.839567 0.000000
0.341375 0.838010 0.000000
0.382300 0.836332 0.000000
0.423133 0.834531 0.000000
0.463203 0.832578 0.000000
0.502739 0.830350 0.000000
0.541802 0.827848 0.000000
0.580316 0.825193 0.000000
0.618402 0.822385 0.000000
0.655329 0.824247 0.000000
0.691798 0.830686 0.000000
0.728542 0.836851 0.000000
0.765316 0.842527 0.000000
0.801907 0.847623 0.000000
0.837980 0.852049 0.000000
0.873472 0.855772 0.000000
0.908324 0.858854 0.000000
0.942290 0.861326 0.000000
0.959991 0.847654 0.000000
0.977050 0.832181 0.000000
0.992889 0.819516 0.000000
1.000000 0.809903 0.000000
1.000000 0.800534 0.000000
1.000000 0.791257 0.000000
0.000000 0.870298 0.000000
0.000000 0.870512 0.000000
0.000000 0.870451 0.000000
0.000000 0.870115 0.000000
0.108034 0.869444 0.000000
0.161898 0.868528 0.000000
0.208896 0.867430 0.000000
0.253117 0.866148 0.000000
0.295445 0.864775 0.000000
0.337133 0.863340 0.000000
0.377661 0.861784 0.000000
0.418097 0.860166 0.000000
0.457649 0.858396 0.000000
0.496986 0.856352 0.000000
0.535546 0.854063 0.000000
0.573754 0.851560 0.000000
0.611536 0.848905 0.000000
0.648981 0.846189 0.000000
0.684321 0.849973 0.000000
0.719203 0.855009 0.000000
0.754330 0.859678 0.000000
0.789212 0.863859 0.000000
0.823697 0.867491 0.000000
0.857755 0.870573 0.000000
0.891142 0.873075 0.000000
0.923888 0.875029 0.000000
0.955840 0.876555 0.000000
0.973236 0.863767 0.000000
0.987854 0.847166 0.000000
1.000000 0.833219 0.000000
1.000000 0.823301 0.000000
1.000000 0.813565 0.000000
0.000000 0.893492 0.000000
0.000000 0.893553 0.000000
0.000000 0.893492 0.000000
0.011872 0.893248 0.000000
0.113588 0.892729 0.000000
0.164248 0.892119 0.000000
0.209628 0.891508 0.000000
0.252476 0.890867 0.000000
0.294438 0.890135 0.000000
0.335515 0.889342 0.000000
0.375647 0.888426 0.000000
0.415503 0.887388 0.000000
0.454871 0.886107 0.000000
0.493843 0.884520 0.000000
0.532311 0.882597 0.000000
0.570153 0.880369 0.000000
0.607691 0.877928 0.000000
0.644831 0.875395 0.000000
0.681270 0.873655 0.000000
0.714565 0.877348 0.000000
0.747890 0.880735 0.000000
0.781125 0.883757 0.000000
0.813993 0.886320 0.000000
0.846525 0.888426 0.000000
0.878325 0.890074 0.000000
0.909575 0.891325 0.000000
0.940154 0.892180 0.000000
0.969879 0.892638 0.000000
0.986755 0.880613 0.000000
0.998779 0.862943 0.000000
1.000000 0.847745 0.000000
1.000000 0.837461 0.000000
0.000000 0.918151 0.000000
0.000000 0.918151 0.000000
0.000000 0.918029 0.000000
0.082033 0.917662 0.000000
0.131350 0.917113 0.000000
0.174899 0.916411 0.000000
0.216800 0.915618 0.000000
0.256626 0.914763 0.000000
0.296483 0.913787 0.000000
0.335698 0.912718 0.000000
0.374578 0.911559 0.000000
0.412940 0.910246 0.000000
0.451118 0.908751 0.000000
0.489174 0.907042 0.000000
0.526635 0.905119 0.000000
0.563714 0.903044 0.000000
