其他预设/【233】日式怀旧街道调色预设208款/1.3D LUT预设（视频调色-PR-AE-PS-FCPX-达芬奇用）/1.日式城市街拍预设/JA – Subdued 2.cube
# Created by Adobe Lightroom plugin Export LUT (1.17.0)
# www.johnrellis.com/lightroom/exportlut.htm
# Preset: JA – Subdued 2
# Color profile: /Library/Application Support/Adobe/Color/Profiles/Recommended/AdobeRGB1998.icc
LUT_3D_SIZE 8
DOMAIN_MIN 0.000000 0.000000 0.000000
DOMAIN_MAX 0.903226 0.903226 0.903226
0.105257 0.103426 0.114748
0.132082 0.100954 0.115023
0.216770 0.104982 0.111421
0.452369 0.138766 0.081544
0.682338 0.203922 0.000000
0.828305 0.254765 0.000000
0.910857 0.279026 0.000000
0.970764 0.287205 0.000000
0.104067 0.128176 0.113558
0.133730 0.127230 0.112825
0.213901 0.137575 0.108797
0.439277 0.192264 0.074159
0.671321 0.253056 0.000000
0.818967 0.291203 0.000000
0.903593 0.306157 0.000000
0.966430 0.309697 0.000000
0.110323 0.199832 0.117372
0.145357 0.198428 0.116152
0.225986 0.207401 0.110018
0.455665 0.305882 0.022797
0.685206 0.373358 0.000000
0.824582 0.389899 0.000000
0.910246 0.391760 0.000000
0.970764 0.383734 0.000000
0.095125 0.383795 0.084291
0.169192 0.380468 0.081666
0.304662 0.380102 0.064057
0.498268 0.448585 0.000000
0.712001 0.509117 0.000000
0.834806 0.522698 0.000000
0.908965 0.498421 0.000000
0.967681 0.479835 0.000000
0.000000 0.591150 0.000000
0.171786 0.588251 0.000000
0.343603 0.582116 0.000000
0.512627 0.591241 0.000000
0.689143 0.622522 0.000000
0.814115 0.611505 0.000000
0.898528 0.601434 0.000000
0.962707 0.584924 0.000000
0.000000 0.725856 0.000000
0.155917 0.729641 0.000000
0.335088 0.722805 0.000000
0.502525 0.712123 0.000000
0.652857 0.717189 0.000000
0.802701 0.729854 0.000000
0.889525 0.692348 0.000000
0.957733 0.673213 0.000000
0.000000 0.819913 0.000000
0.157290 0.819486 0.000000
0.316014 0.813260 0.000000
0.471565 0.804410 0.000000
0.620111 0.791928 0.000000
0.748745 0.797940 0.000000
0.877165 0.802335 0.000000
0.946471 0.756802 0.000000
0.171237 0.894499 0.000000
0.216922 0.893400 0.000000
0.328038 0.890410 0.000000
0.460121 0.886351 0.000000
0.589166 0.872343 0.000000
0.718288 0.868650 0.000000
0.834867 0.872526 0.000000
0.947509 0.873075 0.000000
0.101198 0.106081 0.137148
0.127657 0.099886 0.136629
0.203067 0.099519 0.130831
0.426276 0.116091 0.116030
0.664668 0.176699 0.029847
0.813748 0.231266 0.000000
0.900359 0.267308 0.000000
0.963439 0.290715 0.000000
0.100496 0.125734 0.139498
0.128725 0.125978 0.139223
0.206760 0.132876 0.134920
0.426398 0.169497 0.112367
0.661585 0.225528 0.003082
0.809598 0.266728 0.000000
0.895048 0.292302 0.000000
0.959014 0.310521 0.000000
0.100435 0.195468 0.145022
0.130312 0.198154 0.139284
0.220706 0.204288 0.132937
0.443793 0.291173 0.092409
0.670649 0.348791 0.000000
0.812070 0.367864 0.000000
0.897734 0.372747 0.000000
0.962097 0.375494 0.000000
0.000000 0.373358 0.128450
0.117586 0.376898 0.113375
0.287785 0.377935 0.099672
0.469520 0.423346 0.010071
0.679194 0.480751 0.000000
0.814328 0.500114 0.000000
0.895750 0.481971 0.000000
0.959380 0.467384 0.000000
0.000000 0.589593 0.000000
0.075898 0.586694 0.000000
0.316625 0.577508 0.000000
0.493202 0.576623 0.000000
0.670192 0.605310 0.000000
0.803433 0.600702 0.000000
0.892119 0.593774 0.000000
0.957641 0.576410 0.000000
0.000000 0.721004 0.000000
0.009277 0.719814 0.000000
0.305119 0.713466 0.000000
0.484962 0.704555 0.000000
0.643244 0.710719 0.000000
0.798550 0.726253 0.000000
0.886351 0.688808 0.000000
0.954101 0.669154 0.000000
0.000000 0.813779 0.000000
0.083253 0.811215 0.000000
0.291020 0.806149 0.000000
0.456764 0.799222 0.000000
0.611475 0.787900 0.000000
0.742641 0.793576 0.000000
0.871550 0.797269 0.000000
0.941039 0.751827 0.000000
0.146731 0.890593 0.110292
0.200900 0.890105 0.105867
0.317510 0.887480 0.080415
0.452552 0.883787 0.000000
0.588891 0.876371 0.000000
0.717525 0.869841 0.000000
0.832547 0.871122 0.000000
0.944549 0.870665 0.000000
0.083711 0.107454 0.202121
0.124269 0.102541 0.205478
0.199863 0.098116 0.205875
0.410285 0.000000 0.249851
0.663386 0.000000 0.169162
0.817929 0.000000 0.163699
0.905241 0.172946 0.116732
0.967864 0.227054 0.000000
0.097688 0.136477 0.203525
0.119234 0.127565 0.207462
0.202396 0.121309 0.208865
0.413519 0.000000 0.234531
0.659297 0.000000 0.185489
0.814847 0.137362 0.156313
0.901366 0.215061 0.111208
0.965423 0.254063 0.000000
0.085573 0.200137 0.216037
0.113619 0.201511 0.217380
0.210483 0.204318 0.219120
0.444465 0.229313 0.203952
0.679835 0.274937 0.178775
0.817044 0.306371 0.148470
0.900237 0.325017 0.106355
0.963836 0.335058 0.000000
0.000000 0.379889 0.268742
0.000000 0.388434 0.260075
0.203647 0.411139 0.201572
0.475929 0.432349 0.178256
0.691005 0.472633 0.155093
0.818265 0.471717 0.135958
0.899046 0.457160 0.104891
0.962219 0.443702 0.000000
0.000000 0.589990 0.266880
0.000000 0.593805 0.244938
0.195834 0.600061 0.173892
0.471626 0.586542 0.141634
0.676356 0.613733 0.111269
0.807095 0.598230 0.108186
0.892973 0.590082 0.103395
0.957946 0.563775 0.000000
0.000000 0.723903 0.214511
0.000000 0.725429 0.185611
0.201266 0.723201 0.158083
0.444617 0.711238 0.122164
0.627405 0.708431 0.074830
0.792721 0.723232 0.063294
0.882780 0.686732 0.116426
0.953002 0.670253 0.105318
0.000000 0.818784 0.156558
0.000000 0.818021 0.128450
0.236698 0.810941 0.180453
0.426184 0.802182 0.147677
0.591882 0.789822 0.082094
0.735378 0.792844 0.076478
0.870237 0.798917 0.106508
0.941833 0.757168 0.146670
0.000000 0.894377 0.156832
0.000000 0.892363 0.172335
0.318639 0.885161 0.254032
0.450843 0.882933 0.242069
0.581415 0.875761 0.205112
0.713008 0.868650 0.161685
0.830259 0.870939 0.183139
0.942321 0.871916 0.188754
0.000000 0.104524 0.358373
0.113344 0.094667 0.367437
0.278508 0.000000 0.388098
0.417090 0.000000 0.384649
0.631281 0.000000 0.414466
0.801022 0.000000 0.361059
0.891936 0.000000 0.320928
0.952026 0.284642 0.348638
0.000000 0.144045 0.367926
0.030304 0.125429 0.373999
0.266514 0.078126 0.391791
0.424048 0.000000 0.390112
0.638178 0.000000 0.410620
0.800259 0.000000 0.354864
0.886900 0.173587 0.343938
0.952056 0.294469 0.340887
0.000000 0.259129 0.363989
0.000000 0.253605 0.367010
0.180941 0.201511 0.389990
0.436866 0.173648 0.400580
0.656153 0.162356 0.398962
0.804257 0.250950 0.371618
0.887419 0.379919 0.394965
0.956451 0.362524 0.339422
0.000000 0.399390 0.394842
0.000000 0.402502 0.397559
0.150027 0.413062 0.405463
0.453315 0.430213 0.416663
0.667109 0.453620 0.409247
0.799130 0.471962 0.400671
0.884184 0.479835 0.386755
0.952361 0.468360 0.349798
0.000000 0.597375 0.434180
0.000000 0.598657 0.427802
0.010559 0.605890 0.406043
0.440406 0.611505 0.395514
0.669490 0.618372 0.384039
0.799374 0.615991 0.397498
0.881590 0.608972 0.398108
0.947814 0.585901 0.368383
0.000000 0.729976 0.398962
0.000000 0.734829 0.393286
0.053223 0.733761 0.369879
0.433814 0.726955 0.380438
0.620294 0.712306 0.348669
0.786435 0.726192 0.367437
0.874022 0.701839 0.389288
0.942870 0.695979 0.390295
0.000000 0.818784 0.354620
0.000000 0.818936 0.349401
0.141512 0.817044 0.340246
0.441138 0.807523 0.378851
0.587884 0.796750 0.348669
0.732570 0.793210 0.340215
0.863096 0.799649 0.364813
0.933806 0.769375 0.383490
0.000000 0.895506 0.338476
0.000000 0.894804 0.339666
0.254826 0.890898 0.347753
0.482094 0.880156 0.408576
0.590204 0.874174 0.383276
0.711208 0.866331 0.348211
0.828214 0.869078 0.367041
0.936034 0.872496 0.385168
0.000000 0.096284 0.534813
0.000000 0.077852 0.540124
0.285405 0.000000 0.553338
0.493324 0.000000 0.577020
0.647486 0.000000 0.568780
0.778470 0.000000 0.544762
0.874266 0.000000 0.498695
0.941314 0.276707 0.480446
0.000000 0.130526 0.537621
0.000000 0.118837 0.543328
0.263340 0.018158 0.556085
0.484596 0.000000 0.576867
0.649561 0.000000 0.570977
0.778256 0.000000 0.545006
0.873106 0.138766 0.502464
0.939513 0.321752 0.487709
0.000000 0.291844 0.529992
0.000000 0.275883 0.536278
0.131441 0.201480 0.552087
0.453864 0.175235 0.576104
0.649683 0.154665 0.572198
0.771298 0.240116 0.545830
0.866728 0.342962 0.515465
0.932708 0.428809 0.508751
0.000000 0.428351 0.534356
0.000000 0.425299 0.535973
0.109407 0.418708 0.542565
0.428626 0.420722 0.565759
0.648554 0.441260 0.574823
0.771084 0.471077 0.556634
0.859953 0.517082 0.546532
0.923583 0.573816 0.559808
0.000000 0.579919 0.552514
0.000000 0.581720 0.553979
0.075196 0.586267 0.557305
0.434028 0.595758 0.563592
0.641749 0.609979 0.573053
0.771328 0.625757 0.571405
0.857084 0.635981 0.567163
0.927001 0.632593 0.548791
0.000000 0.721920 0.552514
0.000000 0.722652 0.551080
0.000000 0.721553 0.544549
0.402594 0.717678 0.536065
0.609522 0.712795 0.538170
0.767483 0.720729 0.542229
0.857572 0.725032 0.565728
0.926268 0.725490 0.562463
0.000000 0.815763 0.508537
0.000000 0.814786 0.505608
0.129885 0.811398 0.500023
0.406378 0.805112 0.501793
0.599603 0.795132 0.524041
0.724300 0.785245 0.496590
0.849180 0.796445 0.525200
0.920409 0.783536 0.540246
0.000000 0.890013 0.473762
0.000000 0.888884 0.473365
0.234745 0.884916 0.475349
0.435096 0.881010 0.490730
0.609888 0.869413 0.529107
0.709163 0.863218 0.500633
0.821958 0.863310 0.501030
0.924468 0.869627 0.525261
0.000000 0.091798 0.670222
0.000000 0.072053 0.672480
0.245670 0.000000 0.678065
0.446967 0.000000 0.689876
0.648341 0.000000 0.707851
0.782559 0.000000 0.693446
0.859892 0.052674 0.642939
0.925841 0.316716 0.616266
0.000000 0.128176 0.666285
0.000000 0.116609 0.668147
0.216648 0.043854 0.674952
0.435798 0.000000 0.688106
0.644709 0.000000 0.705470
0.779629 0.000000 0.690944
0.857145 0.180545 0.643366
0.923857 0.349767 0.618250
0.000000 0.284977 0.663630
0.000000 0.263218 0.666346
0.055207 0.210849 0.675929
0.410407 0.204074 0.688716
0.638270 0.234501 0.702968
0.776547 0.257511 0.690303
0.851499 0.364172 0.650965
0.919402 0.451423 0.630274
0.000000 0.438483 0.654017
0.000000 0.434699 0.654078
0.153902 0.426368 0.664149
0.423987 0.430701 0.682002
0.642115 0.474739 0.697749
0.773434 0.489174 0.691920
0.844480 0.529442 0.667231
0.914275 0.572137 0.652338
0.000000 0.561456 0.657343
0.000000 0.560998 0.658045
0.141695 0.563470 0.659602
0.429725 0.578912 0.661616
0.624323 0.602838 0.676570
0.760861 0.625513 0.684138
0.837400 0.643214 0.673182
0.908507 0.664027 0.666896
0.000000 0.694667 0.661891
0.000000 0.696345 0.663447
0.159274 0.698238 0.664363
0.431739 0.701747 0.666041
0.615290 0.707729 0.669245
0.753628 0.722499 0.681178
0.840604 0.737545 0.685176
0.910979 0.744045 0.680354
0.000000 0.814878 0.655024
0.000000 0.814817 0.655299
0.187625 0.811368 0.654505
0.427100 0.804776 0.655360
0.597986 0.796567 0.651179
0.732509 0.790585 0.656550
0.836759 0.797055 0.660243
0.910796 0.806180 0.674189
0.000000 0.887907 0.615198
0.000000 0.886656 0.614374
0.242374 0.882506 0.613245
0.429969 0.876860 0.614954
0.583886 0.869047 0.620691
0.718959 0.860349 0.639429
0.814267 0.856504 0.619837
0.912444 0.868132 0.645838
0.000000 0.099367 0.756924
0.000000 0.086671 0.758572
0.181613 0.000000 0.762142
0.389380 0.000000 0.769131
0.571649 0.000000 0.777432
0.738247 0.000000 0.781827
0.854795 0.000000 0.769589
0.913909 0.315221 0.723262
0.000000 0.132967 0.754757
0.000000 0.124941 0.756283
0.149660 0.089113 0.760189
0.379309 0.000000 0.766476
0.567285 0.000000 0.774594
0.736843 0.000000 0.779232
0.851408 0.157290 0.766598
0.910765 0.340002 0.721859
0.000000 0.262364 0.754025
0.000000 0.238865 0.755612
0.000000 0.224704 0.758907
0.365240 0.228153 0.764462
0.569085 0.259800 0.771298
0.742550 0.328191 0.777218
0.847776 0.356512 0.765682
0.907195 0.448676 0.729854
0.000000 0.425818 0.745724
0.000000 0.423713 0.746334
0.224887 0.429877 0.749660
0.401495 0.424170 0.757015
0.590051 0.460334 0.764218
0.752377 0.514824 0.774044
0.842130 0.522179 0.764401
0.901091 0.565606 0.740627
0.000000 0.544244 0.738094
0.000000 0.544366 0.737636
0.191623 0.549828 0.736538
0.428138 0.566705 0.739590
0.600061 0.589197 0.750881
0.747677 0.631708 0.763668
0.833768 0.640864 0.760220
0.894194 0.660090 0.749691
0.000000 0.657038 0.740322
0.000000 0.657679 0.740261
0.217258 0.661311 0.739742
0.427985 0.670283 0.739132
0.595148 0.686244 0.738369
0.735927 0.712520 0.751644
0.830381 0.731441 0.761166
0.894377 0.738460 0.756497
0.000000 0.774838 0.744411
0.000000 0.775204 0.744625
0.250034 0.775692 0.744320
0.440040 0.776852 0.744167
0.600366 0.778714 0.743923
0.726162 0.783597 0.746609
0.824247 0.796963 0.758389
0.900328 0.809751 0.761624
0.000000 0.881315 0.739437
0.000000 0.880430 0.739223
0.259220 0.878264 0.739742
0.434699 0.873381 0.739803
0.588190 0.866270 0.741787
0.707332 0.860716 0.738186
0.804379 0.858061 0.733822
0.900572 0.866758 0.740322
0.000000 0.125460 0.833036
0.000000 0.119295 0.833799
0.101869 0.091646 0.835080
0.339574 0.000000 0.838285
0.512840 0.000000 0.842496
0.679194 0.091859 0.847227
0.814023 0.229252 0.846586
0.911711 0.299596 0.836820
0.000000 0.156497 0.831876
0.000000 0.152499 0.832609
0.060975 0.137087 0.834043
0.334691 0.112825 0.836973
0.512657 0.110994 0.841062
0.680110 0.185000 0.845548
0.814054 0.279210 0.844907
0.909758 0.332616 0.835203
0.000000 0.255039 0.829862
0.000000 0.254612 0.830381
0.000000 0.255131 0.831235
0.342962 0.268193 0.834714
0.525872 0.297246 0.837858
0.688808 0.350744 0.841611
0.817380 0.408881 0.842313
0.905669 0.434638 0.833188
0.000000 0.430610 0.823026
0.073579 0.437415 0.823423
0.269291 0.440528 0.824704
0.400061 0.436286 0.828367
0.560021 0.464363 0.831815
0.704707 0.504204 0.836393
0.824430 0.547417 0.839994
0.900481 0.553735 0.831662
0.000000 0.545006 0.814572
0.000000 0.546380 0.815213
0.270024 0.551812 0.816098
0.448127 0.568292 0.818509
0.585626 0.586236 0.823056
0.715846 0.618524 0.828916
0.830900 0.657069 0.837949
0.895384 0.655756 0.830655
0.000000 0.642115 0.815457
0.000000 0.643153 0.814908
0.265873 0.647944 0.813230
0.427253 0.658289 0.811032
0.582483 0.677455 0.810788
0.716213 0.702113 0.821073
0.826017 0.733394 0.835050
0.893950 0.738521 0.833860
0.000000 0.743954 0.819760
0.121401 0.744442 0.819333
0.288121 0.746456 0.818143
0.440986 0.751675 0.816678
0.585138 0.761013 0.814725
0.703334 0.772335 0.813382
0.807401 0.787900 0.826078
0.892332 0.804044 0.836515
0.122438 0.849424 0.826841
0.188052 0.849302 0.826505
0.318853 0.849271 0.825895
0.461280 0.849760 0.825254
0.596735 0.850553 0.824308
0.705104 0.851804 0.823667
0.795560 0.854582 0.824552
0.888060 0.867155 0.836240
