其他预设/【233】日式怀旧街道调色预设208款/1.3D LUT预设（视频调色-PR-AE-PS-FCPX-达芬奇用）/1.日式城市街拍预设/JA – Cityscape Pop 2.cube
# Created by Adobe Lightroom plugin Export LUT (1.17.0)
# www.johnrellis.com/lightroom/exportlut.htm
# Preset: JA – Cityscape Pop 2
# Color profile: /Library/Application Support/Adobe/Color/Profiles/Recommended/AdobeRGB1998.icc
LUT_3D_SIZE 5
DOMAIN_MIN 0.000000 0.000000 0.000000
DOMAIN_MAX 0.903226 0.903226 0.903226
0.112947 0.115755 0.117494
0.172885 0.117433 0.115358
0.517693 0.184390 0.055146
0.862089 0.288792 0.000000
1.000000 0.319097 0.000000
0.104189 0.159091 0.118441
0.158358 0.170260 0.110811
0.515587 0.305333 0.000000
0.858671 0.390082 0.000000
1.000000 0.391882 0.000000
0.000000 0.432807 0.132570
0.129763 0.429816 0.000000
0.460609 0.503197 0.000000
0.858549 0.610712 0.000000
1.000000 0.565393 0.000000
0.000000 0.750454 0.168795
0.000000 0.750607 0.000000
0.392309 0.732876 0.000000
0.731350 0.793881 0.000000
0.990661 0.791897 0.000000
0.000000 0.948363 0.221653
0.000000 0.948211 0.063081
0.225681 0.938048 0.000000
0.601465 0.932464 0.000000
0.853696 0.928252 0.000000
0.110872 0.113069 0.180240
0.154940 0.110262 0.157443
0.510216 0.000000 0.120974
0.850278 0.213748 0.000000
1.000000 0.317235 0.000000
0.074952 0.175418 0.190219
0.168521 0.172091 0.174624
0.513664 0.230869 0.113710
0.850431 0.328588 0.000000
1.000000 0.380133 0.000000
0.000000 0.446113 0.250919
0.000000 0.455268 0.181430
0.455451 0.494057 0.109895
0.851469 0.572992 0.000000
1.000000 0.544884 0.000000
0.000000 0.757534 0.296391
0.000000 0.760037 0.220920
0.362341 0.738094 0.000000
0.733577 0.792844 0.000000
0.991333 0.778744 0.000000
0.000000 0.949310 0.311589
0.000000 0.947753 0.272435
0.174533 0.943450 0.000000
0.594293 0.933684 0.000000
0.856962 0.928069 0.000000
0.097719 0.017975 0.541192
0.243839 0.000000 0.514336
0.447852 0.000000 0.431037
0.833097 0.000000 0.427253
1.000000 0.000000 0.310521
0.000000 0.120912 0.568841
0.166384 0.144900 0.537255
0.467170 0.181827 0.450935
0.838041 0.075074 0.418891
1.000000 0.226841 0.303929
0.000000 0.508110 0.558984
0.000000 0.502068 0.547723
0.499428 0.494484 0.494270
0.838773 0.510033 0.431128
1.000000 0.478798 0.297551
0.000000 0.781277 0.536767
0.000000 0.780240 0.517693
0.377417 0.772732 0.456550
0.755123 0.789334 0.464515
0.983948 0.743435 0.339788
0.000000 0.951446 0.507408
0.000000 0.950744 0.490364
0.297765 0.940917 0.457954
0.571069 0.929442 0.277806
0.870359 0.922179 0.448829
0.097749 0.000000 0.831144
0.261662 0.000000 0.823697
0.504997 0.000000 0.781613
0.774075 0.086976 0.730434
0.959930 0.421668 0.690822
0.000000 0.087617 0.838163
0.194217 0.119265 0.830533
0.500664 0.145785 0.792477
0.774746 0.265690 0.733455
0.957336 0.474372 0.695644
0.000000 0.409857 0.846433
0.000000 0.392340 0.845609
0.517784 0.496986 0.816068
0.778592 0.533165 0.746639
0.952575 0.615808 0.715999
0.000000 0.754238 0.827054
0.000000 0.755734 0.823728
0.412482 0.768429 0.812100
0.792203 0.779171 0.775021
0.947387 0.768460 0.730739
0.000000 0.958343 0.741756
0.000000 0.956237 0.731289
0.302464 0.945220 0.717250
0.713924 0.916075 0.730861
0.897856 0.912474 0.756985
0.128084 0.000000 0.944793
0.246830 0.000000 0.943389
0.458320 0.000000 0.937804
0.715633 0.355871 0.912230
0.929595 0.499153 0.891752
0.090730 0.161288 0.945006
0.239872 0.168643 0.943481
0.464668 0.203403 0.937407
0.721004 0.419013 0.912657
0.927001 0.548241 0.891417
0.000000 0.218906 0.950805
0.000000 0.284123 0.948211
0.547143 0.521263 0.933715
0.743343 0.583703 0.915312
0.920256 0.676509 0.891722
0.000000 0.573510 0.943359
0.000000 0.577539 0.942626
0.424109 0.633417 0.937285
0.809445 0.793881 0.918029
0.914549 0.811032 0.895415
0.000000 0.847135 0.930816
0.000000 0.850431 0.929961
0.376684 0.866850 0.925628
0.771542 0.896086 0.917174
0.916258 0.908049 0.905241
