其他预设/【233】日式怀旧街道调色预设208款/1.3D LUT预设（视频调色-PR-AE-PS-FCPX-达芬奇用）/1.日式城市街拍预设/JA – Night Candy 1.cube
# Created by Adobe Lightroom plugin Export LUT (1.17.0)
# www.johnrellis.com/lightroom/exportlut.htm
# Preset: JA – Night Candy 1
# Color profile: /Library/Application Support/Adobe/Color/Profiles/Recommended/AdobeRGB1998.icc
LUT_3D_SIZE 32
0.079255 0.087068 0.087587
0.079255 0.087068 0.087587
0.079255 0.087068 0.087587
0.094331 0.084901 0.087678
0.128969 0.076783 0.087343
0.184085 0.045197 0.086458
0.250126 0.000000 0.083864
0.315129 0.000000 0.080232
0.374975 0.000000 0.076356
0.428168 0.000000 0.071077
0.475685 0.000000 0.065736
0.518975 0.000000 0.058228
0.558038 0.000000 0.038941
0.592615 0.000000 0.018524
0.621973 0.000000 0.008728
0.648157 0.000000 0.003754
0.672450 0.000000 0.000000
0.695338 0.000000 0.000000
0.720424 0.000000 0.000000
0.751583 0.000000 0.000000
0.786007 0.000000 0.000000
0.825193 0.000000 0.000000
0.868589 0.000000 0.000000
0.913451 0.000000 0.000000
0.957061 0.000000 0.000000
0.997436 0.000000 0.000000
1.000000 0.000000 0.000000
1.000000 0.000000 0.000000
1.000000 0.000000 0.000000
1.000000 0.000000 0.057374
1.000000 0.000000 0.092378
1.000000 0.000000 0.123232
0.079255 0.087068 0.087587
0.079255 0.087068 0.087587
0.079255 0.087068 0.087587
0.093416 0.085084 0.087373
0.127626 0.077180 0.087373
0.181338 0.047883 0.086000
0.247562 0.000000 0.083955
0.311925 0.000000 0.080446
0.371710 0.000000 0.076265
0.425330 0.000000 0.071473
0.473732 0.000000 0.065003
0.517632 0.000000 0.055238
0.556634 0.000000 0.036133
0.591211 0.000000 0.016022
0.620508 0.000000 0.006806
0.646754 0.000000 0.000641
0.670954 0.000000 0.000000
0.693843 0.000000 0.000000
0.718807 0.000000 0.000000
0.748836 0.000000 0.000000
0.782040 0.000000 0.000000
0.820005 0.000000 0.000000
0.862394 0.000000 0.000000
0.906828 0.000000 0.000000
0.950652 0.000000 0.000000
0.991913 0.000000 0.000000
1.000000 0.000000 0.000000
1.000000 0.000000 0.000000
1.000000 0.000000 0.000000
1.000000 0.000000 0.049409
1.000000 0.000000 0.088289
1.000000 0.000000 0.120180
0.079255 0.087068 0.087587
0.079255 0.087068 0.087587
0.079255 0.087068 0.087587
0.092409 0.085267 0.087404
0.125582 0.077790 0.087098
0.178744 0.050752 0.086671
0.243961 0.000000 0.084199
0.308568 0.000000 0.080629
0.369024 0.000000 0.076234
0.423987 0.000000 0.070069
0.473426 0.000000 0.062745
0.517479 0.000000 0.049775
0.556603 0.000000 0.028870
0.590906 0.000000 0.010925
0.620233 0.000000 0.003174
0.646357 0.000000 0.000000
0.670558 0.000000 0.000000
0.693324 0.000000 0.000000
0.718532 0.000000 0.000000
0.747890 0.000000 0.000000
0.780575 0.000000 0.000000
0.817960 0.000000 0.000000
0.859831 0.000000 0.000000
0.903990 0.000000 0.000000
0.947845 0.000000 0.000000
0.989197 0.000000 0.000000
1.000000 0.000000 0.000000
1.000000 0.000000 0.000000
1.000000 0.000000 0.000000
1.000000 0.000000 0.047761
1.000000 0.000000 0.088014
1.000000 0.000000 0.119295
0.077943 0.096895 0.087037
0.077882 0.097169 0.087037
0.077821 0.097444 0.087007
0.087892 0.095460 0.088655
0.120272 0.094270 0.088594
0.177584 0.083467 0.084901
0.243717 0.050385 0.081849
0.309575 0.000000 0.077485
0.371099 0.000000 0.071839
0.426154 0.000000 0.064332
0.475471 0.000000 0.054108
0.519371 0.000000 0.035523
0.558099 0.000000 0.012940
0.591760 0.000000 0.002594
0.620935 0.000000 0.000000
0.646876 0.000000 0.000000
0.670832 0.000000 0.000000
0.693446 0.000000 0.000000
0.718898 0.000000 0.000000
0.747097 0.000000 0.000000
0.778561 0.000000 0.000000
0.814694 0.000000 0.000000
0.855985 0.000000 0.000000
0.900420 0.000000 0.000000
0.945312 0.000000 0.000000
0.987854 0.000000 0.000000
1.000000 0.000000 0.000000
1.000000 0.000000 0.000000
1.000000 0.000000 0.000000
1.000000 0.000000 0.055451
1.000000 0.000000 0.091279
1.000000 0.000000 0.121706
0.072938 0.122866 0.085206
0.072877 0.123079 0.085176
0.072847 0.123293 0.085145
0.082887 0.123384 0.084932
0.107973 0.114687 0.091157
0.145998 0.120180 0.098726
0.228092 0.122164 0.085725
0.309850 0.106813 0.071168
0.373480 0.073640 0.062440
0.428748 0.000000 0.050782
0.478004 0.000000 0.029755
0.521843 0.000000 0.008728
0.559991 0.000000 0.000000
0.593256 0.000000 0.000000
0.622309 0.000000 0.000000
0.648310 0.000000 0.000000
0.672328 0.000000 0.000000
0.694972 0.000000 0.000000
0.721431 0.000000 0.000000
0.748989 0.000000 0.000000
0.779721 0.000000 0.000000
0.815152 0.000000 0.000000
0.855833 0.000000 0.000000
0.899748 0.000000 0.000000
0.944305 0.000000 0.000000
0.986816 0.000000 0.000000
1.000000 0.000000 0.000000
1.000000 0.000000 0.000000
1.000000 0.000000 0.000000
1.000000 0.000000 0.062531
1.000000 0.000000 0.095338
1.000000 0.000000 0.125582
0.059113 0.164614 0.079744
0.059083 0.164889 0.079377
0.058930 0.165194 0.079316
0.068269 0.164858 0.079194
0.114290 0.162692 0.078492
0.139590 0.145480 0.092073
0.195926 0.158755 0.100099
0.275334 0.167514 0.093202
0.357946 0.164034 0.072694
0.426551 0.146700 0.040864
0.484230 0.118502 0.000000
0.527276 0.070741 0.000000
0.564630 0.000000 0.000000
0.597345 0.000000 0.000000
0.625910 0.000000 0.000000
0.651575 0.000000 0.000000
0.675410 0.000000 0.000000
0.699550 0.000000 0.000000
0.725429 0.000000 0.000000
0.752956 0.000000 0.000000
0.783871 0.000000 0.000000
0.819791 0.000000 0.000000
0.901396 0.000000 0.000000
0.944762 0.000000 0.000000
0.984985 0.000000 0.000000
1.000000 0.000000 0.000000
1.000000 0.000000 0.000000
1.000000 0.000000 0.041413
1.000000 0.000000 0.077729
1.000000 0.000000 0.104433
1.000000 0.000000 0.130251
1.000000 0.000000 0.156741
0.000000 0.229465 0.063325
0.000000 0.229465 0.063325
0.000000 0.229587 0.063722
0.000000 0.229648 0.063111
0.111055 0.227115 0.061341
0.169314 0.226352 0.058839
0.193515 0.197848 0.088106
0.261784 0.214633 0.098878
0.332586 0.221714 0.110170
0.413855 0.220432 0.083558
0.479347 0.204929 0.053529
0.532830 0.179324 0.000000
0.576471 0.143374 0.000000
0.609064 0.094362 0.000000
0.635981 0.000000 0.000000
0.660487 0.000000 0.000000
0.683314 0.000000 0.000000
0.709743 0.000000 0.000000
0.736110 0.000000 0.000000
0.765438 0.000000 0.000000
0.799832 0.000000 0.000000
0.841062 0.000000 0.000000
0.887297 0.000000 0.000000
0.934386 0.000000 0.000000
0.978515 0.000000 0.000000
1.000000 0.000000 0.000000
1.000000 0.000000 0.011719
1.000000 0.000000 0.060639
1.000000 0.000000 0.087465
1.000000 0.000000 0.112062
1.000000 0.000000 0.137026
1.000000 0.000000 0.163119
0.000000 0.290471 0.009674
0.000000 0.290471 0.009674
0.000000 0.290471 0.009674
0.000000 0.290257 0.009766
0.092409 0.287999 0.005859
0.165743 0.285283 0.000000
0.223270 0.281102 0.009827
0.250492 0.252873 0.081910
0.320562 0.267979 0.105653
0.388403 0.273075 0.130739
0.457893 0.269780 0.125429
0.518639 0.253178 0.095125
0.567163 0.228367 0.063874
0.606439 0.196872 0.001892
0.638972 0.159152 0.000000
0.664790 0.113832 0.000000
0.689906 0.013184 0.000000
0.715114 0.000000 0.000000
0.740658 0.000000 0.000000
0.769284 0.000000 0.000000
0.802976 0.000000 0.000000
0.843137 0.000000 0.000000
0.887968 0.000000 0.000000
0.933562 0.000000 0.000000
0.976562 0.000000 0.000000
1.000000 0.000000 0.012940
1.000000 0.000000 0.052155
1.000000 0.000000 0.076967
1.000000 0.000000 0.100191
1.000000 0.000000 0.123354
1.000000 0.000000 0.147280
1.000000 0.000000 0.172457
0.000000 0.348913 0.013611
0.000000 0.348913 0.013611
0.000000 0.348913 0.013611
0.000000 0.348852 0.003876
0.000000 0.348302 0.000000
0.147250 0.345464 0.000000
0.218448 0.342962 0.000000
0.277073 0.336645 0.000000
0.310521 0.310826 0.083833
0.377569 0.321782 0.129763
0.439521 0.325017 0.166934
0.497078 0.323644 0.192081
0.553155 0.305333 0.160037
0.597284 0.279576 0.128847
0.632776 0.249332 0.099123
0.665461 0.216251 0.067079
0.695796 0.177981 0.000000
0.722042 0.136446 0.000000
0.747097 0.081727 0.000000
0.775570 0.000000 0.000000
0.808988 0.000000 0.002228
0.848508 0.000000 0.008850
0.891844 0.000000 0.013519
0.935943 0.000000 0.023865
0.977295 0.000000 0.043763
1.000000 0.000000 0.063050
1.000000 0.000000 0.078920
1.000000 0.000000 0.096773
1.000000 0.000000 0.117067
1.000000 0.000000 0.138186
1.000000 0.000000 0.161257
1.000000 0.000000 0.185306
0.000000 0.402045 0.068635
0.000000 0.401953 0.067933
0.000000 0.401953 0.067933
0.000000 0.402106 0.050233
0.000000 0.403021 0.000000
0.106203 0.400519 0.000000
0.198062 0.397406 0.000000
0.269810 0.396521 0.000000
0.328466 0.387304 0.000000
0.366796 0.365026 0.100099
0.427893 0.371496 0.166629
0.483284 0.373083 0.211246
0.530968 0.375128 0.258000
0.580713 0.359136 0.235660
0.623926 0.335912 0.207767
0.660487 0.308293 0.179965
0.692592 0.276982 0.150820
0.722744 0.242191 0.119448
0.753414 0.203555 0.082979
0.784787 0.163119 0.056641
0.817929 0.119814 0.062257
0.855772 0.003021 0.065461
0.896422 0.000000 0.068940
0.937591 0.000000 0.073060
0.976684 0.000000 0.080415
1.000000 0.000000 0.090242
1.000000 0.000000 0.102663
1.000000 0.000000 0.118837
1.000000 0.000000 0.136904
1.000000 0.000000 0.156924
1.000000 0.000000 0.179141
1.000000 0.000000 0.203098
0.000000 0.448066 0.097261
0.000000 0.448157 0.097719
0.000000 0.448249 0.096132
0.000000 0.448646 0.081788
0.000000 0.450752 0.000000
0.000000 0.449378 0.000000
0.165408 0.446815 0.000000
0.247166 0.443702 0.000000
0.318822 0.444800 0.000000
0.376898 0.433509 0.000000
0.418158 0.414496 0.132784
0.472602 0.417762 0.212863
0.522789 0.419104 0.261723
0.566430 0.423377 0.312657
0.608087 0.417243 0.322271
0.647883 0.394934 0.292912
0.682521 0.368017 0.262547
0.714717 0.338811 0.232609
0.747250 0.307103 0.201358
0.782589 0.272557 0.167910
0.822141 0.234165 0.130892
0.863340 0.193637 0.102602
0.902739 0.156222 0.106050
0.942168 0.101350 0.109407
0.979370 0.000000 0.114870
1.000000 0.000000 0.121675
1.000000 0.000000 0.131899
1.000000 0.000000 0.144961
1.000000 0.000000 0.160678
1.000000 0.000000 0.178897
1.000000 0.000000 0.199344
1.000000 0.000000 0.221927
0.000000 0.490394 0.122072
0.000000 0.490455 0.122072
0.000000 0.490394 0.122072
0.000000 0.491096 0.104891
0.000000 0.493050 0.000000
0.000000 0.493416 0.000000
0.111299 0.491341 0.000000
0.217014 0.488624 0.000000
0.293523 0.485328 0.000000
0.365484 0.488197 0.000000
0.422309 0.475441 0.030976
0.467536 0.462226 0.180331
0.534020 0.481849 0.292912
0.576623 0.482185 0.345800
0.611688 0.484871 0.395026
0.643824 0.486885 0.429053
0.682338 0.466621 0.398596
0.718898 0.442542 0.367590
0.755947 0.416327 0.336004
0.795834 0.388403 0.304448
0.838834 0.357488 0.271092
0.883146 0.322972 0.235813
0.926482 0.281621 0.195682
0.965576 0.238407 0.163851
0.997253 0.206210 0.166964
1.000000 0.169100 0.172732
1.000000 0.122530 0.179873
1.000000 0.042359 0.189944
1.000000 0.000000 0.202579
1.000000 0.000000 0.217411
1.000000 0.000000 0.235477
1.000000 0.000000 0.255619
0.000000 0.534295 0.146975
0.000000 0.534295 0.146975
0.000000 0.533989 0.145998
0.000000 0.534417 0.124483
0.000000 0.535393 0.052979
0.000000 0.536461 0.000000
0.000000 0.534020 0.000000
0.177310 0.531273 0.000000
0.265812 0.528283 0.000000
0.341070 0.528832 0.000000
0.415015 0.534081 0.000000
0.475776 0.525475 0.127840
0.521691 0.515526 0.248600
0.565148 0.517876 0.343999
0.602319 0.517327 0.393774
0.633722 0.519738 0.439643
0.662684 0.524926 0.480232
0.699641 0.512383 0.464393
0.738888 0.492683 0.435309
0.780362 0.471168 0.406195
0.824613 0.448127 0.377386
0.869932 0.422095 0.347326
0.913909 0.392432 0.315801
0.955383 0.357488 0.281315
0.992523 0.316136 0.242557
1.000000 0.271611 0.207919
1.000000 0.244663 0.212802
1.000000 0.217929 0.220737
1.000000 0.192508 0.231052
1.000000 0.170596 0.244388
1.000000 0.154971 0.260380
1.000000 0.149020 0.279484
0.000000 0.566369 0.164736
0.000000 0.566369 0.164065
0.000000 0.566278 0.161349
0.000000 0.566613 0.142000
0.000000 0.567346 0.094209
0.000000 0.568414 0.000000
0.000000 0.568414 0.000000
0.118898 0.567590 0.000000
0.232059 0.566400 0.000000
0.312444 0.565118 0.000000
0.385779 0.566857 0.000000
0.456306 0.568261 0.000000
0.514092 0.559625 0.190646
0.556329 0.550011 0.301030
0.591913 0.549859 0.392981
0.624781 0.548455 0.437507
0.653956 0.550256 0.478187
0.683009 0.555322 0.514519
0.718990 0.553460 0.521202
0.762448 0.538476 0.495033
0.808377 0.521721 0.469215
0.855009 0.502800 0.443610
0.899992 0.480812 0.417365
0.942168 0.455421 0.390234
0.979919 0.425849 0.360998
1.000000 0.391180 0.329076
1.000000 0.350164 0.292363
1.000000 0.306035 0.256809
1.000000 0.286076 0.265263
1.000000 0.269169 0.276402
1.000000 0.256901 0.290715
1.000000 0.250431 0.308324
0.000000 0.597864 0.181155
0.000000 0.598016 0.180148
0.000000 0.598260 0.174502
0.000000 0.598901 0.156680
0.000000 0.599878 0.119203
0.000000 0.601190 0.000000
0.000000 0.602045 0.000000
0.000000 0.600366 0.000000
0.189975 0.598749 0.000000
0.280125 0.596948 0.000000
0.354131 0.595056 0.000000
0.425422 0.597650 0.000000
0.492103 0.596338 0.117159
0.546227 0.587823 0.247196
0.584253 0.578576 0.349615
0.614801 0.577417 0.435920
0.645350 0.576196 0.475898
0.674372 0.578607 0.512444
0.706172 0.584802 0.545739
0.743435 0.592126 0.570916
0.790982 0.581628 0.548028
0.838804 0.568597 0.525597
0.884703 0.552575 0.502983
0.927550 0.533471 0.480446
0.965911 0.511254 0.457282
0.998535 0.486091 0.433570
1.000000 0.457221 0.408545
1.000000 0.424781 0.381384
1.000000 0.387823 0.350256
1.000000 0.346075 0.315373
1.000000 0.334691 0.328588
1.000000 0.328283 0.345739
0.000000 0.627497 0.195743
0.000000 0.627802 0.192874
0.000000 0.628016 0.187350
0.000000 0.628565 0.171054
0.000000 0.629328 0.141543
0.000000 0.630365 0.076448
0.000000 0.631678 0.000000
0.000000 0.630671 0.000000
0.137911 0.628931 0.000000
0.245945 0.626947 0.000000
0.324620 0.624567 0.000000
0.393622 0.622004 0.000000
0.461982 0.624689 0.022217
0.524193 0.620417 0.184634
0.573419 0.611414 0.297032
0.607263 0.602350 0.391241
0.634546 0.601434 0.472786
0.665217 0.601740 0.509026
0.697139 0.606378 0.543542
0.733944 0.615045 0.574731
0.776181 0.625818 0.602838
0.824521 0.623285 0.595636
0.871794 0.612909 0.576654
0.915282 0.599359 0.558129
0.953857 0.582788 0.539696
0.986450 0.563409 0.521447
1.000000 0.541436 0.503166
1.000000 0.517632 0.484993
1.000000 0.491707 0.465583
1.000000 0.463325 0.443763
1.000000 0.431067 0.417243
1.000000 0.392126 0.382391
0.000000 0.652522 0.206912
0.000000 0.652705 0.203433
0.000000 0.652766 0.197208
0.000000 0.653101 0.183230
0.000000 0.653651 0.158022
0.000000 0.654444 0.112947
0.000000 0.655299 0.000000
0.000000 0.655055 0.000000
0.017792 0.653315 0.000000
0.206699 0.651331 0.000000
0.292699 0.649073 0.000000
0.363592 0.646509 0.000000
0.429328 0.645258 0.000000
0.494881 0.647669 0.121004
0.552941 0.641566 0.240269
0.597711 0.632898 0.342443
0.628351 0.624323 0.429389
0.654566 0.624720 0.506737
0.687556 0.627832 0.540337
0.723873 0.635096 0.571832
0.765774 0.645563 0.600336
0.810636 0.656367 0.625940
0.856138 0.659785 0.634485
0.900694 0.651087 0.618830
0.939879 0.639094 0.603815
0.972900 0.624353 0.589563
0.998810 0.607294 0.576165
1.000000 0.588769 0.563561
1.000000 0.569177 0.551293
1.000000 0.549004 0.539178
1.000000 0.528191 0.526238
1.000000 0.505699 0.510948
0.000000 0.676081 0.215946
0.000000 0.676448 0.212680
0.000000 0.687556 0.211490
0.000000 0.687770 0.198764
0.000000 0.688045 0.177157
0.000000 0.688319 0.143374
0.000000 0.688563 0.089601
0.000000 0.688502 0.000000
0.000000 0.686488 0.000000
0.172213 0.684321 0.000000
0.267735 0.682002 0.022217
0.341985 0.679255 0.062745
0.407050 0.675929 0.083040
0.470985 0.675776 0.130068
0.534020 0.678187 0.186740
0.587793 0.670130 0.301701
0.628901 0.661585 0.395789
0.656641 0.653437 0.475593
0.684230 0.656458 0.547387
0.722286 0.663142 0.576928
0.764340 0.672847 0.604303
0.809354 0.683314 0.629419
0.852995 0.692226 0.652888
0.892424 0.698329 0.673762
0.930541 0.688899 0.659785
0.962341 0.676509 0.646876
0.987304 0.661799 0.635126
1.000000 0.645930 0.624933
1.000000 0.629847 0.616419
1.000000 0.614008 0.609400
1.000000 0.598779 0.603296
1.000000 0.583948 0.597681
0.000000 0.702266 0.225772
0.000000 0.703914 0.223026
0.000000 0.705623 0.219242
0.000000 0.707240 0.208652
0.000000 0.708553 0.190188
0.000000 0.709438 0.163058
0.000000 0.709834 0.124086
0.000000 0.709865 0.074647
0.000000 0.708797 0.058930
0.117647 0.706874 0.072297
0.234714 0.704799 0.086519
0.313634 0.702449 0.099702
0.380499 0.699611 0.112795
0.441199 0.696223 0.125826
0.504112 0.698207 0.174411
0.564630 0.699672 0.236210
0.614893 0.691646 0.343084
0.653132 0.683680 0.430732
0.679652 0.676356 0.505425
0.709712 0.682185 0.573693
0.752499 0.692103 0.600732
0.798245 0.703365 0.626062
0.843320 0.713375 0.650202
0.884245 0.720577 0.672633
0.918822 0.725002 0.694270
0.949950 0.719234 0.693141
0.975586 0.707057 0.682856
0.994751 0.693477 0.674403
1.000000 0.679561 0.667903
1.000000 0.666072 0.663355
1.000000 0.653620 0.660609
1.000000 0.642420 0.659358
0.000000 0.725704 0.234470
0.000000 0.727352 0.232090
0.000000 0.729152 0.228428
0.000000 0.730800 0.218814
0.000000 0.732235 0.203098
0.000000 0.733089 0.179477
0.000000 0.733547 0.149691
0.000000 0.733669 0.116609
0.000000 0.733333 0.097932
0.000000 0.731716 0.107027
0.199893 0.730098 0.116457
0.286564 0.728176 0.126253
0.356298 0.725765 0.137484
0.418311 0.722896 0.148196
0.476570 0.720394 0.163516
0.538933 0.724331 0.213199
0.597436 0.724697 0.282719
0.644892 0.717189 0.381842
0.681483 0.710018 0.464607
0.707668 0.703548 0.534691
0.741207 0.712184 0.598749
0.787625 0.724147 0.623529
0.834012 0.735103 0.647425
0.876432 0.743099 0.670558
0.912474 0.747768 0.692561
0.941009 0.750088 0.714473
0.963409 0.747402 0.726528
0.983276 0.735286 0.718044
0.997681 0.722652 0.712032
1.000000 0.710536 0.708339
1.000000 0.699519 0.706935
1.000000 0.690120 0.707668
0.000000 0.752255 0.243778
0.000000 0.754055 0.241703
0.000000 0.755947 0.238102
0.000000 0.757778 0.229953
0.000000 0.759274 0.215671
0.000000 0.760128 0.195071
0.000000 0.760616 0.170077
0.000000 0.760800 0.143923
0.000000 0.760708 0.127840
0.000000 0.759579 0.132631
0.158358 0.758145 0.139956
0.258610 0.756527 0.148440
0.332830 0.754513 0.157565
0.397101 0.752224 0.166567
0.456062 0.749447 0.176883
0.515007 0.749783 0.201205
0.577264 0.755764 0.248692
0.634974 0.756069 0.328222
0.681910 0.750454 0.422278
0.719142 0.745449 0.500938
0.747250 0.741146 0.567163
0.785245 0.752499 0.627070
0.832364 0.763821 0.650446
0.876280 0.772366 0.673426
0.913054 0.776913 0.696468
0.941375 0.778317 0.719509
0.960876 0.778470 0.743679
0.972808 0.779965 0.769955
0.986572 0.768612 0.764340
0.996216 0.757504 0.760769
1.000000 0.747677 0.759854
1.000000 0.739956 0.761898
0.000000 0.791135 0.257633
0.000000 0.792233 0.255314
0.000000 0.793088 0.251652
0.000000 0.794003 0.243809
0.000000 0.794766 0.230137
0.000000 0.795254 0.211887
0.000000 0.795712 0.190249
0.000000 0.796048 0.168887
0.000000 0.796475 0.156344
0.000000 0.796353 0.159243
0.104036 0.795621 0.166079
0.232578 0.794614 0.173709
0.313817 0.793149 0.181857
0.381598 0.791226 0.189975
0.442786 0.788907 0.198550
0.499886 0.786282 0.207614
0.560571 0.789609 0.241581
0.622583 0.796475 0.286381
0.678523 0.794949 0.373266
0.724086 0.789578 0.461555
0.760647 0.784634 0.534478
0.789212 0.780148 0.594598
0.825711 0.789151 0.650263
0.867979 0.796048 0.671595
0.906126 0.800534 0.693874
0.935973 0.801633 0.717433
0.956817 0.800656 0.742275
0.969696 0.800290 0.769253
0.976287 0.803067 0.798428
0.983276 0.799313 0.808042
0.990051 0.790646 0.807065
0.994110 0.784543 0.809903
0.000000 0.827573 0.269474
0.000000 0.828702 0.267765
0.000000 0.829770 0.264927
0.000000 0.830747 0.257481
0.000000 0.831449 0.244877
0.000000 0.831815 0.227695
0.000000 0.832090 0.207950
0.000000 0.832242 0.188418
0.000000 0.832425 0.175967
0.000000 0.832517 0.178164
0.000000 0.831846 0.184329
0.196719 0.831022 0.191287
0.289067 0.829770 0.198337
0.362188 0.828214 0.206180
0.426276 0.826383 0.214267
0.485542 0.824308 0.222782
0.541650 0.822110 0.231998
0.604395 0.828275 0.274907
0.665827 0.835325 0.318914
0.719875 0.831968 0.413397
0.764767 0.827298 0.496620
0.801633 0.823026 0.564569
0.831479 0.819089 0.619623
0.865324 0.825162 0.673182
0.896941 0.823178 0.690455
0.928893 0.824094 0.713344
0.951690 0.822293 0.738827
0.965942 0.820157 0.766293
0.973510 0.820462 0.796078
0.975921 0.825467 0.828092
0.976776 0.830991 0.852079
0.981048 0.826505 0.855070
0.000000 0.874662 0.284062
0.000000 0.875975 0.284154
0.000000 0.876799 0.281590
0.000000 0.877256 0.274418
0.000000 0.877409 0.262211
0.000000 0.877256 0.246586
0.000000 0.876860 0.227756
0.000000 0.876188 0.210361
0.000000 0.875364 0.198184
0.000000 0.874449 0.198367
0.000000 0.873014 0.205478
0.151064 0.871458 0.211276
0.262791 0.869688 0.216678
0.341894 0.867491 0.223270
0.408911 0.864805 0.229984
0.469886 0.861906 0.236790
0.527001 0.858915 0.244694
0.583429 0.857847 0.260502
0.645197 0.863645 0.304356
0.705013 0.869383 0.350347
0.757107 0.864744 0.448890
0.800778 0.860288 0.527214
0.836912 0.855863 0.589502
0.866392 0.851255 0.640162
0.894987 0.852781 0.692226
0.923552 0.849454 0.712612
0.947448 0.846189 0.737362
0.962493 0.841917 0.765164
0.970703 0.839658 0.795377
0.973602 0.841733 0.827878
0.972717 0.849241 0.860655
0.969451 0.861784 0.891325
0.000000 0.912749 0.293004
0.000000 0.913939 0.292760
0.000000 0.914702 0.292271
0.000000 0.915068 0.287602
0.000000 0.915190 0.276555
0.000000 0.915038 0.261479
0.000000 0.914794 0.243931
0.000000 0.914305 0.227512
0.000000 0.913725 0.216617
0.000000 0.912993 0.216251
0.000000 0.912047 0.225315
0.072358 0.910796 0.230869
0.232425 0.909331 0.236942
0.320378 0.907530 0.242924
0.392279 0.905303 0.249882
0.456062 0.902770 0.256901
0.515160 0.900053 0.264042
0.571252 0.897490 0.272526
0.629236 0.898253 0.297734
0.689174 0.902495 0.341222
0.746273 0.904448 0.397436
0.795926 0.899168 0.489570
0.837583 0.894041 0.561120
0.872557 0.889006 0.617304
0.901518 0.883940 0.664332
0.924285 0.880797 0.715969
0.943969 0.872129 0.738766
0.959533 0.865660 0.766659
0.967987 0.860899 0.798032
0.971038 0.860319 0.831418
0.970275 0.865141 0.864805
0.967224 0.874998 0.895506
0.000000 0.951141 0.301274
0.000000 0.951873 0.300908
0.000000 0.952209 0.300267
0.000000 0.952178 0.298772
0.000000 0.951904 0.290227
0.000000 0.951476 0.276097
0.000000 0.950927 0.259312
0.000000 0.950256 0.243717
0.000000 0.949493 0.233738
0.000000 0.948638 0.233341
0.000000 0.947509 0.243473
0.000000 0.946349 0.251652
0.194888 0.944976 0.257237
0.295964 0.943175 0.263706
0.372534 0.940978 0.269871
0.439002 0.938384 0.276249
0.499672 0.935546 0.283146
0.556817 0.932738 0.291142
0.611688 0.930114 0.299748
0.669551 0.930999 0.333837
0.726284 0.932677 0.376013
0.779965 0.930907 0.441596
0.826627 0.924865 0.526574
0.865904 0.919158 0.591302
0.899199 0.913603 0.643030
0.927062 0.908202 0.687709
0.943694 0.901091 0.740780
0.955779 0.889128 0.766659
0.964904 0.881285 0.797299
0.968536 0.877653 0.831571
0.968200 0.879240 0.865568
0.965545 0.886046 0.896544
0.000000 0.982269 0.305394
0.000000 0.982666 0.305455
0.000000 0.982879 0.305180
0.000000 0.982971 0.303441
0.000000 0.983001 0.300359
0.000000 0.983185 0.288640
0.000000 0.983581 0.273747
0.000000 0.983978 0.260502
0.000000 0.984283 0.253880
0.000000 0.984283 0.257298
0.000000 0.983825 0.271611
0.000000 0.983062 0.288243
0.168032 0.982086 0.295354
0.280613 0.980560 0.302464
0.361059 0.978515 0.309209
0.429175 0.975860 0.315648
0.490700 0.972869 0.322545
0.548028 0.969696 0.330022
0.602686 0.966400 0.338476
0.655360 0.963073 0.348211
0.710567 0.961456 0.388983
0.762448 0.959289 0.429023
0.811795 0.954070 0.499672
0.854765 0.947295 0.574578
0.891173 0.941009 0.631830
0.922118 0.935088 0.679530
0.947784 0.929564 0.724269
0.957366 0.919493 0.781582
0.962402 0.906432 0.811185
0.965362 0.899229 0.843595
0.964904 0.897765 0.876493
0.962585 0.901061 0.904906
0.000000 1.000000 0.307744
0.000000 1.000000 0.307897
0.000000 1.000000 0.308141
0.000000 1.000000 0.307836
0.000000 1.000000 0.305730
0.000000 1.000000 0.300420
0.000000 1.000000 0.287480
0.000000 1.000000 0.276555
0.000000 1.000000 0.272007
0.000000 1.000000 0.278386
0.000000 1.000000 0.294285
0.000000 1.000000 0.317144
0.134859 1.000000 0.324804
0.259495 1.000000 0.330724
0.341955 0.998016 0.336584
