其他预设/【233】日式怀旧街道调色预设208款/1.3D LUT预设（视频调色-PR-AE-PS-FCPX-达芬奇用）/1.日式城市街拍预设/JA – Faded Soft 3.cube
# Created by Adobe Lightroom plugin Export LUT (1.17.0)
# www.johnrellis.com/lightroom/exportlut.htm
# Preset: JA – Faded Soft 3
# Color profile: /Library/Application Support/Adobe/Color/Profiles/Recommended/AdobeRGB1998.icc
LUT_3D_SIZE 32
0.065095 0.069032 0.076661
0.065095 0.069032 0.076661
0.065095 0.069032 0.076661
0.078370 0.067933 0.077089
0.125734 0.059937 0.080140
0.163302 0.041169 0.083711
0.203861 0.003601 0.086885
0.245548 0.000000 0.089784
0.287633 0.000000 0.090486
0.330571 0.000000 0.090425
0.377630 0.000000 0.089387
0.430579 0.000000 0.085267
0.490272 0.007691 0.077913
0.555627 0.040803 0.065003
0.620600 0.070741 0.030304
0.680079 0.090913 0.000000
0.730007 0.110262 0.000000
0.769467 0.128603 0.000000
0.803983 0.145449 0.000000
0.832364 0.159487 0.000000
0.857511 0.172061 0.000000
0.880003 0.182742 0.000000
0.899992 0.192203 0.000000
0.918120 0.200778 0.000000
0.934905 0.208682 0.000000
0.951049 0.216526 0.000000
0.967010 0.224674 0.056367
0.982971 0.233524 0.089540
0.998840 0.243412 0.118685
1.000000 0.255009 0.147890
1.000000 0.268620 0.177798
1.000000 0.285130 0.210300
0.065095 0.069032 0.076661
0.065095 0.069032 0.076661
0.065095 0.069032 0.076661
0.079591 0.067262 0.077424
0.126375 0.060151 0.080415
0.163607 0.040711 0.084016
0.203861 0.003601 0.087160
0.245914 0.000000 0.088045
0.287724 0.000000 0.088991
0.330571 0.000000 0.088594
0.377295 0.014252 0.087160
0.429786 0.028412 0.083894
0.488930 0.054353 0.076051
0.554040 0.071626 0.062013
0.618677 0.088075 0.023194
0.678187 0.104952 0.000000
0.728145 0.121889 0.000000
0.768093 0.137240 0.000000
0.802274 0.152499 0.000000
0.830442 0.165438 0.000000
0.855589 0.177066 0.000000
0.878141 0.186801 0.000000
0.898283 0.195773 0.000000
0.916564 0.203952 0.000000
0.933471 0.211337 0.000000
0.949706 0.218875 0.000000
0.965789 0.226566 0.047669
0.981811 0.235294 0.085908
0.997803 0.244816 0.116365
1.000000 0.256107 0.145022
1.000000 0.269413 0.175540
1.000000 0.285588 0.208042
0.065095 0.069032 0.076661
0.065095 0.069032 0.076661
0.065095 0.069032 0.076661
0.082277 0.067109 0.077363
0.126802 0.059968 0.080720
0.164187 0.047913 0.083192
0.205112 0.037995 0.085176
0.246921 0.033539 0.086427
0.288304 0.037659 0.086793
0.330816 0.048524 0.086336
0.377539 0.060182 0.085420
0.429816 0.069459 0.080903
0.488838 0.079103 0.072969
0.553674 0.092348 0.058900
0.618006 0.106569 0.016297
0.677546 0.120974 0.000000
0.727596 0.135714 0.000000
0.767697 0.149233 0.000000
0.801480 0.162600 0.000000
0.829526 0.174044 0.000000
0.854673 0.184573 0.000000
0.877226 0.193240 0.000000
0.897459 0.201419 0.000000
0.915770 0.208865 0.000000
0.932708 0.216007 0.000000
0.949004 0.222629 0.000000
0.965148 0.230137 0.035859
0.981231 0.238468 0.082918
0.997253 0.247471 0.113954
1.000000 0.258427 0.143038
1.000000 0.271244 0.173770
1.000000 0.287022 0.206119
0.064698 0.076448 0.077119
0.064759 0.078920 0.076905
0.064546 0.082002 0.077302
0.087037 0.087739 0.077516
0.130526 0.086122 0.078279
0.168948 0.084138 0.079194
0.209262 0.083040 0.080171
0.250401 0.084016 0.081025
0.291081 0.086183 0.081025
0.333196 0.090364 0.081666
0.379461 0.096986 0.079164
0.431647 0.104585 0.074952
0.490425 0.114382 0.066377
0.554711 0.125734 0.041230
0.618799 0.137514 0.000000
0.677668 0.149569 0.000000
0.727352 0.161349 0.000000
0.767727 0.172274 0.000000
0.800778 0.182376 0.000000
0.828275 0.191470 0.000000
0.853208 0.199313 0.000000
0.875700 0.206851 0.000000
0.896056 0.213443 0.000000
0.914641 0.220005 0.000000
0.931945 0.225834 0.000000
0.948547 0.231876 0.000000
0.964935 0.238285 0.018280
0.981170 0.245884 0.077821
0.997223 0.254368 0.109926
1.000000 0.264530 0.140597
1.000000 0.276616 0.171145
1.000000 0.291386 0.203769
0.061921 0.118379 0.081453
0.061982 0.119448 0.081941
0.061830 0.121126 0.082338
0.087129 0.124300 0.078431
0.128237 0.125032 0.080354
0.170352 0.124910 0.078950
0.211032 0.124025 0.078920
0.252110 0.124788 0.077790
0.292607 0.126314 0.077760
0.334539 0.130159 0.076600
0.380774 0.135348 0.073732
0.432685 0.142885 0.067903
0.491249 0.152621 0.054994
0.555291 0.163302 0.017273
0.619074 0.174472 0.000000
0.677668 0.185031 0.000000
0.727291 0.194614 0.000000
0.767941 0.203220 0.000000
0.800443 0.210300 0.000000
0.827665 0.216617 0.000000
0.852293 0.222568 0.000000
0.874723 0.227695 0.000000
0.895109 0.232639 0.000000
0.913756 0.237308 0.000000
0.931121 0.241917 0.000000
0.947845 0.246677 0.000000
0.964263 0.252079 0.007965
0.980621 0.257969 0.073976
0.996765 0.265049 0.106294
1.000000 0.273533 0.135409
1.000000 0.284306 0.166690
1.000000 0.298100 0.199802
0.060121 0.151034 0.085786
0.060090 0.151980 0.086213
0.060426 0.153384 0.086580
0.086610 0.156374 0.081575
0.130282 0.158999 0.078157
0.167086 0.160555 0.083742
0.214328 0.166018 0.078279
0.254124 0.164736 0.076295
0.294041 0.166049 0.075563
0.336126 0.169436 0.073091
0.382269 0.174685 0.070069
0.434211 0.182406 0.062715
0.492744 0.192233 0.040681
0.556603 0.203189 0.000000
0.619959 0.213993 0.000000
0.678431 0.223545 0.000000
0.727718 0.231388 0.000000
0.768551 0.237949 0.000000
0.800534 0.242527 0.000000
0.827604 0.246372 0.000000
0.852262 0.249973 0.000000
0.874754 0.253269 0.000000
0.905455 0.261967 0.000000
0.923064 0.265019 0.000000
0.939574 0.267918 0.000000
0.955596 0.271153 0.000000
0.971374 0.275090 0.046571
0.986969 0.279759 0.087312
1.000000 0.285801 0.116915
1.000000 0.293217 0.145968
1.000000 0.302434 0.175418
1.000000 0.314092 0.206699
0.051209 0.189853 0.091585
0.051728 0.190677 0.092500
0.051820 0.192050 0.089784
0.092958 0.194522 0.084718
0.137179 0.197940 0.075776
0.175845 0.199924 0.078523
0.212406 0.202182 0.084932
0.261692 0.210147 0.075654
0.301030 0.209384 0.071748
0.342992 0.210300 0.068330
0.390082 0.216495 0.062593
0.443366 0.224765 0.046571
0.502770 0.235142 0.010132
0.566491 0.246830 0.000000
0.628656 0.257206 0.000000
0.685145 0.265476 0.000000
0.734188 0.272160 0.000000
0.773495 0.276249 0.000000
0.804501 0.278508 0.000000
0.831540 0.280400 0.000000
0.856504 0.282322 0.000000
0.879515 0.284001 0.000000
0.900450 0.285863 0.000000
0.919524 0.287724 0.000000
0.937102 0.289647 0.000000
0.953735 0.291691 0.000000
0.969848 0.294621 0.035187
0.985626 0.298100 0.084810
1.000000 0.302708 0.115969
1.000000 0.308904 0.145541
1.000000 0.316838 0.174685
1.000000 0.327276 0.205875
0.024750 0.228214 0.095125
0.026734 0.228977 0.092592
0.062501 0.229953 0.089601
0.100710 0.231754 0.085054
0.142641 0.234226 0.076234
0.182467 0.236271 0.072877
0.219059 0.238651 0.077241
0.255222 0.241215 0.082216
0.305028 0.250950 0.068910
0.347295 0.252354 0.062379
0.393683 0.256413 0.047639
0.445594 0.263310 0.018189
0.505211 0.274723 0.000000
0.568475 0.286717 0.000000
0.629969 0.297429 0.000000
0.686702 0.305760 0.000000
0.735317 0.311223 0.000000
0.773220 0.313390 0.000000
0.803586 0.313787 0.000000
0.830350 0.313634 0.000000
0.855100 0.313634 0.000000
0.877958 0.313573 0.000000
0.898833 0.313603 0.000000
0.917906 0.313848 0.000000
0.935515 0.314183 0.000000
0.952178 0.315099 0.000000
0.968383 0.316472 0.021546
0.984222 0.318639 0.082277
0.999908 0.322087 0.114687
1.000000 0.326909 0.144747
1.000000 0.333684 0.174777
1.000000 0.342809 0.206027
0.016724 0.267338 0.088746
0.055451 0.268009 0.087648
0.079042 0.268528 0.085634
0.112490 0.269535 0.082155
0.151583 0.271183 0.074434
0.191592 0.272099 0.066529
0.226474 0.275029 0.066773
0.262272 0.277928 0.070832
0.298833 0.280888 0.075074
0.352178 0.294255 0.057252
0.400793 0.300145 0.019593
0.453101 0.307256 0.000000
0.510979 0.316777 0.000000
0.572381 0.327764 0.000000
0.633570 0.338659 0.000000
0.690883 0.347448 0.000000
0.737179 0.351019 0.000000
0.773739 0.351446 0.000000
0.803342 0.350011 0.000000
0.829801 0.348241 0.000000
0.854337 0.346502 0.000000
0.877012 0.344732 0.000000
0.897765 0.343297 0.000000
0.916747 0.341924 0.000000
0.934325 0.340948 0.000000
0.951049 0.340246 0.000000
0.967254 0.340398 0.014374
0.983154 0.341283 0.081025
0.998840 0.343542 0.114321
1.000000 0.347112 0.144533
1.000000 0.352636 0.175021
1.000000 0.360418 0.206851
0.060670 0.306767 0.085817
0.077089 0.306950 0.084535
0.095369 0.307347 0.082033
0.125887 0.307958 0.077424
0.161654 0.309117 0.069123
0.200259 0.310460 0.054688
0.236210 0.312078 0.049012
0.271305 0.315312 0.053223
0.308171 0.319280 0.056886
0.345953 0.323552 0.061738
0.405249 0.342016 0.011444
0.461677 0.352880 0.000000
0.519921 0.363409 0.000000
0.581048 0.374212 0.000000
0.640894 0.382879 0.000000
0.695277 0.389227 0.000000
0.739895 0.391608 0.000000
0.775418 0.390173 0.000000
0.804318 0.387121 0.000000
0.830259 0.383581 0.000000
0.854276 0.380407 0.000000
0.876341 0.377173 0.000000
0.896635 0.373938 0.000000
0.915251 0.370916 0.000000
0.932647 0.368353 0.000000
0.949340 0.366430 0.000000
0.965667 0.365332 0.000000
0.981781 0.365148 0.078401
0.997650 0.366339 0.113924
1.000000 0.368933 0.144991
1.000000 0.373266 0.175998
1.000000 0.380072 0.208835
0.068910 0.348455 0.091524
0.084352 0.348791 0.090486
0.102632 0.349157 0.087617
0.132540 0.349706 0.082673
0.168643 0.350530 0.075044
0.207156 0.351629 0.062226
0.247166 0.351843 0.035920
0.282963 0.356329 0.022705
0.320165 0.360754 0.017395
0.359380 0.366278 0.011963
0.399756 0.371984 0.013397
0.467628 0.396857 0.000000
0.533440 0.413611 0.000000
0.594202 0.424628 0.000000
0.651240 0.432013 0.000000
0.701045 0.434546 0.000000
0.741695 0.431830 0.000000
0.775845 0.428840 0.000000
0.804166 0.423926 0.000000
0.829801 0.418799 0.000000
0.853574 0.414099 0.000000
0.875517 0.409552 0.000000
0.895720 0.405249 0.000000
0.914275 0.401099 0.000000
0.931670 0.397375 0.000000
0.948302 0.394141 0.000000
0.964599 0.391730 0.000000
0.980652 0.390509 0.076387
0.996521 0.390539 0.113680
1.000000 0.391913 0.145693
1.000000 0.395148 0.177462
1.000000 0.400671 0.210269
0.074495 0.395941 0.097597
0.089693 0.396124 0.096193
0.108431 0.396429 0.094270
0.138552 0.396887 0.089143
0.175448 0.397620 0.080537
0.215183 0.398444 0.066804
0.256535 0.399603 0.035340
0.295903 0.401404 0.007721
0.334661 0.407050 0.000000
0.375341 0.413214 0.000000
0.418799 0.421118 0.000000
0.465309 0.430701 0.000000
0.562066 0.477607 0.000000
0.628901 0.492561 0.000000
0.681849 0.496376 0.000000
0.725399 0.493690 0.000000
0.760616 0.486610 0.000000
0.789456 0.477089 0.000000
0.814420 0.467140 0.000000
0.838590 0.460029 0.000000
0.860960 0.453101 0.000000
0.881529 0.446723 0.000000
0.900481 0.440497 0.000000
0.918120 0.434913 0.000000
0.934844 0.429603 0.000000
0.951080 0.425177 0.000000
0.966979 0.421637 0.003113
0.982666 0.419196 0.083436
0.998108 0.417945 0.119753
1.000000 0.418158 0.151553
1.000000 0.420233 0.183352
1.000000 0.424659 0.216861
0.079866 0.455146 0.102602
0.096376 0.455177 0.101289
0.115145 0.455146 0.098817
0.146426 0.455085 0.093599
0.185275 0.455116 0.084169
0.226169 0.455268 0.069947
0.269200 0.455543 0.034546
0.312505 0.454810 0.000000
0.353796 0.461006 0.000000
0.398535 0.470741 0.000000
0.446357 0.481666 0.000000
0.497383 0.493690 0.000000
0.550164 0.506004 0.000000
0.628931 0.536034 0.000000
0.688014 0.544030 0.000000
0.729885 0.539910 0.000000
0.763455 0.530968 0.000000
0.790951 0.519707 0.000000
0.815122 0.507866 0.000000
0.837797 0.496559 0.000000
0.859434 0.487129 0.000000
0.879881 0.479316 0.000000
0.898741 0.472023 0.000000
0.916350 0.465278 0.000000
0.933043 0.459083 0.000000
0.949310 0.453590 0.000000
0.965270 0.448981 0.000000
0.980987 0.445563 0.079866
0.996551 0.443275 0.119112
1.000000 0.442573 0.152041
1.000000 0.443549 0.184512
1.000000 0.447028 0.218906
0.082033 0.514702 0.106966
0.100221 0.514794 0.105348
0.120058 0.514580 0.102144
0.153506 0.514397 0.096834
0.193576 0.513939 0.086458
0.236698 0.513542 0.070314
0.281346 0.514549 0.032166
0.327733 0.515557 0.000000
0.372869 0.517144 0.000000
0.418402 0.526970 0.000000
0.466102 0.536675 0.000000
0.516350 0.547417 0.000000
0.568505 0.558495 0.000000
0.620539 0.568322 0.000000
0.687465 0.587793 0.000000
0.733150 0.585229 0.000000
0.765988 0.574609 0.000000
0.792325 0.561486 0.000000
0.816007 0.548425 0.000000
0.838193 0.536156 0.000000
0.859068 0.524071 0.000000
0.878599 0.512657 0.000000
0.897307 0.503777 0.000000
0.914885 0.495949 0.000000
0.931640 0.488960 0.000000
0.947875 0.482551 0.000000
0.963897 0.476967 0.000000
0.979706 0.472602 0.078126
0.995300 0.469490 0.118837
1.000000 0.467872 0.153628
1.000000 0.468025 0.186435
1.000000 0.470497 0.221897
0.087617 0.578363 0.110567
0.105928 0.578546 0.109194
0.126070 0.578454 0.106691
0.161746 0.578180 0.099611
0.202945 0.577752 0.090272
0.248051 0.577295 0.071962
0.294133 0.576745 0.029145
0.341436 0.576318 0.000000
0.389288 0.575402 0.000000
0.434943 0.580346 0.000000
0.481941 0.589136 0.000000
0.530785 0.597894 0.000000
0.580957 0.606897 0.000000
0.631678 0.615381 0.000000
0.680079 0.621057 0.000000
0.731502 0.627863 0.000000
0.767208 0.618097 0.000000
0.794034 0.603632 0.000000
0.817044 0.588830 0.000000
0.838804 0.575006 0.000000
0.859251 0.562036 0.000000
0.878386 0.549615 0.000000
0.896269 0.537530 0.000000
0.913390 0.526848 0.000000
0.930144 0.518730 0.000000
0.946563 0.511742 0.000000
0.962768 0.505486 0.000000
0.978759 0.500450 0.078492
0.994598 0.496681 0.121126
1.000000 0.494392 0.156954
1.000000 0.493843 0.191379
1.000000 0.495613 0.227878
0.094179 0.639216 0.118624
0.113924 0.639368 0.116670
0.133364 0.639063 0.114076
0.169131 0.638727 0.108217
0.212222 0.637934 0.097505
0.257877 0.636988 0.081147
0.304417 0.635920 0.051575
0.352544 0.634943 0.000000
0.401190 0.633539 0.000000
0.448615 0.631373 0.000000
0.494423 0.638239 0.000000
0.540673 0.644190 0.000000
0.587243 0.649500 0.000000
0.634119 0.654475 0.000000
0.680568 0.658717 0.000000
0.723934 0.660212 0.000000
0.764004 0.658442 0.000000
0.793576 0.644800 0.000000
0.818235 0.629328 0.000000
0.839658 0.614160 0.000000
0.859861 0.599847 0.000000
0.878813 0.586572 0.000000
0.896605 0.573785 0.000000
0.913420 0.561608 0.000000
0.929686 0.550286 0.000000
0.946014 0.541588 0.000000
0.962249 0.534661 0.000000
0.978271 0.528832 0.080049
0.994079 0.524315 0.123873
1.000000 0.521111 0.160708
1.000000 0.519707 0.195712
1.000000 0.520592 0.233310
0.109407 0.688228 0.131106
0.125063 0.688136 0.129549
0.144045 0.687709 0.127138
0.177981 0.687098 0.122011
0.219059 0.685969 0.112947
0.263523 0.684688 0.099489
0.309545 0.683009 0.079866
0.357031 0.681117 0.024689
0.404974 0.678920 0.000000
0.453315 0.676356 0.000000
0.498238 0.676204 0.000000
0.542504 0.680720 0.000000
0.586633 0.684199 0.000000
0.630976 0.687190 0.000000
0.674922 0.689601 0.000000
0.717861 0.691463 0.000000
0.757382 0.690486 0.000000
0.790158 0.683803 0.000000
0.816892 0.668971 0.000000
0.840024 0.653193 0.000000
0.859800 0.637568 0.000000
0.878447 0.622827 0.000000
0.896025 0.609094 0.000000
0.912810 0.596185 0.000000
0.928985 0.584039 0.000000
0.945037 0.573114 0.000000
0.961059 0.563500 0.000000
0.977203 0.557031 0.080598
0.993072 0.551690 0.126192
1.000000 0.547814 0.163943
1.000000 0.545678 0.200076
1.000000 0.545953 0.239322
0.127108 0.726772 0.150210
0.141512 0.726680 0.148592
0.163149 0.735531 0.152865
0.193790 0.734707 0.147860
0.231785 0.733364 0.140932
0.273472 0.731594 0.130129
0.317967 0.729335 0.114778
0.363653 0.726711 0.092470
0.410407 0.723720 0.052918
0.457313 0.720546 0.000000
0.504356 0.715602 0.000000
0.545953 0.717739 0.000000
0.587976 0.719478 0.000000
0.629755 0.720546 0.000000
0.671199 0.721248 0.000000
0.712123 0.721706 0.000000
0.752560 0.721950 0.000000
0.789212 0.719387 0.000000
0.817227 0.710018 0.000000
0.841032 0.693843 0.000000
0.862333 0.677363 0.000000
0.880308 0.660945 0.000000
0.897368 0.645838 0.000000
0.913756 0.631800 0.000000
0.929656 0.618769 0.000000
0.945251 0.606775 0.000000
0.960784 0.596063 0.000000
0.976410 0.586450 0.086397
0.992096 0.579248 0.128481
1.000000 0.574609 0.167330
1.000000 0.571862 0.204929
1.000000 0.571313 0.245365
0.150759 0.759213 0.173098
0.162387 0.760037 0.173190
0.177462 0.760647 0.171878
0.204288 0.760800 0.168551
0.238590 0.760311 0.162753
0.277531 0.758968 0.154665
0.319677 0.756954 0.141421
0.362585 0.754543 0.125429
0.407111 0.751705 0.102480
0.452094 0.748531 0.065766
0.497658 0.744900 0.000000
0.540673 0.741939 0.000000
0.580652 0.743160 0.000000
0.620813 0.743801 0.000000
0.660639 0.744045 0.000000
0.700160 0.744106 0.000000
0.739284 0.744015 0.000000
0.777768 0.743801 0.000000
0.812467 0.740780 0.019043
0.837400 0.730282 0.084932
0.859190 0.713588 0.000000
0.879240 0.697078 0.000000
0.896513 0.680903 0.000000
0.912840 0.665858 0.000000
0.928832 0.652186 0.000000
0.944549 0.639521 0.000000
0.960082 0.628107 0.037415
0.975616 0.618036 0.100862
0.991180 0.609094 0.137087
1.000000 0.601617 0.171420
1.000000 0.598199 0.210636
1.000000 0.597070 0.252720
0.172915 0.783841 0.195071
0.182650 0.784482 0.195010
0.194308 0.785031 0.194705
0.217319 0.785092 0.192020
0.248325 0.784543 0.186831
0.283268 0.783352 0.179507
0.322026 0.781460 0.168704
0.362615 0.779171 0.154604
0.404425 0.776638 0.137209
0.447425 0.773587 0.113405
0.490944 0.770291 0.079377
0.534752 0.765805 0.000000
0.574121 0.765255 0.000000
0.612757 0.765927 0.000000
0.651148 0.765835 0.000000
0.689265 0.765591 0.003571
0.727169 0.765194 0.029450
0.764401 0.764736 0.059358
0.801236 0.764218 0.073732
0.834104 0.760769 0.092378
0.856138 0.749081 0.124880
0.876158 0.732357 0.091615
0.895109 0.715938 0.000000
0.912016 0.700069 0.000000
0.927977 0.685451 0.000000
0.943816 0.672175 0.000000
0.959228 0.660029 0.071626
0.974640 0.649317 0.115358
0.990051 0.639857 0.150149
1.000000 0.631769 0.183688
1.000000 0.625452 0.218326
1.000000 0.622705 0.259983
0.195285 0.806302 0.218906
0.203250 0.806821 0.219089
0.213596 0.807279 0.218540
0.233341 0.807279 0.215793
0.260136 0.806729 0.211368
0.291630 0.805600 0.204715
0.326390 0.803922 0.195132
0.363622 0.801816 0.183108
0.403082 0.799374 0.167971
0.443641 0.796567 0.149325
0.485023 0.793423 0.124788
0.527092 0.789853 0.089631
0.567926 0.785885 0.060517
0.605005 0.786252 0.058289
0.642176 0.786282 0.063203
0.679225 0.785916 0.073945
0.715969 0.785550 0.085145
0.752499 0.785122 0.095277
0.788540 0.784756 0.107179
0.824063 0.784360 0.119326
0.855436 0.780850 0.134768
0.875242 0.768368 0.162905
0.893767 0.751736 0.140871
0.912108 0.735744 0.107942
0.929107 0.720516 0.085206
0.944976 0.706508 0.087434
0.960601 0.693782 0.100771
0.975860 0.682429 0.137514
0.991028 0.672602 0.170871
1.000000 0.664088 0.204227
1.000000 0.657374 0.239353
1.000000 0.652735 0.279362
0.224216 0.829129 0.248356
0.230259 0.829282 0.248142
0.237888 0.829252 0.247166
0.253758 0.828885 0.244053
0.276341 0.828122 0.239292
0.303624 0.826963 0.232822
0.334386 0.825467 0.224338
0.368292 0.823606 0.213413
0.404608 0.821469 0.200229
0.442573 0.819059 0.184360
0.481697 0.816312 0.164920
0.521660 0.813169 0.140383
0.562249 0.809171 0.110445
0.599603 0.807126 0.102602
0.635401 0.807034 0.101930
0.671077 0.806516 0.108736
0.706538 0.805814 0.116609
0.741848 0.805020 0.125765
0.776608 0.804288 0.135042
0.811032 0.803464 0.144961
0.844724 0.802701 0.156497
0.874144 0.798581 0.170138
0.891630 0.785397 0.195315
0.908782 0.768887 0.177829
0.926696 0.753384 0.150729
0.943725 0.738705 0.127535
0.959442 0.725307 0.130007
0.974792 0.713375 0.154055
0.989776 0.703059 0.186831
1.000000 0.694118 0.220035
1.000000 0.687007 0.256718
1.000000 0.681849 0.297459
0.251316 0.847135 0.276097
0.256077 0.847257 0.275731
0.262547 0.847288 0.275120
0.275761 0.846952 0.272038
0.294285 0.846281 0.267887
0.317540 0.845212 0.261173
0.344488 0.843870 0.253147
0.374517 0.842191 0.242954
0.407385 0.840269 0.230777
0.442267 0.838071 0.215946
0.478645 0.835599 0.198825
0.516197 0.832761 0.178073
0.554559 0.829465 0.152102
0.593744 0.825071 0.130434
0.627863 0.824857 0.131807
0.662287 0.824491 0.133211
0.696681 0.823667 0.140658
0.730892 0.822812 0.149325
0.764797 0.821958 0.158755
0.798245 0.821073 0.168612
0.831144 0.820249 0.179110
0.863462 0.819364 0.190799
0.891325 0.815244 0.204654
0.907469 0.802152 0.229313
0.922576 0.785000 0.211093
0.940276 0.770260 0.185794
0.957580 0.756191 0.161501
0.973144 0.743557 0.170138
0.987976 0.732723 0.202365
1.000000 0.723445 0.236423
1.000000 0.715877 0.273808
1.000000 0.710353 0.316014
0.285283 0.865110 0.310765
0.289311 0.865263 0.310643
0.294408 0.865232 0.309575
0.304387 0.864897 0.306828
0.318975 0.864225 0.302220
0.337865 0.863249 0.295689
0.360357 0.861967 0.287510
0.386023 0.860349 0.277134
0.414740 0.858518 0.264683
0.445747 0.856413 0.250858
0.478798 0.854002 0.234501
0.513268 0.851316 0.215518
0.549157 0.848295 0.192508
0.585962 0.844755 0.166842
0.621515 0.841733 0.157595
0.654292 0.841032 0.158511
0.687312 0.840116 0.162387
0.720241 0.839048 0.170413
0.753079 0.838071 0.178592
0.785641 0.837186 0.188724
0.817838 0.836362 0.199313
0.849454 0.835569 0.210056
0.880369 0.834684 0.222263
0.906706 0.830381 0.235874
0.921508 0.817319 0.259831
0.936645 0.801694 0.246891
0.954223 0.787625 0.223423
0.971649 0.774105 0.197848
0.986481 0.762539 0.220829
1.000000 0.752895 0.255711
1.000000 0.744747 0.293584
1.000000 0.738857 0.338048
0.317693 0.879606 0.343328
0.321019 0.879759 0.343206
0.325048 0.879759 0.342168
0.332799 0.879484 0.339666
0.344427 0.878935 0.335058
0.359625 0.878141 0.328801
0.378149 0.877134 0.320500
0.399908 0.875853 0.310674
0.424659 0.874357 0.299016
0.451942 0.872709 0.285649
0.481514 0.870756 0.270054
0.513115 0.868528 0.252598
0.546197 0.866026 0.231968
0.580468 0.863188 0.208103
0.616358 0.859281 0.187533
0.648585 0.858061 0.186587
0.680476 0.857328 0.188540
0.712459 0.856382 0.194675
0.744381 0.855406 0.203433
0.776059 0.854520 0.212924
0.807462 0.853635 0.223301
0.838315 0.852811 0.234897
0.868559 0.851957 0.246128
0.897978 0.851041 0.258396
0.922850 0.846677 0.273259
0.936461 0.833829 0.297002
0.950591 0.818784 0.286992
0.968078 0.805570 0.265019
0.985077 0.793027 0.251194
0.999145 0.782650 0.279606
1.000000 0.774105 0.319219
1.000000 0.767910 0.365759
0.355993 0.893889 0.381476
0.358434 0.893950 0.380713
0.361395 0.893889 0.379797
0.367132 0.893614 0.377050
0.375525 0.893126 0.372137
0.386969 0.892485 0.365667
0.401312 0.891661 0.357183
0.418830 0.890623 0.347173
0.439307 0.889433 0.335943
0.462470 0.888090 0.322423
0.488167 0.886564 0.307439
0.516228 0.884794 0.290440
0.546166 0.882780 0.271000
0.577783 0.880430 0.249058
0.610681 0.877684 0.223239
0.644373 0.874540 0.213169
0.674922 0.873777 0.215274
0.705745 0.873045 0.217868
0.736721 0.872068 0.226719
0.767514 0.871153 0.236210
0.798093 0.870298 0.246860
0.828183 0.869413 0.258152
0.857725 0.868559 0.270146
0.886534 0.867643 0.282811
0.914549 0.866697 0.295781
0.937926 0.862303 0.311711
0.950286 0.849851 0.336706
0.963561 0.835569 0.329442
0.980529 0.823056 0.310033
0.995941 0.811643 0.314580
1.000000 0.802060 0.343786
1.000000 0.795560 0.392981
0.397253 0.906920 0.421485
0.399145 0.906950 0.421057
0.401160 0.906920 0.419837
0.405097 0.906798 0.416968
0.411536 0.906523 0.412421
0.420264 0.906188 0.406439
0.431800 0.905821 0.399237
0.445899 0.905394 0.390356
0.462806 0.904875 0.380133
0.482216 0.904265 0.368505
0.503990 0.903502 0.354650
0.528130 0.902525 0.338811
0.554284 0.901305 0.320989
0.582391 0.899748 0.299870
0.612238 0.897765 0.276402
0.644251 0.894926 0.255192
0.674861 0.893339 0.252628
0.704402 0.892607 0.255741
0.734249 0.891783 0.261326
0.764126 0.890776 0.271641
0.793729 0.889830 0.282628
0.822934 0.888884 0.294285
0.851560 0.887907 0.307042
0.879484 0.886900 0.320409
0.906615 0.885863 0.334691
0.932799 0.884855 0.349706
0.954376 0.880552 0.367407
0.965057 0.868498 0.394049
0.976989 0.854948 0.389227
0.991638 0.843351 0.386847
1.000000 0.833158 0.399268
1.000000 0.824857 0.433936
0.452491 0.920897 0.474006
0.453590 0.920958 0.473365
0.454810 0.920928 0.472175
0.457160 0.920806 0.469368
0.460883 0.920653 0.464515
0.466224 0.920409 0.458320
0.473701 0.920165 0.450721
0.483192 0.919890 0.441718
0.494820 0.919554 0.430793
0.508995 0.919097 0.418555
0.525414 0.918547 0.403967
0.544244 0.917876 0.387518
0.565454 0.916960 0.368627
0.589166 0.915801 0.347936
0.614984 0.914336 0.324102
0.642908 0.912596 0.297398
