其他预设/【233】日式怀旧街道调色预设208款/1.3D LUT预设（视频调色-PR-AE-PS-FCPX-达芬奇用）/1.日式城市街拍预设/JA – Cityscape Pop 3.cube
# Created by Adobe Lightroom plugin Export LUT (1.17.0)
# www.johnrellis.com/lightroom/exportlut.htm
# Preset: JA – Cityscape Pop 3
# Color profile: /Library/Application Support/Adobe/Color/Profiles/Recommended/AdobeRGB1998.icc
LUT_3D_SIZE 5
DOMAIN_MIN 0.000000 0.000000 0.000000
DOMAIN_MAX 0.903226 0.903226 0.903226
0.106172 0.108827 0.110536
0.216892 0.078126 0.107942
0.576074 0.000000 0.031373
0.882353 0.111360 0.000000
1.000000 0.111971 0.000000
0.083528 0.198489 0.110475
0.198123 0.202487 0.095979
0.542809 0.267399 0.000000
0.869047 0.295750 0.000000
1.000000 0.260563 0.000000
0.000000 0.500908 0.150454
0.137636 0.493019 0.000000
0.526177 0.523796 0.000000
0.843442 0.535821 0.000000
0.996216 0.480293 0.000000
0.000000 0.795041 0.223148
0.000000 0.794003 0.000000
0.430304 0.767819 0.000000
0.782681 0.774655 0.000000
0.980652 0.704158 0.000000
0.000000 0.949096 0.307774
0.000000 0.946471 0.282628
0.324285 0.934630 0.156222
0.640681 0.920043 0.115145
0.912505 0.906432 0.000000
0.104219 0.109682 0.201205
0.192477 0.099855 0.192813
0.569635 0.000000 0.179385
0.872709 0.000000 0.111177
1.000000 0.000000 0.000000
0.029023 0.206332 0.222110
0.205478 0.209262 0.212161
0.552850 0.209659 0.174990
0.862943 0.222873 0.101839
1.000000 0.214115 0.000000
0.000000 0.511681 0.287907
0.130343 0.507195 0.245212
0.511528 0.509331 0.182712
0.830747 0.510582 0.074647
0.995575 0.457862 0.000000
0.000000 0.797971 0.340734
0.000000 0.794736 0.313664
0.429725 0.772000 0.212406
0.781338 0.773068 0.157412
0.978485 0.698238 0.000000
0.000000 0.949523 0.371588
0.000000 0.944945 0.377722
0.353033 0.937713 0.300114
0.646204 0.920653 0.272892
0.913176 0.906950 0.183871
0.183749 0.080354 0.511803
0.280430 0.075105 0.494789
0.493355 0.028168 0.472358
0.835660 0.000000 0.496925
0.999084 0.105653 0.434699
0.074281 0.208438 0.539025
0.284092 0.243870 0.518669
0.505821 0.240940 0.487037
0.842588 0.202457 0.495247
0.993164 0.332677 0.473884
0.000000 0.523003 0.559533
0.143832 0.521996 0.551446
0.524285 0.518212 0.517540
0.833677 0.525994 0.506645
0.983490 0.497261 0.459724
0.000000 0.811521 0.573480
0.000000 0.804135 0.560571
0.491829 0.781796 0.538720
0.782254 0.771969 0.504814
0.963470 0.701747 0.445747
0.000000 0.949248 0.540368
0.000000 0.946288 0.538933
0.491676 0.928893 0.571893
0.671229 0.913268 0.518761
0.910002 0.902678 0.493019
0.312261 0.171389 0.780423
0.383185 0.180392 0.773861
0.545434 0.192966 0.748531
0.777279 0.199771 0.733974
0.942931 0.426459 0.711177
0.332250 0.312932 0.787167
0.396612 0.312627 0.780484
0.551690 0.306523 0.753689
0.774990 0.309575 0.734035
0.941070 0.477119 0.715358
0.176425 0.475654 0.802670
0.333959 0.489967 0.799802
0.597986 0.561639 0.772671
0.769863 0.541772 0.738430
0.941131 0.618738 0.736355
0.000000 0.755276 0.801633
0.224186 0.756832 0.798093
0.558312 0.766690 0.788876
0.780056 0.766964 0.762814
0.934630 0.774960 0.762081
0.000000 0.952239 0.754849
0.000000 0.948547 0.752346
0.502922 0.932555 0.754879
0.763790 0.906462 0.771389
0.907378 0.898528 0.750759
0.468727 0.372442 0.909392
0.503685 0.378882 0.907500
0.605829 0.397711 0.901122
0.737789 0.411383 0.887816
0.918273 0.471077 0.878477
0.501518 0.452583 0.907988
0.531518 0.456123 0.906157
0.622187 0.466529 0.899931
0.742428 0.467384 0.886381
0.915160 0.517357 0.877409
0.509667 0.561883 0.910796
0.575952 0.597559 0.907134
0.684077 0.640589 0.898375
0.765438 0.620203 0.885924
0.909087 0.641596 0.877928
0.443824 0.682948 0.912749
0.514549 0.697505 0.910765
0.677424 0.742000 0.905852
0.815396 0.792294 0.894469
0.905241 0.786038 0.884031
0.314855 0.863188 0.911284
0.413031 0.866361 0.910124
0.623987 0.877745 0.907256
0.799252 0.891600 0.903349
0.904784 0.895811 0.892760
