其他预设/【233】日式怀旧街道调色预设208款/1.3D LUT预设（视频调色-PR-AE-PS-FCPX-达芬奇用）/1.日式城市街拍预设/JA – Static Pop 1.cube
# Created by Adobe Lightroom plugin Export LUT (1.17.0)
# www.johnrellis.com/lightroom/exportlut.htm
# Preset: JA – Static Pop 1
# Color profile: /Library/Application Support/Adobe/Color/Profiles/Recommended/AdobeRGB1998.icc
LUT_3D_SIZE 32
0.082673 0.085573 0.088777
0.082673 0.085573 0.088777
0.082673 0.085573 0.088777
0.092348 0.083925 0.088655
0.118410 0.078004 0.088228
0.146487 0.068605 0.087648
0.181247 0.042420 0.086702
0.221592 0.009247 0.084535
0.268437 0.000000 0.080751
0.320836 0.000000 0.074800
0.378851 0.000000 0.065370
0.440894 0.000000 0.042603
0.505760 0.000000 0.000000
0.571832 0.000000 0.000000
0.637385 0.000000 0.000000
0.700710 0.000000 0.000000
0.762203 0.000000 0.000000
0.821073 0.000000 0.000000
0.869810 0.000000 0.000000
0.911589 0.013336 0.000000
0.947356 0.058778 0.000000
0.977783 0.072053 0.000000
1.000000 0.082399 0.000000
1.000000 0.089601 0.000000
1.000000 0.092775 0.000000
1.000000 0.093690 0.000000
1.000000 0.093202 0.000000
1.000000 0.090669 0.000000
1.000000 0.085573 0.000000
1.000000 0.079286 0.000000
1.000000 0.068727 0.000000
1.000000 0.052552 0.000000
0.082673 0.085573 0.088777
0.082673 0.085573 0.088777
0.082673 0.085573 0.088777
0.093019 0.083803 0.088655
0.118654 0.077943 0.088228
0.146700 0.068513 0.087648
0.180667 0.057435 0.086336
0.220798 0.036591 0.083955
0.267308 0.008972 0.080110
0.319646 0.000000 0.073945
0.377356 0.000000 0.064240
0.438972 0.000000 0.039704
0.503471 0.000000 0.000000
0.569390 0.000000 0.000000
0.634730 0.000000 0.000000
0.697932 0.000000 0.000000
0.759823 0.000000 0.000000
0.817838 0.000000 0.000000
0.866453 0.039826 0.000000
0.908354 0.067170 0.000000
0.944457 0.079622 0.000000
0.975250 0.090211 0.000000
1.000000 0.097566 0.000000
1.000000 0.101686 0.000000
1.000000 0.104646 0.000000
1.000000 0.105043 0.000000
1.000000 0.103609 0.000000
1.000000 0.101228 0.000000
1.000000 0.096773 0.000000
1.000000 0.090059 0.000000
1.000000 0.081331 0.000000
1.000000 0.068971 0.000000
0.082673 0.085573 0.088777
0.082673 0.085573 0.088777
0.082673 0.085573 0.088777
0.093996 0.083589 0.088624
0.119081 0.078889 0.088167
0.146487 0.075319 0.087221
0.180179 0.070375 0.085664
0.220127 0.063355 0.083131
0.266331 0.052857 0.079103
0.318364 0.033143 0.072786
0.375952 0.013642 0.062623
0.437598 0.000000 0.035065
0.501915 0.000000 0.000000
0.567742 0.000000 0.000000
0.633021 0.008423 0.000000
0.696407 0.026154 0.000000
0.758785 0.055207 0.000000
0.816220 0.071046 0.000000
0.864591 0.083345 0.000000
0.906523 0.095064 0.000000
0.942809 0.102632 0.000000
0.973846 0.109865 0.000000
1.000000 0.114931 0.000000
1.000000 0.117617 0.000000
1.000000 0.119356 0.000000
1.000000 0.118410 0.000000
1.000000 0.116732 0.000000
1.000000 0.114015 0.000000
1.000000 0.108766 0.000000
1.000000 0.103151 0.000000
1.000000 0.094331 0.000000
1.000000 0.083864 0.000000
0.081788 0.091524 0.088319
0.081605 0.092714 0.088197
0.081361 0.094179 0.088075
0.093751 0.095125 0.087953
0.118532 0.094697 0.086885
0.145968 0.093019 0.085847
0.179660 0.091341 0.084077
0.219577 0.089570 0.081239
0.265660 0.087678 0.076783
0.317632 0.086763 0.069734
0.374731 0.085908 0.058595
0.436255 0.086702 0.023865
0.500328 0.089967 0.000000
0.565972 0.095613 0.000000
0.631312 0.100465 0.000000
0.694392 0.106111 0.000000
0.757900 0.113558 0.000000
0.814267 0.121340 0.000000
0.862028 0.128237 0.000000
0.903777 0.133913 0.000000
0.940124 0.138643 0.000000
0.971374 0.142367 0.000000
0.998077 0.144717 0.000000
1.000000 0.145632 0.000000
1.000000 0.145327 0.000000
1.000000 0.143618 0.000000
1.000000 0.140993 0.000000
1.000000 0.137881 0.000000
1.000000 0.132906 0.000000
1.000000 0.126162 0.000000
1.000000 0.118807 0.000000
1.000000 0.109804 0.000000
0.077913 0.112398 0.086336
0.077760 0.113100 0.086244
0.077516 0.114260 0.086122
0.092012 0.114595 0.085725
0.114931 0.113710 0.085664
0.144533 0.115053 0.083619
0.178622 0.116213 0.081483
0.218204 0.118135 0.078126
0.264195 0.120638 0.072908
0.315648 0.124147 0.064851
0.372595 0.128115 0.046967
0.433875 0.133425 0.006409
0.497902 0.138979 0.000000
0.563470 0.145663 0.000000
0.628992 0.151675 0.000000
0.692439 0.157870 0.000000
0.757443 0.164767 0.000000
0.813230 0.169802 0.000000
0.860807 0.173983 0.000000
0.902464 0.177218 0.000000
0.938689 0.179141 0.000000
0.969940 0.180667 0.000000
0.996796 0.180758 0.000000
1.000000 0.179873 0.000000
1.000000 0.177981 0.000000
1.000000 0.175387 0.000000
1.000000 0.171695 0.000000
1.000000 0.167025 0.000000
1.000000 0.161715 0.000000
1.000000 0.155306 0.000000
1.000000 0.147585 0.000000
1.000000 0.139467 0.000000
0.072480 0.134249 0.083680
0.072236 0.135012 0.083558
0.071931 0.136141 0.083406
0.088502 0.136690 0.082887
0.113588 0.136172 0.082460
0.138399 0.134432 0.082246
0.175662 0.141299 0.078004
0.217166 0.147066 0.073579
0.263462 0.153170 0.067079
0.315221 0.159609 0.055726
0.371801 0.167391 0.024659
0.433051 0.175204 0.000000
0.496803 0.183352 0.000000
0.562402 0.191440 0.000000
0.627924 0.198611 0.000000
0.694148 0.205844 0.000000
0.758022 0.212589 0.000000
0.813016 0.216739 0.000000
0.860410 0.219730 0.000000
0.902037 0.220981 0.000000
0.938323 0.221653 0.000000
0.969757 0.220737 0.000000
1.000000 0.223911 0.000000
1.000000 0.221347 0.000000
1.000000 0.217350 0.000000
1.000000 0.212772 0.000000
1.000000 0.207767 0.000000
1.000000 0.201907 0.000000
1.000000 0.195438 0.000000
1.000000 0.188357 0.000000
1.000000 0.180636 0.000000
1.000000 0.172519 0.000000
0.062013 0.163455 0.078950
0.061769 0.164034 0.078828
0.062867 0.165164 0.078584
0.087129 0.165621 0.077882
0.115206 0.166232 0.076753
0.143069 0.164553 0.076417
0.168887 0.161990 0.076356
0.213870 0.174441 0.068696
0.263615 0.185550 0.058228
0.319615 0.197452 0.029053
0.377203 0.207828 0.000000
0.439002 0.218509 0.000000
0.503258 0.228580 0.000000
0.568963 0.237705 0.000000
0.633967 0.246006 0.000000
0.703456 0.255253 0.000000
0.765774 0.261387 0.000000
0.819455 0.264683 0.000000
0.866056 0.266545 0.000000
0.907408 0.266575 0.000000
0.943877 0.266026 0.000000
0.975616 0.263981 0.000000
1.000000 0.261509 0.000000
1.000000 0.257450 0.000000
1.000000 0.252964 0.000000
1.000000 0.247318 0.000000
1.000000 0.241398 0.000000
1.000000 0.234989 0.000000
1.000000 0.227634 0.000000
1.000000 0.220279 0.000000
1.000000 0.212131 0.000000
1.000000 0.203616 0.000000
0.029450 0.196933 0.071473
0.028626 0.197543 0.071321
0.056519 0.198093 0.070924
0.086305 0.198642 0.069978
0.117281 0.199496 0.068421
0.148104 0.199130 0.067079
0.176547 0.196262 0.066987
0.203006 0.193423 0.066590
0.253788 0.209934 0.049073
0.310307 0.226139 0.007691
0.372137 0.241978 0.000000
0.437873 0.257115 0.000000
0.501976 0.269108 0.000000
0.567559 0.280003 0.000000
0.637354 0.291508 0.000000
0.704402 0.300694 0.000000
0.764828 0.306584 0.000000
0.817533 0.309361 0.000000
0.863798 0.310094 0.000000
0.905028 0.309300 0.000000
0.941497 0.307469 0.000000
0.973266 0.304417 0.000000
1.000000 0.300603 0.000000
1.000000 0.295598 0.000000
1.000000 0.289616 0.000000
1.000000 0.283055 0.000000
1.000000 0.276158 0.000000
1.000000 0.268650 0.000000
1.000000 0.260807 0.000000
1.000000 0.252689 0.000000
1.000000 0.244297 0.000000
1.000000 0.235447 0.000000
0.000000 0.236698 0.057832
0.012543 0.236942 0.057038
0.053346 0.237430 0.055848
0.088075 0.237736 0.053681
0.121950 0.238895 0.049622
0.155825 0.239902 0.043641
0.186801 0.237308 0.041627
0.216007 0.233860 0.040497
0.243107 0.230137 0.040009
0.298466 0.249851 0.000000
0.361975 0.270848 0.000000
0.428443 0.289647 0.000000
0.498848 0.307866 0.000000
0.571771 0.324468 0.000000
0.640650 0.336828 0.000000
0.705898 0.345983 0.000000
0.764981 0.351537 0.000000
0.816953 0.353948 0.000000
0.862699 0.353796 0.000000
0.903655 0.352300 0.000000
0.939971 0.349645 0.000000
0.971710 0.345434 0.000000
0.998932 0.340276 0.000000
1.000000 0.334081 0.000000
1.000000 0.327123 0.000000
1.000000 0.319463 0.000000
1.000000 0.311528 0.000000
1.000000 0.303136 0.000000
1.000000 0.294469 0.000000
1.000000 0.285710 0.000000
1.000000 0.276646 0.000000
1.000000 0.267399 0.000000
0.000000 0.281804 0.010254
0.009644 0.281956 0.009125
0.056428 0.282200 0.007538
0.092958 0.282811 0.003784
0.129030 0.283909 0.000000
0.164614 0.285039 0.000000
0.199222 0.284337 0.000000
0.230655 0.280369 0.000000
0.260502 0.276127 0.000000
0.288334 0.271611 0.000000
0.346685 0.292821 0.000000
0.416266 0.317723 0.000000
0.490028 0.341466 0.000000
0.566064 0.362646 0.000000
0.641779 0.380468 0.000000
0.707790 0.391150 0.000000
0.766354 0.396490 0.000000
0.817960 0.398016 0.000000
0.863310 0.397467 0.000000
0.903685 0.394568 0.000000
0.939391 0.390875 0.000000
0.970397 0.385931 0.000000
0.997192 0.379950 0.000000
1.000000 0.372656 0.000000
1.000000 0.364508 0.000000
1.000000 0.355901 0.000000
1.000000 0.346868 0.000000
1.000000 0.337743 0.000000
1.000000 0.328435 0.000000
1.000000 0.318944 0.000000
1.000000 0.309361 0.000000
1.000000 0.299687 0.000000
0.000000 0.331304 0.000000
0.000000 0.331670 0.000000
0.046906 0.331975 0.000000
0.093721 0.332525 0.000000
0.134035 0.333440 0.000000
0.172610 0.334997 0.000000
0.211368 0.336858 0.000000
0.246128 0.333288 0.000000
0.278874 0.328252 0.000000
0.309697 0.323186 0.000000
0.339910 0.318853 0.000000
0.403479 0.342748 0.000000
0.478737 0.370825 0.000000
0.554803 0.394781 0.000000
0.629877 0.414405 0.000000
0.702022 0.429694 0.000000
0.766293 0.438514 0.000000
0.817075 0.439948 0.000000
0.862181 0.438636 0.000000
0.902342 0.435340 0.000000
0.937926 0.430549 0.000000
0.968963 0.424628 0.000000
0.995727 0.417945 0.000000
1.000000 0.410681 0.000000
1.000000 0.402289 0.000000
1.000000 0.392615 0.000000
1.000000 0.382635 0.000000
1.000000 0.372564 0.000000
1.000000 0.362493 0.000000
1.000000 0.352270 0.000000
1.000000 0.342016 0.000000
1.000000 0.331853 0.000000
0.000000 0.386023 0.000000
0.000000 0.386419 0.000000
0.000000 0.386633 0.000000
0.086641 0.387060 0.000000
0.134646 0.388373 0.000000
0.177890 0.389715 0.000000
0.220066 0.391485 0.000000
0.260899 0.391699 0.000000
0.296971 0.386358 0.000000
0.333501 0.383032 0.000000
0.367590 0.378515 0.000000
0.399176 0.372900 0.000000
0.480171 0.409064 0.000000
0.560235 0.438056 0.000000
0.638605 0.461250 0.000000
0.711116 0.477577 0.000000
0.775937 0.487160 0.000000
0.831785 0.491035 0.000000
0.876646 0.488624 0.000000
0.914214 0.483131 0.000000
0.947234 0.476295 0.000000
0.976013 0.468177 0.000000
1.000000 0.459541 0.000000
1.000000 0.450324 0.000000
1.000000 0.440650 0.000000
1.000000 0.431159 0.000000
1.000000 0.419989 0.000000
1.000000 0.408667 0.000000
1.000000 0.397620 0.000000
1.000000 0.386419 0.000000
1.000000 0.375555 0.000000
1.000000 0.364569 0.000000
0.000000 0.449836 0.000000
0.000000 0.450019 0.000000
0.000000 0.449989 0.000000
0.073945 0.450141 0.000000
0.133700 0.450507 0.000000
0.182254 0.451209 0.000000
0.229252 0.453132 0.000000
0.275944 0.457404 0.000000
0.319493 0.456428 0.000000
0.359838 0.452461 0.000000
0.398444 0.447974 0.000000
0.434882 0.442481 0.000000
0.468910 0.435981 0.000000
0.535241 0.457313 0.000000
0.616388 0.486244 0.000000
0.693568 0.508232 0.000000
0.760342 0.520531 0.000000
0.818112 0.526238 0.000000
0.868254 0.526909 0.000000
0.911589 0.524071 0.000000
0.944579 0.516472 0.000000
0.973419 0.507622 0.000000
0.998322 0.497963 0.000000
1.000000 0.487648 0.000000
1.000000 0.477089 0.000000
1.000000 0.466499 0.000000
1.000000 0.455543 0.000000
1.000000 0.443488 0.000000
1.000000 0.431556 0.000000
1.000000 0.419745 0.000000
1.000000 0.408118 0.000000
1.000000 0.396643 0.000000
0.000000 0.511284 0.000000
0.000000 0.511803 0.000000
0.000000 0.512108 0.000000
0.040711 0.513054 0.000000
0.127718 0.514092 0.000000
0.184909 0.515862 0.000000
0.236423 0.518181 0.000000
0.286320 0.521019 0.000000
0.335485 0.523735 0.000000
0.378698 0.518517 0.000000
0.419928 0.512779 0.000000
0.459205 0.506493 0.000000
0.495888 0.499153 0.000000
0.529595 0.490517 0.000000
0.591791 0.506798 0.000000
0.671168 0.533471 0.000000
0.743008 0.551385 0.000000
0.803128 0.559564 0.000000
0.855497 0.561975 0.000000
0.900877 0.560296 0.000000
0.939727 0.555352 0.000000
0.971099 0.547112 0.000000
0.996094 0.536492 0.000000
1.000000 0.525292 0.000000
1.000000 0.513756 0.000000
1.000000 0.502098 0.000000
1.000000 0.490700 0.000000
1.000000 0.478370 0.000000
1.000000 0.465675 0.000000
1.000000 0.453193 0.000000
1.000000 0.440894 0.000000
1.000000 0.428779 0.000000
0.000000 0.579065 0.000000
0.000000 0.579370 0.000000
0.000000 0.579339 0.000000
0.000000 0.579614 0.000000
0.119081 0.579950 0.000000
0.184176 0.580652 0.000000
0.240146 0.581750 0.000000
0.293004 0.583398 0.000000
0.344823 0.585901 0.000000
0.393866 0.584619 0.000000
0.437812 0.578363 0.000000
0.479957 0.571405 0.000000
0.519554 0.563531 0.000000
0.556146 0.554376 0.000000
0.589410 0.543908 0.000000
0.646418 0.554376 0.000000
0.721950 0.577661 0.000000
0.786831 0.590478 0.000000
0.842130 0.595575 0.000000
0.889677 0.595361 0.000000
0.930266 0.591302 0.000000
0.964569 0.584283 0.000000
0.993225 0.575036 0.000000
1.000000 0.562951 0.000000
1.000000 0.550469 0.000000
1.000000 0.538079 0.000000
1.000000 0.525658 0.000000
1.000000 0.513390 0.000000
1.000000 0.499977 0.000000
1.000000 0.486854 0.000000
1.000000 0.473884 0.000000
1.000000 0.461158 0.000000
0.000000 0.642939 0.000000
0.000000 0.643275 0.000000
0.000000 0.643336 0.000000
0.000000 0.643488 0.000000
0.103212 0.643854 0.000000
0.180545 0.644373 0.000000
0.241337 0.645258 0.000000
0.297734 0.646632 0.000000
0.352331 0.648493 0.000000
0.405371 0.650568 0.000000
0.453285 0.644495 0.000000
0.497414 0.636469 0.000000
0.538781 0.627405 0.000000
0.577508 0.617273 0.000000
0.613031 0.605829 0.000000
0.645350 0.593408 0.000000
0.696620 0.598474 0.000000
0.766476 0.617182 0.000000
0.826566 0.626551 0.000000
0.878050 0.629541 0.000000
0.920928 0.626886 0.000000
0.957031 0.620386 0.000000
0.987152 0.611292 0.000000
1.000000 0.600244 0.000000
1.000000 0.587823 0.000000
1.000000 0.574395 0.000000
1.000000 0.561028 0.000000
1.000000 0.548119 0.000000
1.000000 0.534325 0.000000
1.000000 0.520378 0.000000
1.000000 0.506706 0.000000
1.000000 0.493385 0.000000
0.000000 0.701076 0.000000
0.000000 0.701167 0.000000
0.000000 0.700984 0.000000
0.000000 0.700984 0.000000
0.077668 0.700954 0.000000
0.171145 0.701106 0.000000
0.237552 0.701442 0.000000
0.297002 0.702052 0.000000
0.352880 0.703120 0.000000
0.407843 0.704158 0.000000
0.460395 0.703212 0.000000
0.506981 0.695369 0.000000
0.551171 0.686671 0.000000
0.592493 0.676783 0.000000
0.631037 0.665675 0.000000
0.666224 0.653498 0.000000
0.698451 0.640345 0.000000
0.743008 0.639277 0.000000
0.807828 0.654170 0.000000
0.863127 0.660487 0.000000
0.909850 0.660578 0.000000
0.947845 0.655207 0.000000
0.979614 0.646571 0.000000
1.000000 0.635615 0.000000
1.000000 0.623224 0.000000
1.000000 0.610040 0.000000
1.000000 0.596216 0.000000
1.000000 0.582391 0.000000
1.000000 0.568383 0.000000
1.000000 0.553765 0.000000
1.000000 0.539513 0.000000
1.000000 0.525475 0.000000
0.000000 0.753384 0.000000
0.000000 0.753658 0.000000
0.000000 0.766445 0.000000
0.000000 0.766171 0.000000
0.005310 0.765835 0.000000
0.162020 0.765194 0.000000
0.234379 0.764614 0.000000
0.297276 0.764034 0.000000
0.355718 0.763821 0.000000
0.412146 0.763668 0.000000
0.467292 0.763699 0.000000
0.517632 0.758236 0.000000
0.563928 0.749111 0.000000
0.607721 0.739315 0.000000
0.648798 0.728450 0.000000
0.687098 0.716640 0.000000
0.722652 0.703975 0.000000
0.755428 0.690700 0.000000
0.793027 0.683192 0.000000
0.851682 0.693202 0.000000
0.900481 0.695094 0.000000
0.941375 0.691341 0.000000
0.974304 0.682948 0.000000
1.000000 0.671870 0.000000
1.000000 0.658900 0.000000
1.000000 0.645106 0.000000
1.000000 0.630976 0.000000
1.000000 0.616785 0.000000
1.000000 0.602441 0.000000
1.000000 0.587091 0.000000
1.000000 0.572076 0.000000
1.000000 0.557427 0.000000
0.000000 0.803159 0.000000
0.000000 0.804623 0.000000
0.000000 0.806119 0.000000
0.000000 0.807248 0.000000
0.000000 0.807828 0.000000
0.144839 0.807797 0.000000
0.224216 0.807340 0.000000
0.289189 0.806638 0.000000
0.349157 0.806119 0.000000
0.405982 0.805570 0.000000
0.461097 0.805112 0.000000
0.515007 0.804044 0.000000
0.562921 0.795865 0.000000
0.608392 0.786831 0.000000
0.651545 0.776822 0.000000
0.692226 0.765957 0.000000
0.730312 0.754391 0.000000
0.766079 0.742275 0.000000
0.799496 0.729702 0.000000
0.833066 0.718898 0.000000
0.885100 0.724086 0.000000
0.928985 0.722896 0.000000
0.965270 0.716579 0.000000
0.994568 0.706142 0.000000
1.000000 0.693355 0.000000
1.000000 0.679377 0.000000
1.000000 0.664881 0.000000
1.000000 0.650233 0.000000
1.000000 0.635737 0.000000
1.000000 0.620294 0.000000
1.000000 0.604669 0.000000
1.000000 0.589380 0.000000
0.000000 0.843503 0.000000
0.000000 0.844694 0.000000
0.000000 0.845884 0.000000
0.000000 0.846738 0.000000
0.000000 0.847166 0.000000
0.123507 0.846891 0.000000
0.211978 0.846250 0.000000
0.278996 0.845396 0.000000
0.340490 0.844602 0.000000
0.397925 0.843748 0.000000
0.453101 0.842954 0.000000
0.507134 0.841886 0.000000
0.558068 0.837766 0.000000
0.605066 0.829648 0.000000
0.649897 0.820645 0.000000
0.692409 0.810941 0.000000
0.732723 0.800565 0.000000
0.770871 0.789609 0.000000
0.807004 0.778317 0.000000
0.841215 0.766842 0.000000
0.871153 0.753170 0.000000
0.915923 0.753109 0.000000
0.954803 0.748684 0.000000
0.986664 0.739773 0.000000
1.000000 0.727535 0.000000
1.000000 0.713405 0.000000
1.000000 0.698512 0.000000
1.000000 0.683436 0.000000
1.000000 0.668452 0.000000
1.000000 0.653101 0.000000
1.000000 0.637140 0.000000
1.000000 0.621210 0.000000
0.000000 0.879393 0.000000
0.000000 0.880400 0.000000
0.000000 0.881346 0.000000
0.000000 0.881956 0.000000
0.000000 0.882109 0.000000
0.097353 0.881743 0.000000
0.197513 0.880949 0.000000
0.267491 0.880034 0.000000
0.329564 0.878935 0.000000
0.387640 0.877775 0.000000
0.442908 0.876555 0.000000
0.496834 0.875090 0.000000
0.549157 0.873442 0.000000
0.597589 0.867033 0.000000
0.643488 0.859190 0.000000
0.687617 0.850736 0.000000
0.729976 0.841825 0.000000
0.770535 0.832639 0.000000
0.809354 0.823117 0.000000
0.846525 0.813352 0.000000
0.881987 0.803525 0.000000
0.908904 0.787503 0.000000
0.946532 0.781979 0.000000
0.980285 0.774319 0.000000
1.000000 0.762692 0.000000
1.000000 0.748806 0.000000
1.000000 0.733516 0.000000
1.000000 0.717861 0.000000
1.000000 0.702144 0.000000
1.000000 0.686519 0.000000
1.000000 0.670039 0.000000
1.000000 0.653681 0.000000
0.000000 0.914549 0.000000
0.000000 0.914794 0.000000
0.000000 0.915007 0.000000
0.000000 0.914946 0.000000
0.000000 0.914580 0.000000
0.060883 0.913878 0.000000
0.182071 0.913024 0.000000
0.255375 0.911986 0.000000
0.319127 0.910887 0.000000
0.377050 0.909728 0.000000
0.432349 0.908415 0.000000
0.486122 0.906798 0.000000
0.538354 0.904906 0.000000
0.588525 0.901671 0.000000
0.635157 0.894682 0.000000
0.680323 0.887144 0.000000
0.723659 0.879179 0.000000
0.765438 0.870878 0.000000
0.805600 0.862303 0.000000
0.844297 0.853361 0.000000
0.881346 0.844236 0.000000
0.916686 0.834989 0.000000
0.939940 0.816342 0.000000
0.970794 0.805844 0.000000
1.000000 0.795254 0.000000
1.000000 0.781827 0.000000
1.000000 0.766781 0.000000
1.000000 0.750881 0.000000
1.000000 0.734768 0.000000
1.000000 0.718837 0.000000
1.000000 0.701991 0.000000
1.000000 0.685237 0.000000
0.000000 0.941283 0.000000
0.000000 0.941527 0.000000
0.000000 0.941711 0.000000
0.000000 0.941588 0.000000
0.000000 0.941192 0.000000
0.000000 0.940429 0.000000
0.164645 0.939422 0.000000
0.241825 0.938262 0.000000
0.305852 0.936980 0.000000
0.364385 0.935607 0.000000
0.419654 0.934081 0.000000
0.472724 0.932341 0.000000
0.524254 0.930266 0.000000
0.574640 0.927977 0.000000
0.622339 0.923186 0.000000
0.667903 0.916594 0.000000
0.711910 0.909636 0.000000
0.754543 0.902342 0.000000
0.795834 0.894713 0.000000
0.835691 0.886931 0.000000
0.874083 0.878965 0.000000
0.911131 0.870787 0.000000
0.946715 0.862577 0.000000
0.967285 0.842222 0.000000
0.991119 0.826444 0.000000
1.000000 0.813779 0.000000
1.000000 0.799069 0.000000
1.000000 0.783322 0.000000
1.000000 0.767025 0.000000
1.000000 0.750637 0.000000
1.000000 0.733730 0.000000
1.000000 0.716609 0.000000
0.000000 0.966522 0.000000
0.000000 0.966735 0.000000
0.000000 0.966796 0.000000
0.000000 0.966491 0.000000
0.000000 0.965911 0.000000
0.000000 0.965026 0.000000
0.146883 0.963867 0.000000
0.228122 0.962493 0.000000
0.293034 0.960906 0.000000
0.351568 0.959197 0.000000
0.406317 0.957336 0.000000
0.458839 0.955291 0.000000
0.509697 0.953002 0.000000
0.559228 0.950439 0.000000
0.607477 0.947539 0.000000
0.653040 0.941405 0.000000
0.697078 0.934966 0.000000
0.739895 0.928283 0.000000
0.781582 0.921508 0.000000
0.822080 0.914580 0.000000
0.861295 0.907561 0.000000
0.899321 0.900328 0.000000
0.935912 0.892882 0.000000
0.971038 0.885191 0.000000
0.989105 0.863371 0.000000
1.000000 0.845914 0.000000
1.000000 0.831510 0.000000
1.000000 0.815763 0.000000
1.000000 0.799283 0.000000
1.000000 0.782620 0.000000
1.000000 0.765499 0.000000
1.000000 0.748013 0.000000
0.000000 0.985840 0.000000
0.000000 0.985992 0.000000
0.000000 0.985992 0.000000
0.000000 0.985718 0.000000
0.000000 0.985168 0.000000
0.000000 0.984314 0.000000
0.125124 0.983246 0.000000
0.212833 0.981964 0.000000
0.279210 0.980499 0.000000
0.337896 0.978912 0.000000
0.392218 0.977111 0.000000
0.444526 0.975158 0.000000
0.494636 0.972992 0.000000
0.543542 0.970520 0.000000
0.591272 0.967773 0.000000
0.637415 0.963806 0.000000
0.681575 0.958129 0.000000
0.724575 0.952239 0.000000
0.766415 0.946166 0.000000
0.807279 0.939971 0.000000
0.846983 0.933623 0.000000
0.885618 0.927092 0.000000
0.922972 0.920439 0.000000
0.958984 0.913603 0.000000
0.993744 0.906645 0.000000
1.000000 0.883909 0.000000
1.000000 0.864103 0.000000
1.000000 0.848386 0.000000
1.000000 0.831876 0.000000
1.000000 0.815030 0.000000
1.000000 0.797635 0.000000
1.000000 0.779751 0.000000
0.000000 1.000000 0.000000
0.000000 1.000000 0.000000
0.000000 1.000000 0.000000
0.000000 1.000000 0.000000
0.000000 1.000000 0.000000
0.000000 1.000000 0.000000
0.099245 1.000000 0.000000
0.196933 0.999115 0.000000
0.264714 0.997711 0.000000
0.323247 0.996155 0.000000
0.377752 0.994415 0.000000
0.429328 0.992554 0.000000
0.479011 0.990448 0.000000
0.527306 0.988067 0.000000
0.574212 0.985443 0.000000
0.620264 0.982513 0.000000
0.664424 0.977813 0.000000
0.707332 0.972503 0.000000
0.749294 0.967010 0.000000
0.790158 0.961425 0.000000
0.830076 0.955688 0.000000
0.868956 0.949828 0.000000
0.906645 0.943816 0.000000
0.943267 0.937621 0.000000
0.978729 0.931365 0.000000
1.000000 0.924987 0.000000
1.000000 0.901854 0.000000
1.000000 0.880644 0.000000
1.000000 0.863798 0.000000
1.000000 0.846799 0.000000
1.000000 0.829313 0.000000
1.000000 0.811154 0.000000
0.000000 1.000000 0.000000
0.000000 1.000000 0.000000
0.000000 1.000000 0.000000
0.000000 1.000000 0.000000
0.000000 1.000000 0.000000
0.000000 1.000000 0.000000
0.064240 1.000000 0.000000
0.179782 1.000000 0.000000
0.250217 1.000000 0.000000
0.309789 1.000000 0.000000
0.364019 1.000000 0.000000
0.415473 1.000000 0.000000
0.464515 1.000000 0.000000
0.512261 1.000000 0.000000
0.558770 1.000000 0.000000
0.604120 1.000000 0.000000
0.648524 0.997467 0.000000
0.691249 0.992737 0.000000
0.733089 0.987854 0.000000
0.773983 0.982818 0.000000
0.813931 0.977630 0.000000
0.852995 0.972290 0.000000
0.891051 0.966827 0.000000
0.928008 0.961242 0.000000
0.963989 0.955566 0.000000
0.998901 0.949859 0.000000
1.000000 0.944152 0.000000
1.000000 0.920623 0.000000
1.000000 0.898161 0.000000
1.000000 0.880095 0.000000
1.000000 0.862272 0.000000
1.000000 0.843717 0.000000
0.000000 1.000000 0.000000
0.000000 1.000000 0.000000
0.000000 1.000000 0.000000
0.000000 1.000000 0.000000
0.000000 1.000000 0.000000
0.000000 1.000000 0.000000
0.000000 1.000000 0.000000
0.161929 1.000000 0.000000
0.234897 1.000000 0.000000
0.294926 1.000000 0.000000
0.349279 1.000000 0.000000
0.400122 1.000000 0.000000
0.448585 1.000000 0.000000
0.495613 1.000000 0.000000
0.541405 1.000000 0.000000
0.586084 1.000000 0.000000
