其他预设/【233】日式怀旧街道调色预设208款/1.3D LUT预设（视频调色-PR-AE-PS-FCPX-达芬奇用）/1.日式城市街拍预设/JA – Cool Bright 1.cube
# Created by Adobe Lightroom plugin Export LUT (1.17.0)
# www.johnrellis.com/lightroom/exportlut.htm
# Preset: JA – Cool Bright 1
# Color profile: /Library/Application Support/Adobe/Color/Profiles/Recommended/AdobeRGB1998.icc
LUT_3D_SIZE 32
0.101320 0.105776 0.108919
0.101320 0.105776 0.108919
0.101320 0.105776 0.108919
0.109407 0.104921 0.109438
0.133150 0.100862 0.111208
0.156893 0.095583 0.113283
0.184817 0.086824 0.115969
0.217899 0.071290 0.119295
0.257572 0.020447 0.115419
0.304387 0.000000 0.108919
0.358434 0.000000 0.106447
0.418250 0.000000 0.102205
0.479896 0.000000 0.096376
0.540642 0.000000 0.088594
0.597620 0.000000 0.078218
0.651087 0.000000 0.065278
0.701167 0.000000 0.036927
0.746548 0.000000 0.000000
0.793790 0.000000 0.000000
0.836698 0.000000 0.000000
0.873198 0.000000 0.000000
0.904173 0.000000 0.000000
0.930388 0.000000 0.000000
0.952880 0.000000 0.000000
0.972351 0.000000 0.000000
0.989410 0.000000 0.000000
1.000000 0.000000 0.000000
1.000000 0.000000 0.000000
1.000000 0.000000 0.000000
1.000000 0.000000 0.000000
1.000000 0.000000 0.007691
1.000000 0.000000 0.059236
0.101320 0.105776 0.108919
0.101320 0.105776 0.108919
0.101320 0.105776 0.108919
0.109926 0.104829 0.109651
0.133577 0.100740 0.111208
0.156710 0.095644 0.113283
0.184237 0.087068 0.115969
0.216983 0.072175 0.113832
0.255985 0.028595 0.109712
0.301488 0.000000 0.108186
0.354681 0.000000 0.105867
0.413794 0.000000 0.101747
0.474800 0.000000 0.095583
0.535485 0.000000 0.087739
0.592523 0.000000 0.077729
0.646113 0.000000 0.063783
0.696101 0.000000 0.034638
0.742000 0.000000 0.000000
0.789303 0.000000 0.000000
0.831815 0.000000 0.000000
0.868345 0.000000 0.000000
0.899687 0.000000 0.000000
0.926360 0.000000 0.000000
0.949340 0.000000 0.000000
0.969299 0.000000 0.000000
0.986847 0.000000 0.000000
1.000000 0.000000 0.000000
1.000000 0.000000 0.000000
1.000000 0.000000 0.000000
1.000000 0.000000 0.000000
1.000000 0.000000 0.000000
1.000000 0.000000 0.048341
0.101320 0.105776 0.108919
0.101320 0.105776 0.108919
0.101320 0.105776 0.108919
0.110719 0.104677 0.109651
0.133822 0.100710 0.110994
0.157076 0.095644 0.110506
0.183810 0.088472 0.110018
0.215610 0.079469 0.109712
0.253635 0.065461 0.109010
0.298466 0.022675 0.107485
0.351415 0.000000 0.104829
0.409949 0.000000 0.100587
0.471015 0.000000 0.094514
0.531640 0.000000 0.086152
0.588708 0.000000 0.075837
0.642573 0.000000 0.061860
0.692653 0.000000 0.028443
0.738796 0.000000 0.000000
0.786587 0.000000 0.000000
0.828763 0.000000 0.000000
0.865476 0.000000 0.000000
0.897093 0.000000 0.000000
0.924041 0.000000 0.000000
0.947295 0.000000 0.000000
0.967529 0.000000 0.000000
0.985351 0.000000 0.000000
1.000000 0.000000 0.000000
1.000000 0.000000 0.000000
1.000000 0.000000 0.000000
1.000000 0.000000 0.000000
1.000000 0.000000 0.000000
1.000000 0.000000 0.040375
0.100832 0.114992 0.109285
0.100710 0.115908 0.109194
0.100435 0.117250 0.109316
0.110994 0.119020 0.107759
0.132876 0.116091 0.108034
0.155612 0.112459 0.108400
0.181949 0.108248 0.108461
0.213413 0.102937 0.108064
0.250706 0.095735 0.107271
0.295109 0.085206 0.105501
0.347051 0.068360 0.102602
0.405127 0.019104 0.097902
0.465675 0.000000 0.091432
0.525872 0.000000 0.082551
0.583368 0.000000 0.071046
0.637171 0.000000 0.054170
0.687617 0.000000 0.014771
0.734981 0.000000 0.000000
0.782498 0.000000 0.000000
0.823941 0.000000 0.000000
0.860441 0.000000 0.000000
0.892302 0.000000 0.000000
0.919921 0.000000 0.000000
0.944091 0.000000 0.000000
0.965301 0.000000 0.000000
0.983917 0.000000 0.000000
1.000000 0.000000 0.000000
1.000000 0.000000 0.000000
1.000000 0.000000 0.000000
1.000000 0.000000 0.000000
1.000000 0.000000 0.000000
1.000000 0.000000 0.026551
0.098817 0.134798 0.109834
0.098939 0.135500 0.109957
0.098817 0.136080 0.109926
0.107027 0.136965 0.108278
0.130495 0.138491 0.104952
0.155337 0.135622 0.104341
0.178347 0.131930 0.106203
0.209201 0.129488 0.105684
0.245701 0.126741 0.104707
0.288975 0.123751 0.102663
0.339818 0.119265 0.099123
0.396948 0.112795 0.094118
0.457252 0.103273 0.086580
0.517723 0.090028 0.076570
0.575830 0.069612 0.063661
0.630549 0.017945 0.033722
0.681971 0.000000 0.000000
0.732265 0.000000 0.000000
0.779538 0.000000 0.000000
0.820645 0.000000 0.000000
0.856962 0.000000 0.000000
0.888914 0.000000 0.000000
0.916869 0.000000 0.000000
0.941405 0.000000 0.000000
0.963043 0.000000 0.000000
0.982086 0.000000 0.000000
0.998749 0.000000 0.000000
1.000000 0.000000 0.000000
1.000000 0.000000 0.000000
1.000000 0.000000 0.000000
1.000000 0.000000 0.000000
1.000000 0.000000 0.009827
0.096162 0.154818 0.110658
0.096376 0.155276 0.110597
0.096223 0.155917 0.110506
0.103365 0.156832 0.108034
0.125093 0.157015 0.106508
0.152712 0.160952 0.101228
0.181735 0.160433 0.099916
0.209232 0.157626 0.100649
0.241093 0.156863 0.101198
0.283696 0.157839 0.098482
0.333745 0.159579 0.094484
0.390173 0.160525 0.088258
0.449989 0.160128 0.079652
0.510643 0.157473 0.067567
0.569207 0.152163 0.046082
0.624445 0.144503 0.003357
0.676387 0.134401 0.000000
0.730037 0.117525 0.000000
0.776791 0.087861 0.000000
0.818112 0.017060 0.000000
0.854826 0.000000 0.000000
0.887205 0.000000 0.000000
0.937896 0.000000 0.000000
0.959655 0.000000 0.000000
0.978424 0.000000 0.000000
0.994720 0.000000 0.000000
1.000000 0.000000 0.000000
1.000000 0.000000 0.000000
1.000000 0.000000 0.000000
1.000000 0.000000 0.000000
1.000000 0.000000 0.000000
1.000000 0.000000 0.050813
0.091524 0.180941 0.111086
0.091402 0.181369 0.111025
0.091157 0.182010 0.111147
0.101228 0.182742 0.106874
0.124056 0.183078 0.105257
0.150759 0.185733 0.101289
0.183810 0.191958 0.094514
0.219150 0.195193 0.091554
0.254887 0.195682 0.088746
0.290196 0.195834 0.089662
0.336034 0.199741 0.086427
0.393347 0.205753 0.077852
0.453437 0.210422 0.065858
0.513970 0.212253 0.041230
0.571740 0.211612 0.000000
0.626062 0.208682 0.000000
0.682368 0.201633 0.000000
0.735988 0.191318 0.000000
0.782437 0.177157 0.000000
0.824247 0.160220 0.000000
0.862119 0.140139 0.000000
0.896056 0.114107 0.000000
0.925597 0.080446 0.000000
0.951202 0.000000 0.000000
0.972778 0.000000 0.000000
0.990753 0.000000 0.000000
1.000000 0.000000 0.000000
1.000000 0.000000 0.000000
1.000000 0.000000 0.000000
1.000000 0.000000 0.000000
1.000000 0.000000 0.000000
1.000000 0.000000 0.015167
0.084138 0.208438 0.110903
0.083925 0.208774 0.111055
0.084291 0.209232 0.109041
0.098299 0.209751 0.104829
0.122683 0.210178 0.103120
0.149325 0.210636 0.100862
0.180423 0.217350 0.093629
0.217838 0.225711 0.084565
0.259739 0.233524 0.078340
0.301946 0.237888 0.071565
0.345159 0.241276 0.067323
0.388556 0.243900 0.064240
0.442908 0.250034 0.046906
0.503319 0.255955 0.002625
0.561517 0.258701 0.000000
0.619379 0.257939 0.000000
0.677394 0.254917 0.000000
0.729488 0.248508 0.000000
0.775540 0.238926 0.000000
0.817380 0.227268 0.000000
0.855558 0.213809 0.000000
0.889952 0.197726 0.000000
0.920043 0.181399 0.000000
0.946166 0.162203 0.000000
0.968414 0.140291 0.000000
0.987030 0.116060 0.000000
1.000000 0.086519 0.000000
1.000000 0.024720 0.000000
1.000000 0.000000 0.000000
1.000000 0.000000 0.000000
1.000000 0.000000 0.000000
1.000000 0.000000 0.000000
0.071046 0.240726 0.110353
0.071748 0.241093 0.107424
0.075715 0.241642 0.101686
0.096742 0.241947 0.100435
0.122591 0.242405 0.098817
0.150881 0.242802 0.096651
0.181033 0.246494 0.091493
0.217563 0.256443 0.080415
0.260044 0.267308 0.066041
0.309026 0.280247 0.045655
0.359533 0.289464 0.008942
0.408850 0.295048 0.000000
0.453254 0.296757 0.000000
0.496498 0.296300 0.000000
0.555383 0.301549 0.000000
0.615656 0.304601 0.000000
0.671809 0.303716 0.000000
0.723262 0.299687 0.000000
0.769131 0.292454 0.000000
0.811368 0.283268 0.000000
0.849882 0.272831 0.000000
0.884703 0.260014 0.000000
0.915282 0.246433 0.000000
0.941802 0.232120 0.000000
0.964538 0.216190 0.000000
0.983703 0.199405 0.000000
0.999969 0.182406 0.000000
1.000000 0.164248 0.000000
1.000000 0.145724 0.000000
1.000000 0.127138 0.000000
1.000000 0.107576 0.000000
1.000000 0.088441 0.000000
0.039033 0.278538 0.098207
0.054780 0.278599 0.095003
0.070710 0.278660 0.094759
0.095888 0.278935 0.093599
0.124025 0.279362 0.091768
0.153902 0.279911 0.089204
0.184787 0.280522 0.085756
0.220157 0.289860 0.074342
0.262760 0.303319 0.050477
0.310887 0.317479 0.000000
0.364996 0.332738 0.000000
0.422278 0.345769 0.000000
0.473121 0.350195 0.000000
0.521355 0.352026 0.000000
0.565667 0.350378 0.000000
0.610437 0.348394 0.000000
0.666529 0.349737 0.000000
0.718379 0.347662 0.000000
0.764553 0.342351 0.000000
0.806699 0.334783 0.000000
0.845090 0.325261 0.000000
0.879423 0.314397 0.000000
0.909758 0.301976 0.000000
0.936309 0.288731 0.000000
0.959350 0.274937 0.000000
0.979156 0.260075 0.000000
0.996185 0.245243 0.000000
1.000000 0.230320 0.000000
1.000000 0.215213 0.000000
1.000000 0.200870 0.000000
1.000000 0.187167 0.000000
1.000000 0.174228 0.000000
0.000855 0.320195 0.084596
0.032227 0.320317 0.084627
0.063844 0.320562 0.083894
0.093263 0.320714 0.082795
0.124697 0.321447 0.080751
0.156649 0.322515 0.077943
0.189883 0.323400 0.074525
0.224582 0.327611 0.066865
0.266423 0.341650 0.031403
0.315099 0.358312 0.000000
0.368688 0.374701 0.000000
0.429816 0.393561 0.000000
0.494820 0.410315 0.000000
0.545953 0.412604 0.000000
0.590692 0.409766 0.000000
0.629114 0.403265 0.000000
0.665827 0.395850 0.000000
0.709438 0.391485 0.000000
0.756283 0.387640 0.000000
0.799069 0.381445 0.000000
0.838071 0.373510 0.000000
0.873198 0.363622 0.000000
0.904326 0.352483 0.000000
0.931548 0.340154 0.000000
0.955200 0.327245 0.000000
0.975494 0.313054 0.000000
0.992950 0.299077 0.000000
1.000000 0.284947 0.000000
1.000000 0.270878 0.000000
1.000000 0.257206 0.000000
1.000000 0.244083 0.000000
1.000000 0.232242 0.000000
0.000000 0.368719 0.072572
0.000000 0.368933 0.071778
0.006195 0.369207 0.071199
0.077485 0.369543 0.069642
0.118441 0.370031 0.066896
0.155825 0.370977 0.063050
0.192813 0.372229 0.057343
0.229679 0.373693 0.044465
0.270420 0.382910 0.005035
0.319738 0.401312 0.000000
0.377356 0.423194 0.000000
0.439338 0.443946 0.000000
0.533776 0.488991 0.000000
0.600580 0.502556 0.000000
0.645624 0.496254 0.000000
0.686275 0.487037 0.000000
0.718257 0.473548 0.000000
0.747616 0.459693 0.000000
0.775082 0.445869 0.000000
0.813840 0.437842 0.000000
0.850401 0.428656 0.000000
0.883024 0.417853 0.000000
0.911772 0.405798 0.000000
0.937163 0.392828 0.000000
0.959350 0.379095 0.000000
0.978546 0.365118 0.000000
0.995117 0.350744 0.000000
1.000000 0.336461 0.000000
1.000000 0.322332 0.000000
1.000000 0.308659 0.000000
1.000000 0.295720 0.000000
1.000000 0.283574 0.000000
0.000000 0.429480 0.028443
0.000000 0.429480 0.026246
0.000000 0.429175 0.025269
0.026642 0.428870 0.020264
0.106264 0.428473 0.014679
0.152865 0.428168 0.003571
0.194797 0.428656 0.000000
0.237064 0.432074 0.000000
0.280034 0.436286 0.000000
0.330541 0.454932 0.000000
0.388708 0.477699 0.000000
0.453773 0.502342 0.000000
0.522301 0.525261 0.000000
0.590173 0.542931 0.000000
0.658320 0.557092 0.000000
0.699062 0.546868 0.000000
0.734401 0.533288 0.000000
0.762600 0.516716 0.000000
0.787869 0.500114 0.000000
0.812894 0.484779 0.000000
0.840238 0.471778 0.000000
0.873960 0.461799 0.000000
0.903685 0.450355 0.000000
0.930053 0.437751 0.000000
0.953124 0.424292 0.000000
0.973114 0.410529 0.000000
0.990478 0.396094 0.000000
1.000000 0.381872 0.000000
1.000000 0.367529 0.000000
1.000000 0.353613 0.000000
1.000000 0.340368 0.000000
1.000000 0.327794 0.000000
0.000000 0.483650 0.000000
0.000000 0.483986 0.000000
0.000000 0.484077 0.000000
0.000000 0.484352 0.000000
0.084230 0.484535 0.000000
0.144350 0.485145 0.000000
0.194003 0.486244 0.000000
0.239628 0.487953 0.000000
0.284825 0.490455 0.000000
0.331518 0.497658 0.000000
0.386694 0.517937 0.000000
0.447486 0.539971 0.000000
0.513542 0.562799 0.000000
0.581323 0.582849 0.000000
0.647333 0.597833 0.000000
0.711360 0.608209 0.000000
0.744961 0.591852 0.000000
0.774563 0.574243 0.000000
0.800626 0.555993 0.000000
0.823789 0.537835 0.000000
0.846616 0.521111 0.000000
0.869078 0.505821 0.000000
0.895659 0.493080 0.000000
0.923156 0.480934 0.000000
0.947143 0.467933 0.000000
0.968048 0.453956 0.000000
0.986114 0.439734 0.000000
1.000000 0.425177 0.000000
1.000000 0.410712 0.000000
1.000000 0.396460 0.000000
1.000000 0.382818 0.000000
1.000000 0.369757 0.000000
0.000000 0.541650 0.000000
0.000000 0.541924 0.000000
0.000000 0.541466 0.000000
0.000000 0.541009 0.000000
0.023133 0.540429 0.000000
0.130739 0.539879 0.000000
0.187350 0.539818 0.000000
0.237217 0.540398 0.000000
0.285100 0.541711 0.000000
0.332067 0.544244 0.000000
0.382971 0.556207 0.000000
0.440650 0.576104 0.000000
0.502770 0.596826 0.000000
0.568505 0.617548 0.000000
0.634516 0.634607 0.000000
0.697078 0.646052 0.000000
0.756283 0.652766 0.000000
0.784360 0.632136 0.000000
0.810269 0.611872 0.000000
0.835050 0.592706 0.000000
0.856107 0.573205 0.000000
0.876707 0.555261 0.000000
0.896727 0.538476 0.000000
0.916258 0.522667 0.000000
0.940764 0.509697 0.000000
0.962737 0.496101 0.000000
0.981933 0.481727 0.000000
0.998505 0.467323 0.000000
1.000000 0.452705 0.000000
1.000000 0.438239 0.000000
1.000000 0.424292 0.000000
1.000000 0.410773 0.000000
0.000000 0.593866 0.000000
0.000000 0.594354 0.000000
0.000000 0.594079 0.000000
0.000000 0.593805 0.000000
0.000000 0.593408 0.000000
0.110445 0.593072 0.000000
0.177981 0.593164 0.000000
0.233158 0.593774 0.000000
0.284031 0.594537 0.000000
0.332555 0.595941 0.000000
0.380743 0.597498 0.000000
0.434760 0.612970 0.000000
0.492470 0.630457 0.000000
0.553185 0.647791 0.000000
0.615808 0.664210 0.000000
0.677546 0.676844 0.000000
0.736843 0.685481 0.000000
0.791501 0.689113 0.000000
0.818692 0.668116 0.000000
0.842710 0.646906 0.000000
0.865660 0.626703 0.000000
0.885954 0.606592 0.000000
0.904662 0.587488 0.000000
0.922881 0.569787 0.000000
0.940459 0.553185 0.000000
0.958709 0.537743 0.000000
0.978576 0.523400 0.000000
0.995697 0.508721 0.000000
1.000000 0.493690 0.000000
1.000000 0.478798 0.000000
1.000000 0.463996 0.000000
1.000000 0.449836 0.000000
0.000000 0.640345 0.000000
0.000000 0.640345 0.000000
0.000000 0.640009 0.000000
0.000000 0.639643 0.000000
0.000000 0.639216 0.000000
0.076448 0.638697 0.000000
0.163272 0.638453 0.000000
0.223301 0.638575 0.000000
0.277104 0.638911 0.000000
0.327489 0.639612 0.000000
0.376501 0.640742 0.000000
0.426062 0.645258 0.000000
0.480903 0.660945 0.000000
0.537957 0.676112 0.000000
0.596704 0.690455 0.000000
0.656336 0.703548 0.000000
0.714565 0.713283 0.000000
0.771145 0.719997 0.000000
0.821653 0.720882 0.000000
0.849058 0.701076 0.000000
0.870817 0.678401 0.000000
0.891569 0.656947 0.000000
0.910613 0.636225 0.000000
0.927672 0.616297 0.000000
0.944213 0.597650 0.000000
0.960143 0.580224 0.000000
0.975372 0.563806 0.000000
0.991760 0.548516 0.000000
1.000000 0.533165 0.000000
1.000000 0.517876 0.000000
1.000000 0.502708 0.000000
1.000000 0.487922 0.000000
0.000000 0.684810 0.000000
0.000000 0.685267 0.000000
0.000000 0.705287 0.000000
0.000000 0.704707 0.000000
0.000000 0.703822 0.000000
0.000000 0.702571 0.000000
0.148257 0.701320 0.000000
0.217227 0.700191 0.000000
0.275425 0.699214 0.000000
0.328618 0.698665 0.000000
0.379522 0.698207 0.000000
0.428687 0.697566 0.000000
0.479500 0.704128 0.000000
0.533227 0.716030 0.000000
0.588312 0.727413 0.000000
0.644282 0.737942 0.000000
0.701045 0.747555 0.000000
0.756191 0.754208 0.000000
0.809689 0.758541 0.000000
0.855863 0.756039 0.000000
0.881743 0.735836 0.000000
0.900603 0.711025 0.000000
0.918608 0.687800 0.000000
0.935698 0.665858 0.000000
0.950439 0.644465 0.000000
0.964538 0.624537 0.000000
0.978180 0.605768 0.000000
0.991333 0.588312 0.000000
1.000000 0.572015 0.000000
1.000000 0.556176 0.000000
1.000000 0.540398 0.000000
1.000000 0.524987 0.000000
0.000000 0.729976 0.000000
0.000000 0.732357 0.000000
0.000000 0.734585 0.000000
0.000000 0.736446 0.000000
0.000000 0.737362 0.000000
0.000000 0.737179 0.000000
0.123598 0.736324 0.000000
0.201328 0.735225 0.000000
0.262669 0.734371 0.000000
0.317235 0.733486 0.000000
0.368811 0.732753 0.000000
0.418494 0.731868 0.000000
0.466346 0.730587 0.000000
0.517082 0.739681 0.000000
0.569268 0.749508 0.000000
0.622187 0.758663 0.000000
0.675746 0.767117 0.000000
0.729671 0.774838 0.000000
0.782376 0.780087 0.000000
0.833768 0.783597 0.000000
0.877867 0.780392 0.000000
0.903716 0.761257 0.000000
0.921080 0.736019 0.000000
0.937560 0.712276 0.000000
0.953094 0.689631 0.000000
0.967071 0.667964 0.000000
0.980011 0.647517 0.000000
0.992462 0.628321 0.000000
1.000000 0.610437 0.000000
1.000000 0.593530 0.000000
1.000000 0.577630 0.000000
1.000000 0.561578 0.000000
0.000000 0.764218 0.000000
0.000000 0.766262 0.000000
0.000000 0.768124 0.000000
0.000000 0.769711 0.000000
0.000000 0.770443 0.000000
0.000000 0.770260 0.000000
0.090486 0.769406 0.000000
0.183566 0.768399 0.000000
0.248783 0.767391 0.000000
0.304997 0.766476 0.000000
0.357427 0.765621 0.000000
0.407202 0.764645 0.000000
0.455543 0.763149 0.000000
0.502922 0.763851 0.000000
0.552728 0.772244 0.000000
0.602960 0.780117 0.000000
0.653590 0.787411 0.000000
0.704921 0.794095 0.000000
0.756558 0.800290 0.000000
0.806912 0.804440 0.000000
0.856046 0.806973 0.000000
0.898589 0.803494 0.000000
0.923613 0.784787 0.000000
0.939422 0.758999 0.000000
0.954284 0.734646 0.000000
0.968353 0.711421 0.000000
0.981445 0.689296 0.000000
0.993194 0.668421 0.000000
1.000000 0.648798 0.000000
1.000000 0.630426 0.000000
1.000000 0.613123 0.000000
1.000000 0.597040 0.000000
0.000000 0.796201 0.000000
0.000000 0.797940 0.000000
0.000000 0.799619 0.000000
0.000000 0.800900 0.000000
0.000000 0.801419 0.000000
0.000000 0.801175 0.000000
0.006836 0.800412 0.000000
0.164034 0.799283 0.000000
0.233799 0.798184 0.000000
0.292058 0.797055 0.000000
0.345037 0.796017 0.000000
0.395422 0.794736 0.000000
0.443610 0.793149 0.000000
0.490303 0.791287 0.000000
0.537255 0.794491 0.000000
0.585473 0.801541 0.000000
0.634424 0.808377 0.000000
0.683680 0.814755 0.000000
0.733516 0.820737 0.000000
0.783658 0.826261 0.000000
0.832364 0.829709 0.000000
0.879911 0.831785 0.000000
0.921141 0.828031 0.000000
0.944518 0.808896 0.000000
0.958740 0.782467 0.000000
0.972076 0.757412 0.000000
0.984619 0.733516 0.000000
0.996521 0.710811 0.000000
1.000000 0.689326 0.000000
1.000000 0.669154 0.000000
1.000000 0.650141 0.000000
1.000000 0.632319 0.000000
0.000000 0.832273 0.000000
0.000000 0.832944 0.000000
0.000000 0.833371 0.000000
0.000000 0.833524 0.000000
0.000000 0.833280 0.000000
0.000000 0.832639 0.000000
0.000000 0.831785 0.000000
0.143801 0.830808 0.000000
0.219638 0.829923 0.000000
0.280064 0.829038 0.000000
0.334508 0.828153 0.000000
0.385443 0.826963 0.000000
0.433783 0.825437 0.000000
0.480507 0.823514 0.000000
0.526024 0.821256 0.000000
0.571984 0.826078 0.000000
0.618494 0.831449 0.000000
0.665492 0.836515 0.000000
0.712642 0.841154 0.000000
0.760098 0.845335 0.000000
0.807431 0.848905 0.000000
0.853330 0.850584 0.000000
0.898039 0.851102 0.000000
0.937621 0.846952 0.000000
0.958953 0.827207 0.000000
0.971801 0.800473 0.000000
0.983917 0.775021 0.000000
0.995453 0.750942 0.000000
1.000000 0.728084 0.000000
1.000000 0.706294 0.000000
1.000000 0.685847 0.000000
1.000000 0.666468 0.000000
0.000000 0.858610 0.000000
0.000000 0.859220 0.000000
0.000000 0.859739 0.000000
0.000000 0.859831 0.000000
0.000000 0.859617 0.000000
0.000000 0.858885 0.000000
0.000000 0.857939 0.000000
0.119600 0.856901 0.000000
0.203983 0.855802 0.000000
0.266575 0.854826 0.000000
0.321569 0.853727 0.000000
0.372442 0.852506 0.000000
0.420661 0.850980 0.000000
0.467353 0.849210 0.000000
0.512627 0.847135 0.000000
0.557031 0.846433 0.000000
0.601648 0.850950 0.000000
0.646693 0.855222 0.000000
0.691920 0.859129 0.000000
0.737209 0.862608 0.000000
0.782528 0.865568 0.000000
0.827665 0.867918 0.000000
0.871305 0.868620 0.000000
0.913939 0.868254 0.000000
0.950774 0.862699 0.000000
0.970153 0.842344 0.000000
0.982330 0.815854 0.000000
0.993591 0.790463 0.000000
1.000000 0.766476 0.000000
1.000000 0.743404 0.000000
1.000000 0.721431 0.000000
1.000000 0.700832 0.000000
0.000000 0.887144 0.000000
0.000000 0.887724 0.000000
0.000000 0.887999 0.000000
0.000000 0.887846 0.000000
0.000000 0.887297 0.000000
0.000000 0.886381 0.000000
0.000000 0.885191 0.000000
0.097810 0.883726 0.000000
0.190402 0.882231 0.000000
0.254734 0.880705 0.000000
0.309880 0.879057 0.000000
0.360540 0.877379 0.000000
0.408453 0.875517 0.000000
0.454505 0.873350 0.000000
0.499001 0.870848 0.000000
0.542382 0.868101 0.000000
0.585107 0.868528 0.000000
0.627832 0.871580 0.000000
0.670985 0.874601 0.000000
0.714382 0.877501 0.000000
0.757748 0.879942 0.000000
0.800992 0.881804 0.000000
0.843778 0.882963 0.000000
0.885161 0.882414 0.000000
0.925353 0.880980 0.000000
0.963500 0.877806 0.000000
0.980499 0.856168 0.000000
0.992126 0.830259 0.000000
1.000000 0.804868 0.000000
1.000000 0.780667 0.000000
1.000000 0.757687 0.000000
1.000000 0.735622 0.000000
0.000000 0.907805 0.000000
0.000000 0.908324 0.000000
0.000000 0.908568 0.000000
0.000000 0.908415 0.000000
0.000000 0.907897 0.000000
0.000000 0.907103 0.000000
0.000000 0.906096 0.000000
0.071443 0.904936 0.000000
0.177096 0.903655 0.000000
0.242710 0.902373 0.000000
0.298131 0.901030 0.000000
0.349004 0.899565 0.000000
0.396735 0.897948 0.000000
0.442359 0.896086 0.000000
0.486488 0.893858 0.000000
0.529442 0.891447 0.000000
0.571771 0.888823 0.000000
0.612879 0.890471 0.000000
0.654078 0.892638 0.000000
0.695430 0.894591 0.000000
0.736751 0.896208 0.000000
0.778073 0.897307 0.000000
0.819028 0.897795 0.000000
0.859434 0.897673 0.000000
0.898741 0.896117 0.000000
0.937011 0.893889 0.000000
0.974640 0.891264 0.000000
0.990051 0.869108 0.000000
1.000000 0.843778 0.000000
1.000000 0.818357 0.000000
1.000000 0.794217 0.000000
1.000000 0.771176 0.000000
0.000000 0.927703 0.000000
0.000000 0.927977 0.000000
0.000000 0.927977 0.000000
0.000000 0.927703 0.000000
0.000000 0.927062 0.000000
0.000000 0.926207 0.000000
0.000000 0.925170 0.000000
0.030762 0.924041 0.000000
0.165621 0.922820 0.000000
0.232151 0.921630 0.000000
0.287694 0.920317 0.000000
0.337835 0.919005 0.000000
0.385016 0.917510 0.000000
0.430335 0.915770 0.000000
0.473671 0.913725 0.000000
0.515984 0.911406 0.000000
0.557549 0.908873 0.000000
0.597955 0.907195 0.000000
0.637324 0.908507 0.000000
0.676783 0.909697 0.000000
0.716274 0.910582 0.000000
0.755764 0.911070 0.000000
0.794919 0.911040 0.000000
0.833799 0.910491 0.000000
0.872282 0.909361 0.000000
0.909636 0.907103 0.000000
0.946258 0.904326 0.000000
0.982147 0.901244 0.000000
0.997833 0.880186 0.000000
1.000000 0.855314 0.000000
1.000000 0.830137 0.000000
1.000000 0.806088 0.000000
0.000000 0.944244 0.000000
0.000000 0.944335 0.000000
0.000000 0.944335 0.000000
0.000000 0.944121 0.000000
0.000000 0.943694 0.000000
0.000000 0.943206 0.000000
0.000000 0.942748 0.000000
0.038727 0.942290 0.000000
0.163912 0.941833 0.000000
0.229435 0.941314 0.000000
0.283818 0.940734 0.000000
0.333165 0.939971 0.000000
0.379370 0.938994 0.000000
0.423590 0.937621 0.000000
0.466133 0.935943 0.000000
0.507378 0.933867 0.000000
0.547967 0.931518 0.000000
0.587823 0.929076 0.000000
0.626123 0.928099 0.000000
0.663478 0.928313 0.000000
0.700862 0.928252 0.000000
0.738186 0.927886 0.000000
0.775448 0.927062 0.000000
0.812528 0.925841 0.000000
0.849393 0.924163 0.000000
0.885863 0.922057 0.000000
0.921538 0.919066 0.000000
0.956512 0.915709 0.000000
0.990906 0.912108 0.000000
1.000000 0.891936 0.000000
1.000000 0.867216 0.000000
1.000000 0.841886 0.000000
0.000000 0.962005 0.000000
0.000000 0.962005 0.000000
0.000000 0.961913 0.000000
0.000000 0.961608 0.000000
0.000000 0.961120 0.000000
0.000000 0.960479 0.000000
0.000000 0.959808 0.000000
0.087892 0.959075 0.000000
0.172702 0.958251 0.000000
0.231662 0.957366 0.000000
0.282261 0.956329 0.000000
0.328740 0.955200 0.000000
0.372564 0.953857 0.000000
0.414771 0.952300 0.000000
0.455604 0.950561 0.000000
