其他预设/【233】日式怀旧街道调色预设208款/1.3D LUT预设（视频调色-PR-AE-PS-FCPX-达芬奇用）/1.日式城市街拍预设/JA – Gritty Contrast 3.cube
# Created by Adobe Lightroom plugin Export LUT (1.17.0)
# www.johnrellis.com/lightroom/exportlut.htm
# Preset: JA – Gritty Contrast 3
# Color profile: /Library/Application Support/Adobe/Color/Profiles/Recommended/AdobeRGB1998.icc
LUT_3D_SIZE 32
0.106477 0.112825 0.121218
0.106477 0.112825 0.121218
0.106477 0.112825 0.121218
0.107820 0.112825 0.121370
0.115114 0.112978 0.122347
0.121340 0.113436 0.123690
0.126741 0.113985 0.125002
0.132326 0.114412 0.126101
0.139895 0.114412 0.127352
0.154238 0.113649 0.128054
0.180331 0.111269 0.128359
0.220218 0.106172 0.128023
0.270207 0.098299 0.126741
0.324437 0.088533 0.124605
0.376867 0.078218 0.121645
0.425360 0.068574 0.118044
0.468910 0.059205 0.114321
0.508171 0.047181 0.110292
0.541955 0.034241 0.106630
0.572137 0.027375 0.103212
0.599756 0.020600 0.100313
0.626307 0.015747 0.098146
0.653681 0.010315 0.096925
0.684382 0.006836 0.097444
0.720882 0.000000 0.101106
0.767178 0.008240 0.110231
0.821592 0.058686 0.130251
0.880797 0.106294 0.164340
0.940185 0.164431 0.211124
0.993896 0.230320 0.266361
1.000000 0.298955 0.322911
1.000000 0.368048 0.378729
0.106477 0.112825 0.121218
0.106477 0.112825 0.121218
0.106477 0.112825 0.121218
0.108095 0.112795 0.121370
0.115297 0.113161 0.122530
0.121584 0.113405 0.123659
0.126925 0.114168 0.124971
0.132479 0.114626 0.126284
0.141268 0.114565 0.127321
0.157382 0.113802 0.127932
0.185672 0.111299 0.128145
0.227573 0.106386 0.127626
0.279210 0.099123 0.126070
0.333867 0.090455 0.123690
0.385290 0.081300 0.120607
0.433448 0.073793 0.116823
0.476265 0.065980 0.112978
0.514092 0.059083 0.109255
0.547448 0.053162 0.105470
0.576806 0.048371 0.102083
0.603876 0.042878 0.099184
0.630091 0.037690 0.097047
0.657465 0.031922 0.096040
0.688411 0.026276 0.096468
0.725582 0.020874 0.100618
0.772335 0.032624 0.110170
0.826902 0.070314 0.130861
0.886015 0.114565 0.165438
0.944244 0.170779 0.213352
0.997101 0.235721 0.268284
1.000000 0.303319 0.324804
1.000000 0.371801 0.380316
0.106477 0.112825 0.121218
0.106477 0.112825 0.121218
0.106477 0.112825 0.121218
0.108553 0.112947 0.121553
0.115785 0.113100 0.122713
0.121767 0.113588 0.123842
0.127169 0.114107 0.124971
0.133608 0.114626 0.125856
0.143832 0.114931 0.126833
0.161776 0.114290 0.127565
0.193271 0.111971 0.127596
0.237278 0.107454 0.126833
0.289860 0.101442 0.125185
0.344244 0.093965 0.122591
0.395117 0.087343 0.119234
0.441505 0.080507 0.115450
0.483528 0.074922 0.111696
0.520684 0.070832 0.107607
0.552575 0.067781 0.104189
0.581353 0.065278 0.100832
0.608026 0.063661 0.097871
0.633845 0.061250 0.095766
0.661067 0.058137 0.094728
0.692103 0.052216 0.095674
0.729854 0.050507 0.099306
0.777035 0.059693 0.109224
0.831571 0.081727 0.130495
0.890105 0.122652 0.165652
0.947662 0.176791 0.213718
0.999542 0.240330 0.269047
1.000000 0.306859 0.325383
1.000000 0.374578 0.380896
0.106600 0.113954 0.121126
0.106569 0.114168 0.121096
0.106477 0.114412 0.121279
0.110262 0.114717 0.120974
0.117952 0.114778 0.121767
0.123842 0.114809 0.122927
0.129824 0.115450 0.123873
0.137331 0.115938 0.124941
0.150179 0.116243 0.125978
0.172976 0.116121 0.126497
0.209506 0.114626 0.126314
0.257877 0.111940 0.125124
0.311803 0.108400 0.122683
0.364294 0.104158 0.119844
0.413214 0.100435 0.116152
0.457984 0.096895 0.112215
0.497780 0.093782 0.108095
0.532769 0.090822 0.104280
0.563073 0.089540 0.100801
0.590356 0.088167 0.097475
0.615930 0.086671 0.094820
0.641352 0.084749 0.092683
0.668452 0.081910 0.091890
0.699916 0.080568 0.092531
0.737819 0.079377 0.096681
0.784909 0.084077 0.106447
0.838499 0.100587 0.128511
0.895781 0.136049 0.164523
0.952148 0.186160 0.212589
1.000000 0.247013 0.268193
1.000000 0.311986 0.324865
1.000000 0.378607 0.380682
0.106386 0.120912 0.121553
0.106355 0.120912 0.121736
0.106325 0.121126 0.121736
0.110414 0.121828 0.121004
0.119203 0.121096 0.120455
0.128450 0.120577 0.120424
0.135592 0.119631 0.121675
0.146151 0.119814 0.123049
0.164950 0.120821 0.123812
0.196963 0.122530 0.123873
0.240940 0.123873 0.123171
0.292638 0.124544 0.121004
0.345617 0.124758 0.118074
0.395056 0.123842 0.114595
0.440345 0.122621 0.110475
0.481300 0.121431 0.106264
0.517510 0.119844 0.102296
0.549004 0.118044 0.098543
0.576837 0.116732 0.095216
0.602106 0.115267 0.092256
0.626276 0.113008 0.089815
0.651331 0.111177 0.087800
0.678798 0.109377 0.086641
0.710475 0.107210 0.087526
0.749416 0.106966 0.091585
0.796628 0.110719 0.102113
0.849577 0.125154 0.125032
0.905211 0.155367 0.162325
0.959716 0.200992 0.211185
1.000000 0.258122 0.267491
1.000000 0.320195 0.324193
1.000000 0.384466 0.379919
0.106142 0.127230 0.122377
0.106142 0.127230 0.122377
0.106142 0.127443 0.122164
0.110323 0.127871 0.121248
0.118013 0.128573 0.120241
0.127718 0.127443 0.120058
0.141146 0.128817 0.119539
0.165805 0.132906 0.118502
0.195163 0.136507 0.118868
0.236790 0.141909 0.118074
0.286381 0.147463 0.116304
0.338262 0.151553 0.113008
0.387182 0.153902 0.109560
0.431983 0.154574 0.105440
0.472572 0.154116 0.101381
0.508721 0.153017 0.097322
0.540795 0.151553 0.093355
0.568566 0.149722 0.090028
0.593011 0.147097 0.087129
0.616175 0.144717 0.084443
0.639307 0.142855 0.081819
0.663416 0.139742 0.079988
0.678126 0.135012 0.080262
0.708797 0.132998 0.080049
0.746731 0.132021 0.082002
0.792477 0.134066 0.090517
0.844358 0.143099 0.110811
0.899351 0.165530 0.146242
0.953796 0.203708 0.194339
1.000000 0.255772 0.251438
1.000000 0.315251 0.310002
1.000000 0.378454 0.367681
0.106294 0.132753 0.123018
0.106294 0.132753 0.123018
0.107149 0.133028 0.122591
0.110445 0.133577 0.121920
0.116884 0.134401 0.120699
0.126131 0.135103 0.119600
0.138064 0.135042 0.119478
0.167758 0.145632 0.117342
0.225742 0.166629 0.112184
0.284398 0.180606 0.106600
0.332555 0.186587 0.103609
0.380102 0.190616 0.100191
0.423926 0.192172 0.096437
0.464576 0.192325 0.092470
0.500999 0.190921 0.088380
0.533745 0.188998 0.084047
0.561913 0.186374 0.080568
0.586694 0.183200 0.077455
0.608637 0.179599 0.075257
0.629725 0.176211 0.072816
0.651179 0.172915 0.070588
0.674220 0.169436 0.068391
0.700130 0.166354 0.066773
0.731044 0.163882 0.066133
0.769009 0.163363 0.068696
0.813626 0.165408 0.079011
0.863706 0.173953 0.102174
0.915984 0.193637 0.140841
0.966674 0.227115 0.191623
1.000000 0.274357 0.249424
1.000000 0.329473 0.308598
1.000000 0.388922 0.366491
0.106264 0.140352 0.123445
0.107057 0.140810 0.123201
0.108705 0.141146 0.122744
0.112062 0.142306 0.122011
0.118196 0.144137 0.120882
0.128634 0.146822 0.119173
0.142245 0.149111 0.118105
0.165042 0.155673 0.116548
0.230930 0.188449 0.108919
0.313420 0.222232 0.095827
0.393011 0.247013 0.078279
0.438758 0.247929 0.070649
0.475837 0.245212 0.067201
0.509789 0.241489 0.064363
0.539818 0.236851 0.061280
0.566155 0.231418 0.059144
0.589837 0.226200 0.055421
0.610834 0.220676 0.052552
0.630701 0.215732 0.050263
0.650568 0.210788 0.047242
0.672084 0.206790 0.040833
0.695644 0.202914 0.035096
0.722835 0.199557 0.028534
0.755581 0.197513 0.022950
0.793912 0.196719 0.029023
0.838010 0.199191 0.055665
0.885466 0.206699 0.088441
0.934234 0.223606 0.132540
0.980926 0.252934 0.186374
1.000000 0.294865 0.245762
1.000000 0.345159 0.305913
1.000000 0.400305 0.364111
0.107515 0.156191 0.122774
0.108705 0.156832 0.122652
0.110719 0.157870 0.122133
0.115206 0.160250 0.121370
0.123720 0.164492 0.119661
0.136995 0.170169 0.117403
0.157321 0.178714 0.114107
0.180117 0.183963 0.112398
0.224949 0.202640 0.107179
0.317266 0.250431 0.088502
0.399298 0.281346 0.063783
0.472633 0.301610 0.001099
0.523125 0.305333 0.000000
0.552453 0.296696 0.000000
0.576196 0.287205 0.000000
0.597894 0.278141 0.000000
0.617792 0.269688 0.000000
0.636591 0.261784 0.000000
0.655177 0.254948 0.000000
0.674830 0.248447 0.000000
0.696712 0.243351 0.000000
0.721584 0.239139 0.000000
0.750362 0.235660 0.000000
0.784054 0.233707 0.000000
0.822019 0.233005 0.000000
0.863767 0.234684 0.000000
0.908446 0.241154 0.063478
0.953216 0.255406 0.118959
0.995178 0.280247 0.177768
1.000000 0.316777 0.239719
1.000000 0.361700 0.300999
1.000000 0.412390 0.360082
0.107637 0.188815 0.121798
0.109957 0.190219 0.121553
0.112947 0.192142 0.120821
0.120363 0.196506 0.119417
0.133425 0.203433 0.117159
0.153384 0.213321 0.113436
0.180728 0.225742 0.108217
0.214267 0.238163 0.101869
0.249699 0.246433 0.097108
0.309880 0.269932 0.083711
0.402136 0.312902 0.033478
0.474250 0.335058 0.000000
0.535149 0.347478 0.000000
0.584375 0.352514 0.000000
0.610407 0.341436 0.000000
0.629358 0.328435 0.000000
0.647089 0.316838 0.000000
0.664607 0.306188 0.000000
0.683070 0.297490 0.000000
0.703151 0.289647 0.000000
0.726497 0.283940 0.000000
0.753109 0.279240 0.000000
0.783749 0.276097 0.000000
0.817594 0.273991 0.000000
0.854154 0.272862 0.000000
0.893278 0.273899 0.000000
0.933684 0.278416 0.000000
0.973419 0.289433 0.097261
1.000000 0.309331 0.164614
1.000000 0.339849 0.230655
1.000000 0.379034 0.293797
1.000000 0.424384 0.353704
0.103975 0.243778 0.116426
0.107790 0.245609 0.115755
0.113832 0.248020 0.114931
0.125948 0.252903 0.113161
0.145418 0.260960 0.109865
0.172000 0.271458 0.104829
0.205631 0.284520 0.097719
0.244785 0.298192 0.087953
0.287449 0.309239 0.076967
0.331182 0.317082 0.065431
0.392950 0.334752 0.018433
0.474678 0.366461 0.000000
0.534630 0.379522 0.000000
0.583581 0.384710 0.000000
0.625574 0.386084 0.000000
0.660426 0.382483 0.000000
0.681758 0.369451 0.000000
0.699702 0.357061 0.000000
0.718685 0.346319 0.000000
0.739956 0.337316 0.000000
0.764309 0.330388 0.000000
0.791196 0.324804 0.000000
0.820829 0.320531 0.000000
0.852750 0.317418 0.000000
0.886931 0.315648 0.000000
0.922301 0.315068 0.000000
0.958038 0.317144 0.000000
0.992798 0.324529 0.052644
1.000000 0.339422 0.145480
1.000000 0.364080 0.217746
1.000000 0.397498 0.284215
1.000000 0.437751 0.345830
0.096376 0.308202 0.104921
0.103334 0.309819 0.104036
0.112184 0.311864 0.102937
0.130159 0.316472 0.100435
0.155489 0.323613 0.096254
0.187381 0.332708 0.089815
0.225284 0.343664 0.080507
0.266972 0.355108 0.066987
0.313146 0.366857 0.033997
0.359167 0.374060 0.000000
0.406317 0.379583 0.000000
0.464210 0.389380 0.000000
0.519493 0.400549 0.000000
0.570062 0.407538 0.000000
0.612848 0.409430 0.000000
0.653254 0.410437 0.000000
0.696803 0.413672 0.000000
0.725704 0.406165 0.000000
0.748806 0.395514 0.000000
0.770993 0.385748 0.000000
0.795132 0.377203 0.000000
0.821469 0.370520 0.000000
0.849760 0.364843 0.000000
0.879789 0.360357 0.000000
0.911559 0.357458 0.000000
0.943877 0.355383 0.000000
0.975769 0.354681 0.000000
1.000000 0.357671 0.000000
1.000000 0.367193 0.106813
1.000000 0.385168 0.192752
1.000000 0.412787 0.265751
1.000000 0.447822 0.330846
0.086671 0.361822 0.090181
0.096590 0.363317 0.088991
0.108492 0.365515 0.087617
0.130282 0.369574 0.084291
0.160342 0.376104 0.078462
0.195560 0.383978 0.069886
0.235630 0.393317 0.054963
0.279149 0.403296 0.016388
0.324773 0.412482 0.000000
0.373236 0.421546 0.000000
0.419043 0.424567 0.000000
0.466163 0.427375 0.000000
0.515801 0.428901 0.000000
0.571618 0.439704 0.000000
0.613123 0.440406 0.000000
0.653132 0.440833 0.000000
0.696651 0.443763 0.000000
0.746090 0.450538 0.000000
0.791135 0.453895 0.000000
0.818326 0.444709 0.000000
0.842893 0.435523 0.000000
0.866972 0.426581 0.000000
0.892210 0.418647 0.000000
0.918334 0.411536 0.000000
0.945708 0.405982 0.000000
0.973205 0.401373 0.000000
1.000000 0.397711 0.000000
1.000000 0.396429 0.000000
1.000000 0.400061 0.019043
1.000000 0.411780 0.166934
1.000000 0.433082 0.248325
1.000000 0.462623 0.317449
0.074311 0.417914 0.066224
0.088014 0.418769 0.065126
0.103059 0.420539 0.062196
0.129366 0.423835 0.056672
0.163210 0.428840 0.041199
0.201816 0.435218 0.014191
0.242985 0.442451 0.000000
0.287968 0.450202 0.000000
0.333928 0.457465 0.000000
0.381445 0.464332 0.000000
0.429267 0.469215 0.000000
0.475624 0.470558 0.000000
0.522393 0.471626 0.000000
0.564385 0.465858 0.000000
0.611536 0.470497 0.000000
0.652369 0.470893 0.000000
0.696040 0.473762 0.000000
0.745754 0.480934 0.000000
0.799588 0.490578 0.000000
0.854002 0.500908 0.000000
0.884825 0.494423 0.000000
0.910124 0.484901 0.000000
0.932464 0.475227 0.000000
0.954406 0.465217 0.000000
0.976745 0.456153 0.000000
0.999054 0.447944 0.000000
1.000000 0.441230 0.000000
1.000000 0.435157 0.000000
1.000000 0.433204 0.000000
1.000000 0.438300 0.124331
1.000000 0.453071 0.222324
1.000000 0.477028 0.298436
0.061036 0.465461 0.010437
0.078859 0.466224 0.006195
0.097169 0.467414 0.000580
0.127199 0.470039 0.000000
0.164126 0.474067 0.000000
0.204227 0.478981 0.000000
0.246281 0.484321 0.000000
0.290654 0.490059 0.000000
0.337194 0.495827 0.000000
0.382727 0.500481 0.000000
0.429786 0.504845 0.000000
0.476539 0.506859 0.000000
0.522087 0.506981 0.000000
0.568200 0.506981 0.000000
0.604486 0.496529 0.000000
0.649683 0.500023 0.000000
0.694514 0.503593 0.000000
0.744564 0.510979 0.000000
0.798611 0.521050 0.000000
0.853422 0.531884 0.000000
0.904906 0.541283 0.000000
0.943999 0.542290 0.000000
0.966339 0.530968 0.000000
0.986267 0.519463 0.000000
1.000000 0.507225 0.000000
1.000000 0.495399 0.000000
1.000000 0.484291 0.000000
1.000000 0.474372 0.000000
1.000000 0.466499 0.000000
1.000000 0.464851 0.000000
1.000000 0.472541 0.181796
1.000000 0.490333 0.270726
0.045380 0.505180 0.000000
0.072297 0.505669 0.000000
0.092836 0.506493 0.000000
0.125765 0.508202 0.000000
0.163180 0.510826 0.000000
0.203494 0.514214 0.000000
0.245212 0.517967 0.000000
0.288396 0.522026 0.000000
0.333898 0.526299 0.000000
0.379248 0.530144 0.000000
0.424811 0.533532 0.000000
0.471473 0.536828 0.000000
0.516838 0.537530 0.000000
0.562219 0.537560 0.000000
0.606500 0.536126 0.000000
0.642725 0.525902 0.000000
0.691432 0.532433 0.000000
0.743008 0.541070 0.000000
0.797330 0.551629 0.000000
0.851926 0.562676 0.000000
0.903380 0.572137 0.000000
0.949371 0.578820 0.000000
0.988373 0.582208 0.000000
1.000000 0.570428 0.000000
1.000000 0.556512 0.000000
1.000000 0.541863 0.000000
1.000000 0.526909 0.000000
1.000000 0.513268 0.000000
1.000000 0.500816 0.000000
1.000000 0.492744 0.000000
1.000000 0.493446 0.116365
1.000000 0.505028 0.233677
0.050599 0.538293 0.000000
0.075074 0.538689 0.000000
0.093568 0.539361 0.000000
0.126101 0.540673 0.000000
0.163607 0.542565 0.000000
0.202823 0.545068 0.000000
0.243839 0.547906 0.000000
0.285924 0.550988 0.000000
0.329778 0.554314 0.000000
0.374914 0.557610 0.000000
0.419196 0.560510 0.000000
0.464332 0.563226 0.000000
0.510369 0.566003 0.000000
0.555108 0.566155 0.000000
0.600488 0.566461 0.000000
0.642725 0.563897 0.000000
0.683345 0.557458 0.000000
0.738979 0.569512 0.000000
0.795865 0.582361 0.000000
0.850736 0.593957 0.000000
0.902464 0.603784 0.000000
0.948516 0.610529 0.000000
0.987488 0.613367 0.000000
1.000000 0.612268 0.000000
1.000000 0.603296 0.000000
1.000000 0.586603 0.000000
1.000000 0.569329 0.000000
1.000000 0.552209 0.000000
1.000000 0.536400 0.000000
1.000000 0.522728 0.000000
1.000000 0.516228 0.000000
1.000000 0.520562 0.178317
0.070466 0.565759 0.000000
0.087404 0.565972 0.000000
0.100221 0.560967 0.000000
0.128786 0.562066 0.000000
0.163607 0.563745 0.000000
0.200870 0.565911 0.000000
0.239841 0.568536 0.000000
0.280491 0.571496 0.000000
0.322484 0.574640 0.000000
0.365942 0.577966 0.000000
0.410101 0.581384 0.000000
0.453956 0.584527 0.000000
0.499367 0.588067 0.000000
0.545617 0.591241 0.000000
0.590967 0.592615 0.000000
0.637140 0.594385 0.000000
0.678492 0.591455 0.000000
0.726253 0.591272 0.000000
0.786404 0.607202 0.000000
0.844022 0.621302 0.000000
0.896788 0.632349 0.000000
0.943816 0.639704 0.000000
0.983703 0.642969 0.000000
1.000000 0.641810 0.000000
1.000000 0.636316 0.000000
1.000000 0.627436 0.000000
1.000000 0.610040 0.000000
1.000000 0.590814 0.000000
1.000000 0.572259 0.000000
1.000000 0.554894 0.000000
1.000000 0.541619 0.000000
1.000000 0.538079 0.064759
0.097505 0.589929 0.051484
0.106691 0.589563 0.045472
0.119265 0.589288 0.032715
0.142000 0.589685 0.017029
0.172641 0.590723 0.000000
0.206119 0.592462 0.000000
0.242802 0.594903 0.000000
0.281346 0.597772 0.000000
0.321630 0.601129 0.000000
0.363287 0.604761 0.000000
0.407294 0.608972 0.000000
0.451026 0.613062 0.000000
0.495949 0.617548 0.000000
0.542992 0.622675 0.000000
0.590387 0.626734 0.000000
0.637751 0.629938 0.000000
0.686427 0.633845 0.000000
0.728023 0.631006 0.000000
0.782650 0.636347 0.000000
0.842008 0.652338 0.000000
0.895781 0.664332 0.000000
0.942718 0.671778 0.000000
0.982391 0.674708 0.000000
1.000000 0.672908 0.000000
1.000000 0.666560 0.000000
1.000000 0.656641 0.000000
1.000000 0.644648 0.000000
1.000000 0.628931 0.000000
1.000000 0.608240 0.000000
1.000000 0.588434 0.000000
1.000000 0.570367 0.000000
1.000000 0.558831 0.000000
0.132479 0.616846 0.106203
0.138918 0.616480 0.103731
0.147433 0.616327 0.100160
0.164706 0.616754 0.095277
0.189242 0.617945 0.087770
0.218967 0.619989 0.075837
0.251926 0.622644 0.056306
0.287510 0.625971 0.000000
0.325414 0.629877 0.000000
0.365545 0.634272 0.000000
0.408118 0.639399 0.000000
0.452583 0.645136 0.000000
0.497261 0.650874 0.000000
0.544244 0.657588 0.000000
0.594232 0.665278 0.000000
0.643061 0.670527 0.000000
0.692805 0.675502 0.000000
0.743343 0.680964 0.000000
0.784054 0.677058 0.000000
0.839933 0.683650 0.000000
0.894102 0.696254 0.000000
0.940917 0.703731 0.000000
0.980652 0.706477 0.000000
1.000000 0.704189 0.000000
1.000000 0.697017 0.000000
1.000000 0.686275 0.000000
1.000000 0.673213 0.000000
1.000000 0.658930 0.000000
1.000000 0.643793 0.000000
1.000000 0.623041 0.000000
1.000000 0.602045 0.000000
1.000000 0.584100 0.000000
0.171695 0.646876 0.151400
0.175662 0.646540 0.149203
0.181735 0.646387 0.147097
0.195010 0.646937 0.142916
0.214939 0.648341 0.137179
0.239994 0.650752 0.129793
0.268772 0.653986 0.119356
0.300969 0.658076 0.104646
0.336370 0.662928 0.081941
0.374243 0.668574 0.020203
0.415290 0.675044 0.000000
0.459266 0.682429 0.000000
0.504326 0.689937 0.000000
0.550896 0.697658 0.000000
0.600000 0.706020 0.000000
0.651362 0.714748 0.000000
0.700893 0.719692 0.000000
0.750851 0.724971 0.000000
0.801144 0.730098 0.000000
0.838651 0.723140 0.000000
0.890867 0.727291 0.000000
0.937194 0.734279 0.000000
0.975921 0.736019 0.000000
1.000000 0.733700 0.000000
1.000000 0.726253 0.000000
1.000000 0.715023 0.000000
1.000000 0.701259 0.000000
1.000000 0.686183 0.000000
1.000000 0.670619 0.000000
1.000000 0.654353 0.000000
1.000000 0.635340 0.000000
1.000000 0.614282 0.000000
0.208927 0.679225 0.188602
0.212528 0.679347 0.187655
0.217380 0.679683 0.185763
0.228367 0.680903 0.182834
0.244968 0.682979 0.179263
0.266484 0.686122 0.172488
0.291783 0.690028 0.164736
0.320714 0.694728 0.153750
0.353063 0.700252 0.138125
0.388708 0.706477 0.117647
0.427375 0.713558 0.083833
0.469306 0.721370 0.000000
0.514336 0.730129 0.000000
0.559045 0.738155 0.000000
0.606592 0.746670 0.000000
0.656672 0.755612 0.000000
0.707546 0.763363 0.000000
0.757015 0.768429 0.000000
0.806729 0.773465 0.000000
0.856260 0.778317 0.000000
0.891447 0.769284 0.000000
0.937469 0.768704 0.000000
0.975525 0.769528 0.000000
1.000000 0.765194 0.000000
1.000000 0.757229 0.000000
1.000000 0.745113 0.000000
1.000000 0.730373 0.000000
1.000000 0.714290 0.000000
1.000000 0.697719 0.000000
1.000000 0.680995 0.000000
1.000000 0.664485 0.000000
1.000000 0.647242 0.000000
0.251316 0.721340 0.226810
0.254032 0.721401 0.225711
0.257847 0.721706 0.224216
0.266911 0.722988 0.221836
0.280735 0.725277 0.218021
0.299321 0.728664 0.213413
0.321935 0.733059 0.206485
0.348028 0.738155 0.197604
0.377752 0.744076 0.186160
0.410803 0.750576 0.171267
0.447028 0.757839 0.150546
0.486427 0.765713 0.121248
0.528862 0.774197 0.072236
0.572930 0.782650 0.000000
0.618006 0.790799 0.000000
0.665309 0.799069 0.000000
0.714656 0.807248 0.000000
0.763943 0.813107 0.000000
0.812161 0.817166 0.000000
0.860044 0.821073 0.000000
0.907439 0.824643 0.000000
0.939269 0.812711 0.000000
0.976379 0.804868 0.000000
1.000000 0.798520 0.000000
1.000000 0.788693 0.000000
1.000000 0.775662 0.000000
1.000000 0.759976 0.000000
1.000000 0.742885 0.000000
1.000000 0.725246 0.000000
1.000000 0.707637 0.000000
1.000000 0.690425 0.000000
1.000000 0.674067 0.000000
0.289067 0.764614 0.257603
0.291325 0.764645 0.256321
0.294591 0.765042 0.255253
0.302708 0.766476 0.253269
0.315160 0.768978 0.250553
0.332006 0.772488 0.246464
0.352453 0.776944 0.241367
0.376593 0.782254 0.233951
0.404303 0.788235 0.225071
0.435126 0.794888 0.213565
0.469123 0.802090 0.198795
0.505882 0.809751 0.179324
0.545769 0.817868 0.152834
0.588464 0.826322 0.113893
0.630945 0.834134 0.000000
0.675380 0.841794 0.000000
0.721798 0.849241 0.000000
0.769589 0.856199 0.000000
0.816342 0.859831 0.000000
0.862303 0.862333 0.000000
0.907530 0.864500 0.000000
0.951995 0.866361 0.000000
0.979553 0.850767 0.000000
1.000000 0.835142 0.000000
1.000000 0.821988 0.000000
1.000000 0.805875 0.000000
1.000000 0.789456 0.000000
1.000000 0.771511 0.000000
1.000000 0.752926 0.000000
1.000000 0.734340 0.000000
1.000000 0.716365 0.000000
1.000000 0.699733 0.000000
0.329534 0.813931 0.287938
0.331456 0.813870 0.287144
0.334386 0.814237 0.285832
0.341558 0.815518 0.284428
0.352728 0.817807 0.281712
0.367773 0.820981 0.278599
0.386511 0.824887 0.274266
0.408515 0.829587 0.268589
0.433753 0.834806 0.260838
0.462074 0.840513 0.251560
0.493324 0.846738 0.240085
0.527398 0.853208 0.225223
0.564111 0.860044 0.205997
0.603235 0.867063 0.181582
0.643854 0.873930 0.146639
0.684352 0.880064 0.082918
0.726741 0.885924 0.000000
0.770474 0.891264 0.000000
0.815183 0.895720 0.000000
0.858885 0.896941 0.000000
0.901915 0.897734 0.000000
0.944244 0.898161 0.000000
0.985657 0.898314 0.000000
1.000000 0.878599 0.000000
1.000000 0.856291 0.000000
1.000000 0.838193 0.000000
1.000000 0.818814 0.000000
1.000000 0.800076 0.000000
1.000000 0.780667 0.000000
1.000000 0.761227 0.000000
1.000000 0.742184 0.000000
1.000000 0.725124 0.000000
0.367468 0.861479 0.314916
0.369451 0.861509 0.314336
0.372229 0.861936 0.313573
0.378851 0.863188 0.312291
0.389136 0.865232 0.310307
0.402930 0.868040 0.307713
0.420111 0.871427 0.304051
0.440314 0.875395 0.299107
0.463508 0.879698 0.292973
0.489418 0.884398 0.285313
0.518120 0.889281 0.275914
0.549218 0.894408 0.264347
0.582696 0.899596 0.250004
0.618555 0.904967 0.232303
0.656245 0.910307 0.209293
0.693629 0.914946 0.177554
0.731960 0.919066 0.128542
0.771359 0.922698 0.000000
0.811887 0.925628 0.000000
0.852964 0.927001 0.000000
0.893614 0.926390 0.000000
0.933501 0.925353 0.000000
0.972503 0.924010 0.000000
1.000000 0.922332 0.000000
1.000000 0.898558 0.000000
1.000000 0.871580 0.000000
1.000000 0.850278 0.000000
1.000000 0.829007 0.000000
1.000000 0.808713 0.000000
1.000000 0.788479 0.000000
1.000000 0.768521 0.000000
1.000000 0.750515 0.000000
0.405005 0.906798 0.341222
0.406775 0.906920 0.340795
0.409400 0.907225 0.340063
0.415259 0.908141 0.338842
0.424659 0.909575 0.337224
0.436835 0.911467 0.334661
0.451911 0.913603 0.331090
0.469825 0.915984 0.326696
0.490394 0.918608 0.321172
0.513451 0.921416 0.314366
0.538903 0.924407 0.305882
0.566796 0.927611 0.296117
0.596735 0.930938 0.283970
0.628870 0.934356 0.269627
0.662837 0.937743 0.251591
0.697993 0.940948 0.229313
0.732479 0.943420 0.199344
0.767880 0.945434 0.154788
0.804410 0.946807 0.068757
0.841733 0.947601 0.000000
0.879789 0.946715 0.000000
0.917662 0.944762 0.000000
0.954864 0.942535 0.000000
0.991211 0.940002 0.000000
1.000000 0.937194 0.000000
1.000000 0.910430 0.000000
1.000000 0.881071 0.000000
1.000000 0.858274 0.000000
1.000000 0.836118 0.000000
1.000000 0.815152 0.000000
1.000000 0.794583 0.000000
1.000000 0.775265 0.000000
0.436255 0.942596 0.363195
0.438117 0.942718 0.362737
0.440558 0.942992 0.362432
0.446052 0.943725 0.361547
0.454597 0.944823 0.360174
0.465980 0.946227 0.358099
0.480049 0.947814 0.355627
0.496498 0.949584 0.351965
0.515496 0.951476 0.347692
0.536889 0.953429 0.342473
0.560327 0.955444 0.336095
0.585748 0.957488 0.328191
0.613031 0.959442 0.319158
0.641993 0.961273 0.307866
0.672419 0.962951 0.294865
