其他预设/【233】日式怀旧街道调色预设208款/1.3D LUT预设（视频调色-PR-AE-PS-FCPX-达芬奇用）/1.日式城市街拍预设/JA – Controlled Contrast 1.cube
# Created by Adobe Lightroom plugin Export LUT (1.17.0)
# www.johnrellis.com/lightroom/exportlut.htm
# Preset: JA – Controlled Contrast 1
# Color profile: /Library/Application Support/Adobe/Color/Profiles/Recommended/AdobeRGB1998.icc
LUT_3D_SIZE 8
DOMAIN_MIN 0.000000 0.000000 0.000000
DOMAIN_MAX 0.903226 0.903226 0.903226
0.089021 0.087709 0.087587
0.105562 0.087617 0.089357
0.182193 0.084291 0.090517
0.360998 0.082734 0.070100
0.625971 0.119142 0.000000
0.840696 0.170291 0.000000
0.988342 0.210208 0.000000
1.000000 0.233219 0.000000
0.089937 0.097902 0.088380
0.102388 0.098238 0.091310
0.182132 0.105135 0.089540
0.368780 0.126284 0.063600
0.636347 0.171542 0.000000
0.850401 0.214023 0.000000
0.993164 0.243351 0.000000
1.000000 0.258122 0.000000
0.089998 0.145052 0.086641
0.108034 0.147860 0.085939
0.157198 0.143740 0.096986
0.313054 0.185031 0.068971
0.585962 0.256474 0.000000
0.818479 0.301244 0.000000
0.973022 0.319799 0.000000
1.000000 0.324376 0.000000
0.098360 0.254887 0.053651
0.133211 0.260838 0.044312
0.220706 0.273411 0.016846
0.288853 0.253330 0.080690
0.525628 0.336797 0.000000
0.751461 0.380377 0.000000
0.949584 0.415259 0.000000
1.000000 0.416541 0.000000
0.144961 0.464210 0.000000
0.191501 0.468849 0.000000
0.303563 0.480293 0.000000
0.429389 0.478065 0.000000
0.539910 0.462715 0.000000
0.766110 0.521721 0.000000
0.930571 0.523735 0.000000
1.000000 0.517937 0.000000
0.196750 0.680903 0.000000
0.241611 0.675746 0.000000
0.360540 0.682643 0.000000
0.509148 0.693599 0.000000
0.655756 0.687282 0.000000
0.779812 0.669123 0.000000
0.932433 0.671870 0.000000
1.000000 0.643183 0.000000
0.209812 0.861082 0.000000
0.258885 0.860410 0.000000
0.382971 0.863645 0.000000
0.532799 0.866087 0.000000
0.691768 0.868040 0.000000
0.837858 0.854978 0.000000
0.944274 0.827939 0.231846
1.000000 0.797086 0.358556
0.160525 0.985901 0.000000
0.222110 0.985718 0.000000
0.356146 0.984131 0.000000
0.506615 0.980011 0.000000
0.661036 0.979553 0.000000
0.810697 0.968963 0.000000
0.944823 0.951690 0.220340
1.000000 0.926421 0.592096
0.087098 0.093080 0.110384
0.108827 0.087098 0.108064
0.190921 0.092256 0.102144
0.378180 0.109407 0.078279
0.646815 0.163912 0.000000
0.860014 0.206394 0.000000
0.998566 0.233555 0.000000
1.000000 0.248966 0.000000
0.085145 0.107118 0.108064
0.106905 0.105257 0.105470
0.183352 0.113588 0.103151
0.370947 0.141390 0.076204
0.642298 0.199680 0.000000
0.859617 0.239261 0.000000
1.000000 0.262089 0.000000
1.000000 0.272343 0.000000
0.083467 0.154604 0.098970
0.112612 0.154574 0.102113
0.163699 0.150912 0.107851
0.324468 0.195468 0.077302
0.599207 0.272465 0.000000
0.832914 0.317388 0.000000
0.986786 0.334600 0.000000
1.000000 0.335607 0.000000
0.077089 0.270634 0.072297
0.128450 0.273533 0.073732
0.228428 0.286534 0.054108
0.312902 0.274418 0.085145
0.562524 0.363836 0.000000
0.779904 0.399207 0.000000
0.966552 0.428046 0.000000
1.000000 0.425269 0.000000
0.106081 0.471565 0.000000
0.170932 0.477607 0.000000
0.303502 0.491890 0.000000
0.447242 0.497841 0.000000
0.565698 0.484993 0.000000
0.783841 0.536339 0.000000
0.941314 0.532769 0.000000
1.000000 0.523766 0.000000
0.165072 0.692317 0.000000
0.226047 0.693996 0.000000
0.363561 0.700343 0.000000
0.522423 0.709590 0.000000
0.668147 0.699672 0.000000
0.788327 0.677150 0.000000
0.937652 0.677272 0.000000
1.000000 0.648493 0.000000
0.217838 0.872679 0.000000
0.267185 0.874418 0.000000
0.390234 0.875792 0.000000
0.538872 0.875273 0.000000
0.696590 0.874357 0.000000
0.843290 0.861265 0.000000
0.950134 0.834867 0.250248
1.000000 0.803952 0.381353
0.145388 0.990295 0.000000
0.211826 0.989532 0.000000
0.351263 0.987579 0.000000
0.504173 0.983001 0.000000
0.658198 0.977752 0.000000
0.810117 0.968627 0.000000
0.945586 0.952880 0.227909
1.000000 0.928435 0.600122
0.011902 0.117311 0.200778
0.077058 0.097139 0.196719
0.183841 0.094697 0.183413
0.363561 0.000000 0.193637
0.663111 0.000000 0.151217
0.864927 0.108309 0.095949
0.998901 0.200229 0.000000
1.000000 0.245884 0.000000
0.042786 0.139315 0.190921
0.085267 0.126741 0.187839
0.182162 0.115969 0.181277
0.377752 0.039155 0.186038
0.663142 0.060945 0.152865
0.865812 0.170809 0.089387
1.000000 0.233585 0.000000
1.000000 0.268223 0.000000
0.028779 0.184390 0.183993
0.082094 0.179629 0.179202
0.182498 0.178897 0.179599
0.354070 0.194736 0.168765
0.618738 0.238285 0.137209
0.841245 0.284215 0.032715
0.989899 0.318578 0.000000
1.000000 0.333257 0.000000
0.000000 0.284947 0.183780
0.005798 0.284825 0.175143
0.188876 0.294926 0.159823
0.321996 0.290257 0.181308
0.551141 0.342443 0.126284
0.787686 0.387945 0.000000
0.967346 0.420081 0.000000
1.000000 0.422492 0.000000
0.000000 0.490028 0.162661
0.000000 0.490913 0.130495
0.223117 0.495430 0.104402
0.424231 0.505058 0.086915
0.564111 0.490028 0.170809
0.779416 0.530053 0.015564
0.941863 0.529168 0.000000
1.000000 0.522759 0.000000
0.000000 0.704616 0.000000
0.000000 0.703426 0.000000
0.268589 0.706294 0.000000
0.480659 0.714382 0.000000
0.664363 0.711879 0.000000
0.796780 0.690333 0.154360
0.943053 0.683650 0.000000
1.000000 0.648524 0.000000
0.000000 0.877440 0.000000
0.000000 0.877409 0.000000
0.303410 0.879850 0.000000
0.502647 0.880827 0.000000
0.685725 0.881346 0.000000
0.844083 0.866331 0.000000
0.950988 0.836728 0.250065
1.000000 0.802853 0.378302
0.000000 0.994415 0.000000
0.083772 0.994415 0.000000
0.313603 0.992615 0.000000
0.487800 0.986633 0.000000
0.648432 0.981201 0.000000
0.804959 0.971252 0.000000
0.944335 0.954284 0.226169
1.000000 0.929015 0.599237
0.000000 0.191623 0.407477
0.000000 0.153964 0.399634
0.183932 0.084688 0.393072
0.371069 0.000000 0.371496
0.597620 0.000000 0.385718
0.878508 0.000000 0.370336
1.000000 0.304265 0.406958
1.000000 0.331273 0.357610
0.000000 0.213016 0.382757
0.000000 0.189029 0.380163
0.159365 0.116274 0.380926
0.365942 0.086732 0.366247
0.606470 0.000000 0.384619
0.882536 0.000000 0.373663
1.000000 0.325689 0.405646
1.000000 0.338506 0.347509
0.000000 0.279728 0.375006
0.000000 0.267643 0.368811
0.074861 0.217716 0.366705
0.365576 0.200595 0.364202
0.635370 0.201175 0.377661
0.868650 0.315526 0.392889
0.992401 0.358038 0.366522
1.000000 0.358953 0.300969
0.000000 0.366583 0.367834
0.000000 0.362493 0.363806
0.000000 0.354620 0.356115
0.379889 0.368109 0.373541
0.614771 0.383948 0.358099
0.830777 0.418250 0.350408
0.980133 0.439368 0.326329
1.000000 0.431800 0.261906
0.000000 0.513512 0.370489
0.000000 0.517479 0.365850
0.000000 0.526055 0.343359
0.380682 0.533562 0.338293
0.577111 0.523186 0.388006
0.771511 0.525841 0.320897
0.946502 0.527794 0.263066
1.000000 0.526146 0.217105
0.000000 0.716640 0.356786
0.000000 0.712520 0.341009
0.000000 0.718807 0.294285
0.408331 0.719387 0.309789
0.641321 0.722164 0.323278
0.790005 0.705806 0.430030
0.934600 0.692744 0.361730
1.000000 0.646204 0.225132
0.000000 0.890349 0.266697
0.000000 0.890166 0.243687
0.000000 0.889555 0.162478
0.426825 0.881926 0.250797
0.642329 0.880919 0.214542
0.828824 0.869718 0.318639
0.940124 0.846342 0.478218
1.000000 0.807401 0.429511
0.000000 1.000000 0.000000
0.000000 1.000000 0.000000
0.000000 0.998260 0.000000
0.398230 0.992279 0.000000
0.603113 0.986389 0.000000
0.784878 0.976593 0.000000
0.939666 0.957824 0.215793
1.000000 0.930755 0.602899
0.000000 0.284062 0.638605
0.000000 0.253300 0.635370
0.000000 0.121859 0.638056
0.387152 0.000000 0.637934
0.616754 0.000000 0.618738
0.786709 0.099672 0.584222
0.977264 0.347601 0.609186
1.000000 0.596887 0.690303
0.000000 0.308904 0.626490
0.000000 0.282841 0.622309
0.000000 0.149996 0.627161
0.374151 0.082948 0.633478
0.615656 0.000000 0.617304
0.785489 0.176547 0.583459
0.977142 0.383612 0.614710
1.000000 0.620264 0.701747
0.000000 0.380438 0.605005
0.000000 0.365637 0.602869
0.000000 0.303471 0.611292
0.325902 0.219944 0.623377
0.614618 0.246555 0.614710
0.802518 0.327489 0.597223
0.976013 0.500664 0.643488
1.000000 0.678950 0.729549
0.000000 0.480262 0.609125
0.000000 0.473030 0.606683
0.000000 0.443946 0.597772
0.254307 0.392523 0.602655
0.611414 0.423713 0.607660
0.827634 0.496986 0.620813
0.969116 0.642420 0.691188
1.000000 0.646693 0.667597
0.000000 0.604700 0.610956
0.000000 0.601465 0.607538
0.000000 0.594079 0.600488
0.253361 0.588464 0.596521
0.630976 0.607904 0.621485
0.816922 0.620417 0.610986
0.956268 0.643671 0.612604
1.000000 0.645960 0.594965
0.000000 0.745205 0.587152
0.000000 0.747280 0.584375
0.000000 0.756008 0.576318
0.328740 0.760037 0.570611
0.637842 0.757259 0.602045
0.797391 0.745754 0.648249
0.924590 0.715663 0.573053
1.000000 0.686854 0.519493
0.000000 0.905547 0.544640
0.000000 0.906340 0.538659
0.000000 0.906310 0.522881
0.341253 0.899748 0.523217
0.641932 0.886412 0.576989
0.819669 0.881498 0.596765
0.927001 0.866087 0.691798
1.000000 0.838895 0.643915
0.000000 1.000000 0.449195
0.000000 1.000000 0.441382
0.000000 1.000000 0.425513
0.317540 0.998688 0.443824
0.617182 0.984070 0.514488
0.772946 0.978241 0.471595
0.928435 0.961334 0.577844
1.000000 0.939757 0.712825
0.000000 0.358282 0.812161
0.000000 0.336797 0.812131
0.000000 0.223850 0.818509
0.228855 0.141268 0.821683
0.591119 0.137911 0.825559
0.806577 0.204959 0.810361
0.930114 0.389929 0.766262
1.000000 0.613855 0.792844
0.000000 0.384710 0.815702
0.000000 0.365850 0.816434
0.000000 0.272953 0.820523
0.207065 0.182040 0.824247
0.590997 0.199527 0.826932
0.808042 0.259434 0.811521
0.929931 0.419532 0.768460
1.000000 0.631861 0.797818
0.000000 0.451484 0.801022
0.000000 0.438575 0.802762
0.000000 0.385443 0.807034
0.003571 0.275822 0.814328
0.578363 0.320470 0.818814
0.804593 0.378058 0.806394
0.925109 0.496193 0.770626
1.000000 0.679896 0.809689
0.000000 0.544915 0.796109
0.000000 0.537713 0.795529
0.000000 0.508263 0.790616
0.024475 0.453346 0.793637
0.549371 0.447822 0.801663
0.796017 0.510307 0.795041
0.919524 0.594415 0.774472
1.000000 0.745785 0.826932
0.000000 0.661707 0.801999
0.000000 0.657160 0.800381
0.000000 0.641352 0.795468
0.000000 0.614893 0.787961
0.523339 0.601770 0.791379
0.801999 0.656275 0.797635
0.935119 0.732082 0.808682
1.000000 0.837736 0.865263
0.000000 0.798734 0.805020
0.000000 0.796139 0.802426
0.000000 0.791592 0.798276
0.000000 0.784909 0.792813
0.536736 0.780331 0.791073
0.814847 0.793484 0.806851
0.929259 0.802579 0.801083
1.000000 0.816312 0.803311
0.000000 0.910491 0.755276
0.000000 0.910277 0.752590
0.000000 0.911437 0.747005
0.237491 0.908995 0.743374
0.597223 0.899870 0.754055
0.814939 0.889311 0.791836
0.917754 0.885740 0.830350
0.996460 0.866270 0.787259
0.000000 1.000000 0.679286
0.000000 1.000000 0.676478
0.000000 1.000000 0.670802
0.272984 1.000000 0.677302
0.615808 0.987549 0.719356
0.817136 0.970520 0.779995
0.923186 0.964599 0.790646
0.986297 0.952117 0.852262
0.000000 0.427405 0.947082
0.000000 0.414893 0.947204
0.000000 0.358068 0.948486
0.000000 0.280674 0.949432
0.509117 0.326299 0.947173
0.771939 0.428534 0.943236
0.926848 0.496071 0.931670
0.999207 0.665095 0.900755
0.000000 0.446052 0.945830
0.000000 0.434333 0.945953
0.000000 0.389349 0.946899
0.000000 0.306645 0.948821
0.510643 0.353918 0.946258
0.772824 0.452216 0.942199
0.926329 0.516930 0.930846
0.998291 0.676600 0.901488
0.000000 0.503410 0.941802
0.000000 0.493843 0.941985
0.000000 0.464942 0.942351
0.000000 0.397192 0.944427
0.513176 0.431617 0.942351
0.775387 0.522698 0.938415
0.924559 0.578943 0.927886
0.995300 0.711482 0.903471
0.000000 0.589075 0.935576
0.000000 0.582696 0.935546
0.000000 0.558099 0.936095
0.134951 0.541375 0.935515
0.509575 0.530938 0.936004
0.776974 0.612543 0.932555
0.921996 0.662593 0.923613
0.991150 0.760678 0.906371
0.000000 0.684504 0.934081
0.000000 0.680568 0.933623
0.000000 0.667079 0.931975
0.000000 0.646174 0.928435
0.515373 0.655360 0.925841
0.770565 0.698238 0.925628
0.919738 0.748562 0.919249
0.986664 0.815915 0.910124
0.000000 0.797421 0.931304
0.000000 0.795285 0.930846
0.000000 0.788510 0.929168
0.000000 0.778714 0.925628
0.444129 0.769741 0.919615
0.752102 0.786954 0.914488
0.918151 0.832212 0.915526
0.987945 0.884092 0.923644
0.000000 0.924987 0.927031
0.000000 0.924407 0.926574
0.000000 0.922332 0.924865
0.000000 0.917937 0.921569
0.502098 0.910826 0.916472
0.761196 0.903868 0.911559
0.922759 0.910704 0.918456
0.987121 0.920531 0.919554
0.000000 1.000000 0.873686
0.000000 1.000000 0.872160
0.000000 1.000000 0.867521
0.000000 1.000000 0.863401
0.578058 0.994049 0.869352
0.806302 0.976745 0.889464
0.925566 0.967742 0.913725
0.979187 0.964172 0.932677
0.000000 0.505547 1.000000
0.000000 0.507927 1.000000
0.000000 0.515984 1.000000
0.259098 0.481331 1.000000
0.551110 0.532952 1.000000
0.754604 0.610559 1.000000
0.903105 0.699489 0.996155
0.986175 0.738766 0.990326
0.000000 0.517266 1.000000
0.000000 0.519249 1.000000
0.000000 0.538781 1.000000
0.297765 0.506767 1.000000
0.558892 0.549676 1.000000
0.758236 0.624262 1.000000
0.904082 0.709560 0.995666
0.985962 0.747097 0.989929
0.000000 0.552697 1.000000
0.000000 0.553368 1.000000
0.000000 0.568231 1.000000
0.394446 0.583001 1.000000
0.580835 0.599573 1.000000
0.768948 0.665858 1.000000
0.907012 0.740627 0.994049
0.985260 0.773098 0.988678
0.000000 0.608423 1.000000
0.000000 0.606561 1.000000
0.000000 0.609430 1.000000
0.414069 0.650385 1.000000
0.605188 0.666011 1.000000
0.781430 0.721889 0.997955
0.910216 0.783139 0.991852
0.984283 0.810208 0.986938
0.000000 0.687587 1.000000
0.000000 0.685481 1.000000
0.000000 0.680018 1.000000
0.000000 0.678645 1.000000
0.628687 0.746883 0.999847
0.787228 0.777829 0.995331
0.911986 0.828153 0.989654
0.983276 0.852781 0.984955
0.000000 0.778012 1.000000
0.000000 0.776730 1.000000
0.000000 0.773342 1.000000
0.000000 0.772396 1.000000
0.477241 0.783047 1.000000
0.790860 0.842130 0.991974
0.910948 0.873045 0.987304
0.982116 0.895842 0.982788
0.000000 0.881224 1.000000
0.000000 0.880461 1.000000
0.000000 0.878477 1.000000
0.000000 0.877806 0.998688
0.493141 0.883421 0.995148
0.740444 0.897307 0.990051
0.905028 0.920012 0.984222
0.980804 0.936858 0.980499
0.000000 0.996612 0.994141
0.000000 0.996399 0.993988
0.000000 0.995392 0.993378
0.000000 0.992676 0.991608
0.504814 0.987671 0.988373
0.761440 0.982177 0.984253
0.903136 0.977844 0.980346
0.979797 0.976135 0.978515
