其他预设/【233】日式怀旧街道调色预设208款/1.3D LUT预设（视频调色-PR-AE-PS-FCPX-达芬奇用）/1.日式城市街拍预设/JA – Night Pop 4.cube
# Created by Adobe Lightroom plugin Export LUT (1.17.0)
# www.johnrellis.com/lightroom/exportlut.htm
# Preset: JA – Night Pop 4
# Color profile: /Library/Application Support/Adobe/Color/Profiles/Recommended/AdobeRGB1998.icc
LUT_3D_SIZE 5
DOMAIN_MIN 0.000000 0.000000 0.000000
DOMAIN_MAX 0.903226 0.903226 0.903226
0.064302 0.069642 0.075319
0.274784 0.000000 0.064729
0.635126 0.000000 0.000000
0.950622 0.000000 0.000000
1.000000 0.000000 0.000000
0.000000 0.179934 0.055299
0.177554 0.168368 0.068940
0.615045 0.256931 0.000000
0.933013 0.228061 0.000000
1.000000 0.139040 0.000000
0.000000 0.515679 0.037385
0.199954 0.525139 0.000000
0.529686 0.481727 0.000000
0.883360 0.519707 0.000000
1.000000 0.433082 0.000000
0.000000 0.793668 0.000000
0.000000 0.803433 0.000000
0.539940 0.806790 0.000000
0.786893 0.701106 0.000000
1.000000 0.705898 0.346838
0.000000 0.995117 0.000000
0.000000 0.996612 0.000000
0.374182 0.979217 0.000000
0.761349 0.958587 0.000000
1.000000 0.901152 0.379736
0.000000 0.071199 0.187045
0.175418 0.000000 0.193820
0.582300 0.000000 0.129335
0.894804 0.000000 0.000000
1.000000 0.000000 0.000000
0.000000 0.166903 0.188235
0.149416 0.161563 0.174166
0.575921 0.162081 0.122072
0.887785 0.145632 0.000000
1.000000 0.103853 0.000000
0.000000 0.493050 0.280888
0.000000 0.504143 0.162783
0.490242 0.454963 0.169284
0.843290 0.495979 0.207034
1.000000 0.422126 0.000000
0.000000 0.777035 0.291875
0.000000 0.788449 0.161593
0.501152 0.800168 0.000000
0.768338 0.693721 0.243961
1.000000 0.699794 0.338750
0.000000 0.991424 0.181308
0.000000 0.992981 0.000000
0.312322 0.988342 0.000000
0.751217 0.964080 0.000000
1.000000 0.903777 0.383093
0.000000 0.070436 0.521050
0.000000 0.000000 0.524895
0.503166 0.000000 0.524804
0.853422 0.000000 0.487831
1.000000 0.000000 0.408881
0.000000 0.244694 0.512932
0.000000 0.180636 0.515618
0.496040 0.000000 0.520623
0.837247 0.017151 0.481270
1.000000 0.000000 0.395819
0.000000 0.469734 0.513725
0.000000 0.469734 0.510765
0.439124 0.459327 0.484718
0.816800 0.464393 0.474861
1.000000 0.405463 0.391516
0.000000 0.727993 0.529870
0.000000 0.730282 0.505943
0.383825 0.746090 0.489143
0.732387 0.687068 0.482887
1.000000 0.703639 0.516533
0.000000 0.973785 0.494301
0.000000 0.978882 0.476081
0.104402 0.980011 0.425788
0.711421 0.961608 0.397955
0.987610 0.897826 0.475685
0.000000 0.074464 0.748104
0.000000 0.054292 0.749325
0.346014 0.000000 0.753475
0.772152 0.000000 0.759304
1.000000 0.000000 0.698726
0.000000 0.230106 0.740902
0.000000 0.212253 0.741146
0.307408 0.000000 0.749691
0.756344 0.000000 0.747951
1.000000 0.089296 0.693599
0.000000 0.457435 0.730617
0.000000 0.452461 0.728420
0.316899 0.452705 0.723445
0.717159 0.399176 0.721187
1.000000 0.392279 0.677302
0.000000 0.698970 0.742214
0.000000 0.698878 0.736690
0.080903 0.696925 0.727993
0.663600 0.670863 0.689143
1.000000 0.669886 0.676722
0.000000 0.952636 0.736782
0.000000 0.956085 0.731167
0.000000 0.970794 0.691554
0.620752 0.954772 0.691402
0.958587 0.899962 0.683619
0.000000 0.100801 0.932250
0.000000 0.100618 0.931884
0.000000 0.000000 0.936217
0.587427 0.000000 0.932860
0.970764 0.000000 0.928771
0.000000 0.100008 0.930327
0.000000 0.105318 0.929870
0.000000 0.000000 0.933074
0.568353 0.000000 0.928923
0.965606 0.000000 0.925383
0.000000 0.371405 0.922759
0.000000 0.369329 0.922087
0.000000 0.384863 0.921752
0.537041 0.316564 0.922026
0.958923 0.269993 0.923339
0.000000 0.616632 0.919921
0.000000 0.615808 0.918090
0.000000 0.608515 0.917174
0.487617 0.616632 0.917205
0.949889 0.628229 0.925170
0.000000 0.865171 0.920806
0.000000 0.868162 0.919951
0.000000 0.885069 0.922179
0.062226 0.901213 0.922881
0.905150 0.897826 0.899351
