其他预设/【233】日式怀旧街道调色预设208款/1.3D LUT预设（视频调色-PR-AE-PS-FCPX-达芬奇用）/1.日式城市街拍预设/JA – Night Candy 1.cube
# Created by Adobe Lightroom plugin Export LUT (1.17.0)
# www.johnrellis.com/lightroom/exportlut.htm
# Preset: JA – Night Candy 1
# Color profile: /Library/Application Support/Adobe/Color/Profiles/Recommended/AdobeRGB1998.icc
LUT_3D_SIZE 5
DOMAIN_MIN 0.000000 0.000000 0.000000
DOMAIN_MAX 0.903226 0.903226 0.903226
0.079255 0.087068 0.087587
0.315129 0.000000 0.080232
0.621973 0.000000 0.008728
0.825193 0.000000 0.000000
1.000000 0.000000 0.000000
0.000000 0.290471 0.009674
0.250492 0.252873 0.081910
0.638972 0.159152 0.000000
0.843137 0.000000 0.000000
1.000000 0.000000 0.100191
0.000000 0.597864 0.181155
0.000000 0.600366 0.000000
0.584253 0.578576 0.349615
0.838804 0.568597 0.525597
1.000000 0.387823 0.350256
0.000000 0.791135 0.257633
0.000000 0.796048 0.168887
0.442786 0.788907 0.198550
0.789212 0.780148 0.594598
0.976287 0.803067 0.798428
0.000000 1.000000 0.303410
0.000000 1.000000 0.284977
0.314977 1.000000 0.349950
0.708156 0.984741 0.426001
0.958831 0.945556 0.790341
0.000000 0.102205 0.269474
0.302434 0.000000 0.307866
0.615137 0.000000 0.278630
0.795560 0.000000 0.228244
1.000000 0.000000 0.210666
0.000000 0.292424 0.289067
0.263157 0.287785 0.305058
0.605463 0.005280 0.233951
0.793606 0.000000 0.219883
1.000000 0.000000 0.236790
0.000000 0.595911 0.344213
0.000000 0.599451 0.291997
0.563470 0.571862 0.471687
0.814176 0.552575 0.547662
1.000000 0.391760 0.420722
0.000000 0.787320 0.363287
0.000000 0.791104 0.335302
0.446357 0.784909 0.377722
0.784146 0.780545 0.640681
0.972808 0.808255 0.820371
0.000000 1.000000 0.391913
0.000000 1.000000 0.377783
0.326268 1.000000 0.458625
0.705318 0.984771 0.501579
0.955688 0.945983 0.820371
0.000000 0.138277 0.640894
0.119722 0.000000 0.660578
0.610620 0.000000 0.655207
0.829068 0.000000 0.560388
1.000000 0.000000 0.516747
0.000000 0.340703 0.635035
0.000000 0.276585 0.653254
0.600275 0.184512 0.660883
0.810300 0.000000 0.559442
1.000000 0.000000 0.514397
0.000000 0.604364 0.642481
0.000000 0.603296 0.648798
0.543114 0.582116 0.667567
0.754757 0.472541 0.589258
1.000000 0.329992 0.548669
0.000000 0.779080 0.590082
0.000000 0.776699 0.585565
0.422461 0.776333 0.627771
0.779599 0.788449 0.743313
0.977813 0.786404 0.826505
0.000000 1.000000 0.609857
0.000000 1.000000 0.596246
0.130495 1.000000 0.604028
0.672389 0.984741 0.643091
0.947234 0.945434 0.882750
0.000000 0.189120 0.841245
0.000000 0.120272 0.854765
0.506737 0.000000 0.901488
0.846494 0.000000 0.883726
1.000000 0.000000 0.800900
0.000000 0.344884 0.832364
0.000000 0.317723 0.847440
0.492348 0.297215 0.891966
0.833799 0.161929 0.881041
1.000000 0.000000 0.802792
0.000000 0.559380 0.825284
0.000000 0.555657 0.828244
0.432929 0.555200 0.854826
0.807767 0.502159 0.881407
1.000000 0.345220 0.803098
0.000000 0.791501 0.835111
0.000000 0.787564 0.835508
0.320714 0.779568 0.844602
0.749508 0.781186 0.875792
1.000000 0.607935 0.769894
0.000000 1.000000 0.834531
0.000000 1.000000 0.828916
0.000000 1.000000 0.822232
0.564111 0.991638 0.803555
0.939117 0.945953 0.953552
0.000000 0.302251 1.000000
0.000000 0.258396 1.000000
0.409522 0.241794 1.000000
0.781613 0.202670 1.000000
1.000000 0.000000 0.982300
0.000000 0.413672 1.000000
0.000000 0.400031 1.000000
0.411414 0.367590 1.000000
0.779110 0.351995 1.000000
1.000000 0.161288 0.982452
0.000000 0.589899 1.000000
0.000000 0.579217 1.000000
0.360418 0.570672 1.000000
0.747555 0.546990 1.000000
0.989837 0.448859 0.982788
0.000000 0.808164 0.999695
0.000000 0.800687 0.999817
0.000000 0.778958 0.999176
0.656458 0.744106 0.997650
0.967102 0.730282 0.982635
0.000000 1.000000 0.986694
0.000000 1.000000 0.986694
0.000000 1.000000 0.985870
0.464546 0.994263 0.984039
0.938506 0.947875 0.980774
