其他预设/【233】日式怀旧街道调色预设208款/1.3D LUT预设（视频调色-PR-AE-PS-FCPX-达芬奇用）/1.日式城市街拍预设/JA – Cool Bright 1.cube
# Created by Adobe Lightroom plugin Export LUT (1.17.0)
# www.johnrellis.com/lightroom/exportlut.htm
# Preset: JA – Cool Bright 1
# Color profile: /Library/Application Support/Adobe/Color/Profiles/Recommended/AdobeRGB1998.icc
LUT_3D_SIZE 8
DOMAIN_MIN 0.000000 0.000000 0.000000
DOMAIN_MAX 0.903226 0.903226 0.903226
0.101320 0.105776 0.108919
0.133150 0.100862 0.111208
0.257572 0.020447 0.115419
0.479896 0.000000 0.096376
0.701167 0.000000 0.036927
0.873198 0.000000 0.000000
0.972351 0.000000 0.000000
1.000000 0.000000 0.000000
0.098817 0.134798 0.109834
0.130495 0.138491 0.104952
0.245701 0.126741 0.104707
0.457252 0.103273 0.086580
0.681971 0.000000 0.000000
0.856962 0.000000 0.000000
0.963043 0.000000 0.000000
1.000000 0.000000 0.000000
0.071046 0.240726 0.110353
0.122591 0.242405 0.098817
0.260044 0.267308 0.066041
0.453254 0.296757 0.000000
0.671809 0.303716 0.000000
0.849882 0.272831 0.000000
0.964538 0.216190 0.000000
1.000000 0.145724 0.000000
0.000000 0.429480 0.028443
0.106264 0.428473 0.014679
0.280034 0.436286 0.000000
0.522301 0.525261 0.000000
0.734401 0.533288 0.000000
0.840238 0.471778 0.000000
0.953124 0.424292 0.000000
1.000000 0.367529 0.000000
0.000000 0.640345 0.000000
0.000000 0.639216 0.000000
0.277104 0.638911 0.000000
0.480903 0.660945 0.000000
0.714565 0.713283 0.000000
0.870817 0.678401 0.000000
0.944213 0.597650 0.000000
1.000000 0.533165 0.000000
0.000000 0.796201 0.000000
0.000000 0.801419 0.000000
0.233799 0.798184 0.000000
0.443610 0.793149 0.000000
0.634424 0.808377 0.000000
0.832364 0.829709 0.000000
0.958740 0.782467 0.000000
1.000000 0.689326 0.000000
0.000000 0.907805 0.000000
0.000000 0.907897 0.000000
0.177096 0.903655 0.000000
0.396735 0.897948 0.000000
0.571771 0.888823 0.000000
0.736751 0.896208 0.000000
0.898741 0.896117 0.000000
1.000000 0.843778 0.000000
0.000000 0.973816 0.085695
0.000000 0.972992 0.075044
0.186404 0.970581 0.000000
0.369909 0.966674 0.000000
0.519310 0.956634 0.000000
0.664759 0.950134 0.000000
0.801205 0.944823 0.000000
0.935760 0.933349 0.000000
0.098909 0.110872 0.134035
0.127382 0.099672 0.136995
0.239109 0.076997 0.146365
0.461799 0.000000 0.133639
0.688197 0.000000 0.113802
0.856962 0.000000 0.092164
0.962219 0.000000 0.082673
1.000000 0.000000 0.096345
0.096651 0.128023 0.133547
0.127443 0.132692 0.136263
0.240360 0.124239 0.135836
0.451667 0.064057 0.126680
0.678004 0.000000 0.104250
0.847898 0.000000 0.079316
0.954833 0.000000 0.066346
1.000000 0.000000 0.080995
0.078370 0.230167 0.146609
0.118288 0.237308 0.134493
0.251225 0.257725 0.119051
0.435767 0.275639 0.102754
0.661860 0.277745 0.060670
0.837278 0.240177 0.000000
0.951690 0.180117 0.000000
1.000000 0.102052 0.029328
0.000000 0.417151 0.149325
0.000000 0.422553 0.106020
0.263798 0.430396 0.087404
0.492622 0.496071 0.000000
0.695796 0.497841 0.000000
0.816739 0.447700 0.000000
0.938781 0.405646 0.000000
1.000000 0.353887 0.000000
0.000000 0.635492 0.107027
0.000000 0.634546 0.000000
0.251438 0.631434 0.000000
0.460517 0.642664 0.000000
0.695613 0.694606 0.000000
0.857145 0.663050 0.000000
0.935241 0.586053 0.000000
1.000000 0.525078 0.000000
0.000000 0.788785 0.000000
0.000000 0.788968 0.000000
0.202090 0.786343 0.000000
0.427741 0.783566 0.000000
0.624140 0.800320 0.000000
0.828275 0.825620 0.000000
0.955444 0.777188 0.000000
1.000000 0.683986 0.000000
0.000000 0.900694 0.000000
0.000000 0.898833 0.000000
0.142763 0.895781 0.000000
0.384436 0.892149 0.000000
0.564294 0.884886 0.000000
0.731533 0.892271 0.000000
0.895171 0.892546 0.000000
0.998444 0.839750 0.000000
0.000000 0.971160 0.153811
0.000000 0.970703 0.151064
0.182528 0.968505 0.134615
0.367590 0.964935 0.103456
0.521843 0.958251 0.000000
0.664729 0.950408 0.000000
0.799771 0.944213 0.000000
0.934905 0.932494 0.000000
0.061341 0.134066 0.239261
0.100160 0.111910 0.241489
0.227329 0.055055 0.238956
0.410468 0.000000 0.272526
0.669734 0.000000 0.308507
0.865599 0.000000 0.321477
0.968475 0.000000 0.264439
1.000000 0.000000 0.272160
0.078706 0.150088 0.239902
0.112734 0.133974 0.242405
0.228916 0.108858 0.240543
0.421881 0.000000 0.269566
0.680507 0.000000 0.298161
0.861509 0.000000 0.282017
0.963348 0.000000 0.253666
1.000000 0.000000 0.264347
0.068727 0.226535 0.233463
0.115023 0.231235 0.237858
0.236332 0.243900 0.248569
0.461036 0.221897 0.243870
0.693965 0.176822 0.238895
0.853758 0.112978 0.235142
0.956847 0.000000 0.238193
1.000000 0.000000 0.250858
0.000000 0.408637 0.283970
0.000000 0.418738 0.279728
0.210025 0.448310 0.236820
0.486641 0.490333 0.212222
0.683925 0.460945 0.198825
0.833799 0.420111 0.198306
0.946075 0.378180 0.207767
1.000000 0.339025 0.226261
0.000000 0.626947 0.303990
0.000000 0.632136 0.289860
0.155062 0.645258 0.215518
0.437293 0.643091 0.191806
0.696620 0.695460 0.132509
0.853544 0.645655 0.112306
0.930236 0.567529 0.140627
1.000000 0.513390 0.176730
0.000000 0.785519 0.290929
0.000000 0.787564 0.277531
0.083650 0.790524 0.202152
0.398352 0.785092 0.176699
0.607752 0.792935 0.126772
0.822538 0.819883 0.000000
0.949798 0.766110 0.000000
1.000000 0.674739 0.000000
0.000000 0.899168 0.294469
0.000000 0.898344 0.289158
0.091463 0.897215 0.223911
0.368048 0.891905 0.199680
0.552911 0.884001 0.156802
0.725673 0.889891 0.028687
0.895109 0.892546 0.000000
0.997467 0.835813 0.000000
0.107790 0.966125 0.354192
0.177310 0.964996 0.355077
0.228000 0.965148 0.304906
0.387640 0.962432 0.296544
0.528222 0.956207 0.265995
0.667018 0.948363 0.214694
0.798459 0.943511 0.000000
0.934783 0.932464 0.000000
0.000000 0.158297 0.437476
0.000000 0.116518 0.437385
0.259007 0.000000 0.423102
0.397589 0.000000 0.405371
0.568261 0.000000 0.409216
0.798367 0.000000 0.442267
0.939849 0.000000 0.445991
1.000000 0.112612 0.484321
0.000000 0.141573 0.445014
0.000000 0.130159 0.442969
0.252293 0.065766 0.430945
0.404456 0.000000 0.411841
0.576593 0.000000 0.408392
0.803861 0.000000 0.439368
0.939666 0.000000 0.449104
1.000000 0.229160 0.498268
0.000000 0.309789 0.447028
0.000000 0.307988 0.451453
0.207614 0.241123 0.448859
0.422431 0.168032 0.428626
0.629725 0.023163 0.424506
0.833341 0.119265 0.455116
0.945800 0.310369 0.504417
1.000000 0.319707 0.491096
0.000000 0.422065 0.427741
0.000000 0.426825 0.432074
0.217685 0.441535 0.445075
0.459602 0.463020 0.462928
0.682490 0.441993 0.456184
0.837003 0.422858 0.451789
0.939300 0.411780 0.452247
1.000000 0.412421 0.459388
0.000000 0.618463 0.469306
0.000000 0.621637 0.466194
0.157168 0.635584 0.458473
0.434241 0.657313 0.446845
0.688014 0.686030 0.440284
0.829404 0.624750 0.419654
0.925383 0.572320 0.413367
0.994293 0.539117 0.425055
0.000000 0.784115 0.464973
0.000000 0.790005 0.463966
0.164981 0.791592 0.453223
0.413031 0.794583 0.435035
0.605890 0.787167 0.410407
0.819821 0.816678 0.415900
0.935790 0.758907 0.402533
0.988830 0.678523 0.381323
0.000000 0.895323 0.450782
0.000000 0.895537 0.450141
0.229679 0.894377 0.452766
0.411048 0.892576 0.438972
0.567468 0.885740 0.414618
0.729427 0.886046 0.393591
0.893187 0.890196 0.381079
0.986450 0.832731 0.366308
0.145754 0.964538 0.472419
0.216709 0.963500 0.477150
0.358434 0.959167 0.493477
0.457954 0.955993 0.482338
0.564172 0.950988 0.460456
0.683009 0.943725 0.429786
0.804654 0.939818 0.381598
0.933318 0.930907 0.297185
0.000000 0.145113 0.643610
0.000000 0.118654 0.640620
0.252537 0.000000 0.623774
0.429969 0.000000 0.597131
0.581048 0.000000 0.578027
0.728359 0.000000 0.555077
0.890990 0.000000 0.547875
0.996612 0.000000 0.539025
0.000000 0.136324 0.643915
0.000000 0.120974 0.643061
0.239384 0.000000 0.630396
0.426062 0.000000 0.602289
0.585534 0.000000 0.582269
0.731594 0.000000 0.553521
0.894804 0.000000 0.547051
0.996094 0.000000 0.542473
0.000000 0.341497 0.657313
0.000000 0.325353 0.656489
0.154360 0.240543 0.645563
0.409613 0.135744 0.620539
0.597986 0.000000 0.594049
0.737118 0.000000 0.543755
0.903410 0.000000 0.548699
0.990967 0.199954 0.564446
0.000000 0.500603 0.651301
0.000000 0.501915 0.653590
0.288212 0.513237 0.661707
0.438087 0.457984 0.651972
0.624659 0.366155 0.618402
0.774533 0.322942 0.569055
0.913024 0.414374 0.598169
0.976623 0.529442 0.643488
0.000000 0.624659 0.625116
0.000000 0.627192 0.627283
0.214908 0.633661 0.632532
0.468421 0.644648 0.641199
0.659144 0.655940 0.649866
0.809018 0.637629 0.640345
0.909972 0.624659 0.634516
0.972259 0.618647 0.633326
0.000000 0.763851 0.619776
0.000000 0.765377 0.619196
0.129519 0.767941 0.615839
0.424170 0.772610 0.616876
0.619654 0.778744 0.617151
0.806119 0.801663 0.628870
0.906279 0.752102 0.607599
0.967742 0.706233 0.594965
0.000000 0.886656 0.600519
0.000000 0.885893 0.599542
0.218570 0.883909 0.599176
0.445441 0.880644 0.606622
0.606867 0.877317 0.609247
0.734585 0.871550 0.586450
0.887419 0.883360 0.607080
0.966369 0.832883 0.585473
0.119112 0.958618 0.588220
0.196475 0.957427 0.589868
0.343694 0.953399 0.597436
0.511070 0.947478 0.622400
0.624903 0.941131 0.628260
0.712520 0.936034 0.605066
0.817990 0.932097 0.585168
0.929900 0.926604 0.563500
0.000000 0.162264 0.795163
0.000000 0.138216 0.792996
0.178073 0.000000 0.782528
0.414740 0.000000 0.765499
0.581811 0.000000 0.741390
0.734981 0.000000 0.724697
0.861295 0.000000 0.683619
0.973236 0.000000 0.639887
0.000000 0.144869 0.790066
0.000000 0.120119 0.787655
0.181552 0.000000 0.780148
0.403967 0.000000 0.765347
0.576501 0.000000 0.740230
0.733761 0.000000 0.723537
0.860380 0.000000 0.680354
0.973358 0.000000 0.637537
0.000000 0.325872 0.798184
0.000000 0.293370 0.796780
0.075166 0.246311 0.789883
0.377173 0.157382 0.777920
0.568261 0.000000 0.750759
0.741054 0.000000 0.730526
0.864012 0.000000 0.674556
0.976501 0.000000 0.634577
0.162905 0.552056 0.805905
0.225193 0.549340 0.804471
0.356634 0.539666 0.800809
0.433356 0.469306 0.794491
0.575463 0.350866 0.772061
0.757321 0.254002 0.746181
0.870817 0.029114 0.669368
0.976501 0.234867 0.651453
0.000000 0.656031 0.789334
0.184543 0.659083 0.790097
0.382605 0.671382 0.792264
0.571954 0.696895 0.796170
0.648280 0.655268 0.784878
0.765103 0.556481 0.753140
0.874662 0.497597 0.688228
0.958831 0.604486 0.720180
0.000000 0.765194 0.764401
0.000000 0.767330 0.766262
0.297520 0.770230 0.768246
0.502129 0.774533 0.771023
0.666743 0.779507 0.774105
0.793759 0.788418 0.781186
0.886900 0.777951 0.775540
0.945129 0.771450 0.772366
0.000000 0.882078 0.750637
0.000000 0.881926 0.751247
0.255070 0.878569 0.751217
0.462959 0.874266 0.751034
0.636896 0.869383 0.754421
0.768429 0.867491 0.759365
0.882475 0.877775 0.769314
0.943267 0.840879 0.747097
0.149386 0.953185 0.716091
0.214481 0.951965 0.716487
0.353460 0.947997 0.718715
0.508690 0.941619 0.727108
0.653071 0.932830 0.742580
0.759548 0.925963 0.753079
0.835050 0.922240 0.737148
0.926085 0.922057 0.748531
0.000000 0.211368 0.883848
0.000000 0.195102 0.883848
0.000000 0.117067 0.880735
0.352087 0.000000 0.874571
0.537346 0.000000 0.863554
0.696407 0.000000 0.848142
0.847471 0.000000 0.835966
0.956512 0.000000 0.784237
0.000000 0.200656 0.881285
0.000000 0.184298 0.881163
0.000000 0.103670 0.878172
0.349401 0.000000 0.871946
0.529381 0.000000 0.860899
0.690608 0.000000 0.844388
0.842924 0.000000 0.831388
0.952789 0.000000 0.779232
0.000000 0.295842 0.884367
0.000000 0.287663 0.883665
0.000000 0.255741 0.880705
0.326299 0.181064 0.875242
0.511772 0.000000 0.864225
0.683162 0.000000 0.847013
0.846738 0.000000 0.835142
0.956634 0.000000 0.776211
0.298558 0.554864 0.882536
0.328069 0.554070 0.881529
0.376837 0.533440 0.879576
0.410559 0.461891 0.877256
0.521874 0.361364 0.868986
0.675105 0.114656 0.852720
0.851713 0.000000 0.840208
0.958465 0.000000 0.768521
0.390631 0.682368 0.877012
0.425605 0.687282 0.876463
0.530053 0.707149 0.875486
0.611048 0.708003 0.872862
0.626184 0.642786 0.867765
0.689540 0.510460 0.854154
0.848936 0.417243 0.837217
0.952331 0.301915 0.758877
0.329900 0.759670 0.867216
0.370367 0.762142 0.867247
0.483528 0.771481 0.867277
0.619715 0.788449 0.867918
0.740505 0.810178 0.869780
0.782223 0.783566 0.863767
0.853574 0.696864 0.841917
0.938018 0.644190 0.785031
0.224521 0.855192 0.855436
0.280491 0.855772 0.855863
0.410040 0.856718 0.856046
0.557733 0.858457 0.856565
0.690333 0.860227 0.856870
0.796689 0.863279 0.858396
0.872679 0.867918 0.861875
0.925597 0.860716 0.857267
0.187686 0.946288 0.835355
0.243748 0.945190 0.835355
0.380133 0.941955 0.836759
0.523583 0.935180 0.838071
0.659022 0.926482 0.839750
0.775113 0.918944 0.843412
0.857145 0.914977 0.848051
0.922026 0.918120 0.854704
0.000000 0.322881 0.934203
0.000000 0.310643 0.934417
0.000000 0.260655 0.934081
0.270603 0.145998 0.933684
0.456184 0.000000 0.931945
0.627222 0.000000 0.928038
0.779782 0.000000 0.923613
0.927825 0.000000 0.918486
0.000000 0.317845 0.933715
0.000000 0.305882 0.933898
0.000000 0.256901 0.933684
0.271580 0.141604 0.933074
0.456001 0.000000 0.931273
0.623011 0.000000 0.927306
0.776944 0.000000 0.922393
0.926452 0.000000 0.917082
0.000000 0.314733 0.933837
0.000000 0.302708 0.933898
0.000000 0.267979 0.933196
0.276127 0.205844 0.933104
0.445502 0.000000 0.931182
0.608423 0.000000 0.927214
0.769924 0.000000 0.922057
0.926116 0.000000 0.916716
0.370153 0.557885 0.926329
0.364996 0.546990 0.926848
0.337591 0.499947 0.928283
0.389410 0.453742 0.928649
0.473487 0.366888 0.928649
0.597070 0.174746 0.927062
0.758938 0.000000 0.922667
0.926421 0.000000 0.917082
0.516503 0.700618 0.919707
0.532341 0.702876 0.919554
0.572961 0.705715 0.918700
0.623499 0.702907 0.917815
0.603326 0.628138 0.920073
0.639216 0.516136 0.920867
0.749538 0.278935 0.919768
0.923735 0.190066 0.914427
0.525139 0.767208 0.915557
0.545342 0.770626 0.915068
0.607996 0.782681 0.913725
0.693782 0.802853 0.912230
0.755520 0.810971 0.911376
0.760769 0.767788 0.912139
0.787594 0.656550 0.912810
0.918456 0.576684 0.909209
0.477638 0.827481 0.911894
0.499428 0.829038 0.911559
0.566278 0.834440 0.910613
0.660426 0.844694 0.909575
0.756069 0.858701 0.908812
0.836759 0.875395 0.909361
0.863279 0.862486 0.908690
0.910582 0.797635 0.901457
0.411444 0.906432 0.907958
0.436347 0.906432 0.907774
0.513207 0.906615 0.907347
0.617700 0.907042 0.906767
0.722255 0.907683 0.906157
0.809659 0.908782 0.905974
0.874479 0.910552 0.906645
0.916594 0.912902 0.908324
