其他预设/【233】日式怀旧街道调色预设208款/1.3D LUT预设（视频调色-PR-AE-PS-FCPX-达芬奇用）/1.日式城市街拍预设/JA – Neon 1.cube
# Created by Adobe Lightroom plugin Export LUT (1.17.0)
# www.johnrellis.com/lightroom/exportlut.htm
# Preset: JA – Neon 1
# Color profile: /Library/Application Support/Adobe/Color/Profiles/Recommended/AdobeRGB1998.icc
LUT_3D_SIZE 5
DOMAIN_MIN 0.000000 0.000000 0.000000
DOMAIN_MAX 0.903226 0.903226 0.903226
0.091188 0.081727 0.082094
0.167422 0.075349 0.081300
0.410193 0.035615 0.053407
0.744869 0.000000 0.000000
0.985504 0.000000 0.000000
0.078676 0.164309 0.071534
0.178408 0.164065 0.067170
0.444190 0.195438 0.000000
0.769497 0.218692 0.000000
0.991791 0.208682 0.000000
0.000000 0.454475 0.000000
0.227420 0.466011 0.000000
0.507897 0.487861 0.000000
0.829557 0.512535 0.000000
0.999268 0.451514 0.000000
0.000000 0.810605 0.000000
0.145968 0.814481 0.000000
0.537316 0.821134 0.000000
0.807767 0.802823 0.000000
0.994842 0.719142 0.000000
0.000000 0.979980 0.000000
0.000000 0.977508 0.000000
0.423529 0.967498 0.000000
0.699397 0.953124 0.000000
0.928557 0.930785 0.000000
0.098054 0.078859 0.164858
0.183352 0.062074 0.164950
0.413794 0.000000 0.160861
0.712520 0.000000 0.113954
0.976379 0.000000 0.024933
0.081239 0.158297 0.160037
0.176150 0.158785 0.159335
0.422797 0.142428 0.144228
0.741604 0.117556 0.100374
0.981659 0.111238 0.000000
0.000000 0.439887 0.190219
0.115846 0.455726 0.105165
0.488899 0.467781 0.053162
0.821378 0.479530 0.000000
0.995392 0.428779 0.000000
0.000000 0.803494 0.082063
0.000000 0.811124 0.000000
0.507500 0.818082 0.000000
0.805478 0.800015 0.000000
0.994934 0.707851 0.000000
0.000000 0.979889 0.000000
0.000000 0.979034 0.000000
0.388128 0.970825 0.000000
0.690272 0.954925 0.000000
0.929107 0.931243 0.000000
0.153231 0.000000 0.466255
0.282048 0.000000 0.467750
0.504814 0.000000 0.463416
0.801846 0.000000 0.472633
0.980713 0.000000 0.371527
0.000000 0.176883 0.462165
0.220310 0.152956 0.462745
0.505089 0.000000 0.464393
0.787381 0.000000 0.443153
0.977050 0.000000 0.343053
0.000000 0.436561 0.439002
0.071931 0.438025 0.439673
0.471992 0.443091 0.437812
0.766232 0.408850 0.397406
0.977539 0.388434 0.366888
0.000000 0.774166 0.474098
0.000000 0.778775 0.455482
0.433021 0.797543 0.407202
0.800687 0.791958 0.402014
0.982788 0.700099 0.415625
0.000000 0.973266 0.396094
0.000000 0.972961 0.376898
0.357916 0.967437 0.342046
0.688411 0.951995 0.337499
0.928069 0.928435 0.245426
0.219821 0.000000 0.794919
0.339330 0.000000 0.795773
0.583825 0.000000 0.801694
0.835172 0.000000 0.795651
0.988403 0.000000 0.707240
0.078340 0.164920 0.794034
0.286046 0.139193 0.795682
0.564935 0.000000 0.798611
0.830381 0.000000 0.791440
0.984466 0.000000 0.706600
0.000000 0.478492 0.784207
0.127504 0.475776 0.785489
0.526513 0.474556 0.785641
0.816281 0.451392 0.782010
0.967712 0.462287 0.700069
0.000000 0.750820 0.757168
0.000000 0.750362 0.755795
0.443641 0.754147 0.754574
0.777279 0.761990 0.751125
0.940612 0.721340 0.705379
0.000000 0.963226 0.692226
0.000000 0.962310 0.685695
0.371893 0.954437 0.679347
0.761837 0.932769 0.740230
0.925322 0.921019 0.733852
0.288426 0.021027 0.945586
0.364050 0.000000 0.945403
0.544854 0.000000 0.944640
0.761440 0.000000 0.943267
0.967712 0.000000 0.938933
0.293553 0.250736 0.944366
0.367864 0.245762 0.944152
0.547204 0.226566 0.943236
0.761440 0.187808 0.941772
0.964782 0.194644 0.937285
0.362158 0.517266 0.937743
0.461067 0.545434 0.936126
0.609064 0.560327 0.934508
0.778378 0.555749 0.933379
0.952270 0.555871 0.929686
0.302190 0.701961 0.930022
0.415625 0.714290 0.928923
0.648768 0.760861 0.924498
0.824033 0.807279 0.920409
0.934508 0.803983 0.918883
0.000000 0.905486 0.919280
0.162966 0.906157 0.918791
0.535088 0.908446 0.916014
0.794064 0.912810 0.912261
0.922210 0.916869 0.910857
