其他预设/【233】日式怀旧街道调色预设208款/1.3D LUT预设（视频调色-PR-AE-PS-FCPX-达芬奇用）/1.日式城市街拍预设/JA – Static Pop 1.cube
# Created by Adobe Lightroom plugin Export LUT (1.17.0)
# www.johnrellis.com/lightroom/exportlut.htm
# Preset: JA – Static Pop 1
# Color profile: /Library/Application Support/Adobe/Color/Profiles/Recommended/AdobeRGB1998.icc
LUT_3D_SIZE 8
DOMAIN_MIN 0.000000 0.000000 0.000000
DOMAIN_MAX 0.903226 0.903226 0.903226
0.082673 0.085573 0.088777
0.118410 0.078004 0.088228
0.268437 0.000000 0.080751
0.505760 0.000000 0.000000
0.762203 0.000000 0.000000
0.947356 0.058778 0.000000
1.000000 0.092775 0.000000
1.000000 0.085573 0.000000
0.077913 0.112398 0.086336
0.114931 0.113710 0.085664
0.264195 0.120638 0.072908
0.497902 0.138979 0.000000
0.757443 0.164767 0.000000
0.938689 0.179141 0.000000
1.000000 0.177981 0.000000
1.000000 0.161715 0.000000
0.000000 0.236698 0.057832
0.121950 0.238895 0.049622
0.243107 0.230137 0.040009
0.498848 0.307866 0.000000
0.764981 0.351537 0.000000
0.939971 0.349645 0.000000
1.000000 0.327123 0.000000
1.000000 0.294469 0.000000
0.000000 0.449836 0.000000
0.133700 0.450507 0.000000
0.319493 0.456428 0.000000
0.468910 0.435981 0.000000
0.760342 0.520531 0.000000
0.944579 0.516472 0.000000
1.000000 0.477089 0.000000
1.000000 0.431556 0.000000
0.000000 0.701076 0.000000
0.077668 0.700954 0.000000
0.352880 0.703120 0.000000
0.551171 0.686671 0.000000
0.698451 0.640345 0.000000
0.909850 0.660578 0.000000
1.000000 0.623224 0.000000
1.000000 0.568383 0.000000
0.000000 0.879393 0.000000
0.000000 0.882109 0.000000
0.329564 0.878935 0.000000
0.549157 0.873442 0.000000
0.729976 0.841825 0.000000
0.881987 0.803525 0.000000
1.000000 0.762692 0.000000
1.000000 0.702144 0.000000
0.000000 0.985840 0.000000
0.000000 0.985168 0.000000
0.279210 0.980499 0.000000
0.494636 0.972992 0.000000
0.681575 0.958129 0.000000
0.846983 0.933623 0.000000
0.993744 0.906645 0.000000
1.000000 0.831876 0.000000
0.000000 1.000000 0.000000
0.000000 1.000000 0.000000
0.217380 1.000000 0.000000
0.432380 1.000000 0.000000
0.610224 1.000000 0.000000
0.774563 1.000000 0.000000
0.925628 0.991760 0.000000
1.000000 0.972961 0.000000
0.082216 0.089693 0.110475
0.103853 0.081849 0.112398
0.245640 0.000000 0.107668
0.477699 0.000000 0.075929
0.742245 0.000000 0.000000
0.931304 0.000000 0.000000
1.000000 0.002167 0.000000
1.000000 0.079713 0.000000
0.077577 0.104402 0.112520
0.105531 0.109071 0.113283
0.243931 0.110964 0.103822
0.476661 0.120912 0.066438
0.741238 0.134798 0.000000
0.927550 0.145785 0.000000
1.000000 0.154055 0.000000
1.000000 0.156771 0.000000
0.000000 0.226780 0.121431
0.096132 0.228428 0.103944
0.234562 0.224186 0.096254
0.482094 0.288823 0.000000
0.744869 0.325689 0.000000
0.927886 0.325078 0.000000
1.000000 0.308843 0.000000
1.000000 0.287694 0.000000
0.000000 0.436805 0.085145
0.000000 0.438361 0.000000
0.296757 0.448219 0.000000
0.450385 0.420417 0.000000
0.734401 0.496529 0.000000
0.927886 0.496986 0.000000
1.000000 0.462531 0.000000
1.000000 0.424018 0.000000
0.000000 0.693141 0.000000
0.000000 0.692317 0.000000
0.318914 0.692561 0.000000
0.532189 0.675441 0.000000
0.682643 0.627039 0.000000
0.900999 0.650233 0.000000
1.000000 0.615351 0.000000
1.000000 0.561547 0.000000
0.000000 0.874022 0.000000
0.000000 0.873472 0.000000
0.293980 0.870787 0.000000
0.531304 0.866697 0.000000
0.720699 0.837675 0.000000
0.877653 0.800015 0.000000
1.000000 0.758968 0.000000
1.000000 0.697841 0.000000
0.000000 0.982635 0.000000
0.000000 0.981048 0.000000
0.247501 0.976989 0.000000
0.480537 0.970459 0.000000
0.673884 0.956939 0.000000
0.842161 0.931792 0.000000
0.990021 0.903593 0.000000
1.000000 0.828702 0.000000
0.000000 1.000000 0.000000
0.000000 1.000000 0.000000
0.190646 1.000000 0.000000
0.421698 1.000000 0.000000
0.604944 1.000000 0.000000
0.771206 1.000000 0.000000
0.923369 0.991577 0.000000
1.000000 0.972076 0.000000
0.052277 0.108461 0.218845
0.064149 0.105959 0.219150
0.200320 0.039918 0.214603
0.421851 0.000000 0.252873
0.720729 0.000000 0.210391
0.924926 0.000000 0.150454
1.000000 0.000000 0.094575
1.000000 0.000000 0.000000
0.060945 0.126192 0.217166
0.084260 0.122133 0.220218
0.202213 0.094850 0.216434
0.432746 0.000000 0.241367
0.720089 0.000000 0.178073
0.921050 0.000000 0.145480
1.000000 0.000000 0.083803
1.000000 0.000000 0.000000
0.000000 0.217227 0.230167
0.027405 0.217136 0.229160
0.204990 0.211673 0.219242
0.446693 0.213931 0.203952
0.725673 0.223575 0.175509
0.921538 0.227817 0.130800
1.000000 0.226200 0.048707
1.000000 0.213718 0.000000
0.000000 0.425299 0.284367
0.000000 0.427344 0.270573
0.196384 0.430884 0.209201
0.436072 0.413397 0.188418
0.729610 0.468696 0.156222
0.921721 0.458991 0.102266
1.000000 0.427283 0.000000
1.000000 0.388769 0.000000
0.000000 0.682368 0.298375
0.000000 0.682856 0.270726
0.167269 0.681300 0.174655
0.494942 0.677729 0.148287
0.676631 0.625360 0.096132
0.899992 0.637842 0.000000
1.000000 0.600183 0.000000
1.000000 0.542840 0.000000
0.000000 0.870390 0.246372
0.000000 0.870146 0.214755
0.136294 0.866850 0.136355
0.482338 0.861570 0.099367
0.699947 0.836332 0.000000
0.868772 0.795010 0.000000
1.000000 0.751644 0.000000
1.000000 0.688655 0.000000
0.000000 0.983124 0.177920
0.000000 0.981903 0.159457
0.139925 0.977325 0.132692
0.445167 0.969970 0.092653
0.655299 0.958221 0.000000
0.831998 0.932494 0.000000
0.987549 0.903899 0.000000
1.000000 0.826169 0.000000
0.000000 1.000000 0.129305
0.000000 1.000000 0.142580
0.130953 1.000000 0.117769
0.402045 1.000000 0.067720
0.590997 1.000000 0.000000
0.761013 1.000000 0.000000
0.917021 0.992279 0.000000
1.000000 0.972442 0.000000
0.000000 0.139773 0.427436
0.000000 0.140047 0.428840
0.209476 0.000000 0.415473
0.365148 0.000000 0.385657
0.596033 0.000000 0.421118
0.885618 0.000000 0.418280
1.000000 0.000000 0.355718
1.000000 0.000000 0.318669
0.000000 0.157565 0.432074
0.000000 0.149203 0.431861
0.200687 0.087221 0.419287
0.368261 0.000000 0.388617
0.607538 0.000000 0.422431
0.885893 0.000000 0.409064
1.000000 0.000000 0.350896
1.000000 0.000000 0.314549
0.000000 0.287663 0.436194
0.000000 0.284794 0.435035
0.194461 0.253544 0.425238
0.374365 0.181643 0.394476
0.647211 0.140993 0.419409
0.895995 0.000000 0.383368
1.000000 0.098634 0.359564
1.000000 0.147463 0.315557
0.000000 0.427741 0.449409
0.000000 0.425605 0.446784
0.130648 0.419165 0.437690
0.380774 0.388647 0.399786
0.673701 0.397040 0.392920
0.893706 0.401892 0.380743
1.000000 0.396460 0.359319
1.000000 0.369665 0.313695
0.000000 0.668452 0.502586
0.000000 0.667994 0.494087
0.000000 0.665522 0.463081
0.394141 0.652522 0.409613
0.648951 0.614038 0.371008
0.889250 0.627558 0.384710
1.000000 0.592584 0.369574
1.000000 0.538048 0.314580
0.000000 0.866575 0.490791
0.000000 0.868956 0.481819
0.000000 0.864469 0.449012
0.409003 0.853788 0.419471
0.672480 0.839994 0.397681
0.855192 0.792264 0.331304
0.996704 0.749203 0.328283
1.000000 0.690944 0.313329
0.000000 0.981292 0.435370
0.000000 0.980774 0.428779
0.000000 0.976867 0.419989
0.429419 0.967224 0.436103
0.642603 0.957183 0.419898
0.819425 0.934508 0.367376
0.978393 0.903288 0.285710
1.000000 0.824674 0.235447
0.000000 1.000000 0.373663
0.000000 1.000000 0.374945
0.014923 1.000000 0.399908
0.431891 1.000000 0.436439
0.599023 1.000000 0.413275
0.757565 1.000000 0.373388
0.907500 0.992340 0.296086
1.000000 0.972473 0.188846
0.000000 0.198825 0.670863
0.000000 0.199100 0.671595
0.129580 0.093507 0.656611
0.387854 0.000000 0.620020
0.566796 0.000000 0.583886
0.776699 0.000000 0.591730
0.980041 0.000000 0.579034
1.000000 0.000000 0.522179
0.000000 0.199557 0.672816
0.000000 0.198520 0.673915
0.133852 0.135683 0.660090
0.382696 0.000000 0.623438
0.569085 0.000000 0.586206
0.777646 0.000000 0.591272
0.982116 0.000000 0.577173
1.000000 0.000000 0.525475
0.000000 0.377295 0.680446
0.000000 0.369787 0.679408
0.142519 0.315587 0.668757
0.370123 0.201114 0.634821
0.573632 0.084962 0.589960
0.782162 0.211185 0.590265
0.987457 0.060456 0.570184
1.000000 0.241245 0.540612
0.000000 0.503502 0.684016
0.000000 0.502403 0.683284
0.223209 0.505028 0.681270
0.423651 0.472267 0.654170
0.580194 0.358953 0.594720
0.819821 0.390356 0.598718
0.988983 0.402899 0.579522
1.000000 0.442573 0.562615
0.000000 0.668147 0.689906
0.000000 0.667140 0.688533
0.000000 0.660334 0.679713
0.373938 0.639948 0.655207
0.579217 0.581079 0.590845
0.842710 0.597314 0.596216
0.984894 0.601282 0.591638
1.000000 0.576043 0.558618
0.000000 0.850462 0.681575
0.000000 0.850431 0.677058
0.000000 0.847044 0.659968
0.282841 0.836667 0.636652
0.608820 0.814572 0.613642
0.819425 0.778470 0.563500
0.976013 0.766140 0.600488
1.000000 0.721950 0.575677
0.000000 0.976989 0.628351
0.000000 0.976318 0.623621
0.000000 0.972930 0.611994
0.345892 0.962799 0.613733
0.644984 0.945586 0.644251
0.810941 0.932158 0.620050
0.957733 0.899504 0.535180
1.000000 0.833982 0.520226
0.000000 1.000000 0.550530
0.000000 1.000000 0.547631
0.000000 1.000000 0.547570
0.387976 1.000000 0.587945
0.655238 1.000000 0.652003
0.780148 1.000000 0.632410
0.901213 0.989654 0.572717
1.000000 0.971099 0.486091
0.000000 0.295598 0.848539
0.000000 0.295659 0.848631
0.000000 0.232914 0.842496
0.356237 0.000000 0.824613
0.562036 0.000000 0.791684
0.760983 0.000000 0.765652
0.924315 0.000000 0.737270
1.000000 0.234226 0.712001
0.000000 0.293980 0.846738
0.000000 0.293767 0.846555
0.000000 0.224308 0.840299
0.351171 0.048249 0.824735
0.557946 0.000000 0.792325
0.759854 0.000000 0.764523
0.923125 0.000000 0.736355
1.000000 0.264836 0.711879
0.000000 0.429480 0.850431
0.000000 0.425025 0.849729
0.171725 0.394293 0.845701
0.362493 0.304509 0.832853
0.552453 0.000000 0.800748
0.763088 0.000000 0.766903
0.922057 0.268894 0.737606
1.000000 0.359319 0.714199
0.000000 0.563500 0.853056
0.144167 0.570550 0.853269
0.403632 0.600671 0.852873
0.496315 0.568383 0.843931
0.571740 0.416083 0.814694
0.770352 0.327184 0.772244
0.919677 0.474922 0.746426
1.000000 0.487831 0.721675
0.000000 0.681270 0.854276
0.000000 0.683040 0.854093
0.274235 0.692134 0.852415
0.553216 0.715694 0.846708
0.676448 0.697047 0.822904
0.767117 0.555962 0.766964
0.934142 0.620233 0.757412
1.000000 0.649195 0.747219
0.000000 0.829007 0.847990
0.000000 0.829740 0.848112
0.000000 0.829282 0.845640
0.391669 0.825803 0.838346
0.631373 0.812284 0.819974
0.765377 0.757931 0.761837
0.943694 0.781216 0.777646
1.000000 0.776333 0.768093
0.000000 0.973419 0.811948
0.000000 0.973449 0.809995
0.000000 0.970855 0.801999
0.109163 0.962768 0.789334
0.583032 0.943847 0.787411
0.806943 0.921782 0.798032
0.928832 0.895628 0.746578
1.000000 0.874266 0.768368
0.000000 1.000000 0.719844
0.000000 1.000000 0.716457
0.000000 1.000000 0.708095
0.031006 1.000000 0.710811
0.604120 1.000000 0.754269
0.820035 0.992279 0.809262
0.910246 0.984924 0.787930
1.000000 0.969757 0.719112
0.135927 0.429725 0.940703
0.134768 0.429389 0.940551
0.158328 0.406348 0.940307
0.306859 0.263279 0.937377
0.501823 0.000000 0.928954
0.693385 0.000000 0.908293
0.897673 0.000000 0.894926
1.000000 0.194339 0.840360
0.142245 0.431312 0.941375
0.141573 0.431128 0.941253
0.170962 0.400366 0.940887
0.312047 0.259739 0.937896
0.501854 0.000000 0.930236
0.691920 0.000000 0.910155
0.899046 0.000000 0.896117
1.000000 0.252995 0.841611
0.207401 0.475166 0.941009
0.214298 0.480568 0.940917
0.306767 0.483162 0.940185
0.386297 0.417273 0.938262
0.514214 0.280888 0.931548
0.686397 0.000000 0.912596
0.899199 0.000000 0.895811
1.000000 0.378882 0.843076
0.388556 0.624781 0.938262
0.391272 0.626917 0.938293
0.472023 0.638117 0.938018
0.574578 0.644648 0.935180
0.590814 0.537469 0.930541
0.689418 0.312871 0.914855
0.898528 0.297795 0.894316
0.998230 0.533013 0.848417
0.285588 0.695308 0.939788
0.322148 0.699855 0.939635
0.501488 0.730098 0.937835
0.689113 0.781399 0.934447
0.749172 0.773312 0.929351
0.741238 0.626276 0.916228
0.897948 0.543084 0.892210
0.988434 0.689631 0.861418
0.000000 0.785428 0.939605
0.000000 0.788235 0.939330
0.352483 0.800290 0.938079
0.599512 0.824796 0.935271
0.779141 0.856443 0.931914
0.853025 0.855863 0.921538
0.894591 0.743404 0.886809
0.990814 0.800168 0.876646
0.000000 0.915373 0.935119
0.000000 0.915709 0.934905
0.000000 0.916930 0.934142
0.412787 0.918791 0.932067
0.675959 0.920348 0.928466
0.828733 0.917906 0.921172
0.892882 0.883482 0.883268
0.993530 0.898741 0.893919
0.000000 1.000000 0.892027
0.000000 1.000000 0.890349
0.000000 1.000000 0.884337
0.000000 1.000000 0.876310
0.479835 1.000000 0.873960
0.778256 0.993042 0.889799
0.917205 0.979706 0.907347
0.988525 0.968170 0.873442
0.487678 0.604242 0.988861
0.487526 0.604150 0.988830
0.488502 0.604791 0.988952
0.465919 0.529198 0.992279
0.484596 0.358770 0.996368
0.606622 0.000000 0.997436
0.791531 0.000000 0.992065
0.984039 0.000000 0.982788
0.489540 0.605463 0.989105
0.489479 0.605402 0.989075
0.490150 0.605859 0.989166
0.467445 0.529137 0.992584
0.485847 0.359411 0.996704
0.607141 0.000000 0.997528
0.790005 0.000000 0.992493
0.984192 0.000000 0.982910
0.493507 0.608118 0.989563
0.493599 0.608148 0.989563
0.494667 0.608820 0.989715
0.471168 0.532860 0.993103
0.514916 0.432654 0.995514
0.617090 0.230594 0.996460
0.784268 0.000000 0.992889
0.983642 0.000000 0.982147
0.547234 0.664454 0.987579
0.549493 0.666865 0.987427
0.558129 0.675898 0.986999
0.644587 0.706081 0.985565
0.641596 0.637751 0.988495
0.667140 0.495613 0.991821
0.778347 0.000000 0.992126
0.981842 0.326940 0.979858
0.661585 0.778500 0.980652
0.661189 0.778164 0.980652
0.659724 0.776577 0.980926
0.684321 0.777279 0.981659
0.787076 0.812833 0.980468
0.774197 0.732784 0.983459
0.801968 0.519554 0.987030
0.978363 0.559930 0.975372
0.576043 0.805203 0.983551
0.576501 0.805386 0.983581
0.578576 0.805600 0.983703
0.670558 0.826658 0.981689
0.821744 0.876005 0.977600
0.880919 0.889189 0.977966
0.871000 0.797787 0.977600
0.973388 0.747951 0.969238
0.373297 0.856779 0.986328
0.373053 0.857023 0.986358
0.374121 0.857450 0.986511
0.535424 0.870573 0.984619
0.757321 0.902159 0.980621
0.887266 0.931426 0.978637
0.941436 0.941924 0.978302
0.970459 0.881285 0.965515
0.000000 0.960418 0.986206
0.000000 0.961273 0.986236
0.000000 0.963806 0.986267
0.064179 0.966766 0.985016
0.613245 0.969757 0.981903
0.825742 0.973388 0.979644
0.926879 0.976837 0.979095
0.969482 0.964996 0.964294
