其他预设/【233】日式怀旧街道调色预设208款/1.3D LUT预设（视频调色-PR-AE-PS-FCPX-达芬奇用）/1.日式城市街拍预设/JA – Controlled Contrast 2.cube
# Created by Adobe Lightroom plugin Export LUT (1.17.0)
# www.johnrellis.com/lightroom/exportlut.htm
# Preset: JA – Controlled Contrast 2
# Color profile: /Library/Application Support/Adobe/Color/Profiles/Recommended/AdobeRGB1998.icc
LUT_3D_SIZE 32
0.096010 0.089631 0.085206
0.096010 0.089631 0.085206
0.096010 0.089631 0.085206
0.096345 0.089570 0.085206
0.097902 0.089296 0.085176
0.102174 0.088472 0.085115
0.109865 0.086885 0.084993
0.123995 0.083467 0.085023
0.147036 0.076661 0.084474
0.181796 0.060273 0.083772
0.231266 0.000000 0.081605
0.290318 0.000000 0.077821
0.350469 0.000000 0.072236
0.405066 0.000000 0.064729
0.451820 0.000000 0.053193
0.492317 0.000000 0.034058
0.528252 0.000000 0.011475
0.561151 0.000000 0.000000
0.592401 0.000000 0.000000
0.625086 0.000000 0.000000
0.662074 0.000000 0.000000
0.712367 0.000000 0.000000
0.760067 0.000000 0.000000
0.805051 0.000000 0.000000
0.847166 0.000000 0.000000
0.886992 0.000000 0.000000
0.925261 0.000000 0.000000
0.961975 0.000000 0.000000
0.996582 0.000000 0.000000
1.000000 0.000000 0.000000
1.000000 0.000000 0.000000
1.000000 0.000000 0.000000
0.096010 0.089631 0.085206
0.096010 0.089631 0.085206
0.096010 0.089631 0.085206
0.096345 0.089570 0.085206
0.097902 0.089296 0.085176
0.101869 0.088533 0.085115
0.109804 0.086885 0.085298
0.123262 0.083650 0.085054
0.145510 0.077211 0.084535
0.179873 0.061433 0.083528
0.228550 0.000000 0.081453
0.286931 0.000000 0.077668
0.346715 0.000000 0.072023
0.401373 0.000000 0.064424
0.448096 0.000000 0.053651
0.488838 0.000000 0.033265
0.524865 0.000000 0.010773
0.557855 0.000000 0.000000
0.589044 0.000000 0.000000
0.621454 0.000000 0.000000
0.658564 0.000000 0.000000
0.707057 0.000000 0.000000
0.753689 0.000000 0.000000
0.798154 0.000000 0.000000
0.840177 0.000000 0.000000
0.880278 0.000000 0.000000
0.919127 0.000000 0.000000
0.956512 0.000000 0.000000
0.991913 0.000000 0.000000
1.000000 0.000000 0.000000
1.000000 0.000000 0.000000
1.000000 0.000000 0.000000
0.096010 0.089631 0.085206
0.096010 0.089631 0.085206
0.096010 0.089631 0.085206
0.096345 0.089570 0.085206
0.097902 0.089296 0.085176
0.101869 0.088533 0.085115
0.109590 0.086915 0.084993
0.122805 0.083772 0.085054
0.144900 0.077760 0.084504
0.178836 0.065309 0.083375
0.227237 0.013947 0.081178
0.285161 0.000000 0.077241
0.344854 0.000000 0.071382
0.399603 0.000000 0.063447
0.446326 0.000000 0.051728
0.487190 0.000000 0.030549
0.523217 0.000000 0.008087
0.556115 0.000000 0.000000
0.587396 0.000000 0.000000
0.619684 0.000000 0.000000
0.657496 0.000000 0.000000
0.704952 0.000000 0.000000
0.750942 0.000000 0.000000
0.794949 0.000000 0.000000
0.836851 0.000000 0.000000
0.876921 0.000000 0.000000
0.915953 0.000000 0.000000
0.953704 0.000000 0.000000
0.989502 0.000000 0.000000
1.000000 0.000000 0.000000
1.000000 0.000000 0.000000
1.000000 0.000000 0.000000
0.095979 0.089937 0.085176
0.095979 0.089937 0.085176
0.095979 0.089937 0.085176
0.096284 0.089876 0.085176
0.098146 0.089845 0.085115
0.102358 0.089357 0.085054
0.109957 0.088411 0.084871
0.123476 0.086488 0.084810
0.145785 0.081666 0.084169
0.179690 0.073030 0.082826
0.227939 0.049378 0.080262
0.285283 0.000000 0.075868
0.344549 0.000000 0.069398
0.398779 0.000000 0.060883
0.445289 0.000000 0.046387
0.486000 0.000000 0.023468
0.521935 0.000000 0.002289
0.554559 0.000000 0.000000
0.585534 0.000000 0.000000
0.617487 0.000000 0.000000
0.655787 0.000000 0.000000
0.701320 0.000000 0.000000
0.746517 0.000000 0.000000
0.790707 0.000000 0.000000
0.833646 0.000000 0.000000
0.875029 0.000000 0.000000
0.915007 0.000000 0.000000
0.953399 0.000000 0.000000
0.989349 0.000000 0.000000
1.000000 0.000000 0.000000
1.000000 0.000000 0.000000
1.000000 0.000000 0.000000
0.096407 0.091035 0.085359
0.096071 0.091096 0.085359
0.096407 0.091035 0.085359
0.096681 0.091279 0.085328
0.098207 0.091310 0.085298
0.102632 0.091676 0.085115
0.110658 0.091554 0.084871
0.124239 0.090883 0.084382
0.146578 0.089082 0.083497
0.180545 0.084962 0.081819
0.228244 0.076020 0.078737
0.285222 0.056886 0.073610
0.343816 0.000000 0.066255
0.397833 0.000000 0.055207
0.444465 0.000000 0.035218
0.485359 0.000000 0.011719
0.521660 0.000000 0.000000
0.554498 0.000000 0.000000
0.585595 0.000000 0.000000
0.617517 0.000000 0.000000
0.657130 0.000000 0.000000
0.701259 0.000000 0.000000
0.745327 0.000000 0.000000
0.788998 0.000000 0.000000
0.831785 0.000000 0.000000
0.873228 0.000000 0.000000
0.913298 0.000000 0.000000
0.951598 0.000000 0.000000
0.987579 0.000000 0.000000
1.000000 0.000000 0.000000
1.000000 0.000000 0.000000
1.000000 0.000000 0.000000
0.096315 0.093660 0.085420
0.096315 0.093660 0.085420
0.096315 0.093660 0.085420
0.096925 0.093843 0.085389
0.098787 0.093812 0.085054
0.102266 0.094606 0.084871
0.111147 0.096315 0.084382
0.126711 0.097963 0.083589
0.149874 0.098939 0.082368
0.184848 0.099641 0.080171
0.233371 0.098756 0.076112
0.289799 0.094514 0.069764
0.347753 0.085847 0.060578
0.400641 0.069581 0.042908
0.446723 0.027405 0.017823
0.487251 0.000000 0.000000
0.523156 0.000000 0.000000
0.555871 0.000000 0.000000
0.587060 0.000000 0.000000
0.619959 0.000000 0.000000
0.661128 0.000000 0.000000
0.705013 0.000000 0.000000
0.792111 0.000000 0.000000
0.836118 0.000000 0.000000
0.876890 0.000000 0.000000
0.914855 0.000000 0.000000
0.950378 0.000000 0.000000
0.983459 0.000000 0.000000
1.000000 0.000000 0.000000
1.000000 0.000000 0.000000
1.000000 0.000000 0.000000
1.000000 0.000000 0.000000
0.096407 0.099428 0.085176
0.096407 0.099428 0.085176
0.096742 0.099367 0.085176
0.098268 0.099397 0.085115
0.100710 0.099001 0.085084
0.104372 0.100252 0.084565
0.111482 0.102358 0.083772
0.128817 0.107485 0.082490
0.158145 0.113771 0.080262
0.202213 0.121675 0.076051
0.254459 0.128389 0.069612
0.312261 0.132692 0.060334
0.368353 0.132570 0.038544
0.417823 0.128084 0.011048
0.460700 0.116976 0.000000
0.498177 0.099428 0.000000
0.532280 0.073335 0.000000
0.563989 0.000000 0.000000
0.595087 0.000000 0.000000
0.633173 0.000000 0.000000
0.678462 0.000000 0.000000
0.726772 0.000000 0.000000
0.775723 0.000000 0.000000
0.823545 0.000000 0.000000
0.868345 0.000000 0.000000
0.908843 0.000000 0.000000
0.945739 0.000000 0.000000
0.979461 0.000000 0.000000
1.000000 0.000000 0.000000
1.000000 0.000000 0.000000
1.000000 0.000000 0.000000
1.000000 0.000000 0.000000
0.096223 0.108278 0.084871
0.096864 0.108186 0.084840
0.097475 0.108095 0.084840
0.099672 0.107790 0.084810
0.102663 0.107332 0.084779
0.107179 0.107576 0.084260
0.114260 0.110231 0.083406
0.125612 0.113741 0.082216
0.152712 0.124239 0.079164
0.196414 0.138125 0.074281
0.258335 0.155245 0.064088
0.319219 0.166690 0.043519
0.373419 0.171511 0.013336
0.421332 0.169528 0.000000
0.463081 0.163119 0.000000
0.500008 0.152621 0.000000
0.533593 0.138613 0.000000
0.564965 0.121706 0.000000
0.598138 0.099001 0.000000
0.636744 0.064576 0.000000
0.680262 0.000000 0.000000
0.726741 0.000000 0.000000
0.774136 0.000000 0.000000
0.820737 0.000000 0.000000
0.864683 0.000000 0.000000
0.904875 0.000000 0.000000
0.941711 0.000000 0.000000
0.975738 0.000000 0.000000
1.000000 0.000000 0.000000
1.000000 0.000000 0.000000
1.000000 0.000000 0.000000
1.000000 0.000000 0.000000
0.097902 0.121462 0.083833
0.098878 0.121126 0.083833
0.100130 0.120974 0.083803
0.102815 0.120607 0.083772
0.106569 0.120089 0.083711
0.111788 0.119326 0.083619
0.119478 0.121920 0.082673
0.131380 0.126680 0.080903
0.148043 0.132601 0.078859
0.187808 0.150668 0.072663
0.246311 0.173434 0.061433
0.315648 0.195102 0.025238
0.381659 0.208530 0.000000
0.427771 0.209110 0.000000
0.468055 0.204990 0.000000
0.503899 0.197208 0.000000
0.536889 0.187228 0.000000
0.569543 0.175296 0.000000
0.604242 0.162203 0.000000
0.641840 0.146304 0.000000
0.684169 0.127810 0.000000
0.729305 0.101167 0.000000
0.775296 0.049653 0.000000
0.820737 0.000000 0.000000
0.863798 0.000000 0.000000
0.903349 0.000000 0.000000
0.939910 0.000000 0.000000
0.973724 0.000000 0.000000
1.000000 0.000000 0.000000
1.000000 0.000000 0.000000
1.000000 0.000000 0.000000
1.000000 0.000000 0.000000
0.101564 0.140505 0.082216
0.102754 0.140383 0.082216
0.104250 0.140017 0.082216
0.107424 0.139467 0.082185
0.112642 0.138643 0.082124
0.118563 0.137697 0.082033
0.126741 0.137972 0.081331
0.139467 0.143893 0.079133
0.157229 0.151400 0.076478
0.180941 0.160433 0.072297
0.232944 0.185946 0.059937
0.299535 0.213138 0.019165
0.367834 0.234195 0.000000
0.428565 0.245365 0.000000
0.473793 0.245212 0.000000
0.509300 0.239139 0.000000
0.544488 0.231937 0.000000
0.578729 0.222782 0.000000
0.612665 0.212894 0.000000
0.649622 0.202243 0.000000
0.690517 0.190768 0.000000
0.733181 0.176883 0.000000
0.776547 0.159243 0.000000
0.819486 0.137148 0.000000
0.860777 0.104799 0.000000
0.899687 0.029511 0.000000
0.936370 0.000000 0.000000
0.970733 0.000000 0.000000
1.000000 0.000000 0.000000
1.000000 0.000000 0.000000
1.000000 0.000000 0.000000
1.000000 0.000000 0.000000
0.105623 0.167178 0.079561
0.107301 0.167147 0.079500
0.109285 0.166812 0.079500
0.113588 0.166232 0.079438
0.119997 0.165255 0.079377
0.127871 0.164034 0.078920
0.137240 0.162539 0.079103
0.150484 0.166934 0.076844
0.169558 0.175967 0.072541
0.194827 0.186923 0.066865
0.225437 0.199008 0.058289
0.284062 0.227451 0.014405
0.351751 0.254520 0.000000
0.413672 0.271366 0.000000
0.468849 0.279820 0.000000
0.518639 0.282139 0.000000
0.552972 0.275486 0.000000
0.585534 0.267308 0.000000
0.618463 0.258518 0.000000
0.654902 0.250401 0.000000
0.694881 0.242039 0.000000
0.736599 0.232517 0.000000
0.779202 0.221408 0.000000
0.821286 0.207980 0.000000
0.861753 0.191165 0.000000
0.899870 0.170047 0.000000
0.935729 0.144167 0.000000
0.969451 0.108553 0.000000
1.000000 0.038422 0.000000
1.000000 0.000000 0.000000
1.000000 0.000000 0.000000
1.000000 0.000000 0.000000
0.112001 0.203281 0.073793
0.113588 0.203159 0.073762
0.116487 0.202701 0.073762
0.122011 0.201877 0.073732
0.130190 0.200748 0.073640
0.140108 0.199161 0.073518
0.151431 0.197513 0.073304
0.164126 0.196048 0.072847
0.184451 0.206027 0.067262
0.209995 0.217655 0.058930
0.241184 0.230869 0.037781
0.276951 0.244450 0.007538
0.359289 0.290440 0.000000
0.426368 0.314580 0.000000
0.484077 0.326940 0.000000
0.534630 0.331243 0.000000
0.581323 0.330999 0.000000
0.619745 0.325353 0.000000
0.654475 0.317449 0.000000
0.691890 0.310155 0.000000
0.730678 0.302525 0.000000
0.770138 0.293980 0.000000
0.809293 0.284123 0.000000
0.847684 0.272923 0.000000
0.884520 0.259709 0.000000
0.919371 0.244663 0.000000
0.952117 0.227237 0.000000
0.982605 0.208103 0.000000
1.000000 0.186557 0.000000
1.000000 0.163333 0.000000
1.000000 0.139956 0.000000
1.000000 0.119570 0.000000
0.121950 0.254551 0.062257
0.124636 0.254093 0.062318
0.127596 0.253300 0.062470
0.134829 0.251621 0.062318
0.144472 0.249241 0.062684
0.156374 0.246311 0.062623
0.169955 0.243381 0.062715
0.184512 0.240360 0.062654
0.203067 0.243351 0.057801
0.229404 0.255619 0.036042
0.262669 0.271336 0.002045
0.304204 0.291051 0.000000
0.349706 0.310033 0.000000
0.407141 0.332677 0.000000
0.467659 0.351446 0.000000
0.519554 0.359899 0.000000
0.566369 0.362341 0.000000
0.611749 0.362188 0.000000
0.659388 0.361791 0.000000
0.695399 0.354833 0.000000
0.732876 0.348028 0.000000
0.771115 0.340764 0.000000
0.809110 0.332464 0.000000
0.846464 0.322972 0.000000
0.882444 0.312230 0.000000
0.916747 0.299870 0.000000
0.949096 0.286290 0.000000
0.979461 0.271580 0.000000
1.000000 0.255894 0.000000
1.000000 0.239780 0.000000
1.000000 0.224765 0.000000
1.000000 0.212955 0.000000
0.131197 0.297185 0.040558
0.134340 0.296696 0.040681
0.138216 0.295659 0.040345
0.145571 0.294194 0.040955
0.156558 0.291630 0.041169
0.169680 0.288640 0.041230
0.184756 0.285466 0.040772
0.201297 0.282933 0.039765
0.219944 0.281743 0.035950
0.246159 0.292729 0.010163
0.278752 0.308354 0.000000
0.316167 0.325139 0.000000
0.357366 0.341741 0.000000
0.399695 0.355901 0.000000
0.446571 0.368688 0.000000
0.501122 0.382635 0.000000
0.548516 0.388220 0.000000
0.593225 0.390265 0.000000
0.640650 0.392157 0.000000
0.692195 0.395026 0.000000
0.735683 0.392004 0.000000
0.773159 0.385565 0.000000
0.810452 0.378302 0.000000
0.847105 0.370214 0.000000
0.882506 0.360845 0.000000
0.916228 0.350286 0.000000
0.948180 0.338720 0.000000
0.978180 0.326207 0.000000
1.000000 0.313207 0.000000
1.000000 0.300267 0.000000
1.000000 0.288304 0.000000
1.000000 0.278752 0.000000
0.142947 0.341527 0.007202
0.146304 0.341314 0.006928
0.150454 0.340581 0.007294
0.158419 0.339574 0.007324
0.170413 0.337652 0.006744
0.185122 0.335119 0.005127
0.201694 0.332769 0.004486
0.219791 0.330083 0.002350
0.239109 0.327764 0.000000
0.260807 0.328313 0.000000
0.290471 0.341283 0.000000
0.324132 0.355322 0.000000
0.361028 0.369421 0.000000
0.400610 0.382849 0.000000
0.440040 0.393378 0.000000
0.478706 0.398627 0.000000
0.529076 0.409674 0.000000
0.574151 0.414343 0.000000
0.620264 0.417975 0.000000
0.671290 0.423163 0.000000
0.724208 0.427558 0.000000
0.775662 0.429389 0.000000
0.812009 0.422766 0.000000
0.847898 0.415259 0.000000
0.882811 0.406897 0.000000
0.916411 0.397681 0.000000
0.948547 0.387671 0.000000
0.978912 0.377081 0.000000
1.000000 0.366125 0.000000
1.000000 0.355413 0.000000
1.000000 0.345678 0.000000
1.000000 0.338231 0.000000
0.157717 0.385382 0.000000
0.160983 0.385351 0.000000
0.164614 0.384924 0.000000
0.173190 0.383734 0.000000
0.185245 0.381994 0.000000
0.200168 0.379889 0.000000
0.217441 0.377386 0.000000
0.236179 0.374884 0.000000
0.256291 0.372015 0.000000
0.276921 0.369177 0.000000
0.301854 0.373571 0.000000
0.331487 0.384436 0.000000
0.363897 0.395270 0.000000
0.398871 0.405859 0.000000
0.435492 0.415808 0.000000
0.471901 0.423133 0.000000
0.505516 0.424201 0.000000
0.553185 0.433753 0.000000
0.599420 0.439918 0.000000
0.650263 0.447608 0.000000
0.704402 0.455695 0.000000
0.758938 0.461952 0.000000
0.811643 0.465370 0.000000
0.853208 0.461707 0.000000
0.887541 0.453925 0.000000
0.920623 0.445319 0.000000
0.952056 0.436225 0.000000
0.981598 0.426429 0.000000
1.000000 0.416419 0.000000
1.000000 0.406378 0.000000
1.000000 0.397162 0.000000
1.000000 0.389929 0.000000
0.172183 0.420813 0.000000
0.174594 0.420600 0.000000
0.178317 0.419959 0.000000
0.186343 0.418799 0.000000
0.197818 0.416968 0.000000
0.212436 0.414801 0.000000
0.228977 0.412360 0.000000
0.247349 0.409583 0.000000
0.267124 0.406592 0.000000
0.287572 0.403449 0.000000
0.308812 0.399908 0.000000
0.335637 0.408453 0.000000
0.365270 0.417975 0.000000
0.397040 0.427314 0.000000
0.430640 0.436072 0.000000
0.465553 0.444007 0.000000
0.499947 0.449622 0.000000
0.530571 0.448188 0.000000
0.577264 0.457557 0.000000
0.626398 0.466743 0.000000
0.680690 0.477699 0.000000
0.735958 0.487373 0.000000
0.790555 0.494270 0.000000
0.842283 0.498177 0.000000
0.888914 0.498085 0.000000
0.921569 0.490089 0.000000
0.952667 0.481483 0.000000
0.981811 0.472450 0.000000
1.000000 0.463020 0.000000
1.000000 0.453712 0.000000
1.000000 0.445106 0.000000
1.000000 0.438331 0.076692
0.187839 0.452888 0.010803
0.190677 0.452979 0.010986
0.204807 0.469459 0.044465
0.212131 0.468177 0.042115
0.222751 0.466316 0.036774
0.235782 0.463783 0.032013
0.251347 0.460670 0.023041
0.268772 0.457282 0.015686
0.287755 0.453529 0.005707
0.307866 0.449805 0.000000
0.328496 0.445594 0.000000
0.350835 0.444770 0.000000
0.377508 0.452094 0.000000
0.406256 0.459388 0.000000
0.436805 0.466499 0.000000
0.468971 0.473213 0.000000
0.502739 0.479622 0.000000
0.535912 0.483711 0.000000
0.564446 0.480262 0.000000
0.612757 0.491066 0.000000
0.666865 0.504356 0.000000
0.723110 0.516808 0.000000
0.778714 0.526757 0.000000
0.831388 0.533104 0.000000
0.879515 0.535424 0.000000
0.922789 0.534447 0.000000
0.955749 0.527520 0.000000
0.982971 0.517845 0.000000
1.000000 0.508202 0.000000
1.000000 0.499062 0.000000
1.000000 0.490394 0.005310
1.000000 0.483345 0.116518
0.208835 0.485847 0.070283
0.212802 0.487678 0.072358
0.217502 0.489479 0.075105
0.225315 0.490394 0.076051
0.235935 0.490211 0.076143
0.248569 0.488655 0.074617
0.263035 0.486152 0.070649
0.278935 0.483070 0.067262
0.296788 0.479774 0.062562
0.315526 0.476204 0.057160
0.335241 0.472236 0.046387
0.355444 0.467811 0.030060
0.378515 0.470771 0.000000
0.404700 0.477272 0.000000
0.432654 0.483711 0.000000
0.462257 0.489937 0.000000
0.493568 0.496010 0.000000
0.526635 0.502037 0.000000
0.559503 0.506157 0.000000
0.588098 0.503105 0.000000
0.639155 0.516960 0.000000
0.696681 0.533501 0.000000
0.754330 0.547570 0.000000
0.810025 0.558221 0.000000
0.861387 0.564477 0.000000
0.907866 0.566766 0.000000
0.948882 0.565698 0.000000
0.983459 0.561700 0.000000
1.000000 0.552148 0.000000
1.000000 0.542809 0.000000
1.000000 0.534081 0.095430
1.000000 0.526696 0.150301
0.227726 0.510735 0.099886
0.231540 0.512444 0.102724
0.235935 0.514061 0.104555
0.242985 0.514916 0.106111
0.252384 0.514824 0.106386
0.263676 0.513390 0.104707
0.276646 0.511131 0.102083
0.291234 0.508293 0.098238
0.307439 0.505211 0.094636
0.324926 0.501915 0.090425
0.343603 0.498268 0.085603
0.362799 0.494240 0.080690
0.382269 0.490028 0.072450
0.406104 0.496101 0.028107
0.431647 0.502129 0.000000
0.459083 0.508049 0.000000
0.488258 0.513970 0.000000
0.519280 0.519982 0.000000
0.552483 0.526452 0.000000
0.585779 0.531243 0.000000
0.615717 0.529625 0.000000
0.669795 0.546532 0.000000
0.729519 0.564996 0.000000
0.787778 0.579980 0.000000
0.842191 0.590265 0.000000
0.891691 0.596033 0.000000
0.935607 0.597742 0.000000
0.973571 0.596216 0.000000
1.000000 0.592462 0.000000
1.000000 0.584771 0.083040
1.000000 0.575555 0.133516
1.000000 0.567529 0.178012
0.249149 0.535546 0.130434
0.252689 0.537163 0.132509
0.256718 0.538750 0.134859
0.263188 0.539696 0.136599
0.271519 0.539574 0.136507
0.281407 0.538262 0.134951
0.292790 0.536187 0.132845
0.305760 0.533562 0.129763
0.320409 0.530571 0.125826
0.336400 0.527337 0.122225
0.353552 0.523857 0.117403
0.371496 0.519951 0.112581
0.389654 0.515435 0.106966
0.409796 0.515190 0.094728
0.433448 0.521172 0.070344
0.459113 0.527520 0.000214
0.487007 0.534234 0.000000
0.517296 0.541558 0.000000
0.550195 0.549645 0.000000
0.586114 0.558709 0.000000
0.622492 0.566400 0.000000
0.656519 0.568109 0.000000
0.713344 0.586999 0.000000
0.775448 0.607385 0.000000
0.833799 0.622461 0.000000
0.886381 0.631922 0.000000
0.932647 0.636408 0.000000
0.972107 0.636683 0.000000
1.000000 0.633814 0.000000
1.000000 0.628779 0.133974
1.000000 0.622400 0.195315
1.000000 0.613581 0.229496
0.281041 0.569665 0.172396
0.283391 0.570397 0.173526
0.286107 0.570855 0.174380
0.290684 0.570672 0.173983
0.297276 0.569848 0.173068
0.305394 0.568261 0.171298
0.315251 0.566094 0.168673
0.326879 0.563714 0.166201
0.340185 0.561212 0.162966
0.355016 0.558495 0.159823
0.371099 0.555627 0.156649
0.387823 0.552239 0.152621
0.404974 0.547997 0.147127
0.422400 0.543206 0.141329
0.443427 0.547143 0.126925
0.467201 0.553552 0.106661
0.493263 0.560540 0.076783
0.521996 0.568200 0.000000
0.553307 0.576684 0.000000
0.587610 0.585992 0.000000
0.624567 0.595911 0.000000
0.661555 0.603754 0.000000
0.694972 0.604639 0.000000
0.750149 0.621851 0.000000
0.811368 0.641566 0.000000
0.867704 0.655482 0.000000
0.917845 0.663813 0.000000
0.960876 0.667109 0.000000
0.996277 0.666194 0.000000
1.000000 0.662074 0.120638
1.000000 0.655940 0.190463
1.000000 0.649683 0.245487
0.307286 0.599115 0.204501
0.309483 0.600000 0.205509
0.312078 0.600702 0.206088
0.316411 0.600671 0.206332
0.322179 0.599817 0.205509
0.329168 0.598169 0.203616
0.337774 0.595911 0.201175
0.347662 0.593439 0.198245
0.359686 0.590723 0.195285
0.373022 0.588006 0.192203
0.387518 0.585107 0.188754
0.403052 0.581842 0.184909
0.419135 0.577905 0.180362
0.435584 0.573480 0.174868
0.453162 0.570703 0.167483
0.475532 0.577813 0.152468
0.500359 0.585657 0.133516
0.527886 0.594263 0.107820
0.558099 0.603632 0.068666
0.591058 0.613703 0.000000
0.626856 0.624323 0.000000
0.665370 0.635370 0.000000
0.703578 0.644007 0.000000
0.737667 0.644953 0.000000
0.783963 0.654078 0.000000
0.844297 0.673182 0.000000
0.898863 0.686183 0.000000
0.946197 0.693233 0.000000
0.985382 0.694972 0.000000
1.000000 0.692470 0.087831
1.000000 0.686976 0.174746
1.000000 0.680507 0.236179
0.343267 0.641871 0.245823
0.345556 0.643122 0.246921
0.347906 0.643641 0.247684
0.351202 0.643244 0.247074
0.355840 0.641871 0.245731
0.361639 0.639796 0.243626
0.368780 0.636988 0.240696
0.377173 0.633722 0.237247
0.387152 0.630182 0.233371
0.398535 0.626642 0.229770
0.411048 0.622644 0.225315
0.424720 0.618769 0.221073
0.439277 0.614343 0.216251
0.454139 0.609277 0.210178
0.469276 0.603510 0.203525
0.487404 0.604425 0.192233
0.509636 0.611383 0.176120
0.534630 0.619379 0.156832
0.562768 0.628595 0.132784
0.594018 0.638911 0.100343
0.628229 0.650019 0.022004
0.664973 0.661463 0.000000
0.703975 0.672602 0.000000
0.741756 0.680385 0.000000
0.774014 0.679316 0.000000
0.823697 0.691402 0.000000
0.882261 0.709071 0.000000
0.933074 0.719539 0.000000
0.975525 0.723781 0.000000
1.000000 0.722866 0.005280
1.000000 0.718074 0.158846
1.000000 0.711330 0.227390
0.370611 0.677821 0.275334
0.372808 0.679164 0.276646
0.374975 0.679805 0.277195
0.378088 0.679469 0.276890
0.382391 0.678248 0.275639
0.387823 0.676387 0.273991
0.394629 0.673976 0.271519
0.402655 0.671199 0.268772
0.412360 0.668269 0.265843
0.423346 0.665370 0.262821
0.435676 0.662226 0.259617
0.449134 0.659052 0.256168
0.463447 0.655543 0.252323
0.478279 0.651362 0.247715
0.493385 0.646540 0.242466
0.508843 0.641108 0.236423
0.529503 0.647669 0.223941
0.553124 0.655909 0.208865
0.579614 0.665187 0.191318
0.609125 0.675502 0.170809
0.641413 0.686549 0.143954
0.676356 0.697841 0.105837
0.713558 0.708980 0.000000
0.752621 0.719631 0.000000
0.790249 0.726589 0.000000
0.821195 0.723720 0.000000
0.867460 0.732143 0.000000
0.922972 0.747311 0.000000
0.968811 0.754574 0.000000
1.000000 0.755367 0.000000
1.000000 0.751034 0.151797
1.000000 0.743893 0.226169
0.401343 0.720516 0.308293
0.403235 0.721431 0.309087
0.404761 0.721614 0.309178
0.407324 0.720943 0.308598
0.410925 0.719326 0.307012
0.415839 0.717189 0.305089
0.421973 0.714626 0.302678
0.429541 0.711910 0.300206
0.438666 0.709194 0.297642
0.449226 0.706569 0.294957
0.461219 0.703914 0.292241
0.474525 0.701442 0.289647
0.488685 0.698665 0.286748
0.503471 0.695308 0.283146
0.518517 0.691157 0.278752
0.533959 0.686427 0.273625
0.551202 0.685176 0.266331
0.573144 0.693019 0.253941
0.597955 0.702052 0.239994
0.625635 0.712123 0.224094
0.656062 0.722835 0.205264
0.688869 0.733822 0.182071
0.723873 0.744594 0.149722
0.760800 0.755001 0.100282
0.799527 0.764645 0.000000
0.836545 0.770413 0.000000
0.865782 0.765530 0.000000
0.907958 0.770108 0.000000
0.958099 0.780972 0.000000
0.997650 0.784298 0.000000
1.000000 0.781003 0.124117
1.000000 0.773739 0.212100
0.430091 0.762692 0.338476
0.431464 0.763302 0.338964
0.432959 0.763455 0.338933
0.435554 0.763027 0.338506
0.439551 0.762173 0.337682
0.445075 0.761288 0.336828
0.452369 0.760891 0.336370
0.461494 0.760678 0.336004
0.472236 0.760891 0.335882
0.484749 0.761318 0.335882
0.498604 0.761837 0.336095
0.513603 0.762203 0.335821
0.529503 0.762020 0.335210
0.545800 0.761013 0.333715
0.562402 0.758999 0.331273
0.578912 0.755825 0.327947
0.595911 0.752224 0.323919
0.616052 0.756252 0.315831
0.639551 0.764645 0.305119
0.665614 0.773831 0.293034
0.694026 0.783474 0.279484
0.724697 0.793271 0.263340
0.757229 0.802701 0.243259
0.791470 0.811643 0.217929
0.827420 0.819974 0.184360
0.865019 0.827573 0.135103
0.900816 0.831205 0.000000
0.926482 0.822354 0.000000
0.961822 0.820340 0.000000
1.000000 0.822293 0.000000
1.000000 0.817807 0.139559
1.000000 0.809110 0.225620
0.471382 0.822477 0.382361
0.472572 0.822812 0.382635
0.473701 0.822599 0.382391
0.475929 0.821836 0.381750
0.479408 0.820676 0.380652
0.484230 0.819303 0.379370
0.490669 0.818051 0.378149
0.498634 0.816953 0.377050
0.508202 0.816068 0.376074
0.519280 0.815335 0.375189
0.531701 0.814572 0.374273
0.545434 0.813809 0.373175
0.560113 0.812802 0.371923
0.575616 0.811368 0.370123
0.591730 0.809384 0.367926
