其他预设/【233】日式怀旧街道调色预设208款/1.3D LUT预设（视频调色-PR-AE-PS-FCPX-达芬奇用）/1.日式城市街拍预设/JA – Harsh Shade 1.cube
# Created by Adobe Lightroom plugin Export LUT (1.17.0)
# www.johnrellis.com/lightroom/exportlut.htm
# Preset: JA – Harsh Shade 1
# Color profile: /Library/Application Support/Adobe/Color/Profiles/Recommended/AdobeRGB1998.icc
LUT_3D_SIZE 5
DOMAIN_MIN 0.000000 0.000000 0.000000
DOMAIN_MAX 0.903226 0.903226 0.903226
0.035828 0.039033 0.053254
0.124208 0.052674 0.067140
0.374456 0.017304 0.087526
0.805203 0.000000 0.095338
0.997894 0.197116 0.222385
0.052094 0.109560 0.077882
0.137240 0.128695 0.076081
0.419959 0.170443 0.057099
0.815274 0.189822 0.037751
1.000000 0.273503 0.212558
0.000000 0.253574 0.114168
0.138216 0.276555 0.106538
0.567498 0.499702 0.000000
0.847013 0.467292 0.000000
1.000000 0.433875 0.122713
0.000000 0.579583 0.120150
0.000000 0.606500 0.004974
0.456458 0.659052 0.000946
0.877806 0.789548 0.000000
1.000000 0.694514 0.261875
0.000000 0.885283 0.188296
0.169497 0.888823 0.189883
0.499184 0.887602 0.260349
0.780087 0.911742 0.419013
0.993133 0.932097 0.572107
0.028168 0.059113 0.111055
0.107118 0.066896 0.127687
0.320653 0.000000 0.169284
0.764706 0.000000 0.194736
0.979339 0.260807 0.312779
0.048341 0.106874 0.127535
0.119966 0.123659 0.146853
0.376074 0.130007 0.164370
0.783169 0.115236 0.180148
0.985565 0.307683 0.300237
0.000000 0.246860 0.168460
0.095644 0.285801 0.159457
0.515068 0.456336 0.128176
0.826627 0.437415 0.124727
1.000000 0.448524 0.248936
0.000000 0.566796 0.201694
0.000000 0.603632 0.156283
0.434638 0.660273 0.139223
0.869322 0.785245 0.228428
1.000000 0.703273 0.371527
0.000000 0.881590 0.254124
0.093904 0.885679 0.249210
0.508934 0.894285 0.344091
0.783902 0.911528 0.483375
0.989441 0.933165 0.618799
0.010224 0.076875 0.181827
0.093385 0.078340 0.208194
0.276982 0.001312 0.258457
0.657282 0.000000 0.337560
0.940734 0.426673 0.539208
0.032227 0.106416 0.181521
0.084230 0.113497 0.217014
0.313115 0.104341 0.280674
0.692805 0.000000 0.350195
0.941588 0.514580 0.578759
0.000000 0.216739 0.228092
0.057740 0.246159 0.248814
0.427527 0.400458 0.375677
0.780545 0.467506 0.454139
0.963500 0.586267 0.573846
0.000000 0.516258 0.318822
0.000000 0.548089 0.321965
0.350256 0.658381 0.339208
0.836515 0.775296 0.540032
0.980621 0.727962 0.571618
0.000000 0.864408 0.422156
0.000000 0.872557 0.413336
0.441016 0.887449 0.454139
0.765927 0.897002 0.580835
0.977905 0.931029 0.700130
0.000000 0.088533 0.256718
0.076173 0.086366 0.285801
0.322698 0.000000 0.463752
0.621027 0.000000 0.545983
0.901671 0.048890 0.594720
0.000000 0.111879 0.249485
0.000000 0.108186 0.283757
0.301640 0.057679 0.460304
0.633783 0.000000 0.559045
0.902525 0.238315 0.601495
0.000000 0.176577 0.252079
0.000000 0.179812 0.262486
0.178622 0.218479 0.418158
0.679011 0.330541 0.608698
0.915282 0.539483 0.664057
0.000000 0.407172 0.380133
0.000000 0.428779 0.402777
0.019318 0.524834 0.505821
0.762997 0.729702 0.711452
0.947021 0.771237 0.753384
0.000000 0.844785 0.610559
0.000000 0.851926 0.607599
0.159335 0.874022 0.605585
0.713680 0.892271 0.682429
0.962554 0.930602 0.808072
0.000000 0.126345 0.660426
0.000000 0.111299 0.682185
0.328771 0.000000 0.745266
0.655482 0.000000 0.826383
0.902739 0.161593 0.824033
0.000000 0.165133 0.647700
0.000000 0.141238 0.672053
0.287053 0.094301 0.739376
0.645441 0.154726 0.822568
0.901884 0.255985 0.825071
0.000000 0.302495 0.592889
0.000000 0.289372 0.617823
0.000000 0.204807 0.710842
0.605188 0.331304 0.811490
0.903960 0.462593 0.835477
0.000000 0.541924 0.708186
0.000000 0.530632 0.706600
0.000000 0.482033 0.705989
0.408759 0.450141 0.773892
0.913207 0.693843 0.862028
0.000000 0.829618 0.812253
0.000000 0.831846 0.814664
0.000000 0.842161 0.826017
0.493690 0.855924 0.841886
0.935576 0.921294 0.912078
