其他预设/【233】日式怀旧街道调色预设208款/1.3D LUT预设（视频调色-PR-AE-PS-FCPX-达芬奇用）/1.日式城市街拍预设/JA – Static Pop 1.cube
# Created by Adobe Lightroom plugin Export LUT (1.17.0)
# www.johnrellis.com/lightroom/exportlut.htm
# Preset: JA – Static Pop 1
# Color profile: /Library/Application Support/Adobe/Color/Profiles/Recommended/AdobeRGB1998.icc
LUT_3D_SIZE 5
DOMAIN_MIN 0.000000 0.000000 0.000000
DOMAIN_MAX 0.903226 0.903226 0.903226
0.082673 0.085573 0.088777
0.221592 0.009247 0.084535
0.637385 0.000000 0.000000
0.977783 0.072053 0.000000
1.000000 0.085573 0.000000
0.029450 0.196933 0.071473
0.203006 0.193423 0.066590
0.637354 0.291508 0.000000
0.973266 0.304417 0.000000
1.000000 0.260807 0.000000
0.000000 0.579065 0.000000
0.293004 0.583398 0.000000
0.589410 0.543908 0.000000
0.964569 0.584283 0.000000
1.000000 0.499977 0.000000
0.000000 0.914549 0.000000
0.255375 0.911986 0.000000
0.635157 0.894682 0.000000
0.916686 0.834989 0.000000
1.000000 0.734768 0.000000
0.000000 1.000000 0.000000
0.138125 1.000000 0.000000
0.522606 1.000000 0.000000
0.813596 1.000000 0.000000
1.000000 0.972961 0.000000
0.072572 0.102602 0.180545
0.168856 0.060060 0.181155
0.588861 0.000000 0.177279
0.959136 0.000000 0.034333
1.000000 0.000000 0.000000
0.000000 0.179294 0.189853
0.172580 0.178347 0.184878
0.595819 0.186648 0.145571
0.957702 0.198337 0.000000
1.000000 0.191836 0.000000
0.000000 0.559258 0.248569
0.130312 0.559991 0.137881
0.560479 0.521477 0.079866
0.954650 0.555291 0.000000
1.000000 0.474647 0.000000
0.000000 0.911345 0.127382
0.000000 0.909148 0.000000
0.605798 0.895628 0.000000
0.910185 0.831388 0.000000
1.000000 0.725612 0.000000
0.000000 1.000000 0.000000
0.000000 1.000000 0.000000
0.503349 1.000000 0.000000
0.804257 1.000000 0.000000
1.000000 0.973327 0.000000
0.000000 0.165469 0.552728
0.088869 0.099031 0.542718
0.462348 0.000000 0.482795
0.890257 0.000000 0.515557
1.000000 0.000000 0.436866
0.000000 0.304479 0.560204
0.072816 0.249485 0.552575
0.472480 0.071565 0.492348
0.903716 0.000000 0.501122
1.000000 0.176669 0.451240
0.000000 0.553429 0.576532
0.000000 0.546227 0.567346
0.479377 0.485206 0.496437
0.912505 0.503105 0.492317
1.000000 0.471809 0.441199
0.000000 0.898100 0.579858
0.000000 0.894896 0.556939
0.524834 0.875822 0.531914
0.880766 0.822416 0.445899
1.000000 0.733669 0.443519
0.000000 1.000000 0.463508
0.000000 1.000000 0.466651
0.548272 1.000000 0.550011
0.798154 1.000000 0.495491
1.000000 0.971374 0.349035
0.000000 0.323217 0.875944
0.000000 0.299992 0.874662
0.450568 0.000000 0.848905
0.799741 0.000000 0.801724
1.000000 0.310430 0.750698
0.000000 0.391211 0.877165
0.000000 0.376776 0.875486
0.446204 0.190951 0.855009
0.799741 0.000000 0.801236
1.000000 0.381567 0.751492
0.000000 0.624292 0.879973
0.340215 0.646052 0.878965
0.612512 0.656397 0.864103
0.803830 0.433722 0.802701
1.000000 0.574945 0.763210
0.000000 0.857511 0.876341
0.000000 0.857084 0.874052
0.537530 0.853666 0.863676
0.802792 0.794034 0.796536
1.000000 0.812100 0.804746
0.000000 1.000000 0.762051
0.000000 1.000000 0.752316
0.370733 1.000000 0.758083
0.851102 0.988617 0.839811
1.000000 0.969177 0.764645
0.487678 0.604242 0.988861
0.488197 0.604608 0.988922
0.464454 0.458198 0.994476
0.650202 0.000000 0.996612
0.984039 0.000000 0.982788
0.491920 0.607019 0.989380
0.492439 0.607385 0.989441
0.467689 0.461250 0.995117
0.650477 0.000000 0.996460
0.983764 0.000000 0.982300
0.603571 0.722286 0.984375
0.602167 0.720577 0.984649
0.724361 0.764614 0.982788
0.723445 0.575860 0.988952
0.980438 0.448249 0.977996
0.539208 0.814145 0.984253
0.540673 0.814481 0.984405
0.734768 0.857053 0.980194
0.898619 0.904234 0.977874
0.972442 0.787259 0.968048
0.000000 0.960418 0.986206
0.000000 0.963012 0.986267
0.435798 0.968170 0.983520
0.858335 0.974334 0.979400
0.969482 0.964996 0.964294
