其他预设/【233】日式怀旧街道调色预设208款/1.3D LUT预设（视频调色-PR-AE-PS-FCPX-达芬奇用）/1.日式城市街拍预设/JA – Chrome 2.cube
# Created by Adobe Lightroom plugin Export LUT (1.17.0)
# www.johnrellis.com/lightroom/exportlut.htm
# Preset: JA – Chrome 2
# Color profile: /Library/Application Support/Adobe/Color/Profiles/Recommended/AdobeRGB1998.icc
LUT_3D_SIZE 5
DOMAIN_MIN 0.000000 0.000000 0.000000
DOMAIN_MAX 0.903226 0.903226 0.903226
0.109712 0.106752 0.111879
0.176944 0.104097 0.110140
0.566674 0.170993 0.000000
0.871366 0.265843 0.000000
1.000000 0.309270 0.000000
0.111055 0.170291 0.111086
0.185245 0.175204 0.107576
0.595758 0.332158 0.000000
0.878416 0.376745 0.000000
1.000000 0.384131 0.000000
0.068299 0.486305 0.000000
0.277562 0.481392 0.000000
0.608087 0.565637 0.000000
0.891814 0.608118 0.000000
1.000000 0.569146 0.000000
0.000000 0.757809 0.000000
0.269200 0.754330 0.000000
0.558282 0.740352 0.000000
0.849119 0.798764 0.000000
1.000000 0.748592 0.000000
0.041535 0.937957 0.000000
0.264530 0.935058 0.000000
0.519432 0.923095 0.000000
0.761929 0.915648 0.000000
0.963256 0.917021 0.000000
0.103182 0.112123 0.161868
0.172183 0.099641 0.170535
0.526513 0.000000 0.163210
0.851835 0.086427 0.091371
1.000000 0.234897 0.000000
0.112795 0.163149 0.169894
0.173556 0.168063 0.174319
0.562219 0.222416 0.144869
0.861631 0.293309 0.065492
1.000000 0.332341 0.000000
0.000000 0.484016 0.217166
0.146151 0.495613 0.120821
0.584924 0.544762 0.000000
0.883940 0.589471 0.000000
1.000000 0.549828 0.000000
0.000000 0.761227 0.031037
0.122896 0.760922 0.000000
0.531212 0.744594 0.000000
0.844480 0.795377 0.000000
0.995941 0.752926 0.195468
0.000000 0.940703 0.000000
0.244633 0.934722 0.154269
0.510277 0.926024 0.100099
0.758938 0.915282 0.000000
0.960967 0.916777 0.259129
0.073701 0.096223 0.407752
0.265782 0.000000 0.457221
0.544305 0.000000 0.483497
0.814572 0.000000 0.448890
0.986725 0.164004 0.412512
0.000000 0.203037 0.392157
0.165377 0.149020 0.440894
0.552605 0.000000 0.490517
0.818418 0.000000 0.443030
0.977417 0.404822 0.470588
0.000000 0.456428 0.441382
0.000000 0.469886 0.452552
0.545556 0.518181 0.490944
0.833158 0.573297 0.507256
0.977966 0.602991 0.509636
0.000000 0.758175 0.454719
0.000000 0.758938 0.437232
0.511894 0.754604 0.448188
0.828153 0.786191 0.475441
0.971832 0.792538 0.561608
0.000000 0.937316 0.393378
0.012238 0.935027 0.394934
0.531273 0.921141 0.452857
0.752407 0.907866 0.415045
0.952422 0.913603 0.514519
0.099947 0.000000 0.665736
0.269780 0.000000 0.684962
0.568688 0.000000 0.741268
0.827573 0.000000 0.735348
0.964508 0.000000 0.654322
0.000000 0.150607 0.655909
0.165866 0.111635 0.674800
0.534936 0.000000 0.735683
0.824765 0.000000 0.733974
0.959777 0.234562 0.659144
0.000000 0.433783 0.601068
0.151644 0.436805 0.604944
0.503685 0.471077 0.687373
0.807156 0.501427 0.724636
0.949401 0.561212 0.681514
0.000000 0.702052 0.666621
0.073487 0.704646 0.668605
0.512322 0.719448 0.681147
0.794614 0.764828 0.723293
0.942687 0.804471 0.748104
0.000000 0.931579 0.668238
0.153536 0.928435 0.666865
0.500298 0.919646 0.663020
0.758511 0.904662 0.679622
0.939239 0.910277 0.727291
0.000000 0.000000 0.859464
0.217685 0.000000 0.864805
0.480323 0.000000 0.881163
0.752621 0.000000 0.900053
0.963104 0.000000 0.888487
0.000000 0.134005 0.856718
0.144930 0.085389 0.861448
0.449104 0.000000 0.877806
0.739925 0.000000 0.897795
0.959075 0.000000 0.886076
0.249546 0.489540 0.830961
0.320562 0.483253 0.837003
0.466224 0.435767 0.858061
0.733577 0.420966 0.885130
0.944915 0.473274 0.879637
0.298833 0.682368 0.822965
0.366217 0.682948 0.820829
0.527184 0.686641 0.815610
0.738643 0.709926 0.854978
0.929290 0.759854 0.876432
0.248661 0.877287 0.855619
0.335668 0.877134 0.855070
0.531273 0.878264 0.854978
0.743221 0.880949 0.855070
0.918151 0.900725 0.874327
