其他预设/【233】日式怀旧街道调色预设208款/1.3D LUT预设（视频调色-PR-AE-PS-FCPX-达芬奇用）/1.日式城市街拍预设/JA – Harsh Shade 2.cube
# Created by Adobe Lightroom plugin Export LUT (1.17.0)
# www.johnrellis.com/lightroom/exportlut.htm
# Preset: JA – Harsh Shade 2
# Color profile: /Library/Application Support/Adobe/Color/Profiles/Recommended/AdobeRGB1998.icc
LUT_3D_SIZE 32
0.034760 0.039002 0.057343
0.034760 0.039002 0.057343
0.033417 0.039216 0.057374
0.029725 0.038697 0.056672
0.048707 0.034363 0.054902
0.073243 0.029267 0.052552
0.104433 0.023590 0.049744
0.153780 0.013245 0.043732
0.219059 0.002625 0.031800
0.289860 0.000000 0.013794
0.356359 0.000000 0.000000
0.412207 0.000000 0.000000
0.458869 0.000000 0.000000
0.498817 0.000000 0.000000
0.534325 0.000000 0.021118
0.567987 0.000000 0.068360
0.601404 0.001923 0.100496
0.637263 0.076204 0.134432
0.679164 0.122560 0.172702
0.720058 0.166323 0.206455
0.758602 0.208682 0.237827
0.793362 0.249332 0.267857
0.824247 0.286015 0.296544
0.852781 0.318853 0.325017
0.879240 0.348180 0.353887
0.903838 0.375860 0.383551
0.926970 0.402686 0.413764
0.948577 0.429389 0.444556
0.968597 0.457221 0.476478
0.986755 0.487831 0.510643
1.000000 0.523156 0.548302
1.000000 0.564111 0.590112
0.034760 0.039002 0.057343
0.034760 0.039002 0.057343
0.033417 0.039216 0.057374
0.029725 0.038697 0.056672
0.049592 0.035340 0.054841
0.073976 0.032441 0.052338
0.105653 0.029694 0.049256
0.155306 0.025452 0.042420
0.219455 0.018341 0.030396
0.290135 0.004791 0.012726
0.356054 0.000000 0.000000
0.411627 0.000000 0.000000
0.457954 0.000000 0.000000
0.497749 0.000000 0.000000
0.533135 0.000000 0.016480
0.566400 0.000000 0.067933
0.599634 0.036713 0.099794
0.635523 0.085512 0.133486
0.676143 0.126497 0.170474
0.715999 0.167147 0.203586
0.754269 0.207614 0.234379
0.789059 0.247196 0.264073
0.820127 0.283543 0.292576
0.848783 0.316075 0.320867
0.875547 0.345556 0.349645
0.900572 0.373297 0.379217
0.924071 0.400214 0.409674
0.946105 0.427100 0.440650
0.966491 0.454810 0.472694
0.985046 0.485237 0.506950
1.000000 0.520134 0.544427
1.000000 0.560571 0.586023
0.034760 0.039002 0.057343
0.034913 0.037812 0.057435
0.033570 0.038025 0.057435
0.031250 0.037263 0.056733
0.051270 0.038514 0.054597
0.075441 0.038758 0.051850
0.107607 0.038727 0.048493
0.157809 0.042329 0.040558
0.221683 0.043488 0.027649
0.291752 0.039368 0.009216
0.357305 0.027588 0.000000
0.412543 0.016114 0.000000
0.458595 0.006256 0.000000
0.498085 0.000000 0.000000
0.533257 0.007843 0.016632
0.566552 0.033478 0.067445
0.599573 0.068696 0.099825
0.635737 0.098756 0.134279
0.675532 0.134707 0.169955
0.714748 0.172396 0.202762
0.752712 0.211002 0.233677
0.787472 0.249271 0.262760
0.818509 0.284794 0.291264
0.847196 0.316930 0.319158
0.874022 0.346258 0.348028
0.899046 0.373693 0.377600
0.922728 0.400366 0.407965
0.944915 0.427070 0.438880
0.965515 0.454627 0.470985
0.984192 0.484749 0.505089
1.000000 0.519280 0.542596
1.000000 0.559319 0.583948
0.034272 0.034424 0.056825
0.034272 0.034424 0.056825
0.032929 0.034638 0.056855
0.032593 0.037049 0.056703
0.054475 0.046052 0.054047
0.079561 0.052308 0.051453
0.114015 0.059693 0.046052
0.166567 0.067323 0.035248
0.230716 0.074067 0.019867
0.299809 0.079896 0.000000
0.363531 0.082368 0.000000
0.417060 0.081239 0.000000
0.461921 0.080293 0.000000
0.500694 0.079500 0.000000
0.535302 0.079805 0.016236
0.568292 0.087434 0.069245
0.601068 0.100954 0.102144
0.637812 0.123293 0.136934
0.676051 0.152712 0.171237
0.713741 0.184817 0.203159
0.750790 0.219821 0.232792
0.785092 0.255436 0.261295
0.816281 0.289616 0.289799
0.845396 0.321080 0.317998
0.872953 0.350286 0.347356
0.898711 0.377691 0.377447
0.922789 0.404364 0.408362
0.945098 0.430915 0.439734
0.965667 0.458045 0.471748
0.984161 0.487465 0.505455
1.000000 0.521141 0.542260
1.000000 0.559991 0.582849
0.032471 0.047456 0.056062
0.032288 0.048371 0.056001
0.033906 0.049104 0.054261
0.040192 0.050965 0.053986
0.055268 0.054963 0.053315
0.081300 0.065644 0.048920
0.124025 0.078340 0.040253
0.178408 0.091615 0.026978
0.243137 0.104891 0.009247
0.310704 0.115694 0.000000
0.371771 0.121004 0.000000
0.423255 0.122774 0.000000
0.466743 0.122103 0.000000
0.504631 0.121370 0.000000
0.538994 0.122316 0.017914
0.571984 0.127138 0.072633
0.605066 0.137057 0.106172
0.642939 0.155612 0.143343
0.680262 0.179171 0.176150
0.717067 0.207248 0.207004
0.753048 0.237980 0.235416
0.786313 0.270024 0.263645
0.816953 0.301549 0.291386
0.845792 0.330968 0.319402
0.873136 0.358618 0.348455
0.898741 0.385046 0.378637
0.922637 0.410559 0.409155
0.944823 0.435981 0.440131
0.965148 0.462196 0.471687
0.983581 0.490730 0.504936
0.999817 0.523491 0.541375
1.000000 0.561395 0.581506
0.026307 0.066560 0.054017
0.026612 0.067414 0.051423
0.031556 0.068391 0.051148
0.044495 0.069734 0.049866
0.062654 0.072541 0.048798
0.081056 0.077882 0.045533
0.126986 0.098451 0.033509
0.191531 0.122713 0.013642
0.263401 0.143648 0.000000
0.328893 0.156588 0.000000
0.386084 0.163241 0.000000
0.434455 0.164920 0.000000
0.475837 0.164523 0.000000
0.512322 0.163180 0.000000
0.546075 0.163668 0.024262
0.578759 0.166873 0.080964
0.613123 0.175631 0.116274
0.650904 0.191318 0.152285
0.687343 0.211643 0.184543
0.723720 0.235996 0.213809
0.758694 0.263493 0.242039
0.791409 0.292454 0.269688
0.848844 0.351690 0.326329
0.874846 0.376257 0.354864
0.898772 0.399054 0.382971
0.920836 0.421088 0.410956
0.941192 0.443000 0.438911
0.960082 0.465431 0.467231
0.977417 0.489845 0.496986
0.993103 0.517601 0.529198
1.000000 0.549554 0.564477
1.000000 0.586084 0.602960
0.010712 0.092958 0.051270
0.012787 0.094636 0.043427
0.021607 0.095399 0.042939
0.045594 0.097505 0.041596
0.069551 0.101137 0.039094
0.095827 0.110292 0.035279
0.131807 0.123781 0.027710
0.207462 0.161990 0.000000
0.286351 0.191379 0.000000
0.361547 0.210788 0.000000
0.414099 0.215061 0.000000
0.457954 0.214664 0.000000
0.495827 0.212406 0.000000
0.529992 0.209873 0.000000
0.562249 0.209293 0.059358
0.594079 0.211612 0.098146
0.631495 0.221469 0.136843
0.668940 0.236027 0.170657
0.705257 0.254612 0.201297
0.741543 0.277684 0.230747
0.776699 0.304051 0.259648
0.809781 0.332097 0.289525
0.840848 0.359197 0.319493
0.869810 0.384680 0.350439
0.896025 0.408484 0.381079
0.919249 0.430274 0.410193
0.940032 0.451423 0.438483
0.958953 0.472786 0.466682
0.976287 0.495857 0.496010
0.991821 0.522087 0.527459
1.000000 0.552422 0.561944
1.000000 0.587304 0.599695
0.000000 0.130922 0.048066
0.000000 0.133211 0.036439
0.000000 0.134737 0.029877
0.037568 0.137728 0.027253
0.075776 0.142275 0.025055
0.107088 0.150546 0.020294
0.148562 0.166384 0.007050
0.199954 0.187137 0.000000
0.289128 0.230900 0.000000
0.362432 0.252995 0.000000
0.424170 0.262608 0.000000
0.471962 0.263096 0.000000
0.507805 0.258824 0.000000
0.540703 0.254856 0.000000
0.572351 0.253056 0.074342
0.606928 0.256260 0.114351
0.643549 0.264652 0.151278
0.678889 0.276463 0.182498
0.713558 0.291691 0.210727
0.748043 0.310948 0.238499
0.781247 0.333257 0.266636
0.812924 0.356847 0.295171
0.842893 0.380194 0.324010
0.870817 0.402472 0.354101
0.896269 0.423621 0.383734
0.919005 0.443366 0.411963
0.939422 0.462501 0.439429
0.958129 0.482338 0.466987
0.975311 0.503929 0.495705
0.990784 0.528527 0.526421
1.000000 0.557244 0.560357
1.000000 0.590417 0.597345
0.000000 0.184054 0.046906
0.000000 0.186343 0.025605
0.000000 0.188907 0.005951
0.006958 0.191958 0.001862
0.078981 0.196719 0.000000
0.118074 0.203037 0.000000
0.162844 0.217563 0.000000
0.217105 0.238743 0.000000
0.280644 0.263401 0.000000
0.365393 0.298222 0.000000
0.425666 0.308049 0.000000
0.476661 0.310002 0.000000
0.521263 0.308721 0.000000
0.554314 0.303685 0.035584
0.587701 0.302037 0.096773
0.623682 0.305608 0.136873
0.658320 0.311559 0.168856
0.692042 0.320989 0.197299
0.725032 0.333227 0.223484
0.757443 0.348882 0.249851
0.788815 0.366949 0.276371
0.818723 0.385962 0.303532
0.847227 0.405585 0.332097
0.874052 0.424567 0.360754
0.898405 0.442817 0.389288
0.920287 0.460029 0.416388
0.940124 0.477119 0.442786
0.958282 0.494972 0.469398
0.974975 0.514763 0.497200
0.990112 0.537621 0.527184
1.000000 0.564294 0.559930
1.000000 0.595392 0.595850
0.000000 0.245792 0.041901
0.000000 0.248020 0.009033
0.000000 0.250767 0.000000
0.000000 0.253513 0.000000
0.070893 0.258061 0.000000
0.124422 0.263798 0.000000
0.170535 0.270848 0.000000
0.226780 0.290532 0.000000
0.287877 0.312108 0.000000
0.354833 0.333928 0.000000
0.426337 0.354040 0.000000
0.476448 0.355352 0.000000
0.520684 0.353704 0.000000
0.564965 0.354284 0.077516
0.607874 0.357061 0.125887
0.642603 0.358526 0.160098
0.676417 0.363012 0.189609
0.708980 0.369818 0.215793
0.740230 0.379278 0.240360
0.770077 0.390875 0.264866
0.798703 0.404303 0.289830
0.825986 0.418585 0.315160
0.852323 0.433326 0.341497
0.877043 0.448219 0.368078
0.899901 0.462989 0.394507
0.920928 0.477668 0.420203
0.940307 0.492683 0.445624
0.958190 0.508904 0.471778
0.974701 0.527153 0.499123
0.989715 0.548577 0.528679
1.000000 0.573816 0.561151
1.000000 0.603296 0.596490
0.000000 0.306615 0.046143
0.000000 0.308415 0.005585
0.000000 0.311070 0.000000
0.000000 0.314244 0.000000
0.023133 0.317632 0.000000
0.120180 0.322454 0.000000
0.175204 0.328252 0.000000
0.227481 0.338109 0.000000
0.286931 0.356207 0.000000
0.349981 0.374548 0.000000
0.415808 0.392248 0.000000
0.477302 0.402716 0.000000
0.524315 0.402441 0.012390
0.569390 0.403204 0.105867
0.614954 0.407111 0.148135
0.659907 0.413306 0.183536
0.693996 0.415900 0.210269
0.724788 0.419623 0.233951
0.753567 0.425177 0.257084
0.781186 0.432685 0.279942
0.807858 0.441810 0.303380
0.833768 0.452277 0.327764
0.858701 0.463783 0.353307
0.882048 0.475441 0.378607
0.903716 0.487251 0.403479
0.923613 0.499153 0.427527
0.941924 0.511681 0.451514
0.958923 0.525628 0.476265
0.974792 0.541711 0.502403
0.989288 0.560967 0.530877
1.000000 0.584039 0.562127
1.000000 0.611292 0.596338
0.000000 0.362005 0.060029
0.000000 0.363409 0.012451
0.000000 0.365454 0.000000
0.000000 0.368231 0.000000
0.000000 0.370977 0.000000
0.105135 0.374365 0.000000
0.169833 0.378668 0.000000
0.223423 0.383520 0.000000
0.279820 0.395117 0.000000
0.340612 0.410803 0.000000
0.403784 0.427436 0.000000
0.471168 0.446082 0.000000
0.550439 0.473793 0.119631
0.598688 0.475166 0.157839
0.645533 0.479377 0.195071
0.691005 0.485267 0.226444
0.733425 0.491707 0.255070
0.767239 0.494972 0.278935
0.790707 0.494148 0.299321
0.813687 0.495644 0.319921
0.836271 0.498909 0.341253
0.858183 0.503807 0.363134
0.878996 0.509483 0.384710
0.898772 0.516197 0.406256
0.917266 0.523705 0.427771
0.934478 0.532036 0.449073
0.950530 0.541466 0.470466
0.965484 0.552605 0.492988
0.979492 0.566369 0.517174
0.992493 0.583246 0.543847
1.000000 0.603723 0.573205
1.000000 0.628260 0.605402
0.000000 0.415930 0.066133
0.000000 0.416968 0.026093
0.000000 0.418067 0.000000
0.000000 0.420203 0.000000
0.000000 0.421363 0.000000
0.075959 0.422980 0.000000
0.158114 0.425452 0.000000
0.217319 0.428504 0.000000
0.270298 0.432532 0.000000
0.332341 0.449439 0.000000
0.396277 0.467475 0.000000
0.462776 0.485969 0.060700
0.531243 0.505303 0.115328
0.594934 0.519646 0.177371
0.643549 0.523461 0.207340
0.689418 0.528344 0.238163
0.731441 0.532860 0.266392
0.768093 0.535973 0.292302
0.800412 0.538689 0.317723
0.823453 0.537194 0.337713
0.844388 0.536950 0.357519
0.864744 0.538293 0.377630
0.884092 0.540826 0.397345
0.902525 0.544518 0.417090
0.919890 0.549096 0.436378
0.936095 0.554894 0.456062
0.951263 0.562066 0.476356
0.965576 0.571069 0.497536
0.979065 0.582666 0.520592
0.991638 0.597436 0.546258
1.000000 0.615686 0.574426
1.000000 0.637903 0.605493
0.000000 0.453559 0.076417
0.000000 0.454505 0.053285
0.000000 0.455360 0.000000
0.000000 0.457496 0.000000
0.000000 0.458198 0.000000
0.000000 0.459327 0.000000
0.141054 0.462165 0.000000
0.206455 0.466529 0.000000
0.262669 0.471443 0.000000
0.318486 0.479774 0.000000
0.380102 0.495460 0.033478
0.443915 0.512505 0.098665
0.509636 0.531090 0.139742
0.577783 0.551171 0.175784
0.641596 0.567559 0.225864
0.687984 0.570794 0.250675
0.729335 0.572900 0.276738
0.765316 0.573968 0.303136
0.797513 0.574426 0.328191
0.827451 0.575738 0.353216
0.853208 0.576318 0.375891
0.872099 0.574456 0.394018
0.890135 0.573938 0.411902
0.907317 0.574945 0.429908
0.923491 0.577020 0.447700
0.938659 0.580285 0.465949
0.952941 0.585138 0.484535
0.966461 0.592065 0.504570
0.979278 0.601556 0.526452
0.991302 0.614130 0.550866
1.000000 0.630121 0.577844
1.000000 0.649928 0.607507
0.000000 0.489693 0.091829
0.000000 0.490578 0.079713
0.000000 0.491585 0.058534
0.000000 0.493782 0.000000
0.000000 0.495155 0.000000
0.000000 0.496712 0.000000
0.123598 0.498878 0.000000
0.195560 0.501518 0.000000
0.253361 0.505272 0.000000
0.307012 0.509789 0.049866
0.364599 0.521050 0.090028
0.426734 0.537591 0.126162
0.490974 0.555932 0.159854
0.556878 0.575647 0.191562
0.623621 0.595941 0.222538
0.686030 0.612757 0.268132
0.728176 0.613581 0.290257
0.763882 0.612055 0.313329
0.795529 0.610590 0.339483
0.825162 0.609918 0.363897
0.852873 0.610071 0.387488
0.878233 0.610590 0.410193
0.896391 0.608240 0.427344
0.912200 0.606348 0.443793
0.927276 0.605921 0.459998
0.941497 0.607202 0.477119
0.955077 0.610163 0.494881
0.968017 0.615442 0.514275
0.980316 0.623346 0.535546
0.991882 0.634363 0.559411
1.000000 0.648615 0.585626
1.000000 0.666468 0.614343
0.000000 0.525078 0.111482
0.000000 0.525902 0.104707
0.000000 0.526818 0.094667
0.000000 0.528618 0.066896
0.000000 0.530053 0.041688
0.000000 0.531456 0.058991
0.111147 0.533410 0.069429
0.187716 0.536095 0.081666
0.247410 0.539391 0.095033
0.301366 0.543420 0.107546
0.352605 0.548150 0.122011
0.413306 0.563378 0.149966
0.475044 0.580377 0.178408
0.538170 0.598535 0.205997
0.601801 0.617426 0.233646
0.665675 0.636713 0.261204
0.724544 0.651789 0.305669
0.761776 0.649897 0.327153
0.794003 0.646571 0.349706
0.823911 0.644617 0.374975
0.851804 0.643366 0.398627
0.877134 0.642542 0.421454
0.899840 0.641840 0.442512
0.918761 0.640650 0.461463
0.932555 0.637842 0.476417
0.945678 0.636927 0.492134
0.958190 0.637842 0.508690
0.970153 0.641047 0.526665
0.981506 0.646845 0.546746
0.992279 0.655360 0.568658
1.000000 0.666926 0.592798
1.000000 0.681819 0.619287
0.000000 0.556512 0.131472
0.000000 0.557092 0.127718
0.000000 0.557733 0.122927
0.000000 0.559136 0.112306
0.000000 0.560784 0.102876
0.000000 0.562036 0.108003
0.103792 0.563867 0.114321
0.182803 0.566247 0.121614
0.242649 0.569329 0.130587
0.296147 0.573175 0.140993
0.346990 0.577661 0.152285
0.399817 0.585992 0.167819
0.460456 0.602747 0.193179
0.521721 0.620478 0.218784
0.583276 0.638819 0.244907
0.644434 0.657221 0.270756
0.705348 0.675074 0.297856
0.758083 0.686152 0.342718
0.791897 0.682704 0.363622
0.821988 0.678492 0.384009
0.849577 0.675502 0.407599
0.874723 0.672999 0.429847
0.897337 0.670832 0.450904
0.917510 0.669215 0.470985
0.935332 0.668177 0.490364
0.948547 0.666041 0.506157
0.960174 0.664973 0.521660
0.971313 0.666224 0.538445
0.981964 0.669886 0.557061
0.992126 0.676295 0.577569
1.000000 0.685603 0.600153
1.000000 0.698146 0.625177
0.000000 0.588190 0.153231
0.000000 0.589105 0.151095
0.000000 0.604700 0.160830
0.000000 0.605890 0.157961
0.000000 0.607507 0.156680
0.000000 0.608423 0.159731
0.130922 0.609705 0.164126
0.199741 0.611536 0.169162
0.256321 0.614099 0.175601
0.308171 0.617548 0.183383
0.357519 0.621607 0.192203
0.405341 0.626032 0.201938
0.460243 0.637873 0.219974
0.519829 0.654902 0.243259
0.579126 0.672267 0.267002
0.637568 0.689082 0.291814
0.695003 0.704952 0.318273
0.751186 0.719570 0.345312
0.796323 0.724910 0.387030
0.827268 0.720027 0.407385
0.853727 0.713863 0.425086
0.877684 0.708766 0.445930
0.899229 0.704433 0.466194
0.918334 0.700771 0.485328
0.935149 0.697688 0.503563
0.950011 0.695613 0.521386
0.962646 0.694148 0.538018
0.972625 0.692622 0.552239
0.982361 0.693751 0.568566
0.991852 0.697780 0.587213
1.000000 0.704738 0.608057
1.000000 0.714626 0.630945
0.000000 0.624201 0.176608
0.000000 0.626764 0.177737
0.000000 0.629419 0.178500
0.000000 0.632380 0.179751
0.000000 0.635462 0.181613
0.012604 0.637232 0.185000
0.144808 0.638819 0.189181
0.207034 0.640681 0.193881
0.260563 0.643214 0.199619
0.309789 0.646357 0.205905
0.357366 0.650233 0.213809
0.403632 0.654536 0.222202
0.449042 0.658900 0.231235
0.506035 0.674708 0.252750
0.562799 0.690944 0.275364
0.618738 0.706569 0.299321
0.673671 0.721279 0.324743
0.727443 0.735012 0.350561
0.780606 0.747982 0.376898
0.821714 0.751064 0.416297
0.850889 0.745937 0.437079
0.875242 0.739284 0.454658
0.896941 0.733547 0.474128
0.916045 0.728603 0.493812
0.932830 0.724453 0.512596
0.947723 0.721248 0.530510
0.960998 0.719142 0.548058
0.972869 0.718563 0.565698
0.982544 0.718318 0.581567
0.991363 0.720089 0.598322
0.999939 0.724666 0.617121
1.000000 0.731991 0.637873
0.000000 0.655116 0.196231
0.000000 0.657496 0.197940
0.000000 0.660029 0.199435
0.000000 0.662806 0.201999
0.000000 0.665675 0.205325
0.090181 0.667597 0.208835
0.163912 0.669154 0.212436
0.218784 0.670954 0.216556
0.268193 0.673487 0.221592
0.315007 0.676509 0.227756
0.360479 0.680232 0.234989
0.405035 0.684382 0.242557
0.448676 0.688533 0.250797
0.495308 0.695949 0.263157
0.549798 0.710933 0.285283
0.603326 0.725246 0.308568
0.655909 0.738827 0.332830
0.707485 0.751553 0.358099
0.758755 0.763882 0.383154
0.809628 0.775875 0.408423
0.846281 0.776303 0.445624
0.873045 0.770687 0.467323
0.894957 0.763394 0.484443
0.914092 0.756893 0.502953
0.930755 0.751431 0.521996
0.945495 0.746853 0.539788
0.958648 0.743496 0.557183
0.970459 0.741573 0.574548
0.981109 0.741268 0.592218
0.990600 0.742428 0.609735
0.998627 0.744625 0.626459
1.000000 0.749508 0.645136
0.000000 0.687160 0.216617
0.000000 0.689448 0.218692
0.000000 0.691859 0.220829
0.000000 0.694575 0.223575
0.000000 0.697200 0.227726
0.128817 0.699214 0.231571
0.184695 0.700649 0.234775
0.232822 0.702388 0.238712
0.278233 0.704555 0.243320
0.321935 0.707210 0.248539
0.364874 0.710384 0.255100
0.407294 0.713863 0.262394
0.448951 0.717433 0.269718
0.490425 0.721065 0.278416
0.538537 0.731014 0.295659
0.590234 0.744503 0.318761
0.641413 0.757626 0.343236
0.691890 0.770352 0.368292
0.742214 0.782834 0.393439
0.791928 0.794797 0.418769
0.840696 0.805936 0.444770
0.872923 0.804044 0.481849
0.896605 0.797513 0.504692
0.915557 0.789639 0.522057
0.932036 0.782620 0.539605
0.946258 0.776974 0.558038
0.958892 0.772427 0.575402
0.970245 0.769345 0.592401
0.980468 0.767880 0.609735
0.989746 0.768002 0.627008
0.998047 0.769680 0.644526
1.000000 0.772396 0.661097
0.000000 0.727810 0.244694
0.000000 0.729000 0.246036
0.000000 0.730037 0.247623
0.000000 0.731380 0.250065
0.112520 0.732906 0.253574
0.165682 0.734371 0.257542
0.209781 0.735531 0.260380
0.251804 0.737026 0.264225
0.293217 0.739193 0.268833
0.334142 0.741726 0.274266
0.374792 0.744686 0.280858
0.415167 0.747768 0.287785
0.455207 0.750820 0.295781
0.494636 0.753780 0.304143
0.533837 0.756680 0.312444
0.582879 0.768124 0.334630
0.631678 0.779812 0.358007
0.680232 0.791318 0.381506
0.728206 0.802396 0.405127
0.775570 0.812802 0.428901
0.821744 0.822385 0.453162
0.866575 0.831083 0.478035
0.893370 0.826017 0.513298
0.913298 0.818021 0.535851
0.929595 0.809415 0.551537
0.943938 0.802029 0.567498
0.956481 0.796292 0.585046
0.967773 0.791989 0.602014
0.977935 0.789364 0.619013
0.987152 0.788235 0.635889
0.995422 0.788571 0.652766
1.000000 0.790249 0.669459
0.000000 0.759487 0.268406
0.000000 0.760525 0.269780
0.065034 0.761624 0.271458
0.109743 0.762753 0.273991
0.152285 0.763973 0.277287
0.192782 0.765225 0.281132
0.229679 0.766049 0.283787
0.266575 0.767086 0.287175
0.304509 0.768643 0.291661
0.342473 0.770596 0.296971
0.380743 0.772976 0.302983
0.418860 0.775479 0.309880
0.456886 0.777981 0.317479
0.494972 0.780514 0.325383
0.532799 0.783078 0.333684
0.573327 0.788083 0.346319
0.620661 0.799008 0.368627
0.667567 0.809598 0.391302
0.713893 0.819699 0.414313
0.759487 0.829191 0.437690
0.804166 0.837980 0.461219
0.847471 0.845884 0.485908
0.888762 0.852934 0.511192
0.911162 0.845975 0.545800
0.926268 0.834958 0.562890
0.940642 0.826261 0.577691
0.953491 0.818936 0.592920
0.964782 0.813413 0.609735
0.974975 0.809537 0.626398
0.984192 0.807279 0.643153
0.992584 0.806577 0.659785
1.000000 0.807126 0.676112
0.119295 0.795651 0.300664
0.130098 0.796689 0.302251
0.143038 0.797452 0.303777
0.164645 0.798123 0.305608
0.192355 0.798734 0.308354
0.222965 0.799374 0.311528
0.253880 0.799680 0.313970
0.286229 0.800015 0.316533
0.319890 0.800595 0.320134
0.354406 0.801541 0.324315
0.389410 0.802731 0.329137
0.424994 0.804318 0.335027
0.460853 0.805966 0.341405
0.496773 0.807645 0.348272
0.532586 0.809140 0.355261
0.568414 0.810697 0.362737
0.609827 0.816892 0.378363
0.654475 0.825895 0.399420
0.698970 0.834806 0.421027
0.743038 0.843381 0.443366
0.786252 0.851347 0.466529
0.828122 0.858457 0.490517
0.868040 0.864561 0.514794
0.905608 0.869718 0.539452
0.924071 0.860990 0.571527
0.938384 0.851560 0.592218
0.950958 0.842893 0.606165
0.962249 0.835660 0.620172
0.972351 0.830350 0.635767
0.981506 0.826749 0.651789
0.989929 0.824887 0.667933
0.997436 0.824247 0.683711
0.162753 0.823880 0.327031
0.170443 0.824918 0.328679
0.179751 0.825650 0.330083
0.195804 0.826230 0.331823
0.217685 0.826719 0.334142
0.243687 0.827268 0.336797
0.271489 0.827695 0.339452
0.300755 0.828092 0.341924
0.331884 0.828733 0.345464
0.364294 0.829679 0.349645
0.397528 0.830869 0.354528
0.431586 0.832364 0.360266
0.466011 0.833951 0.366674
0.500511 0.835416 0.373083
0.535210 0.836790 0.379828
0.569940 0.838102 0.387030
0.604730 0.839506 0.394812
0.647303 0.846830 0.413977
0.689967 0.854337 0.434516
0.732235 0.861509 0.456001
0.773587 0.868070 0.478309
0.813748 0.873899 0.501427
0.852110 0.878904 0.525109
0.888365 0.883146 0.548821
0.922148 0.886687 0.572412
0.937163 0.876829 0.602380
0.949004 0.867124 0.622431
0.960113 0.858854 0.635492
0.970214 0.852171 0.648981
0.979400 0.847379 0.663752
0.987640 0.844327 0.679316
0.993713 0.845090 0.693874
0.200687 0.853788 0.357031
0.206394 0.854490 0.358312
0.213016 0.854826 0.359106
0.225467 0.855070 0.360327
0.243198 0.855222 0.362005
0.264897 0.855375 0.363928
0.289342 0.855558 0.366094
0.315831 0.855680 0.368200
0.344457 0.856016 0.371374
0.374609 0.856718 0.375280
0.405951 0.857633 0.379736
0.438300 0.858854 0.385290
0.471229 0.860136 0.391028
0.504479 0.861326 0.397253
0.537713 0.862303 0.403571
0.571038 0.863188 0.410193
0.604547 0.864042 0.417243
0.640314 0.866453 0.428077
0.681300 0.872526 0.447547
0.721828 0.878294 0.467750
0.761593 0.883574 0.489204
0.800198 0.888212 0.511437
0.837125 0.892210 0.534203
0.872099 0.895537 0.556970
0.904906 0.898222 0.579461
0.935241 0.900450 0.601984
0.947570 0.890013 0.629664
0.957519 0.880339 0.648768
0.967407 0.872343 0.660578
0.976684 0.866331 0.673732
0.985046 0.861875 0.687465
0.990661 0.861082 0.702144
0.231418 0.880858 0.385229
0.235813 0.881254 0.386114
0.241276 0.881559 0.386938
0.251926 0.881773 0.387976
0.267460 0.882078 0.389563
0.286839 0.882628 0.391974
0.309667 0.883574 0.395148
0.334997 0.884550 0.398505
0.362524 0.885832 0.402960
0.391699 0.887388 0.408209
0.422217 0.889036 0.414130
0.453651 0.890745 0.420356
0.485512 0.892302 0.427070
0.517662 0.893584 0.433600
0.549920 0.894469 0.440314
0.582025 0.894957 0.446876
0.614221 0.895354 0.453742
0.646509 0.895720 0.461128
0.683009 0.898344 0.475746
0.721584 0.902098 0.495216
0.759182 0.905455 0.515679
0.795621 0.908385 0.536797
0.830442 0.910735 0.558068
0.863371 0.912596 0.579370
0.894255 0.914031 0.600610
0.922881 0.915129 0.621607
0.949248 0.915984 0.642115
0.958801 0.905180 0.665980
0.966827 0.895659 0.682948
0.975280 0.888090 0.693385
0.983307 0.882475 0.705165
0.985962 0.879179 0.720760
0.272984 0.913451 0.424201
0.276188 0.913664 0.424811
0.280400 0.913725 0.425147
0.288792 0.913664 0.425971
0.301549 0.913573 0.427070
0.317967 0.913573 0.428687
0.337804 0.913756 0.431281
0.359747 0.913970 0.433783
0.383948 0.914275 0.436927
0.410101 0.914733 0.440955
0.437659 0.915282 0.445289
0.466377 0.915831 0.450385
0.495857 0.916350 0.455818
0.525933 0.916716 0.461463
0.556329 0.916899 0.467323
