其他预设/【233】日式怀旧街道调色预设208款/1.3D LUT预设（视频调色-PR-AE-PS-FCPX-达芬奇用）/1.日式城市街拍预设/JA – Cool Bright 2.cube
# Created by Adobe Lightroom plugin Export LUT (1.17.0)
# www.johnrellis.com/lightroom/exportlut.htm
# Preset: JA – Cool Bright 2
# Color profile: /Library/Application Support/Adobe/Color/Profiles/Recommended/AdobeRGB1998.icc
LUT_3D_SIZE 5
DOMAIN_MIN 0.000000 0.000000 0.000000
DOMAIN_MAX 0.903226 0.903226 0.903226
0.079072 0.082368 0.084810
0.200198 0.084321 0.093690
0.513756 0.013642 0.110353
0.805356 0.000000 0.144259
1.000000 0.166629 0.257725
0.089082 0.200687 0.103243
0.219059 0.219883 0.100038
0.530419 0.261387 0.110689
0.806973 0.250523 0.147768
1.000000 0.306767 0.279515
0.000000 0.530266 0.109865
0.268101 0.522728 0.104677
0.592889 0.573327 0.000000
0.824796 0.533562 0.160250
0.994141 0.540154 0.339330
0.149630 0.794980 0.217716
0.302342 0.788571 0.211948
0.544305 0.766293 0.185641
0.823667 0.794461 0.171206
0.989593 0.752651 0.366888
0.501640 0.953429 0.493721
0.535241 0.951080 0.490059
0.634028 0.941863 0.470680
0.789731 0.934417 0.469703
0.950561 0.925383 0.506554
0.000000 0.095277 0.193790
0.185580 0.080995 0.195132
0.506889 0.000000 0.251408
0.796262 0.000000 0.249485
0.992554 0.191287 0.345098
0.056764 0.209079 0.215732
0.209140 0.215274 0.218662
0.540887 0.206638 0.229740
0.799619 0.207553 0.257755
0.991577 0.319127 0.361028
0.000000 0.542535 0.293400
0.205539 0.550134 0.234104
0.585443 0.567803 0.205509
0.812314 0.528069 0.298344
0.986816 0.553368 0.418891
0.236790 0.799985 0.367376
0.325444 0.797024 0.343572
0.547417 0.771023 0.308934
0.821744 0.793820 0.301152
0.983215 0.758236 0.448035
0.550439 0.949493 0.563043
0.562432 0.948943 0.545892
0.654841 0.942016 0.533043
0.794949 0.933532 0.520928
0.949371 0.925170 0.550866
0.000000 0.070619 0.517296
0.182345 0.000000 0.490852
0.470314 0.000000 0.460609
0.756161 0.000000 0.463966
0.974029 0.298497 0.536217
0.000000 0.295445 0.571069
0.000000 0.176822 0.548425
0.510185 0.082918 0.495613
0.771389 0.166293 0.478309
0.971862 0.426978 0.567193
0.000000 0.600061 0.591455
0.119997 0.600366 0.590173
0.595026 0.583581 0.566979
0.802914 0.566369 0.558648
0.971527 0.589288 0.586328
0.316991 0.815518 0.598444
0.425605 0.810422 0.599390
0.609705 0.797910 0.583856
0.821866 0.798062 0.552850
0.965057 0.776089 0.622034
0.584771 0.946807 0.674403
0.621942 0.944274 0.678676
0.695430 0.938689 0.666407
0.798154 0.928588 0.628565
0.944640 0.923003 0.646387
0.000000 0.000000 0.784909
0.000000 0.000000 0.770596
0.447181 0.000000 0.719265
0.721798 0.000000 0.689967
0.954131 0.000000 0.653803
0.000000 0.235782 0.805936
0.000000 0.145785 0.794766
0.433173 0.000000 0.741726
0.732296 0.000000 0.699641
0.954498 0.000000 0.657221
0.000000 0.586389 0.844846
0.000000 0.588769 0.845060
0.495552 0.534936 0.804105
0.762448 0.467567 0.727718
0.954650 0.503105 0.696040
0.248081 0.838987 0.832670
0.408789 0.838499 0.830655
0.648920 0.837278 0.825376
0.832242 0.817136 0.798581
0.945342 0.794553 0.779385
0.644495 0.943908 0.821836
0.677272 0.941314 0.822599
0.763607 0.933898 0.825101
0.843503 0.924895 0.814481
0.936370 0.920409 0.790311
0.000000 0.019318 0.940612
0.000000 0.000000 0.937896
0.325719 0.000000 0.928374
0.652033 0.000000 0.904295
0.923033 0.000000 0.898802
0.000000 0.095399 0.941283
0.000000 0.038087 0.939361
0.276860 0.000000 0.931334
0.642237 0.000000 0.907500
0.923095 0.000000 0.898924
0.000000 0.478187 0.942809
0.000000 0.462745 0.941680
0.278935 0.424018 0.935576
0.637751 0.354803 0.916258
0.924102 0.328923 0.900481
0.000000 0.741390 0.933318
0.306981 0.751736 0.931731
0.605219 0.784146 0.927276
0.773831 0.780880 0.918303
0.924773 0.693904 0.902342
0.563287 0.919799 0.918914
0.614466 0.920073 0.918303
0.755520 0.921386 0.916594
0.882292 0.923186 0.914672
0.930144 0.921294 0.910613
