其他预设/【233】日式怀旧街道调色预设208款/1.3D LUT预设（视频调色-PR-AE-PS-FCPX-达芬奇用）/1.日式城市街拍预设/JA – Chrome 2.cube
# Created by Adobe Lightroom plugin Export LUT (1.17.0)
# www.johnrellis.com/lightroom/exportlut.htm
# Preset: JA – Chrome 2
# Color profile: /Library/Application Support/Adobe/Color/Profiles/Recommended/AdobeRGB1998.icc
LUT_3D_SIZE 8
DOMAIN_MIN 0.000000 0.000000 0.000000
DOMAIN_MAX 0.903226 0.903226 0.903226
0.109712 0.106752 0.111879
0.131960 0.104646 0.112032
0.198398 0.105715 0.109133
0.421485 0.134463 0.082948
0.675471 0.205173 0.000000
0.838895 0.255650 0.000000
0.945373 0.289097 0.000000
1.000000 0.309270 0.000000
0.108400 0.129458 0.110140
0.134524 0.129335 0.109804
0.201816 0.135866 0.106355
0.429145 0.193027 0.069764
0.676020 0.256107 0.000000
0.835630 0.292973 0.000000
0.942046 0.317754 0.000000
1.000000 0.332341 0.000000
0.112673 0.189303 0.112337
0.140108 0.188479 0.111421
0.214847 0.202335 0.105806
0.467536 0.320226 0.000000
0.703548 0.390478 0.000000
0.850614 0.405341 0.000000
0.951019 0.409491 0.000000
1.000000 0.405707 0.000000
0.099367 0.366094 0.081697
0.162417 0.364569 0.078859
0.284886 0.366827 0.064271
0.493782 0.459236 0.000000
0.722530 0.528862 0.000000
0.872587 0.557610 0.000000
0.956970 0.535668 0.000000
1.000000 0.509880 0.000000
0.000000 0.579248 0.000000
0.160067 0.577264 0.000000
0.324285 0.572442 0.000000
0.491005 0.584070 0.000000
0.691096 0.644465 0.000000
0.853300 0.657679 0.000000
0.952392 0.652735 0.000000
1.000000 0.632227 0.000000
0.000000 0.722377 0.000000
0.135256 0.724605 0.000000
0.316503 0.719539 0.000000
0.481575 0.711452 0.000000
0.646204 0.732540 0.000000
0.823606 0.773373 0.000000
0.941772 0.754208 0.000000
1.000000 0.725551 0.000000
0.000000 0.844755 0.000000
0.107485 0.844358 0.000000
0.299443 0.839567 0.000000
0.463203 0.832578 0.000000
0.618402 0.822385 0.000000
0.765316 0.842527 0.000000
0.908324 0.858854 0.000000
0.992889 0.819516 0.000000
0.041535 0.937957 0.000000
0.154879 0.937041 0.000000
0.301579 0.934234 0.000000
0.449958 0.929900 0.000000
0.592126 0.919432 0.000000
0.731258 0.914122 0.000000
0.851957 0.918242 0.000000
0.963256 0.917021 0.000000
0.108186 0.109895 0.129732
0.131197 0.101930 0.131991
0.190616 0.104250 0.126589
0.399115 0.109255 0.116365
0.659663 0.160494 0.043275
0.825223 0.217288 0.000000
0.937285 0.261112 0.000000
1.000000 0.289555 0.000000
0.105531 0.126345 0.132296
0.131136 0.127199 0.133028
0.194949 0.132662 0.130770
0.411017 0.164767 0.111757
0.664271 0.219333 0.005951
0.825803 0.261112 0.000000
0.935302 0.293004 0.000000
1.000000 0.313970 0.000000
0.108034 0.186618 0.135042
0.133364 0.187778 0.133639
0.208621 0.197513 0.128603
0.456764 0.305364 0.081422
0.689174 0.363836 0.000000
0.839109 0.381598 0.000000
0.942016 0.389746 0.000000
1.000000 0.390814 0.000000
0.000000 0.360204 0.117922
0.119936 0.364080 0.106722
0.271153 0.366430 0.095094
0.473182 0.440284 0.000000
0.702327 0.508629 0.000000
0.858640 0.541222 0.000000
0.948302 0.520623 0.000000
1.000000 0.499001 0.000000
0.000000 0.579400 0.000000
0.063752 0.577844 0.000000
0.300328 0.571221 0.000000
0.476112 0.573968 0.000000
0.678981 0.633082 0.000000
0.845853 0.648798 0.000000
0.948699 0.646998 0.000000
1.000000 0.625696 0.000000
0.000000 0.720089 0.000000
0.000000 0.719265 0.000000
0.287358 0.714504 0.000000
0.466560 0.707271 0.000000
0.637507 0.726925 0.000000
0.820401 0.770352 0.000000
0.939788 0.751614 0.000000
1.000000 0.723995 0.000000
0.000000 0.840940 0.000000
0.000000 0.839017 0.000000
0.272648 0.834989 0.000000
0.448981 0.829313 0.000000
0.610132 0.820157 0.000000
0.760433 0.839292 0.000000
0.905150 0.855955 0.000000
0.990173 0.817716 0.000000
0.000000 0.936004 0.000000
0.124239 0.935424 0.000000
0.288884 0.932830 0.000000
0.442023 0.928740 0.000000
0.589624 0.921691 0.000000
0.729763 0.914458 0.000000
0.850767 0.917449 0.000000
0.961852 0.916075 0.060700
0.101747 0.112367 0.176852
0.126864 0.102754 0.185611
0.193820 0.096834 0.190433
0.374640 0.000000 0.233402
0.640131 0.000000 0.179232
0.814023 0.000000 0.155795
0.935515 0.119203 0.116915
1.000000 0.207828 0.034607
0.116548 0.131624 0.176852
0.130251 0.127169 0.183963
0.194705 0.120302 0.191775
0.382269 0.000000 0.222416
0.641230 0.000000 0.168185
0.816617 0.045075 0.150027
0.934447 0.188937 0.113466
1.000000 0.244999 0.025086
0.111238 0.181552 0.188327
0.130068 0.183810 0.190463
0.197696 0.191165 0.197238
0.430549 0.218082 0.187625
0.674861 0.264439 0.165835
0.831571 0.302647 0.142428
0.938964 0.331182 0.114931
1.000000 0.346380 0.050416
0.000000 0.362036 0.246433
0.000000 0.370001 0.237827
0.186526 0.392401 0.176333
0.464759 0.433845 0.149599
0.705470 0.490578 0.139406
0.851743 0.501946 0.145205
0.945495 0.492287 0.140444
1.000000 0.477302 0.107332
0.000000 0.579522 0.245762
0.000000 0.582940 0.221103
0.168093 0.589685 0.132815
0.446143 0.577661 0.102113
0.676661 0.631891 0.037324
0.846128 0.642969 0.112276
0.946075 0.648005 0.190280
1.000000 0.622248 0.197696
0.000000 0.722683 0.183810
0.000000 0.724453 0.146029
0.163607 0.724147 0.091493
0.424659 0.714321 0.000885
0.618769 0.720821 0.000000
0.814450 0.765866 0.000000
0.934752 0.751095 0.184176
0.995666 0.734218 0.262364
0.000000 0.845487 0.062043
0.000000 0.845335 0.000000
0.188571 0.839963 0.094423
0.412207 0.832670 0.000000
0.589624 0.822385 0.000000
0.752804 0.836698 0.000000
0.903044 0.855833 0.166323
0.985168 0.823453 0.276677
0.000000 0.939971 0.000000
0.000000 0.938262 0.000000
0.279728 0.931701 0.200778
0.435157 0.928374 0.188205
0.581445 0.921416 0.153536
0.724788 0.912688 0.091737
0.850370 0.916197 0.220066
0.959503 0.915831 0.297520
0.082124 0.108431 0.304082
0.143130 0.089693 0.327001
0.289342 0.000000 0.382361
0.412482 0.000000 0.377966
0.606897 0.000000 0.406500
0.790311 0.000000 0.363226
0.917418 0.000000 0.310979
0.986755 0.292424 0.380499
0.073365 0.126833 0.310430
0.124331 0.119875 0.326055
0.275151 0.028748 0.381445
0.417487 0.000000 0.382147
0.613642 0.000000 0.401678
0.791897 0.000000 0.354223
0.915465 0.000000 0.319493
0.987671 0.309850 0.376318
0.090852 0.208713 0.284398
0.111757 0.208255 0.290288
0.190097 0.180667 0.355871
0.427039 0.120790 0.390509
0.634272 0.000000 0.383062
0.800900 0.174350 0.357275
0.914183 0.363592 0.400671
0.992035 0.389837 0.380163
0.000000 0.351446 0.348882
0.000000 0.356878 0.353704
0.148318 0.376410 0.370550
0.432624 0.412055 0.399207
0.659174 0.447852 0.405615
0.814084 0.482002 0.412848
0.921386 0.509331 0.417792
0.989929 0.518364 0.408942
0.000000 0.582788 0.415015
0.000000 0.584894 0.408698
0.000000 0.593530 0.384314
0.415595 0.598718 0.374517
0.662654 0.623407 0.377539
0.832670 0.656123 0.429145
0.928222 0.669734 0.458289
0.986419 0.653590 0.452064
0.000000 0.726528 0.381170
0.000000 0.730465 0.373236
0.000000 0.732296 0.344488
0.408118 0.728634 0.357702
0.604273 0.714748 0.328832
0.806912 0.762722 0.381323
0.922759 0.764126 0.446174
0.981292 0.764187 0.487221
0.000000 0.845304 0.337530
0.000000 0.845792 0.329229
0.000000 0.845396 0.311620
0.414893 0.837583 0.353124
0.582940 0.827909 0.328222
0.748257 0.831937 0.336828
0.897826 0.854307 0.406012
0.974426 0.833738 0.471199
0.000000 0.939971 0.311437
0.000000 0.939422 0.310552
0.170932 0.936248 0.315190
0.459907 0.925811 0.385657
0.588952 0.919646 0.367651
0.722408 0.911559 0.342626
0.850797 0.913237 0.392981
0.955535 0.915007 0.453010
0.086122 0.076539 0.494392
0.166262 0.020203 0.506371
0.315465 0.000000 0.540063
0.515373 0.000000 0.585016
0.646296 0.000000 0.567651
0.772122 0.000000 0.540978
0.897887 0.000000 0.502434
0.981750 0.090425 0.480720
0.000000 0.109743 0.493904
0.125216 0.094148 0.504723
0.294530 0.000000 0.537682
0.504387 0.000000 0.583337
0.647578 0.000000 0.568872
0.772488 0.000000 0.539147
0.897948 0.000000 0.503563
0.980011 0.208530 0.488228
0.000000 0.235111 0.472572
0.000000 0.218173 0.486519
0.189425 0.163760 0.520928
0.459144 0.000000 0.575341
0.648280 0.000000 0.570092
0.767697 0.000000 0.535515
0.894591 0.245212 0.514763
0.973846 0.379156 0.511254
0.000000 0.364996 0.464149
0.000000 0.363928 0.467292
0.163333 0.364813 0.478828
0.411688 0.385626 0.541955
0.642542 0.401587 0.568872
0.772213 0.428565 0.548058
0.891905 0.482460 0.542870
0.962097 0.572412 0.572320
0.000000 0.538231 0.513359
0.000000 0.541466 0.516106
0.087343 0.551568 0.524468
0.425238 0.570733 0.539818
0.632227 0.601343 0.564904
0.790860 0.631861 0.576532
0.899046 0.658106 0.587060
0.966857 0.670314 0.587579
0.000000 0.720180 0.542443
0.000000 0.722133 0.541650
0.000000 0.723476 0.534264
0.392432 0.722194 0.529137
0.601282 0.722286 0.530877
0.789914 0.751034 0.549645
0.907713 0.778927 0.609186
0.965057 0.787381 0.632288
0.000000 0.842863 0.505882
0.000000 0.842374 0.502525
0.000000 0.840421 0.496315
0.382330 0.836088 0.496345
0.586633 0.829068 0.511192
0.733303 0.817502 0.486275
0.889036 0.849943 0.555291
0.961334 0.844755 0.614893
0.000000 0.935790 0.471901
0.000000 0.934874 0.471321
0.178988 0.931456 0.473060
0.407965 0.927306 0.482185
0.598901 0.916655 0.517021
0.719173 0.909422 0.496956
0.846677 0.908019 0.515373
0.949432 0.912932 0.578912
0.102113 0.000000 0.636164
0.171633 0.000000 0.642603
0.310216 0.000000 0.663111
0.484077 0.000000 0.699611
0.673396 0.000000 0.727901
0.799039 0.000000 0.706783
0.891630 0.000000 0.656489
0.969299 0.000000 0.619684
0.000000 0.080598 0.631281
0.126497 0.051026 0.637324
0.288273 0.000000 0.658473
0.470497 0.000000 0.695644
0.668818 0.000000 0.726802
0.797574 0.000000 0.705470
0.889952 0.000000 0.655848
0.967620 0.000000 0.621729
0.000000 0.185855 0.620417
0.000000 0.176638 0.626276
0.190311 0.147127 0.648463
0.423011 0.000000 0.687221
0.658015 0.000000 0.727871
0.796384 0.000000 0.706111
0.884916 0.152590 0.659541
0.963226 0.323766 0.631800
0.000000 0.372808 0.577356
0.000000 0.370977 0.585626
0.196750 0.372564 0.615747
0.401343 0.370001 0.662379
0.641321 0.396826 0.714260
0.791257 0.412207 0.706111
0.876585 0.440375 0.670527
0.957458 0.504356 0.650294
0.000000 0.506767 0.597498
0.000000 0.507408 0.598962
0.195834 0.513481 0.603449
0.424781 0.536461 0.610834
0.609155 0.576226 0.670771
0.778683 0.597284 0.699275
0.871153 0.609613 0.677913
0.949004 0.653468 0.676143
0.000000 0.669856 0.635126
0.000000 0.672114 0.637140
0.169619 0.677333 0.641444
0.424842 0.687129 0.649683
0.604181 0.704036 0.664271
0.768215 0.737301 0.695094
0.881102 0.767819 0.714443
0.947234 0.784390 0.723140
0.000000 0.837613 0.662593
0.000000 0.838010 0.663111
0.124086 0.836942 0.664302
0.406104 0.834836 0.665980
0.581476 0.830411 0.657923
0.739345 0.826017 0.661677
0.878325 0.845823 0.691859
0.947906 0.862303 0.744656
0.000000 0.932738 0.628473
0.000000 0.931640 0.627924
0.214115 0.928099 0.627008
0.414343 0.923217 0.626001
0.572137 0.916686 0.625360
0.727352 0.906554 0.646174
0.837125 0.899870 0.626307
0.941588 0.910979 0.700343
0.060914 0.000000 0.758938
0.159274 0.000000 0.764034
0.294804 0.000000 0.775937
0.447517 0.000000 0.795926
0.617670 0.000000 0.819608
0.776364 0.000000 0.828183
0.899443 0.000000 0.812711
0.965332 0.000000 0.745724
0.000000 0.003693 0.754513
0.113375 0.000000 0.758938
0.273320 0.000000 0.771054
0.433906 0.000000 0.791196
0.608453 0.000000 0.815824
0.772213 0.000000 0.825284
0.895720 0.000000 0.808927
0.961822 0.000000 0.743404
0.000000 0.171359 0.748898
0.000000 0.163699 0.752407
0.183108 0.130007 0.764248
0.390204 0.000000 0.785428
0.583673 0.000000 0.812650
0.769467 0.000000 0.825620
0.893370 0.000000 0.809110
0.957763 0.210269 0.749935
0.000000 0.383276 0.725093
0.000000 0.381506 0.729030
0.162417 0.350011 0.744350
0.379858 0.346715 0.768643
0.579583 0.351476 0.798886
0.777127 0.398627 0.824002
0.887022 0.409461 0.808042
0.949889 0.446540 0.758663
0.000000 0.509911 0.692348
0.076814 0.510155 0.691463
0.265812 0.515618 0.691005
0.432013 0.535943 0.723598
0.577417 0.544335 0.767086
0.762112 0.581415 0.808194
0.875639 0.590112 0.801907
0.938445 0.604852 0.767117
0.000000 0.637873 0.719417
0.000000 0.638636 0.719509
0.258396 0.642298 0.719814
0.424475 0.649805 0.720882
0.572015 0.661952 0.722591
0.737545 0.706600 0.775875
0.868132 0.736934 0.801328
0.930510 0.743801 0.782101
0.000000 0.783658 0.750729
0.000000 0.784543 0.751461
0.248631 0.785977 0.752468
0.424537 0.789212 0.754971
0.579980 0.794308 0.758907
0.730220 0.805905 0.769192
0.858976 0.834012 0.797513
0.932647 0.856596 0.814603
0.000000 0.923217 0.766964
0.000000 0.922484 0.766873
0.224979 0.921141 0.768307
0.419654 0.917601 0.768887
0.580835 0.912474 0.770962
0.719631 0.905058 0.765225
0.836881 0.898497 0.769619
0.932189 0.908446 0.800534
0.000000 0.000000 0.859464
0.057893 0.000000 0.861448
0.258427 0.000000 0.866514
0.407721 0.000000 0.875669
0.555108 0.000000 0.887175
0.712032 0.000000 0.897581
0.845701 0.000000 0.898253
0.963104 0.000000 0.888487
0.000000 0.000000 0.858854
0.078889 0.000000 0.860777
0.248966 0.000000 0.865324
0.396155 0.000000 0.873808
0.547173 0.000000 0.885588
0.707088 0.000000 0.896452
0.843839 0.000000 0.897154
0.961425 0.000000 0.886900
0.000000 0.171908 0.854612
0.000000 0.163699 0.856168
0.173007 0.125399 0.860533
0.357885 0.000000 0.870878
0.522026 0.000000 0.882933
0.692500 0.000000 0.894560
0.841489 0.000000 0.895750
0.957244 0.000000 0.884794
0.000000 0.383886 0.842679
0.000000 0.371862 0.845090
0.199954 0.351080 0.850767
0.365850 0.335485 0.860929
0.522820 0.305486 0.874479
0.688197 0.269749 0.889128
0.844572 0.344945 0.892088
0.949737 0.362524 0.881834
0.286595 0.554376 0.818051
0.309636 0.554864 0.820371
0.374029 0.553277 0.826658
0.444984 0.536339 0.840116
0.552575 0.521813 0.856840
0.697414 0.522942 0.875242
0.849241 0.565728 0.887022
0.940063 0.569177 0.877928
0.296666 0.655329 0.816892
0.317693 0.655299 0.816007
0.382300 0.656062 0.813626
0.472328 0.657984 0.810452
0.582452 0.664057 0.825498
0.703853 0.674250 0.854917
0.848234 0.717952 0.879820
0.931304 0.729183 0.876677
0.274907 0.760342 0.835569
0.299443 0.760342 0.835080
0.370886 0.760555 0.833768
0.470222 0.762081 0.832456
0.582147 0.765316 0.830442
0.699641 0.773129 0.827573
0.831418 0.806821 0.859129
0.923980 0.832670 0.875547
0.248661 0.877287 0.855619
0.277317 0.877165 0.855375
0.360082 0.877165 0.855009
0.471626 0.877775 0.854978
0.592370 0.878752 0.854856
0.714168 0.880308 0.854856
0.824887 0.884184 0.857084
0.918151 0.900725 0.874327
