其他预设/【233】日式怀旧街道调色预设208款/1.3D LUT预设（视频调色-PR-AE-PS-FCPX-达芬奇用）/1.日式城市街拍预设/JA – Cityscape Pop 4.cube
# Created by Adobe Lightroom plugin Export LUT (1.17.0)
# www.johnrellis.com/lightroom/exportlut.htm
# Preset: JA – Cityscape Pop 4
# Color profile: /Library/Application Support/Adobe/Color/Profiles/Recommended/AdobeRGB1998.icc
LUT_3D_SIZE 8
DOMAIN_MIN 0.000000 0.000000 0.000000
DOMAIN_MAX 0.903226 0.903226 0.903226
0.079744 0.086580 0.090974
0.091005 0.085359 0.091066
0.154604 0.079011 0.090486
0.321294 0.062379 0.078828
0.563531 0.013062 0.000000
0.760647 0.000580 0.000000
0.906371 0.000000 0.000000
0.992828 0.000000 0.000000
0.079713 0.094850 0.091371
0.091463 0.095094 0.091341
0.154543 0.099062 0.089448
0.316350 0.111940 0.075532
0.555993 0.128969 0.000000
0.752041 0.133577 0.000000
0.898680 0.119265 0.000000
0.989410 0.076326 0.000000
0.079774 0.140017 0.090730
0.099153 0.143038 0.089784
0.173495 0.161196 0.084443
0.340337 0.209842 0.040833
0.568536 0.254276 0.000000
0.764736 0.268193 0.000000
0.909483 0.258976 0.000000
0.993774 0.230167 0.000000
0.078950 0.261814 0.074586
0.118898 0.265171 0.071107
0.221195 0.290990 0.037781
0.429633 0.372351 0.000000
0.647791 0.417029 0.000000
0.788235 0.408759 0.000000
0.912932 0.390600 0.000000
0.992432 0.356786 0.000000
0.062440 0.456580 0.000000
0.140108 0.460945 0.000000
0.274052 0.478096 0.000000
0.470649 0.540490 0.000000
0.695277 0.584497 0.000000
0.828702 0.558038 0.000000
0.914488 0.517754 0.000000
0.989990 0.477943 0.000000
0.060853 0.637995 0.000000
0.156558 0.646082 0.000000
0.303868 0.653223 0.000000
0.469154 0.671229 0.000000
0.681910 0.721401 0.000000
0.863157 0.722164 0.000000
0.941894 0.658045 0.000000
0.994049 0.600153 0.000000
0.113069 0.792172 0.000000
0.184787 0.794156 0.000000
0.320897 0.795560 0.000000
0.472633 0.799710 0.000000
0.644770 0.816648 0.000000
0.827146 0.837552 0.000000
0.950195 0.801602 0.000000
0.995270 0.726040 0.132509
0.222812 0.904875 0.101961
0.259648 0.904631 0.095735
0.359075 0.904356 0.080415
0.487068 0.904509 0.045838
0.617700 0.897978 0.000000
0.769436 0.903319 0.161349
0.910063 0.903777 0.304509
0.985199 0.860502 0.441810
0.079866 0.087648 0.102296
0.089082 0.087465 0.101869
0.153902 0.081331 0.098695
0.316320 0.084169 0.085634
0.554742 0.108705 0.000000
0.747829 0.132326 0.000000
0.894957 0.108278 0.000000
0.986999 0.000000 0.000000
0.078065 0.096040 0.103151
0.091402 0.099031 0.104036
0.156832 0.102022 0.099489
0.318517 0.120485 0.082490
0.554101 0.154971 0.000000
0.744869 0.177401 0.000000
0.889525 0.160708 0.000000
0.983398 0.113558 0.000000
0.075868 0.143862 0.109743
0.094087 0.150881 0.105165
0.175937 0.165774 0.098939
0.337774 0.207431 0.063874
0.566033 0.257725 0.000000
0.753079 0.281743 0.000000
0.895567 0.271641 0.000000
0.986755 0.238895 0.000000
0.008759 0.265812 0.102296
0.094575 0.272343 0.094545
0.212375 0.293523 0.079286
0.416907 0.363256 0.000000
0.621515 0.399908 0.000000
0.765805 0.401770 0.000000
0.898436 0.391943 0.000000
0.985809 0.358801 0.000000
0.000000 0.464302 0.000000
0.089570 0.467201 0.000000
0.257939 0.480537 0.000000
0.453437 0.530785 0.000000
0.678584 0.572381 0.000000
0.817533 0.550744 0.000000
0.908812 0.517876 0.000000
0.986267 0.478340 0.000000
0.000000 0.635798 0.000000
0.099886 0.638209 0.000000
0.280156 0.645594 0.000000
0.451606 0.661921 0.000000
0.670985 0.715541 0.000000
0.859403 0.720455 0.000000
0.940154 0.658106 0.000000
0.992096 0.599695 0.000000
0.000000 0.785183 0.000000
0.141543 0.784817 0.000000
0.299413 0.787716 0.000000
0.459571 0.794430 0.000000
0.635523 0.812589 0.000000
0.821469 0.834501 0.000000
0.947356 0.799008 0.000000
0.993347 0.723507 0.104616
0.206394 0.901671 0.158206
0.246952 0.901976 0.157351
0.350774 0.902098 0.150515
0.481514 0.902678 0.141634
0.618524 0.900908 0.111910
0.770748 0.904417 0.170901
0.909514 0.903441 0.301976
0.984924 0.859556 0.435767
0.076143 0.093477 0.161868
0.093324 0.094087 0.166201
0.149203 0.093721 0.170443
0.291112 0.000122 0.187259
0.573754 0.000000 0.142306
0.765560 0.000000 0.101228
0.904692 0.000000 0.000000
0.991547 0.071168 0.000000
0.070466 0.102419 0.163302
0.091829 0.108553 0.170138
0.153780 0.111360 0.175235
0.309789 0.055879 0.184360
0.573480 0.000000 0.142184
0.761593 0.000000 0.094484
0.900969 0.071412 0.000000
0.989715 0.135073 0.000000
0.059693 0.156619 0.175540
0.082704 0.161929 0.179721
0.170352 0.183108 0.191409
0.356298 0.184329 0.167391
0.590875 0.204257 0.131655
0.768643 0.222568 0.068544
0.902708 0.237797 0.000000
0.989288 0.246342 0.000000
0.000000 0.279637 0.213962
0.000000 0.291600 0.213352
0.176913 0.327337 0.189609
0.426490 0.382452 0.187076
0.622156 0.381506 0.095552
0.779934 0.379309 0.000000
0.906828 0.375372 0.000000
0.989593 0.363378 0.000000
0.000000 0.474464 0.243473
0.000000 0.485298 0.230472
0.188968 0.511620 0.180545
0.430030 0.543572 0.166476
0.683406 0.585748 0.173312
0.816800 0.544854 0.000000
0.909270 0.507836 0.000000
0.988617 0.480812 0.000000
0.000000 0.643732 0.230320
0.000000 0.649866 0.211948
0.210178 0.660578 0.178531
0.422217 0.671077 0.160525
0.651240 0.715175 0.162570
0.850584 0.724636 0.211002
0.935363 0.658442 0.068269
0.993408 0.602441 0.000000
0.000000 0.792325 0.233219
0.000000 0.793912 0.214145
0.255009 0.795346 0.206851
0.436072 0.799588 0.193240
0.616236 0.810880 0.187259
0.810819 0.835142 0.231540
0.941375 0.807584 0.295842
0.994751 0.729305 0.176730
0.213077 0.901518 0.313054
0.244511 0.901091 0.307347
0.346838 0.900786 0.303258
0.480476 0.902464 0.306340
0.615229 0.900725 0.295140
0.766445 0.903624 0.323186
0.907164 0.904326 0.356634
0.985168 0.861570 0.444770
0.016449 0.101534 0.291905
0.085542 0.103944 0.303410
0.182010 0.101015 0.330144
0.304082 0.082979 0.336370
0.456794 0.000000 0.332464
0.723476 0.000000 0.334813
0.897887 0.000000 0.307591
0.986908 0.000000 0.260685
0.000000 0.114565 0.298009
0.071077 0.122835 0.310063
0.181949 0.126864 0.336126
0.312322 0.116609 0.344457
0.476661 0.000000 0.340032
0.732448 0.000000 0.330694
0.896361 0.000000 0.308263
0.986419 0.000000 0.254887
0.000000 0.178286 0.305486
0.000000 0.177737 0.311986
0.168429 0.199771 0.343847
0.338994 0.216800 0.368902
0.544488 0.181338 0.361089
0.769223 0.200961 0.350774
0.904234 0.227298 0.320714
0.989014 0.212955 0.256809
0.000000 0.300786 0.340093
0.000000 0.308019 0.346563
0.146883 0.336492 0.369421
0.388006 0.399939 0.409644
0.608392 0.386481 0.376135
0.775326 0.378088 0.343816
0.903075 0.368017 0.304936
0.987671 0.348852 0.250370
0.000000 0.487739 0.401923
0.000000 0.495247 0.402441
0.124514 0.522698 0.403449
0.398810 0.562524 0.408606
0.661158 0.603998 0.447730
0.798276 0.547356 0.349310
0.907774 0.509209 0.290959
0.986786 0.476905 0.243076
0.000000 0.650050 0.416846
0.000000 0.659205 0.417029
0.176059 0.673060 0.409155
0.413458 0.692622 0.410254
0.628016 0.718257 0.423682
0.833646 0.743709 0.487160
0.920500 0.679072 0.399908
0.986511 0.606867 0.263340
0.000000 0.790951 0.423529
0.000000 0.793545 0.422644
0.261723 0.800443 0.423804
0.439338 0.808438 0.422553
0.605615 0.813230 0.418372
0.796506 0.836576 0.467811
0.924529 0.824338 0.529656
0.980560 0.754208 0.439155
0.266911 0.900481 0.473335
0.302800 0.900572 0.475593
0.398322 0.899870 0.481880
0.496834 0.900725 0.470497
0.621393 0.899687 0.466499
0.760067 0.900877 0.482704
0.895689 0.904143 0.527550
0.974365 0.872068 0.565606
0.000000 0.117739 0.467201
0.035828 0.124025 0.477913
0.199008 0.122927 0.501244
0.356756 0.123507 0.543908
0.515923 0.090455 0.540612
0.614130 0.000000 0.479225
0.827848 0.000000 0.495491
0.960662 0.245914 0.500877
0.000000 0.133364 0.468879
0.000000 0.143008 0.480751
0.195041 0.151858 0.505394
0.357610 0.161135 0.546349
0.520073 0.146639 0.543908
0.617792 0.098177 0.480812
0.833433 0.116732 0.499641
0.961303 0.283330 0.505943
0.000000 0.181582 0.464332
0.000000 0.179294 0.475013
0.166293 0.224155 0.509728
0.359197 0.261448 0.549065
0.533715 0.275547 0.553979
0.636744 0.239567 0.492012
0.848569 0.289342 0.515099
0.961730 0.385687 0.524193
0.000000 0.315679 0.489540
0.000000 0.316594 0.493751
0.082490 0.323400 0.510399
0.375402 0.398047 0.550927
0.563928 0.445045 0.575860
0.704250 0.428016 0.545281
0.874632 0.469215 0.555108
0.963500 0.478523 0.533928
0.000000 0.469581 0.521080
0.000000 0.475196 0.525353
0.109651 0.495247 0.539544
0.383490 0.538384 0.565667
0.602808 0.601099 0.604028
0.762264 0.588037 0.579248
0.883024 0.573449 0.552209
0.966400 0.547631 0.513237
0.000000 0.641993 0.557641
0.000000 0.646174 0.558770
0.139895 0.657893 0.562066
0.396551 0.678981 0.572686
0.592523 0.708003 0.586328
0.801419 0.751553 0.641413
0.894347 0.698421 0.568963
0.968017 0.646174 0.505791
0.000000 0.784970 0.572930
0.000000 0.786191 0.572351
0.249577 0.791196 0.573327
0.437201 0.800656 0.579370
0.600244 0.812406 0.584955
0.768276 0.828794 0.609491
0.903716 0.838499 0.678828
0.961608 0.780941 0.599847
0.268132 0.894438 0.595819
0.299687 0.894194 0.596002
0.389349 0.893675 0.597131
0.516686 0.895354 0.607172
0.627314 0.895903 0.603845
0.745907 0.895445 0.603693
0.880491 0.902098 0.655695
0.956603 0.885679 0.701472
0.000000 0.157626 0.626520
0.058747 0.169986 0.633600
0.218662 0.179782 0.648157
0.367620 0.203555 0.674678
0.538506 0.262303 0.709071
0.678004 0.257847 0.689479
0.769955 0.236606 0.631891
0.910735 0.339727 0.640620
0.000000 0.169955 0.621363
0.000000 0.181277 0.627222
0.213382 0.202060 0.644007
0.364935 0.227268 0.670192
0.537469 0.287816 0.705440
0.677760 0.287266 0.688624
0.769039 0.262516 0.631189
0.911559 0.358465 0.641901
0.000000 0.201907 0.619379
0.000000 0.212680 0.624262
0.191897 0.263493 0.643915
0.373510 0.311711 0.671321
0.548943 0.376959 0.705653
0.687251 0.383978 0.694881
0.772122 0.345464 0.635187
0.917205 0.428168 0.652003
0.000000 0.312749 0.621698
0.000000 0.310765 0.622919
0.000000 0.311101 0.630426
0.386328 0.416754 0.669154
0.572534 0.492256 0.708583
0.708309 0.511192 0.710414
0.779812 0.452735 0.643885
0.927092 0.534813 0.673976
0.000000 0.453101 0.637446
0.000000 0.454963 0.639673
0.087282 0.464820 0.647120
0.345556 0.494148 0.661006
0.573480 0.579583 0.695644
0.725032 0.625879 0.721187
0.825742 0.600732 0.687007
0.935119 0.655390 0.706905
0.000000 0.604089 0.659541
0.000000 0.608606 0.662623
0.176852 0.621668 0.669673
0.391333 0.646967 0.682826
0.574914 0.685756 0.704585
0.757717 0.748287 0.746609
0.865019 0.741421 0.731716
0.940917 0.726345 0.709041
0.000000 0.783383 0.707332
0.000000 0.785519 0.708248
0.258579 0.789487 0.709163
0.430457 0.796750 0.710994
0.593683 0.807553 0.716213
0.749722 0.823789 0.733516
0.884703 0.851041 0.786007
0.942046 0.808774 0.725246
0.289860 0.891234 0.717403
0.316472 0.890929 0.716854
0.395758 0.890379 0.715511
0.507225 0.890684 0.715694
0.632227 0.890410 0.719814
0.750729 0.891752 0.729610
0.863798 0.898528 0.755550
0.941009 0.898528 0.802976
0.100801 0.239536 0.763363
0.172335 0.255406 0.766781
0.283848 0.279973 0.774533
0.410071 0.315526 0.787930
0.550835 0.374945 0.804349
0.694911 0.456611 0.823362
0.799893 0.434241 0.803586
0.885893 0.447761 0.767269
0.057191 0.246616 0.759762
0.153140 0.261692 0.762997
0.284245 0.296574 0.771420
0.409796 0.330724 0.784360
0.550683 0.388586 0.801389
0.694148 0.467262 0.820859
0.798123 0.445472 0.801480
0.883482 0.452674 0.764462
0.000000 0.269352 0.757046
0.000000 0.282658 0.759518
0.271275 0.336828 0.768063
0.421271 0.389410 0.781765
0.560510 0.443366 0.799039
0.701411 0.516533 0.819577
0.802701 0.501579 0.804196
0.884855 0.495979 0.767117
0.000000 0.319677 0.749935
0.000000 0.318730 0.750088
0.133883 0.347997 0.758968
0.417639 0.451911 0.775509
0.573083 0.516350 0.795377
0.712825 0.585168 0.818326
0.810422 0.580957 0.809049
0.885649 0.553918 0.768490
0.000000 0.453864 0.758419
0.000000 0.453864 0.758175
0.117006 0.456855 0.758633
0.316655 0.468269 0.760708
0.559289 0.572564 0.783597
0.717189 0.649104 0.812070
0.817441 0.664668 0.812406
0.884367 0.618189 0.766171
0.000000 0.590692 0.771115
0.000000 0.592187 0.771450
0.203372 0.598260 0.772641
0.363378 0.610529 0.775357
0.515892 0.631373 0.780056
0.714870 0.711910 0.802609
0.832486 0.760250 0.823087
0.902617 0.741268 0.798337
0.122072 0.730098 0.787015
0.178836 0.732052 0.787655
0.293370 0.738003 0.789029
0.423224 0.749142 0.792111
0.565515 0.766934 0.797330
0.719631 0.796689 0.809689
0.854307 0.844388 0.841520
0.921233 0.839933 0.831662
0.293553 0.886870 0.827298
0.318822 0.886870 0.826749
0.397742 0.887755 0.825772
0.500847 0.887816 0.822599
0.620569 0.887175 0.819181
0.743526 0.887694 0.820493
0.847501 0.894072 0.831235
0.929931 0.907836 0.867979
0.391272 0.441627 0.880247
0.417548 0.455207 0.880522
0.475593 0.479988 0.881010
0.546563 0.505058 0.883574
0.633631 0.542107 0.886931
0.727016 0.590997 0.891142
0.817716 0.652979 0.896239
0.885863 0.624414 0.886137
0.382818 0.442420 0.879149
0.409369 0.455756 0.879423
0.477882 0.488624 0.879820
0.547601 0.512474 0.882292
0.634485 0.548852 0.885832
0.727596 0.596979 0.890196
0.817838 0.657771 0.895415
0.885435 0.629816 0.885527
0.352209 0.446876 0.877928
0.379644 0.458808 0.878050
0.463508 0.499306 0.877806
0.556390 0.542321 0.880522
0.641016 0.575860 0.884154
0.732296 0.621088 0.888640
0.821164 0.679347 0.894316
0.886259 0.654688 0.885374
0.263310 0.445380 0.877226
0.300755 0.457069 0.877501
0.403143 0.495766 0.877379
0.545190 0.567559 0.878050
0.647822 0.614618 0.881712
0.739773 0.658625 0.886900
0.826932 0.713039 0.893400
0.888518 0.695033 0.886107
0.274693 0.523522 0.876951
0.293736 0.524865 0.876982
0.346777 0.526177 0.876097
0.436194 0.540520 0.876982
0.629816 0.640742 0.877836
0.741176 0.695949 0.883665
0.831479 0.749233 0.891783
0.891722 0.744442 0.887358
0.327276 0.629145 0.880247
0.340703 0.629389 0.879881
0.385840 0.630945 0.878843
0.456550 0.633997 0.877653
0.546960 0.640192 0.876158
0.727504 0.728206 0.879393
0.836332 0.789822 0.890623
0.896574 0.798978 0.889982
0.395117 0.737240 0.885191
0.406867 0.737911 0.884947
0.445777 0.740169 0.884306
0.510094 0.745205 0.883635
0.595178 0.753994 0.882567
0.695796 0.769009 0.881163
0.826688 0.820676 0.884459
0.902220 0.852079 0.893492
0.469184 0.840208 0.890257
0.478767 0.840757 0.890074
0.512444 0.843198 0.889708
0.571160 0.848234 0.889372
0.648920 0.855863 0.888762
0.737850 0.866239 0.888151
0.828641 0.880308 0.889403
0.915007 0.907317 0.904845
