其他预设/【233】日式怀旧街道调色预设208款/1.3D LUT预设（视频调色-PR-AE-PS-FCPX-达芬奇用）/1.日式城市街拍预设/JA – Cine Night 5.cube
# Created by Adobe Lightroom plugin Export LUT (1.17.0)
# www.johnrellis.com/lightroom/exportlut.htm
# Preset: JA – Cine Night 5
# Color profile: /Library/Application Support/Adobe/Color/Profiles/Recommended/AdobeRGB1998.icc
LUT_3D_SIZE 8
DOMAIN_MIN 0.000000 0.000000 0.000000
DOMAIN_MAX 0.903226 0.903226 0.903226
0.000000 0.030060 0.060395
0.047242 0.050141 0.068299
0.187533 0.060822 0.076692
0.549554 0.000000 0.024720
0.859617 0.000000 0.000000
1.000000 0.000000 0.000000
1.000000 0.000000 0.000000
1.000000 0.000000 0.184207
0.000000 0.078950 0.089479
0.018616 0.086976 0.075990
0.202731 0.112245 0.022889
0.565667 0.000000 0.000000
0.865599 0.000000 0.000000
1.000000 0.000000 0.000000
1.000000 0.000000 0.000000
1.000000 0.000000 0.146548
0.000000 0.156130 0.158083
0.000000 0.167056 0.145052
0.115328 0.205936 0.098390
0.578912 0.292241 0.000000
0.884916 0.262913 0.000000
1.000000 0.241764 0.000000
1.000000 0.225986 0.000000
1.000000 0.206210 0.000000
0.000000 0.353796 0.285252
0.000000 0.364843 0.270909
0.000000 0.382147 0.205264
0.392248 0.461219 0.078370
0.856382 0.529046 0.000000
1.000000 0.489631 0.000000
1.000000 0.441077 0.000000
1.000000 0.385595 0.000000
0.000000 0.614801 0.444526
0.000000 0.620600 0.433570
0.000000 0.638209 0.386603
0.269871 0.625269 0.313115
0.690791 0.687678 0.103395
0.972564 0.691249 0.000000
1.000000 0.633326 0.000000
1.000000 0.557641 0.000000
0.000000 0.814206 0.589502
0.000000 0.818173 0.587243
0.000000 0.822843 0.569635
0.232670 0.818662 0.518791
0.567254 0.800656 0.453010
0.875334 0.829252 0.267582
1.000000 0.801846 0.000000
1.000000 0.722438 0.000000
0.000000 0.936309 0.708492
0.000000 0.937316 0.708675
0.000000 0.935393 0.707698
0.436988 0.925902 0.716854
0.612390 0.911955 0.682612
0.788357 0.905821 0.622339
0.964996 0.915862 0.465064
1.000000 0.865293 0.184298
0.427222 0.988922 0.811490
0.430488 0.989105 0.811551
0.443061 0.989746 0.811124
0.639704 0.977386 0.829007
0.759976 0.966796 0.835355
0.832456 0.960052 0.821012
0.905638 0.960998 0.784390
0.993835 0.962097 0.671015
0.000000 0.051118 0.115328
0.000000 0.063691 0.114199
0.156863 0.060334 0.127291
0.515801 0.000000 0.114168
0.846921 0.000000 0.024567
1.000000 0.000000 0.000000
1.000000 0.000000 0.000000
1.000000 0.000000 0.170291
0.000000 0.079133 0.123262
0.000000 0.088411 0.133700
0.164462 0.099550 0.130953
0.529686 0.000000 0.105501
0.852079 0.000000 0.000000
1.000000 0.000000 0.000000
1.000000 0.000000 0.000000
1.000000 0.000000 0.131685
0.000000 0.157351 0.193393
0.000000 0.171115 0.195071
0.107210 0.207950 0.152621
0.557397 0.263096 0.074464
0.871611 0.221164 0.000000
1.000000 0.203738 0.000000
1.000000 0.215274 0.000000
1.000000 0.209964 0.000000
0.000000 0.356512 0.321599
0.000000 0.368933 0.314092
0.000000 0.392432 0.256840
0.383551 0.455329 0.160128
0.845151 0.511833 0.000000
1.000000 0.472114 0.000000
1.000000 0.426337 0.000000
1.000000 0.380926 0.000000
0.000000 0.617731 0.477577
0.000000 0.623041 0.467781
0.000000 0.638544 0.429603
0.266758 0.626490 0.355566
0.682979 0.682521 0.195224
0.968963 0.685664 0.000000
1.000000 0.629419 0.000000
1.000000 0.551965 0.000000
0.000000 0.813199 0.610925
0.000000 0.815305 0.606409
0.000000 0.819913 0.591302
0.243595 0.817533 0.547753
0.565972 0.797757 0.487068
0.872465 0.828275 0.324865
1.000000 0.801083 0.092897
1.000000 0.722164 0.000000
0.000000 0.934691 0.718593
0.000000 0.935119 0.717403
0.000000 0.933196 0.717372
0.439826 0.924315 0.726436
0.618891 0.910918 0.698054
0.787778 0.904021 0.641505
0.961852 0.914641 0.497993
1.000000 0.864897 0.259434
0.421912 0.988525 0.815183
0.426459 0.988739 0.815457
0.439704 0.989410 0.815030
0.638727 0.977081 0.832334
0.768795 0.966583 0.843412
0.835691 0.960021 0.828305
0.905913 0.960540 0.792660
0.992218 0.961730 0.686976
0.000000 0.069825 0.226047
0.000000 0.072297 0.234440
0.077729 0.089204 0.241733
0.425696 0.000000 0.302403
0.797299 0.000000 0.312902
0.979126 0.000000 0.325841
1.000000 0.000000 0.322332
1.000000 0.093446 0.303990
0.000000 0.096162 0.237217
0.000000 0.097505 0.254002
0.069337 0.115602 0.257969
0.430396 0.000000 0.311894
0.801022 0.000000 0.316503
0.979889 0.000000 0.321202
1.000000 0.000000 0.313939
1.000000 0.142641 0.293462
0.000000 0.163302 0.278019
0.000000 0.173587 0.289220
0.000000 0.209476 0.315923
0.474708 0.212894 0.323522
0.826200 0.164034 0.316594
0.987701 0.190402 0.307073
1.000000 0.240360 0.292515
1.000000 0.252934 0.258152
0.000000 0.372168 0.426398
0.000000 0.385748 0.429419
0.000000 0.417182 0.420722
0.379065 0.460060 0.344366
0.842893 0.493324 0.324865
0.994537 0.457588 0.296574
1.000000 0.424781 0.247349
1.000000 0.384192 0.180240
0.000000 0.629175 0.566613
0.000000 0.636255 0.564965
0.000000 0.652522 0.552331
0.280705 0.650690 0.494850
0.682155 0.685939 0.390814
0.963195 0.685573 0.347204
1.000000 0.635340 0.325383
1.000000 0.552300 0.174990
0.000000 0.818906 0.672175
0.000000 0.821134 0.671260
0.000000 0.824430 0.665583
0.332525 0.820615 0.652186
0.576410 0.796109 0.592554
0.864775 0.827451 0.481453
1.000000 0.803647 0.398413
1.000000 0.731350 0.346960
0.000000 0.936950 0.757290
0.000000 0.937285 0.756344
0.000000 0.933715 0.757504
0.470832 0.923980 0.764370
0.650752 0.910887 0.749996
0.794034 0.901610 0.706416
0.955016 0.915099 0.605035
1.000000 0.868315 0.459815
0.429725 0.988281 0.832517
0.432136 0.988403 0.831937
0.444007 0.989014 0.831174
0.641169 0.976989 0.846067
0.790158 0.964324 0.865324
0.844175 0.959503 0.849149
0.907866 0.959655 0.820279
0.987610 0.961700 0.739712
0.000000 0.084871 0.410925
0.000000 0.086885 0.424475
0.049195 0.069429 0.467109
0.338811 0.067201 0.450629
0.705287 0.000000 0.521050
0.927062 0.095674 0.572839
1.000000 0.334051 0.619074
1.000000 0.420966 0.626307
0.000000 0.110353 0.429084
0.000000 0.113680 0.440406
0.000000 0.111147 0.479103
0.341253 0.126131 0.463966
0.708003 0.000000 0.532067
0.925719 0.194247 0.583398
1.000000 0.354589 0.618555
1.000000 0.425086 0.619654
0.000000 0.194430 0.443793
0.000000 0.197848 0.451514
0.000000 0.218509 0.499977
0.343786 0.261082 0.508232
0.718105 0.280674 0.571496
0.929137 0.352728 0.610529
1.000000 0.431220 0.623499
1.000000 0.457832 0.607324
0.000000 0.353460 0.522606
0.000000 0.363470 0.529839
0.000000 0.399786 0.552392
0.334478 0.451331 0.582055
0.751369 0.481209 0.608667
0.941833 0.510399 0.620691
1.000000 0.530816 0.615656
1.000000 0.517693 0.582635
0.000000 0.626825 0.666621
0.000000 0.637812 0.672114
0.000000 0.671138 0.689723
0.344762 0.674739 0.674830
0.668910 0.684962 0.612085
0.941833 0.705562 0.646326
1.000000 0.677028 0.630396
1.000000 0.608728 0.546044
0.000000 0.829923 0.757839
0.000000 0.832914 0.758572
0.000000 0.834165 0.756466
0.404242 0.828458 0.751919
0.622034 0.809720 0.722499
0.854612 0.828061 0.660334
0.998322 0.818112 0.659205
1.000000 0.766506 0.638087
0.000000 0.939788 0.811002
0.000000 0.939452 0.811246
0.172915 0.935576 0.812711
0.509941 0.925902 0.816556
0.710201 0.912383 0.820584
0.806180 0.898314 0.783688
0.945769 0.915373 0.726009
1.000000 0.877317 0.670497
0.449622 0.987884 0.862760
0.453315 0.988067 0.862364
0.463661 0.988708 0.859739
0.631037 0.978424 0.866148
0.788907 0.965148 0.881956
0.857877 0.959014 0.879423
0.911101 0.958129 0.857511
0.982055 0.961517 0.801389
0.000000 0.109224 0.615076
0.000000 0.109316 0.625330
0.000000 0.085664 0.658412
0.441291 0.000000 0.688289
0.644404 0.111604 0.657160
0.867613 0.294408 0.698482
0.985840 0.472816 0.752865
1.000000 0.641138 0.809751
0.000000 0.136629 0.623072
0.000000 0.138888 0.632898
0.000000 0.132570 0.663966
0.445747 0.000000 0.698482
0.644587 0.182193 0.664332
0.867552 0.332097 0.705715
0.984436 0.496834 0.758999
1.000000 0.652674 0.813260
0.000000 0.221714 0.610834
0.000000 0.224857 0.627680
0.000000 0.241642 0.670771
0.435309 0.262181 0.721248
0.643732 0.331182 0.687892
0.866270 0.437354 0.728481
0.979797 0.568170 0.777890
1.000000 0.677028 0.817594
0.000000 0.374304 0.661860
0.000000 0.378363 0.664942
0.000000 0.392401 0.674800
0.315679 0.443153 0.720790
0.643488 0.507530 0.727779
0.868132 0.580804 0.767941
0.975921 0.660639 0.803250
1.000000 0.685573 0.801724
0.000000 0.581140 0.731777
0.000000 0.587732 0.734737
0.000000 0.609277 0.743893
0.297765 0.640314 0.757534
0.641138 0.670558 0.771420
0.888396 0.710048 0.795743
0.983856 0.734401 0.803738
1.000000 0.726345 0.788907
0.000000 0.807370 0.813474
0.000000 0.811612 0.815488
0.000000 0.822019 0.821775
0.458747 0.831754 0.834318
0.674464 0.820401 0.823301
0.842008 0.823972 0.788510
0.978851 0.842405 0.822202
1.000000 0.808988 0.800351
0.000000 0.941314 0.871519
0.000000 0.940459 0.871885
0.288548 0.935668 0.871489
0.549828 0.926543 0.871061
0.720485 0.916289 0.867674
0.823911 0.902739 0.850340
0.937743 0.914763 0.817105
1.000000 0.891142 0.813230
0.467109 0.986694 0.898436
0.469612 0.986847 0.897917
0.478950 0.987457 0.895384
0.631556 0.978698 0.896635
0.770169 0.967864 0.900298
0.878843 0.958282 0.915038
0.914824 0.955688 0.894957
0.976806 0.961089 0.858030
0.000000 0.152590 0.782528
0.000000 0.152132 0.787686
0.097292 0.138796 0.804257
0.504784 0.066743 0.830838
0.737118 0.006409 0.832822
0.844511 0.347631 0.793027
0.952361 0.558709 0.825406
1.000000 0.701503 0.865873
0.000000 0.182437 0.782803
0.000000 0.183688 0.787747
0.000000 0.180575 0.804349
0.493538 0.158480 0.830686
0.735714 0.165286 0.835203
0.842527 0.377783 0.795956
0.951354 0.573205 0.828275
1.000000 0.708797 0.867582
0.000000 0.263951 0.778805
0.000000 0.262638 0.786709
0.000000 0.284855 0.804959
0.453529 0.308324 0.831388
0.735103 0.347784 0.845701
0.839384 0.472541 0.808560
0.949248 0.623285 0.839536
1.000000 0.735378 0.874571
0.000000 0.400793 0.777066
0.000000 0.400122 0.776944
0.000000 0.404273 0.785000
0.353887 0.458869 0.826719
0.729488 0.537011 0.860166
0.835935 0.600275 0.829984
0.947753 0.695460 0.857542
0.996918 0.776913 0.886290
0.000000 0.583886 0.819181
0.000000 0.586053 0.819791
0.000000 0.593164 0.821439
0.217807 0.602167 0.822538
0.626490 0.651453 0.846220
0.829953 0.712795 0.851499
0.947051 0.771145 0.877409
0.992584 0.825437 0.901091
0.000000 0.759976 0.856138
0.000000 0.763119 0.857267
0.000000 0.771633 0.859709
0.352056 0.783047 0.863401
0.639368 0.795743 0.868376
0.828397 0.815274 0.876860
0.955566 0.850767 0.897856
0.996460 0.854398 0.896818
0.000000 0.925566 0.906676
0.000000 0.926024 0.907347
0.142092 0.925353 0.908965
0.527855 0.921477 0.912322
0.749599 0.919341 0.919402
0.854337 0.912657 0.913451
0.932067 0.914427 0.891386
0.989837 0.913848 0.910643
0.463600 0.985962 0.934447
0.468757 0.986053 0.934234
0.504997 0.985504 0.933623
0.659236 0.976745 0.934508
0.778805 0.967773 0.933227
0.871519 0.960601 0.935058
0.923278 0.955962 0.932616
0.972381 0.960906 0.911406
0.000000 0.253513 0.898711
0.000000 0.255802 0.901244
0.316960 0.259373 0.907347
0.568475 0.269902 0.917388
0.797696 0.323827 0.929900
0.901549 0.387884 0.914672
0.944854 0.586725 0.884001
0.985962 0.756374 0.907103
0.000000 0.277958 0.896422
0.000000 0.280705 0.898833
0.297124 0.286259 0.905058
0.556054 0.300084 0.915129
0.789029 0.352667 0.927794
0.899260 0.409796 0.915038
0.941955 0.593011 0.883330
0.985077 0.755886 0.906188
0.000000 0.356054 0.895689
0.000000 0.359533 0.897490
0.233677 0.371588 0.903349
0.527733 0.396612 0.913603
0.771054 0.451453 0.926116
0.898436 0.504173 0.921294
0.939422 0.640986 0.889982
0.984009 0.777951 0.911986
0.000000 0.457557 0.883055
0.000000 0.457862 0.885527
0.000000 0.465644 0.895109
0.456397 0.508904 0.908843
0.735409 0.568170 0.922759
0.890929 0.629328 0.927276
0.935943 0.707485 0.900511
0.982238 0.808408 0.920073
0.000000 0.608392 0.896574
0.000000 0.606592 0.895598
0.000000 0.601099 0.893034
0.179568 0.586358 0.887968
0.644587 0.653010 0.912200
0.877775 0.734890 0.933196
0.929351 0.772305 0.910735
0.979828 0.843412 0.929625
0.000000 0.760464 0.916838
0.000000 0.760952 0.916716
0.000000 0.762325 0.916075
0.342138 0.762936 0.914519
0.563714 0.758938 0.910216
0.809171 0.792782 0.922667
0.925811 0.845884 0.927306
0.977569 0.886961 0.943755
0.000000 0.883665 0.935027
0.000000 0.884337 0.935302
0.211032 0.885374 0.935485
0.471992 0.886351 0.935943
0.669215 0.887449 0.936400
0.823484 0.893339 0.938476
0.922942 0.908141 0.944030
0.978454 0.927123 0.955718
0.299168 0.978454 0.959686
0.307774 0.979400 0.959991
0.395483 0.981689 0.961822
0.588830 0.976318 0.962371
0.756039 0.966735 0.961456
0.879026 0.960754 0.964355
0.934691 0.958770 0.964569
0.969116 0.960845 0.954498
0.439765 0.467506 0.975677
0.470954 0.470436 0.976043
0.561700 0.476967 0.976379
0.693477 0.495979 0.977478
0.827298 0.535149 0.978698
0.925872 0.594751 0.978485
0.967987 0.640162 0.959747
0.983368 0.772854 0.940978
0.430884 0.482307 0.974609
0.462745 0.485237 0.974975
0.555444 0.492164 0.975494
0.687984 0.510185 0.976532
0.823392 0.548638 0.977844
0.923919 0.607233 0.978027
0.967010 0.648341 0.960266
0.982635 0.775296 0.941070
0.403388 0.532982 0.972747
0.436347 0.535332 0.972992
0.533257 0.541619 0.973327
0.675288 0.563317 0.974975
0.813291 0.598169 0.976196
0.918944 0.653223 0.977630
0.965301 0.683436 0.963653
0.980774 0.791104 0.943450
0.275792 0.587304 0.970031
0.327245 0.590570 0.970581
0.474495 0.607660 0.971252
0.640009 0.630518 0.972320
0.791104 0.661646 0.973999
0.904906 0.710262 0.976135
0.963531 0.737667 0.970153
0.978149 0.818051 0.948211
0.176730 0.685298 0.967376
0.217044 0.683955 0.967224
0.309209 0.675135 0.965911
0.509880 0.676539 0.968811
0.736629 0.716121 0.970764
0.878691 0.760189 0.973602
0.954528 0.797757 0.972992
0.974762 0.851743 0.954742
0.294835 0.794797 0.972290
0.318212 0.793698 0.971893
0.390845 0.790127 0.970672
0.492378 0.782681 0.968750
0.601160 0.766079 0.965484
0.829831 0.805875 0.970459
0.944884 0.864317 0.976196
0.971344 0.891844 0.963897
0.403784 0.882048 0.976867
0.412299 0.881712 0.976715
0.476783 0.880522 0.975982
0.574151 0.878843 0.974975
0.683345 0.876402 0.973449
0.788327 0.873136 0.971038
0.912474 0.894926 0.973114
0.967407 0.927367 0.972473
0.565637 0.942931 0.980591
0.565118 0.943236 0.980529
0.566583 0.944457 0.980499
0.637201 0.944244 0.980377
0.743709 0.943389 0.979858
0.842313 0.944823 0.979187
0.919249 0.950439 0.979278
0.965515 0.958770 0.981567
