其他预设/【233】日式怀旧街道调色预设208款/1.3D LUT预设（视频调色-PR-AE-PS-FCPX-达芬奇用）/1.日式城市街拍预设/JA – Cine Night 1.cube
# Created by Adobe Lightroom plugin Export LUT (1.17.0)
# www.johnrellis.com/lightroom/exportlut.htm
# Preset: JA – Cine Night 1
# Color profile: /Library/Application Support/Adobe/Color/Profiles/Recommended/AdobeRGB1998.icc
LUT_3D_SIZE 32
0.004669 0.027771 0.052949
0.011292 0.031220 0.055848
0.020172 0.034241 0.059571
0.038422 0.043641 0.065095
0.058778 0.054994 0.071717
0.072541 0.062867 0.078218
0.090700 0.067964 0.083101
0.115724 0.070954 0.087373
0.149325 0.072084 0.092012
0.191806 0.069215 0.096956
0.242893 0.058442 0.101900
0.301244 0.010498 0.106783
0.364904 0.000000 0.111727
0.431495 0.000000 0.116976
0.498238 0.000000 0.122774
0.562890 0.000000 0.129305
0.624414 0.000000 0.136934
0.682551 0.000000 0.146517
0.733883 0.000000 0.158389
0.780179 0.000000 0.172274
0.823270 0.054536 0.188571
0.863249 0.127596 0.207736
0.899687 0.177798 0.229862
0.932647 0.223026 0.254643
0.961975 0.265904 0.282902
0.987579 0.308293 0.314794
1.000000 0.350896 0.350958
1.000000 0.394354 0.391638
1.000000 0.439704 0.438209
1.000000 0.487465 0.490730
1.000000 0.538659 0.550347
1.000000 0.593652 0.616602
0.002380 0.038331 0.059602
0.008881 0.040833 0.059022
0.020691 0.044862 0.057282
0.040284 0.049714 0.061830
0.059998 0.059419 0.069276
0.073091 0.065583 0.076081
0.091463 0.070405 0.081086
0.116396 0.073884 0.086000
0.149813 0.075013 0.090700
0.192050 0.073121 0.095186
0.242954 0.063752 0.099977
0.300938 0.026825 0.105135
0.364416 0.000000 0.110201
0.430823 0.000000 0.115267
0.497322 0.000000 0.121004
0.561791 0.000000 0.127260
0.623102 0.000000 0.134859
0.681056 0.000000 0.144350
0.732021 0.000000 0.155764
0.778164 0.000000 0.169833
0.821225 0.067781 0.185885
0.861173 0.131258 0.205112
0.897826 0.179416 0.227115
0.930999 0.223850 0.252018
0.960571 0.266178 0.279789
0.986450 0.308141 0.311894
1.000000 0.350195 0.347692
1.000000 0.393591 0.388586
1.000000 0.438575 0.435096
1.000000 0.486213 0.487770
1.000000 0.537011 0.547082
1.000000 0.591882 0.613458
0.000000 0.051850 0.065187
0.004852 0.053895 0.065064
0.015747 0.057069 0.063081
0.039704 0.060060 0.060914
0.061372 0.064057 0.064607
0.074128 0.069337 0.072602
0.092073 0.073793 0.078889
0.117098 0.077455 0.083955
0.150698 0.079103 0.088472
0.192813 0.077668 0.093294
0.243503 0.070283 0.097871
0.301488 0.047639 0.102876
0.364782 0.000000 0.107729
0.430976 0.000000 0.112917
0.497322 0.000000 0.118105
0.561791 0.000000 0.124636
0.622919 0.000000 0.132052
0.680537 0.000000 0.141604
0.731258 0.000000 0.153048
0.777310 0.000000 0.166445
0.820371 0.084749 0.182986
0.860349 0.138918 0.202365
0.897032 0.184787 0.224430
0.930358 0.227237 0.248844
0.959991 0.268925 0.277226
0.985992 0.309911 0.309087
1.000000 0.351415 0.345190
1.000000 0.394324 0.386145
1.000000 0.438941 0.432685
1.000000 0.486061 0.485237
1.000000 0.536553 0.544732
1.000000 0.591089 0.610986
0.000000 0.066835 0.075837
0.000031 0.067811 0.076722
0.009644 0.068116 0.075959
0.028321 0.070527 0.071748
0.059419 0.073671 0.068147
0.075837 0.077577 0.068147
0.094575 0.081697 0.073060
0.119814 0.085695 0.079133
0.153170 0.087922 0.084169
0.195438 0.087587 0.088869
0.245945 0.082643 0.093568
0.303685 0.071015 0.098146
0.366583 0.038270 0.102632
0.432471 0.000000 0.107485
0.498482 0.000000 0.112367
0.562585 0.000000 0.118532
0.623621 0.000000 0.125460
0.680751 0.000000 0.135042
0.730770 0.000000 0.146334
0.776242 0.051881 0.160464
0.819089 0.111116 0.176852
0.859037 0.154849 0.196231
0.895933 0.195865 0.218296
0.929503 0.235721 0.243351
0.959564 0.275578 0.272190
0.985901 0.315404 0.304601
1.000000 0.355901 0.341192
1.000000 0.397803 0.382422
1.000000 0.441413 0.428901
1.000000 0.487617 0.481636
1.000000 0.537285 0.541283
1.000000 0.590967 0.607630
0.000000 0.078218 0.087739
0.000000 0.078798 0.087953
0.001099 0.079866 0.087831
0.016876 0.080568 0.085664
0.044892 0.083742 0.080964
0.070863 0.089204 0.076509
0.095247 0.094179 0.073884
0.122377 0.098054 0.075807
0.156374 0.101472 0.078920
0.198764 0.103243 0.081544
0.249241 0.101259 0.085878
0.306950 0.095369 0.089815
0.369451 0.084535 0.093904
0.434791 0.068147 0.098177
0.500481 0.033845 0.103029
0.564477 0.000000 0.108400
0.625971 0.000000 0.115908
0.682185 0.033265 0.124910
0.731807 0.076753 0.137118
0.776944 0.111086 0.151308
0.819364 0.144869 0.168063
0.859129 0.179416 0.187625
0.895872 0.214359 0.209934
0.929503 0.250340 0.235569
0.959594 0.286961 0.264958
0.985992 0.324346 0.297429
1.000000 0.362799 0.334081
1.000000 0.402716 0.375738
1.000000 0.444923 0.422950
1.000000 0.489693 0.475746
1.000000 0.538140 0.535607
1.000000 0.590753 0.602106
0.000000 0.091035 0.100740
0.000000 0.091585 0.100923
0.000000 0.092805 0.100313
0.002350 0.095216 0.096590
0.028809 0.095644 0.094575
0.061738 0.100496 0.088197
0.087373 0.108095 0.083009
0.119722 0.114626 0.079866
0.160037 0.119081 0.077485
0.202853 0.121370 0.080323
0.253696 0.122438 0.082399
0.311284 0.120821 0.084901
0.373754 0.117281 0.086641
0.439155 0.112276 0.087861
0.504601 0.108339 0.088777
0.568048 0.106294 0.093568
0.629603 0.109926 0.101106
0.684962 0.120760 0.110597
0.733883 0.137026 0.122621
0.778775 0.157259 0.137789
0.821012 0.181827 0.155673
0.860716 0.209354 0.176028
0.909270 0.252354 0.206943
0.941253 0.283757 0.234165
0.969543 0.316197 0.264652
0.994049 0.349737 0.298558
1.000000 0.384802 0.336431
1.000000 0.421729 0.378912
1.000000 0.461006 0.426246
1.000000 0.503441 0.479774
1.000000 0.549767 0.539940
1.000000 0.600610 0.606836
0.000000 0.108064 0.116732
0.000000 0.108522 0.116487
0.000000 0.109773 0.115755
0.000000 0.112459 0.113436
0.008972 0.114778 0.107240
0.045075 0.116426 0.103944
0.076387 0.123110 0.096559
0.111543 0.132967 0.089937
0.154757 0.140627 0.086183
0.207736 0.146883 0.081086
0.262577 0.150057 0.080446
0.320745 0.151217 0.081910
0.383307 0.151461 0.082948
0.448219 0.151186 0.084077
0.512932 0.151705 0.084962
0.576165 0.155215 0.087007
0.637720 0.163729 0.089967
0.692195 0.174563 0.095644
0.740719 0.188571 0.103273
0.785428 0.204715 0.119661
0.827970 0.224582 0.139681
0.868132 0.247715 0.162936
0.905241 0.274083 0.188571
0.938811 0.302342 0.217899
0.968383 0.332280 0.249821
0.993622 0.363256 0.285008
1.000000 0.395666 0.323796
1.000000 0.429786 0.366735
1.000000 0.466682 0.415167
1.000000 0.506828 0.469093
1.000000 0.550896 0.529351
1.000000 0.600031 0.596704
0.000000 0.128359 0.134035
0.000000 0.128878 0.134005
0.000000 0.130312 0.133181
0.000000 0.133120 0.130465
0.000000 0.137423 0.125246
0.015656 0.138094 0.118898
0.063783 0.141512 0.113985
0.096864 0.150423 0.105867
0.142275 0.162570 0.097505
0.195560 0.172244 0.092103
0.258030 0.180545 0.085267
0.325994 0.186221 0.077638
0.388128 0.188571 0.078157
0.452430 0.190951 0.078676
0.516564 0.194217 0.078950
0.580743 0.200320 0.080354
0.640497 0.208774 0.082490
0.693660 0.218326 0.089052
0.741451 0.230228 0.096986
0.785977 0.244511 0.108888
0.828458 0.262333 0.121950
0.868620 0.282139 0.140200
0.905455 0.303929 0.168399
0.938872 0.327703 0.199100
0.968383 0.353307 0.232639
0.993652 0.380682 0.269139
1.000000 0.409522 0.308873
1.000000 0.440345 0.352453
1.000000 0.474220 0.401343
1.000000 0.511589 0.456031
1.000000 0.553429 0.517174
1.000000 0.600305 0.585138
0.000000 0.154238 0.154543
0.000000 0.155154 0.153872
0.000000 0.156619 0.153170
0.000000 0.159335 0.150668
0.000000 0.163760 0.146273
0.000000 0.167330 0.135958
0.034058 0.167422 0.132418
0.082795 0.173678 0.126284
0.125185 0.184665 0.116396
0.181247 0.200168 0.105318
0.244419 0.212100 0.098085
0.314580 0.222019 0.089052
0.389044 0.230198 0.076387
0.458412 0.235172 0.068940
0.523491 0.240482 0.068849
0.586145 0.247501 0.069459
0.644221 0.255100 0.073152
0.696407 0.263706 0.078889
0.743282 0.273442 0.088991
0.787259 0.285283 0.101625
0.829313 0.300084 0.116243
0.869200 0.317479 0.132113
0.906249 0.336767 0.149905
0.939696 0.357183 0.176028
0.969055 0.378698 0.211673
0.994232 0.401740 0.250278
1.000000 0.426642 0.291234
1.000000 0.453956 0.336431
1.000000 0.484260 0.386206
1.000000 0.518425 0.441535
1.000000 0.557092 0.502892
1.000000 0.601434 0.571710
0.000000 0.186831 0.176699
0.000000 0.187778 0.176242
0.000000 0.189090 0.175235
0.000000 0.192142 0.172793
0.000000 0.196414 0.168734
0.000000 0.201999 0.161654
0.000000 0.203494 0.151461
0.064332 0.203250 0.147341
0.110140 0.213107 0.138918
0.161593 0.226200 0.126955
0.227787 0.244175 0.113161
0.299016 0.258122 0.103029
0.374731 0.269932 0.092897
0.453468 0.280858 0.075593
0.530022 0.290806 0.042969
0.591882 0.297185 0.045747
0.649104 0.304082 0.052094
0.700343 0.311101 0.063600
0.746517 0.319097 0.076020
0.789731 0.328588 0.091463
0.831174 0.340764 0.106905
0.870207 0.354925 0.124666
0.906462 0.370794 0.143709
0.939605 0.388128 0.164950
0.969268 0.406378 0.187320
0.994537 0.425269 0.226169
1.000000 0.446296 0.269535
1.000000 0.469734 0.316258
1.000000 0.496468 0.367834
1.000000 0.527001 0.424384
1.000000 0.562615 0.487282
1.000000 0.604120 0.557122
0.000000 0.226047 0.200748
0.000000 0.227085 0.200107
0.000000 0.228458 0.199130
0.000000 0.231266 0.196994
0.000000 0.235569 0.193118
0.000000 0.241001 0.186893
0.000000 0.246433 0.173098
0.000000 0.246036 0.168307
0.093172 0.245060 0.163363
0.146395 0.259403 0.152407
0.205905 0.274510 0.138582
0.281285 0.295079 0.121218
0.359747 0.311315 0.109133
0.439338 0.325017 0.095033
0.517082 0.337041 0.075776
0.590906 0.348363 0.028199
0.652918 0.355566 0.000000
0.703090 0.360235 0.014740
0.748531 0.365515 0.053681
0.791501 0.372778 0.076081
0.832395 0.382330 0.095918
0.871122 0.393896 0.115267
0.907103 0.407294 0.136477
0.939971 0.421820 0.158785
0.969360 0.437201 0.182254
0.995056 0.452827 0.208072
1.000000 0.469276 0.244572
1.000000 0.488624 0.293645
1.000000 0.510887 0.346288
1.000000 0.537469 0.404517
1.000000 0.569085 0.468055
1.000000 0.607263 0.539361
0.000000 0.272129 0.226658
0.000000 0.273136 0.226169
0.000000 0.274449 0.225101
0.000000 0.277104 0.223056
0.000000 0.281163 0.219455
0.000000 0.286595 0.213748
0.000000 0.292790 0.205905
0.000000 0.295140 0.191318
0.065736 0.293767 0.186069
0.130526 0.295598 0.178988
0.191073 0.312535 0.166995
0.259129 0.330083 0.151217
0.351415 0.361059 0.131624
0.436194 0.379797 0.114900
0.516289 0.394049 0.098634
0.591699 0.406500 0.075654
0.659083 0.415717 0.022858
0.717800 0.421180 0.000000
0.761990 0.423163 0.000000
0.803403 0.427283 0.051942
0.842893 0.433692 0.082643
0.879911 0.441993 0.107210
0.914305 0.451820 0.131197
0.945647 0.462928 0.155947
0.973785 0.474861 0.180545
0.998322 0.487312 0.207401
1.000000 0.499855 0.235477
1.000000 0.513451 0.271153
1.000000 0.531090 0.326421
1.000000 0.552972 0.386206
1.000000 0.580529 0.451728
1.000000 0.614618 0.523796
0.000000 0.326879 0.256138
0.000000 0.327764 0.255558
0.000000 0.328801 0.254337
0.000000 0.331182 0.252110
0.000000 0.334874 0.248722
0.000000 0.339269 0.243381
0.000000 0.344823 0.236301
0.000000 0.350622 0.225986
0.000000 0.350408 0.212161
0.113710 0.348974 0.206180
0.178347 0.355840 0.197330
0.246891 0.374975 0.183291
0.322667 0.394659 0.165469
0.409522 0.417700 0.141817
0.495857 0.437781 0.122408
0.573816 0.452338 0.104219
0.643610 0.462593 0.082918
0.704280 0.468574 0.055482
0.757748 0.472267 0.000000
0.804166 0.474891 0.000000
0.843290 0.478523 0.054292
0.880064 0.484016 0.091005
0.914153 0.491249 0.118959
0.945281 0.499489 0.145815
0.973175 0.508659 0.172732
0.997620 0.518273 0.200046
1.000000 0.528191 0.229587
1.000000 0.538445 0.260258
1.000000 0.549706 0.296910
1.000000 0.567010 0.358923
1.000000 0.589929 0.426184
1.000000 0.619898 0.500023
0.000000 0.382422 0.285313
0.000000 0.383246 0.284733
0.000000 0.384100 0.283696
0.000000 0.386358 0.281590
0.000000 0.389563 0.278447
0.000000 0.394324 0.273655
0.000000 0.399847 0.267247
0.000000 0.405921 0.258671
0.000000 0.409125 0.239231
0.079744 0.407263 0.232975
0.163912 0.404730 0.226230
0.230716 0.415534 0.215335
0.303838 0.435126 0.199619
0.382849 0.454597 0.179446
0.468360 0.475776 0.153414
0.553735 0.496407 0.132143
0.626398 0.507988 0.114626
0.689235 0.514672 0.099489
0.744686 0.518547 0.081483
0.795590 0.521843 0.054719
0.842618 0.525170 0.000000
0.880400 0.528038 0.064820
0.914275 0.532464 0.102510
0.945251 0.538201 0.132937
0.972930 0.544610 0.163302
0.997162 0.551293 0.193240
1.000000 0.558465 0.223178
1.000000 0.566003 0.255131
1.000000 0.574090 0.288853
1.000000 0.583764 0.328496
1.000000 0.601862 0.397894
1.000000 0.627314 0.474220
0.000000 0.443000 0.317235
0.000000 0.443854 0.316869
0.000000 0.444648 0.316014
0.000000 0.446601 0.313817
0.000000 0.449531 0.310613
0.000000 0.453407 0.306218
0.000000 0.457710 0.300114
0.000000 0.462806 0.291661
0.000000 0.468208 0.281071
0.000000 0.467384 0.262089
0.144869 0.464454 0.254734
0.217685 0.460578 0.246647
0.287633 0.475685 0.233707
0.363348 0.494972 0.216953
0.443122 0.513664 0.195132
0.525231 0.532708 0.167605
0.607446 0.552026 0.146212
0.673213 0.559747 0.130953
0.730800 0.563958 0.120333
0.783291 0.567224 0.107515
0.831724 0.570214 0.093538
0.876066 0.573144 0.077241
0.914488 0.575402 0.078126
0.945220 0.578302 0.117769
0.972656 0.581811 0.152193
0.996826 0.585931 0.184604
1.000000 0.590417 0.216587
1.000000 0.595392 0.250034
1.000000 0.600793 0.284825
1.000000 0.607446 0.323033
1.000000 0.616846 0.367926
1.000000 0.637629 0.447120
0.000000 0.504265 0.350774
0.000000 0.505058 0.350378
0.000000 0.505913 0.349462
0.000000 0.507530 0.347509
0.000000 0.510094 0.344366
0.000000 0.513573 0.340154
0.000000 0.517449 0.334661
0.000000 0.522026 0.327123
0.000000 0.526635 0.317632
0.000000 0.529870 0.295109
0.115541 0.526085 0.286503
0.206485 0.521477 0.278233
0.273960 0.516228 0.268528
0.346349 0.534386 0.253635
0.422126 0.552239 0.235264
0.499947 0.569665 0.212619
0.578119 0.586236 0.183719
0.654749 0.602686 0.163943
0.715724 0.607782 0.152621
0.770260 0.611444 0.145266
0.820493 0.614710 0.137789
0.866423 0.617456 0.129915
0.907836 0.619501 0.121981
0.944518 0.620569 0.112734
0.973205 0.621118 0.140719
0.997040 0.622461 0.176028
1.000000 0.624140 0.209964
1.000000 0.626276 0.244846
1.000000 0.628901 0.281041
1.000000 0.632593 0.319280
1.000000 0.638453 0.361212
1.000000 0.648920 0.414252
0.000000 0.563378 0.384527
0.000000 0.563928 0.383948
0.000000 0.564569 0.383215
0.000000 0.565942 0.381292
0.000000 0.568231 0.378637
0.000000 0.570977 0.374670
0.000000 0.574456 0.369604
0.000000 0.578119 0.362493
0.000000 0.582086 0.354131
0.000000 0.585718 0.343175
0.059754 0.584894 0.319738
0.190463 0.580102 0.310948
0.266545 0.574365 0.301396
0.332280 0.572930 0.290379
0.404517 0.590021 0.274510
0.478218 0.606256 0.255650
0.552636 0.621668 0.233188
0.626978 0.636286 0.205325
0.698421 0.649775 0.187076
0.755581 0.653834 0.178775
0.807736 0.656947 0.172732
0.855070 0.659571 0.168643
0.897856 0.661372 0.165072
0.935821 0.662226 0.161990
0.969024 0.661463 0.159121
0.996674 0.659297 0.164309
1.000000 0.658289 0.201511
1.000000 0.657679 0.238285
1.000000 0.657496 0.275914
1.000000 0.658503 0.315465
1.000000 0.661585 0.357763
1.000000 0.667628 0.403601
0.000000 0.621057 0.419654
0.000000 0.621820 0.419409
0.000000 0.632044 0.425025
0.000000 0.633143 0.423133
0.000000 0.634668 0.420294
0.000000 0.636713 0.416510
0.000000 0.639094 0.411231
0.000000 0.641566 0.404822
0.000000 0.644343 0.397009
0.000000 0.646815 0.387396
0.040436 0.648646 0.371283
0.178378 0.644068 0.351537
0.263737 0.637842 0.341283
0.331792 0.630579 0.330297
0.395880 0.632593 0.317388
0.465431 0.647272 0.301122
0.535851 0.661311 0.282383
0.606470 0.674434 0.260105
0.676600 0.686854 0.233188
0.743313 0.697658 0.216220
0.797086 0.700618 0.210605
0.845914 0.702724 0.207095
0.889616 0.704097 0.206241
0.928496 0.704402 0.205722
0.962188 0.702937 0.206088
0.991058 0.699641 0.206058
1.000000 0.694545 0.207919
1.000000 0.689967 0.232395
1.000000 0.686915 0.270878
1.000000 0.685206 0.311009
1.000000 0.685512 0.353887
1.000000 0.688869 0.400549
0.000000 0.677485 0.457008
0.000000 0.678950 0.457191
0.000000 0.680598 0.457313
0.000000 0.682582 0.456519
0.000000 0.684810 0.454749
0.000000 0.686824 0.451545
0.000000 0.688838 0.447150
0.000000 0.690974 0.441596
0.000000 0.693172 0.435065
0.000000 0.695064 0.426947
0.009247 0.696498 0.416907
0.161318 0.695491 0.390661
0.255161 0.689784 0.380621
0.326635 0.683070 0.369299
0.388373 0.675471 0.357000
0.450752 0.680903 0.343450
0.516960 0.693751 0.327520
0.583886 0.706081 0.309300
0.651270 0.717556 0.287633
0.717830 0.728573 0.262272
0.781460 0.738521 0.246616
0.832486 0.741054 0.243687
0.878325 0.742397 0.242100
0.918608 0.742611 0.244205
0.953582 0.741176 0.246708
0.983520 0.737850 0.249699
1.000000 0.732662 0.253056
1.000000 0.725521 0.257328
1.000000 0.716976 0.265721
1.000000 0.712551 0.306462
1.000000 0.710201 0.349767
1.000000 0.710811 0.396948
0.000000 0.726253 0.492073
0.000000 0.727565 0.492348
0.000000 0.729030 0.492653
0.000000 0.730617 0.491981
0.000000 0.732418 0.490150
0.000000 0.734035 0.487678
0.000000 0.735622 0.483894
0.000000 0.737270 0.479103
0.000000 0.738888 0.473701
0.000000 0.740352 0.467109
0.000000 0.741360 0.459510
0.194156 0.741726 0.450874
0.252628 0.738003 0.423804
0.325170 0.732021 0.412665
0.387366 0.725093 0.400366
0.443214 0.717494 0.387274
0.503685 0.725917 0.373480
0.566644 0.737118 0.358068
0.630426 0.747951 0.339971
0.694423 0.758389 0.319677
0.757809 0.768215 0.295995
0.817929 0.776913 0.281559
0.866026 0.778805 0.280430
0.908202 0.778988 0.281498
0.944488 0.777462 0.286137
0.975463 0.774044 0.290929
1.000000 0.768765 0.296544
1.000000 0.761593 0.302953
1.000000 0.752712 0.310185
1.000000 0.742672 0.318242
1.000000 0.735409 0.345892
1.000000 0.733150 0.392462
0.000000 0.771481 0.527550
0.000000 0.772519 0.528038
0.000000 0.773739 0.528130
0.000000 0.775113 0.527794
0.000000 0.776516 0.526482
0.000000 0.777798 0.524224
0.000000 0.779019 0.521141
0.000000 0.780209 0.517449
0.000000 0.781277 0.513024
0.000000 0.782254 0.508019
0.015320 0.782895 0.502464
0.203983 0.782925 0.496193
0.260899 0.782132 0.471992
0.329015 0.776791 0.459937
0.389776 0.770626 0.447852
0.444892 0.764096 0.434943
0.496468 0.757534 0.421149
0.555627 0.768460 0.408362
0.616052 0.778958 0.393805
0.677241 0.788968 0.377417
0.738186 0.798520 0.358434
0.798581 0.807340 0.336950
0.854582 0.814145 0.324010
0.899351 0.815183 0.325170
0.937163 0.813565 0.328740
0.968963 0.809995 0.335851
0.995239 0.804562 0.344030
1.000000 0.797208 0.352544
1.000000 0.788174 0.361975
1.000000 0.778164 0.372564
1.000000 0.767941 0.384161
1.000000 0.757565 0.394903
0.000000 0.816770 0.567041
0.000000 0.817411 0.567102
0.000000 0.817868 0.566949
0.000000 0.818540 0.566369
0.000000 0.819333 0.565057
0.000000 0.820127 0.563409
0.000000 0.820981 0.560876
0.000000 0.821805 0.558312
0.000000 0.822690 0.555322
0.000000 0.823362 0.551873
0.096590 0.823819 0.548455
0.225986 0.823606 0.544457
0.306584 0.822782 0.539940
0.344915 0.820279 0.513756
0.401251 0.814847 0.501701
0.453559 0.808865 0.488746
0.502708 0.802457 0.475074
0.551720 0.799649 0.461341
0.607477 0.809140 0.449104
0.664485 0.818112 0.435004
0.721798 0.826505 0.419226
0.778927 0.834134 0.401129
0.835111 0.841123 0.380407
0.886076 0.845518 0.368048
0.926726 0.844999 0.370428
0.959960 0.841459 0.376745
0.987274 0.835996 0.385626
1.000000 0.828824 0.396612
1.000000 0.819974 0.408911
1.000000 0.810117 0.421668
1.000000 0.799985 0.434791
1.000000 0.790097 0.448402
0.000000 0.855314 0.603845
0.000000 0.855741 0.603998
0.000000 0.856229 0.604150
0.000000 0.856779 0.603693
0.000000 0.857298 0.602777
0.000000 0.857847 0.601495
0.000000 0.858305 0.599786
0.000000 0.858732 0.598047
0.000000 0.859190 0.596124
0.000000 0.859403 0.594202
0.142519 0.859403 0.592218
0.250431 0.858976 0.590387
0.327153 0.857969 0.588495
0.379919 0.856596 0.577539
0.418433 0.852903 0.557153
0.466255 0.847837 0.544671
0.512291 0.842374 0.531365
0.556817 0.836576 0.517357
0.603845 0.836881 0.504814
0.656397 0.845060 0.493172
0.709834 0.852628 0.480262
0.763577 0.859525 0.465217
0.816678 0.865812 0.448096
0.868681 0.871397 0.428962
0.913390 0.872465 0.414038
0.949798 0.870329 0.418647
0.978424 0.865080 0.427802
1.000000 0.857939 0.438849
1.000000 0.849241 0.453529
1.000000 0.839567 0.468910
1.000000 0.829526 0.484108
1.000000 0.820066 0.500786
0.000000 0.892363 0.643275
0.000000 0.892790 0.643671
0.000000 0.893034 0.643671
0.000000 0.893278 0.643427
0.000000 0.893492 0.642786
0.000000 0.893584 0.641749
0.000000 0.893614 0.640894
0.000000 0.893553 0.639551
0.000000 0.893278 0.638422
0.000000 0.892973 0.637751
0.193088 0.892332 0.637018
0.283146 0.891356 0.636774
0.354467 0.890043 0.636835
0.416388 0.888121 0.637263
0.444312 0.886381 0.615106
0.485969 0.881834 0.603082
0.526940 0.876982 0.589990
0.567651 0.871855 0.576471
0.607813 0.866636 0.562310
0.652888 0.869352 0.550866
0.701869 0.876158 0.540276
0.751369 0.882353 0.527886
0.800687 0.887785 0.514031
0.849302 0.892454 0.497688
0.896666 0.896391 0.478798
0.937896 0.896635 0.465980
0.969421 0.892638 0.472511
0.992767 0.885557 0.484596
1.000000 0.876707 0.498726
1.000000 0.866972 0.516136
1.000000 0.857084 0.533837
1.000000 0.847837 0.552911
0.000000 0.922667 0.678981
0.000000 0.922972 0.679255
0.000000 0.923186 0.679408
0.000000 0.923339 0.679316
0.000000 0.923339 0.679194
0.000000 0.923308 0.678859
0.000000 0.923125 0.678462
0.000000 0.922820 0.678248
0.000000 0.922393 0.678370
0.131075 0.921782 0.678889
0.242649 0.920958 0.679957
0.321233 0.919829 0.681697
0.387091 0.918364 0.683955
0.444709 0.916564 0.685847
0.494148 0.914488 0.685878
0.513970 0.912352 0.662562
0.550103 0.908354 0.651423
0.586419 0.904112 0.639490
0.622889 0.899748 0.626856
0.659388 0.895293 0.613764
0.701900 0.899443 0.604517
0.746304 0.904723 0.594629
0.790951 0.909361 0.583154
0.835203 0.913298 0.569818
0.878904 0.916533 0.554620
0.921782 0.919097 0.536736
0.958465 0.917662 0.523796
0.984405 0.911650 0.532677
1.000000 0.902800 0.548486
1.000000 0.892729 0.564752
1.000000 0.882811 0.584497
1.000000 0.873747 0.606165
0.000000 0.949645 0.714290
0.000000 0.949889 0.714595
0.000000 0.949981 0.714565
0.000000 0.949920 0.714656
0.000000 0.949706 0.714717
0.000000 0.949371 0.714748
0.000000 0.948882 0.714961
0.000000 0.948302 0.715602
0.063478 0.947570 0.716701
0.210422 0.946654 0.718288
0.293919 0.945495 0.720577
0.362463 0.944152 0.723934
0.421973 0.942565 0.727199
0.475502 0.940703 0.730526
0.523461 0.938659 0.733242
0.546593 0.937621 0.718441
0.576654 0.934417 0.708309
0.608270 0.930938 0.698177
0.640681 0.927337 0.687648
0.673487 0.923644 0.676570
0.706813 0.920226 0.665034
0.745907 0.924651 0.657801
0.785397 0.928496 0.649134
0.824887 0.931701 0.639246
0.864042 0.934295 0.627436
0.902831 0.936217 0.613489
0.941192 0.937469 0.597772
0.973816 0.934936 0.584863
0.993286 0.926452 0.594537
1.000000 0.916289 0.611627
1.000000 0.906096 0.630274
1.000000 0.896788 0.652247
0.000000 0.971710 0.747372
0.000000 0.971832 0.747463
0.000000 0.971954 0.747463
0.000000 0.972107 0.747341
0.000000 0.971954 0.747829
0.000000 0.971557 0.748592
0.000000 0.971069 0.749935
0.060212 0.970489 0.751675
0.204257 0.969696 0.754360
0.286137 0.968719 0.757748
0.353674 0.967498 0.761837
0.413123 0.966094 0.766201
0.466804 0.964477 0.770871
0.515709 0.962676 0.775448
0.560204 0.960693 0.779599
0.600855 0.958526 0.783322
0.614069 0.957580 0.766354
0.640345 0.954894 0.758389
0.667659 0.952087 0.750057
0.695888 0.949187 0.741207
0.724697 0.946197 0.732052
0.754971 0.944610 0.723415
0.788571 0.947478 0.717128
0.822354 0.949767 0.709834
0.856107 0.951476 0.701411
0.889616 0.952636 0.691493
0.922820 0.953002 0.679133
0.955840 0.952758 0.664668
0.984009 0.949096 0.652064
0.997498 0.938750 0.661433
1.000000 0.928252 0.680415
1.000000 0.918639 0.701198
0.000000 0.990845 0.781857
0.000000 0.990936 0.781888
0.000000 0.990997 0.781857
0.000000 0.991089 0.781765
0.000000 0.991211 0.781430
0.000000 0.990784 0.782162
0.137057 0.989929 0.783871
0.224857 0.988830 0.786099
0.293492 0.987579 0.789090
0.353918 0.986084 0.792752
0.409064 0.984405 0.796811
0.460182 0.982605 0.801297
0.507774 0.980621 0.806027
0.551965 0.978546 0.810788
0.593256 0.976318 0.815732
0.631922 0.973999 0.820859
