其他预设/【233】日式怀旧街道调色预设208款/1.3D LUT预设（视频调色-PR-AE-PS-FCPX-达芬奇用）/1.日式城市街拍预设/JA – Cine Night 1.cube
# Created by Adobe Lightroom plugin Export LUT (1.17.0)
# www.johnrellis.com/lightroom/exportlut.htm
# Preset: JA – Cine Night 1
# Color profile: /Library/Application Support/Adobe/Color/Profiles/Recommended/AdobeRGB1998.icc
LUT_3D_SIZE 5
DOMAIN_MIN 0.000000 0.000000 0.000000
DOMAIN_MAX 0.903226 0.903226 0.903226
0.004669 0.027771 0.052949
0.115724 0.070954 0.087373
0.498238 0.000000 0.122774
0.863249 0.127596 0.207736
1.000000 0.439704 0.438209
0.000000 0.128359 0.134035
0.096864 0.150423 0.105867
0.516564 0.194217 0.078950
0.868620 0.282139 0.140200
1.000000 0.474220 0.401343
0.000000 0.443000 0.317235
0.000000 0.462806 0.291661
0.443122 0.513664 0.195132
0.876066 0.573144 0.077241
1.000000 0.600793 0.284825
0.000000 0.816770 0.567041
0.000000 0.821805 0.558312
0.401251 0.814847 0.501701
0.778927 0.834134 0.401129
1.000000 0.819974 0.408911
0.216281 1.000000 0.811307
0.315190 1.000000 0.815122
0.623590 0.986908 0.843778
0.782589 0.974914 0.828946
0.942412 0.970336 0.785367
0.000000 0.060456 0.156710
0.082551 0.074342 0.164797
0.465431 0.000000 0.247776
0.843198 0.191562 0.309117
1.000000 0.439063 0.432990
0.000000 0.126131 0.196933
0.065095 0.151339 0.217655
0.482887 0.188693 0.252567
0.848081 0.298772 0.304387
1.000000 0.483040 0.429847
0.000000 0.445563 0.385595
0.000000 0.465248 0.378698
0.433509 0.503563 0.303380
0.862638 0.563256 0.282506
1.000000 0.620172 0.420508
0.000000 0.818204 0.621485
0.000000 0.822751 0.618128
0.424720 0.818570 0.578271
0.775570 0.832517 0.487007
1.000000 0.823056 0.504814
0.211856 1.000000 0.830808
0.312169 1.000000 0.833738
0.630732 0.987427 0.860929
0.791012 0.974701 0.853330
0.941283 0.970031 0.815335
0.000000 0.075532 0.366552
0.048615 0.065675 0.396002
0.398962 0.043641 0.402869
0.795132 0.297948 0.543542
0.994812 0.618952 0.736080
0.000000 0.148013 0.387304
0.000000 0.158907 0.424994
0.410193 0.203464 0.439887
0.794553 0.407721 0.583276
0.997070 0.634333 0.730983
0.000000 0.397192 0.500999
0.000000 0.422065 0.515618
0.419959 0.493965 0.557031
0.808133 0.598566 0.633875
1.000000 0.701106 0.719112
0.000000 0.820523 0.761440
0.000000 0.826322 0.764920
0.474403 0.825193 0.755703
0.765560 0.829191 0.693874
0.997681 0.833829 0.723293
0.202335 1.000000 0.889189
0.313115 1.000000 0.889158
0.605402 0.989593 0.895109
0.813596 0.973236 0.907134
0.939361 0.968597 0.878050
0.000000 0.092958 0.662531
0.008148 0.059724 0.687343
0.538109 0.000000 0.758877
0.750729 0.254826 0.700252
0.970153 0.647700 0.842283
0.000000 0.179629 0.674922
0.000000 0.181796 0.698085
0.524559 0.179873 0.772457
0.748470 0.357977 0.720241
0.967071 0.683314 0.854429
0.000000 0.398779 0.694179
0.000000 0.399817 0.695613
0.400824 0.464210 0.772000
0.737758 0.582544 0.780179
0.960571 0.785733 0.892668
0.000000 0.735439 0.833127
0.000000 0.743404 0.836484
0.387427 0.770199 0.849271
0.746853 0.814908 0.872404
0.962799 0.875364 0.917144
0.000000 0.998901 0.950256
0.283391 0.997040 0.950958
0.617670 0.988891 0.954681
0.831205 0.974212 0.954559
0.941802 0.966888 0.944121
0.144900 0.246067 0.948791
0.325994 0.228641 0.953155
0.623072 0.196353 0.967163
0.873777 0.296056 0.970214
0.960967 0.617517 0.919005
0.016144 0.284398 0.948547
0.289067 0.285252 0.952392
0.599725 0.306188 0.965515
0.865690 0.392828 0.970855
0.957702 0.646235 0.922423
0.000000 0.464637 0.937682
0.000000 0.455512 0.943511
0.487678 0.500267 0.959167
0.842710 0.607660 0.975677
0.951415 0.739467 0.936950
0.000000 0.750729 0.964141
0.000000 0.745541 0.962341
0.252293 0.724422 0.956664
0.718990 0.761654 0.968658
0.945830 0.873136 0.963745
0.162509 0.946777 0.986053
0.194919 0.947967 0.985901
0.501915 0.950469 0.986023
0.763790 0.953674 0.984680
0.943023 0.962768 0.985473
