其他预设/【233】日式怀旧街道调色预设208款/1.3D LUT预设（视频调色-PR-AE-PS-FCPX-达芬奇用）/1.日式城市街拍预设/JA – Cine Night 5.cube
# Created by Adobe Lightroom plugin Export LUT (1.17.0)
# www.johnrellis.com/lightroom/exportlut.htm
# Preset: JA – Cine Night 5
# Color profile: /Library/Application Support/Adobe/Color/Profiles/Recommended/AdobeRGB1998.icc
LUT_3D_SIZE 5
DOMAIN_MIN 0.000000 0.000000 0.000000
DOMAIN_MAX 0.903226 0.903226 0.903226
0.000000 0.030060 0.060395
0.131380 0.068299 0.075746
0.730678 0.000000 0.000000
1.000000 0.000000 0.000000
1.000000 0.000000 0.184207
0.000000 0.128786 0.135988
0.080293 0.162814 0.094545
0.763302 0.205112 0.000000
1.000000 0.157412 0.000000
1.000000 0.160311 0.000000
0.000000 0.484901 0.362860
0.000000 0.512566 0.309056
0.555749 0.587243 0.063386
1.000000 0.585565 0.000000
1.000000 0.474586 0.000000
0.000000 0.852842 0.622370
0.000000 0.857023 0.612238
0.429572 0.842649 0.549767
0.906004 0.855589 0.315099
1.000000 0.761379 0.000000
0.427222 0.988922 0.811490
0.439002 0.989532 0.811948
0.715480 0.970245 0.837186
0.851530 0.958373 0.817350
0.993835 0.962097 0.671015
0.000000 0.066163 0.190677
0.025055 0.083589 0.200473
0.652705 0.000000 0.248600
1.000000 0.000000 0.244602
1.000000 0.000000 0.214969
0.000000 0.134005 0.228336
0.000000 0.166049 0.257694
0.691402 0.066163 0.249271
1.000000 0.070832 0.221958
1.000000 0.186435 0.172793
0.000000 0.499031 0.468208
0.000000 0.526482 0.454170
0.543572 0.581598 0.307164
1.000000 0.570855 0.231693
1.000000 0.453437 0.000000
0.000000 0.856321 0.681392
0.000000 0.859617 0.677363
0.468330 0.846464 0.639918
0.898650 0.855100 0.471565
1.000000 0.766476 0.305852
0.432990 0.988586 0.828061
0.444434 0.989166 0.828153
0.723476 0.970428 0.851743
0.858549 0.958282 0.839322
0.989044 0.961975 0.726558
0.000000 0.095521 0.515770
0.000000 0.087953 0.555810
0.498573 0.019409 0.561028
0.935729 0.269657 0.657893
1.000000 0.563378 0.747677
0.000000 0.181033 0.520470
0.000000 0.192233 0.575860
0.503319 0.247807 0.595239
0.932189 0.400946 0.686610
1.000000 0.573785 0.737484
0.000000 0.470130 0.639185
0.000000 0.498421 0.654108
0.500542 0.570336 0.690791
0.943511 0.634485 0.729580
1.000000 0.634943 0.705043
0.000000 0.866636 0.811856
0.000000 0.867094 0.811124
0.579217 0.853696 0.805783
0.879332 0.853758 0.742397
1.000000 0.817166 0.747311
0.454841 0.987243 0.879606
0.466896 0.987884 0.878019
0.704921 0.972900 0.882994
0.875761 0.957671 0.891325
0.979339 0.961181 0.829221
0.000000 0.169802 0.814664
0.000000 0.165011 0.828305
0.664607 0.120851 0.866697
0.877379 0.407630 0.818814
0.999268 0.714931 0.877165
0.000000 0.256840 0.815152
0.000000 0.269017 0.828244
0.637049 0.308415 0.866087
0.872740 0.489052 0.828275
0.997070 0.737209 0.882475
0.000000 0.494881 0.819608
0.000000 0.494484 0.819120
0.499428 0.554620 0.853422
0.860410 0.670283 0.855344
0.991516 0.803830 0.900511
0.000000 0.797421 0.879881
0.000000 0.802976 0.881102
0.522454 0.817044 0.885649
0.859037 0.842893 0.896635
0.990936 0.876677 0.914946
0.434333 0.985962 0.941344
0.455848 0.986481 0.940642
0.729915 0.971801 0.943297
0.891142 0.959747 0.943481
0.971405 0.960845 0.923278
0.439765 0.467506 0.975677
0.533837 0.474403 0.976226
0.762570 0.512322 0.978119
0.940826 0.605280 0.976806
0.983368 0.772854 0.940978
0.416052 0.519341 0.973571
0.514855 0.526421 0.974151
0.751064 0.563592 0.976135
0.935363 0.647486 0.976165
0.981445 0.787076 0.942931
0.184604 0.630549 0.967102
0.341192 0.628779 0.968566
0.687831 0.672297 0.971130
0.916381 0.747921 0.975341
0.976471 0.833616 0.951049
0.331548 0.820554 0.973999
0.402045 0.818204 0.972961
0.574945 0.807858 0.969787
0.851865 0.828611 0.970672
0.970245 0.900725 0.965911
0.565637 0.942931 0.980591
0.565759 0.944060 0.980499
0.691127 0.943847 0.980255
0.864073 0.945861 0.979095
0.965515 0.958770 0.981567
