其他预设/【233】日式怀旧街道调色预设208款/1.3D LUT预设（视频调色-PR-AE-PS-FCPX-达芬奇用）/1.日式城市街拍预设/JA – Controlled Contrast 1.cube
# Created by Adobe Lightroom plugin Export LUT (1.17.0)
# www.johnrellis.com/lightroom/exportlut.htm
# Preset: JA – Controlled Contrast 1
# Color profile: /Library/Application Support/Adobe/Color/Profiles/Recommended/AdobeRGB1998.icc
LUT_3D_SIZE 32
0.089021 0.087709 0.087587
0.089021 0.087709 0.087587
0.089021 0.087709 0.087587
0.092592 0.087678 0.088075
0.105562 0.087617 0.089357
0.119356 0.086976 0.090578
0.135988 0.085389 0.091432
0.156374 0.084718 0.091341
0.182193 0.084291 0.090517
0.214511 0.083040 0.088411
0.254551 0.081910 0.085054
0.303227 0.081361 0.079255
0.360998 0.082734 0.070100
0.425513 0.088197 0.054170
0.493324 0.096590 0.009033
0.560815 0.107210 0.000000
0.625971 0.119142 0.000000
0.687556 0.132204 0.000000
0.743038 0.145541 0.000000
0.793698 0.158328 0.000000
0.840696 0.170291 0.000000
0.883482 0.181796 0.000000
0.922515 0.192416 0.000000
0.957427 0.202029 0.000000
0.988342 0.210208 0.000000
1.000000 0.217288 0.000000
1.000000 0.223667 0.000000
1.000000 0.228763 0.000000
1.000000 0.233219 0.000000
1.000000 0.237888 0.000000
1.000000 0.242924 0.000000
1.000000 0.249943 0.000000
0.089021 0.087709 0.087587
0.089021 0.087709 0.087587
0.089021 0.087709 0.087587
0.092927 0.087617 0.088045
0.106081 0.087526 0.089631
0.119844 0.086854 0.090578
0.136507 0.086824 0.091279
0.157107 0.086671 0.091157
0.183536 0.086275 0.090272
0.216403 0.085634 0.088075
0.257328 0.085420 0.084504
0.306920 0.085695 0.078370
0.365728 0.088502 0.068940
0.431159 0.094331 0.049836
0.499702 0.103670 0.002472
0.567681 0.114199 0.000000
0.632685 0.126558 0.000000
0.694179 0.139193 0.000000
0.749294 0.152071 0.000000
0.799496 0.164645 0.000000
0.845945 0.176394 0.000000
0.888121 0.187289 0.000000
0.926452 0.197574 0.000000
0.960815 0.206516 0.000000
0.991150 0.214572 0.000000
1.000000 0.221561 0.000000
1.000000 0.227146 0.000000
1.000000 0.232486 0.000000
1.000000 0.236759 0.000000
1.000000 0.240848 0.000000
1.000000 0.245975 0.000000
1.000000 0.252842 0.000000
0.089021 0.087709 0.087587
0.089021 0.087709 0.087587
0.089021 0.087709 0.087587
0.093477 0.087831 0.088319
0.106630 0.087709 0.089601
0.120363 0.088594 0.090700
0.136721 0.089235 0.091096
0.157595 0.089601 0.090913
0.184512 0.089296 0.089967
0.217533 0.089448 0.087648
0.258701 0.089845 0.083986
0.308995 0.091493 0.077546
0.368231 0.095369 0.067628
0.434058 0.102327 0.046021
0.502708 0.111879 0.000000
0.570642 0.123049 0.000000
0.636133 0.135073 0.000000
0.697353 0.147402 0.000000
0.752316 0.159792 0.000000
0.802182 0.171969 0.000000
0.848325 0.183047 0.000000
0.890196 0.193301 0.000000
0.928191 0.203159 0.000000
0.962310 0.211765 0.000000
0.992370 0.219455 0.000000
1.000000 0.226017 0.000000
1.000000 0.231449 0.000000
1.000000 0.236149 0.000000
1.000000 0.240299 0.000000
1.000000 0.244419 0.000000
1.000000 0.249119 0.000000
1.000000 0.256046 0.000000
0.089143 0.088930 0.087770
0.089448 0.089174 0.087739
0.089265 0.090089 0.087953
0.093019 0.090608 0.088655
0.105776 0.092378 0.089540
0.119448 0.093263 0.090364
0.136110 0.094087 0.090730
0.157046 0.095003 0.090486
0.183688 0.095705 0.089479
0.217166 0.097078 0.087007
0.258732 0.098909 0.082795
0.309209 0.102571 0.076326
0.369024 0.108461 0.065736
0.435096 0.117250 0.040345
0.504570 0.127443 0.000000
0.572778 0.138430 0.000000
0.638270 0.150668 0.000000
0.699947 0.162753 0.000000
0.755062 0.174441 0.000000
0.805112 0.186007 0.000000
0.851469 0.196109 0.000000
0.893004 0.206088 0.000000
0.930571 0.214786 0.000000
0.963867 0.222507 0.000000
0.993256 0.229129 0.000000
1.000000 0.234745 0.000000
1.000000 0.239506 0.000000
1.000000 0.243778 0.000000
1.000000 0.247227 0.000000
1.000000 0.250858 0.000000
1.000000 0.255283 0.000000
1.000000 0.261753 0.000000
0.089937 0.097902 0.088380
0.090181 0.098421 0.088319
0.090059 0.098970 0.088563
0.094484 0.099611 0.088655
0.102388 0.098238 0.091310
0.117220 0.100282 0.091463
0.134005 0.101625 0.091218
0.155032 0.103304 0.090913
0.182132 0.105135 0.089540
0.215915 0.108064 0.086580
0.257664 0.112276 0.082368
0.308568 0.118196 0.075105
0.368780 0.126284 0.063600
0.434974 0.136965 0.033021
0.503960 0.147890 0.000000
0.571435 0.159823 0.000000
0.636347 0.171542 0.000000
0.697597 0.183047 0.000000
0.752926 0.193881 0.000000
0.803708 0.204196 0.000000
0.850401 0.214023 0.000000
0.892638 0.222629 0.000000
0.930419 0.230472 0.000000
0.963867 0.237430 0.000000
0.993164 0.243351 0.000000
1.000000 0.248112 0.000000
1.000000 0.252110 0.000000
1.000000 0.255283 0.000000
1.000000 0.258122 0.000000
1.000000 0.261051 0.000000
1.000000 0.264652 0.000000
1.000000 0.270481 0.000000
0.090517 0.107271 0.088869
0.090425 0.107759 0.088808
0.090700 0.108217 0.088777
0.094423 0.109133 0.088838
0.104524 0.108827 0.089418
0.112459 0.106905 0.093660
0.130220 0.110262 0.092988
0.150576 0.111635 0.091402
0.176974 0.115114 0.089906
0.210269 0.119539 0.087160
0.251408 0.125765 0.082490
0.301671 0.134066 0.075044
0.361059 0.144564 0.063630
0.427466 0.156619 0.031067
0.496803 0.169558 0.000000
0.564874 0.182010 0.000000
0.629908 0.194064 0.000000
0.691737 0.205234 0.000000
0.747341 0.215793 0.000000
0.798703 0.225315 0.000000
0.845975 0.234379 0.000000
0.888731 0.241978 0.000000
0.900755 0.239780 0.000000
0.938964 0.246708 0.000000
0.972778 0.252873 0.000000
1.000000 0.257694 0.000000
1.000000 0.261662 0.000000
1.000000 0.264897 0.000000
1.000000 0.267399 0.000000
1.000000 0.269596 0.000000
1.000000 0.272313 0.000000
1.000000 0.276493 0.000000
0.090761 0.116243 0.088746
0.090730 0.116487 0.088716
0.090944 0.116884 0.088930
0.094362 0.117769 0.088746
0.103609 0.118257 0.088685
0.114473 0.117006 0.090669
0.122408 0.114870 0.094881
0.142733 0.120363 0.094026
0.166537 0.123507 0.091463
0.195529 0.127596 0.088380
0.232914 0.134646 0.084230
0.278508 0.143954 0.077699
0.334447 0.155734 0.067506
0.399115 0.169802 0.043763
0.468940 0.184665 0.000000
0.539452 0.199191 0.000000
0.607050 0.212284 0.000000
0.671260 0.224704 0.000000
0.728939 0.235142 0.000000
0.781155 0.244327 0.000000
0.828641 0.252476 0.000000
0.871275 0.259068 0.000000
0.909422 0.264958 0.000000
0.944030 0.269688 0.000000
0.975219 0.273899 0.000000
1.000000 0.277379 0.000000
1.000000 0.280430 0.000000
1.000000 0.282780 0.000000
1.000000 0.284276 0.000000
1.000000 0.286137 0.000000
1.000000 0.288090 0.000000
1.000000 0.291875 0.000000
0.090761 0.128847 0.088319
0.090669 0.129244 0.088289
0.090883 0.129824 0.088197
0.095613 0.130434 0.087984
0.105226 0.131197 0.087861
0.117556 0.132204 0.087892
0.128786 0.129610 0.091646
0.137514 0.127626 0.096284
0.162905 0.135439 0.094697
0.192477 0.141787 0.090578
0.227115 0.148013 0.085084
0.269627 0.156954 0.078370
0.324651 0.171054 0.067567
0.388800 0.187198 0.043793
0.458900 0.204349 0.000000
0.530388 0.220798 0.000000
0.599176 0.235447 0.000000
0.664027 0.248661 0.000000
0.723201 0.259586 0.000000
0.776608 0.268986 0.000000
0.825376 0.276860 0.000000
0.868986 0.283421 0.000000
0.908049 0.288579 0.000000
0.943328 0.292882 0.000000
0.974975 0.296239 0.000000
1.000000 0.299290 0.000000
1.000000 0.301213 0.000000
1.000000 0.302739 0.000000
1.000000 0.303563 0.000000
1.000000 0.304479 0.000000
1.000000 0.306004 0.000000
1.000000 0.309087 0.000000
0.089998 0.145052 0.086641
0.089937 0.145388 0.086580
0.091035 0.146120 0.086732
0.097902 0.146792 0.086427
0.108034 0.147860 0.085939
0.121157 0.149233 0.085542
0.135134 0.148745 0.087343
0.147097 0.145968 0.091402
0.157198 0.143740 0.096986
0.188174 0.155123 0.094270
0.223941 0.164645 0.088075
0.265232 0.174472 0.079927
0.313054 0.185031 0.068971
0.373907 0.201633 0.047181
0.443610 0.220981 0.000000
0.515984 0.239933 0.000000
0.585962 0.256474 0.000000
0.652216 0.271061 0.000000
0.712917 0.283116 0.000000
0.768185 0.293004 0.000000
0.818479 0.301244 0.000000
0.863920 0.307713 0.000000
0.904295 0.312688 0.000000
0.940581 0.316686 0.000000
0.973022 0.319799 0.000000
1.000000 0.321874 0.000000
1.000000 0.323400 0.000000
1.000000 0.324102 0.000000
1.000000 0.324376 0.000000
1.000000 0.324681 0.000000
1.000000 0.325536 0.000000
1.000000 0.328099 0.000000
0.087984 0.166201 0.083742
0.089601 0.166506 0.083619
0.093141 0.166934 0.083436
0.101259 0.167819 0.083009
0.112215 0.169162 0.082368
0.126497 0.171115 0.081727
0.143496 0.173434 0.080751
0.158297 0.170596 0.084810
0.171054 0.167361 0.089815
0.183078 0.165103 0.096132
0.220706 0.180117 0.091920
0.263828 0.193820 0.082704
0.313237 0.208164 0.070314
0.368231 0.222385 0.047791
0.426184 0.235264 0.000000
0.497963 0.256077 0.000000
0.567987 0.274540 0.000000
0.635065 0.290318 0.000000
0.697566 0.303929 0.000000
0.755154 0.315190 0.000000
0.808255 0.324620 0.000000
0.856626 0.332128 0.000000
0.899626 0.337652 0.000000
0.937774 0.341772 0.000000
0.971557 0.344579 0.000000
1.000000 0.346410 0.000000
1.000000 0.347173 0.000000
1.000000 0.347112 0.000000
1.000000 0.346563 0.000000
1.000000 0.346014 0.000000
1.000000 0.346197 0.000000
1.000000 0.348150 0.000000
0.089601 0.193301 0.077882
0.092836 0.193668 0.077699
0.097078 0.194217 0.077424
0.105562 0.195224 0.076875
0.118441 0.196628 0.076326
0.134005 0.198520 0.075105
0.152132 0.200900 0.073396
0.170993 0.201236 0.074861
0.187015 0.197818 0.079896
0.200961 0.193912 0.086152
0.215030 0.191745 0.093355
0.260166 0.211093 0.087068
0.311833 0.229709 0.073182
0.368994 0.247898 0.047547
0.428901 0.264225 0.000000
0.488380 0.277745 0.000000
0.549798 0.290959 0.000000
0.617853 0.308995 0.000000
0.682856 0.324468 0.000000
0.742947 0.337316 0.000000
0.798154 0.347906 0.000000
0.848356 0.356237 0.000000
0.893095 0.362310 0.000000
0.932738 0.366674 0.000000
0.967773 0.369482 0.000000
0.998474 0.371008 0.000000
1.000000 0.371283 0.000000
1.000000 0.370825 0.000000
1.000000 0.369787 0.000000
1.000000 0.368627 0.000000
1.000000 0.368444 0.000000
1.000000 0.369970 0.000000
0.093477 0.225711 0.068391
0.097078 0.226200 0.068086
0.101991 0.226688 0.067689
0.111849 0.227695 0.066896
0.126162 0.229191 0.065644
0.143343 0.231296 0.063752
0.163088 0.234012 0.061128
0.185367 0.237522 0.057679
0.204562 0.234470 0.063874
0.221592 0.230167 0.071077
0.236881 0.225772 0.078798
0.253452 0.223758 0.087770
0.284916 0.231388 0.083375
0.340002 0.252537 0.065461
0.399115 0.272343 0.017365
0.459541 0.289647 0.000000
0.518547 0.303471 0.000000
0.574304 0.313787 0.000000
0.637049 0.328710 0.000000
0.702510 0.345373 0.000000
0.763241 0.358953 0.000000
0.818997 0.370336 0.000000
0.869505 0.379034 0.000000
0.914092 0.385351 0.000000
0.953246 0.389563 0.000000
0.987213 0.391974 0.000000
1.000000 0.392859 0.000000
1.000000 0.392462 0.000000
1.000000 0.391547 0.000000
1.000000 0.390051 0.000000
1.000000 0.389532 0.000000
1.000000 0.390570 0.000000
0.098360 0.254887 0.053651
0.101686 0.255497 0.052857
0.107027 0.256382 0.051606
0.117708 0.258305 0.048920
0.133211 0.260838 0.044312
0.151766 0.264195 0.037140
0.173159 0.267887 0.028351
0.196475 0.271550 0.019379
0.220706 0.273411 0.016846
0.239963 0.268437 0.036194
0.256901 0.262516 0.056733
0.271519 0.256016 0.069154
0.288853 0.253330 0.080690
0.345769 0.279423 0.069368
0.405280 0.301640 0.015869
0.466072 0.321202 0.000000
0.525628 0.336797 0.000000
0.582116 0.348486 0.000000
0.635645 0.357427 0.000000
0.688563 0.364385 0.000000
0.751461 0.380377 0.000000
0.809689 0.393286 0.000000
0.862364 0.403479 0.000000
0.908904 0.410590 0.000000
0.949584 0.415259 0.000000
0.984710 0.417823 0.000000
1.000000 0.418677 0.000000
1.000000 0.418067 0.000000
1.000000 0.416541 0.000000
1.000000 0.414862 0.000000
1.000000 0.413733 0.000000
1.000000 0.414527 0.000000
0.106294 0.301091 0.000000
0.110964 0.301518 0.000000
0.117067 0.302739 0.000000
0.128450 0.304540 0.000000
0.145754 0.307530 0.000000
0.166323 0.311101 0.000000
0.190005 0.315099 0.000000
0.215366 0.319005 0.000000
0.243198 0.323583 0.000000
0.267369 0.321050 0.000000
0.287846 0.314977 0.000000
0.306432 0.308171 0.000000
0.322972 0.301244 0.033387
0.344305 0.299504 0.064515
0.407172 0.328405 0.030243
0.471168 0.352270 0.000000
0.532250 0.370397 0.000000
0.589532 0.384009 0.000000
0.643977 0.393927 0.000000
0.696498 0.401648 0.000000
0.745876 0.406867 0.000000
0.798093 0.414710 0.000000
0.853178 0.426581 0.000000
0.901762 0.435035 0.000000
0.944274 0.440436 0.000000
0.980804 0.443427 0.000000
1.000000 0.444282 0.000000
1.000000 0.443610 0.000000
1.000000 0.441901 0.000000
1.000000 0.439918 0.000000
1.000000 0.438514 0.000000
1.000000 0.439033 0.000000
0.117250 0.352331 0.000000
0.122347 0.352758 0.000000
0.128450 0.353735 0.000000
0.141299 0.355810 0.000000
0.160067 0.359075 0.000000
0.182650 0.363043 0.000000
0.208042 0.367041 0.000000
0.235386 0.370886 0.000000
0.264317 0.374945 0.000000
0.295140 0.378546 0.000000
0.319127 0.372625 0.000000
0.341344 0.365850 0.000000
0.361791 0.358679 0.000000
0.380926 0.351812 0.000000
0.406317 0.351171 0.006806
0.472541 0.380804 0.000000
0.536736 0.403113 0.000000
0.595392 0.418769 0.000000
0.650996 0.430488 0.000000
0.704036 0.439277 0.000000
0.753506 0.444984 0.000000
0.800351 0.448676 0.000000
0.844541 0.450568 0.000000
0.893614 0.458717 0.000000
0.938079 0.465187 0.000000
0.976074 0.468788 0.000000
1.000000 0.469825 0.000000
1.000000 0.469123 0.000000
1.000000 0.466987 0.000000
1.000000 0.464607 0.000000
1.000000 0.462806 0.000000
1.000000 0.462898 0.000000
0.130129 0.406897 0.000000
0.135592 0.407019 0.000000
0.141726 0.407630 0.000000
0.155428 0.409308 0.000000
0.174838 0.411719 0.000000
0.198154 0.414771 0.000000
0.224430 0.417914 0.000000
0.252750 0.421454 0.000000
0.283024 0.424811 0.000000
0.315190 0.429145 0.000000
0.345830 0.428931 0.000000
0.372320 0.423713 0.000000
0.397345 0.417945 0.000000
0.421576 0.412390 0.000000
0.444617 0.406958 0.000000
0.473732 0.407416 0.000000
0.539147 0.434516 0.000000
0.600855 0.453773 0.000000
0.657282 0.467231 0.000000
0.709926 0.476509 0.000000
0.759091 0.482582 0.000000
0.805447 0.486397 0.000000
0.848844 0.488136 0.000000
0.889006 0.487709 0.000000
0.928710 0.488136 0.000000
0.968811 0.492805 0.000000
1.000000 0.494453 0.000000
1.000000 0.494087 0.000000
1.000000 0.492195 0.000000
1.000000 0.489693 0.000000
1.000000 0.487953 0.000000
1.000000 0.488289 0.000000
0.144961 0.464210 0.000000
0.150210 0.464546 0.000000
0.157107 0.465339 0.000000
0.171176 0.466835 0.000000
0.191501 0.468849 0.000000
0.215732 0.471595 0.000000
0.242710 0.474403 0.000000
0.272282 0.477241 0.000000
0.303563 0.480293 0.000000
0.336095 0.483192 0.000000
0.371832 0.487984 0.000000
0.401190 0.483284 0.000000
0.429389 0.478065 0.000000
0.456764 0.472541 0.000000
0.483406 0.467414 0.000000
0.509209 0.462745 0.000000
0.539910 0.462715 0.000000
0.602808 0.486641 0.000000
0.663111 0.504143 0.000000
0.716670 0.514916 0.000000
0.766110 0.521721 0.000000
0.812253 0.525750 0.000000
0.854948 0.527337 0.000000
0.894255 0.526604 0.000000
0.930571 0.523735 0.000000
0.963775 0.519188 0.000000
0.997803 0.519768 0.000000
1.000000 0.519707 0.000000
1.000000 0.517937 0.000000
1.000000 0.515526 0.000000
1.000000 0.513664 0.000000
1.000000 0.514061 0.000000
0.158816 0.518425 0.000000
0.164340 0.518120 0.000000
0.164370 0.498390 0.000000
0.178286 0.499641 0.000000
0.198001 0.501823 0.000000
0.221775 0.504601 0.000000
0.249241 0.507897 0.000000
0.278538 0.511284 0.000000
0.310033 0.514824 0.000000
0.343084 0.518273 0.000000
0.377661 0.522362 0.000000
0.412909 0.525017 0.000000
0.443702 0.521386 0.000000
0.474037 0.517693 0.000000
0.503899 0.514275 0.000000
0.533227 0.511009 0.000000
0.561852 0.507897 0.000000
0.593927 0.508080 0.000000
0.654597 0.530083 0.000000
0.712459 0.545495 0.000000
0.763760 0.554650 0.000000
0.811032 0.560021 0.000000
0.854276 0.562371 0.000000
0.894011 0.562371 0.000000
0.930724 0.560082 0.000000
0.964172 0.555901 0.000000
0.994476 0.549920 0.000000
1.000000 0.545068 0.000000
1.000000 0.543847 0.000000
1.000000 0.541588 0.000000
1.000000 0.539940 0.000000
1.000000 0.540703 0.013611
0.171298 0.567407 0.000000
0.175937 0.565026 0.000000
0.181735 0.562829 0.000000
0.195254 0.561456 0.000000
0.214359 0.561334 0.000000
0.238773 0.562860 0.000000
0.266300 0.565454 0.000000
0.296666 0.568322 0.000000
0.329015 0.571435 0.000000
0.362737 0.574701 0.000000
0.397803 0.577874 0.000000
0.435676 0.582757 0.000000
0.470863 0.582300 0.000000
0.503899 0.579278 0.000000
0.536553 0.576532 0.000000
0.568963 0.573693 0.000000
0.600641 0.571099 0.000000
0.631434 0.568505 0.000000
0.663447 0.567254 0.000000
0.717952 0.583642 0.000000
0.770321 0.594354 0.000000
0.817105 0.600092 0.000000
0.859617 0.602197 0.000000
0.898344 0.601678 0.000000
0.933928 0.598810 0.000000
0.966308 0.594049 0.000000
0.995605 0.587671 0.000000
1.000000 0.579736 0.000000
1.000000 0.570489 0.000000
1.000000 0.567803 0.000000
1.000000 0.566400 0.000000
1.000000 0.567742 0.093812
0.185092 0.625177 0.000000
0.189822 0.623102 0.000000
0.195743 0.621027 0.000000
0.209201 0.619776 0.000000
0.228946 0.619562 0.000000
0.253788 0.620844 0.000000
0.282261 0.622889 0.000000
0.313085 0.625391 0.000000
0.346075 0.628107 0.000000
0.380652 0.630762 0.000000
0.416388 0.633509 0.000000
0.453651 0.636622 0.000000
0.493629 0.641444 0.000000
0.528679 0.638819 0.000000
0.563531 0.636286 0.000000
0.598138 0.633814 0.000000
0.632227 0.631617 0.000000
0.665522 0.629175 0.000000
0.697383 0.626581 0.000000
0.727230 0.622492 0.000000
0.775143 0.633539 0.000000
0.821622 0.639612 0.000000
0.863493 0.641749 0.000000
0.901518 0.640925 0.000000
0.936278 0.637720 0.000000
0.967834 0.632532 0.000000
0.996307 0.625788 0.000000
1.000000 0.617670 0.000000
1.000000 0.608453 0.000000
1.000000 0.598596 0.000000
1.000000 0.593469 0.000000
1.000000 0.595575 0.135561
0.196750 0.680903 0.000000
0.201328 0.678950 0.000000
0.207706 0.677119 0.000000
0.221439 0.676051 0.000000
0.241611 0.675746 0.000000
0.266728 0.676600 0.000000
0.295262 0.678309 0.000000
0.326665 0.680568 0.000000
0.360540 0.682643 0.000000
0.395666 0.685084 0.000000
0.431952 0.687343 0.000000
0.469581 0.689906 0.000000
0.509148 0.693599 0.000000
0.548486 0.695338 0.000000
0.584741 0.692897 0.000000
0.620600 0.690303 0.000000
0.655756 0.687282 0.000000
0.689937 0.684169 0.000000
0.722621 0.680568 0.000000
0.753628 0.676478 0.000000
0.779812 0.669123 0.000000
0.820615 0.674617 0.000000
0.860685 0.675837 0.000000
0.898222 0.675166 0.000000
0.932433 0.671870 0.000000
0.963561 0.666804 0.000000
0.991730 0.659998 0.000000
1.000000 0.652125 0.000000
1.000000 0.643183 0.000000
1.000000 0.634028 0.000000
1.000000 0.625360 0.068544
1.000000 0.619715 0.150729
0.203067 0.725704 0.000000
0.208255 0.725063 0.000000
0.214908 0.724483 0.000000
0.229038 0.724453 0.000000
0.249790 0.725002 0.000000
0.275242 0.726192 0.000000
0.304356 0.727687 0.000000
0.335973 0.729213 0.000000
0.369635 0.730739 0.000000
0.404852 0.732296 0.000000
0.441382 0.733913 0.000000
0.478798 0.735683 0.000000
0.517449 0.737942 0.000000
0.558526 0.741939 0.000000
0.596918 0.741176 0.000000
0.634028 0.738918 0.000000
0.670497 0.736416 0.000000
0.706233 0.733669 0.000000
0.740841 0.730556 0.000000
0.774136 0.727230 0.000000
0.805905 0.723751 0.000000
0.829709 0.714351 0.000000
0.864622 0.715999 0.049775
0.899748 0.713802 0.000000
0.933562 0.710689 0.000000
0.963897 0.705440 0.000000
0.991150 0.698512 0.000000
1.000000 0.690547 0.031586
1.000000 0.681971 0.099306
1.000000 0.673548 0.144778
1.000000 0.666255 0.190341
1.000000 0.661402 0.240574
0.209445 0.776455 0.000000
0.214511 0.775753 0.000000
0.221195 0.775204 0.000000
0.235721 0.774990 0.000000
0.256657 0.775387 0.000000
0.282567 0.776333 0.000000
0.312047 0.777615 0.000000
0.343908 0.778988 0.000000
0.378180 0.780331 0.000000
0.413733 0.781552 0.000000
0.450568 0.782742 0.000000
0.488289 0.783963 0.000000
0.526818 0.785458 0.000000
0.566613 0.787503 0.000000
0.607813 0.790158 0.000000
0.645594 0.787778 0.000000
0.683009 0.785000 0.000000
0.719509 0.782101 0.000000
0.755123 0.778927 0.000000
0.789578 0.775448 0.000000
0.822477 0.771664 0.000000
0.853513 0.767788 0.000000
0.873564 0.755642 0.000000
0.901915 0.753262 0.156893
0.934661 0.750240 0.149325
0.964172 0.744991 0.151339
0.990448 0.738064 0.162020
1.000000 0.730312 0.181186
1.000000 0.722133 0.207309
1.000000 0.714595 0.240146
1.000000 0.708705 0.279667
1.000000 0.705928 0.326909
0.210330 0.817411 0.000000
0.215213 0.816587 0.000000
0.222538 0.816129 0.000000
0.237156 0.816281 0.000000
0.258579 0.816892 0.000000
0.284581 0.817899 0.000000
0.314275 0.819272 0.000000
0.346654 0.820768 0.000000
0.381476 0.822263 0.000000
0.417578 0.823667 0.000000
0.454810 0.825162 0.000000
0.492805 0.826383 0.000000
0.531518 0.827787 0.000000
0.570977 0.829252 0.000000
0.612116 0.831785 0.000000
0.652766 0.832578 0.000000
0.691279 0.830594 0.000000
0.729030 0.828153 0.000000
0.765743 0.825101 0.000000
0.801083 0.821500 0.000000
0.834928 0.817594 0.000000
0.867216 0.813596 0.000000
0.897612 0.809873 0.000000
0.913939 0.795651 0.138918
0.936431 0.790646 0.246403
0.961517 0.781857 0.237980
0.987304 0.775601 0.247745
1.000000 0.768399 0.264836
1.000000 0.761105 0.289067
1.000000 0.754604 0.319982
1.000000 0.750210 0.358465
1.000000 0.749020 0.404456
0.209812 0.861082 0.000000
0.214939 0.860380 0.000000
0.222110 0.859953 0.000000
0.237156 0.860014 0.000000
0.258885 0.860410 0.000000
0.285496 0.861082 0.000000
0.315587 0.861906 0.000000
0.348302 0.862821 0.000000
0.382971 0.863645 0.000000
0.419165 0.864408 0.000000
0.456306 0.865080 0.000000
0.494331 0.865568 0.000000
0.532799 0.866087 0.000000
0.571801 0.866728 0.000000
0.611292 0.867582 0.000000
0.652461 0.869413 0.000000
0.691768 0.868040 0.000000
0.729885 0.865415 0.000000
0.767056 0.862333 0.000000
0.803067 0.858824 0.000000
0.837858 0.854978 0.000000
0.871153 0.851041 0.000000
0.902647 0.847288 0.000000
0.931884 0.843717 0.000000
0.944274 0.827939 0.231846
0.961395 0.821073 0.327214
0.982300 0.810361 0.321111
1.000000 0.803738 0.336217
1.000000 0.797086 0.358556
1.000000 0.791348 0.387793
1.000000 0.787686 0.424262
1.000000 0.787503 0.469123
0.204471 0.898589 0.000000
0.210544 0.898161 0.000000
0.217594 0.898009 0.000000
0.233310 0.898192 0.000000
0.255436 0.898558 0.000000
0.282506 0.899229 0.000000
0.313085 0.899870 0.000000
0.346166 0.900511 0.000000
0.381445 0.900969 0.000000
0.417487 0.901305 0.000000
0.454932 0.901457 0.000000
0.492683 0.901457 0.000000
0.531121 0.901396 0.000000
0.570001 0.901427 0.000000
0.609033 0.901549 0.000000
0.648798 0.902037 0.000000
0.689326 0.902617 0.000000
0.727779 0.899962 0.000000
0.765377 0.896880 0.000000
0.801968 0.893431 0.000000
0.837491 0.889647 0.000000
0.871519 0.885740 0.000000
0.903960 0.881865 0.000000
0.934142 0.878141 0.000000
0.961486 0.874754 0.192966
0.969665 0.857877 0.324254
0.981689 0.850095 0.413062
0.999268 0.838773 0.409857
1.000000 0.832242 0.428626
1.000000 0.827298 0.456580
1.000000 0.824521 0.491920
1.000000 0.825467 0.536522
0.195590 0.933288 0.000000
0.201450 0.933013 0.000000
0.209751 0.932860 0.000000
0.225559 0.932891 0.000000
0.248814 0.932921 0.000000
0.276341 0.932891 0.000000
0.307286 0.932616 0.000000
0.340337 0.932158 0.000000
0.375280 0.931456 0.000000
0.411170 0.930571 0.000000
0.448066 0.929534 0.000000
0.485420 0.928466 0.000000
0.523247 0.927459 0.000000
0.561395 0.926665 0.000000
0.599878 0.925994 0.000000
0.638514 0.925566 0.000000
0.678218 0.925628 0.000000
0.717342 0.924620 0.000000
0.755093 0.921538 0.000000
0.791897 0.918212 0.000000
0.827573 0.914611 0.000000
0.862333 0.910796 0.000000
0.895659 0.906981 0.000000
0.926940 0.903227 0.000000
0.955627 0.899687 0.174380
0.980407 0.896056 0.283452
0.985687 0.879393 0.398627
0.994079 0.871702 0.483680
1.000000 0.860716 0.482460
1.000000 0.855192 0.504295
1.000000 0.852903 0.538384
1.000000 0.854032 0.580835
0.179934 0.958740 0.000000
0.186404 0.958618 0.000000
0.194675 0.958618 0.000000
0.212009 0.958709 0.000000
0.236362 0.958831 0.000000
0.265202 0.958892 0.000000
0.296910 0.958862 0.000000
0.330785 0.958679 0.000000
0.366247 0.958282 0.000000
0.403021 0.957733 0.000000
0.440192 0.957092 0.000000
0.478035 0.956329 0.000000
0.516045 0.955505 0.000000
0.554437 0.954711 0.000000
0.592859 0.953887 0.000000
