其他预设/【233】日式怀旧街道调色预设208款/1.3D LUT预设（视频调色-PR-AE-PS-FCPX-达芬奇用）/1.日式城市街拍预设/JA – Faded Soft 3.cube
# Created by Adobe Lightroom plugin Export LUT (1.17.0)
# www.johnrellis.com/lightroom/exportlut.htm
# Preset: JA – Faded Soft 3
# Color profile: /Library/Application Support/Adobe/Color/Profiles/Recommended/AdobeRGB1998.icc
LUT_3D_SIZE 5
DOMAIN_MIN 0.000000 0.000000 0.000000
DOMAIN_MAX 0.903226 0.903226 0.903226
0.065095 0.069032 0.076661
0.245548 0.000000 0.089784
0.620600 0.070741 0.030304
0.880003 0.182742 0.000000
0.998840 0.243412 0.118685
0.024750 0.228214 0.095125
0.255222 0.241215 0.082216
0.629969 0.297429 0.000000
0.877958 0.313573 0.000000
0.999908 0.322087 0.114687
0.087617 0.578363 0.110567
0.341436 0.576318 0.000000
0.680079 0.621057 0.000000
0.878386 0.549615 0.000000
0.994598 0.496681 0.121126
0.224216 0.829129 0.248356
0.368292 0.823606 0.213413
0.635401 0.807034 0.101930
0.874144 0.798581 0.170138
0.989776 0.703059 0.186831
0.501488 0.932464 0.519738
0.522545 0.932372 0.490883
0.618769 0.927886 0.366857
0.811124 0.920714 0.352148
0.977417 0.909239 0.472908
0.068482 0.073732 0.263249
0.202762 0.085939 0.236484
0.594476 0.000000 0.229892
0.866911 0.188815 0.188449
0.994629 0.252384 0.132082
0.000000 0.217929 0.273716
0.232334 0.244358 0.267674
0.618250 0.272770 0.229648
0.868070 0.306218 0.183505
0.994232 0.324620 0.139498
0.000000 0.585962 0.370245
0.255802 0.593286 0.288823
0.660212 0.611292 0.251072
0.867369 0.537377 0.199893
0.991852 0.496590 0.183200
0.251774 0.829465 0.423133
0.361181 0.825742 0.389471
0.620600 0.806302 0.286900
0.866209 0.798459 0.332891
0.985901 0.704280 0.282536
0.580133 0.924407 0.623438
0.590936 0.924834 0.602869
0.649409 0.925689 0.511803
0.813993 0.919982 0.466529
0.970397 0.910460 0.557366
0.118288 0.000000 0.661555
0.283238 0.060548 0.634760
0.508110 0.147829 0.549096
0.814298 0.227024 0.533776
0.954772 0.485451 0.580713
0.000000 0.177432 0.690700
0.281682 0.265263 0.663600
0.537255 0.275120 0.574609
0.820401 0.361456 0.548211
0.958556 0.499062 0.569604
0.000000 0.581598 0.685847
0.220127 0.590875 0.678279
0.612390 0.615595 0.633722
0.830289 0.600732 0.595972
0.965606 0.573297 0.545373
0.401984 0.825650 0.696040
0.504997 0.818662 0.694972
0.660914 0.804318 0.671595
0.833097 0.800809 0.654322
0.958099 0.743984 0.593347
0.645838 0.916197 0.747585
0.673640 0.915068 0.748684
0.726680 0.914275 0.728115
0.820951 0.913329 0.667903
0.952392 0.910887 0.701137
0.244694 0.159121 0.844968
0.340734 0.195590 0.839445
0.532738 0.259556 0.816678
0.761074 0.320867 0.777462
0.901122 0.599298 0.760433
0.219272 0.252079 0.849485
0.377508 0.340673 0.841855
0.558099 0.387457 0.818479
0.763333 0.428412 0.777676
0.901244 0.628504 0.764950
0.073945 0.462745 0.852964
0.356573 0.511254 0.849088
0.684993 0.674678 0.823331
0.771481 0.646723 0.779263
0.909422 0.705379 0.778958
0.482826 0.764858 0.838956
0.573358 0.776608 0.835966
0.712551 0.798245 0.829221
0.804288 0.800076 0.804562
0.930022 0.793057 0.784939
0.710353 0.910185 0.860838
0.728908 0.909941 0.859709
0.775692 0.910826 0.853910
0.826139 0.912444 0.822293
0.936675 0.912718 0.810147
0.381323 0.326574 0.933562
0.445289 0.368109 0.930602
0.593652 0.464576 0.921172
0.743374 0.568353 0.903288
0.880644 0.630243 0.884855
0.368414 0.353674 0.933959
0.502739 0.469245 0.927916
0.636011 0.550988 0.918151
0.755856 0.613214 0.901122
0.880003 0.652735 0.883574
0.242039 0.389227 0.939849
0.408881 0.473579 0.934874
0.719142 0.702785 0.915526
0.786862 0.711177 0.901213
0.883482 0.718532 0.885130
0.481697 0.681209 0.928985
0.553796 0.704311 0.926543
0.688624 0.751431 0.922454
0.829435 0.819455 0.913054
0.896544 0.808194 0.895415
0.674250 0.865141 0.921019
0.698482 0.869474 0.920684
0.764370 0.882475 0.920165
0.843778 0.899779 0.919463
0.915068 0.911040 0.910887
