其他预设/【233】日式怀旧街道调色预设208款/1.3D LUT预设（视频调色-PR-AE-PS-FCPX-达芬奇用）/1.日式城市街拍预设/JA – Gritty Contrast 3.cube
# Created by Adobe Lightroom plugin Export LUT (1.17.0)
# www.johnrellis.com/lightroom/exportlut.htm
# Preset: JA – Gritty Contrast 3
# Color profile: /Library/Application Support/Adobe/Color/Profiles/Recommended/AdobeRGB1998.icc
LUT_3D_SIZE 8
DOMAIN_MIN 0.000000 0.000000 0.000000
DOMAIN_MAX 0.903226 0.903226 0.903226
0.106477 0.112825 0.121218
0.115114 0.112978 0.122347
0.139895 0.114412 0.127352
0.270207 0.098299 0.126741
0.468910 0.059205 0.114321
0.599756 0.020600 0.100313
0.720882 0.000000 0.101106
0.940185 0.164431 0.211124
0.106386 0.120912 0.121553
0.119203 0.121096 0.120455
0.164950 0.120821 0.123812
0.345617 0.124758 0.118074
0.517510 0.119844 0.102296
0.626276 0.113008 0.089815
0.749416 0.106966 0.091585
0.959716 0.200992 0.211185
0.107515 0.156191 0.122774
0.123720 0.164492 0.119661
0.224949 0.202640 0.107179
0.523125 0.305333 0.000000
0.617792 0.269688 0.000000
0.696712 0.243351 0.000000
0.822019 0.233005 0.000000
0.995178 0.280247 0.177768
0.086671 0.361822 0.090181
0.160342 0.376104 0.078462
0.324773 0.412482 0.000000
0.515801 0.428901 0.000000
0.696651 0.443763 0.000000
0.842893 0.435523 0.000000
0.945708 0.405982 0.000000
1.000000 0.400061 0.019043
0.050599 0.538293 0.000000
0.163607 0.542565 0.000000
0.329778 0.554314 0.000000
0.510369 0.566003 0.000000
0.683345 0.557458 0.000000
0.902464 0.603784 0.000000
1.000000 0.603296 0.000000
1.000000 0.536400 0.000000
0.171695 0.646876 0.151400
0.214939 0.648341 0.137179
0.336370 0.662928 0.081941
0.504326 0.689937 0.000000
0.700893 0.719692 0.000000
0.890867 0.727291 0.000000
1.000000 0.726253 0.000000
1.000000 0.670619 0.000000
0.329534 0.813931 0.287938
0.352728 0.817807 0.281712
0.433753 0.834806 0.260838
0.564111 0.860044 0.205997
0.726741 0.885924 0.000000
0.901915 0.897734 0.000000
1.000000 0.856291 0.000000
1.000000 0.780667 0.000000
0.469886 0.973938 0.387762
0.486366 0.975036 0.385260
0.540581 0.977844 0.375158
0.627283 0.980438 0.351537
0.740108 0.982422 0.310216
0.855711 0.977722 0.176425
0.984894 0.964508 0.000000
1.000000 0.894285 0.000000
0.107149 0.114870 0.129580
0.112825 0.113558 0.128847
0.141665 0.116976 0.131044
0.295476 0.102663 0.128206
0.492683 0.085115 0.112062
0.617395 0.087251 0.095216
0.740902 0.079957 0.096956
0.955200 0.187228 0.218051
0.106508 0.120546 0.130434
0.115999 0.122866 0.131624
0.159243 0.124544 0.131533
0.352667 0.129610 0.121859
0.528008 0.131868 0.102876
0.637171 0.132601 0.086671
0.767605 0.130983 0.085664
0.973297 0.220340 0.218265
0.108553 0.154726 0.137453
0.118593 0.165713 0.133944
0.218723 0.200107 0.122164
0.512566 0.292699 0.053956
0.616052 0.264164 0.026093
0.701259 0.244266 0.000000
0.842313 0.246616 0.000000
1.000000 0.295323 0.186252
0.000000 0.367193 0.132418
0.098451 0.381628 0.100435
0.308690 0.416144 0.044526
0.520592 0.433234 0.000000
0.706020 0.444221 0.000000
0.844968 0.428168 0.000000
0.954711 0.407874 0.000000
1.000000 0.408148 0.059358
0.000000 0.538354 0.103853
0.111086 0.543053 0.092226
0.309758 0.555779 0.000000
0.504417 0.569604 0.000000
0.687556 0.561547 0.000000
0.908232 0.605249 0.000000
1.000000 0.598077 0.000000
1.000000 0.536736 0.000000
0.192996 0.645991 0.223636
0.231571 0.650019 0.217502
0.341772 0.665461 0.189548
0.503838 0.693721 0.097047
0.699763 0.723903 0.000000
0.891447 0.729305 0.000000
1.000000 0.727230 0.000000
1.000000 0.669703 0.000000
0.346868 0.816464 0.326757
0.370123 0.822171 0.323400
0.445655 0.838499 0.307012
0.569970 0.862455 0.267491
0.728237 0.887663 0.166384
0.901244 0.900359 0.000000
1.000000 0.859556 0.000000
1.000000 0.783749 0.000000
0.472023 0.975006 0.405554
0.487922 0.975769 0.403174
0.542046 0.978393 0.394293
0.628809 0.980713 0.374517
0.738949 0.981109 0.336828
0.855161 0.977111 0.241215
0.982910 0.964691 0.124117
1.000000 0.896239 0.000000
0.108858 0.122042 0.160403
0.111421 0.121523 0.159274
0.139590 0.120638 0.159060
0.275456 0.078950 0.196139
0.408026 0.000000 0.163119
0.551720 0.000000 0.147127
0.688441 0.000000 0.165957
0.931304 0.191775 0.259220
0.106905 0.128145 0.160464
0.113252 0.129030 0.165072
0.147433 0.127474 0.167117
0.292271 0.082460 0.192599
0.417731 0.000000 0.152499
0.576715 0.000000 0.150576
0.708461 0.074983 0.172030
0.947448 0.221775 0.262791
0.105501 0.154482 0.167544
0.111604 0.160037 0.173342
0.176547 0.184543 0.195560
0.388556 0.183230 0.181949
0.543786 0.183078 0.168215
0.643397 0.189334 0.166873
0.779324 0.215549 0.186404
0.988495 0.302281 0.262486
0.000000 0.323919 0.246311
0.000000 0.342535 0.246555
0.208896 0.398108 0.219211
0.492561 0.420050 0.173281
0.675105 0.426703 0.223911
0.774594 0.388220 0.202396
0.906493 0.385595 0.200107
1.000000 0.417304 0.250492
0.000000 0.519249 0.282597
0.007935 0.525658 0.279698
0.279149 0.543084 0.275547
0.472053 0.561212 0.242618
0.665736 0.555596 0.204562
0.890562 0.608148 0.245365
1.000000 0.593225 0.203311
1.000000 0.546319 0.209964
0.225101 0.629480 0.333959
0.271092 0.633051 0.340276
0.368719 0.649226 0.343725
0.500999 0.681483 0.323003
0.685115 0.721004 0.269841
0.879637 0.733059 0.231876
1.000000 0.741482 0.259831
1.000000 0.689143 0.241062
0.368780 0.799069 0.403723
0.392004 0.805203 0.404517
0.454170 0.825132 0.394568
0.569970 0.853696 0.377386
0.724636 0.883879 0.341039
0.891844 0.900084 0.284459
1.000000 0.865293 0.259159
1.000000 0.797421 0.277867
0.467292 0.971466 0.453986
0.475257 0.973632 0.446723
0.532097 0.976959 0.441230
0.621149 0.979309 0.427863
0.734371 0.980194 0.406195
0.852781 0.976165 0.360632
0.976226 0.964752 0.312840
1.000000 0.902129 0.286687
0.000000 0.128939 0.327642
0.000000 0.129641 0.325536
0.175418 0.113954 0.335180
0.308507 0.056794 0.328771
0.467445 0.000000 0.339147
0.545037 0.000000 0.288884
0.619959 0.000000 0.248905
0.834958 0.186435 0.334783
0.000000 0.162142 0.321294
0.000000 0.150301 0.329412
0.169863 0.131960 0.343877
0.320043 0.089509 0.338262
0.471962 0.000000 0.338415
0.546075 0.000000 0.285527
0.619593 0.000000 0.242710
0.855680 0.213016 0.341375
0.000000 0.230014 0.333806
0.000000 0.228367 0.341344
0.163455 0.228183 0.365576
0.360082 0.230198 0.367559
0.481575 0.204318 0.336950
0.543114 0.133455 0.270146
0.651148 0.174990 0.273838
0.910613 0.289952 0.355871
0.000000 0.329442 0.345159
0.000000 0.337163 0.351568
0.190219 0.363409 0.371344
0.415473 0.406622 0.400153
0.546960 0.387366 0.379492
0.642115 0.372992 0.362799
0.787533 0.374578 0.356878
0.993225 0.420325 0.381903
0.000000 0.476539 0.381567
0.001801 0.484657 0.385962
0.272740 0.506859 0.400855
0.452277 0.536400 0.420935
0.622217 0.553155 0.413733
0.859831 0.625025 0.447730
0.965148 0.590875 0.417548
1.000000 0.569360 0.403754
0.226505 0.600244 0.414710
0.265446 0.602045 0.417609
0.376501 0.615229 0.433387
0.494911 0.648127 0.445655
0.651850 0.700038 0.433692
0.851164 0.731289 0.418708
1.000000 0.759487 0.440681
1.000000 0.713588 0.429969
0.370275 0.767483 0.475776
0.390143 0.772610 0.477211
0.448341 0.793271 0.477821
0.536736 0.831235 0.462104
0.695338 0.871214 0.448707
0.871519 0.897246 0.423590
1.000000 0.872953 0.416388
1.000000 0.814176 0.435401
0.458808 0.960174 0.527550
0.470283 0.962066 0.524407
0.511803 0.968933 0.512535
0.592187 0.976623 0.493965
0.713527 0.979309 0.481422
0.840238 0.976104 0.456428
0.964782 0.965545 0.427710
1.000000 0.909575 0.417884
0.000000 0.160006 0.467323
0.000000 0.158968 0.466926
0.153597 0.163729 0.472969
0.334752 0.161776 0.477882
0.480323 0.126772 0.466133
0.585351 0.203342 0.449897
0.657923 0.217960 0.422736
0.839475 0.262791 0.453407
0.000000 0.201450 0.464759
0.000000 0.191806 0.466865
0.163394 0.199191 0.474372
0.342626 0.205600 0.479835
0.486030 0.183871 0.469184
0.586664 0.238590 0.452155
0.656977 0.234501 0.421790
0.839475 0.269535 0.449958
0.000000 0.274998 0.466377
0.000000 0.274601 0.468879
0.199283 0.290013 0.478279
0.378180 0.322210 0.485176
0.504784 0.313939 0.478004
0.590478 0.324559 0.458106
0.654414 0.281682 0.417884
0.841794 0.289921 0.436713
0.000000 0.370336 0.468818
0.000000 0.373785 0.471290
0.245274 0.391913 0.478187
0.425513 0.433143 0.489815
0.531365 0.441779 0.490028
0.588952 0.403693 0.457069
0.643732 0.327459 0.399176
0.866728 0.340612 0.420264
0.000000 0.474586 0.470192
0.101259 0.477729 0.471931
0.284398 0.489357 0.478218
0.443183 0.509056 0.489601
0.565209 0.537346 0.508659
0.656916 0.516533 0.488075
0.812314 0.502983 0.470008
1.000000 0.519585 0.470558
0.235904 0.573877 0.481117
0.272862 0.574670 0.482734
0.370550 0.578058 0.489570
0.482643 0.602869 0.509636
0.592554 0.665949 0.522301
0.816648 0.722591 0.519829
1.000000 0.774258 0.571832
1.000000 0.704585 0.521019
0.376745 0.721950 0.537652
0.393500 0.727565 0.540673
0.443091 0.747890 0.548821
0.511498 0.787900 0.552819
0.625116 0.849241 0.535302
0.833341 0.894041 0.529778
0.997681 0.881895 0.530236
1.000000 0.834043 0.567468
0.452918 0.945953 0.617151
0.463508 0.948486 0.615686
0.500847 0.956634 0.609186
0.570153 0.966461 0.593713
0.688380 0.975494 0.583062
0.823728 0.975219 0.573541
0.947753 0.967102 0.544671
1.000000 0.919249 0.535088
0.000000 0.245212 0.550103
0.000000 0.247623 0.550072
0.241367 0.289250 0.553826
0.366857 0.305425 0.557061
0.493141 0.326604 0.562676
0.591699 0.309697 0.546990
0.707485 0.350896 0.555535
0.896818 0.370764 0.603815
0.000000 0.272404 0.551080
0.048920 0.278111 0.552300
0.271061 0.321111 0.556115
0.383032 0.334295 0.559350
0.502037 0.352728 0.564874
0.595880 0.335424 0.549096
0.710567 0.366064 0.557977
0.898894 0.376593 0.602930
0.101320 0.333898 0.549126
0.162203 0.340063 0.550500
0.290990 0.366247 0.555077
0.420935 0.402747 0.560754
0.523278 0.417182 0.567590
0.606439 0.402350 0.553826
0.717464 0.408270 0.563073
0.901061 0.392401 0.594690
0.170321 0.408972 0.549584
0.216648 0.414649 0.550805
0.327611 0.434089 0.554162
0.448981 0.466560 0.561639
0.547478 0.487282 0.571923
0.623285 0.476692 0.562615
0.728145 0.459419 0.567803
0.901305 0.410925 0.572015
0.231907 0.492134 0.551629
0.265782 0.495521 0.552514
0.357458 0.507652 0.555901
0.464210 0.527581 0.563653
0.562249 0.549981 0.582940
0.656947 0.550622 0.585748
0.726650 0.495460 0.548974
0.905699 0.426886 0.524071
0.289464 0.575128 0.553613
0.314519 0.576440 0.554162
0.388251 0.582971 0.557794
0.477638 0.595758 0.566217
0.565545 0.619257 0.584253
0.711543 0.669764 0.625269
0.849973 0.620233 0.572961
1.000000 0.620630 0.561913
0.372717 0.692470 0.590478
0.387671 0.693874 0.591638
0.433692 0.701717 0.597253
0.494148 0.717342 0.605585
0.574640 0.770535 0.627985
0.758572 0.858366 0.661189
0.970001 0.892638 0.698116
1.000000 0.887114 0.769589
0.445014 0.918853 0.704585
0.453529 0.921904 0.704952
0.484565 0.931853 0.704799
0.544640 0.946441 0.700649
0.659266 0.961028 0.698726
0.818051 0.967193 0.722011
0.933532 0.965179 0.724422
1.000000 0.937713 0.725277
0.291661 0.406928 0.695583
0.290654 0.405402 0.693782
0.379736 0.430274 0.698848
0.467903 0.441199 0.703883
0.565087 0.445289 0.712306
0.676844 0.447272 0.725093
0.759731 0.418524 0.691951
0.936553 0.430793 0.755428
0.294530 0.421546 0.698848
0.305882 0.422675 0.698268
0.381567 0.439887 0.703700
0.477089 0.456611 0.710109
0.572259 0.459419 0.719020
0.683864 0.460121 0.732692
0.768704 0.431098 0.700496
0.944213 0.441596 0.762417
0.308049 0.455055 0.695216
0.328435 0.458625 0.696864
0.392401 0.470863 0.703487
0.489204 0.491493 0.714260
0.580285 0.492439 0.724666
0.689937 0.490700 0.738582
0.775662 0.460365 0.706081
0.945312 0.461982 0.759701
0.328252 0.507774 0.695827
0.347387 0.510643 0.697841
0.403723 0.517754 0.703395
0.480446 0.527001 0.715663
0.582666 0.537316 0.731746
0.694636 0.535637 0.745876
0.788205 0.504021 0.716854
0.951415 0.500359 0.758145
0.353521 0.580835 0.706172
0.369665 0.583001 0.708248
0.417090 0.587610 0.713832
0.480293 0.588769 0.722469
0.567010 0.589929 0.742489
0.704433 0.605127 0.764034
0.817044 0.576287 0.744259
0.964019 0.570184 0.760281
0.375555 0.662531 0.715908
0.388159 0.663478 0.716823
0.427222 0.666438 0.720729
0.482979 0.669154 0.727779
0.559869 0.671748 0.741848
0.703914 0.693141 0.770016
0.847318 0.697932 0.771817
0.969543 0.624353 0.725338
0.390936 0.749813 0.723171
0.400793 0.750210 0.723293
0.433387 0.753933 0.726406
0.483162 0.760861 0.732296
0.560967 0.775296 0.745266
0.703731 0.802518 0.768978
0.897734 0.863798 0.826963
0.996063 0.820127 0.768612
0.417700 0.921324 0.810239
0.426703 0.922728 0.810819
0.455879 0.923980 0.808560
0.514092 0.930602 0.808957
0.616693 0.938445 0.810025
0.767453 0.949981 0.820645
0.927184 0.957305 0.869505
0.983795 0.954803 0.891508
0.460517 0.561578 0.920897
0.459693 0.562066 0.920256
0.485298 0.561791 0.921874
0.566430 0.573907 0.922423
0.645563 0.571099 0.923369
0.738613 0.568292 0.924926
0.840177 0.566278 0.926482
0.942565 0.525444 0.915404
0.462318 0.570642 0.922393
0.461494 0.570916 0.921813
0.487587 0.569482 0.923247
0.570245 0.583185 0.924315
0.648890 0.580652 0.925139
0.741482 0.578637 0.926574
0.842802 0.578546 0.928252
0.944488 0.537896 0.917998
0.463722 0.594873 0.923705
0.463416 0.594507 0.923491
0.493477 0.594171 0.925475
0.573419 0.606867 0.925902
0.655695 0.608789 0.927001
0.748348 0.609918 0.928740
0.847959 0.612543 0.930114
0.947051 0.570794 0.920775
0.465339 0.630213 0.925200
0.464698 0.630213 0.924804
0.490730 0.629023 0.926116
0.556878 0.632288 0.928008
0.669520 0.657710 0.929015
0.759274 0.660700 0.930175
0.855497 0.666407 0.931365
0.950225 0.625116 0.923430
0.467048 0.690883 0.928252
0.466560 0.689113 0.927947
0.491737 0.685084 0.929076
0.539666 0.677028 0.930510
0.657435 0.698482 0.932433
0.780087 0.732326 0.932921
0.869688 0.742214 0.933593
0.954986 0.708034 0.927276
0.476967 0.762814 0.931365
0.484932 0.762631 0.931884
0.512810 0.761379 0.933135
0.564294 0.758907 0.934356
0.647181 0.759274 0.935149
0.784634 0.792142 0.934325
0.888121 0.824399 0.933532
0.959106 0.805905 0.929137
0.501305 0.842741 0.933501
0.509667 0.842924 0.933837
0.538811 0.843412 0.934691
0.591638 0.844114 0.935271
0.675044 0.848020 0.935760
0.787137 0.860838 0.935698
0.911223 0.899382 0.935637
0.965179 0.907897 0.934386
0.543359 0.927123 0.935607
0.552270 0.927611 0.935882
0.580255 0.928679 0.936065
0.629053 0.930175 0.935637
0.706081 0.933288 0.935241
0.808988 0.938903 0.935027
0.914275 0.947417 0.935912
0.971405 0.958129 0.943359
