其他预设/【233】日式怀旧街道调色预设208款/1.3D LUT预设（视频调色-PR-AE-PS-FCPX-达芬奇用）/1.日式城市街拍预设/JA – Faded Soft 1.cube
# Created by Adobe Lightroom plugin Export LUT (1.17.0)
# www.johnrellis.com/lightroom/exportlut.htm
# Preset: JA – Faded Soft 1
# Color profile: /Library/Application Support/Adobe/Color/Profiles/Recommended/AdobeRGB1998.icc
LUT_3D_SIZE 8
DOMAIN_MIN 0.000000 0.000000 0.000000
DOMAIN_MAX 0.903226 0.903226 0.903226
0.087770 0.083711 0.080781
0.150271 0.066896 0.080385
0.364843 0.000000 0.061738
0.577661 0.000000 0.000000
0.714992 0.000000 0.000000
0.812589 0.000000 0.000000
0.897581 0.000000 0.000000
0.993683 0.000000 0.000000
0.089845 0.135500 0.080903
0.149569 0.135836 0.077607
0.374151 0.145724 0.007599
0.581048 0.136782 0.000000
0.716304 0.125978 0.000000
0.812222 0.109468 0.000000
0.896178 0.060792 0.000000
0.992584 0.000000 0.000000
0.139193 0.289281 0.057099
0.196262 0.277440 0.061036
0.343359 0.311131 0.000000
0.595941 0.364019 0.000000
0.729427 0.333501 0.000000
0.820035 0.297032 0.000000
0.905272 0.261753 0.000000
0.999207 0.218601 0.000000
0.204746 0.469978 0.000000
0.253178 0.457832 0.000000
0.359899 0.442542 0.000000
0.540337 0.499947 0.000000
0.726345 0.508965 0.000000
0.834012 0.464454 0.000000
0.915343 0.417243 0.000000
1.000000 0.374640 0.000000
0.259861 0.593317 0.000000
0.292638 0.585138 0.000000
0.373846 0.555871 0.000000
0.496864 0.573175 0.000000
0.662135 0.617334 0.000000
0.804135 0.602167 0.000000
0.913909 0.563134 0.000000
1.000000 0.518730 0.000000
0.311589 0.682704 0.121950
0.333867 0.678462 0.115724
0.394415 0.657923 0.085176
0.472145 0.627558 0.000000
0.606500 0.671412 0.000000
0.756588 0.706844 0.000000
0.882658 0.687190 0.000000
1.000000 0.654810 0.000000
0.372442 0.767697 0.215549
0.386572 0.764706 0.209964
0.430274 0.752132 0.187381
0.494209 0.728908 0.145083
0.585595 0.730282 0.116304
0.710018 0.762875 0.105135
0.846616 0.789883 0.000000
0.975860 0.777829 0.000000
0.464118 0.866697 0.351385
0.473518 0.864775 0.348272
0.505608 0.858396 0.337682
0.559197 0.847837 0.321355
0.622400 0.828092 0.290471
0.725551 0.854917 0.296605
0.844694 0.884916 0.318090
0.965484 0.901854 0.329503
0.059754 0.094270 0.156130
0.150179 0.065156 0.146059
0.358190 0.000000 0.138033
0.573602 0.000000 0.088228
0.711696 0.000000 0.000000
0.809323 0.000000 0.000000
0.894224 0.000000 0.000000
0.990509 0.000000 0.000000
0.046906 0.154879 0.149966
0.154574 0.148257 0.144015
0.371313 0.139773 0.122377
0.578698 0.136172 0.072969
0.714229 0.134279 0.000000
0.809964 0.129427 0.000000
0.893675 0.110262 0.000000
0.989349 0.000000 0.000000
0.077638 0.318608 0.137362
0.191836 0.314061 0.140383
0.356390 0.326940 0.117830
0.596399 0.355444 0.000000
0.725643 0.325994 0.000000
0.816251 0.295384 0.000000
0.900328 0.267582 0.000000
0.995209 0.221408 0.000000
0.174380 0.492927 0.128817
0.242557 0.482338 0.131319
0.360235 0.452979 0.112764
0.541283 0.503532 0.032288
0.721096 0.501305 0.000000
0.826596 0.456245 0.000000
0.909300 0.415198 0.000000
1.000000 0.374212 0.000000
0.257023 0.606775 0.158419
0.290929 0.598535 0.151186
0.375128 0.569390 0.126558
0.494789 0.574609 0.096193
0.659571 0.617426 0.000000
0.802457 0.599390 0.000000
0.911681 0.560296 0.000000
1.000000 0.517632 0.000000
0.316197 0.689021 0.201205
0.336278 0.683589 0.194369
0.395361 0.663508 0.169009
0.469093 0.626429 0.122347
0.604395 0.670985 0.119417
0.754665 0.707576 0.090120
0.882017 0.686915 0.000000
1.000000 0.653681 0.000000
0.377081 0.768948 0.264897
0.389654 0.765316 0.258244
0.431403 0.753262 0.235782
0.493874 0.730892 0.195956
0.582940 0.728267 0.171511
0.707332 0.761379 0.180789
0.842741 0.788602 0.144198
0.973999 0.775784 0.000000
0.466529 0.866545 0.378058
0.475929 0.864927 0.375311
0.507042 0.858701 0.364111
0.559045 0.848264 0.346075
0.625025 0.832303 0.320531
0.725460 0.855344 0.325750
0.844114 0.884581 0.317388
0.964630 0.900908 0.326909
0.000000 0.145876 0.454414
0.046479 0.079774 0.436378
0.365209 0.000000 0.385687
0.564172 0.000000 0.352483
0.694057 0.000000 0.309514
0.795163 0.123629 0.285588
0.886625 0.020691 0.224491
0.990784 0.000000 0.066377
0.000000 0.259678 0.448951
0.000000 0.201724 0.430365
0.365332 0.150576 0.382574
0.563012 0.123659 0.347967
0.690761 0.181979 0.318029
0.796658 0.184451 0.282933
0.886656 0.142184 0.222690
0.990661 0.000000 0.053956
0.000000 0.406500 0.411383
0.110201 0.398474 0.402869
0.370123 0.371283 0.373785
0.571038 0.358312 0.348638
0.706264 0.345006 0.322393
0.802762 0.324163 0.287358
0.891814 0.284947 0.224582
0.994079 0.206790 0.000000
0.075990 0.544488 0.362982
0.203952 0.540215 0.359319
0.384924 0.517723 0.360143
0.547448 0.529259 0.354223
0.718105 0.518517 0.324407
0.812741 0.476448 0.295018
0.901335 0.430579 0.228763
1.000000 0.368505 0.000000
0.226596 0.643427 0.333074
0.280522 0.639002 0.338720
0.402350 0.615381 0.355474
0.498695 0.587640 0.317998
0.659113 0.632044 0.347570
0.797696 0.615290 0.294499
0.910094 0.575891 0.230686
1.000000 0.515465 0.000000
0.325872 0.715328 0.354925
0.371435 0.710018 0.379522
0.423041 0.691249 0.360571
0.485512 0.655482 0.309331
0.602625 0.674586 0.314977
0.747616 0.713130 0.349371
0.878355 0.698726 0.256077
1.000000 0.653925 0.000000
0.411963 0.781918 0.410132
0.422522 0.778592 0.405341
0.454444 0.766995 0.382971
0.505211 0.745357 0.339452
0.578088 0.726070 0.295689
0.703456 0.761624 0.334295
0.836973 0.793179 0.356603
0.974243 0.783932 0.161776
0.486152 0.874266 0.471046
0.492042 0.872160 0.464912
0.518486 0.865507 0.451545
0.565637 0.855497 0.431098
0.626093 0.838926 0.397894
0.721675 0.853819 0.401770
0.841001 0.885130 0.408576
0.964233 0.902617 0.371527
0.000000 0.211612 0.677363
0.000000 0.143648 0.670832
0.311559 0.127962 0.639704
0.543420 0.100160 0.600000
0.683253 0.159274 0.536065
0.774594 0.263249 0.500206
0.851987 0.342107 0.496742
0.957092 0.338994 0.475196
0.000000 0.315587 0.674372
0.000000 0.281346 0.667048
0.319158 0.239750 0.638483
0.543877 0.220920 0.598199
0.680934 0.250797 0.539391
0.771176 0.317693 0.508324
0.848936 0.376715 0.505699
0.959594 0.344610 0.467933
0.000000 0.474464 0.667140
0.072511 0.473610 0.662257
0.373754 0.447425 0.633692
0.544884 0.410834 0.590417
0.673182 0.420111 0.552361
0.762875 0.445869 0.537346
0.854185 0.448005 0.520562
0.968688 0.390143 0.460029
0.000000 0.609918 0.629511
0.195895 0.606104 0.625544
0.402686 0.592248 0.610376
0.546288 0.564141 0.579919
0.675105 0.558099 0.567712
0.770932 0.548638 0.552544
0.865629 0.529107 0.525200
0.975128 0.481941 0.463630
0.267430 0.689845 0.569360
0.320134 0.685084 0.568505
0.435767 0.670375 0.565423
0.540520 0.641657 0.556054
0.653681 0.653986 0.561212
0.780697 0.657160 0.561273
0.882567 0.636042 0.537652
0.984039 0.589593 0.467445
0.357641 0.748074 0.532219
0.387518 0.745632 0.536248
0.459663 0.733547 0.541161
0.536278 0.706111 0.534020
0.603449 0.681727 0.494179
0.737728 0.724788 0.544366
0.868833 0.729732 0.524773
0.988952 0.701076 0.462928
0.423072 0.805447 0.530297
0.439643 0.802945 0.532677
0.488991 0.793301 0.539300
0.540948 0.771725 0.521965
0.585107 0.738796 0.455909
0.697322 0.762509 0.484352
0.827359 0.800107 0.529168
0.965942 0.803769 0.466499
0.492805 0.893187 0.566003
0.505516 0.891295 0.568994
0.550652 0.882811 0.582116
0.579644 0.871153 0.548516
0.630976 0.853239 0.510094
0.711666 0.850278 0.489876
0.833829 0.885283 0.517998
0.955596 0.906279 0.521202
0.000000 0.289281 0.798550
0.000000 0.258793 0.795804
0.229374 0.268162 0.781460
0.485603 0.291447 0.753841
0.657130 0.296941 0.727443
0.761898 0.338659 0.672389
0.844419 0.393042 0.642084
0.942870 0.430213 0.636957
0.000000 0.392126 0.794827
0.000000 0.372351 0.792294
0.282414 0.349157 0.779751
0.496712 0.355138 0.752743
0.657099 0.350866 0.725612
0.759701 0.379889 0.674159
0.842557 0.422156 0.646479
0.941619 0.450904 0.640742
0.168490 0.526207 0.794156
0.276310 0.531304 0.789059
0.411170 0.521630 0.773892
0.528557 0.493538 0.749569
0.656977 0.472480 0.719387
0.752255 0.479591 0.677821
0.836301 0.499062 0.658167
0.937285 0.509270 0.650416
0.248844 0.633936 0.779995
0.321172 0.637079 0.777829
0.463569 0.644495 0.770687
0.570581 0.625818 0.747463
0.657557 0.589258 0.711757
0.744503 0.586419 0.685481
0.829862 0.588251 0.672267
0.938506 0.574090 0.654200
0.321263 0.729122 0.752010
0.367041 0.727352 0.750149
0.473182 0.720638 0.742947
0.576898 0.706996 0.728878
0.655299 0.680018 0.701106
0.748135 0.675929 0.693629
0.845914 0.666712 0.680079
0.955901 0.642939 0.649928
0.412329 0.780697 0.705318
0.438605 0.778317 0.705837
0.505547 0.769253 0.703029
0.579004 0.753933 0.693538
0.635554 0.724483 0.667048
0.730007 0.738064 0.678492
0.861875 0.759182 0.687373
0.969543 0.740352 0.659083
0.467231 0.834318 0.678065
0.482368 0.831998 0.678309
0.526116 0.824277 0.677760
0.579248 0.810025 0.669917
0.623041 0.779599 0.637781
0.682918 0.758907 0.596490
0.817960 0.807767 0.655238
0.959777 0.822416 0.633082
0.516869 0.912413 0.681941
0.526390 0.910948 0.681636
0.555352 0.905882 0.678828
0.595270 0.897887 0.667994
0.641871 0.877653 0.637476
0.695949 0.850980 0.580346
0.819852 0.883055 0.611109
0.945281 0.909392 0.638911
0.000000 0.405341 0.884855
0.000000 0.396277 0.882780
0.266575 0.398199 0.873350
0.469490 0.425116 0.855985
0.614740 0.437568 0.828733
0.738186 0.437446 0.809354
0.838529 0.456794 0.780423
0.938048 0.479194 0.763973
0.191257 0.480873 0.880919
0.220279 0.470893 0.878935
0.327123 0.453864 0.871122
0.488411 0.466621 0.854002
0.620264 0.469429 0.827085
0.737819 0.464363 0.807584
0.836881 0.478157 0.780362
0.936858 0.495735 0.765042
0.346380 0.589990 0.880705
0.388403 0.594598 0.877592
0.463691 0.589746 0.868101
0.539971 0.569085 0.852628
0.639582 0.555749 0.825986
0.738918 0.539544 0.804410
0.833677 0.541161 0.782040
0.934661 0.546288 0.769314
0.397864 0.681025 0.880522
0.436683 0.686305 0.879026
0.529534 0.695583 0.871885
0.606165 0.682643 0.853727
0.665919 0.652705 0.827726
0.741665 0.626917 0.801205
0.830930 0.618341 0.784207
0.933288 0.612360 0.773465
0.430793 0.752468 0.862577
0.460731 0.754238 0.861631
0.539971 0.758663 0.858457
0.628290 0.761776 0.853269
0.687434 0.736263 0.831266
0.740810 0.699245 0.794400
0.826749 0.687037 0.780728
0.931701 0.675166 0.768521
0.464088 0.817319 0.837705
0.486580 0.816739 0.837034
0.548547 0.813138 0.833463
0.622126 0.806058 0.826627
0.684321 0.792844 0.813779
0.737545 0.763180 0.784878
0.839933 0.760922 0.779629
0.948455 0.749569 0.764889
0.513176 0.870237 0.811612
0.528649 0.869169 0.811856
0.573480 0.864744 0.811490
0.629053 0.857237 0.807828
0.675502 0.841428 0.789334
0.711604 0.801083 0.746914
0.816922 0.822477 0.759335
0.955871 0.842496 0.767117
0.552209 0.936645 0.801389
0.561425 0.935576 0.800992
0.589563 0.932097 0.798520
0.627558 0.926574 0.790555
0.666255 0.916258 0.769192
0.711055 0.889464 0.725978
0.796414 0.877958 0.694392
0.936950 0.914702 0.738705
0.265202 0.523461 0.953338
0.287480 0.519646 0.952636
0.363195 0.512535 0.948821
0.496010 0.529442 0.939849
0.617121 0.540948 0.925353
0.722774 0.540429 0.903105
0.825376 0.533257 0.890501
0.932250 0.537102 0.879759
0.348699 0.569421 0.950713
0.361028 0.564355 0.950103
0.400977 0.546532 0.947021
0.513573 0.556390 0.938201
0.624353 0.561791 0.923857
0.724392 0.556695 0.901518
0.823941 0.546807 0.888365
0.929992 0.547570 0.878050
0.443946 0.649958 0.949554
0.472145 0.655634 0.948028
0.513848 0.649622 0.944091
0.563897 0.631312 0.937194
0.650050 0.625574 0.923369
0.735225 0.611109 0.901518
0.826291 0.595941 0.887572
0.930175 0.590234 0.879057
0.484657 0.722103 0.950896
0.507744 0.724971 0.949523
0.572320 0.732570 0.944915
0.631434 0.725795 0.937407
0.680812 0.701991 0.925292
0.750668 0.680781 0.903777
0.830045 0.658839 0.886809
0.930388 0.644434 0.878416
0.503868 0.784207 0.945312
0.525628 0.787015 0.944732
0.587610 0.795285 0.943389
0.657343 0.800595 0.941680
0.709590 0.778622 0.929656
0.760647 0.744564 0.907897
0.831571 0.715206 0.883909
0.930632 0.698207 0.873350
0.528374 0.846098 0.933471
0.545678 0.847105 0.933227
0.594812 0.849638 0.932555
0.655421 0.851499 0.932097
0.725154 0.852110 0.931670
0.784634 0.829740 0.918425
0.835508 0.780789 0.881926
0.932036 0.762692 0.865934
0.549645 0.905333 0.918334
0.562799 0.905211 0.918181
0.601007 0.904173 0.917235
0.651270 0.902373 0.915557
0.711604 0.898253 0.911864
0.777676 0.888518 0.903227
0.831083 0.852659 0.870665
0.939757 0.848600 0.864408
0.577020 0.957122 0.898772
0.586145 0.956603 0.898650
0.615137 0.955535 0.898436
0.656977 0.953124 0.896605
0.710597 0.948852 0.892882
0.759976 0.939391 0.876097
0.795773 0.908415 0.821958
0.928893 0.922667 0.840269
0.437415 0.621118 0.987823
0.445045 0.618372 0.987732
0.467720 0.606744 0.987213
0.546563 0.616907 0.984405
0.634913 0.625727 0.980255
0.725521 0.629084 0.974456
0.816587 0.623590 0.966461
0.911284 0.609613 0.962310
0.473365 0.647547 0.986236
0.479194 0.644465 0.986175
0.496925 0.632105 0.985809
0.560388 0.634424 0.983459
0.642573 0.640345 0.979492
0.729152 0.641169 0.973846
0.817533 0.633021 0.965728
0.911070 0.618006 0.961639
0.536004 0.703670 0.983398
0.557733 0.710628 0.982574
0.572320 0.700954 0.982086
0.600763 0.686030 0.981262
0.666346 0.684749 0.977813
0.740749 0.678523 0.972625
0.821866 0.664454 0.964691
0.912169 0.646906 0.960723
0.532708 0.737911 0.982971
0.554620 0.743618 0.982269
0.613001 0.757961 0.980041
0.658106 0.756924 0.978180
0.691981 0.738705 0.976349
0.754360 0.727474 0.971862
0.827481 0.708034 0.964538
0.914641 0.686885 0.960052
0.555962 0.794278 0.980621
0.572442 0.797543 0.980285
0.615900 0.803677 0.979156
0.668025 0.805264 0.977508
0.732967 0.807645 0.974243
0.770413 0.784634 0.971160
0.833921 0.761105 0.964477
0.917937 0.737057 0.959106
0.567651 0.844602 0.976471
0.580591 0.846006 0.976226
0.619135 0.849851 0.975586
0.676570 0.855650 0.974731
0.751492 0.865934 0.973419
0.813169 0.862974 0.969848
0.850095 0.833066 0.964904
0.923400 0.802701 0.958251
0.587945 0.901213 0.971008
0.597955 0.901610 0.970855
0.629236 0.902617 0.970489
0.680354 0.904570 0.969940
0.748531 0.908354 0.969177
0.829740 0.916197 0.968231
0.891386 0.917113 0.965118
0.927733 0.876005 0.955108
0.603693 0.959258 0.964935
0.611505 0.959106 0.964813
0.638239 0.958770 0.964508
0.683742 0.958160 0.963989
0.744778 0.957183 0.963195
0.816831 0.955596 0.962005
0.887297 0.953155 0.960235
0.928771 0.940063 0.949310
