其他预设/【233】日式怀旧街道调色预设208款/1.3D LUT预设（视频调色-PR-AE-PS-FCPX-达芬奇用）/1.日式城市街拍预设/JA – Cool Normal 1.cube
# Created by Adobe Lightroom plugin Export LUT (1.17.0)
# www.johnrellis.com/lightroom/exportlut.htm
# Preset: JA – Cool Normal 1
# Color profile: /Library/Application Support/Adobe/Color/Profiles/Recommended/AdobeRGB1998.icc
LUT_3D_SIZE 5
DOMAIN_MIN 0.000000 0.000000 0.000000
DOMAIN_MAX 0.903226 0.903226 0.903226
0.092317 0.109651 0.111635
0.206424 0.099886 0.110658
0.486336 0.000000 0.096437
0.757168 0.000000 0.066041
0.962890 0.000000 0.062013
0.074617 0.220218 0.105592
0.213138 0.240208 0.091859
0.469429 0.246738 0.074891
0.745968 0.207187 0.000000
0.960601 0.109957 0.000000
0.000000 0.483284 0.009155
0.203799 0.482490 0.000000
0.508904 0.533165 0.000000
0.740017 0.487007 0.000000
0.945159 0.437293 0.000000
0.000000 0.725124 0.000000
0.153841 0.724910 0.000000
0.452674 0.721920 0.000000
0.760494 0.767758 0.000000
0.954986 0.696925 0.000000
0.000000 0.923827 0.024872
0.116365 0.922301 0.046204
0.425574 0.915160 0.071931
0.670161 0.912535 0.000000
0.910704 0.910948 0.000000
0.066865 0.107607 0.236728
0.214847 0.089570 0.246921
0.496834 0.000000 0.268101
0.761593 0.000000 0.242039
0.960632 0.000000 0.246250
0.000000 0.226963 0.233127
0.206027 0.237400 0.240665
0.489021 0.214084 0.235447
0.751736 0.158083 0.230777
0.957153 0.058991 0.236820
0.000000 0.487251 0.245121
0.164736 0.495094 0.221469
0.500938 0.526543 0.189914
0.725429 0.468696 0.185977
0.945220 0.428443 0.197177
0.000000 0.727199 0.236149
0.108949 0.729915 0.213840
0.449042 0.725856 0.217563
0.759060 0.766598 0.088472
0.952514 0.689479 0.000000
0.000000 0.923308 0.251682
0.099123 0.922454 0.234836
0.426459 0.917266 0.243717
0.671595 0.912108 0.223606
0.910643 0.911101 0.000000
0.000000 0.096254 0.495766
0.210086 0.043427 0.510185
0.508507 0.000000 0.531304
0.772030 0.000000 0.515740
0.953307 0.135286 0.519829
0.000000 0.237278 0.488472
0.154025 0.218387 0.504479
0.507134 0.202701 0.529931
0.766567 0.212619 0.515862
0.949157 0.298192 0.530877
0.000000 0.482704 0.485786
0.124147 0.491035 0.492653
0.490974 0.516899 0.514702
0.747219 0.490730 0.504814
0.942657 0.461646 0.495583
0.000000 0.726253 0.485756
0.061616 0.728603 0.483314
0.450477 0.736995 0.482063
0.756191 0.763027 0.478004
0.933379 0.679805 0.435981
0.000000 0.920684 0.470649
0.121828 0.920104 0.470832
0.430182 0.916716 0.468025
0.677760 0.905760 0.475502
0.907958 0.908385 0.400153
0.000000 0.074739 0.720058
0.164004 0.000000 0.728115
0.474434 0.000000 0.754604
0.766323 0.000000 0.764309
0.952544 0.000000 0.703120
0.000000 0.212802 0.715328
0.085298 0.209476 0.722927
0.463020 0.196475 0.749172
0.763699 0.165103 0.761624
0.949218 0.213901 0.702937
0.000000 0.463294 0.688960
0.000000 0.461616 0.691615
0.431678 0.468696 0.726619
0.754971 0.484932 0.752651
0.935912 0.510002 0.716487
0.000000 0.705623 0.701320
0.000000 0.708248 0.703456
0.427192 0.720058 0.713893
0.746181 0.750332 0.742855
0.915496 0.727413 0.730037
0.000000 0.919127 0.691249
0.000000 0.918242 0.689662
0.429511 0.913939 0.688319
0.706111 0.902586 0.707393
0.905425 0.903716 0.711757
0.000000 0.097963 0.901274
0.097261 0.076417 0.902617
0.414038 0.000000 0.907561
0.676722 0.000000 0.914946
0.919860 0.000000 0.912779
0.000000 0.224735 0.898497
0.000000 0.220737 0.899870
0.407385 0.207004 0.904936
0.674586 0.189639 0.912230
0.917998 0.179232 0.910887
0.000000 0.454505 0.887724
0.000000 0.451087 0.889616
0.386572 0.437446 0.895964
0.670253 0.453193 0.904326
0.913451 0.471077 0.906218
0.000000 0.665797 0.880125
0.000000 0.663142 0.879606
0.340093 0.655726 0.879026
0.668605 0.682765 0.889494
0.906920 0.734218 0.899504
0.000000 0.884276 0.881285
0.000000 0.884245 0.881010
0.384894 0.884733 0.880949
0.680903 0.884977 0.880369
0.898894 0.896635 0.891295
