其他预设/【233】日式怀旧街道调色预设208款/1.3D LUT预设（视频调色-PR-AE-PS-FCPX-达芬奇用）/1.日式城市街拍预设/JA – Cool Bright 1.cube
# Created by Adobe Lightroom plugin Export LUT (1.17.0)
# www.johnrellis.com/lightroom/exportlut.htm
# Preset: JA – Cool Bright 1
# Color profile: /Library/Application Support/Adobe/Color/Profiles/Recommended/AdobeRGB1998.icc
LUT_3D_SIZE 5
DOMAIN_MIN 0.000000 0.000000 0.000000
DOMAIN_MAX 0.903226 0.903226 0.903226
0.101320 0.105776 0.108919
0.217899 0.071290 0.119295
0.597620 0.000000 0.078218
0.904173 0.000000 0.000000
1.000000 0.000000 0.000000
0.084138 0.208438 0.110903
0.217838 0.225711 0.084565
0.561517 0.258701 0.000000
0.889952 0.197726 0.000000
1.000000 0.000000 0.000000
0.000000 0.541650 0.000000
0.237217 0.540398 0.000000
0.634516 0.634607 0.000000
0.876707 0.555261 0.000000
1.000000 0.452705 0.000000
0.000000 0.832273 0.000000
0.143801 0.830808 0.000000
0.526024 0.821256 0.000000
0.853330 0.850584 0.000000
1.000000 0.728084 0.000000
0.000000 0.973816 0.085695
0.120943 0.971283 0.022919
0.442084 0.960204 0.000000
0.698756 0.949310 0.000000
0.935760 0.933349 0.000000
0.083101 0.126101 0.202182
0.195346 0.071199 0.206332
0.561303 0.000000 0.265293
0.893614 0.000000 0.209842
1.000000 0.000000 0.217777
0.084047 0.193942 0.200168
0.199588 0.206729 0.211337
0.578180 0.147738 0.200290
0.882902 0.000000 0.188632
1.000000 0.000000 0.205173
0.000000 0.526390 0.261723
0.123812 0.543633 0.179690
0.599603 0.600549 0.091615
0.853086 0.516350 0.087556
1.000000 0.432532 0.149020
0.000000 0.828183 0.248264
0.000000 0.831388 0.156985
0.505180 0.820798 0.083528
0.849058 0.846372 0.000000
1.000000 0.717372 0.000000
0.100832 0.968627 0.328466
0.181186 0.968566 0.276585
0.454444 0.961059 0.239597
0.699275 0.948913 0.108736
0.935698 0.933379 0.000000
0.000000 0.149722 0.547631
0.209262 0.000000 0.532464
0.491676 0.000000 0.494270
0.801480 0.000000 0.495399
1.000000 0.000000 0.504692
0.000000 0.289128 0.560266
0.122103 0.202609 0.551995
0.511833 0.000000 0.512902
0.822599 0.000000 0.495338
0.996368 0.294957 0.545464
0.000000 0.529839 0.532464
0.116670 0.538903 0.540307
0.566461 0.566064 0.562463
0.852415 0.535729 0.551019
0.987030 0.525719 0.552728
0.000000 0.811276 0.541436
0.000000 0.811460 0.533867
0.521630 0.815793 0.530419
0.838437 0.834623 0.528679
0.978515 0.719966 0.479835
0.117617 0.961151 0.526848
0.312474 0.957794 0.539391
0.543877 0.948791 0.556207
0.721767 0.938109 0.507836
0.931365 0.928588 0.437079
0.000000 0.169497 0.818235
0.000000 0.070588 0.812070
0.490974 0.000000 0.787350
0.764309 0.000000 0.753292
0.964904 0.000000 0.670161
0.000000 0.240299 0.820401
0.000000 0.205905 0.815274
0.468910 0.000000 0.793362
0.765805 0.000000 0.754635
0.964111 0.000000 0.658656
0.212436 0.609064 0.821134
0.393561 0.628168 0.821958
0.533013 0.555291 0.808133
0.774655 0.367254 0.762905
0.966674 0.327306 0.675105
0.000000 0.794461 0.793759
0.271946 0.794888 0.793515
0.596735 0.800931 0.796963
0.817288 0.811948 0.804898
0.939147 0.795529 0.794949
0.152163 0.951385 0.747951
0.322118 0.947845 0.749416
0.588525 0.936156 0.761776
0.789548 0.923033 0.781827
0.924926 0.920897 0.780392
0.000000 0.322881 0.934203
0.000000 0.277348 0.934142
0.366461 0.000000 0.933074
0.667231 0.000000 0.926818
0.927825 0.000000 0.918486
0.000000 0.315953 0.934020
0.000000 0.271519 0.933959
0.364752 0.000000 0.932647
0.653803 0.000000 0.926116
0.926818 0.000000 0.917418
0.450843 0.634516 0.922942
0.500572 0.637659 0.921965
0.501915 0.542565 0.924254
0.635615 0.300298 0.923491
0.925292 0.000000 0.915923
0.520592 0.782467 0.915160
0.585199 0.792630 0.913878
0.735134 0.824521 0.911498
0.791012 0.795377 0.910674
0.916350 0.643549 0.907134
0.411444 0.906432 0.907958
0.490455 0.906523 0.907530
0.671534 0.907347 0.906462
0.828092 0.909148 0.906035
0.916594 0.912902 0.908324
