其他预设/【233】日式怀旧街道调色预设208款/1.3D LUT预设（视频调色-PR-AE-PS-FCPX-达芬奇用）/1.日式城市街拍预设/JA – Controlled Contrast 2.cube
# Created by Adobe Lightroom plugin Export LUT (1.17.0)
# www.johnrellis.com/lightroom/exportlut.htm
# Preset: JA – Controlled Contrast 2
# Color profile: /Library/Application Support/Adobe/Color/Profiles/Recommended/AdobeRGB1998.icc
LUT_3D_SIZE 8
DOMAIN_MIN 0.000000 0.000000 0.000000
DOMAIN_MAX 0.903226 0.903226 0.903226
0.096010 0.089631 0.085206
0.097902 0.089296 0.085176
0.147036 0.076661 0.084474
0.350469 0.000000 0.072236
0.528252 0.000000 0.011475
0.662074 0.000000 0.000000
0.847166 0.000000 0.000000
0.996582 0.000000 0.000000
0.096407 0.091035 0.085359
0.098207 0.091310 0.085298
0.146578 0.089082 0.083497
0.343816 0.000000 0.066255
0.521660 0.000000 0.000000
0.657130 0.000000 0.000000
0.831785 0.000000 0.000000
0.987579 0.000000 0.000000
0.097902 0.121462 0.083833
0.106569 0.120089 0.083711
0.148043 0.132601 0.078859
0.381659 0.208530 0.000000
0.536889 0.187228 0.000000
0.684169 0.127810 0.000000
0.863798 0.000000 0.000000
1.000000 0.000000 0.000000
0.121950 0.254551 0.062257
0.144472 0.249241 0.062684
0.203067 0.243351 0.057801
0.349706 0.310033 0.000000
0.566369 0.362341 0.000000
0.732876 0.348028 0.000000
0.882444 0.312230 0.000000
1.000000 0.255894 0.000000
0.172183 0.420813 0.000000
0.197818 0.416968 0.000000
0.267124 0.406592 0.000000
0.365270 0.417975 0.000000
0.499947 0.449622 0.000000
0.680690 0.477699 0.000000
0.888914 0.498085 0.000000
1.000000 0.463020 0.000000
0.249149 0.535546 0.130434
0.271519 0.539574 0.136507
0.320409 0.530571 0.125826
0.389654 0.515435 0.106966
0.487007 0.534234 0.000000
0.622492 0.566400 0.000000
0.833799 0.622461 0.000000
1.000000 0.633814 0.000000
0.370611 0.677821 0.275334
0.382391 0.678248 0.275639
0.412360 0.668269 0.265843
0.463447 0.655543 0.252323
0.529503 0.647669 0.223941
0.641413 0.686549 0.143954
0.790249 0.726589 0.000000
0.968811 0.754574 0.000000
0.502556 0.867185 0.415717
0.510369 0.865843 0.414374
0.539452 0.863706 0.411994
0.592584 0.864347 0.411536
0.643000 0.840146 0.387610
0.732631 0.859953 0.367681
0.849546 0.891386 0.318914
0.979065 0.904540 0.195224
0.095918 0.089876 0.087221
0.098146 0.089479 0.087160
0.142214 0.078737 0.092439
0.334905 0.000000 0.088777
0.515160 0.000000 0.053315
0.648371 0.000000 0.000000
0.819608 0.000000 0.000000
0.978058 0.000000 0.000000
0.095705 0.091676 0.087068
0.098848 0.092287 0.087770
0.147463 0.085267 0.086702
0.339422 0.000000 0.074708
0.515129 0.000000 0.034607
0.647059 0.000000 0.000000
0.809201 0.000000 0.000000
0.968231 0.000000 0.000000
0.095125 0.124361 0.089326
0.106447 0.127718 0.089693
0.153933 0.137789 0.083986
0.371191 0.189944 0.028016
0.528405 0.160311 0.000000
0.663996 0.073213 0.000000
0.828916 0.000000 0.000000
0.983154 0.000000 0.000000
0.099886 0.261601 0.078035
0.133150 0.259586 0.078950
0.202243 0.249302 0.075929
0.339696 0.301274 0.000000
0.542992 0.340185 0.000000
0.691646 0.318303 0.000000
0.845243 0.286412 0.000000
0.987457 0.236332 0.000000
0.159945 0.427344 0.080995
0.188388 0.422339 0.076936
0.260990 0.409369 0.066621
0.355291 0.410101 0.000000
0.487617 0.438361 0.000000
0.663783 0.462776 0.000000
0.870085 0.485359 0.000000
0.996857 0.456184 0.000000
0.247593 0.532372 0.164126
0.263890 0.530327 0.161898
0.312444 0.522026 0.152132
0.382666 0.509209 0.136995
0.479744 0.527581 0.069429
0.617639 0.562554 0.000000
0.826902 0.617456 0.000000
0.997650 0.631281 0.134798
0.361151 0.663600 0.283177
0.368597 0.659113 0.278996
0.399878 0.651789 0.271244
0.453651 0.643732 0.261967
0.521080 0.637263 0.239841
0.630243 0.675227 0.172305
0.774411 0.712398 0.000000
0.956115 0.744503 0.000000
0.491676 0.856931 0.416022
0.500969 0.857389 0.416236
0.530785 0.856229 0.414435
0.584558 0.857755 0.414435
0.652308 0.853849 0.408545
0.735592 0.864408 0.384039
0.845579 0.888487 0.329808
0.973266 0.899809 0.211398
0.083894 0.094270 0.136446
0.099062 0.088289 0.140291
0.156527 0.075532 0.143954
0.329900 0.000000 0.198978
0.519097 0.000000 0.213291
0.659236 0.000000 0.196017
0.829129 0.000000 0.176944
0.985168 0.000000 0.167697
0.085786 0.111086 0.137270
0.093507 0.101472 0.141787
0.159152 0.086915 0.146059
0.338903 0.000000 0.192538
0.517479 0.000000 0.194003
0.655299 0.000000 0.173770
0.822049 0.000000 0.150118
0.980682 0.000000 0.164370
0.087160 0.150576 0.138186
0.100801 0.154879 0.142916
0.173861 0.163210 0.155917
0.375097 0.114443 0.147097
0.536858 0.000000 0.147250
0.670405 0.000000 0.153628
0.831968 0.000000 0.161593
0.983154 0.000000 0.177890
0.045716 0.299443 0.177768
0.095766 0.305821 0.175357
0.219211 0.317174 0.176974
0.373053 0.337011 0.148409
0.563409 0.346960 0.181125
0.696437 0.316838 0.185306
0.851225 0.290288 0.195132
0.989807 0.253147 0.212497
0.124392 0.449714 0.193820
0.166293 0.450843 0.195071
0.278264 0.445777 0.217411
0.368902 0.431891 0.198154
0.504692 0.459571 0.148165
0.682124 0.482033 0.191104
0.867185 0.499580 0.244236
0.993835 0.474617 0.261143
0.249546 0.548974 0.249058
0.285344 0.547753 0.267430
0.339300 0.539788 0.273899
0.397284 0.524956 0.255436
0.481422 0.531609 0.225010
0.616846 0.566949 0.167178
0.827909 0.626032 0.211948
0.997711 0.647303 0.315648
0.379736 0.683528 0.357092
0.388800 0.680140 0.355383
0.416663 0.669825 0.346471
0.463783 0.656764 0.333104
0.523033 0.638270 0.312779
0.630426 0.678676 0.274876
0.781308 0.723629 0.199496
0.965576 0.759121 0.243412
0.487373 0.864866 0.454658
0.493568 0.862211 0.451118
0.522026 0.858732 0.446906
0.579126 0.863523 0.448859
0.646662 0.858000 0.440253
0.732113 0.865476 0.422583
0.844541 0.891691 0.380133
0.975097 0.904631 0.297520
0.000000 0.124361 0.333562
0.000000 0.094240 0.341009
0.213474 0.000000 0.352483
0.360449 0.000000 0.350958
0.492714 0.000000 0.350408
0.639185 0.000000 0.357092
0.811124 0.000000 0.366155
0.970031 0.000000 0.366552
0.000000 0.172793 0.341863
0.000000 0.142184 0.346777
0.202518 0.084199 0.355901
0.364263 0.000000 0.354711
0.495247 0.000000 0.350744
0.640467 0.000000 0.354528
0.807584 0.000000 0.362493
0.968139 0.000000 0.363195
0.000000 0.260563 0.336614
0.000000 0.256840 0.340551
0.187839 0.225986 0.353094
0.372503 0.192844 0.360204
0.511955 0.202609 0.361730
0.659510 0.156161 0.367773
0.828672 0.000000 0.381079
0.978210 0.000000 0.376043
0.000000 0.365637 0.339605
0.083711 0.367254 0.342504
0.245060 0.371984 0.353429
0.390387 0.378454 0.371252
0.531548 0.361334 0.368627
0.667353 0.345220 0.371893
0.831510 0.318791 0.377630
0.981079 0.284398 0.384436
0.192996 0.480995 0.356786
0.226200 0.479561 0.358007
0.314580 0.478584 0.367346
0.415167 0.478706 0.386603
0.514611 0.487678 0.367041
0.704799 0.528496 0.412787
0.858976 0.516503 0.413611
0.988037 0.490181 0.413367
0.299046 0.574792 0.381567
0.323003 0.579797 0.389960
0.372107 0.576074 0.395209
0.442145 0.567712 0.404852
0.501793 0.552361 0.381231
0.628626 0.591485 0.358923
0.843351 0.653223 0.402930
0.995453 0.660731 0.454261
0.375647 0.706050 0.430732
0.386725 0.706966 0.431373
0.419471 0.707301 0.429206
0.485206 0.697566 0.435187
0.544976 0.676967 0.414832
0.638636 0.694972 0.389929
0.786801 0.737209 0.351507
0.969604 0.769924 0.394812
0.470405 0.885130 0.511101
0.477943 0.885801 0.509606
0.521843 0.882628 0.521172
0.571008 0.878233 0.511864
0.638880 0.871092 0.498848
0.724422 0.867308 0.482673
0.839353 0.895140 0.449378
0.974823 0.909392 0.391760
0.000000 0.177249 0.500755
0.000000 0.142000 0.504356
0.169650 0.119051 0.508659
0.362890 0.013062 0.518273
0.510491 0.000000 0.515068
0.620020 0.129610 0.502983
0.775174 0.119661 0.535241
0.954711 0.000000 0.550347
0.000000 0.233158 0.501549
0.000000 0.210788 0.505913
0.174563 0.172335 0.510796
0.365087 0.137636 0.519524
0.510765 0.114656 0.514519
0.620020 0.190433 0.504936
0.778347 0.166598 0.537041
0.956207 0.000000 0.548211
0.000000 0.331914 0.498665
0.129427 0.331884 0.501823
0.247868 0.314366 0.507774
0.379034 0.291203 0.516350
0.510399 0.277623 0.511101
0.613855 0.302342 0.504692
0.784085 0.256291 0.535851
0.957610 0.000000 0.535576
0.148562 0.425269 0.496223
0.198459 0.425910 0.496895
0.309575 0.431281 0.501549
0.413001 0.428504 0.511131
0.516320 0.412665 0.513054
0.628321 0.408942 0.518364
0.808316 0.353277 0.531945
0.965606 0.274022 0.520745
0.237400 0.511894 0.489754
0.268406 0.512200 0.491493
0.346593 0.511833 0.495430
0.436225 0.513329 0.503319
0.520165 0.514672 0.512322
0.662806 0.499794 0.510765
0.827512 0.480446 0.512261
0.974090 0.456519 0.513420
0.338079 0.594171 0.499611
0.352819 0.594141 0.500755
0.394873 0.592004 0.502098
0.453407 0.592798 0.505333
0.520073 0.588373 0.501671
0.631373 0.609277 0.488258
0.860624 0.676844 0.557122
0.984344 0.655756 0.562493
0.397345 0.728725 0.542290
0.405890 0.727474 0.541100
0.434730 0.726040 0.537774
0.480110 0.726314 0.529870
0.548363 0.715297 0.516472
0.627802 0.697261 0.486885
0.782681 0.743374 0.465736
0.968627 0.775509 0.526604
0.478981 0.886778 0.605859
0.485328 0.886198 0.604059
0.507683 0.885069 0.597894
0.555444 0.892668 0.594873
0.625208 0.885069 0.584649
0.708064 0.874510 0.559777
0.822141 0.892027 0.530877
0.966217 0.908232 0.483040
0.000000 0.290593 0.657649
0.000000 0.275395 0.660182
0.204471 0.264073 0.665766
0.377264 0.258885 0.675410
0.529931 0.238010 0.685634
0.648371 0.239109 0.667994
0.778042 0.275731 0.679988
0.920989 0.314733 0.708614
0.100343 0.335302 0.651118
0.117311 0.321691 0.653010
0.225284 0.297093 0.658412
0.379736 0.289281 0.666865
0.526787 0.271122 0.678187
0.644526 0.268406 0.663081
0.775021 0.296757 0.677150
0.920623 0.323369 0.706264
0.234989 0.428962 0.657343
0.261204 0.426642 0.657191
0.312627 0.406653 0.660975
0.406104 0.384771 0.669001
0.535241 0.368200 0.678462
0.648035 0.354803 0.665126
0.777584 0.363531 0.679164
0.927886 0.358556 0.704677
0.280186 0.509117 0.654200
0.302434 0.508659 0.653437
0.367864 0.510307 0.657710
0.441413 0.494636 0.673274
0.547936 0.475257 0.687251
0.662348 0.455299 0.678004
0.789029 0.451087 0.686061
0.944915 0.415076 0.700923
0.315770 0.578485 0.640742
0.334020 0.579431 0.642237
0.387518 0.581598 0.646998
0.459693 0.583520 0.656458
0.540826 0.567712 0.668757
0.657527 0.544366 0.669215
0.790829 0.533745 0.674678
0.959411 0.477913 0.673365
0.354711 0.648188 0.629908
0.369726 0.650996 0.633417
0.411963 0.652827 0.637446
0.473365 0.655512 0.643946
0.552209 0.657282 0.651514
0.659602 0.662348 0.665858
0.831083 0.656397 0.674769
0.968536 0.644953 0.679011
0.428229 0.769406 0.673152
0.439094 0.771633 0.675654
0.469825 0.772305 0.676600
0.519158 0.773190 0.675990
0.582605 0.771756 0.670466
0.659327 0.757748 0.651972
0.791989 0.770596 0.624353
0.967254 0.815579 0.726864
0.513664 0.902281 0.722042
0.519738 0.901671 0.721065
0.541802 0.900755 0.718532
0.582605 0.902800 0.716335
0.633997 0.903014 0.706050
0.705501 0.896239 0.686671
0.805142 0.891691 0.651820
0.955840 0.912047 0.620966
0.207370 0.420569 0.812161
0.218143 0.412116 0.815488
0.287755 0.394995 0.818814
0.413367 0.388983 0.824643
0.543267 0.374060 0.830686
0.677882 0.348943 0.836515
0.790585 0.335515 0.821347
0.920592 0.360784 0.831510
0.245975 0.444343 0.804929
0.253147 0.435889 0.807919
0.294224 0.410254 0.812100
0.412421 0.402167 0.816739
0.538903 0.386786 0.822782
0.671595 0.360632 0.828580
0.782040 0.344945 0.812222
0.912657 0.363653 0.823178
0.311650 0.513909 0.808652
0.329015 0.511650 0.809476
0.354040 0.486976 0.812314
0.425818 0.460365 0.817655
0.543969 0.444373 0.822507
0.675135 0.420050 0.830686
0.788510 0.401831 0.817716
0.919738 0.417090 0.828428
0.340612 0.589624 0.810452
0.354070 0.586450 0.809751
0.399268 0.577417 0.811429
0.457008 0.552056 0.819120
0.549798 0.525414 0.825864
0.680293 0.506584 0.835966
0.799100 0.484291 0.826596
0.925109 0.496590 0.831083
0.360327 0.655879 0.800320
0.372015 0.654231 0.799741
0.411933 0.650996 0.801022
0.478096 0.647303 0.807584
0.560876 0.623682 0.817441
0.674189 0.600397 0.828428
0.798032 0.576287 0.822324
0.924315 0.587823 0.826627
0.387701 0.731167 0.794095
0.398779 0.731197 0.794949
0.436255 0.731197 0.797910
0.500206 0.732174 0.804532
0.586023 0.732204 0.813565
0.690669 0.724544 0.828458
0.811460 0.702815 0.831083
0.930053 0.697780 0.827939
0.426154 0.813718 0.793820
0.437324 0.814969 0.795529
0.472786 0.815885 0.798123
0.531334 0.817746 0.803037
0.608179 0.817716 0.807767
0.704158 0.818173 0.815213
0.811917 0.819089 0.825376
0.947295 0.817350 0.834409
0.542809 0.912535 0.821592
0.550805 0.912779 0.822354
0.583429 0.916442 0.828367
0.630823 0.918486 0.833921
0.685328 0.919554 0.835630
0.748836 0.919707 0.834165
0.817227 0.912535 0.818357
0.939055 0.918914 0.790372
0.352331 0.534112 0.931670
0.356420 0.527367 0.932921
0.379370 0.506249 0.933898
0.464912 0.500237 0.936248
0.565972 0.488655 0.939055
0.677913 0.469520 0.942412
0.796902 0.447395 0.944701
0.908385 0.431159 0.938933
0.367224 0.549340 0.928954
0.370947 0.542931 0.930236
0.381811 0.516320 0.932067
0.464759 0.509270 0.933928
0.564935 0.497627 0.936889
0.676234 0.478462 0.940368
0.794736 0.454810 0.942504
0.906126 0.437476 0.936584
0.407111 0.598474 0.926146
0.421149 0.598047 0.926726
0.426917 0.572747 0.927825
0.475868 0.550195 0.933227
0.570367 0.538018 0.935668
0.677363 0.518334 0.938445
0.795193 0.494850 0.941466
0.906554 0.477272 0.935973
0.410925 0.650813 0.924834
0.425605 0.650874 0.925719
0.471351 0.648554 0.926390
0.519524 0.630945 0.930297
0.584070 0.606073 0.934508
0.685267 0.589593 0.938048
0.800473 0.567224 0.942504
0.910216 0.547662 0.937469
0.434516 0.719478 0.921355
0.446174 0.719905 0.922301
0.479072 0.717403 0.923125
0.533440 0.707607 0.926207
0.613184 0.694911 0.930175
0.691890 0.670680 0.934997
0.803983 0.654597 0.940764
0.914549 0.638422 0.938445
0.470283 0.791287 0.919097
0.477821 0.790249 0.918822
0.505455 0.787625 0.918883
0.554925 0.784451 0.920806
0.627802 0.782345 0.925109
0.724819 0.777279 0.933349
0.820706 0.767422 0.941833
0.923949 0.755673 0.942473
0.525109 0.870848 0.921141
0.532036 0.870359 0.921141
0.556817 0.869047 0.921538
0.603204 0.868345 0.923613
0.669490 0.868040 0.927062
0.754604 0.870115 0.932464
0.847501 0.871641 0.939422
0.927459 0.856199 0.940612
0.585718 0.944915 0.923217
0.591333 0.944488 0.923095
0.613153 0.943725 0.923583
0.654475 0.943114 0.925383
0.711788 0.941772 0.927794
0.782742 0.939605 0.930755
0.862028 0.937285 0.934874
0.931579 0.936065 0.939757
