其他预设/【233】日式怀旧街道调色预设208款/1.3D LUT预设（视频调色-PR-AE-PS-FCPX-达芬奇用）/1.日式城市街拍预设/JA – Night Pop 4.cube
# Created by Adobe Lightroom plugin Export LUT (1.17.0)
# www.johnrellis.com/lightroom/exportlut.htm
# Preset: JA – Night Pop 4
# Color profile: /Library/Application Support/Adobe/Color/Profiles/Recommended/AdobeRGB1998.icc
LUT_3D_SIZE 32
0.064302 0.069642 0.075319
0.064302 0.069642 0.075319
0.064851 0.069551 0.075288
0.083497 0.066102 0.075410
0.111360 0.057954 0.075959
0.149447 0.023194 0.075715
0.204257 0.000000 0.070924
0.274784 0.000000 0.064729
0.348363 0.000000 0.050019
0.412573 0.000000 0.019409
0.467018 0.000000 0.000000
0.513359 0.000000 0.000000
0.554589 0.000000 0.000000
0.593927 0.000000 0.000000
0.635126 0.000000 0.000000
0.684810 0.000000 0.000000
0.747311 0.000000 0.000000
0.799924 0.000000 0.000000
0.844022 0.000000 0.000000
0.883787 0.000000 0.000000
0.919402 0.000000 0.000000
0.950622 0.000000 0.000000
0.977020 0.000000 0.000000
0.999786 0.000000 0.000000
1.000000 0.000000 0.000000
1.000000 0.000000 0.000000
1.000000 0.000000 0.000000
1.000000 0.000000 0.000000
1.000000 0.000000 0.000000
1.000000 0.000000 0.000000
1.000000 0.000000 0.000000
1.000000 0.000000 0.000000
0.064302 0.069642 0.075319
0.064302 0.069642 0.075319
0.064302 0.069642 0.075319
0.083131 0.066194 0.075410
0.110384 0.058625 0.075288
0.147066 0.039124 0.073304
0.199588 0.001099 0.070466
0.268498 0.000000 0.064118
0.341497 0.000000 0.048920
0.406531 0.000000 0.017700
0.461250 0.000000 0.000000
0.507927 0.000000 0.000000
0.549035 0.000000 0.000000
0.587945 0.000000 0.000000
0.628229 0.000000 0.000000
0.677638 0.000000 0.000000
0.736721 0.000000 0.000000
0.788022 0.000000 0.000000
0.831937 0.000000 0.000000
0.872160 0.000000 0.000000
0.908629 0.000000 0.000000
0.940948 0.000000 0.000000
0.968536 0.000000 0.000000
0.992401 0.000000 0.000000
1.000000 0.000000 0.000000
1.000000 0.000000 0.000000
1.000000 0.000000 0.000000
1.000000 0.000000 0.000000
1.000000 0.000000 0.000000
1.000000 0.000000 0.000000
1.000000 0.000000 0.000000
1.000000 0.000000 0.000000
0.064302 0.069642 0.075319
0.064302 0.069642 0.075319
0.064302 0.069642 0.075319
0.082185 0.068513 0.074922
0.108583 0.066163 0.074159
0.143832 0.061097 0.072724
0.194797 0.043122 0.069673
0.262089 0.001984 0.063142
0.335149 0.000000 0.046601
0.400916 0.000000 0.014374
0.456306 0.000000 0.000000
0.503563 0.000000 0.000000
0.544976 0.000000 0.000000
0.583856 0.000000 0.000000
0.623590 0.000000 0.000000
0.673610 0.000000 0.000000
0.730556 0.000000 0.000000
0.780728 0.000000 0.000000
0.824704 0.000000 0.000000
0.865324 0.000000 0.000000
0.902525 0.000000 0.000000
0.935576 0.000000 0.000000
0.963897 0.000000 0.000000
0.988373 0.000000 0.000000
1.000000 0.000000 0.000000
1.000000 0.000000 0.000000
1.000000 0.000000 0.000000
1.000000 0.000000 0.000000
1.000000 0.000000 0.000000
1.000000 0.000000 0.000000
1.000000 0.000000 0.000000
1.000000 0.000000 0.000000
0.062776 0.078523 0.074586
0.062593 0.079622 0.074495
0.062318 0.081025 0.074372
0.077302 0.079927 0.075868
0.102449 0.081697 0.075227
0.139864 0.081300 0.071351
0.189548 0.080507 0.067750
0.255711 0.078126 0.060273
0.328466 0.071382 0.037720
0.394720 0.060060 0.004211
0.450660 0.035035 0.000000
0.498390 0.007507 0.000000
0.539910 0.000000 0.000000
0.578607 0.000000 0.000000
0.617945 0.000000 0.000000
0.669184 0.000000 0.000000
0.723140 0.000000 0.000000
0.771725 0.000000 0.000000
0.814755 0.000000 0.000000
0.854795 0.000000 0.000000
0.892088 0.000000 0.000000
0.925902 0.000000 0.000000
0.955810 0.000000 0.000000
0.982238 0.000000 0.000000
1.000000 0.000000 0.000000
1.000000 0.000000 0.000000
1.000000 0.000000 0.000000
1.000000 0.000000 0.000000
1.000000 0.000000 0.000000
1.000000 0.000000 0.000000
1.000000 0.000000 0.000000
1.000000 0.000000 0.000000
0.059602 0.094026 0.073121
0.059388 0.094911 0.073030
0.059083 0.096345 0.072877
0.074861 0.096864 0.072450
0.092805 0.093111 0.076509
0.123293 0.099153 0.076631
0.170748 0.105898 0.070893
0.239200 0.114656 0.059632
0.315496 0.121279 0.026490
0.383185 0.122896 0.000000
0.440650 0.120516 0.000000
0.489448 0.116365 0.000000
0.531884 0.111666 0.000000
0.571008 0.106691 0.000000
0.610498 0.100618 0.000000
0.663874 0.097017 0.000000
0.716548 0.090700 0.000000
0.765194 0.081727 0.000000
0.808743 0.069459 0.000000
0.848936 0.047761 0.000000
0.886137 0.000000 0.000000
0.920195 0.000000 0.000000
0.950591 0.000000 0.000000
0.977783 0.000000 0.000000
1.000000 0.000000 0.000000
1.000000 0.000000 0.000000
1.000000 0.000000 0.000000
1.000000 0.000000 0.000000
1.000000 0.000000 0.000000
1.000000 0.000000 0.000000
1.000000 0.000000 0.000000
1.000000 0.000000 0.000000
0.051484 0.112764 0.070893
0.050752 0.114137 0.070710
0.050263 0.115053 0.070588
0.068391 0.115938 0.070130
0.094087 0.115358 0.069764
0.111635 0.109651 0.076570
0.153109 0.122591 0.075074
0.212039 0.138735 0.068727
0.291173 0.156466 0.040925
0.367620 0.167636 0.000000
0.431250 0.170809 0.000000
0.483131 0.169284 0.000000
0.526146 0.166018 0.000000
0.565881 0.161410 0.000000
0.607813 0.157900 0.000000
0.661067 0.156497 0.000000
0.712551 0.153475 0.000000
0.760983 0.148959 0.000000
0.805081 0.142885 0.000000
0.846189 0.135042 0.000000
0.884276 0.126131 0.000000
0.919219 0.114168 0.000000
0.997894 0.112306 0.000000
1.000000 0.094606 0.000000
1.000000 0.070954 0.000000
1.000000 0.009033 0.000000
1.000000 0.000000 0.000000
1.000000 0.000000 0.000000
1.000000 0.000000 0.000000
1.000000 0.000000 0.000000
1.000000 0.000000 0.000000
1.000000 0.000000 0.000000
0.026886 0.144350 0.065614
0.025879 0.145388 0.065400
0.024567 0.146761 0.065156
0.060914 0.148226 0.064363
0.096132 0.150301 0.062654
0.123995 0.144869 0.065431
0.143221 0.137575 0.074311
0.205112 0.163973 0.068269
0.281621 0.190707 0.049989
0.361730 0.211460 0.000000
0.429786 0.220340 0.000000
0.485145 0.221317 0.000000
0.531426 0.218509 0.000000
0.573480 0.213779 0.000000
0.625727 0.212863 0.000000
0.679683 0.212222 0.000000
0.730526 0.209995 0.000000
0.777890 0.205722 0.000000
0.821683 0.200870 0.000000
0.863828 0.194736 0.000000
0.904295 0.187930 0.000000
0.942016 0.180056 0.000000
0.975372 0.170718 0.000000
1.000000 0.159304 0.000000
1.000000 0.146487 0.000000
1.000000 0.130556 0.000000
1.000000 0.112245 0.000000
1.000000 0.088991 0.000000
1.000000 0.052277 0.000000
1.000000 0.000000 0.000000
1.000000 0.000000 0.000000
1.000000 0.000000 0.000000
0.000000 0.179934 0.055299
0.000000 0.181003 0.054719
0.000000 0.182193 0.054108
0.033112 0.184146 0.052064
0.092775 0.186862 0.047761
0.132113 0.188815 0.041291
0.157076 0.176669 0.057496
0.177554 0.168368 0.068940
0.253117 0.204562 0.051942
0.333013 0.233921 0.003326
0.404242 0.251652 0.000000
0.465034 0.258366 0.000000
0.514702 0.258030 0.000000
0.562524 0.256748 0.000000
0.615045 0.256931 0.000000
0.668116 0.256077 0.000000
0.719387 0.254124 0.000000
0.767361 0.250462 0.000000
0.811185 0.246098 0.000000
0.853666 0.240818 0.000000
0.894621 0.235050 0.000000
0.933013 0.228061 0.000000
0.967102 0.220005 0.000000
0.996216 0.210117 0.000000
1.000000 0.198947 0.000000
1.000000 0.186282 0.000000
1.000000 0.172183 0.000000
1.000000 0.156435 0.000000
1.000000 0.139040 0.000000
1.000000 0.118959 0.000000
1.000000 0.088350 0.000000
1.000000 0.123079 0.000000
0.000000 0.227787 0.018982
0.000000 0.228794 0.018036
0.000000 0.229984 0.016907
0.000000 0.231998 0.013184
0.088838 0.235294 0.005310
0.138064 0.239536 0.000000
0.177890 0.236088 0.000000
0.200626 0.218906 0.024659
0.223087 0.209445 0.054566
0.306523 0.250340 0.001740
0.382025 0.276188 0.000000
0.444923 0.289311 0.000000
0.499825 0.294987 0.000000
0.554009 0.297673 0.000000
0.603815 0.297581 0.000000
0.655116 0.297032 0.000000
0.705715 0.295659 0.000000
0.754879 0.293034 0.000000
0.801541 0.289158 0.000000
0.846433 0.284581 0.000000
0.888182 0.279118 0.000000
0.926848 0.272587 0.000000
0.961303 0.264897 0.000000
0.990875 0.255863 0.000000
1.000000 0.245151 0.000000
1.000000 0.233158 0.000000
1.000000 0.220340 0.000000
1.000000 0.206546 0.000000
1.000000 0.191836 0.000000
1.000000 0.176516 0.000000
1.000000 0.157107 0.000000
1.000000 0.176089 0.000000
0.000000 0.283543 0.000000
0.000000 0.284245 0.000000
0.000000 0.285191 0.000000
0.000000 0.286839 0.000000
0.078950 0.289616 0.000000
0.140810 0.293248 0.000000
0.190799 0.295781 0.000000
0.226810 0.284611 0.000000
0.249668 0.265934 0.000000
0.274601 0.256138 0.005432
0.355718 0.293248 0.000000
0.425452 0.314641 0.000000
0.487739 0.327764 0.000000
0.540307 0.333227 0.000000
0.590021 0.334295 0.000000
0.641962 0.335119 0.000000
0.694606 0.335302 0.000000
0.745632 0.334173 0.000000
0.793668 0.331609 0.000000
0.839048 0.327428 0.000000
0.881529 0.321935 0.000000
0.920500 0.315129 0.000000
0.954894 0.306767 0.000000
0.983734 0.297490 0.000000
1.000000 0.286900 0.000000
1.000000 0.275456 0.000000
1.000000 0.262913 0.000000
1.000000 0.250034 0.000000
1.000000 0.236637 0.000000
1.000000 0.222721 0.000000
1.000000 0.207309 0.000000
1.000000 0.220035 0.000000
0.000000 0.336065 0.000000
0.000000 0.336584 0.000000
0.000000 0.337530 0.000000
0.000000 0.339544 0.000000
0.027344 0.342107 0.000000
0.133974 0.345403 0.000000
0.193606 0.349493 0.000000
0.242985 0.347967 0.000000
0.277165 0.333227 0.000000
0.301732 0.314794 0.000000
0.331212 0.306859 0.000000
0.410254 0.340276 0.000000
0.472572 0.355627 0.000000
0.525536 0.362310 0.000000
0.574090 0.365698 0.000000
0.624628 0.369055 0.000000
0.677607 0.370428 0.000000
0.729274 0.370581 0.000000
0.778744 0.369116 0.000000
0.825589 0.365942 0.000000
0.869535 0.361425 0.000000
0.910033 0.355352 0.000000
0.946197 0.347784 0.000000
0.977508 0.338445 0.000000
1.000000 0.327520 0.000000
1.000000 0.315862 0.000000
1.000000 0.303441 0.000000
1.000000 0.290654 0.000000
1.000000 0.277531 0.000000
1.000000 0.264103 0.000000
1.000000 0.250401 0.000000
1.000000 0.259953 0.000000
0.000000 0.386206 0.000000
0.000000 0.386786 0.000000
0.000000 0.387366 0.000000
0.000000 0.389197 0.000000
0.000000 0.391089 0.000000
0.112520 0.393683 0.000000
0.184390 0.396765 0.000000
0.243351 0.400427 0.000000
0.290471 0.393896 0.000000
0.327276 0.380621 0.000000
0.359960 0.369116 0.000000
0.392126 0.361212 0.000000
0.495521 0.412024 0.000000
0.550896 0.419409 0.000000
0.605310 0.425177 0.000000
0.662318 0.431830 0.000000
0.717556 0.436866 0.000000
0.769131 0.436347 0.000000
0.815640 0.431983 0.000000
0.858701 0.426093 0.000000
0.898192 0.418463 0.000000
0.933562 0.409583 0.000000
0.964508 0.399115 0.000000
0.991516 0.387549 0.000000
1.000000 0.374884 0.000000
1.000000 0.361364 0.000000
1.000000 0.347173 0.000000
1.000000 0.333135 0.000000
1.000000 0.319341 0.000000
1.000000 0.305608 0.000000
1.000000 0.291783 0.000000
1.000000 0.297368 0.000000
0.000000 0.443519 0.000000
0.000000 0.443824 0.000000
0.000000 0.443885 0.000000
0.000000 0.444434 0.000000
0.000000 0.444434 0.000000
0.072267 0.444556 0.000000
0.170230 0.445624 0.000000
0.235630 0.447547 0.000000
0.295842 0.452857 0.000000
0.346807 0.449866 0.000000
0.389624 0.441169 0.000000
0.426703 0.430823 0.000000
0.461158 0.422095 0.000000
0.520745 0.435462 0.000000
0.576318 0.443977 0.000000
0.633631 0.452583 0.000000
0.690333 0.459815 0.000000
0.743832 0.464607 0.000000
0.793027 0.465858 0.000000
0.838468 0.461280 0.000000
0.880186 0.454963 0.000000
0.917845 0.446845 0.000000
0.950683 0.437018 0.000000
0.979492 0.425727 0.000000
1.000000 0.413245 0.000000
1.000000 0.399786 0.000000
1.000000 0.385595 0.000000
1.000000 0.371099 0.000000
1.000000 0.356451 0.000000
1.000000 0.342321 0.000000
1.000000 0.328496 0.000000
1.000000 0.333257 0.000000
0.000000 0.478462 0.028138
0.000000 0.478859 0.000000
0.000000 0.478889 0.000000
0.000000 0.479408 0.000000
0.000000 0.479316 0.000000
0.000000 0.480171 0.000000
0.144564 0.484382 0.000000
0.220951 0.489143 0.000000
0.285710 0.494575 0.000000
0.342260 0.494667 0.000000
0.390143 0.487617 0.000000
0.431312 0.477516 0.000000
0.466743 0.465827 0.000000
0.497627 0.453925 0.000000
0.550530 0.462165 0.000000
0.605585 0.470985 0.000000
0.662196 0.479622 0.000000
0.716823 0.486397 0.000000
0.768826 0.491127 0.000000
0.816678 0.493751 0.000000
0.861143 0.490364 0.000000
0.901427 0.483558 0.000000
0.936767 0.474495 0.000000
0.967712 0.463813 0.000000
0.994324 0.451514 0.000000
1.000000 0.438117 0.000000
1.000000 0.423804 0.000000
1.000000 0.409125 0.000000
1.000000 0.394446 0.000000
1.000000 0.379706 0.000000
1.000000 0.364935 0.000000
1.000000 0.368994 0.000000
0.000000 0.515679 0.037385
0.000000 0.516594 0.000000
0.000000 0.517113 0.000000
0.000000 0.518364 0.000000
0.000000 0.519768 0.000000
0.000000 0.520775 0.000000
0.106752 0.522576 0.000000
0.199954 0.525139 0.000000
0.268925 0.528832 0.000000
0.331090 0.533288 0.000000
0.384344 0.530053 0.000000
0.429389 0.520470 0.000000
0.468544 0.509270 0.000000
0.501793 0.495888 0.000000
0.529686 0.481727 0.000000
0.579339 0.487770 0.000000
0.635615 0.498054 0.000000
0.690974 0.506523 0.000000
0.744869 0.513390 0.000000
0.795315 0.517998 0.000000
0.841489 0.520653 0.000000
0.883360 0.519707 0.000000
0.921111 0.511711 0.000000
0.954314 0.501671 0.000000
0.983093 0.489815 0.000000
1.000000 0.476722 0.000000
1.000000 0.462501 0.000000
1.000000 0.448005 0.000000
1.000000 0.433082 0.000000
1.000000 0.418280 0.000000
1.000000 0.403418 0.000000
1.000000 0.405524 0.000000
0.000000 0.554803 0.034638
0.000000 0.555596 0.000000
0.000000 0.556146 0.000000
0.000000 0.557244 0.000000
0.000000 0.558648 0.000000
0.000000 0.559716 0.000000
0.000000 0.561608 0.000000
0.174105 0.564263 0.000000
0.252262 0.567834 0.000000
0.318090 0.572442 0.000000
0.377264 0.573297 0.000000
0.427344 0.566430 0.000000
0.468116 0.552941 0.000000
0.503197 0.537926 0.000000
0.532280 0.521569 0.000000
0.556817 0.505211 0.000000
0.606256 0.511742 0.000000
0.663539 0.523430 0.000000
0.720150 0.533288 0.000000
0.774533 0.541283 0.000000
0.824491 0.546593 0.000000
0.869230 0.549432 0.000000
0.908080 0.550347 0.084871
0.943359 0.542657 0.008087
0.974090 0.531670 0.000000
1.000000 0.518700 0.000000
1.000000 0.504356 0.000000
1.000000 0.489387 0.000000
1.000000 0.473884 0.000000
1.000000 0.458228 0.000000
1.000000 0.442359 0.000000
1.000000 0.443153 0.000000
0.000000 0.589319 0.029755
0.000000 0.589685 0.000000
0.000000 0.589990 0.000000
0.000000 0.590784 0.000000
0.000000 0.592157 0.000000
0.000000 0.593164 0.000000
0.000000 0.594781 0.000000
0.138216 0.597345 0.000000
0.229038 0.600855 0.000000
0.299840 0.605371 0.000000
0.364569 0.610956 0.000000
0.419684 0.607691 0.000000
0.466255 0.597681 0.000000
0.504356 0.582361 0.000000
0.536278 0.565087 0.000000
0.562036 0.546502 0.000000
0.584863 0.529412 0.000000
0.635187 0.537102 0.000000
0.693385 0.549950 0.000000
0.749905 0.560449 0.000000
0.802670 0.568139 0.000000
0.850309 0.572869 0.000000
0.892088 0.575097 0.065705
0.928252 0.575769 0.132204
0.960082 0.571374 0.149081
0.988922 0.559869 0.116640
1.000000 0.546654 0.069642
1.000000 0.532128 0.000000
1.000000 0.516777 0.000000
1.000000 0.500847 0.000000
1.000000 0.484535 0.000000
1.000000 0.484382 0.000000
0.000000 0.627314 0.024445
0.000000 0.628504 0.000000
0.000000 0.663050 0.000000
0.000000 0.663844 0.000000
0.000000 0.664790 0.000000
0.000000 0.665339 0.000000
0.000000 0.665888 0.000000
0.085817 0.667109 0.000000
0.213748 0.669398 0.000000
0.295476 0.672724 0.000000
0.365850 0.676753 0.000000
0.430182 0.678920 0.000000
0.482856 0.669795 0.000000
0.526177 0.653559 0.000000
0.561791 0.634241 0.000000
0.590906 0.613367 0.000000
0.613977 0.591333 0.000000
0.635431 0.572656 0.000000
0.685634 0.579736 0.000000
0.743801 0.592065 0.000000
0.796719 0.600275 0.000000
0.844968 0.605493 0.000000
0.887480 0.607965 0.079835
0.923888 0.608118 0.141238
0.954223 0.606439 0.186770
0.979736 0.603998 0.226352
1.000000 0.590936 0.205539
1.000000 0.576806 0.183597
1.000000 0.562036 0.160098
1.000000 0.546868 0.133547
1.000000 0.531060 0.096742
1.000000 0.530694 0.108888
0.000000 0.674800 0.007385
0.000000 0.679866 0.000000
0.000000 0.685054 0.000000
0.000000 0.690059 0.000000
0.000000 0.694392 0.000000
0.000000 0.696803 0.000000
0.000000 0.697902 0.000000
0.000000 0.698970 0.000000
0.177707 0.701076 0.000000
0.269749 0.703700 0.000000
0.344030 0.707149 0.000000
0.411353 0.710811 0.000000
0.470100 0.707454 0.000000
0.520104 0.696803 0.000000
0.559625 0.678157 0.000000
0.592889 0.657832 0.000000
0.620172 0.636408 0.000000
0.642145 0.614527 0.000000
0.663752 0.596704 0.000000
0.713527 0.604089 0.000000
0.770871 0.616571 0.000000
0.823087 0.625116 0.000000
0.869383 0.630182 0.058686
0.909270 0.632197 0.131899
0.942687 0.631769 0.181247
0.970703 0.629908 0.223575
0.994141 0.627466 0.261418
1.000000 0.619074 0.268009
1.000000 0.606256 0.256321
1.000000 0.592920 0.244755
1.000000 0.579034 0.232486
1.000000 0.578424 0.239445
0.000000 0.709194 0.000000
0.000000 0.713893 0.000000
0.000000 0.718807 0.000000
0.000000 0.723507 0.000000
0.000000 0.727565 0.000000
0.000000 0.730068 0.000000
0.000000 0.731014 0.000000
0.000000 0.731930 0.000000
0.127199 0.733577 0.000000
0.240848 0.735805 0.000000
0.321141 0.738643 0.000000
0.391150 0.741604 0.000000
0.455665 0.743954 0.000000
0.509361 0.735653 0.000000
0.555840 0.722560 0.000000
0.593683 0.703609 0.000000
0.625696 0.683436 0.000000
0.652308 0.662409 0.000000
0.674281 0.641230 0.000000
0.696773 0.624689 0.000000
0.745418 0.631617 0.000000
0.801175 0.643641 0.000000
0.851194 0.651575 0.011841
0.894377 0.655695 0.123690
0.930694 0.656489 0.176425
0.960998 0.655268 0.220523
0.986297 0.652888 0.259495
1.000000 0.650233 0.295232
1.000000 0.645991 0.320226
1.000000 0.634546 0.314641
1.000000 0.622797 0.309575
1.000000 0.622370 0.316930
0.000000 0.743832 0.000000
0.000000 0.748226 0.000000
0.000000 0.752773 0.000000
0.000000 0.757107 0.000000
0.000000 0.760739 0.000000
0.000000 0.763180 0.000000
0.000000 0.763943 0.000000
0.000000 0.764431 0.000000
0.000000 0.765438 0.000000
0.206210 0.766934 0.000000
0.295384 0.768917 0.000000
0.368872 0.770993 0.000000
0.435096 0.772763 0.000000
0.495491 0.771572 0.000000
0.546532 0.761959 0.000000
0.590814 0.747829 0.000000
0.628992 0.730922 0.000000
0.662806 0.713558 0.000000
0.692592 0.696040 0.000000
0.718654 0.678706 0.000000
0.744472 0.665064 0.000000
0.792538 0.671809 0.000000
0.845335 0.682307 0.060731
0.891752 0.688777 0.141024
0.930236 0.691066 0.194522
0.961791 0.690272 0.238987
0.987701 0.687648 0.277806
1.000000 0.684291 0.313237
1.000000 0.681117 0.346166
1.000000 0.678584 0.376989
1.000000 0.669429 0.380468
1.000000 0.661952 0.373388
0.000000 0.793668 0.000000
0.000000 0.795712 0.000000
0.000000 0.797482 0.000000
0.000000 0.799252 0.000000
0.000000 0.800961 0.000000
0.000000 0.802304 0.000000
0.000000 0.802914 0.000000
0.000000 0.803433 0.000000
0.000000 0.804623 0.000000
0.163607 0.806302 0.000000
0.269841 0.808316 0.000000
0.349828 0.810178 0.000000
0.419593 0.811460 0.000000
0.483619 0.812253 0.000000
0.539940 0.806790 0.000000
0.590173 0.797116 0.000000
0.632990 0.782010 0.000000
0.671351 0.765866 0.000000
0.705653 0.749416 0.000000
0.736141 0.732662 0.000000
0.762539 0.715785 0.000000
0.786893 0.701106 0.000000
0.829129 0.703944 0.051362
0.875517 0.710323 0.133883
0.916716 0.714107 0.189395
0.950988 0.714534 0.235813
0.979278 0.712612 0.276188
1.000000 0.709438 0.312963
1.000000 0.705898 0.346838
1.000000 0.702785 0.378424
1.000000 0.700374 0.407935
1.000000 0.696559 0.415198
0.000000 0.825528 0.000000
0.000000 0.827451 0.000000
0.000000 0.829282 0.000000
0.000000 0.830991 0.000000
0.000000 0.832456 0.000000
0.000000 0.833463 0.000000
0.000000 0.833951 0.000000
0.000000 0.833829 0.000000
0.000000 0.834287 0.000000
0.089967 0.835203 0.000000
0.235264 0.836515 0.000000
0.322820 0.837766 0.000000
0.395789 0.838682 0.000000
0.461830 0.839231 0.000000
0.523461 0.839445 0.000000
0.576318 0.831235 0.000000
0.625055 0.821561 0.000000
0.667659 0.807614 0.000000
0.706630 0.793332 0.000000
0.742123 0.778866 0.000000
0.774258 0.764279 0.000000
0.802884 0.749630 0.000000
0.827237 0.736080 0.000000
0.865873 0.736843 0.140932
0.898833 0.733028 0.178225
0.936400 0.735256 0.227024
0.967742 0.734707 0.269780
0.993408 0.732143 0.308080
1.000000 0.728664 0.343450
1.000000 0.725216 0.376440
1.000000 0.722499 0.407446
1.000000 0.719692 0.419165
0.000000 0.867491 0.000000
0.000000 0.869474 0.000000
0.000000 0.870787 0.000000
0.000000 0.871641 0.000000
0.000000 0.872129 0.000000
0.000000 0.872374 0.000000
0.000000 0.872221 0.000000
0.000000 0.870878 0.000000
0.000000 0.869749 0.000000
0.000000 0.868925 0.000000
0.193606 0.868223 0.000000
0.293858 0.867887 0.000000
0.371527 0.867369 0.000000
0.439551 0.866423 0.000000
0.501671 0.864988 0.000000
0.558556 0.860777 0.000000
0.608881 0.851621 0.000000
0.655055 0.840574 0.000000
0.696864 0.827573 0.000000
0.736080 0.815000 0.000000
0.772457 0.802457 0.000000
0.805692 0.789731 0.000000
0.834684 0.776608 0.000000
0.857023 0.762142 0.070924
0.890135 0.759518 0.185092
0.925536 0.759182 0.226596
0.958770 0.759274 0.269383
0.985962 0.756771 0.307836
1.000000 0.752987 0.343481
1.000000 0.749111 0.377050
1.000000 0.745754 0.408759
1.000000 0.742885 0.423224
0.000000 0.893553 0.000000
0.000000 0.895323 0.000000
0.000000 0.896452 0.000000
0.000000 0.897215 0.000000
0.000000 0.897673 0.000000
0.000000 0.897978 0.000000
0.000000 0.898253 0.000000
0.000000 0.897337 0.000000
0.000000 0.896483 0.000000
0.000000 0.895933 0.000000
0.133120 0.895506 0.000000
0.260075 0.895293 0.000000
0.344762 0.894926 0.000000
0.416571 0.894163 0.000000
0.480934 0.892882 0.000000
0.540887 0.891295 0.000000
0.594995 0.885222 0.000000
0.644984 0.877531 0.000000
0.690730 0.867216 0.000000
0.733333 0.856168 0.000000
0.773312 0.845151 0.000000
0.810422 0.833982 0.000000
0.844083 0.822507 0.000000
0.873655 0.810544 0.000000
0.894102 0.795529 0.162600
0.922423 0.789883 0.240116
0.952331 0.786252 0.274601
0.981170 0.784237 0.313787
1.000000 0.780453 0.350134
1.000000 0.776150 0.384222
1.000000 0.772183 0.416449
1.000000 0.766171 0.427344
0.000000 0.921660 0.000000
0.000000 0.922759 0.000000
0.000000 0.923278 0.000000
0.000000 0.923369 0.000000
0.000000 0.923278 0.000000
0.000000 0.923186 0.000000
0.000000 0.923064 0.000000
0.000000 0.922240 0.000000
0.000000 0.921202 0.000000
0.000000 0.920500 0.000000
0.000000 0.919860 0.000000
0.218265 0.919585 0.000000
0.314092 0.919127 0.000000
0.390173 0.918242 0.000000
0.457038 0.916777 0.000000
0.518425 0.914946 0.000000
0.575952 0.912474 0.000000
0.627588 0.905577 0.000000
0.676844 0.898711 0.000000
0.721920 0.889036 0.000000
0.764584 0.879332 0.000000
0.804379 0.869718 0.000000
0.841581 0.859678 0.000000
0.875486 0.849210 0.000000
0.905211 0.838407 0.000000
0.923796 0.822934 0.220371
0.948119 0.815030 0.284092
0.973327 0.808621 0.314244
0.998169 0.804715 0.350622
1.000000 0.800259 0.385534
1.000000 0.795804 0.418585
1.000000 0.789395 0.431556
0.000000 0.944549 0.000000
0.000000 0.945190 0.000000
0.000000 0.945617 0.000000
0.000000 0.945830 0.000000
0.000000 0.946136 0.000000
0.000000 0.946838 0.000000
0.000000 0.948241 0.000000
0.000000 0.949493 0.000000
0.000000 0.950286 0.000000
0.000000 0.951324 0.000000
0.000000 0.952300 0.000000
0.166629 0.953094 0.000000
0.283055 0.953399 0.000000
0.366735 0.953033 0.000000
0.437781 0.951873 0.000000
0.501793 0.949920 0.000000
0.561334 0.947509 0.000000
0.616663 0.943542 0.000000
0.668360 0.937804 0.000000
0.717342 0.931334 0.000000
0.762539 0.923278 0.000000
0.805600 0.915068 0.000000
0.846525 0.906462 0.000000
0.884611 0.897459 0.000000
0.918914 0.888273 0.000000
0.949065 0.879210 0.184298
0.965148 0.862852 0.298741
0.983459 0.850980 0.349828
1.000000 0.840604 0.374945
1.000000 0.833890 0.406806
1.000000 0.828702 0.438819
1.000000 0.812802 0.435859
0.000000 0.976806 0.000000
0.000000 0.977142 0.000000
0.000000 0.977203 0.000000
0.000000 0.977081 0.000000
0.000000 0.976928 0.000000
0.000000 0.976959 0.000000
0.000000 0.977295 0.000000
0.000000 0.977661 0.000000
0.000000 0.977081 0.000000
0.000000 0.976562 0.000000
0.000000 0.975921 0.000000
0.067781 0.975219 0.000000
0.241459 0.974212 0.000000
0.334051 0.972839 0.000000
0.409033 0.970977 0.000000
0.475135 0.968780 0.000000
