其他预设/【233】日式怀旧街道调色预设208款/1.3D LUT预设（视频调色-PR-AE-PS-FCPX-达芬奇用）/1.日式城市街拍预设/JA – Cool Bright 2.cube
# Created by Adobe Lightroom plugin Export LUT (1.17.0)
# www.johnrellis.com/lightroom/exportlut.htm
# Preset: JA – Cool Bright 2
# Color profile: /Library/Application Support/Adobe/Color/Profiles/Recommended/AdobeRGB1998.icc
LUT_3D_SIZE 8
DOMAIN_MIN 0.000000 0.000000 0.000000
DOMAIN_MAX 0.903226 0.903226 0.903226
0.079072 0.082368 0.084810
0.127230 0.076234 0.087739
0.229191 0.085969 0.096712
0.403326 0.071656 0.107149
0.610773 0.000000 0.115084
0.771969 0.000000 0.136172
0.899138 0.000000 0.175875
1.000000 0.166629 0.257725
0.080018 0.127535 0.091524
0.133120 0.135592 0.087373
0.232303 0.138094 0.100435
0.404059 0.147799 0.108461
0.608759 0.138399 0.114778
0.764462 0.118685 0.134768
0.892210 0.124422 0.174166
0.998566 0.209812 0.256901
0.091066 0.230777 0.108766
0.139803 0.232456 0.109010
0.257084 0.256840 0.101778
0.438972 0.291997 0.105470
0.630671 0.304295 0.114473
0.774166 0.293095 0.139193
0.903807 0.293523 0.189181
1.000000 0.336645 0.283207
0.059998 0.418555 0.115023
0.151064 0.416785 0.114137
0.290471 0.418280 0.108675
0.494362 0.481209 0.044282
0.675776 0.487617 0.061860
0.792264 0.462104 0.157137
0.908690 0.451575 0.215030
0.997467 0.471962 0.317571
0.000000 0.623102 0.116915
0.140139 0.620081 0.115084
0.312779 0.611048 0.108705
0.479133 0.616419 0.084932
0.666041 0.642420 0.000000
0.802152 0.617853 0.085725
0.910369 0.598962 0.229129
0.990784 0.609064 0.367590
0.095674 0.761135 0.186130
0.183413 0.762631 0.187991
0.325139 0.754025 0.180514
0.470497 0.738949 0.166262
0.625360 0.747341 0.145785
0.793240 0.764553 0.135348
0.918975 0.746029 0.208286
0.989807 0.725643 0.375799
0.291752 0.880613 0.321630
0.320012 0.879850 0.321263
0.396490 0.873655 0.312688
0.503502 0.863920 0.299321
0.622187 0.851987 0.278202
0.761318 0.864439 0.277043
0.900420 0.871580 0.295598
0.982757 0.839902 0.386969
0.501640 0.953429 0.493721
0.511467 0.952697 0.492317
0.546685 0.950347 0.489326
0.606744 0.946593 0.486275
0.674556 0.938750 0.466224
0.765621 0.934783 0.466133
0.860929 0.932097 0.479500
0.950561 0.925383 0.506554
0.065797 0.085908 0.125490
0.119783 0.073640 0.127657
0.222416 0.095857 0.143648
0.400916 0.000000 0.151003
0.607233 0.000000 0.157290
0.760769 0.000000 0.172366
0.887938 0.000000 0.205142
0.995239 0.160189 0.279728
0.065461 0.126375 0.131350
0.127016 0.132235 0.135470
0.229923 0.138186 0.144869
0.406226 0.130556 0.152041
0.609918 0.098299 0.156771
0.758633 0.067964 0.172000
0.883421 0.092927 0.204349
0.991882 0.203037 0.278050
0.096529 0.229252 0.155093
0.135256 0.236423 0.149416
0.255161 0.255863 0.143404
0.433845 0.283757 0.154025
0.624659 0.289860 0.157748
0.765621 0.278538 0.176577
0.890105 0.280552 0.215976
0.993896 0.330510 0.300664
0.048432 0.418677 0.180179
0.117708 0.422766 0.152377
0.283116 0.422187 0.147097
0.481971 0.469917 0.118257
0.657496 0.470375 0.131289
0.776303 0.448280 0.190433
0.894285 0.440620 0.238773
0.990814 0.466438 0.331151
0.000000 0.626490 0.194522
0.085176 0.624048 0.161654
0.299229 0.613245 0.154665
0.469368 0.610346 0.137942
0.657588 0.634546 0.105257
0.794491 0.609735 0.141695
0.902586 0.594476 0.262058
0.986542 0.607263 0.383368
0.102510 0.759762 0.235416
0.167788 0.758145 0.224857
0.316075 0.749935 0.216861
0.464393 0.735988 0.202762
0.620386 0.743435 0.187839
0.790555 0.762325 0.184115
0.915648 0.743252 0.242954
0.986603 0.725338 0.396002
0.295262 0.875975 0.345739
0.319005 0.873716 0.342351
0.394903 0.868284 0.334630
0.501823 0.860014 0.323033
0.619471 0.848020 0.302464
0.757931 0.860716 0.300420
0.896361 0.867704 0.314763
0.980072 0.837186 0.396612
0.503960 0.951659 0.505028
0.514733 0.951141 0.504692
0.549554 0.948943 0.502007
0.608392 0.945342 0.498543
0.681971 0.939605 0.489570
0.768093 0.934691 0.483772
0.860807 0.931456 0.491646
0.949737 0.924743 0.514824
0.000000 0.096803 0.224430
0.090700 0.071534 0.219425
0.213443 0.078920 0.222843
0.385595 0.000000 0.258457
0.607843 0.000000 0.291295
0.767269 0.000000 0.303593
0.892638 0.000000 0.311650
0.993103 0.219974 0.377935
0.000000 0.139742 0.237430
0.086213 0.121614 0.235782
0.223178 0.124117 0.232517
0.399634 0.094331 0.261692
0.616327 0.000000 0.289036
0.767880 0.000000 0.279210
0.889555 0.058869 0.311162
0.991302 0.254215 0.378607
0.000000 0.248325 0.254704
0.107149 0.251652 0.257450
0.248203 0.253910 0.256535
0.446815 0.252110 0.263218
0.639734 0.248386 0.273472
0.773068 0.254337 0.290684
0.891569 0.283238 0.324529
0.989563 0.360235 0.393103
0.000000 0.435096 0.311681
0.082582 0.442817 0.306859
0.249882 0.460426 0.265995
0.493172 0.482277 0.249516
0.662135 0.465339 0.286412
0.781247 0.449012 0.315526
0.895750 0.452674 0.351934
0.986847 0.491096 0.422065
0.000000 0.637507 0.342290
0.086824 0.639338 0.334325
0.272160 0.639673 0.294041
0.465034 0.621790 0.273747
0.666255 0.644160 0.262730
0.797696 0.611688 0.294560
0.898253 0.607630 0.386206
0.981537 0.622034 0.460670
0.182925 0.766903 0.374090
0.238285 0.766323 0.373877
0.335302 0.762051 0.350469
0.471504 0.746883 0.330358
0.619684 0.744015 0.312169
0.789151 0.762142 0.312963
0.911620 0.743008 0.352087
0.980407 0.735348 0.478096
0.373693 0.878874 0.458137
0.398840 0.877134 0.459907
0.435889 0.873259 0.436164
0.523522 0.863859 0.419959
0.627497 0.850004 0.394507
0.759457 0.859709 0.390936
0.896361 0.868864 0.404395
0.977020 0.840055 0.469184
0.552789 0.948150 0.574121
0.562249 0.947234 0.573785
0.573388 0.946807 0.555352
0.626917 0.943786 0.552270
0.692103 0.938354 0.540337
0.772335 0.933043 0.530358
0.862333 0.930510 0.538293
0.948577 0.924529 0.558404
0.000000 0.081758 0.408392
0.000000 0.038972 0.396551
0.226230 0.000000 0.373877
0.373877 0.000000 0.374273
0.565332 0.000000 0.397131
0.737575 0.000000 0.412390
0.872435 0.089357 0.443091
0.976440 0.354467 0.518822
0.000000 0.143587 0.431800
0.000000 0.108827 0.425666
0.228367 0.081697 0.396918
0.388891 0.000000 0.387854
0.578058 0.000000 0.401465
0.742275 0.000000 0.414557
0.872770 0.194247 0.451331
0.976196 0.372839 0.519249
0.000000 0.331273 0.480354
0.000000 0.321202 0.483406
0.154482 0.222934 0.457923
0.431220 0.199680 0.425055
0.617487 0.207279 0.420783
0.762112 0.291478 0.448127
0.884794 0.380591 0.493690
0.981659 0.412482 0.509606
0.000000 0.492195 0.488808
0.000000 0.493812 0.489693
0.216861 0.496071 0.490181
0.491920 0.486366 0.475685
0.655238 0.478370 0.474281
0.774716 0.475257 0.476661
0.887724 0.483742 0.489631
0.978363 0.521813 0.527184
0.000000 0.658961 0.510460
0.106264 0.658839 0.507713
0.325353 0.658106 0.501366
0.502312 0.652735 0.487007
0.673640 0.654475 0.467445
0.790097 0.630549 0.494209
0.892699 0.628107 0.518212
0.973999 0.641047 0.555261
0.238865 0.781949 0.518791
0.294377 0.783627 0.522698
0.413855 0.778134 0.524285
0.527550 0.769650 0.511223
0.637263 0.750729 0.479835
0.793668 0.769131 0.477089
0.907164 0.750088 0.497108
0.970336 0.751278 0.582055
0.410437 0.884794 0.562707
0.435401 0.884031 0.564996
0.505577 0.880491 0.569543
0.573358 0.874937 0.553399
0.654932 0.861631 0.526146
0.765866 0.860990 0.509331
0.895293 0.869718 0.514336
0.970825 0.841672 0.557366
0.577661 0.947997 0.640497
0.589654 0.947204 0.642267
0.624567 0.944335 0.645167
0.657099 0.942046 0.630671
0.709468 0.937194 0.615808
0.777462 0.930755 0.595850
0.863493 0.928985 0.602014
0.946441 0.923980 0.618097
0.000000 0.052735 0.606897
0.000000 0.000000 0.598718
0.215976 0.000000 0.578027
0.387549 0.000000 0.532555
0.557275 0.000000 0.537926
0.706050 0.000000 0.522423
0.846647 0.000000 0.520348
0.970764 0.211887 0.559838
0.000000 0.104799 0.619928
0.000000 0.090639 0.616052
0.193271 0.000000 0.594202
0.390936 0.000000 0.546288
0.566033 0.000000 0.545769
0.711360 0.000000 0.523796
0.849973 0.000000 0.523949
0.970214 0.269261 0.566491
0.000000 0.340002 0.658930
0.000000 0.314763 0.654353
0.000000 0.204440 0.634211
0.391455 0.156985 0.588251
0.592218 0.104768 0.568963
0.724025 0.119844 0.528130
0.857084 0.255711 0.542596
0.967163 0.402472 0.589044
0.000000 0.520409 0.675837
0.000000 0.516442 0.676814
0.000000 0.505394 0.678279
0.419837 0.449744 0.646540
0.631800 0.424353 0.602747
0.749538 0.442023 0.571252
0.869871 0.492378 0.594812
0.963836 0.561120 0.635706
0.000000 0.681636 0.671443
0.000000 0.682094 0.671260
0.287449 0.681392 0.668605
0.523522 0.676722 0.660639
0.674861 0.660121 0.640467
0.780423 0.645106 0.629816
0.883574 0.635645 0.624872
0.964996 0.646937 0.638483
0.299474 0.792233 0.666346
0.347814 0.790799 0.667170
0.454994 0.786496 0.664973
0.574670 0.780484 0.660548
0.668513 0.770199 0.636774
0.794034 0.772854 0.619348
0.895171 0.759030 0.636835
0.960510 0.759243 0.667750
0.456153 0.890715 0.681086
0.477211 0.889464 0.681514
0.539940 0.885832 0.682521
0.619104 0.880827 0.679927
0.685023 0.873259 0.654719
0.766476 0.857908 0.619043
0.891508 0.868589 0.619715
0.962493 0.840879 0.644800
0.598505 0.946075 0.714504
0.609033 0.945220 0.715145
0.642512 0.942443 0.717067
0.695888 0.938842 0.721492
0.736263 0.935149 0.705653
0.786313 0.929717 0.679896
0.862394 0.926329 0.670985
0.942901 0.922484 0.683009
0.000000 0.000000 0.754604
0.000000 0.000000 0.748623
0.104219 0.000000 0.733272
0.371191 0.000000 0.703273
0.521630 0.000000 0.650782
0.693935 0.000000 0.663203
0.828153 0.000000 0.638819
0.960052 0.000000 0.631952
0.000000 0.083223 0.758389
0.000000 0.063752 0.754421
0.000000 0.000000 0.739651
0.362615 0.000000 0.709407
0.522484 0.000000 0.656519
0.696559 0.000000 0.665644
0.829313 0.000000 0.638514
0.959808 0.000000 0.633295
0.000000 0.308415 0.785367
0.000000 0.279698 0.781765
0.000000 0.187381 0.768002
0.330205 0.140536 0.738430
0.529900 0.000000 0.683619
0.711574 0.000000 0.679622
0.837278 0.000000 0.643061
0.960662 0.223758 0.644373
0.000000 0.517571 0.821622
0.000000 0.513634 0.821897
0.000000 0.487037 0.808804
0.352941 0.427405 0.781521
0.563836 0.380804 0.727749
0.736599 0.375067 0.702846
0.848905 0.371283 0.659297
0.960540 0.451637 0.671687
0.000000 0.671229 0.815763
0.000000 0.672328 0.815854
0.251011 0.679194 0.814969
0.506157 0.690700 0.812375
0.636683 0.644068 0.777584
0.760922 0.599634 0.725429
0.862028 0.587274 0.693233
0.954986 0.633082 0.712581
0.141360 0.811582 0.803769
0.244022 0.812619 0.804288
0.416266 0.812833 0.802914
0.573938 0.811704 0.799405
0.698909 0.806332 0.790951
0.805173 0.789303 0.769741
0.887022 0.770840 0.753872
0.950286 0.768002 0.753201
0.489418 0.903563 0.801633
0.514397 0.902678 0.802487
0.582605 0.898436 0.803311
0.665278 0.892943 0.802548
0.739406 0.886961 0.794064
0.801389 0.875883 0.768704
0.890532 0.872160 0.744625
0.947478 0.853513 0.766262
0.634882 0.944488 0.800504
0.644648 0.943664 0.800778
0.676600 0.940948 0.801541
0.725490 0.936858 0.803220
0.779568 0.931609 0.803830
0.821714 0.926787 0.791562
0.865385 0.922423 0.759396
0.937957 0.920928 0.767941
0.000000 0.000000 0.875090
0.000000 0.000000 0.872557
0.000000 0.000000 0.862760
0.307378 0.000000 0.846250
0.502586 0.000000 0.814359
0.647974 0.000000 0.771756
0.812161 0.000000 0.779446
0.947173 0.000000 0.759976
0.000000 0.008118 0.873930
0.000000 0.000000 0.872496
0.000000 0.000000 0.864805
0.290715 0.000000 0.847868
0.496590 0.000000 0.815579
0.644678 0.000000 0.770291
0.810025 0.000000 0.777249
0.944213 0.000000 0.756558
0.000000 0.255802 0.887785
0.000000 0.221714 0.886503
0.000000 0.158389 0.879484
0.224949 0.105440 0.863188
0.483009 0.000000 0.831540
0.644953 0.000000 0.779782
0.819059 0.000000 0.786404
0.948058 0.000000 0.759487
0.000000 0.467414 0.903105
0.000000 0.459846 0.901549
0.000000 0.442267 0.895293
0.216800 0.378576 0.883787
0.491707 0.346319 0.856229
0.657221 0.261479 0.803189
0.832181 0.289250 0.799771
0.949615 0.307530 0.763668
0.000000 0.636439 0.905150
0.000000 0.638727 0.904723
0.211429 0.652064 0.903410
0.466163 0.661189 0.897124
0.578698 0.612451 0.878172
0.696803 0.541833 0.834073
0.842649 0.518730 0.810452
0.946960 0.509361 0.768490
0.075380 0.776394 0.897154
0.211429 0.778714 0.896849
0.397528 0.786252 0.895750
0.562402 0.797330 0.894285
0.700282 0.809049 0.892363
0.778805 0.779049 0.874998
0.864561 0.716823 0.834043
0.942443 0.705715 0.794797
0.421088 0.890806 0.888121
0.452522 0.891142 0.888121
0.536339 0.891630 0.887541
0.639521 0.892485 0.886595
0.745693 0.892851 0.884489
0.836728 0.891783 0.880583
0.894072 0.882170 0.867735
0.932677 0.870024 0.856138
0.627832 0.947539 0.873930
0.641169 0.946441 0.873991
0.687404 0.942779 0.874968
0.751461 0.936645 0.876371
0.818692 0.929381 0.879026
0.864591 0.924681 0.877989
0.893736 0.920348 0.869108
0.931731 0.919402 0.856596
0.000000 0.019318 0.940612
0.000000 0.000000 0.939971
0.000000 0.000000 0.936919
0.178439 0.000000 0.931670
0.433173 0.000000 0.923857
0.611810 0.000000 0.909514
0.767697 0.000000 0.896391
0.923033 0.000000 0.898802
0.000000 0.000000 0.940124
0.000000 0.000000 0.939483
0.000000 0.000000 0.936553
0.145022 0.000000 0.932128
0.424567 0.000000 0.924346
0.607874 0.000000 0.909911
0.765560 0.000000 0.895567
0.922087 0.000000 0.897795
0.000000 0.175601 0.941497
0.000000 0.129183 0.941497
0.000000 0.098146 0.939208
0.000000 0.000000 0.935515
0.394934 0.000000 0.927855
0.595850 0.000000 0.913664
0.761563 0.000000 0.897032
0.922789 0.000000 0.898619
0.000000 0.391424 0.942596
0.000000 0.384741 0.942382
0.000000 0.349828 0.941466
0.000000 0.289158 0.939178
0.373266 0.277653 0.932006
0.587915 0.228977 0.919493
0.757748 0.024414 0.900298
0.924193 0.179660 0.900420
0.000000 0.566552 0.942229
0.000000 0.565515 0.941924
0.000000 0.565820 0.940093
0.311040 0.571160 0.936004
0.479591 0.548150 0.930907
0.624109 0.509300 0.921538
0.760433 0.408362 0.902586
0.924346 0.444617 0.900938
0.000000 0.707240 0.935271
0.000000 0.710536 0.934783
0.291539 0.722805 0.933135
0.495583 0.743679 0.930480
0.648005 0.763180 0.926726
0.724880 0.739223 0.920897
0.794278 0.667567 0.909697
0.925048 0.646296 0.902464
0.348150 0.829740 0.926818
0.383886 0.831357 0.926452
0.481270 0.836759 0.925200
0.601678 0.845975 0.923339
0.727474 0.860746 0.920806
0.838773 0.881956 0.917906
0.882475 0.877256 0.912688
0.923033 0.829038 0.901213
0.563287 0.919799 0.918914
0.578820 0.919860 0.918700
0.630793 0.920165 0.918120
0.711543 0.920958 0.917235
0.798276 0.921874 0.915953
0.869169 0.922942 0.914855
0.910796 0.923705 0.914153
0.930144 0.921294 0.910613
