其他预设/【233】日式怀旧街道调色预设208款/1.3D LUT预设（视频调色-PR-AE-PS-FCPX-达芬奇用）/1.日式城市街拍预设/JA – Neon 1.cube
# Created by Adobe Lightroom plugin Export LUT (1.17.0)
# www.johnrellis.com/lightroom/exportlut.htm
# Preset: JA – Neon 1
# Color profile: /Library/Application Support/Adobe/Color/Profiles/Recommended/AdobeRGB1998.icc
LUT_3D_SIZE 32
0.091188 0.081727 0.082094
0.091188 0.081727 0.082094
0.093874 0.081209 0.082033
0.103029 0.079957 0.082460
0.114687 0.078889 0.082429
0.128634 0.077790 0.082216
0.145968 0.076783 0.082094
0.167422 0.075349 0.081300
0.192660 0.073091 0.080385
0.221592 0.070680 0.078767
0.253849 0.067384 0.076448
0.289433 0.064118 0.072969
0.327672 0.060761 0.068055
0.368048 0.051759 0.062684
0.410193 0.035615 0.053407
0.453559 0.016297 0.034485
0.497932 0.000000 0.009247
0.543297 0.000000 0.000000
0.589288 0.000000 0.000000
0.643336 0.000000 0.000000
0.695613 0.000000 0.000000
0.744869 0.000000 0.000000
0.790249 0.000000 0.000000
0.831693 0.000000 0.000000
0.869383 0.000000 0.000000
0.903655 0.000000 0.000000
0.934478 0.000000 0.000000
0.961608 0.000000 0.000000
0.985504 0.000000 0.000000
1.000000 0.000000 0.000000
1.000000 0.000000 0.000000
1.000000 0.000000 0.000000
0.091188 0.081727 0.082094
0.091188 0.081727 0.082094
0.094179 0.081483 0.082002
0.103487 0.081575 0.082002
0.114748 0.080964 0.082246
0.128664 0.080293 0.082033
0.146151 0.079561 0.081849
0.167422 0.078218 0.081056
0.192782 0.076783 0.080079
0.221592 0.074952 0.078126
0.253696 0.072389 0.076112
0.289128 0.069978 0.072206
0.327276 0.067567 0.067597
0.367468 0.062348 0.062623
0.409186 0.054658 0.052552
0.452430 0.037812 0.033509
0.496681 0.017182 0.008392
0.541772 0.000000 0.000000
0.587610 0.000000 0.000000
0.641291 0.000000 0.000000
0.692836 0.000000 0.000000
0.741634 0.000000 0.000000
0.786893 0.000000 0.000000
0.828458 0.000000 0.000000
0.866423 0.000000 0.000000
0.901061 0.000000 0.000000
0.932250 0.000000 0.000000
0.959777 0.000000 0.000000
0.983978 0.000000 0.000000
1.000000 0.000000 0.000000
1.000000 0.000000 0.000000
1.000000 0.000000 0.000000
0.090822 0.084779 0.081849
0.090700 0.085420 0.082094
0.094331 0.085420 0.081666
0.103426 0.084901 0.081727
0.114961 0.084565 0.081636
0.129030 0.083833 0.081727
0.146334 0.083223 0.081239
0.167880 0.082216 0.080415
0.193118 0.081209 0.079377
0.221958 0.080110 0.077668
0.254093 0.078798 0.075196
0.289616 0.077180 0.071565
0.327581 0.075196 0.067292
0.367742 0.071839 0.061707
0.409583 0.066957 0.050721
0.452613 0.061128 0.030854
0.496742 0.049928 0.005585
0.541802 0.032502 0.000000
0.587579 0.011810 0.000000
0.641169 0.000000 0.000000
0.692287 0.000000 0.000000
0.740719 0.000000 0.000000
0.785855 0.000000 0.000000
0.827268 0.000000 0.000000
0.865324 0.000000 0.000000
0.899992 0.000000 0.000000
0.931304 0.000000 0.000000
0.958984 0.000000 0.000000
0.983307 0.000000 0.000000
1.000000 0.000000 0.000000
1.000000 0.000000 0.000000
1.000000 0.000000 0.000000
0.089509 0.094026 0.081361
0.089540 0.094331 0.081025
0.094179 0.094148 0.080903
0.103334 0.093690 0.080629
0.115206 0.092470 0.080629
0.129976 0.091035 0.080751
0.147646 0.090944 0.080507
0.169406 0.090761 0.079530
0.194949 0.090547 0.078370
0.224002 0.090547 0.076539
0.256077 0.090761 0.073793
0.291783 0.090608 0.069917
0.329625 0.090028 0.065766
0.369757 0.088411 0.059876
0.411505 0.086061 0.046815
0.454597 0.083162 0.026184
0.498543 0.079744 0.000000
0.543359 0.076051 0.000000
0.590234 0.071778 0.000000
0.642115 0.066682 0.000000
0.691920 0.060578 0.000000
0.739528 0.049500 0.000000
0.784482 0.037232 0.000000
0.826200 0.023835 0.000000
0.864775 0.014221 0.000000
0.899901 0.000763 0.000000
0.931518 0.000000 0.000000
0.959289 0.000000 0.000000
0.983520 0.000000 0.000000
1.000000 0.000000 0.000000
1.000000 0.000000 0.000000
1.000000 0.014496 0.000000
0.087648 0.105440 0.080537
0.088441 0.105592 0.079866
0.093111 0.105684 0.079683
0.102358 0.105287 0.079438
0.114626 0.104433 0.079042
0.129915 0.103670 0.078798
0.148928 0.102968 0.078523
0.171695 0.103212 0.077729
0.197452 0.104341 0.076356
0.226627 0.105623 0.074220
0.259129 0.107149 0.071168
0.294865 0.108431 0.067536
0.332738 0.108858 0.063416
0.373022 0.109316 0.055543
0.414862 0.109316 0.038636
0.458045 0.108888 0.015900
0.502342 0.107820 0.000000
0.547326 0.107149 0.000000
0.596002 0.106233 0.000000
0.646357 0.104829 0.000000
0.695033 0.103487 0.000000
0.741787 0.101900 0.000000
0.785946 0.100221 0.000000
0.827237 0.098116 0.000000
0.865446 0.095460 0.000000
0.900389 0.092958 0.000000
0.931731 0.090425 0.000000
0.959258 0.087892 0.000000
0.983368 0.086732 0.000000
1.000000 0.085847 0.000000
1.000000 0.086275 0.000000
1.000000 0.089296 0.000000
0.084810 0.119966 0.079438
0.087098 0.120150 0.078035
0.091920 0.120027 0.077913
0.101808 0.120027 0.077577
0.115145 0.119570 0.077119
0.129946 0.118990 0.076539
0.149050 0.119692 0.075746
0.172976 0.120638 0.074739
0.201328 0.121981 0.073304
0.231693 0.124269 0.070741
0.264561 0.126894 0.067781
0.300328 0.129122 0.064057
0.338598 0.131411 0.059022
0.379095 0.133486 0.046021
0.421149 0.135103 0.025910
0.464424 0.136233 0.000732
0.508904 0.137301 0.000000
0.553765 0.137942 0.000000
0.604303 0.139742 0.000000
0.653651 0.140780 0.000000
0.701289 0.141512 0.000000
0.747341 0.141421 0.000000
0.814664 0.145907 0.000000
0.853239 0.144717 0.000000
0.888121 0.143740 0.000000
0.919402 0.141054 0.000000
0.947051 0.138888 0.000000
0.971313 0.136355 0.000000
0.992767 0.134432 0.000000
1.000000 0.132937 0.000000
1.000000 0.132387 0.000000
1.000000 0.132906 0.000000
0.081270 0.140536 0.075074
0.085328 0.140688 0.074922
0.091218 0.140688 0.074739
0.102327 0.140902 0.074281
0.117952 0.141085 0.073579
0.134524 0.140444 0.072877
0.152407 0.139712 0.071962
0.175509 0.142153 0.070253
0.204501 0.145205 0.068971
0.238315 0.148257 0.066224
0.276036 0.151308 0.062806
0.312932 0.155245 0.056947
0.351934 0.158663 0.045472
0.392920 0.161868 0.025757
0.434913 0.164797 0.002411
0.477943 0.167147 0.000000
0.521935 0.169528 0.000000
0.570367 0.172671 0.000000
0.620630 0.175753 0.000000
0.669581 0.178103 0.000000
0.717739 0.180392 0.000000
0.764767 0.181827 0.000000
0.809140 0.182925 0.000000
0.849882 0.182498 0.000000
0.886595 0.181857 0.000000
0.918730 0.179873 0.000000
0.946654 0.177829 0.000000
0.970855 0.175235 0.000000
0.992218 0.172580 0.000000
1.000000 0.170169 0.000000
1.000000 0.168246 0.000000
1.000000 0.167117 0.000000
0.078676 0.164309 0.071534
0.084016 0.164370 0.071351
0.089967 0.164645 0.070741
0.102754 0.164706 0.070253
0.119661 0.165133 0.069734
0.138857 0.165377 0.068971
0.158114 0.164614 0.067872
0.178408 0.164065 0.067170
0.204410 0.167483 0.064332
0.237858 0.172488 0.061524
0.275975 0.177798 0.055787
0.318181 0.182712 0.042359
0.361089 0.187137 0.023865
0.402075 0.191379 0.003296
0.444190 0.195438 0.000000
0.487434 0.198978 0.000000
0.533104 0.202976 0.000000
0.582605 0.207492 0.000000
0.630549 0.211337 0.000000
0.677516 0.214054 0.000000
0.724086 0.217014 0.000000
0.769497 0.218692 0.000000
0.812406 0.219760 0.000000
0.852049 0.219883 0.000000
0.887816 0.219120 0.000000
0.919341 0.217716 0.000000
0.946715 0.214817 0.000000
0.970672 0.211917 0.000000
0.991791 0.208682 0.000000
1.000000 0.205509 0.000000
1.000000 0.202731 0.000000
1.000000 0.200290 0.000000
0.074220 0.192294 0.066773
0.080232 0.192569 0.066529
0.087160 0.192721 0.066224
0.101686 0.193271 0.065522
0.120668 0.193820 0.064851
0.142580 0.194553 0.063203
0.164462 0.194553 0.062348
0.186435 0.193851 0.060548
0.209476 0.193423 0.058686
0.238224 0.197543 0.051270
0.276249 0.205112 0.039124
0.318303 0.212222 0.021271
0.364019 0.218936 0.000000
0.412726 0.224552 0.000000
0.456611 0.229068 0.000000
0.501152 0.234195 0.000000
0.549493 0.240177 0.000000
0.597192 0.245304 0.000000
0.642908 0.248783 0.000000
0.688075 0.251835 0.000000
0.732937 0.254520 0.000000
0.776638 0.256504 0.000000
0.817929 0.257603 0.000000
0.856199 0.257511 0.000000
0.890745 0.256321 0.000000
0.921294 0.254093 0.000000
0.947967 0.251347 0.000000
0.971283 0.247684 0.000000
0.991974 0.243931 0.000000
1.000000 0.240055 0.000000
1.000000 0.236301 0.000000
1.000000 0.232853 0.000000
0.065736 0.224796 0.059297
0.073457 0.225010 0.058991
0.082551 0.225284 0.058503
0.099641 0.225925 0.056703
0.121126 0.226596 0.054078
0.145541 0.227543 0.051209
0.171389 0.228641 0.047303
0.195346 0.228336 0.043030
0.219974 0.227848 0.037690
0.245335 0.227512 0.031006
0.276158 0.231724 0.017700
0.318273 0.241520 0.000000
0.363806 0.250431 0.000000
0.412146 0.258427 0.000000
0.465583 0.267002 0.000000
0.520867 0.274784 0.000000
0.568353 0.280980 0.000000
0.614435 0.285679 0.000000
0.658320 0.289189 0.000000
0.701595 0.291569 0.000000
0.744167 0.293797 0.000000
0.785336 0.295262 0.000000
0.824186 0.295537 0.000000
0.860258 0.294896 0.000000
0.893248 0.293156 0.000000
0.922759 0.290501 0.000000
0.948760 0.287144 0.000000
0.971771 0.282841 0.000000
0.992157 0.278386 0.000000
1.000000 0.273777 0.000000
1.000000 0.269413 0.000000
1.000000 0.265110 0.000000
0.045136 0.260960 0.035645
0.061677 0.261082 0.034821
0.073762 0.261540 0.033448
0.094972 0.262211 0.030640
0.120424 0.263371 0.026093
0.147494 0.264591 0.021271
0.176028 0.266270 0.014496
0.204532 0.267613 0.006806
0.231418 0.267155 0.000000
0.258488 0.267033 0.000000
0.286229 0.266911 0.000000
0.318578 0.270542 0.000000
0.364782 0.283268 0.000000
0.415991 0.295323 0.000000
0.469703 0.306310 0.000000
0.525048 0.315831 0.000000
0.581384 0.323552 0.000000
0.630762 0.328008 0.000000
0.672786 0.330541 0.000000
0.714260 0.332433 0.000000
0.755123 0.334020 0.000000
0.794430 0.334661 0.000000
0.831754 0.334508 0.000000
0.866300 0.333135 0.000000
0.897826 0.330724 0.000000
0.925963 0.327306 0.000000
0.950835 0.322972 0.000000
0.972930 0.317998 0.000000
0.992676 0.312810 0.000000
1.000000 0.307439 0.000000
1.000000 0.301915 0.000000
1.000000 0.296818 0.000000
0.000000 0.301732 0.000000
0.020020 0.302068 0.000000
0.056062 0.302403 0.000000
0.086244 0.303166 0.000000
0.116854 0.304509 0.000000
0.147982 0.305943 0.000000
0.179690 0.308049 0.000000
0.212161 0.310674 0.000000
0.242954 0.311406 0.000000
0.272251 0.311406 0.000000
0.301884 0.311254 0.000000
0.334478 0.313756 0.000000
0.383459 0.330327 0.000000
0.437140 0.347326 0.000000
0.492164 0.360296 0.000000
0.548516 0.371496 0.000000
0.604425 0.380194 0.000000
0.657343 0.384985 0.000000
0.706905 0.386389 0.000000
0.746914 0.385901 0.000000
0.783902 0.384771 0.000000
0.819150 0.383001 0.000000
0.852262 0.380316 0.000000
0.883055 0.376806 0.000000
0.911192 0.372595 0.000000
0.936370 0.367407 0.000000
0.958770 0.361456 0.000000
0.978820 0.355077 0.000000
0.996918 0.348760 0.000000
1.000000 0.342107 0.000000
1.000000 0.335607 0.000000
1.000000 0.329381 0.000000
0.000000 0.351141 0.000000
0.000000 0.351598 0.000000
0.000000 0.351659 0.000000
0.070954 0.352209 0.000000
0.111238 0.353185 0.000000
0.147646 0.354284 0.000000
0.183047 0.356176 0.000000
0.218753 0.358618 0.000000
0.255344 0.361975 0.000000
0.289555 0.365209 0.000000
0.324590 0.368688 0.000000
0.360418 0.372107 0.000000
0.396979 0.375494 0.000000
0.433631 0.378393 0.000000
0.491279 0.398474 0.000000
0.547326 0.411688 0.000000
0.602747 0.421881 0.000000
0.654780 0.427588 0.000000
0.704005 0.430030 0.000000
0.751278 0.430213 0.000000
0.794095 0.427771 0.000000
0.827512 0.424628 0.000000
0.858854 0.420600 0.000000
0.888090 0.415961 0.000000
0.914763 0.410437 0.000000
0.938720 0.404181 0.000000
0.960174 0.397284 0.000000
0.979522 0.390112 0.000000
0.997101 0.382696 0.000000
1.000000 0.375189 0.000000
1.000000 0.367864 0.000000
1.000000 0.360693 0.000000
0.000000 0.398566 0.000000
0.000000 0.398840 0.000000
0.000000 0.399115 0.000000
0.021729 0.399634 0.000000
0.099611 0.400519 0.000000
0.143282 0.402838 0.000000
0.184085 0.406378 0.000000
0.224002 0.410681 0.000000
0.264408 0.416022 0.000000
0.304143 0.421149 0.000000
0.340642 0.423651 0.000000
0.377783 0.426551 0.000000
0.415137 0.429206 0.000000
0.452491 0.431342 0.000000
0.489357 0.432746 0.000000
0.545617 0.451118 0.000000
0.600214 0.462348 0.000000
0.651637 0.469429 0.000000
0.700618 0.472724 0.000000
0.747677 0.473976 0.000000
0.792050 0.472297 0.000000
0.833005 0.468116 0.000000
0.866423 0.462135 0.000000
0.894072 0.456092 0.000000
0.919249 0.449256 0.000000
0.941924 0.441566 0.000000
0.962341 0.433570 0.000000
0.980896 0.425238 0.000000
0.997803 0.416815 0.000000
1.000000 0.408545 0.000000
1.000000 0.400183 0.000000
1.000000 0.392248 0.000000
0.000000 0.454475 0.000000
0.000000 0.454902 0.000000
0.000000 0.455238 0.000000
0.000000 0.456306 0.000000
0.079561 0.457679 0.000000
0.136690 0.459754 0.000000
0.183627 0.462501 0.000000
0.227420 0.466011 0.000000
0.270268 0.470680 0.000000
0.313939 0.476661 0.000000
0.354314 0.480507 0.000000
0.392889 0.482918 0.000000
0.431556 0.485206 0.000000
0.470039 0.486915 0.000000
0.507897 0.487861 0.000000
0.544732 0.487770 0.000000
0.598108 0.503166 0.000000
0.649073 0.510826 0.000000
0.697658 0.515160 0.000000
0.744533 0.517113 0.000000
0.788693 0.516228 0.000000
0.829557 0.512535 0.000000
0.866453 0.506035 0.000000
0.899351 0.497047 0.000000
0.923857 0.488350 0.000000
0.945403 0.479469 0.000000
0.964965 0.470161 0.000000
0.982849 0.460883 0.000000
0.999268 0.451514 0.000000
1.000000 0.442267 0.000000
1.000000 0.433112 0.000000
1.000000 0.424109 0.000000
0.000000 0.512963 0.000000
0.000000 0.513603 0.000000
0.000000 0.514000 0.000000
0.000000 0.514977 0.000000
0.014191 0.516411 0.000000
0.125307 0.518578 0.000000
0.179629 0.521386 0.000000
0.228153 0.525017 0.000000
0.274784 0.529473 0.000000
0.320806 0.534630 0.000000
0.366827 0.540612 0.000000
0.406744 0.541863 0.000000
0.445747 0.542473 0.000000
0.484321 0.542626 0.000000
0.522332 0.542138 0.000000
0.559503 0.541222 0.000000
0.596033 0.539696 0.000000
0.645899 0.551446 0.000000
0.694820 0.557275 0.000000
0.742061 0.560357 0.000000
0.786435 0.560357 0.000000
0.827512 0.557244 0.000000
0.864561 0.551019 0.000000
0.897551 0.542321 0.000000
0.926207 0.530968 0.000000
0.950042 0.518425 0.000000
0.968444 0.507774 0.000000
0.985351 0.497108 0.000000
1.000000 0.486519 0.000000
1.000000 0.476112 0.000000
1.000000 0.465705 0.000000
1.000000 0.455726 0.000000
0.000000 0.569268 0.000000
0.000000 0.569482 0.000000
0.000000 0.569848 0.000000
0.000000 0.570550 0.000000
0.000000 0.571832 0.000000
0.103182 0.573541 0.000000
0.170077 0.575952 0.000000
0.224338 0.578790 0.000000
0.273899 0.582422 0.000000
0.321996 0.586694 0.000000
0.369146 0.591882 0.000000
0.414527 0.595911 0.000000
0.454536 0.596094 0.000000
0.493904 0.595727 0.000000
0.532555 0.594659 0.000000
0.570275 0.593072 0.000000
0.607202 0.590967 0.000000
0.643946 0.588861 0.000000
0.691737 0.598169 0.000000
0.738491 0.602502 0.000000
0.782864 0.602899 0.000000
0.823880 0.600183 0.000000
0.861082 0.594415 0.000000
0.894224 0.585748 0.000000
0.923125 0.574609 0.000000
0.948058 0.561212 0.000000
0.969635 0.546532 0.000000
0.987091 0.533074 0.000000
1.000000 0.521263 0.000000
1.000000 0.509697 0.000000
1.000000 0.498390 0.000000
1.000000 0.487312 0.000000
0.000000 0.622889 0.000000
0.000000 0.623468 0.000000
0.000000 0.639124 0.000000
0.000000 0.639704 0.000000
0.000000 0.640406 0.000000
0.064698 0.641382 0.000000
0.159121 0.642786 0.000000
0.220493 0.644526 0.000000
0.275242 0.646876 0.000000
0.325780 0.649989 0.000000
0.374945 0.653620 0.000000
0.423224 0.657557 0.000000
0.467170 0.658320 0.000000
0.507256 0.656825 0.000000
0.546746 0.654871 0.000000
0.585290 0.652430 0.000000
0.623133 0.649714 0.000000
0.660304 0.646632 0.000000
0.696956 0.643610 0.000000
0.742641 0.649928 0.000000
0.785306 0.650690 0.000000
0.825406 0.647211 0.000000
0.861906 0.640681 0.000000
0.894255 0.631342 0.000000
0.922332 0.619165 0.000000
0.946563 0.605066 0.000000
0.967681 0.589532 0.000000
0.986297 0.573175 0.000000
1.000000 0.556542 0.000000
1.000000 0.543359 0.000000
1.000000 0.530968 0.000000
1.000000 0.518822 0.000000
0.000000 0.677241 0.000000
0.000000 0.679347 0.000000
0.000000 0.681605 0.000000
0.000000 0.683833 0.000000
0.000000 0.685878 0.000000
0.000000 0.687404 0.000000
0.137270 0.688899 0.000000
0.208408 0.690455 0.000000
0.266148 0.692500 0.000000
0.319097 0.694911 0.000000
0.369390 0.697749 0.000000
0.418555 0.700893 0.000000
0.466682 0.704005 0.000000
0.508019 0.702571 0.000000
0.547906 0.700374 0.000000
0.586969 0.697719 0.000000
0.625299 0.694972 0.000000
0.662989 0.691829 0.000000
0.700313 0.688899 0.000000
0.737484 0.686122 0.000000
0.781704 0.690791 0.000000
0.821408 0.689509 0.000000
0.858122 0.683284 0.000000
0.890806 0.673915 0.000000
0.919188 0.661738 0.000000
0.943725 0.647303 0.000000
0.965087 0.631403 0.000000
0.983886 0.614771 0.000000
1.000000 0.597620 0.000000
1.000000 0.580072 0.000000
1.000000 0.563561 0.000000
1.000000 0.550469 0.000000
0.000000 0.723018 0.000000
0.000000 0.724849 0.000000
0.000000 0.726833 0.000000
0.000000 0.728725 0.000000
0.000000 0.730465 0.000000
0.000000 0.731716 0.000000
0.108797 0.732753 0.000000
0.191928 0.734096 0.000000
0.255192 0.735653 0.000000
0.310430 0.737453 0.000000
0.362280 0.739834 0.000000
0.411963 0.742245 0.000000
0.460365 0.744503 0.000000
0.506157 0.745724 0.000000
0.546715 0.743404 0.000000
0.586175 0.740719 0.000000
0.624933 0.737881 0.000000
0.662989 0.734859 0.000000
0.700679 0.731807 0.000000
0.738247 0.729000 0.000000
0.775479 0.726253 0.000000
0.818570 0.729793 0.000000
0.854734 0.725887 0.000000
0.887510 0.716457 0.000000
0.916075 0.703944 0.000000
0.940734 0.689174 0.000000
0.962219 0.672877 0.000000
0.981170 0.655634 0.000000
0.998016 0.637842 0.000000
1.000000 0.619989 0.000000
1.000000 0.601862 0.000000
1.000000 0.583734 0.000000
0.000000 0.765866 0.000000
0.000000 0.767483 0.000000
0.000000 0.769131 0.000000
0.000000 0.770748 0.000000
0.000000 0.772122 0.000000
0.000000 0.773068 0.000000
0.055512 0.773922 0.000000
0.171908 0.774807 0.000000
0.240940 0.775784 0.000000
0.299077 0.777066 0.000000
0.352270 0.778683 0.000000
0.402838 0.780301 0.000000
0.451606 0.781918 0.000000
0.499245 0.783474 0.000000
0.542473 0.782773 0.000000
0.582513 0.780484 0.000000
0.621942 0.778073 0.000000
0.660975 0.775753 0.000000
0.699550 0.773373 0.000000
0.737911 0.771176 0.000000
0.775998 0.769039 0.000000
0.813901 0.766964 0.000000
0.856260 0.769497 0.000000
0.888182 0.762264 0.000000
0.916533 0.749020 0.000000
0.940978 0.733425 0.000000
0.962280 0.716182 0.000000
0.980987 0.698116 0.000000
0.997620 0.679500 0.000000
1.000000 0.660761 0.000000
1.000000 0.641871 0.000000
1.000000 0.622980 0.000000
0.000000 0.810605 0.000000
0.000000 0.811307 0.000000
0.000000 0.811887 0.000000
0.000000 0.812467 0.000000
0.000000 0.813016 0.000000
0.000000 0.813382 0.000000
0.000000 0.813840 0.000000
0.145968 0.814481 0.000000
0.224430 0.815366 0.000000
0.286687 0.816312 0.000000
0.341650 0.817502 0.000000
0.393378 0.818631 0.000000
0.442969 0.819669 0.000000
0.490547 0.820493 0.000000
0.537316 0.821134 0.000000
0.577783 0.818906 0.000000
0.617395 0.816281 0.000000
0.656367 0.813626 0.000000
0.694850 0.810971 0.000000
0.732906 0.808255 0.000000
0.770535 0.805570 0.000000
0.807767 0.802823 0.000000
0.844785 0.799893 0.000000
0.885679 0.801266 0.000000
0.913054 0.790799 0.000000
0.937621 0.774716 0.000000
0.959106 0.756954 0.000000
0.978058 0.738308 0.000000
0.994842 0.719142 0.000000
1.000000 0.699794 0.000000
1.000000 0.680293 0.000000
1.000000 0.660883 0.000000
0.000000 0.845487 0.000000
0.000000 0.846067 0.000000
0.000000 0.846647 0.000000
0.000000 0.847044 0.000000
0.000000 0.847318 0.000000
0.000000 0.847471 0.000000
0.000000 0.847623 0.000000
0.111116 0.847807 0.000000
0.204166 0.848203 0.000000
0.270481 0.848600 0.000000
0.327642 0.849180 0.000000
0.380438 0.849699 0.000000
0.429908 0.850126 0.000000
0.478065 0.850370 0.000000
0.524376 0.850553 0.000000
0.568627 0.849973 0.000000
0.608118 0.847471 0.000000
0.647028 0.844938 0.000000
0.685389 0.842313 0.000000
0.723323 0.839658 0.000000
0.760922 0.836942 0.000000
0.798032 0.834195 0.000000
0.834775 0.831357 0.000000
0.871153 0.828336 0.000000
0.907439 0.825650 0.000000
0.933410 0.814694 0.000000
0.955169 0.796811 0.000000
0.974365 0.777707 0.000000
0.991394 0.758053 0.000000
1.000000 0.738125 0.000000
1.000000 0.718135 0.000000
1.000000 0.698268 0.000000
0.000000 0.879576 0.000000
0.000000 0.880125 0.000000
0.000000 0.880400 0.000000
0.000000 0.880491 0.000000
0.000000 0.880400 0.000000
0.000000 0.880186 0.000000
0.000000 0.879789 0.000000
0.037476 0.879393 0.000000
0.180606 0.879057 0.000000
0.252750 0.878691 0.000000
0.312230 0.878325 0.000000
0.365850 0.878019 0.000000
0.415900 0.877623 0.000000
0.463874 0.877073 0.000000
0.509972 0.876341 0.000000
0.554650 0.875486 0.000000
0.595697 0.873411 0.000000
0.634241 0.870573 0.000000
0.672175 0.867918 0.000000
0.709804 0.865263 0.000000
0.747005 0.862638 0.000000
0.783780 0.859892 0.000000
0.820096 0.856901 0.000000
0.855772 0.853605 0.000000
0.890898 0.850095 0.000000
0.926513 0.847318 0.000000
0.952056 0.836515 0.000000
0.971160 0.817380 0.000000
0.988281 0.797024 0.000000
1.000000 0.776455 0.000000
1.000000 0.755886 0.000000
1.000000 0.735256 0.000000
0.000000 0.904967 0.000000
0.000000 0.905394 0.000000
0.000000 0.905638 0.000000
0.000000 0.905638 0.000000
0.000000 0.905455 0.000000
0.000000 0.905119 0.000000
0.000000 0.904692 0.000000
0.000000 0.904204 0.000000
0.151614 0.903746 0.000000
0.231907 0.903319 0.000000
0.294347 0.902800 0.000000
0.349798 0.902251 0.000000
0.400641 0.901640 0.000000
0.448615 0.900816 0.000000
0.494606 0.899840 0.000000
0.539055 0.898741 0.000000
0.582544 0.897459 0.000000
0.621241 0.894865 0.000000
0.658930 0.892180 0.000000
0.696162 0.889525 0.000000
0.732937 0.886778 0.000000
0.769192 0.883940 0.000000
0.805051 0.880888 0.000000
0.840391 0.877653 0.000000
0.875212 0.874174 0.000000
0.909453 0.870512 0.000000
0.943359 0.866697 0.000000
0.968811 0.856229 0.000000
0.985809 0.836393 0.000000
1.000000 0.815091 0.000000
1.000000 0.793851 0.000000
1.000000 0.772427 0.000000
0.000000 0.927764 0.000000
0.000000 0.927947 0.000000
0.000000 0.928008 0.000000
0.000000 0.927855 0.000000
0.000000 0.927489 0.000000
0.000000 0.926970 0.000000
0.000000 0.926390 0.000000
0.000000 0.925750 0.000000
0.112612 0.925078 0.000000
0.208255 0.924468 0.000000
0.274876 0.923705 0.000000
0.331670 0.923003 0.000000
0.383398 0.922148 0.000000
0.431800 0.921141 0.000000
0.477729 0.919921 0.000000
0.522210 0.918486 0.000000
0.565240 0.916930 0.000000
0.606256 0.915099 0.000000
0.643549 0.912413 0.000000
0.680354 0.909758 0.000000
0.716670 0.907042 0.000000
0.752529 0.904173 0.000000
0.787869 0.901183 0.000000
0.822721 0.898009 0.000000
0.857115 0.894591 0.000000
0.890990 0.891051 0.000000
0.924529 0.887297 0.000000
0.957610 0.883421 0.000000
0.982635 0.873136 0.000000
0.998047 0.853025 0.000000
1.000000 0.831113 0.000000
1.000000 0.809049 0.000000
0.000000 0.946685 0.000000
0.000000 0.946746 0.000000
0.000000 0.946746 0.000000
0.000000 0.946593 0.000000
0.000000 0.946319 0.000000
0.000000 0.945983 0.000000
0.000000 0.945678 0.000000
0.000000 0.945373 0.000000
0.026276 0.945098 0.000000
0.181155 0.944732 0.000000
0.254185 0.944274 0.000000
0.313787 0.943694 0.000000
0.366552 0.942931 0.000000
0.415412 0.941924 0.000000
0.461738 0.940642 0.000000
0.506126 0.939086 0.000000
0.549004 0.937316 0.000000
0.590631 0.935454 0.000000
0.629358 0.933135 0.000000
0.665705 0.930449 0.000000
0.701656 0.927703 0.000000
0.737026 0.924834 0.000000
0.771969 0.921782 0.000000
0.806455 0.918578 0.000000
0.840421 0.915190 0.000000
0.873899 0.911681 0.000000
0.907042 0.907988 0.000000
0.939788 0.904173 0.000000
0.972107 0.900298 0.000000
0.997009 0.890349 0.000000
1.000000 0.869780 0.000000
1.000000 0.846616 0.000000
0.000000 0.965728 0.000000
0.000000 0.965698 0.000000
0.000000 0.965637 0.000000
0.000000 0.965362 0.000000
0.000000 0.964935 0.000000
0.000000 0.964446 0.000000
0.000000 0.963867 0.000000
0.000000 0.963256 0.000000
0.000000 0.962585 0.000000
0.148775 0.961822 0.000000
0.230838 0.960937 0.000000
0.293278 0.959930 0.000000
0.347539 0.958770 0.000000
0.396796 0.957458 0.000000
0.443366 0.955901 0.000000
0.487587 0.954223 0.000000
