其他预设/【233】日式怀旧街道调色预设208款/1.3D LUT预设（视频调色-PR-AE-PS-FCPX-达芬奇用）/1.日式城市街拍预设/JA – Night Pop 4.cube
# Created by Adobe Lightroom plugin Export LUT (1.17.0)
# www.johnrellis.com/lightroom/exportlut.htm
# Preset: JA – Night Pop 4
# Color profile: /Library/Application Support/Adobe/Color/Profiles/Recommended/AdobeRGB1998.icc
LUT_3D_SIZE 8
DOMAIN_MIN 0.000000 0.000000 0.000000
DOMAIN_MAX 0.903226 0.903226 0.903226
0.064302 0.069642 0.075319
0.111360 0.057954 0.075959
0.348363 0.000000 0.050019
0.554589 0.000000 0.000000
0.747311 0.000000 0.000000
0.919402 0.000000 0.000000
1.000000 0.000000 0.000000
1.000000 0.000000 0.000000
0.059602 0.094026 0.073121
0.092805 0.093111 0.076509
0.315496 0.121279 0.026490
0.531884 0.111666 0.000000
0.716548 0.090700 0.000000
0.886137 0.000000 0.000000
1.000000 0.000000 0.000000
1.000000 0.000000 0.000000
0.000000 0.227787 0.018982
0.088838 0.235294 0.005310
0.223087 0.209445 0.054566
0.499825 0.294987 0.000000
0.705715 0.295659 0.000000
0.888182 0.279118 0.000000
1.000000 0.245151 0.000000
1.000000 0.191836 0.000000
0.000000 0.443519 0.000000
0.000000 0.444434 0.000000
0.295842 0.452857 0.000000
0.461158 0.422095 0.000000
0.690333 0.459815 0.000000
0.880186 0.454963 0.000000
1.000000 0.413245 0.000000
1.000000 0.356451 0.000000
0.000000 0.589319 0.029755
0.000000 0.592157 0.000000
0.229038 0.600855 0.000000
0.466255 0.597681 0.000000
0.584863 0.529412 0.000000
0.802670 0.568139 0.000000
0.960082 0.571374 0.149081
1.000000 0.516777 0.000000
0.000000 0.743832 0.000000
0.000000 0.760739 0.000000
0.000000 0.765438 0.000000
0.435096 0.772763 0.000000
0.628992 0.730922 0.000000
0.744472 0.665064 0.000000
0.930236 0.691066 0.194522
1.000000 0.681117 0.346166
0.000000 0.893553 0.000000
0.000000 0.897673 0.000000
0.000000 0.896483 0.000000
0.344762 0.894926 0.000000
0.594995 0.885222 0.000000
0.773312 0.845151 0.000000
0.894102 0.795529 0.162600
1.000000 0.780453 0.350134
0.000000 0.995117 0.000000
0.000000 0.995331 0.000000
0.000000 0.996185 0.000000
0.189181 0.993683 0.000000
0.504997 0.975799 0.000000
0.714778 0.964050 0.000000
0.890288 0.939208 0.000000
1.000000 0.901152 0.379736
0.055879 0.070253 0.101808
0.090303 0.063081 0.102296
0.283085 0.000000 0.087495
0.515679 0.000000 0.000000
0.696101 0.000000 0.000000
0.867491 0.000000 0.000000
0.991913 0.000000 0.000000
1.000000 0.000000 0.000000
0.049500 0.088106 0.101015
0.084199 0.091676 0.098787
0.268162 0.094301 0.081941
0.507286 0.103700 0.000000
0.683375 0.107149 0.000000
0.851865 0.097353 0.000000
0.977722 0.000000 0.000000
1.000000 0.000000 0.000000
0.000000 0.202945 0.120699
0.001648 0.212253 0.096254
0.209659 0.200076 0.090150
0.478950 0.278172 0.000000
0.664973 0.277958 0.000000
0.848783 0.274571 0.000000
0.982971 0.241093 0.000000
1.000000 0.183841 0.000000
0.000000 0.418463 0.166232
0.000000 0.423682 0.087953
0.261936 0.438575 0.000000
0.425666 0.392248 0.000000
0.624689 0.416510 0.000000
0.820340 0.424201 0.000000
0.969024 0.399390 0.000000
1.000000 0.348425 0.000000
0.000000 0.576715 0.170382
0.000000 0.577478 0.081727
0.177829 0.581994 0.000000
0.435615 0.573144 0.000000
0.555016 0.505058 0.000000
0.767788 0.544732 0.000000
0.940734 0.556664 0.107057
1.000000 0.506920 0.000000
0.000000 0.721279 0.164645
0.000000 0.724941 0.065126
0.000000 0.732692 0.000000
0.401953 0.745968 0.000000
0.607813 0.714351 0.000000
0.729488 0.654353 0.000000
0.919768 0.682277 0.175204
1.000000 0.672847 0.330663
0.000000 0.870573 0.140719
0.000000 0.869139 0.000000
0.000000 0.872862 0.000000
0.313176 0.878141 0.000000
0.578027 0.875547 0.000000
0.758480 0.833555 0.000000
0.874907 0.778439 0.119173
0.994232 0.768795 0.326909
0.000000 0.986511 0.000000
0.000000 0.987945 0.000000
0.000000 0.990845 0.000000
0.128634 0.989563 0.000000
0.495064 0.982300 0.000000
0.713619 0.966308 0.000000
0.886778 0.937133 0.000000
0.997650 0.896300 0.368597
0.000000 0.071504 0.247684
0.000000 0.064851 0.248783
0.229862 0.000000 0.251896
0.494575 0.000000 0.275395
0.686854 0.000000 0.163272
0.867460 0.000000 0.105013
0.998169 0.000000 0.000000
1.000000 0.000000 0.000000
0.000000 0.110872 0.235782
0.000000 0.099580 0.237125
0.217319 0.019135 0.239719
0.482612 0.000000 0.243992
0.669093 0.000000 0.148440
0.852140 0.000000 0.096407
0.988006 0.000000 0.000000
1.000000 0.000000 0.000000
0.000000 0.214450 0.240848
0.000000 0.214237 0.238132
0.188968 0.203616 0.219181
0.473213 0.204501 0.197940
0.666102 0.203677 0.171145
0.849638 0.186435 0.094575
0.984741 0.157656 0.000000
1.000000 0.129061 0.000000
0.000000 0.405554 0.305241
0.000000 0.412512 0.294316
0.100771 0.429175 0.214939
0.421149 0.400671 0.229435
0.625727 0.429664 0.284733
0.830564 0.414099 0.195987
0.979217 0.371832 0.000000
1.000000 0.328740 0.000000
0.000000 0.562707 0.318700
0.000000 0.566400 0.299138
0.000000 0.574548 0.216831
0.408698 0.584161 0.199283
0.554650 0.515953 0.249668
0.768032 0.559319 0.299840
0.940002 0.563134 0.284001
1.000000 0.499886 0.000000
0.000000 0.709682 0.320562
0.000000 0.713527 0.297307
0.000000 0.720424 0.204105
0.348028 0.730037 0.170565
0.586053 0.710750 0.152560
0.708186 0.645655 0.271916
0.907225 0.683619 0.329351
1.000000 0.673365 0.356847
0.000000 0.869352 0.314946
0.000000 0.869200 0.293187
0.000000 0.870573 0.165133
0.249790 0.872038 0.100160
0.549096 0.872740 0.000000
0.748257 0.835203 0.065766
0.874113 0.785153 0.296025
1.000000 0.775540 0.357092
0.000000 0.984192 0.235508
0.000000 0.983612 0.220096
0.000000 0.985595 0.028199
0.000000 0.988495 0.000000
0.455360 0.981811 0.000000
0.692012 0.968566 0.000000
0.881895 0.938903 0.000000
0.999695 0.899168 0.372137
0.000000 0.070161 0.451057
0.000000 0.070405 0.454170
0.189700 0.000000 0.455756
0.432013 0.000000 0.457313
0.639277 0.000000 0.435035
0.827024 0.000000 0.390509
0.969512 0.000000 0.336767
1.000000 0.000000 0.245853
0.000000 0.138949 0.453986
0.000000 0.130892 0.454383
0.159945 0.000000 0.456580
0.429755 0.000000 0.455573
0.634211 0.000000 0.426703
0.817655 0.000000 0.384466
0.964721 0.000000 0.323369
1.000000 0.000000 0.238193
0.000000 0.271733 0.443030
0.000000 0.265660 0.441749
0.000000 0.205875 0.440040
0.413214 0.151400 0.443458
0.618402 0.184451 0.415473
0.819303 0.159762 0.387732
0.976745 0.157961 0.359564
1.000000 0.000000 0.252628
0.000000 0.405829 0.447456
0.000000 0.405432 0.445075
0.000000 0.404913 0.442023
0.379156 0.400122 0.424781
0.589410 0.405432 0.421881
0.799496 0.399573 0.404303
0.960418 0.373999 0.362524
1.000000 0.299931 0.251591
0.000000 0.549310 0.455573
0.000000 0.549615 0.448768
0.000000 0.555505 0.425238
0.359167 0.556542 0.432563
0.535271 0.523583 0.433692
0.764645 0.578515 0.468330
0.940948 0.564324 0.427466
1.000000 0.497047 0.317723
0.000000 0.701564 0.466285
0.000000 0.714656 0.463386
0.000000 0.717708 0.427741
0.306462 0.720638 0.430213
0.577111 0.730312 0.423072
0.701076 0.655451 0.431800
0.904265 0.693843 0.464179
1.000000 0.678492 0.463996
0.000000 0.858335 0.463569
0.000000 0.861357 0.460151
0.000000 0.869505 0.412299
0.175296 0.872801 0.407538
0.528527 0.875059 0.399207
0.742275 0.849058 0.385321
0.867735 0.790188 0.425299
0.996307 0.780667 0.460761
0.000000 0.984588 0.418921
0.000000 0.985901 0.412024
0.000000 0.988281 0.378393
0.000000 0.987274 0.327367
0.437293 0.978332 0.349371
0.676753 0.968811 0.299901
0.869505 0.941039 0.328069
0.996216 0.902098 0.440497
0.000000 0.071473 0.579797
0.000000 0.071351 0.581079
0.000000 0.000000 0.584100
0.332341 0.000000 0.578851
0.577356 0.000000 0.592340
0.792996 0.000000 0.590448
0.945800 0.000000 0.551293
1.000000 0.000000 0.510674
0.000000 0.125521 0.579675
0.000000 0.142336 0.581384
0.000000 0.001709 0.584924
0.321050 0.000000 0.578027
0.573388 0.000000 0.589441
0.789364 0.000000 0.588678
0.944182 0.000000 0.551568
1.000000 0.000000 0.510430
0.000000 0.273838 0.570123
0.000000 0.271366 0.569940
0.000000 0.213687 0.572198
0.289220 0.162173 0.574823
0.555230 0.143465 0.576318
0.765621 0.180423 0.575006
0.933379 0.156130 0.543725
1.000000 0.181643 0.501396
0.000000 0.395026 0.567376
0.000000 0.393988 0.565972
0.000000 0.378546 0.566979
0.319799 0.396612 0.562066
0.531640 0.381140 0.562463
0.751156 0.369665 0.560571
0.930053 0.337377 0.524590
1.000000 0.304936 0.472938
0.000000 0.529320 0.573968
0.000000 0.531151 0.573877
0.000000 0.528740 0.570001
0.270085 0.525750 0.559472
0.492592 0.511040 0.536095
0.730678 0.518700 0.535851
0.923613 0.510613 0.518883
1.000000 0.474922 0.472663
0.000000 0.659174 0.572168
0.000000 0.660883 0.570672
0.000000 0.661677 0.555871
0.101442 0.661494 0.545678
0.458656 0.669368 0.530663
0.661280 0.638117 0.529259
0.893431 0.694942 0.579889
1.000000 0.657710 0.533654
0.000000 0.832273 0.592706
0.000000 0.832242 0.590051
0.000000 0.837125 0.570947
0.000000 0.844602 0.551171
0.412879 0.851957 0.531365
0.701106 0.852140 0.523247
0.844358 0.781735 0.520165
0.985412 0.778714 0.556359
0.000000 0.967681 0.566705
0.000000 0.968048 0.563134
0.000000 0.970428 0.546593
0.000000 0.982574 0.491310
0.307652 0.974487 0.497841
0.632380 0.964599 0.494331
0.843168 0.941375 0.475257
0.982513 0.899016 0.527489
0.000000 0.073854 0.725399
0.000000 0.073854 0.725338
0.000000 0.000000 0.723445
0.227665 0.000000 0.723537
0.492927 0.000000 0.722835
0.740444 0.000000 0.732784
0.922606 0.000000 0.718471
1.000000 0.000000 0.665736
0.000000 0.095735 0.715663
0.000000 0.118990 0.714107
0.000000 0.061006 0.714839
0.201450 0.000000 0.717037
0.481086 0.000000 0.714961
0.730648 0.000000 0.725093
0.917540 0.000000 0.715755
1.000000 0.000000 0.664027
0.000000 0.276005 0.710109
0.000000 0.279759 0.708034
0.000000 0.228214 0.710750
0.129274 0.165560 0.721614
0.470954 0.107332 0.715389
0.722499 0.110811 0.720668
0.913512 0.181338 0.714626
1.000000 0.192874 0.662226
0.000000 0.401251 0.705501
0.000000 0.405249 0.705776
0.000000 0.389685 0.708064
0.224338 0.407477 0.718410
0.480232 0.381231 0.723018
0.721645 0.362310 0.723903
0.915343 0.361425 0.711391
1.000000 0.349950 0.657313
0.000000 0.530297 0.706691
0.000000 0.533013 0.706477
0.000000 0.524376 0.705867
0.146029 0.529473 0.701472
0.444923 0.518730 0.693507
0.680476 0.487800 0.693965
0.897093 0.483680 0.679957
1.000000 0.480171 0.639521
0.000000 0.658869 0.702846
0.000000 0.663783 0.705287
0.000000 0.664698 0.703822
0.000000 0.663264 0.698054
0.383337 0.655451 0.684047
0.626551 0.636713 0.657160
0.885618 0.660761 0.672847
1.000000 0.634699 0.641444
0.000000 0.822782 0.724025
0.000000 0.826566 0.724941
0.000000 0.830686 0.719295
0.000000 0.834806 0.704707
0.253819 0.832364 0.688136
0.617212 0.835508 0.672786
0.824796 0.786252 0.654688
0.976013 0.803799 0.706050
0.000000 0.956725 0.704005
0.000000 0.956909 0.701747
0.000000 0.959228 0.693111
0.000000 0.967926 0.669245
0.000000 0.968048 0.641688
0.551720 0.958556 0.644526
0.816220 0.945190 0.650294
0.965026 0.900511 0.652094
0.000000 0.080934 0.841794
0.000000 0.081056 0.844022
0.000000 0.065400 0.844083
0.000000 0.000000 0.849088
0.400519 0.000000 0.846281
0.638178 0.000000 0.839933
0.873198 0.000000 0.843656
1.000000 0.000000 0.798611
0.000000 0.080171 0.834775
0.000000 0.080385 0.836698
0.000000 0.080903 0.836881
0.000000 0.000000 0.840543
0.384863 0.000000 0.837369
0.625635 0.000000 0.829801
0.860197 0.000000 0.833097
0.994263 0.000000 0.792782
0.000000 0.236393 0.837186
0.000000 0.243687 0.836454
0.000000 0.238437 0.834958
0.000000 0.155825 0.839536
0.357641 0.000000 0.837247
0.618280 0.000000 0.829465
0.860716 0.000000 0.835203
0.996307 0.106966 0.796811
0.000000 0.381140 0.834409
0.000000 0.383764 0.832212
0.000000 0.383673 0.829648
0.000000 0.377111 0.834806
0.359991 0.344213 0.838834
0.616815 0.307927 0.833219
0.861784 0.292149 0.838743
0.996521 0.323308 0.797238
0.000000 0.508385 0.826505
0.000000 0.509697 0.824521
0.000000 0.512322 0.821561
0.000000 0.503380 0.820432
0.336492 0.500847 0.821836
0.583459 0.459663 0.823239
0.843046 0.434699 0.825986
0.990723 0.472297 0.789425
0.000000 0.640803 0.824063
0.000000 0.642664 0.823850
0.000000 0.647242 0.823239
0.000000 0.640314 0.823941
0.247471 0.641444 0.820920
0.567285 0.635615 0.819303
0.831205 0.616815 0.822141
0.982391 0.643061 0.790463
0.000000 0.783658 0.828367
0.000000 0.786587 0.829374
0.000000 0.792386 0.829007
0.000000 0.796933 0.829068
0.000000 0.797269 0.823697
0.485512 0.794858 0.814298
0.777890 0.776028 0.786343
0.969512 0.792905 0.796139
0.000000 0.938140 0.834287
0.000000 0.939147 0.833188
0.000000 0.948486 0.833799
0.000000 0.956634 0.825986
0.000000 0.961486 0.804410
0.303624 0.954009 0.780972
0.777005 0.935485 0.801694
0.940337 0.902892 0.786557
0.000000 0.100801 0.932250
0.000000 0.100954 0.933043
0.000000 0.100618 0.931670
0.000000 0.000000 0.934173
0.247196 0.000000 0.936004
0.529595 0.000000 0.933349
0.755428 0.000000 0.931304
0.970764 0.000000 0.928771
0.000000 0.099855 0.929595
0.000000 0.100008 0.930419
0.000000 0.099855 0.929656
0.000000 0.000000 0.931487
0.224277 0.000000 0.933379
0.521263 0.000000 0.930632
0.749905 0.000000 0.927642
0.966827 0.000000 0.925444
0.000000 0.115114 0.928771
0.000000 0.128573 0.928801
0.000000 0.165316 0.926268
0.000000 0.123720 0.930755
0.111086 0.000000 0.933135
0.499611 0.000000 0.928679
0.741726 0.000000 0.925048
0.963256 0.000000 0.923644
0.000000 0.290105 0.926452
0.000000 0.295171 0.926879
0.000000 0.309728 0.925048
0.000000 0.309667 0.926299
0.043091 0.285618 0.929595
0.485420 0.223484 0.928435
0.733547 0.157626 0.924590
0.961334 0.146700 0.924132
0.000000 0.449226 0.918456
0.000000 0.449928 0.919280
0.000000 0.447944 0.918639
0.000000 0.439857 0.919493
0.000000 0.455329 0.920684
0.453712 0.414160 0.924163
0.712306 0.370367 0.921355
0.957763 0.364599 0.924010
0.000000 0.580255 0.916777
0.000000 0.579767 0.915862
0.000000 0.578332 0.914061
0.000000 0.575097 0.913390
0.000000 0.567987 0.913542
0.415564 0.577447 0.918181
0.694118 0.554528 0.924559
0.954223 0.580926 0.927276
0.000000 0.718410 0.917845
0.000000 0.718410 0.917205
0.000000 0.718776 0.915618
0.000000 0.720790 0.915190
0.000000 0.715755 0.915557
0.251469 0.718196 0.914611
0.709377 0.756893 0.915251
0.935485 0.763058 0.918517
0.000000 0.865171 0.920806
0.000000 0.865782 0.920256
0.000000 0.869627 0.920073
0.000000 0.878721 0.921416
0.000000 0.892271 0.923705
0.000000 0.900145 0.923919
0.627070 0.904631 0.917418
0.905150 0.897826 0.899351
