其他预设/【233】日式怀旧街道调色预设208款/1.3D LUT预设（视频调色-PR-AE-PS-FCPX-达芬奇用）/1.日式城市街拍预设/JA – Cool Normal 1.cube
# Created by Adobe Lightroom plugin Export LUT (1.17.0)
# www.johnrellis.com/lightroom/exportlut.htm
# Preset: JA – Cool Normal 1
# Color profile: /Library/Application Support/Adobe/Color/Profiles/Recommended/AdobeRGB1998.icc
LUT_3D_SIZE 32
0.092317 0.109651 0.111635
0.093294 0.109529 0.111635
0.097658 0.109133 0.111971
0.109224 0.107546 0.112459
0.125216 0.106081 0.111940
0.146120 0.104860 0.111971
0.173434 0.102876 0.111452
0.206424 0.099886 0.110658
0.243412 0.096651 0.109285
0.282628 0.092714 0.107027
0.323033 0.085298 0.105379
0.364050 0.075135 0.103365
0.404913 0.060609 0.101198
0.445899 0.016510 0.098970
0.486336 0.000000 0.096437
0.526207 0.000000 0.092958
0.565484 0.000000 0.089784
0.603906 0.000000 0.085603
0.641627 0.000000 0.081636
0.681514 0.000000 0.076692
0.720089 0.000000 0.071534
0.757168 0.000000 0.066041
0.792416 0.000000 0.060700
0.825772 0.000000 0.054414
0.857084 0.000000 0.049287
0.886503 0.000000 0.047089
0.914061 0.000000 0.047456
0.939605 0.000000 0.052735
0.962890 0.000000 0.062013
0.983795 0.000000 0.071717
1.000000 0.000000 0.084260
1.000000 0.000000 0.097536
0.092531 0.110353 0.111574
0.093111 0.110719 0.111543
0.097719 0.111025 0.111604
0.109163 0.110903 0.111574
0.124910 0.110689 0.111574
0.145480 0.109651 0.111635
0.173007 0.108431 0.111055
0.205386 0.106905 0.109987
0.242130 0.104585 0.108553
0.281315 0.101656 0.106477
0.321752 0.095491 0.104799
0.362615 0.087068 0.103029
0.403479 0.075990 0.100862
0.444373 0.058900 0.098604
0.484688 0.008179 0.095796
0.524529 0.000000 0.092622
0.563653 0.000000 0.089113
0.602136 0.000000 0.084901
0.639857 0.000000 0.080934
0.679561 0.000000 0.076051
0.717891 0.000000 0.070710
0.754788 0.000000 0.065217
0.790066 0.000000 0.059815
0.823545 0.000000 0.052979
0.854978 0.000000 0.046937
0.884672 0.000000 0.043824
0.912505 0.000000 0.043030
0.938231 0.000000 0.049134
0.961730 0.000000 0.060517
0.982879 0.000000 0.070130
1.000000 0.000000 0.081605
1.000000 0.000000 0.096193
0.091585 0.115023 0.111635
0.093141 0.115480 0.111543
0.097871 0.115999 0.110994
0.108888 0.116396 0.111116
0.124208 0.116274 0.111116
0.144839 0.115969 0.111116
0.171939 0.115663 0.110506
0.204227 0.115206 0.109346
0.240879 0.114137 0.107851
0.279881 0.112398 0.105928
0.320287 0.107851 0.104219
0.361181 0.101564 0.102358
0.402075 0.092134 0.100496
0.443000 0.080537 0.097658
0.483345 0.062531 0.095033
0.523125 0.011505 0.091829
0.562432 0.000000 0.088624
0.600702 0.000000 0.084382
0.638544 0.000000 0.080110
0.678248 0.000000 0.075105
0.716518 0.000000 0.069734
0.753414 0.000000 0.064332
0.788724 0.000000 0.058808
0.822141 0.000000 0.049561
0.853758 0.000000 0.043641
0.883604 0.000000 0.039460
0.911498 0.000000 0.037537
0.937407 0.000000 0.045502
0.961059 0.000000 0.057221
0.982300 0.000000 0.067659
1.000000 0.000000 0.080385
1.000000 0.000000 0.094392
0.090303 0.125917 0.111330
0.092592 0.126284 0.111238
0.097688 0.126070 0.111147
0.109071 0.127810 0.109621
0.125093 0.127993 0.109163
0.143679 0.128054 0.109834
0.170382 0.129305 0.109071
0.202548 0.130770 0.107973
0.238987 0.131777 0.106050
0.278141 0.131106 0.104707
0.318334 0.129366 0.102785
0.359197 0.125154 0.101106
0.399969 0.119936 0.098787
0.440803 0.112245 0.096437
0.481239 0.101015 0.093294
0.521050 0.088075 0.089906
0.560174 0.067720 0.086580
0.598596 0.010407 0.082643
0.636866 0.000000 0.078126
0.676051 0.000000 0.072786
0.713893 0.000000 0.066896
0.750729 0.000000 0.061280
0.786130 0.000000 0.052583
0.820035 0.000000 0.045319
0.852110 0.000000 0.035767
0.882383 0.000000 0.031067
0.910704 0.000000 0.030152
0.936828 0.000000 0.039185
0.960601 0.000000 0.051637
0.981872 0.000000 0.065217
1.000000 0.000000 0.077699
1.000000 0.000000 0.092103
0.087770 0.140932 0.110689
0.091554 0.140749 0.110658
0.097017 0.140719 0.110536
0.107393 0.141299 0.110018
0.124605 0.144656 0.107362
0.146059 0.146639 0.106386
0.170840 0.148135 0.106081
0.199710 0.150607 0.105867
0.235935 0.153384 0.104402
0.274998 0.155245 0.102754
0.315190 0.155428 0.100893
0.355932 0.153902 0.098970
0.396857 0.150637 0.096803
0.437720 0.146273 0.093965
0.478187 0.139223 0.091188
0.518151 0.131289 0.087098
0.557641 0.120119 0.083558
0.596216 0.106203 0.079042
0.635187 0.087465 0.074006
0.674067 0.059541 0.068421
0.711727 0.000000 0.061799
0.748440 0.000000 0.054383
0.783932 0.000000 0.042267
0.818051 0.000000 0.032258
0.850340 0.000000 0.022919
0.880827 0.000000 0.018219
0.909331 0.000000 0.018555
0.935668 0.000000 0.024750
0.959594 0.000000 0.041138
0.981018 0.000000 0.060090
1.000000 0.000000 0.073426
1.000000 0.000000 0.088197
0.085878 0.160464 0.109285
0.090394 0.160403 0.109194
0.096254 0.160342 0.109071
0.107240 0.160342 0.109255
0.123690 0.163149 0.107301
0.147036 0.168826 0.103639
0.174777 0.173465 0.102144
0.205325 0.176944 0.100893
0.234806 0.178164 0.101839
0.271855 0.181094 0.100618
0.311955 0.183566 0.098573
0.352789 0.183993 0.096101
0.393500 0.182803 0.093416
0.434455 0.179995 0.090639
0.474922 0.176242 0.086915
0.515251 0.170596 0.082826
0.554711 0.163119 0.079042
0.593378 0.154391 0.074464
0.633143 0.143496 0.068757
0.672114 0.130068 0.062623
0.709926 0.114107 0.053559
0.746883 0.092256 0.041291
0.795132 0.056489 0.024201
0.828550 0.000000 0.013825
0.859983 0.000000 0.008698
0.889403 0.000000 0.007660
0.916686 0.000000 0.010773
0.941772 0.000000 0.023194
0.964508 0.000000 0.041505
0.984985 0.000000 0.062409
1.000000 0.000000 0.076814
1.000000 0.000000 0.091341
0.081514 0.188266 0.107759
0.087037 0.188144 0.107668
0.094148 0.188052 0.107546
0.107301 0.188235 0.107637
0.124849 0.188357 0.107790
0.148226 0.194919 0.103822
0.177981 0.202548 0.098634
0.211765 0.209232 0.095766
0.246616 0.212924 0.093660
0.278630 0.213657 0.094270
0.311101 0.213840 0.094820
0.351904 0.215793 0.092164
0.392828 0.216159 0.088991
0.433692 0.215000 0.085237
0.474281 0.212284 0.081727
0.514153 0.208347 0.077272
0.553552 0.203189 0.072297
0.593469 0.197024 0.066590
0.633631 0.189242 0.060182
0.673243 0.180270 0.048402
0.712032 0.170047 0.031891
0.750210 0.157412 0.017884
0.787259 0.143069 0.003662
0.822538 0.126467 0.000000
0.855528 0.106325 0.000000
0.886015 0.079225 0.000000
0.914000 0.018647 0.000000
0.939544 0.000000 0.000000
0.962676 0.000000 0.018311
0.983368 0.000000 0.048554
1.000000 0.000000 0.067781
1.000000 0.000000 0.084993
0.074617 0.220218 0.105592
0.081849 0.220066 0.105715
0.089631 0.220157 0.105745
0.105776 0.220279 0.105562
0.125917 0.220371 0.105409
0.148959 0.222721 0.104128
0.178378 0.231052 0.098817
0.213138 0.240208 0.091859
0.251286 0.248234 0.087373
0.287694 0.250736 0.084077
0.321630 0.250767 0.083497
0.352697 0.248478 0.084688
0.387976 0.247776 0.083314
0.428840 0.247868 0.079652
0.469429 0.246738 0.074891
0.509422 0.243961 0.069825
0.549523 0.240421 0.064149
0.589807 0.236057 0.055390
0.629541 0.230594 0.040589
0.668971 0.224094 0.023194
0.707790 0.216373 0.007507
0.745968 0.207187 0.000000
0.783139 0.197024 0.000000
0.818540 0.186099 0.000000
0.851896 0.173281 0.000000
0.882719 0.159609 0.000000
0.911101 0.144808 0.000000
0.937102 0.127779 0.000000
0.960601 0.109957 0.000000
0.981628 0.090150 0.019898
1.000000 0.067567 0.055818
1.000000 0.029419 0.076020
0.062745 0.256229 0.102449
0.072358 0.256168 0.102327
0.083192 0.256260 0.102083
0.102083 0.256168 0.102144
0.125185 0.256352 0.102113
0.150393 0.256504 0.101839
0.178927 0.261814 0.098146
0.213077 0.271183 0.090486
0.251926 0.280858 0.080995
0.292760 0.288914 0.073976
0.330571 0.290898 0.069551
0.365667 0.289677 0.065553
0.396124 0.285588 0.068116
0.426246 0.281346 0.070161
0.464363 0.280278 0.065766
0.504814 0.279149 0.059541
0.545769 0.277043 0.047517
0.585718 0.273899 0.029633
0.625269 0.269261 0.013764
0.664698 0.264256 0.000000
0.703609 0.258427 0.000000
0.741909 0.251408 0.000000
0.779263 0.243381 0.000000
0.814878 0.235080 0.000000
0.848478 0.225132 0.000000
0.879637 0.214450 0.000000
0.908446 0.203250 0.000000
0.934752 0.191379 0.000000
0.958587 0.179324 0.000000
0.979889 0.167330 0.000000
0.998993 0.155886 0.023590
1.000000 0.145449 0.064790
0.032471 0.294285 0.097078
0.056336 0.294072 0.096956
0.072633 0.294102 0.096956
0.095583 0.294194 0.096925
0.122408 0.294163 0.096651
0.150454 0.294102 0.096315
0.179141 0.294224 0.095857
0.212650 0.302708 0.088441
0.250401 0.312413 0.077913
0.292149 0.322362 0.063447
0.334356 0.329564 0.047456
0.373877 0.331487 0.028107
0.409155 0.328893 0.017456
0.439887 0.323522 0.022583
0.469764 0.318029 0.029847
0.500877 0.313329 0.033112
0.541588 0.312444 0.013062
0.581628 0.310002 0.000000
0.621302 0.306706 0.000000
0.660822 0.302739 0.000000
0.699641 0.297887 0.000000
0.737667 0.292332 0.000000
0.774746 0.285863 0.000000
0.810300 0.278416 0.000000
0.844083 0.270268 0.000000
0.875639 0.261295 0.000000
0.904967 0.251865 0.000000
0.931884 0.242130 0.000000
0.956268 0.232029 0.000000
0.978058 0.221744 0.000000
0.997528 0.212100 0.000000
1.000000 0.203159 0.039155
0.000000 0.331884 0.090089
0.011200 0.331945 0.090150
0.053834 0.331914 0.090120
0.085176 0.331914 0.089845
0.117067 0.331914 0.089723
0.148745 0.332036 0.088899
0.179660 0.332158 0.088563
0.211643 0.334752 0.085298
0.248386 0.343786 0.074128
0.289464 0.353918 0.055695
0.333379 0.363989 0.009796
0.377020 0.370428 0.000000
0.418616 0.372930 0.000000
0.453834 0.369085 0.000000
0.486091 0.363500 0.000000
0.514763 0.356237 0.000000
0.542565 0.349035 0.000000
0.575799 0.344518 0.000000
0.615412 0.342229 0.000000
0.655329 0.339239 0.000000
0.694362 0.335454 0.000000
0.732662 0.330755 0.000000
0.770169 0.325566 0.000000
0.806149 0.319310 0.000000
0.840208 0.312413 0.000000
0.872160 0.304570 0.000000
0.901823 0.295995 0.000000
0.929107 0.287053 0.000000
0.953826 0.277989 0.000000
0.975982 0.268498 0.000000
0.995727 0.259464 0.000000
1.000000 0.250889 0.000000
0.000000 0.369757 0.081331
0.000000 0.369818 0.081361
0.000427 0.369818 0.081361
0.070344 0.369696 0.081025
0.109407 0.369787 0.080476
0.144228 0.369787 0.080140
0.177768 0.369818 0.079347
0.211124 0.369818 0.078065
0.246311 0.375433 0.069551
0.286046 0.384924 0.044923
0.329381 0.395392 0.000000
0.376379 0.406470 0.000000
0.429572 0.419898 0.000000
0.474830 0.423407 0.000000
0.508965 0.416999 0.000000
0.541344 0.409644 0.000000
0.568536 0.400061 0.000000
0.594995 0.390997 0.000000
0.621393 0.382574 0.000000
0.658503 0.379156 0.000000
0.697322 0.375708 0.000000
0.735378 0.371344 0.000000
0.772366 0.366278 0.000000
0.807858 0.360632 0.000000
0.841581 0.354101 0.000000
0.873198 0.346807 0.000000
0.902556 0.338903 0.000000
0.929595 0.330266 0.000000
0.954040 0.321630 0.000000
0.975952 0.312444 0.000000
0.995575 0.303471 0.000000
1.000000 0.295048 0.000000
0.000000 0.409491 0.068757
0.000000 0.409674 0.068727
0.000000 0.409430 0.068421
0.037812 0.409186 0.068421
0.098604 0.408881 0.067933
0.138247 0.408667 0.067628
0.174899 0.408545 0.066621
0.210178 0.408331 0.065492
0.244572 0.408362 0.064302
0.284215 0.418067 0.027375
0.327276 0.429267 0.000000
0.374640 0.441382 0.000000
0.424445 0.452979 0.000000
0.472663 0.460395 0.000000
0.519890 0.464759 0.000000
0.552667 0.456611 0.000000
0.583703 0.447761 0.000000
0.610712 0.437324 0.000000
0.636072 0.426917 0.000000
0.661860 0.417670 0.000000
0.690120 0.410193 0.000000
0.728420 0.406775 0.000000
0.765743 0.402686 0.000000
0.801785 0.397833 0.000000
0.836027 0.391974 0.000000
0.868254 0.385290 0.000000
0.898192 0.377996 0.000000
0.925780 0.369970 0.000000
0.950835 0.361364 0.000000
0.973297 0.352453 0.000000
0.993347 0.343542 0.000000
1.000000 0.334966 0.000000
0.000000 0.445930 0.049775
0.000000 0.445869 0.049134
0.000000 0.445838 0.049165
0.000000 0.445655 0.048981
0.084016 0.445258 0.047242
0.129946 0.445197 0.047028
0.170138 0.445472 0.044282
0.207187 0.445747 0.042023
0.243931 0.446113 0.036408
0.280827 0.449378 0.018830
0.322728 0.459663 0.000000
0.367895 0.471046 0.000000
0.416510 0.482887 0.000000
0.467323 0.493996 0.000000
0.515770 0.500633 0.000000
0.564263 0.505730 0.000000
0.595178 0.495399 0.000000
0.624537 0.484993 0.000000
0.651453 0.473823 0.000000
0.676081 0.462531 0.000000
0.701259 0.452522 0.000000
0.727138 0.443671 0.000000
0.759121 0.437720 0.000000
0.795743 0.433570 0.000000
0.830533 0.428595 0.000000
0.863371 0.422553 0.000000
0.893950 0.415686 0.000000
0.922210 0.407904 0.000000
0.947814 0.399786 0.000000
0.970703 0.391028 0.000000
0.991180 0.382147 0.000000
1.000000 0.373388 0.000000
0.000000 0.483284 0.009155
0.000000 0.483436 0.009033
0.000000 0.483223 0.008209
0.000000 0.483223 0.007599
0.063142 0.482979 0.006928
0.120455 0.482765 0.005768
0.164034 0.482521 0.002991
0.203799 0.482490 0.000000
0.241459 0.482734 0.000000
0.278721 0.483070 0.000000
0.318181 0.489357 0.000000
0.361730 0.499947 0.000000
0.408179 0.511192 0.000000
0.457801 0.522698 0.000000
0.508904 0.533165 0.000000
0.557458 0.539361 0.000000
0.607477 0.545373 0.000000
0.636164 0.533043 0.000000
0.663722 0.520897 0.000000
0.691066 0.509636 0.000000
0.715297 0.497688 0.000000
0.740017 0.487007 0.000000
0.765164 0.477577 0.000000
0.790738 0.468910 0.000000
0.824674 0.463874 0.000000
0.858335 0.458534 0.000000
0.889799 0.452247 0.000000
0.918791 0.445136 0.000000
0.945159 0.437293 0.000000
0.968688 0.428779 0.000000
0.989654 0.419806 0.000000
1.000000 0.410895 0.000000
0.000000 0.520043 0.000000
0.000000 0.520104 0.000000
0.000000 0.519982 0.000000
0.000000 0.519890 0.000000
0.000855 0.519829 0.000000
0.108278 0.519615 0.000000
0.156649 0.519524 0.000000
0.199100 0.519432 0.000000
0.238682 0.519463 0.000000
0.276829 0.519707 0.000000
0.314519 0.519768 0.000000
0.356146 0.529046 0.000000
0.400549 0.539147 0.000000
0.447791 0.549737 0.000000
0.497536 0.560479 0.000000
0.548455 0.570214 0.000000
0.596887 0.575982 0.000000
0.646052 0.581323 0.000000
0.675074 0.569085 0.000000
0.702144 0.556481 0.000000
0.729091 0.544640 0.000000
0.754177 0.532860 0.000000
0.778286 0.521538 0.000000
0.802762 0.511345 0.000000
0.827359 0.502037 0.000000
0.853971 0.494087 0.000000
0.886076 0.488289 0.000000
0.915709 0.481666 0.000000
0.942565 0.473976 0.000000
0.966461 0.465400 0.000000
0.987701 0.456336 0.000000
1.000000 0.447120 0.000000
0.000000 0.554772 0.000000
0.000000 0.554833 0.000000
0.000000 0.554711 0.000000
0.000000 0.554589 0.000000
0.000000 0.554345 0.000000
0.092531 0.554162 0.000000
0.147890 0.553948 0.000000
0.192660 0.553765 0.000000
0.233616 0.553765 0.000000
0.273014 0.553796 0.000000
0.311498 0.553796 0.000000
0.350500 0.556512 0.000000
0.393256 0.566094 0.000000
0.438453 0.576165 0.000000
0.486152 0.586542 0.000000
0.535912 0.596643 0.000000
0.586145 0.605402 0.000000
0.634211 0.610681 0.000000
0.681941 0.614893 0.000000
0.712856 0.604425 0.000000
0.739284 0.591180 0.000000
0.765408 0.578759 0.000000
0.790616 0.566552 0.000000
0.813870 0.554559 0.000000
0.837308 0.543603 0.000000
0.860990 0.533532 0.000000
0.884703 0.524315 0.000000
0.911742 0.516869 0.000000
0.939269 0.509545 0.000000
0.963775 0.501152 0.000000
0.985504 0.492042 0.000000
1.000000 0.482582 0.000000
0.000000 0.588952 0.000000
0.000000 0.589105 0.000000
0.000000 0.595666 0.000000
0.000000 0.595514 0.000000
0.000000 0.595178 0.000000
0.073243 0.594781 0.000000
0.139467 0.594324 0.000000
0.188052 0.593896 0.000000
0.230991 0.593500 0.000000
0.271946 0.593286 0.000000
0.311498 0.593011 0.000000
0.350134 0.592767 0.000000
0.390784 0.598108 0.000000
0.434455 0.607385 0.000000
0.480140 0.616724 0.000000
0.527550 0.626032 0.000000
0.576898 0.635126 0.000000
0.626520 0.642969 0.000000
0.673823 0.647456 0.000000
0.720516 0.650813 0.000000
0.752773 0.641505 0.000000
0.777829 0.627039 0.000000
0.802640 0.613489 0.000000
0.827085 0.600610 0.000000
0.849058 0.587518 0.000000
0.870909 0.575433 0.000000
0.892821 0.564324 0.000000
0.914763 0.554131 0.000000
0.936400 0.544701 0.000000
0.960845 0.536156 0.000000
0.983062 0.527031 0.000000
1.000000 0.517327 0.000000
0.000000 0.624842 0.000000
0.000000 0.625696 0.000000
0.000000 0.626490 0.000000
0.000000 0.627192 0.000000
0.000000 0.627558 0.000000
0.030854 0.627466 0.000000
0.127871 0.627283 0.000000
0.180179 0.626825 0.000000
0.225132 0.626612 0.000000
0.267247 0.626246 0.000000
0.307225 0.626001 0.000000
0.346563 0.625635 0.000000
0.385077 0.625177 0.000000
0.426764 0.633143 0.000000
0.470527 0.641779 0.000000
0.515984 0.650385 0.000000
0.563043 0.658930 0.000000
0.611719 0.667414 0.000000
0.660792 0.674708 0.000000
0.707607 0.679133 0.000000
0.753353 0.682033 0.000000
0.786923 0.674189 0.000000
0.811032 0.659052 0.000000
0.834714 0.644739 0.000000
0.857847 0.630976 0.000000
0.879576 0.617456 0.000000
0.900267 0.604700 0.000000
0.920867 0.592798 0.000000
0.941222 0.581689 0.000000
0.960937 0.571283 0.000000
0.980560 0.561517 0.000000
1.000000 0.551720 0.000000
0.000000 0.657740 0.000000
0.000000 0.658442 0.000000
0.000000 0.659236 0.000000
0.000000 0.659785 0.000000
0.000000 0.660090 0.000000
0.000000 0.660121 0.000000
0.114778 0.659876 0.000000
0.171908 0.659510 0.000000
0.218936 0.659266 0.000000
0.261784 0.658900 0.000000
0.303075 0.658625 0.000000
0.342748 0.658259 0.000000
0.381537 0.657801 0.000000
0.420661 0.659419 0.000000
0.462837 0.667414 0.000000
0.506432 0.675441 0.000000
0.551476 0.683467 0.000000
0.598169 0.691463 0.000000
0.646265 0.699397 0.000000
0.694575 0.706111 0.000000
0.740627 0.710140 0.000000
0.785397 0.712581 0.000000
0.819516 0.705745 0.000000
0.842313 0.689693 0.000000
0.864530 0.674434 0.000000
0.886320 0.659693 0.000000
0.907286 0.645655 0.000000
0.926604 0.631922 0.000000
0.945647 0.619104 0.000000
0.964202 0.607050 0.000000
0.982208 0.595727 0.000000
0.999542 0.585290 0.000000
0.000000 0.690120 0.000000
0.000000 0.690791 0.000000
0.000000 0.691554 0.000000
0.000000 0.692103 0.000000
0.000000 0.692378 0.000000
0.000000 0.692287 0.000000
0.099916 0.692073 0.000000
0.162448 0.691707 0.000000
0.212284 0.691341 0.000000
0.256596 0.690974 0.000000
0.298192 0.690669 0.000000
0.338628 0.690242 0.000000
0.377905 0.689723 0.000000
0.416510 0.689052 0.000000
0.456306 0.693263 0.000000
0.498360 0.700893 0.000000
0.542046 0.708675 0.000000
0.587182 0.716487 0.000000
0.633661 0.724239 0.000000
0.681300 0.731868 0.000000
0.728939 0.738186 0.000000
0.774563 0.742061 0.000000
0.818235 0.743984 0.000000
0.852079 0.737270 0.000000
0.873472 0.720302 0.000000
0.894194 0.704005 0.000000
0.914366 0.688289 0.000000
0.933959 0.673243 0.000000
0.951904 0.658534 0.000000
0.969238 0.644648 0.000000
0.986114 0.631556 0.000000
1.000000 0.619348 0.000000
0.000000 0.725124 0.000000
0.000000 0.725368 0.000000
0.000000 0.725582 0.000000
0.000000 0.725765 0.000000
0.000000 0.725734 0.000000
0.000000 0.725521 0.000000
0.081849 0.725246 0.000000
0.153841 0.724910 0.000000
0.205905 0.724697 0.000000
0.251835 0.724422 0.000000
0.294499 0.724239 0.000000
0.335576 0.723873 0.000000
0.375250 0.723415 0.000000
0.414221 0.722805 0.000000
0.452674 0.721920 0.000000
0.493050 0.728359 0.000000
0.534936 0.735348 0.000000
0.578180 0.742397 0.000000
0.622553 0.749386 0.000000
0.668208 0.756130 0.000000
0.714504 0.762631 0.000000
0.760494 0.767758 0.000000
0.804532 0.770687 0.000000
0.846677 0.771664 0.000000
0.879240 0.764645 0.000000
0.899016 0.746700 0.000000
0.918273 0.729397 0.000000
0.936889 0.712886 0.000000
0.954986 0.696925 0.000000
0.972015 0.681392 0.000000
0.988067 0.666712 0.000000
1.000000 0.652949 0.000000
0.000000 0.756649 0.000000
0.000000 0.756924 0.000000
0.000000 0.757198 0.000000
0.000000 0.757290 0.000000
0.000000 0.757229 0.000000
0.000000 0.756985 0.000000
0.057008 0.756680 0.000000
0.143496 0.756344 0.000000
0.199130 0.755978 0.000000
0.246189 0.755673 0.000000
0.289799 0.755367 0.000000
0.331151 0.755001 0.000000
0.371252 0.754452 0.000000
0.410620 0.753872 0.000000
0.449042 0.753140 0.000000
0.487617 0.754208 0.000000
0.527825 0.760586 0.000000
0.569451 0.766995 0.000000
0.612024 0.773373 0.000000
0.655665 0.779568 0.000000
0.700160 0.785458 0.000000
0.745205 0.791012 0.000000
0.789761 0.795224 0.000000
0.832395 0.797452 0.000000
0.871885 0.796689 0.000000
0.902281 0.788449 0.000000
0.921233 0.770199 0.000000
0.938994 0.752193 0.000000
0.956298 0.734951 0.000000
0.973144 0.718257 0.000000
0.989502 0.702235 0.000000
1.000000 0.686976 0.000000
0.000000 0.789639 0.000000
0.000000 0.790005 0.000000
0.000000 0.790219 0.000000
0.000000 0.790097 0.000000
0.000000 0.789975 0.000000
0.000000 0.789578 0.000000
0.000488 0.789090 0.000000
0.134615 0.788540 0.000000
0.192813 0.787869 0.000000
0.241184 0.787289 0.000000
0.285344 0.786679 0.000000
0.327123 0.786069 0.000000
0.367346 0.785336 0.000000
0.406683 0.784451 0.000000
0.445197 0.783383 0.000000
0.483040 0.782284 0.000000
0.521324 0.785000 0.000000
0.560937 0.790524 0.000000
0.601709 0.796139 0.000000
0.643458 0.801633 0.000000
0.686030 0.806973 0.000000
0.729061 0.811887 0.000000
0.772488 0.816281 0.000000
0.815183 0.819272 0.000000
0.855985 0.820432 0.000000
0.895781 0.820493 0.000000
0.922881 0.810056 0.000000
0.941283 0.792050 0.000000
0.957733 0.773312 0.000000
0.973846 0.755337 0.000000
0.989624 0.738216 0.000000
1.000000 0.721584 0.000000
0.000000 0.818936 0.000000
0.000000 0.819211 0.000000
0.000000 0.819394 0.000000
0.000000 0.819364 0.000000
0.000000 0.819211 0.000000
0.000000 0.818845 0.000000
0.000000 0.818418 0.000000
0.125643 0.817929 0.000000
0.186465 0.817380 0.000000
0.235843 0.816892 0.000000
0.280705 0.816373 0.000000
0.323095 0.815793 0.000000
0.363653 0.815152 0.000000
0.403082 0.814389 0.000000
0.441657 0.813474 0.000000
0.479622 0.812406 0.000000
0.517082 0.811307 0.000000
0.555169 0.815610 0.000000
0.593957 0.820401 0.000000
0.633814 0.825132 0.000000
0.674434 0.829587 0.000000
0.715541 0.833738 0.000000
0.756893 0.837400 0.000000
0.798520 0.840452 0.000000
0.839322 0.842252 0.000000
0.878477 0.842466 0.000000
0.917144 0.842313 0.000000
0.941619 0.830014 0.000000
0.959442 0.812131 0.000000
0.974914 0.792966 0.000000
0.990021 0.774502 0.000000
1.000000 0.756863 0.000000
0.000000 0.847807 0.000000
0.000000 0.847959 0.000000
0.000000 0.848020 0.000000
0.000000 0.847868 0.000000
0.000000 0.847593 0.000000
0.000000 0.847166 0.000000
0.000000 0.846677 0.000000
0.116518 0.846159 0.000000
0.180545 0.845609 0.000000
0.230930 0.845090 0.000000
0.276493 0.844511 0.000000
0.318791 0.843992 0.000000
0.359655 0.843381 0.000000
0.399145 0.842618 0.000000
0.437598 0.841672 0.000000
0.475349 0.840604 0.000000
0.512810 0.839384 0.000000
0.549584 0.839506 0.000000
0.586816 0.843534 0.000000
0.624720 0.847379 0.000000
0.663264 0.851072 0.000000
0.702388 0.854368 0.000000
0.741817 0.857267 0.000000
0.781491 0.859648 0.000000
0.821134 0.861448 0.000000
0.860075 0.862150 0.000000
0.897704 0.861540 0.000000
0.934783 0.860624 0.000000
0.957977 0.847868 0.000000
0.975067 0.829953 0.000000
0.989654 0.810361 0.000000
1.000000 0.791714 0.000000
0.000000 0.874418 0.000000
0.000000 0.874510 0.000000
0.000000 0.874510 0.000000
0.000000 0.874418 0.000000
0.000000 0.874205 0.000000
0.000000 0.874022 0.000000
0.000000 0.873838 0.000000
0.111635 0.873716 0.000000
0.177401 0.873564 0.000000
0.228794 0.873472 0.000000
0.274479 0.873289 0.000000
0.317082 0.873075 0.000000
0.357763 0.872709 0.000000
0.397345 0.872099 0.000000
0.436011 0.871244 0.000000
0.473640 0.870207 0.000000
0.510796 0.869047 0.000000
0.547509 0.867765 0.000000
0.583337 0.868986 0.000000
0.619165 0.871885 0.000000
0.655695 0.874571 0.000000
0.692683 0.876921 0.000000
0.730007 0.878874 0.000000
0.767575 0.880400 0.000000
0.805386 0.881498 0.000000
0.843229 0.882078 0.000000
0.880491 0.881743 0.000000
0.916625 0.880400 0.000000
0.952117 0.878752 0.000000
0.974273 0.865537 0.000000
0.990356 0.847379 0.000000
1.000000 0.827451 0.000000
0.000000 0.901579 0.000000
0.000000 0.901610 0.000000
0.000000 0.901518 0.000000
0.000000 0.901335 0.000000
0.000000 0.901091 0.000000
0.000000 0.900725 0.000000
0.000000 0.900359 0.000000
0.112215 0.899962 0.000000
0.176913 0.899535 0.000000
0.227543 0.899107 0.000000
0.272557 0.898558 0.000000
0.314611 0.898009 0.000000
0.354803 0.897276 0.000000
0.393805 0.896452 0.004974
0.431861 0.895445 0.016114
