其他预设/【233】日式怀旧街道调色预设208款/1.3D LUT预设（视频调色-PR-AE-PS-FCPX-达芬奇用）/1.日式城市街拍预设/JA – Controlled Contrast 3.cube
# Created by Adobe Lightroom plugin Export LUT (1.17.0)
# www.johnrellis.com/lightroom/exportlut.htm
# Preset: JA – Controlled Contrast 3
# Color profile: /Library/Application Support/Adobe/Color/Profiles/Recommended/AdobeRGB1998.icc
LUT_3D_SIZE 8
DOMAIN_MIN 0.000000 0.000000 0.000000
DOMAIN_MAX 0.903226 0.903226 0.903226
0.064149 0.059663 0.054932
0.064149 0.059663 0.054932
0.146487 0.000519 0.052003
0.387671 0.000000 0.022156
0.544305 0.000000 0.000000
0.750301 0.000000 0.000000
0.884672 0.000000 0.098756
0.957885 0.000000 0.246403
0.064149 0.059663 0.054932
0.064149 0.059663 0.054932
0.134493 0.013703 0.052766
0.376135 0.000000 0.000000
0.526757 0.000000 0.000000
0.733852 0.000000 0.000000
0.872435 0.000000 0.064912
0.949004 0.000000 0.234623
0.061280 0.121096 0.045502
0.060700 0.124666 0.043885
0.160372 0.149386 0.014343
0.384924 0.196262 0.000000
0.535637 0.169223 0.000000
0.757168 0.108583 0.000000
0.884245 0.096956 0.129946
0.959564 0.193545 0.260136
0.000000 0.331121 0.000000
0.102571 0.327977 0.000000
0.231601 0.319432 0.000000
0.378943 0.351171 0.000000
0.589197 0.389837 0.000000
0.789609 0.392340 0.000000
0.881865 0.368444 0.165164
0.955169 0.364416 0.265232
0.172671 0.445380 0.045014
0.201572 0.443793 0.060121
0.282048 0.441596 0.092531
0.387854 0.456428 0.114290
0.534234 0.503807 0.000000
0.736141 0.546227 0.000000
0.866941 0.530663 0.168765
0.947906 0.507195 0.267124
0.299443 0.610834 0.201938
0.325383 0.623102 0.212436
0.379583 0.617731 0.221256
0.458350 0.610468 0.235477
0.558862 0.631556 0.217655
0.703670 0.673701 0.160159
0.837675 0.668452 0.173526
0.939849 0.644282 0.274601
0.385199 0.772396 0.277653
0.400458 0.773281 0.280858
0.443000 0.766812 0.282902
0.512352 0.759701 0.290654
0.594812 0.748165 0.300572
0.691615 0.764675 0.276493
0.808743 0.778012 0.242222
0.908598 0.754055 0.251286
0.507500 0.860929 0.436408
0.515404 0.859983 0.437140
0.545922 0.858091 0.445350
0.601526 0.857359 0.468635
0.646174 0.841794 0.454749
0.721614 0.845823 0.476295
0.806577 0.865141 0.460975
0.910918 0.880705 0.413001
0.064149 0.059663 0.054932
0.064149 0.059663 0.054932
0.140932 0.006531 0.058076
0.377905 0.000000 0.080507
0.527306 0.000000 0.000000
0.727749 0.000000 0.027466
0.865232 0.000000 0.160525
0.941161 0.000000 0.263279
0.064149 0.059663 0.054932
0.064149 0.059663 0.054932
0.146395 0.015930 0.050263
0.377356 0.000000 0.008057
0.521965 0.000000 0.000000
0.719844 0.000000 0.000000
0.855802 0.000000 0.143648
0.932525 0.000000 0.250828
0.060670 0.119661 0.046174
0.071748 0.127382 0.047120
0.173373 0.158328 0.015839
0.383062 0.189548 0.000000
0.528496 0.145449 0.000000
0.730892 0.069581 0.000000
0.860868 0.070985 0.166354
0.939391 0.173129 0.267308
0.011048 0.324651 0.000000
0.117037 0.324437 0.000000
0.234836 0.320439 0.000000
0.371435 0.343938 0.000000
0.545403 0.354772 0.000000
0.743313 0.362341 0.000000
0.857755 0.349218 0.180484
0.935546 0.348211 0.268925
0.190127 0.448035 0.129030
0.215030 0.444617 0.132326
0.287297 0.438697 0.149294
0.378576 0.441688 0.162783
0.510033 0.480598 0.089784
0.711910 0.527764 0.049744
0.855711 0.522179 0.198337
0.935729 0.497719 0.277043
0.297520 0.600275 0.224918
0.314488 0.599634 0.227359
0.366827 0.595544 0.234592
0.445472 0.592950 0.248447
0.546990 0.617609 0.238193
0.696681 0.667506 0.196628
0.832486 0.664179 0.204990
0.931792 0.637659 0.287510
0.370886 0.758816 0.280064
0.382910 0.755215 0.279179
0.427710 0.750881 0.282506
0.500603 0.748226 0.293095
0.586572 0.740719 0.306065
0.683284 0.756466 0.283879
0.799039 0.768795 0.248417
0.896574 0.742885 0.255192
0.494301 0.854337 0.429206
0.504875 0.854459 0.433448
0.537133 0.853086 0.443000
0.594354 0.852781 0.467231
0.659907 0.849058 0.490639
0.726986 0.848508 0.500328
0.803647 0.862272 0.469612
0.904448 0.874784 0.415686
0.000000 0.078889 0.162631
0.011139 0.052827 0.170535
0.199161 0.000000 0.186343
0.378820 0.000000 0.229557
0.544793 0.000000 0.245975
0.749203 0.000000 0.307012
0.867460 0.000000 0.336309
0.945190 0.000000 0.363500
0.000000 0.093172 0.162661
0.000000 0.062043 0.170932
0.201022 0.000000 0.187839
0.381811 0.000000 0.221866
0.537987 0.000000 0.238682
0.740017 0.000000 0.295750
0.861814 0.000000 0.322332
0.940978 0.000000 0.353246
0.000000 0.181735 0.162722
0.000000 0.193210 0.173831
0.225834 0.213382 0.205020
0.393896 0.199283 0.215885
0.560845 0.201755 0.250492
0.749905 0.169436 0.279454
0.862455 0.163943 0.309636
0.939452 0.208164 0.352148
0.000000 0.350835 0.187381
0.106142 0.353307 0.194125
0.282170 0.354009 0.246677
0.391485 0.370214 0.252140
0.586114 0.396674 0.258305
0.760128 0.390112 0.278904
0.862943 0.368872 0.311009
0.939178 0.369574 0.358648
0.207919 0.470039 0.238132
0.245274 0.472816 0.251926
0.332677 0.475959 0.284672
0.413581 0.472175 0.294713
0.540612 0.516075 0.273411
0.735836 0.551263 0.267063
0.857633 0.527428 0.306188
0.935729 0.510613 0.364843
0.277470 0.625147 0.276738
0.307683 0.627131 0.289799
0.372198 0.623316 0.301946
0.451972 0.615015 0.307561
0.550408 0.625391 0.304051
0.697932 0.671015 0.278904
0.832547 0.664332 0.292638
0.933013 0.649592 0.384131
0.369970 0.772763 0.343572
0.384039 0.770413 0.343999
0.428717 0.763729 0.344671
0.500542 0.756313 0.350530
0.586542 0.746487 0.360357
0.684047 0.759243 0.349401
0.803281 0.775204 0.326665
0.905211 0.754971 0.352453
0.511284 0.855741 0.485603
0.515221 0.854215 0.481941
0.543145 0.851682 0.486488
0.603815 0.853422 0.515831
0.664881 0.849180 0.533562
0.732723 0.847990 0.552026
0.806699 0.864164 0.529320
0.906523 0.879942 0.487251
0.000000 0.047608 0.358251
0.000000 0.000000 0.364050
0.236271 0.000000 0.375433
0.390784 0.000000 0.382086
0.528985 0.153445 0.408820
0.727138 0.070130 0.465675
0.852262 0.000000 0.468482
0.932280 0.038819 0.470924
0.000000 0.125185 0.365454
0.000000 0.090059 0.369177
0.234653 0.076539 0.377722
0.393286 0.119722 0.383154
0.530999 0.208347 0.413184
0.727352 0.127138 0.461128
0.849668 0.000000 0.462257
0.930388 0.125673 0.467628
0.000000 0.263493 0.358953
0.024933 0.263951 0.361883
0.264378 0.268833 0.370855
0.400000 0.288334 0.386084
0.554406 0.290990 0.425330
0.755062 0.234470 0.458076
0.860990 0.259220 0.470283
0.935119 0.310369 0.492012
0.129854 0.386023 0.359442
0.200259 0.386297 0.362493
0.310094 0.391272 0.375067
0.417456 0.406561 0.400153
0.593225 0.389868 0.405463
0.758572 0.376989 0.421241
0.854459 0.395911 0.454780
0.929351 0.443030 0.507012
0.251072 0.515496 0.386511
0.272404 0.515312 0.387518
0.332067 0.523980 0.392462
0.446632 0.541924 0.416846
0.579248 0.562097 0.411780
0.763577 0.572137 0.428687
0.852903 0.553307 0.468147
0.927764 0.561364 0.518730
0.279210 0.668330 0.402350
0.301213 0.679744 0.408698
0.363256 0.679377 0.408423
0.479255 0.676997 0.435035
0.580835 0.664576 0.438636
0.717586 0.696803 0.420569
0.835630 0.680262 0.455390
0.928344 0.685023 0.543542
0.355230 0.785428 0.428595
0.374029 0.785916 0.432776
0.433021 0.785122 0.447303
0.528130 0.778408 0.480598
0.607965 0.768460 0.485389
0.695125 0.769772 0.480232
0.804044 0.782040 0.459541
0.904570 0.769039 0.496315
0.532036 0.864103 0.559930
0.544335 0.863828 0.566278
0.592004 0.859251 0.595300
0.628717 0.856718 0.599237
0.681086 0.852476 0.610071
0.742855 0.848814 0.626764
0.810452 0.865354 0.614527
0.905699 0.884733 0.586572
0.000000 0.100740 0.536828
0.000000 0.104402 0.543389
0.247532 0.126009 0.556085
0.444495 0.187076 0.589654
0.591058 0.212619 0.601984
0.724178 0.225559 0.612024
0.825620 0.280125 0.612390
0.915343 0.306554 0.614221
0.000000 0.183322 0.540520
0.000000 0.187320 0.548669
0.267338 0.206821 0.560235
0.448493 0.237613 0.591852
0.590387 0.242496 0.600855
0.724788 0.254124 0.611566
0.826596 0.303075 0.613031
0.915618 0.324407 0.614130
0.147005 0.344762 0.539666
0.204715 0.348547 0.547570
0.280888 0.321843 0.563806
0.441627 0.323339 0.588464
0.586847 0.319066 0.595300
0.717250 0.336431 0.602350
0.826658 0.363928 0.609705
0.914549 0.369360 0.607599
0.193210 0.456214 0.540551
0.224125 0.456245 0.542748
0.299168 0.455390 0.556207
0.423713 0.439979 0.584283
0.595117 0.451942 0.600855
0.724788 0.468605 0.610224
0.832639 0.472084 0.615320
0.913207 0.489387 0.623835
0.237827 0.563897 0.537896
0.258732 0.567132 0.542077
0.329717 0.574090 0.552697
0.452979 0.585901 0.573022
0.597864 0.597162 0.598230
0.742458 0.586908 0.603754
0.828031 0.598444 0.625055
0.905913 0.621973 0.656641
0.282933 0.687098 0.545129
0.303868 0.687861 0.546227
0.369177 0.687007 0.547448
0.472633 0.690486 0.558221
0.594446 0.690669 0.581872
0.716152 0.707546 0.587366
0.826566 0.712856 0.639277
0.911254 0.720943 0.676265
0.388403 0.792660 0.560693
0.403296 0.791348 0.561456
0.455390 0.788510 0.568414
0.538170 0.785336 0.586938
0.630060 0.777829 0.613733
0.701656 0.768795 0.612360
0.795529 0.783322 0.599481
0.894591 0.784482 0.638788
0.547082 0.860838 0.632288
0.555810 0.859861 0.634485
0.585809 0.857176 0.643244
0.644984 0.859739 0.671077
0.694606 0.854856 0.682673
0.746242 0.850675 0.688289
0.807462 0.860624 0.686305
0.896178 0.881559 0.668391
0.000000 0.261051 0.740749
0.120943 0.267582 0.744228
0.302251 0.277348 0.749142
0.460853 0.286656 0.759640
0.614649 0.298833 0.770230
0.737942 0.309178 0.763149
0.821378 0.397742 0.740993
0.884337 0.532097 0.752529
0.000000 0.293400 0.732998
0.130587 0.295140 0.734859
0.297276 0.299260 0.740963
0.453468 0.303532 0.751644
0.609644 0.317662 0.764309
0.734218 0.329259 0.758816
0.818662 0.414038 0.738827
0.881773 0.541650 0.751583
0.195407 0.415808 0.737514
0.210086 0.403296 0.738247
0.284459 0.372442 0.743679
0.452033 0.381964 0.752529
0.612085 0.406348 0.762753
0.735256 0.418616 0.758053
0.815335 0.489143 0.741146
0.881346 0.581994 0.757259
0.190097 0.522271 0.729763
0.221622 0.519005 0.729152
0.333684 0.514122 0.735103
0.467842 0.509270 0.751614
0.630182 0.545617 0.764157
0.743069 0.559838 0.762509
0.811948 0.603601 0.752255
0.888762 0.635615 0.768032
0.231327 0.626276 0.716274
0.261631 0.626459 0.717800
0.352453 0.627283 0.722499
0.481331 0.631586 0.730861
0.621576 0.639460 0.743709
0.735378 0.657893 0.750607
0.801602 0.675776 0.750027
0.894530 0.671809 0.761379
0.297673 0.731960 0.705257
0.327062 0.734524 0.709041
0.406165 0.735103 0.713527
0.518669 0.734646 0.720516
0.636408 0.732845 0.728969
0.734493 0.740322 0.745937
0.814817 0.741604 0.754665
0.903716 0.742763 0.765103
0.465309 0.806546 0.701228
0.484077 0.806668 0.704189
0.532494 0.803830 0.709071
0.603113 0.799741 0.718624
0.673610 0.795499 0.729732
0.735103 0.790860 0.740414
0.796170 0.795712 0.734768
0.904051 0.815366 0.761135
0.597192 0.866270 0.728542
0.603693 0.865354 0.729244
0.626978 0.863218 0.733059
0.665644 0.863310 0.742031
0.705409 0.863127 0.747219
0.752438 0.860563 0.751644
0.808011 0.860472 0.753231
0.892912 0.884398 0.743648
0.187594 0.348669 0.825803
0.230137 0.351202 0.826780
0.334417 0.358495 0.828672
0.462593 0.377844 0.832609
0.594415 0.412665 0.836423
0.715877 0.461738 0.838865
0.807797 0.492287 0.833463
0.884184 0.590814 0.836851
0.193362 0.367407 0.824063
0.234806 0.369726 0.824918
0.337407 0.377234 0.826841
0.463661 0.395300 0.829953
0.595270 0.430121 0.834073
0.716182 0.478492 0.836973
0.806180 0.505516 0.831479
0.881804 0.597406 0.834928
0.284062 0.457527 0.821225
0.294957 0.450813 0.822171
0.360723 0.445533 0.824460
0.482216 0.465705 0.827390
0.608637 0.499886 0.831235
0.725368 0.547936 0.835416
0.807095 0.567864 0.830594
0.881621 0.637598 0.838224
0.335637 0.557061 0.816098
0.360784 0.558251 0.816007
0.446815 0.570031 0.817197
0.518181 0.565332 0.822171
0.634028 0.597070 0.826596
0.740597 0.640192 0.833219
0.808927 0.648707 0.829709
0.881712 0.684077 0.841154
0.356542 0.645167 0.808835
0.376806 0.645838 0.808865
0.442725 0.649683 0.809445
0.549645 0.662654 0.811826
0.653162 0.678981 0.818357
0.745785 0.705928 0.827481
0.809354 0.711604 0.827665
0.881712 0.727474 0.841489
0.423682 0.737697 0.803067
0.441627 0.738186 0.803342
0.498909 0.740139 0.804379
0.582147 0.744717 0.806485
0.666407 0.751217 0.810056
0.743343 0.758267 0.820981
0.813046 0.768063 0.829007
0.884764 0.770779 0.840330
0.505303 0.818448 0.798611
0.520195 0.817990 0.799161
0.565881 0.816037 0.800443
0.629023 0.813535 0.803037
0.691951 0.811734 0.806851
0.750698 0.812802 0.813382
0.812131 0.819333 0.825620
0.907012 0.817899 0.833127
0.637293 0.872465 0.806943
0.643732 0.872496 0.808042
0.665431 0.873777 0.812619
0.693874 0.875303 0.816770
0.726955 0.877562 0.820157
0.764065 0.881193 0.821469
0.813077 0.881102 0.818967
0.895262 0.892546 0.813291
0.406744 0.500542 0.908568
0.425055 0.505028 0.908995
0.480537 0.518242 0.909422
0.564538 0.544121 0.910948
0.660334 0.581201 0.912993
0.754818 0.625635 0.915801
0.832181 0.658198 0.917296
0.894041 0.671412 0.915404
0.420050 0.518029 0.907073
0.437354 0.522179 0.907500
0.490547 0.534844 0.908141
0.571191 0.558892 0.909575
0.664515 0.594049 0.911742
0.756527 0.635554 0.914733
0.832334 0.665187 0.916442
0.893492 0.676448 0.914672
0.474495 0.581292 0.903563
0.481666 0.579767 0.904204
0.522789 0.586786 0.904875
0.597284 0.609430 0.907225
0.680842 0.637690 0.909606
0.763607 0.668421 0.913085
0.835355 0.690272 0.916075
0.894255 0.696071 0.914733
0.536004 0.661769 0.898863
0.555474 0.668421 0.899016
0.586664 0.671321 0.900298
0.627649 0.672175 0.903746
0.698390 0.690669 0.907317
0.770901 0.709499 0.912169
0.839963 0.724819 0.917174
0.896818 0.724758 0.916106
0.528283 0.714199 0.895506
0.543877 0.717037 0.895903
0.589960 0.724788 0.896574
0.652064 0.735348 0.898894
0.700923 0.734188 0.904509
0.770352 0.746792 0.910674
0.842618 0.760403 0.918822
0.900481 0.757626 0.918303
0.578058 0.785275 0.892699
0.586297 0.785733 0.892729
0.613306 0.787320 0.893156
0.652186 0.788785 0.894987
0.701076 0.788907 0.899229
0.759213 0.784787 0.909483
0.839780 0.797971 0.920409
0.906462 0.797940 0.922362
0.628443 0.851499 0.892119
0.633997 0.851469 0.892271
0.652064 0.851408 0.893126
0.680781 0.851438 0.895293
0.716762 0.850858 0.899077
0.758877 0.847959 0.905333
0.824826 0.842191 0.917601
0.911711 0.852415 0.924926
0.668452 0.909270 0.893004
0.672206 0.909148 0.893187
0.685267 0.909087 0.894133
0.707301 0.909667 0.896361
0.736446 0.910826 0.899748
0.774746 0.912627 0.904570
0.832792 0.914916 0.911864
0.915496 0.920684 0.925017
