其他预设/【233】日式怀旧街道调色预设208款/1.3D LUT预设（视频调色-PR-AE-PS-FCPX-达芬奇用）/1.日式城市街拍预设/JA – Cityscape Pop 2.cube
# Created by Adobe Lightroom plugin Export LUT (1.17.0)
# www.johnrellis.com/lightroom/exportlut.htm
# Preset: JA – Cityscape Pop 2
# Color profile: /Library/Application Support/Adobe/Color/Profiles/Recommended/AdobeRGB1998.icc
LUT_3D_SIZE 32
0.112947 0.115755 0.117494
0.112947 0.115755 0.117494
0.113222 0.115724 0.117494
0.114229 0.115541 0.117464
0.118990 0.115419 0.117372
0.128878 0.115419 0.117098
0.146334 0.115908 0.116487
0.172885 0.117433 0.115358
0.207553 0.120272 0.113436
0.248905 0.125185 0.110445
0.296239 0.132387 0.105959
0.348150 0.142214 0.099489
0.403601 0.154238 0.090242
0.460639 0.168704 0.076936
0.517693 0.184390 0.055146
0.573419 0.200473 0.000000
0.627558 0.216403 0.000000
0.678523 0.232120 0.000000
0.731167 0.248386 0.000000
0.781003 0.264012 0.000000
0.824643 0.277562 0.000000
0.862089 0.288792 0.000000
0.893614 0.297673 0.000000
0.920226 0.304967 0.000000
0.943023 0.310246 0.000000
0.962921 0.314061 0.000000
0.980652 0.316838 0.000000
0.996612 0.318517 0.000000
1.000000 0.319097 0.000000
1.000000 0.318944 0.000000
1.000000 0.317693 0.000000
1.000000 0.315709 0.000000
0.112947 0.115755 0.117494
0.112947 0.115755 0.117494
0.113222 0.115724 0.117494
0.114473 0.115724 0.117464
0.118898 0.116121 0.117311
0.128756 0.116579 0.117006
0.146151 0.117464 0.116365
0.172549 0.119661 0.115175
0.206699 0.123262 0.113222
0.247776 0.128756 0.110170
0.294621 0.136385 0.105684
0.346258 0.146334 0.099184
0.401373 0.158907 0.089845
0.458106 0.173281 0.076539
0.514977 0.188785 0.054322
0.570489 0.204532 0.000000
0.624537 0.220462 0.000000
0.675624 0.235721 0.000000
0.728054 0.251804 0.000000
0.777279 0.266972 0.000000
0.821012 0.280369 0.000000
0.858701 0.291386 0.000000
0.890623 0.300298 0.000000
0.917693 0.307164 0.000000
0.940826 0.312474 0.000000
0.961089 0.316228 0.000000
0.979126 0.318853 0.000000
0.995331 0.320470 0.000000
1.000000 0.321050 0.000000
1.000000 0.320836 0.000000
1.000000 0.319615 0.000000
1.000000 0.317632 0.000000
0.112947 0.115755 0.117494
0.112917 0.115999 0.117464
0.113161 0.115938 0.117464
0.114382 0.116426 0.117403
0.119020 0.116976 0.117220
0.128817 0.117861 0.116884
0.145907 0.119661 0.116213
0.171969 0.122560 0.114931
0.206027 0.127108 0.112886
0.246860 0.133303 0.109773
0.293431 0.141665 0.105165
0.344945 0.152468 0.098512
0.399878 0.165133 0.089052
0.456641 0.179507 0.075471
0.513329 0.195102 0.051575
0.568963 0.210666 0.000000
0.622827 0.226139 0.000000
0.674067 0.241306 0.000000
0.726528 0.257084 0.000000
0.775326 0.271977 0.000000
0.819150 0.284733 0.000000
0.856992 0.295445 0.000000
0.889097 0.304234 0.000000
0.916289 0.310948 0.000000
0.939666 0.316075 0.000000
0.960082 0.319493 0.000000
0.978241 0.322210 0.000000
0.994598 0.323644 0.000000
1.000000 0.324102 0.000000
1.000000 0.323796 0.000000
1.000000 0.322332 0.000000
1.000000 0.320226 0.000000
0.112734 0.116884 0.117617
0.112734 0.117098 0.117372
0.113008 0.117067 0.117372
0.113985 0.117342 0.117342
0.119203 0.119112 0.117067
0.128817 0.121279 0.116609
0.145968 0.124453 0.115785
0.172000 0.128756 0.114382
0.205905 0.134981 0.112123
0.246403 0.142947 0.108766
0.292851 0.152529 0.103914
0.344091 0.164401 0.096864
0.398566 0.177890 0.086915
0.455085 0.192935 0.072480
0.511711 0.208011 0.043580
0.567224 0.223362 0.000000
0.620996 0.238773 0.000000
0.672297 0.253422 0.000000
0.724666 0.268650 0.000000
0.772519 0.282444 0.000000
0.815885 0.294926 0.000000
0.853819 0.304967 0.000000
0.886412 0.313451 0.000000
0.914275 0.319615 0.000000
0.938293 0.324285 0.000000
0.959228 0.327642 0.000000
0.977752 0.329625 0.000000
0.994293 0.330999 0.000000
1.000000 0.330938 0.000000
1.000000 0.330205 0.000000
1.000000 0.328527 0.000000
1.000000 0.326085 0.000000
0.112215 0.120180 0.117556
0.112276 0.120180 0.117128
0.112795 0.120333 0.117128
0.114534 0.120699 0.117037
0.117220 0.121126 0.116945
0.128725 0.127016 0.116091
0.145876 0.131533 0.115114
0.171695 0.138003 0.113497
0.205295 0.146365 0.110933
0.245304 0.156313 0.107240
0.291417 0.167880 0.101900
0.342260 0.181125 0.094301
0.396674 0.195773 0.083497
0.453010 0.211337 0.067628
0.509697 0.226658 0.028077
0.565362 0.241917 0.000000
0.619593 0.256901 0.000000
0.672816 0.271672 0.000000
0.724239 0.286137 0.000000
0.771633 0.299138 0.000000
0.814542 0.310369 0.000000
0.852293 0.319768 0.000000
0.884825 0.327276 0.000000
0.912902 0.332921 0.000000
0.937102 0.336889 0.000000
0.958221 0.339574 0.000000
0.976867 0.341161 0.000000
0.993500 0.341711 0.000000
1.000000 0.341344 0.000000
1.000000 0.340063 0.000000
1.000000 0.337957 0.000000
1.000000 0.335149 0.000000
0.110994 0.126925 0.117800
0.111116 0.127108 0.116976
0.111940 0.127199 0.116732
0.114473 0.127443 0.116670
0.118563 0.128603 0.116243
0.124300 0.129671 0.115999
0.145144 0.141848 0.114107
0.171756 0.151400 0.112001
0.205386 0.161013 0.109133
0.245823 0.172915 0.104891
0.291661 0.186709 0.098817
0.342290 0.201633 0.090272
0.396216 0.217411 0.078126
0.452583 0.233371 0.059663
0.509209 0.249363 0.005097
0.564996 0.264622 0.000000
0.619226 0.279484 0.000000
0.674128 0.294560 0.000000
0.724910 0.308141 0.000000
0.771969 0.320226 0.000000
0.814694 0.330816 0.000000
0.852445 0.339361 0.000000
0.902281 0.352544 0.000000
0.927520 0.356512 0.000000
0.949279 0.358556 0.000000
0.968200 0.359533 0.000000
0.984985 0.359655 0.000000
1.000000 0.358770 0.000000
1.000000 0.357214 0.000000
1.000000 0.354925 0.000000
1.000000 0.351965 0.000000
1.000000 0.348302 0.000000
0.108675 0.140078 0.117983
0.108858 0.140261 0.116976
0.109316 0.140566 0.115724
0.113466 0.140932 0.115572
0.119356 0.141573 0.115145
0.127749 0.144045 0.114656
0.138003 0.146242 0.114076
0.171359 0.166629 0.110323
0.209445 0.182956 0.105745
0.250797 0.197024 0.100526
0.298009 0.211307 0.093385
0.349462 0.228061 0.082856
0.403967 0.245212 0.067445
0.460121 0.262150 0.028687
0.516350 0.278233 0.000000
0.571069 0.293309 0.000000
0.626612 0.308415 0.000000
0.682216 0.323278 0.000000
0.732540 0.336248 0.000000
0.779751 0.347692 0.000000
0.822904 0.357794 0.000000
0.861204 0.365515 0.000000
0.894163 0.371557 0.000000
0.922148 0.375311 0.000000
0.945769 0.377234 0.000000
0.965789 0.377661 0.000000
0.983154 0.377081 0.000000
0.998566 0.375555 0.000000
1.000000 0.373236 0.000000
1.000000 0.370367 0.000000
1.000000 0.366766 0.000000
1.000000 0.362615 0.000000
0.104189 0.159091 0.118441
0.104616 0.159518 0.117372
0.105074 0.159823 0.114870
0.109926 0.159976 0.113710
0.118227 0.160403 0.113436
0.128817 0.162112 0.112703
0.142702 0.166720 0.111666
0.158358 0.170260 0.110811
0.200931 0.196017 0.104768
0.250553 0.219638 0.096254
0.297673 0.236240 0.087648
0.349279 0.252842 0.075563
0.403967 0.269535 0.055085
0.459693 0.287816 0.000000
0.515587 0.305333 0.000000
0.570153 0.320806 0.000000
0.628473 0.337530 0.000000
0.682307 0.351507 0.000000
0.731441 0.363470 0.000000
0.777920 0.374029 0.000000
0.820645 0.382971 0.000000
0.858671 0.390082 0.000000
0.891661 0.394995 0.000000
0.919707 0.397925 0.000000
0.943511 0.399115 0.000000
0.963745 0.398779 0.000000
0.981292 0.397253 0.000000
0.996918 0.394873 0.000000
1.000000 0.391882 0.000000
1.000000 0.388159 0.000000
1.000000 0.383978 0.000000
1.000000 0.379126 0.000000
0.096925 0.185245 0.119417
0.097536 0.185733 0.117525
0.098085 0.186130 0.114626
0.102419 0.186496 0.110658
0.114626 0.186435 0.110384
0.128328 0.186465 0.109743
0.144900 0.190799 0.108492
0.164736 0.197238 0.106630
0.185580 0.201816 0.105043
0.235966 0.232090 0.095857
0.298100 0.263859 0.079805
0.349737 0.281956 0.063874
0.404395 0.299290 0.021759
0.460945 0.315648 0.000000
0.516655 0.331640 0.000000
0.574914 0.349981 0.000000
0.631373 0.366552 0.000000
0.683436 0.381048 0.000000
0.731563 0.393164 0.000000
0.777371 0.402991 0.000000
0.819638 0.411200 0.000000
0.857389 0.417060 0.000000
0.890074 0.421027 0.000000
0.918029 0.423041 0.000000
0.941833 0.423224 0.000000
0.962158 0.422065 0.000000
0.979828 0.419654 0.000000
0.995575 0.416388 0.000000
1.000000 0.412482 0.000000
1.000000 0.408118 0.000000
1.000000 0.403174 0.000000
1.000000 0.397711 0.000000
0.084596 0.217197 0.120455
0.085420 0.217716 0.117983
0.086610 0.218021 0.114443
0.088991 0.218448 0.106111
0.106600 0.218051 0.105531
0.125399 0.217868 0.105013
0.144778 0.218540 0.103975
0.167300 0.225467 0.101564
0.193210 0.233860 0.098573
0.219028 0.239750 0.095766
0.275517 0.273045 0.081544
0.347326 0.310674 0.042847
0.404120 0.331304 0.000000
0.460914 0.348730 0.000000
0.521324 0.366400 0.000000
0.579797 0.381201 0.000000
0.635401 0.397009 0.000000
0.686671 0.410407 0.000000
0.733974 0.422004 0.000000
0.778805 0.432471 0.000000
0.819821 0.441352 0.000000
0.856443 0.446143 0.000000
0.888396 0.448615 0.000000
0.915801 0.449378 0.000000
0.939422 0.448585 0.000000
0.959899 0.446509 0.000000
0.977813 0.443610 0.000000
0.993866 0.439582 0.000000
1.000000 0.434913 0.000000
1.000000 0.429847 0.000000
1.000000 0.424231 0.000000
1.000000 0.418036 0.000000
0.063478 0.252934 0.121828
0.064668 0.253544 0.119173
0.066590 0.253971 0.114595
0.070192 0.254246 0.103761
0.091096 0.254124 0.098817
0.117433 0.253605 0.097963
0.142489 0.252964 0.096956
0.167422 0.256901 0.094759
0.195865 0.265629 0.090608
0.227298 0.276036 0.085267
0.257755 0.283116 0.080507
0.318639 0.318456 0.054994
0.401953 0.363287 0.000000
0.465400 0.387243 0.000000
0.524041 0.404608 0.000000
0.581323 0.419226 0.000000
0.636652 0.431189 0.000000
0.687739 0.440803 0.000000
0.734371 0.451453 0.000000
0.778683 0.460792 0.000000
0.819242 0.468696 0.000000
0.855406 0.474708 0.000000
0.887022 0.478065 0.000000
0.914427 0.477790 0.000000
0.938018 0.475990 0.000000
0.958434 0.472938 0.000000
0.976349 0.468940 0.000000
0.992401 0.464485 0.000000
1.000000 0.458961 0.000000
1.000000 0.453010 0.000000
1.000000 0.446509 0.000000
1.000000 0.439826 0.000000
0.000000 0.292943 0.123781
0.000000 0.293523 0.120363
0.000000 0.293858 0.115267
0.009583 0.294102 0.102602
0.059785 0.294316 0.088899
0.101930 0.293400 0.087617
0.135561 0.292546 0.086366
0.165011 0.291478 0.084962
0.196109 0.299718 0.079744
0.229923 0.310460 0.072358
0.266911 0.323156 0.061372
0.303685 0.333837 0.043549
0.385809 0.387610 0.000000
0.482338 0.439124 0.000000
0.548394 0.461952 0.000000
0.605554 0.475532 0.000000
0.659510 0.485786 0.000000
0.708675 0.492500 0.000000
0.754147 0.496681 0.000000
0.796170 0.501671 0.000000
0.833555 0.506554 0.000000
0.866636 0.509789 0.000000
0.895476 0.511162 0.000000
0.920500 0.511498 0.000000
0.942504 0.507713 0.000000
0.961761 0.503136 0.000000
0.978851 0.497627 0.000000
0.994171 0.491737 0.000000
1.000000 0.485542 0.000000
1.000000 0.478401 0.000000
1.000000 0.471138 0.000000
1.000000 0.463386 0.000000
0.000000 0.340368 0.126284
0.000000 0.340856 0.122377
0.000000 0.341070 0.116579
0.000000 0.341009 0.101381
0.000000 0.340734 0.072206
0.071565 0.339086 0.071168
0.122103 0.337560 0.069306
0.160220 0.335882 0.067414
0.194308 0.337346 0.063203
0.232456 0.350805 0.042512
0.273777 0.366552 0.003571
0.319036 0.384253 0.000000
0.361852 0.397162 0.000000
0.433936 0.438666 0.000000
0.533898 0.490486 0.000000
0.603113 0.515343 0.000000
0.657038 0.525536 0.000000
0.705867 0.531670 0.000000
0.751064 0.535302 0.000000
0.793240 0.537469 0.000000
0.831235 0.537377 0.000000
0.864378 0.538720 0.000000
0.893126 0.539025 0.000000
0.918151 0.538262 0.000000
0.940002 0.536553 0.000000
0.959350 0.531151 0.000000
0.976562 0.524956 0.000000
0.992065 0.518181 0.000000
1.000000 0.511162 0.000000
1.000000 0.503716 0.000000
1.000000 0.495705 0.000000
1.000000 0.487282 0.000000
0.000000 0.384375 0.129183
0.000000 0.384741 0.125032
0.000000 0.385046 0.118563
0.000000 0.385168 0.102449
0.000000 0.384527 0.065858
0.000000 0.383124 0.033783
0.097505 0.382300 0.026673
0.148989 0.381933 0.017487
0.190188 0.381018 0.007965
0.229892 0.389014 0.000000
0.272892 0.403967 0.000000
0.318517 0.420905 0.000000
0.367102 0.439155 0.000000
0.412116 0.451423 0.000000
0.482399 0.489845 0.000000
0.581476 0.539055 0.000000
0.651972 0.564202 0.000000
0.702541 0.571527 0.000000
0.747738 0.574670 0.000000
0.789792 0.576226 0.000000
0.827939 0.575433 0.000000
0.861784 0.572656 0.000000
0.891112 0.568597 0.000000
0.916197 0.566644 0.000000
0.938140 0.563775 0.000000
0.957366 0.560143 0.000000
0.974670 0.553185 0.000000
0.990265 0.545586 0.000000
1.000000 0.537804 0.000000
1.000000 0.529778 0.000000
1.000000 0.521172 0.000000
1.000000 0.512169 0.000000
0.000000 0.432807 0.132570
0.000000 0.433143 0.128359
0.000000 0.433448 0.121096
0.000000 0.433936 0.103914
0.000000 0.433753 0.061372
0.000000 0.433143 0.000000
0.021607 0.431586 0.000000
0.129763 0.429816 0.000000
0.181277 0.428199 0.000000
0.223697 0.426917 0.000000
0.268315 0.440742 0.000000
0.315007 0.456886 0.000000
0.363836 0.474128 0.000000
0.414588 0.492164 0.000000
0.460609 0.503197 0.000000
0.529778 0.538933 0.000000
0.624964 0.584466 0.000000
0.696132 0.609644 0.000000
0.744747 0.615381 0.000000
0.786770 0.616022 0.000000
0.824704 0.614343 0.000000
0.858549 0.610712 0.000000
0.888029 0.605188 0.000000
0.913848 0.598108 0.000000
0.936187 0.591882 0.000000
0.955627 0.587366 0.000000
0.972992 0.582269 0.000000
0.988891 0.573938 0.000000
1.000000 0.565393 0.000000
1.000000 0.556695 0.000000
1.000000 0.547814 0.000000
1.000000 0.538018 0.000000
0.000000 0.482856 0.136599
0.000000 0.483223 0.131991
0.000000 0.483680 0.125277
0.000000 0.484016 0.105745
0.000000 0.483742 0.059724
0.000000 0.483528 0.000000
0.000000 0.481849 0.000000
0.094423 0.479805 0.000000
0.165988 0.477607 0.000000
0.216342 0.475593 0.000000
0.261418 0.478401 0.000000
0.309270 0.493080 0.000000
0.357855 0.508537 0.000000
0.408057 0.524773 0.000000
0.459419 0.541619 0.000000
0.505333 0.551110 0.000000
0.572595 0.583795 0.000000
0.662959 0.625422 0.000000
0.736904 0.652644 0.000000
0.784176 0.657191 0.000000
0.822446 0.655055 0.000000
0.856443 0.650568 0.000000
0.886107 0.643793 0.000000
0.912016 0.635798 0.000000
0.934722 0.626703 0.000000
0.954711 0.617151 0.000000
0.972137 0.610224 0.000000
0.987854 0.603265 0.000000
1.000000 0.593805 0.000000
1.000000 0.584222 0.000000
1.000000 0.574487 0.000000
1.000000 0.564416 0.000000
0.000000 0.529503 0.141268
0.000000 0.529686 0.136049
0.000000 0.529808 0.129702
0.000000 0.530205 0.110872
0.000000 0.529717 0.064332
0.000000 0.529320 0.000000
0.000000 0.527733 0.000000
0.000000 0.525383 0.000000
0.139712 0.522911 0.000000
0.202152 0.520226 0.000000
0.251530 0.517357 0.000000
0.299413 0.526116 0.000000
0.349035 0.540948 0.000000
0.399207 0.556481 0.000000
0.450477 0.572503 0.000000
0.502220 0.588281 0.000000
0.547845 0.596429 0.000000
0.612390 0.625605 0.000000
0.698543 0.664424 0.000000
0.775051 0.693660 0.000000
0.818723 0.695338 0.000000
0.852903 0.690059 0.000000
0.882719 0.682460 0.000000
0.908873 0.673304 0.000000
0.931792 0.663325 0.000000
0.952026 0.652644 0.000000
0.970092 0.641688 0.000000
0.986267 0.631189 0.000000
1.000000 0.622400 0.000000
1.000000 0.612055 0.000000
1.000000 0.601678 0.000000
1.000000 0.591180 0.000000
0.000000 0.575036 0.145785
0.000000 0.575616 0.141085
0.000000 0.589624 0.134676
0.000000 0.589899 0.116030
0.000000 0.589105 0.067720
0.000000 0.588281 0.000000
0.000000 0.586511 0.000000
0.000000 0.583154 0.000000
0.096010 0.579980 0.000000
0.184512 0.576593 0.000000
0.243534 0.572992 0.000000
0.292638 0.569665 0.000000
0.344182 0.583429 0.000000
0.395453 0.597711 0.000000
0.446876 0.612055 0.000000
0.498268 0.626307 0.000000
0.550042 0.640436 0.000000
0.595453 0.647333 0.000000
0.657191 0.672816 0.000000
0.737972 0.707424 0.000000
0.814450 0.736355 0.000000
0.852506 0.733150 0.000000
0.882780 0.724575 0.000000
0.908263 0.713710 0.000000
0.930632 0.701900 0.000000
0.950439 0.689631 0.000000
0.968139 0.677302 0.000000
0.984192 0.665095 0.000000
0.998901 0.653285 0.000000
1.000000 0.640284 0.000000
1.000000 0.629114 0.000000
1.000000 0.617914 0.000000
0.000000 0.623346 0.151431
0.000000 0.625299 0.147066
0.000000 0.627283 0.139651
0.000000 0.629175 0.121736
0.000000 0.629847 0.077272
0.000000 0.629786 0.000000
0.000000 0.628748 0.000000
0.000000 0.625727 0.000000
0.000000 0.622705 0.000000
0.152346 0.619257 0.000000
0.225040 0.615503 0.000000
0.280247 0.611444 0.000000
0.330175 0.613855 0.000000
0.382147 0.627100 0.000000
0.433600 0.640375 0.000000
0.484718 0.653651 0.000000
0.535790 0.666957 0.000000
0.586786 0.680110 0.000000
0.631891 0.686458 0.000000
0.690913 0.709041 0.000000
0.765743 0.739467 0.000000
0.838163 0.764767 0.000000
0.877317 0.763058 0.000000
0.904814 0.752682 0.000000
0.927489 0.739742 0.000000
0.947570 0.726406 0.000000
0.965545 0.712947 0.000000
0.981811 0.699794 0.000000
0.996674 0.686854 0.000000
1.000000 0.673274 0.000000
1.000000 0.657008 0.000000
1.000000 0.645075 0.000000
0.000000 0.664820 0.156619
0.000000 0.666590 0.152163
0.000000 0.668360 0.145205
0.000000 0.669978 0.128328
0.000000 0.670893 0.089509
0.000000 0.670588 0.000000
0.000000 0.669856 0.000000
0.000000 0.667475 0.000000
0.000000 0.664515 0.000000
0.102571 0.661097 0.000000
0.199435 0.657649 0.000000
0.263951 0.653712 0.000000
0.316472 0.649256 0.000000
0.368261 0.657343 0.000000
0.420172 0.669764 0.000000
0.471321 0.682155 0.000000
0.522118 0.694545 0.000000
0.572595 0.706874 0.000000
0.622858 0.718776 0.000000
0.667048 0.724208 0.000000
0.722347 0.743099 0.000000
0.790677 0.769131 0.000000
0.858946 0.790524 0.000000
0.899321 0.790555 0.000000
0.924254 0.778225 0.000000
0.944518 0.763729 0.000000
0.962676 0.749050 0.000000
0.979095 0.734798 0.000000
0.994110 0.720760 0.000000
1.000000 0.707240 0.000000
1.000000 0.691524 0.000000
1.000000 0.674495 0.000000
0.000000 0.705348 0.162509
0.000000 0.706935 0.157565
0.000000 0.708461 0.151247
0.000000 0.710018 0.134737
0.000000 0.710780 0.099825
0.000000 0.710628 0.000000
0.000000 0.709926 0.000000
0.000000 0.708339 0.000000
0.000000 0.705257 0.000000
0.000000 0.702083 0.000000
0.164858 0.698604 0.000000
0.242435 0.694789 0.000000
0.301610 0.690425 0.000000
0.352667 0.687526 0.000000
0.405829 0.699306 0.000000
0.457557 0.711177 0.000000
0.508629 0.723079 0.000000
0.559136 0.734859 0.000000
0.609125 0.746212 0.000000
0.658289 0.757076 0.000000
0.701961 0.761990 0.000000
0.753933 0.777554 0.000000
0.815763 0.798886 0.000000
0.879667 0.816373 0.000000
0.921538 0.818173 0.000000
0.943938 0.803983 0.000000
0.962158 0.787991 0.000000
0.978576 0.772213 0.000000
0.993530 0.756924 0.000000
1.000000 0.742061 0.000000
1.000000 0.727169 0.000000
1.000000 0.709377 0.000000
0.000000 0.750454 0.168795
0.000000 0.751186 0.164431
0.000000 0.751766 0.158450
0.000000 0.752285 0.143282
0.000000 0.752529 0.112642
0.000000 0.752071 0.000000
0.000000 0.751461 0.000000
0.000000 0.750607 0.000000
0.000000 0.748135 0.000000
0.000000 0.745327 0.000000
0.112215 0.742367 0.000000
0.216281 0.738888 0.000000
0.284398 0.734981 0.000000
0.340429 0.730556 0.000000
0.392309 0.732876 0.000000
0.445075 0.743435 0.000000
0.495888 0.753689 0.000000
0.545892 0.763729 0.000000
0.594781 0.773373 0.000000
0.642786 0.782437 0.000000
0.689479 0.790707 0.000000
0.731350 0.793881 0.000000
0.779110 0.805386 0.000000
0.834012 0.822049 0.000000
0.894102 0.836271 0.000000
0.938048 0.840421 0.000000
0.958404 0.824857 0.000000
0.975525 0.808316 0.000000
0.990661 0.791897 0.000000
1.000000 0.775967 0.000000
1.000000 0.760555 0.000000
1.000000 0.743343 0.000000
0.000000 0.787015 0.174929
0.000000 0.787594 0.170932
0.000000 0.788205 0.165225
0.000000 0.788632 0.150759
0.000000 0.788846 0.124636
0.000000 0.788479 0.034272
0.000000 0.787869 0.000000
0.000000 0.787259 0.000000
0.000000 0.785245 0.000000
0.000000 0.782620 0.000000
0.000000 0.779782 0.000000
0.179477 0.776669 0.000000
0.260502 0.773037 0.000000
0.322881 0.769162 0.000000
0.376257 0.764828 0.000000
0.428809 0.771633 0.000000
0.480140 0.780697 0.000000
0.529870 0.789487 0.000000
0.578424 0.797818 0.000000
0.625696 0.805722 0.000000
0.671809 0.812955 0.000000
0.716274 0.819181 0.000000
0.756588 0.821439 0.000000
0.801083 0.830014 0.000000
0.848692 0.841398 0.000000
0.905547 0.853239 0.000000
0.952209 0.860258 0.000000
0.970947 0.843778 0.000000
0.987121 0.826841 0.000000
1.000000 0.809903 0.000000
1.000000 0.793454 0.000000
1.000000 0.777096 0.000000
0.000000 0.824399 0.181979
0.000000 0.825040 0.178470
0.000000 0.825437 0.173281
0.000000 0.825528 0.160250
0.000000 0.825437 0.137514
0.000000 0.824918 0.077729
0.000000 0.824247 0.000000
0.000000 0.823484 0.000000
0.000000 0.821805 0.000000
0.000000 0.819028 0.000000
0.000000 0.815946 0.000000
0.125795 0.812741 0.000000
0.231083 0.809171 0.000000
0.301061 0.805325 0.000000
0.359167 0.800961 0.000000
0.411017 0.798459 0.000000
0.462440 0.805661 0.000000
0.512047 0.812741 0.000000
0.559991 0.819730 0.000000
0.606775 0.826352 0.000000
0.652125 0.832578 0.000000
0.696101 0.838163 0.000000
0.738277 0.842527 0.000000
0.776944 0.843565 0.000000
0.818082 0.849485 0.000000
0.862211 0.859556 0.000000
0.916350 0.869352 0.000000
0.963958 0.877653 0.000000
0.982818 0.861875 0.000000
0.998077 0.844450 0.000000
1.000000 0.827024 0.000000
1.000000 0.810208 0.000000
0.000000 0.853605 0.188388
0.000000 0.854124 0.184970
0.000000 0.854459 0.180117
0.000000 0.854551 0.168795
0.000000 0.854398 0.148104
0.000000 0.854093 0.102480
0.000000 0.853666 0.000000
0.000000 0.853208 0.000000
0.000000 0.852598 0.000000
0.000000 0.850248 0.000000
0.000000 0.847776 0.000000
0.000000 0.845090 0.000000
0.193912 0.842161 0.000000
0.275853 0.838834 0.000000
0.339300 0.835294 0.000000
0.394141 0.831357 0.000000
0.445411 0.832578 0.000000
0.495216 0.838285 0.000000
0.543206 0.843839 0.000000
0.589441 0.849119 0.000000
0.634241 0.854002 0.000000
0.677607 0.858366 0.000000
0.719326 0.862119 0.000000
0.759274 0.864805 0.000000
0.796262 0.864836 0.000000
0.834928 0.868681 0.000000
0.874540 0.876310 0.000000
0.926238 0.884459 0.000000
0.972107 0.891478 0.000000
0.994293 0.879332 0.000000
1.000000 0.861418 0.000000
1.000000 0.843473 0.000000
0.000000 0.880980 0.195377
0.000000 0.881285 0.192538
0.000000 0.881407 0.188235
0.000000 0.881315 0.178012
0.000000 0.881041 0.160800
0.000000 0.880705 0.123964
0.000000 0.880308 0.000000
0.000000 0.879942 0.000000
0.000000 0.879667 0.000000
0.000000 0.878111 0.000000
0.000000 0.875914 0.000000
0.000000 0.873655 0.000000
0.143557 0.871122 0.000000
0.245274 0.868315 0.000000
0.315648 0.865202 0.000000
0.374334 0.861814 0.000000
0.426581 0.858274 0.000000
0.476753 0.861692 0.000000
0.524834 0.865934 0.000000
0.570947 0.870024 0.000000
0.615320 0.873777 0.000000
0.658167 0.877073 0.000000
0.699428 0.879911 0.000000
0.739040 0.882261 0.000000
0.777035 0.883574 0.000000
0.812589 0.882811 0.000000
0.849027 0.885100 0.000000
0.884794 0.890898 0.000000
0.934142 0.897520 0.000000
0.978576 0.903563 0.000000
1.000000 0.894987 0.000000
1.000000 0.876616 0.000000
0.000000 0.904601 0.202731
0.000000 0.904753 0.200076
0.000000 0.904845 0.196017
0.000000 0.904814 0.187259
0.000000 0.904662 0.172610
0.000000 0.904631 0.144442
0.000000 0.904845 0.074037
0.000000 0.905211 0.000000
0.000000 0.905791 0.000000
0.000000 0.905638 0.000000
0.000000 0.904417 0.000000
0.000000 0.903014 0.000000
0.054871 0.901305 0.000000
0.211154 0.899260 0.000000
0.291051 0.896880 0.000000
0.354742 0.894041 0.000000
0.409796 0.891112 0.000000
0.460365 0.889464 0.000000
0.509056 0.892271 0.000000
0.555200 0.894926 0.000000
0.599359 0.897307 0.000000
0.641840 0.899382 0.000000
0.682612 0.901061 0.000000
0.721859 0.902312 0.000000
0.759548 0.903197 0.000000
0.795621 0.903227 0.000000
0.829740 0.901701 0.000000
0.864195 0.902495 0.000000
0.897063 0.906523 0.000000
0.943297 0.911589 0.000000
0.985931 0.916381 0.000000
1.000000 0.910918 0.000000
0.000000 0.929381 0.212802
0.000000 0.929442 0.210636
0.000000 0.929412 0.207553
0.000000 0.929229 0.199924
0.000000 0.928985 0.187991
0.000000 0.928710 0.168276
0.000000 0.928771 0.117403
0.000000 0.928954 0.000000
0.000000 0.929229 0.000000
0.000000 0.929412 0.000000
0.000000 0.928008 0.000000
0.000000 0.926390 0.000000
0.000000 0.924620 0.000000
0.167666 0.922606 0.000000
0.261234 0.920378 0.000000
