其他预设/【233】日式怀旧街道调色预设208款/1.3D LUT预设（视频调色-PR-AE-PS-FCPX-达芬奇用）/1.日式城市街拍预设/JA – Subdued 2.cube
# Created by Adobe Lightroom plugin Export LUT (1.17.0)
# www.johnrellis.com/lightroom/exportlut.htm
# Preset: JA – Subdued 2
# Color profile: /Library/Application Support/Adobe/Color/Profiles/Recommended/AdobeRGB1998.icc
LUT_3D_SIZE 5
DOMAIN_MIN 0.000000 0.000000 0.000000
DOMAIN_MAX 0.903226 0.903226 0.903226
0.105257 0.103426 0.114748
0.187137 0.102968 0.112947
0.581781 0.172366 0.003693
0.853819 0.263096 0.000000
0.970764 0.287205 0.000000
0.108888 0.175845 0.117037
0.193027 0.178531 0.112154
0.579828 0.317601 0.000000
0.851041 0.365515 0.000000
0.972503 0.362951 0.000000
0.066041 0.498451 0.000000
0.293645 0.491005 0.000000
0.611322 0.550713 0.000000
0.847501 0.565240 0.000000
0.964813 0.530480 0.000000
0.000000 0.756130 0.000000
0.287480 0.751553 0.000000
0.575280 0.733577 0.000000
0.824002 0.750362 0.000000
0.955016 0.693660 0.000000
0.171237 0.894499 0.000000
0.297063 0.891234 0.000000
0.520745 0.876188 0.000000
0.747555 0.869810 0.000000
0.947509 0.873075 0.000000
0.090028 0.107301 0.178714
0.172732 0.102419 0.180423
0.552667 0.000000 0.154543
0.839719 0.148470 0.091493
0.964538 0.247349 0.000000
0.097841 0.173159 0.189120
0.179751 0.175113 0.190219
0.565332 0.229129 0.153933
0.839078 0.295506 0.072602
0.963958 0.325628 0.000000
0.000000 0.494911 0.237675
0.161501 0.505455 0.148318
0.583917 0.527855 0.082643
0.837034 0.545647 0.000000
0.961852 0.508507 0.000000
0.000000 0.758968 0.130709
0.175174 0.757076 0.114839
0.548974 0.736538 0.000000
0.819242 0.747921 0.000000
0.952392 0.691554 0.000000
0.000000 0.896605 0.143801
0.295842 0.889891 0.229465
0.517479 0.881163 0.183810
0.745205 0.871214 0.112856
0.945586 0.874296 0.138094
0.000000 0.100649 0.454383
0.243351 0.000000 0.471809
0.542718 0.000000 0.482399
0.817411 0.000000 0.447303
0.946868 0.278752 0.416175
0.000000 0.251591 0.454200
0.105623 0.171481 0.474464
0.557153 0.000000 0.494606
0.814847 0.186099 0.449378
0.936431 0.454383 0.478889
0.000000 0.500114 0.481239
0.000000 0.506004 0.485786
0.559014 0.529870 0.501396
0.808377 0.561028 0.494911
0.939513 0.560052 0.463569
0.000000 0.754543 0.468025
0.000000 0.752651 0.451850
0.529381 0.743008 0.463111
0.800412 0.745174 0.459876
0.932158 0.726528 0.476661
0.000000 0.891600 0.404669
0.186160 0.889158 0.409125
0.546960 0.874571 0.469032
0.737789 0.861997 0.414191
0.929625 0.869810 0.452918
0.000000 0.091768 0.690883
0.169589 0.000000 0.697230
0.529442 0.000000 0.718318
0.802243 0.000000 0.713252
0.919921 0.316136 0.646204
0.000000 0.226047 0.688350
0.000000 0.177432 0.695277
0.511498 0.142031 0.714595
0.796353 0.206119 0.709468
0.914458 0.414496 0.651514
0.000000 0.491585 0.673030
0.000000 0.489540 0.674067
0.518029 0.510948 0.693416
0.780850 0.553765 0.701381
0.905211 0.611933 0.676967
0.000000 0.718624 0.686061
0.004608 0.718441 0.685023
0.524987 0.723537 0.686976
0.773037 0.742672 0.701595
0.906676 0.760403 0.700587
0.000000 0.886931 0.650813
0.189883 0.883452 0.649470
0.514214 0.873259 0.650599
0.743435 0.860227 0.665522
0.909087 0.867247 0.669825
0.000000 0.125460 0.833036
0.000000 0.101411 0.834592
0.427955 0.000000 0.840360
0.719844 0.136934 0.848539
0.911711 0.299596 0.836820
0.000000 0.224125 0.831052
0.000000 0.221439 0.832425
0.431830 0.235721 0.837369
0.725093 0.329198 0.844205
0.907225 0.408026 0.834195
0.000000 0.486641 0.819181
0.224369 0.493629 0.820096
0.500603 0.514946 0.825071
0.741329 0.572961 0.833524
0.897520 0.607233 0.830655
0.000000 0.668513 0.817319
0.234958 0.672236 0.815763
0.508843 0.689815 0.811917
0.741024 0.725032 0.821500
0.893614 0.756039 0.834684
0.122438 0.849424 0.826841
0.283757 0.849210 0.826047
0.531151 0.850126 0.824857
0.728878 0.852262 0.823667
0.888060 0.867155 0.836240
