其他预设/【233】日式怀旧街道调色预设208款/1.3D LUT预设（视频调色-PR-AE-PS-FCPX-达芬奇用）/1.日式城市街拍预设/JA – Cine Night 5.cube
# Created by Adobe Lightroom plugin Export LUT (1.17.0)
# www.johnrellis.com/lightroom/exportlut.htm
# Preset: JA – Cine Night 5
# Color profile: /Library/Application Support/Adobe/Color/Profiles/Recommended/AdobeRGB1998.icc
LUT_3D_SIZE 32
0.000000 0.030060 0.060395
0.000000 0.030579 0.061646
0.005615 0.032837 0.062806
0.021759 0.039307 0.065400
0.047242 0.050141 0.068299
0.068574 0.060212 0.070924
0.093111 0.066102 0.073671
0.131380 0.068299 0.075746
0.187533 0.060822 0.076692
0.261509 0.000000 0.075410
0.350958 0.000000 0.070497
0.449500 0.000000 0.059846
0.549554 0.000000 0.024720
0.644892 0.000000 0.000000
0.730678 0.000000 0.000000
0.801999 0.000000 0.000000
0.859617 0.000000 0.000000
0.909209 0.000000 0.000000
0.948730 0.000000 0.000000
0.980804 0.000000 0.000000
1.000000 0.000000 0.000000
1.000000 0.000000 0.000000
1.000000 0.000000 0.000000
1.000000 0.000000 0.000000
1.000000 0.000000 0.000000
1.000000 0.000000 0.000000
1.000000 0.000000 0.093355
1.000000 0.000000 0.139559
1.000000 0.000000 0.184207
1.000000 0.000000 0.230991
1.000000 0.134218 0.281621
1.000000 0.214054 0.337774
0.000000 0.038453 0.062318
0.000000 0.040223 0.060456
0.006775 0.043458 0.059815
0.023957 0.048280 0.060761
0.048890 0.057221 0.064027
0.069245 0.064454 0.067140
0.094087 0.070192 0.070497
0.132662 0.072389 0.072511
0.188907 0.066926 0.073060
0.262852 0.018036 0.072633
0.352056 0.000000 0.067323
0.450477 0.000000 0.054566
0.549859 0.000000 0.015808
0.644923 0.000000 0.000000
0.730556 0.000000 0.000000
0.801785 0.000000 0.000000
0.859220 0.000000 0.000000
0.908446 0.000000 0.000000
0.947753 0.000000 0.000000
0.979889 0.000000 0.000000
1.000000 0.000000 0.000000
1.000000 0.000000 0.000000
1.000000 0.000000 0.000000
1.000000 0.000000 0.000000
1.000000 0.000000 0.000000
1.000000 0.000000 0.000000
1.000000 0.000000 0.086213
1.000000 0.000000 0.134157
1.000000 0.000000 0.179477
1.000000 0.000000 0.226810
1.000000 0.133486 0.277745
1.000000 0.212406 0.333806
0.000000 0.051209 0.066072
0.000000 0.053590 0.065553
0.001617 0.058015 0.061891
0.022126 0.060334 0.058900
0.051118 0.064454 0.057923
0.071290 0.070253 0.061158
0.095888 0.075380 0.064515
0.134524 0.078248 0.067781
0.191073 0.073976 0.068605
0.265080 0.042542 0.067933
0.354559 0.000000 0.062104
0.452338 0.000000 0.043732
0.551843 0.000000 0.001251
0.646662 0.000000 0.000000
0.731685 0.000000 0.000000
0.802426 0.000000 0.000000
0.859892 0.000000 0.000000
0.908568 0.000000 0.000000
0.947692 0.000000 0.000000
0.979644 0.000000 0.000000
1.000000 0.000000 0.000000
1.000000 0.000000 0.000000
1.000000 0.000000 0.000000
1.000000 0.000000 0.000000
1.000000 0.000000 0.000000
1.000000 0.000000 0.000000
1.000000 0.000000 0.076356
1.000000 0.000000 0.128176
1.000000 0.000000 0.174380
1.000000 0.000000 0.222141
1.000000 0.134768 0.273381
1.000000 0.211948 0.329656
0.000000 0.067567 0.077211
0.000000 0.068330 0.077790
0.000000 0.069245 0.076051
0.008637 0.072511 0.067628
0.044587 0.076539 0.057527
0.070741 0.081453 0.053925
0.098695 0.086885 0.050690
0.139681 0.090883 0.053468
0.196872 0.088777 0.056001
0.271855 0.073701 0.053193
0.361120 0.000000 0.041108
0.459022 0.000000 0.013153
0.557397 0.000000 0.000000
0.651179 0.000000 0.000000
0.735195 0.000000 0.000000
0.804959 0.000000 0.000000
0.861967 0.000000 0.000000
0.909728 0.000000 0.000000
0.948119 0.000000 0.000000
0.979583 0.000000 0.000000
1.000000 0.000000 0.000000
1.000000 0.000000 0.000000
1.000000 0.000000 0.000000
1.000000 0.000000 0.000000
1.000000 0.000000 0.000000
1.000000 0.000000 0.000000
1.000000 0.000000 0.049439
1.000000 0.000000 0.115145
1.000000 0.000000 0.164218
1.000000 0.000000 0.213016
1.000000 0.140658 0.264958
1.000000 0.212741 0.321416
0.000000 0.078950 0.089479
0.000000 0.079316 0.089479
0.000000 0.080842 0.090150
0.000000 0.081697 0.087495
0.018616 0.086976 0.075990
0.062776 0.095399 0.061952
0.094179 0.103822 0.052399
0.139345 0.110689 0.037598
0.202731 0.112245 0.022889
0.281773 0.104921 0.005737
0.371221 0.080293 0.000000
0.468452 0.000000 0.000000
0.565667 0.000000 0.000000
0.658198 0.000000 0.000000
0.740780 0.000000 0.000000
0.809201 0.000000 0.000000
0.865599 0.000000 0.000000
0.912169 0.000000 0.000000
0.949828 0.000000 0.000000
0.980774 0.000000 0.000000
1.000000 0.000000 0.000000
1.000000 0.000000 0.000000
1.000000 0.000000 0.000000
1.000000 0.000000 0.000000
1.000000 0.000000 0.000000
1.000000 0.000000 0.000000
1.000000 0.000000 0.000000
1.000000 0.000000 0.091432
1.000000 0.000000 0.146548
1.000000 0.053437 0.197757
1.000000 0.148989 0.251041
1.000000 0.214511 0.308232
0.000000 0.091768 0.102693
0.000000 0.092073 0.102663
0.000000 0.093141 0.102571
0.000000 0.095369 0.097963
0.000000 0.096925 0.094942
0.033478 0.105013 0.083589
0.080751 0.119356 0.066896
0.128969 0.131350 0.056855
0.198581 0.139742 0.032471
0.281285 0.141115 0.000000
0.378241 0.133791 0.000000
0.481788 0.111940 0.000000
0.578241 0.064546 0.000000
0.669215 0.000000 0.000000
0.749416 0.000000 0.000000
0.815671 0.000000 0.000000
0.870848 0.000000 0.000000
0.915892 0.000000 0.000000
0.952483 0.000000 0.000000
0.982727 0.000000 0.000000
1.000000 0.000000 0.000000
1.000000 0.000000 0.000000
1.000000 0.000000 0.000000
1.000000 0.000000 0.000000
1.000000 0.000000 0.000000
1.000000 0.000000 0.000000
1.000000 0.000000 0.000000
1.000000 0.000000 0.057893
1.000000 0.000336 0.128756
1.000000 0.115023 0.183932
1.000000 0.171908 0.238895
1.000000 0.226230 0.297032
0.000000 0.108278 0.117617
0.000000 0.108522 0.117800
0.000000 0.109682 0.117311
0.000000 0.112978 0.113527
0.000000 0.114778 0.107210
0.003906 0.118807 0.102052
0.058289 0.130434 0.089662
0.109957 0.151308 0.072023
0.181460 0.168063 0.057191
0.278538 0.180270 0.012604
0.380560 0.182254 0.000000
0.485603 0.175326 0.000000
0.587732 0.159457 0.000000
0.683040 0.136110 0.000000
0.762173 0.106691 0.000000
0.826596 0.069368 0.000000
0.880003 0.000000 0.000000
0.923125 0.000000 0.000000
0.958129 0.000000 0.000000
0.987304 0.000000 0.000000
1.000000 0.000000 0.000000
1.000000 0.000000 0.000000
1.000000 0.000000 0.000000
1.000000 0.000000 0.000000
1.000000 0.000000 0.000000
1.000000 0.000000 0.000000
1.000000 0.023316 0.000000
1.000000 0.074922 0.000000
1.000000 0.109285 0.085084
1.000000 0.145480 0.152712
1.000000 0.185275 0.212314
1.000000 0.230137 0.272404
0.000000 0.128786 0.135988
0.000000 0.129366 0.135927
0.000000 0.130129 0.135378
0.000000 0.133608 0.131624
0.000000 0.137972 0.120027
0.000000 0.138705 0.117647
0.016236 0.147127 0.109194
0.080293 0.162814 0.094545
0.151095 0.190158 0.073823
0.245975 0.213138 0.042084
0.361791 0.228214 0.000000
0.482094 0.233310 0.000000
0.585687 0.228031 0.000000
0.681636 0.218875 0.000000
0.763302 0.205112 0.000000
0.831235 0.191531 0.000000
0.884184 0.178378 0.000000
0.926177 0.168856 0.000000
0.960418 0.163394 0.000000
0.988952 0.162020 0.000000
1.000000 0.159976 0.000000
1.000000 0.157412 0.000000
1.000000 0.155795 0.000000
1.000000 0.154116 0.000000
1.000000 0.151308 0.000000
1.000000 0.148531 0.000000
1.000000 0.147951 0.000000
1.000000 0.150881 0.000000
1.000000 0.160311 0.000000
1.000000 0.177310 0.106722
1.000000 0.202976 0.176699
1.000000 0.237400 0.241215
0.000000 0.156130 0.158083
0.000000 0.156619 0.158053
0.000000 0.157687 0.157656
0.000000 0.161379 0.153750
0.000000 0.167056 0.145052
0.000000 0.170077 0.132784
0.000000 0.170932 0.129488
0.050904 0.185702 0.117006
0.115328 0.205936 0.098390
0.205417 0.238560 0.069398
0.323705 0.267185 0.000000
0.450935 0.283848 0.000000
0.578912 0.292241 0.000000
0.680964 0.289647 0.000000
0.764431 0.282689 0.000000
0.831388 0.272953 0.000000
0.884916 0.262913 0.000000
0.928313 0.254124 0.000000
0.962799 0.246769 0.000000
0.990570 0.243107 0.000000
1.000000 0.241764 0.000000
1.000000 0.241337 0.000000
1.000000 0.237430 0.000000
1.000000 0.231693 0.000000
1.000000 0.225986 0.000000
1.000000 0.218448 0.000000
1.000000 0.211582 0.000000
1.000000 0.206943 0.000000
1.000000 0.206210 0.000000
1.000000 0.211551 0.000000
1.000000 0.225315 0.126558
1.000000 0.248508 0.200961
0.000000 0.192172 0.184298
0.000000 0.192660 0.184360
0.000000 0.194003 0.183322
0.000000 0.197848 0.179141
0.000000 0.203861 0.171054
0.000000 0.210483 0.153017
0.000000 0.211398 0.146853
0.000000 0.213230 0.141939
0.089052 0.234867 0.124056
0.164492 0.258915 0.099153
0.272251 0.294041 0.053101
0.407996 0.326513 0.000000
0.539117 0.343938 0.000000
0.664088 0.353918 0.000000
0.764797 0.354437 0.000000
0.831632 0.345403 0.000000
0.884947 0.336095 0.000000
0.928161 0.326452 0.000000
0.962860 0.318639 0.000000
0.991485 0.312230 0.000000
1.000000 0.307500 0.000000
1.000000 0.303319 0.000000
1.000000 0.299748 0.000000
1.000000 0.295415 0.000000
1.000000 0.286229 0.000000
1.000000 0.277073 0.000000
1.000000 0.267002 0.000000
1.000000 0.257542 0.000000
1.000000 0.250645 0.000000
1.000000 0.247807 0.000000
1.000000 0.251835 0.000000
1.000000 0.264500 0.146059
0.000000 0.236973 0.213840
0.000000 0.237552 0.213901
0.000000 0.239139 0.212253
0.000000 0.243168 0.208072
0.000000 0.249149 0.200168
0.000000 0.256901 0.186862
0.000000 0.261143 0.166995
0.000000 0.261479 0.162051
0.036103 0.268437 0.152529
0.137301 0.293645 0.129274
0.227298 0.320104 0.096742
0.348791 0.355169 0.000000
0.496437 0.390478 0.000000
0.626398 0.407752 0.000000
0.739345 0.415625 0.000000
0.826505 0.414435 0.000000
0.884215 0.404944 0.000000
0.927153 0.394202 0.000000
0.961669 0.384436 0.000000
0.990234 0.376074 0.000000
1.000000 0.368811 0.000000
1.000000 0.361913 0.000000
1.000000 0.354864 0.000000
1.000000 0.348486 0.000000
1.000000 0.341833 0.000000
1.000000 0.330602 0.000000
1.000000 0.318700 0.000000
1.000000 0.306767 0.000000
1.000000 0.295201 0.000000
1.000000 0.286351 0.000000
1.000000 0.282231 0.000000
1.000000 0.285283 0.004761
0.000000 0.290562 0.247074
0.000000 0.291020 0.246952
0.000000 0.293004 0.245426
0.000000 0.296818 0.240970
0.000000 0.302647 0.233310
0.000000 0.310124 0.221286
0.000000 0.318517 0.200443
0.000000 0.318761 0.184787
0.000000 0.318181 0.178622
0.103548 0.331426 0.163302
0.198520 0.359167 0.134127
0.303136 0.387366 0.089815
0.444739 0.428870 0.000000
0.596674 0.463691 0.000000
0.717098 0.477241 0.000000
0.810910 0.479133 0.000000
0.881621 0.474464 0.000000
0.933501 0.466133 0.000000
0.966369 0.453620 0.000000
0.993622 0.442390 0.000000
1.000000 0.431891 0.000000
1.000000 0.422126 0.000000
1.000000 0.412207 0.000000
1.000000 0.402502 0.000000
1.000000 0.392065 0.000000
1.000000 0.381720 0.000000
1.000000 0.369055 0.000000
1.000000 0.355230 0.000000
1.000000 0.341222 0.000000
1.000000 0.327825 0.000000
1.000000 0.317571 0.000000
1.000000 0.312322 0.000000
0.000000 0.353796 0.285252
0.000000 0.354803 0.284947
0.000000 0.356237 0.283055
0.000000 0.359686 0.278569
0.000000 0.364843 0.270909
0.000000 0.371374 0.259098
0.000000 0.379187 0.241978
0.000000 0.383368 0.212039
0.000000 0.382147 0.205264
0.040467 0.381598 0.197848
0.170169 0.403357 0.175357
0.275944 0.432990 0.139345
0.392248 0.461219 0.078370
0.524865 0.490517 0.000000
0.670893 0.521996 0.000000
0.777462 0.530938 0.000000
0.856382 0.529046 0.000000
0.916167 0.522606 0.000000
0.961151 0.514153 0.000000
0.991455 0.502251 0.000000
1.000000 0.489631 0.000000
1.000000 0.477363 0.000000
1.000000 0.465400 0.000000
1.000000 0.453254 0.000000
1.000000 0.441077 0.000000
1.000000 0.428595 0.000000
1.000000 0.415778 0.000000
1.000000 0.400610 0.000000
1.000000 0.385595 0.000000
1.000000 0.370031 0.000000
1.000000 0.355169 0.000000
1.000000 0.343297 0.000000
0.000000 0.418555 0.323583
0.000000 0.419226 0.322850
0.000000 0.420600 0.321141
0.000000 0.423529 0.316686
0.000000 0.427924 0.309483
0.000000 0.433845 0.298558
0.000000 0.440833 0.283085
0.000000 0.449256 0.262089
0.000000 0.449378 0.236851
0.000000 0.447852 0.228763
0.135012 0.445441 0.219669
0.243687 0.473823 0.188724
0.355901 0.501488 0.145327
0.475776 0.526604 0.067140
0.602197 0.550134 0.000000
0.734340 0.574914 0.000000
0.826535 0.578882 0.000000
0.893217 0.574517 0.000000
0.944182 0.566918 0.000000
0.982727 0.557794 0.000000
1.000000 0.546715 0.000000
1.000000 0.532189 0.000000
1.000000 0.517906 0.000000
1.000000 0.503685 0.000000
1.000000 0.489631 0.000000
1.000000 0.475319 0.000000
1.000000 0.461128 0.000000
1.000000 0.446662 0.000000
1.000000 0.429358 0.000000
1.000000 0.412390 0.000000
1.000000 0.395575 0.000000
1.000000 0.379065 0.000000
0.000000 0.484901 0.362860
0.000000 0.485695 0.362585
0.000000 0.486915 0.360754
0.000000 0.489815 0.356512
0.000000 0.493904 0.349859
0.000000 0.499489 0.340490
0.000000 0.505730 0.327489
0.000000 0.512566 0.309056
0.000000 0.516747 0.273014
0.000000 0.514641 0.264714
0.084901 0.511589 0.255009
0.212528 0.514031 0.240085
0.322057 0.540795 0.203861
0.436805 0.565484 0.154818
0.555749 0.587243 0.063386
0.673732 0.605158 0.000000
0.786984 0.621393 0.000000
0.866697 0.622187 0.000000
0.924224 0.616266 0.000000
0.967773 0.608209 0.000000
1.000000 0.598047 0.000000
1.000000 0.585565 0.000000
1.000000 0.570184 0.000000
1.000000 0.553857 0.000000
1.000000 0.537621 0.000000
1.000000 0.521508 0.000000
1.000000 0.505669 0.000000
1.000000 0.490181 0.000000
1.000000 0.474586 0.000000
1.000000 0.456001 0.000000
1.000000 0.436957 0.000000
1.000000 0.418097 0.000000
0.000000 0.552361 0.404303
0.000000 0.552880 0.403754
0.000000 0.553887 0.402136
0.000000 0.556176 0.398383
0.000000 0.559747 0.392248
0.000000 0.564324 0.383886
0.000000 0.569696 0.372259
0.000000 0.575616 0.356939
0.000000 0.581445 0.337133
0.000000 0.580621 0.305028
0.000000 0.576837 0.294987
0.186740 0.571893 0.283574
0.292088 0.579004 0.262150
0.401343 0.602258 0.223087
0.514458 0.623255 0.169558
0.628351 0.641260 0.074434
0.733639 0.652827 0.000000
0.829740 0.662043 0.000000
0.900908 0.661769 0.000000
0.950561 0.655482 0.000000
0.987915 0.646326 0.000000
1.000000 0.634668 0.000000
1.000000 0.620478 0.000000
1.000000 0.604150 0.000000
1.000000 0.586053 0.000000
1.000000 0.567987 0.000000
1.000000 0.550256 0.000000
1.000000 0.533074 0.000000
1.000000 0.516503 0.000000
1.000000 0.499519 0.000000
1.000000 0.479713 0.000000
1.000000 0.459632 0.000000
0.000000 0.614801 0.444526
0.000000 0.615137 0.443946
0.000000 0.615869 0.442512
0.000000 0.617853 0.439033
0.000000 0.620600 0.433570
0.000000 0.624353 0.426154
0.000000 0.628687 0.416022
0.000000 0.633387 0.403082
0.000000 0.638209 0.386603
0.000000 0.640955 0.347753
0.000000 0.636988 0.337865
0.151400 0.631861 0.326177
0.269871 0.625269 0.313115
0.370581 0.637324 0.286198
0.477241 0.657252 0.245151
0.585016 0.673884 0.190494
0.690791 0.687678 0.103395
0.784207 0.694545 0.000000
0.867063 0.699428 0.000000
0.930053 0.698665 0.000000
0.972564 0.691249 0.000000
1.000000 0.680659 0.000000
1.000000 0.667201 0.000000
1.000000 0.651331 0.000000
1.000000 0.633326 0.000000
1.000000 0.613886 0.000000
1.000000 0.594537 0.000000
1.000000 0.575799 0.000000
1.000000 0.557641 0.000000
1.000000 0.539940 0.000000
1.000000 0.521416 0.000000
1.000000 0.500969 0.000000
0.000000 0.673213 0.483680
0.000000 0.673610 0.483467
0.000000 0.681697 0.487587
0.000000 0.683162 0.484749
0.000000 0.685328 0.480018
0.000000 0.687984 0.473121
0.000000 0.691066 0.464393
0.000000 0.694301 0.453101
0.000000 0.697719 0.439857
0.000000 0.700587 0.423285
0.000000 0.698939 0.388891
0.110842 0.693416 0.376745
0.258244 0.686671 0.363592
0.354406 0.678584 0.348974
0.451637 0.693538 0.316655
0.552209 0.708766 0.274418
0.652888 0.721279 0.221134
0.749416 0.731441 0.142702
0.831601 0.734737 0.000000
0.902281 0.736385 0.000000
0.956481 0.734340 0.000000
0.992279 0.725002 0.000000
1.000000 0.712490 0.000000
1.000000 0.697139 0.000000
1.000000 0.679316 0.000000
1.000000 0.659663 0.000000
1.000000 0.638941 0.000000
1.000000 0.618524 0.000000
1.000000 0.598718 0.000000
1.000000 0.579675 0.000000
1.000000 0.561120 0.000000
1.000000 0.540856 0.000000
0.000000 0.727779 0.522454
0.000000 0.728878 0.522881
0.000000 0.730037 0.522820
0.000000 0.731991 0.520928
0.000000 0.734188 0.517388
0.000000 0.736660 0.512200
0.000000 0.739101 0.504997
0.000000 0.741604 0.496010
0.000000 0.744137 0.485756
0.000000 0.746120 0.473213
0.000000 0.746914 0.445014
0.000000 0.742428 0.426093
0.239811 0.736141 0.413001
0.342687 0.728664 0.398749
0.428626 0.723140 0.381170
0.521111 0.737240 0.346715
0.615076 0.748959 0.304906
0.707515 0.758450 0.252598
0.795926 0.766567 0.180911
0.869505 0.768734 0.012665
0.929473 0.767788 0.000000
0.976074 0.764065 0.000000
1.000000 0.753506 0.000000
1.000000 0.739406 0.000000
1.000000 0.722530 0.000000
1.000000 0.703304 0.000000
1.000000 0.682673 0.000000
1.000000 0.661128 0.000000
1.000000 0.639673 0.000000
1.000000 0.619135 0.000000
1.000000 0.599329 0.000000
1.000000 0.579797 0.000000
0.000000 0.773648 0.557000
0.000000 0.774594 0.557153
0.000000 0.775540 0.557397
0.000000 0.776944 0.556329
0.000000 0.778805 0.553429
0.000000 0.780545 0.549340
0.000000 0.782284 0.543786
0.000000 0.784085 0.536828
0.000000 0.785733 0.528923
0.000000 0.787015 0.519829
0.000000 0.787533 0.509789
0.000000 0.785855 0.477760
0.228702 0.780117 0.465431
0.335119 0.773404 0.451728
0.420600 0.765591 0.436652
0.500114 0.764492 0.415412
0.585840 0.775387 0.380865
0.672755 0.784512 0.339178
0.757687 0.792233 0.288060
0.837797 0.798947 0.221286
0.902678 0.800229 0.123751
0.952758 0.796567 0.000000
0.992737 0.790890 0.000000
1.000000 0.778836 0.000000
1.000000 0.763180 0.000000
1.000000 0.744869 0.000000
1.000000 0.724697 0.000000
1.000000 0.703365 0.000000
1.000000 0.681209 0.000000
1.000000 0.658625 0.000000
1.000000 0.637415 0.000000
1.000000 0.616846 0.000000
0.000000 0.814206 0.589502
0.000000 0.815030 0.589837
0.000000 0.815854 0.589868
0.000000 0.816861 0.589471
0.000000 0.818173 0.587243
0.000000 0.819455 0.584222
0.000000 0.820676 0.580102
0.000000 0.821866 0.575250
0.000000 0.822843 0.569635
0.000000 0.823423 0.563653
0.000000 0.823423 0.557488
0.106355 0.822660 0.542382
0.232670 0.818662 0.518791
0.335576 0.812650 0.506188
0.419043 0.805753 0.492195
0.492897 0.798062 0.476631
0.567254 0.800656 0.453010
0.646906 0.809751 0.419013
0.726772 0.817288 0.378790
0.804074 0.823636 0.329717
0.875334 0.829252 0.267582
0.932219 0.830014 0.186313
0.973571 0.823545 0.082795
1.000000 0.815610 0.000000
1.000000 0.801846 0.000000
1.000000 0.784756 0.000000
1.000000 0.765377 0.000000
1.000000 0.744503 0.000000
1.000000 0.722438 0.000000
1.000000 0.699763 0.000000
1.000000 0.676509 0.000000
1.000000 0.653620 0.000000
0.000000 0.852842 0.622370
0.000000 0.853239 0.622553
0.000000 0.853574 0.622400
0.000000 0.854185 0.621912
0.000000 0.854826 0.620386
0.000000 0.855589 0.618158
0.000000 0.856352 0.615473
0.000000 0.857023 0.612238
0.000000 0.857511 0.608942
0.000000 0.857542 0.605432
0.000000 0.857115 0.602350
0.192264 0.855741 0.599207
0.263462 0.854124 0.573846
0.353094 0.848783 0.562310
0.429572 0.842649 0.549767
0.498939 0.835874 0.535729
0.563409 0.828367 0.520684
0.632197 0.833738 0.494911
0.704158 0.840726 0.461738
0.775723 0.846403 0.422248
0.844114 0.851194 0.374121
0.906004 0.855589 0.315099
0.955657 0.855680 0.239689
0.989807 0.846311 0.163760
1.000000 0.836271 0.048798
1.000000 0.820890 0.000000
1.000000 0.802670 0.000000
1.000000 0.782681 0.000000
1.000000 0.761379 0.000000
1.000000 0.739071 0.000000
1.000000 0.715755 0.000000
1.000000 0.691768 0.000000
0.000000 0.884672 0.651637
0.000000 0.885039 0.651911
0.000000 0.885405 0.652125
0.000000 0.885832 0.651728
0.000000 0.886381 0.650752
0.000000 0.886809 0.649317
0.000000 0.887053 0.647486
0.000000 0.887205 0.645777
0.000000 0.887083 0.644007
0.000000 0.886595 0.642603
0.000000 0.885466 0.641382
0.241276 0.883757 0.640894
0.339513 0.881437 0.637385
0.382788 0.878569 0.614099
0.449470 0.873350 0.603357
0.511742 0.867552 0.591211
0.570977 0.861112 0.577935
0.627741 0.854948 0.563622
0.690455 0.861479 0.536797
0.754513 0.866911 0.505119
0.817472 0.871336 0.467567
0.876921 0.875151 0.421332
0.930632 0.878752 0.364385
0.974792 0.878508 0.292973
1.000000 0.865934 0.220737
1.000000 0.854154 0.153872
1.000000 0.837186 0.000000
1.000000 0.818296 0.000000
1.000000 0.798001 0.000000
1.000000 0.776394 0.000000
1.000000 0.753597 0.000000
1.000000 0.729702 0.000000
0.000000 0.913542 0.681697
0.000000 0.913848 0.681880
0.000000 0.914122 0.682033
0.000000 0.914427 0.682033
0.000000 0.914794 0.681209
0.000000 0.915007 0.680049
0.000000 0.914794 0.679072
0.000000 0.914305 0.678218
0.000000 0.913542 0.677699
0.000000 0.912322 0.677546
0.169772 0.910613 0.678004
0.297154 0.908324 0.679072
0.389685 0.905364 0.680842
0.427039 0.903746 0.663203
0.481300 0.899168 0.653346
0.534356 0.894041 0.642756
0.585931 0.888487 0.631098
0.636469 0.882567 0.618799
0.686885 0.879759 0.603082
0.741817 0.884886 0.578454
0.797513 0.889097 0.548638
0.851896 0.892576 0.512657
0.902831 0.895567 0.468238
0.949706 0.898253 0.412696
0.989868 0.898161 0.343755
1.000000 0.883604 0.274968
1.000000 0.869993 0.218906
1.000000 0.851896 0.103120
1.000000 0.832303 0.000000
1.000000 0.811673 0.000000
1.000000 0.789700 0.000000
1.000000 0.766354 0.000000
0.000000 0.936309 0.708492
0.000000 0.936553 0.708797
0.000000 0.936736 0.708888
0.000000 0.937011 0.708858
0.000000 0.937316 0.708675
0.000000 0.937652 0.707515
0.000000 0.937407 0.707057
0.000000 0.936553 0.707149
0.000000 0.935393 0.707698
0.090730 0.933776 0.709041
0.256352 0.931701 0.710780
0.355413 0.929076 0.713375
0.436988 0.925902 0.716854
0.508782 0.922148 0.721096
0.526299 0.920653 0.701137
0.569299 0.916503 0.692287
0.612390 0.911955 0.682612
0.655421 0.907164 0.672114
0.698146 0.902068 0.661097
0.741970 0.901823 0.645350
0.788357 0.905821 0.622339
0.835203 0.909056 0.594781
0.880674 0.911742 0.560876
0.924010 0.914000 0.518395
0.964996 0.915862 0.465064
1.000000 0.915984 0.397833
1.000000 0.899474 0.330755
1.000000 0.884154 0.276249
1.000000 0.865293 0.184298
1.000000 0.845029 0.104616
1.000000 0.823972 0.000000
1.000000 0.801480 0.000000
0.000000 0.955352 0.735103
0.000000 0.955505 0.735317
0.000000 0.955596 0.735286
0.000000 0.955749 0.735256
0.000000 0.955962 0.735134
0.000000 0.956237 0.734646
0.000000 0.956512 0.733272
0.000000 0.955291 0.734188
0.000000 0.953704 0.735622
0.231388 0.951720 0.737697
0.331487 0.949248 0.740658
0.413703 0.946319 0.744411
0.486336 0.942870 0.749050
0.550652 0.939147 0.753933
0.578759 0.937560 0.744564
0.610529 0.934447 0.736416
0.645472 0.930755 0.728664
0.680934 0.926848 0.720241
0.716762 0.922789 0.711421
0.752529 0.918608 0.701991
0.789120 0.920195 0.686213
0.827146 0.923369 0.664820
0.865476 0.925902 0.639155
0.903319 0.927947 0.607294
0.940307 0.929503 0.567468
0.976287 0.930632 0.517205
1.000000 0.930907 0.451728
1.000000 0.913085 0.384985
1.000000 0.896513 0.328344
1.000000 0.877043 0.240818
1.000000 0.856077 0.149813
1.000000 0.834562 0.000000
0.000000 0.970123 0.760403
0.000000 0.970214 0.760555
0.000000 0.970306 0.760555
0.000000 0.970428 0.760555
0.000000 0.970611 0.760525
0.000000 0.970886 0.760555
0.000000 0.971221 0.760128
0.096193 0.971008 0.760067
0.239841 0.969207 0.762631
0.331243 0.966979 0.765896
0.409277 0.964263 0.770016
0.479652 0.961089 0.774960
0.542870 0.957641 0.780270
0.599207 0.954101 0.785641
0.649287 0.950500 0.790707
0.660273 0.949798 0.777920
0.687648 0.946929 0.772091
0.715755 0.943938 0.765896
0.744594 0.940764 0.759243
0.773617 0.937591 0.752255
0.802609 0.934325 0.744900
0.831388 0.936980 0.729824
0.861082 0.939330 0.711086
0.891417 0.941222 0.687648
0.922271 0.942565 0.658350
0.953429 0.943450 0.621637
0.984894 0.943877 0.574578
1.000000 0.943816 0.511955
1.000000 0.925689 0.445686
1.000000 0.908110 0.385199
1.000000 0.888182 0.298283
1.000000 0.866209 0.189944
0.286778 0.981811 0.787137
0.287907 0.981872 0.787259
0.288304 0.981903 0.787228
0.289525 0.981964 0.787228
0.291386 0.982055 0.787198
0.294072 0.982238 0.787137
0.297795 0.982452 0.787167
0.302281 0.982727 0.786374
0.348241 0.981415 0.787839
0.416144 0.978729 0.791501
0.479347 0.975647 0.795926
0.538018 0.972290 0.800748
0.591852 0.968811 0.805905
0.640986 0.965270 0.811185
0.684962 0.961822 0.816312
0.708675 0.960143 0.813382
