其他预设/【233】日式怀旧街道调色预设208款/1.3D LUT预设（视频调色-PR-AE-PS-FCPX-达芬奇用）/1.日式城市街拍预设/JA – Neon 2.cube
# Created by Adobe Lightroom plugin Export LUT (1.17.0)
# www.johnrellis.com/lightroom/exportlut.htm
# Preset: JA – Neon 2
# Color profile: /Library/Application Support/Adobe/Color/Profiles/Recommended/AdobeRGB1998.icc
LUT_3D_SIZE 32
0.118349 0.118349 0.118349
0.118349 0.118349 0.118349
0.118349 0.118349 0.118349
0.122499 0.117647 0.118288
0.131838 0.116152 0.118135
0.142458 0.114229 0.117952
0.156008 0.111574 0.117708
0.173739 0.108949 0.117189
0.196567 0.106325 0.116365
0.225315 0.102632 0.115084
0.260288 0.098360 0.113130
0.300725 0.093141 0.110292
0.346136 0.086946 0.106264
0.396399 0.079713 0.100649
0.450477 0.072633 0.092775
0.508049 0.062470 0.081758
0.567773 0.045136 0.065522
0.625818 0.022705 0.024231
0.689845 0.002777 0.000000
0.748257 0.000000 0.000000
0.799069 0.000000 0.000000
0.842832 0.000000 0.000000
0.879728 0.000000 0.000000
0.911009 0.000000 0.000000
0.937652 0.000000 0.000000
0.960662 0.000000 0.000000
0.980987 0.000000 0.000000
0.999237 0.000000 0.000000
1.000000 0.000000 0.000000
1.000000 0.000000 0.000000
1.000000 0.000000 0.000000
1.000000 0.000000 0.000000
0.118349 0.118349 0.118349
0.118349 0.118349 0.118349
0.118349 0.118349 0.118349
0.122499 0.117647 0.118288
0.131838 0.116152 0.118135
0.142275 0.114260 0.117952
0.155581 0.112367 0.117647
0.172824 0.110872 0.117098
0.195499 0.108400 0.116274
0.224033 0.105409 0.114961
0.258427 0.101961 0.113008
0.298405 0.097444 0.110201
0.343359 0.092592 0.106203
0.392950 0.086976 0.100649
0.446601 0.081209 0.092897
0.503655 0.073854 0.082033
0.563012 0.066438 0.066011
0.621149 0.056245 0.026123
0.684474 0.044739 0.000000
0.742306 0.031617 0.000000
0.793240 0.023682 0.000000
0.837430 0.013214 0.000000
0.874907 0.005371 0.000000
0.906859 0.000000 0.000000
0.934173 0.000000 0.000000
0.957763 0.000000 0.000000
0.978607 0.000000 0.000000
0.997253 0.000000 0.000000
1.000000 0.000000 0.000000
1.000000 0.000000 0.000000
1.000000 0.000000 0.000000
1.000000 0.000000 0.000000
0.118349 0.118349 0.118349
0.118349 0.118349 0.118349
0.118349 0.118349 0.118349
0.122744 0.117586 0.118288
0.131777 0.116609 0.118105
0.141909 0.115694 0.117861
0.155032 0.114534 0.117494
0.172000 0.113161 0.116945
0.194369 0.111360 0.116091
0.222568 0.109163 0.114748
0.256779 0.106294 0.112795
0.296513 0.103090 0.109957
0.341314 0.098848 0.105959
0.390784 0.095247 0.100343
0.443915 0.091005 0.092622
0.500908 0.086213 0.081666
0.559991 0.081575 0.065644
0.618433 0.076173 0.024689
0.681514 0.071168 0.000000
0.738949 0.068086 0.000000
0.790036 0.066011 0.000000
0.834470 0.061189 0.000000
0.872343 0.058564 0.000000
0.904631 0.044556 0.000000
0.932280 0.029175 0.000000
0.956176 0.001038 0.000000
0.977264 0.000000 0.000000
0.996124 0.000000 0.000000
1.000000 0.000000 0.000000
1.000000 0.000000 0.000000
1.000000 0.000000 0.000000
1.000000 0.000000 0.000000
0.117983 0.120943 0.118135
0.117861 0.121401 0.118288
0.117861 0.121828 0.118074
0.121645 0.121401 0.118593
0.131044 0.121035 0.117769
0.141421 0.120119 0.117525
0.154208 0.119326 0.117128
0.171267 0.118227 0.116579
0.193271 0.117342 0.115663
0.221317 0.116030 0.114260
0.255100 0.114809 0.112215
0.294469 0.113130 0.109316
0.338750 0.111757 0.105165
0.387793 0.110231 0.099458
0.440864 0.108339 0.091554
0.497475 0.106874 0.080415
0.556481 0.104921 0.063905
0.616266 0.102693 0.018463
0.677638 0.101717 0.000000
0.733883 0.100893 0.000000
0.784604 0.100069 0.000000
0.829282 0.098054 0.000000
0.867948 0.096101 0.000000
0.901335 0.091524 0.000000
0.930114 0.085298 0.000000
0.954894 0.076631 0.000000
0.976562 0.064210 0.000000
0.995758 0.036500 0.000000
1.000000 0.000000 0.000000
1.000000 0.000000 0.000000
1.000000 0.000000 0.000000
1.000000 0.000000 0.000000
0.117128 0.127779 0.117952
0.117098 0.127993 0.117952
0.117037 0.128389 0.117891
0.120455 0.128267 0.117830
0.127382 0.126528 0.119173
0.138064 0.126680 0.118257
0.152590 0.125887 0.116823
0.169345 0.125582 0.116030
0.191226 0.125673 0.115023
0.218692 0.125978 0.113558
0.252201 0.126314 0.111391
0.290929 0.127108 0.108309
0.334997 0.127718 0.104036
0.383795 0.128908 0.098054
0.436805 0.129976 0.089815
0.493629 0.130983 0.078065
0.553246 0.131807 0.060273
0.615259 0.133181 0.006012
0.675837 0.134066 0.000000
0.731502 0.134981 0.000000
0.781796 0.135012 0.000000
0.826444 0.134127 0.000000
0.865293 0.131991 0.000000
0.899046 0.128878 0.000000
0.928191 0.124117 0.000000
0.953368 0.117647 0.000000
0.975280 0.109529 0.000000
0.994659 0.098573 0.000000
1.000000 0.084932 0.000000
1.000000 0.064668 0.000000
1.000000 0.005798 0.000000
1.000000 0.000000 0.000000
0.116213 0.134981 0.117525
0.116152 0.135348 0.117464
0.116091 0.135531 0.117647
0.119081 0.135500 0.117372
0.126833 0.134524 0.117678
0.133730 0.132021 0.119875
0.145571 0.133364 0.119203
0.166049 0.134768 0.116091
0.188937 0.135836 0.114382
0.216495 0.137819 0.112734
0.250004 0.140200 0.110140
0.288914 0.142702 0.106844
0.332586 0.145937 0.102205
0.381292 0.149325 0.095827
0.434394 0.152926 0.086946
0.491310 0.156558 0.074159
0.550988 0.160037 0.051118
0.615259 0.164187 0.000000
0.675166 0.167208 0.000000
0.730922 0.169009 0.000000
0.781277 0.170169 0.000000
0.826230 0.169711 0.000000
0.892882 0.174563 0.000000
0.922454 0.171206 0.000000
0.947509 0.166262 0.000000
0.969085 0.159945 0.000000
0.988006 0.152560 0.000000
1.000000 0.143252 0.000000
1.000000 0.132143 0.000000
1.000000 0.118990 0.000000
1.000000 0.102663 0.000000
1.000000 0.080323 0.000000
0.114626 0.144869 0.117159
0.114595 0.145052 0.117128
0.114565 0.145205 0.117128
0.117586 0.145357 0.116640
0.125673 0.144778 0.116670
0.134890 0.142519 0.118044
0.141970 0.139590 0.120668
0.156161 0.142153 0.120333
0.182528 0.147158 0.116365
0.218051 0.152438 0.111421
0.252598 0.157137 0.108370
0.292699 0.162203 0.104463
0.337865 0.167788 0.098817
0.387549 0.173495 0.091127
0.440986 0.179232 0.080842
0.497780 0.185031 0.065614
0.560449 0.191592 0.021332
0.625574 0.197757 0.000000
0.685359 0.202335 0.000000
0.741695 0.205661 0.000000
0.793301 0.207950 0.000000
0.839628 0.208255 0.000000
0.879759 0.207492 0.000000
0.913787 0.204562 0.000000
0.942107 0.200443 0.000000
0.965515 0.194400 0.000000
0.985351 0.187472 0.000000
1.000000 0.178927 0.000000
1.000000 0.169345 0.000000
1.000000 0.157992 0.000000
1.000000 0.144564 0.000000
1.000000 0.129091 0.000000
0.112642 0.156100 0.116365
0.112581 0.156252 0.116365
0.112520 0.156588 0.116335
0.116487 0.156466 0.115633
0.124880 0.155886 0.115663
0.135012 0.154849 0.115877
0.144167 0.151400 0.118196
0.151186 0.147890 0.120882
0.166934 0.151583 0.121065
0.198825 0.160647 0.116487
0.240879 0.170443 0.110048
0.288304 0.179812 0.102693
0.333013 0.187411 0.096590
0.382483 0.195285 0.088502
0.436011 0.203189 0.076814
0.493324 0.211215 0.058900
0.559442 0.220951 0.000000
0.622705 0.228580 0.000000
0.681361 0.234440 0.000000
0.737179 0.238651 0.000000
0.788632 0.241428 0.000000
0.835050 0.242222 0.000000
0.875395 0.241550 0.000000
0.909789 0.238773 0.000000
0.938537 0.234470 0.000000
0.962402 0.228733 0.000000
0.982727 0.221378 0.000000
1.000000 0.213138 0.000000
1.000000 0.203922 0.000000
1.000000 0.193484 0.000000
1.000000 0.181918 0.000000
1.000000 0.168429 0.000000
0.109651 0.170352 0.115297
0.109590 0.170626 0.115267
0.109743 0.170779 0.114412
0.115511 0.170474 0.114107
0.124239 0.169955 0.114137
0.135012 0.169375 0.114076
0.146304 0.166842 0.115480
0.155825 0.162905 0.118044
0.163333 0.158785 0.121004
0.180728 0.163088 0.121767
0.218357 0.176761 0.115816
0.266331 0.191012 0.108003
0.322972 0.205386 0.096590
0.378851 0.217380 0.084535
0.431983 0.227359 0.071626
0.493935 0.239475 0.038727
0.558160 0.250553 0.000000
0.620294 0.259678 0.000000
0.678614 0.266606 0.000000
0.734371 0.271824 0.000000
0.785794 0.275151 0.000000
0.832090 0.276249 0.000000
0.872465 0.275578 0.000000
0.906950 0.272953 0.000000
0.935943 0.268528 0.000000
0.960113 0.262364 0.000000
0.980682 0.255039 0.000000
0.998749 0.246708 0.000000
1.000000 0.237583 0.000000
1.000000 0.227512 0.000000
1.000000 0.216403 0.000000
1.000000 0.204318 0.000000
0.105165 0.188296 0.113710
0.105409 0.188449 0.112428
0.107973 0.188479 0.111940
0.114656 0.188022 0.111849
0.124361 0.187594 0.111849
0.135744 0.186984 0.111788
0.148775 0.186069 0.111910
0.160494 0.181643 0.114626
0.170443 0.177066 0.117494
0.178408 0.172335 0.120546
0.196994 0.176913 0.121859
0.240116 0.194736 0.114809
0.293431 0.213138 0.104768
0.355627 0.232090 0.090181
0.429664 0.252445 0.064881
0.494179 0.267430 0.010773
0.558282 0.280644 0.000000
0.620203 0.291295 0.000000
0.678279 0.299443 0.000000
0.733486 0.305333 0.000000
0.784054 0.308965 0.000000
0.829435 0.310277 0.000000
0.869169 0.309209 0.000000
0.903166 0.306310 0.000000
0.932158 0.301610 0.000000
0.956695 0.295262 0.000000
0.977813 0.288029 0.000000
0.996429 0.279576 0.000000
1.000000 0.270298 0.000000
1.000000 0.260349 0.000000
1.000000 0.249638 0.000000
1.000000 0.238041 0.000000
0.099977 0.209354 0.108888
0.102632 0.209293 0.108827
0.106325 0.209232 0.108766
0.113588 0.208896 0.108858
0.124086 0.208438 0.108827
0.136934 0.208011 0.108705
0.151278 0.207370 0.108522
0.165469 0.204837 0.109926
0.178012 0.199832 0.112795
0.188571 0.194553 0.116030
0.197086 0.189212 0.119600
0.215732 0.193057 0.121828
0.265476 0.215640 0.112734
0.326513 0.239750 0.099397
0.396582 0.264042 0.078706
0.474464 0.287938 0.020081
0.555108 0.309056 0.000000
0.616480 0.321111 0.000000
0.674372 0.330358 0.000000
0.729488 0.337316 0.000000
0.780209 0.341619 0.000000
0.825925 0.343450 0.000000
0.865934 0.342870 0.000000
0.900481 0.339940 0.000000
0.929839 0.335058 0.000000
0.954589 0.328496 0.000000
0.975830 0.320714 0.000000
0.994537 0.312139 0.000000
1.000000 0.302678 0.000000
1.000000 0.292607 0.000000
1.000000 0.281926 0.000000
1.000000 0.270573 0.000000
0.097017 0.233860 0.104616
0.100069 0.233860 0.104524
0.104189 0.233707 0.104463
0.112367 0.233463 0.104524
0.124147 0.233188 0.104219
0.138186 0.232883 0.104036
0.153994 0.232242 0.104005
0.170748 0.231693 0.103853
0.185672 0.226902 0.106630
0.198795 0.221347 0.110140
0.210147 0.215427 0.113771
0.220798 0.210605 0.117494
0.250340 0.222171 0.120516
0.312352 0.252781 0.106722
0.384222 0.283665 0.085451
0.465064 0.314153 0.031342
0.551751 0.342779 0.000000
0.635096 0.365118 0.000000
0.701991 0.377386 0.000000
0.753719 0.382971 0.000000
0.800595 0.385687 0.000000
0.842161 0.385748 0.000000
0.878447 0.383154 0.000000
0.909850 0.378851 0.000000
0.936858 0.372503 0.000000
0.959960 0.364843 0.000000
0.980011 0.356115 0.000000
0.997772 0.346471 0.000000
1.000000 0.336431 0.000000
1.000000 0.325811 0.000000
1.000000 0.314763 0.000000
1.000000 0.303227 0.000000
0.091890 0.266178 0.097383
0.095735 0.266239 0.097261
0.100801 0.265812 0.097230
0.110689 0.265354 0.097322
0.124269 0.264500 0.097108
0.140291 0.263615 0.097017
0.157626 0.262913 0.096956
0.176333 0.262089 0.096468
0.194736 0.259648 0.097841
0.211337 0.255253 0.101137
0.227604 0.251316 0.104555
0.242496 0.246860 0.108614
0.255406 0.241917 0.113283
0.275303 0.243992 0.119173
0.342687 0.278721 0.102174
0.419379 0.313359 0.073518
0.503929 0.346899 0.000000
0.590478 0.376562 0.000000
0.670954 0.398505 0.000000
0.743740 0.412970 0.000000
0.794095 0.417334 0.000000
0.836240 0.417762 0.000000
0.872953 0.415686 0.000000
0.904936 0.411139 0.000000
0.932464 0.404791 0.000000
0.956054 0.397009 0.000000
0.976562 0.387976 0.000000
0.994720 0.378332 0.000000
1.000000 0.367773 0.000000
1.000000 0.357000 0.000000
1.000000 0.345830 0.000000
1.000000 0.334203 0.000000
0.084108 0.297307 0.089052
0.089113 0.297246 0.088930
0.095216 0.296880 0.088899
0.107576 0.296239 0.088746
0.123507 0.295384 0.088167
0.141329 0.294347 0.088045
0.160372 0.293706 0.087892
0.181125 0.294194 0.086793
0.202945 0.295048 0.085573
0.222782 0.291722 0.088685
0.241184 0.287144 0.092805
0.258305 0.282292 0.096986
0.273655 0.276768 0.102144
0.286809 0.270542 0.108125
0.306676 0.271092 0.115267
0.374578 0.306188 0.096223
0.454932 0.343481 0.055299
0.541192 0.379095 0.000000
0.626703 0.408911 0.000000
0.705806 0.431037 0.000000
0.775174 0.444678 0.000000
0.830686 0.449653 0.000000
0.868070 0.447913 0.000000
0.900664 0.443641 0.000000
0.928679 0.437385 0.000000
0.952728 0.429358 0.000000
0.973632 0.420111 0.000000
0.992187 0.409979 0.000000
1.000000 0.399359 0.000000
1.000000 0.388251 0.000000
1.000000 0.376776 0.000000
1.000000 0.364996 0.000000
0.069490 0.333135 0.076967
0.075990 0.333227 0.076783
0.084352 0.332982 0.076692
0.099977 0.332799 0.075929
0.119631 0.332372 0.075319
0.141360 0.331853 0.074098
0.163607 0.331395 0.072908
0.186648 0.331212 0.071656
0.210086 0.331640 0.070100
0.233646 0.331029 0.069795
0.254002 0.326268 0.074922
0.273503 0.320989 0.080385
0.291417 0.315221 0.086427
0.307073 0.308476 0.093263
0.320195 0.300755 0.101137
0.339544 0.299626 0.109957
0.407294 0.334295 0.088960
0.490700 0.374212 0.008759
0.579004 0.411688 0.000000
0.663661 0.441779 0.000000
0.740108 0.463050 0.000000
0.805264 0.475044 0.000000
0.858732 0.478828 0.000000
0.896147 0.475654 0.000000
0.924834 0.469368 0.000000
0.949523 0.461311 0.000000
0.971069 0.452064 0.000000
0.990204 0.441932 0.000000
1.000000 0.431037 0.000000
1.000000 0.419776 0.000000
1.000000 0.408087 0.000000
1.000000 0.396033 0.000000
0.022919 0.375525 0.051484
0.046357 0.375677 0.050813
0.065003 0.375586 0.050294
0.087251 0.375280 0.048493
0.112673 0.374731 0.046998
0.138949 0.374212 0.043915
0.165286 0.373846 0.038453
0.191440 0.373632 0.031617
0.218204 0.373632 0.024323
0.244450 0.374121 0.016175
0.268132 0.370459 0.024903
0.289403 0.364324 0.044404
0.308782 0.357366 0.060517
0.326268 0.349371 0.070558
0.341283 0.340734 0.081056
0.353674 0.331121 0.092012
0.372564 0.328618 0.103273
0.439643 0.362554 0.080323
0.528008 0.406287 0.000000
0.618250 0.445472 0.000000
0.701961 0.475654 0.000000
0.774899 0.495430 0.000000
0.835264 0.505211 0.000000
0.884306 0.506889 0.000000
0.922850 0.502373 0.000000
0.947875 0.494148 0.000000
0.969665 0.484443 0.000000
0.988952 0.474037 0.000000
1.000000 0.462806 0.000000
1.000000 0.451087 0.000000
1.000000 0.439002 0.000000
1.000000 0.426673 0.000000
0.000000 0.418189 0.000000
0.000000 0.418097 0.000000
0.007263 0.417792 0.000000
0.068666 0.417273 0.000000
0.102663 0.416663 0.000000
0.133791 0.416022 0.000000
0.164065 0.415381 0.000000
0.193393 0.414893 0.000000
0.222477 0.414588 0.000000
0.251316 0.414557 0.000000
0.279637 0.414435 0.000000
0.302983 0.408179 0.000000
0.324712 0.401190 0.000000
0.344549 0.393164 0.000549
0.362005 0.384009 0.034241
0.376776 0.373968 0.063386
0.389105 0.363256 0.079286
0.407904 0.359564 0.094331
0.474556 0.392920 0.069093
0.567132 0.439918 0.000000
0.656611 0.479103 0.000000
0.737606 0.507805 0.000000
0.805631 0.525109 0.000000
0.861204 0.532555 0.000000
0.905882 0.532158 0.000000
0.941497 0.525963 0.000000
0.966918 0.516167 0.000000
0.986603 0.505455 0.000000
1.000000 0.494026 0.000000
1.000000 0.481941 0.000000
1.000000 0.469673 0.000000
1.000000 0.457069 0.000000
0.000000 0.463691 0.000000
0.000000 0.463996 0.000000
0.000000 0.482856 0.000000
0.000000 0.482155 0.000000
0.083009 0.481270 0.000000
0.127138 0.479957 0.000000
0.164523 0.478523 0.000000
0.199771 0.477058 0.000000
0.233066 0.476112 0.000000
0.265843 0.475166 0.000000
0.297795 0.474525 0.000000
0.326726 0.470405 0.000000
0.350866 0.462043 0.000000
0.373144 0.452735 0.000000
0.392981 0.442664 0.000000
0.410468 0.431556 0.000000
0.425452 0.419715 0.000000
0.437873 0.407446 0.047120
0.456611 0.402075 0.077577
0.523583 0.434760 0.031983
0.617334 0.482338 0.000000
0.704402 0.519585 0.000000
0.779202 0.544427 0.000000
0.840330 0.557488 0.000000
0.889158 0.561028 0.000000
0.928130 0.557458 0.000000
0.959289 0.548821 0.000000
0.984588 0.537041 0.000000
1.000000 0.524987 0.000000
1.000000 0.512749 0.000000
1.000000 0.500053 0.000000
1.000000 0.487160 0.000000
0.000000 0.516747 0.000000
0.000000 0.519371 0.000000
0.000000 0.521813 0.000000
0.000000 0.523888 0.000000
0.049226 0.524926 0.000000
0.114534 0.524651 0.000000
0.158755 0.523583 0.000000
0.198001 0.522240 0.000000
0.234379 0.521202 0.000000
0.269505 0.520134 0.000000
0.303593 0.519249 0.000000
0.337133 0.518334 0.000000
0.364721 0.510918 0.000000
0.389227 0.501823 0.000000
0.411658 0.491829 0.000000
0.431678 0.480568 0.000000
0.449409 0.468788 0.000000
0.464912 0.456489 0.000000
0.478401 0.444068 0.000000
0.497719 0.438270 0.053376
0.562554 0.468818 0.000000
0.656336 0.516564 0.000000
0.740322 0.552026 0.000000
0.810117 0.573846 0.000000
0.866056 0.583917 0.000000
0.910643 0.585016 0.000000
0.945983 0.579553 0.000000
0.974578 0.569604 0.000000
0.998413 0.556756 0.000000
1.000000 0.543297 0.000000
1.000000 0.530358 0.000000
1.000000 0.517144 0.000000
0.000000 0.563745 0.000000
0.000000 0.566217 0.000000
0.000000 0.568597 0.000000
0.000000 0.570397 0.000000
0.000000 0.571374 0.000000
0.096864 0.571069 0.000000
0.150973 0.569970 0.000000
0.194583 0.568719 0.000000
0.234257 0.567620 0.000000
0.272282 0.566430 0.000000
0.308537 0.565698 0.000000
0.344060 0.564660 0.000000
0.377295 0.561578 0.000000
0.404395 0.553033 0.000000
0.429450 0.543420 0.000000
0.452522 0.532921 0.000000
0.473426 0.521630 0.000000
0.492134 0.509667 0.000000
0.509026 0.497658 0.000000
0.524132 0.485542 0.000000
0.543999 0.479133 0.000000
0.604425 0.505486 0.000000
0.696712 0.552270 0.000000
0.775631 0.584314 0.000000
0.839658 0.602441 0.000000
0.890440 0.609339 0.000000
0.930571 0.607843 0.000000
0.962585 0.600519 0.000000
0.988891 0.589288 0.000000
1.000000 0.575494 0.000000
1.000000 0.560418 0.000000
1.000000 0.546929 0.000000
0.000000 0.610925 0.000000
0.000000 0.613336 0.000000
0.000000 0.615625 0.000000
0.000000 0.617273 0.000000
0.000000 0.618128 0.000000
0.067170 0.617792 0.000000
0.138399 0.616815 0.000000
0.188632 0.615412 0.000000
0.232395 0.614099 0.000000
0.272679 0.612818 0.000000
0.311406 0.611688 0.000000
0.348821 0.610437 0.000000
0.385107 0.608850 0.000000
0.416297 0.603449 0.000000
0.444312 0.594842 0.000000
0.470527 0.585687 0.000000
0.495338 0.575982 0.000000
0.518547 0.566094 0.000000
0.540337 0.556054 0.000000
0.560662 0.545922 0.000000
0.579553 0.535943 0.000000
0.601190 0.529503 0.000000
0.656580 0.551080 0.000000
0.745022 0.594690 0.000000
0.817166 0.621790 0.000000
0.874144 0.635035 0.000000
0.918791 0.637812 0.000000
0.953857 0.633173 0.000000
0.982300 0.623468 0.000000
1.000000 0.610559 0.000000
1.000000 0.595514 0.000000
1.000000 0.578820 0.000000
0.000000 0.667323 0.000000
0.000000 0.668330 0.000000
0.000000 0.669001 0.000000
0.000000 0.669306 0.000000
0.000000 0.669062 0.000000
0.000000 0.668147 0.000000
0.121798 0.667079 0.000000
0.180606 0.665949 0.000000
0.229465 0.664942 0.000000
0.273503 0.664027 0.000000
0.315129 0.663233 0.000000
0.355138 0.662165 0.000000
0.393591 0.660609 0.000000
0.429450 0.659083 0.000000
0.460121 0.651392 0.000000
0.489235 0.642786 0.000000
0.516808 0.633753 0.000000
0.542931 0.624353 0.000000
0.567742 0.614740 0.000000
0.591089 0.604852 0.000000
0.612726 0.594781 0.000000
0.632807 0.584649 0.000000
0.653468 0.576196 0.000000
0.700587 0.590509 0.000000
0.782376 0.628962 0.000000
0.847684 0.651209 0.000000
0.898985 0.660700 0.000000
0.938964 0.660548 0.000000
0.970672 0.653864 0.000000
0.996735 0.642786 0.000000
1.000000 0.628779 0.000000
1.000000 0.612848 0.000000
0.000000 0.712062 0.000000
0.000000 0.713008 0.000000
0.000000 0.713802 0.000000
0.000000 0.714015 0.000000
0.000000 0.713802 0.000000
0.000000 0.712917 0.000000
0.096376 0.711635 0.000000
0.169039 0.710262 0.000000
0.222782 0.709041 0.000000
0.269963 0.707912 0.000000
0.313817 0.706844 0.000000
0.355444 0.705592 0.000000
0.394629 0.704219 0.000000
0.431952 0.702785 0.000000
0.467414 0.699489 0.000000
0.499184 0.692103 0.000000
0.529442 0.684291 0.000000
0.558587 0.676265 0.000000
0.586572 0.667811 0.000000
0.613214 0.659358 0.000000
0.638697 0.650660 0.000000
0.662745 0.641932 0.000000
0.685206 0.632929 0.000000
0.706081 0.623774 0.000000
0.739803 0.626307 0.000000
0.815030 0.659907 0.000000
0.874449 0.678065 0.000000
0.920592 0.684138 0.000000
0.956512 0.681605 0.000000
0.985565 0.673304 0.000000
1.000000 0.661189 0.000000
1.000000 0.646326 0.000000
0.000000 0.761013 0.000000
0.000000 0.762020 0.000000
0.000000 0.762478 0.000000
0.000000 0.762264 0.000000
0.000000 0.761532 0.000000
0.000000 0.760311 0.000000
0.043946 0.758633 0.000000
0.153902 0.756680 0.000000
0.214145 0.754757 0.000000
0.264927 0.752773 0.000000
0.310796 0.750759 0.000000
0.353948 0.748836 0.000000
0.393347 0.746975 0.000000
0.431678 0.744900 0.000000
0.469093 0.742336 0.000000
0.503441 0.736721 0.000000
0.535332 0.729000 0.000000
0.566247 0.721218 0.000000
0.596368 0.713680 0.000000
0.625635 0.706355 0.000000
0.654017 0.698970 0.000000
0.681056 0.691371 0.000000
0.706508 0.683314 0.000000
0.729976 0.674586 0.000000
0.749599 0.663691 0.000000
0.780575 0.664088 0.000000
0.848447 0.692012 0.000000
0.900938 0.705226 0.000000
0.941497 0.707668 0.000000
0.973693 0.702754 0.000000
1.000000 0.693019 0.000000
1.000000 0.679835 0.000000
0.000000 0.798337 0.000000
0.000000 0.799222 0.000000
0.000000 0.799619 0.000000
0.000000 0.799496 0.000000
0.000000 0.798795 0.000000
0.000000 0.797696 0.000000
0.000000 0.796353 0.000000
0.132387 0.794766 0.000000
0.201785 0.793118 0.000000
0.256565 0.791531 0.000000
0.304265 0.789975 0.000000
0.347295 0.788632 0.000000
0.388525 0.787137 0.000000
0.428534 0.785306 0.000000
0.467384 0.783169 0.000000
0.505516 0.780819 0.000000
0.539879 0.774563 0.000000
0.573083 0.767910 0.000000
0.605432 0.761379 0.000000
0.636988 0.754940 0.000000
0.667689 0.748348 0.000000
0.697383 0.741573 0.000000
0.725643 0.734524 0.000000
0.752285 0.726986 0.000000
0.777218 0.719112 0.000000
0.796628 0.707454 0.000000
0.820676 0.702052 0.081971
0.880613 0.723964 0.000000
0.926482 0.732509 0.000000
0.962036 0.731777 0.000000
0.990661 0.724880 0.000000
1.000000 0.713954 0.000000
0.000000 0.834684 0.000000
0.000000 0.835142 0.000000
0.000000 0.835203 0.000000
0.000000 0.834836 0.000000
0.000000 0.833921 0.000000
0.000000 0.832731 0.000000
0.000000 0.831266 0.000000
0.102876 0.829679 0.000000
0.185550 0.828092 0.000000
0.241367 0.826871 0.000000
0.290654 0.825528 0.000000
0.335973 0.824369 0.000000
0.379339 0.822965 0.000000
0.420935 0.821317 0.000000
0.461128 0.819272 0.000000
0.500328 0.817014 0.000000
0.538109 0.813748 0.000000
0.573022 0.807889 0.000000
0.607141 0.802090 0.000000
0.640467 0.796323 0.000000
0.672999 0.790646 0.000000
0.704646 0.784665 0.000000
0.735103 0.778470 0.000000
0.764248 0.771908 0.000000
0.791836 0.765072 0.000000
0.817838 0.757870 0.000000
0.837186 0.746059 0.000000
0.857755 0.737911 0.130587
0.907408 0.752193 0.126223
0.947295 0.756863 0.118288
0.978790 0.753872 0.109804
1.000000 0.745998 0.096681
0.000000 0.865843 0.000000
0.000000 0.866087 0.000000
0.000000 0.866087 0.000000
0.000000 0.865812 0.000000
0.000000 0.865293 0.000000
0.000000 0.864744 0.000000
0.000000 0.864378 0.000000
0.000000 0.864103 0.000000
0.151766 0.863951 0.000000
0.219120 0.863828 0.000000
0.274083 0.863645 0.000000
0.323522 0.863340 0.000000
0.369604 0.862760 0.000000
0.413428 0.861723 0.000000
0.455695 0.860227 0.000000
0.496590 0.858213 0.000000
0.536370 0.855955 0.000000
0.574212 0.852201 0.000000
0.610285 0.847166 0.000000
0.645533 0.842130 0.000000
0.679927 0.837034 0.000000
0.713558 0.831693 0.000000
0.746029 0.826169 0.000000
0.777401 0.820310 0.000000
0.807370 0.814267 0.000000
0.835843 0.808011 0.000000
0.862882 0.801724 0.000000
0.882048 0.789822 0.071107
0.898314 0.778592 0.198978
0.936400 0.784573 0.214450
0.969787 0.785306 0.219669
0.996826 0.780453 0.223636
0.000000 0.900572 0.000000
0.000000 0.900633 0.000000
0.000000 0.900481 0.000000
0.000000 0.900084 0.000000
0.000000 0.899443 0.000000
0.000000 0.898650 0.000000
0.000000 0.897826 0.000000
0.000000 0.897063 0.000000
0.092714 0.896208 0.000000
0.186740 0.895354 0.000000
0.249668 0.894408 0.000000
0.303380 0.893339 0.000000
0.352087 0.892119 0.000000
0.397894 0.890593 0.000000
0.441382 0.888823 0.000000
0.483436 0.886809 0.000000
