其他预设/【233】日式怀旧街道调色预设208款/1.3D LUT预设（视频调色-PR-AE-PS-FCPX-达芬奇用）/1.日式城市街拍预设/JA – Cool Bright 2.cube
# Created by Adobe Lightroom plugin Export LUT (1.17.0)
# www.johnrellis.com/lightroom/exportlut.htm
# Preset: JA – Cool Bright 2
# Color profile: /Library/Application Support/Adobe/Color/Profiles/Recommended/AdobeRGB1998.icc
LUT_3D_SIZE 32
0.079072 0.082368 0.084810
0.079072 0.082368 0.084810
0.082490 0.082155 0.085023
0.103182 0.079744 0.087221
0.127230 0.076234 0.087739
0.150759 0.078676 0.089876
0.174899 0.081666 0.091127
0.200198 0.084321 0.093690
0.229191 0.085969 0.096712
0.262638 0.085939 0.100038
0.302708 0.084443 0.103029
0.350225 0.080354 0.105318
0.403326 0.071656 0.107149
0.458930 0.054658 0.108827
0.513756 0.013642 0.110353
0.564691 0.000000 0.112398
0.610773 0.000000 0.115084
0.655695 0.000000 0.118471
0.698604 0.000000 0.123415
0.736843 0.000000 0.129366
0.771969 0.000000 0.136172
0.805356 0.000000 0.144259
0.837278 0.000000 0.153231
0.868650 0.000000 0.163882
0.899138 0.000000 0.175875
0.928496 0.000000 0.190036
0.955993 0.062287 0.207828
0.980804 0.117250 0.230076
1.000000 0.166629 0.257725
1.000000 0.220279 0.292332
1.000000 0.278264 0.333715
1.000000 0.341283 0.381628
0.079072 0.082368 0.084810
0.079072 0.082368 0.084810
0.083589 0.081971 0.085298
0.104158 0.082277 0.086427
0.127993 0.084230 0.088258
0.150912 0.086275 0.089876
0.175021 0.088655 0.091402
0.200320 0.091035 0.093935
0.229068 0.092378 0.097261
0.262333 0.093355 0.100282
0.302129 0.092195 0.102998
0.349096 0.089662 0.105318
0.402014 0.082918 0.107362
0.457465 0.071839 0.109010
0.511772 0.056977 0.110353
0.562676 0.012421 0.112398
0.608728 0.000000 0.114900
0.653651 0.000000 0.118379
0.695796 0.000000 0.122805
0.733791 0.000000 0.128725
0.768795 0.000000 0.135348
0.802121 0.000000 0.143404
0.834104 0.000000 0.152499
0.865476 0.000000 0.162570
0.896208 0.000000 0.174563
0.925780 0.000000 0.188754
0.953674 0.073732 0.206027
0.978912 0.120912 0.228244
1.000000 0.168185 0.255741
1.000000 0.220279 0.289799
1.000000 0.277073 0.331029
1.000000 0.339391 0.378759
0.079194 0.085908 0.085084
0.079225 0.087465 0.085542
0.085389 0.089296 0.085237
0.105165 0.092317 0.086427
0.128328 0.094118 0.088289
0.151736 0.095735 0.090150
0.175296 0.097444 0.091463
0.200381 0.099367 0.094545
0.229160 0.100832 0.097322
0.262364 0.101717 0.100801
0.302037 0.101534 0.103487
0.349065 0.100069 0.105715
0.401678 0.096193 0.107424
0.456855 0.089418 0.108980
0.511223 0.079011 0.110536
0.561913 0.064790 0.112337
0.607874 0.036927 0.115023
0.652796 0.000000 0.118227
0.694606 0.000000 0.122896
0.732296 0.000000 0.128481
0.767361 0.000000 0.135317
0.800595 0.000000 0.142885
0.832547 0.000000 0.151888
0.863951 0.000000 0.162234
0.894713 0.000000 0.174136
0.924376 0.036500 0.188266
0.952453 0.089418 0.205692
0.977905 0.129915 0.227390
0.999603 0.173861 0.254765
1.000000 0.223636 0.288914
1.000000 0.279057 0.330053
1.000000 0.340307 0.377722
0.079469 0.105501 0.088197
0.079713 0.106966 0.087465
0.088930 0.108248 0.087373
0.108370 0.111818 0.086397
0.131685 0.112642 0.087404
0.153414 0.113313 0.090272
0.176669 0.114229 0.092744
0.201999 0.115236 0.095552
0.230564 0.116884 0.098451
0.263828 0.118379 0.101564
0.303380 0.119692 0.104097
0.350256 0.120363 0.106325
0.402564 0.119539 0.107851
0.457496 0.116274 0.109255
0.511406 0.110994 0.110475
0.561883 0.104097 0.112154
0.607507 0.095369 0.114900
0.652583 0.086732 0.118044
0.693355 0.075532 0.122683
0.730343 0.068147 0.127840
0.765011 0.058778 0.134554
0.797971 0.049439 0.142489
0.830076 0.050660 0.151583
0.861845 0.060945 0.161715
0.893187 0.075044 0.173709
0.923491 0.092988 0.188296
0.951995 0.119081 0.205936
0.977661 0.151156 0.228092
0.999390 0.189395 0.255772
1.000000 0.234867 0.289891
1.000000 0.287327 0.331029
1.000000 0.345861 0.378058
0.080018 0.127535 0.091524
0.083467 0.128389 0.090242
0.092042 0.129061 0.089937
0.109010 0.131228 0.089723
0.133120 0.135592 0.087373
0.157443 0.136477 0.089204
0.179629 0.135836 0.093507
0.203799 0.136660 0.097353
0.232303 0.138094 0.100435
0.265537 0.140322 0.103090
0.305058 0.143038 0.105104
0.351873 0.145998 0.107240
0.404059 0.147799 0.108461
0.458473 0.147982 0.109590
0.512291 0.146242 0.110750
0.562585 0.143008 0.112276
0.608759 0.138399 0.114778
0.653681 0.133669 0.118074
0.693874 0.127596 0.122591
0.730373 0.122377 0.128176
0.764462 0.118685 0.134768
0.797147 0.116854 0.142397
0.829129 0.115969 0.151431
0.860838 0.117830 0.162081
0.892210 0.124422 0.174166
0.922606 0.135348 0.188937
0.951171 0.152529 0.206638
0.976867 0.176974 0.229038
0.998566 0.209812 0.256901
1.000000 0.250492 0.291051
1.000000 0.299016 0.331731
1.000000 0.354803 0.378912
0.082002 0.149752 0.092805
0.087984 0.150240 0.092866
0.096071 0.150607 0.092866
0.110994 0.151919 0.093538
0.131991 0.155612 0.092775
0.158389 0.160525 0.091615
0.184482 0.161807 0.093202
0.209567 0.161837 0.096803
0.236027 0.163302 0.102113
0.269413 0.166323 0.104952
0.309422 0.170443 0.106783
0.356329 0.175143 0.108492
0.408179 0.179324 0.109438
0.462257 0.182223 0.110140
0.515496 0.183017 0.110567
0.565148 0.181796 0.111940
0.612360 0.179660 0.114443
0.656123 0.176120 0.118135
0.695552 0.172030 0.122957
0.731655 0.169162 0.128115
0.765591 0.165774 0.135164
0.798337 0.163088 0.143374
0.849760 0.170260 0.160067
0.880766 0.172824 0.172122
0.910552 0.178927 0.185641
0.938720 0.188357 0.202121
0.964477 0.203738 0.221775
0.987060 0.225315 0.246220
1.000000 0.254826 0.276066
1.000000 0.292302 0.311681
1.000000 0.337255 0.352911
1.000000 0.388891 0.399512
0.085878 0.175021 0.097810
0.091920 0.175235 0.097902
0.099214 0.175875 0.098116
0.114229 0.176638 0.098787
0.134157 0.178195 0.099336
0.158602 0.183749 0.097597
0.187869 0.189334 0.096345
0.217502 0.192569 0.096895
0.248569 0.194827 0.099153
0.281163 0.198062 0.104921
0.320775 0.203799 0.109316
0.369116 0.210422 0.109926
0.421180 0.216403 0.110323
0.474647 0.220615 0.110475
0.526360 0.222477 0.110689
0.574670 0.222660 0.112337
0.622431 0.221897 0.114992
0.665064 0.219394 0.118715
0.703517 0.216403 0.123720
0.739406 0.213291 0.129671
0.774014 0.210941 0.137697
0.808042 0.209567 0.146853
0.841520 0.210025 0.157931
0.874754 0.211826 0.170718
0.906615 0.216617 0.185214
0.935943 0.224308 0.202365
0.962371 0.236637 0.222721
0.985321 0.254429 0.247623
1.000000 0.279271 0.277379
1.000000 0.312505 0.312902
1.000000 0.353246 0.354070
1.000000 0.401160 0.400183
0.089082 0.200687 0.103243
0.094820 0.200992 0.103273
0.101900 0.201419 0.103487
0.116854 0.201938 0.103914
0.136172 0.203037 0.104219
0.159152 0.206180 0.103670
0.187198 0.213169 0.101411
0.219059 0.219883 0.100038
0.253208 0.225650 0.099458
0.290867 0.231174 0.100099
0.331792 0.237858 0.104494
0.376898 0.245212 0.109377
0.427131 0.252689 0.110842
0.479713 0.258274 0.110567
0.530419 0.261387 0.110689
0.580560 0.263340 0.111727
0.625849 0.263066 0.114290
0.666835 0.260716 0.118410
0.704280 0.257786 0.123354
0.739437 0.254795 0.130251
0.773404 0.252262 0.138155
0.806973 0.250523 0.147768
0.840085 0.250278 0.158938
0.872984 0.251530 0.171481
0.904631 0.254795 0.186496
0.933959 0.261112 0.203769
0.960449 0.270420 0.224613
0.983551 0.285374 0.249485
1.000000 0.306767 0.279515
1.000000 0.335760 0.315251
1.000000 0.372778 0.356420
1.000000 0.416938 0.402533
0.091066 0.230777 0.108766
0.097475 0.230808 0.108614
0.104829 0.231205 0.109010
0.119692 0.231540 0.108980
0.139803 0.232456 0.109010
0.162448 0.233494 0.109255
0.189090 0.239445 0.107424
0.221195 0.248295 0.104067
0.257084 0.256840 0.101778
0.297490 0.266117 0.098695
0.343328 0.275853 0.097047
0.391394 0.284886 0.100008
0.438972 0.291997 0.105470
0.487343 0.298161 0.110079
0.539757 0.303227 0.110414
0.587457 0.304997 0.111696
0.630671 0.304295 0.114473
0.670222 0.302098 0.118471
0.706416 0.298924 0.123995
0.740841 0.295567 0.130983
0.774166 0.293095 0.139193
0.807248 0.290806 0.149294
0.839933 0.290043 0.160769
0.872404 0.291051 0.173617
0.903807 0.293523 0.189181
0.932891 0.298100 0.206943
0.959289 0.305974 0.228031
0.982300 0.318364 0.253147
1.000000 0.336645 0.283207
1.000000 0.362219 0.319310
1.000000 0.395117 0.360082
1.000000 0.435492 0.406043
0.092622 0.266026 0.112978
0.098665 0.266300 0.113191
0.106355 0.266484 0.113191
0.122621 0.266789 0.113100
0.143496 0.267430 0.112917
0.167514 0.268193 0.113100
0.193668 0.270085 0.112703
0.225254 0.279454 0.109071
0.262699 0.290806 0.104097
0.303685 0.301640 0.099641
0.350256 0.313939 0.093904
0.401190 0.325231 0.090394
0.453834 0.335393 0.090486
0.503563 0.342107 0.097139
0.550744 0.346380 0.104494
0.594720 0.347936 0.110994
0.636622 0.347021 0.114076
0.675349 0.344305 0.118990
0.710506 0.340795 0.124880
0.743832 0.336980 0.132570
0.776211 0.333776 0.141573
0.808194 0.331243 0.151492
0.839811 0.329839 0.162966
0.871336 0.329808 0.176333
0.902098 0.331243 0.191409
0.930999 0.334752 0.209567
0.957427 0.341131 0.231144
0.980591 0.351781 0.257084
0.999695 0.367742 0.287938
1.000000 0.390387 0.324468
1.000000 0.420356 0.365881
1.000000 0.457465 0.411872
0.089143 0.307744 0.115785
0.096345 0.308019 0.116213
0.106172 0.308293 0.115908
0.124117 0.308537 0.115785
0.147189 0.309026 0.115541
0.173098 0.309789 0.115358
0.201328 0.310521 0.114870
0.232334 0.316106 0.112612
0.269718 0.328038 0.107088
0.313115 0.342016 0.099153
0.358740 0.353796 0.093111
0.411658 0.368811 0.084047
0.465949 0.380621 0.076875
0.518517 0.388739 0.075898
0.563714 0.391150 0.085939
0.604334 0.390845 0.098573
0.642359 0.389197 0.111238
0.678920 0.386328 0.119478
0.713130 0.382025 0.126040
0.745663 0.377691 0.134249
0.777523 0.374060 0.143587
0.809049 0.371069 0.153902
0.840360 0.369238 0.166293
0.871580 0.368780 0.179995
0.901915 0.369787 0.195926
0.930419 0.372320 0.214450
0.956512 0.377478 0.236820
0.979339 0.386450 0.262821
0.998169 0.400153 0.294133
1.000000 0.419715 0.330388
1.000000 0.446265 0.371740
1.000000 0.479988 0.417731
0.080629 0.357702 0.116579
0.089174 0.358129 0.116884
0.101503 0.358099 0.116640
0.123232 0.358129 0.116304
0.150057 0.358404 0.115969
0.178897 0.358740 0.115511
0.210147 0.358953 0.114748
0.241581 0.359289 0.114229
0.278538 0.369512 0.108949
0.321538 0.383520 0.100618
0.371710 0.400458 0.089143
0.422919 0.414343 0.078614
0.496254 0.443885 0.054108
0.547539 0.450019 0.038727
0.593988 0.451240 0.045441
0.634241 0.448676 0.072755
0.669184 0.443671 0.095644
0.701320 0.438117 0.115145
0.731258 0.432929 0.133150
0.761898 0.427070 0.142214
0.792111 0.422004 0.152987
0.821958 0.418036 0.164736
0.851804 0.415320 0.177157
0.881529 0.413764 0.191989
0.910185 0.413886 0.209110
0.937072 0.415900 0.228855
0.961395 0.420264 0.251774
0.982483 0.427771 0.278965
0.999603 0.439734 0.310613
1.000000 0.457038 0.346868
1.000000 0.480781 0.387854
1.000000 0.510521 0.432288
0.059998 0.418555 0.115023
0.074952 0.418463 0.114839
0.091524 0.418158 0.114870
0.119600 0.417578 0.114443
0.151064 0.416785 0.114137
0.184604 0.415747 0.113375
0.218479 0.415076 0.112490
0.253361 0.414557 0.111299
0.290471 0.418280 0.108675
0.334874 0.433631 0.099886
0.384955 0.450233 0.087434
0.439765 0.467750 0.068482
0.494362 0.481209 0.044282
0.549462 0.492561 0.003754
0.596155 0.494423 0.000000
0.638392 0.492317 0.007599
0.675776 0.487617 0.061860
0.706264 0.479927 0.094209
0.735103 0.472724 0.118318
0.763424 0.466987 0.139681
0.792264 0.462104 0.157137
0.821744 0.457496 0.168887
0.851133 0.454139 0.182315
0.880430 0.452125 0.197574
0.908690 0.451575 0.215030
0.935271 0.452644 0.234958
0.959411 0.455879 0.258427
0.980377 0.462013 0.285985
0.997467 0.471962 0.317571
1.000000 0.486885 0.353948
1.000000 0.507652 0.394629
1.000000 0.534325 0.438911
0.000000 0.473121 0.112215
0.046052 0.472908 0.112062
0.076173 0.472541 0.111910
0.111879 0.472328 0.111452
0.149477 0.471992 0.110628
0.187503 0.471565 0.110048
0.224918 0.471382 0.108888
0.262516 0.470741 0.107485
0.300450 0.470130 0.105959
0.341588 0.477119 0.100069
0.389166 0.491096 0.087648
0.440253 0.505760 0.071260
0.494484 0.520195 0.031769
0.546960 0.530327 0.000000
0.598322 0.537774 0.000000
0.640040 0.535454 0.000000
0.677455 0.529717 0.000000
0.710414 0.522179 0.059693
0.739193 0.513634 0.095674
0.766690 0.506065 0.124239
0.794461 0.500450 0.148684
0.822263 0.496620 0.172305
0.851072 0.493324 0.188937
0.880003 0.490791 0.204837
0.907927 0.489693 0.222721
0.934173 0.489998 0.243503
0.958007 0.492256 0.267277
0.978729 0.497108 0.294957
0.995575 0.505272 0.326909
1.000000 0.518090 0.363073
1.000000 0.536217 0.403754
1.000000 0.559838 0.447547
0.000000 0.530266 0.109865
0.000000 0.530297 0.109560
0.044770 0.529778 0.109438
0.102296 0.529015 0.108980
0.145998 0.527733 0.108553
0.187961 0.526177 0.107332
0.228122 0.524559 0.106111
0.268101 0.522728 0.104677
0.307225 0.521080 0.103304
0.346380 0.519219 0.100710
0.390784 0.529503 0.090974
0.438941 0.541741 0.076753
0.489693 0.554131 0.053315
0.542504 0.565789 0.000000
0.592889 0.573327 0.000000
0.641291 0.578088 0.000000
0.678584 0.572503 0.000000
0.711482 0.563714 0.000000
0.742092 0.554711 0.061860
0.770718 0.546410 0.099733
0.797604 0.538994 0.132784
0.824796 0.533562 0.160250
0.852171 0.530449 0.186893
0.879637 0.529229 0.213504
0.907256 0.527550 0.231937
0.933257 0.527337 0.253483
0.956970 0.529015 0.278050
0.977539 0.533043 0.306706
0.994141 0.540154 0.339330
1.000000 0.551354 0.376349
1.000000 0.567590 0.417426
1.000000 0.588708 0.460945
0.000000 0.580102 0.111025
0.000000 0.580102 0.111147
0.005219 0.579736 0.110536
0.092531 0.579004 0.110323
0.143130 0.577508 0.109346
0.187716 0.575982 0.108553
0.229831 0.574182 0.107210
0.271305 0.572198 0.105379
0.312200 0.569818 0.103700
0.351904 0.567193 0.101564
0.392340 0.567132 0.096956
0.437568 0.576837 0.085786
0.484840 0.586481 0.069825
0.533959 0.596002 0.033326
0.584192 0.605097 0.000000
0.631952 0.609979 0.000000
0.677882 0.613031 0.000000
0.711543 0.605249 0.000000
0.742519 0.595392 0.010010
0.772763 0.586572 0.070771
0.801999 0.579187 0.108705
0.828885 0.572351 0.144259
0.855924 0.567803 0.175906
0.882780 0.565393 0.206821
0.908782 0.565240 0.238376
0.933715 0.565942 0.267155
0.956847 0.566674 0.292241
0.976806 0.569665 0.320989
0.992737 0.575311 0.353979
1.000000 0.584527 0.390692
1.000000 0.597986 0.430579
1.000000 0.615778 0.472602
0.000000 0.623102 0.116915
0.000000 0.622766 0.116457
0.000000 0.622370 0.116304
0.088289 0.621363 0.115633
0.140139 0.620081 0.115084
0.186831 0.618158 0.113558
0.229892 0.616052 0.112551
0.271702 0.613764 0.111086
0.312779 0.611048 0.108705
0.353002 0.608087 0.106600
0.392493 0.604578 0.103761
0.434089 0.607996 0.097108
0.479133 0.616419 0.084932
0.525475 0.624567 0.069276
0.572839 0.632197 0.035737
0.620813 0.639002 0.000000
0.666041 0.642420 0.000000
0.710536 0.644862 0.000000
0.742306 0.636103 0.000000
0.772396 0.626307 0.051392
0.802152 0.617853 0.085725
0.831052 0.610712 0.123018
0.858488 0.604791 0.158541
0.884855 0.600855 0.193851
0.910369 0.598962 0.229129
0.934295 0.599420 0.264866
0.955871 0.602380 0.302953
0.975189 0.604974 0.334844
0.990784 0.609064 0.367590
1.000000 0.616541 0.404456
1.000000 0.627619 0.443519
1.000000 0.642878 0.485054
0.000000 0.662074 0.127047
0.000000 0.662165 0.127291
0.006836 0.673243 0.131991
0.097810 0.672084 0.130800
0.146975 0.670527 0.130159
0.192477 0.668330 0.128542
0.236027 0.665644 0.126772
0.277684 0.662623 0.125277
0.319066 0.659266 0.122713
0.359289 0.655695 0.120150
0.398840 0.651667 0.117342
0.437385 0.647120 0.113558
0.479835 0.652674 0.105928
0.523613 0.658930 0.095430
0.568414 0.664851 0.081910
0.613886 0.670466 0.063966
0.659937 0.675746 0.017273
0.703365 0.677760 0.016938
0.746456 0.679652 0.017823
0.777035 0.670649 0.029114
0.806058 0.660700 0.084779
0.835233 0.652308 0.112398
0.863645 0.645411 0.145083
0.890532 0.639918 0.180728
0.914611 0.635676 0.220401
0.937224 0.633509 0.258824
0.957488 0.633845 0.298375
0.974853 0.636866 0.339971
0.988647 0.642542 0.382330
0.999664 0.647852 0.418189
1.000000 0.656611 0.456458
1.000000 0.669215 0.497078
0.000000 0.699916 0.144350
0.000000 0.701045 0.144930
0.056397 0.701961 0.145480
0.107851 0.702327 0.145541
0.152987 0.701900 0.145357
0.195682 0.700496 0.144594
0.237461 0.698207 0.142763
0.278447 0.695308 0.140414
0.318517 0.692226 0.138552
0.357946 0.688685 0.135500
0.397101 0.684779 0.132357
0.435340 0.680415 0.128634
0.473884 0.678401 0.123720
0.515496 0.683742 0.116213
0.558038 0.688930 0.107515
0.601373 0.693874 0.097047
0.645289 0.698756 0.082918
0.689815 0.703487 0.064698
0.732052 0.705318 0.068544
0.774166 0.707332 0.073304
0.804776 0.699275 0.079347
0.834043 0.690333 0.110536
0.862974 0.682734 0.137636
0.890776 0.676173 0.168124
0.916533 0.670802 0.204746
0.938781 0.666712 0.247074
0.958556 0.664881 0.290379
0.975341 0.665583 0.334203
0.988434 0.669337 0.380346
0.997742 0.676631 0.427771
1.000000 0.685176 0.470253
1.000000 0.695369 0.509941
0.016327 0.730983 0.163210
0.065797 0.731930 0.164004
0.091157 0.732876 0.164614
0.127169 0.733059 0.164614
0.165164 0.732662 0.164767
0.203799 0.731289 0.164004
0.243107 0.729122 0.161929
0.281926 0.726497 0.159640
0.320256 0.723659 0.157778
0.358831 0.720241 0.154574
0.396643 0.716701 0.151888
0.434333 0.712490 0.148104
0.471046 0.707698 0.143557
0.509514 0.708919 0.138735
0.550286 0.713497 0.132021
0.591608 0.718074 0.124788
0.633814 0.722591 0.115602
0.676539 0.727016 0.104829
0.719875 0.731441 0.093019
0.761044 0.733364 0.099153
0.802274 0.735378 0.106325
0.833158 0.728573 0.113191
0.862089 0.720607 0.139376
0.890074 0.713130 0.167208
0.916350 0.706294 0.196170
0.939727 0.700649 0.235599
0.959594 0.696345 0.278996
0.975769 0.694423 0.325933
0.988342 0.695460 0.374182
0.997345 0.699825 0.423133
1.000000 0.707942 0.472114
1.000000 0.720058 0.521294
0.095674 0.761135 0.186130
0.109041 0.762020 0.187198
0.125002 0.762844 0.188083
0.151369 0.763088 0.187839
0.183413 0.762631 0.187991
0.217655 0.761257 0.186587
0.252445 0.759365 0.185306
0.288548 0.756863 0.182712
0.325139 0.754025 0.180514
0.361700 0.750881 0.177584
0.398108 0.747463 0.174685
0.434668 0.743465 0.170657
0.470497 0.738949 0.166262
0.505791 0.733913 0.161166
0.544823 0.738247 0.156466
0.584527 0.742794 0.151705
0.625360 0.747341 0.145785
0.666957 0.752163 0.139620
0.709346 0.757076 0.132082
0.752224 0.761929 0.126619
0.793240 0.764553 0.135348
0.834043 0.767330 0.144930
0.864866 0.761349 0.153353
0.892912 0.753719 0.178317
0.918975 0.746029 0.208286
0.942596 0.738552 0.238346
0.962493 0.732265 0.279667
0.978424 0.727443 0.324468
0.989807 0.725643 0.375799
0.997803 0.727291 0.426795
1.000000 0.732540 0.476844
1.000000 0.741878 0.526757
0.149630 0.794980 0.217716
0.157656 0.795254 0.218235
0.167575 0.795315 0.218112
0.185702 0.795010 0.218051
0.210636 0.794034 0.216983
0.238956 0.792660 0.215976
0.269749 0.790768 0.213870
0.302342 0.788571 0.211948
0.336034 0.786160 0.209598
0.370459 0.783413 0.206760
0.405402 0.780423 0.204074
0.440345 0.776883 0.200168
0.475074 0.772793 0.195773
0.509209 0.768185 0.190585
0.544305 0.766293 0.185641
0.582605 0.770413 0.182162
0.621515 0.774655 0.178256
0.661372 0.779110 0.173770
0.701930 0.783658 0.168978
0.743099 0.788174 0.164034
0.784329 0.792325 0.161135
0.823667 0.794461 0.171206
0.862486 0.796567 0.181857
0.891661 0.790249 0.191745
0.917510 0.781827 0.215518
0.940826 0.773404 0.246769
0.961151 0.765133 0.280003
0.977386 0.757931 0.321141
0.989593 0.752651 0.366888
0.997375 0.751186 0.419837
1.000000 0.753445 0.471656
1.000000 0.759823 0.522972
0.194156 0.823758 0.248051
0.199710 0.824094 0.248508
0.207340 0.824277 0.248600
0.221378 0.823972 0.248661
0.240848 0.823148 0.247654
0.264408 0.821775 0.245914
0.290806 0.820066 0.244388
0.319371 0.817960 0.242222
0.349950 0.815640 0.239658
0.381659 0.813107 0.236759
0.414099 0.810361 0.233890
0.447059 0.807218 0.230503
0.479896 0.803586 0.225956
0.512963 0.799496 0.221164
0.545861 0.794949 0.215183
0.581292 0.796262 0.211978
0.618647 0.800412 0.209079
0.656794 0.804623 0.206332
0.695735 0.808927 0.203769
0.735195 0.813230 0.200839
0.774960 0.817533 0.198489
0.814603 0.821195 0.198550
0.852476 0.823117 0.210330
0.889738 0.824887 0.222629
0.914946 0.815976 0.229709
0.938262 0.807034 0.253117
0.958434 0.797635 0.287449
0.974975 0.788449 0.323400
0.987579 0.780575 0.364752
0.996338 0.775479 0.412207
1.000000 0.774166 0.463142
1.000000 0.777707 0.516899
0.245945 0.855131 0.286198
0.250584 0.855497 0.287022
0.255985 0.855528 0.287175
0.266423 0.855131 0.286900
0.281315 0.854215 0.285649
0.299870 0.852781 0.283848
0.321324 0.851072 0.281651
0.345464 0.848966 0.279332
0.371771 0.846494 0.275792
0.399725 0.843931 0.272984
0.428992 0.841001 0.269261
0.458839 0.837949 0.265446
0.489662 0.834440 0.260594
0.520531 0.830564 0.255314
0.551385 0.826169 0.249210
0.582513 0.821805 0.242985
0.617609 0.825071 0.240360
0.653498 0.828580 0.238621
0.690364 0.832364 0.236545
0.727901 0.836240 0.235355
0.765743 0.840146 0.234653
0.803830 0.843870 0.233646
0.841276 0.846616 0.236301
0.876982 0.847684 0.248631
0.911681 0.848508 0.261143
0.936522 0.840879 0.273442
0.956481 0.830716 0.297887
0.972564 0.819913 0.334081
0.985107 0.809964 0.372442
0.994354 0.801694 0.412940
1.000000 0.797086 0.460731
1.000000 0.796353 0.510094
0.291752 0.880613 0.321630
0.295659 0.880949 0.322576
0.299992 0.881010 0.322698
0.308171 0.880674 0.322362
0.320012 0.879850 0.321263
0.335149 0.878691 0.319493
0.353033 0.877256 0.317601
0.373693 0.875547 0.315496
0.396490 0.873655 0.312688
0.421363 0.871489 0.309575
0.447517 0.869200 0.306554
0.475227 0.866697 0.303319
0.503502 0.863920 0.299321
0.532372 0.860716 0.294163
0.561608 0.857176 0.289067
0.591058 0.853330 0.282872
0.622187 0.851987 0.278202
0.655940 0.854978 0.277562
0.690547 0.858152 0.276890
0.725856 0.861326 0.276555
0.761318 0.864439 0.277043
0.797024 0.867338 0.277256
0.832547 0.869810 0.277867
0.867308 0.871366 0.282139
0.900420 0.871580 0.295598
0.932464 0.871550 0.308629
0.954742 0.863218 0.322148
0.970672 0.851530 0.348302
0.982757 0.839902 0.386969
0.991760 0.829801 0.426490
0.997955 0.822049 0.467445
1.000000 0.818448 0.514977
0.342351 0.904631 0.361730
0.345525 0.904784 0.362463
0.348608 0.904723 0.362493
0.354742 0.904295 0.361944
0.363622 0.903532 0.360632
0.375402 0.902464 0.358862
0.389899 0.901183 0.356909
0.406683 0.899718 0.354223
0.426276 0.898039 0.351934
0.447608 0.896330 0.349218
0.470832 0.894377 0.346441
0.495460 0.892363 0.343297
0.521080 0.890135 0.339788
0.547509 0.887602 0.335882
0.574365 0.884733 0.330663
0.601801 0.881559 0.325261
0.629664 0.878141 0.319066
0.660304 0.878996 0.317388
0.692439 0.881346 0.317571
0.725093 0.883787 0.318059
0.758053 0.886046 0.319280
0.791165 0.888060 0.320623
0.824063 0.889708 0.322362
0.856626 0.890929 0.323827
0.888426 0.891203 0.329625
0.918700 0.890501 0.343420
0.947845 0.889647 0.357549
0.967803 0.881071 0.371527
0.979950 0.868254 0.397742
0.988800 0.856382 0.437446
0.994934 0.846769 0.478187
0.998566 0.840116 0.520378
0.391852 0.924437 0.401984
0.393988 0.924468 0.402106
0.396551 0.924407 0.402045
0.401373 0.924102 0.401617
0.408881 0.923583 0.400702
0.419074 0.922942 0.400031
0.431830 0.922271 0.399115
0.446967 0.921508 0.398199
0.464576 0.920684 0.397650
0.483833 0.919829 0.396674
0.504784 0.918791 0.395911
0.526940 0.917601 0.394446
0.550072 0.916197 0.392462
0.573938 0.914488 0.390051
0.598322 0.912474 0.386816
0.623102 0.910124 0.382330
0.648493 0.907530 0.377386
0.674617 0.905272 0.372717
0.703517 0.906615 0.373693
0.732906 0.907897 0.374945
0.762509 0.908965 0.376898
0.792142 0.909728 0.379095
0.821653 0.910216 0.381140
0.850797 0.910277 0.383215
0.879637 0.910033 0.385199
0.907774 0.909087 0.392309
0.934661 0.907530 0.405951
0.960449 0.905882 0.419593
0.977996 0.897612 0.433967
0.986389 0.884154 0.459632
0.991974 0.872679 0.500008
0.995239 0.864164 0.541375
0.451789 0.942504 0.451575
0.453315 0.942473 0.451545
0.455116 0.942351 0.451453
0.458595 0.942046 0.450904
0.464149 0.941588 0.449928
0.471626 0.940978 0.448829
0.481239 0.940246 0.447486
0.492897 0.939483 0.446387
0.506432 0.938567 0.444984
0.521843 0.937591 0.443671
0.538842 0.936461 0.442267
0.557183 0.935241 0.440620
0.576593 0.933837 0.438605
0.597070 0.932280 0.436194
0.618250 0.930541 0.433173
