其他预设/【233】日式怀旧街道调色预设208款/1.3D LUT预设（视频调色-PR-AE-PS-FCPX-达芬奇用）/1.日式城市街拍预设/JA – Harsh Shade 1.cube
# Created by Adobe Lightroom plugin Export LUT (1.17.0)
# www.johnrellis.com/lightroom/exportlut.htm
# Preset: JA – Harsh Shade 1
# Color profile: /Library/Application Support/Adobe/Color/Profiles/Recommended/AdobeRGB1998.icc
LUT_3D_SIZE 8
DOMAIN_MIN 0.000000 0.000000 0.000000
DOMAIN_MAX 0.903226 0.903226 0.903226
0.035828 0.039033 0.053254
0.079591 0.039429 0.061799
0.142947 0.057984 0.071534
0.267887 0.058320 0.084962
0.505089 0.000000 0.084688
0.761776 0.000000 0.086366
0.898924 0.000000 0.136324
0.997894 0.197116 0.222385
0.034821 0.076631 0.058991
0.084260 0.080659 0.057282
0.150393 0.078950 0.065553
0.271855 0.089815 0.080446
0.503410 0.082582 0.076570
0.748745 0.001984 0.072236
0.890440 0.064820 0.122652
0.993927 0.206027 0.209232
0.055756 0.122683 0.084047
0.080385 0.125856 0.084962
0.163058 0.151278 0.079744
0.309941 0.178683 0.070405
0.572747 0.222995 0.000000
0.778622 0.229252 0.000000
0.911711 0.232792 0.102358
1.000000 0.289158 0.203586
0.033814 0.199222 0.104646
0.076234 0.204410 0.100191
0.156252 0.218997 0.104341
0.398566 0.353185 0.016938
0.666102 0.417060 0.000000
0.816495 0.396307 0.000000
0.927703 0.373449 0.000000
1.000000 0.380926 0.162203
0.000000 0.329534 0.122469
0.000000 0.340734 0.103822
0.172610 0.366613 0.102815
0.364508 0.455512 0.066011
0.688624 0.608515 0.000000
0.836179 0.572412 0.000000
0.926726 0.520775 0.000000
1.000000 0.502586 0.130343
0.000000 0.519402 0.124147
0.000000 0.540917 0.083406
0.151095 0.563256 0.049714
0.357397 0.597589 0.027466
0.596612 0.687526 0.000000
0.848814 0.760464 0.000000
0.947875 0.700252 0.108431
1.000000 0.654841 0.219760
0.000000 0.723568 0.108888
0.000000 0.730770 0.066499
0.044556 0.739651 0.000000
0.352728 0.753017 0.006836
0.541466 0.766812 0.098787
0.754665 0.824216 0.139925
0.944396 0.862425 0.290837
1.000000 0.806699 0.406744
0.000000 0.885283 0.188296
0.000000 0.886320 0.184421
0.233188 0.889860 0.199344
0.433631 0.895933 0.258335
0.583673 0.890715 0.304448
0.741970 0.905028 0.399969
0.884489 0.926329 0.471382
0.993133 0.932097 0.572107
0.030854 0.047425 0.082826
0.073854 0.042054 0.086885
0.129519 0.070253 0.101534
0.246616 0.063203 0.116548
0.473976 0.000000 0.122164
0.727291 0.000000 0.126864
0.879759 0.000000 0.160403
0.985748 0.193515 0.237644
0.026001 0.074617 0.088045
0.077058 0.079927 0.094942
0.137636 0.085695 0.103639
0.256870 0.087007 0.113466
0.485237 0.039460 0.116670
0.726009 0.000000 0.118502
0.874632 0.000000 0.150179
0.981598 0.199527 0.224125
0.054780 0.121187 0.103426
0.078492 0.127657 0.106325
0.156680 0.148318 0.106203
0.295293 0.167453 0.103243
0.540826 0.199619 0.087953
0.753292 0.205417 0.086732
0.889769 0.212497 0.132235
0.992309 0.279301 0.216526
0.034058 0.194278 0.124422
0.068147 0.203342 0.119783
0.151980 0.220615 0.121248
0.361975 0.322850 0.094484
0.612085 0.377142 0.000000
0.784695 0.371221 0.000000
0.905455 0.355505 0.068208
0.999634 0.371527 0.179446
0.000000 0.324620 0.147372
0.000000 0.335241 0.134463
0.156771 0.361975 0.120394
0.339117 0.431525 0.105074
0.660334 0.583246 0.000000
0.819821 0.557000 0.000000
0.915587 0.509545 0.000000
1.000000 0.496284 0.153109
0.000000 0.504631 0.154269
0.000000 0.516533 0.133944
0.112276 0.544976 0.088655
0.338964 0.583062 0.083345
0.581994 0.675441 0.000000
0.843107 0.755489 0.000000
0.942687 0.696132 0.151614
1.000000 0.651606 0.239536
0.000000 0.705776 0.144686
0.000000 0.709071 0.120882
0.000000 0.723903 0.010590
0.333776 0.742397 0.067567
0.531579 0.760311 0.118593
0.746670 0.817105 0.164920
0.937713 0.856382 0.305882
0.998260 0.801755 0.408515
0.000000 0.876524 0.199130
0.000000 0.878935 0.195285
0.201480 0.884092 0.203250
0.420752 0.891173 0.262516
0.593530 0.896056 0.342382
0.744686 0.905730 0.424506
0.882841 0.924804 0.484352
0.990967 0.930510 0.578271
0.029419 0.061524 0.121523
0.064454 0.064393 0.128450
0.122103 0.069764 0.143771
0.217563 0.068391 0.166201
0.446357 0.000000 0.199222
0.719539 0.000000 0.217197
0.876890 0.000000 0.255161
0.978912 0.310246 0.363500
0.052399 0.080293 0.124788
0.070222 0.083497 0.134951
0.126864 0.086976 0.149905
0.226719 0.088533 0.170016
0.459785 0.000000 0.196262
0.718318 0.000000 0.211368
0.874418 0.063935 0.246098
0.978210 0.310002 0.351141
0.043549 0.119387 0.141695
0.070253 0.125124 0.148135
0.140932 0.143771 0.167819
0.273686 0.152468 0.179110
0.524651 0.151034 0.188754
0.747005 0.153597 0.198825
0.884947 0.214755 0.234287
0.983886 0.346258 0.334997
0.000000 0.192691 0.166201
0.040406 0.202213 0.169558
0.132235 0.237583 0.172915
0.354101 0.320104 0.173709
0.599084 0.345434 0.161837
0.788296 0.346746 0.167239
0.904112 0.353368 0.210636
0.994598 0.414984 0.309361
0.000000 0.314977 0.193759
0.000000 0.328679 0.193149
0.091371 0.378698 0.176150
0.312993 0.428931 0.174258
0.661128 0.586603 0.138827
0.815488 0.545403 0.157259
0.914763 0.506737 0.192477
1.000000 0.511101 0.270512
0.000000 0.494240 0.213016
0.000000 0.507408 0.206943
0.000000 0.548516 0.169650
0.302586 0.588251 0.153017
0.556909 0.662959 0.154910
0.833249 0.749660 0.211856
0.933532 0.696223 0.287480
1.000000 0.664485 0.359197
0.000000 0.702998 0.221286
0.000000 0.707454 0.210513
0.000000 0.724117 0.163790
0.290440 0.743313 0.151339
0.517784 0.759640 0.193637
0.739895 0.812619 0.279728
0.931884 0.858396 0.433387
0.993164 0.813657 0.503319
0.000000 0.874235 0.266789
0.000000 0.874693 0.259586
0.127230 0.879454 0.256138
0.406683 0.889616 0.319249
0.588708 0.893980 0.393652
0.743618 0.902129 0.475868
0.882322 0.923857 0.540002
0.987335 0.931640 0.624170
0.021332 0.072633 0.161563
0.054902 0.074098 0.169772
0.119387 0.073793 0.198123
0.209659 0.063020 0.216251
0.346288 0.000000 0.239597
0.641962 0.000000 0.294133
0.843076 0.086976 0.356390
0.947906 0.451301 0.524865
0.032868 0.086824 0.167056
0.054994 0.087160 0.176516
0.120790 0.088533 0.202762
0.218296 0.080507 0.222293
0.364111 0.000000 0.245396
0.651637 0.000000 0.294499
0.843687 0.173800 0.364935
0.949310 0.450050 0.518456
0.034791 0.116152 0.172732
0.060304 0.119387 0.178653
0.114809 0.131563 0.209476
0.246464 0.140200 0.241032
0.434211 0.124392 0.266484
0.704738 0.156954 0.317144
0.862119 0.355840 0.427039
0.960632 0.483253 0.523339
0.000000 0.179568 0.199527
0.014649 0.187320 0.205875
0.112917 0.217838 0.228977
0.304234 0.289128 0.278538
0.549462 0.313451 0.299016
0.751492 0.349493 0.333837
0.878019 0.417029 0.403906
0.971527 0.515923 0.505638
0.000000 0.302464 0.238224
0.000000 0.313207 0.241764
0.038392 0.358526 0.254032
0.274479 0.453803 0.267735
0.637690 0.573877 0.315007
0.794369 0.533349 0.336980
0.904143 0.535363 0.393713
0.986542 0.577264 0.482246
0.000000 0.480629 0.275181
0.000000 0.499580 0.278355
0.000000 0.538506 0.273869
0.231357 0.606836 0.255802
0.527367 0.650080 0.297307
0.819150 0.748898 0.431861
0.917174 0.708888 0.473854
0.990234 0.690059 0.506126
0.000000 0.689387 0.314641
0.000000 0.696620 0.310033
0.000000 0.718105 0.289982
0.212528 0.749447 0.264012
0.507652 0.767147 0.324224
0.732570 0.807218 0.435706
0.921538 0.859434 0.561883
0.983856 0.824704 0.597955
0.000000 0.874876 0.373663
0.000000 0.877134 0.370459
0.000000 0.882200 0.360815
0.359655 0.888640 0.391028
0.579187 0.892546 0.467628
0.739315 0.898314 0.539178
0.879240 0.921660 0.607294
0.982055 0.932555 0.678706
0.000000 0.080537 0.200961
0.030488 0.081483 0.208560
0.109377 0.080140 0.236088
0.243839 0.014282 0.298680
0.368627 0.000000 0.315984
0.517601 0.000000 0.333837
0.790127 0.000000 0.422705
0.933440 0.375280 0.548180
0.000000 0.090211 0.204318
0.021607 0.090303 0.212833
0.107637 0.090883 0.239719
0.243717 0.062654 0.301671
0.378485 0.000000 0.323033
0.525078 0.000000 0.336431
0.795743 0.000000 0.427253
0.933532 0.404059 0.557031
0.019226 0.113222 0.195468
0.032990 0.116945 0.206058
0.089021 0.122774 0.243229
0.238651 0.128084 0.310613
0.410864 0.093477 0.348821
0.567193 0.000000 0.355962
0.808743 0.184573 0.448188
0.932219 0.485695 0.584222
0.000000 0.161929 0.218082
0.000000 0.165743 0.223087
0.082429 0.179385 0.242405
0.213443 0.221744 0.316442
0.474983 0.261997 0.411292
0.655177 0.284215 0.423377
0.830106 0.451331 0.529686
0.936461 0.612055 0.643641
0.000000 0.257847 0.256962
0.000000 0.266758 0.263127
0.000000 0.301640 0.287633
0.211521 0.381720 0.355230
0.549432 0.516716 0.500145
0.737392 0.547936 0.534661
0.859403 0.590753 0.577630
0.956176 0.644862 0.629877
0.000000 0.428199 0.319493
0.000000 0.440070 0.325811
0.000000 0.481178 0.346838
0.130159 0.551812 0.379767
0.482399 0.635615 0.451270
0.784176 0.730343 0.573999
0.889555 0.710018 0.596033
0.974609 0.718441 0.626734
0.000000 0.660090 0.412573
0.000000 0.665064 0.411505
0.000000 0.685298 0.407721
0.000000 0.721126 0.399664
0.453071 0.757259 0.442359
0.700282 0.781827 0.535424
0.906035 0.854520 0.653986
0.972808 0.827970 0.669520
0.000000 0.858732 0.476051
0.000000 0.860166 0.472816
0.000000 0.865843 0.462959
0.228550 0.881376 0.468147
0.523003 0.887480 0.519921
0.721309 0.894011 0.594873
0.867155 0.915343 0.661433
0.974395 0.931243 0.729183
0.000000 0.087251 0.244938
0.000000 0.087098 0.252842
0.102205 0.083894 0.282536
0.230930 0.017639 0.364233
0.450782 0.000000 0.520317
0.575921 0.000000 0.502800
0.730190 0.000000 0.512047
0.913024 0.201328 0.586023
0.000000 0.093050 0.244572
0.000000 0.093446 0.251865
0.094392 0.092317 0.281315
0.223941 0.061952 0.361700
0.448920 0.000000 0.522332
0.577630 0.000000 0.504875
0.729610 0.000000 0.510063
0.912535 0.236637 0.588006
0.000000 0.117159 0.234073
0.000000 0.117983 0.243534
0.046387 0.116823 0.281956
0.202701 0.114107 0.365911
0.445594 0.000000 0.535210
0.601587 0.000000 0.529107
0.739681 0.000000 0.513573
0.916167 0.357275 0.606867
0.000000 0.149752 0.234226
0.000000 0.150393 0.237308
0.025940 0.152224 0.249699
0.136843 0.178195 0.357733
0.424750 0.226078 0.543450
0.646357 0.238682 0.575525
0.765469 0.211124 0.534264
0.923857 0.516045 0.649958
0.000000 0.225284 0.269810
0.000000 0.228946 0.274083
0.000000 0.242100 0.290959
0.101778 0.266636 0.331914
0.351141 0.356542 0.503716
0.677882 0.476570 0.614771
0.800107 0.510338 0.605951
0.928618 0.658808 0.701656
0.000000 0.364691 0.338720
0.000000 0.374273 0.347692
0.000000 0.404273 0.377234
0.000000 0.464057 0.440925
0.354314 0.558831 0.541466
0.732265 0.697871 0.680018
0.853880 0.723537 0.705806
0.950439 0.751736 0.733761
0.000000 0.618921 0.493751
0.000000 0.627649 0.499397
0.000000 0.650965 0.511498
0.000000 0.691493 0.529503
0.322545 0.733883 0.553399
0.682429 0.774044 0.641993
0.889921 0.850187 0.738033
0.963043 0.831815 0.742641
0.000000 0.848875 0.584649
0.000000 0.850126 0.582757
0.000000 0.855894 0.577111
0.000000 0.868467 0.572961
0.400244 0.879240 0.585809
0.676265 0.888640 0.648859
0.845029 0.905089 0.713802
0.965362 0.931029 0.792294
0.000000 0.095430 0.334386
0.000000 0.093904 0.348089
0.078065 0.083436 0.398810
0.224491 0.000000 0.501122
0.417731 0.000000 0.618616
0.622614 0.000000 0.691402
0.755947 0.000000 0.672572
0.892302 0.000000 0.675410
0.000000 0.100404 0.327977
0.000000 0.099641 0.340917
0.049744 0.092164 0.390387
0.211337 0.022187 0.490913
0.407446 0.000000 0.611536
0.618463 0.000000 0.689265
0.752163 0.000000 0.669184
0.887327 0.000000 0.669917
0.000000 0.130434 0.312016
0.000000 0.127413 0.324987
0.000000 0.115389 0.377478
0.165988 0.099001 0.480812
0.382971 0.000000 0.607294
0.620539 0.000000 0.700374
0.762112 0.000000 0.679957
0.893217 0.187716 0.677424
0.000000 0.153994 0.273747
0.000000 0.156222 0.282170
0.000000 0.161898 0.322606
0.000000 0.151064 0.445808
0.324010 0.157412 0.593744
0.624323 0.261173 0.716365
0.775998 0.234318 0.696925
0.898375 0.345403 0.687190
0.000000 0.230564 0.317052
0.000000 0.229007 0.317906
0.000000 0.223972 0.323339
0.000000 0.209689 0.335729
0.146853 0.233829 0.534051
0.587152 0.394842 0.698268
0.783230 0.447852 0.711452
0.899443 0.484413 0.696651
0.000000 0.366033 0.413611
0.000000 0.367254 0.416938
0.000000 0.371130 0.429297
0.000000 0.375708 0.453407
0.000000 0.374212 0.493324
0.499702 0.495827 0.652979
0.802640 0.654322 0.743252
0.916991 0.690944 0.756863
0.000000 0.566674 0.547997
0.000000 0.571008 0.552392
0.000000 0.582971 0.564385
0.000000 0.605493 0.586938
0.000000 0.641627 0.622889
0.520287 0.701778 0.683406
0.846250 0.819120 0.802487
0.941802 0.841032 0.825467
0.000000 0.820218 0.679316
0.000000 0.822751 0.679988
0.000000 0.835019 0.685359
0.000000 0.850523 0.689143
0.178592 0.867338 0.695369
0.570428 0.879606 0.719783
0.809812 0.898650 0.774411
0.954406 0.930541 0.858976
0.000000 0.126345 0.660426
0.000000 0.122713 0.668391
0.000000 0.104952 0.688899
0.232670 0.046113 0.724636
0.420203 0.000000 0.766903
0.606989 0.000000 0.814084
0.775143 0.094240 0.835966
0.902739 0.161593 0.824033
0.000000 0.133333 0.654200
0.000000 0.130251 0.662440
0.000000 0.115328 0.684535
0.214084 0.074739 0.720333
0.411048 0.000000 0.763699
0.602075 0.000000 0.811643
0.773007 0.135683 0.834501
0.900908 0.184237 0.822477
0.000000 0.186496 0.640650
0.000000 0.172305 0.649348
0.000000 0.145480 0.672816
0.124544 0.127565 0.715480
0.380468 0.099062 0.760128
0.589227 0.144381 0.808682
0.772610 0.249851 0.836759
0.901152 0.278355 0.824857
0.000000 0.267552 0.613184
0.000000 0.262608 0.622889
0.000000 0.235813 0.650874
0.000000 0.180606 0.700465
0.304997 0.184115 0.752071
0.564782 0.254826 0.805234
0.776059 0.387823 0.843290
0.903441 0.400671 0.831876
0.000000 0.362036 0.622187
0.000000 0.357488 0.623621
0.000000 0.334569 0.620386
0.000000 0.299260 0.654231
0.000000 0.241764 0.727047
0.503105 0.334966 0.791531
0.780484 0.526177 0.850431
0.905608 0.529992 0.841245
0.000000 0.500755 0.687739
0.000000 0.496590 0.686549
0.000000 0.482246 0.684352
0.000000 0.452827 0.682795
0.000000 0.390997 0.681147
0.319341 0.388983 0.763333
0.764309 0.621790 0.846128
0.912535 0.665553 0.858793
0.000000 0.657282 0.749966
0.000000 0.655604 0.749752
0.000000 0.649866 0.749966
0.000000 0.640040 0.752987
0.000000 0.620874 0.757656
0.111330 0.585595 0.763882
0.678737 0.669703 0.816068
0.917174 0.786893 0.875456
0.000000 0.829618 0.812253
0.000000 0.829984 0.812650
0.000000 0.832975 0.815885
0.000000 0.839109 0.822538
0.000000 0.845426 0.829709
0.415747 0.853330 0.838926
0.699855 0.867765 0.854887
0.935576 0.921294 0.912078
