其他预设/【233】日式怀旧街道调色预设208款/1.3D LUT预设（视频调色-PR-AE-PS-FCPX-达芬奇用）/1.日式城市街拍预设/JA – Controlled Contrast 1.cube
# Created by Adobe Lightroom plugin Export LUT (1.17.0)
# www.johnrellis.com/lightroom/exportlut.htm
# Preset: JA – Controlled Contrast 1
# Color profile: /Library/Application Support/Adobe/Color/Profiles/Recommended/AdobeRGB1998.icc
LUT_3D_SIZE 5
DOMAIN_MIN 0.000000 0.000000 0.000000
DOMAIN_MAX 0.903226 0.903226 0.903226
0.089021 0.087709 0.087587
0.156374 0.084718 0.091341
0.493324 0.096590 0.009033
0.883482 0.181796 0.000000
1.000000 0.233219 0.000000
0.090761 0.128847 0.088319
0.137514 0.127626 0.096284
0.458900 0.204349 0.000000
0.868986 0.283421 0.000000
1.000000 0.303563 0.000000
0.117250 0.352331 0.000000
0.235386 0.370886 0.000000
0.406317 0.351171 0.006806
0.800351 0.448676 0.000000
1.000000 0.466987 0.000000
0.203067 0.725704 0.000000
0.335973 0.729213 0.000000
0.596918 0.741176 0.000000
0.829709 0.714351 0.000000
1.000000 0.681971 0.099306
0.160525 0.985901 0.000000
0.320165 0.984771 0.000000
0.585901 0.982513 0.000000
0.846616 0.964782 0.000000
1.000000 0.926421 0.592096
0.059266 0.108797 0.172885
0.158633 0.094850 0.158083
0.530694 0.000000 0.131014
0.907042 0.175418 0.000000
1.000000 0.250095 0.000000
0.067384 0.157931 0.157443
0.155306 0.152346 0.152743
0.491249 0.197116 0.123049
0.889830 0.282506 0.000000
1.000000 0.316411 0.000000
0.000000 0.377417 0.139376
0.183352 0.386236 0.105898
0.442298 0.386358 0.142092
0.820157 0.457771 0.000000
1.000000 0.472389 0.000000
0.000000 0.736416 0.000000
0.257939 0.738277 0.000000
0.588647 0.752529 0.000000
0.839200 0.725582 0.000000
1.000000 0.686793 0.127443
0.067170 0.990173 0.000000
0.292210 0.988922 0.000000
0.572808 0.982147 0.000000
0.843198 0.965454 0.000000
1.000000 0.927001 0.591211
0.000000 0.238956 0.527184
0.000000 0.112276 0.523766
0.498695 0.000000 0.500175
0.893400 0.011139 0.494881
1.000000 0.520470 0.584161
0.000000 0.313451 0.493172
0.000000 0.249851 0.495888
0.493507 0.172152 0.493324
0.900603 0.309789 0.510338
1.000000 0.511101 0.548730
0.000000 0.492134 0.496040
0.000000 0.482612 0.486641
0.512840 0.494270 0.504417
0.866697 0.528222 0.488716
1.000000 0.536370 0.443091
0.000000 0.776333 0.467048
0.000000 0.781735 0.441230
0.525353 0.776028 0.454902
0.833188 0.760708 0.557336
1.000000 0.702449 0.415259
0.000000 1.000000 0.295750
0.000000 1.000000 0.247379
0.500694 0.990021 0.326818
0.819303 0.975097 0.271397
1.000000 0.933989 0.618006
0.000000 0.380133 0.859159
0.000000 0.299504 0.860105
0.405982 0.171054 0.863035
0.845243 0.285252 0.849546
1.000000 0.628321 0.821897
0.000000 0.449409 0.851011
0.000000 0.399207 0.853025
0.383551 0.286564 0.859220
0.845090 0.400275 0.847959
1.000000 0.678798 0.833585
0.000000 0.615747 0.844450
0.000000 0.595087 0.840513
0.353918 0.544274 0.838712
0.841062 0.620600 0.839353
1.000000 0.790646 0.860288
0.000000 0.834836 0.840208
0.000000 0.832639 0.838407
0.339147 0.821744 0.830014
0.849088 0.829892 0.842008
1.000000 0.851164 0.842893
0.000000 1.000000 0.730373
0.000000 1.000000 0.723720
0.457252 0.998260 0.737209
0.850523 0.968048 0.821744
0.983795 0.955444 0.877562
0.000000 0.505547 1.000000
0.000000 0.521691 1.000000
0.422187 0.502190 1.000000
0.796750 0.632319 1.000000
0.986175 0.738766 0.990326
0.000000 0.541802 1.000000
0.000000 0.552331 1.000000
0.455085 0.556634 1.000000
0.805692 0.672602 0.999695
0.985443 0.765164 0.989075
0.000000 0.647822 1.000000
0.000000 0.638972 1.000000
0.531182 0.698604 1.000000
0.821256 0.763790 0.995148
0.983795 0.831113 0.985962
0.000000 0.802701 1.000000
0.000000 0.799313 1.000000
0.302220 0.800717 1.000000
0.823911 0.863798 0.990021
0.981842 0.906340 0.982238
0.000000 0.996612 0.994141
0.000000 0.995758 0.993591
0.296696 0.990417 0.990173
0.805539 0.980987 0.983246
0.979797 0.976135 0.978515
