其他预设/【233】日式怀旧街道调色预设208款/1.3D LUT预设（视频调色-PR-AE-PS-FCPX-达芬奇用）/1.日式城市街拍预设/JA – Cityscape Pop 2.cube
# Created by Adobe Lightroom plugin Export LUT (1.17.0)
# www.johnrellis.com/lightroom/exportlut.htm
# Preset: JA – Cityscape Pop 2
# Color profile: /Library/Application Support/Adobe/Color/Profiles/Recommended/AdobeRGB1998.icc
LUT_3D_SIZE 8
DOMAIN_MIN 0.000000 0.000000 0.000000
DOMAIN_MAX 0.903226 0.903226 0.903226
0.112947 0.115755 0.117494
0.118990 0.115419 0.117372
0.207553 0.120272 0.113436
0.403601 0.154238 0.090242
0.627558 0.216403 0.000000
0.824643 0.277562 0.000000
0.943023 0.310246 0.000000
1.000000 0.319097 0.000000
0.112215 0.120180 0.117556
0.117220 0.121126 0.116945
0.205295 0.146365 0.110933
0.396674 0.195773 0.083497
0.619593 0.256901 0.000000
0.814542 0.310369 0.000000
0.937102 0.336889 0.000000
1.000000 0.341344 0.000000
0.096925 0.185245 0.119417
0.114626 0.186435 0.110384
0.185580 0.201816 0.105043
0.404395 0.299290 0.021759
0.631373 0.366552 0.000000
0.819638 0.411200 0.000000
0.941833 0.423224 0.000000
1.000000 0.412482 0.000000
0.000000 0.340368 0.126284
0.000000 0.340734 0.072206
0.194308 0.337346 0.063203
0.361852 0.397162 0.000000
0.657038 0.525536 0.000000
0.831235 0.537377 0.000000
0.940002 0.536553 0.000000
1.000000 0.511162 0.000000
0.000000 0.529503 0.141268
0.000000 0.529717 0.064332
0.139712 0.522911 0.000000
0.349035 0.540948 0.000000
0.547845 0.596429 0.000000
0.818723 0.695338 0.000000
0.931792 0.663325 0.000000
1.000000 0.622400 0.000000
0.000000 0.705348 0.162509
0.000000 0.710780 0.099825
0.000000 0.705257 0.000000
0.301610 0.690425 0.000000
0.508629 0.723079 0.000000
0.701961 0.761990 0.000000
0.921538 0.818173 0.000000
0.993530 0.756924 0.000000
0.000000 0.853605 0.188388
0.000000 0.854398 0.148104
0.000000 0.852598 0.000000
0.193912 0.842161 0.000000
0.445411 0.832578 0.000000
0.634241 0.854002 0.000000
0.796262 0.864836 0.000000
0.972107 0.891478 0.000000
0.000000 0.948363 0.221653
0.000000 0.947967 0.201755
0.000000 0.948638 0.000000
0.000000 0.945739 0.000000
0.363470 0.934020 0.000000
0.559045 0.931670 0.000000
0.718349 0.933227 0.000000
0.853696 0.928252 0.000000
0.112428 0.115633 0.123537
0.116915 0.115389 0.121553
0.202029 0.104616 0.117617
0.392340 0.140871 0.096468
0.615625 0.211460 0.000000
0.809110 0.280888 0.000000
0.934203 0.322118 0.000000
1.000000 0.325597 0.000000
0.110353 0.121462 0.125002
0.118318 0.121340 0.123323
0.202548 0.133333 0.117006
0.392187 0.179110 0.091341
0.613703 0.245731 0.000000
0.805234 0.308049 0.000000
0.929900 0.346471 0.000000
1.000000 0.346471 0.000000
0.092226 0.186404 0.138674
0.104097 0.191562 0.126009
0.187716 0.203372 0.114473
0.399878 0.281285 0.064118
0.622126 0.345434 0.000000
0.808530 0.393378 0.000000
0.931975 0.420111 0.000000
1.000000 0.414160 0.000000
0.000000 0.339605 0.162570
0.000000 0.343664 0.133761
0.181918 0.341405 0.076997
0.353094 0.386908 0.013153
0.633326 0.498116 0.000000
0.813016 0.514946 0.000000
0.930571 0.520867 0.000000
1.000000 0.509483 0.000000
0.000000 0.531182 0.188388
0.000000 0.531731 0.150820
0.088777 0.525750 0.000000
0.335943 0.532494 0.000000
0.537591 0.584955 0.000000
0.809689 0.682246 0.000000
0.927642 0.652613 0.000000
0.998535 0.616358 0.000000
0.000000 0.702052 0.208530
0.000000 0.702968 0.173129
0.000000 0.700496 0.000000
0.284642 0.686915 0.000000
0.500450 0.717372 0.000000
0.700130 0.759335 0.000000
0.919921 0.813382 0.000000
0.992340 0.751064 0.000000
0.000000 0.848325 0.228275
0.000000 0.847379 0.198825
0.000000 0.846769 0.000000
0.162448 0.838956 0.000000
0.435523 0.828611 0.000000
0.629694 0.850675 0.000000
0.793851 0.861418 0.000000
0.971679 0.889006 0.000000
0.000000 0.946319 0.250309
0.000000 0.946319 0.233768
0.000000 0.946563 0.091554
0.000000 0.944915 0.000000
0.356420 0.937011 0.000000
0.555993 0.932494 0.000000
0.717098 0.932647 0.000000
0.853483 0.927184 0.000000
0.109529 0.110475 0.219730
0.132174 0.107332 0.212009
0.183047 0.104952 0.184329
0.384924 0.000000 0.205447
0.625849 0.000000 0.129580
0.818936 0.118898 0.000000
0.941161 0.233005 0.000000
1.000000 0.292393 0.000000
0.074037 0.116274 0.226902
0.116152 0.117189 0.218082
0.188724 0.119997 0.190494
0.390845 0.000000 0.192874
0.623651 0.000000 0.130465
0.814633 0.188510 0.000000
0.938079 0.266453 0.000000
1.000000 0.313939 0.000000
0.000000 0.210269 0.230503
0.055238 0.207401 0.225925
0.201297 0.205142 0.208011
0.401678 0.226596 0.178622
0.632441 0.277287 0.125063
0.817105 0.326360 0.000000
0.937285 0.360723 0.000000
1.000000 0.381598 0.000000
0.000000 0.357946 0.258427
0.000000 0.362524 0.250706
0.144045 0.373541 0.204440
0.368933 0.397131 0.187228
0.641840 0.467781 0.102327
0.820279 0.482002 0.000000
0.936400 0.485664 0.000000
1.000000 0.479408 0.000000
0.000000 0.545159 0.298741
0.000000 0.547967 0.284611
0.000000 0.553887 0.215885
0.313176 0.542504 0.104707
0.552026 0.595178 0.137301
0.814481 0.666468 0.000000
0.931121 0.628077 0.000000
1.000000 0.593957 0.000000
0.000000 0.712886 0.319921
0.000000 0.714260 0.304173
0.000000 0.715572 0.232639
0.231083 0.704189 0.000000
0.486763 0.716365 0.000000
0.703059 0.757931 0.002777
0.919738 0.802060 0.000000
0.994110 0.735805 0.000000
0.000000 0.854887 0.332128
0.000000 0.854368 0.317021
0.000000 0.852476 0.255070
0.000000 0.847349 0.000000
0.410101 0.831846 0.000000
0.624018 0.850278 0.000000
0.798703 0.862425 0.000000
0.976928 0.887694 0.000000
0.000000 0.947875 0.334569
0.000000 0.947265 0.322515
0.000000 0.945495 0.287053
0.000000 0.947112 0.000000
0.329259 0.938964 0.000000
0.544457 0.932464 0.000000
0.716365 0.932494 0.000000
0.857145 0.926909 0.000000
0.100618 0.081636 0.426307
0.151247 0.069673 0.419104
0.239536 0.036133 0.375402
0.347478 0.000000 0.339025
0.585199 0.000000 0.371893
0.810391 0.000000 0.309514
0.938567 0.000000 0.236393
1.000000 0.072206 0.132845
0.000000 0.098756 0.438056
0.110353 0.093263 0.428870
0.237369 0.078340 0.389868
0.354314 0.090181 0.345983
0.591852 0.000000 0.371283
0.811368 0.000000 0.299748
0.936675 0.000000 0.237308
1.000000 0.148501 0.126314
0.000000 0.223819 0.451209
0.000000 0.199649 0.448554
0.195834 0.190768 0.418616
0.371374 0.216220 0.365240
0.614038 0.186130 0.365515
0.815640 0.186160 0.309453
0.939666 0.260868 0.250980
1.000000 0.283848 0.126406
0.000000 0.403693 0.445716
0.000000 0.401923 0.442664
0.000000 0.396674 0.429786
0.394598 0.394293 0.395972
0.626764 0.408881 0.361700
0.812314 0.427100 0.315953
0.933867 0.433173 0.250675
1.000000 0.422217 0.127626
0.000000 0.575769 0.448249
0.000000 0.576074 0.440375
0.000000 0.579889 0.420386
0.327123 0.580987 0.377996
0.574823 0.600427 0.377935
0.812650 0.632563 0.328161
0.929656 0.598810 0.262455
1.000000 0.562890 0.140047
0.000000 0.735775 0.460670
0.000000 0.740261 0.455726
0.000000 0.739803 0.426947
0.248539 0.736568 0.372045
0.473274 0.721340 0.273960
0.719295 0.760983 0.358221
0.917357 0.783261 0.296086
0.992645 0.712703 0.177371
0.000000 0.863523 0.459693
0.000000 0.863920 0.451820
0.000000 0.863523 0.423682
0.150637 0.859129 0.374609
0.385840 0.847868 0.240421
0.621698 0.850523 0.246342
0.809110 0.861479 0.348241
0.973632 0.874907 0.274174
0.000000 0.951720 0.448096
0.000000 0.951629 0.441321
0.000000 0.950072 0.417487
0.095644 0.944732 0.394263
0.314092 0.941497 0.265293
0.525231 0.931609 0.148745
0.719814 0.930755 0.244144
0.865537 0.924895 0.351324
0.096834 0.000000 0.645106
0.166232 0.000000 0.639704
0.289647 0.000000 0.616022
0.392950 0.000000 0.542168
0.552422 0.000000 0.525658
0.759518 0.000000 0.540307
0.917144 0.000000 0.494179
1.000000 0.005432 0.427558
0.000000 0.006500 0.651453
0.112032 0.000000 0.646754
0.275151 0.000000 0.623438
0.395789 0.000000 0.551690
0.556085 0.000000 0.529595
0.762295 0.116762 0.541802
0.917601 0.000000 0.494759
0.999939 0.158114 0.432959
0.000000 0.128817 0.673945
0.000000 0.138033 0.667201
0.206241 0.177737 0.639918
0.404242 0.196445 0.586084
0.566003 0.231724 0.541283
0.767330 0.268620 0.544213
0.917327 0.254856 0.495460
0.993103 0.331701 0.461280
0.000000 0.401160 0.671656
0.000000 0.391272 0.670222
0.000000 0.357519 0.664851
0.398108 0.386236 0.627405
0.583551 0.412024 0.563409
0.782010 0.426001 0.553216
0.914519 0.440345 0.516014
0.994293 0.419867 0.437049
0.000000 0.599084 0.657588
0.000000 0.598352 0.655726
0.000000 0.595270 0.646448
0.312413 0.593408 0.626978
0.598596 0.589288 0.587182
0.788846 0.594720 0.556054
0.911803 0.587366 0.512047
0.989746 0.554009 0.434363
0.000000 0.756466 0.631098
0.000000 0.756649 0.626398
0.000000 0.754574 0.607813
0.240085 0.749538 0.580957
0.520958 0.736751 0.549218
0.736721 0.753567 0.566827
0.903807 0.756710 0.535576
0.981140 0.700343 0.459266
0.000000 0.872923 0.599176
0.000000 0.872465 0.594842
0.000000 0.870817 0.580499
0.125643 0.866178 0.557549
0.460945 0.854002 0.530297
0.615290 0.841947 0.440436
0.823606 0.855894 0.553521
0.963897 0.855955 0.497078
0.000000 0.952880 0.570184
0.000000 0.952422 0.566033
0.000000 0.950622 0.552422
0.000000 0.947509 0.534752
0.430549 0.935851 0.530175
0.536431 0.930907 0.420050
0.729335 0.925261 0.444465
0.877989 0.919768 0.549401
0.097383 0.000000 0.806760
0.168460 0.000000 0.804074
0.298680 0.000000 0.792294
0.437964 0.000000 0.766598
0.554559 0.000000 0.698054
0.737850 0.000000 0.696101
0.880613 0.288334 0.681209
0.969451 0.377386 0.649805
0.000000 0.000000 0.806790
0.118532 0.000000 0.803799
0.281224 0.000000 0.792874
0.432227 0.000000 0.769131
0.555291 0.100984 0.700710
0.736965 0.122927 0.695949
0.879271 0.319615 0.682124
0.968536 0.395880 0.651179
0.000000 0.120058 0.818112
0.000000 0.136385 0.815183
0.227573 0.175784 0.804410
0.420203 0.175204 0.783597
0.568231 0.248905 0.720699
0.742214 0.285008 0.703517
0.877714 0.418921 0.690913
0.966369 0.461189 0.659693
0.000000 0.309026 0.829557
0.000000 0.295293 0.828916
0.000000 0.287083 0.823850
0.422309 0.399023 0.800168
0.594751 0.421241 0.754421
0.752895 0.455207 0.718959
0.879820 0.535698 0.706050
0.963653 0.552758 0.674556
0.000000 0.544915 0.816831
0.000000 0.542290 0.816403
0.000000 0.535790 0.814389
0.305486 0.539086 0.809262
0.614557 0.597162 0.779782
0.754055 0.607507 0.727840
0.880156 0.639033 0.714900
0.957458 0.651148 0.692409
0.000000 0.730159 0.800961
0.000000 0.731350 0.800809
0.000000 0.733486 0.797482
0.248447 0.739223 0.789761
0.552209 0.747524 0.774746
0.762844 0.749660 0.745571
0.881132 0.752316 0.726162
0.956298 0.734005 0.686183
0.000000 0.890349 0.780484
0.000000 0.890349 0.777676
0.000000 0.887694 0.766232
0.159976 0.880369 0.745083
0.499825 0.865995 0.722042
0.707393 0.845518 0.713527
0.844450 0.851408 0.733394
0.945953 0.845914 0.705928
0.000000 0.957122 0.701686
0.000000 0.956512 0.699489
0.000000 0.954192 0.692195
0.000000 0.949126 0.682765
0.434943 0.938109 0.677424
0.662470 0.919951 0.690700
0.748440 0.916045 0.619837
0.894438 0.913909 0.723720
0.104341 0.000000 0.892790
0.165011 0.000000 0.891966
0.284642 0.000000 0.888304
0.418891 0.000000 0.880674
0.563714 0.000000 0.858824
0.699733 0.213535 0.823178
0.861753 0.270176 0.817044
0.940215 0.493996 0.785214
0.000000 0.000000 0.893187
0.134127 0.000000 0.892363
0.272923 0.000000 0.888548
0.413947 0.000000 0.880522
0.562554 0.066407 0.859251
0.698512 0.246830 0.822232
0.860105 0.298619 0.816098
0.938659 0.507134 0.785458
0.000000 0.132357 0.897673
0.000000 0.158389 0.896269
0.248753 0.190311 0.891661
0.408789 0.197391 0.883391
0.564569 0.248020 0.864530
0.700587 0.349187 0.824155
0.859922 0.395209 0.818692
0.935760 0.566674 0.793118
0.000000 0.209171 0.905486
0.000000 0.228214 0.903990
0.015686 0.303807 0.898344
0.436103 0.407385 0.886748
0.579644 0.420478 0.872404
0.713771 0.478157 0.833310
0.858824 0.521904 0.822660
0.930846 0.648005 0.805142
0.000000 0.444862 0.901335
0.000000 0.443091 0.901122
0.000000 0.444648 0.900298
0.321691 0.477333 0.897032
0.626551 0.605493 0.876249
0.736782 0.615259 0.847410
0.855192 0.645960 0.825742
0.927092 0.722988 0.817044
0.000000 0.637690 0.892332
0.000000 0.637842 0.892119
0.000000 0.641474 0.891081
0.292210 0.657527 0.888365
0.580621 0.697047 0.882780
0.778164 0.762295 0.864103
0.854795 0.762844 0.833127
0.927672 0.787045 0.827115
0.000000 0.804288 0.881834
0.000000 0.805325 0.881590
0.000000 0.809140 0.880125
0.238224 0.817533 0.877012
0.546288 0.831266 0.870970
0.746304 0.845792 0.861692
0.858976 0.847654 0.843870
0.928710 0.848234 0.831144
0.000000 0.962524 0.874327
0.000000 0.961883 0.872068
0.000000 0.959472 0.864469
0.000000 0.952697 0.850370
0.479683 0.939269 0.833127
0.698024 0.921660 0.823819
0.825589 0.906767 0.823270
0.907134 0.909728 0.836332
0.128084 0.000000 0.944793
0.173007 0.000000 0.944457
0.274632 0.000000 0.942901
0.394781 0.000000 0.940002
0.528222 0.000000 0.933959
0.681361 0.309941 0.917693
0.811124 0.435492 0.901183
0.929595 0.499153 0.891752
0.109407 0.000000 0.944762
0.161624 0.000000 0.944427
0.270481 0.000000 0.942870
0.394171 0.000000 0.939818
0.527855 0.103120 0.934020
0.682643 0.332067 0.917632
0.811185 0.452033 0.900572
0.928588 0.512779 0.891386
0.000000 0.174350 0.945403
0.154879 0.207401 0.944518
0.275029 0.218326 0.942657
0.403937 0.237247 0.939605
0.534752 0.264256 0.934142
0.689113 0.403876 0.918242
0.813199 0.509636 0.899626
0.926146 0.562585 0.891234
0.000000 0.191440 0.948913
0.000000 0.219516 0.948119
0.217044 0.321386 0.944244
0.453895 0.423224 0.937865
0.570916 0.443915 0.932372
0.703609 0.508904 0.919615
0.817655 0.593164 0.898650
0.922484 0.636500 0.891539
0.000000 0.319280 0.950408
0.000000 0.318883 0.950408
0.000000 0.335454 0.949218
0.338598 0.450721 0.942535
0.635859 0.613092 0.929198
0.725856 0.624414 0.921477
0.825925 0.681941 0.899168
0.918151 0.717586 0.892271
0.000000 0.529076 0.944732
0.000000 0.529473 0.944549
0.000000 0.535882 0.943694
0.250584 0.565087 0.941161
0.566552 0.642176 0.935149
0.782773 0.765866 0.919860
0.844999 0.773434 0.905943
0.915190 0.794491 0.894774
0.000000 0.696193 0.938140
0.000000 0.697017 0.937926
0.000000 0.701625 0.937011
0.212070 0.718318 0.934600
0.548028 0.758145 0.929534
0.757076 0.813321 0.923003
0.869810 0.858030 0.914122
0.913634 0.856474 0.898192
0.000000 0.847135 0.930816
0.000000 0.848051 0.930571
0.000000 0.851713 0.929656
0.148196 0.860166 0.927459
0.524254 0.874968 0.923400
0.735256 0.892363 0.918334
0.852079 0.904845 0.913848
0.916258 0.908049 0.905241
