其他预设/【233】日式怀旧街道调色预设208款/1.3D LUT预设（视频调色-PR-AE-PS-FCPX-达芬奇用）/1.日式城市街拍预设/JA – Cityscape Pop 3.cube
# Created by Adobe Lightroom plugin Export LUT (1.17.0)
# www.johnrellis.com/lightroom/exportlut.htm
# Preset: JA – Cityscape Pop 3
# Color profile: /Library/Application Support/Adobe/Color/Profiles/Recommended/AdobeRGB1998.icc
LUT_3D_SIZE 8
DOMAIN_MIN 0.000000 0.000000 0.000000
DOMAIN_MAX 0.903226 0.903226 0.903226
0.106172 0.108827 0.110536
0.123690 0.105959 0.110292
0.265293 0.059724 0.105470
0.469215 0.000000 0.079652
0.681147 0.016785 0.000000
0.850248 0.101656 0.000000
0.951080 0.124758 0.000000
1.000000 0.111971 0.000000
0.103761 0.124117 0.110780
0.121065 0.125460 0.109316
0.250736 0.133852 0.100984
0.450050 0.146151 0.071046
0.661982 0.165560 0.000000
0.835355 0.184421 0.000000
0.941894 0.187259 0.000000
1.000000 0.170321 0.000000
0.060700 0.237522 0.112642
0.108186 0.235843 0.094545
0.237888 0.241642 0.084077
0.433173 0.285679 0.000000
0.647120 0.317937 0.000000
0.829129 0.331243 0.000000
0.943542 0.320653 0.000000
1.000000 0.291264 0.000000
0.000000 0.412177 0.136812
0.000000 0.410193 0.053681
0.223453 0.396612 0.020661
0.428351 0.429084 0.000000
0.664332 0.478462 0.000000
0.823026 0.471626 0.000000
0.933471 0.450660 0.000000
1.000000 0.418585 0.000000
0.000000 0.598016 0.168215
0.000000 0.596460 0.110933
0.155367 0.587243 0.000000
0.392248 0.583398 0.000000
0.611566 0.606470 0.000000
0.802914 0.615595 0.000000
0.914488 0.580957 0.000000
0.990875 0.541039 0.000000
0.000000 0.757809 0.209079
0.000000 0.763149 0.185519
0.000000 0.757656 0.000000
0.340032 0.741512 0.000000
0.551141 0.737270 0.000000
0.754696 0.746792 0.000000
0.906218 0.727016 0.000000
0.983459 0.671077 0.000000
0.000000 0.873228 0.258122
0.000000 0.873136 0.248753
0.000000 0.870451 0.078340
0.263310 0.859892 0.000000
0.479927 0.843565 0.000000
0.671565 0.842435 0.000000
0.848417 0.840726 0.000000
0.969390 0.804044 0.000000
0.000000 0.949096 0.307774
0.000000 0.947753 0.308873
0.000000 0.946654 0.255161
0.206485 0.943725 0.182345
0.425360 0.929900 0.149660
0.597833 0.920928 0.130312
0.762387 0.916045 0.000000
0.912505 0.906432 0.000000
0.106325 0.109682 0.125246
0.121218 0.107576 0.124666
0.255283 0.060243 0.122377
0.454994 0.000000 0.100069
0.665461 0.026459 0.001312
0.834195 0.089937 0.000000
0.940307 0.123720 0.000000
1.000000 0.132509 0.000000
0.100069 0.123140 0.129305
0.122927 0.126162 0.128176
0.250767 0.128939 0.120027
0.446693 0.139101 0.095491
0.655726 0.153811 0.000000
0.826108 0.169772 0.000000
0.933135 0.180941 0.000000
1.000000 0.182132 0.000000
0.042481 0.238193 0.155825
0.099153 0.240970 0.137484
0.239933 0.243839 0.115755
0.429816 0.272282 0.078859
0.640223 0.298009 0.000000
0.817350 0.307805 0.000000
0.931029 0.302129 0.000000
1.000000 0.289586 0.000000
0.000000 0.407904 0.185977
0.000000 0.408484 0.157443
0.213382 0.399939 0.097536
0.414527 0.415473 0.048402
0.632105 0.449653 0.000000
0.799649 0.449165 0.000000
0.919585 0.433814 0.000000
0.995178 0.408270 0.000000
0.000000 0.596551 0.219944
0.000000 0.593896 0.191806
0.128817 0.584039 0.051209
0.377935 0.570001 0.000000
0.594385 0.589807 0.000000
0.790158 0.602319 0.000000
0.906981 0.570916 0.000000
0.986969 0.532677 0.000000
0.000000 0.751339 0.251347
0.000000 0.750668 0.232792
0.000000 0.747066 0.024445
0.330632 0.732876 0.000000
0.543389 0.729976 0.000000
0.750973 0.742977 0.000000
0.902678 0.722774 0.000000
0.980468 0.666011 0.000000
0.000000 0.865965 0.285801
0.000000 0.863737 0.275822
0.000000 0.861295 0.189090
0.256748 0.854032 0.110628
0.476600 0.839506 0.084779
0.667140 0.837675 0.000000
0.843198 0.835447 0.000000
0.964721 0.799252 0.000000
0.000000 0.946288 0.324254
0.000000 0.945464 0.325261
0.000000 0.943359 0.299992
0.209537 0.941680 0.220401
0.433326 0.932616 0.209384
0.600092 0.921630 0.189578
0.761776 0.914977 0.124117
0.911009 0.904814 0.000000
0.110384 0.107301 0.246128
0.148440 0.101289 0.239536
0.233890 0.090181 0.232364
0.441016 0.000000 0.259770
0.682246 0.000000 0.213535
0.850889 0.000000 0.194034
0.949462 0.000000 0.153170
1.000000 0.000000 0.010956
0.087617 0.123568 0.255497
0.141634 0.129976 0.249912
0.238407 0.124758 0.237797
0.446571 0.000000 0.251255
0.679469 0.000000 0.207980
0.842435 0.000000 0.189914
0.944091 0.000000 0.146853
1.000000 0.000000 0.000000
0.000000 0.248417 0.268345
0.069032 0.248539 0.266545
0.247898 0.251530 0.254429
0.447333 0.249607 0.237522
0.668421 0.256718 0.217319
0.832975 0.260868 0.187808
0.937774 0.257115 0.144747
1.000000 0.238926 0.000000
0.000000 0.428779 0.307378
0.000000 0.429267 0.297948
0.222019 0.425299 0.270573
0.427863 0.427955 0.245518
0.645319 0.444007 0.216739
0.814420 0.438270 0.184817
0.927428 0.417914 0.142275
0.999298 0.385168 0.000000
0.000000 0.610285 0.339574
0.000000 0.609918 0.329503
0.169406 0.604425 0.296147
0.380224 0.586603 0.245945
0.608759 0.603235 0.225772
0.795773 0.600336 0.177584
0.908415 0.563378 0.133089
0.988769 0.522545 0.000000
0.000000 0.759060 0.359960
0.000000 0.758236 0.352239
0.068788 0.752468 0.323888
0.326390 0.740352 0.248997
0.538445 0.728725 0.233646
0.749233 0.740963 0.211002
0.899535 0.718624 0.155184
0.979583 0.662043 0.000000
0.000000 0.870878 0.377264
0.000000 0.869078 0.372473
0.000000 0.863066 0.356451
0.263188 0.856870 0.273503
0.479164 0.841276 0.257511
0.666835 0.837369 0.239536
0.845640 0.837644 0.212192
0.965332 0.800626 0.129641
0.000000 0.947448 0.388098
0.000000 0.945983 0.386023
0.000000 0.941161 0.393408
0.253208 0.940734 0.335271
0.447730 0.931609 0.322728
0.604883 0.920378 0.307805
0.764157 0.914580 0.280308
0.911681 0.905364 0.225742
0.155093 0.088777 0.419348
0.192020 0.084810 0.416541
0.276097 0.076204 0.398291
0.405585 0.008820 0.392401
0.605493 0.000000 0.420966
0.828672 0.000000 0.408911
0.941344 0.000000 0.365728
1.000000 0.094331 0.354925
0.141329 0.136934 0.432685
0.185306 0.135714 0.427710
0.279088 0.132815 0.407568
0.409888 0.124727 0.397498
0.614130 0.095491 0.424689
0.828061 0.000000 0.405371
0.939544 0.000000 0.365423
1.000000 0.145052 0.349889
0.000000 0.238376 0.448981
0.059846 0.235294 0.447181
0.285954 0.268467 0.427649
0.417914 0.267216 0.409186
0.644831 0.252049 0.432074
0.836301 0.221927 0.406348
0.938811 0.293614 0.401740
1.000000 0.278721 0.354223
0.000000 0.427710 0.459998
0.000000 0.428107 0.458015
0.233463 0.429694 0.450446
0.432410 0.430549 0.431678
0.652125 0.433387 0.421912
0.816678 0.435492 0.410010
0.924285 0.430060 0.391028
0.994537 0.405066 0.350347
0.000000 0.640101 0.500633
0.000000 0.637171 0.494606
0.144137 0.629633 0.476387
0.410132 0.615595 0.446387
0.619562 0.612390 0.422339
0.794125 0.598596 0.405646
0.908415 0.572168 0.386633
0.984833 0.534325 0.347112
0.000000 0.777707 0.501701
0.000000 0.780575 0.500481
0.073762 0.772549 0.484474
0.386755 0.758968 0.462440
0.546807 0.737789 0.415442
0.756039 0.746670 0.412787
0.896025 0.718593 0.386603
0.973541 0.665064 0.346410
0.000000 0.876616 0.494636
0.000000 0.875914 0.492348
0.000000 0.871824 0.484962
0.375708 0.861814 0.482124
0.506889 0.850095 0.431434
0.674464 0.839445 0.415198
0.847562 0.838834 0.408209
0.960327 0.800412 0.364599
0.000000 0.950652 0.488106
0.000000 0.949798 0.487495
0.000000 0.945708 0.486183
0.389014 0.935607 0.510033
0.494636 0.929381 0.471809
0.626154 0.918822 0.452094
0.771267 0.912505 0.438087
0.911803 0.904997 0.412055
0.217655 0.081025 0.604028
0.250675 0.082094 0.600855
0.334600 0.085969 0.583490
0.429541 0.097108 0.551873
0.589654 0.076448 0.559808
0.756069 0.162020 0.570550
0.906828 0.119478 0.555200
0.990906 0.153841 0.513481
0.216403 0.156252 0.611933
0.251560 0.157290 0.609613
0.338476 0.157382 0.592157
0.433906 0.158450 0.557671
0.591547 0.153231 0.562310
0.756741 0.212680 0.572198
0.907897 0.182559 0.556542
0.989624 0.218631 0.518547
0.121675 0.253758 0.632471
0.215976 0.275242 0.627832
0.343023 0.293889 0.609705
0.450050 0.287236 0.579217
0.595514 0.285008 0.568994
0.759548 0.320012 0.575616
0.909178 0.309209 0.559533
0.983978 0.355261 0.536645
0.000000 0.419043 0.645228
0.000000 0.418616 0.643427
0.277134 0.419837 0.638697
0.473976 0.449042 0.612512
0.607172 0.439673 0.585595
0.782010 0.461463 0.593133
0.908110 0.483406 0.584833
0.974517 0.519493 0.582788
0.000000 0.608331 0.648859
0.000000 0.609003 0.647608
0.203616 0.609155 0.641199
0.429603 0.609857 0.628412
0.614099 0.604150 0.601770
0.784543 0.610346 0.598962
0.895598 0.610773 0.591516
0.968963 0.589776 0.562646
0.000000 0.783078 0.653040
0.000000 0.782010 0.649836
0.000000 0.775967 0.637140
0.378393 0.763729 0.619104
0.586023 0.740719 0.600732
0.751797 0.740566 0.589593
0.879667 0.724239 0.582727
0.958923 0.691341 0.556573
0.000000 0.881712 0.626520
0.000000 0.880034 0.624079
0.000000 0.874784 0.617060
0.374548 0.865049 0.610864
0.580529 0.847776 0.616510
0.685145 0.831968 0.575799
0.845182 0.835111 0.582238
0.947539 0.801968 0.547601
0.000000 0.949859 0.598291
0.000000 0.948669 0.597192
0.000000 0.944488 0.594781
0.367224 0.937926 0.602655
0.583978 0.921935 0.634394
0.667140 0.913970 0.602106
0.783017 0.906645 0.587945
0.909606 0.901732 0.579858
0.295933 0.151247 0.756710
0.321050 0.154849 0.754452
0.392309 0.161074 0.743618
0.489021 0.169924 0.728298
0.594415 0.170962 0.705379
0.749142 0.172976 0.707027
0.865080 0.302647 0.691920
0.954986 0.386481 0.679988
0.299504 0.208743 0.755306
0.323278 0.209598 0.752651
0.393622 0.211032 0.743221
0.488746 0.213352 0.727474
0.591150 0.210330 0.702785
0.746578 0.214450 0.705379
0.863188 0.329290 0.691951
0.954162 0.403967 0.681086
0.310826 0.332158 0.768063
0.341039 0.338537 0.765164
0.408392 0.336248 0.756344
0.500938 0.331121 0.739620
0.595636 0.319249 0.710201
0.748959 0.327733 0.710231
0.861357 0.421698 0.698878
0.953124 0.471168 0.690120
0.170352 0.402625 0.785183
0.230594 0.406134 0.783566
0.390448 0.449592 0.774136
0.534844 0.491493 0.758724
0.623377 0.474311 0.732631
0.756100 0.480720 0.722652
0.859739 0.552483 0.717128
0.952636 0.567437 0.707393
0.000000 0.567895 0.780148
0.148165 0.569818 0.779599
0.328740 0.578180 0.776822
0.510796 0.600977 0.770962
0.656336 0.631159 0.747890
0.750484 0.616968 0.724910
0.867094 0.650172 0.730617
0.948119 0.667903 0.726772
0.000000 0.729824 0.775357
0.000000 0.731685 0.775845
0.254368 0.734707 0.773129
0.461158 0.739651 0.767147
0.626917 0.743526 0.756069
0.754116 0.741024 0.736934
0.870176 0.752926 0.743008
0.941039 0.749966 0.735134
0.000000 0.887358 0.775753
0.000000 0.886931 0.774685
0.137606 0.882811 0.768307
0.416175 0.873930 0.758633
0.604395 0.858793 0.750149
0.741299 0.838743 0.741268
0.846433 0.835142 0.729763
0.931212 0.818357 0.718868
0.000000 0.952422 0.722591
0.000000 0.951141 0.721553
0.000000 0.946654 0.718990
0.383764 0.938262 0.720211
0.582910 0.924620 0.729122
0.731441 0.908537 0.745266
0.799588 0.900114 0.717067
0.908049 0.899321 0.722347
0.374334 0.251164 0.849210
0.392340 0.255222 0.848875
0.445441 0.262119 0.844724
0.523735 0.270298 0.837156
0.612482 0.273655 0.823667
0.719783 0.275059 0.811337
0.852018 0.303258 0.807553
0.927398 0.464790 0.784604
0.379950 0.286259 0.847410
0.396979 0.288823 0.846983
0.448096 0.292668 0.842954
0.523827 0.296574 0.834775
0.610925 0.296727 0.821073
0.715602 0.294682 0.807523
0.847532 0.319371 0.803647
0.924285 0.469734 0.781643
0.412573 0.392828 0.852171
0.426337 0.392859 0.850980
0.470680 0.392584 0.846464
0.539788 0.391913 0.838376
0.620661 0.385718 0.824430
0.717006 0.378485 0.809049
0.847959 0.407660 0.806760
0.922759 0.536797 0.789883
0.384375 0.461341 0.860807
0.416327 0.474647 0.858640
0.513512 0.521630 0.851865
0.583032 0.531701 0.843961
0.648615 0.520226 0.831205
0.723598 0.501335 0.812680
0.847532 0.530175 0.811521
0.919341 0.619226 0.800137
0.319738 0.547021 0.862333
0.353521 0.552270 0.861265
0.456245 0.574945 0.858366
0.588678 0.621912 0.851591
0.688075 0.654139 0.837064
0.741268 0.628901 0.817838
0.841489 0.637140 0.811643
0.913848 0.699489 0.809812
0.258427 0.674189 0.859373
0.301091 0.677150 0.858885
0.418463 0.688746 0.857084
0.560540 0.710842 0.854063
0.687007 0.736873 0.849638
0.780667 0.759396 0.835416
0.842283 0.746944 0.819791
0.919066 0.774044 0.824674
0.143374 0.809720 0.857389
0.215854 0.811185 0.857328
0.362158 0.815061 0.855985
0.519524 0.822049 0.853574
0.656275 0.829343 0.849180
0.765560 0.835111 0.842771
0.844358 0.832486 0.828550
0.920867 0.841367 0.833524
0.000000 0.947570 0.855772
0.000000 0.946563 0.854551
0.228031 0.943450 0.851652
0.445838 0.935851 0.846006
0.614710 0.925139 0.839902
0.744472 0.913085 0.836240
0.836210 0.899992 0.832090
0.906645 0.897642 0.824308
0.468727 0.372442 0.909392
0.480171 0.375433 0.909087
0.514763 0.380774 0.906798
0.571862 0.391669 0.903471
0.641901 0.402899 0.898070
0.718074 0.410193 0.890166
0.816678 0.428107 0.885557
0.918273 0.471077 0.878477
0.476875 0.396246 0.908385
0.487770 0.398657 0.908080
0.521263 0.403418 0.906004
0.575921 0.411627 0.902464
0.644099 0.420783 0.897063
0.718715 0.425544 0.889128
0.815183 0.440162 0.884001
0.916564 0.481025 0.877195
0.511894 0.475319 0.907347
0.520745 0.476509 0.906920
0.548241 0.477394 0.904631
0.599298 0.485939 0.902068
0.659480 0.488899 0.896605
0.726528 0.486336 0.888426
0.815335 0.494514 0.882567
0.913970 0.529839 0.876768
0.535729 0.552270 0.908446
0.560204 0.568139 0.907347
0.606378 0.591272 0.904082
0.642817 0.591974 0.901183
0.690028 0.589746 0.896361
0.744747 0.581140 0.889006
0.817960 0.576623 0.882017
0.911131 0.603052 0.877714
0.484932 0.578058 0.913176
0.506279 0.587762 0.912474
0.575097 0.621820 0.908873
0.665064 0.669642 0.903166
0.724971 0.688075 0.896788
0.765805 0.675563 0.889799
0.819333 0.659236 0.880674
0.907469 0.683497 0.878965
0.449012 0.658015 0.912261
0.471015 0.662806 0.911559
0.538598 0.679622 0.909483
0.630793 0.707179 0.906615
0.725582 0.743740 0.902525
0.798734 0.773129 0.894560
0.836149 0.757809 0.885801
0.906096 0.768307 0.883482
0.397803 0.753902 0.911742
0.423072 0.756588 0.911223
0.498848 0.765835 0.909636
0.602594 0.782437 0.907469
0.707790 0.804074 0.904814
0.797726 0.827176 0.902556
0.862028 0.845914 0.896056
0.903288 0.835935 0.886107
0.314855 0.863188 0.911284
0.346715 0.864042 0.910918
0.440833 0.867521 0.909819
0.563195 0.873838 0.908232
0.680964 0.881773 0.906157
0.778561 0.889738 0.903899
0.852689 0.896239 0.901274
0.904784 0.895811 0.892760
