其他预设/【233】日式怀旧街道调色预设208款/1.3D LUT预设（视频调色-PR-AE-PS-FCPX-达芬奇用）/1.日式城市街拍预设/JA – Harsh Shade 1.cube
# Created by Adobe Lightroom plugin Export LUT (1.17.0)
# www.johnrellis.com/lightroom/exportlut.htm
# Preset: JA – Harsh Shade 1
# Color profile: /Library/Application Support/Adobe/Color/Profiles/Recommended/AdobeRGB1998.icc
LUT_3D_SIZE 32
0.035828 0.039033 0.053254
0.035828 0.039033 0.053254
0.039918 0.038361 0.053223
0.063874 0.038087 0.058228
0.079591 0.039429 0.061799
0.093416 0.043702 0.062837
0.107820 0.047822 0.064179
0.124208 0.052674 0.067140
0.142947 0.057984 0.071534
0.165438 0.060609 0.075624
0.193240 0.061311 0.079500
0.227146 0.060792 0.082368
0.267887 0.058320 0.084962
0.316930 0.045075 0.087037
0.374456 0.017304 0.087526
0.438483 0.000000 0.086732
0.505089 0.000000 0.084688
0.574304 0.000000 0.082551
0.647425 0.000000 0.080232
0.709041 0.000000 0.081605
0.761776 0.000000 0.086366
0.805203 0.000000 0.095338
0.840787 0.000000 0.107485
0.871244 0.000000 0.121218
0.898924 0.000000 0.136324
0.925261 0.000000 0.152987
0.950744 0.084962 0.171878
0.975128 0.142092 0.194156
0.997894 0.197116 0.222385
1.000000 0.258457 0.261387
1.000000 0.327916 0.318273
1.000000 0.404486 0.393439
0.035828 0.039033 0.053254
0.035828 0.039033 0.053254
0.040894 0.039338 0.053956
0.064973 0.038849 0.057313
0.081300 0.043336 0.059419
0.094392 0.047608 0.061372
0.109010 0.049897 0.062287
0.124666 0.055940 0.066194
0.143069 0.060121 0.071046
0.165530 0.062928 0.075105
0.192782 0.063996 0.078706
0.226169 0.064424 0.081636
0.266453 0.061738 0.084321
0.314611 0.056001 0.086152
0.371313 0.034516 0.087037
0.434577 0.000000 0.086091
0.500755 0.000000 0.084199
0.570184 0.000000 0.081727
0.641657 0.000000 0.079347
0.702632 0.000000 0.080293
0.755428 0.000000 0.084749
0.799557 0.000000 0.092744
0.835752 0.000000 0.104555
0.866789 0.000000 0.118135
0.894835 0.000000 0.132998
0.921538 0.000000 0.149172
0.947448 0.082277 0.167880
0.972259 0.138186 0.190005
0.995514 0.192264 0.217838
1.000000 0.252476 0.255741
1.000000 0.320836 0.310430
1.000000 0.397101 0.384771
0.035492 0.041413 0.053132
0.036316 0.043610 0.053803
0.044007 0.047028 0.052613
0.068086 0.048707 0.053254
0.083650 0.049561 0.054658
0.096407 0.052033 0.058350
0.110231 0.055390 0.061128
0.125673 0.059632 0.065583
0.143954 0.063050 0.070069
0.165927 0.065461 0.074556
0.193210 0.067231 0.078126
0.226413 0.067659 0.081422
0.266423 0.066743 0.083711
0.314397 0.063111 0.085847
0.370703 0.052491 0.086122
0.433509 0.019532 0.085481
0.499397 0.000000 0.083253
0.569268 0.000000 0.080262
0.639277 0.000000 0.078187
0.699763 0.000000 0.078614
0.752651 0.000000 0.082582
0.797024 0.000000 0.090578
0.833555 0.000000 0.101961
0.864744 0.000000 0.115511
0.892912 0.000000 0.130434
0.919738 0.000000 0.146700
0.945800 0.087373 0.165560
0.970825 0.139681 0.187686
0.994354 0.191684 0.215061
1.000000 0.250492 0.252140
1.000000 0.318059 0.306126
1.000000 0.393561 0.379706
0.035004 0.063294 0.056001
0.036042 0.064179 0.055848
0.048402 0.064729 0.056336
0.069429 0.067811 0.052552
0.084382 0.065339 0.052827
0.098329 0.064027 0.053559
0.113375 0.063935 0.057862
0.128542 0.066407 0.063172
0.146548 0.069368 0.068605
0.168551 0.072084 0.073152
0.195621 0.074311 0.077089
0.228824 0.075990 0.079988
0.268681 0.076448 0.082185
0.316197 0.075349 0.084260
0.372137 0.071382 0.084413
0.434546 0.061830 0.083253
0.499733 0.033814 0.081178
0.570428 0.000000 0.077577
0.637720 0.000000 0.075013
0.696376 0.000000 0.075288
0.748440 0.000000 0.078492
0.792874 0.000000 0.086213
0.830076 0.000000 0.097597
0.862119 0.000000 0.111391
0.891264 0.000000 0.126741
0.918853 0.051057 0.144015
0.945525 0.104768 0.163241
0.970916 0.149935 0.185672
0.994476 0.198123 0.213107
1.000000 0.253910 0.249912
1.000000 0.318853 0.302739
1.000000 0.392096 0.374884
0.034821 0.076631 0.058991
0.039918 0.077089 0.058900
0.051453 0.077150 0.059174
0.065980 0.078218 0.059632
0.084260 0.080659 0.057282
0.098939 0.078431 0.058839
0.113497 0.077028 0.060853
0.130495 0.077852 0.063233
0.150393 0.078950 0.065553
0.172183 0.082124 0.070954
0.199283 0.085084 0.074861
0.232242 0.087831 0.077638
0.271855 0.089815 0.080446
0.319432 0.091432 0.081880
0.375586 0.091218 0.081331
0.438178 0.088563 0.079622
0.503410 0.082582 0.076570
0.575830 0.073243 0.072236
0.640955 0.059693 0.069184
0.698116 0.031006 0.068605
0.748745 0.001984 0.072236
0.792386 0.000000 0.080659
0.829221 0.000000 0.092500
0.861265 0.018250 0.106722
0.890440 0.064820 0.122652
0.918212 0.094453 0.140108
0.944945 0.126772 0.159426
0.970336 0.162936 0.181735
0.993927 0.206027 0.209232
1.000000 0.257816 0.245304
1.000000 0.319493 0.296727
1.000000 0.390600 0.367987
0.037324 0.086793 0.064302
0.045869 0.087007 0.065431
0.053864 0.087160 0.065705
0.065644 0.087648 0.066987
0.079377 0.090150 0.065522
0.098238 0.093355 0.063996
0.115145 0.093202 0.065278
0.132113 0.092683 0.066377
0.151949 0.093507 0.068116
0.176486 0.096010 0.069825
0.205997 0.099428 0.071656
0.239231 0.103151 0.074983
0.279179 0.106722 0.077089
0.327337 0.110475 0.078096
0.383734 0.113313 0.077150
0.446296 0.115175 0.074525
0.513420 0.115023 0.069734
0.585107 0.113283 0.063905
0.647639 0.109377 0.060395
0.703395 0.104250 0.059815
0.753079 0.100130 0.063569
0.795987 0.096956 0.073274
0.862547 0.115023 0.100862
0.890867 0.124117 0.118105
0.917235 0.138094 0.135622
0.942229 0.157107 0.154452
0.965850 0.182071 0.174929
0.988006 0.213626 0.199588
1.000000 0.253971 0.230381
1.000000 0.304051 0.272129
1.000000 0.363622 0.330907
1.000000 0.430610 0.403662
0.046387 0.098116 0.071046
0.052796 0.098604 0.071992
0.059113 0.098787 0.072236
0.067384 0.099306 0.073426
0.078920 0.100343 0.075105
0.095491 0.105257 0.072908
0.116945 0.110506 0.071351
0.138399 0.112581 0.071046
0.159213 0.113252 0.072145
0.183963 0.115328 0.072877
0.215793 0.119722 0.072999
0.254643 0.125124 0.072663
0.300084 0.130861 0.071534
0.350256 0.136385 0.071229
0.407782 0.141878 0.068849
0.469154 0.145998 0.064149
0.541344 0.150881 0.054475
0.609766 0.152773 0.039612
0.669459 0.152316 0.030823
0.723598 0.151217 0.030732
0.772702 0.149905 0.047547
0.815152 0.149722 0.066957
0.851591 0.151949 0.084901
0.883543 0.157626 0.105043
0.912749 0.167544 0.125063
0.939422 0.181735 0.145602
0.963897 0.201328 0.166995
0.986450 0.227359 0.191836
1.000000 0.262150 0.222019
1.000000 0.307042 0.262028
1.000000 0.362005 0.317998
1.000000 0.426093 0.389990
0.052094 0.109560 0.077882
0.056672 0.110292 0.077729
0.061036 0.110689 0.078279
0.069184 0.111147 0.079042
0.079744 0.112123 0.079957
0.092897 0.114839 0.080537
0.112428 0.121889 0.077577
0.137240 0.128695 0.076081
0.163882 0.133608 0.075441
0.189548 0.136202 0.075196
0.219974 0.139803 0.075013
0.257206 0.145449 0.073487
0.303777 0.153689 0.071473
0.359106 0.162173 0.065736
0.419959 0.170443 0.057099
0.485542 0.178317 0.041779
0.555352 0.185428 0.018860
0.618769 0.189120 0.000916
0.675196 0.190768 0.000000
0.726833 0.190585 0.000000
0.774136 0.190127 0.005188
0.815274 0.189822 0.037751
0.850919 0.190738 0.070436
0.882414 0.193484 0.093263
0.911345 0.199588 0.114443
0.937896 0.209293 0.136019
0.962463 0.223819 0.158267
0.985199 0.244388 0.183047
1.000000 0.273503 0.212558
1.000000 0.312840 0.251225
1.000000 0.363378 0.305272
1.000000 0.423957 0.376257
0.055756 0.122683 0.084047
0.059083 0.123384 0.083619
0.062074 0.123995 0.083467
0.069520 0.124819 0.084138
0.080385 0.125856 0.084962
0.092531 0.127138 0.086213
0.109682 0.132753 0.085206
0.133547 0.142031 0.081941
0.163058 0.151278 0.079744
0.197818 0.160555 0.077485
0.229679 0.165621 0.075990
0.266880 0.171664 0.073640
0.309941 0.178683 0.070405
0.365301 0.189487 0.063600
0.430671 0.201999 0.045441
0.504051 0.214572 0.005066
0.572747 0.222995 0.000000
0.631708 0.227543 0.000000
0.684474 0.229160 0.000000
0.733700 0.229740 0.000000
0.778622 0.229252 0.000000
0.818082 0.228397 0.000000
0.852537 0.228153 0.040864
0.883299 0.229343 0.077394
0.911711 0.232792 0.102358
0.937987 0.238865 0.125765
0.962402 0.249424 0.148806
0.985016 0.265415 0.173892
1.000000 0.289158 0.203586
1.000000 0.322789 0.241062
1.000000 0.367956 0.292760
1.000000 0.424048 0.362280
0.056336 0.137728 0.088991
0.059388 0.138338 0.088594
0.062043 0.139071 0.087556
0.069917 0.139956 0.088167
0.080659 0.141024 0.088930
0.093538 0.142763 0.090272
0.108370 0.144869 0.091432
0.130495 0.154635 0.088899
0.160403 0.167330 0.084413
0.195743 0.179721 0.081453
0.240635 0.194827 0.076570
0.279911 0.202335 0.072389
0.324620 0.211032 0.068269
0.379644 0.222690 0.058808
0.445319 0.236942 0.026612
0.516869 0.251255 0.000000
0.585168 0.261814 0.000000
0.646052 0.267643 0.000000
0.698604 0.269902 0.000000
0.744564 0.269810 0.000000
0.785977 0.268650 0.000000
0.822324 0.266758 0.000000
0.854490 0.264988 0.000000
0.883696 0.264012 0.048676
0.911162 0.265019 0.084901
0.937072 0.268498 0.111055
0.961517 0.275731 0.136110
0.984405 0.287785 0.162753
1.000000 0.306950 0.192813
1.000000 0.335760 0.230442
1.000000 0.376196 0.281102
1.000000 0.428656 0.350561
0.053773 0.154269 0.094209
0.057832 0.154818 0.093294
0.060731 0.155764 0.092317
0.068208 0.157046 0.092256
0.080262 0.158358 0.093172
0.094148 0.160403 0.093812
0.109712 0.163027 0.095308
0.128817 0.168673 0.095277
0.157107 0.182254 0.091707
0.194919 0.199741 0.085298
0.238041 0.216190 0.080110
0.296605 0.238956 0.070558
0.349248 0.252964 0.059113
0.407263 0.267002 0.033845
0.468421 0.279789 0.000000
0.529046 0.289647 0.000000
0.593286 0.299809 0.000000
0.651514 0.306310 0.000000
0.703426 0.308873 0.000000
0.750820 0.309270 0.000000
0.791897 0.307591 0.000000
0.826566 0.304540 0.000000
0.857603 0.301610 0.000000
0.886137 0.299504 0.000000
0.913024 0.298741 0.061006
0.938415 0.300053 0.094789
0.962341 0.304204 0.122621
0.984833 0.312779 0.150820
1.000000 0.327428 0.181369
1.000000 0.350744 0.218112
1.000000 0.385504 0.267185
1.000000 0.432380 0.334325
0.049073 0.173281 0.098909
0.051759 0.174166 0.097993
0.057404 0.175265 0.096803
0.065797 0.176638 0.096193
0.078859 0.178408 0.096651
0.094118 0.180636 0.097444
0.111116 0.183688 0.098421
0.129854 0.187472 0.099886
0.155276 0.198703 0.098268
0.191379 0.217319 0.092744
0.240055 0.241581 0.082979
0.298558 0.267918 0.072877
0.419409 0.334478 0.000000
0.484199 0.350378 0.000000
0.544793 0.360723 0.000000
0.600549 0.366155 0.000000
0.650080 0.366949 0.000000
0.696132 0.365820 0.000000
0.741451 0.365148 0.000000
0.781979 0.362493 0.000000
0.817472 0.357946 0.000000
0.849027 0.352361 0.000000
0.877043 0.346715 0.000000
0.902617 0.342535 0.000000
0.927184 0.339971 0.023560
0.950591 0.339361 0.084688
0.972625 0.341497 0.117159
0.993256 0.347417 0.147219
1.000000 0.359014 0.179568
1.000000 0.378668 0.217716
1.000000 0.408911 0.267552
1.000000 0.451270 0.335058
0.033814 0.199222 0.104646
0.040131 0.200046 0.103548
0.046509 0.200992 0.102144
0.059785 0.202884 0.099763
0.076234 0.204410 0.100191
0.093843 0.206485 0.101076
0.112825 0.209598 0.101869
0.133394 0.213718 0.102998
0.156252 0.218997 0.104341
0.194217 0.242130 0.099306
0.246372 0.273045 0.089723
0.317540 0.313268 0.068177
0.398566 0.353185 0.016938
0.504417 0.403235 0.000000
0.566644 0.414740 0.000000
0.619928 0.418555 0.000000
0.666102 0.417060 0.000000
0.706722 0.412329 0.000000
0.743648 0.405554 0.000000
0.781796 0.401251 0.000000
0.816495 0.396307 0.000000
0.847501 0.390234 0.000000
0.875761 0.384039 0.000000
0.902647 0.378119 0.000000
0.927703 0.373449 0.000000
0.950652 0.370764 0.033967
0.972381 0.370459 0.093050
0.992920 0.373388 0.127810
1.000000 0.380926 0.162203
1.000000 0.395758 0.200687
1.000000 0.420325 0.249058
1.000000 0.457130 0.314611
0.014893 0.223575 0.109438
0.020356 0.224430 0.107698
0.026429 0.225559 0.106081
0.041047 0.228092 0.102480
0.070283 0.229587 0.103029
0.091035 0.232090 0.103517
0.112551 0.236393 0.104585
0.136172 0.242557 0.105226
0.161776 0.250309 0.106538
0.193973 0.264714 0.105653
0.244480 0.296605 0.096315
0.311437 0.337346 0.077211
0.397040 0.386084 0.000549
0.485725 0.428199 0.000000
0.588434 0.473121 0.000000
0.639429 0.474128 0.000000
0.682094 0.469520 0.000000
0.719600 0.461769 0.000000
0.753902 0.453040 0.000000
0.785580 0.443610 0.000000
0.816129 0.434882 0.000000
0.846708 0.428382 0.000000
0.874723 0.421546 0.000000
0.901396 0.415137 0.000000
0.926940 0.409522 0.000000
0.951141 0.404547 0.000000
0.973419 0.401312 0.053559
0.993652 0.401587 0.104585
1.000000 0.405921 0.143252
1.000000 0.416297 0.183322
1.000000 0.435676 0.231144
1.000000 0.466896 0.295171
0.000000 0.253574 0.114168
0.000000 0.254643 0.112856
0.000000 0.256138 0.110780
0.007507 0.259342 0.105989
0.057679 0.262303 0.105226
0.085603 0.265537 0.105318
0.111635 0.270390 0.106020
0.138216 0.276555 0.106538
0.166384 0.284550 0.107149
0.197696 0.294835 0.107759
0.242252 0.320775 0.101808
0.305913 0.361791 0.084291
0.385504 0.409491 0.028870
0.478187 0.460212 0.000000
0.567498 0.499702 0.000000
0.657740 0.532799 0.000000
0.699031 0.525353 0.000000
0.734005 0.514458 0.000000
0.765133 0.502525 0.000000
0.794217 0.490578 0.000000
0.821408 0.478737 0.000000
0.847013 0.467292 0.000000
0.873808 0.458930 0.000000
0.900237 0.451911 0.000000
0.925658 0.445686 0.000000
0.949950 0.440375 0.000000
0.973083 0.436072 0.029328
0.994842 0.433204 0.084260
1.000000 0.433875 0.122713
1.000000 0.441199 0.167666
1.000000 0.456855 0.217716
1.000000 0.484077 0.282872
0.000000 0.290501 0.118837
0.000000 0.291936 0.117250
0.000000 0.293523 0.114595
0.000000 0.297093 0.109346
0.008026 0.300999 0.105501
0.074434 0.304997 0.105623
0.107881 0.310399 0.106050
0.139498 0.317510 0.105837
0.171786 0.326452 0.106050
0.205814 0.337102 0.106081
0.243015 0.349859 0.105318
0.302770 0.388922 0.089143
0.375586 0.433478 0.052064
0.459846 0.480873 0.000000
0.549859 0.525689 0.000000
0.633295 0.558251 0.000000
0.712154 0.581353 0.000000
0.746883 0.568750 0.000000
0.776516 0.553765 0.000000
0.803830 0.539452 0.000000
0.829587 0.525658 0.000000
0.854002 0.512505 0.000000
0.877623 0.500389 0.000000
0.901579 0.490181 0.000000
0.926848 0.483436 0.000000
0.950988 0.477577 0.000000
0.973816 0.472816 0.040070
0.995300 0.469459 0.090822
1.000000 0.468116 0.124208
1.000000 0.469612 0.156466
1.000000 0.478248 0.200046
1.000000 0.499519 0.263157
0.000000 0.329534 0.122469
0.000000 0.330816 0.120333
0.000000 0.332341 0.117922
0.000000 0.336095 0.111177
0.000000 0.340734 0.103822
0.045716 0.344976 0.103853
0.098726 0.350530 0.103639
0.136782 0.357702 0.103395
0.172610 0.366613 0.102815
0.209476 0.377539 0.101991
0.248875 0.390112 0.100893
0.296056 0.412116 0.094392
0.364508 0.455512 0.066011
0.442695 0.500603 0.000000
0.526482 0.543908 0.000000
0.610559 0.581292 0.000000
0.688624 0.608515 0.000000
0.756680 0.622736 0.000000
0.786465 0.606195 0.000000
0.812222 0.588617 0.000000
0.836179 0.572412 0.000000
0.859281 0.557427 0.000000
0.881956 0.543816 0.000000
0.904479 0.531670 0.000000
0.926726 0.520775 0.000000
0.950164 0.513481 0.000000
0.972961 0.508171 0.041505
0.994385 0.504356 0.094881
1.000000 0.502586 0.130343
1.000000 0.503593 0.165255
1.000000 0.509056 0.204044
1.000000 0.520867 0.251896
0.000000 0.373083 0.124758
0.000000 0.374792 0.123079
0.000000 0.398260 0.120027
0.000000 0.402136 0.111635
0.000000 0.407843 0.097017
0.000000 0.411688 0.096620
0.081636 0.416938 0.095979
0.134737 0.423651 0.095216
0.179049 0.432136 0.094057
0.221897 0.442542 0.092164
0.265385 0.454292 0.089845
0.310216 0.467414 0.087434
0.369848 0.498329 0.066621
0.443000 0.539696 0.000000
0.519982 0.578393 0.000000
0.599268 0.613733 0.000000
0.677394 0.643488 0.000000
0.748714 0.664179 0.000000
0.802060 0.665949 0.000000
0.827970 0.646326 0.000000
0.849790 0.626276 0.000000
0.871092 0.608423 0.000000
0.892119 0.592554 0.000000
0.912993 0.578454 0.000000
0.933349 0.565576 0.000000
0.953399 0.554101 0.000000
0.973510 0.544793 0.054994
0.993988 0.539849 0.101137
1.000000 0.537072 0.138064
1.000000 0.537469 0.174807
1.000000 0.542199 0.216770
1.000000 0.553246 0.268528
0.000000 0.425208 0.126436
0.000000 0.429633 0.123964
0.000000 0.434546 0.120211
0.000000 0.441169 0.111177
0.000000 0.449317 0.092103
0.000000 0.454688 0.088930
0.028809 0.460121 0.087892
0.121828 0.466651 0.086275
0.173434 0.474800 0.084718
0.219699 0.484321 0.082521
0.265507 0.495277 0.080049
0.311345 0.507317 0.076905
0.358312 0.519677 0.073457
0.425635 0.557031 0.001373
0.497444 0.593378 0.000000
0.571466 0.626856 0.000000
0.646235 0.656916 0.000000
0.717678 0.680598 0.000000
0.783749 0.697292 0.000000
0.829679 0.693812 0.000000
0.854887 0.674769 0.000000
0.876005 0.655024 0.000000
0.896635 0.637598 0.000000
0.916808 0.622126 0.000000
0.936461 0.608179 0.000000
0.955840 0.595727 0.041108
0.974853 0.584894 0.084657
0.993500 0.575891 0.111666
1.000000 0.571557 0.146731
1.000000 0.571313 0.186648
1.000000 0.575555 0.232334
1.000000 0.585718 0.287663
0.000000 0.471351 0.126009
0.000000 0.475685 0.122774
0.000000 0.480415 0.119234
0.000000 0.486671 0.109255
0.000000 0.494484 0.088472
0.000000 0.500267 0.076936
0.000000 0.505455 0.075685
0.101228 0.511498 0.074006
0.164126 0.519005 0.072053
0.215702 0.527764 0.068940
0.264103 0.537713 0.065919
0.311589 0.548425 0.062348
0.359014 0.559167 0.058930
0.411780 0.577203 0.030549
0.479225 0.611139 0.000000
0.548821 0.642664 0.000000
0.619043 0.671046 0.000000
0.688045 0.695186 0.000000
0.753841 0.713893 0.000000
0.815488 0.727810 0.000000
0.856168 0.721126 0.000000
0.881041 0.703243 0.000000
0.901366 0.683864 0.000000
0.920958 0.666651 0.000000
0.939757 0.651301 0.033478
0.958160 0.637720 0.086000
0.976165 0.625788 0.114382
0.993835 0.616022 0.140047
1.000000 0.608515 0.166415
1.000000 0.604547 0.198917
1.000000 0.607904 0.247929
1.000000 0.617121 0.306401
0.000000 0.519402 0.124147
0.000000 0.523461 0.120912
0.000000 0.528069 0.116518
0.000000 0.533928 0.105837
0.000000 0.540917 0.083406
0.000000 0.546990 0.059602
0.000000 0.551537 0.057984
0.065888 0.556817 0.053956
0.151095 0.563256 0.049714
0.209079 0.570703 0.044465
0.260258 0.579187 0.038514
0.309209 0.588312 0.032105
0.357397 0.597589 0.027466
0.405402 0.607141 0.022766
0.463722 0.630335 0.000000
0.529778 0.660395 0.000000
0.596612 0.687526 0.000000
0.662715 0.711025 0.000000
0.727810 0.731502 0.000000
0.789944 0.747555 0.000000
0.848814 0.760464 0.000000
0.886259 0.752804 0.000000
0.910399 0.735927 0.053346
0.929595 0.717128 0.082887
0.947875 0.700252 0.108431
0.965148 0.685634 0.139467
0.981872 0.672999 0.165377
0.998138 0.662684 0.191104
1.000000 0.654841 0.219760
1.000000 0.650172 0.253147
1.000000 0.649470 0.293370
1.000000 0.657343 0.350744
0.000000 0.579583 0.120150
0.000000 0.581842 0.116915
0.000000 0.584283 0.111543
0.000000 0.587945 0.100496
0.000000 0.592859 0.076631
0.000000 0.598047 0.010620
0.000000 0.601831 0.008698
0.000000 0.606500 0.004974
0.134890 0.612421 0.001343
0.202121 0.619226 0.000000
0.258091 0.626917 0.000000
0.310033 0.634943 0.000000
0.359716 0.643000 0.000000
0.408484 0.651026 0.000000
0.456458 0.659052 0.000946
0.518181 0.684962 0.000000
0.580682 0.708797 0.000000
0.642817 0.729793 0.000000
0.704036 0.748257 0.000000
0.764614 0.764981 0.000000
0.822690 0.778439 0.000000
0.877806 0.789548 0.000000
0.910521 0.779934 0.116823
0.932311 0.762844 0.148379
0.949645 0.744228 0.160372
0.966400 0.727596 0.175418
0.982147 0.713985 0.202914
0.997314 0.702907 0.231113
1.000000 0.694514 0.261875
1.000000 0.689113 0.296361
1.000000 0.687831 0.337194
1.000000 0.691920 0.384802
0.000000 0.626581 0.115785
0.000000 0.628687 0.112581
0.000000 0.631006 0.107301
0.000000 0.634211 0.095491
0.000000 0.638331 0.070680
0.000000 0.643214 0.000000
0.000000 0.646204 0.000000
0.000000 0.649958 0.000000
0.112032 0.654597 0.000000
0.190982 0.660212 0.000000
0.251621 0.666560 0.000000
0.305364 0.673365 0.000000
0.356176 0.680201 0.000000
0.405524 0.687007 0.000000
0.453651 0.693721 0.000000
0.504631 0.705013 0.000000
0.564019 0.726619 0.000000
0.623011 0.745937 0.000000
0.681544 0.763302 0.000000
0.739742 0.779416 0.000000
0.797452 0.794614 0.000000
0.852506 0.806729 0.017548
0.903990 0.816739 0.124514
0.932372 0.806027 0.201572
0.949462 0.786465 0.218082
0.965423 0.768734 0.228489
0.980926 0.753017 0.242222
0.995178 0.740871 0.270573
1.000000 0.731563 0.302403
1.000000 0.725429 0.337285
1.000000 0.723507 0.377600
1.000000 0.726802 0.423041
0.000000 0.681514 0.111269
0.000000 0.683558 0.108461
0.000000 0.685298 0.103456
0.000000 0.687495 0.091310
0.000000 0.690364 0.065187
0.000000 0.693782 0.000000
0.000000 0.696101 0.000000
0.000000 0.698238 0.000000
0.084993 0.701045 0.000000
0.181827 0.704524 0.000000
0.246372 0.708431 0.000000
0.302190 0.712917 0.000000
0.353796 0.717617 0.000000
0.402960 0.722133 0.000000
0.450416 0.726436 0.014282
0.496651 0.730648 0.047242
0.548455 0.743374 0.049348
0.604303 0.760372 0.035767
0.660273 0.776516 0.034211
0.716152 0.791958 0.052705
0.771847 0.806821 0.069337
0.826566 0.820584 0.088075
0.877623 0.830777 0.142214
0.924468 0.838987 0.202182
0.948028 0.826749 0.269810
0.964874 0.810544 0.297826
0.979278 0.793942 0.307897
0.993103 0.779507 0.321569
1.000000 0.768673 0.348821
1.000000 0.761563 0.382086
1.000000 0.758724 0.419806
1.000000 0.760739 0.461189
0.000000 0.723568 0.108888
0.000000 0.725399 0.105837
0.000000 0.726864 0.101717
0.000000 0.728603 0.089845
0.000000 0.730770 0.066499
0.000000 0.733394 0.000000
0.000000 0.735622 0.000000
0.000000 0.737423 0.000000
0.044556 0.739651 0.000000
0.172793 0.742519 0.000000
0.241733 0.745693 0.000000
0.299992 0.749325 0.000000
0.352728 0.753017 0.006836
0.402380 0.756680 0.039124
0.449989 0.760159 0.065522
0.496223 0.763455 0.082338
0.541466 0.766812 0.098787
0.594446 0.781308 0.104219
0.648066 0.796078 0.112459
0.701564 0.810452 0.124666
0.754665 0.824216 0.139925
0.806668 0.836912 0.158907
0.856992 0.848295 0.180331
0.902922 0.856138 0.232212
0.944396 0.862425 0.290837
0.963226 0.849302 0.353094
0.977386 0.833921 0.380438
0.990295 0.818967 0.390997
1.000000 0.806699 0.406744
1.000000 0.798276 0.432807
1.000000 0.794553 0.467079
1.000000 0.795315 0.504234
0.000000 0.765377 0.111757
0.000000 0.766598 0.109194
0.000000 0.767391 0.105440
0.000000 0.768399 0.095796
0.000000 0.769650 0.077333
0.000000 0.771298 0.023987
0.000000 0.772946 0.000000
0.000000 0.773953 0.000000
0.002747 0.775509 0.000000
0.169589 0.777523 0.000000
0.241520 0.779904 0.015808
0.300114 0.782773 0.048646
0.353643 0.785672 0.069123
0.403571 0.788540 0.084840
0.451118 0.791135 0.099672
0.497017 0.793698 0.115023
0.541741 0.796323 0.131258
0.587732 0.802029 0.147219
0.639033 0.815427 0.159060
0.690181 0.828550 0.174044
0.740627 0.841123 0.192691
0.789853 0.852689 0.213657
0.837369 0.863005 0.236851
0.882750 0.871977 0.261295
0.923430 0.877592 0.314122
0.959747 0.882078 0.368902
0.974731 0.868528 0.422797
0.986572 0.854124 0.448463
0.998047 0.840879 0.459358
1.000000 0.831052 0.476875
1.000000 0.825162 0.502190
1.000000 0.824460 0.536248
0.000000 0.802060 0.121767
0.000000 0.802853 0.119905
0.000000 0.803494 0.116457
0.000000 0.804318 0.109804
0.000000 0.805570 0.097047
0.000000 0.807370 0.077943
0.000000 0.809903 0.041474
0.000000 0.811917 0.059724
0.082460 0.814481 0.072175
0.190249 0.817502 0.085023
0.259678 0.820768 0.099153
0.318730 0.824155 0.113405
0.372534 0.827481 0.128725
0.422889 0.830472 0.144289
0.470710 0.833127 0.160830
0.516320 0.835294 0.178317
0.560601 0.837369 0.196994
0.603632 0.839597 0.218662
0.649409 0.847379 0.238987
0.696681 0.858335 0.258457
0.742977 0.868620 0.280064
0.787869 0.877958 0.303197
0.830869 0.886137 0.326116
0.871885 0.893156 0.349462
0.910765 0.898985 0.372015
0.944915 0.901915 0.419501
0.975219 0.904326 0.463386
0.986267 0.890654 0.505882
0.995666 0.877714 0.529137
1.000000 0.866941 0.540307
1.000000 0.860166 0.559136
1.000000 0.854612 0.580926
0.000000 0.848325 0.150301
0.000000 0.848814 0.149111
0.000000 0.849058 0.147616
0.000000 0.849393 0.143526
0.000000 0.849943 0.137270
0.000000 0.850767 0.129641
0.000000 0.852079 0.121218
0.000000 0.853117 0.125856
0.157717 0.854337 0.133974
0.231266 0.855924 0.144045
0.291173 0.857694 0.155123
0.344976 0.859617 0.168551
0.395117 0.861570 0.183078
0.442756 0.863371 0.199008
0.488289 0.865049 0.216556
