其他预设/【233】日式怀旧街道调色预设208款/1.3D LUT预设（视频调色-PR-AE-PS-FCPX-达芬奇用）/1.日式城市街拍预设/JA – Cityscape Pop 4.cube
# Created by Adobe Lightroom plugin Export LUT (1.17.0)
# www.johnrellis.com/lightroom/exportlut.htm
# Preset: JA – Cityscape Pop 4
# Color profile: /Library/Application Support/Adobe/Color/Profiles/Recommended/AdobeRGB1998.icc
LUT_3D_SIZE 32
0.079744 0.086580 0.090974
0.079744 0.086580 0.090974
0.079744 0.086580 0.090974
0.083955 0.086244 0.090883
0.091005 0.085359 0.091066
0.099947 0.084321 0.091157
0.112551 0.082490 0.091157
0.130556 0.081086 0.090883
0.154604 0.079011 0.090486
0.184726 0.076692 0.089509
0.222354 0.072938 0.087373
0.267613 0.068635 0.084382
0.321294 0.062379 0.078828
0.381903 0.050874 0.070222
0.445167 0.037690 0.054536
0.506798 0.022889 0.014923
0.563531 0.013062 0.000000
0.615351 0.008179 0.000000
0.663203 0.003540 0.000000
0.710353 0.004364 0.000000
0.760647 0.000580 0.000000
0.805264 0.000000 0.000000
0.844022 0.000000 0.000000
0.877440 0.000000 0.000000
0.906371 0.000000 0.000000
0.931609 0.000000 0.000000
0.954101 0.000000 0.000000
0.974365 0.000000 0.000000
0.992828 0.000000 0.000000
1.000000 0.000000 0.000000
1.000000 0.000000 0.000000
1.000000 0.000000 0.000000
0.079744 0.086580 0.090974
0.079744 0.086580 0.090974
0.079744 0.086580 0.090974
0.083955 0.086244 0.090883
0.091005 0.085359 0.091066
0.099886 0.084657 0.091127
0.112673 0.083772 0.091066
0.130159 0.082856 0.091035
0.153902 0.081331 0.090639
0.183993 0.079530 0.089387
0.221164 0.076661 0.087495
0.265751 0.073732 0.084230
0.318914 0.070222 0.078981
0.378912 0.065400 0.070039
0.441718 0.059907 0.054597
0.503410 0.056825 0.014618
0.559991 0.047425 0.000000
0.611963 0.047486 0.000000
0.659968 0.046326 0.000000
0.707424 0.046693 0.000000
0.756893 0.035248 0.000000
0.801236 0.026825 0.000000
0.840085 0.014710 0.000000
0.873960 0.000000 0.000000
0.903227 0.000000 0.000000
0.928893 0.000000 0.000000
0.951843 0.000000 0.000000
0.972473 0.000000 0.000000
0.991241 0.000000 0.000000
1.000000 0.000000 0.000000
1.000000 0.000000 0.000000
1.000000 0.000000 0.000000
0.079744 0.086580 0.090974
0.079744 0.086580 0.090974
0.079744 0.086580 0.090974
0.084291 0.086488 0.090852
0.091188 0.086580 0.090944
0.099977 0.086183 0.091279
0.112428 0.086091 0.091188
0.130190 0.085145 0.090852
0.153536 0.084108 0.090455
0.183536 0.083101 0.089143
0.220401 0.081636 0.087190
0.264714 0.079591 0.083894
0.317540 0.077943 0.078553
0.377447 0.075654 0.069459
0.440070 0.075563 0.052766
0.501640 0.072816 0.012726
0.558312 0.071687 0.000000
0.610132 0.070802 0.000000
0.658442 0.071168 0.000000
0.706325 0.070558 0.000000
0.755245 0.068757 0.000000
0.799374 0.065553 0.000000
0.838254 0.060090 0.000000
0.872160 0.044465 0.000000
0.901610 0.017792 0.000000
0.927489 0.000000 0.000000
0.950622 0.000000 0.000000
0.971435 0.000000 0.000000
0.990387 0.000000 0.000000
1.000000 0.000000 0.000000
1.000000 0.000000 0.000000
1.000000 0.000000 0.000000
0.079591 0.089662 0.091005
0.079530 0.089967 0.090974
0.079957 0.089906 0.090974
0.084382 0.090150 0.091127
0.091279 0.090242 0.091218
0.100343 0.090120 0.091249
0.113008 0.089937 0.091127
0.130617 0.089967 0.090730
0.154177 0.090120 0.089937
0.183810 0.090822 0.088808
0.220401 0.091371 0.086702
0.264622 0.092012 0.083162
0.317235 0.093446 0.077180
0.376593 0.095003 0.067536
0.438819 0.096345 0.048676
0.500267 0.097993 0.006226
0.556603 0.098939 0.000000
0.608515 0.100069 0.000000
0.656397 0.100465 0.000000
0.704738 0.101106 0.000000
0.752560 0.099611 0.000000
0.796109 0.097963 0.000000
0.835142 0.094484 0.000000
0.869688 0.089418 0.000000
0.899962 0.082094 0.000000
0.926513 0.070253 0.000000
0.950103 0.052522 0.000000
0.971191 0.013397 0.000000
0.990173 0.000000 0.000000
1.000000 0.000000 0.000000
1.000000 0.000000 0.000000
1.000000 0.000000 0.000000
0.079713 0.094850 0.091371
0.079652 0.094850 0.091646
0.080079 0.095094 0.091341
0.084504 0.095308 0.091493
0.091463 0.095094 0.091341
0.101076 0.095735 0.091035
0.113588 0.096162 0.090852
0.130983 0.097292 0.090394
0.154543 0.099062 0.089448
0.183963 0.101289 0.088106
0.220279 0.104189 0.085786
0.264164 0.107637 0.081605
0.316350 0.111940 0.075532
0.375250 0.117189 0.065095
0.437629 0.121889 0.040864
0.499214 0.125643 0.000000
0.555993 0.128969 0.000000
0.607996 0.130892 0.000000
0.656092 0.131563 0.000000
0.705379 0.132967 0.000000
0.752041 0.133577 0.000000
0.795041 0.132113 0.000000
0.833738 0.129519 0.000000
0.868254 0.125277 0.000000
0.898680 0.119265 0.000000
0.925475 0.112184 0.000000
0.949187 0.102235 0.000000
0.970367 0.090211 0.000000
0.989410 0.076326 0.000000
1.000000 0.059724 0.000000
1.000000 0.029175 0.000000
1.000000 0.014160 0.000000
0.079133 0.101137 0.091920
0.079072 0.101381 0.091890
0.080659 0.101472 0.091859
0.084352 0.101747 0.091737
0.091463 0.102846 0.091463
0.101106 0.102907 0.091463
0.115938 0.105135 0.090761
0.132723 0.106966 0.089937
0.156161 0.110140 0.088838
0.185733 0.114260 0.086915
0.222080 0.119661 0.084169
0.266056 0.125887 0.079713
0.317998 0.133211 0.072389
0.377050 0.140993 0.060426
0.439002 0.148379 0.027161
0.500359 0.154543 0.000000
0.556939 0.159060 0.000000
0.608881 0.162173 0.000000
0.657588 0.164279 0.000000
0.707424 0.165591 0.000000
0.753597 0.166415 0.000000
0.796414 0.165225 0.000000
0.858610 0.168093 0.000000
0.890196 0.164706 0.000000
0.917418 0.159396 0.000000
0.941100 0.153140 0.000000
0.962097 0.145022 0.000000
0.980896 0.136812 0.000000
0.998016 0.127382 0.000000
1.000000 0.118166 0.000000
1.000000 0.110994 0.000000
1.000000 0.108919 0.000000
0.078553 0.110780 0.092073
0.078920 0.110964 0.092042
0.081239 0.111177 0.091981
0.085542 0.111849 0.091798
0.093233 0.112734 0.091524
0.104555 0.115206 0.091188
0.118105 0.115969 0.090669
0.140963 0.121889 0.089082
0.164370 0.126131 0.087343
0.193118 0.131777 0.084840
0.231052 0.139620 0.081209
0.276707 0.148806 0.075044
0.330205 0.159304 0.065888
0.389624 0.169772 0.044099
0.450935 0.179416 0.000610
0.510338 0.186770 0.000000
0.565301 0.191867 0.000000
0.616083 0.195407 0.000000
0.667445 0.198642 0.000000
0.717403 0.201266 0.000000
0.764706 0.202090 0.000000
0.808865 0.202121 0.000000
0.848631 0.200534 0.000000
0.883452 0.196750 0.000000
0.913115 0.192660 0.000000
0.938262 0.186740 0.000000
0.959960 0.180026 0.000000
0.979156 0.171939 0.000000
0.996521 0.163546 0.000000
1.000000 0.155367 0.000000
1.000000 0.148348 0.000000
1.000000 0.145205 0.000000
0.078370 0.123049 0.091829
0.079927 0.123293 0.091768
0.082124 0.123690 0.091646
0.087068 0.124422 0.091463
0.095186 0.125521 0.091096
0.106722 0.128237 0.090700
0.122744 0.132326 0.089631
0.141390 0.134707 0.088838
0.172213 0.144625 0.085481
0.201755 0.151583 0.082307
0.236790 0.159945 0.077729
0.279698 0.170321 0.070893
0.332891 0.183139 0.059297
0.391882 0.195987 0.025238
0.452613 0.207492 0.000000
0.511620 0.216464 0.000000
0.565972 0.222690 0.000000
0.617517 0.227085 0.000000
0.669551 0.231266 0.000000
0.717830 0.233921 0.000000
0.763943 0.235233 0.000000
0.807279 0.234745 0.000000
0.846525 0.233585 0.000000
0.881102 0.230655 0.000000
0.910826 0.225528 0.000000
0.936065 0.219883 0.000000
0.957977 0.213199 0.000000
0.977386 0.205570 0.000000
0.994965 0.197543 0.000000
1.000000 0.189700 0.000000
1.000000 0.182773 0.000000
1.000000 0.178836 0.000000
0.079774 0.140017 0.090730
0.081636 0.140200 0.090639
0.084504 0.140658 0.090517
0.090242 0.141543 0.090242
0.099153 0.143038 0.089784
0.110750 0.145327 0.089387
0.127932 0.150423 0.087984
0.149569 0.157198 0.086152
0.173495 0.161196 0.084443
0.214084 0.176181 0.078492
0.250889 0.186404 0.072023
0.293065 0.197604 0.062898
0.340337 0.209842 0.040833
0.396979 0.223850 0.000000
0.456947 0.237156 0.000000
0.514763 0.247044 0.000000
0.568536 0.254276 0.000000
0.623072 0.260502 0.000000
0.672908 0.264317 0.000000
0.719753 0.266911 0.000000
0.764736 0.268193 0.000000
0.807248 0.268070 0.000000
0.845884 0.266423 0.000000
0.880034 0.263279 0.000000
0.909483 0.258976 0.000000
0.934752 0.252659 0.000000
0.956695 0.245670 0.000000
0.976165 0.238254 0.000000
0.993774 0.230167 0.000000
1.000000 0.222263 0.000000
1.000000 0.215579 0.000000
1.000000 0.211063 0.000000
0.081025 0.161959 0.089296
0.083589 0.162234 0.089204
0.086763 0.162570 0.088777
0.093629 0.163485 0.088441
0.103883 0.165072 0.087556
0.116854 0.167361 0.086702
0.134371 0.172610 0.085328
0.157137 0.180209 0.082948
0.185122 0.189639 0.079408
0.215030 0.195804 0.075807
0.267369 0.216892 0.063325
0.311559 0.230045 0.042237
0.360266 0.243503 0.004242
0.410834 0.256107 0.000000
0.461921 0.267033 0.000000
0.519554 0.278355 0.000000
0.577081 0.288151 0.000000
0.630030 0.294438 0.000000
0.678248 0.298558 0.000000
0.723781 0.300450 0.000000
0.767239 0.301762 0.000000
0.808011 0.301183 0.000000
0.845182 0.299351 0.000000
0.878294 0.295964 0.000000
0.907256 0.291051 0.000000
0.932525 0.284733 0.000000
0.954711 0.277897 0.000000
0.974517 0.270054 0.000000
0.992462 0.261997 0.000000
1.000000 0.254368 0.000000
1.000000 0.247471 0.000000
1.000000 0.242496 0.000000
0.081056 0.187991 0.086976
0.083894 0.188449 0.086824
0.088014 0.188907 0.086610
0.096529 0.190036 0.086152
0.108492 0.191806 0.085115
0.123354 0.194186 0.084016
0.141787 0.198520 0.081849
0.166079 0.207309 0.077913
0.195468 0.218204 0.072633
0.231235 0.231449 0.065339
0.268528 0.240360 0.055512
0.334356 0.268376 0.000000
0.383948 0.282628 0.000000
0.434546 0.295232 0.000000
0.484535 0.305486 0.000000
0.534661 0.314794 0.000000
0.584070 0.321782 0.000000
0.634730 0.328161 0.000000
0.681392 0.331670 0.000000
0.725765 0.333715 0.000000
0.768368 0.334722 0.000000
0.808530 0.334020 0.000000
0.845182 0.332158 0.000000
0.877897 0.328618 0.000000
0.906615 0.323491 0.000000
0.931670 0.316960 0.000000
0.953674 0.309636 0.000000
0.973419 0.301518 0.000000
0.991272 0.293462 0.000000
1.000000 0.285527 0.000000
1.000000 0.278233 0.000000
1.000000 0.273014 0.000000
0.080659 0.219608 0.082856
0.084169 0.220127 0.082643
0.088899 0.220706 0.082338
0.099062 0.221836 0.081727
0.113130 0.223911 0.080385
0.130098 0.226596 0.078523
0.149722 0.230198 0.076417
0.175265 0.238621 0.071595
0.207095 0.251164 0.063478
0.245090 0.266270 0.045655
0.290166 0.284215 0.006622
0.335760 0.296117 0.000000
0.431189 0.341711 0.000000
0.486885 0.356268 0.000000
0.538384 0.366125 0.000000
0.584741 0.371893 0.000000
0.627070 0.374456 0.000000
0.665339 0.374914 0.000000
0.706813 0.376074 0.000000
0.748836 0.376715 0.000000
0.788693 0.376196 0.000000
0.825498 0.374243 0.000000
0.858793 0.370642 0.000000
0.888640 0.365545 0.000000
0.914946 0.359197 0.000000
0.938170 0.351904 0.000000
0.958770 0.343877 0.000000
0.977295 0.335210 0.000000
0.994171 0.326574 0.000000
1.000000 0.318120 0.000000
1.000000 0.310674 0.000000
1.000000 0.305058 0.000000
0.078950 0.261814 0.074586
0.084169 0.262028 0.074342
0.089906 0.262516 0.073976
0.102022 0.263523 0.072816
0.118898 0.265171 0.071107
0.138796 0.267643 0.068605
0.161105 0.271214 0.065553
0.186679 0.276829 0.059724
0.221195 0.290990 0.037781
0.261997 0.308263 0.000671
0.310765 0.329076 0.000000
0.369055 0.353826 0.000000
0.429633 0.372351 0.000000
0.516350 0.406287 0.000000
0.565179 0.413642 0.000000
0.608515 0.416785 0.000000
0.647791 0.417029 0.000000
0.682856 0.414984 0.000000
0.715816 0.412085 0.000000
0.749355 0.409705 0.000000
0.788235 0.408759 0.000000
0.824399 0.406378 0.000000
0.857298 0.402594 0.000000
0.886809 0.397223 0.000000
0.912932 0.390600 0.000000
0.936095 0.383124 0.000000
0.956786 0.374670 0.000000
0.975402 0.365911 0.000000
0.992432 0.356786 0.000000
1.000000 0.348119 0.000000
1.000000 0.340337 0.000000
1.000000 0.334234 0.000000
0.076204 0.303655 0.061982
0.082155 0.304173 0.061494
0.090089 0.304723 0.060456
0.104646 0.305699 0.059236
0.123720 0.307500 0.055116
0.146090 0.310033 0.049653
0.171237 0.313664 0.038148
0.198245 0.318639 0.023316
0.231846 0.330083 0.000000
0.274418 0.348180 0.000000
0.326574 0.372473 0.000000
0.387213 0.399725 0.000000
0.455726 0.428443 0.000000
0.513359 0.439429 0.000000
0.590417 0.462806 0.000000
0.631678 0.463508 0.000000
0.667689 0.460792 0.000000
0.700252 0.456550 0.000000
0.731197 0.451545 0.000000
0.761593 0.447089 0.000000
0.791379 0.442481 0.000000
0.823941 0.438788 0.000000
0.856413 0.434730 0.000000
0.885740 0.429145 0.000000
0.911742 0.422278 0.000000
0.934844 0.414221 0.000000
0.955474 0.405402 0.000000
0.974121 0.396338 0.000000
0.991211 0.387060 0.000000
1.000000 0.378088 0.000000
1.000000 0.369970 0.000000
1.000000 0.363531 0.000000
0.072755 0.350713 0.020813
0.080568 0.351232 0.019348
0.089662 0.351659 0.017762
0.107027 0.352667 0.013031
0.129335 0.354406 0.005890
0.154177 0.357031 0.000000
0.181369 0.360540 0.000000
0.211673 0.366766 0.000000
0.244511 0.374823 0.000000
0.289921 0.395056 0.000000
0.341772 0.417975 0.000000
0.400397 0.443122 0.000000
0.464698 0.468788 0.000000
0.533593 0.493935 0.000000
0.584527 0.496162 0.000000
0.653468 0.511345 0.000000
0.687892 0.506401 0.000000
0.718349 0.499794 0.000000
0.747341 0.492866 0.000000
0.775845 0.486336 0.000000
0.803433 0.479744 0.000000
0.830076 0.473243 0.000000
0.855711 0.466560 0.000000
0.884672 0.460670 0.000000
0.910613 0.453407 0.000000
0.933776 0.445228 0.000000
0.954650 0.436316 0.000000
0.973541 0.427008 0.000000
0.990814 0.417548 0.000000
1.000000 0.408392 0.000000
1.000000 0.400183 0.000000
1.000000 0.393530 0.000000
0.067567 0.402228 0.000000
0.077516 0.403113 0.000000
0.088045 0.403937 0.000000
0.108644 0.405646 0.000000
0.134737 0.408148 0.000000
0.163821 0.411933 0.000000
0.194156 0.416785 0.000000
0.226902 0.422583 0.000000
0.262119 0.429816 0.000000
0.303838 0.442756 0.000000
0.354437 0.463355 0.000000
0.410254 0.484962 0.000000
0.469734 0.506493 0.000000
0.533562 0.527977 0.000000
0.597864 0.546868 0.000000
0.644007 0.543450 0.000000
0.705348 0.551904 0.000000
0.735805 0.544152 0.000000
0.763577 0.535271 0.000000
0.790677 0.527123 0.000000
0.816922 0.519005 0.000000
0.842008 0.510735 0.000000
0.865660 0.502373 0.000000
0.887877 0.493812 0.000000
0.911315 0.485481 0.000000
0.934264 0.476967 0.000000
0.954925 0.467506 0.000000
0.973663 0.457862 0.000000
0.990784 0.448096 0.000000
1.000000 0.438544 0.000000
1.000000 0.429816 0.000000
1.000000 0.422705 0.000000
0.062440 0.456580 0.000000
0.074464 0.457099 0.000000
0.087312 0.457649 0.000000
0.112001 0.458961 0.000000
0.140108 0.460945 0.000000
0.170840 0.463996 0.000000
0.203708 0.467811 0.000000
0.237980 0.472511 0.000000
0.274052 0.478096 0.000000
0.311864 0.484688 0.000000
0.360235 0.501671 0.000000
0.413550 0.520775 0.000000
0.470649 0.540490 0.000000
0.530785 0.559808 0.000000
0.593744 0.578698 0.000000
0.653529 0.592340 0.000000
0.695277 0.584497 0.000000
0.751553 0.588617 0.000000
0.779110 0.578546 0.000000
0.804288 0.568048 0.000000
0.828702 0.558038 0.000000
0.852049 0.548150 0.000000
0.874083 0.538048 0.000000
0.894896 0.527916 0.000000
0.914488 0.517754 0.000000
0.933410 0.507744 0.000000
0.954131 0.498024 0.000000
0.972869 0.488075 0.000000
0.989990 0.477943 0.000000
1.000000 0.468147 0.000000
1.000000 0.459083 0.000000
1.000000 0.451667 0.000000
0.055512 0.506920 0.000000
0.072541 0.507713 0.000000
0.088502 0.523613 0.000000
0.116274 0.524590 0.000000
0.148257 0.526055 0.000000
0.181796 0.527855 0.000000
0.216983 0.530266 0.000000
0.253544 0.533532 0.000000
0.290959 0.537652 0.000000
0.330053 0.542535 0.000000
0.373083 0.551263 0.000000
0.425330 0.567864 0.000000
0.480354 0.584863 0.000000
0.538201 0.601831 0.000000
0.597498 0.617945 0.000000
0.658534 0.633448 0.000000
0.713954 0.641993 0.000000
0.752010 0.630304 0.000000
0.801328 0.628351 0.000000
0.824765 0.615320 0.000000
0.846281 0.602167 0.000000
0.867033 0.589441 0.000000
0.886778 0.577142 0.000000
0.905364 0.564874 0.000000
0.922820 0.552758 0.000000
0.939391 0.540948 0.000000
0.955261 0.529229 0.000000
0.972442 0.518334 0.000000
0.989258 0.507652 0.000000
1.000000 0.497414 0.000000
1.000000 0.488045 0.000000
1.000000 0.480262 0.000000
0.053468 0.556847 0.000000
0.072023 0.559167 0.000000
0.089448 0.561730 0.000000
0.116487 0.564355 0.000000
0.150515 0.566949 0.000000
0.185092 0.569177 0.000000
0.221347 0.571466 0.000000
0.257877 0.574121 0.000000
0.295964 0.577539 0.000000
0.335027 0.581445 0.000000
0.375311 0.586023 0.000000
0.423682 0.598688 0.000000
0.476478 0.613825 0.000000
0.531365 0.629053 0.000000
0.588037 0.643854 0.000000
0.646326 0.658198 0.000000
0.705653 0.671839 0.000000
0.756374 0.676570 0.000000
0.791470 0.662348 0.000000
0.835447 0.656550 0.000000
0.856260 0.641962 0.000000
0.875822 0.627619 0.000000
0.894347 0.613581 0.000000
0.911833 0.600031 0.000000
0.928252 0.586603 0.000000
0.943938 0.573571 0.000000
0.958984 0.560876 0.000000
0.973632 0.548730 0.000000
0.988525 0.537285 0.000000
1.000000 0.526604 0.000000
1.000000 0.516808 0.000000
1.000000 0.508659 0.000000
0.055451 0.598260 0.000000
0.073152 0.600458 0.000000
0.091493 0.602716 0.000000
0.119692 0.605127 0.000000
0.153262 0.607446 0.000000
0.188754 0.609308 0.000000
0.225589 0.611170 0.000000
0.262303 0.613458 0.000000
0.300206 0.616205 0.000000
0.339544 0.619440 0.000000
0.379370 0.623224 0.000000
0.421973 0.629114 0.000000
0.472755 0.642817 0.000000
0.525811 0.656855 0.000000
0.580194 0.670466 0.000000
0.635981 0.683650 0.000000
0.692866 0.696345 0.000000
0.749996 0.708217 0.000000
0.796048 0.708827 0.000000
0.827695 0.692317 0.000000
0.866178 0.682521 0.000000
0.884337 0.666255 0.000000
0.901762 0.650721 0.000000
0.918120 0.635615 0.000000
0.933532 0.620844 0.000000
0.948211 0.606592 0.000000
0.962341 0.592828 0.000000
0.976135 0.579736 0.000000
0.989715 0.567285 0.000000
1.000000 0.555566 0.000000
1.000000 0.545281 0.000000
1.000000 0.536736 0.000000
0.060853 0.637995 0.000000
0.075898 0.639948 0.000000
0.094575 0.642023 0.000000
0.123262 0.644099 0.000000
0.156558 0.646082 0.000000
0.192508 0.647700 0.000000
0.228702 0.649256 0.000000
0.265660 0.650965 0.000000
0.303868 0.653223 0.000000
0.342779 0.655787 0.000000
0.382361 0.658839 0.000000
0.422736 0.662196 0.000000
0.469154 0.671229 0.000000
0.520165 0.684047 0.000000
0.572992 0.696834 0.000000
0.626978 0.709285 0.000000
0.681910 0.721401 0.000000
0.737484 0.732906 0.000000
0.793179 0.743648 0.000000
0.834958 0.740902 0.000000
0.863157 0.722164 0.000000
0.896452 0.708522 0.000000
0.912078 0.690852 0.000000
0.927459 0.674159 0.000000
0.941894 0.658045 0.000000
0.955566 0.642573 0.000000
0.968688 0.627588 0.000000
0.981506 0.613489 0.000000
0.994049 0.600153 0.000000
1.000000 0.587701 0.000000
1.000000 0.576318 0.000000
1.000000 0.567163 0.000000
0.071382 0.682795 0.000000
0.085817 0.683742 0.000000
0.100923 0.684596 0.000000
0.129000 0.685603 0.000000
0.161898 0.686671 0.000000
0.197421 0.687678 0.000000
0.233036 0.688869 0.000000
0.270878 0.690455 0.000000
0.308690 0.692531 0.000000
0.348028 0.695003 0.000000
0.387518 0.697932 0.000000
0.428107 0.700893 0.000000
0.469429 0.704219 0.000000
0.518883 0.715755 0.000000
0.569848 0.727169 0.000000
0.621729 0.738155 0.000000
0.674098 0.748653 0.000000
0.726986 0.758541 0.000000
0.779812 0.767758 0.000000
0.832120 0.775875 0.000000
0.867948 0.768551 0.000000
0.891630 0.746761 0.000000
0.919524 0.729397 0.000000
0.932403 0.710109 0.000000
0.945861 0.692592 0.000000
0.958740 0.675898 0.000000
0.971160 0.660029 0.000000
0.983276 0.645106 0.000000
0.995148 0.631128 0.000000
1.000000 0.618128 0.000000
1.000000 0.606409 0.000000
1.000000 0.596368 0.000000
0.080751 0.719387 0.000000
0.094057 0.720272 0.000000
0.108705 0.721279 0.000000
0.135683 0.722072 0.000000
0.167971 0.722988 0.000000
0.201694 0.723720 0.000000
0.237705 0.724605 0.000000
0.274083 0.725765 0.000000
0.311955 0.727321 0.000000
0.350622 0.729244 0.000000
0.389868 0.731594 0.000000
0.429664 0.734035 0.000000
0.469917 0.736446 0.000000
0.514397 0.742611 0.000000
0.563622 0.752804 0.000000
0.613397 0.762631 0.000000
0.663813 0.772061 0.000000
0.714473 0.780819 0.000000
0.765011 0.788846 0.000000
0.815000 0.796048 0.000000
0.864103 0.802304 0.000000
0.894835 0.791379 0.000000
0.915435 0.767788 0.000000
0.939147 0.748257 0.000000
0.948425 0.726528 0.000000
0.960632 0.708827 0.000000
0.972534 0.692042 0.000000
0.984009 0.676387 0.000000
0.995239 0.661830 0.000000
1.000000 0.648402 0.000000
1.000000 0.636500 0.000000
1.000000 0.626703 0.105196
0.097444 0.759976 0.000000
0.108522 0.760891 0.000000
0.121828 0.761471 0.000000
0.146273 0.761929 0.000000
0.176242 0.762295 0.000000
0.209476 0.762600 0.000000
0.244327 0.762936 0.000000
0.280186 0.763302 0.000000
0.317205 0.763973 0.000000
0.354803 0.764889 0.000000
0.393103 0.766018 0.000000
0.432136 0.767361 0.000000
0.471412 0.768856 0.000000
0.511009 0.770230 0.000000
0.557458 0.777768 0.000000
0.604913 0.785702 0.000000
0.652705 0.793240 0.000000
0.700740 0.800412 0.000000
0.748836 0.807248 0.000000
0.796811 0.813504 0.000000
0.843900 0.819028 0.000000
0.889647 0.823606 0.000000
0.915862 0.809628 0.000000
0.933471 0.784665 0.000000
0.953552 0.763424 0.000000
0.962951 0.742702 0.000000
0.974060 0.725032 0.000000
0.984833 0.708461 0.000000
0.995300 0.693294 0.000000
1.000000 0.679438 0.038819
1.000000 0.667536 0.123842
1.000000 0.658076 0.180484
0.113069 0.792172 0.000000
0.123140 0.792966 0.000000
0.135073 0.793545 0.000000
0.156283 0.793942 0.000000
0.184787 0.794156 0.000000
0.215885 0.794400 0.000000
0.249699 0.794644 0.000000
0.284489 0.795010 0.000000
0.320897 0.795560 0.000000
0.358038 0.796384 0.000000
0.395453 0.797360 0.000000
0.434089 0.798489 0.000000
0.472633 0.799710 0.000000
0.511559 0.800717 0.000000
0.553033 0.803647 0.000000
0.598810 0.810391 0.000000
0.644770 0.816648 0.000000
0.690883 0.822599 0.000000
0.736751 0.828122 0.000000
0.782559 0.833188 0.000000
0.827146 0.837552 0.000000
0.870787 0.841215 0.000000
0.913481 0.844083 0.000000
0.935363 0.827359 0.000000
0.950195 0.801602 0.000000
0.967041 0.779538 0.088441
0.975311 0.758816 0.073640
0.985412 0.741695 0.102205
0.995270 0.726040 0.132509
1.000000 0.712184 0.168460
1.000000 0.700374 0.207156
1.000000 0.691585 0.252171
0.133455 0.824002 0.000000
0.141024 0.824521 0.000000
0.151705 0.824796 0.000000
0.170413 0.824857 0.000000
0.195682 0.824765 0.000000
0.225040 0.824704 0.000000
0.257023 0.824643 0.000000
0.290318 0.824704 0.000000
0.325383 0.824949 0.000000
0.361120 0.825437 0.000000
0.398016 0.826047 0.000000
0.435431 0.826871 0.000000
0.473182 0.827665 0.000000
0.511284 0.828336 0.000000
0.549310 0.828763 0.000000
0.591974 0.832914 0.000000
0.636225 0.837919 0.000000
0.680262 0.842588 0.000000
0.724269 0.846983 0.000000
0.767880 0.850950 0.000000
0.810239 0.854337 0.000000
0.851896 0.857176 0.000000
0.892699 0.859342 0.000000
0.932464 0.860929 0.000000
0.950530 0.842222 0.000000
0.962951 0.816556 0.150484
0.976959 0.794644 0.213107
0.984497 0.774380 0.203830
0.993561 0.758114 0.218479
1.000000 0.743984 0.241703
1.000000 0.732326 0.273228
1.000000 0.723903 0.313115
0.155428 0.851865 0.000000
0.161837 0.852140 0.000000
0.170596 0.852323 0.000000
0.186435 0.852415 0.000000
0.209873 0.852476 0.000000
0.236790 0.852689 0.000000
0.267063 0.853178 0.000000
0.299535 0.853849 0.000000
0.333654 0.854765 0.000000
0.368811 0.855802 0.000000
0.404852 0.856931 0.000000
0.441566 0.858000 0.000000
0.478614 0.858946 0.000000
0.515923 0.859586 0.000000
0.553216 0.859831 0.000000
0.591394 0.860563 0.000000
0.633692 0.864134 0.000000
0.675837 0.867399 0.000000
0.717861 0.870390 0.000000
0.758785 0.872923 0.000000
0.799008 0.875090 0.000000
0.838499 0.876799 0.000000
0.877165 0.877958 0.000000
0.914733 0.878691 0.118441
0.950958 0.878935 0.170871
0.964965 0.858824 0.226261
0.974670 0.834043 0.278355
0.985473 0.813199 0.325322
0.992340 0.794003 0.316686
1.000000 0.779416 0.330449
1.000000 0.768002 0.355413
1.000000 0.759854 0.388891
0.190127 0.882322 0.000000
0.195956 0.882475 0.000000
0.202060 0.882475 0.000000
0.215183 0.882353 0.000000
0.234562 0.882170 0.000000
0.257908 0.882017 0.000000
0.284947 0.881926 0.000000
0.314092 0.881956 0.000000
0.345312 0.882078 0.000000
0.377935 0.882261 0.000000
0.411810 0.882414 0.000000
0.446296 0.882597 0.000000
0.481392 0.882689 0.000000
0.516808 0.882628 0.000000
0.552422 0.882353 0.000000
