其他预设/【233】日式怀旧街道调色预设208款/1.3D LUT预设（视频调色-PR-AE-PS-FCPX-达芬奇用）/1.日式城市街拍预设/JA – Cine Night 1.cube
# Created by Adobe Lightroom plugin Export LUT (1.17.0)
# www.johnrellis.com/lightroom/exportlut.htm
# Preset: JA – Cine Night 1
# Color profile: /Library/Application Support/Adobe/Color/Profiles/Recommended/AdobeRGB1998.icc
LUT_3D_SIZE 8
DOMAIN_MIN 0.000000 0.000000 0.000000
DOMAIN_MAX 0.903226 0.903226 0.903226
0.004669 0.027771 0.052949
0.058778 0.054994 0.071717
0.149325 0.072084 0.092012
0.364904 0.000000 0.111727
0.624414 0.000000 0.136934
0.823270 0.054536 0.188571
0.961975 0.265904 0.282902
1.000000 0.439704 0.438209
0.000000 0.078218 0.087739
0.044892 0.083742 0.080964
0.156374 0.101472 0.078920
0.369451 0.084535 0.093904
0.625971 0.000000 0.115908
0.819364 0.144869 0.168063
0.959594 0.286961 0.264958
1.000000 0.444923 0.422950
0.000000 0.154238 0.154543
0.000000 0.163760 0.146273
0.125185 0.184665 0.116396
0.389044 0.230198 0.076387
0.644221 0.255100 0.073152
0.829313 0.300084 0.116243
0.969055 0.378698 0.211673
1.000000 0.484260 0.386206
0.000000 0.326879 0.256138
0.000000 0.334874 0.248722
0.000000 0.350408 0.212161
0.322667 0.394659 0.165469
0.643610 0.462593 0.082918
0.843290 0.478523 0.054292
0.973175 0.508659 0.172732
1.000000 0.549706 0.296910
0.000000 0.563378 0.384527
0.000000 0.568231 0.378637
0.000000 0.582086 0.354131
0.266545 0.574365 0.301396
0.552636 0.621668 0.233188
0.807736 0.656947 0.172732
0.969024 0.661463 0.159121
1.000000 0.657496 0.275914
0.000000 0.771481 0.527550
0.000000 0.776516 0.526482
0.000000 0.781277 0.513024
0.260899 0.782132 0.471992
0.496468 0.757534 0.421149
0.738186 0.798520 0.358434
0.937163 0.813565 0.328740
1.000000 0.788174 0.361975
0.000000 0.922667 0.678981
0.000000 0.923339 0.679194
0.000000 0.922393 0.678370
0.387091 0.918364 0.683955
0.550103 0.908354 0.651423
0.701900 0.899443 0.604517
0.878904 0.916533 0.554620
1.000000 0.902800 0.548486
0.216281 1.000000 0.811307
0.220462 1.000000 0.811032
0.366339 1.000000 0.818448
0.551232 0.992615 0.836606
0.695521 0.981903 0.856382
0.762325 0.976715 0.834257
0.848844 0.973053 0.814389
0.942412 0.970336 0.785367
0.000000 0.045655 0.101625
0.037110 0.058778 0.100343
0.135622 0.076509 0.128023
0.349157 0.005676 0.148959
0.612970 0.000000 0.166567
0.811887 0.101381 0.197177
0.956359 0.268223 0.270512
1.000000 0.434272 0.428534
0.000000 0.077119 0.112642
0.019165 0.084443 0.121126
0.139651 0.099886 0.133272
0.354925 0.088746 0.147585
0.615717 0.053590 0.163943
0.811032 0.162020 0.193240
0.955138 0.290410 0.253696
1.000000 0.439826 0.413550
0.000000 0.153384 0.178195
0.000000 0.163699 0.180270
0.120119 0.184665 0.157229
0.378180 0.219913 0.140261
0.629419 0.245823 0.152682
0.817807 0.296666 0.183444
0.959899 0.377905 0.242100
1.000000 0.478737 0.376287
0.000000 0.325017 0.278233
0.000000 0.333806 0.275456
0.000000 0.353491 0.245243
0.314183 0.386114 0.203220
0.627649 0.446906 0.154574
0.827787 0.466377 0.156680
0.963287 0.503593 0.226322
1.000000 0.551812 0.329808
0.000000 0.563073 0.406470
0.000000 0.566888 0.400824
0.000000 0.579004 0.379644
0.265171 0.571283 0.327031
0.544579 0.613397 0.265110
0.800778 0.650202 0.219883
0.964721 0.657832 0.212711
1.000000 0.659358 0.317876
0.000000 0.768582 0.543633
0.000000 0.770718 0.540337
0.000000 0.775753 0.528252
0.287663 0.777737 0.505547
0.495491 0.755245 0.442206
0.735744 0.796445 0.385870
0.934417 0.812100 0.360845
1.000000 0.788144 0.391089
0.000000 0.919219 0.687587
0.000000 0.918975 0.686458
0.000000 0.918639 0.686275
0.385473 0.915740 0.692439
0.552026 0.906950 0.664881
0.699794 0.896941 0.617823
0.875547 0.914427 0.570031
0.999359 0.901732 0.564874
0.202090 1.000000 0.815213
0.208713 1.000000 0.815305
0.361761 0.999969 0.822568
0.548791 0.992157 0.840024
0.700130 0.982269 0.862730
0.765957 0.976684 0.842435
0.849027 0.972625 0.820737
0.941741 0.969970 0.792050
0.000000 0.063203 0.180880
0.000000 0.062776 0.186160
0.108675 0.078737 0.192355
0.319738 0.069581 0.246128
0.593133 0.000000 0.300145
0.798947 0.182956 0.341131
0.948455 0.324956 0.392615
1.000000 0.459602 0.473091
0.000000 0.086854 0.195132
0.000000 0.089509 0.205142
0.108614 0.103578 0.207858
0.322728 0.117342 0.260472
0.593866 0.119142 0.302434
0.798123 0.216159 0.338811
0.947387 0.342290 0.388983
1.000000 0.469306 0.469764
0.000000 0.150546 0.232425
0.000000 0.158846 0.239780
0.098360 0.185519 0.257816
0.343481 0.215671 0.280430
0.609247 0.252140 0.304570
0.805417 0.319005 0.335882
0.950225 0.411414 0.385382
1.000000 0.510887 0.466438
0.000000 0.328801 0.344396
0.000000 0.340185 0.348577
0.000000 0.362646 0.344976
0.316075 0.388830 0.307042
0.628534 0.438788 0.296147
0.816281 0.469306 0.327703
0.954955 0.522515 0.380102
1.000000 0.582483 0.461769
0.000000 0.567620 0.470710
0.000000 0.573205 0.470192
0.000000 0.586328 0.462196
0.280308 0.589227 0.418952
0.547936 0.616602 0.369024
0.799832 0.649805 0.352148
0.958251 0.662196 0.368078
1.000000 0.676722 0.454261
0.000000 0.772000 0.600244
0.000000 0.774166 0.599878
0.000000 0.778470 0.594110
0.310216 0.779202 0.577325
0.504814 0.760708 0.519951
0.732113 0.794339 0.473640
0.929381 0.811856 0.463600
1.000000 0.793088 0.494759
0.000000 0.921111 0.730587
0.000000 0.920958 0.730587
0.000000 0.919799 0.730648
0.400336 0.916045 0.734920
0.569085 0.908537 0.717922
0.702388 0.895109 0.672328
0.873777 0.914885 0.638849
0.993378 0.903532 0.642481
0.200290 1.000000 0.835721
0.204166 1.000000 0.834806
0.354284 0.999817 0.840116
0.547936 0.992187 0.855406
0.701106 0.982177 0.874876
0.775357 0.976074 0.864561
0.851713 0.971771 0.844297
0.940703 0.969696 0.821592
0.000000 0.071534 0.297276
0.000000 0.071412 0.306493
0.131350 0.057069 0.332586
0.285435 0.071046 0.325444
0.545678 0.090089 0.392584
0.767453 0.252903 0.479133
0.921172 0.425696 0.570214
1.000000 0.553307 0.643946
0.000000 0.095583 0.315251
0.000000 0.097169 0.322576
0.129152 0.093080 0.348150
0.289891 0.112215 0.338018
0.549065 0.152773 0.404974
0.766903 0.293278 0.491249
0.920989 0.438605 0.570001
1.000000 0.558312 0.640620
0.000000 0.163455 0.333410
0.000000 0.167514 0.339239
0.047669 0.186313 0.374640
0.299107 0.219455 0.379095
0.560784 0.290166 0.449165
0.772793 0.396185 0.523583
0.927245 0.493721 0.578241
1.000000 0.589502 0.641505
0.000000 0.300298 0.403845
0.000000 0.308721 0.409155
0.000000 0.337774 0.426184
0.304540 0.382330 0.450599
0.579675 0.436316 0.486000
0.782345 0.497353 0.524529
0.930968 0.568475 0.573388
1.000000 0.639979 0.637995
0.000000 0.552239 0.546868
0.000000 0.561730 0.552789
0.000000 0.594079 0.574151
0.314519 0.604303 0.562127
0.545129 0.615442 0.513085
0.792233 0.650965 0.526482
0.937682 0.681361 0.572259
1.000000 0.713100 0.636133
0.000000 0.780362 0.691951
0.000000 0.784360 0.693690
0.000000 0.787320 0.690883
0.343236 0.787472 0.683162
0.531090 0.775662 0.646265
0.729274 0.794797 0.605097
0.921111 0.815305 0.614649
1.000000 0.802701 0.637201
0.000000 0.923156 0.793698
0.000000 0.923430 0.794308
0.066590 0.922972 0.795804
0.417792 0.919860 0.798245
0.602380 0.912871 0.797665
0.710750 0.897337 0.751583
0.870603 0.914977 0.727260
0.984375 0.904753 0.735592
0.209995 1.000000 0.870756
0.216373 1.000000 0.870207
0.350927 1.000000 0.871153
0.533196 0.993500 0.877775
0.698177 0.982940 0.893034
0.792355 0.975189 0.896025
0.856107 0.970275 0.876158
0.939818 0.969146 0.860380
0.000000 0.080812 0.440467
0.000000 0.079133 0.449561
0.130007 0.043214 0.479713
0.346899 0.000000 0.499275
0.513054 0.059968 0.486152
0.727779 0.239597 0.555505
0.894926 0.452766 0.667170
0.982544 0.656977 0.792142
0.000000 0.106386 0.452674
0.000000 0.106416 0.461250
0.117311 0.095308 0.489662
0.353887 0.000000 0.513817
0.515160 0.131502 0.495735
0.728634 0.278111 0.565850
0.894194 0.477943 0.677638
0.981323 0.669490 0.798489
0.000000 0.175814 0.457923
0.000000 0.179019 0.473060
0.000000 0.192813 0.508019
0.366979 0.204929 0.558953
0.520073 0.264164 0.528313
0.728634 0.385595 0.600488
0.891112 0.552209 0.710414
0.979828 0.696315 0.807675
0.000000 0.302861 0.506432
0.000000 0.307317 0.510094
0.000000 0.322087 0.522087
0.294255 0.369970 0.577905
0.526177 0.429297 0.587823
0.732113 0.535821 0.666804
0.891661 0.650141 0.756741
0.985779 0.711635 0.794553
0.000000 0.498573 0.602319
0.000000 0.505150 0.606287
0.000000 0.526390 0.618982
0.266056 0.560479 0.640009
0.525841 0.600916 0.663813
0.746304 0.657374 0.708095
0.904448 0.710842 0.748684
0.989014 0.754360 0.786923
0.000000 0.742672 0.742641
0.000000 0.747829 0.746365
0.000000 0.762905 0.757717
0.349279 0.785183 0.779263
0.552850 0.783658 0.766659
0.718227 0.788327 0.728725
0.910430 0.816678 0.754086
0.989105 0.822049 0.789303
0.000000 0.922332 0.861021
0.000000 0.923400 0.863005
0.154421 0.923461 0.864622
0.432715 0.921111 0.863767
0.601556 0.916838 0.857511
0.723232 0.904234 0.833158
0.865812 0.913237 0.809262
0.974762 0.905119 0.822599
0.207736 1.000000 0.909514
0.212375 1.000000 0.908843
0.366064 0.999115 0.908934
0.525811 0.993896 0.909819
0.674434 0.985473 0.912566
0.812406 0.974029 0.927245
0.861570 0.968261 0.908568
0.939574 0.968200 0.897795
0.000000 0.090394 0.615351
0.000000 0.085054 0.623529
0.147311 0.017945 0.650446
0.415259 0.000000 0.697932
0.578820 0.000000 0.688533
0.710323 0.208804 0.659358
0.867979 0.436042 0.730434
0.973205 0.651423 0.833127
0.000000 0.119722 0.619898
0.000000 0.117494 0.627497
0.126802 0.099123 0.654231
0.407721 0.000000 0.700862
0.583581 0.000000 0.699367
0.709041 0.246983 0.665003
0.866819 0.457679 0.736782
0.972076 0.662196 0.837034
0.000000 0.195804 0.632502
0.000000 0.198856 0.640040
0.000000 0.206088 0.666255
0.379126 0.213291 0.712612
0.592096 0.232547 0.730526
0.709194 0.357488 0.690120
0.865660 0.530297 0.762264
0.969238 0.701106 0.852232
0.000000 0.311925 0.625177
0.000000 0.312230 0.626123
0.000000 0.324712 0.655421
0.299596 0.370550 0.720455
0.596551 0.436408 0.776944
0.709773 0.505119 0.735195
0.866911 0.632593 0.803189
0.965423 0.761257 0.876829
0.000000 0.494972 0.709071
0.000000 0.497719 0.710750
0.000000 0.506462 0.715816
0.167666 0.518547 0.722377
0.509178 0.577661 0.773617
0.704311 0.645411 0.783688
0.869169 0.735927 0.846342
0.960327 0.828855 0.905913
0.000000 0.690547 0.792264
0.000000 0.694545 0.794644
0.000000 0.705715 0.800443
0.238621 0.723629 0.809689
0.506523 0.747127 0.821866
0.705837 0.778531 0.839658
0.884031 0.824826 0.874815
0.967376 0.854643 0.898161
0.000000 0.894347 0.892058
0.000000 0.896574 0.893675
0.000000 0.901701 0.897948
0.384283 0.908934 0.905516
0.616785 0.919097 0.917113
0.752529 0.914916 0.910063
0.864500 0.911833 0.886564
0.965667 0.911131 0.902831
0.091951 1.000000 0.943786
0.160922 1.000000 0.943786
0.366369 0.997345 0.945006
0.545190 0.992615 0.947204
0.680751 0.985290 0.945403
0.802152 0.976349 0.946532
0.879240 0.968109 0.945769
0.941161 0.967193 0.935576
0.000000 0.122103 0.806149
0.000000 0.110018 0.812863
0.228672 0.070954 0.828214
0.456825 0.000000 0.853635
0.669062 0.000000 0.881407
0.756771 0.133669 0.834348
0.861662 0.408728 0.817685
0.960815 0.639307 0.871031
0.000000 0.144381 0.803006
0.000000 0.141573 0.809018
0.205600 0.125612 0.824582
0.442725 0.084657 0.849363
0.662348 0.074586 0.879973
0.752743 0.180972 0.834989
0.854765 0.418341 0.814664
0.957336 0.637995 0.868284
0.000000 0.231296 0.810880
0.000000 0.232334 0.814786
0.112093 0.234867 0.828183
0.412055 0.242466 0.852873
0.645624 0.277043 0.884276
0.764309 0.321447 0.859709
0.854917 0.495399 0.832059
0.957519 0.682033 0.881987
0.000000 0.343359 0.797604
0.000000 0.342748 0.803098
0.000000 0.346471 0.825101
0.333623 0.384070 0.853330
0.604486 0.439948 0.886687
0.777249 0.492836 0.892271
0.855467 0.600641 0.858518
0.956176 0.741360 0.899718
0.000000 0.502678 0.821988
0.000000 0.500359 0.820249
0.000000 0.493324 0.816220
0.000000 0.487526 0.821561
0.503349 0.557153 0.873594
0.764218 0.645197 0.910033
0.848081 0.695857 0.879881
0.952575 0.805478 0.918975
0.000000 0.686030 0.877531
0.000000 0.686854 0.877684
0.000000 0.689204 0.877867
0.084138 0.691951 0.877775
0.402686 0.690669 0.873838
0.683986 0.746181 0.905638
0.851835 0.808255 0.912993
0.950256 0.879942 0.945373
0.000000 0.849363 0.922545
0.000000 0.851347 0.923430
0.000000 0.855528 0.924804
0.285435 0.862760 0.927276
0.514336 0.871122 0.929808
0.699428 0.883452 0.934447
0.857389 0.902373 0.942901
0.952514 0.928374 0.960327
0.000000 0.980926 0.963867
0.000000 0.981781 0.964538
0.171542 0.985779 0.967864
0.437446 0.987854 0.970672
0.635950 0.982849 0.970703
0.809110 0.975311 0.973175
0.899474 0.968566 0.973602
0.943969 0.966033 0.967071
0.144900 0.246067 0.948791
0.218387 0.242435 0.950683
0.366064 0.222263 0.954528
0.537285 0.190219 0.962676
0.709285 0.212833 0.971771
0.849149 0.278721 0.972869
0.905486 0.384649 0.935851
0.960967 0.617517 0.919005
0.139895 0.244663 0.947967
0.214023 0.241093 0.949889
0.361608 0.223697 0.954040
0.526909 0.223941 0.961089
0.701686 0.248356 0.970397
0.845518 0.309331 0.972381
0.902098 0.399207 0.935607
0.958984 0.621912 0.918791
0.000000 0.305058 0.947234
0.114290 0.306096 0.948608
0.309758 0.306767 0.951690
0.499245 0.321935 0.960723
0.682124 0.352758 0.969482
0.838560 0.410071 0.973846
0.899260 0.466377 0.941009
0.956390 0.653925 0.923186
0.000000 0.394018 0.944030
0.000000 0.395178 0.946502
0.158785 0.413886 0.950439
0.430854 0.434394 0.958251
0.641871 0.473915 0.967620
0.826230 0.543603 0.976776
0.904814 0.574121 0.955749
0.953674 0.708736 0.932006
0.000000 0.539727 0.934905
0.000000 0.536492 0.934722
0.000000 0.527092 0.938750
0.198978 0.520165 0.950561
0.551720 0.574029 0.961761
0.775479 0.640558 0.972717
0.907897 0.682185 0.971008
0.949615 0.775479 0.943450
0.000000 0.708553 0.957763
0.000000 0.706172 0.956939
0.000000 0.698238 0.954589
0.000000 0.682246 0.950805
0.327306 0.655085 0.946105
0.683711 0.723751 0.967041
0.894469 0.807980 0.978637
0.946929 0.855406 0.959960
0.000000 0.849943 0.974914
0.000000 0.849485 0.974609
0.000000 0.848234 0.973693
0.256565 0.847440 0.972717
0.447822 0.845029 0.970855
0.602258 0.837034 0.967254
0.833219 0.872557 0.975280
0.942260 0.919554 0.974060
0.162509 0.946777 0.986053
0.160220 0.947112 0.985962
0.245548 0.948241 0.985901
0.422492 0.949767 0.986114
0.577752 0.950988 0.985718
0.727596 0.952880 0.984894
0.861967 0.956939 0.984253
0.943023 0.962768 0.985473
