其他预设/【233】日式怀旧街道调色预设208款/1.3D LUT预设（视频调色-PR-AE-PS-FCPX-达芬奇用）/1.日式城市街拍预设/JA – Harsh Shade 2.cube
# Created by Adobe Lightroom plugin Export LUT (1.17.0)
# www.johnrellis.com/lightroom/exportlut.htm
# Preset: JA – Harsh Shade 2
# Color profile: /Library/Application Support/Adobe/Color/Profiles/Recommended/AdobeRGB1998.icc
LUT_3D_SIZE 8
DOMAIN_MIN 0.000000 0.000000 0.000000
DOMAIN_MAX 0.903226 0.903226 0.903226
0.034760 0.039002 0.057343
0.048707 0.034363 0.054902
0.219059 0.002625 0.031800
0.458869 0.000000 0.000000
0.601404 0.001923 0.100496
0.758602 0.208682 0.237827
0.879240 0.348180 0.353887
0.968597 0.457221 0.476478
0.032471 0.047456 0.056062
0.055268 0.054963 0.053315
0.243137 0.104891 0.009247
0.466743 0.122103 0.000000
0.605066 0.137057 0.106172
0.753048 0.237980 0.235416
0.873136 0.358618 0.348455
0.965148 0.462196 0.471687
0.000000 0.184054 0.046906
0.078981 0.196719 0.000000
0.280644 0.263401 0.000000
0.521263 0.308721 0.000000
0.658320 0.311559 0.168856
0.788815 0.366949 0.276371
0.898405 0.442817 0.389288
0.974975 0.514763 0.497200
0.000000 0.415930 0.066133
0.000000 0.421363 0.000000
0.270298 0.432532 0.000000
0.531243 0.505303 0.115328
0.731441 0.532860 0.266392
0.844388 0.536950 0.357519
0.919890 0.549096 0.436378
0.979065 0.582666 0.520592
0.000000 0.556512 0.131472
0.000000 0.560784 0.102876
0.242649 0.569329 0.130587
0.460456 0.602747 0.193179
0.705348 0.675074 0.297856
0.849577 0.675502 0.407599
0.935332 0.668177 0.490364
0.981964 0.669886 0.557061
0.000000 0.687160 0.216617
0.000000 0.697200 0.227726
0.278233 0.704555 0.243320
0.448951 0.717433 0.269718
0.641413 0.757626 0.343236
0.840696 0.805936 0.444770
0.932036 0.782620 0.539605
0.980468 0.767880 0.609735
0.162753 0.823880 0.327031
0.217685 0.826719 0.334142
0.331884 0.828733 0.345464
0.466011 0.833951 0.366674
0.604730 0.839506 0.394812
0.773587 0.868070 0.478309
0.922148 0.886687 0.572412
0.970214 0.852171 0.648981
0.303655 0.937194 0.453559
0.329137 0.937102 0.456641
0.405707 0.937469 0.468421
0.510948 0.938872 0.488136
0.616876 0.932219 0.498573
0.744350 0.934325 0.545129
0.870848 0.937102 0.623194
0.966705 0.935363 0.691341
0.031525 0.038972 0.064485
0.044465 0.033356 0.064088
0.189700 0.000000 0.087922
0.433448 0.000000 0.101869
0.577539 0.005524 0.174044
0.724147 0.218082 0.265415
0.855894 0.342901 0.363226
0.956725 0.448768 0.476997
0.025879 0.052827 0.067994
0.053285 0.058564 0.072023
0.217166 0.062318 0.082826
0.448249 0.067109 0.108370
0.587335 0.141970 0.184848
0.727779 0.251743 0.269627
0.853147 0.356359 0.361761
0.953124 0.453712 0.472053
0.000000 0.178439 0.119203
0.000000 0.203189 0.087190
0.272496 0.257908 0.080140
0.499855 0.294011 0.155550
0.631128 0.312139 0.229892
0.762051 0.366949 0.304509
0.874632 0.431952 0.393622
0.962768 0.504326 0.494728
0.000000 0.406561 0.168765
0.000000 0.417914 0.115114
0.253025 0.432624 0.096895
0.508232 0.486671 0.190951
0.691798 0.509972 0.297978
0.811887 0.520256 0.370001
0.898955 0.536797 0.438544
0.968750 0.574029 0.519493
0.000000 0.551934 0.192660
0.000000 0.555505 0.179873
0.237095 0.563226 0.189700
0.446876 0.586786 0.232273
0.682277 0.655879 0.325414
0.833738 0.666041 0.425422
0.926116 0.665217 0.504234
0.975860 0.667811 0.563958
0.000000 0.676875 0.244602
0.000000 0.680507 0.249912
0.272496 0.689601 0.267308
0.441199 0.705257 0.293553
0.631556 0.748135 0.363806
0.834104 0.801785 0.464759
0.927214 0.781857 0.555535
0.976623 0.768490 0.620294
0.142763 0.811917 0.337621
0.198703 0.811887 0.340978
0.319951 0.816373 0.354681
0.457496 0.824979 0.377844
0.598596 0.833738 0.407477
0.767361 0.862913 0.487770
0.916503 0.882567 0.579767
0.966491 0.849882 0.652949
0.289128 0.931914 0.457374
0.316777 0.932647 0.461341
0.397681 0.933776 0.474556
0.505516 0.935851 0.494911
0.622431 0.935637 0.519524
0.745663 0.935058 0.559533
0.869688 0.936156 0.632380
0.964691 0.934356 0.697688
0.000000 0.030671 0.221378
0.023743 0.000000 0.218357
0.182895 0.000000 0.215518
0.400458 0.000000 0.254307
0.544976 0.088533 0.278325
0.686397 0.272343 0.351324
0.837797 0.364904 0.431495
0.950805 0.464912 0.525933
0.000000 0.102113 0.238743
0.000000 0.053590 0.243626
0.199893 0.000000 0.231052
0.409308 0.000000 0.255070
0.546471 0.185855 0.292210
0.691310 0.297917 0.357427
0.837613 0.379309 0.432868
0.949554 0.473030 0.525414
0.000000 0.219913 0.248203
0.000000 0.230747 0.256870
0.240330 0.249668 0.270665
0.447211 0.290684 0.301518
0.589258 0.344579 0.347265
0.730556 0.391821 0.397223
0.856565 0.444953 0.459327
0.954162 0.516991 0.540581
0.000000 0.405341 0.281865
0.000000 0.416999 0.278294
0.235721 0.443061 0.285039
0.492226 0.484840 0.347021
0.674495 0.525505 0.434668
0.789090 0.530510 0.463600
0.886595 0.550195 0.507561
0.961883 0.592096 0.572168
0.000000 0.545892 0.288914
0.000000 0.551110 0.289494
0.261479 0.564569 0.318456
0.444984 0.581964 0.348699
0.674739 0.658747 0.439002
0.825193 0.674342 0.517052
0.913298 0.677913 0.573388
0.967590 0.684901 0.616480
0.000000 0.671260 0.324193
0.000000 0.674983 0.333471
0.283909 0.686275 0.361303
0.440528 0.702174 0.384405
0.617121 0.738643 0.435676
0.822049 0.797330 0.532952
0.918090 0.788296 0.617182
0.969635 0.784970 0.675441
0.126528 0.811002 0.407538
0.190402 0.811612 0.411810
0.312963 0.815610 0.422034
0.449592 0.823423 0.438666
0.592096 0.831937 0.463783
0.762142 0.860655 0.539879
0.912322 0.884794 0.639582
0.962676 0.859556 0.702327
0.266667 0.930999 0.495979
0.291783 0.930571 0.496040
0.378180 0.931121 0.506188
0.501518 0.934752 0.534630
0.620661 0.934325 0.558038
0.743618 0.933776 0.594202
0.869688 0.935973 0.669612
0.961547 0.935454 0.732357
0.000000 0.000000 0.404761
0.000000 0.000000 0.405585
0.228428 0.000000 0.397040
0.392859 0.000000 0.384588
0.507927 0.000000 0.357580
0.639887 0.231968 0.404517
0.792386 0.337499 0.476814
0.927153 0.450416 0.562463
0.000000 0.117403 0.422919
0.000000 0.033265 0.424109
0.216648 0.000000 0.412085
0.401434 0.000000 0.394598
0.513268 0.113832 0.366583
0.641566 0.269993 0.414313
0.792081 0.355413 0.479835
0.928069 0.461891 0.564904
0.000000 0.275273 0.431373
0.000000 0.261631 0.437110
0.144900 0.220432 0.445106
0.418524 0.260136 0.422278
0.529717 0.315953 0.412879
0.664271 0.375341 0.458167
0.818357 0.432166 0.514672
0.940032 0.522026 0.592645
0.000000 0.423590 0.431220
0.000000 0.428626 0.436744
0.164492 0.442023 0.451942
0.443702 0.459297 0.470558
0.580194 0.480842 0.495827
0.724025 0.504967 0.523674
0.850614 0.541680 0.564141
0.947265 0.601923 0.625849
0.000000 0.538994 0.413306
0.000000 0.542290 0.415442
0.226902 0.553613 0.437385
0.435035 0.581720 0.480232
0.646662 0.646540 0.546380
0.804990 0.685084 0.624933
0.890105 0.688258 0.647211
0.954681 0.703487 0.677790
0.000000 0.666224 0.440223
0.000000 0.673915 0.451698
0.261265 0.683162 0.471931
0.426001 0.706722 0.495094
0.594171 0.729915 0.523766
0.810025 0.797452 0.630579
0.907134 0.803433 0.703731
0.959899 0.804685 0.739162
0.000000 0.804837 0.498116
0.134890 0.807156 0.502281
0.286259 0.814145 0.511864
0.430121 0.826810 0.523522
0.586725 0.836881 0.550469
0.755795 0.859251 0.614954
0.905241 0.886748 0.712306
0.956115 0.869444 0.758083
0.238102 0.932067 0.564111
0.267796 0.932769 0.565057
0.349279 0.933776 0.566339
0.480751 0.934569 0.585718
0.617823 0.933471 0.617243
0.740566 0.932341 0.647028
0.868009 0.935393 0.717128
0.956664 0.936675 0.778164
0.000000 0.000000 0.547204
0.000000 0.000000 0.547021
0.155123 0.000000 0.541039
0.357153 0.000000 0.528466
0.507652 0.000000 0.514122
0.593774 0.158053 0.474067
0.758267 0.297581 0.541497
0.915099 0.423163 0.615625
0.000000 0.087098 0.557397
0.000000 0.024170 0.557946
0.118502 0.000000 0.550774
0.357794 0.013581 0.534936
0.510033 0.124453 0.518883
0.594903 0.204776 0.479225
0.761257 0.318975 0.545922
0.915648 0.436622 0.617792
0.000000 0.259007 0.569238
0.000000 0.241581 0.571771
0.000000 0.210849 0.571923
0.371344 0.265965 0.556756
0.516777 0.297185 0.533959
0.603906 0.317021 0.502678
0.768246 0.380499 0.557122
0.915251 0.479561 0.623682
0.000000 0.407477 0.572747
0.000000 0.405066 0.576165
0.000000 0.409918 0.585870
0.387488 0.433478 0.593133
0.537652 0.444160 0.566796
0.639612 0.445411 0.551629
0.790372 0.481727 0.585962
0.921172 0.567956 0.651148
0.000000 0.547417 0.569116
0.000000 0.550134 0.572015
0.111177 0.558007 0.579736
0.387091 0.572992 0.594446
0.572564 0.593500 0.614282
0.715297 0.615442 0.636591
0.839475 0.645960 0.666865
0.936004 0.689326 0.708827
0.000000 0.648402 0.550500
0.000000 0.649531 0.552880
0.187045 0.651606 0.559991
0.376287 0.673030 0.580316
0.549340 0.708675 0.606897
0.776761 0.778286 0.700679
0.891905 0.811124 0.770779
0.947204 0.807065 0.778286
0.000000 0.791012 0.590723
0.000000 0.791806 0.592065
0.220890 0.796872 0.597070
0.377874 0.809628 0.603388
0.550500 0.827268 0.623896
0.725368 0.843412 0.668971
0.893797 0.884581 0.771664
0.948089 0.877256 0.809354
0.150546 0.923400 0.635706
0.191806 0.923583 0.635462
0.290654 0.924834 0.634485
0.424384 0.931304 0.641230
0.588067 0.930907 0.668513
0.731319 0.929717 0.704128
0.859831 0.932769 0.759152
0.950195 0.936675 0.821286
0.000000 0.000000 0.682338
0.000000 0.000000 0.681361
0.000000 0.000000 0.674891
0.319158 0.000000 0.666682
0.494667 0.170657 0.651637
0.614771 0.201389 0.628962
0.731685 0.259983 0.624262
0.902281 0.388464 0.684077
0.000000 0.058167 0.683955
0.000000 0.020661 0.682429
0.000000 0.000000 0.676844
0.315923 0.081941 0.668391
0.494942 0.215976 0.651392
0.613916 0.235416 0.629175
0.729854 0.277928 0.623346
0.901488 0.398322 0.683436
0.000000 0.247532 0.696590
0.000000 0.230411 0.697261
0.000000 0.215518 0.697841
0.327031 0.265446 0.686702
0.507988 0.325048 0.666102
0.622675 0.328740 0.641138
0.733608 0.336126 0.628321
0.905303 0.442695 0.688258
0.000000 0.403174 0.708125
0.000000 0.398840 0.709163
0.000000 0.401801 0.715114
0.331212 0.420386 0.717037
0.526085 0.441413 0.698207
0.646418 0.437476 0.668635
0.749355 0.420478 0.642023
0.914000 0.526146 0.703456
0.000000 0.544945 0.703517
0.000000 0.545892 0.705348
0.000000 0.552819 0.711208
0.306310 0.562127 0.721004
0.511192 0.560327 0.727382
0.667231 0.558068 0.695003
0.774044 0.547478 0.670405
0.915618 0.633845 0.726284
0.000000 0.673426 0.694118
0.000000 0.676478 0.696895
0.000000 0.681697 0.701503
0.311040 0.690974 0.709773
0.497658 0.704677 0.721950
0.712551 0.731868 0.746822
0.836973 0.755428 0.769558
0.930755 0.782925 0.796170
0.000000 0.794339 0.697597
0.000000 0.795865 0.699184
0.077272 0.797086 0.700160
0.314214 0.800534 0.700374
0.489540 0.813413 0.707759
0.698360 0.834440 0.744686
0.881071 0.881987 0.830045
0.942046 0.889952 0.863951
0.000000 0.919371 0.721950
0.000000 0.919432 0.721431
0.205966 0.920714 0.719997
0.355749 0.924987 0.719722
0.520592 0.927611 0.725978
0.704952 0.927276 0.759731
0.844266 0.929320 0.801022
0.944274 0.937896 0.867430
0.000000 0.000000 0.808225
0.000000 0.000000 0.808133
0.000000 0.000000 0.805875
0.281529 0.066529 0.800900
0.490639 0.213779 0.789242
0.635798 0.284886 0.773281
0.750027 0.282933 0.753994
0.889982 0.367163 0.770016
0.000000 0.063783 0.809201
0.000000 0.052277 0.809140
0.000000 0.052705 0.806790
0.276768 0.137331 0.800351
0.489235 0.242588 0.788449
0.634180 0.303441 0.772244
0.747524 0.297704 0.752255
0.886778 0.372168 0.766964
0.000000 0.235752 0.817960
0.000000 0.221286 0.818357
0.000000 0.224613 0.815763
0.275578 0.272526 0.808103
0.491341 0.326513 0.795468
0.638056 0.366369 0.778836
0.753048 0.352331 0.758755
0.891356 0.409949 0.770321
0.000000 0.391577 0.825742
0.000000 0.386145 0.825315
0.000000 0.384100 0.824857
0.250736 0.402045 0.821714
0.484535 0.424323 0.809415
0.643397 0.450965 0.792203
0.762631 0.429786 0.770077
0.896361 0.469612 0.773465
0.000000 0.534691 0.823941
0.000000 0.533257 0.824186
0.000000 0.534020 0.825620
0.170565 0.533776 0.829374
0.442908 0.528099 0.827115
0.640528 0.546166 0.808316
0.770504 0.530907 0.781704
0.898924 0.549767 0.774777
0.000000 0.675074 0.820737
0.000000 0.675563 0.821286
0.000000 0.677607 0.823331
0.141726 0.678523 0.827634
0.406653 0.674769 0.834043
0.644862 0.688746 0.836332
0.788907 0.681819 0.806485
0.908385 0.697505 0.802884
0.000000 0.804562 0.817075
0.000000 0.805417 0.817807
0.000000 0.807218 0.819303
0.174563 0.810666 0.822202
0.412482 0.815152 0.826078
0.635370 0.823026 0.832883
0.831083 0.845151 0.853727
0.924529 0.862608 0.871031
0.000000 0.922759 0.819791
0.000000 0.922942 0.819669
0.000000 0.925017 0.820188
0.239536 0.926482 0.818540
0.441779 0.925689 0.816464
0.640864 0.924529 0.824094
0.824216 0.926268 0.855131
0.939330 0.939757 0.909483
0.000000 0.058778 0.926238
0.000000 0.065095 0.926146
0.000000 0.111055 0.924163
0.264958 0.208194 0.920592
0.493965 0.303807 0.914549
0.654871 0.374487 0.906706
0.785183 0.402319 0.899809
0.903258 0.402899 0.889708
0.000000 0.110170 0.926482
0.000000 0.117311 0.926299
0.000000 0.155398 0.924376
0.261448 0.236820 0.920409
0.491402 0.319524 0.914427
0.652857 0.383948 0.906554
0.783658 0.411078 0.899168
0.902159 0.410254 0.888975
0.000000 0.227726 0.928832
0.000000 0.227512 0.928679
0.000000 0.260990 0.926116
0.246799 0.315953 0.922850
0.483131 0.370001 0.916777
0.647761 0.418647 0.908598
0.782406 0.447028 0.900572
0.902586 0.443183 0.890471
0.000000 0.366979 0.930632
0.000000 0.362158 0.930999
0.000000 0.369055 0.930297
0.175326 0.406592 0.927367
0.457710 0.438697 0.921752
0.637385 0.475746 0.913725
0.781582 0.510063 0.904479
0.904631 0.501366 0.894377
0.000000 0.510643 0.931121
0.000000 0.507073 0.931640
0.000000 0.500633 0.932067
0.000000 0.495888 0.931853
0.391424 0.517876 0.928435
0.614527 0.550500 0.919829
0.779629 0.596185 0.908659
0.906126 0.585382 0.899382
0.000000 0.650721 0.930541
0.000000 0.649073 0.930510
0.000000 0.646448 0.930388
0.000000 0.643122 0.930724
0.279454 0.631312 0.932250
0.587457 0.659785 0.928801
0.779477 0.697169 0.918059
0.909361 0.695155 0.907805
0.000000 0.792355 0.928222
0.000000 0.792142 0.928191
0.000000 0.791165 0.928283
0.000000 0.788876 0.929168
0.264042 0.783932 0.930877
0.545312 0.787015 0.932067
0.779812 0.813382 0.929686
0.909789 0.813352 0.915587
0.000000 0.921233 0.926787
0.000000 0.921233 0.926818
0.000000 0.921843 0.927214
0.000000 0.923125 0.928191
0.333318 0.924163 0.928893
0.576989 0.924804 0.929137
0.775784 0.925658 0.929778
0.925200 0.932525 0.936584
