其他预设/【233】日式怀旧街道调色预设208款/1.3D LUT预设（视频调色-PR-AE-PS-FCPX-达芬奇用）/1.日式城市街拍预设/JA – Faded Soft 3.cube
# Created by Adobe Lightroom plugin Export LUT (1.17.0)
# www.johnrellis.com/lightroom/exportlut.htm
# Preset: JA – Faded Soft 3
# Color profile: /Library/Application Support/Adobe/Color/Profiles/Recommended/AdobeRGB1998.icc
LUT_3D_SIZE 8
DOMAIN_MIN 0.000000 0.000000 0.000000
DOMAIN_MAX 0.903226 0.903226 0.903226
0.065095 0.069032 0.076661
0.125734 0.059937 0.080140
0.287633 0.000000 0.090486
0.490272 0.007691 0.077913
0.730007 0.110262 0.000000
0.857511 0.172061 0.000000
0.934905 0.208682 0.000000
0.998840 0.243412 0.118685
0.061921 0.118379 0.081453
0.128237 0.125032 0.080354
0.292607 0.126314 0.077760
0.491249 0.152621 0.054994
0.727291 0.194614 0.000000
0.852293 0.222568 0.000000
0.931121 0.241917 0.000000
0.996765 0.265049 0.106294
0.016724 0.267338 0.088746
0.151583 0.271183 0.074434
0.298833 0.280888 0.075074
0.510979 0.316777 0.000000
0.737179 0.351019 0.000000
0.854337 0.346502 0.000000
0.934325 0.340948 0.000000
0.998840 0.343542 0.114321
0.079866 0.455146 0.102602
0.185275 0.455116 0.084169
0.353796 0.461006 0.000000
0.550164 0.506004 0.000000
0.763455 0.530968 0.000000
0.859434 0.487129 0.000000
0.933043 0.459083 0.000000
0.996551 0.443275 0.119112
0.109407 0.688228 0.131106
0.219059 0.685969 0.112947
0.404974 0.678920 0.000000
0.586633 0.684199 0.000000
0.757382 0.690486 0.000000
0.859800 0.637568 0.000000
0.928985 0.584039 0.000000
0.993072 0.551690 0.126192
0.195285 0.806302 0.218906
0.260136 0.806729 0.211368
0.403082 0.799374 0.167971
0.567926 0.785885 0.060517
0.715969 0.785550 0.085145
0.855436 0.780850 0.134768
0.929107 0.720516 0.085206
0.991028 0.672602 0.170871
0.317693 0.879606 0.343328
0.344427 0.878935 0.335058
0.424659 0.874357 0.299016
0.546197 0.866026 0.231968
0.680476 0.857328 0.188540
0.807462 0.853635 0.223301
0.922850 0.846677 0.273259
0.985077 0.793027 0.251194
0.501488 0.932464 0.519738
0.507164 0.932433 0.511406
0.530816 0.932372 0.480903
0.584649 0.931762 0.423377
0.671046 0.925200 0.317845
0.783383 0.921630 0.337682
0.890043 0.917357 0.397559
0.977417 0.909239 0.472908
0.065919 0.070985 0.137881
0.108278 0.068482 0.130098
0.276310 0.054078 0.122683
0.476844 0.106416 0.105806
0.720027 0.161379 0.000000
0.848203 0.203769 0.000000
0.928832 0.224796 0.000000
0.994751 0.247349 0.108461
0.037598 0.107820 0.141176
0.119173 0.126314 0.139742
0.283574 0.140505 0.128115
0.482368 0.171603 0.100801
0.720485 0.218112 0.000000
0.845884 0.244816 0.000000
0.925963 0.255375 0.000000
0.992462 0.268986 0.098451
0.015229 0.263279 0.177493
0.133333 0.271916 0.156832
0.294530 0.281010 0.143557
0.500389 0.311131 0.096498
0.727474 0.349248 0.000000
0.846891 0.349950 0.000000
0.927062 0.344671 0.000000
0.993835 0.343847 0.104036
0.001923 0.452003 0.206210
0.152346 0.455695 0.178714
0.342626 0.459937 0.136995
0.532586 0.493202 0.128542
0.745724 0.516045 0.000000
0.848112 0.479561 0.000000
0.925597 0.456703 0.000000
0.991821 0.441566 0.107881
0.000000 0.690242 0.210178
0.172915 0.687251 0.198245
0.384741 0.678462 0.151247
0.574395 0.677699 0.104494
0.747768 0.683589 0.112795
0.852964 0.632074 0.011292
0.924559 0.580804 0.000000
0.990326 0.550042 0.118929
0.168154 0.804929 0.272313
0.236881 0.803159 0.262913
0.386969 0.796139 0.226261
0.557733 0.782650 0.154513
0.710109 0.782956 0.165133
0.852140 0.779477 0.198611
0.926085 0.719081 0.162844
0.989349 0.670588 0.165835
0.325017 0.876158 0.383520
0.346410 0.874815 0.372534
0.421759 0.871000 0.338445
0.540276 0.863828 0.276585
0.676143 0.855344 0.232578
0.803769 0.851652 0.262730
0.918578 0.844419 0.307103
0.981964 0.791012 0.269444
0.519646 0.928893 0.548913
0.524956 0.929107 0.541741
0.545342 0.929351 0.514122
0.592218 0.929412 0.459815
0.674342 0.926574 0.364813
0.784390 0.921752 0.375494
0.888731 0.916625 0.428138
0.975128 0.908476 0.489174
0.070802 0.074159 0.309819
0.113527 0.071321 0.302007
0.238682 0.096895 0.276677
0.429969 0.108309 0.293706
0.711086 0.000000 0.266697
0.843442 0.165011 0.252323
0.926116 0.225254 0.229038
0.994720 0.257145 0.199680
0.000000 0.093812 0.318791
0.126589 0.134401 0.310369
0.247440 0.156161 0.285588
0.444465 0.159609 0.295598
0.712428 0.135653 0.268315
0.842100 0.212039 0.248936
0.924620 0.252354 0.224338
0.993774 0.276341 0.193942
0.000000 0.257725 0.321538
0.109987 0.264744 0.320500
0.272557 0.285313 0.310979
0.491676 0.295567 0.292973
0.727962 0.318273 0.266758
0.845274 0.330419 0.244633
0.924681 0.338781 0.223697
0.992920 0.345342 0.198611
0.000000 0.459449 0.386969
0.126589 0.466468 0.381079
0.287602 0.482765 0.323949
0.530724 0.502678 0.305791
0.740108 0.500908 0.266972
0.846006 0.472145 0.249851
0.923522 0.454261 0.235477
0.991394 0.443244 0.216617
0.000000 0.696345 0.433722
0.096712 0.697475 0.417334
0.311559 0.696193 0.344091
0.552422 0.684535 0.293980
0.744656 0.688930 0.307134
0.847654 0.629023 0.275639
0.920226 0.578119 0.253056
0.988342 0.551598 0.241611
0.198489 0.806851 0.445197
0.254002 0.805783 0.438422
0.371496 0.800839 0.400427
0.532280 0.788663 0.335119
0.698177 0.782437 0.322759
0.843168 0.779202 0.354650
0.918761 0.719905 0.319646
0.985260 0.673762 0.298894
0.410773 0.872557 0.525505
0.439399 0.870481 0.529015
0.475319 0.868101 0.497749
0.549157 0.863279 0.434882
0.670008 0.853788 0.364294
0.798611 0.851011 0.395514
0.910674 0.846281 0.443732
0.976715 0.798306 0.399847
0.597040 0.921172 0.645930
0.598322 0.921233 0.639551
0.608057 0.921782 0.618677
0.637873 0.923400 0.581109
0.689845 0.923217 0.501396
0.788144 0.919829 0.484291
0.887022 0.915770 0.529564
0.967468 0.909789 0.576867
0.090150 0.003143 0.536309
0.154208 0.018219 0.528252
0.276432 0.095644 0.490394
0.400214 0.144350 0.445533
0.615412 0.145235 0.470344
0.811948 0.138979 0.449226
0.904997 0.302770 0.450568
0.977020 0.341100 0.431922
0.000000 0.102480 0.553429
0.154818 0.141085 0.543175
0.286564 0.163699 0.503868
0.410193 0.188998 0.454994
0.629419 0.185702 0.475288
0.814298 0.199313 0.449378
0.904509 0.322362 0.449317
0.977417 0.349157 0.425940
0.000000 0.248875 0.573724
0.000000 0.244388 0.571954
0.296574 0.298863 0.541558
0.440375 0.303288 0.482643
0.675105 0.308232 0.487465
0.823087 0.372259 0.477974
0.908293 0.398352 0.458259
0.980682 0.396857 0.422797
0.000000 0.477790 0.575158
0.000000 0.480446 0.572747
0.267552 0.489143 0.561639
0.494453 0.503227 0.528557
0.714290 0.501457 0.503380
0.826932 0.494453 0.478157
0.908385 0.485084 0.451484
0.980529 0.474037 0.420813
0.000000 0.707942 0.629786
0.151553 0.707729 0.624353
0.348547 0.706142 0.604273
0.528618 0.697475 0.554528
0.724392 0.693202 0.537987
0.828183 0.639460 0.498207
0.905730 0.602564 0.468757
0.976806 0.580285 0.443977
0.288060 0.810025 0.619532
0.342504 0.809751 0.620691
0.463172 0.802335 0.616815
0.577356 0.792050 0.596002
0.692226 0.782803 0.535943
0.824918 0.782742 0.567681
0.901183 0.736843 0.527459
0.971710 0.695857 0.488228
0.482979 0.869078 0.650172
0.509026 0.867460 0.653498
0.578302 0.862181 0.661524
0.634607 0.857511 0.645563
0.689052 0.852720 0.576196
0.797757 0.849699 0.577996
0.894591 0.848631 0.611261
0.961486 0.815427 0.573144
0.632227 0.918883 0.714992
0.642298 0.918334 0.716121
0.670222 0.916625 0.716396
0.694575 0.916625 0.698329
0.729946 0.916808 0.658167
0.798550 0.915801 0.616876
0.884947 0.914275 0.642542
0.957519 0.911284 0.668299
0.156252 0.000000 0.739284
0.213901 0.031678 0.735714
0.337041 0.097505 0.719326
0.461830 0.140444 0.683284
0.612665 0.154543 0.644984
0.749233 0.247654 0.610803
0.867369 0.370611 0.604273
0.940368 0.526909 0.644678
0.130282 0.118227 0.744106
0.215854 0.158907 0.740536
0.340551 0.176516 0.724636
0.466468 0.192996 0.688716
0.617975 0.201724 0.649378
0.750515 0.286259 0.612787
0.867430 0.402258 0.610193
0.939605 0.544640 0.650721
0.000000 0.216129 0.758724
0.069886 0.245579 0.754574
0.345220 0.323735 0.736904
0.483589 0.328679 0.705043
0.634089 0.330724 0.662074
0.758175 0.398932 0.623713
0.866056 0.495857 0.631708
0.937530 0.593347 0.666529
0.000000 0.435859 0.755947
0.000000 0.437690 0.754849
0.267704 0.452369 0.750423
0.551263 0.545525 0.724849
0.660822 0.529351 0.681086
0.774350 0.567315 0.660578
0.866972 0.616480 0.671412
0.943725 0.620508 0.658564
0.000000 0.645655 0.747890
0.138277 0.649470 0.746761
0.376471 0.663935 0.740719
0.577752 0.685695 0.727749
0.690272 0.689815 0.702144
0.793668 0.683467 0.686305
0.874296 0.674434 0.668116
0.949828 0.661952 0.645228
0.363439 0.808164 0.756802
0.415137 0.805783 0.755306
0.543938 0.797238 0.751278
0.642481 0.789639 0.742061
0.702296 0.780575 0.710292
0.802518 0.782132 0.703944
0.877195 0.759609 0.681514
0.949493 0.740719 0.659266
0.568933 0.863401 0.760372
0.585412 0.862089 0.760555
0.631678 0.858640 0.760250
0.684565 0.854887 0.754910
0.726192 0.850401 0.729915
0.793301 0.845335 0.696132
0.879698 0.849088 0.713741
0.945983 0.829770 0.690852
0.663111 0.914336 0.781918
0.670649 0.913878 0.781857
0.694118 0.912688 0.780972
0.729000 0.912749 0.777920
0.756954 0.912840 0.756405
0.801785 0.912627 0.714504
0.879240 0.912535 0.718837
0.947967 0.911559 0.734890
0.228733 0.136843 0.830076
0.267247 0.155642 0.828153
0.359411 0.183291 0.820493
0.474372 0.218479 0.806180
0.587976 0.250370 0.780819
0.739864 0.278630 0.758694
0.832090 0.431373 0.720729
0.910155 0.588617 0.742123
0.222416 0.180331 0.830350
0.273442 0.211795 0.828031
0.365850 0.234806 0.820737
0.478828 0.261082 0.806394
0.590906 0.286290 0.780880
0.740047 0.313878 0.758419
0.830594 0.454932 0.722072
0.909819 0.598444 0.743771
0.172427 0.262547 0.837064
0.241428 0.287419 0.834714
0.405585 0.376318 0.825193
0.512840 0.399664 0.810849
0.613916 0.412390 0.785611
0.745418 0.432624 0.761013
0.827634 0.534264 0.730617
0.910826 0.633265 0.751431
0.000000 0.365515 0.842710
0.000000 0.376654 0.841642
0.398718 0.468208 0.835691
0.615137 0.602747 0.815427
0.674617 0.597375 0.793057
0.755978 0.590875 0.766567
0.826902 0.631342 0.746334
0.915465 0.681239 0.762142
0.204318 0.578698 0.833829
0.281193 0.588556 0.832822
0.458015 0.626978 0.828489
0.621302 0.679744 0.821286
0.726314 0.719203 0.803769
0.766232 0.697475 0.772427
0.839536 0.707881 0.762966
0.922301 0.732570 0.770748
0.413062 0.742397 0.823880
0.456703 0.747585 0.823301
0.563470 0.761532 0.820157
0.662470 0.776211 0.815305
0.734005 0.785336 0.807401
0.786099 0.782254 0.787869
0.859525 0.778073 0.776761
0.933379 0.774075 0.764797
0.593286 0.864500 0.838651
0.611566 0.865202 0.839200
0.660945 0.862089 0.836118
0.721096 0.858793 0.832334
0.767239 0.856413 0.824582
0.797299 0.849821 0.796506
0.868528 0.851133 0.790036
0.935729 0.839902 0.772702
0.701228 0.911101 0.846586
0.707118 0.910826 0.846159
0.725978 0.910307 0.844755
0.753658 0.910491 0.841581
0.783932 0.911070 0.833188
0.812222 0.911894 0.808896
0.870878 0.911528 0.783841
0.939086 0.912627 0.796017
0.299901 0.229679 0.888273
0.329442 0.248203 0.887694
0.398169 0.275547 0.883421
0.494606 0.319188 0.875364
0.598535 0.371923 0.862089
0.692744 0.415351 0.842069
0.817075 0.468605 0.827146
0.891234 0.614679 0.813382
0.296056 0.249760 0.886900
0.337194 0.281376 0.885771
0.408606 0.312261 0.881407
0.501823 0.350561 0.873045
0.602319 0.396887 0.859464
0.692378 0.431220 0.838987
0.813382 0.477119 0.823484
0.887297 0.612848 0.809079
0.285740 0.310491 0.891295
0.332372 0.339178 0.889494
0.473274 0.442969 0.881682
0.558404 0.479927 0.872801
0.640070 0.508293 0.859007
0.713069 0.524010 0.839353
0.816434 0.555505 0.824430
0.889036 0.651179 0.815427
0.243961 0.379767 0.897978
0.308537 0.408087 0.895720
0.477180 0.507744 0.887419
0.655604 0.639551 0.872953
0.703883 0.646448 0.860563
0.748775 0.641779 0.842557
0.821988 0.645563 0.827176
0.890776 0.695399 0.821408
0.296757 0.533379 0.891936
0.348821 0.547326 0.890501
0.489235 0.598474 0.886229
0.640681 0.671962 0.880491
0.746304 0.735195 0.865507
0.774990 0.722744 0.846860
0.824369 0.710811 0.827329
0.890654 0.739254 0.824704
0.472389 0.700832 0.882750
0.504356 0.709041 0.881926
0.587884 0.732540 0.879515
0.672450 0.758358 0.877226
0.744503 0.780087 0.874815
0.811521 0.803738 0.863615
0.836515 0.782742 0.836515
0.905699 0.791196 0.835569
0.601923 0.816098 0.877134
0.617914 0.818875 0.877104
0.660365 0.825986 0.876249
0.714900 0.835996 0.875181
0.768460 0.845792 0.872923
0.816861 0.853727 0.868650
0.853971 0.849241 0.851133
0.923857 0.846067 0.841032
0.683680 0.902342 0.888457
0.691829 0.903197 0.888762
0.720394 0.907317 0.891112
0.757107 0.912322 0.893126
0.800626 0.911589 0.889647
0.839292 0.912352 0.884428
0.865476 0.912566 0.860807
0.929381 0.913481 0.854246
0.381323 0.326574 0.933562
0.408759 0.348699 0.932738
0.461982 0.377661 0.929656
0.546441 0.431830 0.924712
0.640101 0.497383 0.916838
0.724544 0.555962 0.906218
0.795377 0.596429 0.893767
0.880644 0.630243 0.884855
0.377508 0.334874 0.932952
0.416999 0.370397 0.931670
0.478920 0.410285 0.928344
0.559045 0.459236 0.923095
0.648005 0.517967 0.915343
0.727993 0.569635 0.904875
0.794675 0.602808 0.892058
0.879118 0.633722 0.883207
0.358923 0.357366 0.934051
0.401862 0.391119 0.932555
0.535912 0.506126 0.925414
0.614252 0.556329 0.920714
0.683101 0.592859 0.913359
0.745083 0.620417 0.903410
0.799741 0.637110 0.890898
0.879423 0.658442 0.882841
0.279088 0.364446 0.938170
0.337865 0.398627 0.936797
0.503380 0.515801 0.929839
0.677546 0.658625 0.918639
0.725307 0.676387 0.912657
0.769284 0.685115 0.904234
0.812375 0.687465 0.892576
0.882231 0.697414 0.884520
0.220523 0.446021 0.938872
0.293492 0.468696 0.938048
0.455055 0.539025 0.934051
0.620203 0.641535 0.925872
0.755306 0.741024 0.914153
0.790066 0.743191 0.906188
0.825376 0.739040 0.895018
0.886107 0.742702 0.886961
0.428870 0.637354 0.930419
0.457771 0.646326 0.929473
0.540124 0.674922 0.926726
0.632471 0.710140 0.923796
0.721736 0.747738 0.921263
0.815579 0.804807 0.912871
0.846189 0.800137 0.903655
0.895384 0.796323 0.894591
0.581720 0.775540 0.923430
0.594903 0.778775 0.922972
0.634150 0.788602 0.921660
0.689448 0.803586 0.920439
0.749660 0.820890 0.919371
0.807614 0.837949 0.919280
0.872496 0.865141 0.915526
0.901335 0.847684 0.898955
0.674250 0.865141 0.921019
0.681514 0.866392 0.920836
0.706264 0.871000 0.920653
0.743496 0.878264 0.920348
0.786007 0.886961 0.919921
0.831876 0.897063 0.919524
0.878904 0.908019 0.919036
0.915068 0.911040 0.910887
