其他预设/【233】日式怀旧街道调色预设208款/1.3D LUT预设（视频调色-PR-AE-PS-FCPX-达芬奇用）/1.日式城市街拍预设/JA – Cityscape Pop 4.cube
# Created by Adobe Lightroom plugin Export LUT (1.17.0)
# www.johnrellis.com/lightroom/exportlut.htm
# Preset: JA – Cityscape Pop 4
# Color profile: /Library/Application Support/Adobe/Color/Profiles/Recommended/AdobeRGB1998.icc
LUT_3D_SIZE 5
DOMAIN_MIN 0.000000 0.000000 0.000000
DOMAIN_MAX 0.903226 0.903226 0.903226
0.079744 0.086580 0.090974
0.130556 0.081086 0.090883
0.445167 0.037690 0.054536
0.805264 0.000000 0.000000
0.992828 0.000000 0.000000
0.078370 0.123049 0.091829
0.141390 0.134707 0.088838
0.452613 0.207492 0.000000
0.807279 0.234745 0.000000
0.994965 0.197543 0.000000
0.072755 0.350713 0.020813
0.211673 0.366766 0.000000
0.584527 0.496162 0.000000
0.830076 0.473243 0.000000
0.990814 0.417548 0.000000
0.071382 0.682795 0.000000
0.270878 0.690455 0.000000
0.569848 0.727169 0.000000
0.891630 0.746761 0.000000
0.995148 0.631128 0.000000
0.222812 0.904875 0.101961
0.330480 0.904326 0.084627
0.548211 0.898680 0.000000
0.806302 0.903960 0.199649
0.985199 0.860502 0.441810
0.078523 0.091707 0.138796
0.125673 0.092775 0.144015
0.451179 0.000000 0.124086
0.796963 0.000000 0.000000
0.988159 0.109499 0.000000
0.071656 0.134066 0.148562
0.139864 0.151095 0.158236
0.464057 0.169253 0.114229
0.800565 0.211246 0.000000
0.988525 0.230442 0.000000
0.000000 0.367834 0.196414
0.149050 0.401953 0.147189
0.564813 0.487068 0.105623
0.816403 0.455818 0.000000
0.989624 0.427008 0.000000
0.000000 0.691798 0.166079
0.191531 0.701198 0.135561
0.542870 0.726314 0.090059
0.885527 0.750668 0.147494
0.995544 0.634180 0.000000
0.215579 0.904479 0.279118
0.324407 0.903990 0.274296
0.548638 0.902831 0.262058
0.805783 0.905364 0.292546
0.985412 0.862394 0.450538
0.000000 0.108064 0.380224
0.160922 0.110079 0.410437
0.415167 0.060761 0.445991
0.724025 0.000000 0.421088
0.974823 0.248295 0.431586
0.000000 0.155673 0.381109
0.129854 0.183230 0.419959
0.438483 0.203250 0.466133
0.754330 0.152865 0.431525
0.976257 0.304204 0.423896
0.000000 0.389868 0.437171
0.000000 0.412390 0.455177
0.505241 0.510185 0.516594
0.803983 0.488441 0.468269
0.978515 0.449805 0.396277
0.000000 0.685603 0.494942
0.085451 0.696071 0.492134
0.513298 0.730648 0.506676
0.850065 0.775784 0.585412
0.976745 0.655787 0.410193
0.261540 0.896544 0.532921
0.366247 0.896971 0.538079
0.562432 0.898100 0.538079
0.789181 0.899321 0.555810
0.965515 0.878141 0.634119
0.000000 0.170260 0.656611
0.190768 0.192844 0.672755
0.450538 0.249210 0.716182
0.710536 0.300175 0.719692
0.892912 0.344915 0.662928
0.000000 0.203555 0.651057
0.160861 0.248234 0.668238
0.457099 0.328862 0.712306
0.714626 0.383612 0.721279
0.897459 0.402564 0.668147
0.000000 0.376257 0.653376
0.000000 0.378088 0.658686
0.471443 0.491066 0.698665
0.735012 0.569299 0.734005
0.917327 0.577996 0.700710
0.000000 0.638880 0.695003
0.136812 0.647517 0.698360
0.480781 0.687007 0.717708
0.786465 0.776486 0.774228
0.934203 0.758541 0.743801
0.293339 0.890043 0.745937
0.375647 0.890013 0.744839
0.568902 0.890440 0.744411
0.779751 0.892119 0.759609
0.937774 0.900969 0.821500
0.391272 0.441627 0.880247
0.461799 0.475715 0.880613
0.588739 0.522179 0.885191
0.750454 0.605554 0.892363
0.885863 0.624414 0.886137
0.364691 0.447028 0.878599
0.449073 0.487617 0.878752
0.595666 0.549615 0.882902
0.754177 0.627832 0.890501
0.886290 0.647791 0.885649
0.253025 0.472694 0.875700
0.320500 0.482460 0.876158
0.585351 0.601984 0.877379
0.762875 0.687953 0.886503
0.889830 0.718288 0.886473
0.347173 0.657710 0.882139
0.390021 0.659388 0.881193
0.513634 0.666529 0.879088
0.753048 0.751675 0.880217
0.897673 0.811948 0.890532
0.469184 0.840208 0.890257
0.501488 0.842374 0.889799
0.608148 0.851774 0.889097
0.760708 0.869352 0.888151
0.915007 0.907317 0.904845
