其他预设/【234】港风调色预设/2.LR预设文件/15.港风色调.lrtemplate
s = {
	id = "D6380EA5-37F7-42BF-A0B6-E90C54780D83",
	internalName = "港风电影色——预设9【玩呗出品】",
	title = "15.港风色调 [素锦印象]",
	type = "Develop",
	value = {
		settings = {
			AutoLateralCA = 0,
			Blacks2012 = 2,
			BlueHue = -10,
			BlueSaturation = 15,
			CameraProfile = "Adobe Standard",
			ChromaticAberrationB = 0,
			ChromaticAberrationR = 0,
			Clarity2012 = 0,
			ColorNoiseReduction = 25,
			ColorNoiseReductionDetail = 50,
			ColorNoiseReductionSmoothness = 50,
			Contrast2012 = 2,
			ConvertToGrayscale = false,
			CropConstrainToWarp = 0,
			Defringe = 0,
			DefringeGreenAmount = 0,
			DefringeGreenHueHi = 60,
			DefringeGreenHueLo = 40,
			DefringePurpleAmount = 0,
			DefringePurpleHueHi = 70,
			DefringePurpleHueLo = 30,
			Dehaze = 0,
			EnableCalibration = true,
			EnableColorAdjustments = true,
			EnableDetail = true,
			EnableEffects = true,
			EnableLensCorrections = true,
			EnableSplitToning = true,
			Exposure2012 = 0,
			GrainAmount = 35,
			GrainFrequency = 32,
			GrainSize = 31,
			GreenHue = -5,
			GreenSaturation = 0,
			Highlights2012 = -17,
			HueAdjustmentAqua = 10,
			HueAdjustmentBlue = 0,
			HueAdjustmentGreen = 30,
			HueAdjustmentMagenta = 5,
			HueAdjustmentOrange = -17,
			HueAdjustmentPurple = 5,
			HueAdjustmentRed = 0,
			HueAdjustmentYellow = -10,
			LensManualDistortionAmount = 0,
			LuminanceAdjustmentAqua = 0,
			LuminanceAdjustmentBlue = -15,
			LuminanceAdjustmentGreen = -65,
			LuminanceAdjustmentMagenta = 0,
			LuminanceAdjustmentOrange = -4,
			LuminanceAdjustmentPurple = 0,
			LuminanceAdjustmentRed = 0,
			LuminanceAdjustmentYellow = 30,
			LuminanceNoiseReductionContrast = 0,
			LuminanceNoiseReductionDetail = 50,
			LuminanceSmoothing = 0,
			ParametricDarks = -13,
			ParametricHighlightSplit = 75,
			ParametricHighlights = 0,
			ParametricLights = -15,
			ParametricMidtoneSplit = 60,
			ParametricShadowSplit = 14,
			ParametricShadows = 36,
			PostCropVignetteAmount = -16,
			PostCropVignetteFeather = 50,
			PostCropVignetteHighlightContrast = 0,
			PostCropVignetteMidpoint = 40,
			PostCropVignetteRoundness = 100,
			PostCropVignetteStyle = 1,
			ProcessVersion = "10.0",
			RedHue = 20,
			RedSaturation = 8,
			Saturation = 0,
			SaturationAdjustmentAqua = -10,
			SaturationAdjustmentBlue = -45,
			SaturationAdjustmentGreen = -55,
			SaturationAdjustmentMagenta = -40,
			SaturationAdjustmentOrange = 2,
			SaturationAdjustmentPurple = -40,
			SaturationAdjustmentRed = -35,
			SaturationAdjustmentYellow = -60,
			ShadowTint = 0,
			Shadows2012 = 15,
			SharpenDetail = 25,
			SharpenEdgeMasking = 0,
			SharpenRadius = 1,
			Sharpness = 0,
			SplitToningBalance = 82,
			SplitToningHighlightHue = 50,
			SplitToningHighlightSaturation = 0,
			SplitToningShadowHue = 209,
			SplitToningShadowSaturation = 25,
			ToneCurveName2012 = "Custom",
			ToneCurvePV2012 = {
				0,
				21,
				51,
				52,
				175,
				167,
				255,
				219,
			},
			ToneCurvePV2012Blue = {
				0,
				0,
				46,
				19,
				102,
				100,
				140,
				155,
				165,
				183,
				201,
				216,
				255,
				248,
			},
			ToneCurvePV2012Green = {
				0,
				0,
				46,
				19,
				104,
				106,
				146,
				164,
				166,
				185,
				201,
				215,
				255,
				248,
			},
			ToneCurvePV2012Red = {
				0,
				0,
				46,
				15,
				101,
				99,
				142,
				158,
				164,
				182,
				197,
				213,
				255,
				248,
			},
			Vibrance = 24,
			VignetteAmount = 0,
			VignetteMidpoint = 50,
			WhiteBalance = "As Shot",
			Whites2012 = -17,
		},
		uuid = "0C12616A-814B-412D-BF05-06D5A891B1F7",
	},
	version = 0,
}
