其他预设/【234】港风调色预设/2.LR预设文件/37.港风色调-夸张效果.lrtemplate
s = {
	id = "B79AF166-C169-4013-8889-D076F9AF94C8",
	internalName = "港风电影色——预设12【玩呗出品】",
	title = "37.港风色调-夸张效果 [素锦印象]",
	type = "Develop",
	value = {
		settings = {
			AutoLateralCA = 0,
			Blacks2012 = -21,
			BlueHue = 0,
			BlueSaturation = 0,
			CameraProfile = "Embedded",
			ChromaticAberrationB = 0,
			ChromaticAberrationR = 0,
			Clarity2012 = 0,
			ColorNoiseReduction = 0,
			ColorNoiseReductionDetail = 50,
			ColorNoiseReductionSmoothness = 50,
			Contrast2012 = 14,
			ConvertToGrayscale = false,
			CropConstrainToWarp = 0,
			Defringe = 0,
			DefringeGreenAmount = 0,
			DefringeGreenHueHi = 60,
			DefringeGreenHueLo = 40,
			DefringePurpleAmount = 0,
			DefringePurpleHueHi = 70,
			DefringePurpleHueLo = 30,
			Dehaze = 0,
			EnableCalibration = true,
			EnableColorAdjustments = true,
			EnableDetail = true,
			EnableEffects = true,
			EnableLensCorrections = true,
			EnableSplitToning = true,
			Exposure2012 = 0,
			GrainAmount = 18,
			GrainFrequency = 70,
			GrainSize = 40,
			GreenHue = 0,
			GreenSaturation = 0,
			Highlights2012 = -29,
			HueAdjustmentAqua = -13,
			HueAdjustmentBlue = -22,
			HueAdjustmentGreen = 18,
			HueAdjustmentMagenta = 0,
			HueAdjustmentOrange = -7,
			HueAdjustmentPurple = 0,
			HueAdjustmentRed = 36,
			HueAdjustmentYellow = -26,
			LensManualDistortionAmount = 0,
			LuminanceAdjustmentAqua = -6,
			LuminanceAdjustmentBlue = 33,
			LuminanceAdjustmentGreen = -3,
			LuminanceAdjustmentMagenta = -7,
			LuminanceAdjustmentOrange = 13,
			LuminanceAdjustmentPurple = 0,
			LuminanceAdjustmentRed = 42,
			LuminanceAdjustmentYellow = 17,
			LuminanceNoiseReductionContrast = 0,
			LuminanceNoiseReductionDetail = 50,
			LuminanceSmoothing = 0,
			ParametricDarks = 0,
			ParametricHighlightSplit = 75,
			ParametricHighlights = 0,
			ParametricLights = 0,
			ParametricMidtoneSplit = 50,
			ParametricShadowSplit = 25,
			ParametricShadows = 0,
			PostCropVignetteAmount = 0,
			PostCropVignetteFeather = 50,
			PostCropVignetteHighlightContrast = 0,
			PostCropVignetteMidpoint = 50,
			PostCropVignetteRoundness = 0,
			PostCropVignetteStyle = 1,
			ProcessVersion = "10.0",
			RedHue = 0,
			RedSaturation = 0,
			Saturation = 14,
			SaturationAdjustmentAqua = 38,
			SaturationAdjustmentBlue = 0,
			SaturationAdjustmentGreen = -5,
			SaturationAdjustmentMagenta = 0,
			SaturationAdjustmentOrange = 75,
			SaturationAdjustmentPurple = 0,
			SaturationAdjustmentRed = 25,
			SaturationAdjustmentYellow = 15,
			ShadowTint = 0,
			Shadows2012 = -4,
			SharpenDetail = 25,
			SharpenEdgeMasking = 0,
			SharpenRadius = 1,
			Sharpness = 0,
			SplitToningBalance = -21,
			SplitToningHighlightHue = 36,
			SplitToningHighlightSaturation = 17,
			SplitToningShadowHue = 0,
			SplitToningShadowSaturation = 0,
			ToneCurveName2012 = "Custom",
			ToneCurvePV2012 = {
				0,
				4,
				71,
				66,
				136,
				138,
				197,
				202,
				255,
				252,
			},
			ToneCurvePV2012Blue = {
				0,
				0,
				57,
				63,
				128,
				128,
				251,
				255,
			},
			ToneCurvePV2012Green = {
				0,
				0,
				65,
				61,
				127,
				127,
				255,
				255,
			},
			ToneCurvePV2012Red = {
				0,
				0,
				52,
				40,
				98,
				91,
				125,
				128,
				158,
				161,
				188,
				186,
				236,
				234,
				255,
				255,
			},
			Vibrance = 40,
			VignetteAmount = 0,
			VignetteMidpoint = 50,
			WhiteBalance = "As Shot",
			Whites2012 = 19,
		},
		uuid = "4ED0FC49-6D32-46CC-9862-649D188F3E45",
	},
	version = 0,
}
