其他预设/【221】冬日圣诞风格预设11款/3.XMP格式(PS)预设/冬日圣诞风格-9 圣诞装饰.xmp
<x:xmpmeta xmlns:x="adobe:ns:meta/" x:xmptk="Adobe XMP Core 5.6-c140 79.160451, 2017/05/06-01:08:21        ">
 <rdf:RDF xmlns:rdf="http://www.w3.org/1999/02/22-rdf-syntax-ns#">
  <rdf:Description rdf:about=""
    xmlns:crs="http://ns.adobe.com/camera-raw-settings/1.0/"
   crs:PresetType="Normal"
   crs:Cluster=""
   crs:UUID="F10A42EB004921E80151203BA379D834"
   crs:SupportsAmount="False"
   crs:SupportsColor="True"
   crs:SupportsMonochrome="True"
   crs:SupportsHighDynamicRange="True"
   crs:SupportsNormalDynamicRange="True"
   crs:SupportsSceneReferred="True"
   crs:SupportsOutputReferred="True"
   crs:CameraModelRestriction=""
   crs:Copyright=""
   crs:ContactInfo=""
   crs:Version="10.5"
   crs:ProcessVersion="6.7"
   crs:WhiteBalance="Custom"
   crs:Temperature="7612"
   crs:Tint="+14"
   crs:Saturation="-30"
   crs:Sharpness="60"
   crs:LuminanceSmoothing="0"
   crs:ColorNoiseReduction="25"
   crs:VignetteAmount="0"
   crs:ShadowTint="0"
   crs:RedHue="+17"
   crs:RedSaturation="+12"
   crs:GreenHue="+15"
   crs:GreenSaturation="0"
   crs:BlueHue="-10"
   crs:BlueSaturation="0"
   crs:Vibrance="0"
   crs:HueAdjustmentRed="-38"
   crs:HueAdjustmentOrange="-9"
   crs:HueAdjustmentYellow="-100"
   crs:HueAdjustmentGreen="+94"
   crs:HueAdjustmentAqua="+42"
   crs:HueAdjustmentBlue="-3"
   crs:HueAdjustmentPurple="0"
   crs:HueAdjustmentMagenta="0"
   crs:SaturationAdjustmentRed="-5"
   crs:SaturationAdjustmentOrange="-20"
   crs:SaturationAdjustmentYellow="-75"
   crs:SaturationAdjustmentGreen="-26"
   crs:SaturationAdjustmentAqua="+33"
   crs:SaturationAdjustmentBlue="-68"
   crs:SaturationAdjustmentPurple="-40"
   crs:SaturationAdjustmentMagenta="-35"
   crs:LuminanceAdjustmentRed="-17"
   crs:LuminanceAdjustmentOrange="-6"
   crs:LuminanceAdjustmentYellow="+49"
   crs:LuminanceAdjustmentGreen="+100"
   crs:LuminanceAdjustmentAqua="+82"
   crs:LuminanceAdjustmentBlue="+82"
   crs:LuminanceAdjustmentPurple="-1"
   crs:LuminanceAdjustmentMagenta="0"
   crs:SplitToningShadowHue="0"
   crs:SplitToningShadowSaturation="0"
   crs:SplitToningHighlightHue="32"
   crs:SplitToningHighlightSaturation="0"
   crs:SplitToningBalance="+100"
   crs:ParametricShadows="0"
   crs:ParametricDarks="0"
   crs:ParametricLights="0"
   crs:ParametricHighlights="0"
   crs:ParametricShadowSplit="25"
   crs:ParametricMidtoneSplit="50"
   crs:ParametricHighlightSplit="75"
   crs:SharpenRadius="+1.5"
   crs:SharpenDetail="40"
   crs:SharpenEdgeMasking="30"
   crs:PostCropVignetteAmount="0"
   crs:GrainAmount="24"
   crs:GrainSize="35"
   crs:GrainFrequency="35"
   crs:ColorNoiseReductionDetail="50"
   crs:ColorNoiseReductionSmoothness="50"
   crs:LensProfileEnable="0"
   crs:LensManualDistortionAmount="0"
   crs:PerspectiveVertical="0"
   crs:PerspectiveHorizontal="0"
   crs:PerspectiveRotate="0.0"
   crs:PerspectiveScale="100"
   crs:PerspectiveAspect="0"
   crs:PerspectiveUpright="0"
   crs:PerspectiveX="0.00"
   crs:PerspectiveY="0.00"
   crs:AutoLateralCA="0"
   crs:Exposure2012="-0.85"
   crs:Contrast2012="+10"
   crs:Highlights2012="-10"
   crs:Shadows2012="+38"
   crs:Whites2012="-19"
   crs:Blacks2012="+31"
   crs:Clarity2012="0"
   crs:DefringePurpleAmount="0"
   crs:DefringePurpleHueLo="30"
   crs:DefringePurpleHueHi="70"
   crs:DefringeGreenAmount="0"
   crs:DefringeGreenHueLo="40"
   crs:DefringeGreenHueHi="60"
   crs:Dehaze="0"
   crs:ConvertToGrayscale="False"
   crs:OverrideLookVignette="False"
   crs:ToneCurveName2012="Custom"
   crs:CameraProfile="Embedded"
   crs:LensProfileSetup="LensDefaults"
   crs:HasSettings="True">
   <crs:Name>
    <rdf:Alt>
     <rdf:li xml:lang="x-default">冬日圣诞风格[素锦印象]-9 圣诞装饰</rdf:li>
    </rdf:Alt>
   </crs:Name>
   <crs:ShortName>
    <rdf:Alt>
     <rdf:li xml:lang="x-default"/>
    </rdf:Alt>
   </crs:ShortName>
   <crs:SortName>
    <rdf:Alt>
     <rdf:li xml:lang="x-default"/>
    </rdf:Alt>
   </crs:SortName>
   <crs:Group>
    <rdf:Alt>
     <rdf:li xml:lang="x-default">冬日圣诞风格[sujinyinxiang.taobao.com]</rdf:li>
    </rdf:Alt>
   </crs:Group>
   <crs:Description>
    <rdf:Alt>
     <rdf:li xml:lang="x-default"/>
    </rdf:Alt>
   </crs:Description>
   <crs:ToneCurvePV2012>
    <rdf:Seq>
     <rdf:li>0, 0</rdf:li>
     <rdf:li>255, 255</rdf:li>
    </rdf:Seq>
   </crs:ToneCurvePV2012>
   <crs:ToneCurvePV2012Red>
    <rdf:Seq>
     <rdf:li>0, 14</rdf:li>
     <rdf:li>12, 17</rdf:li>
     <rdf:li>25, 22</rdf:li>
     <rdf:li>51, 41</rdf:li>
     <rdf:li>76, 77</rdf:li>
     <rdf:li>102, 124</rdf:li>
     <rdf:li>126, 159</rdf:li>
     <rdf:li>153, 188</rdf:li>
     <rdf:li>178, 209</rdf:li>
     <rdf:li>204, 225</rdf:li>
     <rdf:li>229, 237</rdf:li>
     <rdf:li>255, 249</rdf:li>
    </rdf:Seq>
   </crs:ToneCurvePV2012Red>
   <crs:ToneCurvePV2012Green>
    <rdf:Seq>
     <rdf:li>0, 18</rdf:li>
     <rdf:li>12, 21</rdf:li>
     <rdf:li>25, 27</rdf:li>
     <rdf:li>51, 48</rdf:li>
     <rdf:li>76, 81</rdf:li>
     <rdf:li>102, 125</rdf:li>
     <rdf:li>126, 159</rdf:li>
     <rdf:li>153, 188</rdf:li>
     <rdf:li>178, 209</rdf:li>
     <rdf:li>204, 225</rdf:li>
     <rdf:li>229, 237</rdf:li>
     <rdf:li>255, 249</rdf:li>
    </rdf:Seq>
   </crs:ToneCurvePV2012Green>
   <crs:ToneCurvePV2012Blue>
    <rdf:Seq>
     <rdf:li>0, 28</rdf:li>
     <rdf:li>12, 32</rdf:li>
     <rdf:li>25, 39</rdf:li>
     <rdf:li>51, 61</rdf:li>
     <rdf:li>76, 93</rdf:li>
     <rdf:li>102, 132</rdf:li>
     <rdf:li>126, 163</rdf:li>
     <rdf:li>153, 191</rdf:li>
     <rdf:li>178, 211</rdf:li>
     <rdf:li>204, 227</rdf:li>
     <rdf:li>229, 237</rdf:li>
     <rdf:li>255, 249</rdf:li>
    </rdf:Seq>
   </crs:ToneCurvePV2012Blue>
   <crs:Look
    crs:Name=""/>
  </rdf:Description>
 </rdf:RDF>
</x:xmpmeta>
