其他预设/【221】冬日圣诞风格预设11款/3.XMP格式(PS)预设/冬日圣诞风格-1 咖啡店.xmp
<x:xmpmeta xmlns:x="adobe:ns:meta/" x:xmptk="Adobe XMP Core 5.6-c140 79.160451, 2017/05/06-01:08:21        ">
 <rdf:RDF xmlns:rdf="http://www.w3.org/1999/02/22-rdf-syntax-ns#">
  <rdf:Description rdf:about=""
    xmlns:crs="http://ns.adobe.com/camera-raw-settings/1.0/"
   crs:PresetType="Normal"
   crs:Cluster=""
   crs:UUID="1C418DD50986CF62C0039F5673042A89"
   crs:SupportsAmount="False"
   crs:SupportsColor="True"
   crs:SupportsMonochrome="True"
   crs:SupportsHighDynamicRange="True"
   crs:SupportsNormalDynamicRange="True"
   crs:SupportsSceneReferred="True"
   crs:SupportsOutputReferred="True"
   crs:CameraModelRestriction=""
   crs:Copyright=""
   crs:ContactInfo=""
   crs:Version="10.5"
   crs:ProcessVersion="6.7"
   crs:WhiteBalance="As Shot"
   crs:Saturation="+11"
   crs:Sharpness="0"
   crs:LuminanceSmoothing="0"
   crs:ColorNoiseReduction="0"
   crs:VignetteAmount="0"
   crs:ShadowTint="-2"
   crs:RedHue="+30"
   crs:RedSaturation="+19"
   crs:GreenHue="+76"
   crs:GreenSaturation="0"
   crs:BlueHue="-6"
   crs:BlueSaturation="+24"
   crs:Vibrance="0"
   crs:HueAdjustmentRed="+23"
   crs:HueAdjustmentOrange="-16"
   crs:HueAdjustmentYellow="-23"
   crs:HueAdjustmentGreen="-30"
   crs:HueAdjustmentAqua="+10"
   crs:HueAdjustmentBlue="-15"
   crs:HueAdjustmentPurple="0"
   crs:HueAdjustmentMagenta="+20"
   crs:SaturationAdjustmentRed="-72"
   crs:SaturationAdjustmentOrange="-43"
   crs:SaturationAdjustmentYellow="-18"
   crs:SaturationAdjustmentGreen="-77"
   crs:SaturationAdjustmentAqua="-1"
   crs:SaturationAdjustmentBlue="+17"
   crs:SaturationAdjustmentPurple="-40"
   crs:SaturationAdjustmentMagenta="-35"
   crs:LuminanceAdjustmentRed="-36"
   crs:LuminanceAdjustmentOrange="-14"
   crs:LuminanceAdjustmentYellow="+40"
   crs:LuminanceAdjustmentGreen="-12"
   crs:LuminanceAdjustmentAqua="+10"
   crs:LuminanceAdjustmentBlue="-14"
   crs:LuminanceAdjustmentPurple="+15"
   crs:LuminanceAdjustmentMagenta="+5"
   crs:SplitToningShadowHue="19"
   crs:SplitToningShadowSaturation="10"
   crs:SplitToningHighlightHue="88"
   crs:SplitToningHighlightSaturation="0"
   crs:SplitToningBalance="+2"
   crs:ParametricShadows="-48"
   crs:ParametricDarks="+18"
   crs:ParametricLights="-18"
   crs:ParametricHighlights="0"
   crs:ParametricShadowSplit="10"
   crs:ParametricMidtoneSplit="47"
   crs:ParametricHighlightSplit="75"
   crs:SharpenRadius="+1.0"
   crs:SharpenDetail="25"
   crs:SharpenEdgeMasking="0"
   crs:PostCropVignetteAmount="0"
   crs:GrainAmount="0"
   crs:LensProfileEnable="0"
   crs:LensManualDistortionAmount="0"
   crs:PerspectiveVertical="0"
   crs:PerspectiveHorizontal="0"
   crs:PerspectiveRotate="0.0"
   crs:PerspectiveScale="100"
   crs:PerspectiveAspect="0"
   crs:PerspectiveUpright="0"
   crs:PerspectiveX="0.00"
   crs:PerspectiveY="0.00"
   crs:AutoLateralCA="0"
   crs:Exposure2012="0.00"
   crs:Contrast2012="+24"
   crs:Highlights2012="-100"
   crs:Shadows2012="+100"
   crs:Whites2012="+53"
   crs:Blacks2012="+70"
   crs:Clarity2012="+35"
   crs:DefringePurpleAmount="0"
   crs:DefringePurpleHueLo="30"
   crs:DefringePurpleHueHi="70"
   crs:DefringeGreenAmount="0"
   crs:DefringeGreenHueLo="40"
   crs:DefringeGreenHueHi="60"
   crs:Dehaze="0"
   crs:ConvertToGrayscale="False"
   crs:OverrideLookVignette="False"
   crs:ToneCurveName2012="Custom"
   crs:CameraProfile="Embedded"
   crs:LensProfileSetup="LensDefaults"
   crs:HasSettings="True">
   <crs:Name>
    <rdf:Alt>
     <rdf:li xml:lang="x-default">冬日圣诞风格[素锦印象]-1 咖啡店</rdf:li>
    </rdf:Alt>
   </crs:Name>
   <crs:ShortName>
    <rdf:Alt>
     <rdf:li xml:lang="x-default"/>
    </rdf:Alt>
   </crs:ShortName>
   <crs:SortName>
    <rdf:Alt>
     <rdf:li xml:lang="x-default"/>
    </rdf:Alt>
   </crs:SortName>
   <crs:Group>
    <rdf:Alt>
     <rdf:li xml:lang="x-default">冬日圣诞风格[sujinyinxiang.taobao.com]</rdf:li>
    </rdf:Alt>
   </crs:Group>
   <crs:Description>
    <rdf:Alt>
     <rdf:li xml:lang="x-default"/>
    </rdf:Alt>
   </crs:Description>
   <crs:ToneCurvePV2012>
    <rdf:Seq>
     <rdf:li>0, 30</rdf:li>
     <rdf:li>52, 67</rdf:li>
     <rdf:li>128, 126</rdf:li>
     <rdf:li>191, 187</rdf:li>
     <rdf:li>255, 250</rdf:li>
    </rdf:Seq>
   </crs:ToneCurvePV2012>
   <crs:ToneCurvePV2012Red>
    <rdf:Seq>
     <rdf:li>0, 0</rdf:li>
     <rdf:li>20, 3</rdf:li>
     <rdf:li>60, 20</rdf:li>
     <rdf:li>119, 121</rdf:li>
     <rdf:li>177, 202</rdf:li>
     <rdf:li>255, 255</rdf:li>
    </rdf:Seq>
   </crs:ToneCurvePV2012Red>
   <crs:ToneCurvePV2012Green>
    <rdf:Seq>
     <rdf:li>0, 0</rdf:li>
     <rdf:li>53, 21</rdf:li>
     <rdf:li>120, 125</rdf:li>
     <rdf:li>179, 205</rdf:li>
     <rdf:li>255, 255</rdf:li>
    </rdf:Seq>
   </crs:ToneCurvePV2012Green>
   <crs:ToneCurvePV2012Blue>
    <rdf:Seq>
     <rdf:li>0, 0</rdf:li>
     <rdf:li>43, 22</rdf:li>
     <rdf:li>121, 122</rdf:li>
     <rdf:li>175, 200</rdf:li>
     <rdf:li>255, 255</rdf:li>
    </rdf:Seq>
   </crs:ToneCurvePV2012Blue>
   <crs:Look
    crs:Name=""/>
  </rdf:Description>
 </rdf:RDF>
</x:xmpmeta>
