其他预设/【241】古典暖黄色预设9款/2.LR预设文件/古典暖黄色[]-4.lrtemplate
s = {
	id = "0246E0A5-3205-4AAA-A1C9-B2DDD2B322B1",
	internalName = "古典橙色4",
	title = "古典暖黄色[素锦印象]-4",
	type = "Develop",
	value = {
		settings = {
			AutoLateralCA = 0,
			Blacks2012 = 64,
			BlueHue = -1,
			BlueSaturation = 44,
			CameraProfile = "Adobe Standard",
			ChromaticAberrationB = 0,
			ChromaticAberrationR = 0,
			Clarity2012 = -1,
			ColorNoiseReduction = 0,
			ColorNoiseReductionDetail = 50,
			ColorNoiseReductionSmoothness = 50,
			Contrast2012 = 21,
			ConvertToGrayscale = false,
			CropConstrainToWarp = 0,
			Defringe = 0,
			DefringeGreenAmount = 0,
			DefringeGreenHueHi = 60,
			DefringeGreenHueLo = 40,
			DefringePurpleAmount = 0,
			DefringePurpleHueHi = 70,
			DefringePurpleHueLo = 30,
			Dehaze = 0,
			EnableCalibration = true,
			EnableCircularGradientBasedCorrections = true,
			EnableColorAdjustments = true,
			EnableDetail = true,
			EnableEffects = true,
			EnableGradientBasedCorrections = true,
			EnableLensCorrections = true,
			EnableSplitToning = true,
			EnableTransform = true,
			Exposure2012 = 0.11,
			GrainAmount = 0,
			GrainFrequency = 50,
			GrainSize = 25,
			GreenHue = 88,
			GreenSaturation = 10,
			Highlights2012 = -100,
			HueAdjustmentAqua = 40,
			HueAdjustmentBlue = 5,
			HueAdjustmentGreen = -12,
			HueAdjustmentMagenta = 0,
			HueAdjustmentOrange = 0,
			HueAdjustmentPurple = 0,
			HueAdjustmentRed = -13,
			HueAdjustmentYellow = 1,
			IncrementalTemperature = 6,
			IncrementalTint = -2,
			LensManualDistortionAmount = 0,
			LensProfileEnable = 0,
			LensProfileSetup = "LensDefaults",
			LuminanceAdjustmentAqua = 22,
			LuminanceAdjustmentBlue = 0,
			LuminanceAdjustmentGreen = 16,
			LuminanceAdjustmentMagenta = 0,
			LuminanceAdjustmentOrange = 56,
			LuminanceAdjustmentPurple = 0,
			LuminanceAdjustmentRed = 33,
			LuminanceAdjustmentYellow = 0,
			LuminanceNoiseReductionContrast = 0,
			LuminanceNoiseReductionDetail = 50,
			LuminanceSmoothing = 0,
			ParametricDarks = -10,
			ParametricHighlightSplit = 75,
			ParametricHighlights = -9,
			ParametricLights = 9,
			ParametricMidtoneSplit = 50,
			ParametricShadowSplit = 25,
			ParametricShadows = -15,
			PerspectiveAspect = 0,
			PerspectiveHorizontal = 0,
			PerspectiveRotate = 0,
			PerspectiveScale = 100,
			PerspectiveUpright = 0,
			PerspectiveVertical = 0,
			PerspectiveX = 0,
			PerspectiveY = 0,
			PostCropVignetteAmount = 4,
			PostCropVignetteFeather = 50,
			PostCropVignetteHighlightContrast = 0,
			PostCropVignetteMidpoint = 50,
			PostCropVignetteRoundness = 0,
			PostCropVignetteStyle = 1,
			ProcessVersion = "6.7",
			RedHue = 27,
			RedSaturation = 32,
			Saturation = -17,
			SaturationAdjustmentAqua = -38,
			SaturationAdjustmentBlue = -9,
			SaturationAdjustmentGreen = -63,
			SaturationAdjustmentMagenta = 0,
			SaturationAdjustmentOrange = -2,
			SaturationAdjustmentPurple = 0,
			SaturationAdjustmentRed = 8,
			SaturationAdjustmentYellow = 18,
			ShadowTint = -1,
			Shadows2012 = 27,
			SharpenDetail = 25,
			SharpenEdgeMasking = 0,
			SharpenRadius = 1,
			Sharpness = 43,
			SplitToningBalance = -41,
			SplitToningHighlightHue = 35,
			SplitToningHighlightSaturation = 4,
			SplitToningShadowHue = 184,
			SplitToningShadowSaturation = 1,
			ToneCurveName2012 = "Linear",
			ToneCurvePV2012 = {
				0,
				0,
				255,
				255,
			},
			ToneCurvePV2012Blue = {
				0,
				0,
				255,
				255,
			},
			ToneCurvePV2012Green = {
				0,
				0,
				255,
				255,
			},
			ToneCurvePV2012Red = {
				0,
				0,
				255,
				255,
			},
			UprightCenterMode = 0,
			UprightCenterNormX = 0.5,
			UprightCenterNormY = 0.5,
			UprightFocalLength35mm = 35,
			UprightFocalMode = 0,
			UprightFourSegmentsCount = 0,
			UprightPreview = false,
			UprightTransformCount = 6,
			UprightVersion = 151388160,
			Vibrance = 33,
			VignetteAmount = 0,
			VignetteMidpoint = 50,
			WhiteBalance = "Custom",
			Whites2012 = -39,
			orientation = "AB",
		},
		uuid = "DC7162E5-9B7F-4454-AE1A-030EF7E413E6",
	},
	version = 0,
}
