其他预设/【242】暗香槟典雅婚礼预设23款/2.LR预设文件/暗香槟典雅婚礼[]-23 室内黑白.lrtemplate
s = {
	id = "C7236EDD-B5FE-4E7B-B392-7EA4616855C5",
	internalName = "24_Wedding-Indoor-B&W-BrightFace-2019",
	title = "暗香槟典雅婚礼[素锦印象]-23 室内黑白",
	type = "Develop",
	value = {
		settings = {
			AutoLateralCA = 1,
			Blacks2012 = -70,
			BlueHue = 0,
			BlueSaturation = -36,
			CameraProfile = "Adobe Standard",
			ChromaticAberrationB = 0,
			ChromaticAberrationR = 0,
			Clarity2012 = -10,
			ColorNoiseReduction = 35,
			ColorNoiseReductionDetail = 55,
			ColorNoiseReductionSmoothness = 50,
			Contrast2012 = 80,
			ConvertToGrayscale = true,
			CropConstrainToWarp = 0,
			Defringe = 0,
			DefringeGreenAmount = 0,
			DefringeGreenHueHi = 60,
			DefringeGreenHueLo = 40,
			DefringePurpleAmount = 0,
			DefringePurpleHueHi = 70,
			DefringePurpleHueLo = 30,
			Dehaze = 25,
			EnableCalibration = true,
			EnableCircularGradientBasedCorrections = true,
			EnableDetail = true,
			EnableEffects = true,
			EnableGradientBasedCorrections = true,
			EnableGrayscaleMix = true,
			EnableLensCorrections = true,
			EnableSplitToning = true,
			EnableTransform = true,
			Exposure2012 = 0.25,
			GrainAmount = 8,
			GrainFrequency = 100,
			GrainSize = 15,
			GrayMixerAqua = -15,
			GrayMixerBlue = 10,
			GrayMixerGreen = -22,
			GrayMixerMagenta = 4,
			GrayMixerOrange = 18,
			GrayMixerPurple = 15,
			GrayMixerRed = 15,
			GrayMixerYellow = -15,
			GreenHue = 0,
			GreenSaturation = 38,
			Highlights2012 = -90,
			LensManualDistortionAmount = 0,
			LensProfileEnable = 1,
			LensProfileSetup = "LensDefaults",
			LuminanceNoiseReductionContrast = 10,
			LuminanceNoiseReductionDetail = 60,
			LuminanceSmoothing = 25,
			ParametricDarks = 0,
			ParametricHighlightSplit = 75,
			ParametricHighlights = 0,
			ParametricLights = 0,
			ParametricMidtoneSplit = 50,
			ParametricShadowSplit = 25,
			ParametricShadows = 0,
			PerspectiveAspect = 0,
			PerspectiveHorizontal = 0,
			PerspectiveRotate = 0,
			PerspectiveScale = 100,
			PerspectiveUpright = 0,
			PerspectiveVertical = 0,
			PerspectiveX = 0,
			PerspectiveY = 0,
			PostCropVignetteAmount = -30,
			PostCropVignetteFeather = 100,
			PostCropVignetteHighlightContrast = 100,
			PostCropVignetteMidpoint = 45,
			PostCropVignetteRoundness = 50,
			PostCropVignetteStyle = 1,
			ProcessVersion = "6.7",
			RedHue = 2,
			RedSaturation = -2,
			ShadowTint = 2,
			Shadows2012 = 84,
			SharpenDetail = 30,
			SharpenEdgeMasking = 60,
			SharpenRadius = 0.8,
			Sharpness = 25,
			SplitToningBalance = 0,
			SplitToningHighlightHue = 0,
			SplitToningHighlightSaturation = 0,
			SplitToningShadowHue = 0,
			SplitToningShadowSaturation = 0,
			ToneCurveName2012 = "Linear",
			ToneCurvePV2012 = {
				0,
				0,
				255,
				255,
			},
			ToneCurvePV2012Blue = {
				0,
				0,
				255,
				255,
			},
			ToneCurvePV2012Green = {
				0,
				0,
				255,
				255,
			},
			ToneCurvePV2012Red = {
				0,
				0,
				255,
				255,
			},
			UprightCenterMode = 0,
			UprightCenterNormX = 0.5,
			UprightCenterNormY = 0.5,
			UprightFocalLength35mm = 35,
			UprightFocalMode = 0,
			UprightFourSegmentsCount = 0,
			UprightPreview = false,
			UprightTransformCount = 6,
			UprightVersion = 151388160,
			VignetteAmount = 0,
			VignetteMidpoint = 50,
			WhiteBalance = "As Shot",
			Whites2012 = -35,
			orientation = "AB",
		},
		uuid = "918AED8F-F71A-45A2-A656-1AA6936888AE",
	},
	version = 0,
}
