其他预设/【242】暗香槟典雅婚礼预设23款/2.LR预设文件/暗香槟典雅婚礼[]-4 室外棕绿.lrtemplate
s = {
	id = "148AD6BD-3C68-419C-BE3E-F82DCC0B48CB",
	internalName = "05_Wedding-Outdoor-GreenReflection-2019",
	title = "暗香槟典雅婚礼[素锦印象]-4 室外棕绿",
	type = "Develop",
	value = {
		settings = {
			AutoLateralCA = 1,
			Blacks2012 = -50,
			BlueHue = 0,
			BlueSaturation = -35,
			CameraProfile = "Adobe Standard",
			ChromaticAberrationB = 0,
			ChromaticAberrationR = 0,
			Clarity2012 = 2,
			ColorNoiseReduction = 25,
			ColorNoiseReductionDetail = 50,
			ColorNoiseReductionSmoothness = 50,
			Contrast2012 = 60,
			ConvertToGrayscale = false,
			CropConstrainToWarp = 0,
			Defringe = 0,
			DefringeGreenAmount = 0,
			DefringeGreenHueHi = 60,
			DefringeGreenHueLo = 40,
			DefringePurpleAmount = 0,
			DefringePurpleHueHi = 70,
			DefringePurpleHueLo = 30,
			Dehaze = 20,
			EnableCalibration = true,
			EnableCircularGradientBasedCorrections = true,
			EnableColorAdjustments = true,
			EnableDetail = true,
			EnableEffects = true,
			EnableGradientBasedCorrections = true,
			EnableLensCorrections = true,
			EnableSplitToning = true,
			EnableTransform = true,
			Exposure2012 = 0.3,
			GrainAmount = 10,
			GrainFrequency = 100,
			GrainSize = 15,
			GreenHue = 0,
			GreenSaturation = 30,
			Highlights2012 = -70,
			HueAdjustmentAqua = 0,
			HueAdjustmentBlue = 0,
			HueAdjustmentGreen = -2,
			HueAdjustmentMagenta = 0,
			HueAdjustmentOrange = 0,
			HueAdjustmentPurple = 0,
			HueAdjustmentRed = 5,
			HueAdjustmentYellow = -30,
			LensManualDistortionAmount = 0,
			LensProfileEnable = 1,
			LensProfileSetup = "LensDefaults",
			LuminanceAdjustmentAqua = -2,
			LuminanceAdjustmentBlue = -2,
			LuminanceAdjustmentGreen = -8,
			LuminanceAdjustmentMagenta = -2,
			LuminanceAdjustmentOrange = 0,
			LuminanceAdjustmentPurple = -5,
			LuminanceAdjustmentRed = 0,
			LuminanceAdjustmentYellow = -2,
			LuminanceNoiseReductionContrast = 0,
			LuminanceNoiseReductionDetail = 50,
			LuminanceSmoothing = 0,
			ParametricDarks = 0,
			ParametricHighlightSplit = 75,
			ParametricHighlights = 0,
			ParametricLights = 0,
			ParametricMidtoneSplit = 50,
			ParametricShadowSplit = 25,
			ParametricShadows = 0,
			PerspectiveAspect = 0,
			PerspectiveHorizontal = 0,
			PerspectiveRotate = 0,
			PerspectiveScale = 100,
			PerspectiveUpright = 0,
			PerspectiveVertical = 0,
			PerspectiveX = 0,
			PerspectiveY = 0,
			PostCropVignetteAmount = -10,
			PostCropVignetteFeather = 100,
			PostCropVignetteHighlightContrast = 100,
			PostCropVignetteMidpoint = 50,
			PostCropVignetteRoundness = 50,
			PostCropVignetteStyle = 1,
			ProcessVersion = "6.7",
			RedHue = -5,
			RedSaturation = 2,
			Saturation = 0,
			SaturationAdjustmentAqua = -32,
			SaturationAdjustmentBlue = -32,
			SaturationAdjustmentGreen = -65,
			SaturationAdjustmentMagenta = -35,
			SaturationAdjustmentOrange = -25,
			SaturationAdjustmentPurple = -35,
			SaturationAdjustmentRed = -25,
			SaturationAdjustmentYellow = -72,
			ShadowTint = 2,
			Shadows2012 = 70,
			SharpenDetail = 30,
			SharpenEdgeMasking = 60,
			SharpenRadius = 0.8,
			Sharpness = 25,
			SplitToningBalance = 0,
			SplitToningHighlightHue = 0,
			SplitToningHighlightSaturation = 0,
			SplitToningShadowHue = 0,
			SplitToningShadowSaturation = 0,
			ToneCurveName2012 = "Linear",
			ToneCurvePV2012 = {
				0,
				0,
				255,
				255,
			},
			ToneCurvePV2012Blue = {
				0,
				0,
				255,
				255,
			},
			ToneCurvePV2012Green = {
				0,
				0,
				255,
				255,
			},
			ToneCurvePV2012Red = {
				0,
				0,
				255,
				255,
			},
			UprightCenterMode = 0,
			UprightCenterNormX = 0.5,
			UprightCenterNormY = 0.5,
			UprightFocalLength35mm = 35,
			UprightFocalMode = 0,
			UprightFourSegmentsCount = 0,
			UprightPreview = false,
			UprightTransformCount = 6,
			UprightVersion = 151388160,
			Vibrance = 0,
			VignetteAmount = 0,
			VignetteMidpoint = 50,
			WhiteBalance = "As Shot",
			Whites2012 = -10,
			orientation = "AB",
		},
		uuid = "65138AFA-AE5E-4755-A014-5ECCBB449106",
	},
	version = 0,
}
