揽月晴天拱门闪光还原.xmp
<x:xmpmeta xmlns:x="adobe:ns:meta/" x:xmptk="Adobe XMP Core 7.0-c000 1.000000, 0000/00/00-00:00:00        ">
 <rdf:RDF xmlns:rdf="http://www.w3.org/1999/02/22-rdf-syntax-ns#">
  <rdf:Description rdf:about=""
    xmlns:crs="http://ns.adobe.com/camera-raw-settings/1.0/"
   crs:PresetType="Normal"
   crs:Cluster=""
   crs:UUID="62F3CFCDF6481E4B8AB751D515C89D87"
   crs:SupportsAmount2="True"
   crs:SupportsAmount="True"
   crs:SupportsColor="True"
   crs:SupportsMonochrome="True"
   crs:SupportsHighDynamicRange="True"
   crs:SupportsNormalDynamicRange="True"
   crs:SupportsSceneReferred="True"
   crs:SupportsOutputReferred="True"
   crs:RequiresRGBTables="False"
   crs:CameraModelRestriction=""
   crs:Copyright=""
   crs:ContactInfo=""
   crs:Version="17.1"
   crs:CompatibleVersion="251854848"
   crs:ProcessVersion="15.4"
   crs:WhiteBalance="As Shot"
   crs:Exposure2012="0.00"
   crs:Contrast2012="-18"
   crs:Highlights2012="-100"
   crs:Shadows2012="+14"
   crs:Whites2012="0"
   crs:Blacks2012="-19"
   crs:Texture="0"
   crs:Clarity2012="0"
   crs:Dehaze="+17"
   crs:Vibrance="0"
   crs:Saturation="0"
   crs:ParametricShadows="0"
   crs:ParametricDarks="0"
   crs:ParametricLights="0"
   crs:ParametricHighlights="0"
   crs:ParametricShadowSplit="25"
   crs:ParametricMidtoneSplit="50"
   crs:ParametricHighlightSplit="75"
   crs:Sharpness="40"
   crs:SharpenRadius="+1.0"
   crs:SharpenDetail="25"
   crs:SharpenEdgeMasking="0"
   crs:LuminanceSmoothing="0"
   crs:ColorNoiseReduction="25"
   crs:ColorNoiseReductionDetail="50"
   crs:ColorNoiseReductionSmoothness="50"
   crs:HueAdjustmentRed="0"
   crs:HueAdjustmentOrange="0"
   crs:HueAdjustmentYellow="0"
   crs:HueAdjustmentGreen="0"
   crs:HueAdjustmentAqua="+36"
   crs:HueAdjustmentBlue="+1"
   crs:HueAdjustmentPurple="0"
   crs:HueAdjustmentMagenta="0"
   crs:SaturationAdjustmentRed="0"
   crs:SaturationAdjustmentOrange="0"
   crs:SaturationAdjustmentYellow="0"
   crs:SaturationAdjustmentGreen="0"
   crs:SaturationAdjustmentAqua="+3"
   crs:SaturationAdjustmentBlue="+18"
   crs:SaturationAdjustmentPurple="0"
   crs:SaturationAdjustmentMagenta="0"
   crs:LuminanceAdjustmentRed="0"
   crs:LuminanceAdjustmentOrange="0"
   crs:LuminanceAdjustmentYellow="0"
   crs:LuminanceAdjustmentGreen="0"
   crs:LuminanceAdjustmentAqua="0"
   crs:LuminanceAdjustmentBlue="-6"
   crs:LuminanceAdjustmentPurple="0"
   crs:LuminanceAdjustmentMagenta="0"
   crs:SplitToningShadowHue="0"
   crs:SplitToningShadowSaturation="0"
   crs:SplitToningHighlightHue="0"
   crs:SplitToningHighlightSaturation="0"
   crs:SplitToningBalance="0"
   crs:ColorGradeMidtoneHue="0"
   crs:ColorGradeMidtoneSat="0"
   crs:ColorGradeShadowLum="0"
   crs:ColorGradeMidtoneLum="0"
   crs:ColorGradeHighlightLum="0"
   crs:ColorGradeBlending="50"
   crs:ColorGradeGlobalHue="0"
   crs:ColorGradeGlobalSat="0"
   crs:ColorGradeGlobalLum="0"
   crs:AutoLateralCA="0"
   crs:LensProfileEnable="1"
   crs:LensManualDistortionAmount="0"
   crs:VignetteAmount="0"
   crs:DefringePurpleAmount="0"
   crs:DefringePurpleHueLo="30"
   crs:DefringePurpleHueHi="70"
   crs:DefringeGreenAmount="0"
   crs:DefringeGreenHueLo="40"
   crs:DefringeGreenHueHi="60"
   crs:PerspectiveUpright="0"
   crs:PerspectiveVertical="0"
   crs:PerspectiveHorizontal="0"
   crs:PerspectiveRotate="0.0"
   crs:PerspectiveAspect="0"
   crs:PerspectiveScale="100"
   crs:PerspectiveX="0.00"
   crs:PerspectiveY="0.00"
   crs:GrainAmount="0"
   crs:PostCropVignetteAmount="0"
   crs:ShadowTint="0"
   crs:RedHue="0"
   crs:RedSaturation="0"
   crs:GreenHue="0"
   crs:GreenSaturation="0"
   crs:BlueHue="0"
   crs:BlueSaturation="0"
   crs:HDREditMode="0"
   crs:OverrideLookVignette="False"
   crs:ToneCurveName2012="Linear"
   crs:LensProfileSetup="LensDefaults"
   crs:HasSettings="True"
   crs:CropConstrainToWarp="0">
   <crs:Name>
    <rdf:Alt>
     <rdf:li xml:lang="x-default">揽月晴天拱门闪光还原</rdf:li>
    </rdf:Alt>
   </crs:Name>
   <crs:ShortName>
    <rdf:Alt>
     <rdf:li xml:lang="x-default"/>
    </rdf:Alt>
   </crs:ShortName>
   <crs:SortName>
    <rdf:Alt>
     <rdf:li xml:lang="x-default"/>
    </rdf:Alt>
   </crs:SortName>
   <crs:Group>
    <rdf:Alt>
     <rdf:li xml:lang="x-default">小封预设</rdf:li>
    </rdf:Alt>
   </crs:Group>
   <crs:Description>
    <rdf:Alt>
     <rdf:li xml:lang="x-default"/>
    </rdf:Alt>
   </crs:Description>
   <crs:ToneCurvePV2012>
    <rdf:Seq>
     <rdf:li>0, 0</rdf:li>
     <rdf:li>255, 255</rdf:li>
    </rdf:Seq>
   </crs:ToneCurvePV2012>
   <crs:ToneCurvePV2012Red>
    <rdf:Seq>
     <rdf:li>0, 0</rdf:li>
     <rdf:li>255, 255</rdf:li>
    </rdf:Seq>
   </crs:ToneCurvePV2012Red>
   <crs:ToneCurvePV2012Green>
    <rdf:Seq>
     <rdf:li>0, 0</rdf:li>
     <rdf:li>255, 255</rdf:li>
    </rdf:Seq>
   </crs:ToneCurvePV2012Green>
   <crs:ToneCurvePV2012Blue>
    <rdf:Seq>
     <rdf:li>0, 0</rdf:li>
     <rdf:li>255, 255</rdf:li>
    </rdf:Seq>
   </crs:ToneCurvePV2012Blue>
   <crs:PointColors>
    <rdf:Seq>
     <rdf:li>-1.000000, -1.000000, -1.000000, -1.000000, -1.000000, -1.000000, -1.000000, -1.000000, -1.000000, -1.000000, -1.000000, -1.000000, -1.000000, -1.000000, -1.000000, -1.000000, -1.000000, -1.000000, -1.000000</rdf:li>
    </rdf:Seq>
   </crs:PointColors>
   <crs:LensBlur
    crs:Version="1"
    crs:Active="false"
    crs:ImageOrientation="0"
    crs:FocalRange="0 0 100 100"
    crs:BlurAmount="50"
    crs:BokehShape="0"
    crs:BokehShapeDetail="0"
    crs:HighlightsThreshold="50"
    crs:HighlightsBoost="50"
    crs:CatEyeAmount="0"
    crs:CatEyeScale="100"
    crs:BokehAspect="0"
    crs:BokehRotation="0"
    crs:SphericalAberration="0"/>
   <crs:MaskGroupBasedCorrections>
    <rdf:Seq>
     <rdf:li>
      <rdf:Description
       crs:What="Correction"
       crs:CorrectionAmount="1"
       crs:CorrectionActive="true"
       crs:CorrectionName="皮肤"
       crs:CorrectionSyncID="C4F2DA0E3C815546B9DC15F8E56681DA"
       crs:LocalExposure="0"
       crs:LocalHue="0"
       crs:LocalSaturation="-0.08901"
       crs:LocalContrast="0"
       crs:LocalClarity="0"
       crs:LocalSharpness="0"
       crs:LocalBrightness="0"
       crs:LocalToningHue="0"
       crs:LocalToningSaturation="0"
       crs:LocalExposure2012="0.14125"
       crs:LocalContrast2012="0"
       crs:LocalHighlights2012="-0.17277"
       crs:LocalShadows2012="0.05759"
       crs:LocalWhites2012="0"
       crs:LocalBlacks2012="0"
       crs:LocalClarity2012="0"
       crs:LocalDehaze="0"
       crs:LocalLuminanceNoise="0"
       crs:LocalMoire="0"
       crs:LocalDefringe="0"
       crs:LocalTemperature="0"
       crs:LocalTint="0"
       crs:LocalTexture="0"
       crs:LocalGrain="0"
       crs:LocalCurveRefineSaturation="100">
      <crs:CorrectionMasks>
       <rdf:Seq>
        <rdf:li
         crs:What="Mask/Image"
         crs:MaskActive="true"
         crs:MaskName="人物 1 - 面部皮肤"
         crs:MaskBlendMode="0"
         crs:MaskInverted="false"
         crs:MaskSyncID="02EC097697AE5F489BE3ABF993C8B276"
         crs:MaskValue="1"
         crs:MaskVersion="1"
         crs:MaskSubType="3"
         crs:MaskSubCategoryID="2"
         crs:ReferencePoint="0.500000 0.500000"
         crs:ErrorReason="0"/>
        <rdf:li
         crs:What="Mask/Image"
         crs:MaskActive="true"
         crs:MaskName="人物 1 - 身体皮肤"
         crs:MaskBlendMode="0"
         crs:MaskInverted="false"
         crs:MaskSyncID="C1AFEC53F9BD3E4AA8BBA40E895304EC"
         crs:MaskValue="1"
         crs:MaskVersion="1"
         crs:MaskSubType="3"
         crs:MaskSubCategoryID="4"
         crs:ReferencePoint="0.500000 0.500000"
         crs:ErrorReason="0"/>
       </rdf:Seq>
      </crs:CorrectionMasks>
      </rdf:Description>
     </rdf:li>
     <rdf:li>
      <rdf:Description
       crs:What="Correction"
       crs:CorrectionAmount="1"
       crs:CorrectionActive="true"
       crs:CorrectionName="暗部背景"
       crs:CorrectionSyncID="6F65C06ED5ECB14D9F040836B97F7B21"
       crs:LocalExposure="0"
       crs:LocalHue="0"
       crs:LocalSaturation="0.03665"
       crs:LocalContrast="0"
       crs:LocalClarity="0"
       crs:LocalSharpness="0"
       crs:LocalBrightness="0"
       crs:LocalToningHue="0"
       crs:LocalToningSaturation="0"
       crs:LocalExposure2012="-0.1205"
       crs:LocalContrast2012="0"
       crs:LocalHighlights2012="0"
       crs:LocalShadows2012="-0.13089"
       crs:LocalWhites2012="0"
       crs:LocalBlacks2012="0"
       crs:LocalClarity2012="0"
       crs:LocalDehaze="0"
       crs:LocalLuminanceNoise="0"
       crs:LocalMoire="0"
       crs:LocalDefringe="0"
       crs:LocalTemperature="0"
       crs:LocalTint="0"
       crs:LocalTexture="0"
       crs:LocalGrain="0"
       crs:LocalCurveRefineSaturation="100">
      <crs:CorrectionMasks>
       <rdf:Seq>
        <rdf:li
         crs:What="Mask/Image"
         crs:MaskActive="true"
         crs:MaskName="背景1"
         crs:MaskBlendMode="0"
         crs:MaskInverted="false"
         crs:MaskSyncID="FD94A13A1B25DE41B16FEA9F9A52D878"
         crs:MaskValue="1"
         crs:MaskVersion="1"
         crs:MaskSubType="0"
         crs:MaskSubCategoryID="22"
         crs:ReferencePoint="0.500000 0.500000"
         crs:ErrorReason="0"/>
        <rdf:li>
         <rdf:Description
          crs:What="Mask/RangeMask"
          crs:MaskActive="true"
          crs:MaskName="明亮度范围 1"
          crs:MaskBlendMode="1"
          crs:MaskInverted="false"
          crs:MaskSyncID="3BAF80131E94FF44903D2AA7BE372340"
          crs:MaskValue="0">
         <crs:CorrectionRangeMask
          crs:Version="3"
          crs:Type="2"
          crs:Invert="false"
          crs:SampleType="0"
          crs:LumRange="0.584036 0.834036 1.000000 1.000000"
          crs:LuminanceDepthSampleInfo="0 0.617132 0.184116"/>
         </rdf:Description>
        </rdf:li>
        <rdf:li>
         <rdf:Description
          crs:What="Mask/RangeMask"
          crs:MaskActive="true"
          crs:MaskName="明亮度范围 2"
          crs:MaskBlendMode="1"
          crs:MaskInverted="false"
          crs:MaskSyncID="391B10210AD6CE46B24DB240ED00997E"
          crs:MaskValue="0">
         <crs:CorrectionRangeMask
          crs:Version="3"
          crs:Type="2"
          crs:Invert="false"
          crs:SampleType="0"
          crs:LumRange="0.169026 0.419026 0.619026 0.869026"
          crs:LuminanceDepthSampleInfo="0 0.747800 0.829349"/>
         </rdf:Description>
        </rdf:li>
       </rdf:Seq>
      </crs:CorrectionMasks>
      </rdf:Description>
     </rdf:li>
     <rdf:li>
      <rdf:Description
       crs:What="Correction"
       crs:CorrectionAmount="1"
       crs:CorrectionActive="true"
       crs:CorrectionName="天空"
       crs:CorrectionSyncID="46D653DA9EAE824EAC6A699768EB2B18"
       crs:LocalExposure="0"
       crs:LocalHue="0"
       crs:LocalSaturation="0"
       crs:LocalContrast="0"
       crs:LocalClarity="0"
       crs:LocalSharpness="0"
       crs:LocalBrightness="0"
       crs:LocalToningHue="0"
       crs:LocalToningSaturation="0"
       crs:LocalExposure2012="-0.047"
       crs:LocalContrast2012="0.06806"
       crs:LocalHighlights2012="0.04712"
       crs:LocalShadows2012="-0.18325"
       crs:LocalWhites2012="0"
       crs:LocalBlacks2012="-0.10995"
       crs:LocalClarity2012="0"
       crs:LocalDehaze="0"
       crs:LocalLuminanceNoise="0"
       crs:LocalMoire="0"
       crs:LocalDefringe="0"
       crs:LocalTemperature="-0.06806"
       crs:LocalTint="0"
       crs:LocalTexture="0"
       crs:LocalGrain="0"
       crs:LocalCurveRefineSaturation="100">
      <crs:CorrectionMasks>
       <rdf:Seq>
        <rdf:li
         crs:What="Mask/Image"
         crs:MaskActive="true"
         crs:MaskName="天空 1"
         crs:MaskBlendMode="0"
         crs:MaskInverted="false"
         crs:MaskSyncID="6F2B8405D040A4418957AE1D128C27C5"
         crs:MaskValue="1"
         crs:MaskVersion="1"
         crs:MaskSubType="2"
         crs:ReferencePoint="0.500000 0.500000"
         crs:ErrorReason="0"/>
       </rdf:Seq>
      </crs:CorrectionMasks>
      </rdf:Description>
     </rdf:li>
    </rdf:Seq>
   </crs:MaskGroupBasedCorrections>
   <crs:Look>
    <rdf:Description
     crs:Name="Adobe Color"
     crs:Amount="1"
     crs:UUID="B952C231111CD8E0ECCF14B86BAA7077"
     crs:SupportsAmount="false"
     crs:SupportsMonochrome="false"
     crs:SupportsOutputReferred="false"
     crs:Copyright="© 2018 Adobe Systems, Inc."
     crs:Stubbed="true">
    <crs:Group>
     <rdf:Alt>
      <rdf:li xml:lang="x-default">Profiles</rdf:li>
     </rdf:Alt>
    </crs:Group>
    </rdf:Description>
   </crs:Look>
  </rdf:Description>
 </rdf:RDF>
</x:xmpmeta>
