鹿卧山阴天黑神话滤镜.xmp
<x:xmpmeta xmlns:x="adobe:ns:meta/" x:xmptk="Adobe XMP Core 7.0-c000 1.000000, 0000/00/00-00:00:00        ">
 <rdf:RDF xmlns:rdf="http://www.w3.org/1999/02/22-rdf-syntax-ns#">
  <rdf:Description rdf:about=""
    xmlns:crs="http://ns.adobe.com/camera-raw-settings/1.0/"
   crs:PresetType="Normal"
   crs:Cluster=""
   crs:UUID="21C9DC8FE803094AB5CFB0EB5A56171E"
   crs:SupportsAmount2="True"
   crs:SupportsAmount="True"
   crs:SupportsColor="True"
   crs:SupportsMonochrome="True"
   crs:SupportsHighDynamicRange="True"
   crs:SupportsNormalDynamicRange="True"
   crs:SupportsSceneReferred="True"
   crs:SupportsOutputReferred="True"
   crs:RequiresRGBTables="False"
   crs:CameraModelRestriction=""
   crs:Copyright=""
   crs:ContactInfo=""
   crs:Version="17.2"
   crs:CompatibleVersion="251854848"
   crs:ProcessVersion="15.4"
   crs:WhiteBalance="As Shot"
   crs:Exposure2012="0.00"
   crs:Contrast2012="-71"
   crs:Highlights2012="-36"
   crs:Shadows2012="-19"
   crs:Whites2012="0"
   crs:Blacks2012="+6"
   crs:Texture="0"
   crs:Clarity2012="0"
   crs:Dehaze="0"
   crs:Vibrance="0"
   crs:Saturation="0"
   crs:ParametricShadows="0"
   crs:ParametricDarks="0"
   crs:ParametricLights="0"
   crs:ParametricHighlights="0"
   crs:ParametricShadowSplit="25"
   crs:ParametricMidtoneSplit="50"
   crs:ParametricHighlightSplit="75"
   crs:Sharpness="40"
   crs:SharpenRadius="+1.0"
   crs:SharpenDetail="25"
   crs:SharpenEdgeMasking="0"
   crs:LuminanceSmoothing="0"
   crs:ColorNoiseReduction="0"
   crs:HueAdjustmentRed="-21"
   crs:HueAdjustmentOrange="0"
   crs:HueAdjustmentYellow="-22"
   crs:HueAdjustmentGreen="+12"
   crs:HueAdjustmentAqua="-87"
   crs:HueAdjustmentBlue="0"
   crs:HueAdjustmentPurple="-17"
   crs:HueAdjustmentMagenta="+44"
   crs:SaturationAdjustmentRed="-7"
   crs:SaturationAdjustmentOrange="-25"
   crs:SaturationAdjustmentYellow="+4"
   crs:SaturationAdjustmentGreen="-26"
   crs:SaturationAdjustmentAqua="0"
   crs:SaturationAdjustmentBlue="+21"
   crs:SaturationAdjustmentPurple="-6"
   crs:SaturationAdjustmentMagenta="-4"
   crs:LuminanceAdjustmentRed="-17"
   crs:LuminanceAdjustmentOrange="-9"
   crs:LuminanceAdjustmentYellow="-5"
   crs:LuminanceAdjustmentGreen="+20"
   crs:LuminanceAdjustmentAqua="+12"
   crs:LuminanceAdjustmentBlue="+47"
   crs:LuminanceAdjustmentPurple="+11"
   crs:LuminanceAdjustmentMagenta="-15"
   crs:SplitToningShadowHue="0"
   crs:SplitToningShadowSaturation="0"
   crs:SplitToningHighlightHue="200"
   crs:SplitToningHighlightSaturation="13"
   crs:SplitToningBalance="0"
   crs:ColorGradeMidtoneHue="0"
   crs:ColorGradeMidtoneSat="0"
   crs:ColorGradeShadowLum="0"
   crs:ColorGradeMidtoneLum="0"
   crs:ColorGradeHighlightLum="0"
   crs:ColorGradeBlending="50"
   crs:ColorGradeGlobalHue="0"
   crs:ColorGradeGlobalSat="0"
   crs:ColorGradeGlobalLum="0"
   crs:AutoLateralCA="0"
   crs:LensProfileEnable="1"
   crs:LensManualDistortionAmount="0"
   crs:VignetteAmount="0"
   crs:DefringePurpleAmount="0"
   crs:DefringePurpleHueLo="30"
   crs:DefringePurpleHueHi="70"
   crs:DefringeGreenAmount="0"
   crs:DefringeGreenHueLo="40"
   crs:DefringeGreenHueHi="60"
   crs:PerspectiveUpright="0"
   crs:PerspectiveVertical="0"
   crs:PerspectiveHorizontal="0"
   crs:PerspectiveRotate="0.0"
   crs:PerspectiveAspect="0"
   crs:PerspectiveScale="100"
   crs:PerspectiveX="0.00"
   crs:PerspectiveY="0.00"
   crs:GrainAmount="0"
   crs:PostCropVignetteAmount="0"
   crs:ShadowTint="0"
   crs:RedHue="0"
   crs:RedSaturation="0"
   crs:GreenHue="0"
   crs:GreenSaturation="0"
   crs:BlueHue="0"
   crs:BlueSaturation="0"
   crs:HDREditMode="0"
   crs:CurveRefineSaturation="100"
   crs:OverrideLookVignette="False"
   crs:ToneCurveName2012="Custom"
   crs:LensProfileSetup="LensDefaults"
   crs:HasSettings="True"
   crs:CropConstrainToWarp="0">
   <crs:Name>
    <rdf:Alt>
     <rdf:li xml:lang="x-default">鹿卧山阴天黑神话滤镜</rdf:li>
    </rdf:Alt>
   </crs:Name>
   <crs:ShortName>
    <rdf:Alt>
     <rdf:li xml:lang="x-default"/>
    </rdf:Alt>
   </crs:ShortName>
   <crs:SortName>
    <rdf:Alt>
     <rdf:li xml:lang="x-default"/>
    </rdf:Alt>
   </crs:SortName>
   <crs:Group>
    <rdf:Alt>
     <rdf:li xml:lang="x-default">小封预设</rdf:li>
    </rdf:Alt>
   </crs:Group>
   <crs:Description>
    <rdf:Alt>
     <rdf:li xml:lang="x-default"/>
    </rdf:Alt>
   </crs:Description>
   <crs:ToneCurvePV2012>
    <rdf:Seq>
     <rdf:li>0, 11</rdf:li>
     <rdf:li>255, 245</rdf:li>
    </rdf:Seq>
   </crs:ToneCurvePV2012>
   <crs:ToneCurvePV2012Red>
    <rdf:Seq>
     <rdf:li>0, 0</rdf:li>
     <rdf:li>255, 255</rdf:li>
    </rdf:Seq>
   </crs:ToneCurvePV2012Red>
   <crs:ToneCurvePV2012Green>
    <rdf:Seq>
     <rdf:li>0, 0</rdf:li>
     <rdf:li>255, 255</rdf:li>
    </rdf:Seq>
   </crs:ToneCurvePV2012Green>
   <crs:ToneCurvePV2012Blue>
    <rdf:Seq>
     <rdf:li>0, 0</rdf:li>
     <rdf:li>255, 255</rdf:li>
    </rdf:Seq>
   </crs:ToneCurvePV2012Blue>
   <crs:PointColors>
    <rdf:Seq>
     <rdf:li>-1.000000, -1.000000, -1.000000, -1.000000, -1.000000, -1.000000, -1.000000, -1.000000, -1.000000, -1.000000, -1.000000, -1.000000, -1.000000, -1.000000, -1.000000, -1.000000, -1.000000, -1.000000, -1.000000</rdf:li>
    </rdf:Seq>
   </crs:PointColors>
   <crs:LensBlur
    crs:Version="1"
    crs:Active="false"
    crs:ImageOrientation="0"
    crs:FocalRange="0 0 100 100"
    crs:BlurAmount="50"
    crs:BokehShape="0"
    crs:BokehShapeDetail="0"
    crs:HighlightsThreshold="50"
    crs:HighlightsBoost="50"
    crs:CatEyeAmount="0"
    crs:CatEyeScale="100"
    crs:BokehAspect="0"
    crs:BokehRotation="0"
    crs:SphericalAberration="0"/>
   <crs:MaskGroupBasedCorrections>
    <rdf:Seq>
     <rdf:li>
      <rdf:Description
       crs:What="Correction"
       crs:CorrectionAmount="1"
       crs:CorrectionActive="true"
       crs:CorrectionName="天空"
       crs:CorrectionSyncID="C6355E50702DD44D8E72FB6EFF646A8E"
       crs:LocalExposure="0"
       crs:LocalHue="0"
       crs:LocalSaturation="0"
       crs:LocalContrast="0"
       crs:LocalClarity="0"
       crs:LocalSharpness="0"
       crs:LocalBrightness="0"
       crs:LocalToningHue="0"
       crs:LocalToningSaturation="0"
       crs:LocalExposure2012="-0.02625"
       crs:LocalContrast2012="0"
       crs:LocalHighlights2012="0"
       crs:LocalShadows2012="0"
       crs:LocalWhites2012="0"
       crs:LocalBlacks2012="0"
       crs:LocalClarity2012="0"
       crs:LocalDehaze="0"
       crs:LocalLuminanceNoise="0"
       crs:LocalMoire="0"
       crs:LocalDefringe="0"
       crs:LocalTemperature="-0.19372"
       crs:LocalTint="-0.04712"
       crs:LocalTexture="0"
       crs:LocalGrain="0"
       crs:LocalCurveRefineSaturation="100">
      <crs:CorrectionMasks>
       <rdf:Seq>
        <rdf:li>
         <rdf:Description
          crs:What="Mask/RangeMask"
          crs:MaskActive="true"
          crs:MaskName="明亮度范围 1"
          crs:MaskBlendMode="0"
          crs:MaskInverted="false"
          crs:MaskSyncID="164941B0B8E83142AAFFC68064BB8CB5"
          crs:MaskValue="1">
         <crs:CorrectionRangeMask
          crs:Version="3"
          crs:Type="2"
          crs:Invert="false"
          crs:SampleType="0"
          crs:LumRange="0.785208 0.866581 1.000000 1.000000"
          crs:LuminanceDepthSampleInfo="0 0.077084 0.465530"/>
         </rdf:Description>
        </rdf:li>
        <rdf:li
         crs:What="Mask/Image"
         crs:MaskActive="true"
         crs:MaskName="主体 1"
         crs:MaskBlendMode="1"
         crs:MaskInverted="false"
         crs:MaskSyncID="1BE32EAA99692B498DF49C132F199851"
         crs:MaskValue="0"
         crs:MaskVersion="1"
         crs:MaskSubType="1"
         crs:ReferencePoint="0.500000 0.500000"
         crs:ErrorReason="0"/>
       </rdf:Seq>
      </crs:CorrectionMasks>
      </rdf:Description>
     </rdf:li>
     <rdf:li>
      <rdf:Description
       crs:What="Correction"
       crs:CorrectionAmount="1"
       crs:CorrectionActive="true"
       crs:CorrectionName="背景"
       crs:CorrectionSyncID="8BC498D2ECF431459207ACAF5947626F"
       crs:LocalExposure="0"
       crs:LocalHue="0"
       crs:LocalSaturation="0"
       crs:LocalContrast="0"
       crs:LocalClarity="0"
       crs:LocalSharpness="0"
       crs:LocalBrightness="0"
       crs:LocalToningHue="0"
       crs:LocalToningSaturation="0"
       crs:LocalExposure2012="-0.1185"
       crs:LocalContrast2012="0"
       crs:LocalHighlights2012="0.08057"
       crs:LocalShadows2012="-0.08057"
       crs:LocalWhites2012="0"
       crs:LocalBlacks2012="-0.04265"
       crs:LocalClarity2012="0"
       crs:LocalDehaze="0"
       crs:LocalLuminanceNoise="0"
       crs:LocalMoire="0"
       crs:LocalDefringe="0"
       crs:LocalTemperature="0"
       crs:LocalTint="0"
       crs:LocalTexture="0"
       crs:LocalGrain="0"
       crs:LocalCurveRefineSaturation="100">
      <crs:CorrectionMasks>
       <rdf:Seq>
        <rdf:li
         crs:What="Mask/Image"
         crs:MaskActive="true"
         crs:MaskName="背景1"
         crs:MaskBlendMode="0"
         crs:MaskInverted="false"
         crs:MaskSyncID="91A9E0BD5FDEFE45A85481B43CFCEFE2"
         crs:MaskValue="1"
         crs:MaskVersion="1"
         crs:MaskSubType="0"
         crs:MaskSubCategoryID="22"
         crs:ReferencePoint="0.500000 0.500000"
         crs:ErrorReason="0"/>
       </rdf:Seq>
      </crs:CorrectionMasks>
      </rdf:Description>
     </rdf:li>
     <rdf:li>
      <rdf:Description
       crs:What="Correction"
       crs:CorrectionAmount="1"
       crs:CorrectionActive="true"
       crs:CorrectionName="背景 已反转"
       crs:CorrectionSyncID="6C29559EB1504B4691949E9E926C2CED"
       crs:LocalExposure="0"
       crs:LocalHue="0"
       crs:LocalSaturation="0"
       crs:LocalContrast="0"
       crs:LocalClarity="0"
       crs:LocalSharpness="0"
       crs:LocalBrightness="0"
       crs:LocalToningHue="0"
       crs:LocalToningSaturation="0"
       crs:LocalExposure2012="0.03325"
       crs:LocalContrast2012="0"
       crs:LocalHighlights2012="0.45972"
       crs:LocalShadows2012="-0.09953"
       crs:LocalWhites2012="0"
       crs:LocalBlacks2012="0"
       crs:LocalClarity2012="0"
       crs:LocalDehaze="0"
       crs:LocalLuminanceNoise="0"
       crs:LocalMoire="0"
       crs:LocalDefringe="0"
       crs:LocalTemperature="0"
       crs:LocalTint="0"
       crs:LocalTexture="0"
       crs:LocalGrain="0"
       crs:LocalCorrectedDepth="0"
       crs:LocalCurveRefineSaturation="100">
      <crs:CorrectionMasks>
       <rdf:Seq>
        <rdf:li
         crs:What="Mask/Image"
         crs:MaskActive="true"
         crs:MaskName="背景1"
         crs:MaskBlendMode="0"
         crs:MaskInverted="true"
         crs:MaskSyncID="91A9E0BD5FDEFE45A85481B43CFCEFE2"
         crs:MaskValue="1"
         crs:MaskVersion="1"
         crs:MaskSubType="0"
         crs:MaskSubCategoryID="22"
         crs:ReferencePoint="0.500000 0.500000"
         crs:ErrorReason="0"/>
       </rdf:Seq>
      </crs:CorrectionMasks>
      </rdf:Description>
     </rdf:li>
    </rdf:Seq>
   </crs:MaskGroupBasedCorrections>
   <crs:Look>
    <rdf:Description
     crs:Name="Adobe Color"
     crs:Amount="1"
     crs:UUID="B952C231111CD8E0ECCF14B86BAA7077"
     crs:SupportsAmount="false"
     crs:SupportsMonochrome="false"
     crs:SupportsOutputReferred="false"
     crs:Copyright="© 2018 Adobe Systems, Inc."
     crs:Stubbed="true">
    <crs:Group>
     <rdf:Alt>
      <rdf:li xml:lang="x-default">Profiles</rdf:li>
     </rdf:Alt>
    </crs:Group>
    </rdf:Description>
   </crs:Look>
  </rdf:Description>
 </rdf:RDF>
</x:xmpmeta>
