其他预设/【239】阳光逆光效果预设26款/1.LUT预设（视频调色-PR-AE-PS-FCPX-达芬奇用）/阳光逆光预设__-21.cube
# Created by Adobe Lightroom plugin Export LUT (1.17.0)
# www.johnrellis.com/lightroom/exportlut.htm
# Preset: 阳光逆光预设[素锦印象]-21
# Color profile: /Library/Application Support/Adobe/Color/Profiles/Recommended/AdobeRGB1998.icc
LUT_3D_SIZE 5
DOMAIN_MIN 0.000000 0.000000 0.000000
DOMAIN_MAX 0.903226 0.903226 0.903226
0.000000 0.000000 0.000000
0.217502 0.000000 0.000000
0.524743 0.000000 0.000000
0.768338 0.000000 0.000000
0.988617 0.000000 0.000000
0.000000 0.209506 0.000000
0.209476 0.195315 0.000000
0.526818 0.229252 0.000000
0.769070 0.205264 0.000000
0.988159 0.185946 0.000000
0.000000 0.499855 0.000000
0.259098 0.498878 0.000000
0.501915 0.468666 0.000000
0.762875 0.474861 0.000000
0.986267 0.458045 0.000000
0.076356 0.737484 0.000000
0.267063 0.737026 0.000000
0.521416 0.734066 0.000000
0.744167 0.702510 0.137087
0.964385 0.711635 0.155245
0.176425 0.954101 0.000000
0.296269 0.952911 0.000000
0.516930 0.948821 0.000000
0.752865 0.936126 0.000000
0.953643 0.915190 0.293370
0.000000 0.000000 0.178286
0.228305 0.000000 0.180545
0.530755 0.000000 0.175998
0.770657 0.000000 0.161624
0.988678 0.000000 0.150515
0.000000 0.211246 0.177829
0.236454 0.212711 0.177615
0.532128 0.206882 0.167361
0.771115 0.198184 0.157046
0.988098 0.196109 0.146883
0.000000 0.501122 0.158968
0.256291 0.499763 0.153750
0.512108 0.474525 0.198581
0.770932 0.477119 0.146304
0.985870 0.463294 0.134249
0.115694 0.737301 0.116884
0.285740 0.736446 0.124605
0.528527 0.735134 0.115755
0.749386 0.705409 0.240574
0.966613 0.715053 0.239658
0.224613 0.952850 0.095552
0.323583 0.951720 0.094240
0.529259 0.947814 0.088685
0.757656 0.936309 0.173007
0.955016 0.915618 0.342016
0.133089 0.000000 0.398779
0.282994 0.000000 0.398444
0.541466 0.000000 0.396368
0.777584 0.000000 0.379278
0.988067 0.106416 0.376745
0.080354 0.217472 0.397833
0.275822 0.212192 0.397040
0.543511 0.205936 0.393286
0.777157 0.228519 0.380529
0.986694 0.271641 0.380407
0.114229 0.497719 0.388434
0.294163 0.497139 0.387274
0.544152 0.493019 0.385962
0.778378 0.490425 0.378912
0.985016 0.486091 0.374029
0.201602 0.736568 0.364111
0.331853 0.735225 0.366949
0.553399 0.733761 0.369574
0.765194 0.714290 0.400244
0.976471 0.717372 0.380285
0.292912 0.950835 0.350072
0.382605 0.949004 0.356146
0.556939 0.945647 0.355291
0.765347 0.938659 0.357641
0.958556 0.917235 0.464576
0.207462 0.000000 0.595880
0.319341 0.000000 0.595727
0.547051 0.000000 0.594781
0.791440 0.000000 0.591180
0.990173 0.134218 0.569238
0.205509 0.215854 0.595453
0.323003 0.215549 0.595087
0.551995 0.218448 0.593683
0.791379 0.232273 0.589868
0.988800 0.280461 0.570855
0.244572 0.487892 0.592462
0.355444 0.491218 0.591791
0.566155 0.494026 0.590417
0.791958 0.490669 0.587060
0.984955 0.503075 0.575128
0.280064 0.738949 0.588220
0.375036 0.738338 0.587884
0.569116 0.736934 0.587091
0.789609 0.732296 0.589136
0.978302 0.727810 0.586847
0.343755 0.948943 0.564355
0.415991 0.947448 0.566094
0.589532 0.942870 0.572778
0.786923 0.936278 0.588525
0.960143 0.920653 0.644556
0.211826 0.000000 0.857694
0.318090 0.000000 0.857664
0.535058 0.000000 0.857298
0.768734 0.000000 0.856443
0.985565 0.156405 0.843595
0.229557 0.222751 0.857420
0.331334 0.225010 0.857267
0.542992 0.235203 0.856779
0.770779 0.255741 0.855985
0.983886 0.288701 0.843107
0.291752 0.488289 0.856260
0.378027 0.492439 0.855924
0.562951 0.495888 0.855558
0.773190 0.496742 0.855375
0.978302 0.507103 0.842863
0.317754 0.718868 0.856291
0.393835 0.719570 0.856138
0.574182 0.721828 0.855711
0.784543 0.735500 0.854582
0.967010 0.744686 0.846128
0.346838 0.947143 0.856992
0.413611 0.946288 0.857023
0.589410 0.942870 0.857053
0.795529 0.936492 0.857481
0.956237 0.930968 0.863462
