其他预设/【239】阳光逆光效果预设26款/1.LUT预设（视频调色-PR-AE-PS-FCPX-达芬奇用）/阳光逆光预设__-11.cube
# Created by Adobe Lightroom plugin Export LUT (1.17.0)
# www.johnrellis.com/lightroom/exportlut.htm
# Preset: 阳光逆光预设[素锦印象]-11
# Color profile: /Library/Application Support/Adobe/Color/Profiles/Recommended/AdobeRGB1998.icc
LUT_3D_SIZE 5
DOMAIN_MIN 0.000000 0.000000 0.000000
DOMAIN_MAX 0.903226 0.903226 0.903226
0.000000 0.000000 0.000000
0.221256 0.000000 0.000000
0.515801 0.000000 0.000000
0.771542 0.000000 0.000000
0.975708 0.000000 0.000000
0.072206 0.202487 0.000000
0.218845 0.198245 0.008453
0.527367 0.226871 0.000000
0.774563 0.190982 0.000000
0.973541 0.138033 0.000000
0.191318 0.475410 0.000000
0.321508 0.473091 0.000000
0.519341 0.458412 0.000000
0.775814 0.459998 0.000000
0.975891 0.430121 0.000000
0.290715 0.706813 0.000000
0.381903 0.702327 0.000000
0.578363 0.690791 0.000000
0.769955 0.681910 0.123842
0.975677 0.673701 0.000000
0.384497 0.914092 0.000000
0.450568 0.912444 0.000000
0.624567 0.908843 0.000000
0.812161 0.901061 0.171603
0.978180 0.898955 0.325261
0.000000 0.000000 0.179904
0.237247 0.000000 0.189090
0.543267 0.000000 0.174746
0.787961 0.000000 0.142824
0.983673 0.000000 0.130373
0.048676 0.213809 0.184573
0.251682 0.216159 0.179721
0.548943 0.199863 0.157565
0.787839 0.157412 0.136690
0.983032 0.093080 0.125887
0.119905 0.493202 0.136568
0.321050 0.487282 0.157839
0.547234 0.478553 0.189395
0.785214 0.458167 0.114168
0.980438 0.424781 0.110262
0.279454 0.712886 0.132601
0.381048 0.707881 0.139467
0.584100 0.695094 0.150973
0.775998 0.686397 0.230991
0.978637 0.674067 0.146365
0.386145 0.916167 0.175692
0.452064 0.914458 0.177859
0.622522 0.907469 0.183536
0.813138 0.900450 0.251896
0.977417 0.898955 0.372107
0.107790 0.000000 0.405005
0.278996 0.000000 0.406043
0.570306 0.000000 0.414984
0.801968 0.000000 0.385260
0.987396 0.000000 0.385840
0.076600 0.217227 0.407599
0.280705 0.206668 0.408759
0.580255 0.177615 0.410529
0.801785 0.160098 0.384436
0.987060 0.153201 0.379431
0.128237 0.507012 0.409857
0.304967 0.509239 0.407538
0.587884 0.496345 0.398108
0.797330 0.458076 0.375341
0.986419 0.421881 0.362402
0.252049 0.728328 0.366247
0.373266 0.725490 0.370275
0.603174 0.707790 0.383673
0.790402 0.698909 0.419196
0.983215 0.675868 0.362432
0.403784 0.923552 0.381872
0.493050 0.918853 0.408423
0.624842 0.913725 0.392401
0.818814 0.905272 0.411902
0.979309 0.904356 0.491279
0.187320 0.000000 0.617762
0.319127 0.000000 0.617578
0.572808 0.000000 0.617762
0.819272 0.000000 0.596979
0.997803 0.121004 0.575891
0.174014 0.210208 0.620081
0.318608 0.204257 0.620203
0.580041 0.185122 0.619562
0.821134 0.214572 0.597253
0.996674 0.283879 0.583215
0.225132 0.492348 0.620264
0.359625 0.494575 0.620111
0.607141 0.501549 0.618158
0.820676 0.513420 0.604517
0.990387 0.502464 0.600183
0.321721 0.743832 0.607446
0.426459 0.741390 0.607752
0.632319 0.731655 0.608820
0.811795 0.715969 0.604028
0.987945 0.679530 0.580987
0.447944 0.930419 0.587243
0.510430 0.928130 0.592920
0.652430 0.922301 0.604395
0.809232 0.914824 0.592737
0.979889 0.912535 0.639643
0.215244 0.000000 0.852201
0.332891 0.000000 0.852415
0.569177 0.000000 0.852628
0.822232 0.000000 0.852689
1.000000 0.208011 0.800870
0.212650 0.214969 0.853513
0.334447 0.212650 0.853605
0.573663 0.209842 0.853483
0.824094 0.232181 0.853422
1.000000 0.330419 0.804074
0.274174 0.488838 0.854429
0.384131 0.495216 0.854154
0.600427 0.503838 0.853819
0.826047 0.509911 0.854215
0.998413 0.537713 0.814572
0.366491 0.737179 0.855344
0.447791 0.738186 0.855528
0.623651 0.736751 0.855711
0.813596 0.727199 0.856596
0.989349 0.738125 0.833433
0.471473 0.958984 0.846464
0.524498 0.956603 0.846891
0.660395 0.948699 0.847379
0.826535 0.938140 0.852323
0.974517 0.927459 0.861662
