其他预设/【239】阳光逆光效果预设26款/1.LUT预设（视频调色-PR-AE-PS-FCPX-达芬奇用）/阳光逆光预设__-15.cube
# Created by Adobe Lightroom plugin Export LUT (1.17.0)
# www.johnrellis.com/lightroom/exportlut.htm
# Preset: 阳光逆光预设[素锦印象]-15
# Color profile: /Library/Application Support/Adobe/Color/Profiles/Recommended/AdobeRGB1998.icc
LUT_3D_SIZE 32
0.000000 0.000000 0.000000
0.000000 0.000000 0.000000
0.036469 0.000000 0.000000
0.086976 0.000000 0.000000
0.122621 0.000000 0.000000
0.158755 0.000000 0.000000
0.195865 0.000000 0.000000
0.233555 0.000000 0.000000
0.271672 0.000000 0.000000
0.309819 0.000000 0.000000
0.349157 0.000000 0.000000
0.388525 0.013642 0.000000
0.428107 0.053437 0.000000
0.468116 0.070832 0.000000
0.508110 0.083375 0.000000
0.547997 0.094606 0.000000
0.587884 0.107973 0.000000
0.627497 0.119295 0.000000
0.666224 0.130678 0.000000
0.704860 0.140841 0.000000
0.743435 0.150240 0.000000
0.781704 0.159182 0.000000
0.819455 0.165957 0.000000
0.856260 0.171633 0.000000
0.891814 0.175174 0.000000
0.925811 0.177554 0.000000
0.958007 0.178317 0.000000
0.988281 0.177798 0.000000
1.000000 0.175113 0.000000
1.000000 0.171633 0.000000
1.000000 0.166018 0.000000
1.000000 0.159060 0.000000
0.000000 0.000000 0.000000
0.000000 0.002411 0.000000
0.041077 0.000305 0.000000
0.087190 0.001221 0.000000
0.122469 0.000000 0.000000
0.158785 0.000000 0.000000
0.196017 0.000000 0.000000
0.233616 0.000000 0.000000
0.271733 0.000000 0.000000
0.310369 0.010590 0.000000
0.349340 0.031067 0.000000
0.388800 0.058198 0.000000
0.428595 0.073915 0.000000
0.468605 0.085389 0.000000
0.508690 0.096162 0.000000
0.548516 0.106813 0.000000
0.588525 0.117739 0.000000
0.628016 0.129274 0.000000
0.666621 0.139437 0.000000
0.705318 0.149142 0.000000
0.743801 0.158297 0.000000
0.782101 0.165530 0.000000
0.819821 0.172152 0.000000
0.856596 0.178164 0.000000
0.892119 0.181674 0.000000
0.926085 0.183749 0.000000
0.958282 0.184451 0.000000
0.988525 0.183474 0.000000
1.000000 0.181003 0.000000
1.000000 0.177279 0.000000
1.000000 0.171481 0.000000
1.000000 0.165042 0.000000
0.000000 0.038483 0.000000
0.000000 0.044282 0.000000
0.039094 0.040528 0.000000
0.082887 0.050446 0.003082
0.119722 0.050263 0.000000
0.157534 0.048676 0.000000
0.196017 0.046448 0.000000
0.233860 0.050111 0.000000
0.272068 0.055848 0.000000
0.310521 0.062165 0.000000
0.349706 0.071138 0.000000
0.389227 0.081697 0.000000
0.428870 0.093538 0.000000
0.469001 0.102052 0.000000
0.508965 0.111269 0.000000
0.549035 0.120516 0.000000
0.588861 0.130800 0.000000
0.628382 0.140871 0.000000
0.667048 0.149996 0.000000
0.705684 0.159304 0.000000
0.744259 0.167819 0.000000
0.782467 0.174807 0.000000
0.820127 0.181460 0.000000
0.856901 0.186221 0.000000
0.892393 0.189303 0.000000
0.926299 0.190951 0.000000
0.958434 0.192203 0.000000
0.988647 0.190829 0.000000
1.000000 0.188571 0.000000
1.000000 0.184176 0.000000
1.000000 0.178988 0.000000
1.000000 0.172061 0.000000
0.000000 0.084382 0.000000
0.000000 0.085023 0.000000
0.033021 0.083955 0.000000
0.083742 0.082429 0.000000
0.115328 0.084108 0.000946
0.150729 0.090211 0.001892
0.190188 0.092470 0.000000
0.229801 0.095613 0.000000
0.269230 0.098482 0.000000
0.308934 0.102632 0.000000
0.348669 0.109010 0.000000
0.388800 0.116670 0.000000
0.429267 0.123751 0.000000
0.469703 0.130312 0.000000
0.509758 0.138308 0.000000
0.549767 0.146059 0.000000
0.589593 0.154604 0.000000
0.629084 0.163241 0.000000
0.667811 0.171450 0.000000
0.706416 0.179141 0.000000
0.744961 0.186618 0.000000
0.783108 0.193027 0.000000
0.820676 0.198886 0.000000
0.857359 0.202976 0.000000
0.892760 0.206088 0.000000
0.926543 0.207248 0.000000
0.958648 0.207065 0.000000
0.988800 0.205661 0.000000
1.000000 0.203433 0.000000
1.000000 0.199619 0.000000
1.000000 0.194247 0.000000
1.000000 0.187106 0.000000
0.000000 0.117281 0.000000
0.000000 0.116915 0.000000
0.023804 0.115999 0.000000
0.077943 0.114168 0.000000
0.115816 0.113313 0.000000
0.149325 0.115633 0.000000
0.183108 0.124453 0.001923
0.222812 0.131350 0.000000
0.263462 0.136507 0.000000
0.304112 0.141634 0.000000
0.344823 0.147402 0.000000
0.385718 0.153658 0.000000
0.426947 0.159060 0.000000
0.467994 0.165072 0.000000
0.508782 0.171267 0.000000
0.549371 0.178347 0.000000
0.589990 0.184939 0.000000
0.630030 0.192447 0.000000
0.668696 0.199130 0.000000
0.707301 0.206577 0.000000
0.745663 0.212650 0.000000
0.783871 0.218509 0.000000
0.821378 0.222904 0.000000
0.857939 0.226780 0.000000
0.893217 0.229068 0.000000
0.927001 0.229801 0.000000
0.958984 0.229526 0.000000
0.989044 0.227573 0.000000
1.000000 0.224704 0.000000
1.000000 0.220645 0.000000
1.000000 0.214908 0.000000
1.000000 0.208377 0.000000
0.000000 0.149966 0.000000
0.000000 0.149416 0.000000
0.014466 0.148379 0.000000
0.073884 0.146426 0.000000
0.111543 0.145144 0.000000
0.148501 0.145052 0.000000
0.183383 0.148013 0.000000
0.218601 0.157473 0.000000
0.255589 0.168978 0.000000
0.297490 0.176333 0.000000
0.339513 0.182895 0.000000
0.381537 0.189059 0.000000
0.423255 0.194980 0.000000
0.464942 0.200656 0.000000
0.506035 0.207034 0.000000
0.547082 0.213291 0.000000
0.587915 0.219455 0.000000
0.628168 0.226169 0.000000
0.667506 0.232273 0.000000
0.706783 0.238071 0.000000
0.745876 0.243626 0.000000
0.784512 0.247837 0.000000
0.820432 0.251011 0.000000
0.857023 0.254276 0.000000
0.892363 0.255863 0.000000
0.926207 0.256321 0.000000
0.958221 0.255924 0.000000
0.988342 0.253574 0.000000
1.000000 0.250217 0.000000
1.000000 0.245914 0.000000
1.000000 0.240299 0.000000
1.000000 0.233433 0.000000
0.000000 0.182589 0.000000
0.000000 0.181704 0.000000
0.006958 0.180911 0.000000
0.072816 0.179171 0.000000
0.107881 0.176852 0.000000
0.145510 0.176974 0.000000
0.181491 0.177157 0.000000
0.217227 0.180423 0.000000
0.253910 0.190890 0.000000
0.292027 0.203037 0.000000
0.332769 0.214603 0.000000
0.375616 0.221927 0.000000
0.418128 0.228977 0.000000
0.460182 0.235660 0.000000
0.502068 0.241917 0.000000
0.543420 0.248631 0.000000
0.584527 0.255192 0.000000
0.625208 0.261173 0.000000
0.664790 0.266880 0.000000
0.704341 0.272099 0.000000
0.743526 0.276799 0.000000
0.782284 0.280980 0.000000
0.820218 0.284123 0.000000
0.857115 0.286320 0.000000
0.892699 0.287327 0.000000
0.926726 0.286870 0.000000
0.958801 0.285039 0.000000
0.988769 0.282689 0.000000
1.000000 0.278752 0.000000
1.000000 0.274388 0.000000
1.000000 0.268284 0.000000
1.000000 0.261387 0.000000
0.000000 0.215732 0.000000
0.000000 0.215335 0.000000
0.001129 0.214786 0.000000
0.071595 0.213046 0.000000
0.107912 0.210880 0.000000
0.142916 0.209903 0.000000
0.179843 0.210575 0.000000
0.215793 0.211551 0.000000
0.252873 0.214694 0.000000
0.290684 0.225742 0.000000
0.329778 0.238376 0.000000
0.370153 0.252171 0.000000
0.412604 0.262333 0.000000
0.455451 0.270176 0.000000
0.497902 0.277287 0.000000
0.539666 0.284367 0.000000
0.581262 0.290806 0.000000
0.622217 0.297154 0.000000
0.662257 0.302739 0.000000
0.702174 0.308080 0.000000
0.741543 0.312596 0.000000
0.780575 0.316533 0.000000
0.818753 0.319066 0.000000
0.855894 0.320775 0.000000
0.891569 0.321386 0.000000
0.925750 0.320317 0.000000
0.958038 0.318212 0.000000
0.988373 0.315038 0.000000
1.000000 0.310704 0.000000
1.000000 0.304814 0.000000
1.000000 0.298314 0.000000
1.000000 0.291203 0.000000
0.000000 0.250980 0.000000
0.000000 0.250492 0.000000
0.000000 0.249912 0.000000
0.066682 0.248722 0.000000
0.107149 0.246525 0.000000
0.140383 0.244022 0.000000
0.177462 0.244419 0.000000
0.214328 0.245640 0.000000
0.251011 0.246708 0.000000
0.288518 0.249546 0.000000
0.327214 0.261479 0.000000
0.367071 0.274479 0.000000
0.407935 0.288853 0.000000
0.449622 0.303899 0.000000
0.492500 0.312322 0.000000
0.535027 0.319982 0.000000
0.577081 0.327153 0.000000
0.618524 0.333959 0.000000
0.658991 0.339178 0.000000
0.699275 0.344640 0.000000
0.739101 0.349279 0.000000
0.778439 0.352789 0.000000
0.816800 0.355535 0.000000
0.854124 0.357000 0.000000
0.890043 0.357183 0.000000
0.924315 0.355779 0.000000
0.956725 0.353491 0.000000
0.987152 0.349706 0.000000
1.000000 0.345159 0.000000
1.000000 0.339178 0.000000
1.000000 0.332250 0.000000
1.000000 0.324407 0.000000
0.000000 0.286778 0.000000
0.000000 0.286259 0.000000
0.000000 0.285771 0.000000
0.061189 0.284550 0.000000
0.104372 0.282841 0.000000
0.140047 0.280491 0.000000
0.173709 0.278569 0.000000
0.212009 0.279820 0.000000
0.249241 0.281346 0.000000
0.286290 0.282902 0.000000
0.323919 0.284764 0.000000
0.363439 0.297276 0.000000
0.403967 0.311131 0.000000
0.445197 0.326024 0.000000
0.487007 0.341863 0.000000
0.529473 0.354925 0.000000
0.572045 0.363043 0.000000
0.614008 0.370062 0.000000
0.654871 0.376257 0.000000
0.695705 0.381537 0.000000
0.735927 0.386725 0.000000
0.775631 0.390265 0.000000
0.814481 0.392981 0.000000
0.852079 0.393957 0.000000
0.888273 0.393835 0.000000
0.922667 0.392554 0.000000
0.955200 0.389776 0.000000
0.985718 0.385840 0.000000
1.000000 0.380621 0.000000
1.000000 0.374456 0.000000
1.000000 0.367193 0.000000
1.000000 0.359106 0.000000
0.000000 0.322942 0.000000
0.000000 0.322606 0.000000
0.000000 0.322087 0.000000
0.045106 0.321019 0.000000
0.100191 0.319341 0.000000
0.138338 0.316991 0.000000
0.171847 0.314366 0.000000
0.207980 0.314122 0.000000
0.246311 0.315648 0.000000
0.283818 0.317418 0.000000
0.321416 0.319493 0.000000
0.359075 0.321263 0.000000
0.399237 0.333745 0.000000
0.440284 0.348211 0.000000
0.482002 0.363775 0.000000
0.523949 0.379980 0.000000
0.566278 0.396887 0.000000
0.608667 0.406348 0.000000
0.650233 0.413214 0.000000
0.691554 0.419196 0.000000
0.732326 0.424384 0.000000
0.772457 0.428138 0.000000
0.811582 0.431006 0.000000
0.849485 0.432136 0.000000
0.885924 0.431891 0.000000
0.920592 0.430274 0.000000
0.953277 0.427161 0.000000
0.983917 0.422766 0.000000
1.000000 0.417304 0.000000
1.000000 0.410620 0.000000
1.000000 0.403235 0.000000
1.000000 0.394537 0.000000
0.000000 0.359472 0.000000
0.000000 0.359167 0.000000
0.000000 0.358709 0.000000
0.008942 0.357549 0.000000
0.093355 0.356054 0.000000
0.134554 0.353796 0.000000
0.170138 0.351324 0.000000
0.202853 0.348241 0.000000
0.241978 0.349859 0.000000
0.280491 0.351751 0.000000
0.318273 0.353918 0.000000
0.356146 0.356420 0.000000
0.393011 0.357214 0.000000
0.433600 0.369329 0.000000
0.474830 0.384436 0.000000
0.516686 0.400305 0.000000
0.559106 0.416907 0.000000
0.601343 0.433906 0.000000
0.643458 0.448768 0.000000
0.685512 0.455756 0.000000
0.727016 0.461402 0.000000
0.767666 0.465949 0.000000
0.807340 0.468788 0.000000
0.845731 0.470253 0.000000
0.882567 0.470008 0.000000
0.917510 0.468269 0.000000
0.950500 0.464973 0.000000
0.981384 0.460487 0.000000
1.000000 0.454780 0.000000
1.000000 0.447913 0.000000
1.000000 0.439765 0.000000
1.000000 0.431067 0.000000
0.000000 0.395422 0.000000
0.000000 0.395056 0.000000
0.000000 0.394659 0.000000
0.000000 0.393622 0.000000
0.083101 0.392370 0.000000
0.129061 0.390417 0.000000
0.166934 0.387976 0.000000
0.201114 0.385077 0.000000
0.236271 0.383490 0.000000
0.275212 0.385504 0.000000
0.313909 0.387732 0.000000
0.352087 0.390143 0.000000
0.390112 0.392950 0.000000
0.427588 0.394751 0.000000
0.468452 0.406165 0.000000
0.510155 0.421820 0.000000
0.552331 0.438087 0.000000
0.594751 0.454780 0.000000
0.637110 0.471473 0.000000
0.680049 0.488472 0.000000
0.722194 0.499123 0.000000
0.763455 0.504021 0.000000
0.803555 0.507408 0.000000
0.842374 0.508873 0.000000
0.879545 0.508782 0.000000
0.914702 0.507042 0.000000
0.947906 0.503593 0.000000
0.978973 0.498909 0.000000
1.000000 0.492805 0.000000
1.000000 0.485634 0.000000
1.000000 0.477363 0.000000
1.000000 0.468208 0.000000
0.000000 0.432105 0.000000
0.000000 0.431800 0.000000
0.000000 0.431342 0.000000
0.000000 0.430610 0.000000
0.068391 0.429084 0.000000
0.121981 0.427253 0.000000
0.162692 0.424994 0.000000
0.198581 0.422278 0.000000
0.231937 0.419013 0.000000
0.269749 0.419379 0.000000
0.308843 0.421576 0.000000
0.347509 0.424231 0.000000
0.385718 0.427100 0.000000
0.424170 0.430243 0.000000
0.461280 0.431891 0.000000
0.502617 0.442817 0.000000
0.544823 0.459083 0.000000
0.587427 0.475715 0.000000
0.630121 0.492409 0.000000
0.673396 0.509392 0.000000
0.716335 0.525902 0.000000
0.758541 0.541436 0.000000
0.799191 0.545617 0.000000
0.838437 0.547570 0.000000
0.875914 0.547570 0.000000
0.911437 0.545739 0.000000
0.944854 0.542443 0.000000
0.976074 0.537499 0.000000
1.000000 0.531212 0.000000
1.000000 0.523949 0.000000
1.000000 0.515404 0.000000
1.000000 0.505974 0.000000
0.000000 0.468727 0.000000
0.000000 0.468482 0.000000
0.000000 0.468025 0.000000
0.000000 0.467231 0.000000
0.032349 0.465949 0.000000
0.111635 0.464302 0.000000
0.156313 0.462104 0.000000
0.194522 0.459358 0.000000
0.229374 0.456306 0.000000
0.262699 0.453193 0.000000
0.302892 0.455451 0.000000
0.342046 0.458045 0.000000
0.380560 0.460975 0.000000
0.419196 0.464240 0.000000
0.457832 0.467811 0.000000
0.494820 0.469154 0.000000
0.536278 0.479377 0.000000
0.579095 0.496101 0.000000
0.622095 0.513115 0.000000
0.665919 0.530266 0.000000
0.709560 0.546899 0.000000
0.752346 0.562371 0.000000
0.794064 0.576654 0.000000
0.834012 0.585657 0.000000
0.871916 0.585840 0.000000
0.907713 0.584283 0.000000
0.941344 0.581018 0.000000
0.972808 0.576104 0.000000
1.000000 0.569757 0.000000
1.000000 0.562249 0.000000
1.000000 0.553582 0.000000
1.000000 0.543877 0.000000
0.000000 0.505394 0.000000
0.000000 0.505028 0.000000
0.000000 0.504723 0.000000
0.000000 0.503868 0.000000
0.000000 0.502678 0.000000
0.099336 0.500938 0.000000
0.148867 0.498787 0.000000
0.189761 0.496193 0.000000
0.225986 0.493233 0.000000
0.259800 0.489815 0.000000
0.295781 0.488746 0.000000
0.335698 0.491463 0.000000
0.374670 0.494484 0.000000
0.413642 0.497780 0.000000
0.452369 0.501366 0.000000
0.491188 0.505211 0.000000
0.527733 0.506401 0.000000
0.569696 0.515831 0.000000
0.613336 0.533349 0.000000
0.657649 0.550835 0.000000
0.701747 0.567803 0.000000
0.745388 0.583490 0.000000
0.787716 0.597742 0.000000
0.828550 0.610315 0.000000
0.867185 0.621027 0.000000
0.903441 0.622370 0.000000
0.937377 0.619104 0.000000
0.969055 0.614282 0.000000
0.998383 0.607935 0.000000
1.000000 0.600366 0.000000
1.000000 0.591608 0.000000
1.000000 0.581933 0.000000
0.000000 0.541833 0.000000
0.000000 0.541558 0.000000
0.000000 0.541283 0.000000
0.000000 0.540520 0.000000
0.000000 0.539269 0.000000
0.081239 0.537682 0.000000
0.139162 0.535668 0.000000
0.182956 0.533104 0.000000
0.221500 0.530266 0.000000
0.256748 0.526970 0.000000
0.289616 0.523339 0.000000
0.328496 0.524590 0.000000
0.367987 0.527703 0.000000
0.407263 0.530846 0.000000
0.446143 0.534569 0.000000
0.485054 0.538445 0.000000
0.524254 0.542809 0.000000
0.560723 0.543908 0.000000
0.603449 0.552758 0.000000
0.648371 0.571099 0.000000
0.693446 0.588556 0.000000
0.737636 0.604669 0.000000
0.780789 0.619104 0.000000
0.822507 0.631708 0.000000
0.861997 0.642237 0.000000
0.898924 0.650904 0.000000
0.933074 0.656672 0.067231
0.964996 0.651972 0.021973
0.994507 0.645655 0.000000
1.000000 0.638025 0.000000
1.000000 0.629328 0.000000
1.000000 0.619562 0.000000
0.000000 0.578241 0.000000
0.000000 0.577935 0.000000
0.000000 0.576837 0.000000
0.000000 0.576013 0.000000
0.000000 0.574884 0.000000
0.046296 0.573449 0.000000
0.126772 0.571557 0.000000
0.174563 0.569207 0.000000
0.215427 0.566461 0.000000
0.252140 0.563470 0.000000
0.286351 0.559930 0.000000
0.320195 0.557244 0.000000
0.360754 0.560357 0.000000
0.400397 0.563806 0.000000
0.439612 0.567742 0.000000
0.478798 0.571832 0.000000
0.518273 0.576440 0.000000
0.557916 0.581170 0.000000
0.594476 0.582055 0.000000
0.637690 0.589899 0.000000
0.683497 0.608423 0.000000
0.728725 0.625208 0.000000
0.772854 0.640162 0.000000
0.815488 0.653010 0.000000
0.856046 0.663569 0.000000
0.893950 0.672084 0.000000
0.928954 0.678676 0.000000
0.960937 0.683803 0.085512
0.990234 0.682704 0.111147
1.000000 0.675135 0.100435
1.000000 0.666407 0.089082
1.000000 0.656703 0.075380
0.000000 0.615351 0.000000
0.000000 0.615045 0.000000
0.000000 0.614588 0.000000
0.000000 0.613764 0.000000
0.000000 0.612634 0.000000
0.000000 0.611261 0.000000
0.111849 0.609491 0.000000
0.165225 0.607385 0.000000
0.208713 0.604944 0.000000
0.247562 0.602014 0.000000
0.283055 0.598779 0.000000
0.316777 0.595209 0.000000
0.353613 0.595148 0.000000
0.394049 0.598718 0.000000
0.433875 0.602686 0.000000
0.473457 0.606958 0.000000
0.513085 0.611505 0.000000
0.552911 0.616236 0.000000
0.593225 0.621363 0.000000
0.630091 0.622065 0.000000
0.673274 0.627863 0.000000
0.719326 0.645655 0.000000
0.764553 0.661280 0.000000
0.808072 0.674556 0.000000
0.849607 0.685359 0.000000
0.888579 0.693751 0.000000
0.924590 0.700038 0.000000
0.957488 0.704616 0.000000
0.987060 0.707820 0.094423
1.000000 0.710170 0.151339
1.000000 0.702693 0.151949
1.000000 0.693111 0.146548
0.000000 0.654108 0.000000
0.000000 0.653864 0.000000
0.000000 0.653437 0.000000
0.000000 0.652674 0.000000
0.000000 0.651637 0.000000
0.000000 0.650355 0.000000
0.089662 0.648707 0.000000
0.153628 0.646754 0.000000
0.200900 0.644434 0.000000
0.242008 0.641688 0.000000
0.279393 0.638819 0.000000
0.314427 0.635523 0.000000
0.347417 0.631952 0.000000
0.387549 0.634699 0.000000
0.428168 0.638727 0.000000
0.468208 0.642847 0.000000
0.508080 0.647425 0.000000
0.548119 0.652186 0.000000
0.588556 0.657069 0.000000
0.629511 0.662165 0.000000
0.667689 0.663508 0.000000
0.709255 0.666377 0.000000
0.755123 0.681910 0.000000
0.799893 0.695918 0.000000
0.842649 0.707149 0.000000
0.882719 0.715694 0.000000
0.919799 0.721828 0.000000
0.953704 0.725978 0.000000
0.984192 0.728542 0.000000
1.000000 0.729976 0.104860
1.000000 0.730800 0.162448
1.000000 0.728664 0.195621
0.000000 0.693751 0.000000
0.000000 0.693477 0.000000
0.000000 0.693111 0.000000
0.000000 0.692378 0.000000
0.000000 0.691432 0.000000
0.000000 0.690211 0.000000
0.049226 0.688777 0.000000
0.139040 0.686946 0.000000
0.191440 0.684810 0.000000
0.235477 0.682399 0.000000
0.274846 0.679683 0.000000
0.311284 0.676753 0.000000
0.345769 0.673518 0.000000
0.380591 0.671656 0.000000
0.422065 0.675471 0.000000
0.462715 0.679530 0.000000
0.502892 0.683894 0.000000
0.543236 0.688380 0.000000
0.583673 0.693019 0.000000
0.624445 0.697719 0.000000
0.665919 0.702541 0.000000
0.706172 0.704860 0.000000
0.745418 0.704189 0.000000
0.790616 0.716548 0.000000
0.834531 0.728542 0.000000
0.875883 0.737514 0.000000
0.914153 0.743679 0.000000
0.949187 0.747585 0.000000
0.980774 0.749660 0.000000
1.000000 0.750393 0.000000
1.000000 0.750210 0.116854
1.000000 0.749935 0.174350
0.000000 0.733150 0.000000
0.000000 0.732967 0.000000
0.000000 0.732631 0.000000
0.000000 0.732143 0.000000
0.000000 0.731350 0.000000
0.000000 0.730220 0.000000
0.000000 0.728878 0.000000
0.119539 0.727260 0.000000
0.179751 0.725307 0.000000
0.227512 0.723049 0.000000
0.269047 0.720607 0.000000
0.307256 0.717891 0.000000
0.343175 0.714931 0.000000
0.377081 0.711757 0.000000
0.415259 0.712581 0.000000
0.456580 0.716396 0.000000
0.497353 0.720455 0.000000
0.537865 0.724636 0.000000
0.578454 0.729000 0.000000
0.619257 0.733394 0.000000
0.660700 0.737819 0.000000
0.702846 0.742123 0.000000
0.745296 0.745449 0.000000
0.781857 0.741207 0.000000
0.826078 0.749905 0.000000
0.868772 0.759548 0.000000
0.908446 0.766018 0.000000
0.944701 0.769863 0.000000
0.977325 0.771542 0.000000
1.000000 0.771603 0.000000
1.000000 0.770748 0.000000
1.000000 0.769741 0.127840
0.000000 0.772763 0.000000
0.000000 0.772580 0.000000
0.000000 0.772335 0.000000
0.000000 0.771756 0.000000
0.000000 0.771145 0.000000
0.000000 0.770077 0.000000
0.000000 0.768917 0.000000
0.091310 0.767453 0.000000
0.165408 0.765743 0.000000
0.217441 0.763699 0.000000
0.261875 0.761501 0.000000
0.302129 0.758999 0.000000
0.339330 0.756344 0.000000
0.374762 0.753445 0.000000
0.408484 0.750454 0.000000
0.450080 0.753567 0.000000
0.491218 0.757259 0.000000
0.532128 0.761135 0.000000
0.572900 0.765042 0.000000
0.613794 0.769131 0.000000
0.655146 0.772976 0.000000
0.697078 0.776883 0.000000
0.739986 0.780514 0.000000
0.783993 0.783932 0.000000
0.818418 0.776547 0.000000
0.861112 0.781369 0.000000
0.902220 0.788418 0.000000
0.939788 0.792416 0.000000
0.973663 0.793912 0.000000
1.000000 0.793606 0.000000
1.000000 0.792233 0.000000
1.000000 0.790585 0.000000
0.000000 0.811460 0.000000
0.000000 0.811276 0.000000
0.000000 0.811002 0.000000
0.000000 0.810575 0.000000
0.000000 0.809934 0.000000
0.000000 0.809140 0.000000
0.000000 0.808072 0.000000
0.029419 0.806729 0.000000
0.147707 0.805234 0.000000
0.205905 0.803433 0.000000
0.253178 0.801572 0.000000
0.295415 0.799374 0.000000
0.334478 0.797055 0.000000
0.371405 0.794400 0.000000
0.406317 0.791745 0.000000
0.442664 0.790707 0.000000
0.484627 0.794034 0.000000
0.525963 0.797513 0.000000
0.567041 0.801022 0.000000
0.607965 0.804501 0.000000
0.649226 0.807950 0.000000
0.690944 0.811307 0.000000
0.733455 0.814420 0.000000
0.777066 0.817227 0.000000
0.821897 0.819699 0.000000
0.854307 0.809720 0.000000
0.895323 0.810666 0.000000
0.934447 0.815122 0.000000
0.969604 0.816739 0.000000
1.000000 0.816220 0.000000
1.000000 0.814420 0.000000
1.000000 0.812253 0.000000
0.000000 0.849393 0.000000
0.000000 0.849271 0.000000
0.000000 0.849058 0.000000
0.000000 0.848661 0.000000
0.000000 0.848112 0.000000
0.000000 0.847349 0.000000
0.000000 0.846403 0.000000
0.000000 0.845274 0.000000
0.124819 0.843839 0.000000
0.191562 0.842313 0.000000
0.242893 0.840574 0.000000
0.287602 0.838651 0.000000
0.328557 0.836545 0.000000
0.366674 0.834257 0.000000
0.402869 0.831907 0.000000
0.437659 0.829343 0.000000
0.477150 0.830228 0.000000
0.518914 0.833219 0.000000
0.560235 0.836179 0.000000
0.601373 0.839139 0.000000
0.642542 0.842008 0.000000
0.684138 0.844724 0.000000
0.726345 0.847288 0.000000
0.769375 0.849546 0.000000
0.813504 0.851469 0.000000
0.858976 0.852903 0.000000
0.889616 0.840665 0.000000
0.928435 0.837766 0.000000
0.965087 0.839628 0.000000
0.997467 0.839139 0.000000
1.000000 0.837125 0.000000
1.000000 0.834592 0.000000
0.000000 0.885832 0.000000
0.000000 0.885679 0.000000
0.000000 0.885496 0.000000
0.000000 0.885191 0.000000
0.000000 0.884703 0.000000
0.000000 0.884062 0.000000
0.000000 0.883238 0.000000
0.000000 0.882231 0.000000
0.090822 0.881010 0.000000
0.174350 0.879637 0.000000
0.230900 0.878080 0.000000
0.278264 0.876371 0.000000
0.321019 0.874510 0.000000
0.360937 0.872526 0.000000
0.398413 0.870390 0.000000
0.434211 0.868223 0.000000
0.468849 0.865873 0.000000
0.511192 0.868223 0.000000
0.552850 0.870634 0.000000
0.594079 0.872984 0.000000
0.635309 0.875273 0.000000
0.676692 0.877409 0.000000
0.718563 0.879332 0.000000
0.761135 0.880980 0.000000
0.804593 0.882261 0.000000
0.849241 0.883085 0.000000
0.895262 0.883360 0.000000
0.924590 0.869657 0.000000
0.960357 0.862699 0.000000
0.994079 0.862364 0.000000
1.000000 0.860227 0.000000
1.000000 0.857450 0.000000
0.000000 0.920439 0.000000
0.000000 0.920348 0.000000
0.000000 0.920195 0.000000
0.000000 0.919951 0.000000
0.000000 0.919432 0.000000
0.000000 0.918853 0.000000
0.000000 0.918059 0.000000
0.000000 0.917144 0.000000
0.000000 0.916045 0.000000
0.153475 0.914794 0.000000
0.216495 0.913329 0.000000
0.267308 0.911803 0.000000
0.312169 0.910124 0.000000
0.353399 0.908354 0.000000
0.392370 0.906432 0.000000
0.429236 0.904479 0.000000
0.464881 0.902403 0.000000
0.502159 0.901640 0.000000
0.544182 0.903471 0.000000
0.585718 0.905241 0.000000
0.626825 0.906889 0.000000
0.668116 0.908415 0.000000
0.709712 0.909728 0.000000
0.751736 0.910765 0.000000
0.794644 0.911437 0.000000
0.838590 0.911681 0.000000
0.883635 0.911406 0.000000
0.929900 0.910521 0.000000
0.957885 0.895903 0.000000
0.990234 0.885252 0.000000
1.000000 0.883177 0.000000
1.000000 0.880278 0.000000
0.000000 0.952514 0.000000
0.000000 0.952453 0.000000
0.000000 0.952300 0.000000
0.000000 0.952056 0.000000
0.000000 0.951690 0.000000
0.000000 0.951171 0.000000
0.000000 0.950530 0.000000
0.000000 0.949706 0.000000
0.000000 0.948821 0.000000
0.126009 0.947692 0.000000
0.199832 0.946471 0.000000
0.254520 0.945159 0.000000
0.302068 0.943694 0.000000
0.345006 0.942138 0.000000
0.385168 0.940520 0.000000
0.423102 0.938842 0.000000
