其他预设/【239】阳光逆光效果预设26款/1.LUT预设（视频调色-PR-AE-PS-FCPX-达芬奇用）/阳光逆光预设__-22.cube
# Created by Adobe Lightroom plugin Export LUT (1.17.0)
# www.johnrellis.com/lightroom/exportlut.htm
# Preset: 阳光逆光预设[素锦印象]-22
# Color profile: /Library/Application Support/Adobe/Color/Profiles/Recommended/AdobeRGB1998.icc
LUT_3D_SIZE 5
DOMAIN_MIN 0.000000 0.000000 0.000000
DOMAIN_MAX 0.903226 0.903226 0.903226
0.000000 0.000000 0.000000
0.158968 0.000000 0.000000
0.396277 0.000000 0.000000
0.680659 0.000000 0.000000
0.956146 0.000000 0.000000
0.000000 0.152377 0.000000
0.152224 0.141878 0.000000
0.399664 0.174197 0.000000
0.683314 0.176974 0.000000
0.956512 0.157504 0.000000
0.000000 0.381262 0.000000
0.199405 0.382483 0.000000
0.385809 0.359319 0.000000
0.682155 0.418372 0.000000
0.957427 0.432868 0.000000
0.000000 0.663661 0.000000
0.219883 0.664973 0.000000
0.467689 0.667659 0.000000
0.678889 0.638514 0.000000
0.940185 0.675502 0.000000
0.000000 0.931182 0.000000
0.211551 0.930510 0.000000
0.475410 0.928161 0.000000
0.721736 0.918120 0.000000
0.936797 0.897917 0.091920
0.000000 0.000000 0.129366
0.165408 0.000000 0.130404
0.403235 0.000000 0.130129
0.687190 0.000000 0.096101
0.959564 0.000000 0.000000
0.000000 0.152773 0.128298
0.170626 0.153567 0.128023
0.406744 0.148226 0.117739
0.689570 0.120455 0.081544
0.959747 0.041962 0.000000
0.000000 0.383062 0.115297
0.184573 0.384588 0.099672
0.395941 0.365789 0.131685
0.695552 0.413611 0.000000
0.960204 0.418097 0.000000
0.000000 0.666224 0.000000
0.187991 0.667231 0.000000
0.462562 0.671046 0.000000
0.685084 0.642634 0.095521
0.944884 0.674647 0.000000
0.000000 0.932555 0.000000
0.173220 0.931823 0.000000
0.465980 0.929198 0.000000
0.720394 0.919524 0.000000
0.938506 0.898589 0.196262
0.103456 0.000000 0.303441
0.217166 0.000000 0.303380
0.418860 0.000000 0.304936
0.702541 0.000000 0.321508
0.966888 0.000000 0.305486
0.015595 0.161746 0.303777
0.202182 0.150484 0.303716
0.423651 0.125032 0.304204
0.706294 0.000000 0.312352
0.967834 0.000000 0.294743
0.000000 0.384833 0.299168
0.197574 0.385809 0.298589
0.430152 0.386023 0.297765
0.715663 0.383551 0.286107
0.968200 0.372442 0.273472
0.000000 0.668391 0.301946
0.165103 0.670741 0.293431
0.443977 0.675959 0.268101
0.704646 0.654597 0.302831
0.960815 0.666133 0.269871
0.000000 0.933257 0.263340
0.149599 0.933196 0.254520
0.440375 0.931945 0.226291
0.714351 0.924804 0.225467
0.943633 0.900725 0.370611
0.190311 0.000000 0.525628
0.287327 0.000000 0.525780
0.491035 0.000000 0.526177
0.728573 0.000000 0.528099
0.973053 0.000000 0.525078
0.126894 0.144106 0.527062
0.259739 0.130709 0.527123
0.485512 0.053437 0.527184
0.731563 0.000000 0.528130
0.973602 0.000000 0.521660
0.000000 0.417487 0.527245
0.208194 0.408637 0.527825
0.463233 0.384009 0.528618
0.738705 0.366155 0.526207
0.973388 0.366766 0.514733
0.000000 0.680140 0.524590
0.193149 0.680873 0.524498
0.454170 0.682124 0.523857
0.738552 0.676967 0.525231
0.967773 0.670832 0.521141
0.000000 0.933501 0.509789
0.199527 0.933196 0.507530
0.475776 0.930297 0.506432
0.736416 0.923400 0.519860
0.948486 0.904967 0.583551
0.197787 0.000000 0.822965
0.300145 0.000000 0.823178
0.509575 0.000000 0.823880
0.743313 0.000000 0.824949
0.975067 0.000000 0.814389
0.128664 0.111421 0.824247
0.267979 0.090120 0.824399
0.498207 0.000000 0.824918
0.739956 0.000000 0.825742
0.974578 0.000000 0.814267
0.000000 0.401953 0.826688
0.154360 0.391424 0.827176
0.465370 0.380865 0.827420
0.729671 0.368139 0.827726
0.970794 0.370703 0.814389
0.000000 0.675746 0.827939
0.148592 0.672816 0.828214
0.460487 0.667933 0.828519
0.737972 0.680659 0.827329
0.959014 0.690669 0.817624
0.000000 0.935576 0.829526
0.159823 0.934905 0.829648
0.480201 0.931426 0.829831
0.751247 0.923980 0.830228
0.947051 0.917357 0.837034
