其他预设/【239】阳光逆光效果预设26款/1.LUT预设（视频调色-PR-AE-PS-FCPX-达芬奇用）/阳光逆光预设__-24.cube
# Created by Adobe Lightroom plugin Export LUT (1.17.0)
# www.johnrellis.com/lightroom/exportlut.htm
# Preset: 阳光逆光预设[素锦印象]-24
# Color profile: /Library/Application Support/Adobe/Color/Profiles/Recommended/AdobeRGB1998.icc
LUT_3D_SIZE 8
DOMAIN_MIN 0.000000 0.000000 0.000000
DOMAIN_MAX 0.903226 0.903226 0.903226
0.000000 0.000000 0.000000
0.076600 0.000000 0.000000
0.190860 0.000000 0.000000
0.328405 0.000000 0.000000
0.485847 0.000000 0.000000
0.668208 0.000000 0.000000
0.857481 0.000000 0.000000
0.991363 0.000000 0.000000
0.000000 0.073671 0.000000
0.073671 0.069856 0.000000
0.192386 0.074647 0.000000
0.329534 0.077913 0.000000
0.486824 0.065248 0.000000
0.669215 0.000000 0.000000
0.857939 0.000000 0.000000
0.991333 0.000000 0.000000
0.000000 0.182925 0.000000
0.091981 0.183505 0.000000
0.183536 0.171206 0.000000
0.327886 0.198978 0.000000
0.490578 0.214206 0.000000
0.672724 0.224460 0.000000
0.859464 0.226902 0.000000
0.991150 0.212650 0.000000
0.000000 0.315801 0.000000
0.105531 0.316411 0.000000
0.223331 0.316991 0.000000
0.319646 0.297642 0.000000
0.473610 0.329137 0.000000
0.679011 0.368017 0.000000
0.861936 0.384222 0.000000
0.990723 0.374212 0.000000
0.000000 0.469642 0.000000
0.109895 0.470161 0.000000
0.245090 0.471839 0.000000
0.371679 0.465614 0.000000
0.475532 0.443488 0.000000
0.645319 0.483742 0.000000
0.856443 0.530297 0.000000
0.989746 0.521660 0.000000
0.000000 0.653529 0.000000
0.101167 0.654078 0.000000
0.264256 0.655940 0.000000
0.412207 0.659266 0.000000
0.549554 0.647150 0.000000
0.667964 0.627771 0.000000
0.828000 0.656184 0.000000
0.977111 0.665553 0.000000
0.000000 0.835477 0.000000
0.057801 0.835447 0.000000
0.267887 0.835233 0.000000
0.426123 0.834745 0.000000
0.577478 0.832334 0.000000
0.718135 0.817807 0.000000
0.842679 0.802243 0.000000
0.955566 0.794736 0.000000
0.000000 0.960723 0.000000
0.000000 0.960388 0.000000
0.255833 0.959075 0.000000
0.412848 0.956695 0.000000
0.560113 0.953124 0.000000
0.704036 0.945312 0.000000
0.839292 0.932372 0.000000
0.957702 0.919432 0.000000
0.000000 0.000000 0.067292
0.078798 0.000000 0.067445
0.192966 0.000000 0.068879
0.330816 0.000000 0.054597
0.488289 0.000000 0.000000
0.670619 0.000000 0.000000
0.859251 0.000000 0.000000
0.992340 0.000000 0.000000
0.000000 0.073823 0.067872
0.080476 0.073457 0.067994
0.194797 0.071351 0.064149
0.331975 0.054719 0.045716
0.489204 0.000000 0.000000
0.671595 0.000000 0.000000
0.859648 0.000000 0.000000
0.992279 0.000000 0.000000
0.000000 0.183505 0.064271
0.088014 0.184268 0.057771
0.189242 0.175082 0.070893
0.334661 0.197269 0.010040
0.492744 0.206485 0.000000
0.675074 0.212497 0.000000
0.861082 0.210941 0.000000
0.992065 0.195529 0.000000
0.000000 0.317174 0.000000
0.091707 0.317357 0.000000
0.221439 0.318700 0.000000
0.323583 0.300237 0.059541
0.479561 0.330632 0.000000
0.681117 0.363592 0.000000
0.863401 0.377539 0.000000
0.991547 0.367132 0.000000
0.000000 0.470680 0.000000
0.088441 0.471077 0.000000
0.239658 0.472541 0.000000
0.371984 0.467567 0.000000
0.478645 0.445655 0.000000
0.650477 0.485969 0.000000
0.859220 0.528344 0.000000
0.990478 0.517998 0.000000
0.000000 0.654475 0.000000
0.059236 0.654932 0.000000
0.255558 0.656733 0.000000
0.408759 0.659937 0.000000
0.550134 0.648737 0.000000
0.670314 0.629358 0.000000
0.830869 0.657496 0.000000
0.978332 0.664485 0.000000
0.000000 0.836179 0.000000
0.000000 0.836118 0.000000
0.256992 0.835874 0.000000
0.421332 0.835294 0.000000
0.575463 0.833249 0.000000
0.718379 0.818509 0.000000
0.843748 0.802823 0.000000
0.956573 0.795315 0.072969
0.000000 0.961151 0.000000
0.000000 0.960784 0.000000
0.246464 0.959472 0.000000
0.408423 0.957031 0.000000
0.557977 0.953368 0.000000
0.703182 0.945708 0.000000
0.839719 0.932586 0.000000
0.958251 0.919554 0.094636
0.000000 0.000000 0.151125
0.097139 0.000000 0.151156
0.199954 0.000000 0.152316
0.337804 0.000000 0.159487
0.495613 0.000000 0.152071
0.678889 0.000000 0.128847
0.864988 0.000000 0.099184
0.995453 0.000000 0.058320
0.000000 0.077424 0.151247
0.094759 0.071870 0.151217
0.202762 0.058228 0.151949
0.339605 0.000000 0.154818
0.497353 0.000000 0.143374
0.679683 0.000000 0.126009
0.865354 0.000000 0.093843
0.995361 0.000000 0.040864
0.000000 0.184207 0.149508
0.091859 0.184756 0.149233
0.206332 0.185214 0.149050
0.344091 0.184176 0.143771
0.500542 0.178561 0.134279
0.682826 0.164889 0.113283
0.866514 0.141665 0.070527
0.994995 0.121645 0.000000
0.000000 0.318029 0.150393
0.077668 0.318944 0.146395
0.215946 0.320562 0.136965
0.335515 0.307561 0.151949
0.499428 0.331975 0.126436
0.688319 0.348180 0.082124
0.868376 0.354284 0.000000
0.994202 0.342962 0.000000
0.000000 0.472236 0.129549
0.000000 0.473243 0.120577
0.222965 0.475013 0.105257
0.372290 0.474464 0.100954
0.488899 0.452247 0.143954
0.667933 0.492042 0.110414
0.868833 0.519951 0.000000
0.992767 0.505913 0.000000
0.000000 0.656733 0.000000
0.000000 0.657832 0.000000
0.224521 0.659510 0.000000
0.397467 0.662165 0.000000
0.551720 0.654292 0.000000
0.678187 0.634516 0.104921
0.840574 0.661158 0.096529
0.982574 0.660456 0.000000
0.000000 0.838376 0.000000
0.000000 0.838499 0.000000
0.216129 0.837980 0.000000
0.404639 0.837064 0.000000
0.568383 0.835386 0.000000
0.719234 0.821012 0.000000
0.847562 0.804776 0.075959
0.960174 0.797238 0.179660
0.000000 0.962432 0.000000
0.000000 0.962158 0.000000
0.213230 0.960723 0.000000
0.394232 0.958099 0.000000
0.550896 0.954223 0.000000
0.700343 0.947112 0.000000
0.841215 0.933318 0.000000
0.960082 0.920012 0.201999
0.083131 0.000000 0.248539
0.133608 0.000000 0.248447
0.231846 0.000000 0.248325
0.348211 0.000000 0.249729
0.505638 0.000000 0.261326
0.688899 0.000000 0.264836
0.872282 0.000000 0.252232
0.999695 0.000000 0.227817
0.062165 0.069581 0.248783
0.123537 0.063386 0.248783
0.229801 0.015686 0.248447
0.350164 0.000000 0.249699
0.507164 0.000000 0.258915
0.690333 0.000000 0.260319
0.873106 0.000000 0.245762
0.999817 0.000000 0.223056
0.000397 0.196963 0.247868
0.103548 0.193210 0.247898
0.223667 0.184543 0.247807
0.355474 0.176608 0.247776
0.511986 0.147799 0.249760
0.695399 0.000000 0.242710
0.875425 0.000000 0.225589
0.999420 0.000000 0.214847
0.000000 0.319310 0.244388
0.101717 0.319768 0.244205
0.224094 0.320989 0.243503
0.358618 0.320714 0.242924
0.518151 0.320836 0.235904
0.700984 0.317205 0.226017
0.876585 0.309117 0.212345
0.998260 0.301579 0.202426
0.000000 0.473671 0.247562
0.061433 0.474495 0.245548
0.219272 0.477119 0.237827
0.370703 0.479164 0.227665
0.506523 0.462654 0.244053
0.697475 0.495613 0.219333
0.877775 0.501305 0.189883
0.996338 0.486641 0.182254
0.000000 0.658289 0.237278
0.000000 0.659297 0.232700
0.195132 0.662715 0.214908
0.377203 0.665980 0.194736
0.552758 0.663996 0.193423
0.691768 0.642817 0.232395
0.856565 0.665126 0.223087
0.990082 0.651240 0.174746
0.000000 0.839048 0.199619
0.000000 0.839445 0.192569
0.163729 0.840482 0.165988
0.375555 0.840055 0.139956
0.557061 0.837552 0.127962
0.720729 0.825345 0.166232
0.854246 0.807889 0.235508
0.966033 0.800626 0.278904
0.000000 0.962524 0.146395
0.000000 0.962371 0.140322
0.193759 0.961578 0.120790
0.375219 0.959564 0.087587
0.542565 0.955322 0.073182
0.695460 0.949645 0.052522
0.844724 0.934478 0.202853
0.963195 0.920653 0.311223
0.140414 0.000000 0.355657
0.178744 0.000000 0.355596
0.272374 0.000000 0.355535
0.387366 0.000000 0.355108
0.519280 0.000000 0.357488
0.703395 0.000000 0.377325
0.879606 0.000000 0.379736
1.000000 0.000000 0.361608
0.121614 0.039673 0.356023
0.166384 0.015717 0.355962
0.267491 0.000000 0.355749
0.386664 0.000000 0.355261
0.520867 0.000000 0.357366
0.704768 0.000000 0.375677
0.880339 0.000000 0.376898
1.000000 0.000000 0.359136
0.054414 0.196323 0.355932
0.122499 0.189151 0.356146
0.251102 0.180575 0.355779
0.384192 0.167788 0.354864
0.525994 0.141665 0.356451
0.709285 0.000000 0.369360
0.882597 0.000000 0.366888
1.000000 0.000000 0.351141
0.017884 0.338262 0.353246
0.117861 0.336522 0.353338
0.239322 0.329839 0.353368
0.379797 0.320470 0.352697
0.533288 0.312993 0.352575
0.716457 0.288365 0.356176
0.885679 0.261173 0.348882
1.000000 0.274907 0.341283
0.000000 0.476081 0.348547
0.110384 0.476448 0.348394
0.239933 0.477668 0.347723
0.380682 0.480140 0.346563
0.536187 0.479561 0.345647
0.723873 0.479469 0.336736
0.886961 0.474067 0.330175
0.999847 0.468940 0.326726
0.000000 0.660517 0.357916
0.000000 0.661494 0.356573
0.215427 0.664515 0.351263
0.374731 0.668910 0.340459
0.546868 0.672175 0.325505
0.710628 0.653651 0.347448
0.877623 0.664332 0.331426
0.996155 0.640742 0.314611
0.000000 0.839902 0.346563
0.000000 0.840238 0.344091
0.190860 0.841062 0.335180
0.372900 0.841459 0.320806
0.545800 0.839933 0.305303
0.722896 0.831601 0.311131
0.863310 0.811948 0.362524
0.973541 0.805386 0.381903
0.000000 0.962371 0.316014
0.000000 0.962127 0.314244
0.224521 0.961181 0.309209
0.398474 0.958618 0.306554
0.547662 0.955261 0.296941
0.700954 0.949462 0.294530
0.851957 0.935851 0.342840
0.966705 0.921660 0.426886
0.201877 0.000000 0.489876
0.235355 0.000000 0.489906
0.326116 0.000000 0.490059
0.444526 0.000000 0.490181
0.577173 0.000000 0.490181
0.723079 0.000000 0.492744
0.888090 0.000000 0.501518
1.000000 0.000000 0.480873
0.183932 0.000000 0.490425
0.221439 0.000000 0.490425
0.318578 0.000000 0.490517
0.441474 0.000000 0.490578
0.576837 0.000000 0.490425
0.724269 0.000000 0.492744
0.888670 0.000000 0.500237
1.000000 0.000000 0.479530
0.097536 0.183658 0.491768
0.165072 0.180453 0.491768
0.291814 0.168795 0.491676
0.430426 0.143893 0.491493
0.575219 0.091981 0.491096
0.728450 0.000000 0.492561
0.890410 0.000000 0.495583
1.000000 0.000000 0.475135
0.000000 0.354192 0.491066
0.118563 0.349523 0.491249
0.249485 0.332219 0.492164
0.408331 0.316197 0.492195
0.571099 0.302708 0.491310
0.734371 0.282658 0.490974
0.892485 0.260838 0.487556
1.000000 0.279942 0.470039
0.000000 0.512688 0.488991
0.093294 0.511254 0.489082
0.243442 0.505821 0.489448
0.392004 0.494911 0.489906
0.560082 0.479622 0.489723
0.739956 0.473548 0.486824
0.892515 0.476020 0.480262
0.998230 0.500237 0.476204
0.000000 0.671168 0.485298
0.000000 0.671565 0.485298
0.233433 0.672786 0.484993
0.390021 0.674403 0.484352
0.560479 0.674769 0.482734
0.738888 0.671473 0.484260
0.889525 0.666865 0.479133
0.993225 0.663508 0.479896
0.000000 0.840909 0.483345
0.000000 0.841123 0.482277
0.219181 0.841642 0.478614
0.391791 0.841520 0.472908
0.570581 0.838468 0.471168
0.738125 0.833524 0.475532
0.873136 0.817380 0.508354
0.981018 0.813169 0.503685
0.000000 0.961975 0.454322
0.061250 0.961700 0.453529
0.258213 0.960571 0.451209
0.422034 0.957549 0.451331
0.596735 0.950866 0.466407
0.738125 0.944793 0.479133
0.865843 0.936919 0.493355
0.968505 0.923278 0.560082
0.236759 0.000000 0.662501
0.268803 0.000000 0.662531
0.358953 0.000000 0.662776
0.478767 0.000000 0.663081
0.612848 0.000000 0.663447
0.754879 0.000000 0.663752
0.896605 0.000000 0.657893
1.000000 0.000000 0.620600
0.218692 0.000000 0.662989
0.254032 0.000000 0.663050
0.349798 0.000000 0.663233
0.473823 0.000000 0.663508
0.610651 0.000000 0.663813
0.754330 0.000000 0.664088
0.896849 0.000000 0.657679
1.000000 0.000000 0.619959
0.138399 0.170779 0.664546
0.195346 0.166415 0.664546
0.317327 0.150637 0.664637
0.456703 0.114504 0.664790
0.602777 0.000000 0.664912
0.752285 0.000000 0.664881
0.897551 0.000000 0.656977
1.000000 0.000000 0.617945
0.000000 0.345098 0.665522
0.061646 0.338750 0.665766
0.251408 0.321019 0.666407
0.425727 0.310918 0.666316
0.588495 0.295628 0.666102
0.748043 0.275547 0.665766
0.897673 0.259098 0.655451
1.000000 0.286473 0.616175
0.000000 0.518944 0.664912
0.000000 0.516258 0.665064
0.234806 0.506645 0.665675
0.395850 0.490303 0.666499
0.570428 0.479133 0.666407
0.742245 0.475227 0.665461
0.895079 0.478279 0.653407
0.996368 0.505638 0.622034
0.000000 0.682460 0.663722
0.000000 0.681483 0.663813
0.226352 0.678096 0.664118
0.395758 0.672297 0.664393
0.573785 0.668757 0.663935
0.746944 0.674434 0.662196
0.888365 0.679957 0.654017
0.985748 0.695888 0.645136
0.000000 0.843992 0.661707
0.000000 0.844053 0.661707
0.218814 0.843992 0.661646
0.398688 0.843229 0.661494
0.582147 0.840116 0.660945
0.755581 0.832761 0.658808
0.881682 0.828061 0.664057
0.979034 0.825834 0.662776
0.000000 0.961242 0.618189
0.119051 0.960906 0.617762
0.280034 0.959503 0.616785
0.443091 0.955871 0.618006
0.614832 0.948730 0.627985
0.769528 0.940002 0.651514
0.878630 0.935943 0.666072
0.966552 0.926452 0.700587
0.211673 0.000000 0.836088
0.246586 0.000000 0.836118
0.340337 0.000000 0.836332
0.460639 0.000000 0.836667
0.592248 0.000000 0.837064
0.729122 0.000000 0.837552
0.868223 0.000000 0.838010
0.998962 0.000000 0.822263
0.192966 0.000000 0.836484
0.231662 0.000000 0.836484
0.331365 0.000000 0.836698
0.455695 0.000000 0.837003
0.589563 0.000000 0.837369
0.727810 0.000000 0.837797
0.867735 0.000000 0.838193
0.998718 0.000000 0.822080
0.110536 0.158968 0.837644
0.174746 0.155184 0.837675
0.301061 0.140414 0.837797
0.438849 0.108980 0.838010
0.580407 0.000000 0.838224
0.723293 0.000000 0.838468
0.865904 0.000000 0.838712
0.997559 0.000000 0.821592
0.000000 0.322728 0.839139
0.000000 0.321630 0.839139
0.249729 0.317540 0.839200
0.413489 0.310369 0.839261
0.567163 0.300572 0.839292
0.716701 0.289891 0.839292
0.862699 0.281621 0.839231
0.994568 0.291234 0.820981
0.000000 0.495155 0.839384
0.000000 0.493080 0.839475
0.220188 0.486885 0.839750
0.395544 0.481575 0.839841
0.560876 0.482155 0.839567
0.714961 0.484749 0.839139
0.860594 0.492012 0.838621
0.987671 0.510857 0.820859
0.000000 0.653803 0.839506
0.000000 0.652857 0.839536
0.225040 0.650172 0.839689
0.403937 0.648890 0.839597
0.584741 0.661006 0.838254
0.738186 0.678004 0.836790
0.865873 0.686275 0.836423
0.977325 0.698939 0.823362
0.000000 0.806546 0.839536
0.000000 0.806149 0.839536
0.236820 0.804990 0.839628
0.419623 0.804807 0.839353
0.599237 0.809537 0.838315
0.758053 0.821073 0.836790
0.874052 0.830076 0.836454
0.968566 0.835080 0.830503
0.000000 0.955444 0.839597
0.000000 0.955200 0.839628
0.261814 0.954101 0.839628
0.442756 0.951476 0.839506
0.618280 0.946807 0.839261
0.765743 0.941375 0.839353
0.878508 0.936370 0.839628
0.961975 0.933776 0.846464
