其他预设/【239】阳光逆光效果预设26款/1.LUT预设（视频调色-PR-AE-PS-FCPX-达芬奇用）/阳光逆光预设__-15.cube
# Created by Adobe Lightroom plugin Export LUT (1.17.0)
# www.johnrellis.com/lightroom/exportlut.htm
# Preset: 阳光逆光预设[素锦印象]-15
# Color profile: /Library/Application Support/Adobe/Color/Profiles/Recommended/AdobeRGB1998.icc
LUT_3D_SIZE 5
DOMAIN_MIN 0.000000 0.000000 0.000000
DOMAIN_MAX 0.903226 0.903226 0.903226
0.000000 0.000000 0.000000
0.233555 0.000000 0.000000
0.508110 0.083375 0.000000
0.781704 0.159182 0.000000
1.000000 0.175113 0.000000
0.000000 0.215732 0.000000
0.215793 0.211551 0.000000
0.497902 0.277287 0.000000
0.780575 0.316533 0.000000
1.000000 0.310704 0.000000
0.000000 0.468727 0.000000
0.194522 0.459358 0.000000
0.457832 0.467811 0.000000
0.752346 0.562371 0.000000
1.000000 0.569757 0.000000
0.000000 0.733150 0.000000
0.119539 0.727260 0.000000
0.415259 0.712581 0.000000
0.702846 0.742123 0.000000
0.977325 0.771542 0.000000
0.000000 0.982513 0.000000
0.000000 0.980011 0.000000
0.376745 0.972168 0.000000
0.649042 0.966796 0.000000
0.950134 0.959228 0.000000
0.000000 0.000000 0.216342
0.228153 0.000000 0.217807
0.508385 0.000000 0.183902
0.785855 0.000000 0.119722
1.000000 0.000000 0.000000
0.000000 0.228275 0.216373
0.223178 0.217624 0.207492
0.513787 0.220157 0.172793
0.789425 0.243046 0.105531
1.000000 0.235721 0.000000
0.000000 0.486763 0.158206
0.131472 0.483314 0.084627
0.471382 0.479591 0.077821
0.763943 0.569604 0.203189
1.000000 0.549889 0.114199
0.000000 0.748775 0.000000
0.000000 0.743404 0.000000
0.402625 0.721920 0.000000
0.710750 0.748714 0.000000
0.981811 0.772274 0.124880
0.000000 0.988678 0.000000
0.000000 0.985809 0.000000
0.349767 0.976593 0.000000
0.640681 0.968750 0.000000
0.952300 0.959930 0.000000
0.000000 0.000000 0.440803
0.222110 0.000000 0.439796
0.473304 0.000000 0.446571
0.750240 0.000000 0.438025
1.000000 0.000000 0.373877
0.000000 0.185580 0.451514
0.158175 0.134707 0.450477
0.480781 0.000000 0.448341
0.760037 0.000000 0.425940
1.000000 0.000000 0.358434
0.000000 0.498421 0.449836
0.000000 0.499214 0.449012
0.464851 0.476905 0.431525
0.776272 0.503197 0.424231
1.000000 0.467048 0.371618
0.000000 0.768673 0.393988
0.000000 0.770352 0.373846
0.349004 0.757748 0.300786
0.725917 0.758663 0.301610
0.988678 0.787900 0.447120
0.000000 0.997131 0.309789
0.000000 0.997772 0.275273
0.183291 0.992767 0.133730
0.602350 0.974884 0.169223
0.958740 0.961913 0.151980
0.000000 0.000000 0.665339
0.216709 0.000000 0.663905
0.454658 0.000000 0.657710
0.717037 0.000000 0.672389
0.984192 0.000000 0.644038
0.000000 0.112947 0.674372
0.125643 0.073457 0.672389
0.442420 0.000000 0.664637
0.722225 0.000000 0.674556
0.988495 0.000000 0.638087
0.000000 0.455909 0.681605
0.000000 0.433021 0.683009
0.367102 0.349615 0.679835
0.730739 0.324926 0.673426
0.999390 0.312505 0.621729
0.000000 0.779446 0.685145
0.000000 0.780728 0.685725
0.262852 0.779812 0.682521
0.714870 0.758236 0.669612
0.994476 0.772244 0.679377
0.000000 1.000000 0.604303
0.000000 1.000000 0.595880
0.000000 1.000000 0.563378
0.552575 0.990600 0.513298
0.966155 0.962860 0.529686
0.000000 0.000000 0.929717
0.132631 0.000000 0.929229
0.426337 0.000000 0.926970
0.679103 0.000000 0.922454
0.974273 0.000000 0.926146
0.000000 0.000000 0.932952
0.000000 0.000000 0.932372
0.399298 0.000000 0.929870
0.670954 0.000000 0.925109
0.975921 0.000000 0.926635
0.000000 0.388434 0.938140
0.000000 0.352697 0.939269
0.259678 0.283055 0.937743
0.633204 0.190433 0.931975
0.978393 0.000000 0.925994
0.000000 0.709865 0.937072
0.000000 0.700008 0.938018
0.000000 0.660151 0.940032
0.550072 0.594415 0.937316
0.969635 0.596216 0.918212
0.000000 1.000000 0.934386
0.000000 1.000000 0.934874
0.000000 1.000000 0.935363
0.556146 0.991699 0.933776
0.950286 0.965515 0.932250
