其他预设/【239】阳光逆光效果预设26款/1.LUT预设（视频调色-PR-AE-PS-FCPX-达芬奇用）/阳光逆光预设__-24.cube
# Created by Adobe Lightroom plugin Export LUT (1.17.0)
# www.johnrellis.com/lightroom/exportlut.htm
# Preset: 阳光逆光预设[素锦印象]-24
# Color profile: /Library/Application Support/Adobe/Color/Profiles/Recommended/AdobeRGB1998.icc
LUT_3D_SIZE 5
DOMAIN_MIN 0.000000 0.000000 0.000000
DOMAIN_MAX 0.903226 0.903226 0.903226
0.000000 0.000000 0.000000
0.159823 0.000000 0.000000
0.404395 0.000000 0.000000
0.717464 0.000000 0.000000
0.991363 0.000000 0.000000
0.000000 0.153201 0.000000
0.153048 0.142611 0.000000
0.408148 0.177798 0.000000
0.720607 0.186221 0.000000
0.991211 0.164187 0.000000
0.000000 0.389929 0.000000
0.203647 0.391547 0.000000
0.394965 0.367864 0.000000
0.720058 0.441535 0.000000
0.990326 0.448707 0.000000
0.000000 0.702693 0.000000
0.228153 0.704280 0.000000
0.493721 0.707637 0.000000
0.718044 0.676875 0.000000
0.972168 0.699733 0.000000
0.000000 0.960723 0.000000
0.213107 0.959503 0.000000
0.487221 0.955047 0.000000
0.739071 0.942199 0.000000
0.957702 0.919432 0.000000
0.000000 0.000000 0.128634
0.166506 0.000000 0.129671
0.412116 0.000000 0.129488
0.725154 0.000000 0.086824
0.994476 0.000000 0.000000
0.000000 0.153567 0.127504
0.171878 0.154452 0.127169
0.416052 0.148959 0.115541
0.727993 0.115145 0.064546
0.994202 0.010498 0.000000
0.000000 0.391974 0.112459
0.186130 0.394018 0.093721
0.405829 0.374853 0.126070
0.735164 0.435523 0.000000
0.992798 0.432013 0.000000
0.000000 0.705745 0.000000
0.184695 0.707088 0.000000
0.486580 0.711513 0.000000
0.724758 0.681392 0.000000
0.976135 0.697932 0.000000
0.000000 0.962127 0.000000
0.169833 0.960784 0.000000
0.477180 0.956023 0.000000
0.737667 0.943389 0.000000
0.959503 0.919860 0.175265
0.111757 0.000000 0.300694
0.224582 0.000000 0.300511
0.430579 0.000000 0.302098
0.743648 0.000000 0.323552
1.000000 0.000000 0.299229
0.029328 0.163729 0.300908
0.207675 0.150881 0.300816
0.436103 0.120424 0.301305
0.748135 0.000000 0.312291
1.000000 0.000000 0.288029
0.000000 0.394629 0.295048
0.200137 0.395850 0.294347
0.444038 0.396826 0.292821
0.758938 0.394873 0.277836
0.999481 0.383673 0.264561
0.000000 0.708492 0.296910
0.145327 0.711482 0.286076
0.459846 0.717678 0.252415
0.746456 0.694148 0.287785
0.989227 0.687892 0.257053
0.000000 0.962432 0.242100
0.154452 0.961730 0.233219
0.457862 0.958068 0.208133
0.734279 0.947387 0.208164
0.964965 0.921111 0.366766
0.215671 0.000000 0.530663
0.312657 0.000000 0.530846
0.523644 0.000000 0.531304
0.774258 0.000000 0.533318
1.000000 0.000000 0.512657
0.145998 0.141939 0.532372
0.279789 0.124117 0.532433
0.516381 0.000000 0.532494
0.777646 0.000000 0.533227
1.000000 0.000000 0.508843
0.000000 0.438117 0.532280
0.209873 0.426581 0.533074
0.485725 0.393988 0.534112
0.785245 0.372656 0.530175
1.000000 0.394903 0.504204
0.000000 0.721462 0.528038
0.183017 0.722438 0.527947
0.473976 0.724178 0.527031
0.782864 0.717220 0.528069
0.989868 0.710689 0.525231
0.000000 0.961822 0.491371
0.225162 0.960784 0.489265
0.514519 0.954284 0.493996
0.779934 0.941985 0.526665
0.968414 0.923888 0.594476
0.211673 0.000000 0.836088
0.313329 0.000000 0.836271
0.525505 0.000000 0.836851
0.763851 0.000000 0.837675
0.998962 0.000000 0.822263
0.141848 0.107424 0.837278
0.279240 0.082002 0.837430
0.513237 0.000000 0.837827
0.760159 0.000000 0.838346
0.997955 0.000000 0.821714
0.000000 0.411200 0.839292
0.170260 0.401495 0.839658
0.482795 0.393591 0.839658
0.751247 0.386755 0.839414
0.991669 0.405249 0.820798
0.000000 0.692378 0.839506
0.176822 0.690089 0.839658
0.497932 0.692042 0.839048
0.778103 0.722286 0.836149
0.974884 0.737209 0.824735
0.000000 0.955444 0.839597
0.214206 0.954498 0.839597
0.531243 0.949432 0.839414
0.796597 0.940154 0.839475
0.961975 0.933776 0.846464
