其他预设/【239】阳光逆光效果预设26款/1.LUT预设（视频调色-PR-AE-PS-FCPX-达芬奇用）/阳光逆光预设__-4.cube
# Created by Adobe Lightroom plugin Export LUT (1.17.0)
# www.johnrellis.com/lightroom/exportlut.htm
# Preset: 阳光逆光预设[素锦印象]-4
# Color profile: /Library/Application Support/Adobe/Color/Profiles/Recommended/AdobeRGB1998.icc
LUT_3D_SIZE 5
DOMAIN_MIN 0.000000 0.000000 0.000000
DOMAIN_MAX 0.903226 0.903226 0.903226
0.000000 0.000000 0.000000
0.276921 0.011780 0.012116
0.555505 0.000000 0.007904
0.802152 0.049653 0.076875
0.999664 0.137606 0.151095
0.078492 0.258518 0.002991
0.276707 0.254948 0.010254
0.543999 0.260014 0.094545
0.796292 0.259403 0.120760
0.996185 0.276860 0.181521
0.181613 0.506737 0.056916
0.316716 0.502892 0.075959
0.560906 0.498238 0.079774
0.782986 0.489601 0.201602
0.984222 0.499245 0.266087
0.275883 0.732387 0.121462
0.370397 0.729793 0.131380
0.577722 0.722530 0.153475
0.805631 0.716732 0.157565
0.980377 0.701503 0.306035
0.367437 0.938048 0.217105
0.434882 0.936339 0.224430
0.606531 0.930571 0.250187
0.804532 0.924498 0.273411
0.997467 0.920470 0.292119
0.023407 0.002869 0.222293
0.284031 0.000000 0.227451
0.568597 0.000000 0.208042
0.805875 0.111543 0.226108
1.000000 0.164553 0.253513
0.084321 0.262913 0.222904
0.288701 0.261295 0.222324
0.556512 0.272313 0.231876
0.800290 0.274449 0.241917
0.997162 0.290043 0.271214
0.184360 0.510979 0.215640
0.333104 0.505882 0.229679
0.566705 0.500847 0.231632
0.783261 0.498054 0.294469
0.985168 0.507042 0.330816
0.289342 0.733547 0.238499
0.385534 0.730556 0.248020
0.585260 0.723079 0.260716
0.807401 0.717769 0.262699
0.979034 0.706630 0.371923
0.380285 0.938048 0.297612
0.445319 0.936309 0.302953
0.612787 0.930602 0.322118
0.807004 0.924498 0.341802
0.996612 0.920897 0.356756
0.096864 0.000000 0.436530
0.285283 0.000000 0.435981
0.573816 0.000000 0.439948
0.815000 0.000000 0.419593
1.000000 0.187655 0.431159
0.118196 0.252659 0.435859
0.295262 0.246525 0.435279
0.578637 0.250584 0.435645
0.814908 0.257847 0.421424
1.000000 0.300999 0.439216
0.193790 0.516075 0.434638
0.335363 0.515526 0.432471
0.582513 0.508690 0.435004
0.799405 0.512718 0.451850
0.991058 0.515221 0.470588
0.300206 0.737881 0.426093
0.403265 0.734859 0.432898
0.603510 0.726040 0.447852
0.810971 0.720851 0.451240
0.974975 0.722530 0.525689
0.432654 0.937011 0.473091
0.503502 0.934295 0.490394
0.623316 0.931914 0.480323
0.811337 0.925078 0.497169
0.993378 0.922393 0.505241
0.159030 0.001465 0.651057
0.308782 0.000000 0.650721
0.570336 0.000000 0.649378
0.818357 0.000000 0.631159
1.000000 0.205081 0.617609
0.163027 0.244450 0.650904
0.312352 0.239719 0.650538
0.575036 0.219791 0.649042
0.818601 0.256474 0.630030
1.000000 0.321447 0.624506
0.204501 0.505272 0.648676
0.330327 0.502403 0.648402
0.585595 0.494820 0.646845
0.817258 0.512779 0.635187
0.996277 0.528557 0.647150
0.309270 0.748043 0.636622
0.408820 0.745449 0.636469
0.617945 0.736172 0.640375
0.812314 0.727382 0.651789
0.982879 0.727230 0.672877
0.436072 0.940398 0.637385
0.501884 0.938109 0.644800
0.658747 0.932311 0.668452
0.808072 0.928954 0.671595
0.986694 0.925383 0.678889
0.196567 0.000000 0.880400
0.326482 0.000000 0.880217
0.572320 0.000000 0.879515
0.830167 0.000000 0.878050
1.000000 0.196841 0.821988
0.189029 0.240238 0.880339
0.323064 0.235142 0.880156
0.571221 0.215702 0.879393
0.829282 0.200381 0.877867
1.000000 0.315251 0.824247
0.156954 0.485176 0.879973
0.299748 0.480354 0.879911
0.566064 0.479530 0.878782
0.821653 0.473274 0.877317
0.997253 0.525109 0.833738
0.255161 0.745266 0.877562
0.359472 0.743008 0.877440
0.569757 0.732448 0.877348
0.799802 0.717067 0.877134
0.985595 0.740902 0.854948
0.399359 0.965148 0.851469
0.465644 0.962219 0.852232
0.632685 0.952728 0.856016
0.819547 0.939483 0.866636
0.970214 0.932219 0.891447
