其他预设/【239】阳光逆光效果预设26款/1.LUT预设（视频调色-PR-AE-PS-FCPX-达芬奇用）/阳光逆光预设__-20.cube
# Created by Adobe Lightroom plugin Export LUT (1.17.0)
# www.johnrellis.com/lightroom/exportlut.htm
# Preset: 阳光逆光预设[素锦印象]-20
# Color profile: /Library/Application Support/Adobe/Color/Profiles/Recommended/AdobeRGB1998.icc
LUT_3D_SIZE 32
0.109163 0.091035 0.106691
0.121645 0.090333 0.107057
0.138369 0.089631 0.107240
0.169436 0.087282 0.107698
0.205539 0.084382 0.108461
0.241093 0.080842 0.110018
0.275822 0.076570 0.111360
0.309758 0.071870 0.113893
0.343420 0.066651 0.116579
0.377173 0.060426 0.118868
0.411658 0.045228 0.122042
0.446571 0.022980 0.124910
0.481636 0.000732 0.127840
0.517082 0.000000 0.132052
0.552544 0.000000 0.135866
0.588251 0.000000 0.139651
0.623865 0.000000 0.143618
0.657740 0.000000 0.147951
0.689784 0.000000 0.152316
0.722072 0.000000 0.156802
0.753628 0.000000 0.161624
0.784543 0.000000 0.165927
0.814725 0.000000 0.170352
0.844022 0.000000 0.175113
0.872740 0.000000 0.179599
0.900969 0.000000 0.184482
0.928679 0.000000 0.189456
0.955810 0.000000 0.194583
0.982391 0.000000 0.199802
1.000000 0.050111 0.205631
1.000000 0.084169 0.212253
1.000000 0.109133 0.219455
0.109895 0.102907 0.107179
0.122744 0.102480 0.107485
0.139010 0.102449 0.107851
0.169924 0.100984 0.108034
0.205936 0.098268 0.108858
0.241123 0.094942 0.110628
0.275792 0.090608 0.112276
0.309483 0.086671 0.114565
0.343175 0.081605 0.117098
0.377050 0.076326 0.119570
0.411475 0.068879 0.122194
0.446265 0.059266 0.125490
0.481392 0.041627 0.128939
0.516686 0.019654 0.132570
0.552209 0.000000 0.136385
0.587884 0.000000 0.140536
0.623346 0.000000 0.144289
0.657221 0.000000 0.148470
0.689296 0.000000 0.152560
0.721462 0.000000 0.157321
0.752956 0.000000 0.161563
0.783871 0.000000 0.166232
0.813931 0.000000 0.170626
0.843351 0.000000 0.175174
0.872038 0.000000 0.179995
0.900328 0.000000 0.184360
0.928099 0.000000 0.189273
0.955291 0.000000 0.194705
0.981903 0.016724 0.199924
1.000000 0.067597 0.205753
1.000000 0.092744 0.212284
1.000000 0.115999 0.219150
0.111055 0.118105 0.108064
0.124514 0.118074 0.107912
0.140658 0.117372 0.108095
0.170657 0.116701 0.108705
0.206271 0.114290 0.109529
0.241489 0.110597 0.110933
0.275822 0.106661 0.112642
0.309483 0.102174 0.115633
0.343084 0.097902 0.117342
0.376837 0.092958 0.120272
0.411231 0.087556 0.122866
0.445991 0.080690 0.126131
0.481147 0.072572 0.129244
0.516442 0.064393 0.133211
0.551873 0.050813 0.137026
0.587610 0.023590 0.140841
0.623041 0.000031 0.144778
0.656916 0.000000 0.148928
0.689021 0.000000 0.153170
0.721157 0.000000 0.157778
0.752621 0.000000 0.162173
0.783474 0.000000 0.166384
0.813596 0.000000 0.171084
0.842954 0.000000 0.175479
0.871702 0.000000 0.179934
0.899992 0.000000 0.184573
0.927733 0.000000 0.189456
0.954955 0.013886 0.194888
0.981628 0.060365 0.199985
1.000000 0.083345 0.205814
1.000000 0.103853 0.212253
1.000000 0.124300 0.219242
0.113344 0.146242 0.109285
0.126925 0.145968 0.109590
0.142885 0.145388 0.109987
0.172305 0.144411 0.110842
0.207156 0.141787 0.111971
0.242130 0.137911 0.112825
0.276097 0.133913 0.114595
0.309697 0.129397 0.117250
0.343114 0.124880 0.119081
0.376989 0.120546 0.121798
0.411231 0.115663 0.124453
0.445991 0.110597 0.127687
0.480903 0.105715 0.131106
0.516197 0.100496 0.134676
0.551690 0.093843 0.138338
0.587304 0.087129 0.142245
0.622736 0.079530 0.146334
0.656611 0.071687 0.149996
0.688746 0.065095 0.154177
0.720638 0.056153 0.158572
0.751980 0.046937 0.163088
0.782773 0.036225 0.167330
0.812894 0.033021 0.171481
0.842374 0.032929 0.176242
0.871244 0.042237 0.180453
0.899687 0.054932 0.185397
0.927550 0.067140 0.189792
0.954864 0.080385 0.195315
0.981506 0.093782 0.200534
1.000000 0.108827 0.206119
1.000000 0.124453 0.212467
1.000000 0.141329 0.219547
0.117494 0.177768 0.112428
0.129915 0.177493 0.112734
0.145388 0.177066 0.112703
0.172946 0.176089 0.113649
0.207858 0.174411 0.114656
0.242863 0.170657 0.115785
0.276585 0.165927 0.117708
0.310002 0.161318 0.119844
0.343328 0.156680 0.121584
0.376898 0.152590 0.124331
0.411078 0.148501 0.126772
0.445716 0.144533 0.130007
0.480659 0.140169 0.133761
0.515892 0.136172 0.137484
0.551385 0.131472 0.140871
0.586969 0.126986 0.144564
0.622431 0.122499 0.148104
0.656336 0.117800 0.151736
0.688624 0.113405 0.156039
0.720455 0.109621 0.160098
0.751675 0.105715 0.164401
0.782376 0.103609 0.168460
0.812497 0.102419 0.172854
0.841947 0.102510 0.177218
0.870817 0.104036 0.181765
0.899321 0.107240 0.185977
0.927184 0.111910 0.190951
0.954467 0.119020 0.196048
0.981201 0.127962 0.201328
1.000000 0.138643 0.206912
1.000000 0.150546 0.213413
1.000000 0.164340 0.220096
0.122805 0.208743 0.116823
0.134340 0.208469 0.116548
0.148318 0.208103 0.116732
0.173831 0.207279 0.117494
0.206760 0.205661 0.118441
0.242618 0.203799 0.119661
0.277562 0.199802 0.121096
0.310521 0.194858 0.122988
0.343786 0.190066 0.125185
0.377173 0.186007 0.127962
0.411292 0.182193 0.130404
0.445808 0.178622 0.133577
0.480598 0.175051 0.136934
0.515892 0.171603 0.140261
0.551263 0.168154 0.143282
0.586908 0.164492 0.147250
0.622339 0.160678 0.150759
0.656092 0.157321 0.154330
0.688655 0.153811 0.158389
0.720363 0.151064 0.162020
0.751583 0.148440 0.165988
0.782315 0.145998 0.170352
0.816648 0.146578 0.175387
0.845945 0.146609 0.179568
0.874601 0.147524 0.184054
0.902770 0.149264 0.188479
0.930327 0.152865 0.193179
0.957275 0.157748 0.198337
0.983612 0.164187 0.203586
1.000000 0.172030 0.209262
1.000000 0.181369 0.215457
1.000000 0.192386 0.222202
0.129091 0.239506 0.120760
0.139559 0.239292 0.120882
0.152255 0.238865 0.121309
0.176059 0.238102 0.122103
0.206943 0.236851 0.122866
0.241459 0.235233 0.124117
0.277531 0.233127 0.125582
0.312169 0.229404 0.127016
0.345068 0.224552 0.129671
0.378668 0.220310 0.132265
0.412573 0.216678 0.135195
0.447211 0.213291 0.137636
0.481941 0.210086 0.140902
0.517021 0.206912 0.144198
0.552392 0.203769 0.147463
0.587793 0.200900 0.150546
0.623102 0.197971 0.153841
0.657160 0.194736 0.157351
0.689662 0.191806 0.160952
0.721523 0.189303 0.164614
0.752956 0.187167 0.168643
0.784054 0.185214 0.172702
0.814481 0.184482 0.176699
0.844297 0.184054 0.181033
0.873411 0.184482 0.185428
0.901854 0.185946 0.189792
0.929564 0.188327 0.194675
0.956573 0.192233 0.199649
0.983001 0.196994 0.204471
1.000000 0.203342 0.210330
1.000000 0.210758 0.216312
1.000000 0.220035 0.223331
0.136172 0.268986 0.126528
0.145541 0.268681 0.126314
0.156558 0.268406 0.127108
0.178897 0.267765 0.127169
0.207980 0.266758 0.128450
0.240696 0.265354 0.129397
0.275334 0.263645 0.131228
0.311009 0.261692 0.132815
0.345861 0.258396 0.135195
0.379065 0.254124 0.137331
0.413001 0.250553 0.139895
0.447303 0.247257 0.142794
0.482033 0.244327 0.145663
0.517021 0.241459 0.148409
0.552361 0.238773 0.151308
0.587762 0.236210 0.154177
0.623102 0.233707 0.157107
0.657069 0.230930 0.160281
0.689357 0.228183 0.163729
0.721065 0.225681 0.167697
0.752377 0.223575 0.171420
0.783383 0.222080 0.175051
0.813748 0.221073 0.178805
0.843534 0.220371 0.182895
0.872648 0.220340 0.187289
0.901061 0.221530 0.191592
0.928771 0.223239 0.196109
0.955871 0.226078 0.200870
0.982300 0.229892 0.206088
1.000000 0.234897 0.211429
1.000000 0.241184 0.217655
1.000000 0.248844 0.224369
0.144564 0.298497 0.133455
0.152926 0.298253 0.133608
0.163058 0.298039 0.133852
0.183444 0.297459 0.134096
0.210880 0.296605 0.135012
0.241550 0.295445 0.135958
0.274907 0.294041 0.137728
0.309545 0.292515 0.138949
0.344945 0.290593 0.140810
0.379828 0.287968 0.143008
0.413672 0.284520 0.145693
0.447822 0.281285 0.147768
0.482429 0.278477 0.150454
0.517357 0.275792 0.153140
0.552514 0.273533 0.155642
0.587945 0.271244 0.158297
0.623407 0.268986 0.161135
0.657160 0.266667 0.163851
0.689204 0.263828 0.167178
0.720790 0.261387 0.170718
0.752010 0.259342 0.173922
0.782956 0.257481 0.177615
0.813291 0.256321 0.181308
0.842985 0.255650 0.185367
0.872038 0.255680 0.189487
0.900420 0.256229 0.193576
0.928191 0.257542 0.197940
0.955291 0.259525 0.202487
0.981720 0.262791 0.207462
1.000000 0.266941 0.213046
1.000000 0.272099 0.218875
1.000000 0.278538 0.225742
0.153933 0.328374 0.139956
0.161318 0.328161 0.140414
0.170626 0.327947 0.140352
0.189395 0.327489 0.141085
0.214786 0.326787 0.141665
0.244327 0.325933 0.142702
0.276158 0.324712 0.144106
0.309545 0.323278 0.145663
0.344213 0.321782 0.147005
0.379400 0.320134 0.149050
0.414313 0.317967 0.151339
0.448402 0.314946 0.153384
0.482887 0.312261 0.155703
0.517693 0.309911 0.157870
0.553185 0.307805 0.160006
0.588830 0.306157 0.162478
0.623987 0.304021 0.164889
0.657465 0.301549 0.167636
0.689418 0.298955 0.170535
0.720729 0.296452 0.173861
0.751949 0.294438 0.176913
0.782528 0.292668 0.180484
0.812711 0.291325 0.183719
0.842252 0.290440 0.187564
0.871214 0.290043 0.191348
0.899626 0.290257 0.195743
0.927398 0.291295 0.199649
0.954559 0.292912 0.204288
0.981079 0.295537 0.209201
1.000000 0.299046 0.214572
1.000000 0.303593 0.220615
1.000000 0.309056 0.227359
0.163272 0.358618 0.147311
0.169741 0.358465 0.147433
0.178622 0.358373 0.147494
0.195895 0.357977 0.147890
0.219821 0.357275 0.148501
0.247837 0.356603 0.149355
0.278691 0.355627 0.150546
0.311131 0.354559 0.152010
0.344793 0.353155 0.153323
0.379278 0.351843 0.155306
0.414313 0.350286 0.156985
0.449317 0.348425 0.159091
0.483711 0.346075 0.160891
0.518730 0.344030 0.162936
0.553979 0.342168 0.165011
0.589502 0.340551 0.166781
0.624384 0.338628 0.168917
0.657465 0.336187 0.171664
0.689265 0.333532 0.174228
0.720607 0.331029 0.177005
0.751583 0.328923 0.180453
0.782193 0.327062 0.183139
0.812284 0.325689 0.186984
0.841764 0.324834 0.190311
0.870665 0.324254 0.194095
0.899046 0.324315 0.197787
0.926787 0.324834 0.202152
0.953948 0.326207 0.206394
0.980438 0.328374 0.211185
1.000000 0.331243 0.216526
1.000000 0.335149 0.222446
1.000000 0.339849 0.229129
0.172824 0.389502 0.154238
0.178531 0.389471 0.154482
0.186770 0.389258 0.154726
0.202701 0.388952 0.155123
0.225254 0.388556 0.155612
0.252171 0.387854 0.156069
0.282109 0.386999 0.156924
0.313603 0.386114 0.158175
0.346624 0.385016 0.159579
0.380499 0.383886 0.160922
0.414984 0.382513 0.162814
0.450111 0.381353 0.164187
0.487770 0.381933 0.166476
0.522911 0.380224 0.168368
0.558190 0.378576 0.169924
0.593591 0.377111 0.171878
0.628199 0.375158 0.173861
0.661006 0.372503 0.176150
0.692439 0.369635 0.178500
0.723507 0.367071 0.181277
0.754269 0.364752 0.184268
0.784512 0.362737 0.187228
0.814267 0.361212 0.190372
0.843412 0.359991 0.193759
0.872099 0.359319 0.197391
0.900237 0.359045 0.200900
0.927794 0.359258 0.205142
0.954742 0.360296 0.209079
0.981048 0.361913 0.213962
1.000000 0.364324 0.219181
1.000000 0.367681 0.225071
1.000000 0.371740 0.231785
0.182193 0.421881 0.160678
0.187442 0.421790 0.161074
0.195163 0.421637 0.160861
0.210483 0.421241 0.161410
0.231632 0.420844 0.161807
0.257328 0.420111 0.162509
0.286229 0.419440 0.163180
0.316869 0.418585 0.164309
0.349371 0.417609 0.164981
0.382940 0.417029 0.166567
0.417426 0.416266 0.168002
0.452522 0.415412 0.169619
0.487922 0.414588 0.171176
0.523430 0.413642 0.173220
0.558709 0.412299 0.174441
0.594018 0.411139 0.176211
0.628229 0.409277 0.177676
0.660792 0.406622 0.179629
0.692073 0.403601 0.182162
0.723018 0.400946 0.184756
0.753597 0.398627 0.187625
0.783810 0.396582 0.190372
0.813474 0.394903 0.193301
0.842618 0.393561 0.196567
0.871244 0.392767 0.199649
0.899351 0.392309 0.203372
0.926940 0.392523 0.207340
0.953887 0.393194 0.211368
0.980194 0.394507 0.215946
1.000000 0.396582 0.221134
1.000000 0.399420 0.226871
1.000000 0.402930 0.233677
0.190860 0.453895 0.166690
0.196445 0.453742 0.166690
0.203433 0.453651 0.166751
0.217716 0.453376 0.167147
0.238224 0.452888 0.167544
0.262791 0.452399 0.168063
0.290745 0.451911 0.168704
0.320928 0.451331 0.169589
0.352728 0.450599 0.170596
0.385657 0.450050 0.171633
0.419623 0.449317 0.172915
0.454261 0.448707 0.174105
0.489174 0.447852 0.175784
0.524315 0.447059 0.177157
0.559442 0.446082 0.179019
0.594568 0.444953 0.180026
0.628382 0.443061 0.181582
0.660548 0.440345 0.183597
0.691737 0.437354 0.185885
0.722591 0.434577 0.188174
0.753140 0.432258 0.190707
0.783230 0.430243 0.193668
0.812833 0.428473 0.196384
0.841947 0.427131 0.199191
0.870573 0.426154 0.202518
0.898650 0.425666 0.205997
0.926238 0.425574 0.209567
0.953155 0.426062 0.213748
0.979492 0.427283 0.218265
1.000000 0.429053 0.223423
1.000000 0.431525 0.229221
1.000000 0.434607 0.236027
0.200137 0.486885 0.172366
0.204837 0.486885 0.172335
0.211398 0.486732 0.172671
0.225315 0.486580 0.172610
0.244755 0.486183 0.173129
0.268620 0.485725 0.173251
0.295720 0.485176 0.174166
0.325078 0.484596 0.174777
0.356207 0.483986 0.175509
0.388708 0.483345 0.176547
0.422187 0.482826 0.177401
0.456306 0.482246 0.178561
0.490913 0.481636 0.179812
0.525719 0.480842 0.180941
0.560632 0.479896 0.182559
0.595209 0.478706 0.183993
0.628656 0.476753 0.185702
0.660578 0.473945 0.187076
0.691585 0.470954 0.189303
0.722347 0.468147 0.191623
0.752712 0.465736 0.194095
0.782742 0.463630 0.196628
0.812253 0.461860 0.199130
0.841306 0.460426 0.201938
0.869902 0.459419 0.205234
0.898009 0.458778 0.208621
0.925597 0.458717 0.212222
0.952636 0.459144 0.216251
0.979034 0.460121 0.220615
1.000000 0.461799 0.225681
1.000000 0.463996 0.231876
1.000000 0.466682 0.238560
0.208591 0.520470 0.177127
0.213687 0.520439 0.177218
0.219425 0.520409 0.177523
0.232456 0.520165 0.177523
0.251347 0.519829 0.177890
0.274601 0.519432 0.178378
0.300938 0.518914 0.178866
0.329625 0.518456 0.179110
0.360204 0.517784 0.180209
0.392065 0.517144 0.180880
0.425025 0.516411 0.181796
0.458534 0.515709 0.182895
0.492378 0.514763 0.183810
0.526543 0.513695 0.185153
0.560754 0.512566 0.186404
0.594812 0.511315 0.187869
0.628565 0.510033 0.189059
0.660548 0.507378 0.190860
0.691585 0.504326 0.192782
0.722255 0.501579 0.195071
0.752590 0.499306 0.196994
0.782589 0.497200 0.199405
0.812100 0.495399 0.202029
0.841062 0.493965 0.204837
0.869657 0.492836 0.207736
0.897765 0.492195 0.211368
0.925322 0.491981 0.214572
0.952300 0.492378 0.218753
0.978637 0.493172 0.223362
1.000000 0.494484 0.228336
1.000000 0.496407 0.234562
1.000000 0.498756 0.241276
0.217166 0.552728 0.182132
0.221622 0.552636 0.182010
0.227726 0.552544 0.182193
0.239994 0.552361 0.182284
0.258061 0.552026 0.182528
0.280339 0.551537 0.182925
0.305699 0.551019 0.183474
0.333654 0.550408 0.184115
0.363409 0.549798 0.184604
0.394568 0.549065 0.185336
0.426825 0.548302 0.186038
0.459602 0.547417 0.187106
0.493080 0.546502 0.187900
0.526543 0.545464 0.189303
0.560174 0.544213 0.190188
0.593622 0.542870 0.191531
0.626947 0.541466 0.192874
0.660029 0.540124 0.194339
0.691493 0.537682 0.196048
0.722042 0.534905 0.198184
0.752285 0.532586 0.200107
0.782132 0.530419 0.202274
0.811582 0.528527 0.204807
0.840513 0.527092 0.207401
0.869078 0.525963 0.210391
0.897124 0.525261 0.213687
0.924712 0.525048 0.217350
0.951720 0.525322 0.221103
0.978027 0.525994 0.225895
1.000000 0.527214 0.231052
1.000000 0.528862 0.236973
1.000000 0.530877 0.244144
0.225864 0.583673 0.186923
0.229923 0.583642 0.187137
0.236454 0.585840 0.187686
0.248386 0.585595 0.187594
0.265873 0.585229 0.187961
0.286961 0.584710 0.188388
0.311742 0.584100 0.188693
0.338781 0.583368 0.188815
0.367834 0.582635 0.189700
0.398352 0.581872 0.190463
0.429786 0.581018 0.191104
0.462043 0.580133 0.191745
0.494820 0.579034 0.192721
0.527733 0.577966 0.193729
0.560784 0.576745 0.194858
0.593896 0.575402 0.195651
0.626856 0.574121 0.197238
0.659602 0.572717 0.198215
0.692073 0.571405 0.199496
0.723171 0.569177 0.201175
0.753140 0.566735 0.203098
0.782803 0.564446 0.205509
0.812070 0.562493 0.207675
0.840848 0.560845 0.210239
0.869169 0.559564 0.213138
0.897032 0.558740 0.216403
0.924346 0.558312 0.219974
0.951202 0.558373 0.223880
0.977417 0.558862 0.228336
1.000000 0.559899 0.233555
1.000000 0.561273 0.239628
1.000000 0.563043 0.246921
0.234928 0.614649 0.191928
0.239017 0.614923 0.191928
0.244358 0.615137 0.191989
0.255711 0.615229 0.192325
0.272099 0.615076 0.192325
0.292638 0.614740 0.192905
0.316258 0.614282 0.193210
0.342565 0.613642 0.193637
0.370855 0.613001 0.194095
0.400427 0.612238 0.194766
0.431312 0.611414 0.195315
0.462959 0.610529 0.196109
0.495186 0.609613 0.196841
0.527642 0.608606 0.197635
0.560235 0.607507 0.198428
0.592950 0.606226 0.199405
0.625544 0.605035 0.200534
0.657893 0.603784 0.201633
0.690211 0.602594 0.202914
0.722072 0.601465 0.204227
0.752926 0.599756 0.205905
0.782498 0.597559 0.207797
0.811673 0.595544 0.210422
0.840391 0.593988 0.212863
0.868681 0.592706 0.215854
0.896513 0.591821 0.218906
0.923857 0.591333 0.222354
0.950652 0.591363 0.226322
0.976806 0.591760 0.231113
1.000000 0.592645 0.236393
1.000000 0.593835 0.242313
1.000000 0.595331 0.249882
0.243473 0.644862 0.196109
0.247379 0.645075 0.196445
0.252476 0.645319 0.196628
0.263066 0.645350 0.196445
0.278843 0.645228 0.196841
0.298466 0.644953 0.197086
0.321538 0.644465 0.197299
0.346746 0.643915 0.197665
0.374273 0.643366 0.198093
0.403235 0.642634 0.198764
0.433448 0.641962 0.199191
0.464393 0.641138 0.200076
0.496040 0.640253 0.200656
0.528038 0.639368 0.201236
0.560235 0.638300 0.202274
0.592401 0.637201 0.203128
0.624628 0.636103 0.203952
0.656733 0.634913 0.205264
0.688655 0.633875 0.206241
0.720424 0.632868 0.207309
0.751797 0.632013 0.208682
0.782254 0.630732 0.210636
0.811398 0.628779 0.212833
0.839963 0.627161 0.215488
0.868254 0.625849 0.218204
0.896056 0.624933 0.221225
0.923278 0.624414 0.224796
0.950042 0.624323 0.228885
0.976104 0.624659 0.233677
1.000000 0.625360 0.239078
1.000000 0.626368 0.245212
1.000000 0.627619 0.252750
0.252079 0.675166 0.200443
0.255619 0.675410 0.200656
0.260594 0.675563 0.200626
0.270909 0.675685 0.200748
0.285679 0.675593 0.200931
0.304753 0.675288 0.201205
0.326604 0.674861 0.201419
0.351202 0.674372 0.201755
0.378088 0.673701 0.202121
0.406226 0.673121 0.202579
0.435737 0.672450 0.202945
0.466194 0.671748 0.203616
0.497200 0.670924 0.204318
0.528649 0.670069 0.204990
0.560449 0.669154 0.205692
0.592401 0.668208 0.206546
0.624323 0.667231 0.207675
0.656184 0.666377 0.208591
0.687953 0.665553 0.209812
0.719600 0.664820 0.210819
0.750881 0.664179 0.212131
0.781888 0.663691 0.213718
0.812009 0.662837 0.215366
0.840665 0.661250 0.218082
0.868894 0.660029 0.220951
0.896605 0.659083 0.224338
0.923796 0.658534 0.227787
0.950439 0.658350 0.231846
0.976410 0.658625 0.236942
1.000000 0.659144 0.242496
1.000000 0.659937 0.248997
1.000000 0.660853 0.256626
0.261479 0.706600 0.204471
0.264591 0.706691 0.204532
0.269139 0.706691 0.204685
0.278752 0.706691 0.204837
0.293217 0.706477 0.204959
0.311376 0.706172 0.205142
0.332555 0.705776 0.205447
0.356390 0.705287 0.205905
0.382391 0.704799 0.206149
0.410010 0.704280 0.206485
0.438911 0.703731 0.206943
0.468727 0.703059 0.207797
0.499367 0.702388 0.208072
0.530266 0.701534 0.208988
0.561517 0.700710 0.209720
0.593164 0.699825 0.210422
0.624598 0.698909 0.211582
0.656214 0.698085 0.212406
0.687617 0.697322 0.213535
0.718868 0.696620 0.214664
0.749844 0.696010 0.215702
0.780545 0.695491 0.217044
0.810849 0.695064 0.218509
0.840391 0.694514 0.220401
0.868498 0.693202 0.223484
0.896117 0.692287 0.226566
0.923247 0.691676 0.230259
0.949828 0.691493 0.234501
0.975708 0.691646 0.239475
1.000000 0.692042 0.245151
1.000000 0.692622 0.251987
1.000000 0.693263 0.259770
0.270329 0.737026 0.208591
0.273564 0.737087 0.208743
0.277745 0.737179 0.208652
0.287022 0.737087 0.208743
0.300664 0.736934 0.208988
0.318059 0.736660 0.209262
0.338506 0.736294 0.209262
0.361578 0.735805 0.209537
0.386877 0.735317 0.209995
0.413733 0.734829 0.210544
0.442023 0.734310 0.210910
0.471168 0.733761 0.211582
0.501152 0.733089 0.212070
0.531670 0.732387 0.212558
0.562615 0.731685 0.213443
0.593683 0.730922 0.214176
0.624933 0.730159 0.215091
0.656092 0.729458 0.215824
0.687282 0.728786 0.217014
0.718288 0.728237 0.218235
0.749050 0.727749 0.219516
0.779568 0.727382 0.220890
0.809689 0.727169 0.222385
0.839445 0.727047 0.223819
0.867857 0.726223 0.225376
0.895415 0.725216 0.228763
0.922454 0.724636 0.232639
0.948974 0.724361 0.236942
0.974792 0.724453 0.241764
0.999756 0.724758 0.247868
1.000000 0.725185 0.254887
1.000000 0.725521 0.262791
0.279911 0.768551 0.212894
0.282963 0.768643 0.212955
0.287083 0.768643 0.212985
0.295933 0.768521 0.213107
0.308934 0.768338 0.213046
0.325353 0.768032 0.213352
0.345281 0.767636 0.213382
0.367498 0.767178 0.213870
0.392157 0.766629 0.214054
0.418311 0.766049 0.214267
0.445716 0.765469 0.214878
0.474342 0.764858 0.215274
0.503685 0.764248 0.215671
0.533654 0.763485 0.216312
0.563958 0.762753 0.217258
0.594568 0.761990 0.217929
0.625269 0.761227 0.218784
0.656153 0.760494 0.219730
0.686915 0.759945 0.220737
0.717647 0.759487 0.221744
0.748165 0.759121 0.223087
0.778347 0.758877 0.224552
0.808316 0.758694 0.225864
0.837736 0.758602 0.227573
0.866697 0.758602 0.229313
0.895079 0.758663 0.231113
0.921965 0.757931 0.234928
0.948333 0.757626 0.239292
0.974060 0.757534 0.244419
0.998901 0.757656 0.250645
1.000000 0.757900 0.257877
1.000000 0.757900 0.266270
0.289525 0.799191 0.216770
0.292454 0.799283 0.216800
0.296391 0.799313 0.217044
0.304509 0.799252 0.216922
0.317174 0.799039 0.217075
0.333074 0.798764 0.217197
0.352148 0.798428 0.217411
0.373602 0.798001 0.217807
0.397498 0.797543 0.217990
0.422980 0.797086 0.218631
0.449805 0.796597 0.218936
0.477913 0.796078 0.219333
0.506767 0.795560 0.219821
0.536126 0.794949 0.220523
0.566125 0.794308 0.221134
0.596246 0.793668 0.221897
0.626612 0.793027 0.222904
0.657130 0.792416 0.223819
0.687526 0.791928 0.224918
0.717891 0.791562 0.225895
0.748104 0.791257 0.227329
0.778042 0.791073 0.228763
0.807706 0.790951 0.230228
0.836912 0.790921 0.231907
0.865721 0.791012 0.233707
0.893980 0.791226 0.235630
0.921752 0.791592 0.237583
0.948058 0.791226 0.242100
0.973602 0.791043 0.247684
0.998352 0.791073 0.253880
1.000000 0.790951 0.261387
1.000000 0.790677 0.270176
0.299687 0.830289 0.221012
0.302647 0.830381 0.221134
0.306218 0.830381 0.221195
0.314061 0.830259 0.221225
0.325933 0.830045 0.221286
0.341100 0.829801 0.221683
0.359472 0.829435 0.221744
0.380346 0.829038 0.222019
0.403388 0.828611 0.222293
0.428138 0.828183 0.222690
0.454444 0.827726 0.223148
0.481819 0.827329 0.223728
0.510094 0.826871 0.224094
0.539055 0.826352 0.224887
0.568475 0.825803 0.225498
0.598199 0.825193 0.226413
0.628138 0.824613 0.227237
0.658167 0.824063 0.228367
0.688258 0.823636 0.229252
0.718227 0.823331 0.230594
0.748104 0.823117 0.231724
0.777768 0.822965 0.233433
0.807126 0.822934 0.235050
0.836088 0.822995 0.236667
0.864622 0.823148 0.238529
0.892668 0.823392 0.240574
0.920226 0.823850 0.242557
0.947295 0.824399 0.244999
0.972869 0.824308 0.250156
0.997375 0.824002 0.256962
1.000000 0.823697 0.264530
1.000000 0.823087 0.273777
0.310277 0.861295 0.225620
0.312993 0.861295 0.225803
0.316442 0.861295 0.225742
0.323919 0.861204 0.225681
0.335332 0.861051 0.225925
0.349981 0.860899 0.226169
0.367681 0.860716 0.226352
0.387823 0.860563 0.226810
0.410346 0.860380 0.227176
0.434577 0.860197 0.227573
0.460334 0.859983 0.228397
0.487129 0.859800 0.228885
0.514946 0.859495 0.229465
0.543481 0.859190 0.230350
0.572442 0.858762 0.231083
0.601709 0.858274 0.232059
0.631220 0.857816 0.233036
0.660792 0.857359 0.233921
0.690547 0.856962 0.235355
0.720180 0.856687 0.236576
0.749660 0.856474 0.238041
0.778988 0.856382 0.239445
0.807950 0.856382 0.241215
0.836576 0.856443 0.243168
0.864805 0.856596 0.244968
0.892576 0.856870 0.247166
0.919890 0.857267 0.249516
0.946654 0.857877 0.252140
0.972839 0.858610 0.254948
0.997314 0.858274 0.261082
1.000000 0.857542 0.269230
1.000000 0.856443 0.278782
0.322759 0.893462 0.231266
0.325048 0.893492 0.231357
0.328496 0.893431 0.231510
0.335607 0.893309 0.231357
0.346288 0.893126 0.231601
0.360357 0.892943 0.231693
0.377111 0.892699 0.231937
0.396521 0.892485 0.232151
0.418097 0.892180 0.232670
0.441627 0.891905 0.233249
0.466529 0.891600 0.233768
0.492592 0.891325 0.234379
0.519646 0.890959 0.235019
0.547509 0.890593 0.235752
0.575830 0.890166 0.236698
0.604578 0.889738 0.237583
