其他预设/【239】阳光逆光效果预设26款/1.LUT预设（视频调色-PR-AE-PS-FCPX-达芬奇用）/阳光逆光预设__-26.cube
# Created by Adobe Lightroom plugin Export LUT (1.17.0)
# www.johnrellis.com/lightroom/exportlut.htm
# Preset: 阳光逆光预设[素锦印象]-26
# Color profile: /Library/Application Support/Adobe/Color/Profiles/Recommended/AdobeRGB1998.icc
LUT_3D_SIZE 5
DOMAIN_MIN 0.000000 0.000000 0.000000
DOMAIN_MAX 0.903226 0.903226 0.903226
0.000000 0.082338 0.075593
0.129488 0.096162 0.076356
0.496498 0.078614 0.027222
0.822477 0.295018 0.000000
0.998352 0.539849 0.202182
0.000000 0.149599 0.085481
0.160555 0.191104 0.063783
0.472847 0.205844 0.053346
0.803738 0.370001 0.004608
0.993011 0.579675 0.228153
0.000000 0.434638 0.142947
0.063905 0.446845 0.075593
0.569512 0.591730 0.000000
0.825254 0.591150 0.000000
0.971130 0.673610 0.286473
0.074311 0.741756 0.298222
0.123354 0.747127 0.223850
0.452216 0.765621 0.185702
0.858701 0.846708 0.111208
0.999054 0.852079 0.300664
0.394812 0.941894 0.522545
0.406104 0.943786 0.487190
0.532616 0.941497 0.429389
0.798672 0.949310 0.449866
0.985534 0.965423 0.479683
0.000000 0.091890 0.144656
0.150179 0.086183 0.154543
0.538323 0.121065 0.188815
0.832151 0.341283 0.234958
0.995026 0.564385 0.335943
0.000000 0.165774 0.168368
0.171633 0.186587 0.180697
0.515190 0.252293 0.203738
0.815915 0.406897 0.241855
0.989166 0.598138 0.347601
0.000000 0.448005 0.262089
0.217044 0.469551 0.259525
0.562524 0.576684 0.193393
0.803830 0.578790 0.253605
0.970031 0.687495 0.382269
0.177157 0.745968 0.394537
0.294987 0.751736 0.384039
0.464485 0.758511 0.310552
0.855528 0.843778 0.304356
0.991180 0.850401 0.410132
0.434791 0.940185 0.580743
0.482094 0.939666 0.569970
0.560174 0.942260 0.496254
0.801511 0.947509 0.514946
0.982330 0.965270 0.551568
0.000000 0.127291 0.444495
0.000000 0.111818 0.456397
0.538628 0.000000 0.475563
0.869230 0.309300 0.493080
0.986908 0.666407 0.621698
0.000000 0.261601 0.451545
0.085664 0.232822 0.468696
0.545830 0.230289 0.488716
0.860136 0.450996 0.519036
0.983581 0.682826 0.616236
0.000000 0.483375 0.487800
0.220768 0.500023 0.494942
0.556664 0.554925 0.521202
0.817472 0.631556 0.546166
0.969635 0.737453 0.604456
0.160189 0.758938 0.578027
0.317693 0.762875 0.579187
0.582391 0.775448 0.580987
0.845090 0.836027 0.576867
0.966552 0.842649 0.613428
0.433631 0.941680 0.690303
0.508476 0.939696 0.691676
0.674067 0.934295 0.687465
0.797787 0.938262 0.648524
0.973144 0.963653 0.697444
0.000000 0.214694 0.729763
0.000000 0.180453 0.734524
0.528405 0.167300 0.747463
0.836759 0.284550 0.750057
0.990784 0.588128 0.758267
0.000000 0.364599 0.727504
0.000000 0.315770 0.734005
0.524468 0.312352 0.747250
0.833494 0.404273 0.751369
0.985260 0.646235 0.766384
0.000000 0.589837 0.721584
0.191714 0.598047 0.723171
0.519036 0.584009 0.744533
0.825559 0.623896 0.757443
0.971771 0.782254 0.796902
0.189334 0.769772 0.748318
0.324804 0.773220 0.749722
0.583886 0.785763 0.757351
0.827268 0.817288 0.779538
0.953948 0.863310 0.801022
0.448676 0.945281 0.824949
0.519066 0.944030 0.826291
0.684443 0.938842 0.823545
0.838224 0.935515 0.816800
0.964904 0.962066 0.833646
0.000000 0.388281 0.922637
0.000000 0.337224 0.924437
0.527306 0.380896 0.923430
0.843717 0.489052 0.922393
0.967376 0.617639 0.913420
0.000000 0.511803 0.917296
0.127565 0.471290 0.919402
0.525597 0.460365 0.920867
0.838285 0.546166 0.920073
0.964599 0.655238 0.913085
0.000000 0.695186 0.907103
0.248783 0.685237 0.908354
0.537041 0.652430 0.913115
0.820249 0.678035 0.915892
0.958679 0.754360 0.915160
0.284825 0.837308 0.907225
0.369085 0.836484 0.906462
0.567529 0.834531 0.905058
0.795651 0.823026 0.912810
0.954559 0.866117 0.923583
0.504417 0.940887 0.919982
0.553002 0.939940 0.920104
0.688136 0.937987 0.921202
0.832486 0.939178 0.923644
0.954681 0.954650 0.937926
