其他预设/【239】阳光逆光效果预设26款/1.LUT预设（视频调色-PR-AE-PS-FCPX-达芬奇用）/阳光逆光预设__-26.cube
# Created by Adobe Lightroom plugin Export LUT (1.17.0)
# www.johnrellis.com/lightroom/exportlut.htm
# Preset: 阳光逆光预设[素锦印象]-26
# Color profile: /Library/Application Support/Adobe/Color/Profiles/Recommended/AdobeRGB1998.icc
LUT_3D_SIZE 8
DOMAIN_MIN 0.000000 0.000000 0.000000
DOMAIN_MAX 0.903226 0.903226 0.903226
0.000000 0.082338 0.075593
0.050568 0.086122 0.076478
0.168307 0.096956 0.075685
0.391302 0.064393 0.059998
0.595300 0.125643 0.000000
0.782589 0.257877 0.000000
0.916442 0.405768 0.065614
0.998352 0.539849 0.202182
0.000000 0.100832 0.078859
0.061311 0.108614 0.075563
0.163699 0.116030 0.077333
0.381415 0.113863 0.062989
0.584649 0.168673 0.000000
0.771115 0.281498 0.000000
0.909880 0.418738 0.073579
0.995178 0.548730 0.205753
0.000000 0.176669 0.088594
0.010468 0.182376 0.079011
0.215000 0.233463 0.042298
0.415229 0.237797 0.011261
0.565118 0.268742 0.033753
0.754055 0.362036 0.011414
0.902342 0.478096 0.115175
0.990478 0.590173 0.234104
0.000000 0.336614 0.116396
0.000000 0.341344 0.086122
0.156405 0.365209 0.060090
0.462501 0.475532 0.000000
0.664332 0.502190 0.000000
0.760830 0.488808 0.025116
0.882658 0.550256 0.158999
0.978912 0.644465 0.268070
0.000000 0.534173 0.179263
0.000000 0.537011 0.149355
0.127352 0.544549 0.091432
0.383246 0.597467 0.000000
0.667475 0.681605 0.000000
0.846281 0.700496 0.000000
0.909972 0.683314 0.141024
0.970245 0.713008 0.298253
0.000000 0.702388 0.270451
0.000000 0.706355 0.250095
0.129305 0.711086 0.169955
0.346349 0.711971 0.166781
0.586938 0.771481 0.120363
0.829191 0.820157 0.000000
0.953765 0.838956 0.099794
0.993896 0.826108 0.299596
0.216312 0.841978 0.384741
0.223087 0.843320 0.369604
0.241947 0.846067 0.307439
0.376135 0.845762 0.279454
0.554131 0.855558 0.277379
0.771176 0.886381 0.270665
0.926421 0.908782 0.274479
1.000000 0.920653 0.321874
0.394812 0.941894 0.522545
0.398077 0.942412 0.512383
0.410224 0.944518 0.474830
0.471473 0.945769 0.433265
0.600458 0.939025 0.432532
0.761013 0.946441 0.445838
0.893614 0.957275 0.459358
0.985534 0.965423 0.479683
0.000000 0.084535 0.091096
0.059236 0.084413 0.092073
0.186099 0.096590 0.095399
0.405341 0.084962 0.098329
0.602533 0.151492 0.096803
0.780880 0.271885 0.106142
0.913451 0.413092 0.152712
0.995636 0.544335 0.246738
0.000000 0.104158 0.094423
0.063447 0.108827 0.096742
0.183627 0.123659 0.101198
0.398413 0.129397 0.101167
0.594842 0.189639 0.100465
0.773098 0.296330 0.109926
0.907958 0.426551 0.155184
0.992523 0.552544 0.248386
0.000000 0.180941 0.115419
0.067933 0.191501 0.116396
0.218601 0.230320 0.093172
0.405859 0.234592 0.101411
0.572503 0.281926 0.113252
0.754818 0.370886 0.126497
0.898344 0.480476 0.174716
0.987335 0.591577 0.269413
0.000000 0.340368 0.160830
0.015106 0.348699 0.155032
0.172519 0.363226 0.119783
0.456977 0.464485 0.000000
0.645472 0.485115 0.000000
0.744961 0.478645 0.137728
0.878233 0.549493 0.201511
0.975891 0.644343 0.296208
0.000000 0.537896 0.230137
0.000000 0.541131 0.215824
0.156435 0.548333 0.149538
0.384039 0.590387 0.121920
0.660761 0.673884 0.000000
0.837430 0.692073 0.000000
0.903807 0.678492 0.199161
0.965789 0.710292 0.326238
0.124331 0.701717 0.314092
0.144381 0.703456 0.297826
0.170352 0.709102 0.219669
0.354467 0.711025 0.208835
0.585382 0.767239 0.184390
0.827237 0.817990 0.147616
0.950164 0.836210 0.188052
0.990692 0.824277 0.332219
0.255222 0.838804 0.417029
0.259220 0.839261 0.402075
0.275181 0.842466 0.346410
0.382452 0.844144 0.306554
0.554376 0.852293 0.306279
0.769375 0.884062 0.304051
0.923949 0.906981 0.309880
1.000000 0.918914 0.351232
0.415808 0.939513 0.544060
0.419318 0.940215 0.534874
0.430671 0.942443 0.499733
0.477424 0.944762 0.450965
0.609339 0.939849 0.455177
0.762753 0.945953 0.466896
0.892943 0.956603 0.479591
0.984131 0.964874 0.499489
0.000000 0.095308 0.177829
0.000000 0.092042 0.182712
0.200900 0.078096 0.191958
0.449714 0.000000 0.198093
0.645960 0.185153 0.241520
0.805997 0.326177 0.273716
0.921935 0.456764 0.311009
0.995483 0.575830 0.374151
0.000000 0.128634 0.185489
0.000000 0.121706 0.192660
0.209110 0.114076 0.200443
0.447395 0.104067 0.209659
0.636316 0.230900 0.246983
0.798459 0.347387 0.273960
0.917449 0.468666 0.310613
0.993194 0.584039 0.374914
0.000000 0.198825 0.208682
0.025177 0.206638 0.212985
0.230961 0.225559 0.224949
0.428870 0.261875 0.238712
0.613550 0.329717 0.256535
0.780758 0.414893 0.278843
0.906950 0.514275 0.317235
0.986969 0.616052 0.384161
0.000000 0.355108 0.263767
0.000000 0.364446 0.266300
0.258579 0.389105 0.268223
0.461707 0.459754 0.238895
0.623713 0.469215 0.256321
0.748898 0.496559 0.285985
0.888609 0.577905 0.328069
0.976593 0.664973 0.400092
0.000000 0.547112 0.322240
0.103365 0.552453 0.324224
0.283604 0.567376 0.320714
0.399237 0.585962 0.278080
0.663447 0.671107 0.260624
0.823484 0.680995 0.279179
0.892638 0.675593 0.335454
0.961822 0.718868 0.417823
0.134829 0.707454 0.391913
0.203342 0.709895 0.393774
0.318242 0.716365 0.385443
0.390692 0.721340 0.325383
0.589319 0.760739 0.321263
0.823819 0.814115 0.319738
0.940063 0.830045 0.347814
0.982879 0.823697 0.433753
0.271824 0.842191 0.482277
0.308049 0.842313 0.483284
0.381689 0.843565 0.470588
0.415564 0.847929 0.397742
0.562158 0.846159 0.394415
0.770199 0.880888 0.405402
0.921324 0.906554 0.423285
1.000000 0.918425 0.456947
0.430549 0.939513 0.590478
0.453834 0.938628 0.591211
0.503441 0.937957 0.581567
0.521019 0.942626 0.525780
0.627222 0.939117 0.514641
0.765286 0.943084 0.526421
0.891997 0.955383 0.545495
0.980926 0.964752 0.568780
0.000000 0.112947 0.351354
0.000000 0.105837 0.356786
0.197635 0.085725 0.370611
0.435767 0.000000 0.379248
0.670314 0.000000 0.386542
0.836637 0.301366 0.415198
0.929046 0.516136 0.486641
0.991272 0.623896 0.530266
0.000000 0.160067 0.359899
0.000000 0.144961 0.364935
0.202213 0.128450 0.376959
0.439704 0.074311 0.385290
0.668849 0.087007 0.391913
0.832364 0.357458 0.429084
0.925566 0.527977 0.486549
0.989868 0.629633 0.528405
0.000000 0.256291 0.367956
0.000000 0.262852 0.371496
0.211337 0.249760 0.390234
0.448829 0.251560 0.401862
0.663203 0.329229 0.414832
0.816251 0.480232 0.463233
0.918059 0.572625 0.492897
0.985595 0.657465 0.532280
0.000000 0.380621 0.397070
0.000000 0.387335 0.400092
0.260441 0.408331 0.410010
0.458961 0.446235 0.427283
0.629725 0.496773 0.439979
0.784298 0.553338 0.457923
0.899931 0.621759 0.487221
0.975921 0.697169 0.535241
0.000000 0.563012 0.451545
0.071778 0.568597 0.454841
0.294835 0.583154 0.458961
0.470100 0.605463 0.463447
0.661280 0.662776 0.450538
0.794064 0.662409 0.459022
0.875639 0.676295 0.481392
0.962799 0.743648 0.539055
0.125978 0.719203 0.503899
0.201022 0.722957 0.506523
0.343175 0.728695 0.509331
0.491218 0.737850 0.508568
0.600305 0.752010 0.472999
0.820188 0.810666 0.490303
0.923125 0.820859 0.508721
0.969146 0.821256 0.553765
0.269993 0.847135 0.570245
0.308019 0.847715 0.571221
0.412940 0.848783 0.573846
0.534325 0.850187 0.568597
0.600855 0.851652 0.517235
0.771542 0.876127 0.530663
0.916075 0.905303 0.557122
0.991852 0.915557 0.584436
0.435523 0.941680 0.655177
0.459236 0.941070 0.655879
0.531426 0.938598 0.657343
0.620081 0.935912 0.652399
0.655482 0.938689 0.600397
0.766140 0.937835 0.604425
0.889586 0.953063 0.630121
0.976104 0.964385 0.656977
0.000000 0.145693 0.532189
0.000000 0.128847 0.535698
0.098726 0.118837 0.544640
0.444556 0.000000 0.559838
0.638331 0.000000 0.564965
0.831693 0.124514 0.565820
0.937346 0.461067 0.591485
0.984955 0.693477 0.689235
0.000000 0.199039 0.535729
0.000000 0.180941 0.539513
0.112001 0.158297 0.548211
0.443915 0.126253 0.562127
0.639307 0.130526 0.567468
0.831174 0.213870 0.568933
0.935058 0.492226 0.598230
0.981903 0.712764 0.700374
0.000000 0.320989 0.535271
0.000000 0.319188 0.540093
0.168887 0.284825 0.553887
0.438544 0.281865 0.568597
0.641077 0.309270 0.574823
0.827329 0.384283 0.578973
0.926665 0.580407 0.621271
0.977691 0.729732 0.698512
0.000000 0.442481 0.546288
0.000000 0.447303 0.548089
0.244297 0.464485 0.554559
0.435859 0.466865 0.576196
0.644800 0.490639 0.588373
0.817319 0.566491 0.604028
0.911772 0.688716 0.660426
0.973785 0.744289 0.680049
0.000000 0.577203 0.570245
0.063508 0.581079 0.572045
0.288273 0.593835 0.577813
0.468605 0.616083 0.589014
0.650019 0.644465 0.605798
0.788907 0.678553 0.616602
0.891936 0.722896 0.635065
0.963897 0.774960 0.665797
0.113405 0.721309 0.612787
0.189883 0.724300 0.615076
0.335332 0.733364 0.621973
0.498726 0.745174 0.629145
0.654536 0.755398 0.628229
0.810605 0.801266 0.631159
0.897429 0.803098 0.636561
0.949798 0.812741 0.655818
0.268467 0.852995 0.671870
0.306188 0.853086 0.671778
0.411841 0.853513 0.671778
0.548547 0.853910 0.671962
0.677485 0.854795 0.666682
0.765499 0.864591 0.640467
0.908782 0.902159 0.674525
0.977081 0.909270 0.691279
0.435737 0.942657 0.729061
0.458717 0.941955 0.729000
0.529686 0.939544 0.728756
0.630457 0.936706 0.729519
0.726009 0.933349 0.724025
0.774594 0.934783 0.687709
0.884184 0.948852 0.710140
0.970672 0.963348 0.739071
0.000000 0.198917 0.695003
0.000000 0.180270 0.696895
0.000000 0.164096 0.701106
0.404303 0.144991 0.709895
0.663416 0.148653 0.722011
0.806180 0.233646 0.718441
0.927947 0.376837 0.716732
0.990600 0.613703 0.739193
0.000000 0.250126 0.693629
0.000000 0.231693 0.695369
0.000000 0.199557 0.700740
0.403449 0.194766 0.709163
0.660212 0.211643 0.721004
0.804715 0.281468 0.718410
0.926390 0.406958 0.717678
0.988800 0.630671 0.742275
0.000000 0.383093 0.691737
0.000000 0.377905 0.694240
0.105318 0.334173 0.702541
0.402289 0.323583 0.711696
0.654047 0.356207 0.722713
0.803342 0.407874 0.722011
0.922637 0.497353 0.723293
0.983276 0.686336 0.755001
0.000000 0.522728 0.687007
0.000000 0.525628 0.687373
0.236881 0.524590 0.695583
0.417548 0.501213 0.713436
0.644190 0.516716 0.726436
0.802884 0.553033 0.730098
0.917998 0.621515 0.736202
0.975616 0.761166 0.776974
0.000000 0.627558 0.698543
0.001740 0.630121 0.699397
0.277440 0.639155 0.702235
0.453559 0.654566 0.707729
0.629206 0.654963 0.725307
0.799344 0.676631 0.736934
0.908385 0.743008 0.754635
0.964935 0.834287 0.806027
0.140627 0.734707 0.715419
0.205325 0.736904 0.716701
0.340124 0.742672 0.719631
0.496803 0.751980 0.724910
0.656153 0.764828 0.733303
0.800259 0.788479 0.749966
0.889036 0.815702 0.760555
0.955688 0.848112 0.778042
0.279057 0.852659 0.756435
0.316045 0.853788 0.757656
0.419013 0.856168 0.760555
0.553826 0.859770 0.765560
0.689906 0.863401 0.769284
0.801633 0.866728 0.766842
0.902220 0.898558 0.777279
0.959869 0.900145 0.780301
0.447059 0.945647 0.808927
0.469001 0.944915 0.808530
0.536736 0.942626 0.807248
0.631647 0.939452 0.805295
0.731716 0.935882 0.802670
0.817472 0.934234 0.797971
0.876432 0.941833 0.783474
0.966003 0.962432 0.816129
0.000000 0.274723 0.826352
0.000000 0.257267 0.827909
0.000000 0.231571 0.829862
0.381323 0.239872 0.832486
0.636042 0.270024 0.835996
0.828122 0.349737 0.840879
0.907836 0.436072 0.832059
0.981140 0.569696 0.828763
0.000000 0.320806 0.823087
0.000000 0.303807 0.824674
0.000000 0.261845 0.827573
0.379004 0.273747 0.830014
0.631830 0.304570 0.833433
0.825040 0.376928 0.838254
0.904967 0.454200 0.829770
0.979248 0.578912 0.827146
0.000000 0.455299 0.820218
0.000000 0.451331 0.821256
0.082155 0.400702 0.825132
0.378759 0.380346 0.829191
0.627802 0.412238 0.832242
0.819730 0.470375 0.837583
0.902770 0.531579 0.831846
0.976898 0.633356 0.832090
0.000000 0.586481 0.813657
0.000000 0.583673 0.814359
0.248142 0.575402 0.817807
0.409430 0.542016 0.825834
0.619806 0.543542 0.831235
0.810178 0.586267 0.837858
0.899687 0.630976 0.835782
0.973236 0.704372 0.838468
0.000000 0.687892 0.810910
0.052766 0.688563 0.810513
0.270024 0.691890 0.810239
0.441474 0.691218 0.813779
0.611963 0.669764 0.826047
0.791592 0.687556 0.835142
0.893950 0.723079 0.837888
0.968688 0.780117 0.845975
0.173404 0.773617 0.818173
0.223239 0.774411 0.818326
0.342992 0.777005 0.818845
0.486061 0.781125 0.820157
0.635126 0.786984 0.822171
0.779141 0.790249 0.835203
0.892088 0.814603 0.846311
0.963287 0.863493 0.863462
0.314916 0.855589 0.830259
0.345220 0.856168 0.830777
0.432624 0.857176 0.831540
0.551537 0.858946 0.833310
0.680110 0.861814 0.835843
0.797086 0.870085 0.841825
0.891661 0.888273 0.856229
0.952026 0.906523 0.865721
0.445838 0.939269 0.862516
0.466224 0.939788 0.863554
0.535149 0.940337 0.866148
0.629633 0.939086 0.867857
0.731594 0.938109 0.870451
0.821897 0.939117 0.873228
0.892424 0.940490 0.869596
0.962036 0.960967 0.883055
0.000000 0.388281 0.922637
0.000000 0.373907 0.923400
0.000000 0.340673 0.924254
0.405219 0.364050 0.923827
0.636896 0.402686 0.922911
0.810239 0.467933 0.922301
0.918242 0.551598 0.923369
0.967376 0.617639 0.913420
0.000000 0.427893 0.920500
0.000000 0.414496 0.921324
0.000000 0.366705 0.923064
0.404242 0.389014 0.922454
0.635004 0.425574 0.921691
0.808072 0.486122 0.921172
0.916808 0.564782 0.922240
0.966186 0.627283 0.912718
0.000610 0.544793 0.915404
0.107820 0.534539 0.916106
0.212558 0.493751 0.917998
0.404486 0.469306 0.920500
0.632166 0.499001 0.919677
0.803189 0.546746 0.919219
0.914061 0.613581 0.920806
0.963684 0.665949 0.912871
0.000000 0.640009 0.910674
0.134646 0.639277 0.911101
0.325811 0.636500 0.911742
0.445258 0.601831 0.915343
0.623438 0.594415 0.917052
0.794980 0.629755 0.917449
0.910643 0.683680 0.919768
0.960540 0.723507 0.914275
0.084108 0.750423 0.903288
0.166659 0.748440 0.903899
0.304082 0.739437 0.905180
0.454902 0.722133 0.908171
0.621546 0.702174 0.912200
0.777798 0.710140 0.914794
0.899474 0.751980 0.918517
0.957122 0.787045 0.916808
0.247532 0.819150 0.905425
0.278599 0.818845 0.905119
0.366979 0.818051 0.904295
0.484993 0.816800 0.903441
0.620722 0.812436 0.903929
0.765774 0.799924 0.912016
0.887205 0.822904 0.919341
0.955261 0.852171 0.922515
0.375341 0.885100 0.910765
0.395911 0.884825 0.910582
0.460761 0.883879 0.910124
0.558007 0.882841 0.909850
0.669673 0.882383 0.909697
0.775814 0.884916 0.910246
0.874113 0.887541 0.919341
0.953460 0.906096 0.928161
0.504417 0.940887 0.919982
0.519066 0.940520 0.919951
0.568627 0.939727 0.920256
0.645380 0.938567 0.920897
0.730922 0.937652 0.921569
0.813016 0.938506 0.923033
0.887572 0.942840 0.926604
0.954681 0.954650 0.937926
