其他预设/【239】阳光逆光效果预设26款/1.LUT预设（视频调色-PR-AE-PS-FCPX-达芬奇用）/阳光逆光预设__-21.cube
# Created by Adobe Lightroom plugin Export LUT (1.17.0)
# www.johnrellis.com/lightroom/exportlut.htm
# Preset: 阳光逆光预设[素锦印象]-21
# Color profile: /Library/Application Support/Adobe/Color/Profiles/Recommended/AdobeRGB1998.icc
LUT_3D_SIZE 8
DOMAIN_MIN 0.000000 0.000000 0.000000
DOMAIN_MAX 0.903226 0.903226 0.903226
0.000000 0.000000 0.000000
0.092287 0.000000 0.000000
0.263005 0.000000 0.000000
0.443580 0.000000 0.000000
0.598566 0.000000 0.000000
0.734096 0.000000 0.000000
0.872038 0.000000 0.000000
0.988617 0.000000 0.000000
0.000000 0.089570 0.000000
0.090272 0.085481 0.000000
0.265293 0.102785 0.000000
0.444709 0.104646 0.000000
0.598871 0.081056 0.000000
0.734279 0.000000 0.000000
0.872160 0.000000 0.000000
0.988495 0.000000 0.000000
0.000000 0.252781 0.000000
0.125765 0.253819 0.000000
0.253758 0.236606 0.000000
0.441627 0.267216 0.000000
0.600061 0.262821 0.000000
0.734981 0.249943 0.000000
0.872435 0.240421 0.000000
0.988006 0.229770 0.000000
0.000000 0.423804 0.000000
0.136202 0.423957 0.000000
0.296147 0.422431 0.000000
0.426551 0.397711 0.000000
0.581689 0.407050 0.000000
0.736141 0.403601 0.000000
0.872831 0.396887 0.000000
0.986999 0.385016 0.000000
0.000000 0.569085 0.000000
0.141115 0.568750 0.000000
0.297581 0.567315 0.000000
0.446509 0.557366 0.000000
0.570092 0.533318 0.012543
0.705898 0.537530 0.067994
0.865263 0.545556 0.000000
0.985290 0.529747 0.000000
0.060090 0.702510 0.000000
0.157626 0.702327 0.000000
0.300725 0.701595 0.000000
0.447150 0.700465 0.000000
0.588891 0.686336 0.000000
0.707881 0.666682 0.120760
0.836271 0.675074 0.174166
0.970092 0.677424 0.086519
0.117922 0.840391 0.000000
0.182803 0.840146 0.000000
0.311254 0.839322 0.000000
0.450965 0.837766 0.000000
0.592889 0.834165 0.000000
0.729763 0.819089 0.000000
0.844846 0.804044 0.192325
0.946349 0.800778 0.274754
0.176425 0.954101 0.000000
0.219913 0.953765 0.000000
0.325566 0.952514 0.000000
0.451575 0.950317 0.000000
0.582727 0.947082 0.000000
0.718990 0.939300 0.000000
0.847288 0.926574 0.172183
0.953643 0.915190 0.293370
0.000000 0.000000 0.083131
0.096376 0.000000 0.084230
0.267033 0.000000 0.088045
0.446693 0.000000 0.065126
0.600305 0.000000 0.011627
0.735164 0.000000 0.000000
0.872740 0.000000 0.000000
0.988800 0.000000 0.000000
0.000000 0.090455 0.084138
0.100771 0.091768 0.083986
0.269841 0.087831 0.076936
0.447639 0.065736 0.056275
0.600549 0.000000 0.000000
0.735317 0.000000 0.000000
0.872801 0.000000 0.000000
0.988647 0.000000 0.000000
0.000000 0.253971 0.080232
0.112245 0.255344 0.065431
0.261723 0.242100 0.088136
0.449226 0.264042 0.000000
0.601343 0.256229 0.000000
0.735927 0.244663 0.000000
0.873014 0.236973 0.000000
0.988098 0.229191 0.000000
0.000000 0.425391 0.000000
0.119661 0.424903 0.000000
0.294224 0.424262 0.000000
0.430884 0.400366 0.091463
0.585901 0.408698 0.055940
0.736843 0.402136 0.000000
0.873228 0.396002 0.000000
0.987030 0.385534 0.000000
0.000000 0.569512 0.000000
0.135164 0.569085 0.000000
0.296605 0.567529 0.000000
0.448280 0.558556 0.000000
0.572656 0.534844 0.121828
0.708583 0.539940 0.130739
0.866819 0.546288 0.000000
0.985260 0.530541 0.000000
0.072877 0.702480 0.000000
0.161929 0.702266 0.000000
0.303044 0.701534 0.000000
0.448676 0.700404 0.000000
0.591180 0.687068 0.000000
0.709651 0.667628 0.165347
0.837949 0.676967 0.202853
0.970703 0.678492 0.138308
0.133516 0.840177 0.000000
0.192386 0.839963 0.000000
0.316136 0.839109 0.000000
0.453895 0.837583 0.000000
0.594598 0.834501 0.000000
0.731502 0.819394 0.093996
0.845792 0.804440 0.219150
0.947051 0.801785 0.290410
0.191531 0.953735 0.000000
0.231357 0.953429 0.000000
0.332708 0.952178 0.000000
0.456031 0.949981 0.000000
0.585595 0.946807 0.000000
0.720577 0.939361 0.000000
0.848478 0.926604 0.200473
0.954101 0.915312 0.308995
0.000000 0.000000 0.212436
0.132631 0.000000 0.212589
0.276341 0.000000 0.214786
0.452949 0.000000 0.218967
0.603754 0.000000 0.205692
0.737057 0.000000 0.201236
0.873716 0.000000 0.195865
0.988464 0.000000 0.191867
0.000000 0.098970 0.213169
0.121096 0.088350 0.213291
0.280278 0.063447 0.214481
0.454444 0.000000 0.213809
0.604089 0.000000 0.203159
0.737087 0.000000 0.200626
0.873777 0.000000 0.194858
0.988281 0.000000 0.191135
0.000000 0.255192 0.211368
0.115236 0.256077 0.211063
0.284764 0.256291 0.210941
0.457130 0.254368 0.205539
0.604120 0.250553 0.201144
0.737484 0.247471 0.197055
0.873838 0.244663 0.191562
0.987640 0.245518 0.188571
0.000000 0.425910 0.208316
0.111818 0.426123 0.204379
0.295933 0.424994 0.199802
0.443641 0.407874 0.221530
0.599115 0.413153 0.203555
0.738186 0.404608 0.190433
0.873899 0.401038 0.185092
0.986481 0.394812 0.183597
0.000000 0.569848 0.186648
0.139712 0.569390 0.185702
0.307012 0.567132 0.189425
0.456397 0.562341 0.191287
0.580926 0.539361 0.237339
0.717861 0.547784 0.233280
0.872251 0.548882 0.181918
0.984649 0.536339 0.176028
0.107393 0.702388 0.168582
0.185855 0.701900 0.171603
0.322515 0.700710 0.177829
0.459602 0.699641 0.174990
0.599573 0.689570 0.201877
0.715511 0.670832 0.257908
0.844053 0.682765 0.272984
0.973022 0.681422 0.231998
0.178256 0.839384 0.155947
0.229007 0.838956 0.159457
0.338445 0.838071 0.159823
0.467048 0.836698 0.156954
0.601862 0.834562 0.152773
0.737209 0.820584 0.220920
0.849027 0.805936 0.288273
0.949767 0.804990 0.336645
0.243259 0.952270 0.157626
0.269871 0.952117 0.153597
0.357671 0.950958 0.152499
0.471962 0.948882 0.150851
0.595666 0.945830 0.148318
0.725460 0.939635 0.177371
0.851987 0.926940 0.271641
0.955444 0.915770 0.356329
0.102785 0.000000 0.342840
0.173373 0.000000 0.342779
0.307317 0.000000 0.342504
0.461311 0.000000 0.342260
0.608270 0.000000 0.333227
0.740841 0.000000 0.324010
0.875700 0.000000 0.323003
0.987274 0.099306 0.326177
0.060090 0.085725 0.343175
0.157412 0.077333 0.343084
0.305180 0.019318 0.342382
0.462867 0.000000 0.341619
0.608453 0.000000 0.332067
0.740658 0.000000 0.324376
0.875395 0.095674 0.324163
0.986969 0.169497 0.327031
0.000000 0.263645 0.341222
0.141970 0.260502 0.341070
0.304662 0.256535 0.340124
0.465980 0.252995 0.338048
0.608240 0.256931 0.330266
0.740047 0.268223 0.326940
0.874754 0.276066 0.326604
0.986633 0.283574 0.323491
0.000000 0.424292 0.335790
0.150454 0.424445 0.335424
0.312200 0.423987 0.334112
0.466499 0.421271 0.333898
0.608057 0.419806 0.329259
0.740475 0.417945 0.326268
0.874968 0.415747 0.322454
0.985626 0.414405 0.319951
0.096559 0.569329 0.321294
0.179812 0.568719 0.321080
0.327489 0.566217 0.321874
0.474250 0.562585 0.325078
0.594415 0.546624 0.342473
0.734676 0.557244 0.330266
0.875181 0.554711 0.315923
0.984039 0.546746 0.314641
0.162173 0.701930 0.306523
0.220188 0.701381 0.307683
0.347509 0.699763 0.312383
0.480903 0.698177 0.316350
0.612177 0.694240 0.319524
0.725277 0.676265 0.352239
0.855039 0.690455 0.352819
0.978180 0.682612 0.322210
0.214481 0.838895 0.296574
0.258579 0.838407 0.298405
0.367559 0.836881 0.304265
0.486610 0.835447 0.304417
0.613764 0.833585 0.301976
0.744900 0.823087 0.325689
0.854398 0.808560 0.370977
0.954772 0.809598 0.400366
0.278019 0.951263 0.292515
0.310246 0.950652 0.295201
0.398657 0.948791 0.303685
0.493111 0.947417 0.297307
0.609552 0.944579 0.295781
0.730556 0.940795 0.294835
0.856748 0.927764 0.355596
0.957488 0.916625 0.425269
0.157595 0.000000 0.450507
0.207340 0.000000 0.450385
0.325505 0.000000 0.449989
0.466102 0.000000 0.448737
0.613825 0.000000 0.446448
0.747036 0.000000 0.436286
0.879911 0.000000 0.432715
0.988922 0.113710 0.428077
0.140139 0.074128 0.450538
0.197971 0.066072 0.450355
0.323278 0.008057 0.449653
0.466529 0.000000 0.448249
0.614099 0.000000 0.445594
0.746944 0.002380 0.436103
0.879637 0.105837 0.433112
0.988495 0.180484 0.428962
0.133211 0.257511 0.448646
0.197482 0.257786 0.448371
0.327672 0.257755 0.447364
0.470924 0.257816 0.445594
0.614618 0.259953 0.442573
0.746578 0.270237 0.435828
0.878935 0.280766 0.434302
0.987152 0.306401 0.431556
0.150820 0.414832 0.444251
0.210788 0.415351 0.443946
0.342809 0.418097 0.442603
0.482338 0.422553 0.440436
0.615381 0.422766 0.437873
0.746761 0.423743 0.435340
0.878386 0.424323 0.434272
0.985321 0.435004 0.434028
0.178012 0.564446 0.437751
0.231235 0.564324 0.437415
0.354833 0.563287 0.436378
0.489967 0.561547 0.434668
0.614618 0.559045 0.435096
0.749142 0.558038 0.430243
0.879026 0.555169 0.427344
0.984680 0.552422 0.425727
0.218845 0.701198 0.425452
0.262577 0.700740 0.425818
0.371557 0.699275 0.426947
0.496834 0.697841 0.428412
0.620020 0.697932 0.425544
0.737758 0.683833 0.443946
0.871305 0.694270 0.433753
0.982452 0.681239 0.420600
0.256840 0.838163 0.417121
0.292729 0.837736 0.417945
0.388037 0.836393 0.420264
0.504112 0.834653 0.422278
0.620111 0.833616 0.417212
0.750179 0.827939 0.422675
0.860899 0.812253 0.460975
0.962005 0.814206 0.474525
0.308324 0.950347 0.407599
0.336248 0.949828 0.409033
0.416022 0.948089 0.413397
0.520226 0.945495 0.419471
0.620966 0.943664 0.413703
0.738125 0.940154 0.412634
0.861173 0.929503 0.446967
0.959472 0.917967 0.509514
0.198764 0.000000 0.562432
0.239109 0.000000 0.562402
0.343694 0.000000 0.562127
0.474617 0.000000 0.561486
0.614954 0.000000 0.560296
0.755123 0.000000 0.557549
0.884215 0.000000 0.550805
0.990173 0.129641 0.538720
0.191958 0.063569 0.562432
0.234806 0.055116 0.562341
0.342870 0.007965 0.561975
0.475502 0.000000 0.561181
0.615930 0.000000 0.559869
0.755123 0.039673 0.557000
0.883970 0.117739 0.550866
0.989746 0.189914 0.539330
0.202976 0.259373 0.561273
0.244846 0.259556 0.561151
0.351812 0.260044 0.560632
0.482521 0.261662 0.559655
0.619623 0.265446 0.558251
0.755276 0.272129 0.555413
0.883238 0.283757 0.551080
0.988373 0.310643 0.541039
0.223423 0.413519 0.559106
0.265660 0.415015 0.558831
0.374121 0.420600 0.557885
0.496712 0.423346 0.556847
0.625299 0.423346 0.555688
0.755795 0.423743 0.553307
0.882506 0.425330 0.550774
0.986419 0.437354 0.543023
0.243412 0.559075 0.556207
0.282048 0.559625 0.555962
0.383612 0.561273 0.555230
0.504417 0.562646 0.554223
0.626978 0.559869 0.553491
0.757382 0.558129 0.551598
0.882048 0.559197 0.549767
0.983185 0.569818 0.548638
0.266484 0.702144 0.552544
0.301061 0.701991 0.552453
0.394293 0.701381 0.551965
0.508934 0.700465 0.551263
0.629084 0.699214 0.550408
0.756069 0.697078 0.552575
0.881071 0.694453 0.548943
0.980560 0.691798 0.549523
0.294987 0.837339 0.544945
0.324620 0.836942 0.545129
0.408148 0.835843 0.545708
0.515160 0.834440 0.545922
0.633783 0.832609 0.546654
0.756161 0.830594 0.547570
0.867521 0.817502 0.574151
0.970245 0.818936 0.569696
0.337621 0.949248 0.530632
0.361822 0.948760 0.531365
0.433265 0.947234 0.533501
0.531273 0.944793 0.536980
0.646418 0.940978 0.545892
0.754604 0.937896 0.550164
0.866850 0.931975 0.561517
0.960266 0.919982 0.615900
0.222232 0.000000 0.706477
0.258518 0.000000 0.706477
0.356939 0.000000 0.706355
0.483009 0.000000 0.706081
0.619379 0.000000 0.705501
0.757717 0.000000 0.704616
0.888518 0.000000 0.697871
0.988678 0.147494 0.670558
0.219333 0.044862 0.706508
0.256962 0.033417 0.706477
0.357031 0.001038 0.706294
0.484108 0.000000 0.705928
0.620508 0.003632 0.705318
0.758175 0.073793 0.704433
0.888182 0.125093 0.697536
0.988220 0.201053 0.670863
0.234104 0.261357 0.705959
0.270329 0.261387 0.705898
0.367651 0.262547 0.705623
0.491920 0.264866 0.705165
0.625147 0.268803 0.704494
0.759670 0.274754 0.703670
0.887175 0.285557 0.696590
0.986816 0.316136 0.671962
0.264622 0.418708 0.704829
0.298985 0.420356 0.704646
0.390936 0.423926 0.704219
0.505089 0.424048 0.703853
0.631067 0.424048 0.703365
0.760952 0.423743 0.702846
0.885679 0.425635 0.695521
0.984710 0.440253 0.673671
0.279301 0.560327 0.703883
0.311192 0.561028 0.703761
0.399390 0.562707 0.703365
0.510369 0.562768 0.703029
0.630823 0.559869 0.702815
0.759579 0.558465 0.702388
0.883574 0.559930 0.695003
0.981079 0.572381 0.678279
0.295872 0.700465 0.702785
0.324865 0.700557 0.702693
0.407294 0.700679 0.702449
0.513573 0.699672 0.702205
0.632715 0.697841 0.702052
0.760159 0.698909 0.701411
0.879728 0.701625 0.696254
0.974701 0.710964 0.692134
0.313176 0.839384 0.701503
0.339269 0.839200 0.701503
0.415534 0.838529 0.701350
0.517418 0.837400 0.701259
0.636439 0.835386 0.701076
0.764614 0.830808 0.699947
0.874693 0.827390 0.704219
0.970275 0.825711 0.702907
0.356115 0.947997 0.675410
0.377752 0.947601 0.675624
0.443427 0.946227 0.676295
0.538903 0.943816 0.678065
0.653376 0.939910 0.683589
0.773098 0.934844 0.697139
0.872282 0.932433 0.705318
0.958801 0.923430 0.734890
0.211826 0.000000 0.857694
0.248508 0.000000 0.857694
0.346014 0.000000 0.857603
0.469398 0.000000 0.857420
0.601892 0.000000 0.857084
0.735622 0.000000 0.856596
0.866545 0.080385 0.856046
0.985565 0.156405 0.843595
0.213535 0.063142 0.857664
0.250370 0.062562 0.857633
0.348211 0.062379 0.857572
0.471748 0.073213 0.857328
0.603632 0.098817 0.856931
0.736507 0.131258 0.856413
0.866606 0.165194 0.855894
0.985077 0.206760 0.843412
0.239750 0.266117 0.857206
0.272770 0.266850 0.857176
0.364355 0.268956 0.856992
0.482612 0.273564 0.856748
0.610101 0.280552 0.856382
0.739284 0.289982 0.855955
0.866636 0.300694 0.855558
0.983337 0.318639 0.843015
0.289555 0.424567 0.856199
0.315770 0.424842 0.856168
0.393072 0.425513 0.856046
0.499702 0.426825 0.855894
0.618769 0.428565 0.855680
0.742184 0.430823 0.855467
0.865904 0.433600 0.855314
0.980438 0.441749 0.842771
0.298528 0.554162 0.856229
0.326177 0.555108 0.856138
0.405219 0.557763 0.855863
0.509575 0.560540 0.855589
0.623865 0.561425 0.855436
0.743465 0.562737 0.855344
0.864225 0.565637 0.855192
0.975708 0.574426 0.843137
0.313817 0.686000 0.856229
0.339025 0.686366 0.856199
0.413306 0.687251 0.856016
0.514611 0.688228 0.855833
0.633539 0.693233 0.855314
0.752865 0.700862 0.854734
0.865293 0.705043 0.854673
0.968780 0.712673 0.845121
0.330053 0.817197 0.856443
0.353307 0.817197 0.856443
0.422400 0.816983 0.856382
0.522362 0.816892 0.856260
0.640650 0.818448 0.855924
0.763455 0.824002 0.855283
0.868833 0.829068 0.855253
0.962066 0.833066 0.850401
0.346838 0.947143 0.856992
0.368017 0.946899 0.856992
0.433906 0.945983 0.857023
0.532464 0.944182 0.857053
0.650538 0.941192 0.857084
0.768276 0.937407 0.857359
0.872160 0.933318 0.857603
0.956237 0.930968 0.863462
