其他预设/【239】阳光逆光效果预设26款/1.LUT预设（视频调色-PR-AE-PS-FCPX-达芬奇用）/阳光逆光预设__-12.cube
# Created by Adobe Lightroom plugin Export LUT (1.17.0)
# www.johnrellis.com/lightroom/exportlut.htm
# Preset: 阳光逆光预设[素锦印象]-12
# Color profile: /Library/Application Support/Adobe/Color/Profiles/Recommended/AdobeRGB1998.icc
LUT_3D_SIZE 5
DOMAIN_MIN 0.000000 0.000000 0.000000
DOMAIN_MAX 0.903226 0.903226 0.903226
0.000000 0.000000 0.000000
0.216770 0.000000 0.000000
0.510307 0.000000 0.000000
0.794614 0.005585 0.000000
1.000000 0.152071 0.099092
0.000000 0.208957 0.000000
0.223178 0.215213 0.000000
0.530510 0.257084 0.000000
0.805417 0.264836 0.000000
1.000000 0.294469 0.142367
0.000000 0.477943 0.000000
0.217960 0.471473 0.000000
0.550072 0.506401 0.000000
0.834409 0.537957 0.168429
1.000000 0.539361 0.259098
0.000000 0.735348 0.000000
0.206546 0.731350 0.000000
0.500359 0.727321 0.000000
0.822446 0.759182 0.082948
1.000000 0.758724 0.328038
0.000000 0.956939 0.110262
0.222751 0.954833 0.116732
0.485176 0.947051 0.137179
0.752071 0.944854 0.208103
0.989715 0.946258 0.319005
0.000000 0.000000 0.173434
0.237552 0.000000 0.180911
0.512657 0.000000 0.150576
0.789975 0.000000 0.166201
1.000000 0.127352 0.206332
0.000000 0.217105 0.180392
0.245945 0.223667 0.177188
0.532433 0.245579 0.185031
0.801450 0.254124 0.190097
1.000000 0.287572 0.231937
0.079377 0.484749 0.202090
0.240513 0.480842 0.167239
0.558709 0.507012 0.189456
0.832639 0.542657 0.281804
1.000000 0.542351 0.324895
0.000000 0.738277 0.192569
0.231113 0.735317 0.165316
0.507225 0.727047 0.172732
0.826749 0.759884 0.236698
1.000000 0.764492 0.403632
0.156069 0.955749 0.257267
0.251499 0.955047 0.231846
0.497505 0.947936 0.241367
0.756741 0.944396 0.289036
0.990295 0.946471 0.389441
0.000000 0.000000 0.408606
0.241337 0.000000 0.408698
0.568200 0.000000 0.412146
0.808621 0.000000 0.373693
1.000000 0.000000 0.366491
0.000000 0.247013 0.408515
0.232273 0.204135 0.409705
0.573205 0.198886 0.404700
0.802701 0.149874 0.368597
1.000000 0.180392 0.375402
0.106111 0.504662 0.416907
0.296910 0.504082 0.414282
0.590631 0.515648 0.419196
0.824552 0.523400 0.435309
1.000000 0.523339 0.450385
0.220768 0.747555 0.428443
0.348486 0.743984 0.427283
0.538781 0.732418 0.394202
0.839078 0.762722 0.458412
0.998688 0.782681 0.573754
0.380102 0.950652 0.486854
0.462562 0.947478 0.498756
0.533196 0.948882 0.432349
0.764950 0.941344 0.454261
0.990448 0.946502 0.547539
0.000000 0.000000 0.655482
0.224094 0.000000 0.655573
0.561730 0.000000 0.656275
0.849149 0.000000 0.626978
1.000000 0.121492 0.586572
0.000000 0.218387 0.657160
0.193912 0.201358 0.657282
0.563165 0.142733 0.656519
0.849302 0.177066 0.624292
1.000000 0.272557 0.592248
0.000000 0.527825 0.654292
0.267399 0.522606 0.654444
0.569207 0.484199 0.655207
0.843015 0.511742 0.628809
1.000000 0.491310 0.610559
0.249973 0.772000 0.652430
0.379614 0.768429 0.651270
0.623896 0.755734 0.650996
0.848264 0.767269 0.677699
0.994232 0.761471 0.690883
0.417334 0.955352 0.659083
0.490608 0.952422 0.664851
0.660883 0.944030 0.684565
0.780728 0.940002 0.651698
0.988891 0.948241 0.727077
0.000000 0.000000 0.904448
0.103883 0.000000 0.904448
0.521996 0.000000 0.903838
0.832334 0.000000 0.902434
1.000000 0.116762 0.824125
0.000000 0.221775 0.905364
0.000000 0.211795 0.905241
0.516930 0.169100 0.904448
0.831510 0.104677 0.902922
1.000000 0.294682 0.827420
0.000000 0.537713 0.902434
0.229191 0.527520 0.902739
0.513817 0.479500 0.904173
0.824704 0.471901 0.902586
1.000000 0.546960 0.841093
0.178347 0.777127 0.900145
0.328008 0.775631 0.900237
0.581445 0.769650 0.899718
0.813809 0.745571 0.899931
0.997253 0.777127 0.868315
0.403113 0.986572 0.883238
0.482673 0.982727 0.883818
0.667872 0.969848 0.885985
0.850797 0.954253 0.894102
0.982879 0.956939 0.922271
