其他预设/【239】阳光逆光效果预设26款/1.LUT预设（视频调色-PR-AE-PS-FCPX-达芬奇用）/阳光逆光预设__-6.cube
# Created by Adobe Lightroom plugin Export LUT (1.17.0)
# www.johnrellis.com/lightroom/exportlut.htm
# Preset: 阳光逆光预设[素锦印象]-6
# Color profile: /Library/Application Support/Adobe/Color/Profiles/Recommended/AdobeRGB1998.icc
LUT_3D_SIZE 5
DOMAIN_MIN 0.000000 0.000000 0.000000
DOMAIN_MAX 0.903226 0.903226 0.903226
0.000000 0.000000 0.000000
0.222812 0.005829 0.004425
0.488411 0.000000 0.000000
0.777890 0.000000 0.000000
1.000000 0.070161 0.000000
0.073762 0.203922 0.000000
0.222049 0.197391 0.014679
0.482795 0.225650 0.009308
0.774746 0.242832 0.000000
0.999481 0.247257 0.069337
0.171206 0.448432 0.000000
0.289464 0.449531 0.000000
0.495003 0.437995 0.010681
0.765194 0.473548 0.115480
0.991974 0.477455 0.170016
0.264225 0.727596 0.000000
0.361151 0.727565 0.000000
0.573022 0.720760 0.000000
0.791165 0.702022 0.065064
0.985565 0.691005 0.252659
0.322057 0.956237 0.000000
0.400305 0.955077 0.000000
0.590723 0.950774 0.000000
0.814755 0.936400 0.000000
1.000000 0.905882 0.286931
0.022827 0.008453 0.166110
0.228519 0.000000 0.175265
0.500542 0.000000 0.155917
0.783413 0.000000 0.160281
1.000000 0.000000 0.179477
0.079469 0.202213 0.168002
0.235813 0.203891 0.169741
0.494392 0.224765 0.173129
0.780301 0.235599 0.170871
1.000000 0.240360 0.194797
0.155215 0.449348 0.139193
0.294804 0.449042 0.146761
0.503380 0.442084 0.183047
0.770199 0.474983 0.214786
0.993408 0.478248 0.250492
0.254612 0.728145 0.066590
0.360540 0.727657 0.073640
0.575250 0.721523 0.101808
0.793057 0.702327 0.205905
0.985016 0.694301 0.323033
0.310979 0.956725 0.000000
0.392309 0.955474 0.000000
0.586694 0.951141 0.000000
0.813809 0.936858 0.184146
1.000000 0.906096 0.354040
0.079896 0.001312 0.365850
0.241245 0.000000 0.364935
0.507591 0.000000 0.385809
0.796414 0.000000 0.375921
1.000000 0.000000 0.378302
0.117433 0.207858 0.364965
0.258824 0.205570 0.364355
0.517479 0.183108 0.377478
0.799771 0.128664 0.363958
1.000000 0.191501 0.383124
0.157473 0.447852 0.371588
0.285496 0.450813 0.367224
0.526513 0.453956 0.375677
0.789517 0.470405 0.388037
0.999237 0.469215 0.414069
0.214237 0.730739 0.361944
0.333349 0.730404 0.354101
0.573571 0.726589 0.356725
0.797787 0.705715 0.407477
0.982055 0.708186 0.494392
0.352422 0.954070 0.408759
0.410468 0.953796 0.401587
0.564935 0.952789 0.364569
0.805814 0.939239 0.404028
0.997864 0.908537 0.517296
0.126070 0.000000 0.619959
0.280430 0.000000 0.619684
0.530480 0.000000 0.618830
0.800198 0.000000 0.616266
1.000000 0.000000 0.597620
0.125612 0.210117 0.620142
0.283360 0.203250 0.619989
0.537804 0.175998 0.619287
0.803006 0.133883 0.611933
1.000000 0.223148 0.603265
0.146395 0.469764 0.621485
0.288243 0.465034 0.621515
0.552819 0.455512 0.621210
0.807645 0.459968 0.611261
0.998962 0.502220 0.636652
0.221073 0.737514 0.619043
0.339330 0.736751 0.617456
0.579309 0.732052 0.621668
0.798886 0.722133 0.645106
0.986114 0.719661 0.671504
0.371984 0.952972 0.627619
0.450599 0.950774 0.636866
0.634272 0.944182 0.672175
0.786374 0.944518 0.643122
0.984039 0.916197 0.708400
0.147402 0.000000 0.890105
0.301854 0.000000 0.889921
0.560021 0.000000 0.889220
0.834501 0.000000 0.887694
1.000000 0.000000 0.810452
0.102327 0.210788 0.890196
0.287724 0.202670 0.889982
0.556237 0.171969 0.889158
0.833707 0.105745 0.887480
1.000000 0.246006 0.812955
0.000000 0.475685 0.889616
0.241001 0.470192 0.889494
0.542840 0.468666 0.888243
0.823636 0.463569 0.886229
0.998505 0.512749 0.827359
0.175235 0.753506 0.886351
0.316167 0.751705 0.886076
0.563684 0.747066 0.885161
0.798672 0.735988 0.884520
0.983673 0.752560 0.860960
0.369696 0.971557 0.854673
0.446723 0.968231 0.856321
0.629908 0.957549 0.863310
0.820584 0.943908 0.879088
0.967712 0.936034 0.906340
