其他预设/【239】阳光逆光效果预设26款/1.LUT预设（视频调色-PR-AE-PS-FCPX-达芬奇用）/阳光逆光预设__-7.cube
# Created by Adobe Lightroom plugin Export LUT (1.17.0)
# www.johnrellis.com/lightroom/exportlut.htm
# Preset: 阳光逆光预设[素锦印象]-7
# Color profile: /Library/Application Support/Adobe/Color/Profiles/Recommended/AdobeRGB1998.icc
LUT_3D_SIZE 5
DOMAIN_MIN 0.000000 0.000000 0.000000
DOMAIN_MAX 0.903226 0.903226 0.903226
0.199588 0.166049 0.161166
0.351232 0.158663 0.160952
0.575738 0.146426 0.165347
0.817716 0.125704 0.165072
1.000000 0.139834 0.163210
0.215061 0.304356 0.165347
0.349432 0.297520 0.166598
0.560296 0.289372 0.189151
0.817197 0.275883 0.168185
1.000000 0.274479 0.164096
0.252079 0.514305 0.172671
0.359075 0.512779 0.171603
0.583795 0.508171 0.167422
0.790738 0.503868 0.224063
0.995972 0.519982 0.241245
0.281132 0.750851 0.152560
0.376623 0.749599 0.150759
0.587121 0.745632 0.144411
0.814939 0.740871 0.133333
0.993133 0.729183 0.237186
0.316136 0.962951 0.124331
0.394324 0.961730 0.122957
0.580133 0.957580 0.118563
0.788540 0.951446 0.112764
0.983703 0.945647 0.110597
0.216526 0.166140 0.281224
0.353796 0.172335 0.279088
0.579156 0.144045 0.270024
0.820096 0.069368 0.257450
1.000000 0.115267 0.252964
0.238834 0.300664 0.277623
0.356329 0.296330 0.276432
0.580529 0.280278 0.269017
0.819547 0.264439 0.260960
1.000000 0.267338 0.254856
0.265934 0.513725 0.270542
0.365820 0.512535 0.268315
0.587152 0.508019 0.264317
0.790982 0.509789 0.304509
1.000000 0.517418 0.297063
0.288121 0.750729 0.253117
0.380865 0.749538 0.251438
0.589837 0.745541 0.247807
0.816556 0.740810 0.241947
0.991608 0.732418 0.317662
0.332067 0.962280 0.237888
0.406378 0.961028 0.237369
0.586847 0.956970 0.235599
0.791653 0.951019 0.233585
0.984253 0.945464 0.233707
0.267430 0.171603 0.459663
0.374243 0.171664 0.458930
0.593042 0.158083 0.457038
0.824704 0.093233 0.450782
1.000000 0.000000 0.429786
0.269230 0.289494 0.458747
0.372381 0.285130 0.458350
0.594751 0.278386 0.456428
0.825498 0.245670 0.447303
1.000000 0.225589 0.426001
0.286351 0.514611 0.455177
0.377050 0.513115 0.454841
0.599908 0.507408 0.453101
0.825101 0.496437 0.444129
1.000000 0.497749 0.439002
0.316777 0.749966 0.444160
0.402258 0.748714 0.443488
0.608240 0.743923 0.447639
0.822110 0.740383 0.445899
0.984009 0.749722 0.508995
0.362188 0.960967 0.426551
0.438483 0.959167 0.430549
0.620539 0.953613 0.445075
0.806027 0.948821 0.444984
0.985504 0.944793 0.446235
0.317357 0.169619 0.680690
0.403845 0.164767 0.680415
0.604425 0.145998 0.679744
0.827604 0.118868 0.678859
1.000000 0.183322 0.656031
0.312078 0.280003 0.680659
0.399634 0.276432 0.680476
0.603784 0.269291 0.679683
0.827665 0.264744 0.678553
1.000000 0.301274 0.657374
0.297459 0.497505 0.680140
0.379522 0.492012 0.680293
0.601068 0.492226 0.679103
0.827176 0.506126 0.677089
1.000000 0.511254 0.659724
0.333440 0.745022 0.677302
0.414160 0.744137 0.677150
0.612696 0.741573 0.676417
0.826383 0.740169 0.675624
0.996643 0.739315 0.669093
0.401404 0.958556 0.653407
0.471046 0.956695 0.655238
0.640406 0.951293 0.661738
0.826841 0.945068 0.677821
0.983246 0.943969 0.679896
0.329808 0.167086 0.922545
0.404120 0.162844 0.922484
0.585351 0.150362 0.922240
0.793942 0.162478 0.921752
0.990234 0.209659 0.921386
0.329320 0.273472 0.922637
0.403815 0.271275 0.922545
0.586084 0.267674 0.922240
0.794949 0.282567 0.921538
0.989136 0.317601 0.921050
0.325628 0.477180 0.922850
0.406134 0.478859 0.922606
0.594324 0.485664 0.921843
0.800809 0.505821 0.920623
0.985260 0.530571 0.920043
0.343267 0.706569 0.922332
0.416205 0.706538 0.922179
0.595819 0.708003 0.921660
0.808530 0.728389 0.919768
0.978485 0.752193 0.918975
0.403754 0.940917 0.920653
0.466773 0.940459 0.920500
0.630640 0.939452 0.920104
0.817533 0.939788 0.919646
0.970703 0.943877 0.920317
