其他预设/【239】阳光逆光效果预设26款/1.LUT预设（视频调色-PR-AE-PS-FCPX-达芬奇用）/阳光逆光预设__-14.cube
# Created by Adobe Lightroom plugin Export LUT (1.17.0)
# www.johnrellis.com/lightroom/exportlut.htm
# Preset: 阳光逆光预设[素锦印象]-14
# Color profile: /Library/Application Support/Adobe/Color/Profiles/Recommended/AdobeRGB1998.icc
LUT_3D_SIZE 5
DOMAIN_MIN 0.000000 0.000000 0.000000
DOMAIN_MAX 0.903226 0.903226 0.903226
0.000000 0.000000 0.000000
0.241917 0.000000 0.012879
0.561608 0.000000 0.095735
0.894072 0.000000 0.132570
1.000000 0.000000 0.146883
0.000000 0.233951 0.087770
0.242710 0.231144 0.087129
0.558953 0.206790 0.120394
0.891295 0.170291 0.131655
1.000000 0.222995 0.135561
0.000000 0.548882 0.160678
0.168521 0.552239 0.122194
0.577996 0.548821 0.112276
0.882200 0.548028 0.073793
1.000000 0.539391 0.061128
0.000000 0.857542 0.026673
0.000000 0.858000 0.000000
0.539513 0.847868 0.000000
0.843473 0.834409 0.000000
1.000000 0.821805 0.000000
0.000000 1.000000 0.000000
0.022553 1.000000 0.000000
0.519402 1.000000 0.000000
0.776608 0.993500 0.000000
0.961639 0.980346 0.000000
0.094270 0.000000 0.268406
0.290684 0.000000 0.267369
0.577050 0.000000 0.267704
0.899962 0.000000 0.265965
1.000000 0.000000 0.246616
0.000000 0.249973 0.263767
0.252903 0.232486 0.263890
0.577111 0.179660 0.262547
0.899290 0.000000 0.248478
1.000000 0.229252 0.240879
0.000000 0.548241 0.253300
0.210849 0.550958 0.252384
0.574334 0.549767 0.229679
0.888914 0.538994 0.216617
1.000000 0.544762 0.221286
0.000000 0.856321 0.224765
0.083101 0.855894 0.213870
0.541894 0.847745 0.182620
0.847715 0.833646 0.178927
1.000000 0.821836 0.195041
0.000000 1.000000 0.103700
0.131502 1.000000 0.108095
0.587884 1.000000 0.196262
0.805112 0.989502 0.209903
0.969696 0.978485 0.236820
0.271824 0.000000 0.544610
0.404761 0.000000 0.544945
0.674708 0.000000 0.546166
0.910765 0.000000 0.534112
1.000000 0.000000 0.483803
0.122408 0.226352 0.545769
0.336126 0.206668 0.546105
0.652247 0.125002 0.546685
0.907836 0.060121 0.538415
1.000000 0.260380 0.482063
0.000000 0.577508 0.541131
0.270298 0.567712 0.542168
0.609857 0.544060 0.543572
0.895048 0.551446 0.539971
1.000000 0.636316 0.527092
0.000000 0.853666 0.515587
0.234989 0.851591 0.516899
0.599786 0.840665 0.514885
0.879973 0.826352 0.541558
1.000000 0.838682 0.548241
0.000000 1.000000 0.420417
0.260410 1.000000 0.415442
0.623407 0.999237 0.426581
0.891661 0.974640 0.551843
0.988037 0.972351 0.562066
0.318608 0.000000 0.816861
0.411994 0.000000 0.816800
0.622156 0.000000 0.816617
0.835294 0.000000 0.816403
1.000000 0.000000 0.856809
0.290013 0.191653 0.816403
0.394018 0.182864 0.816251
0.615747 0.162234 0.815824
0.832761 0.193851 0.815183
1.000000 0.286473 0.854002
0.286076 0.498878 0.813718
0.412726 0.504387 0.812833
0.664546 0.538872 0.809506
0.848814 0.563195 0.807828
1.000000 0.602502 0.830045
0.285100 0.758328 0.810513
0.413916 0.758511 0.809903
0.677943 0.771572 0.807187
0.886870 0.813169 0.803525
1.000000 0.843717 0.793912
0.262821 1.000000 0.815702
0.401831 1.000000 0.808103
0.671199 0.989868 0.780240
0.886351 0.973144 0.754513
0.989837 0.968017 0.809598
0.322362 0.000000 0.997986
0.390692 0.000000 0.997742
0.556939 0.000000 0.997101
0.740322 0.000000 0.995727
0.899809 0.247745 0.993774
0.351019 0.188968 0.996612
0.414649 0.191440 0.996307
0.574243 0.209445 0.995483
0.751736 0.266880 0.993683
0.905211 0.374121 0.991699
0.570001 0.540307 0.988312
0.585138 0.530175 0.988739
0.682643 0.540368 0.987884
0.811887 0.575097 0.986084
0.928954 0.632715 0.985046
0.581598 0.702480 0.986511
0.641321 0.716762 0.985016
0.779934 0.763760 0.980926
0.894652 0.820645 0.977386
0.959075 0.842100 0.977569
0.582422 0.876921 0.983734
0.637598 0.881926 0.982757
0.774075 0.901213 0.980011
0.897978 0.932464 0.976745
0.980194 0.966583 0.974487
