其他预设/【239】阳光逆光效果预设26款/1.LUT预设（视频调色-PR-AE-PS-FCPX-达芬奇用）/阳光逆光预设__-4.cube
# Created by Adobe Lightroom plugin Export LUT (1.17.0)
# www.johnrellis.com/lightroom/exportlut.htm
# Preset: 阳光逆光预设[素锦印象]-4
# Color profile: /Library/Application Support/Adobe/Color/Profiles/Recommended/AdobeRGB1998.icc
LUT_3D_SIZE 8
DOMAIN_MIN 0.000000 0.000000 0.000000
DOMAIN_MAX 0.903226 0.903226 0.903226
0.000000 0.000000 0.000000
0.153445 0.007904 0.006348
0.316350 0.012909 0.012421
0.475135 0.000000 0.005066
0.634394 0.000000 0.016907
0.770443 0.029908 0.067506
0.892485 0.086488 0.105806
0.999664 0.137606 0.151095
0.035248 0.145846 0.009857
0.154604 0.145113 0.014710
0.309148 0.151247 0.047852
0.471046 0.151156 0.042634
0.631556 0.150454 0.058717
0.768490 0.152255 0.083558
0.891173 0.164279 0.117433
0.998627 0.191867 0.160464
0.092988 0.294285 0.002991
0.175448 0.292149 0.014801
0.316747 0.289921 0.014618
0.461860 0.290867 0.098421
0.621515 0.296208 0.113252
0.761776 0.294377 0.127443
0.886503 0.296483 0.153231
0.995026 0.307836 0.190890
0.152590 0.435981 0.031556
0.210300 0.434668 0.045533
0.335393 0.431067 0.065644
0.479133 0.428992 0.064302
0.623926 0.428473 0.131441
0.750240 0.427955 0.185550
0.878264 0.429328 0.204562
0.988525 0.435584 0.237888
0.209903 0.576165 0.072389
0.253269 0.575067 0.077302
0.362860 0.571221 0.092164
0.495766 0.567315 0.099214
0.636469 0.563104 0.099031
0.761563 0.553002 0.168917
0.872374 0.552453 0.244694
0.979156 0.561669 0.297032
0.263188 0.701656 0.111360
0.296422 0.700862 0.114412
0.389319 0.697932 0.125063
0.510185 0.693050 0.141085
0.640711 0.689876 0.142580
0.773526 0.686244 0.144350
0.883116 0.673060 0.217044
0.978729 0.673793 0.311681
0.313848 0.822995 0.156344
0.340276 0.822385 0.158846
0.419287 0.820188 0.167239
0.528832 0.816342 0.182071
0.649531 0.812314 0.194369
0.773373 0.809384 0.198489
0.895323 0.806821 0.204623
0.985229 0.788754 0.284245
0.367437 0.938048 0.217105
0.388678 0.937560 0.219303
0.454994 0.935790 0.227085
0.551934 0.932616 0.240848
0.663050 0.928313 0.260960
0.776242 0.925200 0.271275
0.889067 0.922515 0.280278
0.997467 0.920470 0.292119
0.004822 0.002197 0.127810
0.157534 0.000000 0.131685
0.324376 0.000000 0.116945
0.478614 0.066377 0.127474
0.636469 0.070893 0.132387
0.771389 0.086000 0.142916
0.892912 0.111452 0.161685
0.999786 0.151125 0.190921
0.017060 0.148196 0.129183
0.161685 0.149294 0.128054
0.316197 0.159762 0.132784
0.474647 0.163790 0.135805
0.633631 0.164401 0.140169
0.769497 0.166995 0.150454
0.891630 0.177096 0.169070
0.998779 0.200961 0.198001
0.091554 0.297063 0.118868
0.188846 0.293828 0.131380
0.320775 0.291752 0.132387
0.462867 0.296849 0.164370
0.624109 0.302586 0.168032
0.762966 0.300816 0.176638
0.887053 0.302495 0.193729
0.995209 0.312871 0.222293
0.161654 0.437232 0.129305
0.222232 0.435431 0.137270
0.341466 0.431922 0.143496
0.481605 0.429999 0.142153
0.624414 0.430793 0.182162
0.751766 0.431495 0.218936
0.878935 0.432837 0.234073
0.988739 0.438819 0.262516
0.220676 0.576684 0.143954
0.261936 0.575616 0.146181
0.368475 0.571801 0.153933
0.498909 0.567803 0.158114
0.637903 0.563745 0.157107
0.761654 0.554162 0.207309
0.872190 0.554925 0.271641
0.979400 0.564080 0.316197
0.271122 0.701900 0.163241
0.303197 0.701045 0.165347
0.394110 0.698177 0.172274
0.513359 0.693202 0.184237
0.642481 0.690150 0.185000
0.774228 0.686580 0.186252
0.882994 0.673854 0.246525
0.978271 0.675685 0.332647
0.319768 0.823056 0.194644
0.345678 0.822446 0.196475
0.423316 0.820249 0.203159
0.531579 0.816434 0.215122
0.651392 0.812345 0.225986
0.774289 0.809476 0.229282
0.895476 0.807034 0.234348
0.984863 0.789487 0.306706
0.371710 0.938018 0.244480
0.392584 0.937530 0.246311
0.458259 0.935760 0.253117
0.554314 0.932586 0.265599
0.664729 0.928313 0.283787
0.777188 0.925170 0.293828
0.889403 0.922576 0.301915
0.997192 0.920592 0.312963
0.033722 0.003693 0.253574
0.156802 0.000000 0.253239
0.324865 0.000000 0.257664
0.488380 0.000000 0.247684
0.647913 0.000000 0.237369
0.776638 0.104005 0.250431
0.895750 0.134127 0.260472
1.000000 0.167269 0.276585
0.062196 0.145388 0.253300
0.166659 0.143435 0.252964
0.328008 0.147951 0.253910
0.489693 0.138643 0.244694
0.644404 0.151858 0.245335
0.774777 0.178347 0.254856
0.894469 0.191745 0.264683
1.000000 0.213413 0.281346
0.102205 0.299382 0.253300
0.189548 0.299351 0.251560
0.330114 0.297032 0.253330
0.478126 0.305211 0.261387
0.634485 0.308293 0.263981
0.768460 0.308995 0.269627
0.889952 0.311833 0.280064
0.996460 0.321752 0.298161
0.158541 0.441596 0.248325
0.221744 0.440467 0.248631
0.353521 0.435004 0.257511
0.488777 0.433478 0.257298
0.626551 0.436591 0.282567
0.757565 0.439094 0.296818
0.881956 0.440406 0.307805
0.989960 0.446204 0.328374
0.212497 0.580499 0.246220
0.263310 0.579034 0.250034
0.380804 0.574151 0.261723
0.507012 0.569451 0.265324
0.642237 0.565606 0.264714
0.762203 0.557916 0.298253
0.871672 0.562890 0.345678
0.980499 0.570733 0.371954
0.274937 0.703883 0.257847
0.312566 0.702663 0.262364
0.407477 0.699214 0.271916
0.522606 0.694331 0.279454
0.647791 0.691035 0.280949
0.776425 0.687770 0.281621
0.882597 0.676753 0.325811
0.976837 0.682094 0.395605
0.332403 0.823667 0.282750
0.359045 0.822934 0.285283
0.435035 0.820676 0.290867
0.540032 0.816892 0.299138
0.656977 0.812589 0.308080
0.777005 0.809934 0.310552
0.895964 0.807736 0.314122
0.983703 0.792050 0.373083
0.386389 0.937926 0.321141
0.403967 0.937560 0.320684
0.467689 0.935790 0.325841
0.561486 0.932647 0.335546
0.669764 0.928405 0.350011
0.780209 0.925109 0.359930
0.890288 0.922728 0.366552
0.996277 0.921019 0.375494
0.077241 0.000000 0.376074
0.168399 0.000000 0.375952
0.320134 0.000000 0.375189
0.490517 0.000000 0.379217
0.650080 0.000000 0.371374
0.783536 0.000000 0.359442
0.902617 0.095735 0.360723
1.000000 0.169345 0.375036
0.087221 0.140383 0.376013
0.174685 0.138460 0.375799
0.325383 0.130922 0.374945
0.492470 0.136446 0.377478
0.650782 0.122957 0.369635
0.783597 0.134890 0.359411
0.901244 0.176852 0.364477
1.000000 0.212406 0.377111
0.115145 0.293431 0.374670
0.187320 0.292546 0.374426
0.336553 0.288579 0.373480
0.498146 0.293187 0.372778
0.653132 0.286168 0.364660
0.779873 0.300694 0.367590
0.896269 0.313115 0.377203
0.999939 0.321752 0.388006
0.165072 0.443946 0.374548
0.224155 0.444068 0.373846
0.357336 0.441993 0.371466
0.499092 0.438758 0.374823
0.637629 0.445563 0.385382
0.768276 0.446235 0.389746
0.888090 0.446509 0.397803
0.993133 0.450752 0.411719
0.217807 0.584314 0.369604
0.264683 0.583337 0.369146
0.383307 0.579858 0.370123
0.519524 0.572259 0.378698
0.649042 0.568841 0.378973
0.763363 0.565454 0.405188
0.876585 0.572198 0.429603
0.983215 0.578302 0.447730
0.279820 0.706538 0.367773
0.316686 0.705653 0.369696
0.417121 0.702205 0.377691
0.535546 0.696559 0.386786
0.655665 0.692622 0.389929
0.779538 0.689784 0.390631
0.881956 0.682338 0.426978
0.974334 0.693111 0.483497
0.347723 0.824918 0.385779
0.377295 0.824063 0.390326
0.452796 0.821592 0.396918
0.550896 0.818082 0.400946
0.664942 0.813138 0.410224
0.780697 0.810849 0.412055
0.896269 0.809079 0.414862
0.981720 0.796841 0.464424
0.430518 0.936400 0.432013
0.449042 0.935851 0.434668
0.493141 0.935119 0.430579
0.570214 0.933165 0.427955
0.676112 0.928923 0.439490
0.784176 0.925200 0.449958
0.891081 0.923186 0.454688
0.994507 0.921813 0.460945
0.115816 0.000916 0.496986
0.187716 0.000000 0.496834
0.328679 0.000000 0.496345
0.485817 0.000000 0.495003
0.650690 0.000000 0.496742
0.784329 0.000000 0.482734
0.902800 0.108644 0.476387
1.000000 0.191836 0.483284
0.121889 0.139742 0.496956
0.192111 0.137484 0.496773
0.332006 0.127810 0.496193
0.489052 0.116487 0.494850
0.651637 0.119692 0.495399
0.784512 0.142031 0.482338
0.902525 0.178683 0.477668
1.000000 0.235599 0.486427
0.136172 0.287846 0.496223
0.199649 0.285374 0.496132
0.338811 0.280430 0.495552
0.498268 0.277714 0.493965
0.654414 0.287266 0.491829
0.784817 0.293553 0.482460
0.901396 0.311101 0.483986
1.000000 0.344182 0.498726
0.172274 0.438453 0.494209
0.225772 0.438361 0.494026
0.352483 0.437110 0.493294
0.512169 0.433570 0.491768
0.658228 0.438331 0.488380
0.784298 0.442145 0.489265
0.897124 0.449195 0.498329
0.998383 0.449012 0.505638
0.225315 0.585351 0.492744
0.270024 0.585199 0.492164
0.386725 0.583398 0.490059
0.530694 0.577844 0.491463
0.654994 0.573053 0.496040
0.769589 0.575982 0.510399
0.886442 0.575586 0.516655
0.989166 0.576226 0.527367
0.288365 0.709773 0.483619
0.323857 0.708919 0.484108
0.424170 0.705623 0.487556
0.551568 0.699916 0.499519
0.663203 0.695247 0.502037
0.781643 0.692226 0.503380
0.881285 0.690181 0.532921
0.976135 0.700191 0.564660
0.355383 0.826932 0.489113
0.383978 0.826108 0.491768
0.469551 0.823087 0.502678
0.574243 0.818967 0.516869
0.669337 0.815915 0.513695
0.783108 0.812619 0.517754
0.895995 0.811093 0.519463
0.979675 0.802396 0.559777
0.434363 0.937743 0.517021
0.456733 0.936950 0.521294
0.524071 0.934356 0.535515
0.602197 0.931945 0.545617
0.675868 0.930938 0.532616
0.784970 0.926146 0.544121
0.890135 0.924254 0.547295
0.992004 0.923095 0.551629
0.151186 0.001282 0.619745
0.210391 0.000000 0.619654
0.340612 0.000000 0.619257
0.491127 0.000000 0.618494
0.648615 0.000000 0.616968
0.786679 0.000000 0.604059
0.903014 0.123873 0.592218
1.000000 0.202152 0.590234
0.154726 0.139071 0.619715
0.212924 0.136629 0.619593
0.342565 0.125856 0.619196
0.493019 0.100343 0.618402
0.650568 0.086427 0.616785
0.786923 0.133944 0.603449
0.902770 0.187411 0.592859
1.000000 0.243565 0.592370
0.156435 0.280949 0.619409
0.215183 0.279759 0.619287
0.346258 0.275639 0.618830
0.498024 0.267002 0.617945
0.656275 0.267826 0.616144
0.787503 0.291417 0.602106
0.901762 0.315557 0.596185
1.000000 0.349126 0.600641
0.182254 0.432227 0.618036
0.230900 0.430854 0.617975
0.352605 0.426276 0.617700
0.505150 0.421393 0.616754
0.663569 0.424537 0.614710
0.787259 0.443671 0.603845
0.899687 0.452766 0.605188
0.998260 0.468360 0.614282
0.228946 0.580835 0.615869
0.270359 0.580774 0.615717
0.381323 0.580133 0.615137
0.522118 0.578119 0.614130
0.666072 0.572595 0.612940
0.787564 0.575921 0.609857
0.897978 0.578820 0.617823
0.994263 0.584771 0.630152
0.292943 0.715877 0.607202
0.327489 0.715267 0.606928
0.426551 0.712734 0.606683
0.553338 0.707179 0.608331
0.675044 0.700862 0.615015
0.783291 0.696803 0.619928
0.885039 0.698482 0.635248
0.984436 0.697047 0.643030
0.362310 0.829770 0.599451
0.389990 0.828977 0.600732
0.472786 0.826139 0.606073
0.579431 0.822080 0.615900
0.688411 0.818082 0.629969
0.784146 0.815518 0.627832
0.893767 0.812894 0.629969
0.976623 0.810056 0.662623
0.436255 0.939788 0.612177
0.457557 0.939025 0.614771
0.522179 0.936706 0.623468
0.611170 0.933379 0.637781
0.708431 0.929717 0.657099
0.781918 0.929229 0.642847
0.887785 0.926024 0.648951
0.988159 0.925017 0.652064
0.179507 0.000000 0.747250
0.230472 0.000000 0.747189
0.352209 0.000000 0.746883
0.496864 0.000000 0.746365
0.649012 0.000000 0.745510
0.800748 0.000000 0.744015
0.906615 0.102571 0.712886
1.000000 0.214511 0.701167
0.180148 0.138064 0.747219
0.231266 0.135348 0.747158
0.352697 0.123751 0.746853
0.497505 0.096742 0.746304
0.649714 0.000336 0.745449
0.801389 0.031617 0.743893
0.906340 0.174868 0.712947
1.000000 0.253727 0.702480
0.177249 0.277989 0.747097
0.229618 0.276616 0.747005
0.352911 0.272160 0.746700
0.498878 0.263401 0.746120
0.651514 0.250065 0.745205
0.802945 0.260227 0.743465
0.905272 0.309239 0.713802
1.000000 0.355291 0.707881
0.184939 0.424201 0.746456
0.232761 0.422583 0.746395
0.352667 0.418250 0.746212
0.500359 0.413733 0.745510
0.653223 0.407507 0.744533
0.803128 0.418738 0.742611
0.902800 0.449897 0.717739
0.997070 0.471534 0.717067
0.222354 0.573236 0.745022
0.262882 0.572503 0.744961
0.370214 0.569574 0.744747
0.505333 0.564080 0.744320
0.650629 0.557000 0.743587
0.798489 0.560845 0.741939
0.899718 0.580011 0.725521
0.993133 0.590478 0.730648
0.277134 0.719783 0.743099
0.311437 0.719387 0.742977
0.409247 0.717769 0.742672
0.532006 0.713802 0.742245
0.657649 0.705959 0.742031
0.788968 0.696254 0.741695
0.896757 0.703334 0.737179
0.988067 0.710140 0.750088
0.355718 0.842954 0.727199
0.383337 0.842069 0.727352
0.464149 0.839017 0.728023
0.569421 0.834195 0.729976
0.683375 0.827817 0.734066
0.795071 0.821286 0.743709
0.890715 0.817716 0.749966
0.976745 0.817990 0.765255
0.432471 0.942565 0.716609
0.452918 0.941955 0.717952
0.515190 0.939940 0.722713
0.603510 0.936889 0.731289
0.704250 0.933135 0.744991
0.805356 0.929503 0.765225
0.884215 0.928588 0.761166
0.980529 0.926329 0.764523
0.196567 0.000000 0.880400
0.243229 0.000000 0.880339
0.358862 0.000000 0.880156
0.499031 0.000000 0.879759
0.646448 0.000000 0.879210
0.794003 0.000000 0.878355
0.934447 0.000000 0.877043
1.000000 0.196841 0.821988
0.194980 0.136263 0.880369
0.241855 0.133333 0.880339
0.358160 0.121248 0.880125
0.498665 0.094636 0.879759
0.646265 0.000000 0.879179
0.793820 0.000000 0.878294
0.934081 0.065949 0.876982
1.000000 0.238895 0.822629
0.186252 0.275181 0.880339
0.235447 0.273991 0.880247
0.354681 0.269352 0.880064
0.496773 0.260868 0.879637
0.645106 0.248295 0.879026
0.792752 0.240330 0.878141
0.932311 0.264317 0.876677
1.000000 0.344396 0.825101
0.154574 0.412207 0.880247
0.220798 0.413916 0.880095
0.348821 0.412696 0.879789
0.493263 0.408331 0.879362
0.642329 0.402289 0.878691
0.789303 0.397955 0.877836
0.927520 0.417182 0.876188
0.999664 0.463966 0.830106
0.176638 0.559808 0.879484
0.224460 0.558526 0.879454
0.341161 0.554467 0.879362
0.480446 0.548211 0.879149
0.635279 0.547570 0.878294
0.780789 0.542535 0.877562
0.918669 0.554101 0.876066
0.994415 0.586999 0.838376
0.238529 0.708614 0.878019
0.275883 0.707912 0.877958
0.376471 0.705318 0.877836
0.499001 0.699214 0.877775
0.628473 0.689204 0.877806
0.768215 0.683192 0.877317
0.905638 0.687648 0.876158
0.987518 0.710536 0.850980
0.307683 0.853666 0.876188
0.337102 0.852995 0.876188
0.420356 0.850309 0.876127
0.531029 0.845243 0.876066
0.651789 0.837736 0.876158
0.771328 0.827878 0.876402
0.887785 0.816953 0.876799
0.979370 0.828702 0.870024
0.399359 0.965148 0.851469
0.420447 0.964263 0.851682
0.485481 0.961273 0.852537
0.579889 0.956054 0.854429
0.686854 0.949096 0.858122
0.793851 0.941466 0.864530
0.892851 0.934295 0.877043
0.970214 0.932219 0.891447
