其他预设/【239】阳光逆光效果预设26款/1.LUT预设（视频调色-PR-AE-PS-FCPX-达芬奇用）/阳光逆光预设__-15.cube
# Created by Adobe Lightroom plugin Export LUT (1.17.0)
# www.johnrellis.com/lightroom/exportlut.htm
# Preset: 阳光逆光预设[素锦印象]-15
# Color profile: /Library/Application Support/Adobe/Color/Profiles/Recommended/AdobeRGB1998.icc
LUT_3D_SIZE 8
DOMAIN_MIN 0.000000 0.000000 0.000000
DOMAIN_MAX 0.903226 0.903226 0.903226
0.000000 0.000000 0.000000
0.122621 0.000000 0.000000
0.271672 0.000000 0.000000
0.428107 0.053437 0.000000
0.587884 0.107973 0.000000
0.743435 0.150240 0.000000
0.891814 0.175174 0.000000
1.000000 0.175113 0.000000
0.000000 0.117281 0.000000
0.115816 0.113313 0.000000
0.263462 0.136507 0.000000
0.426947 0.159060 0.000000
0.589990 0.184939 0.000000
0.745663 0.212650 0.000000
0.893217 0.229068 0.000000
1.000000 0.224704 0.000000
0.000000 0.250980 0.000000
0.107149 0.246525 0.000000
0.251011 0.246708 0.000000
0.407935 0.288853 0.000000
0.577081 0.327153 0.000000
0.739101 0.349279 0.000000
0.890043 0.357183 0.000000
1.000000 0.345159 0.000000
0.000000 0.395422 0.000000
0.083101 0.392370 0.000000
0.236271 0.383490 0.000000
0.390112 0.392950 0.000000
0.552331 0.438087 0.000000
0.722194 0.499123 0.000000
0.879545 0.508782 0.000000
1.000000 0.492805 0.000000
0.000000 0.541833 0.000000
0.000000 0.539269 0.000000
0.221500 0.530266 0.000000
0.367987 0.527703 0.000000
0.524254 0.542809 0.000000
0.693446 0.588556 0.000000
0.861997 0.642237 0.000000
0.994507 0.645655 0.000000
0.000000 0.693751 0.000000
0.000000 0.691432 0.000000
0.191440 0.684810 0.000000
0.345769 0.673518 0.000000
0.502892 0.683894 0.000000
0.665919 0.702541 0.000000
0.834531 0.728542 0.000000
0.980774 0.749660 0.000000
0.000000 0.849393 0.000000
0.000000 0.848112 0.000000
0.124819 0.843839 0.000000
0.328557 0.836545 0.000000
0.477150 0.830228 0.000000
0.642542 0.842008 0.000000
0.813504 0.851469 0.000000
0.965087 0.839628 0.000000
0.000000 0.982513 0.000000
0.000000 0.981781 0.000000
0.000000 0.979156 0.000000
0.290410 0.974609 0.000000
0.453315 0.969024 0.000000
0.608087 0.966552 0.000000
0.773556 0.965972 0.000000
0.950134 0.959228 0.000000
0.000000 0.000000 0.117830
0.121767 0.000000 0.117189
0.274846 0.000000 0.102235
0.433600 0.000000 0.065522
0.591852 0.000000 0.000000
0.746761 0.081331 0.000000
0.894438 0.121798 0.000000
1.000000 0.124483 0.000000
0.000000 0.120241 0.115846
0.120089 0.116487 0.113161
0.275975 0.115023 0.096162
0.435065 0.121248 0.053651
0.593622 0.146242 0.000000
0.748348 0.176333 0.000000
0.895659 0.194308 0.000000
1.000000 0.191287 0.000000
0.000000 0.259678 0.094972
0.090333 0.258854 0.071077
0.260349 0.254124 0.066377
0.415229 0.291844 0.096529
0.584100 0.316838 0.000000
0.744656 0.334508 0.000000
0.894530 0.339849 0.000000
1.000000 0.326055 0.000000
0.000000 0.406226 0.000000
0.000000 0.403357 0.000000
0.231266 0.391394 0.000000
0.397162 0.399237 0.000000
0.559350 0.441779 0.000000
0.727626 0.496162 0.042390
0.883574 0.502586 0.000000
1.000000 0.484535 0.000000
0.000000 0.550195 0.000000
0.000000 0.547448 0.000000
0.211002 0.537926 0.000000
0.367102 0.532860 0.000000
0.529107 0.547509 0.000000
0.698543 0.591302 0.000000
0.865354 0.643732 0.048798
0.996521 0.642206 0.098207
0.000000 0.700008 0.000000
0.000000 0.698054 0.000000
0.172488 0.691066 0.000000
0.342260 0.679072 0.000000
0.502861 0.687251 0.000000
0.669154 0.705287 0.000000
0.837827 0.729946 0.000000
0.982361 0.750057 0.000000
0.000000 0.853635 0.000000
0.000000 0.852415 0.000000
0.076844 0.847898 0.000000
0.320806 0.840085 0.000000
0.473548 0.832242 0.000000
0.642176 0.843809 0.000000
0.815579 0.852964 0.000000
0.967010 0.840116 0.000000
0.000000 0.984558 0.000000
0.000000 0.983764 0.000000
0.000000 0.981048 0.000000
0.277958 0.976318 0.000000
0.448341 0.970062 0.000000
0.605066 0.967163 0.000000
0.772732 0.966552 0.000000
0.950988 0.959533 0.000000
0.000000 0.000000 0.249241
0.119661 0.000000 0.248814
0.264225 0.000000 0.251652
0.420478 0.000000 0.246098
0.585016 0.000000 0.213321
0.745754 0.000000 0.176608
0.896117 0.000000 0.140780
1.000000 0.000000 0.066011
0.000000 0.108766 0.254276
0.096071 0.088106 0.253971
0.268345 0.024231 0.252262
0.425177 0.000000 0.236484
0.589349 0.000000 0.195956
0.747127 0.000000 0.176303
0.897093 0.000000 0.138064
1.000000 0.000000 0.055909
0.000000 0.266117 0.250919
0.000000 0.266209 0.250309
0.257939 0.252873 0.239750
0.428534 0.256199 0.226719
0.592523 0.260868 0.203250
0.750698 0.271427 0.172610
0.899351 0.274388 0.126741
1.000000 0.259861 0.000000
0.000000 0.415381 0.223453
0.000000 0.416968 0.210269
0.202518 0.410407 0.167849
0.407294 0.405921 0.165743
0.568536 0.449287 0.229099
0.736507 0.476936 0.213474
0.891386 0.475227 0.168215
1.000000 0.451545 0.092927
0.000000 0.562463 0.179782
0.000000 0.563836 0.157290
0.150301 0.557458 0.098848
0.355657 0.542321 0.112032
0.538506 0.555352 0.093843
0.709957 0.596857 0.157259
0.872801 0.649531 0.248081
1.000000 0.628809 0.214023
0.000000 0.713619 0.084993
0.000000 0.713680 0.000000
0.000000 0.707851 0.000000
0.325566 0.694209 0.000000
0.498817 0.695125 0.000000
0.677058 0.712093 0.000000
0.847288 0.733394 0.000000
0.986145 0.751888 0.219638
0.000000 0.863798 0.000000
0.000000 0.863798 0.000000
0.000000 0.858976 0.000000
0.288182 0.850248 0.000000
0.460182 0.838560 0.000000
0.639002 0.848081 0.000000
0.820554 0.856107 0.000000
0.971496 0.840543 0.000000
0.000000 0.990753 0.000000
0.000000 0.990051 0.000000
0.000000 0.986969 0.000000
0.226047 0.981537 0.000000
0.429664 0.974517 0.000000
0.593805 0.969360 0.000000
0.769223 0.968170 0.000000
0.953094 0.960266 0.000000
0.000000 0.000000 0.378668
0.115541 0.000000 0.378607
0.258061 0.000000 0.377264
0.405737 0.000000 0.383795
0.555474 0.000000 0.379492
0.723629 0.000000 0.365820
0.887297 0.000000 0.328771
1.000000 0.000000 0.268040
0.000000 0.070832 0.385107
0.069886 0.049989 0.384283
0.252201 0.000000 0.381415
0.409064 0.000000 0.385077
0.559289 0.000000 0.376440
0.726986 0.000000 0.359899
0.889952 0.000000 0.321050
1.000000 0.000000 0.284825
0.000000 0.249302 0.387854
0.000000 0.235477 0.388891
0.208835 0.187991 0.387366
0.413184 0.170779 0.381842
0.568688 0.164797 0.364477
0.736233 0.102113 0.339940
0.894652 0.093355 0.317510
1.000000 0.086915 0.284733
0.000000 0.420691 0.385412
0.000000 0.421485 0.385595
0.152163 0.419165 0.381689
0.396704 0.400458 0.368505
0.572900 0.416297 0.365393
0.742153 0.422675 0.350011
0.897887 0.416052 0.324071
1.000000 0.389471 0.283879
0.000000 0.574640 0.354101
0.000000 0.575494 0.348425
0.000000 0.574823 0.325750
0.334813 0.558526 0.291295
0.545830 0.558618 0.291020
0.718837 0.611109 0.366217
0.881437 0.632166 0.372412
1.000000 0.601465 0.333257
0.000000 0.724178 0.318761
0.000000 0.724727 0.309911
0.000000 0.725917 0.275242
0.276646 0.715877 0.228702
0.483345 0.702083 0.233005
0.685969 0.718196 0.227604
0.859159 0.738796 0.287205
0.989685 0.761746 0.387335
0.000000 0.872129 0.270268
0.000000 0.872648 0.257572
0.000000 0.873503 0.206210
0.194095 0.866423 0.133913
0.437171 0.852201 0.148196
0.629114 0.853269 0.147372
0.827543 0.860227 0.133669
0.978302 0.841367 0.218753
0.000000 0.995026 0.191714
0.000000 0.995300 0.171267
0.000000 0.994965 0.065095
0.000000 0.990814 0.000000
0.387243 0.982300 0.000000
0.569512 0.972839 0.000000
0.761318 0.970703 0.000000
0.956512 0.961303 0.000000
0.000000 0.000000 0.501305
0.111421 0.000000 0.500938
0.254704 0.000000 0.499336
0.388464 0.000000 0.495277
0.539635 0.000000 0.507774
0.692714 0.000000 0.507073
0.861387 0.000000 0.496590
1.000000 0.000000 0.460151
0.000000 0.009766 0.505974
0.044831 0.000000 0.505394
0.243442 0.000000 0.503014
0.386908 0.000000 0.498238
0.542077 0.000000 0.508904
0.694575 0.000000 0.505333
0.863859 0.000000 0.493477
1.000000 0.000000 0.456428
0.000000 0.213138 0.513298
0.000000 0.191073 0.514153
0.183658 0.156497 0.511650
0.376806 0.113832 0.505303
0.547967 0.000000 0.509880
0.700740 0.000000 0.499062
0.871824 0.000000 0.483497
1.000000 0.000000 0.445258
0.000000 0.396063 0.513512
0.000000 0.390509 0.514122
0.046723 0.366339 0.514458
0.342199 0.321935 0.509483
0.548241 0.322728 0.502007
0.712978 0.330602 0.489570
0.883207 0.308904 0.469764
1.000000 0.272862 0.434363
0.000000 0.575891 0.512810
0.000000 0.576471 0.513024
0.000000 0.576654 0.511772
0.305425 0.570459 0.503746
0.532280 0.553765 0.493172
0.721767 0.579370 0.499397
0.889220 0.578759 0.487892
1.000000 0.548882 0.455329
0.000000 0.739528 0.483894
0.000000 0.740047 0.480964
0.000000 0.740475 0.469368
0.225711 0.736355 0.443305
0.457008 0.717311 0.405432
0.693111 0.720241 0.407507
0.867002 0.759792 0.503807
0.994476 0.760281 0.521447
0.000000 0.881865 0.448524
0.000000 0.882383 0.443946
0.000000 0.883391 0.426123
0.000000 0.882841 0.388281
0.380804 0.872404 0.334508
0.605554 0.857908 0.336217
0.835538 0.863859 0.340063
0.984894 0.844816 0.409522
0.000000 0.999329 0.401404
0.000000 0.999573 0.395300
0.000000 1.000000 0.372259
0.000000 1.000000 0.322606
0.290806 0.994232 0.254215
0.535973 0.981170 0.264561
0.745998 0.973999 0.269841
0.960967 0.962432 0.268162
0.000000 0.000000 0.629755
0.103822 0.000000 0.629389
0.252934 0.000000 0.627863
0.387762 0.000000 0.624659
0.523095 0.000000 0.623407
0.679988 0.000000 0.637568
0.838346 0.000000 0.633845
0.989319 0.000000 0.608698
0.000000 0.000000 0.633570
0.000000 0.000000 0.633082
0.238254 0.000000 0.631250
0.382727 0.000000 0.627375
0.522484 0.000000 0.625147
0.681910 0.000000 0.638514
0.839719 0.000000 0.632715
0.990661 0.000000 0.606653
0.000000 0.157687 0.642237
0.000000 0.151339 0.641718
0.164462 0.126223 0.639307
0.360632 0.051728 0.634577
0.517693 0.000000 0.628992
0.687068 0.000000 0.640253
0.843900 0.000000 0.627893
0.994934 0.000000 0.599359
0.000000 0.369879 0.645014
0.000000 0.360388 0.645747
0.000000 0.321965 0.647272
0.301732 0.277043 0.643519
0.503929 0.247257 0.634485
0.691554 0.232425 0.638941
0.848753 0.224765 0.618799
1.000000 0.172702 0.588434
0.000000 0.553124 0.647395
0.000000 0.550042 0.647791
0.000000 0.537072 0.648493
0.228153 0.507469 0.647395
0.465248 0.457527 0.640620
0.690639 0.463569 0.631098
0.861326 0.479835 0.613642
1.000000 0.476844 0.590112
0.000000 0.739284 0.649165
0.000000 0.739712 0.649378
0.000000 0.740719 0.649378
0.144320 0.740108 0.647272
0.430549 0.733211 0.638392
0.677363 0.718074 0.631922
0.868254 0.743923 0.648493
0.999939 0.729335 0.634028
0.000000 0.893217 0.612696
0.000000 0.894102 0.610864
0.000000 0.895140 0.603967
0.000000 0.894621 0.589227
0.354253 0.889281 0.563592
0.584283 0.868894 0.532189
0.841398 0.864622 0.542535
0.979828 0.874022 0.653834
0.000000 1.000000 0.563958
0.000000 1.000000 0.561059
0.000000 1.000000 0.550347
0.000000 1.000000 0.528954
0.253544 1.000000 0.497658
0.495705 0.992737 0.458076
0.724636 0.976318 0.460761
0.965454 0.962890 0.473548
0.000000 0.000000 0.776425
0.036805 0.000000 0.775814
0.240909 0.000000 0.774533
0.383246 0.000000 0.772000
0.519951 0.000000 0.767849
0.663722 0.000000 0.770352
0.829831 0.000000 0.780545
0.977173 0.000000 0.753628
0.000000 0.000000 0.779202
0.000000 0.000000 0.778653
0.222141 0.000000 0.777249
0.375402 0.000000 0.774533
0.516991 0.000000 0.770260
0.663630 0.000000 0.772274
0.831968 0.000000 0.781979
0.978912 0.000000 0.753231
0.000000 0.128359 0.784665
0.000000 0.119753 0.784237
0.121950 0.082124 0.782803
0.342596 0.000000 0.779751
0.503258 0.000000 0.775051
0.659663 0.000000 0.774655
0.834806 0.000000 0.782589
0.980713 0.000000 0.748745
0.000000 0.331853 0.789609
0.000000 0.318944 0.790188
0.000000 0.264622 0.791135
0.259403 0.241001 0.787350
0.471382 0.200931 0.781735
0.648493 0.125551 0.776822
0.838163 0.000000 0.782376
0.983703 0.000000 0.741024
0.000000 0.526513 0.791928
0.000000 0.521050 0.792477
0.000000 0.500084 0.793729
0.014862 0.452461 0.794919
0.400458 0.396826 0.791043
0.625238 0.363836 0.780972
0.841123 0.361822 0.780850
0.985657 0.371069 0.732753
0.000000 0.709407 0.794400
0.000000 0.707301 0.794705
0.000000 0.699367 0.795499
0.000000 0.681971 0.796017
0.336858 0.650446 0.794644
0.586969 0.607904 0.786160
0.834440 0.621820 0.772885
0.983276 0.650019 0.743984
0.000000 0.890166 0.795926
0.000000 0.890379 0.796017
0.000000 0.891081 0.796597
0.000000 0.891569 0.796811
0.288457 0.890471 0.795621
0.579858 0.882322 0.788968
0.825895 0.866270 0.786740
0.976715 0.880827 0.807645
0.000000 1.000000 0.734371
0.000000 1.000000 0.732998
0.000000 1.000000 0.727535
0.000000 1.000000 0.717647
0.230930 1.000000 0.705928
0.522179 0.997803 0.700221
0.735348 0.978515 0.692988
0.965026 0.962432 0.710201
0.000000 0.000000 0.929717
0.000000 0.000000 0.929442
0.188052 0.000000 0.929015
0.353002 0.000000 0.927825
0.498054 0.000000 0.925994
0.642115 0.000000 0.923308
0.797543 0.000000 0.926329
0.974273 0.000000 0.926146
0.000000 0.000000 0.930938
0.000000 0.000000 0.930663
0.159731 0.000000 0.930175
0.342443 0.000000 0.928985
0.492592 0.000000 0.927123
0.639338 0.000000 0.924346
0.796872 0.000000 0.927153
0.975128 0.000000 0.926604
0.000000 0.088777 0.933989
0.000000 0.075715 0.933806
0.000000 0.000000 0.933318
0.299901 0.000000 0.931670
0.471260 0.000000 0.929717
0.628473 0.000000 0.926848
0.792874 0.000000 0.928740
0.976501 0.000000 0.926818
0.000000 0.271763 0.938079
0.000000 0.251408 0.938201
0.000000 0.238163 0.937560
0.184939 0.211643 0.935973
0.425757 0.163088 0.933654
0.605066 0.000000 0.930327
0.783352 0.000000 0.930388
0.977874 0.000000 0.926390
0.000000 0.486427 0.938018
0.000000 0.479469 0.938262
0.000000 0.453071 0.939330
0.000000 0.390631 0.941070
0.330480 0.355230 0.938933
0.561852 0.319219 0.935149
0.765347 0.264561 0.931975
0.978027 0.231571 0.924865
0.000000 0.666621 0.937621
0.000000 0.663233 0.937926
0.000000 0.650416 0.938933
0.000000 0.624475 0.940246
0.220859 0.583398 0.941192
0.498268 0.537469 0.938598
0.737240 0.506340 0.931151
0.972290 0.526696 0.919585
0.000000 0.838010 0.936278
0.000000 0.836606 0.936553
0.000000 0.831418 0.937316
0.000000 0.821286 0.938231
0.131838 0.806485 0.938720
0.488441 0.793484 0.936858
0.728023 0.778103 0.929747
0.958190 0.791806 0.914641
0.000000 1.000000 0.934386
0.000000 1.000000 0.934569
0.000000 1.000000 0.934966
0.000000 1.000000 0.935271
0.000000 0.999268 0.935332
0.481849 0.993988 0.934325
0.759182 0.981018 0.930816
0.950286 0.965515 0.932250
