其他预设/【239】阳光逆光效果预设26款/1.LUT预设（视频调色-PR-AE-PS-FCPX-达芬奇用）/阳光逆光预设__-1.cube
# Created by Adobe Lightroom plugin Export LUT (1.17.0)
# www.johnrellis.com/lightroom/exportlut.htm
# Preset: 阳光逆光预设[素锦印象]-1
# Color profile: /Library/Application Support/Adobe/Color/Profiles/Recommended/AdobeRGB1998.icc
LUT_3D_SIZE 32
0.091737 0.091341 0.091371
0.091737 0.091341 0.091371
0.096986 0.090425 0.091310
0.131533 0.082460 0.090730
0.167636 0.069429 0.089876
0.201419 0.064820 0.088014
0.234745 0.062043 0.085542
0.267765 0.060090 0.082429
0.300572 0.059846 0.078553
0.333257 0.060243 0.073793
0.366033 0.060334 0.069123
0.398810 0.058717 0.068238
0.431464 0.055512 0.067842
0.464149 0.055726 0.068513
0.496712 0.057343 0.070771
0.529290 0.056306 0.072267
0.561883 0.053315 0.073152
0.596063 0.048951 0.073579
0.631678 0.041901 0.073884
0.665736 0.032624 0.073610
0.698848 0.020356 0.073030
0.731075 0.009094 0.072389
0.762387 0.000000 0.071473
0.792874 0.000000 0.070222
0.822812 0.000000 0.068513
0.852506 0.000000 0.066712
0.882231 0.000000 0.064088
0.911986 0.000000 0.061372
0.941711 0.000000 0.057343
0.971374 0.000000 0.051881
1.000000 0.000000 0.044587
1.000000 0.000000 0.036744
0.091737 0.091341 0.091371
0.091737 0.091341 0.091371
0.098543 0.090150 0.091279
0.132784 0.085389 0.090455
0.167849 0.083223 0.088960
0.201144 0.080812 0.086976
0.234440 0.078065 0.084565
0.267338 0.076722 0.081392
0.300053 0.075959 0.077516
0.332647 0.076020 0.072694
0.365301 0.075166 0.068849
0.397864 0.073426 0.068055
0.430488 0.072541 0.068025
0.463111 0.072053 0.069184
0.495613 0.071870 0.070771
0.528038 0.072175 0.072602
0.560540 0.070832 0.073548
0.594781 0.068025 0.073701
0.629877 0.065034 0.073884
0.663661 0.061921 0.073365
0.696590 0.055634 0.072877
0.728786 0.045045 0.072023
0.760098 0.033448 0.071107
0.790677 0.017823 0.069947
0.820706 0.003235 0.067903
0.850523 0.000000 0.066011
0.880430 0.000000 0.063325
0.910277 0.000000 0.060578
0.940185 0.000000 0.055787
0.969940 0.000000 0.050141
0.999481 0.000000 0.041138
1.000000 0.000000 0.033143
0.091218 0.096834 0.091188
0.091249 0.098421 0.091341
0.099916 0.100282 0.090364
0.132998 0.101900 0.089052
0.167697 0.100038 0.087495
0.201205 0.097475 0.085573
0.234165 0.095186 0.083101
0.266728 0.093782 0.079988
0.299565 0.092561 0.076081
0.332006 0.092164 0.071260
0.364569 0.091005 0.068879
0.397284 0.089601 0.067689
0.429786 0.088136 0.068177
0.462409 0.088167 0.069306
0.494850 0.088136 0.071260
0.527367 0.087129 0.072877
0.559838 0.086152 0.073823
0.594141 0.084321 0.073579
0.628962 0.081514 0.073915
0.662501 0.079194 0.073487
0.695430 0.075624 0.072663
0.727565 0.071107 0.071870
0.758907 0.066316 0.070680
0.789548 0.059724 0.069520
0.819608 0.049866 0.067842
0.849454 0.034424 0.065675
0.879393 0.019196 0.062898
0.909361 0.003265 0.060121
0.939330 0.000000 0.054078
0.969207 0.000000 0.048463
0.998749 0.000000 0.038880
1.000000 0.000000 0.030945
0.089082 0.126406 0.091157
0.090120 0.127687 0.091249
0.104829 0.126070 0.092927
0.134005 0.131167 0.085634
0.168063 0.129091 0.084138
0.201297 0.126101 0.082246
0.233982 0.123507 0.079835
0.266545 0.121645 0.076661
0.299168 0.120027 0.072663
0.331670 0.118441 0.069276
0.364080 0.117250 0.068086
0.396612 0.115450 0.067842
0.429053 0.114931 0.068666
0.461555 0.114229 0.070344
0.493996 0.113588 0.071962
0.526452 0.112734 0.072908
0.558862 0.111727 0.073945
0.593500 0.110292 0.073640
0.627710 0.108186 0.073487
0.660792 0.106142 0.073335
0.693416 0.103029 0.072389
0.725490 0.100069 0.071290
0.756924 0.096407 0.070130
0.787869 0.092500 0.068818
0.818357 0.088289 0.067048
0.848631 0.083528 0.065064
0.878904 0.078553 0.062104
0.909056 0.073762 0.059205
0.939117 0.067872 0.053040
0.968933 0.061616 0.046754
0.998413 0.054444 0.036866
1.000000 0.043366 0.027253
0.085817 0.156435 0.090883
0.095460 0.155734 0.092103
0.109102 0.154360 0.093782
0.131075 0.154971 0.092378
0.166903 0.161105 0.078950
0.201144 0.158938 0.076875
0.233738 0.155795 0.074464
0.266148 0.153353 0.071260
0.298589 0.151064 0.069062
0.330755 0.149355 0.068391
0.363104 0.147524 0.067414
0.395453 0.146120 0.068391
0.427924 0.145113 0.069368
0.460395 0.144320 0.071077
0.492897 0.143343 0.072419
0.525383 0.142428 0.073091
0.558160 0.141054 0.074128
0.593317 0.139864 0.073701
0.627192 0.138155 0.073335
0.660090 0.136141 0.072633
0.692378 0.133883 0.071809
0.724331 0.131411 0.070832
0.755734 0.128756 0.069703
0.786740 0.125399 0.068116
0.817258 0.122530 0.065949
0.847654 0.119265 0.063844
0.877989 0.115816 0.061311
0.908232 0.112093 0.056794
0.938323 0.108675 0.050965
0.968139 0.105287 0.042939
0.997681 0.101381 0.033387
1.000000 0.098848 0.023560
0.091981 0.183566 0.091768
0.102480 0.182742 0.092988
0.114168 0.181552 0.094392
0.134554 0.179080 0.097932
0.161593 0.185275 0.085542
0.199344 0.190799 0.070039
0.234012 0.189487 0.067903
0.266087 0.186221 0.067903
0.298314 0.183566 0.067445
0.330419 0.181216 0.067445
0.362676 0.179416 0.067750
0.395026 0.177951 0.068849
0.427283 0.176699 0.070375
0.459815 0.175540 0.071778
0.492317 0.174411 0.072480
0.524895 0.173220 0.073610
0.558862 0.172061 0.073610
0.593469 0.170962 0.073396
0.627070 0.169253 0.072847
0.659907 0.167453 0.071839
0.692256 0.165682 0.071046
0.724300 0.163241 0.069703
0.768948 0.163577 0.069459
0.799405 0.161166 0.068177
0.829221 0.158755 0.066926
0.858854 0.155917 0.065187
0.888273 0.153140 0.063081
0.917510 0.150546 0.060670
0.946624 0.147921 0.055848
0.975586 0.145480 0.050416
1.000000 0.143252 0.043153
1.000000 0.141054 0.034058
0.102602 0.212284 0.094667
0.111147 0.211551 0.095857
0.121736 0.210544 0.097993
0.140963 0.208469 0.102083
0.163516 0.208194 0.102846
0.195071 0.217197 0.083436
0.233188 0.221927 0.067262
0.268070 0.221042 0.065888
0.300359 0.217868 0.066499
0.332677 0.215305 0.067018
0.365057 0.213199 0.067872
0.397406 0.211398 0.069123
0.429786 0.209720 0.070741
0.462196 0.208286 0.071901
0.494575 0.206790 0.072755
0.527489 0.205264 0.072847
0.562554 0.204501 0.072755
0.597070 0.203281 0.071870
0.630579 0.201694 0.071321
0.663691 0.200015 0.070558
0.696773 0.198459 0.069703
0.729854 0.196536 0.068513
0.762539 0.194888 0.067384
0.794614 0.192691 0.065919
0.825864 0.190707 0.064393
0.856352 0.188449 0.062867
0.886259 0.186191 0.060487
0.915740 0.183841 0.057557
0.945037 0.181369 0.051850
0.974029 0.179263 0.044312
1.000000 0.177218 0.034974
1.000000 0.175387 0.027039
0.112917 0.239933 0.102358
0.120516 0.239384 0.103700
0.129702 0.238468 0.104952
0.147005 0.236851 0.108064
0.168673 0.234195 0.112703
0.193515 0.238437 0.106050
0.227604 0.247288 0.085725
0.264805 0.251255 0.070039
0.299840 0.250645 0.067536
0.332097 0.247776 0.068330
0.364324 0.245457 0.069062
0.396674 0.243320 0.069001
0.429023 0.241489 0.070069
0.461372 0.239689 0.071107
0.493843 0.237949 0.071443
0.528344 0.237095 0.071626
0.562463 0.235935 0.070924
0.596277 0.234714 0.070314
0.629389 0.233158 0.069581
0.662196 0.231479 0.068635
0.695064 0.229862 0.067994
0.727962 0.228122 0.066560
0.760525 0.226444 0.065278
0.792508 0.224552 0.063813
0.823758 0.222568 0.062348
0.854307 0.220615 0.060426
0.884276 0.218448 0.056947
0.913939 0.216220 0.051667
0.943359 0.214145 0.044556
0.972473 0.212131 0.036561
1.000000 0.210269 0.027253
1.000000 0.208438 0.018311
0.124178 0.268101 0.110628
0.130678 0.267582 0.111391
0.138766 0.266972 0.112764
0.154604 0.265507 0.115236
0.175326 0.263249 0.119326
0.197574 0.260655 0.124086
0.225010 0.268956 0.109712
0.260441 0.277684 0.088075
0.296849 0.280491 0.074128
0.331914 0.280369 0.069490
0.364172 0.277897 0.069642
0.396429 0.275547 0.069062
0.428809 0.273350 0.069215
0.461555 0.271458 0.068849
0.495460 0.270573 0.069276
0.529107 0.269322 0.069184
0.562615 0.267826 0.068421
0.596094 0.266514 0.067597
0.628779 0.264805 0.066804
0.661402 0.262974 0.066102
0.694087 0.261479 0.065217
0.726802 0.259800 0.063874
0.759243 0.258091 0.062226
0.791135 0.256413 0.060395
0.822324 0.254551 0.059052
0.852842 0.252445 0.055512
0.882933 0.250492 0.050507
0.912596 0.248447 0.043824
0.942046 0.246464 0.036500
0.971221 0.244480 0.027710
1.000000 0.242741 0.017517
1.000000 0.241001 0.006592
0.135531 0.296208 0.118593
0.141390 0.295750 0.119509
0.148684 0.295140 0.120394
0.163058 0.293858 0.122683
0.182376 0.291905 0.126314
0.204105 0.289433 0.130953
0.227359 0.291020 0.128603
0.256779 0.299138 0.112459
0.293248 0.307561 0.089662
0.328710 0.309606 0.076448
0.363836 0.309606 0.069398
0.396094 0.307195 0.068605
0.429389 0.305669 0.067964
0.462928 0.304265 0.067231
0.496529 0.302831 0.065736
0.529900 0.301305 0.065126
0.563378 0.299779 0.064424
0.596643 0.298314 0.063722
0.629206 0.296574 0.063020
0.661494 0.294774 0.062043
0.693782 0.293126 0.060975
0.725948 0.291356 0.060090
0.757839 0.289555 0.058320
0.789242 0.287785 0.054932
0.820188 0.285832 0.051514
0.850675 0.283848 0.047059
0.880919 0.281895 0.040650
0.910887 0.280034 0.032502
0.940612 0.278141 0.024994
0.970092 0.276341 0.015930
0.999115 0.274784 0.006561
1.000000 0.273289 0.000000
0.146670 0.323827 0.126802
0.151797 0.323491 0.127626
0.158511 0.322942 0.128450
0.171786 0.321752 0.130587
0.190066 0.320073 0.133791
0.210819 0.317967 0.138094
0.233249 0.315343 0.143618
0.257939 0.321111 0.133150
0.288975 0.329198 0.115084
0.326360 0.337499 0.089998
0.361547 0.339208 0.076936
0.397833 0.340337 0.066835
0.430823 0.338537 0.066102
0.463905 0.336706 0.064607
0.497047 0.334905 0.062959
0.530053 0.333227 0.061280
0.563165 0.331365 0.058198
0.596185 0.329778 0.057404
0.628504 0.327886 0.056703
0.660700 0.326085 0.055207
0.692836 0.324315 0.052918
0.724910 0.322545 0.051545
0.756802 0.320836 0.048707
0.788144 0.319097 0.045258
0.819028 0.317266 0.040955
0.849516 0.315282 0.036561
0.879667 0.313359 0.028412
0.909575 0.311467 0.020813
0.939330 0.309697 0.012451
0.968811 0.307958 0.002625
0.997894 0.306493 0.000000
1.000000 0.304967 0.000000
0.158572 0.351507 0.135378
0.163088 0.351263 0.135988
0.169070 0.350805 0.137087
0.181277 0.349767 0.138888
0.198367 0.348333 0.142000
0.218326 0.346441 0.145876
0.240024 0.344182 0.150881
0.262638 0.343572 0.152743
0.289372 0.351598 0.137362
0.322637 0.360479 0.117250
0.361456 0.369451 0.089326
0.396277 0.370581 0.076448
0.440040 0.377600 0.061738
0.473548 0.375677 0.059937
0.506859 0.373632 0.058106
0.540154 0.371466 0.053590
0.573358 0.369451 0.048951
0.606165 0.367193 0.041993
0.637842 0.364569 0.038453
0.669398 0.362219 0.038972
0.700893 0.359869 0.038575
0.732143 0.357733 0.038239
0.763088 0.355535 0.035279
0.793668 0.353368 0.032898
0.823880 0.351141 0.029145
0.853849 0.349065 0.025757
0.883513 0.346868 0.018921
0.912871 0.344945 0.011322
0.942107 0.342992 0.003174
0.971130 0.341161 0.000000
0.999725 0.339422 0.000000
1.000000 0.337804 0.000000
0.170871 0.381323 0.144808
0.175051 0.381048 0.145357
0.180484 0.380591 0.146090
0.191836 0.379553 0.147951
0.207858 0.378027 0.150576
0.227054 0.376349 0.154330
0.248539 0.374670 0.159182
0.271244 0.372747 0.165103
0.295232 0.376806 0.159304
0.324285 0.385504 0.142275
0.359197 0.394659 0.119722
0.399329 0.403967 0.087343
0.434455 0.404822 0.074678
0.471656 0.406287 0.057496
0.505486 0.404730 0.049714
0.538872 0.402930 0.045472
0.572015 0.400824 0.038819
0.604608 0.398474 0.031067
0.636194 0.395789 0.026093
0.667689 0.393164 0.020172
0.699001 0.390784 0.017334
0.730220 0.388525 0.017762
0.761044 0.386297 0.016602
0.791562 0.384100 0.014893
0.821744 0.381933 0.010529
0.851713 0.379706 0.006806
0.881407 0.377691 0.000092
0.910887 0.375708 0.000000
0.940215 0.373785 0.000000
0.969390 0.372137 0.000000
0.998169 0.370459 0.000000
1.000000 0.368902 0.000000
0.183200 0.410498 0.154147
0.187350 0.410254 0.154665
0.192172 0.409857 0.155489
0.202823 0.409125 0.157168
0.217960 0.407874 0.159731
0.236301 0.406226 0.163241
0.257053 0.404425 0.167697
0.278965 0.402289 0.172976
0.301762 0.400061 0.179171
0.326970 0.408057 0.164553
0.357549 0.416754 0.145846
0.393256 0.425849 0.120912
0.433539 0.434791 0.085023
0.467720 0.434668 0.072297
0.504021 0.435523 0.049104
0.537713 0.433936 0.033509
0.570550 0.431861 0.027527
0.603021 0.429541 0.020325
0.634546 0.426734 0.014160
0.665919 0.424109 0.007843
0.697322 0.421607 0.000275
0.728511 0.419226 0.000000
0.759365 0.416999 0.000000
0.789944 0.414862 0.000000
0.820127 0.412665 0.000000
0.850156 0.410529 0.000000
0.879911 0.408484 0.000000
0.909453 0.406592 0.000000
0.938903 0.404761 0.000000
0.968139 0.403143 0.000000
0.997070 0.401526 0.000000
1.000000 0.400031 0.000000
0.195865 0.439887 0.163668
0.199527 0.439704 0.164248
0.204074 0.439277 0.164889
0.213840 0.438422 0.166384
0.228061 0.437079 0.168826
0.245487 0.435401 0.171908
0.265202 0.433448 0.176089
0.286625 0.431281 0.180880
0.309026 0.429084 0.186648
0.332219 0.430579 0.185489
0.358923 0.438911 0.169223
0.390692 0.447700 0.148684
0.427100 0.456611 0.121462
0.466957 0.464668 0.083558
0.500633 0.464149 0.069520
0.536065 0.464485 0.035767
0.569604 0.462959 0.014374
0.601801 0.460517 0.006043
0.633204 0.457710 0.001617
0.664546 0.455024 0.000000
0.695766 0.452461 0.000000
0.726925 0.450050 0.000000
0.757748 0.447669 0.000000
0.788296 0.445350 0.000000
0.818570 0.443183 0.000000
0.848692 0.441230 0.000000
0.878752 0.439338 0.000000
0.908690 0.437629 0.000000
0.938445 0.436011 0.000000
0.968017 0.434577 0.000000
0.997192 0.433234 0.000000
1.000000 0.431861 0.000000
0.208133 0.468727 0.172976
0.211490 0.468635 0.173648
0.215824 0.468269 0.174228
0.224979 0.467506 0.175601
0.238407 0.466316 0.177890
0.255161 0.464881 0.180758
0.274174 0.463172 0.184634
0.295048 0.461280 0.189242
0.317235 0.459083 0.194644
0.339940 0.456886 0.200717
0.363806 0.462135 0.191196
0.391760 0.470405 0.173404
0.424079 0.478706 0.150942
0.460700 0.487098 0.121187
0.499458 0.493721 0.081727
0.532464 0.492683 0.065187
0.567224 0.492683 0.020783
0.600519 0.491188 0.000000
0.632105 0.488502 0.000000
0.663569 0.485969 0.000000
0.694972 0.483619 0.000000
0.726223 0.481270 0.000000
0.757168 0.478981 0.000000
0.787808 0.476631 0.000000
0.818173 0.474403 0.000000
0.848478 0.472419 0.000000
0.878630 0.470588 0.000000
0.908568 0.468971 0.000000
0.938354 0.467445 0.000000
0.967834 0.465949 0.000000
0.996887 0.464515 0.000000
1.000000 0.463111 0.000000
0.220066 0.496773 0.182071
0.222965 0.496590 0.182376
0.227237 0.496193 0.183169
0.235691 0.495491 0.184360
0.248417 0.494392 0.186526
0.264317 0.492988 0.189364
0.282567 0.491402 0.192844
0.302892 0.489509 0.197024
0.324346 0.487465 0.202182
0.346777 0.485267 0.207797
0.369665 0.484291 0.211490
0.394568 0.492195 0.195804
0.423743 0.500389 0.176669
0.456764 0.508690 0.152529
0.493690 0.516808 0.119783
0.531548 0.522484 0.079652
0.564080 0.521172 0.061219
0.598077 0.520684 0.005219
0.630823 0.519036 0.000000
0.662196 0.516472 0.000000
0.693507 0.514092 0.000000
0.724697 0.511772 0.000000
0.755612 0.509483 0.000000
0.786313 0.507286 0.000000
0.816800 0.505089 0.000000
0.847227 0.503105 0.000000
0.877531 0.501274 0.000000
0.907652 0.499763 0.000000
0.937560 0.498329 0.000000
0.967193 0.496956 0.000000
0.996338 0.495644 0.000000
1.000000 0.494301 0.000000
0.231876 0.525139 0.190951
0.234958 0.525078 0.191440
0.241917 0.531243 0.194278
0.250065 0.530510 0.195499
0.262089 0.529412 0.197543
0.277226 0.527916 0.200137
0.294957 0.526116 0.203342
0.314641 0.524041 0.207248
0.335882 0.521874 0.211948
0.358068 0.519554 0.217411
0.380713 0.517082 0.223270
0.403815 0.519738 0.218753
0.430091 0.527489 0.201724
0.460182 0.535393 0.180697
0.493721 0.543084 0.154513
0.530388 0.550439 0.118563
0.567315 0.554803 0.076875
0.599481 0.553216 0.051850
0.632471 0.551934 0.000000
0.664576 0.549798 0.000000
0.695460 0.547021 0.000000
0.726314 0.544457 0.000000
0.756954 0.541985 0.000000
0.787381 0.539544 0.000000
0.817411 0.537072 0.000000
0.847410 0.534783 0.000000
0.877287 0.532647 0.000000
0.907103 0.530724 0.000000
0.936858 0.529168 0.000000
0.966461 0.527825 0.000000
0.995666 0.526543 0.000000
1.000000 0.525231 0.000000
0.244755 0.555901 0.200290
0.247776 0.556634 0.200961
0.251774 0.557244 0.201816
0.259922 0.557397 0.203342
0.271641 0.557031 0.205325
0.286473 0.555962 0.207980
0.303563 0.554498 0.211002
0.322698 0.552636 0.214633
0.343389 0.550683 0.219120
0.365118 0.548486 0.224063
0.387579 0.546197 0.229648
0.410529 0.543694 0.235874
0.434241 0.550011 0.222965
0.461402 0.557458 0.204654
0.491768 0.564782 0.182559
0.525353 0.571923 0.154238
0.561822 0.578759 0.115602
0.597711 0.582208 0.072724
0.629725 0.580713 0.036530
0.662257 0.579339 0.000000
0.693904 0.577081 0.000000
0.724788 0.574670 0.000000
0.755550 0.572320 0.000000
0.786038 0.569970 0.000000
0.816251 0.567712 0.000000
0.846342 0.565576 0.000000
0.876371 0.563561 0.000000
0.906310 0.561791 0.000000
0.936156 0.560174 0.000000
0.965850 0.558740 0.000000
0.995087 0.557549 0.000000
1.000000 0.556268 0.000000
0.256168 0.584527 0.208743
0.259129 0.585168 0.209445
0.263005 0.585718 0.210269
0.270573 0.585931 0.211643
0.281773 0.585565 0.213504
0.295872 0.584680 0.215946
0.312444 0.583246 0.218845
0.330999 0.581598 0.222385
0.351202 0.579767 0.226474
0.372686 0.577813 0.231235
0.395026 0.575708 0.236576
0.417792 0.573449 0.242466
0.440650 0.573358 0.243137
0.465217 0.580468 0.227024
0.492866 0.587427 0.207553
0.523613 0.594263 0.184024
0.557122 0.600977 0.153902
0.593347 0.607416 0.112001
0.628504 0.610193 0.067048
0.660517 0.608942 0.015473
0.692622 0.607416 0.000000
0.723659 0.605005 0.000000
0.754452 0.602808 0.000000
0.784939 0.600549 0.000000
0.815244 0.598383 0.000000
0.845365 0.596338 0.000000
0.875395 0.594385 0.000000
0.905333 0.592645 0.000000
0.935210 0.591119 0.000000
0.964904 0.589715 0.000000
0.994232 0.588373 0.000000
1.000000 0.587121 0.000000
0.267704 0.613336 0.217502
0.270512 0.613916 0.218082
0.274205 0.614466 0.218845
0.281437 0.614649 0.220157
0.292180 0.614343 0.222019
0.305730 0.613519 0.224247
0.321660 0.612238 0.227024
0.339635 0.610712 0.230289
0.359442 0.608972 0.234226
0.380377 0.607111 0.238804
0.402411 0.605158 0.243748
0.425147 0.602899 0.249363
0.448005 0.600488 0.255497
0.470863 0.603845 0.248203
0.496193 0.610620 0.230991
0.524498 0.617395 0.210391
0.555627 0.624170 0.185458
0.589593 0.630884 0.153567
0.626093 0.637537 0.107576
0.661097 0.640101 0.060243
0.693538 0.639429 0.000000
0.725826 0.638331 0.000000
0.756191 0.635492 0.000000
0.786984 0.633509 0.000000
0.817533 0.631556 0.000000
0.847807 0.629664 0.000000
0.877928 0.627802 0.000000
0.907866 0.626123 0.000000
0.937713 0.624598 0.000000
0.967254 0.623194 0.000000
0.996368 0.621759 0.000000
1.000000 0.620752 0.000000
0.281010 0.645289 0.227604
0.283482 0.645533 0.228092
0.286687 0.645594 0.228611
0.293431 0.645411 0.229770
0.303685 0.644800 0.231357
0.316594 0.643885 0.233524
0.332067 0.642695 0.236149
0.349554 0.641321 0.239414
0.368933 0.639887 0.243137
0.389685 0.638270 0.247532
0.411536 0.636561 0.252476
0.434241 0.634607 0.257939
0.457099 0.632380 0.263890
0.480171 0.629969 0.270054
0.503197 0.636378 0.254337
0.529168 0.642817 0.235996
0.557763 0.649287 0.214237
0.589166 0.655726 0.187594
0.623072 0.662104 0.153323
0.659327 0.668330 0.102174
0.693477 0.670253 0.045960
0.725551 0.669398 0.000000
0.757259 0.668055 0.000000
0.786099 0.664179 0.000000
0.816556 0.662196 0.000000
0.846891 0.660395 0.000000
0.877073 0.658656 0.000000
0.907073 0.657099 0.000000
0.936919 0.655665 0.000000
0.966491 0.654353 0.000000
0.995636 0.653346 0.000000
1.000000 0.652888 0.000000
0.293095 0.674434 0.236942
0.295445 0.674678 0.237491
0.298528 0.674830 0.238041
0.305058 0.674586 0.239139
0.314733 0.674098 0.240635
0.327184 0.673182 0.242741
0.342077 0.672053 0.245212
0.359014 0.670710 0.248203
0.377844 0.669337 0.251926
0.398169 0.667781 0.256046
0.419684 0.666133 0.260807
0.441962 0.664302 0.266148
0.464729 0.662257 0.271824
0.487892 0.659998 0.278050
0.510582 0.660853 0.276585
0.534325 0.667109 0.259983
0.560784 0.673457 0.240513
0.589868 0.679805 0.217288
0.621515 0.686152 0.189151
0.655482 0.692409 0.152285
0.691554 0.698543 0.095521
0.725246 0.700069 0.023682
0.757351 0.699519 0.000000
0.789059 0.698421 0.000000
0.814847 0.692073 0.000000
0.845212 0.690364 0.000000
0.875425 0.688808 0.000000
0.905516 0.687404 0.000000
0.935424 0.686152 0.000000
0.965087 0.685206 0.000000
0.994385 0.684718 0.000000
1.000000 0.685023 0.000000
0.306981 0.706233 0.248203
0.309239 0.706538 0.248692
0.312200 0.706569 0.249241
0.318364 0.706264 0.250248
0.327581 0.705623 0.251621
0.339361 0.704707 0.253391
0.353704 0.703487 0.255863
0.370062 0.702052 0.258610
0.388342 0.700404 0.261997
0.407996 0.698695 0.265995
0.428931 0.696895 0.270451
0.450782 0.694972 0.275395
0.473335 0.692866 0.280949
0.496162 0.690547 0.286931
0.519066 0.688045 0.293248
0.541222 0.691554 0.283452
0.565240 0.697383 0.265446
0.591882 0.703334 0.244724
0.621118 0.709499 0.220127
0.652796 0.715724 0.190097
0.686793 0.721920 0.150393
0.722713 0.727932 0.085634
0.755795 0.729091 0.000000
0.787503 0.728450 0.000000
0.818784 0.727321 0.000000
0.844785 0.721492 0.000000
0.874907 0.719814 0.000000
0.904845 0.718410 0.000000
0.934630 0.717311 0.000000
0.964263 0.716640 0.000000
0.993469 0.716640 0.000000
1.000000 0.717586 0.000000
0.319646 0.735439 0.258549
0.321813 0.735714 0.259037
0.324804 0.735805 0.259678
0.330571 0.735531 0.260563
0.339422 0.734951 0.261936
0.350835 0.734096 0.263828
0.364782 0.733059 0.266087
0.380529 0.731807 0.268894
0.398413 0.730434 0.272282
0.417884 0.728969 0.276219
0.438422 0.727443 0.280705
0.460151 0.725765 0.285649
0.482551 0.723964 0.291173
0.505333 0.721981 0.297002
0.528435 0.719783 0.303410
0.551415 0.718227 0.308110
0.573480 0.723903 0.291539
0.598016 0.729793 0.272648
0.625086 0.735775 0.250675
0.654597 0.741939 0.224643
0.686305 0.747982 0.192325
0.720058 0.753933 0.149020
0.755612 0.759579 0.073091
0.788052 0.760250 0.000000
0.819608 0.759701 0.000000
0.850950 0.758907 0.000000
0.875395 0.751888 0.000000
0.905303 0.750515 0.000000
0.935119 0.749660 0.000000
0.964691 0.749294 0.000000
0.993805 0.749630 0.000000
1.000000 0.751156 0.000000
0.333715 0.766079 0.270390
0.335821 0.766232 0.270939
0.338445 0.766201 0.271366
0.343969 0.765866 0.272251
0.352270 0.765225 0.273503
0.363165 0.764370 0.275242
0.376471 0.763302 0.277409
0.391974 0.762142 0.280125
0.409339 0.760830 0.283452
0.428229 0.759487 0.287297
0.448554 0.758083 0.291752
0.469978 0.756680 0.296757
0.492195 0.755062 0.302190
0.514977 0.753353 0.308171
0.537957 0.751339 0.314488
0.561151 0.749233 0.321263
0.583276 0.750515 0.317937
0.605676 0.756161 0.300359
0.630579 0.762020 0.280156
0.657923 0.767941 0.256779
0.687465 0.773892 0.228885
0.719051 0.779751 0.194095
0.752468 0.785367 0.146548
0.787503 0.790677 0.049409
0.819364 0.791043 0.000000
0.850736 0.790524 0.000000
0.882048 0.790036 0.000000
0.905394 0.782376 0.000000
0.934539 0.780972 0.000000
0.964080 0.780850 0.000000
0.993103 0.781552 0.000000
1.000000 0.783597 0.000000
0.348028 0.796353 0.282933
0.349981 0.796445 0.283330
0.352544 0.796414 0.283818
0.357794 0.796139 0.284611
0.366033 0.795651 0.285985
0.376654 0.795132 0.287938
0.389837 0.794583 0.290318
0.405188 0.794034 0.293400
0.422553 0.793423 0.297124
0.441596 0.792813 0.301366
0.461982 0.792111 0.306249
0.483497 0.791318 0.311620
0.505791 0.790341 0.317449
0.528679 0.789090 0.323674
0.551965 0.787533 0.330388
0.575280 0.785763 0.337316
0.598810 0.783841 0.344793
0.619928 0.787869 0.332738
0.642695 0.793484 0.314061
0.667720 0.799252 0.292515
0.694942 0.804959 0.267582
0.724331 0.810636 0.237522
0.755550 0.816098 0.199985
0.788510 0.821317 0.147646
0.823087 0.826230 0.005798
0.854612 0.826200 0.000000
0.885924 0.825864 0.000000
0.917082 0.825559 0.000000
0.939330 0.817350 0.000000
0.967071 0.815579 0.000000
0.995727 0.816281 0.000000
1.000000 0.818418 0.000000
0.366522 0.830594 0.299443
0.368292 0.830625 0.299901
0.370642 0.830472 0.300328
0.375677 0.830137 0.301091
0.383368 0.829618 0.302312
0.393500 0.828946 0.304143
0.406104 0.828214 0.306432
0.420722 0.827451 0.309331
0.437293 0.826627 0.312779
0.455695 0.825742 0.316808
0.475349 0.824765 0.321386
0.496254 0.823697 0.326604
0.517937 0.822538 0.332280
0.540429 0.821195 0.338354
0.563287 0.819669 0.345006
0.586511 0.818021 0.352117
