其他预设/【239】阳光逆光效果预设26款/1.LUT预设（视频调色-PR-AE-PS-FCPX-达芬奇用）/阳光逆光预设__-6.cube
# Created by Adobe Lightroom plugin Export LUT (1.17.0)
# www.johnrellis.com/lightroom/exportlut.htm
# Preset: 阳光逆光预设[素锦印象]-6
# Color profile: /Library/Application Support/Adobe/Color/Profiles/Recommended/AdobeRGB1998.icc
LUT_3D_SIZE 8
DOMAIN_MIN 0.000000 0.000000 0.000000
DOMAIN_MAX 0.903226 0.903226 0.903226
0.000000 0.000000 0.000000
0.119417 0.005554 0.005798
0.257572 0.004303 0.002716
0.406744 0.000000 0.000000
0.574609 0.000000 0.000000
0.739467 0.000000 0.000000
0.883299 0.010956 0.000000
1.000000 0.070161 0.000000
0.025849 0.111055 0.000000
0.120027 0.107637 0.015930
0.254307 0.119570 0.015473
0.404761 0.126192 0.000000
0.573114 0.133516 0.000000
0.738460 0.137667 0.000000
0.882567 0.140932 0.000000
1.000000 0.151003 0.004517
0.087404 0.235843 0.000000
0.150668 0.236057 0.000000
0.257542 0.228428 0.013916
0.398566 0.246433 0.056092
0.568078 0.265476 0.006714
0.734859 0.275944 0.000000
0.879942 0.278599 0.000000
0.998749 0.280186 0.083101
0.143343 0.373114 0.000000
0.190646 0.373480 0.000000
0.296391 0.369604 0.000000
0.410864 0.363653 0.017639
0.569055 0.390051 0.069581
0.728817 0.407507 0.084047
0.875364 0.413001 0.095552
0.994720 0.412207 0.139437
0.199405 0.528069 0.000000
0.238437 0.528374 0.000000
0.339879 0.529381 0.000000
0.458595 0.519860 0.000000
0.581628 0.514702 0.000000
0.735592 0.534630 0.091371
0.869444 0.541558 0.159915
0.988708 0.541650 0.202884
0.252598 0.688869 0.000000
0.286015 0.688930 0.000000
0.379522 0.689204 0.000000
0.501488 0.685939 0.000000
0.628229 0.676143 0.000000
0.752255 0.666926 0.027649
0.877012 0.664637 0.154269
0.984863 0.662501 0.250736
0.293858 0.834653 0.000000
0.322698 0.834470 0.000000
0.407568 0.833768 0.000000
0.523827 0.832456 0.000000
0.652705 0.825071 0.000000
0.781369 0.815244 0.000000
0.896605 0.798642 0.145937
0.987610 0.777035 0.259831
0.322057 0.956237 0.000000
0.347234 0.955901 0.000000
0.423102 0.954650 0.000000
0.530571 0.952361 0.000000
0.654078 0.947875 0.000000
0.782986 0.938872 0.000000
0.908110 0.928588 0.150362
1.000000 0.905882 0.286931
0.006928 0.004425 0.093538
0.122499 0.000000 0.097688
0.263218 0.000000 0.086275
0.409644 0.011810 0.089479
0.576928 0.000702 0.081178
0.741024 0.000000 0.068116
0.884215 0.002014 0.069001
1.000000 0.065492 0.100282
0.025422 0.109834 0.094606
0.127382 0.111452 0.095033
0.259220 0.122560 0.096376
0.407782 0.129915 0.093996
0.575525 0.135470 0.085847
0.740047 0.138094 0.073793
0.883513 0.139895 0.076570
1.000000 0.149416 0.107515
0.083619 0.236088 0.077424
0.159335 0.235172 0.084840
0.262303 0.230533 0.101747
0.401740 0.249119 0.113954
0.570794 0.266941 0.104555
0.736599 0.276280 0.095064
0.880919 0.278264 0.101137
0.999237 0.279728 0.132326
0.145022 0.373022 0.048676
0.196445 0.372900 0.058228
0.300053 0.369604 0.068452
0.413855 0.364965 0.107118
0.570428 0.390875 0.124880
0.730709 0.408148 0.131807
0.876310 0.413245 0.139925
0.995178 0.412482 0.172488
0.202457 0.527916 0.000000
0.240940 0.528222 0.000000
0.341680 0.529107 0.000000
0.460670 0.520104 0.000000
0.583673 0.515526 0.106172
0.736416 0.534844 0.138857
0.869841 0.542290 0.191409
0.989014 0.542382 0.227207
0.253208 0.688838 0.000000
0.286564 0.688899 0.000000
0.380072 0.689174 0.000000
0.502403 0.686122 0.000000
0.629389 0.676387 0.000000
0.753170 0.667109 0.116365
0.877317 0.664912 0.187228
0.984741 0.663569 0.273625
0.292576 0.834714 0.000000
0.321782 0.834531 0.000000
0.406867 0.833829 0.000000
0.523491 0.832486 0.000000
0.653010 0.825254 0.000000
0.781827 0.815427 0.000000
0.896605 0.798581 0.182223
0.987427 0.777646 0.282109
0.319280 0.956359 0.000000
0.344549 0.956023 0.000000
0.421149 0.954772 0.000000
0.529290 0.952483 0.000000
0.653193 0.948089 0.000000
0.782712 0.939025 0.000000
0.908019 0.928649 0.186160
1.000000 0.905913 0.308232
0.030335 0.009491 0.192294
0.125063 0.000000 0.191897
0.264714 0.000000 0.202029
0.419532 0.000000 0.195071
0.589075 0.000000 0.180545
0.748196 0.000000 0.186954
0.888396 0.000000 0.191348
1.000000 0.000000 0.205539
0.069001 0.111879 0.191714
0.140139 0.112551 0.191348
0.269780 0.105318 0.196475
0.422370 0.074647 0.186893
0.587060 0.082460 0.186618
0.747158 0.102144 0.189975
0.887663 0.107362 0.194461
1.000000 0.123690 0.209537
0.092958 0.234318 0.194278
0.157717 0.235508 0.191806
0.273045 0.236210 0.196780
0.415961 0.250065 0.200687
0.581720 0.261143 0.200351
0.743648 0.267613 0.200137
0.884947 0.269047 0.206210
1.000000 0.271824 0.224186
0.126589 0.374487 0.183566
0.185183 0.374304 0.180301
0.306401 0.371649 0.187106
0.422797 0.369574 0.205661
0.575708 0.392493 0.220066
0.737636 0.407385 0.221012
0.880156 0.410895 0.229068
0.996918 0.410681 0.251926
0.175601 0.529473 0.159915
0.228458 0.529229 0.162997
0.344152 0.529107 0.168215
0.465858 0.521538 0.183383
0.590661 0.518700 0.211734
0.739559 0.535698 0.234134
0.873350 0.543633 0.265812
0.990387 0.543938 0.294682
0.234195 0.689937 0.131868
0.276585 0.689662 0.135622
0.380041 0.689326 0.140078
0.504204 0.687160 0.143252
0.632868 0.677394 0.178164
0.756008 0.667903 0.225406
0.878325 0.666255 0.271244
0.984131 0.667536 0.341772
0.280735 0.835325 0.109712
0.313420 0.834989 0.111543
0.402502 0.834165 0.110140
0.521172 0.832731 0.102205
0.652918 0.826047 0.141024
0.782986 0.816037 0.198825
0.896330 0.798550 0.271763
0.986694 0.780179 0.349645
0.309483 0.956756 0.119966
0.333410 0.956542 0.114260
0.412940 0.955261 0.112123
0.523674 0.952880 0.108034
0.649226 0.948974 0.110445
0.781155 0.939574 0.196628
0.907286 0.929046 0.275517
1.000000 0.906249 0.373907
0.065034 0.004913 0.305058
0.140658 0.000000 0.304692
0.264164 0.000000 0.303716
0.421515 0.000000 0.320104
0.594324 0.000000 0.321233
0.758450 0.000000 0.304936
0.896971 0.000000 0.297581
1.000000 0.000000 0.313573
0.091402 0.115358 0.304326
0.153628 0.114076 0.304112
0.271092 0.109041 0.303319
0.424872 0.074311 0.317205
0.596551 0.000000 0.315801
0.759731 0.000000 0.298924
0.895933 0.000000 0.301061
1.000000 0.000000 0.315251
0.114839 0.236637 0.303990
0.170047 0.236393 0.303807
0.287877 0.236881 0.303227
0.435431 0.230045 0.307591
0.603388 0.213596 0.298253
0.757321 0.227878 0.302647
0.892607 0.237949 0.311986
1.000000 0.243778 0.324987
0.138918 0.372259 0.308873
0.188205 0.373266 0.307530
0.305394 0.375616 0.302403
0.436255 0.376837 0.312779
0.593072 0.393317 0.318364
0.750088 0.401160 0.321630
0.887205 0.401678 0.330236
1.000000 0.401801 0.347723
0.164065 0.530968 0.305119
0.210819 0.531273 0.300328
0.333562 0.531273 0.293004
0.473884 0.525109 0.303227
0.601160 0.523766 0.322820
0.744778 0.538201 0.343267
0.879545 0.544213 0.360266
0.993011 0.544366 0.384222
0.199466 0.691981 0.284398
0.244388 0.691920 0.280583
0.366796 0.691035 0.284001
0.503655 0.690059 0.285893
0.637263 0.679774 0.307073
0.760403 0.670008 0.339757
0.879759 0.669642 0.377783
0.983093 0.675227 0.437049
0.261265 0.836301 0.285008
0.297002 0.835966 0.285588
0.392248 0.834989 0.285740
0.512963 0.833585 0.281010
0.649744 0.828061 0.291966
0.783383 0.817502 0.327092
0.895354 0.799374 0.381476
0.984985 0.785672 0.446571
0.324193 0.955749 0.318853
0.345525 0.955627 0.316594
0.409186 0.955230 0.305272
0.510307 0.953826 0.290166
0.640009 0.950072 0.288945
0.776486 0.940948 0.327642
0.904814 0.929931 0.386206
1.000000 0.907469 0.467018
0.094301 0.000000 0.429725
0.160098 0.000000 0.429450
0.283085 0.000000 0.428840
0.416754 0.000000 0.427649
0.595727 0.000000 0.453193
0.759945 0.000000 0.449775
0.898131 0.000000 0.439246
1.000000 0.000000 0.442878
0.109987 0.116396 0.429328
0.169345 0.114046 0.429145
0.288243 0.105318 0.428534
0.420874 0.086793 0.427558
0.598077 0.000000 0.450752
0.761227 0.000000 0.446632
0.898528 0.000000 0.437903
1.000000 0.000000 0.445014
0.128878 0.241489 0.429023
0.182712 0.239719 0.428901
0.300725 0.238132 0.428382
0.433722 0.233280 0.427497
0.606012 0.211337 0.442603
0.765164 0.191135 0.437201
0.899474 0.200229 0.436194
1.000000 0.254734 0.455726
0.153506 0.375433 0.428809
0.200229 0.375494 0.428687
0.314122 0.375555 0.428534
0.457160 0.376837 0.428931
0.618311 0.371954 0.429206
0.767971 0.376471 0.432532
0.896574 0.385260 0.445502
1.000000 0.386938 0.458595
0.174533 0.527977 0.437812
0.218845 0.528832 0.436652
0.331426 0.531304 0.432227
0.478096 0.532219 0.427070
0.613336 0.531182 0.443153
0.757626 0.539696 0.454414
0.888670 0.539178 0.465461
0.997223 0.538293 0.483833
0.205203 0.692683 0.438422
0.246891 0.692744 0.436103
0.357122 0.692683 0.429541
0.498878 0.691707 0.427710
0.637934 0.684749 0.435462
0.764096 0.674525 0.463203
0.880674 0.676753 0.497108
0.985687 0.679927 0.529992
0.265415 0.836362 0.439185
0.300267 0.836027 0.439521
0.399908 0.834501 0.444617
0.513787 0.833524 0.441596
0.637140 0.832456 0.427466
0.780026 0.820493 0.457221
0.892821 0.802365 0.501274
0.982269 0.794400 0.554803
0.359228 0.953674 0.473854
0.386175 0.952972 0.478614
0.460029 0.951080 0.490761
0.528649 0.951568 0.472206
0.624292 0.951293 0.441535
0.766171 0.943481 0.458289
0.899168 0.931579 0.505455
0.994354 0.910063 0.571099
0.120577 0.000000 0.578485
0.182498 0.000000 0.578393
0.307774 0.000000 0.578058
0.448005 0.000000 0.577508
0.596338 0.000000 0.577508
0.762722 0.000000 0.585077
0.898009 0.000000 0.573144
1.000000 0.000000 0.567193
0.126406 0.112001 0.578424
0.186191 0.108003 0.578332
0.310369 0.091402 0.578058
0.450660 0.028260 0.577569
0.600000 0.000000 0.578119
0.763912 0.000000 0.583398
0.898314 0.000000 0.572381
1.000000 0.030396 0.568719
0.126284 0.243565 0.578698
0.187839 0.242161 0.578668
0.315038 0.237186 0.578393
0.458106 0.227420 0.577966
0.610956 0.210727 0.579370
0.767666 0.192599 0.578332
0.899046 0.206485 0.571466
1.000000 0.263493 0.576135
0.141604 0.390265 0.579461
0.194644 0.388128 0.579431
0.316411 0.380774 0.579583
0.468238 0.377661 0.579034
0.625208 0.371801 0.579553
0.772305 0.373175 0.573907
0.898802 0.389166 0.577783
1.000000 0.423499 0.594751
0.171756 0.540093 0.580102
0.218082 0.540063 0.579980
0.333959 0.539666 0.579828
0.480751 0.539025 0.580133
0.634241 0.534295 0.580346
0.775540 0.537957 0.580804
0.895995 0.549340 0.597253
0.996887 0.562463 0.618250
0.208347 0.697169 0.582513
0.250095 0.697292 0.581720
0.361059 0.697108 0.579614
0.502251 0.695521 0.579522
0.643091 0.692195 0.583276
0.766506 0.685634 0.603296
0.885405 0.686854 0.619226
0.988830 0.684169 0.634485
0.275731 0.836362 0.579828
0.309667 0.835996 0.580346
0.407385 0.834409 0.583948
0.532830 0.831724 0.594781
0.650568 0.830594 0.599634
0.773678 0.825010 0.600793
0.888151 0.809323 0.633021
0.977722 0.808194 0.671656
0.369390 0.953094 0.597284
0.394995 0.952453 0.600275
0.472114 0.950134 0.611536
0.577966 0.946319 0.633326
0.663905 0.945617 0.633295
0.753872 0.946136 0.603265
0.890929 0.933928 0.635309
0.986267 0.914672 0.680812
0.139040 0.000000 0.742916
0.200046 0.000000 0.742824
0.329503 0.000000 0.742611
0.475654 0.000000 0.742214
0.629114 0.000000 0.741604
0.784451 0.000000 0.737453
0.901305 0.000000 0.704768
1.000000 0.000000 0.687617
0.135439 0.101289 0.742916
0.198001 0.094728 0.742855
0.328710 0.063813 0.742641
0.475929 0.000000 0.742245
0.630182 0.000000 0.741634
0.785580 0.000000 0.737087
0.901488 0.000000 0.704280
1.000000 0.092714 0.688655
0.105043 0.244266 0.743160
0.181857 0.242344 0.743099
0.323217 0.235325 0.742885
0.475624 0.222049 0.742519
0.633021 0.200534 0.741817
0.788479 0.176791 0.735836
0.901701 0.212100 0.703578
1.000000 0.274662 0.693874
0.075959 0.397040 0.743374
0.161044 0.393561 0.743374
0.309422 0.385809 0.743313
0.472206 0.380713 0.742824
0.634852 0.373205 0.742000
0.790311 0.369207 0.734493
0.900572 0.393194 0.706874
1.000000 0.429877 0.706447
0.130373 0.557214 0.742977
0.192081 0.555962 0.742916
0.323888 0.551934 0.742794
0.475319 0.547112 0.742519
0.630121 0.538262 0.742153
0.786557 0.537530 0.735775
0.897215 0.554864 0.719112
0.993805 0.581048 0.730220
0.184329 0.714870 0.742153
0.232609 0.714473 0.742061
0.352697 0.712886 0.741848
0.494667 0.709102 0.741634
0.640162 0.703304 0.741878
0.777920 0.695125 0.741085
0.892973 0.702571 0.741207
0.986175 0.717922 0.762539
0.275853 0.848142 0.725277
0.310704 0.847410 0.725338
0.407691 0.844846 0.726101
0.532189 0.840177 0.729549
0.662348 0.834409 0.737514
0.780880 0.830442 0.745418
0.884123 0.822416 0.762844
0.977447 0.820401 0.777218
0.379248 0.952605 0.717617
0.403296 0.951965 0.719356
0.477180 0.949828 0.726070
0.579675 0.946319 0.739101
0.690547 0.942199 0.758267
0.787808 0.940124 0.772183
0.879942 0.937743 0.762966
0.976989 0.922148 0.792203
0.147402 0.000000 0.890105
0.207340 0.000000 0.890074
0.336828 0.000000 0.889860
0.483864 0.000000 0.889464
0.637446 0.000000 0.888884
0.794766 0.000000 0.887968
0.935943 0.000000 0.870207
1.000000 0.000000 0.810452
0.136843 0.095735 0.890135
0.200687 0.088777 0.890074
0.333562 0.049592 0.889891
0.482307 0.000000 0.889494
0.636835 0.000000 0.888853
0.794583 0.000000 0.887938
0.935668 0.000000 0.870024
1.000000 0.121370 0.811093
0.080354 0.247044 0.890196
0.171817 0.245243 0.890135
0.320745 0.238621 0.889891
0.476112 0.226658 0.889464
0.633997 0.208743 0.888762
0.793271 0.185641 0.887724
0.934173 0.190402 0.869780
1.000000 0.285405 0.814023
0.000000 0.393866 0.890105
0.107729 0.394598 0.889921
0.298741 0.392248 0.889647
0.465339 0.388373 0.889128
0.628107 0.383520 0.888243
0.788693 0.379156 0.887053
0.929686 0.386603 0.870726
1.000000 0.436866 0.821286
0.000000 0.557122 0.888884
0.136172 0.555901 0.888823
0.299443 0.553063 0.888548
0.454597 0.549157 0.888090
0.618799 0.547662 0.887205
0.778347 0.546868 0.885985
0.920714 0.552636 0.874022
0.994659 0.586023 0.834928
0.149722 0.714961 0.886931
0.209201 0.714412 0.886870
0.338476 0.712673 0.886564
0.482948 0.710109 0.886046
0.629419 0.709529 0.885161
0.765438 0.701259 0.884886
0.907469 0.701717 0.879057
0.985962 0.721187 0.854917
0.244785 0.866392 0.884489
0.283146 0.865660 0.884459
0.385473 0.862913 0.884276
0.516320 0.857939 0.884001
0.649622 0.851041 0.883787
0.773983 0.842832 0.883940
0.889403 0.831662 0.884337
0.976959 0.841337 0.881376
0.369696 0.971557 0.854673
0.394232 0.970550 0.855100
0.469368 0.967102 0.856931
0.573754 0.961212 0.860624
0.686366 0.953613 0.866667
0.795071 0.945708 0.875822
0.891783 0.939666 0.890898
0.967712 0.936034 0.906340
