其他预设/【239】阳光逆光效果预设26款/1.LUT预设（视频调色-PR-AE-PS-FCPX-达芬奇用）/阳光逆光预设__-5.cube
# Created by Adobe Lightroom plugin Export LUT (1.17.0)
# www.johnrellis.com/lightroom/exportlut.htm
# Preset: 阳光逆光预设[素锦印象]-5
# Color profile: /Library/Application Support/Adobe/Color/Profiles/Recommended/AdobeRGB1998.icc
LUT_3D_SIZE 8
DOMAIN_MIN 0.000000 0.000000 0.000000
DOMAIN_MAX 0.903226 0.903226 0.903226
0.000000 0.000000 0.000000
0.117494 0.000000 0.000000
0.257084 0.000000 0.000000
0.407172 0.000000 0.000000
0.567132 0.000000 0.000000
0.723720 0.000000 0.000000
0.862730 0.000000 0.000000
0.983368 0.000000 0.000000
0.000000 0.112917 0.000000
0.116182 0.107546 0.000000
0.264439 0.113039 0.000000
0.416052 0.108736 0.000000
0.576471 0.091218 0.000000
0.731899 0.020020 0.000000
0.867948 0.000000 0.000000
0.986084 0.000000 0.000000
0.057008 0.240269 0.000000
0.138949 0.241001 0.000000
0.253178 0.230625 0.008972
0.419226 0.248997 0.000000
0.581720 0.248447 0.000000
0.733394 0.238071 0.000000
0.864500 0.220859 0.000000
0.983337 0.204227 0.000000
0.108034 0.377295 0.000000
0.168399 0.378668 0.000000
0.288853 0.376715 0.000000
0.403449 0.359716 0.017090
0.572168 0.378332 0.000000
0.733577 0.378607 0.000000
0.866941 0.367529 0.000000
0.985138 0.355138 0.000000
0.152682 0.522789 0.000000
0.202182 0.523278 0.000000
0.316777 0.523278 0.000000
0.445533 0.512535 0.000000
0.566461 0.496712 0.047120
0.729671 0.512902 0.000000
0.871763 0.507378 0.000000
0.987732 0.493629 0.000000
0.194247 0.666499 0.000000
0.234775 0.663966 0.000000
0.340764 0.663752 0.000000
0.471839 0.661646 0.000000
0.605280 0.650080 0.000000
0.727779 0.636164 0.078370
0.859586 0.636011 0.054688
0.982849 0.629145 0.000000
0.228519 0.798856 0.000000
0.263676 0.798154 0.000000
0.360723 0.798245 0.000000
0.485634 0.797055 0.000000
0.621302 0.791867 0.000000
0.751705 0.781033 0.000000
0.869535 0.770077 0.140902
0.973327 0.759304 0.176089
0.256321 0.924895 0.000000
0.287541 0.924804 0.000000
0.375402 0.923980 0.000000
0.492226 0.921691 0.000000
0.623621 0.922362 0.000000
0.756435 0.913664 0.000000
0.879332 0.903807 0.124697
0.987488 0.896788 0.243076
0.000000 0.000000 0.101930
0.121706 0.000000 0.103517
0.266911 0.000000 0.094453
0.418585 0.000000 0.087404
0.579522 0.000000 0.066621
0.735470 0.000000 0.000000
0.870634 0.000000 0.000000
0.988403 0.000000 0.000000
0.000000 0.113619 0.102663
0.126894 0.114534 0.101717
0.269474 0.115145 0.095979
0.422278 0.106416 0.084565
0.583886 0.080262 0.062501
0.739162 0.000000 0.000000
0.874266 0.000000 0.000000
0.991058 0.000000 0.000000
0.031647 0.246067 0.086366
0.146761 0.245243 0.091188
0.262272 0.236484 0.107424
0.428199 0.250401 0.072816
0.590234 0.248173 0.026673
0.741665 0.236515 0.000000
0.873594 0.219425 0.000000
0.989258 0.202304 0.000000
0.101839 0.384894 0.059510
0.172244 0.384741 0.065583
0.294835 0.382238 0.068940
0.415198 0.368261 0.112764
0.587915 0.386328 0.056397
0.745815 0.382727 0.000000
0.876249 0.369940 0.000000
0.990723 0.356329 0.000000
0.151919 0.526024 0.000000
0.202731 0.526787 0.000000
0.319646 0.527398 0.000000
0.452735 0.518914 0.028595
0.576135 0.503929 0.120424
0.737514 0.517510 0.071443
0.877195 0.509545 0.000000
0.991119 0.494972 0.000000
0.194278 0.670405 0.000000
0.236454 0.670192 0.000000
0.343725 0.669642 0.000000
0.475868 0.666865 0.000000
0.609796 0.654047 0.000000
0.731472 0.638819 0.132815
0.862699 0.638209 0.120485
0.985534 0.630854 0.000000
0.229343 0.803311 0.000000
0.265629 0.803738 0.000000
0.363012 0.803128 0.000000
0.488045 0.800748 0.000000
0.623835 0.794736 0.000000
0.754940 0.783963 0.073030
0.873320 0.773678 0.177829
0.976532 0.762814 0.205997
0.256260 0.927337 0.000000
0.287114 0.926909 0.000000
0.375494 0.925872 0.000000
0.492592 0.923339 0.000000
0.621881 0.920684 0.000000
0.755978 0.913298 0.000000
0.880186 0.904662 0.163149
0.988495 0.898253 0.265568
0.000000 0.000000 0.212375
0.124300 0.000000 0.212070
0.267521 0.000000 0.218601
0.421851 0.000000 0.213596
0.582330 0.000000 0.198550
0.736263 0.000000 0.193149
0.870176 0.000000 0.184634
0.987701 0.000000 0.176791
0.032197 0.113100 0.213413
0.134951 0.111604 0.213382
0.273442 0.101778 0.216648
0.427070 0.063203 0.209964
0.587488 0.000000 0.198947
0.739712 0.000000 0.193729
0.872831 0.000000 0.184787
0.989105 0.000000 0.176913
0.061433 0.244327 0.214115
0.143435 0.245518 0.212894
0.279667 0.244541 0.211002
0.431800 0.243229 0.205692
0.590570 0.236362 0.198764
0.741787 0.223941 0.190005
0.874083 0.207248 0.181674
0.989776 0.190860 0.174441
0.080629 0.385931 0.206180
0.155215 0.385809 0.200961
0.297795 0.384863 0.200381
0.424109 0.372503 0.219394
0.594934 0.383185 0.195529
0.745296 0.376410 0.183200
0.875425 0.364050 0.175082
0.990112 0.351171 0.169192
0.112917 0.529717 0.183902
0.181521 0.529625 0.181613
0.320348 0.528130 0.187716
0.457130 0.520531 0.195712
0.582177 0.506157 0.224308
0.742153 0.517052 0.200687
0.879271 0.506767 0.166537
0.991272 0.492866 0.161898
0.167117 0.672877 0.161074
0.223758 0.672236 0.164675
0.344244 0.671260 0.169772
0.478614 0.669673 0.165255
0.616022 0.657710 0.194400
0.737911 0.642695 0.232578
0.867582 0.640711 0.220768
0.987182 0.630060 0.183688
0.218662 0.803677 0.147250
0.259220 0.803677 0.149142
0.361089 0.803555 0.149142
0.488228 0.802060 0.144930
0.625666 0.797177 0.156374
0.757717 0.785580 0.206394
0.874205 0.773922 0.258427
0.976287 0.762814 0.271885
0.252354 0.928038 0.135592
0.281437 0.928283 0.131411
0.372381 0.927581 0.129458
0.490425 0.924315 0.122377
0.620874 0.921691 0.115023
0.755947 0.914366 0.172580
0.880705 0.905150 0.247807
0.987762 0.898253 0.324224
0.065919 0.000000 0.329595
0.146242 0.000000 0.328496
0.276829 0.000000 0.328222
0.429908 0.000000 0.333959
0.591363 0.000000 0.331670
0.743832 0.000000 0.321569
0.876341 0.000000 0.312718
0.991028 0.000000 0.311406
0.075044 0.110475 0.328130
0.150118 0.107759 0.327916
0.280461 0.096315 0.327916
0.432197 0.044923 0.332250
0.593561 0.000000 0.329503
0.745785 0.000000 0.319768
0.877653 0.000000 0.312627
0.991791 0.000000 0.310277
0.083711 0.246525 0.328954
0.155245 0.244938 0.328893
0.291020 0.242222 0.328313
0.441321 0.235233 0.328496
0.598383 0.218509 0.321691
0.745693 0.201694 0.312932
0.874418 0.192905 0.309300
0.990173 0.177035 0.305058
0.106447 0.384527 0.327459
0.169680 0.385657 0.327276
0.300267 0.386389 0.324773
0.447791 0.382696 0.323400
0.605341 0.380346 0.317906
0.750576 0.372381 0.313024
0.878569 0.360113 0.307897
0.991241 0.346899 0.303227
0.130465 0.530083 0.321386
0.187594 0.530816 0.319493
0.312932 0.530968 0.311833
0.465797 0.525231 0.312657
0.595239 0.512352 0.329412
0.751003 0.516075 0.311803
0.880186 0.503929 0.302739
0.991730 0.490852 0.299687
0.165896 0.672572 0.306584
0.212985 0.670771 0.303197
0.332952 0.671138 0.298131
0.478889 0.668605 0.299809
0.620447 0.658930 0.310735
0.742702 0.644404 0.337102
0.873106 0.642420 0.322942
0.990570 0.628107 0.297704
0.218082 0.804898 0.296056
0.256718 0.804440 0.295323
0.359228 0.803159 0.294438
0.484596 0.801205 0.289738
0.623529 0.798032 0.288273
0.759548 0.786404 0.318242
0.875120 0.774533 0.356939
0.978729 0.765805 0.358984
0.284062 0.926452 0.304051
0.312779 0.926024 0.305180
0.379919 0.926177 0.294957
0.484779 0.925383 0.280919
0.617731 0.922728 0.278569
0.754452 0.916411 0.296025
0.881315 0.906493 0.346685
0.986633 0.899077 0.407446
0.116732 0.000000 0.442756
0.175265 0.000000 0.442084
0.297978 0.000000 0.442267
0.437720 0.000000 0.441230
0.599023 0.000000 0.448188
0.749783 0.000000 0.442542
0.879850 0.000000 0.433082
0.992401 0.000000 0.429725
0.117067 0.107027 0.442603
0.176059 0.103151 0.441352
0.299229 0.087373 0.441352
0.440711 0.025666 0.441566
0.601434 0.000000 0.447547
0.750759 0.000000 0.441199
0.880125 0.000000 0.432563
0.992370 0.000000 0.430640
0.116640 0.244694 0.442359
0.175814 0.241581 0.442237
0.305913 0.239475 0.442695
0.450294 0.231815 0.442390
0.609308 0.214939 0.445380
0.755367 0.199954 0.438544
0.882048 0.200076 0.433021
0.992828 0.225162 0.436225
0.138369 0.386816 0.441901
0.192142 0.386603 0.442206
0.314763 0.384222 0.441779
0.462898 0.380957 0.439979
0.616297 0.375067 0.438453
0.757504 0.370581 0.434730
0.881834 0.372503 0.436683
0.992798 0.362432 0.434119
0.164279 0.530205 0.441016
0.211948 0.530571 0.440650
0.329046 0.531487 0.439155
0.473487 0.529778 0.434638
0.622217 0.524773 0.435492
0.762478 0.516838 0.431403
0.885435 0.505577 0.428748
0.994079 0.493568 0.425910
0.194583 0.677729 0.436378
0.237858 0.677668 0.435401
0.349645 0.677638 0.432898
0.489754 0.675288 0.430854
0.630762 0.670039 0.429358
0.754543 0.653223 0.447547
0.882902 0.646174 0.431098
0.992798 0.630488 0.422248
0.242466 0.807004 0.425727
0.278416 0.807065 0.425910
0.377844 0.806241 0.427100
0.505241 0.803586 0.431800
0.622950 0.802243 0.417945
0.763760 0.792111 0.433509
0.877562 0.778805 0.467597
0.983551 0.772610 0.460365
0.307256 0.928985 0.427832
0.336065 0.928710 0.429603
0.421698 0.927367 0.437079
0.523827 0.924102 0.441566
0.614282 0.925078 0.413184
0.750820 0.920989 0.414160
0.882170 0.910033 0.455787
0.984710 0.901213 0.505119
0.159060 0.000000 0.564630
0.207645 0.000000 0.564599
0.323003 0.000000 0.565942
0.461433 0.000000 0.566400
0.610376 0.000000 0.566827
0.756985 0.000000 0.562371
0.883299 0.000000 0.550225
0.993805 0.000000 0.542321
0.158175 0.098482 0.568444
0.208103 0.093294 0.568536
0.325078 0.069551 0.568902
0.464912 0.000000 0.569024
0.614191 0.000000 0.568658
0.759152 0.000000 0.562615
0.884337 0.000000 0.550469
0.994141 0.000000 0.543359
0.148135 0.241550 0.567864
0.202823 0.240452 0.568322
0.325383 0.235599 0.568872
0.468452 0.224949 0.568780
0.619745 0.207370 0.568597
0.761685 0.194369 0.560113
0.884886 0.198947 0.549859
0.993500 0.225956 0.546288
0.159823 0.389319 0.568017
0.208652 0.387915 0.568597
0.326085 0.382025 0.568963
0.472175 0.375525 0.567041
0.624933 0.367010 0.565576
0.762356 0.365240 0.555138
0.883635 0.370306 0.550622
0.990997 0.386389 0.553918
0.185763 0.536522 0.568933
0.229892 0.536065 0.568872
0.342077 0.534295 0.568627
0.482490 0.530083 0.567529
0.632166 0.523796 0.566186
0.766659 0.524315 0.559564
0.884642 0.528069 0.563256
0.988830 0.538048 0.573144
0.219760 0.681819 0.565637
0.258396 0.681086 0.564721
0.363653 0.679957 0.563348
0.499733 0.676600 0.561547
0.640925 0.671077 0.562402
0.768154 0.663783 0.565118
0.886778 0.653742 0.561334
0.990784 0.643275 0.560113
0.267460 0.806973 0.550896
0.299474 0.806363 0.550591
0.393256 0.805295 0.551598
0.518822 0.802731 0.556176
0.648798 0.799588 0.565118
0.765042 0.797604 0.559075
0.878508 0.783993 0.583001
0.986481 0.777829 0.569757
0.328893 0.929351 0.548913
0.355962 0.929107 0.550317
0.437537 0.927764 0.555718
0.546990 0.924681 0.565606
0.664057 0.921416 0.580316
0.751400 0.922881 0.554864
0.880858 0.914183 0.572686
0.980499 0.903441 0.611566
0.191135 0.000000 0.705348
0.234592 0.000000 0.705409
0.344518 0.000000 0.705531
0.480079 0.000000 0.705348
0.625910 0.000000 0.705501
0.774258 0.000000 0.705348
0.892149 0.000000 0.680720
0.996124 0.000000 0.663722
0.187381 0.087312 0.705776
0.232212 0.080385 0.705837
0.343664 0.037598 0.705928
0.480476 0.000000 0.705928
0.626703 0.000000 0.705806
0.775051 0.000000 0.705440
0.892271 0.000000 0.680415
0.995911 0.000000 0.664149
0.175723 0.241611 0.706722
0.224308 0.240055 0.706722
0.341070 0.234287 0.706661
0.480751 0.222934 0.706569
0.628504 0.205142 0.706172
0.777310 0.181582 0.705623
0.892515 0.198550 0.679896
0.995117 0.234165 0.666407
0.174411 0.388739 0.706905
0.221073 0.387030 0.707179
0.337285 0.382238 0.707240
0.480964 0.377111 0.706905
0.630365 0.369696 0.706325
0.779110 0.361273 0.705592
0.892058 0.372961 0.680659
0.993042 0.393133 0.672816
0.200931 0.536553 0.706569
0.242679 0.535698 0.706569
0.351263 0.533043 0.706600
0.488045 0.529686 0.706294
0.630793 0.523613 0.705776
0.777157 0.519890 0.704860
0.889982 0.527886 0.685695
0.989502 0.539696 0.685084
0.234440 0.682094 0.705623
0.271275 0.681697 0.705623
0.372839 0.680293 0.705501
0.504662 0.677638 0.705104
0.641047 0.673487 0.704433
0.771786 0.666285 0.703822
0.887327 0.669215 0.695247
0.984894 0.675807 0.702968
0.281102 0.820859 0.697871
0.312932 0.820218 0.697627
0.404974 0.817716 0.696925
0.527184 0.812894 0.696620
0.654475 0.806699 0.697383
0.776089 0.800809 0.700496
0.885405 0.795621 0.705348
0.984680 0.786923 0.703609
0.350134 0.930083 0.678187
0.375158 0.929595 0.678950
0.451453 0.927947 0.682155
0.555138 0.925353 0.688167
0.668757 0.922271 0.697871
0.780636 0.919524 0.711452
0.874723 0.920226 0.701015
0.974182 0.908263 0.731289
0.198489 0.000000 0.850675
0.240787 0.000000 0.850736
0.348760 0.000000 0.850858
0.482490 0.000000 0.851011
0.625116 0.000000 0.851072
0.769192 0.000000 0.851133
0.909483 0.000000 0.851133
0.999481 0.000000 0.802609
0.193210 0.072999 0.850950
0.237034 0.064881 0.851011
0.346929 0.000000 0.851072
0.481697 0.000000 0.851194
0.624842 0.000000 0.851255
0.769100 0.000000 0.851255
0.909392 0.000000 0.851194
0.999145 0.000000 0.802884
0.177493 0.239048 0.851682
0.225376 0.237491 0.851713
0.341039 0.231815 0.851743
0.478950 0.221286 0.851743
0.623743 0.205539 0.851713
0.768582 0.186984 0.851591
0.908568 0.172000 0.851438
0.997833 0.231632 0.804074
0.151766 0.382269 0.852537
0.210300 0.382574 0.852506
0.333501 0.379980 0.852476
0.475196 0.375555 0.852415
0.621668 0.369329 0.852232
0.766690 0.362982 0.852018
0.905730 0.359838 0.851713
0.994903 0.391058 0.807584
0.177584 0.529473 0.852842
0.224063 0.528679 0.852903
0.337438 0.526421 0.852934
0.473671 0.523919 0.852811
0.619776 0.521386 0.852537
0.763058 0.519097 0.852232
0.899535 0.518486 0.851926
0.990173 0.537530 0.814389
0.221225 0.674342 0.853025
0.259648 0.673915 0.853025
0.362554 0.672541 0.852995
0.493446 0.671077 0.852842
0.628595 0.669734 0.852537
0.757748 0.663783 0.852659
0.890379 0.662776 0.852506
0.984070 0.673762 0.824735
0.270176 0.817685 0.853025
0.302556 0.817288 0.853025
0.394781 0.815732 0.852995
0.515404 0.812985 0.852995
0.642115 0.809140 0.852995
0.764157 0.804318 0.853056
0.877989 0.797147 0.853422
0.976532 0.803799 0.841001
0.333257 0.951080 0.844175
0.359594 0.950195 0.844053
0.437568 0.947173 0.843626
0.544518 0.941924 0.843229
0.660670 0.935058 0.843412
0.774716 0.927550 0.845121
0.881529 0.920989 0.850462
0.968811 0.919188 0.863828
