其他预设/【239】阳光逆光效果预设26款/1.LUT预设（视频调色-PR-AE-PS-FCPX-达芬奇用）/阳光逆光预设__-10.cube
# Created by Adobe Lightroom plugin Export LUT (1.17.0)
# www.johnrellis.com/lightroom/exportlut.htm
# Preset: 阳光逆光预设[素锦印象]-10
# Color profile: /Library/Application Support/Adobe/Color/Profiles/Recommended/AdobeRGB1998.icc
LUT_3D_SIZE 5
DOMAIN_MIN 0.000000 0.000000 0.000000
DOMAIN_MAX 0.903226 0.903226 0.903226
0.217441 0.162600 0.155917
0.382086 0.151217 0.152651
0.651759 0.141634 0.145327
0.866026 0.174105 0.146304
1.000000 0.227573 0.158297
0.228977 0.304021 0.153017
0.376104 0.298802 0.152102
0.622095 0.311315 0.173129
0.859281 0.313756 0.150149
1.000000 0.331609 0.163180
0.258885 0.538415 0.139528
0.378729 0.534600 0.135988
0.628626 0.545464 0.128573
0.817594 0.541985 0.234623
0.998260 0.568627 0.279118
0.292027 0.747951 0.115572
0.384314 0.745785 0.112093
0.580743 0.738827 0.098421
0.814359 0.752468 0.115633
0.993194 0.755337 0.267308
0.328557 0.948363 0.079438
0.399237 0.946990 0.074098
0.567315 0.941527 0.037110
0.766934 0.941009 0.046143
0.970336 0.944884 0.135744
0.242771 0.157839 0.274174
0.382086 0.151064 0.272862
0.646235 0.046387 0.265171
0.862882 0.158419 0.264286
1.000000 0.251591 0.273747
0.252659 0.300877 0.271702
0.385107 0.294347 0.270878
0.643458 0.291691 0.266636
0.856291 0.313390 0.270420
1.000000 0.348913 0.278599
0.274296 0.537743 0.257084
0.384375 0.535607 0.251194
0.626795 0.538262 0.253269
0.808530 0.549432 0.331579
1.000000 0.573754 0.339055
0.316075 0.746578 0.238926
0.401434 0.744686 0.238041
0.587640 0.737911 0.230198
0.815579 0.750332 0.248966
0.988983 0.760342 0.356146
0.359380 0.946563 0.224430
0.421912 0.945281 0.222293
0.580194 0.942382 0.215915
0.772122 0.940612 0.215061
0.972168 0.944884 0.256687
0.312016 0.145357 0.464424
0.417456 0.133577 0.462867
0.632715 0.105531 0.462470
0.839231 0.154452 0.450202
1.000000 0.259312 0.446418
0.284916 0.273777 0.466072
0.408026 0.272251 0.463996
0.635157 0.275975 0.463203
0.841276 0.300511 0.453498
1.000000 0.360937 0.454322
0.307958 0.535607 0.460945
0.411658 0.533684 0.460822
0.638178 0.530846 0.461341
0.842344 0.552483 0.472023
1.000000 0.579675 0.483345
0.362066 0.743801 0.427039
0.445197 0.740352 0.430213
0.624781 0.735012 0.440284
0.821195 0.745602 0.454017
0.976806 0.775570 0.534997
0.401801 0.942870 0.408453
0.468208 0.941436 0.414435
0.616724 0.938323 0.421118
0.782650 0.935424 0.409918
0.975036 0.942260 0.448676
0.370764 0.132509 0.652949
0.444709 0.123110 0.652094
0.624292 0.110811 0.650904
0.825803 0.160159 0.653742
0.998566 0.266148 0.639979
0.364782 0.261875 0.653773
0.441901 0.259953 0.653407
0.625269 0.266056 0.650538
0.823911 0.298772 0.651972
0.996246 0.357916 0.642695
0.347112 0.485847 0.655360
0.426978 0.484688 0.655482
0.630793 0.501884 0.651789
0.822538 0.525689 0.652033
0.997803 0.548425 0.653651
0.395605 0.735317 0.651453
0.467201 0.733974 0.650782
0.634638 0.732784 0.651087
0.821988 0.736172 0.655055
0.996185 0.770626 0.682094
0.449836 0.940093 0.622705
0.504356 0.938720 0.624994
0.640467 0.936126 0.630213
0.802304 0.933471 0.631983
0.976318 0.940093 0.657313
0.397345 0.117617 0.899809
0.457557 0.112673 0.899687
0.615198 0.115053 0.898344
0.806668 0.175265 0.896025
0.989197 0.267399 0.899962
0.399329 0.256474 0.901213
0.460304 0.256901 0.900969
0.618769 0.265629 0.899443
0.808896 0.301915 0.897429
0.988342 0.359197 0.901091
0.392859 0.470375 0.903838
0.462715 0.477211 0.903441
0.629938 0.495766 0.901762
0.812284 0.515343 0.899992
0.984497 0.543206 0.902495
0.407477 0.701930 0.904936
0.465980 0.702937 0.905486
0.611719 0.703151 0.906065
0.805234 0.718837 0.903319
0.977264 0.743740 0.903685
0.452155 0.937133 0.906706
0.502129 0.937194 0.907195
0.634333 0.936309 0.906584
0.805753 0.936706 0.906920
0.969787 0.942901 0.912688
