其他预设/【239】阳光逆光效果预设26款/1.LUT预设（视频调色-PR-AE-PS-FCPX-达芬奇用）/阳光逆光预设__-24.cube
# Created by Adobe Lightroom plugin Export LUT (1.17.0)
# www.johnrellis.com/lightroom/exportlut.htm
# Preset: 阳光逆光预设[素锦印象]-24
# Color profile: /Library/Application Support/Adobe/Color/Profiles/Recommended/AdobeRGB1998.icc
LUT_3D_SIZE 32
0.000000 0.000000 0.000000
0.000000 0.000000 0.000000
0.000000 0.000000 0.000000
0.036652 0.000000 0.000000
0.076600 0.000000 0.000000
0.102388 0.000000 0.000000
0.130617 0.000000 0.000000
0.159823 0.000000 0.000000
0.190860 0.000000 0.000000
0.223239 0.000000 0.000000
0.257328 0.000000 0.000000
0.292241 0.000000 0.000000
0.328405 0.000000 0.000000
0.365698 0.000000 0.000000
0.404395 0.000000 0.000000
0.444434 0.000000 0.000000
0.485847 0.000000 0.000000
0.528588 0.000000 0.000000
0.572625 0.000000 0.000000
0.619471 0.000000 0.000000
0.668208 0.000000 0.000000
0.717464 0.000000 0.000000
0.766476 0.000000 0.000000
0.814176 0.000000 0.000000
0.857481 0.000000 0.000000
0.896452 0.000000 0.000000
0.931395 0.000000 0.000000
0.962860 0.000000 0.000000
0.991363 0.000000 0.000000
1.000000 0.000000 0.000000
1.000000 0.000000 0.000000
1.000000 0.000000 0.000000
0.000000 0.000000 0.000000
0.000000 0.000000 0.000000
0.000000 0.000000 0.000000
0.039368 0.000000 0.000000
0.076997 0.000000 0.000000
0.103090 0.000000 0.000000
0.130739 0.000000 0.000000
0.160037 0.000000 0.000000
0.190890 0.000000 0.000000
0.223484 0.000000 0.000000
0.257389 0.000000 0.000000
0.292393 0.000000 0.000000
0.328496 0.000000 0.000000
0.365911 0.000000 0.000000
0.404578 0.000000 0.000000
0.444526 0.000000 0.000000
0.485939 0.000000 0.000000
0.528710 0.000000 0.000000
0.572778 0.000000 0.000000
0.619532 0.000000 0.000000
0.668299 0.000000 0.000000
0.717525 0.000000 0.000000
0.766537 0.000000 0.000000
0.814206 0.000000 0.000000
0.857511 0.000000 0.000000
0.896422 0.000000 0.000000
0.931426 0.000000 0.000000
0.962860 0.000000 0.000000
0.991363 0.000000 0.000000
1.000000 0.000000 0.000000
1.000000 0.000000 0.000000
1.000000 0.000000 0.000000
0.000000 0.000000 0.000000
0.000000 0.000000 0.000000
0.000000 0.000000 0.000000
0.043946 0.000000 0.000000
0.077272 0.000000 0.000000
0.103395 0.000000 0.000000
0.130953 0.000000 0.000000
0.160159 0.000000 0.000000
0.191073 0.000000 0.000000
0.223606 0.000000 0.000000
0.257603 0.000000 0.000000
0.292515 0.000000 0.000000
0.328679 0.000000 0.000000
0.366094 0.000000 0.000000
0.404639 0.000000 0.000000
0.444709 0.000000 0.000000
0.486061 0.000000 0.000000
0.528801 0.000000 0.000000
0.572930 0.000000 0.000000
0.619623 0.000000 0.000000
0.668513 0.000000 0.000000
0.717678 0.000000 0.000000
0.766659 0.000000 0.000000
0.814298 0.000000 0.000000
0.857633 0.000000 0.000000
0.896483 0.000000 0.000000
0.931426 0.000000 0.000000
0.962860 0.000000 0.000000
0.991363 0.000000 0.000000
1.000000 0.000000 0.000000
1.000000 0.000000 0.000000
1.000000 0.000000 0.000000
0.000000 0.038483 0.000000
0.000000 0.040894 0.000000
0.000000 0.044282 0.000000
0.041596 0.040070 0.000000
0.076936 0.037629 0.000000
0.103853 0.032013 0.000000
0.131411 0.027436 0.000000
0.160647 0.024292 0.000000
0.191562 0.019593 0.000000
0.224063 0.017578 0.000000
0.257939 0.016907 0.000000
0.292943 0.017426 0.000000
0.328954 0.011994 0.000000
0.366339 0.002564 0.000000
0.405035 0.000000 0.000000
0.445014 0.000000 0.000000
0.486427 0.000000 0.000000
0.529168 0.000000 0.000000
0.573236 0.000000 0.000000
0.619959 0.000000 0.000000
0.668757 0.000000 0.000000
0.717891 0.000000 0.000000
0.766873 0.000000 0.000000
0.814481 0.000000 0.000000
0.857725 0.000000 0.000000
0.896574 0.000000 0.000000
0.931487 0.000000 0.000000
0.962890 0.000000 0.000000
0.991333 0.000000 0.000000
1.000000 0.000000 0.000000
1.000000 0.000000 0.000000
1.000000 0.000000 0.000000
0.000000 0.073671 0.000000
0.000000 0.074464 0.000000
0.000000 0.074739 0.000000
0.041291 0.074128 0.000000
0.073671 0.069856 0.000000
0.099092 0.070924 0.000000
0.131655 0.073335 0.000000
0.161440 0.073976 0.000000
0.192386 0.074647 0.000000
0.224796 0.076234 0.000000
0.258549 0.077790 0.000000
0.293492 0.078614 0.000000
0.329534 0.077913 0.000000
0.366888 0.076814 0.000000
0.405493 0.074250 0.000000
0.445441 0.070954 0.000000
0.486824 0.065248 0.000000
0.529595 0.055695 0.000000
0.573693 0.033448 0.000000
0.620508 0.004334 0.000000
0.669215 0.000000 0.000000
0.718379 0.000000 0.000000
0.767300 0.000000 0.000000
0.814817 0.000000 0.000000
0.857939 0.000000 0.000000
0.896696 0.000000 0.000000
0.931548 0.000000 0.000000
0.962890 0.000000 0.000000
0.991333 0.000000 0.000000
1.000000 0.000000 0.000000
1.000000 0.000000 0.000000
1.000000 0.000000 0.000000
0.000000 0.098573 0.000000
0.000000 0.099367 0.000000
0.000000 0.099123 0.000000
0.041444 0.099489 0.000000
0.077638 0.097169 0.000000
0.098268 0.092287 0.000000
0.122499 0.094240 0.000000
0.157351 0.100496 0.000000
0.193179 0.104738 0.000000
0.225650 0.107393 0.000000
0.259281 0.109621 0.000000
0.294224 0.111025 0.000000
0.330175 0.112184 0.000000
0.367590 0.112764 0.000000
0.406134 0.113039 0.000000
0.446174 0.112276 0.000000
0.487556 0.110689 0.000000
0.530175 0.108492 0.000000
0.574273 0.104952 0.000000
0.621180 0.100710 0.000000
0.669856 0.095460 0.000000
0.718990 0.088136 0.000000
0.767819 0.079072 0.000000
0.815244 0.068177 0.000000
0.858244 0.048493 0.000000
0.896880 0.008942 0.000000
0.931640 0.000000 0.000000
0.962921 0.000000 0.000000
0.991302 0.000000 0.000000
1.000000 0.000000 0.000000
1.000000 0.000000 0.000000
1.000000 0.000000 0.000000
0.000000 0.125521 0.000000
0.000000 0.125490 0.000000
0.000000 0.125643 0.000000
0.047883 0.125643 0.000000
0.081849 0.125734 0.000000
0.105989 0.121370 0.000000
0.124514 0.116426 0.000000
0.147494 0.117922 0.000000
0.184543 0.127047 0.000000
0.222782 0.133639 0.000000
0.260380 0.138308 0.000000
0.295171 0.140963 0.000000
0.331121 0.143160 0.000000
0.368505 0.144930 0.000000
0.407050 0.146395 0.000000
0.446998 0.147189 0.000000
0.488380 0.147494 0.000000
0.531029 0.147555 0.000000
0.575128 0.146914 0.000000
0.621973 0.145937 0.000000
0.670680 0.144778 0.000000
0.719722 0.142733 0.000000
0.768460 0.139895 0.000000
0.815763 0.135927 0.000000
0.858579 0.131014 0.000000
0.897093 0.124910 0.000000
0.931731 0.118379 0.000000
0.962951 0.110811 0.000000
0.991272 0.102266 0.000000
1.000000 0.093477 0.000000
1.000000 0.083925 0.000000
1.000000 0.073518 0.000000
0.000000 0.153201 0.000000
0.000000 0.153262 0.000000
0.009430 0.153353 0.000000
0.059113 0.153414 0.000000
0.087037 0.153719 0.000000
0.112856 0.152102 0.000000
0.134768 0.147524 0.000000
0.153048 0.142611 0.000000
0.175235 0.143343 0.004852
0.214145 0.154238 0.000000
0.253971 0.162387 0.000000
0.294194 0.168643 0.000000
0.332250 0.172610 0.000000
0.369482 0.175387 0.000000
0.408148 0.177798 0.000000
0.448035 0.179843 0.000000
0.489387 0.181491 0.000000
0.531975 0.182895 0.000000
0.576135 0.184115 0.000000
0.623102 0.185122 0.000000
0.671626 0.185977 0.000000
0.720607 0.186221 0.000000
0.769253 0.185946 0.000000
0.816373 0.184817 0.000000
0.858976 0.182284 0.000000
0.897337 0.178988 0.000000
0.931853 0.174594 0.000000
0.962982 0.169467 0.000000
0.991211 0.164187 0.000000
1.000000 0.158450 0.000000
1.000000 0.152499 0.000000
1.000000 0.146456 0.000000
0.000000 0.182925 0.000000
0.000000 0.183017 0.000000
0.018097 0.183139 0.000000
0.064088 0.183261 0.000000
0.091981 0.183505 0.000000
0.118929 0.183780 0.000000
0.143465 0.180758 0.000000
0.164920 0.176150 0.000000
0.183536 0.171206 0.000000
0.204807 0.170352 0.010864
0.245121 0.182376 0.000000
0.286076 0.191501 0.000000
0.327886 0.198978 0.000000
0.370703 0.204959 0.000000
0.409430 0.208438 0.000000
0.449226 0.211521 0.000000
0.490578 0.214206 0.000000
0.533196 0.216983 0.000000
0.577325 0.219150 0.000000
0.624262 0.221866 0.000000
0.672724 0.224460 0.000000
0.721614 0.226230 0.000000
0.770169 0.227420 0.000000
0.817075 0.227939 0.000000
0.859464 0.226902 0.000000
0.897642 0.224247 0.000000
0.932006 0.221012 0.000000
0.962982 0.217136 0.000000
0.991150 0.212650 0.000000
1.000000 0.207645 0.000000
1.000000 0.202609 0.000000
1.000000 0.197574 0.000000
0.000000 0.214237 0.000000
0.000000 0.214389 0.000000
0.027070 0.214481 0.000000
0.068696 0.214603 0.000000
0.096620 0.214939 0.000000
0.123995 0.215244 0.000000
0.150790 0.214847 0.000000
0.174685 0.210666 0.000000
0.196353 0.206088 0.000000
0.215885 0.201175 0.000000
0.236759 0.199283 0.012848
0.277073 0.211154 0.000000
0.319402 0.221347 0.000000
0.362615 0.229831 0.000000
0.406958 0.237034 0.000000
0.450660 0.242588 0.000000
0.491981 0.246342 0.000000
0.534539 0.249912 0.000000
0.578668 0.253422 0.000000
0.625574 0.257298 0.000000
0.674067 0.261143 0.000000
0.722805 0.264317 0.000000
0.771237 0.266880 0.000000
0.817868 0.268406 0.000000
0.859983 0.268009 0.000000
0.897948 0.266484 0.000000
0.932158 0.263828 0.000000
0.963043 0.260258 0.000000
0.991089 0.255985 0.000000
1.000000 0.251469 0.000000
1.000000 0.246616 0.000000
1.000000 0.241703 0.000000
0.000000 0.246891 0.000000
0.001495 0.246983 0.000000
0.031495 0.247135 0.000000
0.072175 0.247257 0.000000
0.100740 0.247440 0.000000
0.128573 0.247837 0.000000
0.156313 0.248234 0.000000
0.182773 0.246433 0.000000
0.206821 0.242008 0.000000
0.229068 0.237369 0.000000
0.249271 0.232212 0.000000
0.270756 0.229953 0.007477
0.310033 0.241062 0.000000
0.353704 0.252293 0.000000
0.398535 0.261875 0.000000
0.444434 0.270115 0.000000
0.491615 0.277409 0.000000
0.535973 0.282719 0.000000
0.580194 0.287175 0.000000
0.627222 0.292241 0.000000
0.675563 0.297002 0.000000
0.724147 0.301274 0.000000
0.772488 0.304936 0.000000
0.818753 0.307286 0.000000
0.860594 0.307713 0.000000
0.898314 0.306584 0.000000
0.932311 0.304173 0.000000
0.963043 0.300786 0.000000
0.990967 0.296880 0.000000
1.000000 0.292271 0.000000
1.000000 0.287541 0.000000
1.000000 0.282689 0.000000
0.000000 0.280827 0.000000
0.000000 0.280949 0.000000
0.033692 0.280888 0.000000
0.074159 0.281041 0.000000
0.103792 0.281254 0.000000
0.132174 0.281682 0.000000
0.160861 0.282017 0.000000
0.189303 0.282506 0.000000
0.215702 0.278904 0.000000
0.240238 0.274418 0.000000
0.262974 0.269505 0.000000
0.283909 0.264439 0.000000
0.305760 0.261692 0.000000
0.344121 0.272007 0.000000
0.389197 0.284245 0.000000
0.435462 0.294865 0.000000
0.482979 0.304387 0.000000
0.531762 0.312871 0.000000
0.581872 0.320745 0.000000
0.628931 0.326848 0.000000
0.677180 0.332677 0.000000
0.725612 0.337865 0.000000
0.773739 0.342199 0.000000
0.819730 0.345342 0.000000
0.861265 0.346258 0.000000
0.898680 0.345434 0.000000
0.932494 0.343328 0.000000
0.963043 0.340063 0.000000
0.990845 0.336065 0.000000
1.000000 0.331548 0.000000
1.000000 0.326726 0.000000
1.000000 0.321691 0.000000
0.000000 0.315801 0.000000
0.000000 0.315923 0.000000
0.031281 0.316045 0.000000
0.074708 0.316136 0.000000
0.105531 0.316411 0.000000
0.135592 0.316716 0.000000
0.165011 0.317113 0.000000
0.194247 0.317510 0.000000
0.223331 0.316991 0.000000
0.249851 0.312627 0.000000
0.274876 0.307927 0.000000
0.298131 0.302861 0.000000
0.319646 0.297642 0.000000
0.341833 0.294591 0.000000
0.379156 0.303838 0.000000
0.425696 0.317266 0.000000
0.473610 0.329137 0.000000
0.522667 0.339696 0.000000
0.573571 0.349676 0.000000
0.627192 0.359838 0.000000
0.679011 0.368017 0.000000
0.727291 0.373999 0.000000
0.775174 0.379248 0.000000
0.820768 0.382910 0.000000
0.861936 0.384222 0.000000
0.899107 0.383581 0.000000
0.932677 0.381506 0.000000
0.963043 0.378302 0.000000
0.990723 0.374212 0.000000
1.000000 0.369543 0.000000
1.000000 0.364569 0.000000
1.000000 0.359289 0.000000
0.000000 0.352270 0.000000
0.000000 0.352270 0.000000
0.025757 0.352361 0.000000
0.074586 0.352514 0.000000
0.107088 0.352758 0.000000
0.138369 0.353033 0.000000
0.168826 0.353399 0.000000
0.199039 0.353857 0.000000
0.229374 0.354314 0.000000
0.258396 0.352148 0.000000
0.285344 0.347539 0.000000
0.310765 0.342657 0.000000
0.334569 0.337530 0.000000
0.356634 0.332128 0.000000
0.378698 0.328344 0.000000
0.415290 0.336767 0.000000
0.463416 0.351476 0.000000
0.512810 0.364446 0.000000
0.564172 0.376684 0.000000
0.618402 0.388983 0.000000
0.673457 0.400153 0.000000
0.727810 0.409674 0.000000
0.776761 0.416052 0.000000
0.821927 0.420142 0.000000
0.862669 0.421698 0.000000
0.899504 0.421302 0.000000
0.932830 0.419196 0.000000
0.962982 0.415900 0.000000
0.990539 0.411749 0.000000
1.000000 0.406897 0.000000
1.000000 0.401678 0.000000
1.000000 0.396155 0.000000
0.000000 0.389929 0.000000
0.000000 0.389960 0.000000
0.018067 0.389990 0.000000
0.074556 0.390204 0.000000
0.108705 0.390448 0.000000
0.140902 0.390784 0.000000
0.172549 0.391058 0.000000
0.203647 0.391547 0.000000
0.234745 0.392065 0.000000
0.265995 0.392615 0.000000
0.294774 0.388556 0.000000
0.322087 0.383825 0.000000
0.348058 0.378668 0.000000
0.372351 0.373419 0.000000
0.394965 0.367864 0.000000
0.416876 0.363348 0.000000
0.452491 0.370855 0.000000
0.502220 0.386694 0.000000
0.554009 0.401556 0.000000
0.608850 0.416266 0.000000
0.664790 0.429908 0.000000
0.720058 0.441535 0.000000
0.773861 0.451148 0.000000
0.823056 0.457191 0.000000
0.863401 0.458869 0.000000
0.899931 0.458564 0.000000
0.932952 0.456397 0.000000
0.962951 0.453071 0.000000
0.990326 0.448707 0.000000
1.000000 0.443732 0.000000
1.000000 0.438178 0.000000
1.000000 0.432380 0.000000
0.000000 0.429114 0.000000
0.000000 0.429145 0.000000
0.009644 0.429206 0.000000
0.073121 0.429328 0.000000
0.109743 0.429511 0.000000
0.143404 0.429877 0.000000
0.175845 0.430182 0.000000
0.207828 0.430701 0.000000
0.240055 0.431189 0.000000
0.271916 0.431769 0.000000
0.303471 0.430854 0.000000
0.332616 0.426398 0.000000
0.360327 0.421363 0.000000
0.386633 0.416175 0.000000
0.411353 0.410651 0.000000
0.434546 0.404913 0.000000
0.456214 0.399512 0.000000
0.490913 0.406073 0.000000
0.543236 0.423957 0.000000
0.598566 0.441505 0.000000
0.655390 0.457832 0.000000
0.711666 0.471809 0.000000
0.766384 0.483589 0.000000
0.817380 0.491768 0.000000
0.862272 0.495583 0.000000
0.900328 0.495674 0.000000
0.933104 0.493446 0.000000
0.962860 0.489937 0.000000
0.990051 0.485359 0.000000
1.000000 0.479988 0.000000
1.000000 0.474250 0.000000
1.000000 0.468208 0.000000
0.000000 0.469642 0.000000
0.000000 0.469734 0.000000
0.000000 0.469764 0.000000
0.070832 0.469947 0.000000
0.109895 0.470161 0.000000
0.145235 0.470436 0.000000
0.178897 0.470832 0.000000
0.212039 0.471321 0.000000
0.245090 0.471839 0.000000
0.277928 0.472358 0.000000
0.310857 0.473091 0.000000
0.342290 0.470405 0.000000
0.371679 0.465614 0.000000
0.399786 0.460426 0.000000
0.426642 0.454994 0.000000
0.451881 0.449317 0.000000
0.475532 0.443488 0.000000
0.497536 0.437659 0.000000
0.531731 0.443610 0.000000
0.587549 0.464271 0.000000
0.645319 0.483742 0.000000
0.702449 0.500450 0.000000
0.758206 0.514519 0.000000
0.810452 0.524956 0.000000
0.856443 0.530297 0.000000
0.897002 0.531823 0.000000
0.932891 0.530205 0.000000
0.962737 0.526513 0.000000
0.989746 0.521660 0.000000
1.000000 0.516075 0.000000
1.000000 0.510002 0.000000
1.000000 0.503563 0.000000
0.000000 0.511742 0.000000
0.000000 0.511772 0.000000
0.000000 0.511894 0.000000
0.067597 0.511986 0.000000
0.109865 0.512261 0.000000
0.146487 0.512596 0.000000
0.181765 0.512993 0.000000
0.215915 0.513451 0.000000
0.249943 0.514000 0.000000
0.283757 0.514672 0.000000
0.317479 0.515557 0.000000
0.351385 0.516289 0.000000
0.382696 0.511742 0.000000
0.412848 0.506889 0.000000
0.441627 0.501823 0.000000
0.468940 0.496437 0.000000
0.495125 0.490944 0.000000
0.519615 0.485206 0.000000
0.542565 0.479469 0.000000
0.576532 0.484657 0.000000
0.634516 0.507195 0.000000
0.692714 0.527001 0.000000
0.749477 0.543786 0.000000
0.802976 0.556634 0.000000
0.850034 0.563928 0.000000
0.891508 0.566857 0.000000
0.928130 0.566278 0.000000
0.960723 0.563012 0.000000
0.989410 0.557824 0.000000
1.000000 0.551873 0.000000
1.000000 0.545434 0.000000
1.000000 0.538720 0.000000
0.000000 0.556634 0.000000
0.000000 0.556695 0.000000
0.000000 0.556756 0.000000
0.061372 0.556970 0.000000
0.108095 0.557275 0.000000
0.147646 0.557671 0.000000
0.184298 0.558160 0.000000
0.220005 0.558679 0.000000
0.255161 0.559442 0.000000
0.290043 0.560235 0.000000
0.324926 0.561120 0.000000
0.359808 0.562127 0.000000
0.394079 0.561303 0.000000
0.426093 0.556786 0.000000
0.456886 0.551995 0.000000
0.486549 0.546929 0.000000
0.514916 0.541680 0.000000
0.541894 0.536339 0.000000
0.567498 0.530846 0.000000
0.591669 0.525322 0.000000
0.626459 0.530541 0.000000
0.682307 0.551385 0.000000
0.740108 0.571191 0.000000
0.794888 0.586816 0.000000
0.843168 0.596277 0.000000
0.885618 0.600855 0.000000
0.923033 0.601465 0.000000
0.956237 0.599084 0.000000
0.986023 0.594354 0.000000
1.000000 0.587823 0.000000
1.000000 0.580743 0.000000
1.000000 0.573632 0.000000
0.000000 0.604578 0.000000
0.000000 0.604608 0.000000
0.000000 0.604730 0.000000
0.044862 0.604944 0.000000
0.105776 0.605219 0.000000
0.147707 0.605615 0.000000
0.186526 0.605982 0.000000
0.223728 0.606561 0.000000
0.260258 0.607294 0.000000
0.296269 0.608057 0.000000
0.332219 0.608911 0.000000
0.368048 0.609888 0.000000
0.404059 0.610895 0.000000
0.438422 0.608301 0.000000
0.471229 0.603876 0.000000
0.502892 0.599145 0.000000
0.533379 0.594324 0.000000
0.562737 0.589288 0.000000
0.590845 0.584070 0.000000
0.617578 0.578851 0.000000
0.642878 0.573571 0.000000
0.677089 0.577630 0.000000
0.730190 0.596368 0.000000
0.786191 0.615076 0.000000
0.835782 0.627131 0.000000
0.879271 0.633570 0.000000
0.917510 0.635584 0.000000
0.951446 0.634272 0.000000
0.981750 0.630396 0.000000
1.000000 0.624506 0.000000
1.000000 0.617029 0.000000
1.000000 0.608362 0.000000
0.000000 0.653529 0.000000
0.000000 0.653590 0.000000
0.000000 0.653651 0.000000
0.012665 0.653864 0.000000
0.101167 0.654078 0.000000
0.147005 0.654353 0.000000
0.187747 0.654810 0.000000
0.226383 0.655360 0.000000
0.264256 0.655940 0.000000
0.301488 0.656611 0.000000
0.338567 0.657465 0.000000
0.375402 0.658289 0.000000
0.412207 0.659266 0.000000
0.448981 0.659968 0.000000
0.483528 0.655940 0.000000
0.517082 0.651667 0.000000
0.549554 0.647150 0.000000
0.580987 0.642451 0.000000
0.611170 0.637659 0.000000
0.640192 0.632685 0.000000
0.667964 0.627771 0.000000
0.694423 0.622797 0.000000
0.727626 0.625330 0.000000
0.777066 0.641260 0.000000
0.828000 0.656184 0.000000
0.872526 0.664851 0.000000
0.911650 0.668513 0.000000
0.946227 0.668452 0.000000
0.977111 0.665553 0.000000
1.000000 0.660456 0.000000
1.000000 0.653681 0.000000
1.000000 0.646021 0.000000
0.000000 0.702693 0.000000
0.000000 0.702785 0.000000
0.000000 0.702785 0.000000
0.000000 0.702968 0.000000
0.094331 0.703212 0.000000
0.144656 0.703517 0.000000
0.187839 0.703914 0.000000
0.228153 0.704280 0.000000
0.267308 0.704860 0.000000
0.305913 0.705440 0.000000
0.343786 0.706142 0.000000
0.381628 0.706905 0.000000
0.419318 0.707759 0.000000
0.456825 0.708614 0.000000
0.493721 0.707637 0.000000
0.528954 0.703700 0.000000
0.563104 0.699550 0.000000
0.596307 0.695247 0.000000
0.628504 0.690822 0.000000
0.659480 0.686152 0.000000
0.689387 0.681575 0.000000
0.718044 0.676875 0.000000
0.745449 0.672297 0.000000
0.776761 0.672694 0.000000
0.819699 0.683314 0.000000
0.865354 0.694484 0.000000
0.905425 0.700130 0.000000
0.940734 0.701503 0.000000
0.972168 0.699733 0.000000
1.000000 0.695552 0.000000
1.000000 0.689906 0.000000
1.000000 0.683589 0.000000
0.000000 0.751156 0.000000
0.000000 0.751186 0.000000
0.000000 0.751278 0.000000
0.000000 0.751339 0.000000
0.084443 0.751492 0.000000
0.140810 0.751675 0.000000
0.186709 0.751949 0.000000
0.228672 0.752224 0.000000
0.269352 0.752590 0.000000
0.308721 0.752926 0.000000
0.347570 0.753353 0.000000
0.385962 0.753780 0.000000
0.424170 0.754238 0.000000
0.462165 0.754665 0.000000
0.500053 0.755123 0.000000
0.536797 0.752529 0.000000
0.572412 0.748653 0.000000
0.607050 0.744686 0.000000
0.640742 0.740536 0.000000
0.673396 0.736324 0.000000
0.704952 0.731991 0.000000
0.735378 0.727535 0.000000
0.764584 0.723201 0.000000
0.792599 0.718868 0.000000
0.820951 0.716335 0.000000
0.857816 0.722225 0.000000
0.898833 0.730098 0.000000
0.934905 0.733181 0.000000
0.966918 0.732784 0.000000
0.995636 0.729915 0.000000
1.000000 0.725551 0.000000
1.000000 0.720699 0.000000
0.000000 0.795529 0.000000
0.000000 0.795529 0.000000
0.000000 0.795529 0.000000
0.000000 0.795560 0.000000
0.072969 0.795651 0.000000
0.135897 0.795712 0.000000
0.184237 0.795804 0.000000
0.227726 0.795895 0.000000
0.269444 0.795987 0.000000
0.309422 0.796078 0.000000
0.348821 0.796231 0.000000
0.387762 0.796323 0.000000
0.426215 0.796414 0.000000
0.464424 0.796475 0.000000
0.502403 0.796567 0.000000
0.540093 0.796262 0.000000
0.576806 0.792721 0.000000
0.612573 0.788998 0.000000
0.647395 0.785183 0.000000
0.681209 0.781216 0.000000
0.713985 0.777188 0.000000
0.745754 0.773068 0.000000
0.776394 0.768948 0.000000
0.805905 0.764767 0.000000
0.834134 0.760708 0.000000
0.860166 0.756069 0.000000
0.891905 0.758175 0.000000
0.928771 0.763333 0.000000
0.961364 0.764584 0.000000
0.990509 0.763210 0.000000
1.000000 0.760311 0.000000
1.000000 0.757046 0.000000
0.000000 0.835477 0.000000
0.000000 0.835477 0.000000
0.000000 0.835447 0.000000
0.000000 0.835447 0.000000
0.057801 0.835447 0.000000
0.130343 0.835416 0.000000
0.181094 0.835355 0.000000
0.225589 0.835294 0.000000
0.267887 0.835233 0.000000
0.308659 0.835142 0.000000
0.348241 0.835050 0.000000
0.387549 0.834897 0.000000
0.426123 0.834745 0.000000
0.464363 0.834501 0.000000
0.502373 0.834257 0.000000
0.540032 0.833982 0.000000
0.577478 0.832334 0.000000
0.614038 0.828946 0.000000
0.649653 0.825345 0.000000
0.684382 0.821653 0.000000
0.718135 0.817807 0.000000
0.750881 0.813931 0.000000
0.782589 0.810025 0.000000
0.813199 0.806149 0.000000
0.842679 0.802243 0.000000
0.870848 0.798428 0.000000
0.895140 0.792447 0.000000
0.922332 0.791592 0.003998
0.955566 0.794736 0.000000
0.985107 0.795010 0.000000
1.000000 0.793668 0.000000
1.000000 0.792050 0.000000
0.000000 0.871519 0.000000
0.000000 0.871519 0.000000
0.000000 0.871489 0.000000
0.000000 0.871427 0.000000
0.028260 0.871336 0.000000
0.124666 0.871244 0.000000
0.176944 0.871122 0.000000
0.222751 0.870939 0.000000
0.265537 0.870726 0.000000
0.306462 0.870451 0.000000
0.346410 0.870176 0.000000
0.385534 0.869841 0.000000
0.424262 0.869474 0.000000
0.462470 0.869047 0.000000
0.500328 0.868559 0.000000
0.537804 0.868040 0.000000
0.575097 0.867430 0.000000
0.612238 0.864775 0.000000
0.648524 0.861418 0.000000
0.683894 0.857939 0.000000
0.718349 0.854398 0.000000
0.751919 0.850736 0.000000
0.784390 0.847044 0.000000
0.815885 0.843320 0.000000
0.846159 0.839628 0.000000
0.875364 0.835935 0.000000
0.903319 0.832364 0.000000
0.926665 0.826169 0.000000
0.949615 0.822843 0.111238
0.979492 0.824857 0.104799
1.000000 0.825162 0.103029
1.000000 0.825315 0.109651
0.000000 0.904082 0.000000
0.000000 0.904051 0.000000
0.000000 0.903990 0.000000
0.000000 0.903929 0.000000
0.001343 0.903777 0.000000
0.119295 0.903655 0.000000
0.173220 0.903441 0.000000
0.219425 0.903197 0.000000
0.262455 0.902861 0.000000
0.303593 0.902525 0.000000
0.343481 0.902098 0.000000
0.382605 0.901640 0.000000
0.421088 0.901122 0.000000
0.459144 0.900511 0.000000
0.496834 0.899870 0.000000
0.534081 0.899168 0.000000
0.571130 0.898375 0.000000
0.607904 0.897276 0.000000
0.644709 0.894133 0.000000
0.680659 0.890837 0.000000
0.715633 0.887480 0.000000
0.749752 0.884031 0.000000
0.782925 0.880491 0.000000
0.815061 0.876982 0.000000
0.846128 0.873411 0.000000
0.876127 0.869871 0.000000
0.904936 0.866423 0.000000
0.932311 0.863066 0.000000
0.954864 0.857206 0.004059
0.975067 0.852842 0.156832
1.000000 0.854276 0.172671
1.000000 0.856107 0.182071
0.000000 0.933654 0.000000
0.000000 0.933623 0.000000
0.000000 0.933593 0.000000
0.000000 0.933501 0.000000
0.000000 0.933318 0.000000
0.114839 0.933135 0.000000
0.169711 0.932891 0.000000
0.216098 0.932586 0.000000
0.259098 0.932189 0.000000
0.300175 0.931762 0.000000
0.339971 0.931243 0.000000
0.378912 0.930694 0.000000
0.417212 0.930053 0.000000
0.454994 0.929351 0.000000
0.492409 0.928588 0.000000
0.529320 0.927733 0.000000
