其他预设/【239】阳光逆光效果预设26款/1.LUT预设（视频调色-PR-AE-PS-FCPX-达芬奇用）/阳光逆光预设__-18.cube
# Created by Adobe Lightroom plugin Export LUT (1.17.0)
# www.johnrellis.com/lightroom/exportlut.htm
# Preset: 阳光逆光预设[素锦印象]-18
# Color profile: /Library/Application Support/Adobe/Color/Profiles/Recommended/AdobeRGB1998.icc
LUT_3D_SIZE 5
DOMAIN_MIN 0.000000 0.000000 0.000000
DOMAIN_MAX 0.903226 0.903226 0.903226
0.000000 0.000000 0.000000
0.265507 0.018769 0.000793
0.543053 0.064027 0.000000
0.795987 0.113710 0.000000
0.997620 0.171145 0.000000
0.077058 0.251438 0.000000
0.265354 0.249393 0.000000
0.531823 0.268498 0.000000
0.790280 0.281712 0.000000
0.994385 0.298558 0.050477
0.173251 0.516320 0.000000
0.309300 0.513542 0.000000
0.548791 0.514305 0.000000
0.777340 0.514611 0.079103
0.983246 0.521355 0.147524
0.259281 0.761105 0.000000
0.357885 0.759030 0.000000
0.567041 0.753597 0.000000
0.798978 0.749935 0.000000
0.979889 0.726162 0.162051
0.347906 0.960296 0.000000
0.416388 0.958587 0.000000
0.588403 0.952850 0.000000
0.789242 0.945586 0.000000
0.996429 0.936767 0.058625
0.070924 0.004547 0.178347
0.277379 0.000000 0.181186
0.559075 0.000000 0.156863
0.801846 0.131411 0.155032
0.999878 0.186435 0.163424
0.099397 0.256138 0.173526
0.281804 0.256382 0.170718
0.547387 0.276921 0.169162
0.796353 0.290501 0.162509
0.996643 0.308202 0.175326
0.172885 0.521752 0.137667
0.325292 0.517815 0.149111
0.556939 0.517601 0.141390
0.779599 0.522057 0.193668
0.985382 0.528862 0.218296
0.271702 0.762814 0.096803
0.372595 0.760311 0.109773
0.575402 0.754513 0.120455
0.802487 0.751034 0.103883
0.979950 0.731350 0.236942
0.364843 0.960204 0.126192
0.430091 0.958495 0.133486
0.597192 0.952789 0.157351
0.793973 0.945434 0.176181
0.997192 0.937011 0.183932
0.157809 0.000000 0.348943
0.302129 0.000000 0.347845
0.573266 0.000000 0.349920
0.816464 0.000000 0.326757
1.000000 0.208591 0.324773
0.159701 0.249241 0.346136
0.306340 0.241550 0.345037
0.578180 0.249943 0.342626
0.816526 0.265263 0.323400
1.000000 0.321569 0.328771
0.206668 0.528405 0.334325
0.336706 0.529625 0.330877
0.580987 0.527276 0.328466
0.801266 0.536706 0.336034
0.994842 0.539666 0.345098
0.294224 0.767941 0.305028
0.397925 0.765499 0.309331
0.600092 0.758175 0.319341
0.812192 0.754208 0.316533
0.980682 0.748928 0.377996
0.434302 0.958740 0.321935
0.506462 0.955840 0.338537
0.619806 0.953277 0.327794
0.807034 0.945312 0.339757
0.999268 0.938018 0.341772
0.250980 0.000000 0.517388
0.357733 0.000000 0.516686
0.589319 0.000000 0.513878
0.830320 0.000000 0.493965
1.000000 0.228305 0.470924
0.240818 0.239536 0.516106
0.353826 0.234867 0.515343
0.592187 0.218112 0.512230
0.830442 0.265995 0.490608
1.000000 0.346319 0.475105
0.255528 0.520470 0.507622
0.358923 0.517571 0.507012
0.599115 0.513451 0.503532
0.828428 0.539178 0.487587
1.000000 0.562249 0.492164
0.332280 0.778988 0.483772
0.424750 0.776883 0.483009
0.628931 0.768734 0.485267
0.823423 0.760800 0.494331
0.993835 0.757778 0.513085
0.455451 0.961517 0.467231
0.519310 0.958984 0.475196
0.674281 0.952178 0.502495
0.818509 0.947478 0.507591
0.999725 0.940124 0.514061
0.281407 0.000000 0.767178
0.375036 0.000000 0.767086
0.589197 0.000000 0.766812
0.839353 0.000000 0.765805
1.000000 0.224460 0.677668
0.267857 0.237003 0.767575
0.366766 0.233158 0.767483
0.586175 0.220523 0.767086
0.838102 0.218448 0.765866
1.000000 0.342626 0.680964
0.236576 0.496040 0.768124
0.341894 0.492927 0.768154
0.580621 0.499336 0.767025
0.829862 0.501122 0.765866
1.000000 0.559777 0.696040
0.296178 0.767453 0.767361
0.387304 0.766201 0.767330
0.586633 0.759731 0.767422
0.810910 0.751461 0.767636
0.997681 0.774868 0.733455
0.427985 0.982635 0.726894
0.490089 0.979583 0.728542
0.651240 0.969512 0.736446
0.834134 0.955016 0.756985
0.981323 0.945373 0.799008
