其他预设/【239】阳光逆光效果预设26款/1.LUT预设（视频调色-PR-AE-PS-FCPX-达芬奇用）/阳光逆光预设__-22.cube
# Created by Adobe Lightroom plugin Export LUT (1.17.0)
# www.johnrellis.com/lightroom/exportlut.htm
# Preset: 阳光逆光预设[素锦印象]-22
# Color profile: /Library/Application Support/Adobe/Color/Profiles/Recommended/AdobeRGB1998.icc
LUT_3D_SIZE 8
DOMAIN_MIN 0.000000 0.000000 0.000000
DOMAIN_MAX 0.903226 0.903226 0.903226
0.000000 0.000000 0.000000
0.076173 0.000000 0.000000
0.189761 0.000000 0.000000
0.323827 0.000000 0.000000
0.472297 0.000000 0.000000
0.636530 0.000000 0.000000
0.812100 0.000000 0.000000
0.956146 0.000000 0.000000
0.000000 0.073274 0.000000
0.073671 0.069856 0.000000
0.191165 0.074128 0.000000
0.324895 0.076844 0.000000
0.473182 0.063813 0.000000
0.637324 0.000000 0.000000
0.812589 0.000000 0.000000
0.956268 0.000000 0.000000
0.000000 0.181765 0.000000
0.091279 0.182406 0.000000
0.182376 0.170016 0.000000
0.323095 0.196201 0.000000
0.476326 0.208255 0.000000
0.640223 0.214084 0.000000
0.814298 0.214878 0.000000
0.956603 0.204532 0.000000
0.000000 0.310948 0.000000
0.104372 0.311498 0.000000
0.219821 0.311742 0.000000
0.314549 0.292943 0.000000
0.460121 0.320073 0.000000
0.645411 0.349859 0.000000
0.817166 0.363806 0.000000
0.957153 0.360754 0.000000
0.000000 0.454994 0.000000
0.108980 0.455329 0.000000
0.237888 0.456458 0.000000
0.359838 0.450050 0.000000
0.460121 0.428992 0.000000
0.614374 0.460822 0.000000
0.812222 0.502251 0.000000
0.957610 0.503624 0.000000
0.000000 0.619318 0.000000
0.105013 0.619715 0.000000
0.253300 0.621118 0.000000
0.391638 0.623621 0.000000
0.521233 0.611963 0.000000
0.632776 0.593622 0.000000
0.784054 0.620691 0.000000
0.945220 0.642695 0.000000
0.000000 0.791958 0.000000
0.080110 0.792050 0.000000
0.259190 0.792325 0.000000
0.407599 0.792691 0.000000
0.551507 0.791562 0.000000
0.685664 0.777920 0.000000
0.804440 0.763485 0.000000
0.923186 0.766171 0.086976
0.000000 0.931182 0.000000
0.023346 0.930968 0.000000
0.252171 0.930297 0.000000
0.403143 0.929046 0.000000
0.546532 0.927123 0.000000
0.687434 0.920928 0.000000
0.820005 0.909270 0.000000
0.936797 0.897917 0.091920
0.000000 0.000000 0.067689
0.078309 0.000000 0.067842
0.191714 0.000000 0.069368
0.326085 0.000000 0.055726
0.474464 0.000000 0.003418
0.638575 0.000000 0.000000
0.813748 0.000000 0.000000
0.957214 0.000000 0.000000
0.000000 0.073823 0.068238
0.080476 0.073457 0.067994
0.193606 0.071229 0.064302
0.327153 0.056031 0.048463
0.475227 0.000000 0.000000
0.639368 0.000000 0.000000
0.814206 0.000000 0.000000
0.957305 0.000000 0.000000
0.000000 0.182193 0.064637
0.087312 0.183017 0.058991
0.187839 0.173831 0.071626
0.329534 0.194614 0.015808
0.478248 0.201297 0.000000
0.642237 0.203708 0.000000
0.815854 0.201144 0.000000
0.957610 0.188937 0.000000
0.000000 0.312200 0.000000
0.091737 0.312261 0.000000
0.218143 0.313390 0.000000
0.318334 0.295384 0.064454
0.465522 0.321477 0.000000
0.647181 0.346105 0.000000
0.818570 0.358129 0.000000
0.958068 0.354376 0.000000
0.000000 0.455848 0.000000
0.091127 0.456092 0.000000
0.233341 0.457038 0.000000
0.360204 0.451820 0.000000
0.462959 0.430945 0.015351
0.618830 0.462867 0.000000
0.815000 0.500816 0.000000
0.958434 0.500420 0.000000
0.000000 0.620111 0.000000
0.077516 0.620447 0.000000
0.246403 0.621759 0.000000
0.388983 0.624170 0.000000
0.521965 0.613367 0.000000
0.634882 0.595026 0.000000
0.786893 0.622126 0.000000
0.946685 0.641962 0.000000
0.000000 0.792569 0.000000
0.000000 0.792691 0.000000
0.250431 0.792874 0.000000
0.403723 0.793179 0.000000
0.549950 0.792447 0.000000
0.686091 0.778683 0.000000
0.805570 0.764096 0.000000
0.924407 0.766964 0.124269
0.000000 0.931579 0.000000
0.000000 0.931395 0.000000
0.243748 0.930694 0.000000
0.399145 0.929381 0.000000
0.544488 0.927398 0.000000
0.686671 0.921386 0.000000
0.820401 0.909575 0.000000
0.937316 0.898100 0.133120
0.000000 0.000000 0.152163
0.095827 0.000000 0.152193
0.198367 0.000000 0.153231
0.332433 0.000000 0.159945
0.480812 0.000000 0.152468
0.645441 0.000000 0.133761
0.819150 0.000000 0.111543
0.960632 0.000000 0.079591
0.000000 0.077119 0.152132
0.093507 0.071687 0.152132
0.201053 0.058991 0.153017
0.334112 0.000000 0.155459
0.482307 0.000000 0.145113
0.646143 0.000000 0.131594
0.819547 0.000000 0.107546
0.960693 0.000000 0.073793
0.000000 0.182925 0.150698
0.091157 0.183505 0.150576
0.204349 0.183780 0.150484
0.338231 0.182589 0.145632
0.484871 0.177615 0.137667
0.648676 0.166232 0.122225
0.820951 0.146090 0.092805
0.960845 0.124788 0.037690
0.000000 0.313024 0.151797
0.079225 0.313848 0.147890
0.213657 0.315007 0.139773
0.329534 0.302312 0.154910
0.483314 0.322942 0.132906
0.653193 0.333654 0.100862
0.823331 0.339086 0.046082
0.961028 0.333013 0.000000
0.000000 0.457160 0.133883
0.020844 0.457954 0.126497
0.220554 0.459052 0.114931
0.361181 0.457893 0.112642
0.472175 0.436805 0.153170
0.634028 0.468574 0.130861
0.824674 0.494423 0.000000
0.961089 0.489876 0.000000
0.000000 0.621942 0.070619
0.000000 0.622766 0.027924
0.224186 0.623957 0.000000
0.380926 0.625940 0.000000
0.524071 0.618189 0.040894
0.641932 0.599634 0.137453
0.796597 0.626520 0.137148
0.951659 0.638972 0.000000
0.000000 0.794553 0.000000
0.000000 0.794736 0.000000
0.218997 0.794736 0.000000
0.390448 0.794766 0.000000
0.544335 0.794522 0.000000
0.687404 0.781277 0.000000
0.809293 0.766293 0.133028
0.928832 0.769619 0.202945
0.000000 0.932891 0.000000
0.000000 0.932769 0.000000
0.213382 0.931975 0.000000
0.385718 0.930510 0.000000
0.537713 0.928313 0.000000
0.683864 0.923064 0.000000
0.821714 0.910582 0.000000
0.939086 0.898802 0.219699
0.077485 0.000000 0.250736
0.129122 0.000000 0.250675
0.227085 0.000000 0.250584
0.341558 0.000000 0.252049
0.489052 0.000000 0.261509
0.653651 0.000000 0.263249
0.826108 0.000000 0.254002
0.965423 0.000000 0.234073
0.054932 0.069581 0.250980
0.119387 0.064057 0.251011
0.225254 0.021271 0.250706
0.343359 0.000000 0.252049
0.490364 0.000000 0.259373
0.654810 0.000000 0.259495
0.826902 0.000000 0.248661
0.965698 0.000000 0.229618
0.000000 0.194369 0.250401
0.101076 0.190982 0.250431
0.219974 0.183291 0.250248
0.348119 0.176181 0.250370
0.494301 0.153964 0.251438
0.658900 0.086732 0.245518
0.829313 0.000000 0.232486
0.965850 0.000000 0.222660
0.000000 0.313970 0.247562
0.100313 0.314275 0.247410
0.220981 0.315251 0.246708
0.350774 0.314733 0.246586
0.499214 0.314549 0.240696
0.663447 0.311101 0.233310
0.831174 0.303685 0.222477
0.965728 0.295567 0.212406
0.000000 0.458259 0.250217
0.074342 0.458839 0.248569
0.219028 0.460639 0.242130
0.361517 0.461646 0.234470
0.487678 0.446082 0.251194
0.659815 0.472633 0.231388
0.833494 0.479744 0.205905
0.965332 0.472297 0.196201
0.000000 0.623133 0.242435
0.000000 0.623896 0.238834
0.205295 0.626429 0.225437
0.367651 0.628779 0.211398
0.526390 0.626673 0.212131
0.653925 0.607080 0.248936
0.812802 0.631891 0.242008
0.960632 0.631098 0.193179
0.000000 0.795254 0.216129
0.000000 0.795682 0.210697
0.182071 0.796963 0.190921
0.367132 0.797421 0.172122
0.535027 0.796536 0.163973
0.689265 0.785916 0.195499
0.815793 0.769802 0.256413
0.936278 0.773800 0.292088
0.000000 0.933165 0.175967
0.000000 0.933196 0.170871
0.189883 0.933104 0.153841
0.364599 0.932250 0.128969
0.527794 0.929686 0.120363
0.678126 0.926177 0.110231
0.824063 0.912383 0.220737
0.941955 0.899962 0.319280
0.128023 0.000000 0.358312
0.167391 0.000000 0.358251
0.260533 0.000000 0.358282
0.373053 0.000000 0.357977
0.499794 0.000000 0.360021
0.665278 0.000000 0.375677
0.833402 0.000000 0.380560
0.968627 0.000000 0.369421
0.109621 0.046998 0.358709
0.155764 0.026429 0.358618
0.256168 0.000000 0.358526
0.372412 0.000000 0.358068
0.501091 0.000000 0.359899
0.666377 0.000000 0.374304
0.834134 0.000000 0.378210
0.968902 0.000000 0.367102
0.038788 0.193118 0.358679
0.117952 0.187167 0.358862
0.242741 0.180179 0.358556
0.370764 0.169833 0.357763
0.505272 0.150057 0.359075
0.670069 0.070008 0.369146
0.836545 0.000000 0.369848
0.969696 0.000000 0.359442
0.016052 0.328313 0.356573
0.115877 0.326909 0.356634
0.234623 0.321691 0.356603
0.368505 0.314763 0.355962
0.511101 0.308995 0.355810
0.675959 0.291020 0.358953
0.840116 0.265446 0.354711
0.970459 0.259922 0.347753
0.000000 0.459449 0.352972
0.113069 0.459785 0.352819
0.236728 0.460609 0.352300
0.370489 0.462226 0.351385
0.513115 0.461158 0.351232
0.682460 0.460639 0.344060
0.842802 0.455787 0.338476
0.970336 0.450324 0.334295
0.000000 0.624811 0.361273
0.012696 0.625544 0.360143
0.221805 0.627771 0.356054
0.367376 0.631006 0.347936
0.522423 0.633722 0.336187
0.670283 0.616907 0.357488
0.835019 0.632593 0.342290
0.968658 0.618860 0.323583
0.000000 0.796231 0.356725
0.000000 0.796597 0.354681
0.200565 0.797726 0.347356
0.363348 0.798978 0.334844
0.521996 0.799252 0.319249
0.690120 0.792966 0.324773
0.824460 0.774502 0.372259
0.946441 0.778439 0.387152
0.000000 0.933349 0.335973
0.000000 0.933349 0.334234
0.212009 0.933135 0.328649
0.375555 0.932189 0.321813
0.521263 0.930877 0.307591
0.676814 0.927092 0.304662
0.827878 0.915007 0.348943
0.945373 0.901640 0.425971
0.178561 0.000000 0.487495
0.212711 0.000000 0.487526
0.302403 0.000000 0.487709
0.417060 0.000000 0.487831
0.543816 0.000000 0.487892
0.681331 0.000000 0.489967
0.842130 0.000000 0.502251
0.972320 0.000000 0.492744
0.161837 0.000000 0.487953
0.200168 0.000000 0.487984
0.296025 0.000000 0.488106
0.414557 0.000000 0.488167
0.543633 0.000000 0.488045
0.682307 0.000000 0.489967
0.842741 0.000000 0.501213
0.972503 0.000000 0.491554
0.085267 0.182803 0.489113
0.152621 0.180453 0.489113
0.274540 0.171450 0.489052
0.406165 0.153384 0.488899
0.542657 0.120607 0.488594
0.685817 0.003784 0.489784
0.844663 0.000000 0.497627
0.973053 0.000000 0.487465
0.000000 0.339849 0.488685
0.118807 0.336248 0.488808
0.243870 0.323369 0.489448
0.390478 0.311681 0.489418
0.540246 0.301488 0.488746
0.690822 0.286717 0.488655
0.847471 0.263432 0.491279
0.973419 0.261845 0.481636
0.000000 0.486824 0.487282
0.105287 0.485756 0.487343
0.241215 0.481605 0.487587
0.379706 0.473487 0.487861
0.532189 0.461280 0.487739
0.695918 0.455726 0.485878
0.849546 0.452552 0.484199
0.971557 0.463386 0.481575
0.000000 0.633631 0.484749
0.081483 0.633906 0.484718
0.236271 0.634760 0.484504
0.379187 0.635859 0.484047
0.532616 0.636072 0.482979
0.695583 0.633387 0.484657
0.849607 0.629847 0.479500
0.969421 0.626062 0.479103
0.000000 0.797391 0.488777
0.000000 0.797665 0.487984
0.220340 0.798611 0.485267
0.376379 0.799527 0.480568
0.537591 0.798856 0.477119
0.696651 0.796719 0.475898
0.834562 0.780880 0.505913
0.958282 0.783444 0.499580
0.000000 0.933501 0.473610
0.000000 0.933410 0.472847
0.235355 0.933104 0.470100
0.391424 0.931884 0.467506
0.553399 0.928435 0.473182
0.695216 0.925170 0.475563
0.835294 0.918273 0.488014
0.948119 0.904112 0.550530
0.212009 0.000000 0.650141
0.244633 0.000000 0.650172
0.333989 0.000000 0.650416
0.450538 0.000000 0.650752
0.579767 0.000000 0.651148
0.716060 0.000000 0.651514
0.853056 0.000000 0.648096
0.973968 0.000000 0.631128
0.194919 0.000000 0.650599
0.231052 0.000000 0.650660
0.325902 0.000000 0.650843
0.446326 0.000000 0.651148
0.578027 0.000000 0.651453
0.715724 0.000000 0.651789
0.853391 0.000000 0.648005
0.974060 0.000000 0.630640
0.121157 0.172396 0.652003
0.178958 0.168948 0.652003
0.298253 0.156497 0.652125
0.432166 0.129671 0.652308
0.571679 0.069947 0.652461
0.714290 0.000000 0.652583
0.854398 0.000000 0.647700
0.974334 0.000000 0.628962
0.000000 0.334874 0.653040
0.071870 0.329686 0.653254
0.244022 0.315160 0.653803
0.406653 0.306767 0.653773
0.560082 0.293736 0.653681
0.711147 0.276280 0.653529
0.855344 0.259159 0.647028
0.974151 0.264500 0.626978
0.000000 0.497230 0.652888
0.004730 0.495003 0.653010
0.230777 0.486854 0.653529
0.379980 0.471962 0.654383
0.542382 0.459998 0.654536
0.705501 0.454444 0.653956
0.854765 0.452827 0.646052
0.971618 0.466590 0.628901
0.000000 0.651514 0.652369
0.000000 0.650629 0.652461
0.223850 0.647669 0.652735
0.378698 0.642084 0.653101
0.540154 0.636225 0.653193
0.704585 0.635492 0.652308
0.851316 0.638025 0.646326
0.965454 0.648615 0.641688
0.000000 0.804746 0.651240
0.000000 0.804837 0.651270
0.215824 0.804868 0.651270
0.378607 0.804471 0.651270
0.544915 0.802518 0.650996
0.710231 0.797177 0.649439
0.846067 0.792874 0.653864
0.961151 0.790707 0.651911
0.000000 0.933501 0.628809
0.044373 0.933379 0.628443
0.247166 0.932891 0.627436
0.404273 0.931243 0.627222
0.565850 0.927367 0.631678
0.720729 0.921813 0.645502
0.843626 0.919066 0.653742
0.948455 0.908324 0.687526
0.197787 0.000000 0.822965
0.233188 0.000000 0.823026
0.326909 0.000000 0.823239
0.445808 0.000000 0.823636
0.575067 0.000000 0.824155
0.709285 0.000000 0.824796
0.845701 0.000000 0.825437
0.975067 0.000000 0.814389
0.179446 0.000000 0.823362
0.218967 0.000000 0.823423
0.318486 0.000000 0.823636
0.441199 0.000000 0.824002
0.572595 0.000000 0.824460
0.708064 0.000000 0.825040
0.845304 0.000000 0.825650
0.974975 0.000000 0.814328
0.096437 0.159915 0.824613
0.164004 0.156680 0.824643
0.290105 0.143374 0.824796
0.425544 0.115450 0.825101
0.564080 0.041077 0.825437
0.703883 0.000000 0.825864
0.843717 0.000000 0.826352
0.974334 0.000000 0.814237
0.000000 0.316594 0.826322
0.000000 0.315526 0.826352
0.239231 0.311315 0.826444
0.400183 0.303868 0.826627
0.550561 0.293156 0.826810
0.696986 0.279881 0.827085
0.840604 0.265843 0.827359
0.972595 0.263493 0.814267
0.000000 0.483406 0.827024
0.000000 0.481209 0.827146
0.202396 0.473793 0.827543
0.370459 0.463020 0.828061
0.536522 0.460670 0.828031
0.690425 0.458869 0.828000
0.837095 0.459358 0.827909
0.968231 0.468696 0.814633
0.000000 0.637995 0.827756
0.000000 0.636927 0.827848
0.201358 0.633326 0.828122
0.373907 0.628565 0.828458
0.542779 0.630304 0.828153
0.698634 0.637659 0.827543
0.837613 0.641932 0.827420
0.960937 0.650568 0.816587
0.000000 0.787869 0.828580
0.000000 0.787411 0.828611
0.203128 0.785794 0.828824
0.382177 0.783963 0.828946
0.551904 0.784360 0.828702
0.711025 0.789670 0.828031
0.841367 0.794888 0.827909
0.953582 0.799344 0.822293
0.000000 0.935576 0.829526
0.000000 0.935393 0.829557
0.213993 0.934661 0.829648
0.395270 0.932830 0.829770
0.564660 0.929503 0.829831
0.717159 0.925078 0.830076
0.845487 0.920226 0.830289
0.947051 0.917357 0.837034
