其他预设/【239】阳光逆光效果预设26款/1.LUT预设（视频调色-PR-AE-PS-FCPX-达芬奇用）/阳光逆光预设__-2.cube
# Created by Adobe Lightroom plugin Export LUT (1.17.0)
# www.johnrellis.com/lightroom/exportlut.htm
# Preset: 阳光逆光预设[素锦印象]-2
# Color profile: /Library/Application Support/Adobe/Color/Profiles/Recommended/AdobeRGB1998.icc
LUT_3D_SIZE 8
DOMAIN_MIN 0.000000 0.000000 0.000000
DOMAIN_MAX 0.903226 0.903226 0.903226
0.000000 0.000000 0.000000
0.169650 0.000000 0.002564
0.367590 0.000000 0.000000
0.567742 0.000000 0.000000
0.748562 0.000000 0.000000
0.876707 0.124331 0.000000
0.973053 0.209171 0.000000
1.000000 0.279423 0.026947
0.038972 0.152987 0.000000
0.172641 0.150729 0.000000
0.359869 0.153201 0.000000
0.563287 0.148989 0.000000
0.745602 0.164065 0.000000
0.874693 0.205722 0.000000
0.971588 0.258518 0.000000
1.000000 0.313573 0.063416
0.111757 0.320714 0.000000
0.207034 0.317723 0.000000
0.373480 0.313085 0.000000
0.554620 0.319158 0.000000
0.735470 0.335393 0.000000
0.867826 0.351690 0.000000
0.966583 0.375647 0.005066
1.000000 0.406317 0.112917
0.196353 0.489021 0.000000
0.264836 0.486824 0.000000
0.414527 0.480598 0.000000
0.579095 0.476143 0.000000
0.738155 0.483711 0.000000
0.856596 0.491615 0.099153
0.958099 0.504387 0.125765
1.000000 0.520775 0.174960
0.283757 0.646052 0.000000
0.334905 0.644007 0.000000
0.463905 0.637018 0.000000
0.612299 0.629450 0.000000
0.751797 0.624170 0.000000
0.864622 0.619654 0.000000
0.951080 0.622889 0.177554
1.000000 0.635370 0.248020
0.364813 0.770443 0.000000
0.402411 0.768704 0.000000
0.506920 0.762905 0.000000
0.635676 0.754421 0.000000
0.760647 0.748745 0.000000
0.873289 0.745602 0.000000
0.956451 0.734646 0.130861
1.000000 0.735286 0.266453
0.438605 0.875731 0.000000
0.466407 0.874327 0.000000
0.549126 0.869688 0.000000
0.658106 0.862669 0.030274
0.768093 0.856046 0.082490
0.870115 0.851987 0.094148
0.962127 0.850248 0.111940
1.000000 0.833402 0.235874
0.509575 0.964935 0.145357
0.530114 0.963836 0.148501
0.593378 0.960235 0.159884
0.682368 0.954650 0.179690
0.777768 0.948333 0.207706
0.867613 0.943938 0.222995
0.951202 0.941192 0.237217
1.000000 0.940063 0.255680
0.023590 0.001495 0.115846
0.178408 0.000000 0.118135
0.379431 0.000000 0.099306
0.573693 0.000000 0.094362
0.751553 0.000000 0.075685
0.877867 0.135409 0.066163
0.973388 0.215244 0.083467
1.000000 0.283452 0.123476
0.048341 0.155550 0.114626
0.185061 0.155093 0.112001
0.371313 0.160494 0.110353
0.569543 0.157900 0.098787
0.748623 0.172152 0.080629
0.875883 0.212284 0.074220
0.971984 0.263401 0.092073
1.000000 0.317113 0.131807
0.111788 0.324285 0.090059
0.224247 0.319799 0.101228
0.380591 0.315190 0.096468
0.557794 0.324071 0.119356
0.738949 0.339849 0.105013
0.869200 0.355383 0.102480
0.966949 0.378882 0.121279
1.000000 0.409064 0.160098
0.203372 0.490883 0.058808
0.277043 0.488045 0.070588
0.421759 0.481697 0.073182
0.582940 0.477302 0.044007
0.739345 0.485328 0.105409
0.858091 0.494240 0.151553
0.958465 0.506767 0.169467
1.000000 0.523156 0.207431
0.292363 0.646784 0.000000
0.342138 0.644709 0.000000
0.469123 0.637751 0.000000
0.615412 0.630030 0.000000
0.753475 0.624872 0.000000
0.864805 0.620386 0.120577
0.950744 0.624781 0.213840
1.000000 0.637446 0.271611
0.371008 0.770657 0.000000
0.407721 0.768948 0.000000
0.510887 0.763180 0.000000
0.638270 0.754604 0.061921
0.761959 0.749081 0.051575
0.873838 0.745937 0.050904
0.956176 0.735195 0.177371
1.000000 0.736843 0.292088
0.443519 0.875639 0.092744
0.471015 0.874296 0.096376
0.552453 0.869657 0.108156
0.660273 0.862699 0.128328
0.769375 0.856077 0.145876
0.870603 0.852110 0.152316
0.962036 0.850431 0.163210
1.000000 0.833982 0.264042
0.513695 0.964752 0.185702
0.533806 0.963653 0.188205
0.596338 0.960082 0.197024
0.684413 0.954528 0.213382
0.779019 0.948241 0.237400
0.868162 0.943908 0.251591
0.951141 0.941222 0.264103
1.000000 0.940154 0.280827
0.092470 0.000000 0.231052
0.194522 0.000000 0.230472
0.388220 0.000000 0.235538
0.589380 0.000000 0.225223
0.765499 0.000000 0.202213
0.883330 0.112856 0.209262
0.975494 0.213840 0.216526
1.000000 0.285557 0.233249
0.105013 0.152773 0.230014
0.204959 0.146914 0.229313
0.393347 0.137911 0.229923
0.591699 0.084535 0.216648
0.761776 0.121767 0.208164
0.881254 0.204807 0.212436
0.974029 0.263890 0.219944
1.000000 0.319982 0.237919
0.143038 0.326970 0.226658
0.232761 0.326574 0.223789
0.399512 0.321233 0.222477
0.580224 0.329412 0.225895
0.751431 0.339544 0.222263
0.874479 0.357031 0.224063
0.968872 0.382300 0.233951
1.000000 0.413611 0.254978
0.202640 0.496498 0.214420
0.274113 0.494789 0.210575
0.436927 0.485695 0.216678
0.594629 0.481453 0.212589
0.743313 0.489357 0.236484
0.863340 0.499886 0.250217
0.960235 0.512016 0.262394
1.000000 0.528740 0.287877
0.274907 0.651789 0.194186
0.337377 0.649165 0.196994
0.481086 0.640497 0.209110
0.623926 0.631983 0.210788
0.758511 0.626947 0.207004
0.865385 0.623041 0.247227
0.949554 0.631373 0.304936
1.000000 0.643336 0.337896
0.369604 0.772915 0.198062
0.413764 0.770626 0.203403
0.522942 0.764096 0.214298
0.646296 0.755642 0.222324
0.766140 0.750027 0.222965
0.875364 0.747127 0.223545
0.955077 0.737392 0.280949
1.000000 0.742519 0.366461
0.454810 0.875883 0.229435
0.483375 0.874296 0.232486
0.563165 0.869657 0.238804
0.667353 0.862852 0.248631
0.773342 0.856199 0.259800
0.871916 0.852476 0.263767
0.961517 0.851041 0.270207
1.000000 0.836088 0.343633
0.529107 0.963928 0.283391
0.545800 0.963104 0.282750
0.605859 0.959594 0.288823
0.690974 0.954162 0.300481
0.782895 0.948089 0.318120
0.869871 0.943755 0.331090
0.950866 0.941344 0.340856
1.000000 0.940459 0.353887
0.159060 0.000000 0.356207
0.237125 0.000000 0.355840
0.401740 0.000000 0.354253
0.598291 0.000000 0.361547
0.769314 0.000000 0.354650
0.889525 0.000000 0.336156
0.980163 0.169009 0.331395
1.000000 0.282750 0.346319
0.158358 0.142916 0.355871
0.239353 0.135897 0.355444
0.407172 0.106294 0.353643
0.601068 0.074281 0.358434
0.770016 0.000000 0.350072
0.889250 0.129610 0.333410
0.978485 0.239292 0.334569
1.000000 0.315953 0.348150
0.175998 0.325475 0.352270
0.246036 0.321721 0.351934
0.418647 0.309392 0.350042
0.608789 0.308904 0.348394
0.772000 0.302831 0.336309
0.884459 0.340246 0.336736
0.972595 0.379400 0.346532
1.000000 0.412573 0.358984
0.229313 0.498970 0.349950
0.291752 0.498726 0.348577
0.446448 0.494026 0.343359
0.611475 0.487343 0.344762
0.755886 0.497353 0.354437
0.872129 0.505547 0.358221
0.963439 0.516960 0.367529
1.000000 0.533440 0.384588
0.294926 0.655238 0.342412
0.346838 0.653407 0.340154
0.483619 0.646937 0.336156
0.638056 0.634913 0.344671
0.766171 0.630488 0.343908
0.865843 0.629572 0.373938
0.951507 0.640162 0.402869
1.000000 0.651118 0.425391
0.379980 0.775021 0.335241
0.420356 0.773190 0.335882
0.532921 0.766690 0.342321
0.658869 0.757473 0.352270
0.772610 0.751492 0.355596
0.877073 0.749111 0.356756
0.952758 0.742214 0.400549
1.000000 0.752926 0.467231
0.474037 0.876005 0.354467
0.504784 0.874266 0.359258
0.582574 0.869474 0.366552
0.677882 0.863310 0.371069
0.779599 0.856382 0.382025
0.873564 0.853208 0.385138
0.960021 0.852201 0.389929
1.000000 0.840330 0.448554
0.576593 0.960449 0.412177
0.593774 0.959411 0.415412
0.633234 0.957549 0.410742
0.700587 0.953796 0.407996
0.788540 0.947967 0.421637
0.872129 0.943572 0.434516
0.949920 0.941558 0.441535
1.000000 0.941070 0.450690
0.230350 0.000000 0.487007
0.290898 0.000000 0.486671
0.437324 0.000000 0.485664
0.605280 0.000000 0.483436
0.771786 0.000000 0.488655
0.889006 0.000000 0.472938
0.977874 0.184939 0.461769
1.000000 0.303136 0.466316
0.225834 0.132479 0.486915
0.288914 0.123354 0.486549
0.438392 0.079988 0.485420
0.608240 0.000000 0.483009
0.772549 0.000000 0.486305
0.888762 0.146670 0.471168
0.977111 0.244450 0.462226
1.000000 0.339147 0.469520
0.218448 0.317998 0.485054
0.278599 0.310491 0.484993
0.438331 0.296849 0.483772
0.616999 0.287938 0.480842
0.774411 0.305821 0.479316
0.887480 0.332311 0.467445
0.974151 0.378943 0.466896
1.000000 0.438727 0.483192
0.256901 0.496986 0.480079
0.310674 0.495460 0.479805
0.451881 0.489296 0.478553
0.631159 0.480598 0.475837
0.776455 0.488441 0.471168
0.884184 0.501518 0.471443
0.967437 0.522271 0.481849
1.000000 0.536461 0.490944
0.321752 0.655390 0.477699
0.368414 0.654475 0.476722
0.496834 0.649805 0.473091
0.652155 0.640436 0.473091
0.772305 0.634913 0.477790
0.869383 0.640314 0.494057
0.956115 0.645014 0.501976
1.000000 0.652338 0.515282
0.401831 0.776852 0.467018
0.439185 0.775113 0.466865
0.546136 0.768978 0.469123
0.676326 0.759884 0.481758
0.778958 0.753780 0.484565
0.876890 0.751278 0.486610
0.949157 0.749874 0.521080
1.000000 0.760830 0.557977
0.489784 0.876555 0.471656
0.518517 0.874907 0.474372
0.603784 0.869352 0.486580
0.702449 0.862577 0.503502
0.783688 0.858152 0.500237
0.873930 0.854490 0.505547
0.957061 0.853849 0.508873
1.000000 0.845731 0.555016
0.584222 0.960723 0.504540
0.604791 0.959319 0.509606
0.665736 0.955016 0.526787
0.732326 0.950927 0.539910
0.790036 0.948882 0.526085
0.872221 0.943847 0.539574
0.947234 0.942260 0.544396
1.000000 0.942077 0.550774
0.297917 0.000000 0.621027
0.346380 0.000000 0.620813
0.473518 0.000000 0.620050
0.626307 0.000000 0.618677
0.772885 0.000000 0.616510
0.889067 0.000000 0.603113
0.974701 0.204349 0.586572
1.000000 0.315496 0.580499
0.292332 0.115480 0.620935
0.342199 0.103304 0.620722
0.472084 0.019471 0.619928
0.626734 0.000000 0.618463
0.774166 0.000000 0.616083
0.888792 0.146731 0.601801
0.973968 0.258579 0.586664
1.000000 0.349645 0.582605
0.267216 0.302129 0.620172
0.324254 0.298680 0.619898
0.465949 0.287510 0.618921
0.627619 0.272129 0.617243
0.777737 0.283207 0.614527
0.887541 0.333593 0.598383
0.971038 0.386999 0.588800
1.000000 0.445838 0.591485
0.291051 0.490547 0.616541
0.337011 0.487007 0.616419
0.465522 0.475685 0.615930
0.630579 0.466041 0.614221
0.781765 0.473945 0.611292
0.884184 0.505058 0.598108
0.965789 0.528740 0.598047
1.000000 0.559350 0.607782
0.345800 0.651362 0.612238
0.386389 0.650202 0.612024
0.502190 0.646204 0.611078
0.647730 0.640497 0.609522
0.782010 0.634852 0.607965
0.881041 0.642420 0.604456
0.960266 0.652796 0.613855
1.000000 0.666590 0.628168
0.423041 0.781094 0.602197
0.457130 0.779599 0.601740
0.556939 0.774441 0.600946
0.680720 0.765988 0.602472
0.789029 0.758633 0.610376
0.875181 0.755642 0.616144
0.947692 0.759030 0.633570
1.000000 0.761227 0.643061
0.506371 0.877440 0.591882
0.532799 0.875944 0.593164
0.611597 0.870909 0.599115
0.709071 0.864408 0.610895
0.800504 0.858946 0.628443
0.872984 0.856596 0.626703
0.951415 0.855222 0.629969
1.000000 0.853330 0.665736
0.590814 0.961334 0.605432
0.609766 0.960082 0.608515
0.666438 0.956237 0.619043
0.741268 0.951171 0.636774
0.817288 0.946410 0.660578
0.869688 0.945708 0.646113
0.943053 0.943359 0.653529
1.000000 0.943511 0.658015
0.355322 0.000000 0.755581
0.394293 0.000000 0.755398
0.503716 0.000000 0.754818
0.640436 0.000000 0.753841
0.774990 0.000000 0.752529
0.896330 0.000000 0.750515
0.972869 0.202060 0.713863
1.000000 0.330297 0.696468
0.349096 0.092683 0.755459
0.389380 0.077729 0.755276
0.500847 0.000000 0.754665
0.639277 0.000000 0.753628
0.774685 0.000000 0.752285
0.896269 0.088167 0.750210
0.972076 0.256413 0.713558
1.000000 0.362707 0.697749
0.327153 0.294102 0.754818
0.371771 0.290745 0.754635
0.491524 0.280674 0.753933
0.635462 0.268101 0.752743
0.773434 0.263981 0.751278
0.895476 0.307622 0.748898
0.969085 0.385626 0.713436
1.000000 0.454597 0.703304
0.325689 0.476967 0.752438
0.366247 0.473365 0.752377
0.483070 0.463844 0.751919
0.631952 0.457465 0.750668
0.771267 0.456001 0.749111
0.892332 0.482918 0.746639
0.963653 0.528649 0.716884
1.000000 0.564233 0.713863
0.366491 0.640650 0.749081
0.402045 0.638849 0.748959
0.505089 0.632837 0.748562
0.637171 0.624994 0.747738
0.767391 0.619348 0.746639
0.885313 0.629480 0.744869
0.957244 0.655329 0.725765
1.000000 0.673426 0.730465
0.429969 0.781338 0.746273
0.460426 0.780179 0.746090
0.551354 0.776211 0.745571
0.665126 0.770077 0.744930
0.773709 0.762387 0.744594
0.875547 0.756008 0.744411
0.951171 0.765805 0.739956
1.000000 0.776028 0.753780
0.513848 0.886778 0.727932
0.538231 0.885283 0.728054
0.610285 0.880461 0.728725
0.702266 0.873777 0.731106
0.795407 0.866575 0.736324
0.878355 0.861112 0.747707
0.944152 0.859403 0.754665
1.000000 0.861204 0.770748
0.593286 0.962493 0.714443
0.610590 0.961425 0.716030
0.663111 0.958099 0.721736
0.735378 0.953460 0.732204
0.812711 0.948791 0.748592
0.884123 0.945403 0.771389
0.937041 0.945129 0.768063
1.000000 0.944488 0.772213
0.398352 0.000000 0.887633
0.430488 0.000000 0.887510
0.524041 0.000000 0.887053
0.645563 0.000000 0.886320
0.768734 0.000000 0.885374
0.882841 0.000000 0.884154
0.983856 0.154940 0.882383
1.000000 0.325658 0.820859
0.392279 0.069978 0.887510
0.425238 0.048005 0.887388
0.520653 0.000000 0.886931
0.643580 0.000000 0.886168
0.767605 0.000000 0.885161
0.882017 0.065583 0.883879
0.983032 0.220371 0.882078
1.000000 0.357977 0.821378
0.373266 0.287663 0.886900
0.408850 0.285130 0.886748
0.509941 0.277226 0.886229
0.637324 0.269169 0.885374
0.763729 0.269810 0.884306
0.878996 0.294194 0.882963
0.979675 0.358221 0.881041
1.000000 0.449683 0.823636
0.346258 0.458564 0.885527
0.391058 0.459602 0.885222
0.500053 0.456886 0.884581
0.630762 0.452796 0.883696
0.758358 0.453437 0.882597
0.873320 0.464393 0.881376
0.972930 0.504753 0.879454
1.000000 0.560296 0.828916
0.368566 0.621820 0.882994
0.401068 0.619776 0.882933
0.497353 0.614069 0.882597
0.622766 0.608362 0.881926
0.752743 0.610773 0.880674
0.864652 0.613092 0.879820
0.963043 0.635309 0.878355
1.000000 0.672023 0.838315
0.425727 0.764706 0.880491
0.453559 0.763516 0.880400
0.536370 0.759548 0.880095
0.642237 0.753079 0.879728
0.750179 0.745998 0.879454
0.855192 0.744839 0.878935
0.950683 0.754055 0.878141
1.000000 0.777127 0.852689
0.494575 0.890379 0.878813
0.516960 0.889250 0.878721
0.583612 0.885466 0.878569
0.674189 0.879515 0.878416
0.769497 0.872618 0.878386
0.856962 0.865629 0.878752
0.936248 0.859312 0.879454
0.996582 0.870787 0.873320
0.576684 0.978820 0.852720
0.592981 0.977691 0.852995
0.643946 0.973816 0.854063
0.717586 0.967773 0.856443
0.797513 0.960754 0.860929
0.872374 0.954437 0.868223
0.937835 0.949584 0.881285
0.987579 0.949065 0.895659
