其他预设/【239】阳光逆光效果预设26款/1.LUT预设（视频调色-PR-AE-PS-FCPX-达芬奇用）/阳光逆光预设__-18.cube
# Created by Adobe Lightroom plugin Export LUT (1.17.0)
# www.johnrellis.com/lightroom/exportlut.htm
# Preset: 阳光逆光预设[素锦印象]-18
# Color profile: /Library/Application Support/Adobe/Color/Profiles/Recommended/AdobeRGB1998.icc
LUT_3D_SIZE 8
DOMAIN_MIN 0.000000 0.000000 0.000000
DOMAIN_MAX 0.903226 0.903226 0.903226
0.000000 0.000000 0.000000
0.147738 0.007843 0.003113
0.303746 0.024781 0.000000
0.461555 0.047761 0.000000
0.623682 0.076478 0.000000
0.763424 0.106294 0.000000
0.888701 0.136416 0.000000
0.997620 0.171145 0.000000
0.034272 0.140963 0.000702
0.148775 0.140352 0.002258
0.296818 0.149172 0.014801
0.457465 0.157504 0.000000
0.620874 0.168887 0.000000
0.761532 0.180514 0.000000
0.887419 0.195895 0.000000
0.996674 0.218173 0.000000
0.090486 0.287816 0.000000
0.169772 0.285985 0.000000
0.304295 0.285649 0.000000
0.448707 0.294377 0.016327
0.611048 0.309422 0.000000
0.754940 0.314855 0.000000
0.882902 0.319982 0.000000
0.993317 0.328893 0.068086
0.146426 0.438514 0.000000
0.204227 0.437537 0.000000
0.326879 0.435462 0.000000
0.466011 0.436866 0.000000
0.613489 0.445258 0.000000
0.743679 0.449866 0.077394
0.875029 0.453254 0.086275
0.987274 0.456641 0.120729
0.199008 0.592889 0.000000
0.244236 0.592065 0.000000
0.354925 0.589166 0.000000
0.486519 0.587457 0.000000
0.625696 0.586542 0.000000
0.754604 0.580499 0.000000
0.869383 0.579767 0.118318
0.978576 0.585016 0.175479
0.247715 0.728847 0.000000
0.282872 0.728176 0.000000
0.378515 0.725856 0.000000
0.500114 0.722164 0.000000
0.630854 0.720699 0.000000
0.766018 0.718776 0.000000
0.879606 0.703670 0.000000
0.978302 0.698482 0.174624
0.294621 0.852903 0.000000
0.322423 0.852354 0.000000
0.403967 0.850462 0.000000
0.514702 0.847135 0.000000
0.636347 0.843656 0.000000
0.762631 0.840848 0.000000
0.890929 0.837339 0.000000
0.984527 0.812314 0.103883
0.347906 0.960296 0.000000
0.369574 0.959777 0.000000
0.436713 0.958007 0.000000
0.533715 0.954925 0.000000
0.645197 0.950500 0.000000
0.760067 0.946593 0.000000
0.877958 0.942168 0.014771
0.996429 0.936767 0.058625
0.022339 0.002197 0.106386
0.153872 0.000000 0.108309
0.312444 0.000000 0.093172
0.466072 0.076204 0.092439
0.626673 0.096498 0.080232
0.765072 0.121981 0.068757
0.889708 0.148013 0.068177
0.998169 0.179446 0.088930
0.039155 0.143130 0.104829
0.157839 0.144533 0.102480
0.305028 0.156893 0.102174
0.462257 0.167239 0.095735
0.623896 0.177951 0.083467
0.763210 0.189395 0.073762
0.888426 0.203708 0.074403
0.997253 0.224399 0.095735
0.091463 0.290837 0.083589
0.184054 0.288060 0.093629
0.309422 0.287694 0.090517
0.450965 0.299687 0.111177
0.614557 0.314549 0.099489
0.756832 0.319554 0.091615
0.884031 0.324163 0.095064
0.993896 0.332830 0.117372
0.154818 0.440192 0.053468
0.215854 0.438758 0.065766
0.333165 0.436683 0.068757
0.469245 0.438117 0.046418
0.614771 0.447211 0.091218
0.745846 0.452796 0.123232
0.876188 0.456092 0.128176
0.987854 0.459571 0.151614
0.208865 0.593805 0.000000
0.252110 0.592981 0.000000
0.360204 0.590112 0.000000
0.489845 0.588190 0.000000
0.627802 0.587335 0.000000
0.755306 0.581445 0.067597
0.869718 0.581994 0.153811
0.979187 0.587366 0.196689
0.255131 0.729274 0.000000
0.289097 0.728603 0.000000
0.382940 0.726314 0.000000
0.503288 0.722530 0.000000
0.632929 0.721096 0.000000
0.767300 0.719142 0.000000
0.879942 0.704372 0.078767
0.978302 0.700374 0.199039
0.300694 0.853056 0.000000
0.328008 0.852506 0.000000
0.408057 0.850614 0.000000
0.517693 0.847288 0.000000
0.638514 0.843748 0.000000
0.763943 0.840970 0.000000
0.891569 0.837491 0.000000
0.984588 0.812955 0.142824
0.353216 0.960235 0.000000
0.374456 0.959747 0.000000
0.440711 0.957977 0.000000
0.536797 0.954864 0.003479
0.647578 0.950439 0.084993
0.761654 0.946532 0.098970
0.878874 0.942138 0.105043
0.996674 0.936858 0.114931
0.081819 0.005707 0.202731
0.163882 0.000000 0.202060
0.317937 0.000000 0.204959
0.478798 0.000000 0.195254
0.640650 0.000000 0.177951
0.772549 0.115877 0.180056
0.894224 0.153689 0.180117
1.000000 0.187411 0.186648
0.090639 0.141054 0.201266
0.171847 0.139040 0.200626
0.321019 0.144137 0.200198
0.480354 0.134188 0.189517
0.637293 0.153658 0.182223
0.770687 0.189242 0.182132
0.892973 0.208835 0.182254
0.999847 0.231571 0.189670
0.116762 0.293523 0.196414
0.190921 0.294133 0.194217
0.323033 0.293675 0.193484
0.469337 0.306859 0.195926
0.627497 0.316899 0.191409
0.764431 0.323400 0.188968
0.888579 0.329656 0.190677
0.996429 0.339574 0.200687
0.156435 0.445441 0.181765
0.216068 0.444892 0.179782
0.346441 0.440894 0.185153
0.479316 0.442542 0.180972
0.619562 0.452094 0.197757
0.753628 0.459205 0.204257
0.880766 0.462348 0.207614
0.990265 0.466438 0.221378
0.197635 0.598535 0.155184
0.251255 0.597375 0.157870
0.372290 0.593439 0.167941
0.498970 0.590631 0.167849
0.634302 0.589654 0.160922
0.757900 0.584710 0.190799
0.870878 0.589654 0.232609
0.981506 0.594202 0.252628
0.257328 0.731838 0.136782
0.297673 0.730800 0.142000
0.396307 0.727993 0.151675
0.513207 0.724117 0.157412
0.639582 0.722316 0.153323
0.771328 0.720455 0.145357
0.881193 0.706996 0.195499
0.978332 0.707088 0.263767
0.315068 0.853910 0.135866
0.343023 0.853269 0.139101
0.421180 0.851255 0.144961
0.527581 0.847898 0.153201
0.645716 0.844083 0.160647
0.768399 0.841428 0.157137
0.893736 0.838132 0.153170
0.984894 0.815457 0.225925
0.372717 0.960082 0.162051
0.390143 0.959716 0.161013
0.453712 0.957946 0.166751
0.547082 0.954803 0.177340
0.655268 0.950408 0.192355
0.767208 0.946319 0.200351
0.881895 0.942168 0.203067
0.997436 0.937102 0.207553
0.130953 0.001190 0.300511
0.193057 0.000000 0.300206
0.324712 0.000000 0.298711
0.486671 0.000000 0.302098
0.646845 0.000000 0.294133
0.782467 0.000000 0.277928
0.903593 0.103944 0.271275
1.000000 0.187900 0.277440
0.132815 0.135897 0.299840
0.196048 0.133913 0.299443
0.329046 0.126406 0.297795
0.488746 0.132174 0.299504
0.647669 0.116915 0.290745
0.782620 0.133394 0.275914
0.902281 0.186282 0.273167
1.000000 0.229801 0.278233
0.145296 0.290745 0.295537
0.201541 0.289433 0.295171
0.337316 0.285191 0.293400
0.494423 0.292760 0.290806
0.650141 0.288945 0.280003
0.778988 0.310155 0.277073
0.897398 0.328161 0.279759
1.000000 0.339818 0.284001
0.177890 0.448615 0.289342
0.229343 0.449470 0.288121
0.354711 0.449287 0.284154
0.494728 0.448951 0.284337
0.634638 0.460853 0.289158
0.767483 0.465461 0.288396
0.889403 0.467842 0.290593
0.995361 0.472023 0.298253
0.214298 0.603204 0.274296
0.259831 0.602594 0.272740
0.376715 0.600458 0.270390
0.514549 0.594507 0.275914
0.645045 0.593622 0.272648
0.762478 0.592126 0.292485
0.878386 0.599237 0.309483
0.986236 0.602899 0.321263
0.268589 0.735073 0.256077
0.306096 0.734371 0.256901
0.408667 0.731655 0.262242
0.529107 0.726986 0.268833
0.650660 0.724331 0.268681
0.777829 0.722683 0.264958
0.883482 0.712581 0.296422
0.978454 0.719203 0.343511
0.337255 0.855314 0.254765
0.367681 0.854551 0.258824
0.444434 0.852323 0.264378
0.542809 0.849180 0.266545
0.657710 0.844633 0.273045
0.775692 0.842252 0.271214
0.897185 0.839322 0.269200
0.985565 0.820371 0.316258
0.428321 0.958251 0.284886
0.446723 0.957671 0.287449
0.488655 0.956939 0.282841
0.562860 0.954925 0.278996
0.667475 0.950500 0.288304
0.776211 0.946044 0.295842
0.886748 0.942229 0.297124
0.998566 0.937621 0.299199
0.185428 0.000000 0.396429
0.232944 0.000000 0.396094
0.349889 0.000000 0.395026
0.492744 0.000000 0.392615
0.653803 0.000000 0.393194
0.788022 0.000000 0.378668
0.907469 0.118593 0.367376
1.000000 0.213291 0.366339
0.184695 0.134401 0.395941
0.233341 0.131685 0.395575
0.351476 0.120790 0.394415
0.495491 0.110109 0.391852
0.654780 0.114321 0.391180
0.788205 0.142092 0.377173
0.907225 0.188937 0.367376
1.000000 0.256992 0.368109
0.183047 0.286076 0.392981
0.229404 0.282139 0.392889
0.352819 0.276982 0.391669
0.503410 0.276799 0.388586
0.657496 0.290806 0.384619
0.788571 0.302159 0.373083
0.906157 0.326970 0.368933
1.000000 0.368719 0.375860
0.203525 0.446326 0.385901
0.246708 0.446296 0.385565
0.360906 0.445411 0.384131
0.515343 0.444068 0.380957
0.660670 0.453223 0.374945
0.787900 0.461433 0.371954
0.902007 0.472724 0.375280
1.000000 0.475074 0.377752
0.239628 0.605005 0.376410
0.279881 0.605280 0.375525
0.390021 0.604852 0.372412
0.531975 0.601251 0.371374
0.656947 0.598596 0.372747
0.773495 0.603632 0.381415
0.891661 0.603906 0.383246
0.994781 0.603693 0.389136
0.290806 0.738827 0.357702
0.325200 0.738186 0.357610
0.424048 0.735592 0.359106
0.552056 0.730953 0.367590
0.664057 0.727352 0.367712
0.784817 0.725154 0.365942
0.886961 0.721157 0.388952
0.983215 0.727962 0.413550
0.355718 0.857389 0.348455
0.384283 0.856626 0.350500
0.470436 0.853788 0.359533
0.575769 0.849912 0.371496
0.669093 0.847105 0.367132
0.783841 0.843778 0.368231
0.901305 0.841032 0.366552
0.987030 0.826444 0.402167
0.440528 0.959380 0.360235
0.462959 0.958495 0.364233
0.530846 0.955688 0.377783
0.607996 0.952941 0.387640
0.676478 0.951720 0.374762
0.784360 0.946349 0.383581
0.891295 0.942779 0.384222
0.999908 0.938537 0.385595
0.239017 0.000000 0.491798
0.277012 0.000000 0.491585
0.379553 0.000000 0.490730
0.512902 0.000000 0.489113
0.660822 0.000000 0.486152
0.796994 0.000000 0.473091
0.912963 0.135988 0.457740
1.000000 0.225010 0.449195
0.237308 0.132357 0.491432
0.275700 0.129244 0.491157
0.379461 0.116854 0.490333
0.513848 0.088960 0.488624
0.662593 0.078126 0.485512
0.797238 0.135439 0.471809
0.912688 0.199557 0.457496
1.000000 0.266423 0.450324
0.224857 0.277195 0.489693
0.266819 0.276097 0.489448
0.376928 0.272435 0.488411
0.516075 0.265751 0.486549
0.667903 0.271153 0.482948
0.797665 0.301091 0.467903
0.911681 0.332769 0.457557
1.000000 0.374792 0.455329
0.236240 0.441444 0.484504
0.272526 0.439734 0.484321
0.376287 0.434455 0.483680
0.519707 0.431525 0.481605
0.674342 0.439246 0.477455
0.797055 0.463966 0.464393
0.909453 0.478218 0.461158
1.000000 0.499397 0.464759
0.265232 0.601770 0.476112
0.299718 0.601862 0.475807
0.399268 0.602075 0.474617
0.533715 0.601923 0.472358
0.675715 0.598932 0.469368
0.796933 0.605219 0.463935
0.907530 0.611078 0.468360
1.000000 0.619196 0.476997
0.313756 0.745693 0.460090
0.345281 0.745266 0.459632
0.438697 0.743374 0.458595
0.562615 0.738735 0.458961
0.684016 0.733394 0.463874
0.792752 0.730037 0.466621
0.895293 0.731014 0.478859
0.994324 0.727749 0.484718
0.376623 0.860227 0.442725
0.403143 0.859464 0.443702
0.483711 0.856779 0.448280
0.589502 0.852842 0.457282
0.698604 0.848783 0.470924
0.792508 0.846189 0.467628
0.904021 0.842313 0.468025
0.987762 0.835233 0.500008
0.452918 0.960998 0.443702
0.473671 0.960204 0.446296
0.537102 0.957641 0.455390
0.625391 0.953765 0.470985
0.722408 0.949279 0.493141
0.790616 0.948333 0.477882
0.895750 0.943725 0.483101
1.000000 0.939910 0.485084
0.278904 0.000000 0.606226
0.310918 0.000000 0.606104
0.403143 0.000000 0.605615
0.527916 0.000000 0.604761
0.668605 0.000000 0.603296
0.817563 0.000000 0.600702
0.922210 0.119661 0.562951
1.000000 0.239017 0.543511
0.276005 0.130556 0.606104
0.308598 0.127504 0.605982
0.401801 0.114595 0.605493
0.527520 0.086458 0.604578
0.668879 0.000000 0.603052
0.818173 0.046387 0.600366
0.921874 0.189334 0.562585
1.000000 0.278050 0.544518
0.263584 0.274723 0.605432
0.298528 0.273564 0.605310
0.396460 0.269932 0.604761
0.525841 0.263493 0.603754
0.669459 0.254368 0.602075
0.819547 0.270756 0.598962
0.920531 0.327703 0.562036
1.000000 0.382238 0.548974
0.260014 0.432074 0.603143
0.293065 0.430274 0.603082
0.390387 0.426215 0.602686
0.524163 0.424475 0.601465
0.669734 0.422278 0.599634
0.819181 0.439124 0.596124
0.917510 0.476204 0.563989
1.000000 0.503410 0.557702
0.280278 0.592676 0.598840
0.311315 0.592065 0.598749
0.402655 0.589837 0.598322
0.527611 0.586633 0.597375
0.666835 0.582940 0.595850
0.813657 0.590295 0.592798
0.913756 0.612879 0.570611
1.000000 0.626246 0.572747
0.317662 0.747982 0.593256
0.346868 0.747738 0.593042
0.434821 0.746792 0.592462
0.551202 0.744045 0.591577
0.673793 0.737942 0.590814
0.803525 0.730068 0.589807
0.910216 0.738033 0.583093
1.000000 0.745418 0.597345
0.384070 0.872923 0.569238
0.409430 0.872068 0.569390
0.485420 0.869078 0.570062
0.587121 0.864317 0.572381
0.699245 0.857847 0.577691
0.809995 0.851102 0.590173
0.904631 0.846738 0.597559
0.989929 0.844663 0.616419
0.459052 0.963287 0.548852
0.478279 0.962585 0.550561
0.537835 0.960296 0.556756
0.623529 0.956695 0.568383
0.722499 0.952056 0.587549
0.822141 0.947173 0.616510
0.897917 0.945220 0.611933
0.995026 0.940673 0.616358
0.281407 0.000000 0.767178
0.312230 0.000000 0.767147
0.401312 0.000000 0.767086
0.522454 0.000000 0.766934
0.658534 0.000000 0.766629
0.802640 0.000000 0.766079
0.949065 0.000000 0.764858
1.000000 0.224460 0.677668
0.277531 0.130190 0.767300
0.308812 0.127443 0.767300
0.399176 0.116274 0.767239
0.521202 0.094179 0.767025
0.657923 0.037751 0.766751
0.802304 0.000000 0.766110
0.948608 0.103670 0.764828
1.000000 0.265507 0.678553
0.263767 0.273259 0.767697
0.297246 0.272374 0.767636
0.391730 0.269352 0.767544
0.516991 0.264317 0.767300
0.655634 0.257603 0.766934
0.800778 0.256779 0.766171
0.946410 0.285801 0.764675
1.000000 0.372564 0.682185
0.237980 0.418494 0.768154
0.281621 0.421027 0.767941
0.383886 0.421729 0.767697
0.512322 0.420600 0.767391
0.652369 0.419409 0.766873
0.796933 0.420600 0.766171
0.940703 0.444648 0.764401
1.000000 0.496498 0.690028
0.245426 0.574853 0.767971
0.279301 0.573907 0.767971
0.375677 0.571679 0.767910
0.503136 0.570123 0.767636
0.647547 0.574029 0.766842
0.788998 0.572961 0.766354
0.930510 0.587701 0.764889
1.000000 0.623163 0.703883
0.284154 0.729854 0.767422
0.314794 0.729458 0.767422
0.403662 0.728115 0.767361
0.518669 0.724575 0.767361
0.644190 0.719112 0.767483
0.779294 0.717433 0.767239
0.916442 0.723140 0.766476
0.999908 0.745815 0.726284
0.338201 0.876707 0.767544
0.364599 0.876158 0.767544
0.441993 0.873930 0.767605
0.548241 0.869749 0.767819
0.666560 0.863615 0.768246
0.784665 0.855589 0.769039
0.899077 0.846220 0.770230
0.990753 0.855680 0.760403
0.427985 0.982635 0.726894
0.447578 0.981720 0.727352
0.508934 0.978576 0.729213
0.599817 0.973053 0.733211
0.704219 0.965576 0.740658
0.809018 0.957183 0.753048
0.905333 0.949126 0.774929
0.981323 0.945373 0.799008
