其他预设/【239】阳光逆光效果预设26款/1.LUT预设（视频调色-PR-AE-PS-FCPX-达芬奇用）/阳光逆光预设__-10.cube
# Created by Adobe Lightroom plugin Export LUT (1.17.0)
# www.johnrellis.com/lightroom/exportlut.htm
# Preset: 阳光逆光预设[素锦印象]-10
# Color profile: /Library/Application Support/Adobe/Color/Profiles/Recommended/AdobeRGB1998.icc
LUT_3D_SIZE 32
0.217441 0.162600 0.155917
0.224826 0.162173 0.155795
0.234928 0.161685 0.155703
0.256809 0.160342 0.155123
0.285130 0.158297 0.154543
0.315618 0.156100 0.153994
0.347845 0.153780 0.153353
0.382086 0.151217 0.152651
0.418555 0.148531 0.151858
0.456855 0.146120 0.150698
0.496712 0.143343 0.149599
0.536828 0.141299 0.148257
0.576471 0.140169 0.146914
0.615015 0.140322 0.146090
0.651759 0.141634 0.145327
0.686824 0.143771 0.144564
0.720058 0.146487 0.144015
0.750851 0.150546 0.143801
0.779355 0.155306 0.144137
0.809293 0.160891 0.144778
0.838254 0.167330 0.145418
0.866026 0.174105 0.146304
0.892546 0.181064 0.147463
0.917845 0.188388 0.148806
0.942168 0.195590 0.150118
0.965576 0.203220 0.151827
0.988159 0.211032 0.153780
1.000000 0.219303 0.155825
1.000000 0.227573 0.158297
1.000000 0.236362 0.161013
1.000000 0.245151 0.164218
1.000000 0.254246 0.167758
0.217868 0.169406 0.155734
0.224887 0.169070 0.155764
0.233585 0.168948 0.156405
0.254948 0.169070 0.156161
0.284733 0.166537 0.154574
0.315160 0.164218 0.153902
0.347387 0.161593 0.153323
0.381415 0.159152 0.152621
0.417762 0.156588 0.151858
0.456092 0.154177 0.150698
0.495705 0.151980 0.149599
0.535790 0.149996 0.148287
0.575402 0.148898 0.146975
0.613886 0.149142 0.146304
0.650599 0.150301 0.145418
0.685695 0.152010 0.144839
0.718898 0.154635 0.144320
0.749722 0.158206 0.143954
0.778256 0.162570 0.144320
0.808164 0.167819 0.144656
0.836973 0.173648 0.145388
0.864652 0.179751 0.146334
0.891142 0.186252 0.147402
0.916533 0.192966 0.148745
0.940917 0.199954 0.150057
0.964416 0.207340 0.151766
0.987121 0.214786 0.153445
1.000000 0.222812 0.155764
1.000000 0.230930 0.158053
1.000000 0.239384 0.160800
1.000000 0.247959 0.163851
1.000000 0.256718 0.167300
0.218204 0.178805 0.155550
0.225467 0.178317 0.155459
0.235355 0.177676 0.155367
0.254002 0.177859 0.157107
0.280034 0.177981 0.157778
0.312291 0.175326 0.155795
0.346532 0.171786 0.153475
0.380743 0.169070 0.152651
0.417060 0.166751 0.151766
0.455207 0.164492 0.150942
0.494789 0.162661 0.149660
0.534813 0.161105 0.148348
0.574426 0.159976 0.147341
0.612940 0.160281 0.146395
0.649622 0.161410 0.145693
0.684840 0.162661 0.144808
0.718013 0.165286 0.144259
0.748836 0.168338 0.144106
0.777554 0.171572 0.144533
0.807462 0.176669 0.144717
0.836179 0.181765 0.145480
0.863859 0.187320 0.146304
0.890349 0.193576 0.147372
0.915740 0.199771 0.148745
0.940154 0.206363 0.150088
0.963714 0.213046 0.151675
0.986450 0.220218 0.153506
1.000000 0.227970 0.155825
1.000000 0.235599 0.157992
1.000000 0.243870 0.160708
1.000000 0.252049 0.163821
1.000000 0.260594 0.167239
0.219028 0.198489 0.154788
0.226474 0.198123 0.154665
0.236332 0.197452 0.154604
0.257115 0.196109 0.154238
0.281987 0.194369 0.156588
0.302861 0.194400 0.162539
0.337835 0.192874 0.159670
0.374670 0.190433 0.156954
0.413581 0.187533 0.153994
0.454047 0.184665 0.151156
0.493507 0.183108 0.149935
0.533501 0.181949 0.148623
0.572961 0.181674 0.147585
0.611414 0.181765 0.146822
0.648219 0.182101 0.145846
0.683345 0.183444 0.145144
0.716640 0.185061 0.144656
0.747524 0.187381 0.144381
0.776669 0.190249 0.144564
0.806180 0.194217 0.145052
0.834714 0.198428 0.145602
0.862272 0.203067 0.146548
0.888853 0.208286 0.147646
0.914427 0.213748 0.149020
0.939117 0.219516 0.150179
0.962951 0.225620 0.151888
0.985901 0.232059 0.153536
1.000000 0.239200 0.155978
1.000000 0.246311 0.158328
1.000000 0.253788 0.160952
1.000000 0.261387 0.163943
1.000000 0.269200 0.167422
0.220340 0.222446 0.154177
0.227451 0.221988 0.153964
0.236820 0.221378 0.153933
0.255833 0.220127 0.153780
0.283330 0.218448 0.153475
0.312596 0.216129 0.154971
0.333837 0.213687 0.162325
0.362524 0.214450 0.165225
0.402350 0.213931 0.161593
0.443732 0.213138 0.158358
0.486305 0.211887 0.154818
0.529137 0.210666 0.151431
0.570733 0.209598 0.148470
0.609186 0.209812 0.147433
0.646082 0.210239 0.146304
0.681392 0.211002 0.145480
0.714900 0.211978 0.145052
0.745937 0.213596 0.144808
0.775845 0.215610 0.145052
0.805173 0.218418 0.145357
0.833463 0.221561 0.146029
0.860960 0.225437 0.147005
0.887541 0.229526 0.148043
0.913176 0.234012 0.149325
0.937957 0.238773 0.150698
0.961944 0.243839 0.152132
0.984955 0.249607 0.154238
1.000000 0.255436 0.156313
1.000000 0.261814 0.158663
1.000000 0.268437 0.161318
1.000000 0.275242 0.164340
1.000000 0.282261 0.167727
0.222538 0.247745 0.153719
0.229099 0.247410 0.153628
0.237797 0.246769 0.153506
0.255375 0.245670 0.153292
0.280766 0.244144 0.153079
0.311711 0.242679 0.152682
0.345617 0.241794 0.152773
0.368078 0.237766 0.161227
0.392584 0.238132 0.169039
0.430762 0.240513 0.168307
0.474372 0.241886 0.164462
0.518151 0.242649 0.160678
0.561059 0.242924 0.157046
0.602686 0.242863 0.153170
0.642206 0.242496 0.149355
0.679347 0.242191 0.146304
0.712978 0.242832 0.145724
0.744167 0.243626 0.145418
0.774868 0.245182 0.145724
0.804074 0.246921 0.146151
0.832395 0.249424 0.146700
0.859983 0.251896 0.147646
0.893889 0.258091 0.149660
0.919280 0.261692 0.151278
0.943664 0.265568 0.152865
0.967071 0.269657 0.154726
0.989532 0.274327 0.156649
1.000000 0.279149 0.159182
1.000000 0.284520 0.161654
1.000000 0.290074 0.164431
1.000000 0.295781 0.167575
1.000000 0.301854 0.171084
0.225345 0.275639 0.153353
0.231815 0.275181 0.153292
0.239963 0.274754 0.153170
0.256779 0.273777 0.153109
0.280095 0.272221 0.152743
0.310002 0.271153 0.152529
0.343450 0.270085 0.152132
0.380468 0.270512 0.151675
0.406256 0.266941 0.160037
0.432654 0.266819 0.168917
0.461891 0.270024 0.176822
0.506981 0.273564 0.172427
0.551141 0.276158 0.168338
0.593866 0.277562 0.164126
0.634302 0.278141 0.160037
0.672511 0.278264 0.156222
0.708644 0.278050 0.152438
0.743252 0.277745 0.148928
0.775387 0.277775 0.146578
0.804776 0.278965 0.147036
0.833585 0.280735 0.147860
0.861845 0.282719 0.148806
0.889220 0.285374 0.150027
0.915587 0.288182 0.151675
0.940856 0.291386 0.153414
0.964874 0.294713 0.155215
0.987701 0.298558 0.157412
1.000000 0.302464 0.159823
1.000000 0.306767 0.162356
1.000000 0.311437 0.165164
1.000000 0.316136 0.168124
1.000000 0.321263 0.171664
0.228977 0.304021 0.153017
0.234775 0.303807 0.152956
0.242496 0.303349 0.152987
0.258457 0.302525 0.152682
0.281010 0.301213 0.152499
0.308629 0.299931 0.152163
0.341070 0.299351 0.152071
0.376104 0.298802 0.152102
0.415534 0.300816 0.151278
0.444862 0.298528 0.158450
0.472206 0.297978 0.168368
0.500694 0.300420 0.178103
0.536400 0.305089 0.182010
0.580346 0.308904 0.177432
0.622095 0.311315 0.173129
0.661433 0.312596 0.168917
0.699275 0.313512 0.164981
0.735286 0.314061 0.161349
0.768215 0.313970 0.158206
0.799527 0.313573 0.155215
0.829984 0.313420 0.152102
0.859281 0.313756 0.150149
0.886687 0.315557 0.151186
0.913146 0.317601 0.152773
0.938537 0.319768 0.154330
0.962646 0.322454 0.156283
0.985657 0.325200 0.158450
1.000000 0.328161 0.160616
1.000000 0.331609 0.163180
1.000000 0.335241 0.165957
1.000000 0.339147 0.169070
1.000000 0.343206 0.172549
0.233402 0.334508 0.153109
0.238956 0.334264 0.153048
0.246311 0.333959 0.153079
0.261601 0.333257 0.152773
0.283421 0.332158 0.152590
0.309422 0.330724 0.152102
0.340307 0.330083 0.151858
0.374456 0.330114 0.151431
0.410925 0.330236 0.151217
0.452247 0.333776 0.149905
0.484993 0.333227 0.155520
0.512566 0.331823 0.166873
0.540703 0.333501 0.177951
0.568994 0.337163 0.189212
0.608240 0.341924 0.188388
0.649317 0.345403 0.183963
0.689235 0.348119 0.179934
0.725917 0.349523 0.176120
0.759548 0.349828 0.172824
0.791531 0.349706 0.169894
0.822507 0.349798 0.166781
0.852750 0.349767 0.163790
0.881926 0.349767 0.160678
0.909880 0.349798 0.157656
0.936248 0.350164 0.155764
0.960571 0.351751 0.157717
0.983764 0.353735 0.159792
1.000000 0.355932 0.162020
1.000000 0.358465 0.164523
1.000000 0.361212 0.167361
1.000000 0.364172 0.170291
1.000000 0.367346 0.173709
0.238041 0.366827 0.152316
0.243351 0.366613 0.152438
0.250370 0.366278 0.152316
0.265232 0.365637 0.152041
0.286198 0.364782 0.151705
0.311681 0.363470 0.151247
0.340246 0.361975 0.150607
0.373754 0.362280 0.150301
0.409461 0.362951 0.149874
0.446845 0.363745 0.149233
0.489448 0.368231 0.147677
0.524865 0.369177 0.151553
0.552148 0.367041 0.164523
0.579431 0.367498 0.177157
0.607355 0.370672 0.189914
0.636805 0.375891 0.201236
0.677516 0.380468 0.196811
0.715328 0.383185 0.192874
0.749905 0.384558 0.189425
0.782712 0.385107 0.186282
0.814267 0.385504 0.183413
0.844907 0.385779 0.180667
0.874510 0.385870 0.177737
0.902831 0.385931 0.174929
0.930053 0.385718 0.172122
0.955962 0.385351 0.168978
0.980652 0.384833 0.165255
1.000000 0.384924 0.163485
1.000000 0.386725 0.166171
1.000000 0.388769 0.168765
1.000000 0.391028 0.171939
1.000000 0.393378 0.175418
0.242130 0.400061 0.151125
0.247349 0.399878 0.151064
0.254307 0.399664 0.150942
0.268528 0.399115 0.150668
0.288975 0.398260 0.150210
0.314061 0.397223 0.149722
0.342351 0.396033 0.149020
0.373388 0.395331 0.148379
0.408576 0.396094 0.147677
0.445441 0.397284 0.147097
0.483558 0.398657 0.146609
0.526848 0.403998 0.144289
0.564630 0.406531 0.146059
0.592157 0.404059 0.161044
0.619226 0.403998 0.175631
0.645624 0.405859 0.190433
0.671351 0.409369 0.205051
0.702388 0.413947 0.211307
0.738216 0.416724 0.207462
0.772030 0.418402 0.204288
0.804471 0.419745 0.201480
0.835874 0.420661 0.198734
0.866209 0.421515 0.196262
0.895262 0.421942 0.193820
0.923156 0.422095 0.191440
0.949676 0.422004 0.188876
0.974884 0.421637 0.186099
0.998840 0.421149 0.183078
1.000000 0.420294 0.179538
1.000000 0.419165 0.175296
1.000000 0.418982 0.173800
1.000000 0.420630 0.177340
0.246311 0.434241 0.149172
0.251316 0.434150 0.149111
0.258274 0.433906 0.148989
0.271916 0.433326 0.148745
0.291966 0.432685 0.148257
0.316442 0.431769 0.147616
0.344182 0.430671 0.146944
0.374273 0.429450 0.145907
0.407843 0.429633 0.145327
0.444007 0.430976 0.144442
0.481605 0.432593 0.143557
0.521263 0.435554 0.142580
0.568719 0.444862 0.140230
0.609705 0.449866 0.140383
0.637018 0.446662 0.156771
0.662409 0.444709 0.174441
0.687190 0.445014 0.191440
0.710689 0.446784 0.208225
0.733303 0.450263 0.224979
0.765438 0.453681 0.225742
0.798520 0.455940 0.222721
0.830411 0.457679 0.220188
0.861082 0.458839 0.217807
0.890471 0.459724 0.215640
0.918669 0.460273 0.213626
0.945525 0.460517 0.211612
0.971008 0.460426 0.209537
0.995209 0.460090 0.207248
1.000000 0.459480 0.204807
1.000000 0.458595 0.201999
1.000000 0.457343 0.198856
1.000000 0.455482 0.194949
0.250614 0.470344 0.146365
0.255375 0.470222 0.146151
0.261997 0.469917 0.146059
0.275639 0.469306 0.145815
0.295232 0.468482 0.145266
0.319219 0.467414 0.144686
0.346410 0.466255 0.143923
0.375982 0.465003 0.142947
0.407416 0.463661 0.141756
0.443763 0.466163 0.140719
0.481788 0.469123 0.139895
0.521111 0.472236 0.138766
0.561364 0.475715 0.137881
0.602289 0.479194 0.136721
0.644709 0.485786 0.135805
0.672389 0.482612 0.151766
0.696132 0.479286 0.172183
0.718685 0.477638 0.191257
0.740475 0.478096 0.209873
0.762234 0.480873 0.228092
0.785733 0.485695 0.243290
0.818631 0.488808 0.240696
0.850156 0.491249 0.238499
0.880461 0.493141 0.236545
0.909483 0.494545 0.234867
0.937163 0.495460 0.233280
0.963409 0.496071 0.231846
0.988251 0.496407 0.230442
1.000000 0.496315 0.228916
1.000000 0.496101 0.227390
1.000000 0.495460 0.225620
1.000000 0.494301 0.223575
0.254429 0.503838 0.143160
0.259251 0.503685 0.143130
0.265507 0.503410 0.143038
0.278569 0.502892 0.142641
0.297459 0.502068 0.142123
0.321233 0.501305 0.141604
0.348241 0.500816 0.140627
0.377569 0.500206 0.139590
0.408820 0.499550 0.138308
0.442267 0.499794 0.136995
0.479194 0.502281 0.136049
0.517418 0.505150 0.135042
0.556512 0.508202 0.134066
0.596124 0.511406 0.133150
0.636042 0.514549 0.132387
0.677760 0.520623 0.130892
0.704891 0.516991 0.146517
0.726589 0.511925 0.169863
0.747677 0.509087 0.191287
0.768826 0.508965 0.211582
0.790188 0.511376 0.231479
0.811734 0.516228 0.250980
0.838499 0.521447 0.259922
0.869749 0.524743 0.258274
0.899718 0.527367 0.256901
0.928283 0.529351 0.255772
0.955322 0.530846 0.254856
0.980957 0.531945 0.254185
1.000000 0.532769 0.253635
1.000000 0.533227 0.253269
1.000000 0.533410 0.252873
1.000000 0.533074 0.252354
0.258885 0.538415 0.139528
0.263310 0.538354 0.139467
0.269352 0.538109 0.139376
0.282231 0.537774 0.139071
0.300816 0.537163 0.138491
0.323735 0.536370 0.137728
0.350011 0.535546 0.137057
0.378729 0.534600 0.135988
0.409216 0.533776 0.134859
0.441108 0.532921 0.133242
0.476020 0.534112 0.131991
0.513176 0.536706 0.130983
0.551141 0.539483 0.130037
0.589715 0.542504 0.129122
0.628626 0.545464 0.128573
0.667567 0.548241 0.128115
0.708034 0.553552 0.126894
0.734554 0.549523 0.141085
0.755032 0.543389 0.167575
0.775662 0.540185 0.191196
0.796506 0.539757 0.213291
0.817594 0.541985 0.234623
0.838682 0.546502 0.255619
0.859831 0.553338 0.276707
0.889128 0.558099 0.279301
0.918669 0.561547 0.278691
0.946746 0.564294 0.278447
0.973266 0.566674 0.278691
0.998260 0.568627 0.279118
1.000000 0.570184 0.279881
1.000000 0.571344 0.280888
1.000000 0.572015 0.282109
0.262913 0.572045 0.135775
0.267552 0.571954 0.135683
0.273198 0.571801 0.135592
0.285588 0.571435 0.135164
0.303685 0.570794 0.134768
0.326146 0.570031 0.134005
0.351629 0.569268 0.133181
0.379706 0.568444 0.132143
0.409735 0.567498 0.130861
0.440833 0.566613 0.129335
0.472938 0.565515 0.127657
0.508904 0.567620 0.126802
0.545617 0.569879 0.126040
0.582971 0.572259 0.125399
0.620539 0.574578 0.124819
0.658228 0.577020 0.124605
0.695949 0.579370 0.124880
0.735225 0.584283 0.123842
0.762325 0.580743 0.135653
0.782681 0.574578 0.165225
0.803311 0.571435 0.191043
0.824063 0.570947 0.215213
0.844877 0.572992 0.238285
0.865721 0.577386 0.260899
0.886564 0.584100 0.283604
0.908934 0.592187 0.302464
0.937926 0.596460 0.302739
0.965270 0.600122 0.303685
0.990997 0.603235 0.305058
1.000000 0.605829 0.306676
1.000000 0.607904 0.308751
1.000000 0.609552 0.311162
0.267460 0.603571 0.132143
0.271580 0.603449 0.131930
0.277226 0.603235 0.132052
0.289006 0.602869 0.131624
0.306249 0.602258 0.131106
0.327947 0.601526 0.130373
0.352697 0.600641 0.129641
0.380102 0.599725 0.128328
0.409247 0.598688 0.127199
0.439582 0.597620 0.125826
0.470924 0.596551 0.124208
0.503777 0.596307 0.122713
0.539544 0.598291 0.122225
0.575738 0.600366 0.121553
0.612238 0.602411 0.121523
0.648768 0.604425 0.121614
0.685420 0.606470 0.122133
0.722103 0.608667 0.122805
0.760952 0.613916 0.121920
0.788663 0.611139 0.132235
0.809659 0.605524 0.162509
0.830076 0.602228 0.190799
0.850553 0.601587 0.216831
0.871122 0.603449 0.241794
0.891661 0.607721 0.266239
0.912078 0.614405 0.290715
0.932158 0.623346 0.315557
0.956237 0.631067 0.328374
0.982818 0.635584 0.330510
1.000000 0.639521 0.333227
1.000000 0.642847 0.336339
1.000000 0.645624 0.340093
0.271916 0.633387 0.128817
0.276097 0.633326 0.128756
0.282475 0.637507 0.128359
0.293828 0.637110 0.127993
0.310643 0.636439 0.127687
0.331334 0.635584 0.126894
0.355505 0.634546 0.126101
0.381964 0.633387 0.125002
0.410376 0.632227 0.123812
0.440223 0.630976 0.122591
0.470802 0.629694 0.120974
0.501946 0.628351 0.119203
0.535576 0.628748 0.118349
0.570947 0.630396 0.118013
0.606409 0.632136 0.118166
0.642084 0.633845 0.118441
0.677852 0.635676 0.119112
0.713588 0.637507 0.120272
0.749386 0.639551 0.121614
0.788235 0.645472 0.120851
0.815946 0.642878 0.131197
0.837797 0.637934 0.159854
0.857847 0.634363 0.191196
0.877928 0.633448 0.219516
0.897887 0.634943 0.246403
0.917723 0.638880 0.272648
0.937224 0.645167 0.298772
0.956420 0.653864 0.325414
0.975158 0.664912 0.352728
0.999603 0.671107 0.359442
1.000000 0.675776 0.363622
1.000000 0.679744 0.368475
0.277165 0.663081 0.125795
0.281071 0.663539 0.125612
0.286351 0.663935 0.125368
0.297215 0.664088 0.125246
0.313115 0.663905 0.124697
0.333288 0.663294 0.124178
0.356420 0.662440 0.123171
0.381994 0.661402 0.122255
0.409583 0.660334 0.120912
0.438331 0.659144 0.119631
0.468238 0.657923 0.118105
0.498756 0.656611 0.116182
0.529595 0.655207 0.114321
0.563775 0.656550 0.114015
0.598505 0.658106 0.114260
0.633356 0.659724 0.114809
0.668299 0.661433 0.115816
0.703304 0.663325 0.116823
0.738460 0.665339 0.118624
0.773709 0.667597 0.120546
0.812741 0.674434 0.119417
0.840604 0.672328 0.130098
0.863401 0.668238 0.156252
0.883299 0.664698 0.190646
0.903075 0.663630 0.221408
0.922667 0.665034 0.250401
0.941985 0.668879 0.278660
0.960937 0.675196 0.307012
0.979400 0.683925 0.335882
0.997131 0.695033 0.365545
1.000000 0.706600 0.390845
1.000000 0.711940 0.396857
0.281926 0.690639 0.122499
0.285710 0.691035 0.122713
0.290745 0.691432 0.122286
0.300877 0.691585 0.122194
0.316167 0.691432 0.121675
0.335271 0.690913 0.120943
0.357733 0.690089 0.120180
0.382361 0.689143 0.119112
0.408942 0.688136 0.117800
0.437049 0.687068 0.116518
0.466163 0.685939 0.115053
0.495979 0.684779 0.113161
0.526238 0.683436 0.111147
0.557641 0.682826 0.109712
0.591608 0.684321 0.109987
0.625696 0.685908 0.110567
0.659968 0.687587 0.111208
0.694331 0.689357 0.112764
0.728817 0.691371 0.114473
0.763455 0.693568 0.116732
0.798032 0.695979 0.119722
0.837217 0.703761 0.118685
0.865141 0.701869 0.129274
0.888640 0.698543 0.152102
0.908202 0.694850 0.190097
0.927581 0.693599 0.223514
0.946624 0.694850 0.254856
0.965301 0.698634 0.285496
0.983490 0.704891 0.316136
1.000000 0.713558 0.347265
1.000000 0.724575 0.379370
1.000000 0.737942 0.413123
0.286656 0.718257 0.119173
0.290135 0.718654 0.119020
0.294987 0.718990 0.118990
0.304784 0.719142 0.118685
0.319341 0.719020 0.118166
0.337743 0.718532 0.117678
0.359075 0.717800 0.116732
0.382879 0.716945 0.115663
0.408820 0.715999 0.114382
0.436164 0.714992 0.112947
0.464454 0.713985 0.111269
0.493599 0.712886 0.109407
0.523278 0.711635 0.107179
0.553155 0.710323 0.105257
0.585321 0.710689 0.104524
0.618860 0.712367 0.105257
0.652735 0.714137 0.106661
0.686671 0.716152 0.108034
0.720790 0.718349 0.110262
0.755032 0.720699 0.112825
0.789303 0.723323 0.116121
0.823606 0.726070 0.119905
0.862974 0.734585 0.119173
0.890867 0.732998 0.130068
0.914946 0.730282 0.148806
0.934112 0.726528 0.190799
0.952941 0.725154 0.227451
0.971313 0.726345 0.261631
0.989197 0.729946 0.294987
1.000000 0.736080 0.328191
1.000000 0.744533 0.362005
1.000000 0.755337 0.397040
0.292027 0.747951 0.115572
0.295293 0.748135 0.115389
0.299779 0.748165 0.115175
0.309056 0.748043 0.114900
0.322942 0.747738 0.114534
0.340520 0.747189 0.113924
0.361242 0.746517 0.113008
0.384314 0.745785 0.112093
0.409400 0.745022 0.110567
0.436042 0.744167 0.109041
0.463874 0.743343 0.107454
0.492592 0.742367 0.105531
0.521630 0.741299 0.103517
0.551080 0.740108 0.101045
0.580743 0.738827 0.098421
0.613642 0.740139 0.099397
0.646784 0.741817 0.100954
0.680201 0.743618 0.102510
0.713649 0.745632 0.105196
0.747250 0.747768 0.107851
0.780789 0.750057 0.111574
0.814359 0.752468 0.115633
0.847837 0.754971 0.120577
0.885222 0.762081 0.121614
0.914397 0.762173 0.130800
0.938262 0.759640 0.146212
0.957305 0.755856 0.190127
0.975525 0.754391 0.230045
0.993194 0.755337 0.267308
1.000000 0.758755 0.303288
1.000000 0.764553 0.339300
1.000000 0.772732 0.375952
0.296910 0.775814 0.111421
0.299962 0.775998 0.111238
0.304234 0.776120 0.110964
0.313207 0.775998 0.110689
0.326482 0.775692 0.110140
0.343267 0.775235 0.109743
0.363226 0.774594 0.108583
0.385412 0.773861 0.107546
0.409827 0.773129 0.106447
0.435798 0.772335 0.104707
0.462989 0.771542 0.102937
0.490944 0.770687 0.101198
0.519463 0.769711 0.098848
0.548577 0.768643 0.096315
0.577844 0.767575 0.093507
0.608118 0.767178 0.091371
0.640864 0.768765 0.093294
0.673732 0.770565 0.095705
0.706783 0.772488 0.098848
0.739834 0.774563 0.102144
0.772946 0.776791 0.106111
0.806058 0.779110 0.110811
0.839048 0.781582 0.115816
0.871916 0.784054 0.121736
0.905974 0.788174 0.124453
0.936553 0.790463 0.131624
0.959869 0.787747 0.148165
0.979156 0.784298 0.188754
0.996704 0.782559 0.232486
1.000000 0.783230 0.272923
1.000000 0.786313 0.312016
1.000000 0.791745 0.350988
0.302342 0.805631 0.107088
0.305333 0.805844 0.106874
0.309422 0.805844 0.106691
0.317845 0.805722 0.106477
0.330571 0.805356 0.105745
0.346715 0.804837 0.104982
0.365881 0.804166 0.104158
0.387396 0.803342 0.102968
0.411078 0.802487 0.101320
0.436347 0.801602 0.099702
0.462715 0.800656 0.098146
0.490059 0.799741 0.096040
0.518090 0.798734 0.093446
0.546532 0.797665 0.090669
0.575280 0.796506 0.087404
0.604242 0.795254 0.084138
0.635126 0.795560 0.083894
0.667445 0.797024 0.086885
0.699886 0.798795 0.089967
0.732448 0.800748 0.093996
0.765072 0.802853 0.098878
0.797635 0.805020 0.104097
0.830076 0.807218 0.109926
0.862333 0.809354 0.116091
0.894194 0.811490 0.122713
0.926757 0.814786 0.128573
0.958373 0.818906 0.134676
0.981079 0.815915 0.150912
1.000000 0.812467 0.187411
1.000000 0.810269 0.235477
1.000000 0.810483 0.279454
1.000000 0.813016 0.321904
0.307103 0.833677 0.101472
0.309911 0.833860 0.101717
0.313756 0.833921 0.101228
0.321904 0.833799 0.101259
0.334081 0.833463 0.100282
0.349676 0.833005 0.099458
0.368200 0.832425 0.098787
0.389075 0.831724 0.097505
0.412146 0.831022 0.095979
0.436805 0.830320 0.094423
0.462593 0.829557 0.092164
0.489479 0.828763 0.090120
0.517021 0.827970 0.087556
0.545098 0.827054 0.084504
0.573449 0.826078 0.081178
0.602106 0.825071 0.077485
0.630915 0.824002 0.073396
0.662562 0.825193 0.076539
0.694545 0.826749 0.080537
0.726650 0.828489 0.085512
0.758755 0.830320 0.091127
0.790829 0.832273 0.097047
0.822782 0.834226 0.103517
0.854490 0.836149 0.110262
0.885985 0.838041 0.117861
0.917021 0.839902 0.125429
0.947631 0.841825 0.133608
0.979706 0.847379 0.138582
1.000000 0.843992 0.155123
1.000000 0.840299 0.186404
1.000000 0.837522 0.239597
1.000000 0.837034 0.287755
0.312078 0.862364 0.095949
0.314977 0.862486 0.096040
0.318547 0.862486 0.095888
0.326238 0.862303 0.095460
0.337896 0.861936 0.094789
0.352789 0.861448 0.093782
0.370672 0.860868 0.092897
0.390967 0.860227 0.091524
0.413397 0.859556 0.089937
0.437324 0.858915 0.088075
0.462623 0.858213 0.085908
0.488960 0.857603 0.083650
0.516045 0.856901 0.080537
0.543694 0.856138 0.077760
0.571588 0.855253 0.073762
0.599878 0.854368 0.069306
0.628351 0.853391 0.064729
0.657710 0.853056 0.061738
0.689296 0.854368 0.067414
0.720882 0.855833 0.074128
0.752529 0.857450 0.080629
0.784115 0.859098 0.087922
0.815549 0.860807 0.095369
0.846830 0.862486 0.103456
0.877806 0.864103 0.111391
0.908446 0.865690 0.119692
0.938598 0.867308 0.128542
0.968170 0.868956 0.137362
0.999542 0.874601 0.142916
1.000000 0.870542 0.159548
1.000000 0.866270 0.183810
1.000000 0.862669 0.242771
0.316991 0.890532 0.089876
0.319554 0.890593 0.089754
0.323156 0.890562 0.089631
0.330419 0.890440 0.089174
0.341650 0.890196 0.088624
0.356207 0.889921 0.087556
0.373510 0.889647 0.086519
0.393378 0.889372 0.085237
0.415473 0.889158 0.084138
0.439063 0.888914 0.082490
0.463996 0.888701 0.080568
0.489967 0.888426 0.078340
0.516686 0.888060 0.075593
0.543999 0.887602 0.072541
0.571740 0.886992 0.068635
0.599695 0.886229 0.064515
0.627893 0.885435 0.058839
0.656214 0.884672 0.049470
0.686305 0.884977 0.053346
0.717525 0.886168 0.063935
0.748684 0.887419 0.072663
0.779812 0.888762 0.081819
0.810819 0.890043 0.090242
0.841550 0.891356 0.099184
0.872068 0.892607 0.108278
0.902190 0.893828 0.117342
0.931823 0.895048 0.126497
0.960937 0.896269 0.136141
0.989380 0.897551 0.145815
1.000000 0.902892 0.152010
1.000000 0.897612 0.169070
1.000000 0.892119 0.187045
0.323369 0.920714 0.085512
0.325963 0.920745 0.085451
0.329290 0.920684 0.085389
0.336217 0.920470 0.084749
0.346929 0.920195 0.083925
0.360876 0.919829 0.083009
0.377569 0.919463 0.081849
0.396612 0.919066 0.080110
0.417762 0.918669 0.078401
0.440742 0.918242 0.077028
0.464973 0.917815 0.074342
0.490242 0.917388 0.071656
0.516320 0.916869 0.068635
0.543053 0.916320 0.065339
0.570275 0.915648 0.061128
0.597864 0.914977 0.054108
