其他预设/【239】阳光逆光效果预设26款/1.LUT预设（视频调色-PR-AE-PS-FCPX-达芬奇用）/阳光逆光预设__-17.cube
# Created by Adobe Lightroom plugin Export LUT (1.17.0)
# www.johnrellis.com/lightroom/exportlut.htm
# Preset: 阳光逆光预设[素锦印象]-17
# Color profile: /Library/Application Support/Adobe/Color/Profiles/Recommended/AdobeRGB1998.icc
LUT_3D_SIZE 5
DOMAIN_MIN 0.000000 0.000000 0.000000
DOMAIN_MAX 0.903226 0.903226 0.903226
0.000000 0.000000 0.000000
0.384039 0.000000 0.000000
0.687190 0.144594 0.000000
0.910674 0.255253 0.000000
1.000000 0.341802 0.000000
0.000000 0.365270 0.000000
0.375952 0.361791 0.000000
0.674372 0.378149 0.000000
0.902770 0.399084 0.000000
1.000000 0.432868 0.000000
0.156985 0.639185 0.000000
0.372961 0.634211 0.000000
0.659022 0.631891 0.000000
0.880522 0.639521 0.000000
1.000000 0.633814 0.063142
0.274968 0.849332 0.000000
0.401251 0.845975 0.000000
0.636835 0.836545 0.000000
0.862608 0.831418 0.063691
1.000000 0.814603 0.174258
0.373114 0.983948 0.138827
0.448157 0.981201 0.139864
0.627436 0.972259 0.143740
0.820890 0.961761 0.170352
0.986572 0.954894 0.231846
0.104860 0.000000 0.286900
0.386389 0.000000 0.285496
0.682979 0.114504 0.269474
0.907286 0.270756 0.271183
1.000000 0.371130 0.281956
0.098177 0.362860 0.280064
0.385901 0.358251 0.275090
0.675715 0.372107 0.268559
0.899840 0.406439 0.269413
1.000000 0.452308 0.282231
0.194675 0.637537 0.249668
0.390295 0.632776 0.253727
0.659266 0.629236 0.257755
0.875395 0.643427 0.274754
1.000000 0.640894 0.285130
0.302556 0.847745 0.247776
0.420630 0.844388 0.253208
0.642878 0.835447 0.252750
0.861967 0.830808 0.273655
1.000000 0.816770 0.311406
0.399481 0.982055 0.284398
0.467323 0.979461 0.284611
0.637140 0.971344 0.286198
0.823301 0.961120 0.296788
0.985412 0.954803 0.335302
0.221805 0.000000 0.537346
0.396521 0.000000 0.536339
0.666316 0.138582 0.532403
0.883299 0.273350 0.516381
1.000000 0.408606 0.516411
0.240574 0.343908 0.534295
0.404273 0.346685 0.532921
0.664881 0.358068 0.529351
0.883055 0.402380 0.520256
1.000000 0.493477 0.528862
0.276860 0.629633 0.525628
0.417823 0.627283 0.524620
0.660029 0.620966 0.518883
0.876921 0.640497 0.528069
1.000000 0.662623 0.537682
0.341527 0.843992 0.501549
0.443854 0.840665 0.502831
0.654108 0.832334 0.505241
0.859403 0.828611 0.515526
0.990997 0.824674 0.539300
0.427527 0.978729 0.490303
0.498756 0.975677 0.496590
0.660334 0.967498 0.507103
0.827512 0.958404 0.507500
0.980835 0.953826 0.536095
0.310704 0.066835 0.757656
0.423468 0.103273 0.756832
0.649805 0.187198 0.754635
0.867735 0.274205 0.750942
0.999512 0.386664 0.707149
0.332830 0.344305 0.755154
0.435370 0.348058 0.754513
0.651972 0.362982 0.752316
0.865507 0.392340 0.749111
0.997162 0.465736 0.709865
0.358587 0.605341 0.749386
0.453285 0.606378 0.748867
0.656580 0.607904 0.747066
0.858427 0.614557 0.743587
0.990021 0.658473 0.726192
0.388952 0.835386 0.743862
0.471260 0.833371 0.743404
0.661158 0.827604 0.742214
0.849668 0.820981 0.739284
0.980896 0.838010 0.759304
0.460151 0.974365 0.705806
0.522179 0.971588 0.707454
0.680354 0.963012 0.715755
0.841123 0.953979 0.733822
0.972686 0.952697 0.747677
0.368963 0.160769 0.934051
0.446632 0.182895 0.933379
0.630640 0.242130 0.931243
0.822538 0.313909 0.928374
0.986053 0.391302 0.925719
0.392676 0.354894 0.931701
0.463203 0.360510 0.931151
0.637049 0.378637 0.929381
0.822751 0.411749 0.927031
0.983825 0.463691 0.924681
0.434791 0.590295 0.926940
0.501427 0.595361 0.926390
0.655085 0.601373 0.925048
0.823606 0.613031 0.923369
0.976440 0.639368 0.921630
0.455177 0.794430 0.922393
0.516106 0.794888 0.922087
0.673243 0.799039 0.920897
0.834958 0.812039 0.919219
0.966339 0.818448 0.918151
0.494423 0.964752 0.920470
0.547448 0.962951 0.920348
0.689906 0.957610 0.920012
0.839078 0.952483 0.919951
0.960632 0.950072 0.920928
