其他预设/【239】阳光逆光效果预设26款/1.LUT预设（视频调色-PR-AE-PS-FCPX-达芬奇用）/阳光逆光预设__-23.cube
# Created by Adobe Lightroom plugin Export LUT (1.17.0)
# www.johnrellis.com/lightroom/exportlut.htm
# Preset: 阳光逆光预设[素锦印象]-23
# Color profile: /Library/Application Support/Adobe/Color/Profiles/Recommended/AdobeRGB1998.icc
LUT_3D_SIZE 32
0.000000 0.000000 0.000000
0.000000 0.000000 0.000000
0.000000 0.000000 0.000000
0.035279 0.000000 0.000000
0.075776 0.000000 0.000000
0.101198 0.000000 0.000000
0.128206 0.000000 0.000000
0.156558 0.000000 0.000000
0.186740 0.000000 0.000000
0.218082 0.000000 0.000000
0.250797 0.000000 0.000000
0.284276 0.000000 0.000000
0.318639 0.000000 0.000000
0.353948 0.000000 0.000000
0.390204 0.000000 0.000000
0.427405 0.000000 0.000000
0.465583 0.000000 0.000000
0.504540 0.000000 0.000000
0.544305 0.000000 0.000000
0.586389 0.000000 0.000000
0.630243 0.000000 0.000000
0.674983 0.000000 0.000000
0.720394 0.000000 0.000000
0.765866 0.000000 0.000000
0.808896 0.000000 0.000000
0.849271 0.000000 0.000000
0.886992 0.000000 0.000000
0.922087 0.000000 0.000000
0.954864 0.000000 0.000000
0.985473 0.000000 0.000000
1.000000 0.000000 0.000000
1.000000 0.000000 0.000000
0.000000 0.000000 0.000000
0.000000 0.000000 0.000000
0.000000 0.000000 0.000000
0.039368 0.000000 0.000000
0.076173 0.000000 0.000000
0.101625 0.000000 0.000000
0.128603 0.000000 0.000000
0.157046 0.000000 0.000000
0.186954 0.000000 0.000000
0.218357 0.000000 0.000000
0.251011 0.000000 0.000000
0.284398 0.000000 0.000000
0.318791 0.000000 0.000000
0.354192 0.000000 0.000000
0.390417 0.000000 0.000000
0.427558 0.000000 0.000000
0.465705 0.000000 0.000000
0.504753 0.000000 0.000000
0.544457 0.000000 0.000000
0.586450 0.000000 0.000000
0.630335 0.000000 0.000000
0.675074 0.000000 0.000000
0.720424 0.000000 0.000000
0.765927 0.000000 0.000000
0.808957 0.000000 0.000000
0.849302 0.000000 0.000000
0.887022 0.000000 0.000000
0.922118 0.000000 0.000000
0.954864 0.000000 0.000000
0.985504 0.000000 0.000000
1.000000 0.000000 0.000000
1.000000 0.000000 0.000000
0.000000 0.000000 0.000000
0.000000 0.000000 0.000000
0.000000 0.000000 0.000000
0.041413 0.000000 0.000000
0.076875 0.000000 0.000000
0.102022 0.000000 0.000000
0.128634 0.000000 0.000000
0.157046 0.000000 0.000000
0.187106 0.000000 0.000000
0.218570 0.000000 0.000000
0.251072 0.000000 0.000000
0.284611 0.000000 0.000000
0.318975 0.000000 0.000000
0.354345 0.000000 0.000000
0.390478 0.000000 0.000000
0.427710 0.000000 0.000000
0.465827 0.000000 0.000000
0.504814 0.000000 0.000000
0.544640 0.000000 0.000000
0.586542 0.000000 0.000000
0.630518 0.000000 0.000000
0.675227 0.000000 0.000000
0.720607 0.000000 0.000000
0.766049 0.000000 0.000000
0.809079 0.000000 0.000000
0.849363 0.000000 0.000000
0.887083 0.000000 0.000000
0.922148 0.000000 0.000000
0.954925 0.000000 0.000000
0.985504 0.000000 0.000000
1.000000 0.000000 0.000000
1.000000 0.000000 0.000000
0.000000 0.034882 0.000000
0.000000 0.037293 0.000000
0.000000 0.039460 0.000000
0.042023 0.035248 0.000336
0.076356 0.032044 0.000000
0.102602 0.024689 0.000000
0.129274 0.016663 0.000000
0.157687 0.008087 0.000000
0.187594 0.000000 0.000000
0.218906 0.000000 0.000000
0.251530 0.000000 0.000000
0.285039 0.000000 0.000000
0.319249 0.000000 0.000000
0.354620 0.000000 0.000000
0.390936 0.000000 0.000000
0.428107 0.000000 0.000000
0.466224 0.000000 0.000000
0.505180 0.000000 0.000000
0.544915 0.000000 0.000000
0.586847 0.000000 0.000000
0.630793 0.000000 0.000000
0.675471 0.000000 0.000000
0.720821 0.000000 0.000000
0.766232 0.000000 0.000000
0.809232 0.000000 0.000000
0.849516 0.000000 0.000000
0.887205 0.000000 0.000000
0.922240 0.000000 0.000000
0.954955 0.000000 0.000000
0.985534 0.000000 0.000000
1.000000 0.000000 0.000000
1.000000 0.000000 0.000000
0.000000 0.069642 0.000000
0.000000 0.070527 0.000000
0.000000 0.070802 0.000000
0.040223 0.070344 0.000000
0.072816 0.065766 0.001587
0.097688 0.065431 0.000366
0.129824 0.064973 0.000000
0.158755 0.063142 0.000000
0.188510 0.060792 0.000000
0.219883 0.058259 0.000000
0.252293 0.053315 0.000000
0.285649 0.043397 0.000000
0.319982 0.027008 0.000000
0.355230 0.007294 0.000000
0.391455 0.000000 0.000000
0.428565 0.000000 0.000000
0.466682 0.000000 0.000000
0.505547 0.000000 0.000000
0.545342 0.000000 0.000000
0.587366 0.000000 0.000000
0.631189 0.000000 0.000000
0.675929 0.000000 0.000000
0.721248 0.000000 0.000000
0.766659 0.000000 0.000000
0.809506 0.000000 0.000000
0.849760 0.000000 0.000000
0.887327 0.000000 0.000000
0.922332 0.000000 0.000000
0.955016 0.000000 0.000000
0.985565 0.000000 0.000000
1.000000 0.000000 0.000000
1.000000 0.000000 0.000000
0.000000 0.092592 0.000000
0.000000 0.093141 0.000000
0.000000 0.092958 0.000000
0.041352 0.092866 0.000000
0.076356 0.090486 0.000000
0.096956 0.085512 0.000641
0.121157 0.085847 0.002838
0.154818 0.089418 0.000000
0.189487 0.090852 0.000000
0.220951 0.090730 0.000000
0.253208 0.089906 0.000000
0.286473 0.087678 0.000000
0.320623 0.084901 0.000000
0.355993 0.080507 0.000000
0.392065 0.074525 0.000000
0.429297 0.066285 0.000000
0.467353 0.051514 0.000000
0.506157 0.019287 0.000000
0.545922 0.000000 0.000000
0.588037 0.000000 0.000000
0.631861 0.000000 0.000000
0.676539 0.000000 0.000000
0.721798 0.000000 0.000000
0.767117 0.000000 0.000000
0.809903 0.000000 0.000000
0.850034 0.000000 0.000000
0.887572 0.000000 0.000000
0.922484 0.000000 0.000000
0.955108 0.000000 0.000000
0.985626 0.000000 0.000000
1.000000 0.000000 0.000000
1.000000 0.000000 0.000000
0.000000 0.116274 0.000000
0.000000 0.116274 0.000000
0.001160 0.116091 0.000000
0.047456 0.115969 0.000000
0.080201 0.116030 0.000000
0.104128 0.111513 0.000000
0.123201 0.106203 0.000000
0.145418 0.106416 0.005768
0.181491 0.112764 0.000000
0.218296 0.116518 0.000000
0.254368 0.118013 0.000000
0.287663 0.117861 0.000000
0.321721 0.117006 0.000000
0.357000 0.115358 0.000000
0.393072 0.112917 0.000000
0.430152 0.109346 0.000000
0.468177 0.104982 0.000000
0.507042 0.099001 0.000000
0.546807 0.092012 0.000000
0.588861 0.083467 0.000000
0.632654 0.073823 0.000000
0.677302 0.060487 0.000000
0.722499 0.032013 0.000000
0.767727 0.000000 0.000000
0.810391 0.000000 0.000000
0.850401 0.000000 0.000000
0.887816 0.000000 0.000000
0.922667 0.000000 0.000000
0.955230 0.000000 0.000000
0.985687 0.000000 0.000000
1.000000 0.000000 0.000000
1.000000 0.000000 0.000000
0.000000 0.140627 0.000000
0.000000 0.140810 0.000000
0.013855 0.140597 0.000000
0.058778 0.140627 0.000000
0.085847 0.140719 0.000000
0.111177 0.138643 0.000000
0.132937 0.133944 0.000000
0.150820 0.128908 0.003479
0.172519 0.128573 0.017548
0.210208 0.136538 0.000000
0.248386 0.141848 0.000000
0.286931 0.144747 0.000000
0.323003 0.145815 0.000000
0.358129 0.145754 0.000000
0.394232 0.145174 0.000000
0.431281 0.143740 0.000000
0.469245 0.141817 0.000000
0.507958 0.139376 0.000000
0.547753 0.136385 0.000000
0.589899 0.133150 0.000000
0.633600 0.129671 0.000000
0.678157 0.125887 0.000000
0.723354 0.122591 0.000000
0.768460 0.119203 0.000000
0.810941 0.116213 0.000000
0.850828 0.113436 0.000000
0.888121 0.110597 0.000000
0.922911 0.108217 0.000000
0.955383 0.106416 0.000000
0.985748 0.104860 0.000000
1.000000 0.103792 0.000000
1.000000 0.103120 0.000000
0.000000 0.166903 0.000000
0.001831 0.166842 0.000000
0.025544 0.166781 0.000000
0.064942 0.166873 0.000000
0.091249 0.166842 0.000000
0.117281 0.166690 0.000000
0.141543 0.163333 0.000000
0.162509 0.158541 0.000000
0.180911 0.153506 0.007324
0.201266 0.151858 0.029145
0.240085 0.160800 0.001099
0.279301 0.167025 0.000000
0.319005 0.171389 0.000000
0.359411 0.174319 0.000000
0.395636 0.174838 0.000000
0.432502 0.175021 0.000000
0.470466 0.174716 0.000000
0.509209 0.174228 0.000000
0.548913 0.173190 0.000000
0.591028 0.172488 0.000000
0.634699 0.172000 0.000000
0.679225 0.171237 0.000000
0.724361 0.170657 0.000000
0.769253 0.170596 0.000000
0.811612 0.170291 0.000000
0.851347 0.169528 0.000000
0.888518 0.169039 0.000000
0.923186 0.168490 0.000000
0.955535 0.168002 0.000000
0.985870 0.167178 0.000000
1.000000 0.166659 0.000000
1.000000 0.166232 0.000000
0.000000 0.194369 0.000000
0.011810 0.194430 0.000000
0.038300 0.194461 0.000000
0.071382 0.194430 0.000000
0.097230 0.194400 0.000000
0.123171 0.194247 0.000000
0.149142 0.193484 0.000000
0.172244 0.189242 0.000000
0.193362 0.184421 0.000000
0.212284 0.179477 0.009857
0.232273 0.176791 0.038209
0.270878 0.185763 0.010376
0.311162 0.192905 0.000000
0.351965 0.198245 0.000000
0.393469 0.202274 0.000000
0.434028 0.204807 0.000000
0.471931 0.205722 0.000000
0.510521 0.206332 0.000000
0.550256 0.207065 0.000000
0.592370 0.207889 0.000000
0.636011 0.209201 0.000000
0.680415 0.210452 0.000000
0.725521 0.211887 0.000000
0.770230 0.213535 0.000000
0.812345 0.214603 0.000000
0.851926 0.215305 0.000000
0.888975 0.215793 0.000000
0.923461 0.216007 0.000000
0.955749 0.215824 0.000000
0.985962 0.215518 0.000000
1.000000 0.215213 0.000000
1.000000 0.214755 0.000000
0.003388 0.223026 0.000000
0.023255 0.223056 0.000000
0.050904 0.223056 0.000000
0.077119 0.223087 0.000000
0.102480 0.222965 0.000000
0.128756 0.222934 0.000000
0.155093 0.222904 0.000000
0.180484 0.220706 0.000000
0.203738 0.216251 0.000000
0.225254 0.211337 0.000000
0.244602 0.206149 0.011963
0.265049 0.203220 0.045045
0.302464 0.211551 0.019318
0.343847 0.219669 0.000000
0.385779 0.226047 0.000000
0.428382 0.231174 0.000000
0.471748 0.235203 0.000000
0.511955 0.237613 0.000000
0.551781 0.239292 0.000000
0.593988 0.241611 0.000000
0.637507 0.244236 0.000000
0.681819 0.246799 0.000000
0.726802 0.249851 0.000000
0.771328 0.252689 0.000000
0.813230 0.254856 0.000000
0.852598 0.256565 0.000000
0.889403 0.257603 0.000000
0.923796 0.258274 0.000000
0.955932 0.258579 0.000000
0.986023 0.258427 0.000000
1.000000 0.258030 0.000000
1.000000 0.257725 0.000000
0.010956 0.252720 0.000000
0.033539 0.252689 0.000000
0.059236 0.252567 0.000000
0.082246 0.252537 0.000000
0.107790 0.252628 0.000000
0.133852 0.252567 0.000000
0.160433 0.252537 0.000000
0.187564 0.252476 0.000000
0.212833 0.248631 0.000000
0.236240 0.244053 0.000000
0.257969 0.239017 0.000000
0.277928 0.233799 0.011688
0.298650 0.230594 0.048920
0.334966 0.238163 0.030518
0.377295 0.247257 0.000000
0.420264 0.254582 0.000000
0.463996 0.260838 0.000000
0.508354 0.266056 0.000000
0.553460 0.270787 0.000000
0.595666 0.274327 0.000000
0.639155 0.278019 0.000000
0.683345 0.281895 0.000000
0.728206 0.285863 0.000000
0.772488 0.289830 0.000000
0.814206 0.292973 0.000000
0.853330 0.295262 0.000000
0.889952 0.296941 0.000000
0.924163 0.297978 0.000000
0.956146 0.298466 0.000000
0.986175 0.298436 0.000000
1.000000 0.298283 0.000000
1.000000 0.297704 0.000000
0.019226 0.283268 0.000000
0.041627 0.283330 0.000000
0.063447 0.283360 0.000000
0.086275 0.283299 0.000000
0.112062 0.283299 0.000000
0.138643 0.283238 0.000000
0.165774 0.283238 0.000000
0.193332 0.283177 0.000000
0.220737 0.282017 0.000000
0.245853 0.277653 0.000000
0.269657 0.272862 0.000000
0.291752 0.267613 0.000000
0.312139 0.262303 0.011749
0.333043 0.258793 0.053437
0.368078 0.265476 0.045808
0.411383 0.275547 0.000000
0.455543 0.284092 0.000000
0.500206 0.291295 0.000000
0.546075 0.298009 0.000000
0.594232 0.305119 0.000000
0.640955 0.311101 0.000000
0.685054 0.315862 0.000000
0.729824 0.321019 0.000000
0.773800 0.325902 0.000000
0.815183 0.329656 0.000000
0.854093 0.332525 0.000000
0.890532 0.334630 0.000000
0.924529 0.336004 0.000000
0.956390 0.336614 0.000000
0.986267 0.336736 0.000000
1.000000 0.336492 0.000000
1.000000 0.335851 0.000000
0.027832 0.314977 0.000000
0.051453 0.315007 0.000000
0.068147 0.315007 0.000000
0.090517 0.315038 0.000000
0.116274 0.314977 0.000000
0.143435 0.314977 0.000000
0.171115 0.314916 0.000000
0.198978 0.314946 0.000000
0.227329 0.314763 0.000000
0.254582 0.312261 0.000000
0.279942 0.307622 0.000000
0.303990 0.302647 0.000000
0.326390 0.297368 0.000000
0.347204 0.291875 0.009033
0.367895 0.287755 0.056428
0.401892 0.293797 0.059327
0.446357 0.304875 0.000000
0.491432 0.314458 0.000000
0.537682 0.323278 0.000000
0.586419 0.332372 0.000000
0.636072 0.341009 0.000000
0.685756 0.349126 0.000000
0.731563 0.355566 0.000000
0.775235 0.361212 0.000000
0.816312 0.365576 0.000000
0.854948 0.368994 0.000000
0.891112 0.371344 0.000000
0.924926 0.372900 0.000000
0.956634 0.373724 0.000000
0.986358 0.373907 0.000000
1.000000 0.373571 0.000000
1.000000 0.372900 0.000000
0.035676 0.347784 0.000000
0.058473 0.347723 0.000000
0.071931 0.347723 0.000000
0.094514 0.347753 0.000000
0.120668 0.347784 0.000000
0.148196 0.347814 0.000000
0.176028 0.347753 0.000000
0.204501 0.347723 0.000000
0.233249 0.347723 0.000000
0.262486 0.347631 0.000000
0.289342 0.343450 0.000000
0.315068 0.338628 0.000000
0.339300 0.333471 0.000000
0.362097 0.328038 0.000000
0.383215 0.322515 0.007050
0.403662 0.317754 0.058991
0.436439 0.323003 0.067811
0.481910 0.335119 0.006867
0.528710 0.346319 0.000000
0.577966 0.357671 0.000000
0.628382 0.368505 0.000000
0.678737 0.378546 0.000000
0.729030 0.388159 0.000000
0.776730 0.395972 0.000000
0.817441 0.400916 0.000000
0.855833 0.404730 0.000000
0.891752 0.407416 0.000000
0.925383 0.409125 0.000000
0.956878 0.410040 0.000000
0.986450 0.410315 0.000000
1.000000 0.409918 0.000000
1.000000 0.409094 0.000000
0.043122 0.381659 0.000000
0.063111 0.381659 0.000000
0.075654 0.381659 0.000000
0.098451 0.381628 0.000000
0.125032 0.381628 0.000000
0.152682 0.381720 0.000000
0.181064 0.381628 0.000000
0.210025 0.381720 0.000000
0.239353 0.381689 0.000000
0.268925 0.381659 0.000000
0.298253 0.380285 0.000000
0.325383 0.375708 0.000000
0.351080 0.370703 0.000000
0.375677 0.365423 0.000000
0.398627 0.359838 0.000000
0.420111 0.354131 0.001801
0.440131 0.348638 0.059846
0.471717 0.353185 0.075502
0.519036 0.367041 0.017792
0.568811 0.380865 0.000000
0.619959 0.394141 0.000000
0.671168 0.406378 0.000000
0.722194 0.417914 0.000000
0.771450 0.427893 0.000000
0.816739 0.435309 0.000000
0.856748 0.440162 0.000000
0.892393 0.443030 0.000000
0.925780 0.444984 0.000000
0.957122 0.445899 0.000000
0.986542 0.446082 0.000000
1.000000 0.445716 0.000000
1.000000 0.444800 0.000000
0.053193 0.416663 0.000000
0.067170 0.416663 0.000000
0.079683 0.416693 0.000000
0.102296 0.416693 0.000000
0.129000 0.416724 0.000000
0.157259 0.416754 0.000000
0.186038 0.416724 0.000000
0.215579 0.416815 0.000000
0.245426 0.416815 0.000000
0.275456 0.416754 0.000000
0.305882 0.416846 0.000000
0.334844 0.413855 0.000000
0.362127 0.409064 0.000000
0.388098 0.403876 0.000000
0.412940 0.398413 0.000000
0.436164 0.392798 0.000000
0.457893 0.386969 0.000000
0.478004 0.381262 0.059388
0.508782 0.385199 0.083070
0.558953 0.401770 0.026459
0.610956 0.417762 0.000000
0.662867 0.432441 0.000000
0.714656 0.446082 0.000000
0.764889 0.458198 0.000000
0.811124 0.467262 0.000000
0.853666 0.473976 0.000000
0.892729 0.478279 0.000000
0.926207 0.480385 0.000000
0.957336 0.481331 0.000000
0.986603 0.481544 0.000000
1.000000 0.481056 0.000000
1.000000 0.480018 0.000000
0.059174 0.452857 0.000000
0.071138 0.452827 0.000000
0.083986 0.452888 0.000000
0.106386 0.452857 0.000000
0.133394 0.452918 0.000000
0.161715 0.452979 0.000000
0.191043 0.453071 0.000000
0.220920 0.453132 0.000000
0.251377 0.453162 0.000000
0.282017 0.453315 0.000000
0.312963 0.453498 0.000000
0.344121 0.453529 0.000000
0.372839 0.448981 0.000000
0.400458 0.444160 0.000000
0.426856 0.439033 0.000000
0.451911 0.433661 0.000000
0.475807 0.428168 0.000000
0.498054 0.422522 0.000000
0.518822 0.416846 0.055116
0.549126 0.420386 0.087526
0.601282 0.439124 0.033234
0.654108 0.456458 0.000000
0.706691 0.472511 0.000000
0.757870 0.486946 0.000000
0.804990 0.498024 0.000000
0.848356 0.506279 0.000000
0.888060 0.511864 0.000000
0.924590 0.515221 0.000000
0.957549 0.516594 0.000000
0.986633 0.516716 0.000000
1.000000 0.516106 0.000000
1.000000 0.514946 0.000000
0.062501 0.491554 0.000000
0.074250 0.491554 0.000000
0.087678 0.491554 0.000000
0.109895 0.491676 0.000000
0.137118 0.491768 0.000000
0.166293 0.491859 0.000000
0.196384 0.492042 0.000000
0.226963 0.492164 0.000000
0.258030 0.492470 0.000000
0.289372 0.492744 0.000000
0.320989 0.492988 0.000000
0.352819 0.493385 0.000000
0.384161 0.492103 0.000000
0.413336 0.487495 0.000000
0.441413 0.482734 0.000000
0.468360 0.477638 0.000000
0.494087 0.472450 0.000000
0.518486 0.467079 0.000000
0.541527 0.461707 0.000000
0.563104 0.456245 0.039918
0.594171 0.460182 0.084565
0.644739 0.478370 0.037720
0.698085 0.497169 0.000000
0.750332 0.514092 0.000000
0.798428 0.527367 0.000000
0.842588 0.537407 0.000000
0.883055 0.544518 0.000000
0.920165 0.549004 0.000000
0.954314 0.551324 0.000000
0.985870 0.551720 0.000000
1.000000 0.550988 0.000000
1.000000 0.549676 0.000000
0.064179 0.533227 0.000000
0.076814 0.533257 0.000000
0.090089 0.533288 0.000000
0.113039 0.533379 0.000000
0.141115 0.533501 0.000000
0.170993 0.533684 0.000000
0.201968 0.533776 0.000000
0.233249 0.533989 0.000000
0.264927 0.534325 0.000000
0.297093 0.534630 0.000000
0.329442 0.534966 0.000000
0.361975 0.535393 0.000000
0.394781 0.535790 0.000000
0.425971 0.532952 0.000000
0.455695 0.528496 0.000000
0.484291 0.523735 0.000000
0.511833 0.518883 0.000000
0.538170 0.513878 0.000000
0.563256 0.508751 0.000000
0.587030 0.503563 0.000000
0.609430 0.498421 0.013001
0.640162 0.501915 0.079896
0.689021 0.519646 0.043427
0.742214 0.539391 0.000000
0.791379 0.555138 0.000000
0.836423 0.567254 0.000000
0.877653 0.575952 0.000000
0.915404 0.581842 0.000000
0.950072 0.585290 0.000000
0.982086 0.586633 0.000000
1.000000 0.586175 0.000000
1.000000 0.584283 0.000000
0.064363 0.576745 0.000000
0.076997 0.576745 0.000000
0.091920 0.576776 0.000000
0.115694 0.576898 0.000000
0.144686 0.576959 0.000000
0.175265 0.577111 0.000000
0.207034 0.577295 0.000000
0.238987 0.577569 0.000000
0.271672 0.577813 0.000000
0.304387 0.578149 0.000000
0.337560 0.578576 0.000000
0.370916 0.578973 0.000000
0.404273 0.579522 0.000000
0.437751 0.579767 0.000000
0.468940 0.575647 0.000000
0.499184 0.571344 0.000000
0.528344 0.566796 0.000000
0.556481 0.562097 0.000000
0.583368 0.557336 0.000000
0.609094 0.552453 0.000000
0.633570 0.547601 0.000000
0.656733 0.542779 0.000000
0.686946 0.545708 0.072847
0.733700 0.562707 0.049836
0.783963 0.581262 0.000000
0.829923 0.595605 0.000000
0.871916 0.606226 0.000000
0.910307 0.613642 0.000000
0.945556 0.618341 0.000000
0.977996 0.620752 0.000000
1.000000 0.621210 0.000000
1.000000 0.620447 0.000000
0.064179 0.621820 0.000000
0.077607 0.621881 0.000000
0.092409 0.621881 0.000000
0.117037 0.622004 0.000000
0.147372 0.622126 0.000000
0.179019 0.622278 0.000000
0.211521 0.622553 0.000000
0.244450 0.622705 0.000000
0.277928 0.623072 0.000000
0.311742 0.623407 0.000000
0.345495 0.623865 0.000000
0.379644 0.624353 0.000000
0.413794 0.624933 0.000000
0.448005 0.625513 0.000000
0.481453 0.624353 0.000000
0.513176 0.620356 0.000000
0.543877 0.616144 0.000000
0.573571 0.611872 0.000000
0.602197 0.607477 0.000000
0.629633 0.602899 0.000000
0.655970 0.598444 0.000000
0.680995 0.593927 0.000000
0.704860 0.589532 0.000000
0.733883 0.591363 0.063050
0.776059 0.605432 0.062348
0.822965 0.622370 0.000000
0.865812 0.635157 0.000000
0.904936 0.644282 0.000000
0.940703 0.650446 0.000000
0.973663 0.654047 0.000000
1.000000 0.655818 0.000000
1.000000 0.656580 0.000000
0.061646 0.668360 0.000000
0.075257 0.668391 0.000000
0.091371 0.668482 0.000000
0.118379 0.668482 0.000000
0.149111 0.668605 0.000000
0.182162 0.668727 0.000000
0.215732 0.668910 0.000000
0.249454 0.669123 0.000000
0.283879 0.669368 0.000000
0.318273 0.669581 0.000000
0.352850 0.669947 0.000000
0.387518 0.670253 0.000000
0.422187 0.670649 0.000000
0.456886 0.671046 0.000000
0.491554 0.671504 0.000000
0.524834 0.668910 0.000000
0.556909 0.664973 0.000000
0.587976 0.661036 0.000000
0.618006 0.656916 0.000000
0.646998 0.652857 0.000000
0.674800 0.648646 0.000000
0.701503 0.644434 0.000000
0.726986 0.640375 0.000000
0.751217 0.636347 0.000000
0.777920 0.636133 0.053834
0.815671 0.647272 0.077913
0.859403 0.662470 0.000000
0.899229 0.673640 0.000000
0.935576 0.681422 0.000000
0.968963 0.686549 0.000000
0.999725 0.689876 0.000000
1.000000 0.692317 0.000000
0.056916 0.713588 0.000000
0.072908 0.713619 0.000000
0.090425 0.713588 0.000000
0.118318 0.713649 0.000000
0.150607 0.713710 0.000000
0.184237 0.713771 0.000000
0.218753 0.713863 0.000000
0.253330 0.713954 0.000000
0.288426 0.714046 0.000000
0.323430 0.714168 0.000000
0.358556 0.714351 0.000000
0.393652 0.714504 0.000000
0.428717 0.714717 0.000000
0.463783 0.714931 0.000000
0.498726 0.715175 0.000000
0.533288 0.715114 0.000000
0.566522 0.711604 0.000000
0.598749 0.707912 0.000000
0.629969 0.704189 0.000000
0.660121 0.700374 0.000000
0.689174 0.696559 0.000000
0.717189 0.692683 0.000000
0.744015 0.688899 0.000000
0.769711 0.685115 0.000000
0.794156 0.681514 0.000000
0.818875 0.679652 0.053681
0.852659 0.688014 0.097810
0.893217 0.701503 0.055756
0.930144 0.711208 0.000000
0.963989 0.718135 0.000000
0.995026 0.723110 0.000000
1.000000 0.727230 0.000000
0.048066 0.756924 0.000000
0.070436 0.756924 0.000000
0.088716 0.756954 0.000000
0.117891 0.756954 0.000000
0.151278 0.756924 0.000000
0.185916 0.756954 0.000000
0.220981 0.756924 0.000000
0.256107 0.756985 0.000000
0.291752 0.756985 0.000000
0.327214 0.756985 0.000000
0.362676 0.757015 0.000000
0.398291 0.757046 0.000000
0.433722 0.757107 0.000000
0.468940 0.757137 0.000000
0.504021 0.757198 0.000000
0.538933 0.757321 0.000000
0.573266 0.755947 0.000000
0.606409 0.752590 0.000000
0.638544 0.749142 0.000000
0.669734 0.745632 0.000000
0.699855 0.742061 0.000000
0.728908 0.738521 0.000000
0.756863 0.735012 0.000000
0.783688 0.731594 0.000000
0.809445 0.728237 0.000000
0.833982 0.725032 0.000000
0.856931 0.721706 0.065736
0.886961 0.727596 0.121462
0.924498 0.739498 0.098360
0.958740 0.748318 0.072511
0.990173 0.755093 0.024872
1.000000 0.761044 0.000000
0.040528 0.798276 0.000000
0.068025 0.798276 0.000000
0.087373 0.798245 0.000000
0.117250 0.798215 0.000000
0.151369 0.798184 0.000000
0.186587 0.798184 0.000000
0.222141 0.798093 0.000000
0.258000 0.798001 0.000000
0.293889 0.797940 0.000000
0.329717 0.797818 0.000000
0.365576 0.797696 0.000000
0.401282 0.797635 0.000000
0.436866 0.797513 0.000000
0.472358 0.797391 0.000000
0.507561 0.797299 0.000000
0.542473 0.797238 0.000000
0.577203 0.797177 0.000000
0.611231 0.794705 0.000000
0.644190 0.791531 0.000000
0.676143 0.788327 0.000000
0.707118 0.785061 0.000000
0.737087 0.781765 0.000000
0.765896 0.778561 0.000000
0.793698 0.775387 0.000000
0.820401 0.772274 0.000000
0.846036 0.769284 0.000000
0.870573 0.766415 0.000000
0.892576 0.762661 0.084016
0.918791 0.765988 0.147585
0.953399 0.776761 0.135836
0.985168 0.785428 0.126284
1.000000 0.793271 0.122194
0.032136 0.837461 0.000000
0.064973 0.837461 0.000000
0.085542 0.837430 0.000000
0.116518 0.837369 0.000000
0.151217 0.837308 0.000000
0.186954 0.837217 0.000000
0.222782 0.837125 0.000000
0.258885 0.836973 0.000000
0.295109 0.836820 0.000000
0.331304 0.836637 0.000000
0.367193 0.836423 0.000000
0.403052 0.836240 0.000000
0.438758 0.835966 0.000000
0.474281 0.835752 0.000000
0.509545 0.835508 0.000000
0.544518 0.835264 0.000000
0.579217 0.835050 0.000000
0.613550 0.834531 0.000000
0.647242 0.831571 0.000000
0.679927 0.828580 0.000000
0.711543 0.825559 0.000000
0.742214 0.822568 0.000000
0.771847 0.819547 0.000000
0.800443 0.816617 0.000000
0.828000 0.813718 0.000000
0.854551 0.810880 0.000000
0.880034 0.808194 0.000000
0.904326 0.805692 0.000000
0.925628 0.801968 0.108492
0.949401 0.804074 0.169223
0.980102 0.813687 0.174502
1.000000 0.823423 0.175448
0.024048 0.874601 0.000000
0.061860 0.874601 0.000000
0.083314 0.874571 0.000000
0.114992 0.874540 0.000000
0.150668 0.874418 0.000000
0.186740 0.874296 0.000000
0.223117 0.874144 0.000000
0.259159 0.873960 0.000000
0.295445 0.873716 0.000000
0.331762 0.873472 0.000000
0.367895 0.873198 0.000000
0.403784 0.872892 0.000000
0.439612 0.872557 0.000000
0.475105 0.872190 0.000000
0.510338 0.871855 0.000000
0.545220 0.871489 0.000000
