其他预设/【239】阳光逆光效果预设26款/1.LUT预设（视频调色-PR-AE-PS-FCPX-达芬奇用）/阳光逆光预设__-3.cube
# Created by Adobe Lightroom plugin Export LUT (1.17.0)
# www.johnrellis.com/lightroom/exportlut.htm
# Preset: 阳光逆光预设[素锦印象]-3
# Color profile: /Library/Application Support/Adobe/Color/Profiles/Recommended/AdobeRGB1998.icc
LUT_3D_SIZE 32
0.000000 0.000000 0.000000
0.062501 0.000946 0.001282
0.092927 0.001984 0.001831
0.146517 0.000000 0.002106
0.211948 0.000000 0.000000
0.276707 0.000000 0.000000
0.339086 0.000000 0.000000
0.398352 0.000000 0.000000
0.455329 0.000000 0.000000
0.510063 0.000000 0.000000
0.563653 0.000000 0.000000
0.614832 0.000000 0.000000
0.663722 0.000000 0.000000
0.710201 0.000000 0.000000
0.753689 0.065095 0.000000
0.794400 0.095094 0.000000
0.830930 0.121553 0.000000
0.862821 0.146365 0.000000
0.890593 0.169253 0.000000
0.915740 0.191287 0.000000
0.938689 0.212284 0.000000
0.959808 0.232181 0.013977
0.979187 0.251408 0.064179
0.996887 0.270146 0.087068
1.000000 0.288182 0.106386
1.000000 0.305821 0.125124
1.000000 0.323186 0.142947
1.000000 0.340307 0.160433
1.000000 0.357092 0.177859
1.000000 0.374029 0.195499
1.000000 0.390936 0.213565
1.000000 0.408026 0.231876
0.005737 0.059480 0.001068
0.062837 0.059266 0.001495
0.090883 0.059724 0.007691
0.144625 0.062989 0.009155
0.209903 0.066041 0.004211
0.274846 0.064973 0.000000
0.337621 0.059693 0.000000
0.397070 0.051881 0.000000
0.454261 0.038239 0.000000
0.509453 0.025910 0.000000
0.562921 0.019532 0.000000
0.614282 0.027649 0.000000
0.663264 0.052552 0.000000
0.709682 0.074220 0.000000
0.753292 0.094667 0.000000
0.794034 0.116457 0.000000
0.830564 0.138277 0.000000
0.862486 0.159457 0.000000
0.890318 0.180087 0.000000
0.915465 0.200381 0.000000
0.938445 0.219944 0.000000
0.959594 0.238773 0.020661
0.978943 0.257359 0.065919
0.996704 0.275364 0.088655
1.000000 0.292943 0.108064
1.000000 0.310246 0.126528
1.000000 0.326909 0.144076
1.000000 0.343847 0.161807
1.000000 0.360449 0.178958
1.000000 0.377050 0.196628
1.000000 0.393713 0.214481
1.000000 0.410559 0.232822
0.011658 0.088624 0.001068
0.066163 0.088350 0.001495
0.095186 0.088960 0.001953
0.143740 0.093904 0.013886
0.207187 0.101198 0.014130
0.272709 0.103517 0.003388
0.335546 0.102449 0.000000
0.395453 0.099825 0.000000
0.452888 0.096315 0.000000
0.508232 0.092805 0.000000
0.561944 0.091951 0.000000
0.613367 0.093721 0.000000
0.662470 0.099092 0.000000
0.709010 0.109834 0.000000
0.752651 0.123873 0.000000
0.793576 0.139620 0.000000
0.830106 0.157626 0.000000
0.862058 0.175692 0.000000
0.889921 0.193790 0.000000
0.915068 0.212009 0.000000
0.938140 0.230137 0.000000
0.959319 0.247623 0.028046
0.978668 0.265385 0.069368
0.996460 0.282322 0.090700
1.000000 0.299321 0.110170
1.000000 0.315862 0.128328
1.000000 0.332219 0.145785
1.000000 0.348577 0.163363
1.000000 0.364752 0.180484
1.000000 0.381079 0.198093
1.000000 0.397345 0.215854
1.000000 0.414008 0.234226
0.024445 0.139834 0.000000
0.074067 0.139590 0.000000
0.105226 0.139376 0.000000
0.151858 0.140169 0.000000
0.209140 0.145968 0.009888
0.267674 0.151003 0.017914
0.331304 0.153048 0.000000
0.392065 0.152682 0.000000
0.449958 0.150973 0.000000
0.505882 0.149142 0.000000
0.559838 0.148684 0.000000
0.611658 0.149508 0.000000
0.660853 0.153323 0.000000
0.707515 0.159487 0.000000
0.751400 0.167544 0.000000
0.792355 0.178683 0.000000
0.829068 0.191501 0.000000
0.861051 0.205539 0.000000
0.889036 0.220035 0.000000
0.914275 0.235172 0.000000
0.937438 0.250492 0.000000
0.958618 0.265904 0.047425
0.978058 0.281559 0.076112
0.995850 0.297124 0.096315
1.000000 0.312535 0.114809
1.000000 0.327764 0.132174
1.000000 0.343145 0.149447
1.000000 0.358679 0.166751
1.000000 0.374151 0.183871
1.000000 0.389563 0.201114
1.000000 0.405371 0.218784
1.000000 0.421332 0.237125
0.043214 0.198398 0.000000
0.085725 0.197787 0.000000
0.117067 0.197086 0.000000
0.163058 0.196811 0.000000
0.216007 0.197269 0.000000
0.274815 0.201236 0.000000
0.328832 0.202274 0.003296
0.386908 0.203922 0.000000
0.445686 0.204227 0.000000
0.502129 0.204013 0.000000
0.556573 0.203861 0.000000
0.608759 0.204746 0.000000
0.658412 0.206821 0.000000
0.705287 0.210941 0.000000
0.749355 0.216526 0.000000
0.790494 0.224308 0.000000
0.827390 0.233402 0.000000
0.859556 0.243473 0.000000
0.887663 0.254459 0.000000
0.913085 0.266239 0.000000
0.936309 0.278599 0.024231
0.957610 0.291783 0.064759
0.977081 0.304936 0.085542
0.994965 0.318395 0.104280
1.000000 0.331945 0.121553
1.000000 0.345647 0.138705
1.000000 0.359777 0.155367
1.000000 0.373754 0.172091
1.000000 0.388037 0.188846
1.000000 0.402655 0.206027
1.000000 0.417334 0.223392
1.000000 0.432563 0.241611
0.065309 0.255680 0.000000
0.097688 0.255283 0.000000
0.127108 0.254551 0.000000
0.172702 0.253056 0.000000
0.224765 0.252873 0.000000
0.279332 0.252506 0.000000
0.338415 0.255314 0.000000
0.389502 0.253727 0.000000
0.440070 0.253696 0.000000
0.497322 0.254826 0.000000
0.552392 0.255985 0.000000
0.605127 0.256840 0.000000
0.655024 0.258793 0.000000
0.702358 0.261418 0.000000
0.746700 0.265507 0.000000
0.788052 0.271183 0.000000
0.825223 0.277775 0.000000
0.857542 0.285161 0.000000
0.885832 0.293004 0.000000
0.911406 0.302068 0.017975
0.934752 0.311772 0.060029
0.956176 0.322118 0.079866
0.975799 0.332952 0.097261
0.993744 0.344457 0.114382
1.000000 0.356146 0.130617
1.000000 0.367987 0.146548
1.000000 0.380407 0.162814
1.000000 0.392950 0.179080
1.000000 0.405921 0.195468
1.000000 0.419196 0.212284
1.000000 0.432959 0.229587
1.000000 0.447120 0.247593
0.082582 0.310491 0.000000
0.110475 0.309972 0.000000
0.137911 0.309392 0.000000
0.182315 0.307958 0.000000
0.233005 0.306645 0.000000
0.286442 0.305943 0.000000
0.340917 0.304967 0.000000
0.398810 0.306828 0.000000
0.447761 0.303929 0.000000
0.496376 0.303288 0.000000
0.547295 0.304662 0.003784
0.600488 0.306493 0.000000
0.650935 0.308354 0.000000
0.698665 0.310704 0.000000
0.743404 0.313756 0.000000
0.785061 0.317906 0.000000
0.822446 0.322850 0.000000
0.855039 0.327947 0.003021
0.883574 0.333715 0.032044
0.909300 0.340215 0.062562
0.932860 0.347662 0.079377
0.954437 0.355688 0.095277
0.974151 0.364630 0.110750
0.992218 0.373816 0.125887
1.000000 0.383612 0.141085
1.000000 0.393744 0.156374
1.000000 0.404486 0.171939
1.000000 0.415534 0.187747
1.000000 0.426978 0.203830
1.000000 0.439063 0.220279
1.000000 0.451484 0.237278
1.000000 0.464698 0.255131
0.104402 0.362249 0.000000
0.126833 0.361822 0.000000
0.151431 0.361303 0.000000
0.192966 0.359991 0.000000
0.241947 0.357946 0.000000
0.293523 0.356847 0.000000
0.346593 0.355779 0.000000
0.400183 0.354711 0.000000
0.456825 0.356054 0.000000
0.504204 0.352789 0.000000
0.551049 0.351904 0.000000
0.596765 0.352850 0.037812
0.646204 0.355138 0.043153
0.694362 0.357610 0.035065
0.739498 0.360327 0.033173
0.781491 0.363775 0.035492
0.819150 0.367437 0.047364
0.852049 0.371099 0.061311
0.880797 0.375006 0.072511
0.906828 0.379675 0.085328
0.930571 0.385260 0.098543
0.952331 0.391363 0.111879
0.972168 0.398260 0.125307
0.990387 0.405707 0.139284
1.000000 0.413519 0.153231
1.000000 0.422217 0.167849
1.000000 0.431189 0.182589
1.000000 0.440650 0.197757
1.000000 0.450782 0.213474
1.000000 0.461433 0.229587
1.000000 0.472724 0.246464
1.000000 0.484657 0.264073
0.129915 0.411810 0.000000
0.147768 0.411414 0.000000
0.168948 0.410956 0.000000
0.206577 0.409705 0.000000
0.252873 0.407965 0.000000
0.301915 0.406012 0.000000
0.353033 0.405005 0.000000
0.405188 0.403815 0.000000
0.457618 0.402258 0.000000
0.512963 0.403967 0.000000
0.558618 0.400671 0.000000
0.603326 0.399237 0.000000
0.646693 0.400031 0.052461
0.689509 0.402319 0.081178
0.734890 0.405219 0.080049
0.777279 0.408331 0.080323
0.815366 0.411109 0.083589
0.848631 0.413764 0.089326
0.877684 0.416327 0.097200
0.903960 0.419532 0.106722
0.927947 0.423560 0.117281
0.949889 0.427985 0.128664
0.969879 0.433234 0.140810
0.988220 0.439063 0.153536
1.000000 0.445472 0.166903
1.000000 0.452216 0.180514
1.000000 0.459815 0.194583
1.000000 0.467842 0.209262
1.000000 0.476509 0.224460
1.000000 0.485908 0.240299
1.000000 0.496010 0.256992
1.000000 0.506737 0.274388
0.156008 0.459632 0.000000
0.170840 0.459266 0.000000
0.188785 0.458808 0.000000
0.222660 0.457710 0.000000
0.265599 0.456153 0.000000
0.312505 0.454017 0.000000
0.361364 0.452491 0.000000
0.411627 0.451179 0.000000
0.462470 0.449958 0.000000
0.513085 0.448432 0.000000
0.566857 0.450172 0.000000
0.610529 0.446632 0.000000
0.652888 0.445228 0.000000
0.693599 0.445502 0.066255
0.732570 0.447486 0.097169
0.772702 0.450721 0.108431
0.811215 0.453193 0.109834
0.844755 0.455116 0.113985
0.874113 0.456855 0.120180
0.900694 0.458961 0.127779
0.924956 0.461738 0.136690
0.947082 0.465034 0.146670
0.967315 0.468788 0.157321
0.985779 0.473182 0.169070
1.000000 0.478035 0.181338
1.000000 0.483497 0.194247
1.000000 0.489631 0.207828
1.000000 0.496376 0.221897
1.000000 0.503716 0.236790
1.000000 0.511833 0.252323
1.000000 0.520775 0.268681
1.000000 0.530419 0.285924
0.181521 0.505791 0.000000
0.194034 0.505547 0.000000
0.210178 0.505119 0.000000
0.240299 0.504173 0.000000
0.279942 0.502556 0.000000
0.324254 0.500664 0.000000
0.371160 0.498482 0.000000
0.419257 0.497230 0.000000
0.468391 0.495827 0.000000
0.517815 0.494362 0.000000
0.566552 0.492866 0.000000
0.618341 0.494759 0.000000
0.659693 0.491218 0.000000
0.699550 0.489540 0.001190
0.737697 0.489540 0.077363
0.773770 0.491157 0.108980
0.806760 0.493477 0.134249
0.840482 0.495155 0.137728
0.870207 0.496223 0.142550
0.897124 0.497566 0.148501
0.921630 0.499336 0.156100
0.944030 0.501488 0.164920
0.964446 0.504265 0.174685
0.983093 0.507439 0.185458
1.000000 0.511192 0.197024
1.000000 0.515404 0.209293
1.000000 0.520195 0.222141
1.000000 0.525750 0.235874
1.000000 0.531975 0.250309
1.000000 0.538903 0.265568
1.000000 0.546715 0.281590
1.000000 0.555352 0.298772
0.207614 0.550408 0.000000
0.218265 0.550103 0.000000
0.232425 0.549645 0.000000
0.259159 0.548730 0.000000
0.295659 0.547417 0.000000
0.337316 0.545556 0.000000
0.381964 0.543420 0.000000
0.428138 0.541558 0.000000
0.475471 0.540154 0.000000
0.523247 0.538628 0.000000
0.570703 0.537072 0.000000
0.617395 0.535668 0.000000
0.666987 0.537682 0.000000
0.705959 0.534173 0.000000
0.743099 0.532250 0.028687
0.778256 0.531853 0.090272
0.810300 0.532128 0.121798
0.838834 0.532860 0.147890
0.865965 0.533959 0.164584
0.893248 0.534905 0.169558
0.918059 0.535973 0.175967
0.940673 0.537469 0.183902
0.961303 0.539239 0.192630
0.980163 0.541527 0.202548
0.997406 0.544152 0.213382
1.000000 0.547387 0.225101
1.000000 0.551171 0.237522
1.000000 0.555596 0.250736
1.000000 0.560784 0.264866
1.000000 0.566705 0.279789
1.000000 0.573480 0.295872
1.000000 0.581079 0.312840
0.233097 0.593225 0.000000
0.242100 0.593011 0.000000
0.254398 0.592645 0.000000
0.278660 0.591791 0.000000
0.312139 0.590509 0.000000
0.351019 0.588800 0.000000
0.393591 0.586725 0.000000
0.437873 0.584222 0.000000
0.483253 0.582788 0.000000
0.529229 0.581231 0.000000
0.575341 0.579767 0.000000
0.620874 0.578149 0.000000
0.665431 0.576806 0.000000
0.712551 0.578973 0.000000
0.748867 0.575280 0.000000
0.783017 0.572961 0.061372
0.813962 0.571130 0.105409
0.841672 0.569757 0.136080
0.866667 0.569360 0.162661
0.890013 0.570306 0.186404
0.914275 0.571374 0.196109
0.937133 0.572259 0.203006
0.957946 0.573449 0.211093
0.976989 0.574884 0.220371
0.994385 0.576715 0.230533
1.000000 0.579034 0.241611
1.000000 0.581903 0.253605
1.000000 0.585504 0.266667
1.000000 0.589654 0.280308
1.000000 0.594720 0.295201
1.000000 0.600549 0.310948
1.000000 0.607263 0.327947
0.257939 0.634394 0.000000
0.266453 0.634089 0.000000
0.277073 0.633722 0.000000
0.298985 0.632990 0.000000
0.329412 0.631739 0.000000
0.365972 0.630091 0.000000
0.406134 0.628107 0.000000
0.448493 0.625818 0.000000
0.492012 0.623590 0.000000
0.536217 0.622126 0.000000
0.580713 0.620508 0.000000
0.624872 0.618952 0.000000
0.668177 0.617426 0.000000
0.710323 0.616114 0.000000
0.754391 0.618097 0.000000
0.787930 0.614160 0.000000
0.817746 0.610254 0.081788
0.844602 0.607019 0.121920
0.868986 0.604639 0.151858
0.891783 0.603784 0.178286
0.913054 0.604273 0.202518
0.933379 0.605768 0.222812
0.954437 0.606500 0.230228
0.973632 0.607385 0.238834
0.991180 0.608637 0.248539
1.000000 0.610224 0.259037
1.000000 0.612299 0.270634
1.000000 0.615076 0.283299
1.000000 0.618494 0.296910
1.000000 0.622705 0.311406
1.000000 0.627771 0.327184
1.000000 0.633631 0.344091
0.282780 0.673518 0.000000
0.289982 0.673304 0.000000
0.299382 0.672938 0.000000
0.319280 0.672206 0.000000
0.347601 0.671015 0.000000
0.381445 0.669581 0.000000
0.419287 0.667628 0.000000
0.459541 0.665370 0.000000
0.501213 0.662867 0.000000
0.543816 0.661097 0.000000
0.586542 0.659480 0.000000
0.629206 0.657862 0.000000
0.671229 0.656275 0.000000
0.712337 0.654932 0.000000
0.752102 0.653590 0.000000
0.791867 0.654322 0.000000
0.821653 0.649348 0.025513
0.847593 0.644190 0.102266
0.871366 0.640040 0.138979
0.893645 0.637415 0.168643
0.914458 0.636133 0.194858
0.933898 0.636194 0.219516
0.951843 0.637537 0.243290
0.970123 0.638727 0.257725
0.987823 0.639429 0.266941
1.000000 0.640497 0.277195
1.000000 0.642023 0.288487
1.000000 0.644129 0.300816
1.000000 0.646906 0.314122
1.000000 0.650385 0.328618
1.000000 0.654719 0.344335
1.000000 0.659815 0.361151
0.307042 0.710689 0.000000
0.313725 0.710475 0.000000
0.321935 0.710140 0.000000
0.339879 0.709407 0.000000
0.365698 0.708278 0.000000
0.397284 0.706813 0.000000
0.432624 0.705013 0.000000
0.470924 0.702876 0.000000
0.510918 0.700374 0.000000
0.551507 0.697871 0.000000
0.592554 0.696101 0.000000
0.633570 0.694362 0.000000
0.674006 0.692500 0.000000
0.713619 0.690791 0.000000
0.752010 0.689143 0.000000
0.788907 0.687770 0.000000
0.824094 0.686885 0.000000
0.850645 0.681147 0.074922
0.873838 0.675349 0.123323
0.895598 0.671046 0.157351
0.915984 0.668147 0.186191
0.934997 0.666560 0.212619
0.952697 0.666224 0.237613
0.969085 0.667048 0.261936
0.984314 0.669154 0.286107
1.000000 0.669825 0.296056
1.000000 0.670832 0.306859
1.000000 0.672450 0.319066
1.000000 0.674678 0.332403
1.000000 0.677577 0.346654
1.000000 0.681239 0.362341
1.000000 0.685725 0.379217
0.330724 0.744350 0.000000
0.336248 0.744106 0.000000
0.344060 0.743801 0.000000
0.360266 0.743069 0.000000
0.383825 0.742000 0.000000
0.412848 0.740597 0.000000
0.445869 0.738796 0.000000
0.481971 0.736629 0.000000
0.519768 0.734157 0.000000
0.558618 0.731502 0.000000
0.597803 0.729213 0.000000
0.636927 0.727260 0.000000
0.675746 0.725277 0.000000
0.713802 0.723293 0.000000
0.750881 0.721370 0.000000
0.786496 0.719722 0.000000
0.820706 0.718227 0.000000
0.852079 0.716213 0.025788
0.876341 0.710323 0.102663
0.897581 0.704494 0.143893
0.917510 0.700038 0.176181
0.936156 0.696864 0.204623
0.953521 0.694911 0.231174
0.969665 0.694270 0.256718
0.984649 0.694789 0.281895
0.998505 0.696651 0.307073
1.000000 0.698634 0.326085
1.000000 0.699855 0.338109
1.000000 0.701534 0.351202
1.000000 0.704005 0.365576
1.000000 0.707149 0.381140
1.000000 0.711055 0.398138
0.353246 0.774258 0.000000
0.358434 0.774014 0.000000
0.365301 0.773739 0.000000
0.379858 0.773068 0.000000
0.401373 0.771969 0.000000
0.427955 0.770626 0.000000
0.458839 0.768887 0.000000
0.492439 0.766812 0.000000
0.528252 0.764462 0.000000
0.565240 0.761868 0.020905
0.602564 0.759152 0.052613
0.639948 0.757137 0.051667
0.677089 0.755032 0.052949
0.713771 0.753079 0.053040
0.749538 0.751095 0.056031
0.784085 0.749294 0.058991
0.817411 0.747707 0.061830
0.849149 0.746365 0.065919
0.877348 0.743496 0.086000
0.899626 0.737514 0.127779
0.919097 0.731624 0.164645
0.937346 0.726986 0.195895
0.954406 0.723598 0.224063
0.970306 0.721401 0.250980
0.985046 0.720485 0.277134
0.998749 0.720821 0.303105
1.000000 0.722530 0.329290
1.000000 0.725765 0.356085
1.000000 0.727504 0.370794
1.000000 0.729519 0.385138
1.000000 0.732265 0.400763
1.000000 0.735744 0.417823
0.375433 0.801663 0.000000
0.379889 0.801450 0.000000
0.386206 0.801144 0.000000
0.399298 0.800504 0.000000
0.418677 0.799527 0.000000
0.443214 0.798245 0.009796
0.471748 0.796628 0.025574
0.503319 0.794644 0.046418
0.537072 0.792477 0.062409
0.571984 0.790066 0.073426
0.607691 0.787350 0.084016
0.643397 0.784939 0.090028
0.678981 0.782925 0.091188
0.714168 0.780911 0.091493
0.748592 0.778927 0.092744
0.782071 0.777005 0.094606
0.814389 0.775296 0.096864
0.845335 0.773861 0.099763
0.874968 0.772610 0.103304
0.900511 0.769100 0.118135
0.920745 0.762844 0.151644
0.938598 0.756863 0.186038
0.955352 0.752041 0.216373
0.970977 0.748531 0.244602
0.985504 0.746151 0.271885
0.999054 0.745052 0.298589
1.000000 0.745327 0.325353
1.000000 0.747066 0.352758
1.000000 0.750362 0.380957
1.000000 0.754177 0.405432
1.000000 0.756527 0.421057
1.000000 0.759670 0.438300
0.396612 0.827176 0.061799
0.401007 0.826963 0.062867
0.406470 0.826688 0.064149
0.418280 0.826108 0.066377
0.435981 0.825193 0.070253
0.458625 0.823972 0.074372
0.485084 0.822416 0.080140
0.514305 0.820615 0.086152
0.545892 0.818540 0.092988
0.579156 0.816220 0.099947
0.613092 0.813718 0.108125
0.647395 0.811063 0.116274
0.681331 0.808927 0.118593
0.715053 0.806943 0.119539
0.748196 0.804929 0.121004
0.780484 0.803006 0.122560
0.811765 0.801266 0.124178
0.841825 0.799680 0.127108
0.870665 0.798276 0.129824
0.898283 0.797116 0.133181
0.921538 0.793118 0.146181
0.939849 0.786435 0.174868
0.956268 0.780392 0.207797
0.971618 0.775479 0.237797
0.985962 0.771817 0.266087
0.999329 0.769345 0.293706
1.000000 0.768276 0.321263
1.000000 0.768582 0.349126
1.000000 0.770474 0.377813
1.000000 0.773892 0.407538
1.000000 0.779049 0.438605
1.000000 0.782773 0.459510
0.417456 0.850919 0.096468
0.421241 0.850736 0.096864
0.426337 0.850462 0.097627
0.436988 0.849943 0.099031
0.453254 0.849058 0.101564
0.473976 0.847898 0.104860
0.498268 0.846464 0.108431
0.525505 0.844755 0.113069
0.555322 0.842771 0.118471
0.586572 0.840574 0.124117
0.618769 0.838224 0.130373
0.651484 0.835721 0.137331
0.684138 0.833219 0.143069
0.716274 0.831266 0.144442
0.748074 0.829282 0.145876
0.779171 0.827390 0.147372
0.809415 0.825559 0.149752
0.838590 0.823880 0.151797
0.866606 0.822385 0.154574
0.893553 0.821073 0.157443
0.919402 0.819974 0.160861
0.940734 0.815579 0.172976
0.957244 0.808377 0.198184
0.972320 0.802304 0.230014
0.986450 0.797360 0.259800
0.999634 0.793668 0.288396
1.000000 0.791287 0.316777
1.000000 0.790280 0.345281
1.000000 0.790738 0.374365
1.000000 0.792782 0.404517
1.000000 0.796475 0.436011
1.000000 0.802152 0.468971
0.437598 0.873045 0.123812
0.440925 0.872862 0.124300
0.445502 0.872618 0.124544
0.455238 0.872099 0.125826
0.470100 0.871275 0.127779
0.489204 0.870176 0.130373
0.511681 0.868833 0.133577
0.537102 0.867216 0.137362
0.564813 0.865385 0.141604
0.594263 0.863279 0.146548
0.624811 0.861051 0.152132
0.656001 0.858671 0.158236
0.687282 0.856168 0.164675
0.718105 0.854002 0.168154
0.748409 0.852049 0.169711
0.778317 0.850126 0.171328
0.807370 0.848325 0.173404
0.835569 0.846616 0.175479
0.862791 0.845060 0.178134
0.889036 0.843626 0.180911
0.914275 0.842405 0.184146
0.938567 0.841337 0.187747
0.958221 0.836698 0.198825
0.973022 0.829007 0.221744
0.986938 0.822873 0.253025
0.999969 0.817990 0.282750
1.000000 0.814389 0.311925
1.000000 0.812100 0.341070
1.000000 0.811246 0.370733
1.000000 0.811917 0.401251
1.000000 0.814328 0.432959
1.000000 0.818723 0.466041
0.457313 0.893584 0.148806
0.460365 0.893462 0.149203
0.464485 0.893217 0.149538
0.473457 0.892699 0.150607
0.486976 0.891936 0.152407
0.504356 0.890929 0.154421
0.525170 0.889647 0.157290
0.548638 0.888151 0.160342
0.574731 0.886381 0.164279
0.602380 0.884428 0.168643
0.631189 0.882322 0.173648
0.660761 0.880064 0.179019
0.690517 0.877684 0.184848
0.720302 0.875212 0.191470
0.749233 0.873350 0.192966
0.777859 0.871489 0.194614
0.805783 0.869657 0.196628
0.832944 0.867948 0.198795
0.859312 0.866331 0.201389
0.884794 0.864866 0.204288
0.909392 0.863554 0.207279
0.933104 0.862364 0.210666
0.955932 0.861387 0.214298
0.974182 0.856626 0.224674
0.987427 0.848325 0.245487
1.000000 0.842283 0.276555
1.000000 0.837491 0.306584
1.000000 0.834043 0.336400
1.000000 0.831937 0.366674
1.000000 0.831357 0.397528
1.000000 0.832609 0.429480
1.000000 0.835813 0.462684
0.476661 0.912810 0.172671
0.479408 0.912657 0.173037
0.483223 0.912413 0.173312
0.491341 0.911955 0.174380
0.503593 0.911254 0.175662
0.519554 0.910307 0.177554
0.538659 0.909087 0.180026
0.560632 0.907652 0.182956
0.584894 0.906004 0.186526
0.610834 0.904143 0.190524
0.637995 0.902159 0.195071
0.665858 0.900023 0.200076
0.694240 0.897765 0.205509
0.722591 0.895445 0.211460
0.750576 0.893278 0.216037
0.777859 0.891478 0.217777
0.804654 0.889677 0.219852
0.830808 0.887968 0.222202
0.856199 0.886381 0.224613
0.880919 0.884855 0.227115
0.904753 0.883513 0.230350
0.927825 0.882261 0.233494
0.950164 0.881193 0.237034
0.971740 0.880217 0.240848
0.988800 0.875425 0.250736
1.000000 0.866606 0.269566
1.000000 0.860685 0.300786
1.000000 0.856077 0.331426
1.000000 0.852873 0.362158
1.000000 0.851164 0.393439
1.000000 0.851225 0.425635
1.000000 0.853300 0.458900
0.495766 0.930755 0.195895
0.498207 0.930571 0.196231
0.501640 0.930419 0.196689
0.509056 0.929931 0.197421
0.520317 0.929259 0.198764
0.534874 0.928374 0.200443
0.552605 0.927245 0.202853
0.572900 0.925902 0.205570
0.595422 0.924346 0.208652
0.619715 0.922606 0.212406
0.645167 0.920745 0.216709
0.671656 0.918700 0.221317
0.698512 0.916564 0.226505
0.725521 0.914336 0.231998
0.752377 0.912139 0.238346
0.778500 0.910246 0.241215
0.804044 0.908507 0.243259
0.829160 0.906859 0.245548
0.853605 0.905241 0.247929
0.877409 0.903777 0.250584
0.900511 0.902373 0.253605
0.923003 0.901091 0.256748
0.944732 0.899962 0.260197
0.965789 0.898924 0.263798
0.986175 0.898039 0.267735
1.000000 0.893339 0.277073
1.000000 0.884001 0.294438
1.000000 0.878264 0.325872
1.000000 0.873960 0.357153
1.000000 0.871183 0.388861
1.000000 0.870085 0.421393
1.000000 0.871061 0.454719
0.514733 0.947539 0.219181
0.517021 0.947417 0.219577
0.520165 0.947204 0.219791
0.526879 0.946807 0.220645
0.537072 0.946197 0.221836
0.550500 0.945342 0.223545
0.566674 0.944305 0.225620
0.585504 0.943023 0.228153
0.606470 0.941558 0.231205
0.628992 0.939940 0.234684
0.653010 0.938140 0.238560
0.677852 0.936248 0.243015
0.703243 0.934234 0.247929
0.729000 0.932128 0.253483
0.754543 0.930053 0.259220
0.779812 0.927947 0.265110
0.804166 0.926299 0.267033
0.828122 0.924651 0.269413
0.851591 0.923095 0.271733
0.874510 0.921660 0.274388
0.896849 0.920256 0.277256
0.918608 0.918975 0.280461
0.939696 0.917784 0.283818
0.960204 0.916747 0.287419
0.980072 0.915801 0.291173
0.999420 0.914977 0.295201
1.000000 0.910399 0.304326
1.000000 0.900847 0.320134
1.000000 0.895109 0.351720
1.000000 0.891264 0.383978
1.000000 0.889097 0.416693
1.000000 0.889006 0.450233
0.533745 0.963378 0.242771
0.535851 0.963226 0.243015
0.538689 0.963043 0.243229
0.544640 0.962676 0.243900
0.554070 0.962097 0.245090
0.566308 0.961303 0.246708
0.581292 0.960327 0.248661
0.598596 0.959167 0.251133
0.618036 0.957794 0.254124
0.639063 0.956268 0.257389
0.661463 0.954589 0.261234
0.684749 0.952819 0.265446
0.708766 0.950927 0.270146
0.733059 0.948943 0.275273
0.757412 0.946929 0.281041
0.781552 0.944884 0.287083
0.805051 0.943084 0.291569
0.827848 0.941527 0.293797
0.850309 0.940032 0.296300
0.872282 0.938598 0.298833
0.893767 0.937224 0.301732
0.914733 0.935973 0.304906
0.935149 0.934783 0.308232
0.955047 0.933715 0.311711
0.974395 0.932708 0.315618
0.993225 0.931823 0.319615
1.000000 0.931029 0.323796
1.000000 0.926604 0.332555
1.000000 0.916960 0.347662
1.000000 0.911315 0.378668
1.000000 0.908110 0.411872
1.000000 0.906950 0.445563
0.552819 0.978302 0.266514
0.554742 0.978180 0.266758
0.557305 0.978027 0.267185
0.562829 0.977661 0.267857
0.571405 0.977111 0.268864
0.582635 0.976379 0.270481
0.596368 0.975463 0.272435
0.612207 0.974365 0.274662
0.630152 0.973083 0.277501
0.649805 0.971649 0.280766
0.670649 0.970092 0.284428
0.692531 0.968383 0.288518
0.715023 0.966613 0.293095
0.737972 0.964752 0.298131
0.761044 0.962860 0.303563
0.783993 0.960967 0.309606
