其他预设/【239】阳光逆光效果预设26款/1.LUT预设（视频调色-PR-AE-PS-FCPX-达芬奇用）/阳光逆光预设__-23.cube
# Created by Adobe Lightroom plugin Export LUT (1.17.0)
# www.johnrellis.com/lightroom/exportlut.htm
# Preset: 阳光逆光预设[素锦印象]-23
# Color profile: /Library/Application Support/Adobe/Color/Profiles/Recommended/AdobeRGB1998.icc
LUT_3D_SIZE 5
DOMAIN_MIN 0.000000 0.000000 0.000000
DOMAIN_MAX 0.903226 0.903226 0.903226
0.000000 0.000000 0.000000
0.156558 0.000000 0.000000
0.390204 0.000000 0.000000
0.674983 0.000000 0.000000
0.954864 0.000000 0.000000
0.000000 0.140627 0.000000
0.150820 0.128908 0.003479
0.394232 0.145174 0.000000
0.678157 0.125887 0.000000
0.955383 0.106416 0.000000
0.035676 0.347784 0.000000
0.204501 0.347723 0.000000
0.383215 0.322515 0.007050
0.678737 0.378546 0.000000
0.956878 0.410040 0.000000
0.064179 0.621820 0.000000
0.244450 0.622705 0.000000
0.481453 0.624353 0.000000
0.680995 0.593927 0.000000
0.940703 0.650446 0.000000
0.017151 0.909880 0.000000
0.259068 0.909026 0.000000
0.509911 0.906432 0.000000
0.745418 0.897215 0.000000
0.942229 0.880034 0.065370
0.000000 0.000000 0.133089
0.161898 0.000000 0.134401
0.396521 0.000000 0.135714
0.681422 0.000000 0.107576
0.958343 0.000000 0.003632
0.000000 0.140352 0.133669
0.168399 0.138613 0.133730
0.400793 0.117800 0.126131
0.684352 0.000000 0.098360
0.958709 0.000000 0.000000
0.000000 0.349371 0.131533
0.189700 0.349767 0.118196
0.392950 0.328191 0.147005
0.692287 0.373510 0.052613
0.959747 0.392370 0.000000
0.000000 0.624781 0.000000
0.210178 0.625391 0.000000
0.475074 0.628046 0.000000
0.686976 0.598291 0.127169
0.945586 0.649165 0.009125
0.000000 0.911925 0.000000
0.212406 0.910948 0.000000
0.496437 0.907927 0.000000
0.742672 0.899016 0.000000
0.943847 0.880980 0.169345
0.099153 0.000000 0.299657
0.213870 0.000000 0.299504
0.412451 0.000000 0.300755
0.697566 0.000000 0.318853
0.966430 0.000000 0.306371
0.026520 0.146914 0.300023
0.200443 0.132692 0.299931
0.417914 0.084810 0.300237
0.701961 0.000000 0.309972
0.967987 0.000000 0.292546
0.056458 0.350652 0.296452
0.202426 0.350500 0.295903
0.427649 0.346075 0.294804
0.713649 0.335943 0.282933
0.969146 0.324743 0.267582
0.000000 0.627039 0.300908
0.182956 0.629450 0.292668
0.449287 0.634302 0.265415
0.707088 0.611017 0.290959
0.962768 0.637964 0.254276
0.000000 0.913298 0.258549
0.155032 0.913603 0.246067
0.450996 0.912779 0.207523
0.731807 0.905882 0.200015
0.949767 0.883970 0.318120
0.224979 0.000000 0.475959
0.311772 0.000000 0.475898
0.505303 0.000000 0.475471
0.730831 0.000000 0.476478
0.976562 0.000000 0.484535
0.172885 0.122774 0.476997
0.285069 0.099031 0.476783
0.499794 0.000000 0.475990
0.734432 0.000000 0.476234
0.977630 0.000000 0.480171
0.112306 0.388403 0.475196
0.234958 0.377020 0.475654
0.474434 0.340978 0.475898
0.743984 0.309728 0.473060
0.979370 0.292241 0.466835
0.092744 0.641047 0.468116
0.233066 0.641382 0.467811
0.466865 0.641321 0.466194
0.747189 0.635035 0.464607
0.975921 0.631250 0.457404
0.000000 0.914122 0.457465
0.225315 0.914183 0.453895
0.484047 0.912444 0.445808
0.746426 0.906889 0.446723
0.958282 0.889555 0.502007
0.295354 0.000000 0.757168
0.373938 0.000000 0.757443
0.561120 0.000000 0.758450
0.776272 0.000000 0.760250
0.984924 0.000000 0.751614
0.246372 0.009430 0.758968
0.341985 0.000000 0.759213
0.547784 0.000000 0.760037
0.772244 0.000000 0.761593
0.984802 0.000000 0.751888
0.000000 0.374243 0.763119
0.218631 0.355962 0.763912
0.501610 0.330846 0.764584
0.757870 0.301366 0.765530
0.982361 0.294224 0.753079
0.000000 0.655360 0.766232
0.212985 0.650050 0.766781
0.480537 0.635676 0.767971
0.754696 0.638453 0.767788
0.971435 0.650233 0.757595
0.000000 0.920745 0.770809
0.214115 0.920012 0.771054
0.497047 0.916075 0.771664
0.763333 0.908934 0.772702
0.957214 0.904387 0.781704
