其他预设/【239】阳光逆光效果预设26款/1.LUT预设（视频调色-PR-AE-PS-FCPX-达芬奇用）/阳光逆光预设__-2.cube
# Created by Adobe Lightroom plugin Export LUT (1.17.0)
# www.johnrellis.com/lightroom/exportlut.htm
# Preset: 阳光逆光预设[素锦印象]-2
# Color profile: /Library/Application Support/Adobe/Color/Profiles/Recommended/AdobeRGB1998.icc
LUT_3D_SIZE 5
DOMAIN_MIN 0.000000 0.000000 0.000000
DOMAIN_MAX 0.903226 0.903226 0.903226
0.000000 0.000000 0.000000
0.318059 0.000000 0.000000
0.662928 0.000000 0.000000
0.903258 0.147799 0.000000
1.000000 0.279423 0.026947
0.092287 0.278965 0.000000
0.322210 0.272587 0.000000
0.651057 0.286900 0.000000
0.897185 0.321080 0.000000
1.000000 0.379828 0.099489
0.240055 0.570489 0.000000
0.401190 0.563592 0.000000
0.673396 0.554376 0.000000
0.883268 0.557305 0.117006
1.000000 0.578851 0.210025
0.383734 0.798459 0.000000
0.488930 0.793027 0.000000
0.703029 0.779873 0.000000
0.898222 0.773281 0.000000
1.000000 0.759365 0.260105
0.509575 0.964935 0.145357
0.574273 0.961364 0.155978
0.730159 0.951476 0.192782
0.889097 0.943114 0.226291
1.000000 0.940063 0.255680
0.076722 0.000000 0.201236
0.335485 0.000000 0.205875
0.681147 0.000000 0.174868
0.907103 0.152193 0.179446
1.000000 0.285863 0.205783
0.120180 0.284123 0.197787
0.345312 0.279637 0.193759
0.668635 0.291875 0.191867
0.901030 0.326574 0.191775
1.000000 0.386084 0.223606
0.232517 0.576318 0.164584
0.417853 0.567468 0.177737
0.681453 0.557366 0.172091
0.883574 0.563653 0.244450
1.000000 0.585138 0.289830
0.392798 0.799619 0.170138
0.501854 0.793637 0.181827
0.708888 0.780423 0.196170
0.899260 0.774289 0.198611
1.000000 0.763699 0.339361
0.522606 0.964324 0.254673
0.584527 0.960845 0.261051
0.735348 0.951232 0.284459
0.890257 0.943053 0.310216
1.000000 0.940368 0.332280
0.194705 0.000000 0.421088
0.376562 0.000000 0.419928
0.693416 0.000000 0.427008
0.914183 0.000000 0.402655
1.000000 0.298161 0.409247
0.189914 0.276310 0.419348
0.379767 0.258030 0.418250
0.698695 0.252781 0.418738
0.912627 0.295811 0.399298
1.000000 0.395575 0.417304
0.273228 0.581262 0.414435
0.429419 0.578271 0.410254
0.702510 0.566155 0.409857
0.895079 0.577417 0.428138
1.000000 0.594842 0.451301
0.412604 0.802640 0.401892
0.523217 0.796689 0.407172
0.725307 0.782650 0.423041
0.899809 0.777157 0.427832
1.000000 0.778775 0.515190
0.580468 0.960571 0.457160
0.646143 0.955962 0.477974
0.746731 0.951110 0.467445
0.891844 0.943084 0.487953
1.000000 0.941527 0.499916
0.313329 0.000000 0.654749
0.446937 0.000000 0.654078
0.704097 0.000000 0.651759
0.912779 0.031922 0.631250
1.000000 0.318914 0.609247
0.290867 0.255100 0.654261
0.437629 0.241276 0.653468
0.705440 0.209689 0.650782
0.911162 0.302220 0.628260
1.000000 0.420600 0.616388
0.322667 0.571954 0.648615
0.448096 0.564385 0.648127
0.709773 0.550988 0.645655
0.904234 0.581140 0.631281
1.000000 0.616236 0.643641
0.447303 0.809232 0.633631
0.544213 0.804135 0.633051
0.740383 0.790616 0.637324
0.895109 0.783078 0.650935
1.000000 0.787106 0.674983
0.592035 0.961547 0.631891
0.649561 0.957763 0.640772
0.779141 0.949157 0.670039
0.887724 0.945281 0.676448
1.000000 0.943816 0.685786
0.398352 0.000000 0.887633
0.496590 0.000000 0.887205
0.707881 0.000000 0.885863
0.909422 0.000000 0.883757
1.000000 0.325658 0.820859
0.378729 0.241642 0.887144
0.484169 0.231357 0.886656
0.703059 0.215305 0.885130
0.906676 0.264286 0.882841
1.000000 0.423346 0.822843
0.351232 0.542535 0.884306
0.458076 0.535241 0.884031
0.694484 0.536126 0.882048
0.895781 0.546838 0.880156
1.000000 0.616449 0.833005
0.442145 0.797574 0.879973
0.524651 0.793820 0.879698
0.702815 0.783017 0.879149
0.877501 0.775296 0.878813
1.000000 0.801755 0.857115
0.576684 0.978820 0.852720
0.628382 0.975036 0.853666
0.757687 0.964294 0.858396
0.889708 0.952972 0.870512
0.987579 0.949065 0.895659
