其他预设/【239】阳光逆光效果预设26款/1.LUT预设（视频调色-PR-AE-PS-FCPX-达芬奇用）/阳光逆光预设__-1.cube
# Created by Adobe Lightroom plugin Export LUT (1.17.0)
# www.johnrellis.com/lightroom/exportlut.htm
# Preset: 阳光逆光预设[素锦印象]-1
# Color profile: /Library/Application Support/Adobe/Color/Profiles/Recommended/AdobeRGB1998.icc
LUT_3D_SIZE 5
DOMAIN_MIN 0.000000 0.000000 0.000000
DOMAIN_MAX 0.903226 0.903226 0.903226
0.091737 0.091341 0.091371
0.267765 0.060090 0.082429
0.496712 0.057343 0.070771
0.731075 0.009094 0.072389
0.941711 0.000000 0.057343
0.112917 0.239933 0.102358
0.264805 0.251255 0.070039
0.493843 0.237949 0.071443
0.727962 0.228122 0.066560
0.943359 0.214145 0.044556
0.195865 0.439887 0.163668
0.286625 0.431281 0.180880
0.500633 0.464149 0.069520
0.726925 0.450050 0.000000
0.938445 0.436011 0.000000
0.281010 0.645289 0.227604
0.349554 0.641321 0.239414
0.503197 0.636378 0.254337
0.725551 0.669398 0.000000
0.936919 0.655665 0.000000
0.383734 0.861601 0.315526
0.436164 0.858976 0.325628
0.572168 0.848081 0.358251
0.732631 0.863645 0.314458
0.947509 0.888090 0.000000
0.053986 0.085359 0.236027
0.261692 0.083803 0.236912
0.489906 0.091646 0.227726
0.719478 0.078737 0.223941
0.935149 0.000000 0.213962
0.111513 0.248447 0.233219
0.266361 0.247715 0.229923
0.491768 0.239780 0.223941
0.718990 0.229191 0.218692
0.935119 0.211368 0.210361
0.197757 0.445441 0.245762
0.302159 0.437873 0.263035
0.494209 0.456184 0.216739
0.719692 0.442451 0.196139
0.935698 0.432044 0.194247
0.285924 0.648859 0.288579
0.358862 0.644617 0.300847
0.510338 0.633753 0.323461
0.724239 0.667109 0.200046
0.936095 0.652827 0.163851
0.385565 0.863188 0.359442
0.438453 0.860472 0.368139
0.578882 0.853208 0.400366
0.736263 0.864042 0.373785
0.948272 0.889036 0.159701
0.075288 0.098116 0.429633
0.253880 0.102083 0.428504
0.489418 0.097169 0.428931
0.717830 0.081147 0.422614
0.932921 0.036561 0.418891
0.147280 0.258488 0.427283
0.265782 0.248814 0.426490
0.491920 0.243687 0.427314
0.716457 0.233982 0.420417
0.933104 0.223148 0.419409
0.176974 0.456458 0.423102
0.287572 0.455970 0.422766
0.497719 0.450996 0.414313
0.718471 0.437110 0.406714
0.934966 0.420356 0.398993
0.259770 0.658320 0.426307
0.343999 0.654322 0.429358
0.523674 0.643244 0.451118
0.723842 0.663600 0.395178
0.936187 0.641444 0.366796
0.372930 0.866880 0.470161
0.435859 0.865599 0.480842
0.575006 0.860258 0.498634
0.740719 0.857145 0.517266
0.945068 0.886625 0.370001
0.087709 0.118074 0.631189
0.254307 0.116396 0.630549
0.491768 0.101991 0.630030
0.716640 0.075837 0.622827
0.931121 0.000000 0.618250
0.121981 0.252018 0.629908
0.263737 0.250095 0.629541
0.492927 0.241489 0.627558
0.715236 0.229282 0.619776
0.929534 0.213016 0.616815
0.191470 0.468177 0.624872
0.292546 0.466102 0.624170
0.491249 0.447608 0.623011
0.714839 0.438819 0.615930
0.929564 0.430549 0.618128
0.220981 0.672541 0.621668
0.311650 0.668513 0.618494
0.502373 0.663935 0.617304
0.717525 0.654810 0.609888
0.934081 0.634394 0.601587
0.307530 0.878569 0.624445
0.378668 0.877226 0.626764
0.551415 0.873472 0.638575
0.737240 0.865232 0.658930
0.939879 0.885740 0.591943
0.000000 0.127382 0.860685
0.243046 0.121492 0.860136
0.489723 0.093019 0.858366
0.730556 0.000000 0.855802
0.937346 0.000000 0.836820
0.000000 0.252201 0.859983
0.242222 0.249027 0.859556
0.488228 0.235904 0.857969
0.729763 0.208286 0.855619
0.936889 0.198581 0.836851
0.145693 0.478737 0.857481
0.264958 0.471870 0.857572
0.473518 0.444190 0.857511
0.722225 0.429328 0.855558
0.934813 0.424475 0.838254
0.166903 0.691493 0.854887
0.274174 0.689174 0.854948
0.480964 0.680934 0.855100
0.702022 0.654841 0.855802
0.930571 0.650782 0.843442
0.199924 0.910277 0.853880
0.294316 0.909148 0.853971
0.491493 0.904967 0.854276
0.710201 0.893339 0.851743
0.926207 0.887236 0.857359
