其他预设/【239】阳光逆光效果预设26款/1.LUT预设（视频调色-PR-AE-PS-FCPX-达芬奇用）/阳光逆光预设__-17.cube
# Created by Adobe Lightroom plugin Export LUT (1.17.0)
# www.johnrellis.com/lightroom/exportlut.htm
# Preset: 阳光逆光预设[素锦印象]-17
# Color profile: /Library/Application Support/Adobe/Color/Profiles/Recommended/AdobeRGB1998.icc
LUT_3D_SIZE 8
DOMAIN_MIN 0.000000 0.000000 0.000000
DOMAIN_MAX 0.903226 0.903226 0.903226
0.000000 0.000000 0.000000
0.206058 0.000000 0.000000
0.435615 0.000000 0.000000
0.610163 0.107790 0.000000
0.760037 0.177340 0.000000
0.884459 0.240299 0.000000
0.975219 0.295750 0.000000
1.000000 0.341802 0.000000
0.000000 0.200137 0.000000
0.207279 0.200992 0.000000
0.430304 0.221988 0.000000
0.605035 0.236118 0.000000
0.755612 0.262455 0.000000
0.880827 0.297581 0.000000
0.972686 0.335729 0.000000
1.000000 0.371130 0.000000
0.000000 0.412512 0.000000
0.216159 0.410681 0.000000
0.423438 0.407233 0.000000
0.592523 0.415137 0.000000
0.745296 0.421668 0.000000
0.873014 0.429969 0.000000
0.967559 0.443763 0.000000
1.000000 0.458167 0.000000
0.115755 0.570092 0.000000
0.232883 0.568078 0.000000
0.415656 0.562737 0.000000
0.587335 0.562432 0.000000
0.737423 0.566125 0.000000
0.857603 0.575647 0.000000
0.957305 0.575677 0.000000
1.000000 0.573449 0.033234
0.193484 0.705257 0.000000
0.266697 0.703822 0.000000
0.416938 0.699886 0.000000
0.572869 0.696712 0.000000
0.724910 0.696345 0.000000
0.852842 0.698268 0.000000
0.943999 0.699428 0.063691
1.000000 0.694026 0.108370
0.259190 0.822934 0.000000
0.308537 0.822385 0.000000
0.428565 0.818845 0.000000
0.567468 0.813687 0.000000
0.708888 0.809812 0.000000
0.839200 0.808347 0.000000
0.939513 0.802945 0.108980
1.000000 0.792386 0.167056
0.319432 0.915068 0.000000
0.353216 0.914153 0.000000
0.447028 0.910613 0.000000
0.567498 0.905058 0.012299
0.694362 0.897734 0.041535
0.814542 0.892393 0.105959
0.919829 0.888609 0.151614
1.000000 0.879667 0.200778
0.373114 0.983948 0.138827
0.397345 0.983124 0.139040
0.470008 0.980346 0.140505
0.572137 0.975738 0.143557
0.684352 0.969055 0.146242
0.794766 0.962982 0.162051
0.895506 0.958434 0.195804
0.986572 0.954894 0.231846
0.035401 0.000000 0.159426
0.212985 0.000000 0.158907
0.436164 0.000000 0.151125
0.610071 0.063874 0.137484
0.758999 0.172122 0.128542
0.882383 0.243351 0.127260
0.973083 0.302617 0.138277
1.000000 0.350835 0.159091
0.000000 0.200656 0.156497
0.216373 0.200381 0.154238
0.433265 0.205600 0.144869
0.605554 0.226230 0.133059
0.755184 0.260288 0.125063
0.879393 0.300053 0.125063
0.970825 0.341314 0.137240
1.000000 0.378729 0.158877
0.005005 0.412207 0.134798
0.220432 0.410834 0.131319
0.426246 0.406867 0.128206
0.591180 0.415991 0.129885
0.744472 0.421027 0.119203
0.871244 0.430854 0.122347
0.965209 0.446479 0.137606
1.000000 0.463111 0.161654
0.126436 0.569421 0.107027
0.241733 0.567346 0.110292
0.418799 0.562371 0.106142
0.586908 0.560754 0.112673
0.734035 0.564813 0.123415
0.855833 0.574670 0.134371
0.954925 0.576196 0.140688
1.000000 0.575860 0.166201
0.210605 0.704433 0.104768
0.277379 0.702968 0.103670
0.421393 0.698909 0.101167
0.573846 0.695064 0.102358
0.723903 0.694667 0.119203
0.850889 0.697505 0.138247
0.942046 0.700130 0.170321
1.000000 0.694545 0.183719
0.272038 0.821714 0.115999
0.317693 0.820676 0.115694
0.433082 0.817319 0.114748
0.569482 0.812497 0.114656
0.709346 0.808835 0.127962
0.838804 0.807828 0.152590
0.938262 0.802792 0.185153
1.000000 0.792996 0.220981
0.328618 0.913817 0.150210
0.360845 0.912718 0.150179
0.451606 0.909392 0.150393
0.570031 0.904082 0.152041
0.695613 0.897002 0.155337
0.814633 0.891752 0.178470
0.919097 0.887999 0.206882
1.000000 0.879301 0.243107
0.381048 0.983032 0.195682
0.404364 0.982269 0.195895
0.475166 0.979583 0.196872
0.575494 0.975097 0.198947
0.686915 0.969024 0.201694
0.795834 0.962829 0.211704
0.895598 0.958190 0.237308
0.986023 0.954620 0.266972
0.123079 0.000000 0.326665
0.240970 0.000000 0.326482
0.435187 0.000000 0.324559
0.600153 0.066651 0.312688
0.754513 0.165957 0.308507
0.882200 0.253300 0.312200
0.970520 0.325994 0.315984
1.000000 0.380224 0.321447
0.111482 0.196139 0.325902
0.239231 0.193362 0.325261
0.435492 0.193973 0.322240
0.600122 0.216220 0.311894
0.754696 0.252079 0.308690
0.879149 0.308507 0.311589
0.968444 0.360662 0.315068
1.000000 0.404883 0.321019
0.125795 0.409003 0.318303
0.245731 0.407874 0.317510
0.432654 0.402991 0.312871
0.596643 0.408209 0.310185
0.746883 0.418952 0.309331
0.871031 0.435706 0.310216
0.962676 0.458045 0.314336
1.000000 0.481025 0.320958
0.173556 0.568078 0.299229
0.264714 0.566430 0.299382
0.430762 0.561547 0.300175
0.590143 0.559625 0.301946
0.731350 0.568109 0.309514
0.857450 0.576776 0.309636
0.952789 0.582300 0.313787
1.000000 0.586572 0.321630
0.235172 0.703151 0.286717
0.298528 0.701900 0.288365
0.436622 0.698146 0.292332
0.580072 0.693965 0.291051
0.725643 0.694484 0.298070
0.848661 0.699184 0.305608
0.938201 0.705013 0.321416
1.000000 0.698634 0.323705
0.292027 0.820645 0.283421
0.337743 0.819547 0.285740
0.449012 0.816068 0.290349
0.577508 0.811398 0.289494
0.712245 0.807401 0.292912
0.838224 0.807004 0.304692
0.935088 0.803128 0.320104
1.000000 0.796262 0.341558
0.349737 0.912627 0.293004
0.382971 0.911406 0.296117
0.468055 0.907988 0.297917
0.579828 0.902770 0.298039
0.700404 0.895964 0.298497
0.816037 0.890929 0.309728
0.918364 0.887907 0.327428
0.997986 0.880125 0.350103
0.407507 0.981170 0.316411
0.427131 0.980438 0.315312
0.492042 0.977813 0.315373
0.587030 0.973632 0.316625
0.693446 0.967803 0.317571
0.798550 0.961883 0.321843
0.896147 0.957671 0.339422
0.984833 0.954559 0.361181
0.190616 0.000000 0.470558
0.271366 0.000000 0.470527
0.433295 0.000000 0.469245
0.596490 0.080140 0.466682
0.732601 0.182498 0.451514
0.865415 0.254612 0.451789
0.961669 0.332311 0.453071
1.000000 0.412024 0.463478
0.192752 0.190738 0.470466
0.273472 0.190707 0.470008
0.434272 0.195712 0.468269
0.596002 0.215702 0.465461
0.733150 0.259861 0.452491
0.865202 0.306371 0.452918
0.960906 0.368414 0.455451
1.000000 0.439246 0.467994
0.206058 0.393408 0.465583
0.283543 0.393713 0.465156
0.437812 0.394598 0.463233
0.593744 0.396918 0.460700
0.736080 0.408728 0.455299
0.866331 0.429938 0.457679
0.959594 0.470680 0.466255
1.000000 0.507530 0.469093
0.232547 0.562402 0.459876
0.299199 0.561425 0.459541
0.442512 0.558434 0.457954
0.591150 0.553796 0.453681
0.734798 0.561273 0.456031
0.858000 0.573022 0.459205
0.949340 0.588403 0.463752
1.000000 0.602686 0.467903
0.272892 0.701289 0.443793
0.324590 0.699977 0.443885
0.448157 0.696590 0.443946
0.587457 0.692103 0.443793
0.726375 0.691981 0.447242
0.843381 0.701167 0.456245
0.936400 0.707607 0.462135
1.000000 0.706264 0.467292
0.317205 0.819272 0.431952
0.357275 0.818631 0.433143
0.461494 0.815274 0.435279
0.587793 0.810544 0.437415
0.715908 0.805722 0.437201
0.837705 0.806180 0.446845
0.930236 0.803952 0.456947
0.995727 0.802090 0.474250
0.366583 0.910979 0.426886
0.397131 0.909941 0.428473
0.483955 0.906462 0.433631
0.593469 0.901244 0.437354
0.707454 0.894896 0.437110
0.817807 0.889799 0.443000
0.916747 0.887388 0.457343
0.993103 0.881102 0.473091
0.420478 0.979919 0.430823
0.444038 0.978973 0.433356
0.515251 0.975677 0.441718
0.603906 0.971435 0.443885
0.703212 0.966064 0.444038
0.802274 0.960510 0.444617
0.896696 0.956756 0.458350
0.982574 0.954253 0.476600
0.250584 0.000000 0.602014
0.306798 0.000000 0.601801
0.439033 0.032380 0.600763
0.585931 0.121553 0.598871
0.732052 0.183627 0.596887
0.847349 0.256504 0.581598
0.945647 0.327001 0.574945
1.000000 0.403937 0.570428
0.256413 0.193545 0.601526
0.311467 0.195407 0.601343
0.441230 0.204837 0.600153
0.586481 0.226963 0.597925
0.731380 0.257572 0.596002
0.846433 0.305455 0.581384
0.945190 0.362249 0.576226
1.000000 0.430518 0.572961
0.276982 0.387396 0.598260
0.329198 0.389441 0.597894
0.448920 0.390936 0.596826
0.588434 0.394873 0.595361
0.729397 0.401648 0.593042
0.842985 0.422156 0.580591
0.943450 0.459510 0.580957
1.000000 0.511315 0.582422
0.291997 0.546136 0.594110
0.339239 0.546166 0.593866
0.456062 0.546288 0.592950
0.590967 0.546105 0.591089
0.726741 0.546532 0.588464
0.845182 0.558709 0.586084
0.941192 0.587457 0.592523
1.000000 0.625330 0.604211
0.314031 0.694057 0.589471
0.355169 0.693507 0.589349
0.462593 0.691676 0.588495
0.592676 0.688716 0.586450
0.723110 0.684596 0.582574
0.843503 0.696162 0.590265
0.933349 0.708583 0.598718
0.999817 0.718502 0.604547
0.344976 0.816007 0.575219
0.379004 0.815091 0.575250
0.473030 0.812070 0.575067
0.593347 0.807584 0.574762
0.716457 0.802579 0.573510
0.834714 0.803098 0.580438
0.921660 0.805905 0.594141
0.990204 0.807706 0.602380
0.387488 0.908415 0.561151
0.414618 0.907378 0.561700
0.494728 0.904051 0.563561
0.603479 0.898680 0.567376
0.714626 0.892515 0.570581
0.818204 0.887297 0.571801
0.913634 0.886107 0.586023
0.986145 0.882597 0.597406
0.435981 0.977600 0.551202
0.457649 0.976684 0.552453
0.524712 0.973541 0.557122
0.620752 0.968627 0.566705
0.716548 0.963317 0.572198
0.807736 0.958556 0.572351
0.896849 0.955169 0.581018
0.978943 0.953552 0.597894
0.300267 0.041108 0.728115
0.341772 0.064149 0.727871
0.450233 0.102296 0.726772
0.583032 0.154238 0.725551
0.719478 0.206271 0.723720
0.844450 0.257450 0.721553
0.932738 0.324010 0.698634
1.000000 0.391333 0.679957
0.306615 0.202884 0.726955
0.346532 0.205783 0.726619
0.452827 0.217929 0.725704
0.584070 0.240879 0.724544
0.719265 0.269596 0.722683
0.843595 0.303716 0.720699
0.931701 0.356970 0.698390
1.000000 0.416785 0.680964
0.329442 0.387701 0.724819
0.364813 0.388281 0.724605
0.462867 0.390570 0.723842
0.588281 0.395331 0.722683
0.719661 0.403082 0.721004
0.841825 0.416754 0.719173
0.928710 0.449042 0.698177
1.000000 0.495186 0.685389
0.342290 0.537804 0.721920
0.377203 0.538231 0.721645
0.473335 0.540063 0.720943
0.593805 0.541039 0.720272
0.720455 0.542321 0.718959
0.838712 0.548394 0.716579
0.923827 0.568231 0.698817
0.996063 0.606012 0.695918
0.355505 0.678920 0.717800
0.387579 0.678889 0.717678
0.478218 0.678676 0.717128
0.596216 0.678157 0.716182
0.718746 0.677119 0.714595
0.833066 0.679286 0.711849
0.920378 0.696345 0.707393
0.990539 0.725185 0.717525
0.374304 0.810361 0.714107
0.403296 0.809964 0.714168
0.487434 0.808194 0.713832
0.600183 0.805081 0.713069
0.718959 0.801022 0.711482
0.828580 0.797452 0.709438
0.916838 0.809079 0.722683
0.984283 0.817807 0.731930
0.410803 0.905730 0.695644
0.435279 0.904906 0.695735
0.509056 0.901762 0.695766
0.611475 0.896635 0.696193
0.722377 0.890105 0.698878
0.822446 0.884398 0.704768
0.909026 0.884367 0.713649
0.976471 0.887846 0.725917
0.455207 0.975097 0.674739
0.474983 0.974212 0.675349
0.537377 0.971252 0.677485
0.628016 0.966461 0.682399
0.729549 0.960296 0.692866
0.819028 0.955413 0.702968
0.897795 0.952850 0.705104
0.974060 0.952911 0.719875
0.338506 0.110536 0.838529
0.370214 0.119631 0.838315
0.460090 0.147860 0.837522
0.578454 0.188174 0.836179
0.703731 0.232792 0.834226
0.820951 0.278782 0.832120
0.925200 0.325566 0.830137
0.993469 0.388739 0.798459
0.345403 0.219425 0.837766
0.376104 0.223056 0.837522
0.463844 0.236271 0.836759
0.580346 0.258640 0.835355
0.704280 0.286656 0.833585
0.820645 0.319371 0.831632
0.924498 0.357122 0.829740
0.992676 0.412909 0.798489
0.367834 0.388159 0.835203
0.395148 0.389014 0.834989
0.476020 0.392340 0.834348
0.586633 0.398474 0.833219
0.706355 0.407843 0.831724
0.819913 0.423133 0.830045
0.922210 0.445624 0.828397
0.989899 0.486244 0.798764
0.388098 0.531273 0.832090
0.415045 0.532464 0.831846
0.492988 0.535668 0.831235
0.595972 0.536614 0.830289
0.709438 0.539727 0.829038
0.818540 0.547387 0.827604
0.918181 0.560937 0.826047
0.985107 0.588281 0.799863
0.397925 0.662470 0.828519
0.423285 0.662928 0.828336
0.499550 0.664515 0.827848
0.604364 0.667506 0.826871
0.713802 0.670588 0.825681
0.817136 0.674586 0.824460
0.911864 0.683162 0.822171
0.978424 0.700557 0.803861
0.412726 0.787289 0.824887
0.436194 0.787106 0.824796
0.508354 0.786526 0.824399
0.609094 0.785763 0.823728
0.719509 0.786862 0.822629
0.820462 0.791501 0.821195
0.905272 0.794797 0.818997
0.973541 0.807248 0.818143
0.435584 0.896147 0.822263
0.456977 0.895567 0.822232
0.523491 0.893584 0.821958
0.618738 0.890288 0.821592
0.724666 0.886259 0.820981
0.822812 0.882536 0.820096
0.901610 0.880186 0.819333
0.972869 0.890593 0.832547
0.475105 0.972076 0.799557
0.493263 0.971283 0.799680
0.550988 0.968627 0.800168
0.636774 0.964080 0.801663
0.733639 0.958404 0.805753
0.823545 0.953399 0.812924
0.896910 0.951141 0.816220
0.968627 0.952331 0.824491
0.368963 0.160769 0.934051
0.393957 0.167514 0.933867
0.469123 0.189639 0.933165
0.573754 0.223026 0.931975
0.687800 0.261936 0.930419
0.796872 0.303105 0.928771
0.895811 0.346349 0.927184
0.986053 0.391302 0.925719
0.376349 0.242313 0.933318
0.400549 0.246128 0.933104
0.473823 0.259037 0.932433
0.576562 0.280247 0.931334
0.689082 0.307073 0.929900
0.797116 0.338476 0.928344
0.895445 0.374548 0.926818
0.985412 0.414313 0.925414
0.399756 0.392370 0.931029
0.421363 0.393530 0.930846
0.488655 0.397620 0.930327
0.585504 0.405035 0.929442
0.693294 0.416083 0.928252
0.797940 0.432654 0.926940
0.894316 0.455756 0.925628
0.983093 0.484871 0.924346
0.431739 0.531701 0.928161
0.450660 0.532036 0.928038
0.510552 0.532982 0.927611
0.599237 0.535363 0.926909
0.699916 0.540307 0.925933
0.799344 0.549554 0.924865
0.892393 0.564294 0.923735
0.979065 0.584222 0.922667
0.439063 0.650324 0.925628
0.459693 0.651362 0.925475
0.523827 0.655146 0.924926
0.616571 0.662867 0.923980
0.709529 0.666102 0.923156
0.802396 0.671901 0.922271
0.890745 0.681666 0.921355
0.973541 0.695003 0.920531
0.451087 0.767025 0.922972
0.470558 0.767300 0.922850
0.531701 0.768399 0.922484
0.621363 0.771176 0.921782
0.722530 0.778805 0.920684
0.812253 0.786435 0.919738
0.891814 0.790707 0.919249
0.967590 0.796628 0.918456
0.469764 0.871519 0.921111
0.487739 0.871275 0.921050
0.544884 0.870481 0.920836
0.630762 0.869871 0.920378
0.727749 0.870939 0.919738
0.818021 0.874266 0.919097
0.892851 0.876066 0.918914
0.963287 0.877653 0.918120
0.494423 0.964752 0.920470
0.510735 0.964233 0.920439
0.563928 0.962371 0.920317
0.644648 0.959350 0.920104
0.735683 0.955901 0.919921
0.820218 0.953033 0.919890
0.892882 0.951080 0.920073
0.960632 0.950072 0.920928
