其他预设/【239】阳光逆光效果预设26款/1.LUT预设（视频调色-PR-AE-PS-FCPX-达芬奇用）/阳光逆光预设__-10.cube
# Created by Adobe Lightroom plugin Export LUT (1.17.0)
# www.johnrellis.com/lightroom/exportlut.htm
# Preset: 阳光逆光预设[素锦印象]-10
# Color profile: /Library/Application Support/Adobe/Color/Profiles/Recommended/AdobeRGB1998.icc
LUT_3D_SIZE 8
DOMAIN_MIN 0.000000 0.000000 0.000000
DOMAIN_MAX 0.903226 0.903226 0.903226
0.217441 0.162600 0.155917
0.285130 0.158297 0.154543
0.418555 0.148531 0.151858
0.576471 0.140169 0.146914
0.720058 0.146487 0.144015
0.838254 0.167330 0.145418
0.942168 0.195590 0.150118
1.000000 0.227573 0.158297
0.220340 0.222446 0.154177
0.283330 0.218448 0.153475
0.402350 0.213931 0.161593
0.570733 0.209598 0.148470
0.714900 0.211978 0.145052
0.833463 0.221561 0.146029
0.937957 0.238773 0.150698
1.000000 0.261814 0.158663
0.233402 0.334508 0.153109
0.283421 0.332158 0.152590
0.410925 0.330236 0.151217
0.540703 0.333501 0.177951
0.689235 0.348119 0.179934
0.822507 0.349798 0.166781
0.936248 0.350164 0.155764
1.000000 0.358465 0.164523
0.250614 0.470344 0.146365
0.295232 0.468482 0.145266
0.407416 0.463661 0.141756
0.561364 0.475715 0.137881
0.696132 0.479286 0.172183
0.785733 0.485695 0.243290
0.909483 0.494545 0.234867
1.000000 0.496315 0.228916
0.267460 0.603571 0.132143
0.306249 0.602258 0.131106
0.409247 0.598688 0.127199
0.539544 0.598291 0.122225
0.685420 0.606470 0.122133
0.809659 0.605524 0.162509
0.891661 0.607721 0.266239
0.982818 0.635584 0.330510
0.286656 0.718257 0.119173
0.319341 0.719020 0.118166
0.408820 0.715999 0.114382
0.523278 0.711635 0.107179
0.652735 0.714137 0.106661
0.789303 0.723323 0.116121
0.914946 0.730282 0.148806
0.989197 0.729946 0.294987
0.307103 0.833677 0.101472
0.334081 0.833463 0.100282
0.412146 0.831022 0.095979
0.517021 0.827970 0.087556
0.630915 0.824002 0.073396
0.758755 0.830320 0.091127
0.885985 0.838041 0.117861
1.000000 0.843992 0.155123
0.328557 0.948363 0.079438
0.351293 0.947875 0.077729
0.419867 0.946654 0.072541
0.516167 0.945281 0.062348
0.621973 0.940490 0.012512
0.736629 0.940215 0.012238
0.856626 0.943145 0.091890
0.970336 0.944884 0.135744
0.225834 0.160891 0.206516
0.287266 0.155123 0.205783
0.415351 0.141726 0.199435
0.573571 0.125246 0.195438
0.717006 0.135897 0.192782
0.834043 0.164462 0.193088
0.937926 0.197818 0.195834
1.000000 0.233433 0.201022
0.227390 0.220279 0.204990
0.288396 0.216373 0.204471
0.414618 0.209598 0.201694
0.569940 0.203677 0.197635
0.713436 0.206485 0.193759
0.830900 0.220188 0.193881
0.934600 0.240635 0.196109
1.000000 0.266392 0.201144
0.244205 0.332250 0.198978
0.291417 0.330663 0.198611
0.412085 0.328222 0.197757
0.537072 0.335729 0.223087
0.694179 0.347234 0.213626
0.822690 0.346532 0.202945
0.930999 0.350500 0.200900
1.000000 0.361364 0.206485
0.256779 0.468116 0.191104
0.297124 0.467231 0.187716
0.408728 0.463508 0.183841
0.558160 0.470649 0.184237
0.687434 0.473457 0.216190
0.783780 0.483742 0.264897
0.906401 0.492226 0.257542
1.000000 0.495003 0.251499
0.269383 0.602899 0.175662
0.307744 0.601343 0.174746
0.409583 0.597131 0.171298
0.537530 0.594293 0.167422
0.682277 0.601862 0.171328
0.804715 0.601770 0.207523
0.887480 0.608331 0.294835
0.982116 0.635554 0.344610
0.291142 0.716121 0.165072
0.322484 0.715328 0.164248
0.409979 0.712520 0.161288
0.523339 0.708736 0.156130
0.651942 0.711360 0.157137
0.788724 0.721584 0.167819
0.912627 0.728756 0.198154
0.986633 0.730678 0.320806
0.312932 0.830381 0.152895
0.338750 0.829374 0.151858
0.414832 0.827451 0.148714
0.518334 0.825223 0.143740
0.631525 0.822080 0.135775
0.758328 0.828000 0.147555
0.884611 0.835477 0.167514
0.999390 0.841825 0.197208
0.335729 0.946288 0.139681
0.357763 0.946075 0.139101
0.424567 0.945068 0.136324
0.519280 0.943847 0.131960
0.625544 0.941711 0.124025
0.738369 0.940337 0.122225
0.857298 0.942412 0.148806
0.970123 0.943938 0.179568
0.250645 0.156466 0.300267
0.300267 0.152804 0.299565
0.417945 0.147890 0.298497
0.564080 0.116243 0.299992
0.714809 0.000000 0.289342
0.839048 0.113100 0.287022
0.940764 0.206851 0.295933
1.000000 0.262119 0.301915
0.248844 0.208927 0.299962
0.301640 0.208591 0.299046
0.418250 0.204074 0.297704
0.565942 0.177737 0.297337
0.716487 0.138460 0.284886
0.835599 0.198703 0.290074
0.937804 0.250309 0.296605
1.000000 0.292454 0.302525
0.259953 0.332311 0.297032
0.302983 0.330724 0.296910
0.421332 0.325261 0.296178
0.570489 0.323522 0.293980
0.713191 0.331273 0.295476
0.828489 0.344366 0.298619
0.932433 0.361639 0.302770
1.000000 0.381506 0.307530
0.273594 0.468940 0.289128
0.312108 0.468452 0.288273
0.418280 0.467536 0.284611
0.563958 0.469642 0.287083
0.683101 0.477668 0.320348
0.801114 0.491676 0.329900
0.917296 0.498024 0.326543
1.000000 0.499245 0.320104
0.287877 0.602411 0.277348
0.323278 0.601801 0.276860
0.421088 0.599207 0.274601
0.542260 0.593805 0.269352
0.686702 0.601617 0.279881
0.800931 0.603052 0.315679
0.883421 0.621027 0.378393
0.987671 0.642145 0.392981
0.312322 0.715602 0.265293
0.344152 0.714870 0.266514
0.427588 0.712215 0.266606
0.533562 0.708095 0.262333
0.655543 0.708217 0.262821
0.789944 0.719051 0.277501
0.908263 0.727840 0.310460
0.982879 0.739223 0.398932
0.340642 0.830076 0.257877
0.368109 0.829099 0.260349
0.436072 0.826902 0.258061
0.531518 0.824186 0.254002
0.639155 0.821012 0.248295
0.762264 0.826200 0.257816
0.887297 0.835538 0.277195
0.998871 0.843809 0.304234
0.369604 0.944640 0.253452
0.390295 0.943969 0.254276
0.446387 0.942992 0.249485
0.534691 0.942473 0.247410
0.635340 0.940398 0.242374
0.743343 0.938903 0.238865
0.861173 0.941588 0.258518
0.972045 0.943938 0.282444
0.290471 0.149142 0.409430
0.331395 0.146181 0.409339
0.437415 0.135744 0.407477
0.565484 0.118868 0.408026
0.693690 0.110597 0.403906
0.820645 0.122866 0.397192
0.932952 0.180636 0.392889
1.000000 0.254612 0.395483
0.289097 0.202548 0.410620
0.329839 0.199405 0.410132
0.437018 0.191501 0.407935
0.566094 0.182315 0.408026
0.694392 0.180789 0.404181
0.821073 0.188663 0.397436
0.932769 0.229496 0.394018
1.000000 0.290929 0.398505
0.270939 0.319463 0.409918
0.306065 0.314061 0.410163
0.427955 0.309606 0.408453
0.567712 0.314397 0.407202
0.701686 0.314794 0.405554
0.826352 0.323217 0.400671
0.937133 0.353765 0.403845
1.000000 0.404944 0.416358
0.288518 0.469398 0.406226
0.324681 0.468940 0.406348
0.431159 0.467109 0.406744
0.572503 0.464759 0.407141
0.706142 0.472541 0.409979
0.820005 0.485115 0.415015
0.925139 0.501091 0.421149
1.000000 0.517266 0.426398
0.316258 0.603326 0.390845
0.349340 0.602136 0.390723
0.444984 0.598962 0.391821
0.565972 0.595361 0.395178
0.692653 0.598840 0.401007
0.793118 0.609125 0.435218
0.896269 0.633143 0.456031
0.998260 0.645228 0.458106
0.339452 0.716487 0.373693
0.369818 0.716793 0.375402
0.455756 0.713283 0.379706
0.562737 0.709316 0.385229
0.666255 0.705592 0.379339
0.794919 0.717830 0.397436
0.902556 0.729854 0.433692
0.976440 0.752499 0.498817
0.364080 0.829526 0.362097
0.390021 0.829007 0.363989
0.466682 0.826871 0.370733
0.560876 0.824399 0.374853
0.657465 0.821836 0.369177
0.770199 0.824460 0.373480
0.891020 0.834836 0.394476
0.995300 0.844877 0.425818
0.391028 0.944762 0.355413
0.413306 0.944274 0.357702
0.479896 0.942290 0.364813
0.561608 0.940551 0.365789
0.652857 0.938811 0.360998
0.752651 0.937133 0.354833
0.866850 0.939971 0.371466
0.974578 0.943511 0.395422
0.331609 0.141787 0.517662
0.363043 0.138369 0.517418
0.452216 0.126528 0.515862
0.568750 0.113527 0.513115
0.695338 0.105867 0.517632
0.803098 0.153079 0.504875
0.914824 0.202823 0.501366
1.000000 0.263310 0.499153
0.329229 0.192996 0.518181
0.361028 0.190219 0.518151
0.451057 0.181796 0.516442
0.568566 0.176089 0.513207
0.695308 0.177188 0.517388
0.802823 0.209628 0.505333
0.915190 0.246830 0.502831
1.000000 0.296635 0.500999
0.300328 0.297917 0.519280
0.335576 0.295964 0.519097
0.444068 0.299779 0.516655
0.569818 0.304906 0.514672
0.694606 0.314153 0.515892
0.800565 0.333745 0.506706
0.915953 0.354772 0.507347
1.000000 0.386542 0.506676
0.306371 0.445624 0.517906
0.337774 0.443977 0.517998
0.431037 0.439307 0.518456
0.570611 0.446998 0.516258
0.694697 0.459632 0.514580
0.804471 0.468940 0.513085
0.920684 0.480964 0.515343
1.000000 0.500206 0.516106
0.332555 0.595605 0.513542
0.363500 0.595209 0.513603
0.454810 0.593622 0.513329
0.575219 0.591943 0.513329
0.695583 0.591516 0.513817
0.810361 0.604639 0.521447
0.917082 0.620356 0.530022
1.000000 0.634882 0.536400
0.373846 0.713161 0.489631
0.400305 0.712306 0.490181
0.478370 0.709041 0.492042
0.581140 0.705348 0.496345
0.683436 0.703243 0.498604
0.796780 0.712490 0.508843
0.893278 0.731441 0.547143
0.980926 0.758236 0.576867
0.394690 0.827634 0.475380
0.417639 0.826749 0.476356
0.486915 0.824399 0.480140
0.580407 0.821775 0.486061
0.675654 0.820096 0.486793
0.773312 0.818723 0.480629
0.893126 0.832059 0.505241
0.988067 0.843778 0.543664
0.414923 0.941955 0.465126
0.434882 0.941314 0.466468
0.495613 0.939483 0.470710
0.581842 0.938415 0.477729
0.670222 0.936645 0.476844
0.763210 0.935180 0.470466
0.870237 0.936980 0.478859
0.976043 0.941894 0.504417
0.364324 0.134585 0.625605
0.389410 0.131624 0.625330
0.463783 0.122011 0.623651
0.568170 0.111025 0.622766
0.684260 0.120912 0.621485
0.801419 0.148531 0.625544
0.903563 0.208804 0.614343
1.000000 0.268284 0.611231
0.362493 0.184573 0.624537
0.387335 0.182467 0.624170
0.462379 0.175937 0.622919
0.567742 0.171756 0.622278
0.683833 0.182803 0.620233
0.800381 0.204135 0.624445
0.902617 0.250065 0.614435
1.000000 0.299107 0.612177
0.355200 0.294865 0.626612
0.381903 0.294377 0.626398
0.461494 0.294011 0.625574
0.569696 0.297551 0.623804
0.685817 0.310979 0.620294
0.799527 0.328038 0.623713
0.901335 0.355505 0.616876
1.000000 0.386847 0.616663
0.334722 0.420539 0.629328
0.363470 0.420050 0.628840
0.452064 0.422492 0.627863
0.575006 0.436927 0.626001
0.690761 0.449561 0.622431
0.799527 0.463722 0.624262
0.900603 0.479103 0.622370
1.000000 0.497292 0.624231
0.354284 0.565332 0.625452
0.380377 0.565148 0.625483
0.459174 0.564843 0.625360
0.565362 0.564965 0.625544
0.688380 0.573816 0.623163
0.797116 0.586084 0.622339
0.902403 0.595117 0.626825
1.000000 0.610803 0.630915
0.383856 0.706477 0.620905
0.408698 0.706569 0.621271
0.482673 0.705715 0.621241
0.583093 0.704768 0.621302
0.688350 0.704585 0.621759
0.797910 0.707301 0.624720
0.909697 0.728084 0.641077
0.999329 0.745083 0.652674
0.425391 0.827237 0.603723
0.446815 0.826902 0.604395
0.511406 0.824979 0.605829
0.598016 0.822660 0.608453
0.689723 0.821073 0.610315
0.785397 0.820310 0.609613
0.895018 0.830167 0.624262
0.978393 0.847593 0.670192
0.443275 0.940612 0.589258
0.460792 0.940032 0.590021
0.515526 0.938354 0.592401
0.593896 0.936767 0.595911
0.682429 0.935119 0.598260
0.775326 0.933684 0.597620
0.870726 0.933288 0.592676
0.976684 0.940642 0.625086
0.387549 0.124788 0.748165
0.408362 0.122225 0.747677
0.473487 0.114290 0.747585
0.567956 0.105684 0.747066
0.676448 0.114626 0.745113
0.788357 0.151064 0.744289
0.899138 0.198306 0.748806
0.994110 0.263188 0.736690
0.386969 0.176242 0.750668
0.407965 0.174624 0.750149
0.473579 0.170077 0.749752
0.568750 0.167758 0.748775
0.677974 0.177646 0.747127
0.790219 0.205966 0.746548
0.900603 0.243748 0.751278
0.995239 0.298924 0.739773
0.384649 0.287968 0.750515
0.406500 0.287755 0.750393
0.474037 0.288060 0.750088
0.570611 0.291234 0.748898
0.680201 0.302281 0.747280
0.791196 0.323339 0.745602
0.898680 0.347265 0.749874
0.992584 0.381628 0.740230
0.366461 0.405982 0.751644
0.391485 0.407202 0.751522
0.478889 0.421363 0.750637
0.575280 0.425666 0.748867
0.683375 0.435157 0.746761
0.791867 0.450568 0.743313
0.895659 0.465888 0.747860
0.989715 0.486244 0.742275
0.370550 0.543481 0.753689
0.393500 0.543755 0.754086
0.462837 0.544213 0.754604
0.564996 0.547997 0.753475
0.683162 0.561059 0.750607
0.792599 0.572412 0.747158
0.895293 0.584955 0.750668
0.987945 0.598932 0.747433
0.394293 0.684718 0.752987
0.415473 0.684749 0.752956
0.480171 0.684962 0.752895
0.569787 0.684596 0.752651
0.669154 0.682734 0.753109
0.785763 0.689143 0.750576
0.892271 0.702296 0.750729
0.986755 0.717800 0.755642
0.421790 0.821378 0.750454
0.440681 0.820981 0.750179
0.500267 0.820462 0.750088
0.584466 0.819852 0.750057
0.681025 0.820218 0.751064
0.785336 0.821683 0.752926
0.892271 0.825895 0.757321
0.986999 0.850217 0.780819
0.459937 0.940764 0.734340
0.476478 0.940459 0.734615
0.527123 0.938231 0.733913
0.603021 0.936553 0.734585
0.692012 0.935332 0.736690
0.785397 0.933959 0.739773
0.879637 0.932616 0.742580
0.974762 0.940002 0.762692
0.397345 0.117617 0.899809
0.416114 0.115724 0.899474
0.475837 0.111849 0.899626
0.564446 0.110506 0.898863
0.668513 0.125490 0.897826
0.778836 0.162875 0.896544
0.886778 0.212375 0.896635
0.989197 0.267399 0.899962
0.397559 0.172000 0.900938
0.416419 0.171176 0.900572
0.476417 0.169375 0.900542
0.565515 0.171298 0.899931
0.669703 0.184054 0.898863
0.779904 0.212772 0.897490
0.887541 0.253147 0.897765
0.989380 0.299962 0.901213
0.401434 0.288487 0.901854
0.420386 0.288731 0.901671
0.480873 0.290379 0.901854
0.569421 0.294133 0.900145
0.673213 0.305241 0.899229
0.782315 0.325780 0.898253
0.888365 0.352728 0.898222
0.988159 0.384466 0.901732
0.414405 0.420874 0.902220
0.432593 0.421180 0.901915
0.491310 0.423346 0.901823
0.577752 0.427619 0.900816
0.678614 0.435920 0.899565
0.784604 0.449775 0.898314
0.888518 0.468147 0.897673
0.985718 0.488136 0.901671
0.390234 0.533745 0.904967
0.411139 0.534478 0.904570
0.476661 0.538293 0.904295
0.579614 0.553063 0.902770
0.679835 0.559442 0.901884
0.784817 0.569421 0.900664
0.888090 0.583215 0.898802
0.982818 0.599054 0.902861
0.403449 0.668696 0.905943
0.422339 0.669154 0.906188
0.480781 0.670192 0.906676
0.563653 0.670344 0.907012
0.664546 0.672786 0.906279
0.779690 0.686122 0.902983
0.884123 0.697261 0.899504
0.978180 0.713344 0.902678
0.425879 0.803861 0.905852
0.443214 0.804135 0.906035
0.497505 0.804807 0.906554
0.576379 0.805203 0.906737
0.669215 0.805692 0.907073
0.770779 0.807156 0.907317
0.881468 0.818601 0.905241
0.973785 0.833036 0.906310
0.452155 0.937133 0.906706
0.467933 0.937224 0.906981
0.517235 0.937102 0.907195
0.591058 0.936553 0.906767
0.680903 0.936217 0.906554
0.780362 0.936492 0.906798
0.880705 0.937926 0.907774
0.969787 0.942901 0.912688
