其他预设/【239】阳光逆光效果预设26款/1.LUT预设（视频调色-PR-AE-PS-FCPX-达芬奇用）/阳光逆光预设__-5.cube
# Created by Adobe Lightroom plugin Export LUT (1.17.0)
# www.johnrellis.com/lightroom/exportlut.htm
# Preset: 阳光逆光预设[素锦印象]-5
# Color profile: /Library/Application Support/Adobe/Color/Profiles/Recommended/AdobeRGB1998.icc
LUT_3D_SIZE 5
DOMAIN_MIN 0.000000 0.000000 0.000000
DOMAIN_MAX 0.903226 0.903226 0.903226
0.000000 0.000000 0.000000
0.220951 0.000000 0.000000
0.486152 0.000000 0.000000
0.759945 0.000000 0.000000
0.983368 0.000000 0.000000
0.026429 0.206363 0.000000
0.215976 0.197848 0.007446
0.497719 0.214847 0.000000
0.765713 0.194553 0.000000
0.982238 0.159030 0.000000
0.130861 0.450141 0.000000
0.272007 0.452369 0.000000
0.483925 0.427314 0.028840
0.771633 0.446448 0.000000
0.986786 0.425238 0.000000
0.202853 0.698878 0.000000
0.316472 0.697841 0.000000
0.543206 0.691279 0.000000
0.764828 0.669795 0.090394
0.980804 0.662806 0.000000
0.256321 0.924895 0.000000
0.349615 0.924346 0.000000
0.558434 0.923888 0.000000
0.788266 0.911131 0.000000
0.987488 0.896788 0.243076
0.000000 0.000000 0.185031
0.229984 0.000000 0.190372
0.502403 0.000000 0.172030
0.773587 0.000000 0.158358
0.989197 0.000000 0.140291
0.048157 0.210025 0.185519
0.240055 0.211032 0.182559
0.508782 0.205600 0.172152
0.776333 0.179843 0.154147
0.989380 0.143740 0.136507
0.093477 0.457862 0.158663
0.275456 0.457771 0.163088
0.502068 0.439338 0.195987
0.783017 0.447333 0.137758
0.989715 0.423224 0.121950
0.188632 0.702052 0.114717
0.316045 0.700557 0.119844
0.547082 0.694881 0.125704
0.770382 0.673213 0.210086
0.983520 0.663966 0.177462
0.249088 0.926177 0.058259
0.345403 0.925628 0.048951
0.554925 0.922179 0.000000
0.787655 0.910948 0.158450
0.986816 0.896788 0.304082
0.092531 0.000000 0.386023
0.253727 0.000000 0.385687
0.514244 0.000000 0.391089
0.781155 0.000000 0.380438
0.991455 0.000000 0.373449
0.094881 0.210666 0.385534
0.260441 0.206027 0.385595
0.522393 0.184970 0.387915
0.784390 0.143282 0.376532
0.990967 0.162814 0.375616
0.135042 0.457801 0.384619
0.279667 0.459510 0.383368
0.536584 0.454261 0.379370
0.789425 0.442481 0.371191
0.992706 0.420233 0.363989
0.189487 0.707729 0.368688
0.313817 0.708248 0.365087
0.553643 0.703487 0.359472
0.780728 0.679561 0.394873
0.991424 0.665278 0.365820
0.296483 0.928374 0.367468
0.386236 0.926543 0.374243
0.547723 0.925628 0.346319
0.787503 0.916350 0.364874
0.986389 0.900786 0.456489
0.169680 0.000000 0.602350
0.298802 0.000000 0.601801
0.541619 0.000000 0.601617
0.793942 0.000000 0.592157
0.995087 0.000000 0.572320
0.160555 0.207095 0.604059
0.298344 0.200870 0.604120
0.547204 0.173129 0.603571
0.797452 0.137392 0.591241
0.995544 0.186679 0.575799
0.178836 0.465736 0.605035
0.306310 0.462043 0.605219
0.556970 0.451698 0.604211
0.801053 0.449470 0.589929
0.991638 0.467933 0.592279
0.233982 0.716670 0.596796
0.344488 0.716182 0.596368
0.576837 0.708888 0.594934
0.800381 0.697780 0.599512
0.990387 0.681300 0.596490
0.334936 0.929656 0.580438
0.416815 0.928130 0.584466
0.606134 0.922820 0.600549
0.782956 0.921752 0.589532
0.979339 0.904601 0.640467
0.198489 0.000000 0.850675
0.318242 0.000000 0.850828
0.553216 0.000000 0.851041
0.804837 0.000000 0.851164
0.999481 0.000000 0.802609
0.182193 0.202029 0.851499
0.311101 0.195193 0.851560
0.551537 0.168826 0.851591
0.804410 0.119905 0.851469
0.998260 0.187015 0.803647
0.158114 0.455695 0.852720
0.294743 0.452247 0.852842
0.546929 0.447944 0.852567
0.800198 0.441291 0.852049
0.992706 0.465766 0.810605
0.232975 0.710323 0.853025
0.341009 0.708949 0.853025
0.565545 0.705898 0.852750
0.789548 0.697841 0.852811
0.982391 0.706569 0.828061
0.333257 0.951080 0.844175
0.414313 0.948150 0.843748
0.602319 0.938659 0.843198
0.802243 0.925750 0.846006
0.968811 0.919188 0.863828
