其他预设/【239】阳光逆光效果预设26款/1.LUT预设（视频调色-PR-AE-PS-FCPX-达芬奇用）/阳光逆光预设__-25.cube
# Created by Adobe Lightroom plugin Export LUT (1.17.0)
# www.johnrellis.com/lightroom/exportlut.htm
# Preset: 阳光逆光预设[素锦印象]-25
# Color profile: /Library/Application Support/Adobe/Color/Profiles/Recommended/AdobeRGB1998.icc
LUT_3D_SIZE 8
DOMAIN_MIN 0.000000 0.000000 0.000000
DOMAIN_MAX 0.903226 0.903226 0.903226
0.078279 0.078279 0.078279
0.161440 0.077241 0.076997
0.277043 0.076509 0.076081
0.394629 0.081880 0.078889
0.514397 0.089204 0.082887
0.636255 0.093721 0.082216
0.761135 0.092592 0.076478
0.889555 0.082612 0.063539
0.081086 0.157198 0.076417
0.161044 0.155795 0.076081
0.273686 0.149996 0.085359
0.394812 0.148257 0.082795
0.514580 0.149722 0.084901
0.636439 0.150912 0.083223
0.761318 0.149722 0.076997
0.889708 0.144717 0.064576
0.102724 0.266819 0.084932
0.162081 0.266392 0.085084
0.276097 0.265202 0.086183
0.385077 0.260807 0.112306
0.508721 0.262608 0.108186
0.636652 0.260868 0.089784
0.761929 0.259556 0.080568
0.890166 0.257389 0.067140
0.130220 0.380560 0.092500
0.176303 0.380438 0.092195
0.278996 0.379919 0.092256
0.395758 0.379126 0.091798
0.507591 0.375433 0.121431
0.621942 0.378912 0.149355
0.755215 0.381781 0.129671
0.888853 0.380072 0.098573
0.154910 0.496681 0.094820
0.193240 0.496681 0.094575
0.286931 0.496437 0.093721
0.399145 0.495918 0.092470
0.517388 0.495338 0.090394
0.633265 0.493568 0.124025
0.748165 0.497719 0.173922
0.878355 0.507286 0.188540
0.177005 0.617609 0.090486
0.210819 0.617609 0.090211
0.298253 0.617609 0.089143
0.407263 0.617639 0.086793
0.524346 0.617670 0.083314
0.645167 0.617762 0.077516
0.761959 0.615076 0.122194
0.881102 0.621149 0.192721
0.195193 0.743771 0.078523
0.226139 0.743801 0.078126
0.309758 0.743893 0.076570
0.416815 0.744106 0.073182
0.533165 0.744350 0.067201
0.653986 0.744717 0.057893
0.777584 0.745174 0.030671
0.893614 0.740505 0.116091
0.207736 0.875151 0.047974
0.237583 0.875181 0.047486
0.319188 0.875334 0.040528
0.425544 0.875639 0.026795
0.542138 0.876066 0.007263
0.663813 0.876646 0.000000
0.789120 0.877287 0.000000
0.917205 0.877989 0.000000
0.078523 0.077760 0.150179
0.159945 0.076234 0.150271
0.276158 0.085634 0.142519
0.393896 0.096620 0.142458
0.514061 0.099275 0.140993
0.636194 0.099184 0.138216
0.761288 0.093965 0.133700
0.889738 0.079286 0.126711
0.085176 0.155306 0.149447
0.161318 0.155673 0.149172
0.275853 0.155947 0.147097
0.394049 0.155093 0.144503
0.514244 0.154910 0.142245
0.636378 0.153902 0.139101
0.761440 0.150546 0.134493
0.889891 0.143282 0.127321
0.107942 0.266575 0.144198
0.170504 0.265568 0.148379
0.276860 0.264988 0.147860
0.384283 0.264317 0.164157
0.510948 0.264958 0.153689
0.636988 0.262333 0.142855
0.761959 0.260349 0.136965
0.890349 0.256809 0.129000
0.133608 0.380468 0.144198
0.182712 0.379980 0.147982
0.281376 0.379675 0.147433
0.396216 0.379034 0.146639
0.507134 0.376379 0.167117
0.623804 0.380591 0.182528
0.756497 0.382208 0.166110
0.889921 0.379187 0.142458
0.160555 0.496559 0.146914
0.197330 0.496529 0.146792
0.289097 0.496223 0.146334
0.400214 0.495827 0.145113
0.517815 0.495308 0.143618
0.632959 0.493782 0.167208
0.747951 0.498695 0.206210
0.879362 0.507530 0.213382
0.180514 0.617548 0.143465
0.213413 0.617517 0.143496
0.299870 0.617548 0.142550
0.408118 0.617578 0.141238
0.524834 0.617639 0.139345
0.645441 0.617731 0.135988
0.761868 0.615167 0.165255
0.881010 0.621698 0.221897
0.196475 0.743740 0.136690
0.227298 0.743801 0.136477
0.310338 0.743923 0.135500
0.417060 0.744076 0.133700
0.533379 0.744381 0.131044
0.654139 0.744747 0.126864
0.777707 0.745144 0.121370
0.893614 0.740566 0.160647
0.206424 0.875212 0.124880
0.236393 0.875273 0.124392
0.318425 0.875425 0.123140
0.424994 0.875700 0.120882
0.541802 0.876127 0.116915
0.663569 0.876707 0.111849
0.789029 0.877348 0.104005
0.917205 0.878050 0.092744
0.083192 0.080690 0.251591
0.153414 0.085664 0.251316
0.274296 0.091585 0.252323
0.394659 0.080537 0.244480
0.515404 0.063539 0.235477
0.637263 0.076326 0.233738
0.762264 0.070100 0.232486
0.890867 0.006683 0.229221
0.102815 0.152193 0.251041
0.162814 0.154299 0.250767
0.275853 0.152529 0.251011
0.395422 0.141909 0.242161
0.516075 0.132387 0.232822
0.637263 0.145022 0.235386
0.762387 0.140047 0.233341
0.890929 0.125978 0.229831
0.116823 0.264256 0.250248
0.171084 0.264775 0.250126
0.277745 0.264805 0.250095
0.395483 0.264500 0.247318
0.515343 0.262669 0.243717
0.637537 0.260777 0.240482
0.762722 0.257145 0.236881
0.891264 0.250828 0.232456
0.136049 0.380529 0.247074
0.182528 0.380194 0.246891
0.285161 0.379370 0.248447
0.397375 0.378973 0.247715
0.505760 0.378943 0.262028
0.630579 0.382391 0.259068
0.761593 0.380133 0.247532
0.891875 0.375616 0.237858
0.155459 0.496925 0.243015
0.195468 0.496773 0.242924
0.293797 0.495949 0.247166
0.402502 0.495613 0.246555
0.518700 0.495277 0.245548
0.632258 0.494575 0.261479
0.747433 0.501793 0.287877
0.883207 0.506706 0.278874
0.173190 0.617975 0.238773
0.211307 0.617792 0.240116
0.303563 0.617426 0.244755
0.410224 0.617517 0.244022
0.525994 0.617609 0.242710
0.646052 0.617762 0.240940
0.761563 0.615473 0.259831
0.880766 0.623468 0.299596
0.192660 0.744045 0.238865
0.226047 0.743984 0.239994
0.310582 0.744045 0.240604
0.417182 0.744259 0.239597
0.533410 0.744533 0.238071
0.654292 0.744839 0.236057
0.778012 0.745266 0.233280
0.893675 0.740993 0.257267
0.201785 0.875486 0.237400
0.229435 0.875669 0.235019
0.313939 0.875792 0.234348
0.421942 0.876036 0.233249
0.539757 0.876463 0.231449
0.662318 0.877012 0.228977
0.788418 0.877623 0.225650
0.917113 0.878264 0.221195
0.096284 0.089326 0.358923
0.156924 0.093050 0.358770
0.270237 0.102358 0.358282
0.392981 0.093141 0.359625
0.515251 0.063050 0.353399
0.638453 0.000000 0.346532
0.764370 0.000000 0.339940
0.893431 0.000000 0.334234
0.112337 0.152621 0.358556
0.164889 0.153445 0.358526
0.273503 0.158022 0.357977
0.393988 0.148836 0.359014
0.515831 0.132235 0.352148
0.638880 0.115663 0.344976
0.764767 0.081575 0.338170
0.893614 0.000000 0.333989
0.116670 0.259617 0.358282
0.165591 0.258732 0.358221
0.277867 0.261662 0.357671
0.396765 0.255955 0.356725
0.517693 0.246006 0.347509
0.640528 0.236484 0.339239
0.765347 0.233158 0.337835
0.893889 0.221897 0.335760
0.139864 0.378271 0.357336
0.183688 0.378668 0.357305
0.284550 0.379156 0.356970
0.397772 0.378912 0.357305
0.517449 0.379583 0.355138
0.639826 0.376226 0.350713
0.765255 0.371160 0.346685
0.894041 0.363867 0.342351
0.161105 0.496834 0.355596
0.199344 0.496712 0.355352
0.292607 0.496284 0.354253
0.405402 0.495460 0.355169
0.520226 0.495399 0.354345
0.631220 0.496651 0.367895
0.756527 0.501640 0.370397
0.891020 0.499123 0.360235
0.177127 0.618067 0.353399
0.211765 0.618036 0.353033
0.300175 0.618006 0.351995
0.411139 0.617700 0.353246
0.526726 0.617792 0.352392
0.647028 0.617914 0.351141
0.761196 0.616144 0.367407
0.880369 0.626337 0.398627
0.192203 0.744320 0.353826
0.224033 0.744320 0.353613
0.308232 0.744411 0.353155
0.413550 0.744808 0.350378
0.531365 0.745022 0.349401
0.653529 0.745266 0.347936
0.778317 0.745541 0.346044
0.893889 0.741665 0.366308
0.208988 0.875456 0.359686
0.238163 0.875517 0.359869
0.314733 0.875914 0.357763
0.412238 0.877012 0.346349
0.533532 0.877348 0.345159
0.658473 0.877745 0.343572
0.786618 0.878202 0.341283
0.916747 0.878691 0.338506
0.110536 0.097688 0.468269
0.163149 0.099306 0.468147
0.270817 0.104463 0.467872
0.388983 0.112428 0.467292
0.513329 0.088319 0.469612
0.638788 0.000000 0.466072
0.765072 0.000000 0.462409
0.894438 0.000000 0.459937
0.120821 0.153902 0.468147
0.169192 0.154482 0.468055
0.273625 0.156832 0.467750
0.390509 0.162417 0.467201
0.513970 0.145205 0.469215
0.639277 0.114687 0.465187
0.765469 0.078065 0.461433
0.894774 0.000000 0.458930
0.124269 0.256687 0.467964
0.172091 0.256626 0.467842
0.277623 0.259342 0.467506
0.394751 0.265721 0.466773
0.516258 0.252232 0.467811
0.640803 0.235660 0.462318
0.766812 0.221134 0.458167
0.895964 0.198398 0.455299
0.134859 0.374182 0.467384
0.177493 0.374060 0.467353
0.275547 0.372686 0.467201
0.398901 0.376318 0.466438
0.519860 0.367956 0.464546
0.643336 0.357336 0.457130
0.769162 0.346014 0.452003
0.898192 0.330480 0.447974
0.163058 0.494118 0.466529
0.199863 0.494423 0.466590
0.292393 0.495155 0.466438
0.405249 0.495552 0.465980
0.520195 0.495277 0.466621
0.642756 0.494209 0.465064
0.769192 0.487129 0.459663
0.898314 0.478218 0.454810
0.181979 0.618189 0.468879
0.215427 0.618189 0.468635
0.301976 0.618158 0.467872
0.409735 0.618219 0.466865
0.523888 0.618647 0.464088
0.647425 0.617975 0.463355
0.760433 0.617548 0.480171
0.887846 0.623835 0.488716
0.194522 0.744533 0.471077
0.225589 0.744594 0.470954
0.308782 0.744717 0.470741
0.414527 0.744991 0.470802
0.523156 0.746334 0.462806
0.649866 0.746212 0.461952
0.778103 0.746029 0.460914
0.893889 0.742916 0.481788
0.208316 0.875792 0.477485
0.237339 0.875853 0.477607
0.317144 0.876097 0.478248
0.421057 0.876524 0.479957
0.519829 0.878965 0.461524
0.650385 0.879118 0.460609
0.782589 0.879240 0.459419
0.915648 0.879362 0.457740
0.120974 0.101442 0.587182
0.169894 0.102205 0.587182
0.275151 0.103670 0.587060
0.393805 0.107729 0.586847
0.515648 0.106630 0.586603
0.639673 0.065339 0.585779
0.766018 0.000000 0.583734
0.895781 0.000000 0.583520
0.126314 0.154452 0.587182
0.173251 0.154482 0.587152
0.276768 0.155123 0.587091
0.394903 0.157961 0.586877
0.516533 0.157534 0.586603
0.640101 0.132906 0.585473
0.766384 0.078737 0.583276
0.896086 0.000000 0.583032
0.125429 0.256138 0.587427
0.173190 0.256352 0.587396
0.278172 0.257298 0.587274
0.397253 0.260166 0.586969
0.518883 0.261601 0.586664
0.641596 0.244907 0.584558
0.767666 0.219333 0.581628
0.897154 0.195529 0.581292
0.116915 0.372564 0.587701
0.164248 0.371618 0.587701
0.270695 0.369482 0.587732
0.396338 0.371862 0.587366
0.521813 0.377111 0.586725
0.643732 0.362097 0.583124
0.769741 0.344518 0.579156
0.899077 0.329198 0.578088
0.139376 0.497475 0.587518
0.180209 0.497230 0.587549
0.276188 0.496162 0.587549
0.389563 0.492744 0.587671
0.520134 0.492775 0.587243
0.645930 0.482887 0.581842
0.771969 0.472450 0.577356
0.901061 0.462501 0.576165
0.169986 0.621698 0.587335
0.205112 0.621790 0.587274
0.294591 0.621851 0.586969
0.405249 0.621332 0.586267
0.525109 0.619684 0.586358
0.644312 0.618067 0.588464
0.771206 0.615137 0.586999
0.901518 0.605463 0.581567
0.196231 0.744900 0.588586
0.226780 0.744991 0.588525
0.308934 0.745144 0.588647
0.413855 0.745449 0.589258
0.528405 0.745937 0.591089
0.644526 0.747280 0.586603
0.776242 0.746273 0.586023
0.892576 0.745937 0.605463
0.206088 0.876280 0.595911
0.235080 0.876341 0.596063
0.314977 0.876616 0.596704
0.418555 0.877134 0.598230
0.532006 0.877958 0.600427
0.639307 0.880735 0.586328
0.776669 0.880491 0.585595
0.913359 0.880217 0.584558
0.126741 0.100587 0.715541
0.174777 0.100252 0.715541
0.280003 0.098695 0.715511
0.399908 0.096468 0.715450
0.524407 0.098268 0.715297
0.650111 0.073884 0.715267
0.770809 0.000000 0.708370
0.897276 0.000000 0.706996
0.126894 0.152834 0.715602
0.175082 0.152285 0.715602
0.280064 0.151369 0.715602
0.400122 0.150301 0.715511
0.524712 0.152071 0.715358
0.650416 0.138643 0.715358
0.771054 0.102907 0.708248
0.897520 0.000000 0.706874
0.115572 0.255253 0.715969
0.167941 0.255009 0.715938
0.277165 0.254917 0.715908
0.399268 0.255253 0.715816
0.525200 0.257328 0.715602
0.651209 0.250736 0.715541
0.771725 0.231327 0.707942
0.898466 0.197635 0.706477
0.078614 0.371099 0.716518
0.142763 0.369818 0.716548
0.260868 0.366918 0.716670
0.392401 0.368139 0.716457
0.523156 0.371160 0.716121
0.651362 0.369512 0.715999
0.772641 0.352728 0.707881
0.900175 0.328435 0.705898
0.077302 0.498573 0.716762
0.139803 0.497597 0.716793
0.250645 0.493507 0.717098
0.374212 0.486976 0.717433
0.512718 0.486885 0.717128
0.649256 0.492592 0.716487
0.773190 0.477577 0.708797
0.901823 0.461128 0.706691
0.113741 0.628168 0.716854
0.161501 0.627893 0.716854
0.264469 0.626520 0.716976
0.380194 0.623346 0.717250
0.504173 0.617762 0.717617
0.642420 0.615930 0.717372
0.773556 0.607202 0.710689
0.903166 0.597131 0.709255
0.154452 0.756588 0.716976
0.192325 0.756558 0.716976
0.285405 0.756374 0.717006
0.398566 0.754940 0.716457
0.520562 0.752132 0.715755
0.646693 0.748959 0.716182
0.771145 0.746578 0.719173
0.902983 0.741817 0.717556
0.200473 0.876982 0.715145
0.230259 0.877043 0.715358
0.310796 0.877348 0.716152
0.414893 0.877897 0.717800
0.529351 0.878691 0.720455
0.649531 0.879698 0.724544
0.767758 0.881987 0.718410
0.909148 0.881254 0.718349
0.125795 0.093111 0.852720
0.175418 0.091707 0.852720
0.283299 0.086122 0.852750
0.405829 0.076692 0.852781
0.533013 0.065034 0.852811
0.662196 0.054749 0.852781
0.791745 0.000000 0.853056
0.907500 0.000000 0.838346
0.120882 0.147768 0.852842
0.172183 0.146975 0.852811
0.281651 0.143832 0.852873
0.404913 0.139406 0.852873
0.532525 0.134279 0.852903
0.662013 0.131838 0.852873
0.791653 0.085328 0.853147
0.907561 0.000000 0.838407
0.089448 0.252628 0.853269
0.154055 0.252232 0.853300
0.272801 0.251011 0.853300
0.400122 0.249210 0.853300
0.530022 0.247593 0.853300
0.660914 0.247929 0.853208
0.791165 0.228855 0.853513
0.907652 0.206485 0.838712
0.000000 0.365026 0.854215
0.076204 0.364965 0.854215
0.245579 0.364538 0.854215
0.386053 0.364080 0.854185
0.522515 0.364324 0.854093
0.657221 0.366308 0.853910
0.789334 0.355779 0.854154
0.907683 0.338354 0.839658
0.000000 0.495918 0.854856
0.000000 0.494423 0.854917
0.206882 0.488991 0.855222
0.349371 0.479591 0.855680
0.504051 0.481727 0.855436
0.648463 0.486213 0.855070
0.785306 0.484108 0.854978
0.907103 0.469917 0.841550
0.000000 0.631678 0.855161
0.000000 0.630732 0.855253
0.207370 0.627008 0.855558
0.342931 0.619654 0.856107
0.481483 0.610956 0.856657
0.632013 0.609735 0.856535
0.779049 0.615564 0.855924
0.906096 0.602197 0.844633
0.000000 0.766354 0.855528
0.073365 0.765957 0.855589
0.226169 0.764309 0.855802
0.358831 0.761379 0.856138
0.489967 0.756619 0.856596
0.622309 0.749111 0.857237
0.766537 0.744350 0.857359
0.904417 0.739467 0.849546
0.070863 0.899382 0.856077
0.139101 0.899229 0.856107
0.256229 0.898650 0.856229
0.380346 0.897398 0.856443
0.507347 0.895384 0.856748
0.637964 0.890379 0.855619
0.771603 0.884886 0.855894
0.900786 0.882872 0.862943
