其他预设/【239】阳光逆光效果预设26款/1.LUT预设（视频调色-PR-AE-PS-FCPX-达芬奇用）/阳光逆光预设__-25.cube
# Created by Adobe Lightroom plugin Export LUT (1.17.0)
# www.johnrellis.com/lightroom/exportlut.htm
# Preset: 阳光逆光预设[素锦印象]-25
# Color profile: /Library/Application Support/Adobe/Color/Profiles/Recommended/AdobeRGB1998.icc
LUT_3D_SIZE 32
0.078279 0.078279 0.078279
0.088991 0.078126 0.078309
0.104250 0.077729 0.077821
0.131960 0.077668 0.077607
0.161440 0.077241 0.076997
0.190433 0.076631 0.076661
0.219333 0.076356 0.076265
0.248051 0.076417 0.076051
0.277043 0.076509 0.076081
0.306126 0.077302 0.075929
0.335546 0.077760 0.076295
0.365026 0.079500 0.077363
0.394629 0.081880 0.078889
0.424384 0.084077 0.080537
0.454200 0.086488 0.081880
0.484230 0.088014 0.082490
0.514397 0.089204 0.082887
0.544549 0.090852 0.083070
0.574884 0.092073 0.083040
0.605554 0.093050 0.082734
0.636255 0.093721 0.082216
0.667170 0.093874 0.081147
0.698329 0.093568 0.080079
0.729580 0.093599 0.078584
0.761135 0.092592 0.076478
0.792966 0.090822 0.074250
0.824949 0.088838 0.071565
0.857176 0.086336 0.067872
0.889555 0.082612 0.063539
0.922179 0.078126 0.059144
0.955108 0.072877 0.049287
0.988373 0.065095 0.034974
0.078584 0.088746 0.078004
0.089540 0.088869 0.078004
0.103304 0.089357 0.078798
0.131472 0.090181 0.077852
0.161471 0.089082 0.076936
0.190433 0.088563 0.076600
0.219394 0.087373 0.076265
0.248112 0.087098 0.076112
0.277104 0.086854 0.076173
0.306188 0.087251 0.076051
0.335515 0.088045 0.076692
0.365026 0.088899 0.077516
0.394598 0.091279 0.079316
0.424475 0.093111 0.080934
0.454261 0.095033 0.081697
0.484321 0.096345 0.082612
0.514366 0.097810 0.083009
0.544610 0.098665 0.083223
0.574914 0.099763 0.083192
0.605524 0.100771 0.082887
0.636286 0.100984 0.082399
0.667170 0.101259 0.081331
0.698329 0.101167 0.080232
0.729641 0.100618 0.078492
0.761166 0.099977 0.076356
0.792996 0.098390 0.074128
0.825010 0.096498 0.071046
0.857206 0.094301 0.068086
0.889555 0.091310 0.063752
0.922179 0.087373 0.059358
0.955138 0.082856 0.048890
0.988373 0.076265 0.034455
0.078614 0.103120 0.077790
0.091249 0.103517 0.077394
0.105959 0.103761 0.077516
0.130465 0.104036 0.079377
0.159762 0.103609 0.079103
0.190341 0.101991 0.076844
0.219333 0.100740 0.076234
0.247990 0.100038 0.076143
0.277104 0.099489 0.076204
0.306126 0.099306 0.076478
0.335515 0.099947 0.077119
0.365026 0.100954 0.078248
0.394598 0.102480 0.080110
0.424445 0.103883 0.081392
0.454292 0.105257 0.082490
0.484291 0.106477 0.082765
0.514427 0.107668 0.083467
0.544610 0.108492 0.083406
0.574975 0.109407 0.083680
0.605554 0.110109 0.083101
0.636286 0.110628 0.082246
0.667231 0.110506 0.081209
0.698329 0.110292 0.080140
0.729671 0.109773 0.078370
0.761227 0.109346 0.076570
0.793027 0.107729 0.074372
0.825010 0.106355 0.071290
0.857176 0.104402 0.068360
0.889586 0.101686 0.064027
0.922210 0.098299 0.059205
0.955138 0.093812 0.049531
0.988434 0.088777 0.035096
0.079408 0.129641 0.076905
0.092348 0.129519 0.076539
0.106966 0.129488 0.076356
0.132815 0.129061 0.076265
0.159487 0.126772 0.080049
0.185885 0.126131 0.083680
0.216861 0.124392 0.080934
0.247349 0.122927 0.078248
0.277104 0.121462 0.076753
0.306249 0.121248 0.077333
0.335546 0.121157 0.078096
0.365087 0.121920 0.079530
0.394690 0.122957 0.081056
0.424475 0.123903 0.082338
0.454383 0.124361 0.082887
0.484382 0.125338 0.083497
0.514519 0.126162 0.083925
0.544671 0.126650 0.083864
0.575006 0.127260 0.083864
0.605585 0.127840 0.083589
0.636378 0.127779 0.082490
0.667292 0.127901 0.081727
0.698390 0.127901 0.080659
0.729702 0.127321 0.078950
0.761257 0.126772 0.076814
0.793088 0.125795 0.074220
0.825071 0.124269 0.071565
0.857267 0.122621 0.068269
0.889616 0.120638 0.064332
0.922240 0.117891 0.059052
0.955169 0.114534 0.049226
0.988464 0.110353 0.033692
0.081086 0.157198 0.076417
0.093111 0.157015 0.076112
0.107118 0.156741 0.075990
0.131380 0.156435 0.076295
0.161044 0.155795 0.076081
0.188693 0.153231 0.079896
0.213809 0.151308 0.087068
0.242435 0.150912 0.088197
0.273686 0.149996 0.085359
0.304570 0.149050 0.083131
0.335393 0.148104 0.080720
0.365087 0.148135 0.081819
0.394812 0.148257 0.082795
0.424537 0.148714 0.083833
0.454414 0.149111 0.084077
0.484443 0.149416 0.084443
0.514580 0.149722 0.084901
0.544732 0.150118 0.084871
0.575128 0.150393 0.084596
0.605768 0.150698 0.084016
0.636439 0.150912 0.083223
0.667384 0.150973 0.082155
0.698482 0.150637 0.080812
0.729793 0.150484 0.079408
0.761318 0.149722 0.076997
0.793118 0.148959 0.074769
0.825132 0.147677 0.071748
0.857298 0.146365 0.068482
0.889708 0.144717 0.064576
0.922332 0.142702 0.059693
0.955261 0.140078 0.049592
0.988525 0.136812 0.035248
0.084199 0.184298 0.076570
0.095033 0.184329 0.076570
0.107637 0.184176 0.076478
0.130556 0.183841 0.076539
0.159030 0.183230 0.076753
0.189456 0.182712 0.076417
0.217960 0.180728 0.081331
0.242893 0.178317 0.089631
0.268559 0.177615 0.096284
0.299962 0.177798 0.093690
0.331395 0.177401 0.091249
0.362737 0.177005 0.089143
0.393896 0.176333 0.086824
0.424720 0.175875 0.085481
0.454597 0.175937 0.085481
0.484596 0.176028 0.085878
0.514733 0.176028 0.086061
0.544854 0.176364 0.085725
0.575219 0.176364 0.085512
0.605859 0.176455 0.084718
0.636561 0.176608 0.083925
0.667506 0.176394 0.082887
0.698573 0.176150 0.081270
0.729915 0.175845 0.079561
0.761440 0.175357 0.077790
0.793240 0.174716 0.075288
0.825254 0.173892 0.072206
0.857389 0.172732 0.068605
0.889769 0.171267 0.064759
0.922423 0.169711 0.059846
0.955322 0.167605 0.049866
0.988617 0.165133 0.034455
0.088563 0.211673 0.077790
0.098238 0.211612 0.077821
0.110109 0.211521 0.078065
0.131655 0.211307 0.078157
0.158480 0.210849 0.078767
0.187594 0.210391 0.078889
0.217899 0.209812 0.079500
0.247257 0.208621 0.083619
0.272496 0.205905 0.092042
0.298344 0.205020 0.098970
0.326604 0.205264 0.102571
0.358404 0.205478 0.099886
0.389960 0.205509 0.097292
0.421546 0.205203 0.094484
0.453010 0.204715 0.091707
0.484382 0.204166 0.088655
0.514885 0.203891 0.087404
0.545037 0.203830 0.087160
0.575402 0.203677 0.086671
0.605982 0.203677 0.085908
0.636683 0.203677 0.084901
0.667659 0.203494 0.083558
0.698726 0.203372 0.082216
0.730068 0.203006 0.080293
0.761563 0.202518 0.078218
0.793362 0.201846 0.075746
0.825376 0.201175 0.072694
0.857511 0.200412 0.069459
0.889891 0.199191 0.065217
0.922515 0.198032 0.060304
0.955444 0.196262 0.050752
0.988708 0.194339 0.035523
0.095399 0.239017 0.081331
0.104067 0.238956 0.081361
0.114504 0.238834 0.081331
0.134401 0.238651 0.081453
0.159609 0.238437 0.082033
0.187564 0.238071 0.082185
0.216892 0.237613 0.083131
0.246769 0.237308 0.083589
0.276799 0.236851 0.086610
0.302281 0.233890 0.094545
0.328374 0.232792 0.102205
0.354742 0.232761 0.109194
0.385443 0.233494 0.108858
0.417304 0.233860 0.105837
0.449165 0.233921 0.102632
0.480842 0.233646 0.099428
0.512505 0.233249 0.095949
0.544152 0.232609 0.091890
0.575616 0.232029 0.087984
0.606195 0.231907 0.087251
0.636896 0.231846 0.086275
0.667811 0.231601 0.085023
0.698909 0.231296 0.083436
0.730220 0.230991 0.081514
0.761746 0.230655 0.079164
0.793545 0.230259 0.076661
0.825467 0.229618 0.073701
0.857664 0.228946 0.070161
0.890013 0.228122 0.065858
0.922637 0.226932 0.061097
0.955566 0.225620 0.052094
0.988830 0.224094 0.037201
0.102724 0.266819 0.084932
0.110506 0.266697 0.084688
0.119997 0.266697 0.084932
0.138155 0.266575 0.085084
0.162081 0.266392 0.085084
0.188693 0.266148 0.085542
0.216953 0.265812 0.085634
0.246159 0.265476 0.085847
0.276097 0.265202 0.086183
0.306737 0.265415 0.088167
0.332494 0.262516 0.096712
0.358556 0.261082 0.104707
0.385077 0.260807 0.112306
0.412573 0.261418 0.118410
0.444770 0.262181 0.115267
0.476753 0.262608 0.111727
0.508721 0.262608 0.108186
0.540612 0.262425 0.104158
0.572595 0.262119 0.099977
0.604669 0.261570 0.095125
0.636652 0.260868 0.089784
0.667994 0.260380 0.086549
0.699123 0.260044 0.084779
0.730404 0.259861 0.082521
0.761929 0.259556 0.080568
0.793698 0.259159 0.077760
0.825650 0.258671 0.074861
0.857816 0.258091 0.071351
0.890166 0.257389 0.067140
0.922789 0.256413 0.062043
0.955718 0.255406 0.052979
0.988983 0.254246 0.038209
0.110109 0.294896 0.087129
0.116945 0.294896 0.087434
0.125521 0.294774 0.087160
0.142641 0.294682 0.087282
0.165103 0.294560 0.087617
0.190738 0.294347 0.087556
0.218051 0.294163 0.087922
0.246586 0.293858 0.088197
0.275883 0.293645 0.088289
0.305699 0.293339 0.088228
0.336797 0.293980 0.089540
0.362707 0.291081 0.098451
0.388952 0.289555 0.106966
0.415473 0.289158 0.115389
0.442298 0.289555 0.123232
0.472084 0.290440 0.125338
0.504387 0.291203 0.121340
0.536522 0.291478 0.117311
0.568780 0.291691 0.113191
0.601190 0.291600 0.108461
0.633600 0.291264 0.103609
0.665949 0.290806 0.097993
0.698360 0.290043 0.091249
0.730617 0.289189 0.084260
0.762142 0.288823 0.082033
0.793912 0.288487 0.079347
0.825864 0.288121 0.075776
0.858000 0.287694 0.072267
0.890379 0.287053 0.068147
0.922972 0.286290 0.063142
0.955901 0.285466 0.054932
0.989166 0.284459 0.040772
0.116732 0.323278 0.089448
0.123201 0.323217 0.089509
0.131258 0.323186 0.089235
0.147036 0.323125 0.089357
0.168704 0.322972 0.089418
0.193179 0.322881 0.089631
0.219821 0.322698 0.089754
0.247623 0.322484 0.089754
0.276524 0.322210 0.089906
0.305882 0.321996 0.089876
0.335515 0.321721 0.089998
0.367193 0.322850 0.089754
0.393133 0.320012 0.099886
0.419532 0.318364 0.108888
0.446052 0.317723 0.117556
0.472908 0.317906 0.126314
0.499977 0.318639 0.134554
0.531914 0.319707 0.131807
0.564538 0.320409 0.127535
0.597406 0.320989 0.122896
0.630091 0.321263 0.118166
0.662776 0.321141 0.112917
0.695430 0.320958 0.107332
0.728084 0.320409 0.101045
0.760891 0.319615 0.093477
0.793729 0.318578 0.083955
0.826078 0.317845 0.077760
0.858244 0.317510 0.074342
0.890562 0.317021 0.069612
0.923156 0.316350 0.064332
0.956085 0.315740 0.057862
0.989349 0.315038 0.044404
0.123537 0.351812 0.091341
0.129397 0.351812 0.091096
0.137148 0.351751 0.091341
0.152071 0.351659 0.091249
0.172366 0.351568 0.091310
0.196201 0.351507 0.091249
0.222049 0.351385 0.091371
0.249332 0.351263 0.091371
0.277531 0.351019 0.091279
0.306462 0.350866 0.091005
0.335912 0.350591 0.091188
0.365606 0.350378 0.090883
0.397528 0.351781 0.089723
0.423774 0.349096 0.100496
0.450141 0.347326 0.110353
0.476753 0.346471 0.119844
0.503655 0.346410 0.128939
0.530694 0.347051 0.137942
0.559808 0.348272 0.142519
0.593072 0.349645 0.138094
0.626246 0.350500 0.133455
0.659236 0.350988 0.128756
0.692164 0.351202 0.123537
0.725154 0.351232 0.118074
0.758206 0.350896 0.111727
0.791287 0.350469 0.104463
0.824430 0.349615 0.095613
0.857664 0.348516 0.084565
0.890776 0.347173 0.071778
0.923400 0.346715 0.066224
0.956298 0.346197 0.060212
0.989593 0.345647 0.048707
0.130220 0.380560 0.092500
0.135470 0.380560 0.092531
0.142733 0.380529 0.092226
0.156619 0.380529 0.092409
0.176303 0.380438 0.092195
0.199191 0.380346 0.092164
0.224308 0.380255 0.092317
0.251011 0.380133 0.092317
0.278996 0.379919 0.092256
0.307439 0.379767 0.092012
0.336522 0.379583 0.091890
0.366033 0.379309 0.091951
0.395758 0.379126 0.091798
0.427832 0.380682 0.090028
0.454475 0.378210 0.100404
0.480903 0.376410 0.111269
0.507591 0.375433 0.121431
0.534508 0.375219 0.131075
0.561852 0.375830 0.140414
0.590021 0.377173 0.149599
0.621942 0.378912 0.149355
0.655329 0.380133 0.144747
0.688594 0.380987 0.140200
0.721889 0.381506 0.135195
0.755215 0.381781 0.129671
0.788540 0.381842 0.123507
0.821958 0.381567 0.116579
0.855375 0.381018 0.108522
0.888853 0.380072 0.098573
0.922515 0.378790 0.086061
0.956329 0.377173 0.067842
0.989807 0.376318 0.053223
0.136294 0.409491 0.093416
0.141726 0.409430 0.093233
0.148379 0.409430 0.093477
0.161532 0.409430 0.093355
0.180148 0.409369 0.093172
0.202548 0.409186 0.093202
0.227115 0.409155 0.093050
0.253269 0.409064 0.093080
0.280644 0.408850 0.093050
0.308751 0.408728 0.092836
0.337560 0.408545 0.092744
0.366766 0.408423 0.092470
0.396246 0.408240 0.092103
0.425940 0.408026 0.091554
0.457862 0.409400 0.090211
0.485328 0.407446 0.099916
0.511803 0.405554 0.111910
0.538537 0.404578 0.122713
0.565850 0.404334 0.132998
0.593652 0.405066 0.142763
0.621912 0.406378 0.152834
0.651087 0.408331 0.161410
0.684688 0.409918 0.156954
0.718318 0.411200 0.152377
0.751919 0.412055 0.147555
0.785550 0.412665 0.142458
0.819211 0.412940 0.136660
0.852873 0.412940 0.130251
0.886595 0.412696 0.123110
0.920409 0.412085 0.114443
0.954376 0.411231 0.103731
0.988647 0.409949 0.089265
0.142855 0.438422 0.094209
0.147616 0.438453 0.093996
0.153628 0.438392 0.093996
0.166445 0.438422 0.094118
0.184604 0.438361 0.093935
0.206058 0.438300 0.093690
0.230045 0.438239 0.093843
0.255711 0.438056 0.093660
0.282536 0.437964 0.093324
0.310369 0.437873 0.093111
0.338750 0.437690 0.092805
0.367651 0.437568 0.092592
0.396979 0.437385 0.092195
0.426581 0.437201 0.091920
0.456458 0.437018 0.091463
0.488106 0.438331 0.089937
0.516228 0.436866 0.099306
0.542870 0.434913 0.111757
0.569940 0.433936 0.123415
0.597498 0.433875 0.134463
0.625513 0.434516 0.145083
0.653986 0.435889 0.155673
0.682887 0.437842 0.166232
0.714412 0.440040 0.169863
0.748318 0.441596 0.165560
0.782254 0.442878 0.161044
0.816190 0.443793 0.156435
0.850126 0.444465 0.151431
0.884062 0.444800 0.145937
0.918090 0.444923 0.139528
0.952270 0.444770 0.132235
0.986694 0.444251 0.123262
0.148684 0.467597 0.094484
0.153414 0.467506 0.094545
0.159182 0.467506 0.094301
0.171328 0.467506 0.094453
0.188693 0.467414 0.094301
0.209720 0.467414 0.094240
0.233005 0.467292 0.093935
0.258152 0.467262 0.093965
0.284703 0.467170 0.093629
0.312016 0.467079 0.093477
0.340185 0.466896 0.092897
0.368933 0.466804 0.092927
0.397925 0.466621 0.092622
0.427405 0.466499 0.092042
0.457038 0.466255 0.091646
0.486885 0.466133 0.090730
0.518395 0.467292 0.089357
0.547295 0.466438 0.097475
0.574212 0.464546 0.111360
0.601526 0.463661 0.124025
0.629297 0.463630 0.135714
0.657557 0.464240 0.147311
0.686244 0.465614 0.158663
0.715389 0.467628 0.170108
0.744991 0.470253 0.181949
0.778775 0.472389 0.179660
0.812955 0.474006 0.175784
0.847135 0.475349 0.171603
0.881315 0.476387 0.167453
0.915557 0.477150 0.162814
0.949950 0.477699 0.157687
0.984558 0.478035 0.152193
0.154910 0.496681 0.094820
0.159060 0.496712 0.094606
0.164736 0.496712 0.094606
0.176455 0.496712 0.094514
0.193240 0.496681 0.094575
0.213413 0.496620 0.094331
0.236240 0.496590 0.094240
0.260868 0.496468 0.093812
0.286931 0.496437 0.093721
0.314031 0.496315 0.093324
0.341955 0.496193 0.093263
0.370275 0.496071 0.092805
0.399145 0.495918 0.092470
0.428351 0.495796 0.091951
0.457862 0.495613 0.091524
0.487495 0.495521 0.090883
0.517388 0.495338 0.090394
0.548974 0.496529 0.088167
0.578607 0.496162 0.095033
0.605737 0.494362 0.110475
0.633265 0.493568 0.124025
0.661280 0.493507 0.136751
0.689754 0.494209 0.149264
0.718715 0.495674 0.161501
0.748165 0.497719 0.173922
0.778012 0.500450 0.186618
0.809476 0.503441 0.194980
0.843931 0.505577 0.191806
0.878355 0.507286 0.188540
0.912840 0.508812 0.185458
0.947448 0.510094 0.181796
0.982269 0.511192 0.178531
0.160555 0.526055 0.094606
0.164889 0.525994 0.094667
0.170169 0.526055 0.094362
0.181491 0.526024 0.094270
0.197757 0.525933 0.094392
0.217288 0.525933 0.094392
0.239689 0.525902 0.094026
0.263737 0.525872 0.093812
0.289586 0.525811 0.093507
0.316320 0.525780 0.093294
0.343877 0.525750 0.092927
0.372045 0.525750 0.092409
0.400793 0.525719 0.091981
0.429938 0.525658 0.091127
0.459327 0.525689 0.090608
0.489021 0.525597 0.089662
0.518944 0.525628 0.088991
0.549004 0.525536 0.088167
0.580072 0.526268 0.086030
0.609918 0.526024 0.092287
0.637324 0.524407 0.109071
0.665156 0.523583 0.123964
0.693446 0.523613 0.137819
0.722225 0.524437 0.151217
0.751431 0.525933 0.164584
0.781094 0.528130 0.177951
0.811215 0.530968 0.191806
0.841703 0.534600 0.206363
0.875212 0.537560 0.209293
0.909941 0.539818 0.207156
0.944762 0.541863 0.205386
0.979797 0.543816 0.203769
0.166415 0.556237 0.093843
0.170199 0.556237 0.093874
0.175631 0.556237 0.093599
0.186526 0.556237 0.093751
0.202060 0.556207 0.093599
0.221347 0.556207 0.093538
0.243229 0.556207 0.092927
0.267033 0.556207 0.092958
0.292454 0.556207 0.092317
0.318883 0.556176 0.092103
0.346319 0.556146 0.091432
0.374334 0.556115 0.090944
0.402869 0.556146 0.090730
0.431830 0.556085 0.089876
0.461189 0.556054 0.089082
0.490761 0.556054 0.088319
0.520592 0.556054 0.087373
0.550591 0.556023 0.086183
0.580835 0.556023 0.085328
0.611536 0.556329 0.083558
0.641505 0.556023 0.088746
0.669093 0.554528 0.107332
0.697230 0.553857 0.123598
0.725795 0.554040 0.138735
0.754849 0.554894 0.153292
0.784360 0.556542 0.167636
0.814298 0.558862 0.182193
0.844602 0.561883 0.197513
0.875334 0.565698 0.213626
0.906859 0.570184 0.229007
0.941924 0.573053 0.228305
0.977111 0.575860 0.228244
0.171969 0.586786 0.092470
0.175845 0.586755 0.092256
0.180850 0.586816 0.092195
0.191257 0.586816 0.092378
0.206607 0.586816 0.092164
0.225254 0.586816 0.091890
0.246860 0.586816 0.091737
0.270329 0.586786 0.091524
0.295323 0.586786 0.090883
0.321569 0.586786 0.090364
0.348760 0.586755 0.090242
0.376623 0.586786 0.089693
0.405066 0.586725 0.088716
0.433906 0.586786 0.088289
0.463172 0.586786 0.087434
0.492653 0.586725 0.086397
0.522393 0.586755 0.085115
0.552392 0.586755 0.084138
0.582513 0.586755 0.082918
0.612879 0.586725 0.081453
0.643336 0.586755 0.079957
0.673182 0.586267 0.084169
0.701106 0.584924 0.104860
0.729488 0.584405 0.122988
0.758358 0.584710 0.139620
0.787686 0.585657 0.155276
0.817441 0.587366 0.171023
0.847623 0.589868 0.187076
0.878172 0.593072 0.204074
0.909148 0.597192 0.221988
0.940612 0.602350 0.241367
0.974304 0.607263 0.252567
0.177005 0.617609 0.090486
0.180728 0.617609 0.090547
0.185580 0.617639 0.090517
0.195865 0.617639 0.090394
0.210819 0.617609 0.090211
0.229343 0.617639 0.090150
0.250370 0.617609 0.089754
0.273381 0.617609 0.089509
0.298253 0.617609 0.089143
0.324346 0.617609 0.088594
0.351232 0.617609 0.087892
0.378973 0.617639 0.087556
0.407263 0.617639 0.086793
0.436011 0.617639 0.085817
0.465187 0.617670 0.085206
0.494606 0.617670 0.084077
0.524346 0.617670 0.083314
0.554284 0.617700 0.081941
0.584436 0.617731 0.080354
0.614679 0.617700 0.079133
0.645167 0.617762 0.077516
0.675532 0.617578 0.075898
0.705043 0.616663 0.078401
0.733303 0.615442 0.102327
0.761959 0.615076 0.122194
0.791104 0.615503 0.140108
0.820676 0.616632 0.157748
0.850675 0.618524 0.174960
0.881102 0.621149 0.192721
0.911986 0.624659 0.211460
0.943297 0.629267 0.231662
0.975097 0.635401 0.253696
0.181979 0.648676 0.088380
0.185519 0.648737 0.088411
0.190158 0.648707 0.088136
0.200259 0.648676 0.088014
0.214817 0.648707 0.088045
0.233036 0.648707 0.087739
0.253849 0.648707 0.087617
0.276707 0.648707 0.087343
0.301213 0.648737 0.086915
0.327031 0.648737 0.086336
0.353857 0.648768 0.085878
0.381445 0.648768 0.084962
0.409644 0.648829 0.084077
0.438270 0.648798 0.083375
0.467323 0.648829 0.082399
0.496803 0.648829 0.081483
0.526421 0.648859 0.080385
0.556329 0.648920 0.078889
0.586419 0.648981 0.077455
0.616724 0.648981 0.075807
0.647181 0.649073 0.074006
0.677790 0.649073 0.071595
0.708186 0.648829 0.070344
0.737118 0.647303 0.071229
0.765652 0.646265 0.099153
0.794644 0.646052 0.121065
0.824033 0.646571 0.141176
0.853880 0.647852 0.160189
0.884123 0.649928 0.179416
0.914855 0.652857 0.199161
0.946044 0.657038 0.219974
0.977783 0.663020 0.242344
0.186770 0.680049 0.085756
0.190219 0.680049 0.085786
0.194705 0.680079 0.085481
0.204562 0.680049 0.085389
0.218936 0.680049 0.085145
0.236728 0.680049 0.085115
0.257298 0.680110 0.084596
0.279698 0.680110 0.084321
0.304112 0.680140 0.083864
0.329686 0.680171 0.083528
0.356420 0.680171 0.082704
0.383856 0.680201 0.082307
0.411902 0.680262 0.081117
0.440589 0.680262 0.080323
0.469520 0.680293 0.079255
0.498939 0.680354 0.077882
0.528557 0.680385 0.076661
0.558465 0.680415 0.075105
0.588617 0.680476 0.073487
0.618891 0.680568 0.071931
0.649348 0.680629 0.069642
0.679988 0.680659 0.067720
0.710719 0.680751 0.065339
0.741238 0.680507 0.062989
0.769131 0.677943 0.065370
0.798184 0.677241 0.094728
0.827420 0.677180 0.119844
0.857115 0.677852 0.142123
0.887205 0.679377 0.163394
0.917815 0.681910 0.184512
0.948882 0.685786 0.206210
0.980499 0.691585 0.228977
0.191073 0.711757 0.082399
0.194461 0.711757 0.082460
0.199222 0.711727 0.082460
0.208682 0.711727 0.082338
0.222599 0.711788 0.082033
0.240085 0.711788 0.081697
0.260441 0.711788 0.081483
0.282719 0.711849 0.080842
0.307073 0.711818 0.080385
0.332464 0.711879 0.080018
0.358984 0.711910 0.079438
0.386267 0.711940 0.078340
0.414343 0.712001 0.077302
0.442847 0.712032 0.076448
0.471778 0.712093 0.074922
0.501152 0.712154 0.074128
0.530816 0.712215 0.072328
0.560693 0.712276 0.070985
0.590875 0.712337 0.068788
0.621180 0.712428 0.066651
0.651698 0.712520 0.064912
0.682307 0.712612 0.062165
0.713100 0.712703 0.059388
0.744015 0.712795 0.054963
0.774685 0.712612 0.049378
0.801328 0.708797 0.058656
0.830869 0.708370 0.089631
0.860410 0.708522 0.118441
0.890379 0.709621 0.143069
0.920836 0.711757 0.166323
0.951812 0.715358 0.189456
0.983307 0.721004 0.212924
0.195193 0.743771 0.078523
0.198459 0.743771 0.078584
0.202976 0.743801 0.078218
0.212375 0.743801 0.078401
0.226139 0.743801 0.078126
0.243412 0.743832 0.077699
0.263554 0.743832 0.077485
0.285710 0.743862 0.076783
0.309758 0.743893 0.076570
0.335210 0.743923 0.075837
0.361517 0.743984 0.074830
0.388861 0.744015 0.073976
0.416815 0.744106 0.073182
0.445228 0.744137 0.071839
0.474128 0.744198 0.070558
0.503471 0.744289 0.068849
0.533165 0.744350 0.067201
0.563043 0.744442 0.065217
0.593164 0.744533 0.063142
0.623529 0.744625 0.060609
0.653986 0.744717 0.057893
0.684718 0.744808 0.053285
0.715541 0.744930 0.047089
0.746487 0.745052 0.038880
0.777584 0.745174 0.030671
0.808621 0.745174 0.022004
0.833799 0.740017 0.042969
0.863737 0.739864 0.083040
0.893614 0.740505 0.116091
0.923949 0.742275 0.143557
0.954772 0.745571 0.169039
0.986175 0.751125 0.193545
0.198886 0.776150 0.073915
0.202335 0.776150 0.073915
0.206638 0.776150 0.073915
0.215946 0.776181 0.073335
0.229465 0.776181 0.073426
0.246555 0.776211 0.072969
0.266300 0.776242 0.072694
0.288579 0.776272 0.071931
0.312444 0.776272 0.071321
0.337560 0.776333 0.070497
0.364050 0.776333 0.069795
0.391180 0.776425 0.068757
0.419043 0.776486 0.067475
0.447578 0.776547 0.066285
0.476478 0.776608 0.064424
0.505730 0.776730 0.062837
0.535393 0.776791 0.060945
0.565332 0.776883 0.059083
0.595544 0.776974 0.053773
0.625879 0.777096 0.048829
0.656458 0.777188 0.043091
0.687190 0.777310 0.036713
0.718044 0.777432 0.029358
0.749050 0.777554 0.020783
0.780179 0.777707 0.011170
0.811429 0.777829 0.002625
0.842832 0.777981 0.000000
0.867063 0.772000 0.018952
0.896849 0.771908 0.073579
0.927092 0.773251 0.112459
0.957824 0.776303 0.142641
0.989105 0.781704 0.169741
0.202304 0.808835 0.068238
0.205600 0.808835 0.068360
0.210056 0.808835 0.067903
0.218936 0.808865 0.067689
0.232609 0.808835 0.067384
0.249424 0.808896 0.066804
0.269200 0.808896 0.066560
0.291112 0.808957 0.066072
0.314977 0.808988 0.065339
0.340063 0.809049 0.064332
0.366339 0.809079 0.063508
0.393439 0.809140 0.061860
0.421302 0.809232 0.060365
0.449744 0.809293 0.059022
0.478706 0.809354 0.055329
0.508019 0.809476 0.052277
0.537713 0.809537 0.048554
0.567651 0.809659 0.043183
0.597864 0.809751 0.037476
0.628290 0.809873 0.030701
0.658869 0.809995 0.024048
0.689662 0.810117 0.016266
0.720577 0.810239 0.008606
0.751644 0.810391 0.000000
0.782864 0.810544 0.000000
0.814298 0.810666 0.000000
0.845853 0.810819 0.000000
0.877287 0.811002 0.000000
0.900847 0.804562 0.000000
0.930236 0.804562 0.059083
0.960845 0.807279 0.106355
0.992035 0.812528 0.139010
0.205325 0.841825 0.061280
0.208438 0.841825 0.060914
0.212772 0.841825 0.061280
0.221805 0.841825 0.060609
0.235142 0.841855 0.060243
0.252079 0.841855 0.060090
0.271611 0.841886 0.059297
0.293462 0.841947 0.058686
0.317205 0.842008 0.056367
0.342290 0.842039 0.055146
0.368566 0.842069 0.052644
0.395666 0.842161 0.050263
0.423499 0.842252 0.047364
0.451972 0.842344 0.044984
0.480903 0.842405 0.038392
0.510246 0.842527 0.035218
