其他预设/【239】阳光逆光效果预设26款/1.LUT预设（视频调色-PR-AE-PS-FCPX-达芬奇用）/阳光逆光预设__-22.cube
# Created by Adobe Lightroom plugin Export LUT (1.17.0)
# www.johnrellis.com/lightroom/exportlut.htm
# Preset: 阳光逆光预设[素锦印象]-22
# Color profile: /Library/Application Support/Adobe/Color/Profiles/Recommended/AdobeRGB1998.icc
LUT_3D_SIZE 32
0.000000 0.000000 0.000000
0.000000 0.000000 0.000000
0.000000 0.000000 0.000000
0.036652 0.000000 0.000000
0.076173 0.000000 0.000000
0.102388 0.000000 0.000000
0.129976 0.000000 0.000000
0.158968 0.000000 0.000000
0.189761 0.000000 0.000000
0.221622 0.000000 0.000000
0.254887 0.000000 0.000000
0.288914 0.000000 0.000000
0.323827 0.000000 0.000000
0.359625 0.000000 0.000000
0.396277 0.000000 0.000000
0.433875 0.000000 0.000000
0.472297 0.000000 0.000000
0.511376 0.000000 0.000000
0.551141 0.000000 0.000000
0.593042 0.000000 0.000000
0.636530 0.000000 0.000000
0.680659 0.000000 0.000000
0.725246 0.000000 0.000000
0.769833 0.000000 0.000000
0.812100 0.000000 0.000000
0.851835 0.000000 0.000000
0.889036 0.000000 0.000000
0.923735 0.000000 0.000000
0.956146 0.000000 0.000000
0.986511 0.000000 0.000000
1.000000 0.000000 0.000000
1.000000 0.000000 0.000000
0.000000 0.000000 0.000000
0.000000 0.000000 0.000000
0.000000 0.000000 0.000000
0.039368 0.000000 0.000000
0.076997 0.000000 0.000000
0.102480 0.000000 0.000000
0.130312 0.000000 0.000000
0.159182 0.000000 0.000000
0.189761 0.000000 0.000000
0.221866 0.000000 0.000000
0.255070 0.000000 0.000000
0.289036 0.000000 0.000000
0.323857 0.000000 0.000000
0.359808 0.000000 0.000000
0.396490 0.000000 0.000000
0.433967 0.000000 0.000000
0.472358 0.000000 0.000000
0.511498 0.000000 0.000000
0.551232 0.000000 0.000000
0.593103 0.000000 0.000000
0.636591 0.000000 0.000000
0.680690 0.000000 0.000000
0.725277 0.000000 0.000000
0.769894 0.000000 0.000000
0.812131 0.000000 0.000000
0.851865 0.000000 0.000000
0.889067 0.000000 0.000000
0.923735 0.000000 0.000000
0.956146 0.000000 0.000000
0.986511 0.000000 0.000000
1.000000 0.000000 0.000000
1.000000 0.000000 0.000000
0.000000 0.000000 0.000000
0.000000 0.000000 0.000000
0.000000 0.000000 0.000000
0.042603 0.000000 0.000000
0.077272 0.000000 0.000000
0.103120 0.000000 0.000000
0.130526 0.000000 0.000000
0.159304 0.000000 0.000000
0.189975 0.000000 0.000000
0.221897 0.000000 0.000000
0.255161 0.000000 0.000000
0.289189 0.000000 0.000000
0.324071 0.000000 0.000000
0.359899 0.000000 0.000000
0.396521 0.000000 0.000000
0.434089 0.000000 0.000000
0.472480 0.000000 0.000000
0.511589 0.000000 0.000000
0.551385 0.000000 0.000000
0.593164 0.000000 0.000000
0.636744 0.000000 0.000000
0.680842 0.000000 0.000000
0.725399 0.000000 0.000000
0.769955 0.000000 0.000000
0.812253 0.000000 0.000000
0.851896 0.000000 0.000000
0.889128 0.000000 0.000000
0.923766 0.000000 0.000000
0.956207 0.000000 0.000000
0.986511 0.000000 0.000000
1.000000 0.000000 0.000000
1.000000 0.000000 0.000000
0.000000 0.038483 0.000000
0.000000 0.040894 0.000000
0.000000 0.044282 0.000000
0.041596 0.040070 0.000000
0.076936 0.037629 0.000000
0.103548 0.032227 0.000000
0.130983 0.027863 0.000000
0.159792 0.024201 0.000000
0.190311 0.020417 0.000000
0.222354 0.017334 0.000000
0.255528 0.016480 0.000000
0.289616 0.016754 0.000000
0.324315 0.011872 0.000000
0.360174 0.002564 0.000000
0.396918 0.000000 0.000000
0.434394 0.000000 0.000000
0.472786 0.000000 0.000000
0.511894 0.000000 0.000000
0.551629 0.000000 0.000000
0.593439 0.000000 0.000000
0.636988 0.000000 0.000000
0.681025 0.000000 0.000000
0.725612 0.000000 0.000000
0.770138 0.000000 0.000000
0.812375 0.000000 0.000000
0.852018 0.000000 0.000000
0.889189 0.000000 0.000000
0.923827 0.000000 0.000000
0.956207 0.000000 0.000000
0.986511 0.000000 0.000000
1.000000 0.000000 0.000000
1.000000 0.000000 0.000000
0.000000 0.073274 0.000000
0.000000 0.074067 0.000000
0.000000 0.074739 0.000000
0.039918 0.074220 0.000000
0.073671 0.069856 0.000000
0.098787 0.071015 0.000000
0.131258 0.072694 0.000000
0.160616 0.073548 0.000000
0.191165 0.074128 0.000000
0.222995 0.075502 0.000000
0.256077 0.077363 0.000000
0.290074 0.077424 0.000000
0.324895 0.076844 0.000000
0.360632 0.075471 0.000000
0.397284 0.073121 0.000000
0.434760 0.069856 0.000000
0.473182 0.063813 0.000000
0.512200 0.054231 0.000000
0.552026 0.033661 0.000000
0.593866 0.008118 0.000000
0.637324 0.000000 0.000000
0.681422 0.000000 0.000000
0.725917 0.000000 0.000000
0.770474 0.000000 0.000000
0.812589 0.000000 0.000000
0.852232 0.000000 0.000000
0.889311 0.000000 0.000000
0.923888 0.000000 0.000000
0.956268 0.000000 0.000000
0.986542 0.000000 0.000000
1.000000 0.000000 0.000000
1.000000 0.000000 0.000000
0.000000 0.098299 0.000000
0.000000 0.098787 0.000000
0.000000 0.098848 0.000000
0.040406 0.099001 0.000000
0.077668 0.096895 0.000000
0.097688 0.092073 0.000000
0.122042 0.094057 0.000000
0.156497 0.099916 0.000000
0.191989 0.103883 0.000000
0.223911 0.106386 0.000000
0.256870 0.108339 0.000000
0.290745 0.109834 0.000000
0.325505 0.110597 0.000000
0.361334 0.110994 0.000000
0.397864 0.110780 0.000000
0.435401 0.109895 0.000000
0.473762 0.108186 0.000000
0.512718 0.105287 0.000000
0.552483 0.101869 0.000000
0.594446 0.097475 0.000000
0.637873 0.092164 0.000000
0.681941 0.085084 0.000000
0.726406 0.076112 0.000000
0.770871 0.065705 0.000000
0.812924 0.044465 0.000000
0.852445 0.007782 0.000000
0.889494 0.000000 0.000000
0.924041 0.000000 0.000000
0.956329 0.000000 0.000000
0.986603 0.000000 0.000000
1.000000 0.000000 0.000000
1.000000 0.000000 0.000000
0.000000 0.125124 0.000000
0.000000 0.125063 0.000000
0.000000 0.125032 0.000000
0.048249 0.125032 0.000000
0.081575 0.125368 0.000000
0.105257 0.120851 0.000000
0.123903 0.115877 0.000000
0.146792 0.117433 0.000000
0.183444 0.126314 0.000000
0.220981 0.132692 0.000000
0.257786 0.137057 0.000000
0.291630 0.139376 0.000000
0.326299 0.141176 0.000000
0.362097 0.142672 0.000000
0.398688 0.143465 0.000000
0.436133 0.143862 0.000000
0.474464 0.143801 0.000000
0.513420 0.143099 0.000000
0.553216 0.141756 0.000000
0.595087 0.140261 0.000000
0.638544 0.138613 0.000000
0.682551 0.136049 0.000000
0.726986 0.132845 0.000000
0.771389 0.129061 0.000000
0.813291 0.124331 0.000000
0.852750 0.118502 0.000000
0.889677 0.112490 0.000000
0.924163 0.105379 0.000000
0.956420 0.097414 0.000000
0.986603 0.089113 0.000000
1.000000 0.079683 0.000000
1.000000 0.069764 0.000000
0.000000 0.152377 0.000000
0.000000 0.152468 0.000000
0.008881 0.152590 0.000000
0.058900 0.152651 0.000000
0.086549 0.152987 0.000000
0.112459 0.151339 0.000000
0.134035 0.146822 0.000000
0.152224 0.141878 0.000000
0.174258 0.142519 0.006622
0.212558 0.153201 0.000000
0.251530 0.160983 0.000000
0.290715 0.166629 0.000000
0.327367 0.170108 0.000000
0.363043 0.172396 0.000000
0.399664 0.174197 0.000000
0.437049 0.175570 0.000000
0.475257 0.176608 0.000000
0.514214 0.177096 0.000000
0.553948 0.177493 0.000000
0.596002 0.177554 0.000000
0.639338 0.177523 0.000000
0.683314 0.176974 0.000000
0.727718 0.176242 0.000000
0.771969 0.174868 0.000000
0.813748 0.172824 0.000000
0.853086 0.169894 0.000000
0.889921 0.166171 0.000000
0.924315 0.162051 0.000000
0.956512 0.157504 0.000000
0.986633 0.152621 0.000000
1.000000 0.147646 0.000000
1.000000 0.142397 0.000000
0.000000 0.181765 0.000000
0.000000 0.181704 0.000000
0.018402 0.181857 0.000000
0.063661 0.181979 0.000000
0.091279 0.182406 0.000000
0.117983 0.182589 0.000000
0.142550 0.179416 0.000000
0.163760 0.174960 0.000000
0.182376 0.170016 0.000000
0.203311 0.168978 0.012207
0.242924 0.180697 0.000000
0.282658 0.189334 0.000000
0.323095 0.196201 0.000000
0.364050 0.201419 0.000000
0.400702 0.204105 0.000000
0.438087 0.206455 0.000000
0.476326 0.208255 0.000000
0.515221 0.210025 0.000000
0.554955 0.211063 0.000000
0.596948 0.212589 0.000000
0.640223 0.214084 0.000000
0.684138 0.214878 0.000000
0.728511 0.215335 0.000000
0.772641 0.215579 0.000000
0.814298 0.214878 0.000000
0.853483 0.212985 0.000000
0.890227 0.210666 0.000000
0.924529 0.207797 0.000000
0.956603 0.204532 0.000000
0.986694 0.200687 0.000000
1.000000 0.196750 0.000000
1.000000 0.192752 0.000000
0.000000 0.212558 0.000000
0.000000 0.212680 0.000000
0.025818 0.212680 0.000000
0.068330 0.212833 0.000000
0.095979 0.213169 0.000000
0.123079 0.213413 0.000000
0.149508 0.213077 0.000000
0.173129 0.208927 0.000000
0.194736 0.204318 0.000000
0.213962 0.199557 0.000000
0.234684 0.197482 0.016083
0.273930 0.208804 0.000000
0.314885 0.218387 0.000000
0.356298 0.226017 0.000000
0.398322 0.232242 0.000000
0.439307 0.236698 0.000000
0.477485 0.239414 0.000000
0.516320 0.241642 0.000000
0.556085 0.243931 0.000000
0.598047 0.246250 0.000000
0.641321 0.248783 0.000000
0.685145 0.250797 0.000000
0.729458 0.252628 0.000000
0.773465 0.253758 0.000000
0.814908 0.253819 0.000000
0.853941 0.253025 0.000000
0.890562 0.251469 0.000000
0.924743 0.249241 0.000000
0.956756 0.246433 0.000000
0.986725 0.243259 0.000000
1.000000 0.239841 0.000000
1.000000 0.236271 0.000000
0.000000 0.244358 0.000000
0.001831 0.244450 0.000000
0.032044 0.244602 0.000000
0.071443 0.244694 0.000000
0.099672 0.244907 0.000000
0.127138 0.245274 0.000000
0.154635 0.245640 0.000000
0.180819 0.243778 0.000000
0.204715 0.239445 0.000000
0.226658 0.234836 0.000000
0.246647 0.229862 0.000000
0.267735 0.227512 0.012116
0.305760 0.237919 0.000000
0.347723 0.248234 0.000000
0.390265 0.256626 0.000000
0.433326 0.263676 0.000000
0.477058 0.269413 0.000000
0.517449 0.273228 0.000000
0.557305 0.276158 0.000000
0.599390 0.279545 0.000000
0.642573 0.282780 0.000000
0.686305 0.285679 0.000000
0.730587 0.288457 0.000000
0.774319 0.290471 0.000000
0.815610 0.291386 0.000000
0.854459 0.291173 0.000000
0.890898 0.290105 0.000000
0.924987 0.288212 0.000000
0.956847 0.285924 0.000000
0.986755 0.282933 0.000000
1.000000 0.279759 0.000000
1.000000 0.276493 0.000000
0.000000 0.277317 0.000000
0.001251 0.277379 0.000000
0.034516 0.277317 0.000000
0.073548 0.277440 0.000000
0.102510 0.277684 0.000000
0.130617 0.277989 0.000000
0.158938 0.278264 0.000000
0.186923 0.278752 0.000000
0.212924 0.275212 0.000000
0.237125 0.270787 0.000000
0.259617 0.265995 0.000000
0.280186 0.260929 0.000000
0.301579 0.258244 0.007050
0.338445 0.267704 0.000000
0.381415 0.278782 0.000000
0.424842 0.287999 0.000000
0.469001 0.295781 0.000000
0.513542 0.302403 0.000000
0.558679 0.308202 0.000000
0.600763 0.312413 0.000000
0.643915 0.316472 0.000000
0.687556 0.320226 0.000000
0.731716 0.323613 0.000000
0.775296 0.326421 0.000000
0.816373 0.327886 0.000000
0.855039 0.328130 0.000000
0.891295 0.327489 0.000000
0.925200 0.325933 0.000000
0.957000 0.323827 0.000000
0.986816 0.321080 0.000000
1.000000 0.318059 0.000000
1.000000 0.314763 0.000000
0.000000 0.310948 0.000000
0.000000 0.311070 0.000000
0.032502 0.311131 0.000000
0.074586 0.311254 0.000000
0.104372 0.311498 0.000000
0.133700 0.311650 0.000000
0.162539 0.312078 0.000000
0.191409 0.312444 0.000000
0.219821 0.311742 0.000000
0.245823 0.307561 0.000000
0.270542 0.303014 0.000000
0.293431 0.298039 0.000000
0.314549 0.292943 0.000000
0.336156 0.289860 0.000000
0.371710 0.298039 0.000000
0.415564 0.309972 0.000000
0.460121 0.320073 0.000000
0.505058 0.328557 0.000000
0.551049 0.336248 0.000000
0.599084 0.343877 0.000000
0.645411 0.349859 0.000000
0.688991 0.354253 0.000000
0.733028 0.358495 0.000000
0.776364 0.361883 0.000000
0.817166 0.363806 0.000000
0.855650 0.364385 0.000000
0.891752 0.364050 0.000000
0.925505 0.362829 0.000000
0.957153 0.360754 0.000000
0.986847 0.358099 0.000000
1.000000 0.355169 0.000000
1.000000 0.351812 0.000000
0.000000 0.345708 0.000000
0.000000 0.345739 0.000000
0.027832 0.345800 0.000000
0.074342 0.345922 0.000000
0.105928 0.346075 0.000000
0.136080 0.346349 0.000000
0.166079 0.346593 0.000000
0.195499 0.346990 0.000000
0.225071 0.347326 0.000000
0.253483 0.345159 0.000000
0.279820 0.340734 0.000000
0.304875 0.336004 0.000000
0.328161 0.330968 0.000000
0.349767 0.325689 0.000000
0.371160 0.321874 0.000000
0.405707 0.329229 0.000000
0.450538 0.341985 0.000000
0.495888 0.352819 0.000000
0.542351 0.362432 0.000000
0.590997 0.372045 0.000000
0.640253 0.380621 0.000000
0.689326 0.387945 0.000000
0.734493 0.393133 0.000000
0.777523 0.397009 0.000000
0.818082 0.399329 0.000000
0.856291 0.400336 0.000000
0.892180 0.400153 0.000000
0.925750 0.398962 0.000000
0.957275 0.397040 0.000000
0.986847 0.394476 0.000000
1.000000 0.391455 0.000000
1.000000 0.388067 0.000000
0.000000 0.381262 0.000000
0.000000 0.381292 0.000000
0.023438 0.381323 0.000000
0.074708 0.381445 0.000000
0.107485 0.381628 0.000000
0.138613 0.381903 0.000000
0.169223 0.382116 0.000000
0.199405 0.382483 0.000000
0.229709 0.382818 0.000000
0.259983 0.383276 0.000000
0.288029 0.379309 0.000000
0.314702 0.374762 0.000000
0.340032 0.369818 0.000000
0.363714 0.364660 0.000000
0.385809 0.359319 0.000000
0.407080 0.354864 0.000000
0.440253 0.361089 0.000000
0.486030 0.374517 0.000000
0.533013 0.386664 0.000000
0.582208 0.398413 0.000000
0.632319 0.409125 0.000000
0.682155 0.418372 0.000000
0.731716 0.426368 0.000000
0.778714 0.432013 0.000000
0.818997 0.434577 0.000000
0.856992 0.435859 0.000000
0.892638 0.435798 0.000000
0.926085 0.434760 0.000000
0.957427 0.432868 0.000000
0.986847 0.430335 0.000000
1.000000 0.427192 0.000000
1.000000 0.423682 0.000000
0.000000 0.417762 0.000000
0.000000 0.417731 0.000000
0.017060 0.417762 0.000000
0.073396 0.417914 0.000000
0.108309 0.418036 0.000000
0.140871 0.418250 0.000000
0.171878 0.418524 0.000000
0.203006 0.418891 0.000000
0.233921 0.419226 0.000000
0.264836 0.419654 0.000000
0.295293 0.418647 0.000000
0.323583 0.414343 0.000000
0.350469 0.409552 0.000000
0.376074 0.404517 0.000000
0.400122 0.399207 0.000000
0.422614 0.393744 0.000000
0.443549 0.388495 0.000000
0.475471 0.393622 0.004547
0.523003 0.408515 0.000000
0.572717 0.422858 0.000000
0.623651 0.435920 0.000000
0.674311 0.447242 0.000000
0.724636 0.457099 0.000000
0.773220 0.464759 0.000000
0.818021 0.469398 0.000000
0.857725 0.471290 0.000000
0.893126 0.471321 0.000000
0.926329 0.470344 0.000000
0.957519 0.468360 0.000000
0.986847 0.465736 0.000000
1.000000 0.462562 0.000000
1.000000 0.458930 0.000000
0.000000 0.454994 0.000000
0.000000 0.455024 0.000000
0.009949 0.455024 0.000000
0.072847 0.455177 0.000000
0.108980 0.455329 0.000000
0.142367 0.455543 0.000000
0.174594 0.455756 0.000000
0.206363 0.456092 0.000000
0.237888 0.456458 0.000000
0.269474 0.456794 0.000000
0.301091 0.457313 0.000000
0.331365 0.454627 0.000000
0.359838 0.450050 0.000000
0.386969 0.445136 0.000000
0.412909 0.439948 0.000000
0.437324 0.434546 0.000000
0.460121 0.428992 0.000000
0.481331 0.423468 0.000000
0.512352 0.427741 0.012848
0.562585 0.444953 0.000000
0.614374 0.460822 0.000000
0.665827 0.474525 0.000000
0.716884 0.486458 0.000000
0.766476 0.496132 0.000000
0.812222 0.502251 0.000000
0.854429 0.505669 0.000000
0.893248 0.506554 0.000000
0.926604 0.505608 0.000000
0.957610 0.503624 0.000000
0.986816 0.500877 0.000000
1.000000 0.497627 0.000000
1.000000 0.493843 0.000000
0.000000 0.493080 0.000000
0.000000 0.493050 0.000000
0.001129 0.493111 0.000000
0.071229 0.493233 0.000000
0.109377 0.493385 0.000000
0.143526 0.493599 0.000000
0.176883 0.493874 0.000000
0.209323 0.494179 0.000000
0.241764 0.494545 0.000000
0.273899 0.495033 0.000000
0.306157 0.495552 0.000000
0.338445 0.496010 0.000000
0.368444 0.491737 0.000000
0.397406 0.487160 0.000000
0.425025 0.482338 0.000000
0.451331 0.477211 0.000000
0.476478 0.471992 0.000000
0.499916 0.466621 0.000000
0.521874 0.461158 0.000000
0.552453 0.464668 0.013245
0.604395 0.483406 0.000000
0.656764 0.499855 0.000000
0.708675 0.514183 0.000000
0.759243 0.526024 0.000000
0.805905 0.534051 0.000000
0.848905 0.538964 0.000000
0.888426 0.541039 0.000000
0.924804 0.540795 0.000000
0.957702 0.538781 0.000000
0.986755 0.535882 0.000000
1.000000 0.532433 0.000000
1.000000 0.528466 0.000000
0.000000 0.533135 0.000000
0.000000 0.533227 0.000000
0.000000 0.533257 0.000000
0.067842 0.533410 0.000000
0.108431 0.533593 0.000000
0.144747 0.533867 0.000000
0.179110 0.534234 0.000000
0.212558 0.534569 0.000000
0.245914 0.535119 0.000000
0.278874 0.535668 0.000000
0.311833 0.536309 0.000000
0.344854 0.536980 0.000000
0.377386 0.536034 0.000000
0.407965 0.531762 0.000000
0.437324 0.527214 0.000000
0.465644 0.522454 0.000000
0.492653 0.517510 0.000000
0.518364 0.512444 0.000000
0.542748 0.507256 0.000000
0.565667 0.502068 0.000000
0.596918 0.505577 0.000000
0.647150 0.523003 0.000000
0.699886 0.540063 0.000000
0.751431 0.554406 0.000000
0.799069 0.564538 0.000000
0.842954 0.571099 0.000000
0.883238 0.574548 0.000000
0.920226 0.575402 0.000000
0.954314 0.574121 0.000000
0.985870 0.570977 0.000000
1.000000 0.567102 0.000000
1.000000 0.562982 0.000000
0.000000 0.575738 0.000000
0.000000 0.575769 0.000000
0.000000 0.575891 0.000000
0.062715 0.576013 0.000000
0.107210 0.576226 0.000000
0.145174 0.576501 0.000000
0.181094 0.576745 0.000000
0.215732 0.577173 0.000000
0.249851 0.577691 0.000000
0.283696 0.578241 0.000000
0.317479 0.578851 0.000000
0.351293 0.579553 0.000000
0.385138 0.580255 0.000000
0.417670 0.577722 0.000000
0.448798 0.573510 0.000000
0.478889 0.569055 0.000000
0.507774 0.564508 0.000000
0.535576 0.559747 0.000000
0.562127 0.554833 0.000000
0.587396 0.549889 0.000000
0.611261 0.544915 0.000000
0.642206 0.547662 0.000000
0.690547 0.563775 0.000000
0.743069 0.580957 0.000000
0.791775 0.593469 0.000000
0.836545 0.601984 0.000000
0.877623 0.606989 0.000000
0.915312 0.609125 0.000000
0.949950 0.608850 0.000000
0.981964 0.606592 0.000000
1.000000 0.602686 0.000000
1.000000 0.597345 0.000000
0.000000 0.619318 0.000000
0.000000 0.619348 0.000000
0.000000 0.619409 0.000000
0.050294 0.619593 0.000000
0.105013 0.619715 0.000000
0.145235 0.619959 0.000000
0.182406 0.620294 0.000000
0.218021 0.620691 0.000000
0.253300 0.621118 0.000000
0.287999 0.621607 0.000000
0.322606 0.622248 0.000000
0.357153 0.622889 0.000000
0.391638 0.623621 0.000000
0.426184 0.624140 0.000000
0.458839 0.620294 0.000000
0.490578 0.616236 0.000000
0.521233 0.611963 0.000000
0.550896 0.607507 0.000000
0.579370 0.602991 0.000000
0.606653 0.598291 0.000000
0.632776 0.593622 0.000000
0.657588 0.588952 0.000000
0.688045 0.590753 0.000000
0.734310 0.605402 0.000000
0.784054 0.620691 0.000000
0.829770 0.631403 0.000000
0.871641 0.638178 0.000000
0.909972 0.641779 0.000000
0.945220 0.642695 0.000000
0.977722 0.641444 0.000000
1.000000 0.638422 0.000000
1.000000 0.634272 0.000000
0.000000 0.663661 0.000000
0.000000 0.663752 0.000000
0.000000 0.663752 0.000000
0.024781 0.663905 0.000000
0.101198 0.664118 0.000000
0.144228 0.664332 0.000000
0.182895 0.664668 0.000000
0.219883 0.664973 0.000000
0.256046 0.665461 0.000000
0.291936 0.665919 0.000000
0.327214 0.666499 0.000000
0.362615 0.667170 0.000000
0.397833 0.667872 0.000000
0.433082 0.668635 0.000000
0.467689 0.667659 0.000000
0.500938 0.663905 0.000000
0.533196 0.659968 0.000000
0.564477 0.655848 0.000000
0.594781 0.651698 0.000000
0.623926 0.647303 0.000000
0.652033 0.642939 0.000000
0.678889 0.638514 0.000000
0.704555 0.634180 0.000000
0.734035 0.634699 0.000000
0.775906 0.645899 0.000000
0.822568 0.659144 0.000000
0.865293 0.667964 0.000000
0.904387 0.673213 0.000000
0.940185 0.675502 0.000000
0.973175 0.675471 0.000000
1.000000 0.673732 0.000000
1.000000 0.671138 0.000000
0.000000 0.708583 0.000000
0.000000 0.708614 0.000000
0.000000 0.708675 0.000000
0.000000 0.708736 0.000000
0.095094 0.708919 0.000000
0.141939 0.709102 0.000000
0.182834 0.709316 0.000000
0.220859 0.709621 0.000000
0.258366 0.709987 0.000000
0.294865 0.710323 0.000000
0.331060 0.710780 0.000000
0.367010 0.711177 0.000000
0.402777 0.711696 0.000000
0.438514 0.712154 0.000000
0.474128 0.712703 0.000000
0.508873 0.710262 0.000000
0.542443 0.706600 0.000000
0.575158 0.702846 0.000000
0.606958 0.698909 0.000000
0.637781 0.694911 0.000000
0.667475 0.690822 0.000000
0.696162 0.686641 0.000000
0.723598 0.682551 0.000000
0.749935 0.678492 0.000000
0.777371 0.676875 0.000000
0.814969 0.684901 0.000000
0.858610 0.696101 0.000000
0.898405 0.703243 0.000000
0.934844 0.707179 0.000000
0.968292 0.708614 0.000000
0.999145 0.708370 0.000000
1.000000 0.707454 0.000000
0.000000 0.751492 0.000000
0.000000 0.751492 0.000000
0.000000 0.751492 0.000000
0.000000 0.751553 0.000000
0.088502 0.751644 0.000000
0.138796 0.751797 0.000000
0.181430 0.751949 0.000000
0.220981 0.752102 0.000000
0.259403 0.752255 0.000000
0.296513 0.752468 0.000000
0.333257 0.752743 0.000000
0.369757 0.752987 0.000000
0.405951 0.753262 0.000000
0.441932 0.753536 0.000000
0.477882 0.753780 0.000000
0.513542 0.753750 0.000000
0.548394 0.750423 0.000000
0.582238 0.746883 0.000000
0.615290 0.743313 0.000000
0.647333 0.739559 0.000000
0.678401 0.735744 0.000000
0.708492 0.731868 0.000000
0.737514 0.728023 0.000000
0.765408 0.724117 0.000000
0.792081 0.720363 0.000000
0.817838 0.717128 0.000000
0.851530 0.722347 0.066224
0.892119 0.731716 0.000000
0.929137 0.737514 0.000000
0.963043 0.740658 0.000000
0.994232 0.742123 0.000000
1.000000 0.742947 0.000000
0.000000 0.791958 0.000000
0.000000 0.791958 0.000000
0.000000 0.792020 0.000000
0.000000 0.792020 0.000000
0.080110 0.792050 0.000000
0.134951 0.792142 0.000000
0.179690 0.792142 0.000000
0.220096 0.792233 0.000000
0.259190 0.792325 0.000000
0.297093 0.792386 0.000000
0.334173 0.792508 0.000000
0.371191 0.792569 0.000000
0.407599 0.792691 0.000000
0.443824 0.792752 0.000000
0.479957 0.792813 0.000000
0.515831 0.792874 0.000000
0.551507 0.791562 0.000000
0.586358 0.788357 0.000000
0.620325 0.784970 0.000000
0.653498 0.781521 0.000000
0.685664 0.777920 0.000000
0.716884 0.774319 0.000000
0.747158 0.770687 0.000000
0.776333 0.767056 0.000000
0.804440 0.763485 0.000000
0.831327 0.759976 0.000000
0.855589 0.755459 0.000000
0.885527 0.758297 0.110414
0.923186 0.766171 0.086976
0.957519 0.771176 0.061280
0.989075 0.774380 0.009125
1.000000 0.777066 0.000000
0.000000 0.830137 0.000000
0.000000 0.830137 0.000000
0.000000 0.830137 0.000000
0.000000 0.830137 0.000000
0.070649 0.830106 0.000000
0.130922 0.830106 0.000000
0.176852 0.830106 0.000000
0.218540 0.830106 0.000000
0.258152 0.830045 0.000000
0.296452 0.830014 0.000000
0.334112 0.829923 0.000000
0.371130 0.829923 0.000000
0.407904 0.829831 0.000000
0.444282 0.829740 0.000000
0.480476 0.829648 0.000000
0.516350 0.829557 0.000000
0.552148 0.829374 0.000000
0.587793 0.826963 0.000000
0.622614 0.823850 0.000000
0.656550 0.820615 0.000000
0.689693 0.817350 0.000000
0.721889 0.813931 0.000000
0.753109 0.810513 0.000000
0.783383 0.807126 0.000000
0.812528 0.803708 0.000000
0.840635 0.800381 0.000000
0.867552 0.797147 0.000000
0.891020 0.792325 0.063111
0.917113 0.792874 0.150393
0.951812 0.799802 0.142000
0.983703 0.804868 0.136446
1.000000 0.809415 0.137240
0.000000 0.865934 0.000000
0.000000 0.865904 0.000000
0.000000 0.865904 0.000000
0.000000 0.865873 0.000000
0.060792 0.865812 0.000000
0.126589 0.865782 0.000000
0.174075 0.865721 0.000000
0.216434 0.865599 0.000000
0.256565 0.865507 0.000000
0.295323 0.865385 0.000000
0.333013 0.865232 0.000000
0.370245 0.865049 0.000000
0.407019 0.864897 0.000000
0.443488 0.864652 0.000000
0.479652 0.864378 0.000000
0.515557 0.864103 0.000000
0.551324 0.863767 0.000000
0.586877 0.863157 0.000000
0.622461 0.860227 0.000000
0.657191 0.857206 0.000000
0.691005 0.854124 0.000000
0.723995 0.850980 0.000000
0.756130 0.847745 0.000000
0.787228 0.844511 0.000000
0.817380 0.841306 0.000000
0.846494 0.838102 0.000000
0.874479 0.834989 0.000000
0.901122 0.831998 0.000000
0.923888 0.827329 0.109865
0.947478 0.826871 0.183413
0.978241 0.833036 0.193729
1.000000 0.839445 0.199039
0.000000 0.899535 0.000000
0.000000 0.899535 0.000000
0.000000 0.899504 0.000000
0.000000 0.899474 0.000000
0.043183 0.899382 0.000000
0.122316 0.899290 0.000000
0.171115 0.899199 0.000000
0.214054 0.899046 0.000000
0.254398 0.898894 0.000000
0.293339 0.898680 0.000000
0.331365 0.898436 0.000000
0.368658 0.898192 0.000000
0.405402 0.897887 0.000000
0.441871 0.897551 0.000000
0.478004 0.897154 0.000000
0.513756 0.896788 0.000000
