其他预设/【239】阳光逆光效果预设26款/1.LUT预设（视频调色-PR-AE-PS-FCPX-达芬奇用）/阳光逆光预设__-11.cube
# Created by Adobe Lightroom plugin Export LUT (1.17.0)
# www.johnrellis.com/lightroom/exportlut.htm
# Preset: 阳光逆光预设[素锦印象]-11
# Color profile: /Library/Application Support/Adobe/Color/Profiles/Recommended/AdobeRGB1998.icc
LUT_3D_SIZE 32
0.000000 0.000000 0.000000
0.000000 0.000000 0.000000
0.010651 0.000000 0.000946
0.079225 0.000000 0.001617
0.114412 0.000000 0.005035
0.149081 0.000000 0.000000
0.184482 0.000000 0.000000
0.221256 0.000000 0.000000
0.259586 0.000000 0.000000
0.299077 0.000000 0.000000
0.340307 0.000000 0.000000
0.383032 0.000000 0.000000
0.426917 0.000000 0.000000
0.471443 0.000000 0.000000
0.515801 0.000000 0.000000
0.559045 0.000000 0.000000
0.600336 0.000000 0.000000
0.639094 0.000000 0.000000
0.675166 0.000000 0.000000
0.708949 0.000000 0.000000
0.740871 0.000000 0.000000
0.771542 0.000000 0.000000
0.801541 0.000000 0.000000
0.831052 0.000000 0.000000
0.860319 0.000000 0.000000
0.889616 0.000000 0.000000
0.918700 0.000000 0.000000
0.947509 0.000000 0.000000
0.975708 0.000000 0.000000
1.000000 0.000000 0.000000
1.000000 0.000000 0.000000
1.000000 0.000000 0.000000
0.000000 0.000000 0.000000
0.000000 0.000000 0.000000
0.018799 0.000000 0.000855
0.081697 0.000000 0.000000
0.115938 0.000000 0.000000
0.149996 0.000000 0.000000
0.185824 0.000000 0.000000
0.222782 0.000000 0.000000
0.261112 0.000000 0.000000
0.300938 0.000000 0.000000
0.342473 0.000000 0.000000
0.385473 0.000000 0.000000
0.429694 0.000000 0.000000
0.474281 0.000000 0.000000
0.518791 0.000000 0.000000
0.562097 0.000000 0.000000
0.603388 0.000000 0.000000
0.641901 0.000000 0.000000
0.677913 0.000000 0.000000
0.711513 0.000000 0.000000
0.743221 0.000000 0.000000
0.773709 0.000000 0.000000
0.803616 0.000000 0.000000
0.833036 0.000000 0.000000
0.862181 0.000000 0.000000
0.891356 0.000000 0.000000
0.920378 0.000000 0.000000
0.949004 0.000000 0.000000
0.977050 0.000000 0.000000
1.000000 0.000000 0.000000
1.000000 0.000000 0.000000
1.000000 0.000000 0.000000
0.000000 0.014221 0.000000
0.000000 0.019013 0.000000
0.023407 0.019593 0.000000
0.082979 0.024872 0.000000
0.117037 0.018647 0.000000
0.151522 0.009644 0.000000
0.187137 0.000000 0.000000
0.224033 0.000000 0.000000
0.262791 0.000000 0.000000
0.302647 0.000000 0.000000
0.344060 0.000000 0.000000
0.387274 0.000000 0.000000
0.431556 0.000000 0.000000
0.476387 0.000000 0.000000
0.520653 0.000000 0.000000
0.564050 0.000000 0.000000
0.605249 0.000000 0.000000
0.643732 0.000000 0.000000
0.679591 0.000000 0.000000
0.712947 0.000000 0.000000
0.744503 0.000000 0.000000
0.774960 0.000000 0.000000
0.804746 0.000000 0.000000
0.834073 0.000000 0.000000
0.863157 0.000000 0.000000
0.892241 0.000000 0.000000
0.921202 0.000000 0.000000
0.949767 0.000000 0.000000
0.977783 0.000000 0.000000
1.000000 0.000000 0.000000
1.000000 0.000000 0.000000
1.000000 0.000000 0.000000
0.000000 0.076265 0.000000
0.000000 0.076997 0.000000
0.047272 0.076387 0.000000
0.081361 0.074281 0.002106
0.119203 0.076722 0.000000
0.153231 0.074983 0.000000
0.188846 0.072938 0.000000
0.225834 0.071290 0.000000
0.264317 0.069093 0.000000
0.304692 0.066926 0.000000
0.346258 0.062989 0.000000
0.389624 0.053285 0.000000
0.434028 0.033692 0.000000
0.478676 0.007599 0.000000
0.523125 0.000000 0.000000
0.566339 0.000000 0.000000
0.607477 0.000000 0.000000
0.645960 0.000000 0.000000
0.681788 0.000000 0.000000
0.715114 0.000000 0.000000
0.746731 0.000000 0.000000
0.776974 0.000000 0.000000
0.806546 0.000000 0.000000
0.835477 0.000000 0.000000
0.864195 0.000000 0.000000
0.892943 0.000000 0.000000
0.921569 0.000000 0.000000
0.949981 0.000000 0.000000
0.977935 0.000000 0.000000
1.000000 0.000000 0.000000
1.000000 0.000000 0.000000
1.000000 0.000000 0.000000
0.000000 0.108400 0.000000
0.016938 0.108125 0.000000
0.060151 0.107668 0.000000
0.089204 0.106477 0.000000
0.114290 0.104646 0.002777
0.154086 0.111391 0.000000
0.192416 0.112795 0.000000
0.229160 0.113466 0.000000
0.267948 0.112978 0.000000
0.308019 0.112764 0.000000
0.349859 0.111360 0.000000
0.393469 0.109346 0.000000
0.437842 0.106203 0.000000
0.482338 0.101534 0.000000
0.526238 0.094270 0.000000
0.568933 0.084291 0.000000
0.609613 0.071839 0.000000
0.647547 0.045075 0.000000
0.683131 0.000000 0.000000
0.716304 0.000000 0.000000
0.747799 0.000000 0.000000
0.778134 0.000000 0.000000
0.807584 0.000000 0.000000
0.836484 0.000000 0.000000
0.865049 0.000000 0.000000
0.893736 0.000000 0.000000
0.922271 0.000000 0.000000
0.950622 0.000000 0.000000
0.978515 0.000000 0.000000
1.000000 0.000000 0.000000
1.000000 0.000000 0.000000
1.000000 0.000000 0.000000
0.012848 0.139345 0.000000
0.046082 0.139040 0.000000
0.070008 0.138949 0.000000
0.098573 0.138491 0.000000
0.124086 0.136782 0.000000
0.147982 0.134768 0.000000
0.189883 0.145205 0.000000
0.232670 0.150027 0.000000
0.270634 0.151369 0.000000
0.310674 0.152193 0.000000
0.352667 0.152590 0.000000
0.396094 0.152071 0.000000
0.440253 0.151034 0.000000
0.484749 0.148867 0.000000
0.528435 0.144869 0.000000
0.570794 0.139651 0.000000
0.611048 0.132967 0.000000
0.648646 0.124727 0.000000
0.683833 0.114565 0.000000
0.716762 0.103822 0.000000
0.748013 0.091371 0.000000
0.778103 0.074861 0.000000
0.795285 0.042206 0.000000
0.824857 0.000000 0.000000
0.854215 0.000000 0.000000
0.883482 0.000000 0.000000
0.912932 0.000000 0.000000
0.942168 0.000000 0.000000
0.970947 0.000000 0.000000
0.999084 0.000000 0.000000
1.000000 0.000000 0.000000
1.000000 0.000000 0.000000
0.047700 0.168460 0.000000
0.066896 0.168307 0.000000
0.081697 0.168246 0.000000
0.106386 0.167758 0.000000
0.132906 0.167086 0.000000
0.156954 0.165377 0.000000
0.180209 0.163943 0.004150
0.223606 0.175998 0.000000
0.267521 0.182589 0.000000
0.308293 0.185733 0.000000
0.348821 0.187289 0.000000
0.391516 0.188388 0.000000
0.435492 0.188815 0.000000
0.479774 0.188144 0.000000
0.523919 0.186160 0.000000
0.566796 0.183413 0.000000
0.607324 0.178836 0.000000
0.645136 0.173068 0.000000
0.680354 0.166415 0.000000
0.713008 0.158541 0.000000
0.743618 0.150240 0.000000
0.772824 0.141146 0.000000
0.801144 0.131502 0.000000
0.829068 0.121126 0.000000
0.857053 0.109651 0.000000
0.885588 0.097383 0.000000
0.914580 0.085145 0.000000
0.943633 0.068299 0.000000
0.972259 0.039368 0.000000
1.000000 0.000000 0.000000
1.000000 0.000000 0.000000
1.000000 0.000000 0.000000
0.072206 0.202487 0.000000
0.082948 0.202609 0.000000
0.095552 0.202487 0.000000
0.118105 0.202121 0.000000
0.145846 0.201755 0.000000
0.170169 0.200870 0.000000
0.194614 0.199496 0.000000
0.218845 0.198245 0.008453
0.263951 0.211673 0.000000
0.309545 0.219242 0.000000
0.354589 0.224216 0.000000
0.395666 0.226413 0.000000
0.439338 0.227451 0.000000
0.483406 0.227726 0.000000
0.527367 0.226871 0.000000
0.569726 0.225132 0.000000
0.610071 0.221744 0.000000
0.647517 0.217105 0.000000
0.682490 0.211521 0.000000
0.714931 0.205203 0.000000
0.745388 0.198428 0.000000
0.774563 0.190982 0.000000
0.802823 0.183139 0.000000
0.830777 0.175540 0.000000
0.858732 0.167819 0.000000
0.887266 0.160128 0.000000
0.916136 0.152193 0.000000
0.945037 0.145052 0.000000
0.973541 0.138033 0.000000
1.000000 0.130678 0.000000
1.000000 0.124819 0.000000
1.000000 0.119570 0.000000
0.090547 0.238529 0.000000
0.100038 0.238560 0.000000
0.110903 0.238529 0.000000
0.131441 0.238254 0.000000
0.157443 0.238132 0.000000
0.184604 0.237522 0.000000
0.209262 0.236545 0.000000
0.234318 0.235416 0.000000
0.259525 0.234165 0.007507
0.305943 0.247959 0.000000
0.352880 0.256443 0.000000
0.400580 0.262669 0.000000
0.443427 0.265202 0.000000
0.486305 0.266270 0.000000
0.529686 0.266178 0.000000
0.571923 0.264866 0.000000
0.611810 0.262303 0.000000
0.649073 0.258640 0.000000
0.683711 0.253452 0.000000
0.715999 0.247562 0.000000
0.746365 0.241520 0.000000
0.775540 0.234501 0.000000
0.803861 0.227939 0.000000
0.831785 0.221347 0.000000
0.859770 0.214878 0.000000
0.888273 0.208652 0.000000
0.917174 0.202518 0.000000
0.946044 0.196872 0.000000
0.974487 0.191806 0.000000
1.000000 0.186954 0.000000
1.000000 0.182742 0.000000
1.000000 0.179416 0.000000
0.108339 0.276371 0.000000
0.116335 0.276219 0.000000
0.126009 0.276341 0.000000
0.145205 0.276158 0.000000
0.170199 0.275914 0.000000
0.198642 0.275669 0.000000
0.224338 0.274907 0.000000
0.250095 0.273899 0.000000
0.276249 0.272801 0.000000
0.302251 0.271397 0.003265
0.350042 0.285985 0.000000
0.398627 0.294896 0.000000
0.446906 0.301396 0.000000
0.491859 0.304448 0.000000
0.532494 0.304601 0.000000
0.573602 0.303655 0.000000
0.612696 0.301305 0.000000
0.649439 0.297398 0.000000
0.683833 0.292943 0.000000
0.715999 0.287388 0.000000
0.746639 0.281559 0.000000
0.776211 0.275486 0.000000
0.804868 0.269444 0.000000
0.833188 0.263218 0.000000
0.861387 0.257481 0.000000
0.889952 0.251957 0.000000
0.918700 0.246921 0.000000
0.947326 0.242252 0.000000
0.975525 0.237675 0.000000
1.000000 0.233494 0.000000
1.000000 0.230014 0.000000
1.000000 0.226932 0.000000
0.125612 0.316442 0.000000
0.133059 0.316411 0.000000
0.141909 0.316533 0.000000
0.159579 0.316258 0.000000
0.183658 0.315801 0.000000
0.211460 0.315373 0.000000
0.240299 0.314641 0.000000
0.266026 0.313603 0.000000
0.292576 0.312383 0.000000
0.319585 0.311131 0.000000
0.346441 0.309789 0.000000
0.395392 0.324773 0.000000
0.444434 0.333776 0.000000
0.492470 0.339757 0.000000
0.538811 0.343145 0.000000
0.577203 0.342046 0.000000
0.614282 0.339696 0.000000
0.650721 0.336095 0.000000
0.684932 0.331670 0.000000
0.716976 0.326238 0.000000
0.747555 0.320592 0.000000
0.776913 0.314733 0.000000
0.805570 0.308934 0.000000
0.833799 0.303136 0.000000
0.862058 0.297520 0.000000
0.890684 0.292729 0.000000
0.919493 0.288029 0.000000
0.948180 0.283543 0.000000
0.976410 0.279820 0.000000
1.000000 0.276005 0.000000
1.000000 0.272770 0.000000
1.000000 0.270024 0.000000
0.142947 0.357244 0.000000
0.149416 0.357092 0.000000
0.158114 0.356970 0.000000
0.174289 0.356817 0.000000
0.197757 0.356390 0.000000
0.224674 0.355718 0.000000
0.254307 0.355047 0.000000
0.281834 0.353857 0.000000
0.308659 0.352636 0.000000
0.336065 0.351263 0.000000
0.363653 0.349767 0.000000
0.391150 0.348333 0.000000
0.428626 0.353887 0.000000
0.476814 0.362768 0.000000
0.523461 0.368383 0.000000
0.568200 0.371435 0.000000
0.606989 0.370703 0.000000
0.641352 0.367773 0.000000
0.675563 0.364172 0.000000
0.708522 0.359686 0.000000
0.739925 0.354528 0.000000
0.770108 0.349248 0.000000
0.799588 0.343847 0.000000
0.828641 0.338659 0.000000
0.857450 0.333654 0.000000
0.886534 0.329107 0.000000
0.915770 0.325078 0.000000
0.944915 0.321202 0.000000
0.973632 0.317754 0.000000
1.000000 0.314549 0.000000
1.000000 0.311620 0.000000
1.000000 0.309148 0.000000
0.157870 0.392767 0.000000
0.163577 0.392737 0.000000
0.171298 0.392950 0.000000
0.187167 0.393103 0.000000
0.209751 0.393194 0.000000
0.236454 0.393164 0.000000
0.265263 0.392584 0.000000
0.295628 0.391669 0.000000
0.322210 0.390448 0.000000
0.349187 0.388800 0.000000
0.376349 0.386664 0.000000
0.403326 0.384222 0.000000
0.430091 0.381933 0.000000
0.477241 0.395300 0.000000
0.523308 0.402106 0.000000
0.567681 0.406104 0.000000
0.609552 0.407263 0.000000
0.647517 0.405890 0.000000
0.679500 0.401740 0.000000
0.710414 0.397040 0.000000
0.741634 0.392096 0.000000
0.771695 0.386725 0.000000
0.801083 0.381537 0.000000
0.830137 0.376287 0.000000
0.858976 0.371557 0.000000
0.888060 0.367102 0.000000
0.917327 0.363256 0.000000
0.946380 0.359655 0.000000
0.975006 0.356207 0.000000
1.000000 0.353185 0.000000
1.000000 0.350378 0.000000
1.000000 0.347997 0.000000
0.174594 0.434882 0.000000
0.180758 0.434760 0.000000
0.188174 0.434730 0.000000
0.203128 0.434821 0.000000
0.224369 0.434852 0.000000
0.249882 0.434760 0.000000
0.278874 0.434180 0.000000
0.309270 0.433021 0.000000
0.338170 0.431647 0.000000
0.365301 0.429969 0.000000
0.392798 0.427832 0.000000
0.420386 0.425391 0.000000
0.447852 0.422950 0.000000
0.475410 0.420630 0.000000
0.521263 0.433112 0.000000
0.566522 0.439246 0.000000
0.608606 0.441566 0.000000
0.647822 0.441444 0.000000
0.684169 0.439124 0.000000
0.714900 0.434272 0.000000
0.743740 0.428870 0.000000
0.772915 0.423499 0.000000
0.802274 0.418158 0.000000
0.831174 0.413275 0.000000
0.860044 0.408301 0.000000
0.889128 0.404120 0.000000
0.918334 0.400275 0.000000
0.947295 0.397009 0.000000
0.975830 0.393774 0.000000
1.000000 0.390753 0.000000
1.000000 0.388098 0.000000
1.000000 0.385473 0.000000
0.191318 0.475410 0.000000
0.196811 0.475105 0.000000
0.203799 0.475105 0.000000
0.217838 0.475227 0.000000
0.238529 0.475166 0.000000
0.263279 0.475013 0.000000
0.291173 0.474434 0.000000
0.321508 0.473091 0.000000
0.352789 0.471382 0.000000
0.380011 0.469734 0.000000
0.407507 0.467506 0.000000
0.435218 0.465126 0.000000
0.463111 0.462593 0.000000
0.491096 0.460395 0.000000
0.519341 0.458412 0.000000
0.563378 0.469703 0.000000
0.606775 0.474372 0.000000
0.646235 0.475288 0.000000
0.682918 0.473823 0.000000
0.717159 0.470649 0.000000
0.748074 0.465675 0.000000
0.775814 0.459998 0.000000
0.803311 0.454719 0.000000
0.832242 0.449439 0.000000
0.861021 0.444800 0.000000
0.890043 0.440558 0.000000
0.918975 0.436744 0.000000
0.947692 0.433295 0.000000
0.975891 0.430121 0.000000
1.000000 0.427039 0.000000
1.000000 0.424262 0.000000
1.000000 0.421485 0.000000
0.207370 0.513970 0.000000
0.212253 0.513695 0.000000
0.218479 0.513603 0.000000
0.232212 0.513420 0.000000
0.251530 0.513024 0.000000
0.275395 0.512474 0.000000
0.302190 0.511345 0.000000
0.331304 0.510002 0.000000
0.361944 0.508110 0.000000
0.391943 0.506065 0.000000
0.419348 0.504326 0.000000
0.447395 0.502373 0.000000
0.475746 0.500450 0.000000
0.504509 0.498482 0.000000
0.533196 0.496712 0.000000
0.562066 0.495125 0.000000
0.603510 0.504753 0.011719
0.644404 0.507988 0.000000
0.681361 0.507378 0.000000
0.715633 0.504692 0.000000
0.748013 0.500786 0.000000
0.779141 0.495888 0.000000
0.806149 0.490120 0.000000
0.833066 0.484749 0.000000
0.860929 0.480140 0.000000
0.889891 0.475929 0.000000
0.918730 0.472206 0.000000
0.947448 0.468757 0.000000
0.975616 0.465705 0.000000
1.000000 0.462715 0.000000
1.000000 0.460029 0.000000
1.000000 0.457374 0.000000
0.223270 0.550896 0.000000
0.228061 0.550744 0.000000
0.233646 0.550652 0.000000
0.246311 0.550439 0.000000
0.264469 0.550011 0.000000
0.287510 0.549310 0.000000
0.313298 0.548241 0.000000
0.341650 0.546715 0.000000
0.371710 0.544762 0.000000
0.402930 0.542473 0.000000
0.430945 0.540612 0.000000
0.458656 0.538537 0.000000
0.486702 0.536614 0.000000
0.515251 0.534447 0.000000
0.543969 0.532677 0.000000
0.572808 0.531029 0.000000
0.601617 0.529503 0.000000
0.640772 0.537896 0.053315
0.679408 0.539910 0.000000
0.714168 0.538231 0.000000
0.746914 0.534997 0.000000
0.778164 0.530724 0.000000
0.808560 0.525933 0.000000
0.836515 0.520684 0.000000
0.863432 0.515679 0.000000
0.890623 0.511498 0.000000
0.919341 0.507744 0.000000
0.947845 0.504417 0.000000
0.975921 0.501274 0.000000
1.000000 0.498360 0.000000
1.000000 0.495552 0.000000
1.000000 0.492714 0.000000
0.237675 0.584924 0.000000
0.242008 0.584588 0.000000
0.243778 0.577203 0.000000
0.255619 0.576837 0.000000
0.273045 0.576471 0.000000
0.294682 0.575921 0.000000
0.319097 0.575250 0.000000
0.346380 0.574090 0.000000
0.375525 0.572686 0.000000
0.406043 0.570703 0.000000
0.436408 0.568627 0.000000
0.463600 0.567132 0.000000
0.491585 0.565759 0.000000
0.520073 0.564233 0.000000
0.548882 0.562890 0.000000
0.577935 0.561639 0.000000
0.607019 0.560571 0.000000
0.635859 0.559625 0.015045
0.672511 0.566644 0.073335
0.708888 0.567742 0.000000
0.742397 0.565850 0.000000
0.774228 0.562615 0.000000
0.805112 0.558618 0.000000
0.835386 0.554376 0.000000
0.864897 0.550134 0.000000
0.892363 0.546014 0.000000
0.919951 0.542504 0.000000
0.947967 0.539483 0.000000
0.976135 0.536522 0.000000
1.000000 0.533623 0.000000
1.000000 0.530785 0.000000
1.000000 0.527947 0.000000
0.251316 0.616083 0.000000
0.254673 0.615106 0.000000
0.259556 0.613977 0.000000
0.269963 0.612909 0.000000
0.286076 0.611780 0.000000
0.306065 0.610925 0.000000
0.329747 0.610040 0.000000
0.356176 0.608789 0.000000
0.384833 0.607385 0.000000
0.414435 0.605524 0.000000
0.445319 0.603296 0.000000
0.474006 0.601526 0.000000
0.501518 0.600275 0.000000
0.529778 0.598901 0.000000
0.558404 0.597650 0.000000
0.587274 0.596399 0.000000
0.616236 0.595270 0.000000
0.645014 0.594141 0.000000
0.673426 0.592981 0.057038
0.707485 0.598230 0.092836
0.740993 0.597955 0.057862
0.772976 0.595636 0.000000
0.803952 0.592279 0.000000
0.834287 0.588647 0.000000
0.864469 0.584894 0.000000
0.894560 0.581262 0.000000
0.922423 0.577478 0.000000
0.949584 0.574334 0.000000
0.976501 0.571527 0.000000
1.000000 0.568627 0.000000
1.000000 0.565759 0.000000
1.000000 0.562799 0.000000
0.265507 0.648524 0.000000
0.268406 0.647639 0.000000
0.273014 0.646784 0.000000
0.282841 0.645716 0.000000
0.298009 0.644678 0.000000
0.317357 0.643824 0.000000
0.340032 0.642847 0.000000
0.365667 0.641657 0.000000
0.392859 0.640284 0.000000
0.421942 0.638453 0.000000
0.452094 0.636439 0.000000
0.483101 0.634089 0.000000
0.510216 0.632837 0.000000
0.537957 0.631525 0.000000
0.566339 0.630243 0.000000
0.594751 0.629084 0.000000
0.623560 0.628016 0.000000
0.652064 0.626917 0.000000
0.680385 0.625727 0.032776
0.708217 0.624414 0.081636
0.740108 0.628534 0.112123
0.771145 0.627192 0.091493
0.802243 0.624872 0.031525
0.832700 0.621942 0.000000
0.863096 0.618921 0.000000
0.893370 0.615869 0.000000
0.923339 0.612634 0.000000
0.951812 0.609277 0.000000
0.978393 0.606195 0.000000
1.000000 0.603418 0.000000
1.000000 0.600702 0.000000
1.000000 0.597650 0.000000
0.279118 0.679530 0.000000
0.281865 0.678706 0.000000
0.286229 0.677821 0.000000
0.295476 0.676905 0.000000
0.309758 0.675959 0.000000
0.327855 0.675135 0.000000
0.349920 0.674128 0.000000
0.373999 0.673152 0.000000
0.400824 0.671748 0.000000
0.429053 0.670161 0.000000
0.458473 0.668208 0.000000
0.489143 0.666072 0.000000
0.518212 0.664271 0.000000
0.545495 0.663050 0.000000
0.573266 0.661769 0.000000
0.601312 0.660487 0.000000
0.629419 0.659113 0.000000
0.657465 0.657771 0.000000
0.685176 0.656214 0.008698
0.712398 0.654597 0.074189
0.739162 0.653010 0.102205
0.769131 0.655909 0.130312
0.797879 0.653895 0.117494
0.828367 0.651850 0.085817
0.858732 0.649531 0.005249
0.888975 0.647303 0.000000
0.918944 0.644739 0.000000
0.948486 0.641871 0.000000
0.977325 0.638483 0.000000
1.000000 0.635615 0.000000
1.000000 0.632868 0.000000
1.000000 0.630671 0.000000
0.290715 0.706813 0.000000
0.293492 0.706386 0.000000
0.297551 0.705989 0.000000
0.306737 0.705531 0.000000
0.320317 0.704891 0.000000
0.337591 0.704311 0.000000
0.358709 0.703426 0.000000
0.381903 0.702327 0.000000
0.407538 0.700984 0.000000
0.434791 0.699367 0.000000
0.463416 0.697475 0.000000
0.493172 0.695399 0.000000
0.523613 0.693202 0.000000
0.551110 0.691890 0.000000
0.578363 0.690791 0.000000
0.606043 0.689631 0.000000
0.633845 0.688380 0.000000
0.661707 0.687160 0.000000
0.689296 0.685908 0.000000
0.716670 0.684504 0.067903
0.743587 0.683253 0.099214
0.769955 0.681910 0.123842
0.799039 0.684779 0.150820
0.826352 0.682734 0.143923
0.856962 0.681666 0.120272
0.887388 0.680201 0.089204
0.917388 0.678523 0.015229
0.946838 0.676417 0.000000
0.975677 0.673701 0.000000
1.000000 0.670344 0.000000
1.000000 0.667323 0.000000
1.000000 0.665492 0.000000
0.303593 0.736416 0.000000
0.306432 0.735988 0.000000
0.310155 0.735622 0.000000
0.318944 0.735073 0.000000
0.331640 0.734524 0.000000
0.348119 0.733974 0.000000
0.368078 0.733303 0.000000
0.390570 0.732326 0.000000
0.415534 0.731136 0.000000
0.441871 0.729671 0.000000
0.469703 0.727962 0.000000
0.498878 0.726009 0.000000
0.528618 0.724025 0.000000
0.558282 0.722103 0.000000
0.585046 0.721035 0.000000
0.612238 0.719936 0.000000
0.639612 0.718746 0.000000
0.667079 0.717494 0.000000
0.694453 0.716213 0.000000
0.721553 0.714931 0.065949
0.748318 0.713558 0.099123
0.774594 0.712245 0.123568
0.800351 0.711055 0.146212
0.828397 0.713741 0.172030
0.855680 0.713039 0.172122
0.886168 0.712795 0.152499
0.916197 0.712001 0.130159
0.945678 0.710689 0.102266
0.974395 0.708858 0.059297
1.000000 0.706477 0.000000
1.000000 0.703609 0.000000
1.000000 0.700923 0.000000
0.315465 0.763699 0.000000
0.318059 0.763241 0.000000
0.321752 0.762875 0.000000
0.329656 0.762539 0.000000
0.341985 0.762234 0.000000
0.357794 0.761807 0.000000
0.376776 0.761318 0.000000
0.398566 0.760647 0.000000
0.422461 0.759792 0.000000
0.448402 0.758724 0.000000
0.475776 0.757443 0.000000
0.504112 0.755947 0.000000
0.533593 0.754238 0.000000
0.563806 0.752438 0.000000
0.591974 0.751339 0.000000
0.619074 0.750607 0.000000
0.646418 0.749813 0.000000
0.673823 0.748898 0.000000
0.701076 0.747860 0.000000
0.728054 0.746609 0.069001
0.754635 0.745296 0.101717
0.780819 0.744137 0.127352
0.806699 0.743099 0.150088
0.832151 0.742306 0.170901
0.859709 0.745357 0.197238
0.883726 0.742977 0.199954
0.913878 0.743465 0.184390
0.943511 0.743435 0.167605
0.972198 0.742763 0.148348
0.999878 0.741604 0.126436
1.000000 0.740108 0.097566
1.000000 0.738735 0.043336
0.329076 0.793729 0.000000
0.331182 0.793362 0.000000
0.334722 0.793027 0.000000
0.342321 0.792721 0.000000
0.353887 0.792355 0.000000
0.369024 0.791989 0.000000
0.387213 0.791501 0.000000
0.407996 0.790890 0.000000
0.431159 0.790036 0.000000
0.456214 0.788968 0.000000
0.482673 0.787747 0.000000
0.510521 0.786252 0.000000
0.539147 0.784695 0.000000
0.568719 0.782925 0.000000
0.598901 0.781247 0.000000
0.625483 0.780575 0.000000
0.652399 0.779843 0.000000
0.679530 0.779049 0.000000
0.706508 0.778103 0.000000
0.733333 0.777066 0.070924
0.759854 0.775906 0.104646
0.786069 0.774807 0.130922
0.811978 0.773922 0.153384
0.837369 0.773251 0.175296
0.862303 0.772793 0.195773
0.888975 0.775875 0.222141
0.910796 0.772854 0.229129
0.940185 0.773953 0.216770
0.968811 0.774563 0.203861
0.996368 0.774685 0.190677
1.000000 0.774624 0.177981
1.000000 0.774990 0.166049
0.342107 0.823606 0.000000
0.344640 0.823301 0.000000
0.347875 0.823117 0.000000
0.355047 0.822965 0.000000
0.366247 0.822721 0.000000
0.380743 0.822538 0.000000
0.398138 0.822202 0.000000
0.418280 0.821653 0.000000
0.440711 0.820951 0.000000
0.464912 0.819974 0.000000
0.490578 0.818845 0.000000
0.517662 0.817502 0.000000
0.545739 0.816068 0.000000
0.574823 0.814481 0.000000
0.604425 0.812955 0.000000
0.633112 0.811765 0.000000
0.659754 0.811154 0.000000
0.686641 0.810452 0.000000
0.713405 0.809659 0.000000
0.740108 0.808743 0.078340
0.766476 0.807767 0.110628
0.792660 0.806790 0.137301
0.818509 0.805997 0.160586
0.843839 0.805356 0.182254
0.868742 0.804959 0.203250
0.893034 0.804776 0.224002
0.918486 0.807767 0.250523
0.938354 0.804440 0.262058
0.966094 0.805753 0.252842
0.993439 0.807279 0.244633
1.000000 0.808652 0.237766
1.000000 0.810697 0.234134
0.356451 0.854704 0.000000
0.358679 0.854490 0.000000
0.361883 0.854307 0.000000
0.368719 0.854154 0.000000
0.379217 0.853849 0.000000
0.392981 0.853422 0.000000
0.409430 0.852750 0.000000
0.428351 0.851865 0.000000
0.449592 0.850706 0.000000
0.472663 0.849363 0.000000
0.497261 0.847837 0.000000
0.523156 0.846220 0.000000
0.550317 0.844511 0.000000
0.578515 0.842832 0.000000
0.607477 0.841184 0.000000
0.636988 0.839689 0.000000
0.664179 0.838865 0.000000
0.690639 0.838254 0.000000
0.717128 0.837522 0.000000
0.743587 0.836698 0.079713
0.769802 0.835874 0.113558
0.795865 0.835050 0.140139
0.821592 0.834348 0.164248
0.846952 0.833799 0.186648
0.871824 0.833463 0.208072
0.896147 0.833280 0.229404
0.919768 0.833371 0.249760
0.943969 0.836301 0.276555
0.961791 0.832914 0.292668
0.987732 0.834531 0.286503
1.000000 0.837613 0.283543
1.000000 0.841489 0.284459
0.368872 0.882841 0.000000
0.371099 0.882689 0.000000
0.374060 0.882628 0.000000
0.380743 0.882536 0.000000
0.390692 0.882414 0.000000
0.403906 0.882170 0.000000
0.419806 0.881773 0.000000
0.438209 0.881193 0.000000
0.458961 0.880461 0.000000
0.481514 0.879545 0.000000
0.505760 0.878477 0.000000
0.531304 0.877317 0.000000
0.557946 0.876066 0.000000
0.585809 0.874754 0.000000
0.614221 0.873472 0.000000
0.643366 0.872129 0.000000
