其他预设/【239】阳光逆光效果预设26款/1.LUT预设（视频调色-PR-AE-PS-FCPX-达芬奇用）/阳光逆光预设__-7.cube
# Created by Adobe Lightroom plugin Export LUT (1.17.0)
# www.johnrellis.com/lightroom/exportlut.htm
# Preset: 阳光逆光预设[素锦印象]-7
# Color profile: /Library/Application Support/Adobe/Color/Profiles/Recommended/AdobeRGB1998.icc
LUT_3D_SIZE 32
0.199588 0.166049 0.161166
0.208225 0.165682 0.161044
0.220066 0.165164 0.161044
0.242954 0.164126 0.160769
0.269596 0.162722 0.160494
0.296544 0.161288 0.160464
0.323644 0.159945 0.160525
0.351232 0.158663 0.160952
0.379797 0.157504 0.161379
0.409339 0.156100 0.161837
0.440345 0.154482 0.162631
0.472572 0.152926 0.163394
0.505974 0.150912 0.164065
0.540459 0.148745 0.164889
0.575738 0.146426 0.165347
0.611872 0.143069 0.165743
0.648554 0.139406 0.165713
0.684749 0.135897 0.165713
0.719020 0.132692 0.165774
0.752560 0.130037 0.165591
0.785489 0.127504 0.165377
0.817716 0.125704 0.165072
0.849088 0.124300 0.164767
0.879423 0.124453 0.164309
0.908751 0.125063 0.163943
0.937041 0.126894 0.163577
0.964111 0.130129 0.163363
0.989960 0.134463 0.163241
1.000000 0.139834 0.163210
1.000000 0.146273 0.163516
1.000000 0.153292 0.164096
1.000000 0.161013 0.165042
0.199832 0.174502 0.160983
0.208438 0.174136 0.161105
0.218723 0.173983 0.161990
0.241337 0.173892 0.161898
0.269169 0.171542 0.160708
0.296483 0.169375 0.160464
0.323674 0.167239 0.160616
0.351171 0.165774 0.161044
0.379706 0.164065 0.161532
0.409400 0.162539 0.161990
0.440345 0.161044 0.162936
0.472602 0.159243 0.163577
0.505974 0.157321 0.164370
0.540459 0.155093 0.165103
0.575799 0.152712 0.165560
0.611902 0.149722 0.165927
0.648554 0.146609 0.165896
0.684718 0.143008 0.165896
0.718990 0.140017 0.165835
0.752529 0.137514 0.165652
0.785428 0.135164 0.165438
0.817716 0.132876 0.165042
0.849058 0.131807 0.164736
0.879454 0.131472 0.164431
0.908751 0.132265 0.163882
0.937011 0.134218 0.163668
0.964141 0.136812 0.163180
0.989929 0.141146 0.163210
1.000000 0.146059 0.163302
1.000000 0.151980 0.163638
1.000000 0.158755 0.164096
1.000000 0.166018 0.165072
0.200015 0.185794 0.160861
0.209232 0.185580 0.160708
0.220768 0.185061 0.160739
0.240421 0.184176 0.163027
0.265568 0.183627 0.164126
0.294285 0.180758 0.162692
0.323125 0.177035 0.161288
0.351049 0.174716 0.161379
0.379675 0.172824 0.161868
0.409308 0.170840 0.162661
0.440253 0.169284 0.163333
0.472541 0.167453 0.163851
0.505943 0.165347 0.164675
0.540490 0.163333 0.165499
0.575799 0.161135 0.165957
0.611994 0.158114 0.166201
0.648615 0.155093 0.166201
0.684718 0.151949 0.165927
0.719020 0.149111 0.165988
0.752529 0.146517 0.165866
0.785458 0.144289 0.165499
0.817685 0.142397 0.165072
0.849058 0.141421 0.164767
0.879423 0.140780 0.164370
0.908721 0.141329 0.163973
0.936980 0.143008 0.163638
0.964080 0.145602 0.163272
0.989899 0.149294 0.163333
1.000000 0.153902 0.163272
1.000000 0.159518 0.163607
1.000000 0.165469 0.164096
1.000000 0.172427 0.165072
0.201144 0.207065 0.160403
0.209842 0.206638 0.160433
0.221073 0.206027 0.160220
0.243259 0.204776 0.160281
0.266453 0.201236 0.163821
0.287327 0.200900 0.169833
0.317021 0.198184 0.167788
0.346960 0.194949 0.166171
0.377539 0.191440 0.164736
0.409033 0.187930 0.163668
0.440284 0.185824 0.164004
0.472572 0.183780 0.164828
0.505913 0.182040 0.165499
0.540459 0.179904 0.166232
0.575891 0.177584 0.166445
0.612024 0.175051 0.166812
0.648676 0.172366 0.166659
0.684779 0.169589 0.166384
0.719051 0.166903 0.166201
0.752499 0.164645 0.166079
0.785458 0.162417 0.165743
0.817685 0.160525 0.165347
0.849058 0.159518 0.164920
0.879362 0.159152 0.164645
0.908690 0.159335 0.164126
0.936950 0.160647 0.163821
0.964019 0.162509 0.163363
0.989837 0.166018 0.163363
1.000000 0.169711 0.163363
1.000000 0.174319 0.163607
1.000000 0.179599 0.164096
1.000000 0.185672 0.165103
0.202976 0.230991 0.160525
0.210727 0.230533 0.160586
0.221073 0.230014 0.160555
0.241123 0.228824 0.160586
0.268589 0.226963 0.160678
0.293614 0.222171 0.164187
0.314153 0.219455 0.171511
0.339269 0.218875 0.174319
0.370825 0.216281 0.172274
0.402899 0.213718 0.170840
0.436194 0.210697 0.169345
0.470588 0.207706 0.168154
0.505791 0.204776 0.167117
0.540490 0.202609 0.167330
0.575952 0.200381 0.167544
0.612024 0.198245 0.167514
0.648737 0.195743 0.167391
0.684749 0.193454 0.167147
0.719051 0.191135 0.166812
0.752560 0.188815 0.166567
0.785428 0.186862 0.166140
0.817685 0.185367 0.165743
0.848997 0.184176 0.165194
0.879332 0.183627 0.164675
0.908598 0.183566 0.164340
0.936858 0.184421 0.163912
0.963928 0.186038 0.163577
0.989715 0.188205 0.163424
1.000000 0.191379 0.163546
1.000000 0.195193 0.163821
1.000000 0.199496 0.164218
1.000000 0.204532 0.165133
0.205966 0.255100 0.161471
0.212863 0.254795 0.161532
0.221836 0.254337 0.161410
0.239933 0.253300 0.161501
0.265263 0.251713 0.161685
0.294682 0.249760 0.161715
0.321416 0.244938 0.164920
0.342443 0.240787 0.172519
0.364660 0.239963 0.179171
0.395209 0.239322 0.179446
0.429175 0.237766 0.177584
0.464118 0.235752 0.176028
0.499855 0.233555 0.174502
0.536522 0.230991 0.172854
0.573907 0.228214 0.170993
0.611902 0.225254 0.169070
0.648859 0.223026 0.168399
0.684810 0.220981 0.167880
0.718990 0.218967 0.167605
0.752499 0.216831 0.167117
0.785397 0.215061 0.166690
0.817655 0.213260 0.166201
0.848966 0.212161 0.165560
0.879271 0.211612 0.165194
0.908507 0.211490 0.164614
0.936736 0.211826 0.164096
0.963806 0.212985 0.163790
0.989563 0.214542 0.163668
1.000000 0.216983 0.163577
1.000000 0.219760 0.163882
1.000000 0.223117 0.164492
1.000000 0.227176 0.165286
0.210025 0.279515 0.163149
0.216342 0.279149 0.163088
0.224338 0.278782 0.163272
0.240848 0.278050 0.163394
0.263798 0.276829 0.163516
0.291234 0.275151 0.163760
0.321477 0.273136 0.163882
0.349950 0.269078 0.165927
0.371862 0.264134 0.174228
0.395148 0.262791 0.181399
0.420630 0.263615 0.187747
0.456184 0.263249 0.185672
0.492561 0.262364 0.183627
0.529778 0.260899 0.181552
0.567742 0.259159 0.179294
0.606104 0.257145 0.176944
0.644831 0.254917 0.174472
0.682795 0.252110 0.171725
0.718685 0.249180 0.169039
0.752499 0.246983 0.167941
0.785397 0.245304 0.167391
0.817563 0.243717 0.166812
0.848844 0.242649 0.166049
0.879149 0.241855 0.165469
0.908385 0.241367 0.164797
0.936584 0.241398 0.164309
0.963653 0.242039 0.164065
0.989380 0.243229 0.163821
1.000000 0.244816 0.163821
1.000000 0.247074 0.164157
1.000000 0.249516 0.164553
1.000000 0.252567 0.165560
0.215061 0.304356 0.165347
0.220523 0.304112 0.165194
0.227756 0.303899 0.165347
0.242863 0.303227 0.165408
0.264317 0.302251 0.165560
0.289952 0.300877 0.165866
0.318730 0.299290 0.166293
0.349432 0.297520 0.166598
0.379736 0.294316 0.167575
0.402716 0.289281 0.175906
0.427192 0.287602 0.183780
0.452888 0.288090 0.191226
0.484016 0.289647 0.194308
0.521874 0.289708 0.191745
0.560296 0.289372 0.189151
0.599176 0.288518 0.186374
0.638331 0.287297 0.183474
0.676936 0.285618 0.180423
0.713466 0.283421 0.177584
0.748959 0.280980 0.174533
0.783536 0.278569 0.171511
0.817197 0.275883 0.168185
0.848753 0.274418 0.166690
0.879026 0.273411 0.166018
0.908232 0.272740 0.165255
0.936431 0.272618 0.164950
0.963409 0.272801 0.164370
0.989136 0.273381 0.164065
1.000000 0.274479 0.164096
1.000000 0.275944 0.164401
1.000000 0.277775 0.164981
1.000000 0.279911 0.165957
0.220615 0.330327 0.167819
0.225650 0.330053 0.167788
0.232486 0.329900 0.167819
0.246250 0.329351 0.168032
0.266331 0.328588 0.168093
0.290410 0.327550 0.168307
0.317784 0.326329 0.168490
0.347478 0.324865 0.168704
0.378698 0.323217 0.169009
0.410224 0.320897 0.169619
0.435218 0.316289 0.177279
0.460700 0.314336 0.185519
0.487404 0.314641 0.193423
0.515160 0.316564 0.201144
0.551598 0.318242 0.200687
0.590967 0.319005 0.197482
0.630732 0.318975 0.194156
0.670008 0.318486 0.190707
0.707271 0.317174 0.187442
0.743435 0.315587 0.184237
0.778592 0.313817 0.180972
0.812833 0.311681 0.177523
0.845762 0.309636 0.174044
0.877409 0.307774 0.170565
0.907744 0.305760 0.166873
0.936217 0.304662 0.165347
0.963165 0.304753 0.164767
0.988861 0.304845 0.164553
1.000000 0.305455 0.164401
1.000000 0.306279 0.164645
1.000000 0.307378 0.165347
1.000000 0.308751 0.166262
0.226688 0.357488 0.169894
0.231174 0.357397 0.170016
0.237430 0.357305 0.169924
0.250340 0.356847 0.169986
0.269139 0.356268 0.170199
0.292302 0.355413 0.170169
0.318578 0.354437 0.170382
0.347356 0.353216 0.170626
0.377783 0.351965 0.170687
0.409583 0.350439 0.170901
0.441932 0.348608 0.171145
0.469093 0.344640 0.178134
0.495460 0.342596 0.186801
0.522911 0.342657 0.195102
0.551385 0.344396 0.203128
0.581872 0.347234 0.209812
0.622156 0.348943 0.205966
0.662074 0.349920 0.202121
0.700099 0.349889 0.198550
0.737026 0.349096 0.195193
0.772946 0.348211 0.191623
0.807675 0.346990 0.188296
0.841184 0.345586 0.184817
0.873350 0.344030 0.181247
0.904143 0.342535 0.177859
0.933623 0.340887 0.174166
0.961669 0.339330 0.170443
0.988251 0.337652 0.166354
1.000000 0.337194 0.164981
1.000000 0.337469 0.165194
1.000000 0.338018 0.165713
1.000000 0.338628 0.166659
0.232059 0.386267 0.171664
0.236454 0.386175 0.171633
0.242313 0.386053 0.171695
0.254643 0.385687 0.171786
0.272679 0.385138 0.171725
0.294865 0.384588 0.171817
0.320439 0.383825 0.171908
0.348363 0.382910 0.172000
0.378332 0.381781 0.171969
0.409735 0.380591 0.172030
0.442054 0.379248 0.172091
0.475135 0.377752 0.172030
0.504234 0.374578 0.177890
0.531426 0.372473 0.187045
0.559655 0.372320 0.195651
0.588647 0.373816 0.204257
0.618280 0.376501 0.212436
0.653040 0.379614 0.215030
0.692042 0.380957 0.211063
0.729824 0.381506 0.207187
0.766476 0.381598 0.203555
0.801938 0.381262 0.199954
0.836027 0.380682 0.196567
0.868711 0.379736 0.193149
0.899992 0.378759 0.189761
0.929931 0.377600 0.186465
0.958343 0.376410 0.183078
0.985260 0.375128 0.179721
1.000000 0.373693 0.176120
1.000000 0.372045 0.172274
1.000000 0.370001 0.168124
1.000000 0.369421 0.167422
0.237491 0.416388 0.173007
0.241672 0.416327 0.173007
0.247501 0.416205 0.172915
0.259068 0.415900 0.173007
0.276524 0.415534 0.173098
0.297978 0.415015 0.173068
0.323003 0.414405 0.172885
0.350530 0.413642 0.172854
0.379980 0.412757 0.172946
0.410895 0.411780 0.172641
0.443000 0.410681 0.172549
0.475898 0.409552 0.172305
0.509545 0.408240 0.172152
0.540581 0.405921 0.176638
0.568444 0.403723 0.186465
0.597131 0.403357 0.195651
0.626490 0.404639 0.204440
0.656062 0.406928 0.213107
0.685023 0.409979 0.221927
0.721736 0.412329 0.220401
0.759213 0.413703 0.216495
0.795407 0.414466 0.212894
0.830167 0.414710 0.209262
0.863493 0.414618 0.205997
0.895354 0.414221 0.202823
0.925750 0.413733 0.199771
0.954589 0.412970 0.196841
0.981872 0.412116 0.193912
1.000000 0.411078 0.191196
1.000000 0.409735 0.188235
1.000000 0.408270 0.185489
1.000000 0.406287 0.182223
0.242618 0.447822 0.173556
0.246494 0.447761 0.173556
0.252079 0.447700 0.173465
0.263493 0.447486 0.173556
0.280369 0.447211 0.173373
0.301518 0.446784 0.173312
0.325963 0.446235 0.173281
0.352941 0.445624 0.173129
0.382116 0.444862 0.172946
0.412848 0.444038 0.172732
0.444770 0.443183 0.172488
0.477577 0.442145 0.172244
0.510979 0.441108 0.171817
0.544976 0.440070 0.171328
0.577752 0.438544 0.174258
0.606073 0.436316 0.184726
0.635157 0.435828 0.194430
0.663966 0.436378 0.203891
0.692317 0.437842 0.213413
0.721065 0.440558 0.222904
0.751217 0.444190 0.230503
0.788235 0.446265 0.226596
0.823758 0.447669 0.223056
0.857694 0.448493 0.219821
0.890166 0.448890 0.216678
0.921080 0.449012 0.213870
0.950408 0.448920 0.211429
0.978058 0.448554 0.209110
1.000000 0.447913 0.206851
1.000000 0.447120 0.205081
1.000000 0.445960 0.203128
1.000000 0.444434 0.201419
0.247349 0.480568 0.173465
0.251438 0.480507 0.173434
0.256687 0.480415 0.173495
0.267857 0.480232 0.173434
0.284367 0.479957 0.173251
0.305180 0.479591 0.173220
0.329290 0.479194 0.173037
0.355962 0.478676 0.172732
0.384802 0.478096 0.172519
0.415259 0.477455 0.172152
0.446998 0.476631 0.171786
0.479713 0.475898 0.171206
0.513115 0.474983 0.170779
0.546990 0.474098 0.170138
0.581292 0.473182 0.169436
0.615595 0.472450 0.170596
0.644129 0.469917 0.181888
0.672206 0.468574 0.192660
0.699947 0.468238 0.203037
0.728054 0.469429 0.213382
0.756374 0.471901 0.223575
0.784665 0.475624 0.234012
0.816648 0.479164 0.237797
0.851316 0.481117 0.234531
0.884428 0.482582 0.231540
0.915953 0.483497 0.229007
0.945800 0.484047 0.226780
0.973877 0.484260 0.225040
1.000000 0.484291 0.223545
1.000000 0.483955 0.222477
1.000000 0.483375 0.221836
1.000000 0.482338 0.221317
0.252079 0.514305 0.172671
0.255955 0.514244 0.172671
0.261021 0.514183 0.172580
0.272068 0.514092 0.172519
0.288365 0.513848 0.172457
0.308751 0.513603 0.172122
0.332647 0.513207 0.171939
0.359075 0.512779 0.171603
0.387640 0.512291 0.171267
0.418067 0.511711 0.170901
0.449561 0.511101 0.170352
0.482246 0.510399 0.169741
0.515496 0.509697 0.169009
0.549493 0.508965 0.168154
0.583795 0.508171 0.167422
0.618311 0.507408 0.166506
0.653346 0.507042 0.165866
0.680690 0.503410 0.178408
0.707759 0.501183 0.190372
0.735286 0.500694 0.201694
0.762966 0.501579 0.212924
0.790738 0.503868 0.224063
0.818326 0.507347 0.235599
0.845579 0.511955 0.247654
0.878202 0.514946 0.247379
0.910338 0.516899 0.244999
0.940703 0.518334 0.243229
0.969268 0.519402 0.242008
0.995972 0.519982 0.241245
1.000000 0.520317 0.240940
1.000000 0.520256 0.241276
1.000000 0.519799 0.242039
0.256321 0.549126 0.170871
0.260227 0.549126 0.170962
0.265202 0.549065 0.170901
0.276066 0.548913 0.170718
0.292088 0.548699 0.170504
0.312322 0.548486 0.170291
0.335882 0.548211 0.170077
0.362127 0.547875 0.169589
0.390692 0.547417 0.169223
0.420874 0.546929 0.168704
0.452369 0.546319 0.168154
0.484901 0.545769 0.167361
0.517998 0.545037 0.166751
0.551873 0.544305 0.165774
0.585962 0.543511 0.164797
0.620294 0.542657 0.163760
0.654566 0.541680 0.162753
0.688533 0.540551 0.161654
0.715755 0.536584 0.174441
0.742672 0.534203 0.187503
0.769802 0.533501 0.199832
0.796963 0.534173 0.212161
0.824002 0.536217 0.224582
0.850706 0.539361 0.237278
0.877104 0.543938 0.250767
0.904234 0.549248 0.262089
0.935149 0.551690 0.260655
0.964202 0.553613 0.259922
0.991333 0.555077 0.259861
1.000000 0.556054 0.260349
1.000000 0.556664 0.261692
1.000000 0.556939 0.263767
0.260410 0.584222 0.168704
0.263981 0.584222 0.168551
0.269200 0.584131 0.168612
0.279789 0.584039 0.168399
0.295689 0.583795 0.168215
0.315679 0.583520 0.168032
0.338903 0.583185 0.167849
0.365087 0.582788 0.167239
0.393286 0.582300 0.166781
0.423255 0.581720 0.166262
0.454536 0.581048 0.165621
0.486702 0.580346 0.164920
0.519646 0.579583 0.164187
0.553063 0.578759 0.163302
0.586877 0.577813 0.162387
0.620783 0.576898 0.161288
0.654810 0.575921 0.160189
0.688869 0.575006 0.158999
0.722225 0.573663 0.157778
0.750088 0.570092 0.169619
0.776669 0.567590 0.183993
0.803250 0.566552 0.197757
0.829709 0.566949 0.211307
0.855894 0.568719 0.225162
0.881834 0.571832 0.239445
0.907225 0.576257 0.254490
0.931975 0.582086 0.270817
0.958740 0.586877 0.279088
0.986297 0.589258 0.279637
1.000000 0.591119 0.281071
1.000000 0.592493 0.283330
1.000000 0.593469 0.286656
0.264530 0.617975 0.166232
0.268223 0.617945 0.166201
0.273106 0.617914 0.166110
0.283604 0.617762 0.166079
0.299229 0.617548 0.165896
0.318761 0.617304 0.165560
0.341833 0.616907 0.165408
0.367468 0.616480 0.164828
0.395453 0.615961 0.164370
0.425116 0.615351 0.163882
0.455970 0.614740 0.163119
0.487861 0.614008 0.162448
0.520470 0.613245 0.161624
0.553674 0.612482 0.160708
0.587213 0.611627 0.159670
0.620905 0.610773 0.158450
0.654780 0.609949 0.157290
0.688563 0.609064 0.156008
0.722225 0.608240 0.154543
0.755184 0.606958 0.153353
0.783505 0.603784 0.163851
0.809567 0.600977 0.180026
0.835508 0.599664 0.195315
0.861143 0.599847 0.210605
0.886534 0.601343 0.226047
0.911498 0.604273 0.242100
0.935760 0.608576 0.259159
0.959197 0.614343 0.277714
0.981537 0.621759 0.298009
1.000000 0.625269 0.302922
1.000000 0.627558 0.306218
1.000000 0.629419 0.310765
0.268864 0.651362 0.163516
0.272374 0.651331 0.163485
0.277195 0.651209 0.163424
0.287419 0.651148 0.163363
0.302586 0.650935 0.163058
0.321782 0.650690 0.162875
0.344518 0.650355 0.162417
0.369787 0.649928 0.161990
0.397528 0.649531 0.161501
0.426642 0.648951 0.160922
0.457282 0.648341 0.160128
0.488808 0.647669 0.159335
0.521263 0.646998 0.158480
0.554131 0.646204 0.157473
0.587427 0.645472 0.156405
0.620935 0.644617 0.155184
0.654597 0.643854 0.153872
0.688136 0.643061 0.152438
0.721645 0.642298 0.151095
0.754940 0.641566 0.149447
0.787381 0.640345 0.148165
0.815854 0.637324 0.157412
0.841245 0.634241 0.175631
0.866423 0.632715 0.192844
0.891264 0.632624 0.210056
0.915740 0.633906 0.227390
0.939544 0.636622 0.245579
0.962524 0.640711 0.264958
0.984497 0.646387 0.286107
1.000000 0.653803 0.309392
1.000000 0.661707 0.330541
1.000000 0.664576 0.336400
0.273014 0.684688 0.160281
0.276432 0.684688 0.160372
0.281254 0.684657 0.160159
0.291081 0.684535 0.159976
0.305943 0.684352 0.159792
0.324926 0.684108 0.159609
0.347265 0.683772 0.159182
0.372137 0.683375 0.158755
0.399298 0.682979 0.157992
0.428260 0.682429 0.157382
0.458473 0.681910 0.156741
0.489815 0.681270 0.155795
0.521874 0.680598 0.154940
0.554589 0.679896 0.153933
0.587610 0.679164 0.152712
0.620813 0.678401 0.151492
0.654139 0.677668 0.150088
0.687526 0.676905 0.148623
0.720790 0.676173 0.147158
0.753872 0.675441 0.145510
0.786679 0.674830 0.143832
0.818479 0.673671 0.142458
0.846891 0.670710 0.149996
0.871550 0.667384 0.170962
0.895964 0.665583 0.190585
0.919951 0.665217 0.209812
0.943297 0.666194 0.229526
0.965850 0.668635 0.250126
0.987427 0.672480 0.272251
1.000000 0.678035 0.296300
1.000000 0.685451 0.322972
1.000000 0.695247 0.352972
0.276951 0.717952 0.156649
0.280400 0.717891 0.156497
0.285100 0.717861 0.156527
0.294743 0.717769 0.156344
0.309361 0.717556 0.156039
0.328008 0.717311 0.155856
0.349798 0.717006 0.155428
0.374273 0.716670 0.154971
0.401160 0.716243 0.154238
0.429725 0.715755 0.153628
0.459602 0.715236 0.152712
0.490669 0.714656 0.151888
0.522362 0.714015 0.150912
0.554711 0.713313 0.149905
0.587457 0.712612 0.148714
0.620386 0.711879 0.147341
0.653559 0.711086 0.146090
0.686641 0.710414 0.144503
0.719661 0.709712 0.142855
0.752438 0.708980 0.141421
0.785000 0.708370 0.139590
0.817227 0.707790 0.137789
0.848478 0.706661 0.136507
0.876616 0.703700 0.141939
0.900542 0.700191 0.165988
0.924071 0.698116 0.188449
0.946960 0.697353 0.210391
0.969116 0.698024 0.232792
0.990295 0.700069 0.256168
1.000000 0.703670 0.281163
1.000000 0.709041 0.308812
1.000000 0.716518 0.339361
0.281132 0.750851 0.152560
0.284398 0.750851 0.152377
0.288792 0.750759 0.152316
0.298405 0.750637 0.152132
0.312779 0.750484 0.151919
0.330938 0.750240 0.151766
0.352422 0.749966 0.151339
0.376623 0.749599 0.150759
0.403021 0.749203 0.150149
0.431128 0.748714 0.149416
0.460670 0.748226 0.148623
0.491310 0.747646 0.147677
0.522698 0.747036 0.146731
0.554742 0.746365 0.145571
0.587121 0.745632 0.144411
0.619867 0.744961 0.143038
0.652583 0.744198 0.141665
0.685420 0.743465 0.140078
0.718135 0.742763 0.138643
0.750698 0.742061 0.136904
0.782986 0.741451 0.135103
0.814939 0.740871 0.133333
0.846586 0.740414 0.131533
0.877226 0.739437 0.130282
0.904967 0.736446 0.132906
0.928038 0.732601 0.161074
0.950530 0.730098 0.186709
0.972290 0.728969 0.211795
0.993133 0.729183 0.237186
1.000000 0.730800 0.263828
1.000000 0.734005 0.292393
1.000000 0.739223 0.323888
0.285313 0.783261 0.148226
0.288518 0.783230 0.148074
0.292821 0.783230 0.147982
0.302312 0.783078 0.147799
0.316197 0.782895 0.147616
0.334081 0.782681 0.147158
0.354986 0.782406 0.146883
0.378637 0.782071 0.146304
0.404700 0.781674 0.145724
0.432441 0.781216 0.144961
0.461646 0.780697 0.144228
0.491829 0.780148 0.143282
0.522820 0.779538 0.142184
0.554559 0.778866 0.141207
0.586572 0.778225 0.139864
0.618952 0.777493 0.138521
0.651392 0.776791 0.136995
0.683925 0.776059 0.135439
0.716365 0.775357 0.134035
0.748653 0.774716 0.132479
0.780697 0.774075 0.130709
0.812375 0.773465 0.128969
0.843748 0.773007 0.127047
0.874632 0.772610 0.125154
0.904692 0.771847 0.123751
0.931579 0.768490 0.125032
0.953918 0.764279 0.156191
0.975311 0.761349 0.185763
0.995789 0.759670 0.214267
1.000000 0.759335 0.243229
1.000000 0.760403 0.273350
1.000000 0.763272 0.306065
0.289799 0.815183 0.143526
0.292851 0.815152 0.143496
0.297124 0.815122 0.143435
0.306188 0.815000 0.143252
0.319768 0.814847 0.143069
0.337072 0.814633 0.142611
0.357671 0.814389 0.142184
0.380896 0.814023 0.141634
0.406531 0.813657 0.141024
0.433753 0.813199 0.140291
0.462531 0.812680 0.139559
0.492317 0.812131 0.138643
0.522850 0.811551 0.137545
0.554162 0.810941 0.136416
0.585901 0.810269 0.135286
0.617884 0.809567 0.133974
0.650019 0.808835 0.132662
0.682216 0.808133 0.131136
0.714321 0.807462 0.129397
0.746304 0.806790 0.127687
0.778012 0.806119 0.126192
0.809415 0.805509 0.124331
0.840482 0.804990 0.122652
0.871153 0.804501 0.120882
0.901305 0.804135 0.119173
0.930785 0.803708 0.117281
0.956390 0.799741 0.119966
0.978180 0.795163 0.151644
0.998322 0.791623 0.185733
1.000000 0.789273 0.218235
1.000000 0.788266 0.250950
1.000000 0.788785 0.285374
0.294347 0.846555 0.138979
0.297307 0.846525 0.138796
0.301457 0.846494 0.138705
0.310216 0.846403 0.138521
0.323491 0.846220 0.138216
0.340307 0.846036 0.137911
0.360540 0.845731 0.137667
0.383246 0.845426 0.136934
0.408331 0.845029 0.136355
0.435126 0.844572 0.135836
0.463325 0.844083 0.134951
0.492744 0.843534 0.134035
0.522972 0.842954 0.132967
0.553765 0.842313 0.131899
0.585046 0.841672 0.130800
0.616602 0.840970 0.129335
0.648432 0.840238 0.128054
0.680232 0.839536 0.126619
0.711971 0.838834 0.125154
0.743587 0.838132 0.123507
0.774960 0.837430 0.121920
0.806088 0.836790 0.120333
0.836820 0.836210 0.118624
0.867155 0.835691 0.116732
0.897063 0.835264 0.115328
0.926452 0.834928 0.113619
0.955322 0.834684 0.112001
0.979706 0.830137 0.115663
1.000000 0.824979 0.147433
1.000000 0.820676 0.186831
1.000000 0.817533 0.223880
1.000000 0.815732 0.260960
0.299199 0.877195 0.134432
0.302220 0.877165 0.134432
0.306157 0.877134 0.134157
0.314611 0.877012 0.134157
0.327337 0.876860 0.133852
0.343786 0.876646 0.133394
0.363409 0.876371 0.133181
0.385687 0.876036 0.132479
0.410285 0.875639 0.131930
0.436439 0.875181 0.131258
0.464210 0.874693 0.130556
0.493050 0.874174 0.129702
0.522820 0.873564 0.128481
0.553185 0.872923 0.127657
0.584070 0.872251 0.126436
0.615229 0.871550 0.125216
0.646601 0.870817 0.123842
0.677943 0.870085 0.122652
0.709316 0.869352 0.121096
0.740536 0.868620 0.119570
0.771603 0.867887 0.117891
0.802365 0.867216 0.116640
0.832761 0.866575 0.115053
0.862760 0.865995 0.113588
0.892332 0.865476 0.111940
0.921416 0.865019 0.110658
0.950011 0.864714 0.109285
0.977996 0.864439 0.108095
1.000000 0.859464 0.113039
1.000000 0.853483 0.143984
1.000000 0.848234 0.189487
1.000000 0.844144 0.231296
0.304417 0.906920 0.130251
0.307317 0.906889 0.130282
0.311192 0.906828 0.130220
0.319188 0.906737 0.129854
0.331640 0.906584 0.129549
0.347692 0.906340 0.129274
0.366674 0.906096 0.128908
0.388312 0.905760 0.128573
0.412360 0.905333 0.128084
0.437995 0.904906 0.127260
0.465095 0.904387 0.126650
0.493477 0.903838 0.125643
0.522576 0.903258 0.124697
0.552514 0.902617 0.123720
0.582849 0.901915 0.122774
0.613581 0.901183 0.121492
0.644495 0.900450 0.120394
0.675441 0.899687 0.118929
0.706386 0.898924 0.117891
0.737209 0.898131 0.116335
0.767849 0.897368 0.115023
0.798215 0.896605 0.113771
0.828244 0.895903 0.112398
0.857877 0.895232 0.110903
0.887114 0.894621 0.109987
0.915831 0.894041 0.108766
0.944091 0.893584 0.107698
0.971771 0.893156 0.106844
0.998901 0.892882 0.106172
1.000000 0.887480 0.112245
1.000000 0.880339 0.141268
1.000000 0.873991 0.193637
0.310094 0.935576 0.126589
0.312779 0.935546 0.126619
0.316472 0.935485 0.126741
0.324224 0.935393 0.126558
0.336309 0.935210 0.126253
0.351751 0.934997 0.126040
0.370153 0.934722 0.125704
0.391241 0.934386 0.125032
0.414466 0.933989 0.124605
0.439612 0.933532 0.124178
0.466072 0.933013 0.123262
0.493843 0.932464 0.122530
0.522454 0.931823 0.121675
0.551781 0.931151 0.120821
0.581598 0.930449 0.119814
0.611810 0.929686 0.119020
