其他预设/【239】阳光逆光效果预设26款/1.LUT预设（视频调色-PR-AE-PS-FCPX-达芬奇用）/阳光逆光预设__-8.cube
# Created by Adobe Lightroom plugin Export LUT (1.17.0)
# www.johnrellis.com/lightroom/exportlut.htm
# Preset: 阳光逆光预设[素锦印象]-8
# Color profile: /Library/Application Support/Adobe/Color/Profiles/Recommended/AdobeRGB1998.icc
LUT_3D_SIZE 32
0.186404 0.162448 0.156893
0.186404 0.162448 0.156893
0.186404 0.162448 0.156893
0.193179 0.161257 0.156771
0.212528 0.159274 0.156252
0.234501 0.157748 0.155489
0.260349 0.156405 0.154421
0.292180 0.153750 0.152956
0.329808 0.149508 0.150973
0.369238 0.144137 0.148562
0.408301 0.137484 0.145785
0.446906 0.130312 0.142611
0.485512 0.121859 0.138979
0.524620 0.112642 0.136049
0.564874 0.103731 0.133730
0.607202 0.092226 0.130739
0.651881 0.076478 0.127260
0.696986 0.052735 0.123476
0.741238 0.000000 0.118959
0.786862 0.000000 0.113558
0.830228 0.000000 0.107729
0.870329 0.000000 0.101564
0.906920 0.000000 0.095827
0.939940 0.000000 0.090669
0.969696 0.000000 0.086275
0.996399 0.000000 0.082643
1.000000 0.000000 0.080201
1.000000 0.000000 0.078676
1.000000 0.000000 0.079225
1.000000 0.000000 0.081025
1.000000 0.000000 0.084352
1.000000 0.000000 0.088716
0.186404 0.162448 0.156893
0.186404 0.162448 0.156893
0.186404 0.162448 0.156893
0.193545 0.162936 0.156619
0.212802 0.162631 0.155947
0.234684 0.161776 0.155123
0.260594 0.160586 0.154055
0.292454 0.158297 0.152560
0.329900 0.154604 0.150546
0.369421 0.149874 0.148074
0.408392 0.144106 0.145266
0.446876 0.137240 0.142092
0.485389 0.129397 0.138430
0.524498 0.121675 0.135775
0.564691 0.113466 0.133455
0.606928 0.103975 0.130617
0.651545 0.091463 0.127138
0.696559 0.076051 0.123140
0.740841 0.051179 0.118624
0.786252 0.000000 0.113222
0.829465 0.000000 0.107210
0.869505 0.000000 0.101289
0.906096 0.000000 0.095552
0.939208 0.000000 0.090455
0.968994 0.000000 0.085634
0.995819 0.000000 0.082002
1.000000 0.000000 0.079194
1.000000 0.000000 0.078340
1.000000 0.000000 0.078523
1.000000 0.000000 0.080415
1.000000 0.000000 0.083436
1.000000 0.000000 0.088136
0.186404 0.162448 0.156893
0.186404 0.162448 0.156893
0.186404 0.162448 0.156893
0.192905 0.164828 0.156466
0.211521 0.166842 0.155612
0.234195 0.167147 0.154696
0.260929 0.166232 0.153536
0.292790 0.164309 0.152010
0.330358 0.161440 0.149905
0.369696 0.157198 0.147433
0.408606 0.152377 0.144564
0.447120 0.146304 0.141329
0.485603 0.138888 0.137819
0.524651 0.132815 0.135439
0.564752 0.126162 0.133242
0.607050 0.117586 0.130220
0.651667 0.107698 0.126864
0.696620 0.095857 0.122835
0.740902 0.080934 0.118288
0.786221 0.061891 0.112642
0.829313 0.019318 0.106813
0.869261 0.000000 0.100649
0.905852 0.000000 0.094850
0.938933 0.000000 0.089509
0.968719 0.000000 0.084993
0.995544 0.000000 0.081331
1.000000 0.000000 0.078859
1.000000 0.000000 0.078035
1.000000 0.000000 0.078279
1.000000 0.000000 0.080140
1.000000 0.000000 0.083253
1.000000 0.028504 0.088014
0.185397 0.170382 0.156497
0.186496 0.171023 0.156130
0.189120 0.171359 0.156008
0.196994 0.172366 0.155642
0.212131 0.174777 0.154879
0.230198 0.176120 0.154025
0.257359 0.176730 0.152712
0.290929 0.176455 0.150973
0.330571 0.175357 0.148592
0.370794 0.172671 0.145876
0.409552 0.168826 0.142916
0.447913 0.163943 0.139620
0.486275 0.158877 0.136782
0.525200 0.154269 0.134829
0.565393 0.148653 0.132448
0.607691 0.142306 0.129702
0.652247 0.135164 0.126253
0.697139 0.127230 0.121950
0.741512 0.118044 0.117250
0.786374 0.107729 0.111604
0.829191 0.096803 0.105531
0.868925 0.085969 0.099580
0.905486 0.075349 0.093721
0.938659 0.065919 0.088258
0.968536 0.058137 0.083711
0.995422 0.051514 0.079957
1.000000 0.050477 0.077516
1.000000 0.056428 0.076783
1.000000 0.064332 0.077089
1.000000 0.071656 0.079194
1.000000 0.081361 0.082795
1.000000 0.091676 0.087434
0.183078 0.188235 0.154574
0.185946 0.188266 0.154452
0.190127 0.188327 0.154330
0.199191 0.188632 0.153964
0.214755 0.188724 0.153384
0.234287 0.189090 0.152529
0.255375 0.190005 0.151461
0.284855 0.192233 0.149966
0.324987 0.193668 0.147158
0.366979 0.193668 0.144076
0.408026 0.191775 0.141054
0.448402 0.188937 0.138155
0.487343 0.185489 0.135958
0.526238 0.182010 0.133944
0.566461 0.177890 0.131441
0.608850 0.173953 0.128511
0.653529 0.168765 0.124971
0.698329 0.163607 0.120485
0.742947 0.157382 0.115602
0.787564 0.151125 0.109804
0.829953 0.144717 0.103639
0.869444 0.138613 0.097322
0.905730 0.133120 0.091341
0.938781 0.128237 0.086091
0.968566 0.124575 0.081514
0.995392 0.121920 0.078157
1.000000 0.121004 0.075837
1.000000 0.120882 0.075319
1.000000 0.122744 0.076173
1.000000 0.125612 0.078401
1.000000 0.129366 0.081971
1.000000 0.134310 0.087129
0.180301 0.208408 0.152407
0.183780 0.208347 0.152316
0.188327 0.208377 0.152163
0.198337 0.208286 0.151797
0.214572 0.208377 0.151186
0.235813 0.207919 0.150332
0.259770 0.207462 0.149264
0.287083 0.209873 0.147616
0.319249 0.215457 0.150240
0.360357 0.219364 0.148348
0.402502 0.220218 0.144930
0.443702 0.219089 0.141756
0.484291 0.217044 0.138552
0.525597 0.214237 0.134951
0.567895 0.211215 0.130739
0.610895 0.208103 0.127291
0.655604 0.204959 0.123293
0.700282 0.201602 0.118654
0.745083 0.197665 0.113436
0.789395 0.193698 0.107210
0.831479 0.189578 0.100801
0.870787 0.185306 0.094514
0.912352 0.182712 0.087770
0.944518 0.179355 0.082521
0.973419 0.176425 0.078798
0.999390 0.173861 0.075929
1.000000 0.172366 0.074403
1.000000 0.171481 0.074800
1.000000 0.171664 0.076204
1.000000 0.172305 0.079316
1.000000 0.173861 0.083864
1.000000 0.176303 0.089570
0.175906 0.233005 0.149386
0.179965 0.232883 0.149264
0.185306 0.232914 0.149081
0.196445 0.232914 0.148684
0.212772 0.232822 0.148074
0.236027 0.233066 0.147036
0.262364 0.232120 0.145876
0.290501 0.230930 0.144442
0.325139 0.236667 0.144503
0.360266 0.242771 0.147982
0.396826 0.249119 0.151614
0.439002 0.250370 0.147799
0.480507 0.250156 0.144167
0.522362 0.249058 0.140169
0.565270 0.247379 0.135622
0.610101 0.245487 0.130373
0.657130 0.243565 0.123720
0.704585 0.241154 0.115999
0.749447 0.238804 0.110140
0.793668 0.236179 0.103731
0.835599 0.233585 0.097108
0.874907 0.230503 0.090364
0.910948 0.227665 0.084108
0.943572 0.224674 0.079103
0.972869 0.222049 0.074769
0.998993 0.219364 0.072175
1.000000 0.217350 0.071565
1.000000 0.215702 0.072297
1.000000 0.214542 0.074556
1.000000 0.214054 0.078370
1.000000 0.214023 0.083009
1.000000 0.214725 0.089113
0.170382 0.262516 0.145357
0.175174 0.262455 0.145357
0.181399 0.262455 0.145327
0.194095 0.262486 0.145174
0.212497 0.262486 0.145083
0.235782 0.262547 0.144350
0.264378 0.262852 0.142519
0.294743 0.261509 0.141268
0.324926 0.258305 0.140597
0.363622 0.265690 0.140902
0.398749 0.271061 0.145510
0.434821 0.277348 0.150454
0.474128 0.281956 0.151888
0.516625 0.282689 0.147402
0.560082 0.282780 0.142519
0.605371 0.282628 0.136965
0.653071 0.282567 0.130007
0.701106 0.282017 0.122347
0.747951 0.280797 0.113436
0.793973 0.278996 0.103700
0.837217 0.276524 0.093080
0.875944 0.274327 0.086061
0.911559 0.271794 0.079652
0.943877 0.268894 0.074281
0.972839 0.266026 0.070497
0.998810 0.263340 0.068360
1.000000 0.260624 0.068299
1.000000 0.258274 0.069551
1.000000 0.256199 0.072694
1.000000 0.254612 0.077150
1.000000 0.253422 0.082887
1.000000 0.252720 0.089357
0.167544 0.296300 0.143587
0.172549 0.296391 0.143557
0.179477 0.296422 0.143465
0.193149 0.296269 0.143496
0.213077 0.296269 0.143343
0.236728 0.296117 0.143099
0.265293 0.296208 0.141604
0.297673 0.296086 0.139040
0.330388 0.293950 0.137819
0.361273 0.289097 0.137026
0.400916 0.295598 0.136690
0.436347 0.300328 0.141909
0.472938 0.306432 0.147829
0.511162 0.314000 0.154696
0.554131 0.317540 0.152346
0.600153 0.319341 0.146212
0.648737 0.321294 0.139101
0.697078 0.322545 0.131167
0.744228 0.322667 0.122713
0.790616 0.322332 0.112917
0.834287 0.321294 0.102571
0.874784 0.319097 0.091463
0.911650 0.316197 0.079805
0.944549 0.312779 0.068757
0.973175 0.309636 0.065583
0.998840 0.306218 0.064179
1.000000 0.303105 0.064698
1.000000 0.299931 0.067475
1.000000 0.297124 0.071015
1.000000 0.294621 0.076448
1.000000 0.292485 0.083009
1.000000 0.290715 0.090211
0.164645 0.331121 0.141756
0.170108 0.331121 0.141726
0.177340 0.330999 0.141695
0.191897 0.330938 0.141482
0.212619 0.330755 0.141360
0.237461 0.330480 0.141238
0.265080 0.330144 0.140841
0.297459 0.329656 0.138491
0.331914 0.328985 0.135531
0.365789 0.326024 0.133974
0.396887 0.320165 0.133364
0.436866 0.325231 0.131685
0.473030 0.330083 0.137514
0.510765 0.336553 0.144350
0.551019 0.345129 0.152010
0.594690 0.355169 0.159121
0.643824 0.359228 0.151614
0.692683 0.362097 0.143587
0.740322 0.364080 0.135164
0.787106 0.365179 0.125917
0.831113 0.365209 0.116243
0.871702 0.364019 0.106630
0.908659 0.361700 0.096864
0.941863 0.358526 0.087282
0.971618 0.354376 0.077607
0.998138 0.349645 0.067567
1.000000 0.345006 0.061158
1.000000 0.341222 0.065003
1.000000 0.337652 0.070497
1.000000 0.334356 0.076570
1.000000 0.331304 0.084016
1.000000 0.328588 0.091859
0.161288 0.365087 0.139925
0.167025 0.365057 0.139925
0.174716 0.365057 0.139651
0.189822 0.364874 0.139651
0.211276 0.364660 0.139498
0.236759 0.364355 0.139223
0.265080 0.364050 0.138918
0.295964 0.363531 0.137667
0.330602 0.362585 0.134615
0.366308 0.361456 0.131106
0.400793 0.357824 0.129519
0.432013 0.351354 0.128511
0.470863 0.354314 0.126894
0.510307 0.360967 0.131563
0.550317 0.368566 0.139040
0.593042 0.378698 0.147768
0.639002 0.391241 0.158145
0.686702 0.400824 0.160739
0.735042 0.404456 0.152193
0.782467 0.407202 0.143221
0.826963 0.408576 0.134554
0.867979 0.408301 0.126131
0.905272 0.406897 0.118196
0.938781 0.404211 0.110994
0.968719 0.400519 0.104433
0.995422 0.395880 0.098116
1.000000 0.390784 0.091890
1.000000 0.385168 0.085603
1.000000 0.379156 0.078157
1.000000 0.373846 0.078187
1.000000 0.369940 0.086122
1.000000 0.366339 0.094575
0.157717 0.399023 0.137606
0.163455 0.398993 0.137575
0.171511 0.398871 0.137514
0.187198 0.398749 0.137331
0.209110 0.398535 0.137179
0.235080 0.398260 0.136873
0.264042 0.397894 0.136416
0.294774 0.397559 0.135958
0.328557 0.396735 0.133791
0.364446 0.395392 0.129976
0.400885 0.393713 0.125887
0.436103 0.390051 0.123873
0.470436 0.385504 0.122194
0.508782 0.386664 0.120150
0.552361 0.395850 0.122927
0.595453 0.405341 0.131228
0.641566 0.417334 0.141299
0.688289 0.430701 0.154086
0.734615 0.445350 0.169986
0.782040 0.451698 0.166110
0.826596 0.454078 0.157748
0.867460 0.454719 0.150607
0.904479 0.453651 0.143832
0.937743 0.451240 0.138308
0.967437 0.447700 0.133364
0.993957 0.443244 0.129305
1.000000 0.438025 0.125612
1.000000 0.432380 0.122103
1.000000 0.426276 0.118624
1.000000 0.419776 0.114626
1.000000 0.413031 0.110445
1.000000 0.405707 0.104555
0.152743 0.434150 0.134676
0.159213 0.434089 0.134646
0.167330 0.433997 0.134585
0.183627 0.433783 0.134401
0.206546 0.433509 0.134066
0.233097 0.433143 0.133791
0.262516 0.432746 0.133333
0.293828 0.432319 0.132723
0.326604 0.431922 0.132204
0.362982 0.431098 0.128176
0.400183 0.430091 0.123781
0.437781 0.428321 0.118746
0.473640 0.424567 0.116213
0.506096 0.418006 0.114534
0.543175 0.416815 0.112062
0.591424 0.429419 0.111330
0.637293 0.440803 0.120729
0.683894 0.453376 0.132845
0.730495 0.467109 0.148653
0.776791 0.482246 0.167208
0.820676 0.495521 0.182895
0.862119 0.497353 0.175814
0.899596 0.497353 0.170047
0.933257 0.495613 0.165133
0.963287 0.492500 0.161105
0.990051 0.488289 0.157931
1.000000 0.483314 0.155428
1.000000 0.477821 0.153597
1.000000 0.471809 0.151705
1.000000 0.465553 0.150271
1.000000 0.458930 0.148531
1.000000 0.451972 0.146487
0.147005 0.469001 0.131136
0.153964 0.468910 0.131136
0.162417 0.468818 0.131044
0.179507 0.468666 0.130861
0.202884 0.468360 0.130526
0.230442 0.468177 0.130159
0.260746 0.468025 0.129580
0.292668 0.467903 0.128969
0.326055 0.467750 0.128328
0.361089 0.467445 0.126345
0.398657 0.466346 0.121340
0.436744 0.465064 0.115572
0.474495 0.462898 0.109804
0.510491 0.458656 0.106416
0.545037 0.453559 0.103029
0.578546 0.448280 0.100954
0.631678 0.464515 0.094911
0.678309 0.476692 0.106508
0.725216 0.489815 0.122560
0.772061 0.504265 0.141787
0.816373 0.518730 0.164034
0.857053 0.532616 0.186954
0.894408 0.539452 0.195529
0.928527 0.538537 0.191043
0.958892 0.535973 0.187564
0.985931 0.532158 0.184939
1.000000 0.527337 0.183261
1.000000 0.521996 0.182101
1.000000 0.516167 0.181521
1.000000 0.510033 0.181216
1.000000 0.503716 0.181369
1.000000 0.497078 0.181338
0.139803 0.506004 0.126467
0.146914 0.506035 0.126436
0.155978 0.505943 0.126345
0.174289 0.505852 0.126101
0.198825 0.505669 0.125887
0.227451 0.505516 0.125277
0.258549 0.505303 0.124880
0.291295 0.505119 0.124056
0.325353 0.505058 0.123293
0.360418 0.505180 0.122194
0.397559 0.504601 0.118227
0.436072 0.503349 0.111818
0.474769 0.501946 0.104219
0.512932 0.499336 0.097261
0.549035 0.494697 0.092897
0.583948 0.489509 0.088136
0.615229 0.481086 0.085847
0.670649 0.499580 0.073243
0.718929 0.513115 0.087190
0.766445 0.527276 0.108675
0.811460 0.541100 0.133883
0.852903 0.554253 0.160433
0.890349 0.566522 0.186252
0.923644 0.577935 0.211582
0.954192 0.577844 0.212680
0.981567 0.574517 0.210636
1.000000 0.570123 0.209384
1.000000 0.565057 0.209140
1.000000 0.559472 0.209323
1.000000 0.553582 0.210117
1.000000 0.547448 0.211460
1.000000 0.541131 0.213169
0.129671 0.545525 0.120089
0.137758 0.545586 0.120211
0.147524 0.545556 0.119936
0.167239 0.545525 0.119631
0.193790 0.545342 0.119356
0.223758 0.545373 0.118807
0.256046 0.545312 0.118044
0.289982 0.545403 0.117159
0.325078 0.545525 0.116213
0.360967 0.545678 0.114900
0.397559 0.545861 0.113649
0.436652 0.544701 0.106661
0.475776 0.543084 0.098207
0.515038 0.541131 0.087617
0.552972 0.537713 0.078553
0.589044 0.532555 0.072328
0.623835 0.526940 0.065278
0.653773 0.516838 0.061799
0.708614 0.534600 0.026551
0.759823 0.550774 0.053986
0.805966 0.564538 0.091066
0.848447 0.577264 0.125307
0.886809 0.588922 0.156649
0.920867 0.599390 0.185977
0.950774 0.609033 0.214115
0.977203 0.615747 0.236027
1.000000 0.611780 0.235172
1.000000 0.606989 0.235325
1.000000 0.601648 0.236301
1.000000 0.595880 0.237888
1.000000 0.589899 0.240146
1.000000 0.583886 0.243137
0.116487 0.586847 0.111910
0.125246 0.586877 0.111635
0.137087 0.586816 0.111727
0.158877 0.586755 0.111391
0.187106 0.586664 0.111055
0.219028 0.586603 0.110445
0.252873 0.586572 0.109773
0.288121 0.586542 0.108797
0.324193 0.586664 0.107637
0.360937 0.586755 0.106172
0.398322 0.586999 0.104677
0.436622 0.586725 0.101137
0.476387 0.585199 0.091432
0.516045 0.583215 0.079194
0.555505 0.580835 0.062989
0.593256 0.576806 0.039948
0.629236 0.571252 0.018585
0.664149 0.565545 0.000000
0.694331 0.555505 0.000000
0.747066 0.570947 0.000000
0.798917 0.588098 0.000000
0.842588 0.600641 0.067292
0.882048 0.611780 0.115297
0.917144 0.621637 0.152926
0.947936 0.630304 0.186038
0.974762 0.638300 0.217105
0.998108 0.646174 0.247257
1.000000 0.647425 0.261479
1.000000 0.642359 0.262974
1.000000 0.636927 0.265354
1.000000 0.631250 0.268498
1.000000 0.625574 0.272740
0.099245 0.628870 0.102052
0.110933 0.628931 0.101930
0.123323 0.632563 0.101045
0.148470 0.632471 0.100893
0.180056 0.632319 0.100496
0.214237 0.632136 0.099825
0.250034 0.631983 0.099062
0.286687 0.631739 0.098024
0.324224 0.631708 0.096712
0.362219 0.631708 0.095460
0.400336 0.631800 0.093721
0.438788 0.631861 0.091768
0.478492 0.630762 0.083772
0.518822 0.628717 0.068360
0.558801 0.626337 0.036744
0.598352 0.623621 0.000000
0.636255 0.619074 0.000000
0.672328 0.613428 0.000000
0.707332 0.607630 0.000000
0.737758 0.597498 0.000000
0.786557 0.608942 0.000000
0.837095 0.625788 0.000000
0.877775 0.636561 0.002350
0.913787 0.645747 0.104891
0.945312 0.653376 0.150057
0.972778 0.660121 0.187198
0.996643 0.666438 0.221164
1.000000 0.673030 0.253971
1.000000 0.680476 0.286992
1.000000 0.676844 0.293523
1.000000 0.671565 0.297581
1.000000 0.666285 0.302983
0.077211 0.672633 0.090059
0.090974 0.673121 0.089845
0.108766 0.673610 0.089418
0.137270 0.673976 0.089113
0.171450 0.674250 0.088502
0.208194 0.674250 0.088075
0.245701 0.674220 0.086732
0.283818 0.674098 0.085664
0.322393 0.674098 0.084291
0.361089 0.674128 0.082979
0.400092 0.674189 0.080812
0.439277 0.674220 0.078676
0.478431 0.674311 0.076234
0.519036 0.672450 0.058106
0.559503 0.670130 0.006378
0.599603 0.667567 0.000000
0.639277 0.664668 0.000000
0.676936 0.659907 0.000000
0.713313 0.654414 0.000000
0.748653 0.648798 0.000000
0.778531 0.638270 0.000000
0.822354 0.644739 0.000000
0.871183 0.660822 0.000000
0.908690 0.669795 0.000000
0.941436 0.676967 0.093080
0.969940 0.682826 0.146853
0.994720 0.687953 0.188388
1.000000 0.693050 0.225742
1.000000 0.698665 0.261692
1.000000 0.705470 0.298100
1.000000 0.710872 0.328527
1.000000 0.706233 0.335210
0.027192 0.715541 0.075746
0.066346 0.715999 0.075410
0.090028 0.716457 0.075196
0.124086 0.716793 0.074464
0.162539 0.717037 0.074006
0.201785 0.717006 0.073121
0.241306 0.716884 0.072175
0.280583 0.716732 0.070832
0.320256 0.716640 0.069093
0.359838 0.716579 0.067048
0.399481 0.716518 0.065522
0.439155 0.716457 0.062745
0.478645 0.716335 0.060151
0.518486 0.715663 0.045686
0.559350 0.713405 0.000000
0.599695 0.710842 0.000000
0.639643 0.708095 0.000000
0.679011 0.705135 0.000000
0.716609 0.700252 0.000000
0.752987 0.694972 0.000000
0.788327 0.689601 0.000000
0.817594 0.678645 0.000000
0.856413 0.679866 0.000000
0.901701 0.693904 0.000000
0.936980 0.701472 0.000000
0.966644 0.706661 0.079744
0.992370 0.710750 0.144289
1.000000 0.714473 0.190738
1.000000 0.718379 0.231571
1.000000 0.723171 0.270939
1.000000 0.729549 0.311009
1.000000 0.738705 0.354528
0.000000 0.757107 0.059632
0.010498 0.757504 0.059236
0.068482 0.757900 0.059113
0.111299 0.758236 0.058473
0.154055 0.758328 0.057771
0.195865 0.758267 0.055665
0.236820 0.758114 0.053681
0.277226 0.757900 0.051453
0.317601 0.757656 0.048096
0.357916 0.757412 0.044495
0.397955 0.757259 0.038483
0.437964 0.757015 0.032990
0.477668 0.756741 0.027131
0.517235 0.756374 0.020905
0.557488 0.754910 0.000000
0.598108 0.752560 0.000000
0.638300 0.749996 0.000000
0.678065 0.747372 0.000000
0.717372 0.744594 0.000000
0.754849 0.739895 0.000000
0.791287 0.735134 0.000000
0.826841 0.730220 0.000000
0.855528 0.719051 0.000000
0.889708 0.715175 0.000000
0.931060 0.726711 0.000000
0.963958 0.732601 0.000000
0.990661 0.735836 0.066011
1.000000 0.738308 0.144289
1.000000 0.740597 0.195499
1.000000 0.743435 0.240238
1.000000 0.747524 0.283696
1.000000 0.753872 0.328832
0.000000 0.798245 0.028809
0.000000 0.798428 0.028840
0.034119 0.798489 0.027466
0.100099 0.798550 0.027192
0.147280 0.798489 0.025788
0.190799 0.798276 0.024750
0.232975 0.798032 0.022492
0.274357 0.797726 0.019867
0.315312 0.797513 0.016449
0.356023 0.797208 0.012696
0.396338 0.796994 0.010132
0.436683 0.796628 0.005219
0.476539 0.796201 0.000061
0.515953 0.795712 0.000000
0.555200 0.795102 0.000000
0.595697 0.792905 0.000000
0.635767 0.790433 0.000000
0.675441 0.787839 0.000000
0.714687 0.785061 0.000000
0.753414 0.782162 0.000000
0.790402 0.777554 0.000000
0.826413 0.772885 0.000000
0.861540 0.768154 0.000000
0.889525 0.756741 0.000000
0.919371 0.747951 0.000000
0.956909 0.756863 0.000000
0.987518 0.761044 0.000000
1.000000 0.762509 0.036835
1.000000 0.763485 0.143740
1.000000 0.764584 0.200351
1.000000 0.766476 0.249546
1.000000 0.770108 0.297612
0.000000 0.835355 0.005035
0.000000 0.835508 0.005066
0.000519 0.835630 0.004639
0.093324 0.835569 0.004669
0.142611 0.835447 0.003632
0.187320 0.835203 0.001770
0.229831 0.834897 0.001038
0.271305 0.834531 0.000000
0.312718 0.834134 0.000000
0.353460 0.833707 0.000000
0.393866 0.833341 0.000000
0.433906 0.832853 0.000000
0.473640 0.832273 0.000000
0.513115 0.831601 0.000000
0.552056 0.830930 0.000000
0.591180 0.829831 0.000000
0.631128 0.827451 0.000000
0.670619 0.825010 0.000000
0.709712 0.822416 0.000000
0.748318 0.819760 0.000000
0.786374 0.816831 0.000000
0.822934 0.812528 0.000000
0.858518 0.808225 0.000000
0.893278 0.803891 0.000000
0.920195 0.792020 0.000000
0.947173 0.780270 0.000000
0.980560 0.785367 0.000000
1.000000 0.787869 0.000000
1.000000 0.787686 0.000000
1.000000 0.787167 0.144259
1.000000 0.787106 0.206577
1.000000 0.788235 0.260655
0.000000 0.870939 0.000000
0.000000 0.871061 0.000000
0.001556 0.871092 0.000000
0.092073 0.871000 0.000000
0.141421 0.870787 0.000000
0.185702 0.870420 0.000000
0.228244 0.869993 0.000000
0.269932 0.869474 0.000000
0.310918 0.868864 0.000000
0.351354 0.868223 0.000000
0.391363 0.867582 0.000000
0.431006 0.866850 0.000000
0.470375 0.866087 0.000000
0.509422 0.865232 0.000000
0.548058 0.864225 0.000000
0.586175 0.863218 0.000000
0.624964 0.861387 0.000000
0.664057 0.858946 0.000000
0.702754 0.856535 0.000000
0.741054 0.854002 0.000000
0.778927 0.851469 0.000000
0.816129 0.848539 0.000000
0.852049 0.844511 0.000000
0.887053 0.840421 0.000000
0.921141 0.836271 0.000000
0.948516 0.825681 0.000000
0.973693 0.812802 0.000000
1.000000 0.812985 0.000000
1.000000 0.813443 0.000000
1.000000 0.811582 0.000000
1.000000 0.809659 0.146334
1.000000 0.808377 0.215030
0.000000 0.902434 0.000977
0.000000 0.902525 0.001312
0.018708 0.902556 0.001251
0.095949 0.902464 0.000671
0.142855 0.902190 0.000610
0.186343 0.901823 0.000000
0.227970 0.901396 0.000000
0.268833 0.900847 0.000000
0.309300 0.900267 0.000000
0.349279 0.899626 0.000000
0.388708 0.898924 0.000000
0.428138 0.898192 0.000000
0.467018 0.897368 0.000000
0.505455 0.896483 0.000000
0.543633 0.895445 0.000000
0.581353 0.894377 0.000000
0.618769 0.893217 0.000000
0.657160 0.891081 0.000000
0.695338 0.888792 0.000000
0.733211 0.886412 0.000000
0.770626 0.883970 0.000000
0.807614 0.881498 0.000000
0.843961 0.878569 0.000000
0.879179 0.874846 0.000000
0.913542 0.871031 0.000000
0.947051 0.867247 0.000000
0.974823 0.858000 0.000000
0.998077 0.843717 0.000000
1.000000 0.839567 0.000000
1.000000 0.837858 0.000000
1.000000 0.834226 0.000000
1.000000 0.830747 0.151064
0.000000 0.931731 0.021942
0.000000 0.931762 0.021363
0.061250 0.931731 0.021729
0.106081 0.931579 0.021607
0.148348 0.931273 0.021027
0.189456 0.930877 0.020569
0.229496 0.930388 0.019409
0.269200 0.929808 0.018341
0.308659 0.929168 0.018311
0.347692 0.928496 0.017121
0.386572 0.927733 0.016846
0.425055 0.927001 0.016266
0.463325 0.926116 0.015808
0.501335 0.925139 0.015534
0.538842 0.924071 0.015625
0.576043 0.922942 0.015717
0.612818 0.921691 0.016297
0.649531 0.920226 0.000000
0.687068 0.918090 0.000000
0.724300 0.915892 0.000000
0.761166 0.913634 0.000000
0.797665 0.911315 0.000000
0.833707 0.908934 0.000000
0.869108 0.906065 0.000000
0.903593 0.902586 0.000000
0.937255 0.899107 0.000000
0.970123 0.895689 0.000000
0.999390 0.889067 0.000000
1.000000 0.872435 0.000000
1.000000 0.864317 0.000000
1.000000 0.860349 0.000000
1.000000 0.854765 0.000000
0.019440 0.958373 0.054658
0.062562 0.958373 0.054475
0.086366 0.958343 0.054810
0.119875 0.958160 0.054017
0.157534 0.957885 0.054353
0.195285 0.957580 0.054810
0.233402 0.957214 0.054475
0.271580 0.956817 0.054932
0.309941 0.956359 0.056977
0.347936 0.955840 0.057435
0.385870 0.955230 0.059113
0.423651 0.954559 0.059876
0.461128 0.953796 0.060700
0.498421 0.952880 0.061677
0.535302 0.951812 0.062501
0.571801 0.950652 0.063508
0.607965 0.949371 0.064668
0.643610 0.948089 0.065827
0.679805 0.946349 0.030030
0.716243 0.944305 0.000000
0.752346 0.942199 0.000000
0.788144 0.940032 0.000000
0.823606 0.937774 0.000000
0.858640 0.935454 0.000000
0.893126 0.932677 0.000000
0.926757 0.929473 0.000000
0.959716 0.926299 0.000000
0.991913 0.923217 0.000000
1.000000 0.919066 0.000000
1.000000 0.900053 0.000000
1.000000 0.888273 0.000000
1.000000 0.881865 0.000000
0.088594 0.983856 0.078798
0.100679 0.983856 0.078767
0.115175 0.983764 0.079011
0.140291 0.983581 0.078798
0.172000 0.983276 0.078706
0.205722 0.982910 0.079072
0.240879 0.982452 0.079225
0.276555 0.981933 0.079133
0.312871 0.981353 0.079713
0.349462 0.980682 0.080659
0.386023 0.979919 0.080995
0.422583 0.979095 0.082002
0.458991 0.978180 0.082826
0.495216 0.977142 0.083711
0.531151 0.976013 0.084749
0.566827 0.974792 0.086122
