其他预设/【239】阳光逆光效果预设26款/1.LUT预设（视频调色-PR-AE-PS-FCPX-达芬奇用）/阳光逆光预设__-18.cube
# Created by Adobe Lightroom plugin Export LUT (1.17.0)
# www.johnrellis.com/lightroom/exportlut.htm
# Preset: 阳光逆光预设[素锦印象]-18
# Color profile: /Library/Application Support/Adobe/Color/Profiles/Recommended/AdobeRGB1998.icc
LUT_3D_SIZE 32
0.000000 0.000000 0.000000
0.044556 0.000824 0.000946
0.074250 0.001373 0.000397
0.107607 0.005249 0.002014
0.147738 0.007843 0.003113
0.187686 0.011902 0.002777
0.227085 0.015167 0.002350
0.265507 0.018769 0.000793
0.303746 0.024781 0.000000
0.342046 0.030884 0.000000
0.381506 0.032807 0.000000
0.421302 0.038911 0.000000
0.461555 0.047761 0.000000
0.502220 0.055909 0.000000
0.543053 0.064027 0.000000
0.584009 0.070130 0.000000
0.623682 0.076478 0.000000
0.661036 0.083894 0.000000
0.696101 0.091005 0.000000
0.730159 0.098909 0.000000
0.763424 0.106294 0.000000
0.795987 0.113710 0.000000
0.827848 0.120912 0.000000
0.858701 0.128878 0.000000
0.888701 0.136416 0.000000
0.917601 0.144350 0.000000
0.945403 0.152956 0.000000
0.972076 0.161959 0.000000
0.997620 0.171145 0.000000
1.000000 0.181460 0.000000
1.000000 0.192325 0.041382
1.000000 0.204257 0.072969
0.002899 0.041718 0.000000
0.046418 0.040375 0.000885
0.072358 0.042023 0.004791
0.105989 0.048127 0.007324
0.146212 0.054047 0.006989
0.186374 0.058137 0.006592
0.226078 0.059663 0.005066
0.264561 0.061707 0.003418
0.302922 0.063630 0.000427
0.341588 0.065278 0.000000
0.380987 0.066560 0.000000
0.420844 0.068757 0.000000
0.461158 0.071809 0.000000
0.501884 0.076112 0.000000
0.542687 0.080964 0.000000
0.583764 0.085847 0.000000
0.623407 0.091279 0.000000
0.660792 0.097108 0.000000
0.695888 0.103395 0.000000
0.729915 0.110079 0.000000
0.763210 0.116365 0.000000
0.795834 0.122591 0.000000
0.827665 0.129458 0.000000
0.858579 0.136416 0.000000
0.888579 0.143465 0.000000
0.917479 0.151278 0.000000
0.945312 0.158938 0.000000
0.971954 0.167758 0.000000
0.997528 0.176730 0.000000
1.000000 0.186465 0.000000
1.000000 0.197055 0.044221
1.000000 0.208560 0.073915
0.007446 0.071626 0.000519
0.050233 0.070802 0.000671
0.075135 0.070802 0.001343
0.104982 0.072786 0.010773
0.144106 0.077607 0.014405
0.184787 0.080690 0.012543
0.224582 0.082094 0.009888
0.263432 0.083467 0.007111
0.301915 0.084871 0.001953
0.340734 0.085695 0.000000
0.380224 0.087282 0.000000
0.420172 0.089204 0.000000
0.460548 0.091463 0.000000
0.501366 0.094942 0.000000
0.542229 0.098970 0.000000
0.583368 0.102785 0.000000
0.623041 0.107942 0.000000
0.660426 0.112581 0.000000
0.695583 0.117617 0.000000
0.729610 0.123201 0.000000
0.762997 0.128664 0.000000
0.795621 0.134005 0.000000
0.827451 0.140414 0.000000
0.858396 0.146242 0.000000
0.888396 0.153079 0.000000
0.917327 0.159854 0.000000
0.945129 0.167208 0.000000
0.971832 0.175204 0.000000
0.997406 0.183597 0.000000
1.000000 0.192966 0.000153
1.000000 0.203037 0.048615
1.000000 0.214237 0.075868
0.018982 0.103792 0.001038
0.058442 0.103517 0.003265
0.078950 0.103182 0.004028
0.109468 0.103487 0.003845
0.144900 0.106722 0.015473
0.181216 0.110719 0.025757
0.221500 0.113191 0.020386
0.260990 0.114778 0.014069
0.299779 0.115999 0.007752
0.339025 0.116945 0.000000
0.378637 0.118532 0.000000
0.418860 0.120211 0.000000
0.459358 0.122866 0.000000
0.500145 0.125643 0.000000
0.541222 0.128450 0.000000
0.582422 0.131899 0.000000
0.622217 0.135561 0.000000
0.659632 0.139284 0.000000
0.694881 0.143008 0.000000
0.728939 0.147311 0.000000
0.762417 0.151522 0.000000
0.795102 0.155947 0.000000
0.827024 0.160647 0.000000
0.857969 0.165774 0.000000
0.887999 0.171237 0.000000
0.916991 0.176913 0.000000
0.944823 0.183322 0.000000
0.971557 0.190494 0.000000
0.997131 0.198001 0.000000
1.000000 0.206271 0.009094
1.000000 0.215488 0.055390
1.000000 0.225834 0.078950
0.034272 0.140963 0.000702
0.065797 0.140505 0.001923
0.085725 0.139986 0.003784
0.114931 0.139925 0.004730
0.148775 0.140352 0.002258
0.185489 0.143130 0.012268
0.219669 0.144625 0.025971
0.257328 0.147158 0.024018
0.296818 0.149172 0.014801
0.336278 0.151095 0.005127
0.376287 0.152895 0.000000
0.416724 0.155093 0.000000
0.457465 0.157504 0.000000
0.498421 0.160220 0.000000
0.539635 0.162905 0.000000
0.580926 0.165988 0.000000
0.620874 0.168887 0.000000
0.658442 0.171572 0.000000
0.693751 0.174350 0.000000
0.728023 0.177371 0.000000
0.761532 0.180514 0.000000
0.794339 0.184024 0.000000
0.826291 0.187655 0.000000
0.857359 0.191623 0.000000
0.887419 0.195895 0.000000
0.916442 0.200565 0.000000
0.944305 0.206027 0.000000
0.971069 0.211704 0.000000
0.996674 0.218173 0.000000
1.000000 0.225528 0.023651
1.000000 0.233524 0.062837
1.000000 0.242710 0.083925
0.053071 0.178286 0.000000
0.073884 0.178012 0.000000
0.091829 0.177493 0.000000
0.120424 0.176638 0.001343
0.153262 0.176791 0.000000
0.187991 0.177035 0.000000
0.225589 0.179721 0.002472
0.258854 0.179904 0.014954
0.292821 0.181582 0.026337
0.332830 0.184360 0.015717
0.373175 0.187320 0.005127
0.414008 0.189914 0.000000
0.454871 0.192721 0.000000
0.496193 0.195377 0.000000
0.537499 0.198184 0.000000
0.579004 0.201144 0.000000
0.619104 0.203799 0.000000
0.656764 0.206088 0.000000
0.692256 0.208072 0.000000
0.726680 0.210361 0.000000
0.760311 0.212680 0.000000
0.793271 0.215183 0.000000
0.825345 0.217838 0.000000
0.856504 0.221012 0.000000
0.886625 0.224399 0.000000
0.915709 0.228061 0.000000
0.943633 0.232425 0.000000
0.970428 0.237064 0.000000
0.996063 0.242527 0.001190
1.000000 0.248631 0.042115
1.000000 0.255619 0.070893
1.000000 0.263798 0.090059
0.065370 0.215244 0.000000
0.081758 0.214908 0.000000
0.098360 0.214450 0.000000
0.125917 0.213718 0.000000
0.157839 0.213138 0.000000
0.191867 0.213291 0.000000
0.226810 0.213413 0.000000
0.264744 0.216037 0.000000
0.297887 0.215702 0.001312
0.332097 0.217350 0.016510
0.369360 0.220493 0.022187
0.410498 0.224094 0.009461
0.451728 0.227512 0.000000
0.493263 0.230625 0.000000
0.534905 0.233646 0.000000
0.576562 0.236606 0.000000
0.616846 0.239231 0.000000
0.654749 0.241184 0.000000
0.690425 0.242771 0.000000
0.725002 0.244388 0.000000
0.758816 0.246159 0.000000
0.791928 0.247868 0.000000
0.824094 0.250187 0.000000
0.855375 0.252384 0.000000
0.885618 0.254978 0.000000
0.914763 0.257877 0.000000
0.942779 0.261326 0.000000
0.969635 0.265110 0.000000
0.995331 0.269444 0.024231
1.000000 0.274723 0.060639
1.000000 0.280674 0.079683
1.000000 0.287846 0.097658
0.077058 0.251438 0.000000
0.090303 0.251286 0.000000
0.105653 0.250980 0.000000
0.131930 0.250248 0.000000
0.163058 0.249271 0.000000
0.196201 0.249119 0.000000
0.230442 0.249180 0.000000
0.265354 0.249393 0.000000
0.303899 0.252476 0.000000
0.337530 0.252323 0.000000
0.372229 0.254063 0.005676
0.407691 0.256931 0.026795
0.448096 0.261021 0.019074
0.489906 0.264836 0.005249
0.531823 0.268498 0.000000
0.573693 0.271824 0.000000
0.614160 0.274540 0.000000
0.652277 0.276402 0.000000
0.688167 0.277745 0.000000
0.723049 0.278935 0.000000
0.757046 0.280339 0.000000
0.790280 0.281712 0.000000
0.822629 0.283330 0.000000
0.854032 0.285039 0.000000
0.884367 0.286870 0.000000
0.913603 0.289281 0.000000
0.941680 0.291936 0.000000
0.968627 0.294926 0.014221
0.994385 0.298558 0.050477
1.000000 0.302861 0.072114
1.000000 0.308019 0.089235
1.000000 0.314183 0.105837
0.090486 0.287816 0.000000
0.102113 0.287602 0.000000
0.115572 0.287419 0.000000
0.139712 0.286717 0.000000
0.169772 0.285985 0.000000
0.201480 0.285191 0.000000
0.234897 0.285313 0.000000
0.269291 0.285527 0.000000
0.304295 0.285649 0.000000
0.343694 0.289586 0.000000
0.377905 0.289830 0.000000
0.412970 0.291386 0.000000
0.448707 0.294377 0.016327
0.486091 0.298222 0.035492
0.528130 0.302495 0.018097
0.570245 0.306523 0.001831
0.611048 0.309422 0.000000
0.649470 0.311467 0.000000
0.685573 0.312749 0.000000
0.720699 0.313756 0.000000
0.754940 0.314855 0.000000
0.788418 0.315831 0.000000
0.820890 0.317144 0.000000
0.852445 0.318425 0.000000
0.882902 0.319982 0.000000
0.912291 0.321477 0.000000
0.940490 0.323613 0.015229
0.967468 0.325994 0.046937
0.993317 0.328893 0.068086
1.000000 0.332525 0.083894
1.000000 0.336889 0.099458
1.000000 0.342229 0.115236
0.104585 0.324651 0.000000
0.114504 0.324468 0.000000
0.126497 0.324254 0.000000
0.148898 0.323735 0.000000
0.177279 0.323095 0.000000
0.208133 0.322148 0.000000
0.240635 0.321935 0.000000
0.274357 0.322087 0.000000
0.308812 0.322423 0.000000
0.343877 0.322728 0.000000
0.384131 0.327214 0.000000
0.418769 0.327550 0.000000
0.454170 0.329229 0.000000
0.490089 0.331975 0.003265
0.526513 0.335607 0.032776
0.566491 0.340002 0.035676
0.607630 0.343572 0.017090
0.646265 0.345830 0.003174
0.682643 0.347234 0.000000
0.717983 0.348272 0.000000
0.752529 0.349279 0.000000
0.786160 0.350256 0.000000
0.818906 0.351110 0.000000
0.850614 0.352148 0.000000
0.881285 0.353124 0.006867
0.910735 0.354406 0.025330
0.939055 0.355901 0.050111
0.966155 0.357824 0.067475
0.992065 0.360113 0.081514
1.000000 0.363134 0.095583
1.000000 0.366888 0.110170
1.000000 0.371527 0.125154
0.118532 0.362036 0.000000
0.127138 0.361975 0.000000
0.138216 0.361761 0.000000
0.158846 0.361364 0.000000
0.185763 0.360662 0.000000
0.215640 0.359991 0.000000
0.247440 0.359136 0.000000
0.280278 0.359380 0.000000
0.314214 0.359594 0.000000
0.349035 0.359899 0.000000
0.384222 0.360266 0.000000
0.425086 0.365362 0.000000
0.460090 0.365820 0.000000
0.495735 0.367468 0.000000
0.531884 0.370031 0.000000
0.568292 0.373449 0.018128
0.603876 0.376745 0.055116
0.642573 0.379583 0.043763
0.679316 0.381140 0.032227
0.715053 0.382330 0.023133
0.749813 0.383368 0.018280
0.783749 0.384131 0.019104
0.816709 0.385016 0.021912
0.848569 0.385809 0.030732
0.879362 0.386725 0.045350
0.909026 0.387579 0.060182
0.937407 0.388739 0.070802
0.964630 0.390173 0.082460
0.990631 0.392065 0.094484
1.000000 0.394446 0.107607
1.000000 0.397681 0.121309
1.000000 0.401831 0.135897
0.132753 0.400061 0.000000
0.140352 0.399969 0.000000
0.150484 0.399756 0.000000
0.169223 0.399390 0.000000
0.194827 0.398901 0.000000
0.223758 0.398169 0.000000
0.254765 0.397467 0.000000
0.286900 0.397131 0.000000
0.320348 0.397375 0.000000
0.354650 0.397650 0.000000
0.389593 0.397986 0.000000
0.424872 0.398352 0.000000
0.466590 0.403906 0.000000
0.501884 0.404456 0.000000
0.537560 0.405921 0.000000
0.573541 0.408240 0.000000
0.608576 0.410437 0.002747
0.641901 0.412390 0.048798
0.675654 0.414221 0.065003
0.711727 0.415778 0.060883
0.746853 0.416938 0.058717
0.781003 0.417914 0.058778
0.814206 0.418677 0.059876
0.846311 0.419440 0.063722
0.877287 0.420081 0.069947
0.907042 0.420844 0.077424
0.935607 0.421698 0.086213
0.962951 0.422797 0.096345
0.989014 0.424292 0.107515
1.000000 0.426368 0.119783
1.000000 0.429114 0.133272
1.000000 0.432715 0.147280
0.146426 0.438514 0.000000
0.153231 0.438422 0.000000
0.162387 0.438300 0.000000
0.180087 0.437964 0.000000
0.204227 0.437537 0.000000
0.232090 0.436927 0.000000
0.262425 0.436164 0.000000
0.293980 0.435248 0.000000
0.326879 0.435462 0.000000
0.360693 0.435737 0.000000
0.395270 0.436133 0.000000
0.430396 0.436378 0.000000
0.466011 0.436866 0.000000
0.508232 0.442725 0.000000
0.543694 0.443183 0.000000
0.579156 0.444373 0.000000
0.613489 0.445258 0.000000
0.646174 0.445869 0.000000
0.677821 0.446662 0.043732
0.709285 0.448188 0.074464
0.743679 0.449866 0.077394
0.778103 0.450996 0.076905
0.811490 0.451972 0.078187
0.843809 0.452674 0.081605
0.875029 0.453254 0.086275
0.904936 0.453895 0.092805
0.933623 0.454566 0.100771
0.961059 0.455482 0.110201
0.987274 0.456641 0.120729
1.000000 0.458412 0.132631
1.000000 0.460792 0.145205
1.000000 0.463966 0.159152
0.159701 0.477363 0.000000
0.166354 0.477211 0.000000
0.174563 0.477119 0.000000
0.191196 0.476875 0.000000
0.213993 0.476387 0.000000
0.240970 0.475807 0.000000
0.270451 0.475135 0.000000
0.301671 0.474372 0.000000
0.333898 0.473854 0.000000
0.367193 0.474159 0.000000
0.401404 0.474434 0.000000
0.436286 0.474800 0.000000
0.471565 0.475135 0.000000
0.507317 0.475532 0.000000
0.549645 0.481422 0.000000
0.585016 0.481636 0.000000
0.618585 0.481086 0.000000
0.650721 0.480568 0.000000
0.681880 0.480140 0.000000
0.712917 0.480507 0.039216
0.743709 0.481666 0.075868
0.774899 0.483467 0.093874
0.808621 0.484627 0.094667
0.841184 0.485481 0.097261
0.872496 0.486183 0.101717
0.902617 0.486732 0.107546
0.931456 0.487312 0.114961
0.959014 0.488045 0.123903
0.985351 0.489082 0.134005
1.000000 0.490547 0.145296
1.000000 0.492714 0.157992
1.000000 0.495491 0.171481
0.173251 0.516320 0.000000
0.178988 0.516258 0.000000
0.186526 0.516106 0.000000
0.202274 0.515862 0.000000
0.224186 0.515496 0.000000
0.250126 0.515007 0.000000
0.278782 0.514305 0.000000
0.309300 0.513542 0.000000
0.341070 0.512688 0.000000
0.374060 0.512718 0.000000
0.407752 0.512993 0.000000
0.442267 0.513268 0.000000
0.477272 0.513634 0.000000
0.512871 0.514061 0.000000
0.548791 0.514305 0.000000
0.589868 0.519036 0.000000
0.623865 0.518059 0.000000
0.655390 0.516045 0.000000
0.686152 0.514427 0.000000
0.716793 0.513725 0.000000
0.747189 0.513756 0.037598
0.777340 0.514611 0.079103
0.807034 0.516228 0.102541
0.838315 0.517693 0.112673
0.869871 0.518486 0.116732
0.900145 0.519127 0.122225
0.929107 0.519707 0.129305
0.956847 0.520439 0.137758
0.983246 0.521355 0.147524
1.000000 0.522667 0.158541
1.000000 0.524529 0.170993
1.000000 0.527092 0.184451
0.186191 0.555413 0.000000
0.191745 0.555383 0.000000
0.198734 0.555261 0.000000
0.213413 0.554986 0.000000
0.234226 0.554559 0.000000
0.259281 0.554101 0.000000
0.287083 0.553491 0.000000
0.316991 0.552758 0.000000
0.348486 0.551873 0.000000
0.380682 0.551141 0.000000
0.413977 0.551202 0.000000
0.448035 0.551415 0.000000
0.482490 0.551446 0.000000
0.517540 0.551568 0.000000
0.552911 0.551568 0.000000
0.588556 0.551598 0.000000
0.627466 0.554498 0.000000
0.660151 0.552514 0.000000
0.690578 0.549676 0.000000
0.720790 0.547814 0.000000
0.750851 0.546715 0.000000
0.780606 0.546532 0.042451
0.809995 0.547051 0.084138
0.838804 0.548272 0.109407
0.867002 0.550347 0.131594
0.897490 0.551110 0.136934
0.926635 0.551751 0.143435
0.954467 0.552483 0.151675
0.980987 0.553399 0.161379
1.000000 0.554620 0.172091
1.000000 0.556329 0.184421
1.000000 0.558740 0.197757
0.199008 0.592889 0.000000
0.203922 0.592798 0.000000
0.210636 0.592706 0.000000
0.224399 0.592462 0.000000
0.244236 0.592065 0.000000
0.268101 0.591547 0.000000
0.295048 0.590875 0.000000
0.324254 0.590112 0.000000
0.354925 0.589166 0.000000
0.386694 0.588128 0.000000
0.419287 0.587640 0.000000
0.452583 0.587549 0.000000
0.486519 0.587457 0.000000
0.520867 0.587274 0.000000
0.555627 0.587060 0.000000
0.590539 0.586847 0.000000
0.625696 0.586542 0.000000
0.662928 0.588067 0.000000
0.695033 0.585718 0.000000
0.724910 0.582696 0.000000
0.754604 0.580499 0.000000
0.783993 0.579187 0.000000
0.813046 0.578576 0.052125
0.841520 0.578851 0.091371
0.869383 0.579767 0.118318
0.896422 0.581567 0.142275
0.923980 0.583337 0.157992
0.951965 0.584131 0.166140
0.978576 0.585016 0.175479
1.000000 0.586236 0.186252
1.000000 0.587854 0.198184
1.000000 0.590112 0.211582
0.211582 0.628138 0.000000
0.216251 0.628046 0.000000
0.222324 0.627955 0.000000
0.235294 0.627680 0.000000
0.253910 0.627283 0.000000
0.276646 0.626795 0.000000
0.302708 0.626123 0.000000
0.330816 0.625330 0.000000
0.360845 0.624445 0.000000
0.392004 0.623377 0.000000
0.423804 0.622339 0.000000
0.456489 0.622126 0.000000
0.489723 0.621912 0.000000
0.523583 0.621698 0.000000
0.557763 0.621454 0.000000
0.592218 0.621180 0.000000
0.627039 0.620905 0.000000
0.661921 0.620600 0.000000
0.697536 0.620905 0.000000
0.729091 0.618280 0.000000
0.758419 0.614984 0.000000
0.787472 0.612482 0.000000
0.816159 0.610864 0.000000
0.844358 0.609979 0.064271
0.871885 0.609827 0.101259
0.898650 0.610498 0.129458
0.924559 0.612146 0.154788
0.949645 0.614923 0.178805
0.976043 0.616205 0.189944
1.000000 0.617426 0.200504
1.000000 0.619043 0.212497
1.000000 0.621180 0.225803
0.224002 0.662226 0.000000
0.228153 0.662196 0.000000
0.234073 0.662074 0.000000
0.246098 0.661860 0.000000
0.263523 0.661494 0.000000
0.285252 0.661036 0.000000
0.310216 0.660456 0.000000
0.337621 0.659663 0.000000
0.366766 0.658869 0.000000
0.397070 0.657954 0.000000
0.428473 0.656855 0.000000
0.460426 0.656123 0.000000
0.493111 0.655909 0.000000
0.526329 0.655665 0.000000
0.559991 0.655390 0.000000
0.593927 0.655055 0.000000
0.628290 0.654719 0.000000
0.662745 0.654353 0.000000
0.697414 0.654017 0.000000
0.731685 0.653254 0.000000
0.762325 0.650080 0.000000
0.791012 0.646540 0.000000
0.819364 0.643763 0.000000
0.847227 0.641810 0.000000
0.874388 0.640558 0.077119
0.900877 0.640070 0.113313
0.926574 0.640558 0.142336
0.951385 0.642115 0.168948
0.975219 0.644892 0.194553
0.998810 0.648096 0.215183
1.000000 0.649714 0.227085
1.000000 0.651911 0.240482
0.235843 0.695888 0.000000
0.240116 0.695766 0.000000
0.245335 0.695705 0.000000
0.256535 0.695521 0.000000
0.273167 0.695155 0.000000
0.294011 0.694728 0.000000
0.317937 0.694148 0.000000
0.344244 0.693507 0.000000
0.372473 0.692714 0.000000
0.402289 0.691798 0.000000
0.433051 0.690852 0.000000
0.464607 0.689754 0.000000
0.496529 0.689326 0.000000
0.529198 0.689082 0.000000
0.562310 0.688746 0.000000
0.595789 0.688411 0.000000
0.629572 0.688045 0.000000
0.663600 0.687678 0.000000
0.697810 0.687190 0.000000
0.732174 0.686763 0.000000
0.765072 0.685084 0.000000
0.794583 0.681209 0.000000
0.822599 0.677333 0.000000
0.850095 0.674220 0.000000
0.876982 0.671870 0.011322
0.903197 0.670222 0.091554
0.928557 0.669551 0.127565
0.953155 0.669886 0.157473
0.976776 0.671412 0.185306
0.999298 0.674372 0.212131
1.000000 0.679011 0.238926
1.000000 0.682094 0.255619
0.247715 0.728847 0.000000
0.251530 0.728786 0.000000
0.256596 0.728664 0.000000
0.267124 0.728511 0.000000
0.282872 0.728176 0.000000
0.302647 0.727749 0.000000
0.325536 0.727260 0.000000
0.350896 0.726619 0.000000
0.378515 0.725856 0.000000
0.407568 0.725002 0.000000
0.437598 0.724117 0.000000
0.468635 0.723110 0.000000
0.500114 0.722164 0.000000
0.532097 0.721828 0.000000
0.564599 0.721523 0.000000
0.597559 0.721157 0.000000
0.630854 0.720699 0.000000
0.664454 0.720272 0.000000
0.698177 0.719814 0.000000
0.732052 0.719265 0.000000
0.766018 0.718776 0.000000
0.797757 0.716243 0.000000
0.825834 0.711360 0.000000
0.853056 0.707149 0.000000
0.879606 0.703670 0.000000
0.905486 0.700984 0.056886
0.930632 0.699092 0.108675
0.954925 0.698207 0.143893
0.978302 0.698482 0.174624
1.000000 0.700130 0.203372
1.000000 0.703334 0.231754
1.000000 0.708705 0.259983
0.259281 0.761105 0.000000
0.262760 0.761105 0.000000
0.267521 0.760983 0.000000
0.277501 0.760800 0.000000
0.292454 0.760525 0.000000
0.311376 0.760128 0.000000
0.333318 0.759640 0.000000
0.357885 0.759030 0.000000
0.384527 0.758358 0.000000
0.412818 0.757534 0.000000
0.442298 0.756680 0.000000
0.472694 0.755703 0.000000
0.503777 0.754635 0.000000
0.535180 0.753994 0.000000
0.567041 0.753597 0.000000
0.599481 0.753170 0.000000
0.632166 0.752743 0.000000
0.665217 0.752255 0.000000
0.698451 0.751766 0.000000
0.731868 0.751156 0.000000
0.765408 0.750607 0.000000
0.798978 0.749935 0.000000
0.829557 0.746670 0.000000
0.855985 0.740658 0.000000
0.882231 0.736049 0.000000
0.907836 0.732204 0.000000
0.932677 0.729213 0.081849
0.956756 0.727138 0.127108
0.979889 0.726162 0.162051
1.000000 0.726436 0.193606
1.000000 0.728450 0.223484
1.000000 0.732631 0.252811
0.270909 0.792630 0.000000
0.274235 0.792569 0.000000
0.278630 0.792538 0.000000
0.288243 0.792294 0.000000
0.302373 0.792020 0.000000
0.320195 0.791684 0.000000
0.341314 0.791226 0.000000
0.364813 0.790646 0.000000
0.390845 0.790005 0.000000
0.418280 0.789242 0.000000
0.447089 0.788418 0.000000
0.476814 0.787472 0.000000
0.507317 0.786435 0.000000
0.538384 0.785336 0.000000
0.569604 0.784939 0.000000
0.601373 0.784482 0.000000
0.633509 0.783963 0.000000
0.665980 0.783444 0.000000
0.698726 0.782834 0.000000
0.731594 0.782284 0.000000
0.764614 0.781613 0.000000
0.797726 0.780880 0.000000
0.830869 0.780179 0.000000
0.860288 0.776211 0.000000
0.884825 0.768887 0.000000
0.910155 0.763882 0.000000
0.934752 0.759731 0.010071
0.958526 0.756497 0.105135
0.981445 0.754330 0.147158
1.000000 0.753445 0.182010
1.000000 0.754299 0.213870
1.000000 0.757351 0.244572
0.282750 0.823270 0.000000
0.285832 0.823209 0.000000
0.290043 0.823117 0.000000
0.298863 0.822965 0.000000
0.312169 0.822721 0.000000
0.329229 0.822385 0.000000
0.349401 0.821927 0.000000
0.372198 0.821408 0.000000
0.397253 0.820737 0.000000
0.423926 0.820005 0.000000
0.451972 0.819211 0.000000
0.480964 0.818296 0.000000
0.510857 0.817319 0.000000
0.541405 0.816251 0.000000
0.572229 0.815366 0.000000
0.603388 0.814847 0.000000
0.634852 0.814298 0.000000
0.666743 0.813687 0.000000
0.698848 0.813107 0.000000
0.731228 0.812436 0.000000
0.763668 0.811704 0.000000
0.796231 0.810971 0.000000
0.828855 0.810178 0.000000
0.861540 0.809293 0.000000
0.889891 0.804776 0.000000
0.912444 0.796078 0.000000
0.936736 0.790738 0.000000
0.960327 0.786343 0.072969
0.983001 0.783078 0.128450
1.000000 0.781094 0.168185
1.000000 0.780819 0.202914
1.000000 0.782742 0.235264
0.294621 0.852903 0.000000
0.297459 0.852873 0.000000
0.301396 0.852811 0.000000
0.309789 0.852628 0.000000
0.322423 0.852354 0.000000
0.338567 0.852018 0.000000
0.357885 0.851591 0.000000
0.379797 0.851072 0.000000
0.403967 0.850462 0.000000
0.429877 0.849729 0.000000
0.457038 0.848966 0.000000
0.485512 0.848081 0.000000
0.514702 0.847135 0.000000
0.544610 0.846036 0.000000
0.575006 0.844968 0.000000
0.605493 0.844236 0.000000
0.636347 0.843656 0.000000
0.667567 0.843015 0.000000
0.699031 0.842344 0.000000
0.730770 0.841642 0.000000
0.762631 0.840848 0.000000
0.794644 0.840024 0.000000
0.826719 0.839170 0.000000
0.858793 0.838285 0.000000
0.890929 0.837339 0.000000
0.918395 0.832364 0.000000
0.938872 0.822293 0.000000
0.962097 0.816678 0.000000
0.984527 0.812314 0.103883
1.000000 0.809232 0.151736
1.000000 0.807828 0.190158
1.000000 0.808652 0.224582
0.306920 0.881468 0.000000
0.309636 0.881407 0.000000
0.313390 0.881346 0.000000
0.321294 0.881193 0.000000
0.333104 0.880949 0.000000
0.348486 0.880613 0.000000
0.366827 0.880217 0.000000
0.387915 0.879698 0.000000
0.411078 0.879088 0.000000
0.436042 0.878386 0.000000
0.462531 0.877623 0.000000
0.490150 0.876768 0.000000
0.518639 0.875822 0.000000
0.547967 0.874815 0.000000
0.577752 0.873716 0.000000
0.607904 0.872618 0.000000
0.637995 0.871977 0.000000
0.668513 0.871275 0.000000
0.699336 0.870573 0.000000
0.730373 0.869810 0.000000
0.761654 0.868986 0.000000
0.793057 0.868101 0.000000
0.824521 0.867216 0.000000
0.856016 0.866239 0.000000
0.887510 0.865232 0.000000
0.919036 0.864195 0.000000
0.945647 0.858915 0.000000
0.964446 0.847929 0.000000
0.986023 0.841855 0.065095
1.000000 0.837644 0.131411
1.000000 0.835142 0.175235
1.000000 0.834897 0.212528
0.319799 0.908934 0.000000
0.322332 0.908873 0.000000
0.325811 0.908782 0.000000
0.333104 0.908659 0.000000
0.344396 0.908415 0.000000
0.358923 0.908110 0.000000
0.376471 0.907683 0.000000
0.396521 0.907195 0.000000
0.418860 0.906584 0.000000
0.442878 0.905943 0.000000
0.468482 0.905180 0.000000
0.495277 0.904356 0.000000
0.523064 0.903410 0.000000
0.551598 0.902403 0.000000
0.580774 0.901305 0.000000
0.610376 0.900175 0.000000
0.640101 0.899199 0.000000
0.669795 0.898466 0.000000
0.699886 0.897704 0.000000
0.730251 0.896910 0.000000
0.760769 0.896056 0.000000
0.791501 0.895140 0.000000
0.822293 0.894163 0.000000
0.853178 0.893156 0.000000
0.884092 0.892088 0.000000
0.915038 0.890959 0.000000
0.945922 0.889830 0.000000
0.971679 0.884337 0.000000
0.988647 0.872587 0.000000
1.000000 0.866148 0.104677
1.000000 0.862516 0.158053
1.000000 0.861143 0.199130
0.333379 0.935180 0.000000
0.335729 0.935149 0.000000
0.338933 0.935088 0.000000
0.345830 0.934936 0.000000
0.356481 0.934722 0.000000
0.370184 0.934417 0.000000
0.386816 0.933989 0.000000
0.405829 0.933501 0.000000
0.427222 0.932952 0.000000
0.450477 0.932280 0.000000
0.475135 0.931518 0.000000
0.501030 0.930724 0.000000
0.528008 0.929808 0.000000
0.555840 0.928801 0.000000
0.584283 0.927733 0.000000
0.613214 0.926574 0.000000
