其他预设/【239】阳光逆光效果预设26款/1.LUT预设（视频调色-PR-AE-PS-FCPX-达芬奇用）/阳光逆光预设__-4.cube
# Created by Adobe Lightroom plugin Export LUT (1.17.0)
# www.johnrellis.com/lightroom/exportlut.htm
# Preset: 阳光逆光预设[素锦印象]-4
# Color profile: /Library/Application Support/Adobe/Color/Profiles/Recommended/AdobeRGB1998.icc
LUT_3D_SIZE 32
0.000000 0.000000 0.000000
0.047059 0.001587 0.000793
0.076234 0.001434 0.002380
0.111208 0.005707 0.004761
0.153445 0.007904 0.006348
0.195621 0.009522 0.008545
0.236851 0.010437 0.010437
0.276921 0.011780 0.012116
0.316350 0.012909 0.012421
0.355474 0.011933 0.011444
0.395361 0.006012 0.009827
0.435218 0.000580 0.007416
0.475135 0.000000 0.005066
0.515373 0.000000 0.006012
0.555505 0.000000 0.007904
0.595636 0.000000 0.011231
0.634394 0.000000 0.016907
0.670832 0.000000 0.028260
0.704952 0.000610 0.043793
0.738064 0.013977 0.058900
0.770443 0.029908 0.067506
0.802152 0.049653 0.076875
0.833097 0.063661 0.086152
0.863218 0.075074 0.096071
0.892485 0.086488 0.105806
0.920775 0.098329 0.116426
0.948089 0.111025 0.127321
0.974365 0.124331 0.139040
0.999664 0.137606 0.151095
1.000000 0.152193 0.163760
1.000000 0.167147 0.177188
1.000000 0.183017 0.191531
0.003479 0.043915 0.001740
0.048157 0.042329 0.001770
0.074220 0.044495 0.007691
0.109224 0.050446 0.012085
0.151675 0.056031 0.013336
0.194247 0.059327 0.015259
0.235813 0.059693 0.014954
0.275944 0.060334 0.016663
0.315557 0.059815 0.016083
0.355016 0.058686 0.014038
0.394842 0.054627 0.011353
0.434730 0.050538 0.008972
0.474800 0.047608 0.008759
0.514977 0.045014 0.009613
0.555138 0.042512 0.011719
0.595361 0.039429 0.015991
0.634089 0.040284 0.022705
0.670588 0.042573 0.033143
0.704707 0.049500 0.047425
0.737850 0.059113 0.060853
0.770199 0.064637 0.068940
0.801938 0.071077 0.078126
0.832944 0.079133 0.087221
0.863096 0.088167 0.097261
0.892363 0.097536 0.106905
0.920653 0.108461 0.117556
0.947967 0.119203 0.128389
0.974273 0.131533 0.140169
0.999542 0.144411 0.151949
1.000000 0.158053 0.164797
1.000000 0.172427 0.178012
1.000000 0.187655 0.192294
0.007507 0.073121 0.003388
0.052033 0.072541 0.004486
0.076722 0.072389 0.005127
0.108309 0.074891 0.018463
0.149630 0.079805 0.024689
0.192599 0.082399 0.024170
0.234134 0.083528 0.023743
0.274693 0.083925 0.023255
0.314427 0.083284 0.020600
0.354131 0.081727 0.018738
0.394049 0.080873 0.014801
0.434028 0.079622 0.013397
0.474189 0.077699 0.013367
0.514458 0.077150 0.014130
0.554650 0.076753 0.017212
0.594995 0.075288 0.021546
0.633753 0.075868 0.028168
0.670222 0.076692 0.038636
0.704433 0.078553 0.052399
0.737575 0.081514 0.062745
0.769986 0.085573 0.071656
0.801755 0.089967 0.080232
0.832731 0.096223 0.089326
0.862913 0.102754 0.098665
0.892180 0.111116 0.108766
0.920500 0.119966 0.118898
0.947814 0.130007 0.129915
0.974121 0.140993 0.141543
0.999420 0.152590 0.153231
1.000000 0.165469 0.165988
1.000000 0.178988 0.179232
1.000000 0.193729 0.193606
0.019593 0.106966 0.006287
0.059876 0.106569 0.008484
0.081422 0.106325 0.010163
0.113191 0.106752 0.010742
0.150546 0.110079 0.027161
0.188663 0.113863 0.043183
0.231022 0.115999 0.038941
0.272129 0.116487 0.035096
0.312291 0.116304 0.031250
0.352331 0.115450 0.027100
0.392462 0.115084 0.024140
0.432715 0.114199 0.023804
0.472908 0.113954 0.023407
0.513268 0.113649 0.026368
0.553643 0.112825 0.028504
0.594018 0.112428 0.033783
0.632898 0.112276 0.041657
0.669398 0.112581 0.050874
0.703700 0.113497 0.060792
0.736843 0.115206 0.068299
0.769406 0.117067 0.076509
0.801205 0.119936 0.084535
0.832273 0.123964 0.093416
0.862455 0.128847 0.102571
0.891783 0.134737 0.112306
0.920134 0.141695 0.122316
0.947478 0.149660 0.132845
0.973816 0.159213 0.144350
0.999115 0.169467 0.156191
1.000000 0.180392 0.168704
1.000000 0.192691 0.181827
1.000000 0.206149 0.196109
0.035248 0.145846 0.009857
0.067536 0.145510 0.010895
0.088045 0.144900 0.013794
0.119020 0.144686 0.015595
0.154604 0.145113 0.014710
0.193301 0.147677 0.030457
0.229007 0.148745 0.049989
0.268315 0.150454 0.052003
0.309148 0.151247 0.047852
0.349523 0.151492 0.044678
0.389929 0.151431 0.041627
0.430488 0.151247 0.040986
0.471046 0.151156 0.042634
0.511467 0.151156 0.044434
0.552026 0.150881 0.048127
0.592493 0.150790 0.052033
0.631556 0.150454 0.058717
0.668177 0.150301 0.063447
0.702571 0.150423 0.069734
0.735927 0.151186 0.076265
0.768490 0.152255 0.083558
0.800443 0.154238 0.091096
0.831540 0.156771 0.099367
0.861814 0.160128 0.108186
0.891173 0.164279 0.117433
0.919585 0.169589 0.127504
0.946929 0.176089 0.137728
0.973297 0.183352 0.148836
0.998627 0.191867 0.160464
1.000000 0.201572 0.172854
1.000000 0.212070 0.185885
1.000000 0.224063 0.200046
0.053437 0.184543 0.010681
0.075349 0.184207 0.011688
0.094545 0.183719 0.013489
0.124453 0.182681 0.017945
0.159152 0.182803 0.017121
0.195743 0.182742 0.014099
0.235294 0.184970 0.025788
0.269841 0.184268 0.049897
0.304845 0.184817 0.064912
0.345800 0.186007 0.062776
0.386725 0.187198 0.061585
0.427619 0.187564 0.061616
0.468299 0.187930 0.062196
0.509178 0.188083 0.063233
0.549859 0.188174 0.064820
0.590570 0.188174 0.067445
0.629755 0.188052 0.070619
0.666499 0.187808 0.074861
0.701045 0.187503 0.080171
0.734585 0.187625 0.085817
0.767269 0.188174 0.092561
0.799344 0.189120 0.099611
0.830564 0.190585 0.107179
0.860899 0.193179 0.115694
0.890349 0.196353 0.124666
0.918791 0.200229 0.133791
0.946197 0.205295 0.143984
0.972625 0.211154 0.154757
0.997986 0.218143 0.166171
1.000000 0.226200 0.178225
1.000000 0.235508 0.191287
1.000000 0.245945 0.205203
0.066285 0.222141 0.007172
0.083619 0.221775 0.008240
0.101015 0.221378 0.010040
0.130098 0.220584 0.013245
0.163851 0.219791 0.015320
0.199710 0.219699 0.012268
0.236576 0.219425 0.009186
0.276066 0.221042 0.022644
0.310155 0.219577 0.052247
0.344976 0.219699 0.069551
0.382727 0.221134 0.076875
0.423987 0.222599 0.076570
0.465064 0.223606 0.077119
0.506188 0.224247 0.077790
0.547204 0.224704 0.078859
0.588067 0.225040 0.080934
0.627466 0.225010 0.083742
0.664424 0.224552 0.087282
0.699184 0.224155 0.091737
0.732876 0.223728 0.096986
0.765743 0.223880 0.102876
0.797971 0.224216 0.109438
0.829282 0.225345 0.116670
0.859770 0.226841 0.124514
0.889281 0.229221 0.132784
0.917815 0.232212 0.141817
0.945281 0.236179 0.151705
0.971771 0.241032 0.162142
0.997192 0.246708 0.173251
1.000000 0.253605 0.185122
1.000000 0.261509 0.197971
1.000000 0.270756 0.211795
0.078492 0.258518 0.002991
0.092866 0.258305 0.003998
0.108797 0.257939 0.005768
0.136202 0.257176 0.007965
0.168887 0.256046 0.013733
0.203586 0.255558 0.014435
0.239750 0.255222 0.012543
0.276707 0.254948 0.010254
0.316411 0.256565 0.026062
0.350622 0.254948 0.059236
0.385565 0.254887 0.076020
0.421027 0.255924 0.090150
0.461219 0.257633 0.093050
0.502678 0.259068 0.093599
0.543999 0.260014 0.094545
0.585107 0.260807 0.095827
0.624720 0.261051 0.098054
0.661952 0.260655 0.100801
0.696895 0.260105 0.104585
0.730861 0.259495 0.109316
0.763943 0.259312 0.114534
0.796292 0.259403 0.120760
0.827756 0.259953 0.127291
0.858396 0.260990 0.134585
0.887999 0.262577 0.142397
0.916625 0.265141 0.151339
0.944182 0.268193 0.160555
0.970733 0.272007 0.170657
0.996185 0.276860 0.181521
1.000000 0.282628 0.193149
1.000000 0.289494 0.205844
1.000000 0.297490 0.219547
0.092988 0.294285 0.002991
0.104768 0.294041 0.004120
0.119081 0.293797 0.005798
0.144198 0.293065 0.010254
0.175448 0.292149 0.014801
0.208591 0.291112 0.019684
0.243748 0.290837 0.018891
0.279759 0.290501 0.016846
0.316747 0.289921 0.014618
0.357000 0.292058 0.031769
0.391363 0.290379 0.065736
0.426368 0.289891 0.082826
0.461860 0.290867 0.098421
0.498726 0.292607 0.110628
0.540185 0.294377 0.110994
0.581537 0.295750 0.111666
0.621515 0.296208 0.113252
0.659083 0.296086 0.115480
0.694301 0.295384 0.118563
0.728450 0.294743 0.122683
0.761776 0.294377 0.127443
0.794369 0.294163 0.132631
0.825986 0.294469 0.138857
0.856748 0.295232 0.145632
0.886503 0.296483 0.153231
0.915221 0.298131 0.161532
0.942870 0.300725 0.170504
0.969482 0.303838 0.180179
0.995026 0.307836 0.190890
1.000000 0.312871 0.202426
1.000000 0.318822 0.214969
1.000000 0.325902 0.228489
0.108248 0.329778 0.005859
0.118257 0.329625 0.006897
0.130434 0.329381 0.008698
0.153567 0.328740 0.012055
0.182803 0.327947 0.017731
0.214969 0.326726 0.026184
0.248814 0.326085 0.028260
0.284062 0.325780 0.027314
0.320195 0.325444 0.026032
0.356909 0.324926 0.024628
0.397772 0.327184 0.042206
0.432349 0.325414 0.072389
0.467353 0.324956 0.090944
0.502739 0.325566 0.107149
0.538506 0.327062 0.122042
0.577691 0.329137 0.128542
0.618006 0.330236 0.129152
0.655756 0.330358 0.130831
0.691249 0.329870 0.133639
0.725704 0.329290 0.136873
0.759335 0.328893 0.141054
0.792081 0.328740 0.145968
0.823972 0.328679 0.151431
0.854856 0.329198 0.157870
0.884764 0.330053 0.164828
0.913603 0.331456 0.172854
0.941375 0.333410 0.181430
0.968078 0.336065 0.190921
0.993683 0.339422 0.201297
1.000000 0.343755 0.212558
1.000000 0.349004 0.224979
1.000000 0.355261 0.238468
0.122652 0.365209 0.011383
0.131380 0.365087 0.012421
0.142794 0.364904 0.014069
0.163729 0.364324 0.018555
0.191318 0.363531 0.024384
0.222110 0.362493 0.032715
0.254978 0.361364 0.042145
0.289067 0.361089 0.041352
0.324498 0.360693 0.040284
0.360754 0.360204 0.038849
0.397559 0.359655 0.038117
0.438758 0.362249 0.052735
0.473426 0.360449 0.079652
0.508446 0.359869 0.098482
0.543938 0.360235 0.115023
0.579522 0.361578 0.130709
0.614191 0.362982 0.145418
0.652003 0.363714 0.147066
0.687861 0.363409 0.149142
0.722683 0.363043 0.151644
0.756558 0.362737 0.155337
0.789578 0.362432 0.159731
0.821653 0.362554 0.164858
0.852750 0.362829 0.170718
0.882811 0.363592 0.177432
0.911803 0.364630 0.184970
0.939666 0.366186 0.193271
0.966461 0.368475 0.202518
0.992157 0.371405 0.212619
1.000000 0.375128 0.223789
1.000000 0.379797 0.235966
1.000000 0.385443 0.249454
0.138064 0.400580 0.020325
0.145693 0.400458 0.021363
0.155886 0.400183 0.024292
0.174685 0.399756 0.027619
0.200626 0.399084 0.033326
0.230167 0.398138 0.042725
0.261936 0.397070 0.051728
0.295109 0.396307 0.056733
0.329717 0.395911 0.056031
0.365209 0.395514 0.054963
0.401556 0.394934 0.054505
0.438270 0.394293 0.053712
0.479988 0.397192 0.062104
0.514733 0.395453 0.086580
0.549706 0.394720 0.106020
0.584833 0.394934 0.123049
0.618921 0.395239 0.139345
0.651301 0.395575 0.154757
0.684108 0.395941 0.165011
0.719295 0.395941 0.167208
0.753506 0.395758 0.170199
0.786770 0.395758 0.174228
0.819120 0.395789 0.178866
0.850401 0.396124 0.184268
0.880644 0.396612 0.190677
0.909758 0.397650 0.197879
0.937774 0.398993 0.205997
0.964660 0.400946 0.214908
0.990417 0.403540 0.224796
1.000000 0.406836 0.235813
1.000000 0.411078 0.248112
1.000000 0.416114 0.261509
0.152590 0.435981 0.031556
0.159243 0.435859 0.032685
0.168307 0.435706 0.034363
0.186007 0.435279 0.038727
0.210300 0.434668 0.045533
0.238468 0.433814 0.052094
0.269352 0.432746 0.059876
0.301701 0.431434 0.065980
0.335393 0.431067 0.065644
0.370214 0.430671 0.065156
0.406012 0.430274 0.064881
0.442359 0.429572 0.064515
0.479133 0.428992 0.064302
0.521294 0.432166 0.068086
0.555962 0.430335 0.093141
0.590600 0.429419 0.113191
0.623926 0.428473 0.131441
0.655695 0.427619 0.148196
0.686305 0.427100 0.164401
0.716762 0.427497 0.180026
0.750240 0.427955 0.185550
0.783780 0.428138 0.188998
0.816281 0.428412 0.193271
0.847807 0.428779 0.198520
0.878264 0.429328 0.204562
0.907530 0.430243 0.211429
0.935668 0.431495 0.219181
0.962676 0.433295 0.228122
0.988525 0.435584 0.237888
1.000000 0.438605 0.248875
1.000000 0.442390 0.260990
1.000000 0.447059 0.274418
0.166964 0.471382 0.044892
0.173556 0.471229 0.047028
0.181521 0.471077 0.047547
0.197940 0.470741 0.051545
0.220584 0.470130 0.055940
0.247654 0.469276 0.061402
0.277440 0.468360 0.065980
0.309087 0.467201 0.071015
0.341894 0.466224 0.074403
0.376013 0.465888 0.073579
0.411139 0.465400 0.073426
0.446967 0.464912 0.073060
0.483284 0.464302 0.072572
0.519982 0.463569 0.071931
0.562066 0.466835 0.074708
0.596551 0.464942 0.099794
0.629145 0.462654 0.121157
0.660365 0.460578 0.140200
0.690486 0.458930 0.157626
0.720516 0.458320 0.174258
0.750301 0.458656 0.190616
0.780484 0.459785 0.204532
0.813321 0.460304 0.208438
0.845060 0.460883 0.213169
0.875639 0.461616 0.218967
0.905089 0.462470 0.225559
0.933410 0.463630 0.233127
0.960510 0.465339 0.241855
0.986481 0.467506 0.251682
1.000000 0.470375 0.262516
1.000000 0.473945 0.274693
1.000000 0.478218 0.288182
0.181613 0.506737 0.056916
0.187167 0.506676 0.058503
0.194614 0.506462 0.059297
0.209873 0.506126 0.060609
0.231540 0.505577 0.063325
0.257237 0.504936 0.066773
0.285924 0.503990 0.071351
0.316716 0.502892 0.075959
0.348852 0.501610 0.081270
0.382330 0.501061 0.082277
0.416754 0.500603 0.081819
0.452003 0.500145 0.081514
0.487861 0.499580 0.080812
0.524254 0.499031 0.080476
0.560906 0.498238 0.079774
0.601556 0.500603 0.083040
0.634607 0.497810 0.107942
0.665156 0.494392 0.129671
0.694911 0.491646 0.149142
0.724514 0.489998 0.167300
0.753902 0.489265 0.184573
0.782986 0.489601 0.201602
0.811673 0.490944 0.218570
0.842069 0.492256 0.228367
0.872892 0.493111 0.233860
0.902495 0.494148 0.240330
0.930907 0.495460 0.247868
0.958160 0.497139 0.256443
0.984222 0.499245 0.266087
1.000000 0.501946 0.276951
1.000000 0.505303 0.289220
1.000000 0.509361 0.302708
0.195895 0.542168 0.064607
0.201236 0.542046 0.065400
0.207706 0.541894 0.065675
0.222019 0.541558 0.067231
0.242344 0.541039 0.069703
0.267094 0.540398 0.072786
0.294560 0.539513 0.076600
0.324529 0.538506 0.081178
0.356176 0.537224 0.086122
0.388830 0.536004 0.090639
0.422522 0.535515 0.090059
0.457130 0.534966 0.089876
0.492256 0.534234 0.089693
0.527947 0.533471 0.089113
0.563897 0.532586 0.089021
0.600031 0.531609 0.088533
0.638422 0.532586 0.093141
0.670100 0.529137 0.116609
0.699458 0.525231 0.139040
0.728664 0.522454 0.158907
0.757656 0.520745 0.177371
0.786404 0.520134 0.195438
0.814755 0.520470 0.213199
0.842618 0.521752 0.231144
0.869902 0.524071 0.249302
0.899718 0.525322 0.255741
0.928252 0.526726 0.262943
0.955627 0.528496 0.271489
0.981750 0.530724 0.281315
1.000000 0.533349 0.292088
1.000000 0.536553 0.304448
1.000000 0.540459 0.318151
0.209903 0.576165 0.072389
0.214542 0.576043 0.072450
0.220951 0.575891 0.073732
0.234226 0.575555 0.075166
0.253269 0.575067 0.077302
0.276707 0.574395 0.080476
0.303166 0.573541 0.083894
0.332189 0.572473 0.087831
0.362860 0.571221 0.092164
0.394781 0.569787 0.097322
0.427710 0.568780 0.099428
0.461402 0.568109 0.099214
0.495766 0.567315 0.099214
0.530602 0.566400 0.098909
0.565789 0.565332 0.099092
0.601099 0.564263 0.098939
0.636469 0.563104 0.099031
0.673030 0.563073 0.104189
0.704097 0.559564 0.125887
0.732906 0.555749 0.148531
0.761563 0.553002 0.168917
0.789914 0.551354 0.188083
0.817929 0.550683 0.207004
0.845457 0.551110 0.225711
0.872374 0.552453 0.244694
0.898589 0.554894 0.264225
0.925414 0.557488 0.278782
0.952911 0.559442 0.287327
0.979156 0.561669 0.297032
1.000000 0.564416 0.308049
1.000000 0.567590 0.320378
1.000000 0.571374 0.334295
0.223484 0.608270 0.081483
0.228000 0.608148 0.082124
0.233768 0.608026 0.082643
0.246098 0.607721 0.083894
0.264073 0.607172 0.086152
0.286137 0.606561 0.088655
0.311681 0.605707 0.091768
0.339422 0.604669 0.095399
0.369238 0.603479 0.099855
0.400397 0.602106 0.104616
0.432349 0.600610 0.109621
0.465217 0.599908 0.109316
0.498787 0.599054 0.109682
0.532952 0.598230 0.109499
0.567468 0.597284 0.109499
0.602136 0.596246 0.109468
0.637079 0.595209 0.109590
0.671901 0.594110 0.109712
0.706752 0.593256 0.115084
0.737240 0.589776 0.135805
0.765499 0.586053 0.158511
0.793515 0.583368 0.179629
0.821195 0.581750 0.199649
0.848417 0.581170 0.219303
0.874968 0.581567 0.239200
0.900877 0.583001 0.259434
0.926055 0.585626 0.280308
0.950408 0.589532 0.302068
0.976379 0.592218 0.313390
1.000000 0.595026 0.324498
1.000000 0.598260 0.337041
1.000000 0.602014 0.351171
0.237156 0.639551 0.091463
0.241123 0.639490 0.092012
0.246586 0.639338 0.092226
0.258061 0.639063 0.093568
0.274754 0.638605 0.095308
0.295689 0.638025 0.097810
0.320012 0.637293 0.100587
0.346899 0.636286 0.103853
0.375830 0.635248 0.107881
0.406012 0.633997 0.112032
0.437385 0.632532 0.116915
0.469429 0.631373 0.119783
0.502251 0.630671 0.119905
0.535698 0.629847 0.119844
0.569482 0.628962 0.119936
0.603601 0.627955 0.120027
0.637934 0.626978 0.120027
0.672236 0.625940 0.120394
0.706569 0.624903 0.120760
0.739986 0.623407 0.126589
0.769589 0.619776 0.146212
0.797238 0.616144 0.169406
0.824552 0.613489 0.191073
0.851408 0.611963 0.212009
0.877653 0.611353 0.232853
0.903288 0.611810 0.253758
0.928161 0.613428 0.275212
0.952270 0.616266 0.297612
0.975433 0.620478 0.321141
0.998413 0.625177 0.341680
1.000000 0.628534 0.354376
1.000000 0.632349 0.368811
0.250156 0.670741 0.101411
0.254093 0.670619 0.101686
0.259098 0.670497 0.102083
0.269780 0.670283 0.103304
0.285557 0.669856 0.104829
0.305547 0.669306 0.106844
0.328801 0.668574 0.109621
0.354467 0.667720 0.112551
0.382361 0.666743 0.116274
0.411933 0.665522 0.120089
0.442512 0.664240 0.124758
0.474067 0.662776 0.129458
0.506035 0.661952 0.130434
0.538781 0.661219 0.130587
0.571984 0.660365 0.130739
0.605463 0.659480 0.130861
0.639185 0.658564 0.130739
0.672969 0.657618 0.131350
0.706783 0.656611 0.131594
0.740475 0.655634 0.131991
0.772457 0.653559 0.138399
0.800961 0.649653 0.157137
0.827909 0.646052 0.181033
0.854429 0.643458 0.203525
0.880400 0.641901 0.225498
0.905699 0.641321 0.247349
0.930297 0.641901 0.269657
0.954162 0.643671 0.292576
0.977081 0.646845 0.316686
0.998871 0.651362 0.342138
1.000000 0.657496 0.369116
1.000000 0.662226 0.387121
0.263188 0.701656 0.111360
0.266697 0.701595 0.111574
0.271550 0.701472 0.111940
0.281468 0.701259 0.113039
0.296422 0.700862 0.114412
0.315373 0.700313 0.116487
0.337530 0.699672 0.118776
0.362280 0.698878 0.121645
0.389319 0.697932 0.125063
0.418006 0.696834 0.128756
0.447852 0.695674 0.132906
0.478737 0.694362 0.137423
0.510185 0.693050 0.141085
0.542168 0.692317 0.141451
0.574701 0.691554 0.141787
0.607538 0.690761 0.141939
0.640711 0.689876 0.142580
0.674006 0.688960 0.142733
0.707301 0.688045 0.143160
0.740475 0.687098 0.143771
0.773526 0.686244 0.144350
0.804196 0.683650 0.151125
0.831296 0.679164 0.169100
0.857511 0.675593 0.193576
0.883116 0.673060 0.217044
0.908141 0.671534 0.240024
0.932464 0.671077 0.263279
0.956054 0.671809 0.286992
0.978729 0.673793 0.311681
1.000000 0.677180 0.337560
1.000000 0.682033 0.365179
1.000000 0.688899 0.394598
0.275883 0.732387 0.121462
0.279179 0.732357 0.121859
0.283604 0.732204 0.122225
0.292973 0.731991 0.122988
0.307164 0.731655 0.124422
0.325292 0.731136 0.126284
0.346532 0.730556 0.128725
0.370397 0.729793 0.131380
0.396429 0.728969 0.134310
0.424292 0.727932 0.137758
0.453468 0.726864 0.142061
0.483680 0.725612 0.146273
0.514641 0.724269 0.150790
0.545953 0.723293 0.152956
0.577722 0.722530 0.153475
0.610040 0.721767 0.153658
0.642542 0.720943 0.154330
0.675257 0.720119 0.154635
0.708034 0.719265 0.155245
0.740749 0.718410 0.155856
0.773312 0.717556 0.156619
0.805631 0.716732 0.157565
0.835050 0.713680 0.164462
0.860594 0.708461 0.182071
0.885893 0.704891 0.207431
0.910613 0.702388 0.231846
0.934661 0.700923 0.256046
0.957977 0.700618 0.280674
0.980377 0.701503 0.306035
1.000000 0.703700 0.332616
1.000000 0.707485 0.360571
1.000000 0.713344 0.390173
0.288579 0.762905 0.132418
0.291661 0.762814 0.132784
0.295750 0.762753 0.133059
0.304753 0.762509 0.133974
0.318181 0.762173 0.135256
0.335241 0.761746 0.136965
0.355627 0.761196 0.139162
0.378485 0.760525 0.141604
0.403906 0.759701 0.144472
0.430884 0.758785 0.147921
0.459358 0.757748 0.151614
0.488869 0.756588 0.155795
0.519127 0.755337 0.160189
0.550042 0.753933 0.165133
0.581140 0.753292 0.165621
0.612757 0.752560 0.166140
0.644648 0.751766 0.166659
0.676753 0.751003 0.167269
0.708980 0.750149 0.168032
0.741176 0.749355 0.168917
0.773251 0.748531 0.169802
0.805142 0.747768 0.170718
0.836728 0.747036 0.171908
0.864866 0.743618 0.179019
0.888609 0.737392 0.196017
0.913054 0.733852 0.222263
0.936828 0.731380 0.247868
0.959869 0.730037 0.273442
0.982025 0.729885 0.299748
1.000000 0.731044 0.326848
1.000000 0.733822 0.355200
1.000000 0.738643 0.385199
0.301152 0.793149 0.143954
0.304051 0.793088 0.144289
0.308049 0.792935 0.144594
0.316472 0.792752 0.145541
0.329107 0.792447 0.146578
0.345403 0.792050 0.148135
0.364874 0.791531 0.150179
0.387060 0.790890 0.152651
0.411505 0.790127 0.155459
0.437720 0.789273 0.158633
0.465370 0.788296 0.162325
0.494148 0.787228 0.166354
0.523796 0.786038 0.170657
0.554162 0.784756 0.175387
0.584802 0.783688 0.178683
0.615717 0.782956 0.179324
0.646967 0.782223 0.180087
0.678492 0.781491 0.180819
0.710079 0.780728 0.181582
0.741726 0.779934 0.182467
0.773251 0.779171 0.183597
0.804623 0.778439 0.184726
0.835752 0.777737 0.186130
0.866636 0.777035 0.187564
0.893584 0.773312 0.194858
0.915465 0.765988 0.211124
0.938933 0.762509 0.238468
0.961761 0.760159 0.265324
0.983673 0.758999 0.292454
1.000000 0.759182 0.320348
1.000000 0.760952 0.349279
1.000000 0.764797 0.379461
0.313848 0.822995 0.156344
0.316472 0.822965 0.156497
0.320256 0.822843 0.157015
0.328252 0.822660 0.157626
0.340276 0.822385 0.158846
0.355749 0.821988 0.160250
0.374456 0.821469 0.162264
0.395727 0.820890 0.164553
0.419287 0.820188 0.167239
0.444800 0.819364 0.170443
0.471626 0.818479 0.173983
0.499825 0.817441 0.177829
0.528832 0.816342 0.182071
0.558465 0.815122 0.186587
0.588647 0.813870 0.191684
0.618952 0.813016 0.193484
0.649531 0.812314 0.194369
0.680415 0.811612 0.195315
0.711391 0.810880 0.196170
0.742428 0.810117 0.197269
0.773373 0.809384 0.198489
0.804288 0.808652 0.199802
0.834928 0.807980 0.201236
0.865293 0.807401 0.202823
0.895323 0.806821 0.204623
0.921233 0.802853 0.211887
0.941161 0.794400 0.227634
0.963592 0.790890 0.256046
0.985229 0.788754 0.284245
1.000000 0.787930 0.312963
1.000000 0.788724 0.342535
1.000000 0.791592 0.373175
0.326665 0.852476 0.169711
0.329320 0.852415 0.169955
0.332799 0.852323 0.170199
0.340337 0.852140 0.170993
0.351690 0.851865 0.172122
0.366522 0.851530 0.173526
0.384283 0.851072 0.175357
0.404730 0.850523 0.177584
0.427558 0.849821 0.180301
0.452064 0.849058 0.183383
0.478218 0.848203 0.186618
0.505577 0.847227 0.190524
0.533898 0.846189 0.194675
0.563043 0.845060 0.199313
0.592645 0.843870 0.204135
0.622553 0.842679 0.208927
0.652461 0.842008 0.209781
0.682612 0.841276 0.210910
0.712978 0.840574 0.211856
0.743374 0.839872 0.213107
0.773800 0.839200 0.214450
0.804105 0.838499 0.215946
0.834195 0.837858 0.217502
0.864073 0.837278 0.219303
0.893614 0.836759 0.221134
0.922789 0.836271 0.223148
0.947692 0.832151 0.230747
0.966003 0.822843 0.245701
0.986725 0.818997 0.275090
1.000000 0.817166 0.304875
1.000000 0.816953 0.335088
1.000000 0.818845 0.366247
0.339757 0.881529 0.184268
0.342199 0.881468 0.184543
0.345586 0.881407 0.184726
0.352483 0.881254 0.185336
0.363470 0.880949 0.186374
0.377539 0.880644 0.187900
0.394568 0.880186 0.189670
0.414221 0.879667 0.191836
0.436164 0.879026 0.194522
0.459907 0.878325 0.197452
0.485267 0.877501 0.200778
0.511803 0.876616 0.204471
0.539452 0.875639 0.208621
0.567895 0.874540 0.212985
0.596918 0.873411 0.217960
0.626276 0.872221 0.223117
0.655756 0.871244 0.226535
0.685145 0.870603 0.227695
0.714839 0.869902 0.228977
0.744625 0.869230 0.230259
0.774350 0.868559 0.231662
0.804074 0.867887 0.233433
0.833616 0.867247 0.235203
0.862943 0.866667 0.237003
0.891966 0.866117 0.239261
0.920714 0.865660 0.241428
0.949035 0.865232 0.243839
0.972839 0.860990 0.251408
0.989319 0.850858 0.266331
1.000000 0.846708 0.295842
1.000000 0.845426 0.327062
1.000000 0.846281 0.358740
0.353277 0.910124 0.199893
0.355566 0.910063 0.200107
0.358709 0.909972 0.200504
0.365393 0.909819 0.201083
0.375708 0.909606 0.201999
0.389136 0.909270 0.203586
0.405432 0.908843 0.205325
0.424140 0.908354 0.207401
0.445228 0.907744 0.209873
0.468238 0.907073 0.212863
0.492744 0.906279 0.216098
0.518547 0.905425 0.219791
0.545495 0.904479 0.223911
0.573205 0.903471 0.228336
0.601526 0.902373 0.233127
0.630304 0.901244 0.238407
