其他预设/【239】阳光逆光效果预设26款/1.LUT预设（视频调色-PR-AE-PS-FCPX-达芬奇用）/阳光逆光预设__-14.cube
# Created by Adobe Lightroom plugin Export LUT (1.17.0)
# www.johnrellis.com/lightroom/exportlut.htm
# Preset: 阳光逆光预设[素锦印象]-14
# Color profile: /Library/Application Support/Adobe/Color/Profiles/Recommended/AdobeRGB1998.icc
LUT_3D_SIZE 32
0.000000 0.000000 0.000000
0.001343 0.000000 0.000000
0.049378 0.000000 0.000000
0.096529 0.000000 0.000000
0.131838 0.000000 0.000000
0.167361 0.000000 0.000000
0.204044 0.000000 0.000000
0.241917 0.000000 0.012879
0.281895 0.000000 0.034363
0.323583 0.000000 0.055665
0.367224 0.000000 0.067048
0.413092 0.000000 0.074556
0.460975 0.000000 0.081056
0.510765 0.000000 0.088380
0.561608 0.000000 0.095735
0.613184 0.000000 0.102602
0.664759 0.000000 0.108888
0.715511 0.000000 0.114717
0.764889 0.000000 0.120272
0.811887 0.000000 0.124819
0.854917 0.000000 0.129183
0.894072 0.000000 0.132570
0.929076 0.000000 0.135775
0.959777 0.000000 0.138491
0.986877 0.000000 0.140749
1.000000 0.000000 0.142672
1.000000 0.000000 0.144442
1.000000 0.000000 0.145632
1.000000 0.000000 0.146883
1.000000 0.000000 0.147982
1.000000 0.000000 0.149081
1.000000 0.000000 0.150332
0.000000 0.004822 0.000000
0.001221 0.010376 0.000000
0.051728 0.007691 0.000000
0.096376 0.003388 0.000000
0.131502 0.000000 0.000000
0.167086 0.000000 0.000000
0.203738 0.000000 0.000000
0.241764 0.000000 0.017792
0.281651 0.000000 0.039216
0.323308 0.000000 0.058442
0.366979 0.000000 0.068299
0.412879 0.000000 0.075654
0.460731 0.000000 0.082338
0.510521 0.000000 0.089784
0.561395 0.000000 0.096712
0.612970 0.000000 0.103700
0.664454 0.000000 0.109865
0.715267 0.000000 0.115389
0.764584 0.000000 0.120699
0.811521 0.000000 0.125216
0.854582 0.000000 0.129152
0.893767 0.000000 0.132418
0.928771 0.000000 0.135592
0.959533 0.000000 0.138338
0.986603 0.000000 0.140566
1.000000 0.000000 0.142489
1.000000 0.000000 0.143984
1.000000 0.000000 0.145632
1.000000 0.000000 0.146578
1.000000 0.000000 0.147677
1.000000 0.000000 0.148806
1.000000 0.000000 0.149935
0.000000 0.051423 0.000000
0.000000 0.055451 0.000000
0.051606 0.054536 0.000000
0.095735 0.050752 0.000000
0.131136 0.040650 0.000000
0.166598 0.027802 0.000000
0.203311 0.010773 0.005310
0.241184 0.000000 0.024903
0.281193 0.000000 0.045136
0.323033 0.000000 0.061280
0.366705 0.000000 0.069978
0.412604 0.000000 0.077028
0.460578 0.000000 0.083864
0.510369 0.000000 0.091096
0.561089 0.000000 0.098085
0.612787 0.000000 0.104463
0.664332 0.000000 0.110689
0.714992 0.000000 0.116182
0.764462 0.000000 0.121187
0.811215 0.000000 0.125460
0.854368 0.000000 0.129213
0.893523 0.000000 0.132418
0.928527 0.000000 0.135470
0.959289 0.000000 0.138033
0.986450 0.000000 0.140414
1.000000 0.000000 0.142031
1.000000 0.000000 0.143709
1.000000 0.000000 0.145235
1.000000 0.000000 0.146181
1.000000 0.000000 0.147311
1.000000 0.000000 0.148318
1.000000 0.031342 0.149630
0.000000 0.090181 0.000000
0.000000 0.091066 0.000000
0.047791 0.090211 0.000000
0.093446 0.089113 0.000000
0.129732 0.085023 0.000000
0.165255 0.081453 0.002716
0.202213 0.076356 0.018982
0.240452 0.069520 0.039460
0.280461 0.058961 0.055543
0.322454 0.025147 0.066712
0.366278 0.000000 0.073854
0.412299 0.000000 0.080171
0.460182 0.000000 0.087098
0.509941 0.000000 0.094148
0.560906 0.000000 0.100343
0.612512 0.000000 0.107118
0.664057 0.000000 0.112886
0.714748 0.000000 0.117861
0.764096 0.000000 0.122347
0.810788 0.000000 0.126528
0.853941 0.000000 0.129824
0.893065 0.000000 0.132631
0.928099 0.000000 0.135470
0.958923 0.000000 0.137819
0.986084 0.000000 0.139742
1.000000 0.000000 0.141390
1.000000 0.000000 0.142763
1.000000 0.000000 0.144167
1.000000 0.000000 0.145357
1.000000 0.000000 0.146395
1.000000 0.000000 0.147311
1.000000 0.096498 0.148531
0.000000 0.124849 0.000000
0.000000 0.124788 0.000000
0.036530 0.124636 0.000000
0.089845 0.123903 0.001801
0.129732 0.122621 0.010193
0.163333 0.117372 0.024750
0.200534 0.114900 0.040772
0.239170 0.111513 0.056611
0.279515 0.106538 0.066194
0.321569 0.099336 0.073487
0.365515 0.087800 0.079164
0.411658 0.069947 0.085695
0.459693 0.017731 0.092012
0.509483 0.000000 0.098482
0.560418 0.000000 0.104616
0.611963 0.000000 0.110231
0.663600 0.000000 0.115450
0.714290 0.000000 0.119966
0.763760 0.000000 0.124025
0.810483 0.000000 0.127474
0.853483 0.000000 0.130282
0.892638 0.000000 0.132815
0.927642 0.000000 0.135134
0.958465 0.000000 0.137179
0.985626 0.000000 0.138949
1.000000 0.000000 0.140505
1.000000 0.000000 0.141756
1.000000 0.000000 0.142794
1.000000 0.000000 0.143862
1.000000 0.000000 0.144839
1.000000 0.097719 0.145876
1.000000 0.141299 0.147036
0.000000 0.160159 0.025788
0.000000 0.160342 0.020417
0.012909 0.160067 0.021302
0.083925 0.159670 0.026947
0.126528 0.158785 0.039551
0.166567 0.157565 0.048615
0.199252 0.151003 0.062165
0.237491 0.148959 0.068910
0.278111 0.146334 0.074983
0.320592 0.142306 0.080629
0.364813 0.136660 0.086336
0.411017 0.128603 0.092073
0.458991 0.117708 0.098421
0.508965 0.102632 0.104189
0.559869 0.081147 0.109071
0.611536 0.031067 0.114412
0.663172 0.000000 0.119020
0.713924 0.000000 0.122591
0.763272 0.000000 0.126009
0.809995 0.000000 0.128664
0.852995 0.000000 0.130800
0.892180 0.000000 0.132937
0.928527 0.000000 0.134737
0.959136 0.000000 0.136477
0.986114 0.000000 0.137789
1.000000 0.000000 0.138949
1.000000 0.000000 0.140017
1.000000 0.000000 0.141207
1.000000 0.087068 0.141970
1.000000 0.126162 0.142916
1.000000 0.157107 0.143954
1.000000 0.184390 0.145113
0.000000 0.196811 0.063874
0.000000 0.196719 0.060914
0.000000 0.196872 0.056184
0.074037 0.196506 0.060456
0.121553 0.195987 0.064088
0.163638 0.195102 0.068330
0.204318 0.193759 0.072053
0.239109 0.187778 0.077760
0.276799 0.184115 0.084047
0.319585 0.182315 0.089296
0.364141 0.179263 0.094728
0.410437 0.175051 0.099641
0.458656 0.169589 0.105379
0.508751 0.162203 0.110262
0.559838 0.152956 0.114565
0.611414 0.141695 0.118990
0.663020 0.128573 0.122499
0.713863 0.113130 0.125368
0.763210 0.096284 0.127871
0.809934 0.078431 0.129580
0.853025 0.061555 0.131167
0.892210 0.043732 0.132448
0.927214 0.046143 0.133608
0.958068 0.064271 0.134768
0.985199 0.082612 0.135805
1.000000 0.102937 0.136690
1.000000 0.124208 0.137514
1.000000 0.145083 0.138491
1.000000 0.165530 0.139254
1.000000 0.185702 0.140230
1.000000 0.205173 0.141146
1.000000 0.224613 0.142489
0.000000 0.233951 0.087770
0.000000 0.234043 0.084627
0.000000 0.234318 0.078950
0.045777 0.234318 0.073976
0.111086 0.233951 0.076143
0.157565 0.233310 0.078950
0.200504 0.232395 0.083192
0.242710 0.231144 0.087129
0.280491 0.225986 0.093141
0.317937 0.220951 0.098878
0.362676 0.219791 0.103944
0.409339 0.217685 0.108125
0.457710 0.215000 0.112673
0.507744 0.211429 0.116487
0.558953 0.206790 0.120394
0.610681 0.201083 0.123323
0.662318 0.194888 0.126070
0.713069 0.188174 0.128054
0.762417 0.181765 0.129335
0.809079 0.176303 0.130282
0.852140 0.172030 0.131197
0.891295 0.170291 0.131655
0.926299 0.171206 0.132052
0.957122 0.174716 0.132570
0.984222 0.180758 0.132998
1.000000 0.189029 0.133791
1.000000 0.198947 0.134310
1.000000 0.210330 0.134798
1.000000 0.222995 0.135561
1.000000 0.236088 0.136477
1.000000 0.250126 0.137728
1.000000 0.264408 0.139010
0.000000 0.272526 0.109651
0.000000 0.272679 0.106600
0.000000 0.273136 0.101167
0.000000 0.273564 0.087465
0.092775 0.273503 0.089143
0.147341 0.272953 0.091402
0.194186 0.272313 0.094636
0.238987 0.271397 0.097383
0.282994 0.269993 0.101472
0.323796 0.266087 0.106722
0.361181 0.259770 0.112856
0.408026 0.259251 0.116426
0.456672 0.258488 0.119905
0.506950 0.257115 0.122957
0.558038 0.255192 0.125795
0.609949 0.252659 0.127840
0.661494 0.249699 0.129488
0.712306 0.246860 0.129976
0.761563 0.243809 0.130495
0.808225 0.241550 0.130282
0.851164 0.240269 0.130098
0.890318 0.239841 0.129549
0.925292 0.240757 0.129213
0.956054 0.243137 0.129244
0.983154 0.246647 0.129244
1.000000 0.251469 0.129549
1.000000 0.257877 0.129854
1.000000 0.265202 0.130251
1.000000 0.273686 0.130922
1.000000 0.283024 0.131899
1.000000 0.293034 0.133150
1.000000 0.303838 0.134768
0.000000 0.313085 0.126589
0.000000 0.313298 0.124025
0.000000 0.313573 0.119570
0.000000 0.314214 0.108614
0.059724 0.314580 0.100587
0.132937 0.314366 0.102419
0.185824 0.313878 0.104921
0.234012 0.313146 0.107729
0.280278 0.312383 0.110903
0.326024 0.311040 0.113893
0.369451 0.307897 0.118624
0.406348 0.300084 0.124361
0.455329 0.300786 0.126925
0.505669 0.301091 0.128908
0.557214 0.301122 0.130312
0.609064 0.300725 0.131441
0.660792 0.299992 0.131411
0.711482 0.299077 0.131289
0.760708 0.298619 0.130495
0.807248 0.298070 0.129366
0.850217 0.298100 0.127840
0.889220 0.298466 0.126467
0.924071 0.299321 0.125399
0.954803 0.300908 0.124575
0.981903 0.303197 0.124147
1.000000 0.306432 0.124239
1.000000 0.310521 0.124056
1.000000 0.315373 0.124544
1.000000 0.321111 0.125368
1.000000 0.327672 0.126314
1.000000 0.334966 0.127749
1.000000 0.342870 0.129580
0.000000 0.355901 0.140810
0.000000 0.356146 0.138369
0.000000 0.356420 0.134646
0.000000 0.357031 0.126558
0.000000 0.357824 0.111452
0.111696 0.357824 0.112367
0.174655 0.357641 0.114199
0.227298 0.357214 0.116396
0.276799 0.356481 0.118593
0.324926 0.355596 0.121309
0.372259 0.354559 0.123751
0.418097 0.352087 0.126772
0.456458 0.344549 0.131960
0.504509 0.344274 0.133608
0.556085 0.345769 0.133547
0.607965 0.346990 0.133761
0.659663 0.347845 0.132692
0.710262 0.348699 0.131289
0.759579 0.349493 0.129305
0.806149 0.350347 0.126741
0.848966 0.351232 0.124239
0.887968 0.352056 0.121920
0.922789 0.353094 0.119966
0.953460 0.354162 0.118593
0.980560 0.355627 0.117678
1.000000 0.357397 0.117067
1.000000 0.359869 0.116976
1.000000 0.363012 0.117372
1.000000 0.366705 0.118044
1.000000 0.371038 0.119295
1.000000 0.376104 0.121004
1.000000 0.381842 0.123354
0.000000 0.401129 0.151522
0.000000 0.401343 0.149599
0.000000 0.401617 0.146670
0.000000 0.402197 0.140200
0.000000 0.403174 0.128237
0.076478 0.403540 0.120089
0.159152 0.403571 0.121279
0.218662 0.403265 0.122774
0.272007 0.402777 0.124666
0.322972 0.402228 0.125917
0.372503 0.401404 0.127871
0.421363 0.400397 0.129213
0.470161 0.399542 0.130800
0.509941 0.392340 0.134920
0.556207 0.390753 0.136049
0.608240 0.393103 0.134493
0.659937 0.395422 0.132265
0.710597 0.397498 0.129549
0.759792 0.399542 0.126009
0.806149 0.401373 0.122438
0.848814 0.402594 0.118746
0.887510 0.403784 0.115389
0.922057 0.404547 0.112367
0.952605 0.405097 0.110445
0.979583 0.405737 0.108888
1.000000 0.406592 0.108064
1.000000 0.407752 0.107942
1.000000 0.409308 0.108217
1.000000 0.411322 0.109255
1.000000 0.413886 0.110903
1.000000 0.417060 0.113069
1.000000 0.420844 0.115908
0.000000 0.448737 0.158450
0.000000 0.449104 0.156741
0.000000 0.449348 0.154391
0.000000 0.449866 0.148928
0.000000 0.450721 0.139193
0.000000 0.451759 0.124269
0.137270 0.451728 0.125124
0.206882 0.451575 0.126223
0.265568 0.451331 0.127108
0.319921 0.450965 0.127749
0.372168 0.450477 0.128664
0.423194 0.449622 0.129397
0.473152 0.448890 0.129763
0.522332 0.447822 0.129763
0.562890 0.440742 0.132753
0.606744 0.437720 0.133577
0.658534 0.441047 0.130007
0.709071 0.444099 0.125917
0.758328 0.447211 0.120974
0.804623 0.449805 0.115846
0.847196 0.451637 0.110750
0.885893 0.452918 0.105867
0.920378 0.453620 0.102327
0.950866 0.453712 0.099184
0.977813 0.453742 0.097200
1.000000 0.453681 0.095949
1.000000 0.453712 0.095827
1.000000 0.454017 0.096468
1.000000 0.454566 0.097749
1.000000 0.455665 0.100221
1.000000 0.457221 0.103059
1.000000 0.459236 0.106844
0.000000 0.498207 0.161654
0.000000 0.498329 0.160159
0.000000 0.498665 0.157992
0.000000 0.499214 0.153506
0.000000 0.499977 0.145541
0.000000 0.500969 0.132876
0.102602 0.501427 0.125856
0.190585 0.501335 0.126284
0.256321 0.501061 0.126650
0.314855 0.500816 0.126558
0.370062 0.500298 0.126589
0.423316 0.499794 0.126101
0.475013 0.499031 0.125551
0.525505 0.498268 0.124300
0.574640 0.497414 0.123201
0.615991 0.491035 0.124697
0.656855 0.486000 0.125582
0.707393 0.490028 0.119997
0.756649 0.493935 0.113436
0.802945 0.497169 0.106294
0.845487 0.499428 0.099580
0.884123 0.500908 0.093324
0.918578 0.501396 0.087861
0.949035 0.501183 0.083711
0.975952 0.500481 0.080934
0.999817 0.499611 0.079347
1.000000 0.498665 0.079286
1.000000 0.497871 0.080568
1.000000 0.497230 0.082948
1.000000 0.496956 0.086183
1.000000 0.497108 0.090608
1.000000 0.497658 0.095491
0.000000 0.548882 0.160678
0.000000 0.549065 0.159548
0.000000 0.549248 0.157687
0.000000 0.549828 0.153445
0.000000 0.550530 0.146700
0.000000 0.551537 0.135805
0.000000 0.552392 0.122469
0.168521 0.552239 0.122194
0.243778 0.552117 0.121828
0.307713 0.551781 0.121187
0.366186 0.551415 0.120211
0.421851 0.550896 0.118898
0.475471 0.550225 0.117281
0.527489 0.549584 0.114839
0.577996 0.548821 0.112276
0.626795 0.548119 0.108980
0.668147 0.542443 0.109590
0.706813 0.536431 0.110079
0.754971 0.540246 0.101930
0.801205 0.543999 0.092439
0.843626 0.546471 0.083192
0.882200 0.548028 0.073793
0.916594 0.548363 0.065766
0.946990 0.547662 0.059510
0.973907 0.546380 0.052735
0.997803 0.544732 0.049714
1.000000 0.542870 0.050874
1.000000 0.541100 0.056245
1.000000 0.539391 0.061128
1.000000 0.537926 0.066926
1.000000 0.536736 0.073976
1.000000 0.535851 0.081483
0.000000 0.600488 0.155795
0.000000 0.600641 0.154635
0.000000 0.600855 0.153109
0.000000 0.601312 0.149325
0.000000 0.602014 0.143069
0.000000 0.602930 0.133364
0.000000 0.604028 0.118349
0.135103 0.604273 0.113313
0.227115 0.603998 0.112154
0.297581 0.603693 0.110628
0.360388 0.603204 0.108705
0.418891 0.602716 0.106325
0.474281 0.601923 0.103670
0.527886 0.601129 0.100008
0.579248 0.600214 0.095918
0.628779 0.599298 0.090791
0.676173 0.598322 0.085237
0.717098 0.593469 0.083680
0.755886 0.588586 0.082185
0.799374 0.590295 0.071687
0.841733 0.593072 0.054170
0.880247 0.594568 0.024140
0.914580 0.594659 0.000000
0.944945 0.593622 0.000000
0.971832 0.591669 0.000000
0.995727 0.589288 0.000000
1.000000 0.586572 0.000000
1.000000 0.583825 0.000000
1.000000 0.581048 0.000000
1.000000 0.578393 0.017517
1.000000 0.575982 0.042084
1.000000 0.573907 0.061799
0.000000 0.651575 0.147311
0.000000 0.651728 0.146059
0.000000 0.651911 0.144594
0.000000 0.652369 0.141024
0.000000 0.652979 0.134981
0.000000 0.653712 0.126009
0.000000 0.654658 0.112367
0.077668 0.655116 0.098909
0.205112 0.654658 0.097292
0.283970 0.654017 0.095064
0.351202 0.653285 0.092012
0.412482 0.652338 0.088472
0.469978 0.651270 0.084352
0.524620 0.650050 0.078950
0.576867 0.648707 0.072786
0.626703 0.647395 0.065248
0.674403 0.646082 0.053803
0.720027 0.645014 0.030091
0.760861 0.641627 0.015137
0.799741 0.638697 0.000000
0.839628 0.639216 0.000000
0.877989 0.640589 0.000000
0.912230 0.640345 0.000000
0.942596 0.638819 0.000000
0.969482 0.636316 0.000000
0.993347 0.633204 0.000000
1.000000 0.629694 0.000000
1.000000 0.626001 0.000000
1.000000 0.622187 0.000000
1.000000 0.618494 0.000000
1.000000 0.614923 0.000000
1.000000 0.611627 0.009613
0.000000 0.699062 0.135897
0.000000 0.699123 0.134737
0.000000 0.700374 0.132998
0.000000 0.700618 0.129274
0.000000 0.701106 0.123323
0.000000 0.701656 0.114382
0.000000 0.702327 0.100862
0.000000 0.702937 0.078706
0.177584 0.702266 0.076081
0.267765 0.701442 0.072389
0.339818 0.700435 0.067597
0.403784 0.699214 0.061830
0.463081 0.697902 0.051270
0.519127 0.696407 0.033814
0.572168 0.694911 0.011627
0.622583 0.693355 0.000000
0.670771 0.691890 0.000000
0.716487 0.690608 0.000000
0.759976 0.689479 0.000000
0.800168 0.687434 0.000000
0.838468 0.686122 0.000000
0.875975 0.686519 0.000000
0.910063 0.685847 0.000000
0.940276 0.683803 0.000000
0.967132 0.680568 0.000000
0.990936 0.676753 0.000000
1.000000 0.672389 0.000000
1.000000 0.667689 0.000000
1.000000 0.662928 0.000000
1.000000 0.658167 0.000000
1.000000 0.653559 0.000000
1.000000 0.649073 0.000000
0.000000 0.743526 0.121462
0.000000 0.743740 0.120180
0.000000 0.743954 0.118441
0.000000 0.744350 0.114656
0.000000 0.744778 0.108125
0.000000 0.745266 0.098482
0.000000 0.745846 0.083619
0.000000 0.746304 0.057649
0.143587 0.746029 0.023865
0.248508 0.745052 0.012207
0.326146 0.743923 0.000000
0.393072 0.742550 0.000000
0.454353 0.741115 0.000000
0.511437 0.739467 0.000000
0.565270 0.737789 0.000000
0.616205 0.736080 0.000000
0.664576 0.734432 0.000000
0.710445 0.732845 0.000000
0.753994 0.731472 0.000000
0.795224 0.730343 0.000000
0.834043 0.729213 0.000000
0.871275 0.729213 0.000000
0.907439 0.730648 0.000000
0.937621 0.728023 0.000000
0.964416 0.724239 0.000000
0.988281 0.719631 0.000000
1.000000 0.714473 0.000000
1.000000 0.708949 0.000000
1.000000 0.703243 0.000000
1.000000 0.697475 0.000000
1.000000 0.691798 0.000000
1.000000 0.686275 0.000000
0.000000 0.784817 0.103243
0.000000 0.784970 0.101961
0.000000 0.785183 0.099825
0.000000 0.785489 0.095186
0.000000 0.785824 0.087190
0.000000 0.786191 0.075349
0.000000 0.786557 0.053315
0.000000 0.786893 0.000000
0.099733 0.786801 0.000000
0.229648 0.785702 0.000000
0.312444 0.784451 0.000000
0.382055 0.783017 0.000000
0.444709 0.781338 0.000000
0.502708 0.779568 0.000000
0.557031 0.777676 0.000000
0.608331 0.775753 0.000000
0.656855 0.773892 0.000000
0.702754 0.772061 0.000000
0.746242 0.770413 0.000000
0.787350 0.768948 0.000000
0.826230 0.767697 0.000000
0.863127 0.767178 0.000000
0.899077 0.768246 0.000000
0.933837 0.770779 0.000000
0.961578 0.767483 0.000000
0.985473 0.762142 0.000000
1.000000 0.756100 0.000000
1.000000 0.749752 0.000000
1.000000 0.743099 0.000000
1.000000 0.736385 0.000000
1.000000 0.729732 0.000000
1.000000 0.723171 0.000000
0.000000 0.822690 0.079866
0.000000 0.822843 0.077760
0.000000 0.822995 0.074830
0.000000 0.823209 0.068482
0.000000 0.823392 0.055238
0.000000 0.823636 0.019257
0.000000 0.823819 0.000000
0.000000 0.824033 0.000000
0.004517 0.824033 0.000000
0.211337 0.822873 0.000000
0.299413 0.821530 0.000000
0.371283 0.819913 0.000000
0.434882 0.818143 0.000000
0.493538 0.816220 0.000000
0.548180 0.814206 0.000000
0.599573 0.812192 0.000000
0.648096 0.810147 0.000000
0.694026 0.808194 0.000000
0.737392 0.806363 0.000000
0.778408 0.804685 0.000000
0.817136 0.803250 0.000000
0.853696 0.802090 0.000000
0.888548 0.801755 0.000000
0.922972 0.803677 0.000000
0.956146 0.806943 0.000000
0.982696 0.804471 0.000000
1.000000 0.797635 0.000000
1.000000 0.790372 0.000000
1.000000 0.782803 0.000000
1.000000 0.775143 0.000000
1.000000 0.767483 0.000000
1.000000 0.759823 0.000000
0.000000 0.857542 0.026673
0.000000 0.857633 0.021027
0.000000 0.857694 0.013031
0.000000 0.857786 0.000000
0.000000 0.857877 0.000000
0.000000 0.857969 0.000000
0.000000 0.858030 0.000000
0.000000 0.858000 0.000000
0.000000 0.857908 0.000000
0.196628 0.856901 0.000000
0.288762 0.855467 0.000000
0.362066 0.853819 0.000000
0.426337 0.851987 0.000000
0.484932 0.849973 0.000000
0.539513 0.847868 0.000000
0.590845 0.845701 0.000000
0.639124 0.843565 0.000000
0.684840 0.841428 0.000000
0.727932 0.839475 0.000000
0.768704 0.837522 0.000000
0.807187 0.835874 0.000000
0.843473 0.834409 0.000000
0.877684 0.833158 0.000000
0.910399 0.832822 0.000000
0.943206 0.835386 0.000000
0.974670 0.839170 0.000000
1.000000 0.838376 0.000000
1.000000 0.830259 0.000000
1.000000 0.821805 0.000000
1.000000 0.813230 0.000000
1.000000 0.804623 0.000000
1.000000 0.795895 0.000000
0.000000 0.888945 0.000000
0.000000 0.889006 0.000000
0.000000 0.889097 0.000000
0.000000 0.889097 0.000000
0.000000 0.889097 0.000000
0.000000 0.889067 0.000000
0.000000 0.889036 0.000000
0.000000 0.888853 0.000000
0.000000 0.888579 0.000000
0.187472 0.887633 0.000000
0.281437 0.886137 0.000000
0.354772 0.884428 0.000000
0.418647 0.882567 0.000000
0.477272 0.880522 0.000000
0.531334 0.878416 0.000000
0.582361 0.876188 0.000000
0.630213 0.873930 0.000000
0.675410 0.871733 0.000000
0.718227 0.869596 0.000000
0.758663 0.867613 0.000000
0.796872 0.865721 0.000000
0.832883 0.864012 0.000000
0.866880 0.862577 0.000000
0.898894 0.861326 0.000000
0.929229 0.860655 0.000000
0.960418 0.863737 0.000000
0.990295 0.867918 0.000000
1.000000 0.869596 0.000000
1.000000 0.860288 0.000000
1.000000 0.850797 0.000000
1.000000 0.841154 0.000000
1.000000 0.831510 0.000000
0.000000 0.917784 0.000000
0.000000 0.917815 0.000000
0.000000 0.917815 0.000000
0.000000 0.917784 0.000000
0.000000 0.917723 0.000000
0.000000 0.917571 0.000000
0.000000 0.917388 0.000000
0.000000 0.917021 0.000000
0.000000 0.916503 0.000000
0.186007 0.915557 0.000000
0.278447 0.914000 0.000000
0.350591 0.912291 0.000000
0.413733 0.910369 0.000000
0.471168 0.908293 0.000000
0.524437 0.906126 0.000000
0.574578 0.903807 0.000000
0.621790 0.901518 0.000000
0.666468 0.899229 0.000000
0.708675 0.897002 0.000000
0.748623 0.894865 0.000000
0.786435 0.892851 0.000000
0.822110 0.891020 0.000000
0.855772 0.889311 0.000000
0.887572 0.887816 0.000000
0.917388 0.886534 0.000000
0.945739 0.885771 0.000000
0.975311 0.889189 0.000000
1.000000 0.893675 0.000000
1.000000 0.898283 0.000000
1.000000 0.887877 0.000000
1.000000 0.877287 0.000000
1.000000 0.866697 0.000000
0.000000 0.943603 0.000000
0.000000 0.943603 0.000000
0.000000 0.943603 0.000000
0.000000 0.943542 0.000000
0.000000 0.943389 0.000000
0.000000 0.943175 0.000000
0.000000 0.942809 0.000000
0.000000 0.942351 0.000000
0.029236 0.941650 0.000000
0.193179 0.940642 0.000000
0.280430 0.939117 0.000000
0.350134 0.937377 0.000000
0.411414 0.935485 0.000000
0.467323 0.933410 0.000000
0.519432 0.931212 0.000000
0.568322 0.928985 0.000000
0.614649 0.926635 0.000000
0.658412 0.924346 0.000000
0.699916 0.922026 0.000000
0.739223 0.919829 0.000000
0.776425 0.917693 0.000000
0.811673 0.915709 0.000000
0.844968 0.913878 0.000000
0.876371 0.912230 0.000000
0.906065 0.910735 0.000000
0.933959 0.909453 0.000000
0.960296 0.908415 0.000000
0.988220 0.912078 0.000000
1.000000 0.916686 0.000000
1.000000 0.921996 0.000000
1.000000 0.912963 0.000000
1.000000 0.901427 0.000000
0.000000 0.967010 0.000000
0.000000 0.966979 0.000000
0.000000 0.966949 0.000000
0.000000 0.966827 0.000000
0.000000 0.966583 0.000000
0.000000 0.966278 0.000000
0.000000 0.965820 0.000000
0.000000 0.965179 0.000000
0.088136 0.964324 0.000000
0.207370 0.963165 0.000000
0.287388 0.961639 0.000000
0.353338 0.959930 0.000000
0.411963 0.958038 0.000000
0.465888 0.956023 0.000000
0.516197 0.953857 0.000000
0.563714 0.951629 0.000000
0.608759 0.949310 0.000000
0.651484 0.946960 0.000000
0.691981 0.944671 0.000000
0.730495 0.942412 0.000000
0.767056 0.940246 0.000000
0.801694 0.938140 0.000000
0.834501 0.936217 0.000000
0.865537 0.934386 0.000000
0.894835 0.932769 0.000000
0.922515 0.931304 0.000000
0.948608 0.930053 0.000000
0.973236 0.928985 0.000000
0.999298 0.932372 0.000000
1.000000 0.936889 0.000000
1.000000 0.942077 0.000000
1.000000 0.935637 0.000000
0.000000 0.988098 0.000000
0.000000 0.988067 0.000000
0.000000 0.987976 0.000000
0.000000 0.987854 0.000000
0.000000 0.987549 0.000000
0.000000 0.987182 0.000000
0.000000 0.986603 0.000000
0.000000 0.985870 0.000000
0.126101 0.984863 0.000000
0.228458 0.983551 0.000000
0.299840 0.982025 0.000000
0.360784 0.980407 0.000000
0.415930 0.978607 0.000000
0.467384 0.976623 0.000000
0.515679 0.974487 0.000000
0.561303 0.972290 0.000000
0.604883 0.970001 0.000000
0.646235 0.967712 0.000000
0.685695 0.965393 0.000000
0.723171 0.963134 0.000000
0.758846 0.960906 0.000000
0.792752 0.958770 0.000000
0.824918 0.956725 0.000000
0.855406 0.954833 0.000000
0.884306 0.953063 0.000000
0.911589 0.951415 0.000000
0.937346 0.949950 0.000000
0.961700 0.948608 0.000000
0.984649 0.947478 0.000000
1.000000 0.950408 0.000000
1.000000 0.954833 0.000000
1.000000 0.959777 0.000000
0.000000 1.000000 0.000000
0.000000 1.000000 0.000000
0.000000 1.000000 0.000000
0.000000 1.000000 0.000000
0.000000 1.000000 0.000000
0.000000 1.000000 0.000000
0.000000 1.000000 0.000000
0.000000 1.000000 0.000000
0.160891 1.000000 0.000000
0.253117 1.000000 0.000000
0.315648 1.000000 0.000000
0.371283 0.998596 0.000000
0.422644 0.996796 0.000000
0.470985 0.994873 0.000000
0.516808 0.992798 0.000000
0.560540 0.990631 0.000000
