其他预设/【239】阳光逆光效果预设26款/1.LUT预设（视频调色-PR-AE-PS-FCPX-达芬奇用）/阳光逆光预设__-20.cube
# Created by Adobe Lightroom plugin Export LUT (1.17.0)
# www.johnrellis.com/lightroom/exportlut.htm
# Preset: 阳光逆光预设[素锦印象]-20
# Color profile: /Library/Application Support/Adobe/Color/Profiles/Recommended/AdobeRGB1998.icc
LUT_3D_SIZE 8
DOMAIN_MIN 0.000000 0.000000 0.000000
DOMAIN_MAX 0.903226 0.903226 0.903226
0.109163 0.091035 0.106691
0.205539 0.084382 0.108461
0.343420 0.066651 0.116579
0.481636 0.000732 0.127840
0.623865 0.000000 0.143618
0.753628 0.000000 0.161624
0.872740 0.000000 0.179599
0.982391 0.000000 0.199802
0.117494 0.177768 0.112428
0.207858 0.174411 0.114656
0.343328 0.156680 0.121584
0.480659 0.140169 0.133761
0.622431 0.122499 0.148104
0.751675 0.105715 0.164401
0.870817 0.104036 0.181765
0.981201 0.127962 0.201328
0.144564 0.298497 0.133455
0.210880 0.296605 0.135012
0.344945 0.290593 0.140810
0.482429 0.278477 0.150454
0.623407 0.268986 0.161135
0.752010 0.259342 0.173922
0.872038 0.255680 0.189487
0.981720 0.262791 0.207462
0.182193 0.421881 0.160678
0.231632 0.420844 0.161807
0.349371 0.417609 0.164981
0.487922 0.414588 0.171176
0.628229 0.409277 0.177676
0.753597 0.398627 0.187625
0.871244 0.392767 0.199649
0.980194 0.394507 0.215946
0.217166 0.552728 0.182132
0.258061 0.552026 0.182528
0.363409 0.549798 0.184604
0.493080 0.546502 0.187900
0.626947 0.541466 0.192874
0.752285 0.532586 0.200107
0.869078 0.525963 0.210391
0.978027 0.525994 0.225895
0.252079 0.675166 0.200443
0.285679 0.675593 0.200931
0.378088 0.673701 0.202121
0.497200 0.670924 0.204318
0.624323 0.667231 0.207675
0.750881 0.664179 0.212131
0.868894 0.660029 0.220951
0.976410 0.658625 0.236942
0.289525 0.799191 0.216770
0.317174 0.799039 0.217075
0.397498 0.797543 0.217990
0.506767 0.795560 0.219821
0.626612 0.793027 0.222904
0.748104 0.791257 0.227329
0.865721 0.791012 0.233707
0.973602 0.791043 0.247684
0.334997 0.924285 0.237339
0.357519 0.924010 0.237675
0.426429 0.923186 0.238773
0.525078 0.922240 0.241398
0.635492 0.919371 0.244327
0.750454 0.918578 0.250614
0.862577 0.918791 0.259464
0.967498 0.920043 0.270909
0.111116 0.088991 0.195438
0.204379 0.083772 0.196201
0.340124 0.089082 0.195651
0.477913 0.080293 0.203006
0.620478 0.005432 0.208103
0.749783 0.000000 0.214969
0.869352 0.000000 0.223789
0.980011 0.036713 0.235996
0.120851 0.175662 0.197360
0.208438 0.173037 0.198276
0.340703 0.166232 0.200656
0.478126 0.154635 0.204593
0.620172 0.136660 0.209354
0.748928 0.120577 0.215854
0.868009 0.115846 0.224643
0.978851 0.135683 0.236332
0.155703 0.296147 0.200107
0.220859 0.294072 0.205386
0.344701 0.289403 0.207156
0.480537 0.280430 0.210544
0.621088 0.271702 0.214267
0.748959 0.262150 0.220249
0.868315 0.257939 0.228367
0.979126 0.264591 0.240238
0.191348 0.419623 0.213138
0.239902 0.418585 0.215274
0.352026 0.416175 0.216556
0.485817 0.412055 0.219150
0.623987 0.406867 0.221744
0.749355 0.397131 0.226688
0.867521 0.391913 0.234043
0.977752 0.394598 0.245640
0.223209 0.551324 0.223941
0.262394 0.550500 0.224125
0.365240 0.548028 0.225101
0.492531 0.544152 0.226596
0.624903 0.539025 0.229160
0.750057 0.530755 0.233768
0.867185 0.525048 0.240970
0.976501 0.525628 0.252903
0.256199 0.673487 0.233585
0.288548 0.672999 0.234012
0.379278 0.671321 0.234470
0.497383 0.668910 0.235966
0.623926 0.665766 0.238529
0.750423 0.663233 0.241764
0.868009 0.659297 0.248631
0.975402 0.658106 0.261204
0.292973 0.797147 0.244694
0.319982 0.796597 0.244694
0.399054 0.795377 0.245243
0.507561 0.793851 0.246860
0.626978 0.791775 0.249271
0.747829 0.790036 0.252628
0.864744 0.789578 0.257481
0.972412 0.789761 0.269352
0.339147 0.923064 0.260655
0.361212 0.922911 0.260807
0.429206 0.922240 0.262058
0.527062 0.921324 0.264469
0.637842 0.919951 0.267765
0.751766 0.918730 0.272984
0.862913 0.918395 0.280186
0.967254 0.919463 0.290379
0.129732 0.089479 0.310094
0.203098 0.088960 0.310063
0.341588 0.090669 0.309941
0.479164 0.087129 0.308782
0.620844 0.048219 0.310521
0.749752 0.000000 0.311803
0.869230 0.019593 0.314305
0.979797 0.091646 0.319127
0.154299 0.171450 0.309911
0.216770 0.172000 0.309880
0.342809 0.168124 0.309819
0.479225 0.159823 0.309636
0.620630 0.141756 0.310460
0.748928 0.132479 0.311711
0.868284 0.133669 0.314183
0.979095 0.154360 0.319005
0.175784 0.292912 0.310369
0.231754 0.291600 0.310460
0.348211 0.287755 0.310643
0.482155 0.281254 0.310887
0.622583 0.272557 0.311437
0.749325 0.265721 0.312688
0.868040 0.263859 0.315068
0.978424 0.272465 0.320287
0.204623 0.418189 0.310948
0.249729 0.417243 0.311620
0.357671 0.414954 0.312016
0.488533 0.411322 0.312413
0.625635 0.406561 0.312535
0.750088 0.398505 0.314031
0.867979 0.395178 0.316747
0.977630 0.399329 0.322301
0.232486 0.549706 0.312902
0.270329 0.549096 0.312902
0.370153 0.547051 0.312902
0.495766 0.543633 0.313237
0.627161 0.538933 0.313542
0.750881 0.530968 0.315251
0.867308 0.526452 0.318761
0.976196 0.528557 0.325444
0.266026 0.672328 0.313329
0.298039 0.671809 0.313817
0.387121 0.669978 0.314916
0.501946 0.667384 0.315343
0.626154 0.664332 0.315984
0.750729 0.661982 0.317388
0.867613 0.658991 0.321294
0.975128 0.659724 0.329717
0.304967 0.796628 0.316747
0.332464 0.796017 0.317754
0.409674 0.794491 0.318791
0.514397 0.792721 0.319493
0.631098 0.790677 0.320439
0.750118 0.789364 0.322606
0.865934 0.789761 0.325994
0.972900 0.791104 0.334874
0.354345 0.922148 0.326116
0.377142 0.921660 0.327459
0.441627 0.920867 0.328191
0.536248 0.920317 0.330175
0.643977 0.919005 0.332494
0.755764 0.918120 0.336553
0.865110 0.918151 0.342321
0.967987 0.919677 0.350591
0.169589 0.092683 0.413336
0.225437 0.094331 0.413367
0.348302 0.094789 0.412634
0.484504 0.084932 0.411627
0.623590 0.036378 0.411597
0.749996 0.000000 0.408606
0.868345 0.058350 0.407660
0.978363 0.123110 0.410376
0.190127 0.171664 0.413031
0.237919 0.170748 0.412879
0.352178 0.166690 0.412329
0.485451 0.157534 0.411536
0.623987 0.139864 0.411536
0.749660 0.132998 0.408392
0.867765 0.143282 0.407782
0.977905 0.176699 0.411048
0.208652 0.289433 0.412024
0.252079 0.289006 0.411841
0.358526 0.285405 0.411414
0.488411 0.278996 0.410956
0.625696 0.270451 0.410956
0.750668 0.268406 0.409277
0.868803 0.275212 0.410895
0.978180 0.287846 0.413062
0.228977 0.415991 0.411292
0.267491 0.415290 0.411170
0.367895 0.413001 0.410925
0.494606 0.409277 0.410590
0.628168 0.404334 0.409918
0.750668 0.400946 0.409918
0.867735 0.401282 0.410895
0.977081 0.408423 0.413733
0.252293 0.548028 0.410437
0.286625 0.547234 0.410224
0.380529 0.545190 0.409552
0.503197 0.541955 0.409766
0.631525 0.537743 0.409552
0.752743 0.531823 0.410193
0.868101 0.530205 0.411597
0.975982 0.534630 0.415351
0.284092 0.671382 0.405646
0.314305 0.671473 0.406256
0.400244 0.669306 0.406867
0.514916 0.666285 0.409735
0.633906 0.663661 0.409918
0.754116 0.661585 0.410529
0.868437 0.660212 0.412818
0.974853 0.663325 0.418311
0.320928 0.795377 0.403510
0.346990 0.795102 0.404211
0.425055 0.793729 0.406806
0.530999 0.791714 0.411383
0.641840 0.790127 0.411902
0.756100 0.789029 0.413092
0.868070 0.789639 0.415229
0.972900 0.792325 0.421576
0.369451 0.921752 0.407355
0.391882 0.921477 0.408576
0.460853 0.920134 0.413245
0.553887 0.918761 0.417487
0.655940 0.917662 0.419196
0.763088 0.917144 0.421851
0.868833 0.917632 0.425818
0.969055 0.919738 0.431647
0.218967 0.096529 0.514977
0.261051 0.096437 0.514855
0.367498 0.093690 0.514000
0.495521 0.080140 0.512810
0.628870 0.027100 0.511803
0.752804 0.000000 0.506737
0.869841 0.060975 0.503349
0.979004 0.126558 0.503288
0.230808 0.169192 0.514458
0.269413 0.168551 0.514427
0.370886 0.163638 0.513664
0.496651 0.153628 0.512474
0.629053 0.138155 0.511498
0.752895 0.132387 0.506523
0.869749 0.144381 0.503471
0.978759 0.179232 0.503746
0.244938 0.287175 0.513237
0.280339 0.286320 0.513115
0.376440 0.282536 0.512383
0.499367 0.276371 0.511559
0.630091 0.268742 0.510430
0.752499 0.266636 0.505699
0.868956 0.273289 0.503929
0.977447 0.292607 0.505455
0.260105 0.412940 0.511467
0.293187 0.412238 0.511254
0.384741 0.409888 0.510918
0.505089 0.406714 0.510216
0.632837 0.402930 0.509239
0.753140 0.403235 0.506432
0.868376 0.407691 0.506828
0.976562 0.416388 0.508263
0.280827 0.542687 0.509270
0.310735 0.542290 0.509300
0.397284 0.540612 0.508843
0.514214 0.537835 0.508202
0.636713 0.534691 0.507408
0.754360 0.532525 0.506950
0.868406 0.533043 0.507103
0.975616 0.538415 0.508751
0.308171 0.667628 0.503166
0.335149 0.667170 0.503197
0.415045 0.665126 0.503105
0.526146 0.662135 0.504387
0.641657 0.659693 0.505547
0.757046 0.659236 0.506126
0.869596 0.660365 0.507561
0.974884 0.664820 0.510521
0.343114 0.793088 0.499641
0.366857 0.792599 0.499947
0.439918 0.791104 0.501274
0.542809 0.789059 0.504662
0.650568 0.787869 0.505974
0.760891 0.787442 0.506584
0.869902 0.788510 0.507836
0.972900 0.791958 0.512139
0.387915 0.919524 0.500755
0.408667 0.919158 0.501579
0.473579 0.917906 0.504448
0.564385 0.917266 0.508263
0.663691 0.916350 0.509941
0.767819 0.916075 0.511833
0.871214 0.916838 0.514702
0.969604 0.919219 0.519036
0.262242 0.100069 0.618524
0.295323 0.099641 0.618341
0.386603 0.095277 0.617426
0.504479 0.083009 0.616541
0.630304 0.055207 0.615503
0.755764 0.000000 0.614252
0.871824 0.066163 0.610224
0.979522 0.132509 0.608392
0.269902 0.167361 0.617548
0.301152 0.166140 0.617243
0.389410 0.161959 0.616632
0.505333 0.153353 0.615839
0.630335 0.141848 0.614771
0.755489 0.132815 0.613703
0.871458 0.145754 0.609949
0.979126 0.182559 0.608545
0.283024 0.283879 0.616754
0.311955 0.282963 0.616602
0.396216 0.279942 0.616022
0.509209 0.275090 0.615290
0.632349 0.269627 0.614252
0.756130 0.266453 0.613306
0.871244 0.273991 0.610193
0.978332 0.295048 0.609857
0.296880 0.407599 0.615625
0.324712 0.407141 0.615412
0.407507 0.406378 0.614893
0.518029 0.405249 0.614679
0.637781 0.403265 0.614008
0.757870 0.403479 0.613123
0.871275 0.408087 0.611688
0.977569 0.417365 0.611810
0.314611 0.534325 0.613611
0.340795 0.534081 0.613519
0.419471 0.533471 0.613092
0.529351 0.533715 0.612512
0.643824 0.532799 0.611872
0.758572 0.531304 0.611414
0.870634 0.532433 0.611139
0.976043 0.538537 0.611872
0.337041 0.663294 0.611688
0.361486 0.663203 0.611902
0.435462 0.662074 0.611658
0.539940 0.660304 0.611200
0.649073 0.658534 0.610742
0.761166 0.657923 0.610956
0.871366 0.659510 0.611749
0.974975 0.664698 0.613794
0.368292 0.791318 0.609247
0.390478 0.791104 0.609522
0.459052 0.789731 0.610071
0.553887 0.788022 0.610895
0.657221 0.786923 0.611231
0.764981 0.786770 0.611810
0.871977 0.788296 0.613031
0.973175 0.792386 0.616541
0.410071 0.917967 0.609400
0.429145 0.917601 0.609827
0.488289 0.916564 0.611139
0.571954 0.915801 0.612573
0.668879 0.915160 0.613825
0.771206 0.915160 0.615717
0.872831 0.916289 0.618372
0.969451 0.919066 0.622095
0.294469 0.099550 0.736751
0.322393 0.098482 0.736995
0.403113 0.094270 0.736416
0.512352 0.081117 0.735805
0.632013 0.060761 0.734890
0.753017 0.038422 0.734066
0.870024 0.070832 0.733425
0.976806 0.135378 0.730556
0.299168 0.163485 0.735073
0.326116 0.162203 0.735286
0.404913 0.158297 0.734890
0.512718 0.150454 0.734218
0.631586 0.141238 0.733272
0.751919 0.135958 0.732265
0.868467 0.144320 0.731472
0.975189 0.180392 0.728969
0.310246 0.279057 0.735439
0.335821 0.278141 0.735256
0.411444 0.275608 0.734646
0.516869 0.271611 0.734035
0.633906 0.267308 0.732998
0.753170 0.266056 0.732235
0.869078 0.272435 0.732143
0.975433 0.294347 0.730800
0.325994 0.403357 0.735378
0.350530 0.403204 0.735073
0.424414 0.402777 0.734310
0.526024 0.401099 0.733974
0.640009 0.399573 0.733272
0.756741 0.400916 0.732937
0.870024 0.405768 0.733211
0.975067 0.415778 0.732540
0.341802 0.528374 0.733577
0.364904 0.528161 0.733181
0.436316 0.528099 0.732509
0.537743 0.529351 0.732082
0.646021 0.527825 0.731777
0.758236 0.527001 0.731624
0.868956 0.528954 0.732082
0.973480 0.536797 0.732784
0.362921 0.656153 0.732998
0.384710 0.656062 0.732937
0.452857 0.656062 0.732753
0.547875 0.656092 0.732723
0.652308 0.655146 0.732784
0.761837 0.655238 0.733425
0.870268 0.657252 0.734340
0.972198 0.663081 0.734859
0.390204 0.786435 0.734218
0.410590 0.786435 0.734432
0.473182 0.785855 0.734463
0.560174 0.785214 0.734707
0.659876 0.784360 0.734615
0.765011 0.784421 0.734859
0.870603 0.786526 0.736172
0.969848 0.791867 0.738888
0.425879 0.915038 0.735012
0.443030 0.914794 0.735134
0.497993 0.914946 0.736263
0.577203 0.914549 0.736965
0.671351 0.914061 0.737575
0.771603 0.914122 0.738613
0.872435 0.915312 0.741665
0.966644 0.918639 0.744900
0.308568 0.094453 0.874113
0.333562 0.092836 0.874235
0.408026 0.085969 0.873716
0.511559 0.073030 0.873594
0.626947 0.054749 0.873350
0.744533 0.047211 0.873228
0.859312 0.084657 0.873594
0.967132 0.136690 0.874022
0.311681 0.156832 0.873289
0.336156 0.155581 0.873442
0.409644 0.151217 0.873075
0.512291 0.144503 0.872831
0.627131 0.137758 0.872679
0.744442 0.136538 0.872496
0.858854 0.150149 0.872709
0.966461 0.182498 0.873167
0.319677 0.271214 0.872801
0.343145 0.270573 0.872862
0.414435 0.268101 0.872251
0.515770 0.265476 0.872831
0.629267 0.262699 0.872465
0.745418 0.262943 0.872068
0.858946 0.271153 0.872374
0.965759 0.290867 0.873075
0.334356 0.395666 0.872953
0.356909 0.395483 0.873075
0.425086 0.394293 0.872709
0.523156 0.393133 0.872770
0.634363 0.392706 0.872709
0.748562 0.394598 0.872557
0.859892 0.400092 0.873075
0.965179 0.409979 0.874205
0.351507 0.521294 0.872831
0.373388 0.521538 0.872984
0.440467 0.522026 0.872679
0.533440 0.521233 0.872709
0.639612 0.519951 0.872557
0.750271 0.520104 0.872648
0.859709 0.523522 0.873625
0.964111 0.532250 0.875700
0.373846 0.648859 0.873533
0.393683 0.648768 0.873289
0.455207 0.648554 0.872831
0.542168 0.647425 0.872679
0.643946 0.646387 0.873106
0.752743 0.647608 0.874510
0.860899 0.652247 0.876768
0.963470 0.660883 0.879850
0.402502 0.778531 0.876310
0.419989 0.778408 0.876219
0.474861 0.777920 0.876005
0.556512 0.777462 0.876249
0.653803 0.777340 0.876768
0.757717 0.778439 0.877897
0.862760 0.783383 0.880308
0.960693 0.789578 0.882109
0.434333 0.909545 0.881590
0.449409 0.909392 0.881498
0.498543 0.909117 0.881590
0.574640 0.909026 0.882078
0.666346 0.909178 0.882719
0.764889 0.910033 0.883543
0.864775 0.912261 0.884855
0.957794 0.916655 0.886900
