其他预设/【239】阳光逆光效果预设26款/1.LUT预设（视频调色-PR-AE-PS-FCPX-达芬奇用）/阳光逆光预设__-1.cube
# Created by Adobe Lightroom plugin Export LUT (1.17.0)
# www.johnrellis.com/lightroom/exportlut.htm
# Preset: 阳光逆光预设[素锦印象]-1
# Color profile: /Library/Application Support/Adobe/Color/Profiles/Recommended/AdobeRGB1998.icc
LUT_3D_SIZE 8
DOMAIN_MIN 0.000000 0.000000 0.000000
DOMAIN_MAX 0.903226 0.903226 0.903226
0.091737 0.091341 0.091371
0.167636 0.069429 0.089876
0.300572 0.059846 0.078553
0.431464 0.055512 0.067842
0.561883 0.053315 0.073152
0.698848 0.020356 0.073030
0.822812 0.000000 0.068513
0.941711 0.000000 0.057343
0.085817 0.156435 0.090883
0.166903 0.161105 0.078950
0.298589 0.151064 0.069062
0.427924 0.145113 0.069368
0.558160 0.141054 0.074128
0.692378 0.133883 0.071809
0.817258 0.122530 0.065949
0.938323 0.108675 0.050965
0.124178 0.268101 0.110628
0.175326 0.263249 0.119326
0.296849 0.280491 0.074128
0.428809 0.273350 0.069215
0.562615 0.267826 0.068421
0.694087 0.261479 0.065217
0.822324 0.254551 0.059052
0.942046 0.246464 0.036500
0.170871 0.381323 0.144808
0.207858 0.378027 0.150576
0.295232 0.376806 0.159304
0.434455 0.404822 0.074678
0.572015 0.400824 0.038819
0.699001 0.390784 0.017334
0.821744 0.381933 0.010529
0.940215 0.373785 0.000000
0.220066 0.496773 0.182071
0.248417 0.494392 0.186526
0.324346 0.487465 0.202182
0.423743 0.500389 0.176669
0.564080 0.521172 0.061219
0.693507 0.514092 0.000000
0.816800 0.505089 0.000000
0.937560 0.498329 0.000000
0.267704 0.613336 0.217502
0.292180 0.614343 0.222019
0.359442 0.608972 0.234226
0.448005 0.600488 0.255497
0.555627 0.624170 0.185458
0.693538 0.639429 0.000000
0.817533 0.631556 0.000000
0.937713 0.624598 0.000000
0.319646 0.735439 0.258549
0.339422 0.734951 0.261936
0.398413 0.730434 0.272282
0.482551 0.723964 0.291173
0.573480 0.723903 0.291539
0.686305 0.747982 0.192325
0.819608 0.759701 0.000000
0.935119 0.749660 0.000000
0.383734 0.861601 0.315526
0.400000 0.860746 0.318486
0.452308 0.858305 0.329229
0.531640 0.855070 0.349493
0.618830 0.845518 0.373541
0.707637 0.857877 0.338598
0.819577 0.879789 0.205844
0.947509 0.888090 0.000000
0.071321 0.094362 0.152987
0.165835 0.068666 0.153872
0.295354 0.083528 0.148165
0.425147 0.091371 0.148287
0.555962 0.081788 0.144564
0.688899 0.062745 0.141115
0.814237 0.000732 0.136355
0.935515 0.000000 0.129000
0.074708 0.160372 0.152560
0.167849 0.159670 0.151339
0.295109 0.157961 0.148714
0.424506 0.154208 0.145724
0.555688 0.148165 0.142794
0.686183 0.138918 0.139162
0.810422 0.125368 0.133974
0.932067 0.107790 0.126497
0.127413 0.271275 0.156344
0.187869 0.267399 0.168307
0.296452 0.278721 0.145907
0.425971 0.271061 0.135683
0.557000 0.265904 0.135927
0.686610 0.259586 0.133700
0.812345 0.251865 0.129274
0.934722 0.243565 0.122499
0.177188 0.381781 0.180362
0.217288 0.379126 0.188479
0.300298 0.374456 0.200504
0.428351 0.398444 0.139803
0.560479 0.392157 0.123598
0.687251 0.383581 0.119020
0.811398 0.376287 0.116548
0.933227 0.369696 0.110048
0.227359 0.496956 0.211795
0.254612 0.494270 0.215213
0.328283 0.486702 0.228000
0.422065 0.495186 0.210391
0.557671 0.514824 0.130465
0.687343 0.508812 0.103792
0.811673 0.500877 0.092317
0.933349 0.494850 0.083833
0.271000 0.611353 0.239414
0.293736 0.610010 0.242496
0.359777 0.604974 0.253239
0.447761 0.597436 0.272496
0.553582 0.620478 0.215824
0.691493 0.637140 0.115846
0.815122 0.629084 0.070710
0.934905 0.621759 0.021515
0.319432 0.731624 0.274327
0.338231 0.729915 0.276768
0.397162 0.726131 0.286503
0.481636 0.720943 0.304692
0.572961 0.720729 0.309392
0.683955 0.744747 0.219852
0.815854 0.755856 0.082155
0.931273 0.745815 0.000000
0.382300 0.859373 0.327123
0.398901 0.858946 0.330205
0.451575 0.856748 0.340734
0.531151 0.853758 0.360418
0.622492 0.848539 0.387793
0.709468 0.858427 0.356634
0.818814 0.878813 0.232029
0.945983 0.886473 0.000000
0.058350 0.081239 0.265049
0.155215 0.078096 0.264714
0.294408 0.088197 0.264897
0.425666 0.091981 0.259251
0.558709 0.090028 0.255863
0.690150 0.093599 0.255528
0.816037 0.065400 0.250797
0.937469 0.000000 0.244450
0.105653 0.165377 0.263188
0.168276 0.161105 0.262943
0.295109 0.159579 0.262730
0.424262 0.158511 0.257877
0.557000 0.155398 0.254856
0.687556 0.151736 0.253208
0.813321 0.136080 0.248173
0.935637 0.112734 0.242283
0.120821 0.278477 0.260594
0.181003 0.278843 0.260807
0.299107 0.276738 0.256443
0.427497 0.271580 0.252628
0.559777 0.268376 0.250797
0.688411 0.262455 0.247532
0.813169 0.253788 0.243534
0.935027 0.242924 0.237888
0.167269 0.392157 0.260807
0.214817 0.391150 0.264225
0.316197 0.384161 0.279240
0.431617 0.398749 0.248753
0.563531 0.390265 0.236362
0.689937 0.382910 0.235630
0.813931 0.376104 0.234012
0.935119 0.368383 0.229770
0.220340 0.503471 0.275090
0.255070 0.502312 0.279759
0.340917 0.495521 0.294560
0.431067 0.495796 0.295384
0.561364 0.516228 0.241367
0.689326 0.507652 0.223331
0.812924 0.498634 0.216342
0.934356 0.492531 0.214633
0.268620 0.617060 0.295262
0.296391 0.615808 0.299931
0.368841 0.610163 0.312016
0.456123 0.601892 0.326757
0.555352 0.617914 0.295415
0.689998 0.634546 0.230747
0.813962 0.626246 0.207767
0.935851 0.619745 0.198276
0.322545 0.736507 0.326513
0.343175 0.734951 0.329595
0.403143 0.730343 0.337743
0.487098 0.723964 0.352239
0.578576 0.718349 0.367590
0.684657 0.743587 0.297093
0.817350 0.756771 0.214755
0.934417 0.747280 0.182864
0.384833 0.861662 0.371801
0.399176 0.860655 0.372473
0.452247 0.857908 0.381292
0.533684 0.855650 0.399908
0.625391 0.850034 0.424506
0.712978 0.857023 0.410529
0.819150 0.878660 0.307195
0.946777 0.887480 0.191348
0.065736 0.088960 0.374762
0.155215 0.094026 0.374945
0.289067 0.097536 0.373602
0.423438 0.096223 0.373663
0.557305 0.091279 0.370977
0.686793 0.083589 0.366613
0.811307 0.072175 0.363348
0.933410 0.031067 0.362066
0.102968 0.163882 0.374792
0.168429 0.163882 0.374517
0.292821 0.162539 0.373144
0.424292 0.159365 0.372992
0.557366 0.155764 0.370306
0.685573 0.149477 0.365576
0.809903 0.141939 0.362371
0.932952 0.118502 0.359197
0.139223 0.283268 0.371710
0.190341 0.283360 0.371344
0.298558 0.277226 0.370428
0.427192 0.275120 0.371313
0.558648 0.271702 0.368566
0.688014 0.267460 0.365515
0.814633 0.260166 0.363165
0.936065 0.240757 0.355505
0.158633 0.398322 0.370153
0.203799 0.398322 0.370184
0.308995 0.398016 0.370214
0.433143 0.394629 0.363348
0.561151 0.387335 0.358556
0.687648 0.381415 0.355200
0.812589 0.373449 0.351476
0.935393 0.363195 0.346471
0.201938 0.514763 0.369268
0.239384 0.512963 0.369360
0.335668 0.508293 0.372869
0.446021 0.499245 0.388617
0.564691 0.515557 0.352605
0.691524 0.503899 0.338994
0.814786 0.494820 0.335760
0.935851 0.487160 0.332891
0.256962 0.626123 0.376623
0.286809 0.626947 0.379644
0.367987 0.622766 0.386847
0.468330 0.614343 0.401740
0.562951 0.618402 0.395575
0.692714 0.634943 0.343359
0.815763 0.623651 0.324163
0.937438 0.614588 0.314885
0.312444 0.741817 0.396399
0.335882 0.741390 0.399329
0.406500 0.739193 0.410407
0.493751 0.733455 0.421576
0.589227 0.724941 0.439704
0.687648 0.743893 0.396368
0.818509 0.757046 0.329992
0.936095 0.745785 0.304234
0.385260 0.866789 0.437812
0.404578 0.866331 0.441779
0.460700 0.864134 0.451942
0.533257 0.860502 0.458595
0.627924 0.854368 0.480049
0.719265 0.854185 0.490578
0.818692 0.877775 0.404974
0.946990 0.888212 0.314458
0.082216 0.105409 0.484474
0.157870 0.106355 0.484413
0.286473 0.107485 0.483101
0.419989 0.104555 0.481392
0.556268 0.095583 0.484718
0.685695 0.084504 0.480629
0.810117 0.069551 0.476600
0.932586 0.026520 0.475380
0.106874 0.167422 0.483955
0.169253 0.167697 0.484291
0.290684 0.166567 0.483101
0.422400 0.163027 0.481697
0.556298 0.157259 0.483803
0.685634 0.149538 0.480018
0.810056 0.141176 0.476326
0.932372 0.129274 0.475288
0.160800 0.289433 0.481422
0.204990 0.288396 0.481270
0.299199 0.278294 0.481514
0.427039 0.275242 0.480476
0.556207 0.270176 0.480507
0.683436 0.263981 0.476600
0.808377 0.257908 0.474525
0.930724 0.249485 0.473976
0.174777 0.402228 0.480568
0.214939 0.401984 0.480171
0.314153 0.401007 0.479286
0.431891 0.394202 0.478370
0.558892 0.389960 0.477363
0.684596 0.385046 0.474586
0.808865 0.379889 0.474067
0.932036 0.367163 0.471321
0.195193 0.514916 0.476387
0.230747 0.514946 0.476387
0.323156 0.514458 0.476112
0.438239 0.513329 0.475593
0.562615 0.507774 0.465797
0.687556 0.496284 0.459968
0.811551 0.487129 0.456184
0.934447 0.476387 0.451118
0.227726 0.632105 0.474372
0.259617 0.631159 0.474250
0.346075 0.627253 0.473976
0.458289 0.621637 0.478614
0.566430 0.611780 0.492256
0.689937 0.629572 0.451331
0.815579 0.615442 0.437354
0.937682 0.604456 0.432074
0.289708 0.747372 0.482765
0.314061 0.746395 0.483528
0.387060 0.743679 0.487526
0.489784 0.739712 0.499672
0.588800 0.732784 0.510796
0.686580 0.738521 0.502281
0.816281 0.754269 0.441138
0.935821 0.739925 0.417639
0.359777 0.869261 0.508537
0.379492 0.868589 0.510430
0.441932 0.866423 0.518212
0.534295 0.865385 0.535943
0.618463 0.860960 0.540612
0.720638 0.853544 0.564691
0.815457 0.874205 0.511437
0.944396 0.886748 0.431067
0.088655 0.116030 0.603265
0.160830 0.116274 0.603021
0.287846 0.114412 0.601312
0.424079 0.108309 0.601648
0.558160 0.096803 0.599939
0.686305 0.083131 0.595941
0.810086 0.066926 0.591424
0.932616 0.009125 0.590356
0.105776 0.171603 0.600793
0.168704 0.170993 0.600397
0.290562 0.168978 0.599664
0.424292 0.164187 0.599573
0.557336 0.156039 0.597864
0.684993 0.147463 0.594141
0.809079 0.138674 0.590387
0.931914 0.124605 0.589807
0.136049 0.282994 0.601556
0.184360 0.281163 0.601282
0.298680 0.279210 0.600549
0.428351 0.275090 0.599359
0.559777 0.268559 0.597009
0.685512 0.262730 0.592554
0.809171 0.256748 0.589654
0.931792 0.248569 0.589776
0.186099 0.413184 0.599786
0.223239 0.411902 0.599054
0.318914 0.406622 0.598352
0.431830 0.394720 0.599207
0.564691 0.389593 0.597803
0.688563 0.384955 0.592401
0.811093 0.379828 0.590631
0.932769 0.373205 0.591424
0.199771 0.524559 0.595331
0.233921 0.524193 0.595178
0.324437 0.522667 0.594537
0.438331 0.519310 0.593805
0.559747 0.508354 0.592706
0.685664 0.504173 0.588373
0.808499 0.500328 0.589044
0.930663 0.495979 0.591547
0.217105 0.639124 0.590478
0.249668 0.638300 0.589837
0.334173 0.637140 0.589166
0.443549 0.635004 0.588373
0.562402 0.631006 0.587854
0.687526 0.625269 0.580316
0.812833 0.613642 0.575830
0.935607 0.603723 0.572137
0.249454 0.757931 0.588800
0.278141 0.757748 0.589044
0.359014 0.755489 0.589166
0.467445 0.751583 0.591363
0.585016 0.745998 0.598932
0.692531 0.737057 0.611810
0.814878 0.753140 0.567102
0.937255 0.736995 0.550652
0.321660 0.876646 0.599207
0.343114 0.876005 0.599878
0.410071 0.874083 0.602991
0.505516 0.871916 0.610651
0.613031 0.868528 0.623835
0.711696 0.863401 0.632868
0.813046 0.869718 0.626947
0.941253 0.886229 0.559380
0.079652 0.123079 0.724666
0.156191 0.122560 0.724605
0.286137 0.118990 0.724117
0.422461 0.108919 0.723293
0.559289 0.087556 0.721248
0.690578 0.047211 0.718898
0.810483 0.011170 0.709163
0.929870 0.000000 0.705898
0.091249 0.174594 0.724483
0.161563 0.173739 0.724331
0.288029 0.170687 0.723781
0.423011 0.163607 0.722560
0.559380 0.150362 0.720790
0.690791 0.133242 0.718685
0.810422 0.126680 0.708888
0.929839 0.114290 0.705867
0.107607 0.280705 0.723507
0.169711 0.279973 0.723354
0.291295 0.277501 0.722744
0.424079 0.272282 0.721614
0.559533 0.263706 0.719936
0.691218 0.253605 0.717983
0.810269 0.249485 0.708064
0.929839 0.242283 0.706050
0.183139 0.415595 0.721157
0.219852 0.413642 0.720851
0.293675 0.396551 0.721157
0.421820 0.389685 0.720272
0.557641 0.383337 0.718837
0.690852 0.375311 0.717067
0.809903 0.371649 0.707332
0.929870 0.366033 0.706874
0.193332 0.532738 0.718715
0.227634 0.532036 0.718593
0.317998 0.529503 0.718257
0.431678 0.521721 0.717922
0.550530 0.504662 0.717678
0.687984 0.498451 0.715999
0.808988 0.495888 0.707698
0.929625 0.492500 0.709407
0.207431 0.649409 0.716487
0.239261 0.648920 0.716365
0.325261 0.647181 0.716091
0.435615 0.643549 0.715663
0.556817 0.637995 0.715114
0.680751 0.625086 0.714717
0.807797 0.622034 0.709438
0.929168 0.619776 0.713405
0.223789 0.769497 0.714199
0.252689 0.769223 0.714168
0.335271 0.766751 0.712764
0.443336 0.762722 0.710964
0.561700 0.758633 0.710536
0.683619 0.754177 0.711177
0.808652 0.748470 0.705226
0.932647 0.737209 0.701503
0.247776 0.885679 0.708186
0.275090 0.885435 0.708339
0.354772 0.884398 0.709133
0.462562 0.882475 0.711360
0.581567 0.879576 0.715999
0.703639 0.875639 0.726070
0.813748 0.869017 0.739925
0.936065 0.886046 0.697810
0.000000 0.127382 0.860685
0.135683 0.125490 0.860533
0.278477 0.119234 0.859953
0.419562 0.105043 0.859007
0.559564 0.074311 0.857694
0.697688 0.000000 0.856168
0.827207 0.000000 0.854673
0.937346 0.000000 0.836820
0.000000 0.175967 0.860441
0.137057 0.174685 0.860288
0.278721 0.170077 0.859770
0.419471 0.160586 0.858824
0.559289 0.143099 0.857572
0.697322 0.113283 0.856077
0.827054 0.072694 0.854612
0.937224 0.085389 0.836820
0.000000 0.280034 0.859831
0.132601 0.279210 0.859709
0.276158 0.275944 0.859251
0.417151 0.269566 0.858427
0.557275 0.259342 0.857267
0.695705 0.244602 0.855924
0.826291 0.229557 0.854551
0.936706 0.231754 0.836912
0.151583 0.418555 0.858183
0.167880 0.408911 0.858488
0.262516 0.392126 0.858762
0.408698 0.387335 0.858030
0.551232 0.379919 0.857023
0.691249 0.369787 0.855802
0.824094 0.359319 0.854582
0.935668 0.359869 0.837583
0.149081 0.541527 0.856596
0.192477 0.539849 0.856596
0.294316 0.533776 0.856748
0.414832 0.522301 0.857053
0.538323 0.502373 0.857053
0.682582 0.495338 0.855894
0.819669 0.488106 0.854704
0.933776 0.488838 0.839200
0.162844 0.661189 0.855192
0.202518 0.660487 0.855192
0.299229 0.657771 0.855253
0.417243 0.652827 0.855344
0.543908 0.643732 0.855589
0.669429 0.623835 0.856016
0.812619 0.617823 0.854887
0.931304 0.618067 0.842344
0.179873 0.783780 0.854124
0.215610 0.783291 0.854124
0.307195 0.781430 0.854185
0.423224 0.778073 0.854276
0.547021 0.772946 0.854398
0.673243 0.765713 0.854612
0.800015 0.751217 0.855283
0.928038 0.752407 0.848081
0.199924 0.910277 0.853880
0.232181 0.909941 0.853910
0.319646 0.908751 0.853971
0.431647 0.906493 0.854154
0.554009 0.900694 0.852262
0.678676 0.894835 0.851621
0.805753 0.889128 0.853208
0.926207 0.887236 0.857359
