其他预设/【239】阳光逆光效果预设26款/1.LUT预设（视频调色-PR-AE-PS-FCPX-达芬奇用）/阳光逆光预设__-5.cube
# Created by Adobe Lightroom plugin Export LUT (1.17.0)
# www.johnrellis.com/lightroom/exportlut.htm
# Preset: 阳光逆光预设[素锦印象]-5
# Color profile: /Library/Application Support/Adobe/Color/Profiles/Recommended/AdobeRGB1998.icc
LUT_3D_SIZE 32
0.000000 0.000000 0.000000
0.000000 0.000000 0.000000
0.021729 0.000000 0.000000
0.082612 0.000000 0.000000
0.117494 0.000000 0.000000
0.151308 0.000000 0.000000
0.185733 0.000000 0.000000
0.220951 0.000000 0.000000
0.257084 0.000000 0.000000
0.293584 0.000000 0.000000
0.330938 0.000000 0.000000
0.368780 0.000000 0.000000
0.407172 0.000000 0.000000
0.446357 0.000000 0.000000
0.486152 0.000000 0.000000
0.526452 0.000000 0.000000
0.567132 0.000000 0.000000
0.607813 0.000000 0.000000
0.647852 0.000000 0.000000
0.686488 0.000000 0.000000
0.723720 0.000000 0.000000
0.759945 0.000000 0.000000
0.795285 0.000000 0.000000
0.829496 0.000000 0.000000
0.862730 0.000000 0.000000
0.894713 0.000000 0.000000
0.925505 0.000000 0.000000
0.955108 0.000000 0.000000
0.983368 0.000000 0.000000
1.000000 0.000000 0.000000
1.000000 0.000000 0.000000
1.000000 0.000000 0.000000
0.000000 0.000000 0.000000
0.000000 0.000000 0.000000
0.028504 0.000000 0.000000
0.084443 0.000000 0.000000
0.118502 0.000000 0.000000
0.152193 0.000000 0.000000
0.187106 0.000000 0.000000
0.222293 0.000000 0.000000
0.258488 0.000000 0.000000
0.295232 0.000000 0.000000
0.332677 0.000000 0.000000
0.370642 0.000000 0.000000
0.409400 0.000000 0.000000
0.448737 0.000000 0.000000
0.488685 0.000000 0.000000
0.529107 0.000000 0.000000
0.569879 0.000000 0.000000
0.610651 0.000000 0.000000
0.650721 0.000000 0.000000
0.689204 0.000000 0.000000
0.726314 0.000000 0.000000
0.762387 0.000000 0.000000
0.797513 0.000000 0.000000
0.831601 0.000000 0.000000
0.864622 0.000000 0.000000
0.896452 0.000000 0.000000
0.927062 0.000000 0.000000
0.956512 0.000000 0.000000
0.984588 0.000000 0.000000
1.000000 0.000000 0.000000
1.000000 0.000000 0.000000
1.000000 0.000000 0.000000
0.000000 0.022858 0.000000
0.000000 0.028870 0.000000
0.031586 0.027649 0.000000
0.085359 0.031739 0.000000
0.119417 0.026032 0.000000
0.153384 0.021637 0.000000
0.188174 0.015564 0.000000
0.223575 0.011475 0.000000
0.259739 0.006867 0.000000
0.296635 0.002777 0.000000
0.334112 0.000000 0.000000
0.372229 0.000000 0.000000
0.410895 0.000000 0.000000
0.450294 0.000000 0.000000
0.490242 0.000000 0.000000
0.530846 0.000000 0.000000
0.571679 0.000000 0.000000
0.612543 0.000000 0.000000
0.652522 0.000000 0.000000
0.690822 0.000000 0.000000
0.727840 0.000000 0.000000
0.763729 0.000000 0.000000
0.798734 0.000000 0.000000
0.832731 0.000000 0.000000
0.865660 0.000000 0.000000
0.897398 0.000000 0.000000
0.927947 0.000000 0.000000
0.957244 0.000000 0.000000
0.985260 0.000000 0.000000
1.000000 0.000000 0.000000
1.000000 0.000000 0.000000
1.000000 0.000000 0.000000
0.000000 0.080720 0.000000
0.000000 0.081392 0.000000
0.043397 0.081209 0.000000
0.083345 0.077974 0.000000
0.119539 0.078401 0.000000
0.155062 0.077272 0.000000
0.189700 0.076020 0.000000
0.225162 0.075288 0.000000
0.261295 0.075135 0.000000
0.298314 0.073426 0.000000
0.335851 0.071260 0.000000
0.374090 0.067842 0.000000
0.412909 0.064240 0.000000
0.452338 0.058656 0.000000
0.492500 0.045441 0.000000
0.533104 0.022736 0.000000
0.574060 0.000000 0.000000
0.614954 0.000000 0.000000
0.655055 0.000000 0.000000
0.693355 0.000000 0.000000
0.730373 0.000000 0.000000
0.766140 0.000000 0.000000
0.800870 0.000000 0.000000
0.834409 0.000000 0.000000
0.866850 0.000000 0.000000
0.898161 0.000000 0.000000
0.928374 0.000000 0.000000
0.957519 0.000000 0.000000
0.985443 0.000000 0.000000
1.000000 0.000000 0.000000
1.000000 0.000000 0.000000
1.000000 0.000000 0.000000
0.000000 0.112917 0.000000
0.004822 0.112825 0.000000
0.050233 0.112703 0.000000
0.087129 0.111086 0.000000
0.116182 0.107546 0.000000
0.153201 0.111604 0.000000
0.191958 0.113222 0.000000
0.228092 0.113497 0.000000
0.264439 0.113039 0.000000
0.301335 0.112734 0.000000
0.338933 0.111849 0.000000
0.377203 0.110811 0.000000
0.416052 0.108736 0.000000
0.455482 0.106569 0.000000
0.495369 0.103120 0.000000
0.535698 0.098116 0.000000
0.576471 0.091218 0.000000
0.616999 0.082918 0.000000
0.656855 0.072084 0.000000
0.695003 0.056947 0.000000
0.731899 0.020020 0.000000
0.767697 0.000000 0.000000
0.802243 0.000000 0.000000
0.835691 0.000000 0.000000
0.867948 0.000000 0.000000
0.899077 0.000000 0.000000
0.929168 0.000000 0.000000
0.958221 0.000000 0.000000
0.986084 0.000000 0.000000
1.000000 0.000000 0.000000
1.000000 0.000000 0.000000
1.000000 0.000000 0.000000
0.000000 0.144228 0.000000
0.018738 0.144137 0.000000
0.059113 0.144259 0.000000
0.090974 0.144228 0.000000
0.121920 0.141054 0.000000
0.148775 0.137209 0.000000
0.187472 0.143709 0.000000
0.227268 0.147219 0.000000
0.266697 0.148318 0.000000
0.303624 0.148440 0.000000
0.341222 0.148501 0.000000
0.379522 0.148104 0.000000
0.418219 0.147402 0.000000
0.457740 0.145724 0.000000
0.497566 0.143618 0.000000
0.537804 0.140566 0.000000
0.578332 0.136660 0.000000
0.618616 0.132174 0.000000
0.658076 0.126223 0.000000
0.696010 0.119692 0.000000
0.732631 0.112001 0.000000
0.768154 0.102846 0.000000
0.789822 0.090578 0.000000
0.824155 0.079194 0.000000
0.857450 0.065461 0.000000
0.889586 0.038544 0.000000
0.920745 0.000580 0.000000
0.950774 0.000000 0.000000
0.979553 0.000000 0.000000
1.000000 0.000000 0.000000
1.000000 0.000000 0.000000
1.000000 0.000000 0.000000
0.002655 0.173556 0.000000
0.034211 0.173617 0.000000
0.065248 0.173587 0.000000
0.094331 0.173709 0.000000
0.125154 0.172671 0.000000
0.154116 0.169253 0.000000
0.179934 0.165621 0.000000
0.219089 0.172915 0.000000
0.259403 0.177615 0.000000
0.299962 0.180026 0.000000
0.338354 0.180789 0.000000
0.376104 0.180941 0.000000
0.414710 0.180758 0.000000
0.454108 0.180209 0.000000
0.494240 0.178866 0.000000
0.534844 0.177157 0.000000
0.575555 0.174929 0.000000
0.616022 0.171939 0.000000
0.655329 0.168124 0.000000
0.692805 0.163394 0.000000
0.728664 0.157961 0.000000
0.763149 0.152041 0.000000
0.796506 0.145571 0.000000
0.828946 0.138613 0.000000
0.860716 0.131716 0.000000
0.891936 0.124361 0.000000
0.922545 0.117372 0.000000
0.952300 0.110323 0.000000
0.980896 0.102846 0.000000
1.000000 0.095949 0.000000
1.000000 0.088472 0.000000
1.000000 0.082063 0.000000
0.026429 0.206363 0.000000
0.057282 0.206485 0.000000
0.074281 0.206668 0.000000
0.100984 0.206851 0.000000
0.131624 0.207095 0.000000
0.161746 0.204623 0.000000
0.189883 0.201297 0.000000
0.215976 0.197848 0.007446
0.255924 0.205600 0.000000
0.297032 0.210727 0.000000
0.338323 0.213748 0.000000
0.379583 0.215366 0.000000
0.418189 0.215488 0.000000
0.457527 0.215335 0.000000
0.497719 0.214847 0.000000
0.538323 0.213748 0.000000
0.578973 0.212253 0.000000
0.619318 0.210147 0.000000
0.658442 0.207218 0.000000
0.695674 0.203586 0.000000
0.731350 0.199344 0.000000
0.765713 0.194553 0.000000
0.798947 0.189639 0.000000
0.831296 0.184268 0.000000
0.862882 0.178988 0.000000
0.893919 0.173953 0.000000
0.924315 0.168826 0.000000
0.953857 0.163790 0.000000
0.982238 0.159030 0.000000
1.000000 0.154482 0.000000
1.000000 0.150149 0.000000
1.000000 0.146120 0.000000
0.057008 0.240269 0.000000
0.071290 0.240269 0.000000
0.085420 0.240482 0.000000
0.109834 0.240604 0.000000
0.138949 0.241001 0.000000
0.169192 0.240360 0.000000
0.198703 0.237583 0.000000
0.226749 0.234287 0.000000
0.253178 0.230625 0.008972
0.293278 0.238071 0.001038
0.334966 0.243381 0.000000
0.376837 0.246799 0.000000
0.419226 0.248997 0.000000
0.460578 0.249851 0.000000
0.500542 0.249851 0.000000
0.541100 0.249485 0.000000
0.581720 0.248447 0.000000
0.622034 0.247044 0.000000
0.660761 0.244724 0.000000
0.697841 0.241611 0.000000
0.733394 0.238071 0.000000
0.767636 0.233921 0.000000
0.800809 0.229587 0.000000
0.833005 0.225284 0.000000
0.864500 0.220859 0.000000
0.895415 0.216312 0.000000
0.925689 0.212100 0.000000
0.955077 0.208103 0.000000
0.983337 0.204227 0.000000
1.000000 0.200381 0.000000
1.000000 0.196658 0.000000
1.000000 0.193393 0.000000
0.073793 0.274754 0.000000
0.084413 0.274937 0.000000
0.096376 0.275120 0.000000
0.119142 0.275212 0.000000
0.146456 0.275700 0.000000
0.176486 0.276066 0.000000
0.206729 0.274205 0.000000
0.236271 0.271153 0.000000
0.264622 0.267857 0.000000
0.291508 0.264073 0.008972
0.331640 0.270939 0.006409
0.374090 0.276524 0.000000
0.416907 0.280491 0.000000
0.459907 0.282994 0.000000
0.503349 0.284428 0.000000
0.543664 0.284337 0.000000
0.583795 0.283696 0.000000
0.623590 0.282506 0.000000
0.662043 0.280797 0.000000
0.699001 0.277989 0.000000
0.734768 0.275029 0.000000
0.769314 0.271489 0.000000
0.802823 0.267704 0.000000
0.835203 0.263951 0.000000
0.866789 0.259953 0.000000
0.897551 0.256046 0.000000
0.927581 0.252262 0.000000
0.956603 0.248631 0.000000
0.984558 0.244999 0.000000
1.000000 0.241367 0.000000
1.000000 0.238102 0.000000
1.000000 0.234684 0.000000
0.086122 0.310582 0.000000
0.095094 0.310643 0.000000
0.107027 0.310826 0.000000
0.127657 0.310826 0.000000
0.154330 0.311040 0.000000
0.183597 0.311284 0.000000
0.214481 0.310857 0.000000
0.244602 0.308110 0.000000
0.274235 0.304723 0.000000
0.302922 0.301244 0.000000
0.330266 0.297490 0.011170
0.370489 0.303990 0.012634
0.413642 0.309850 0.000000
0.457099 0.314000 0.000000
0.500725 0.316899 0.000000
0.544427 0.318608 0.000000
0.586755 0.318944 0.000000
0.626429 0.318212 0.000000
0.664637 0.316472 0.000000
0.701411 0.314214 0.000000
0.736904 0.311376 0.000000
0.771267 0.308080 0.000000
0.804532 0.304723 0.000000
0.836759 0.301030 0.000000
0.868193 0.297307 0.000000
0.898894 0.293736 0.000000
0.928801 0.290257 0.000000
0.957794 0.286839 0.000000
0.985626 0.283391 0.000000
1.000000 0.280125 0.000000
1.000000 0.276829 0.000000
1.000000 0.273564 0.000000
0.098268 0.346105 0.000000
0.106325 0.346136 0.000000
0.116976 0.346166 0.000000
0.136446 0.346227 0.000000
0.162112 0.346349 0.000000
0.190677 0.346502 0.000000
0.221256 0.346654 0.000000
0.252323 0.344854 0.000000
0.282750 0.341772 0.000000
0.312505 0.338323 0.000000
0.341405 0.334569 0.000000
0.369024 0.330541 0.012757
0.400153 0.329595 0.022004
0.443275 0.335882 0.000000
0.486580 0.340490 0.000000
0.530144 0.343786 0.000000
0.573877 0.346075 0.000000
0.617151 0.347204 0.000000
0.656611 0.346563 0.000000
0.694026 0.345098 0.000000
0.730282 0.343023 0.000000
0.765347 0.340459 0.000000
0.799405 0.337591 0.000000
0.832456 0.334630 0.000000
0.864500 0.331426 0.000000
0.895628 0.328252 0.000000
0.925963 0.325078 0.000000
0.955322 0.322026 0.000000
0.983551 0.318883 0.000000
1.000000 0.315740 0.000000
1.000000 0.312657 0.000000
1.000000 0.309514 0.000000
0.108034 0.377295 0.000000
0.115480 0.377447 0.000000
0.125582 0.377661 0.000000
0.143862 0.378058 0.000000
0.168399 0.378668 0.000000
0.196384 0.379248 0.000000
0.226413 0.379706 0.000000
0.257908 0.379675 0.000000
0.288853 0.376715 0.000000
0.319127 0.373114 0.000000
0.348425 0.369024 0.000000
0.376532 0.364385 0.000000
0.403449 0.359716 0.017090
0.442237 0.364813 0.034913
0.485206 0.370581 0.000000
0.528527 0.375097 0.000000
0.572168 0.378332 0.000000
0.615656 0.380591 0.000000
0.657832 0.381353 0.000000
0.697597 0.380591 0.000000
0.733577 0.378607 0.000000
0.768429 0.376165 0.000000
0.802274 0.373510 0.000000
0.835080 0.370550 0.000000
0.866941 0.367529 0.000000
0.897856 0.364385 0.000000
0.928008 0.361334 0.000000
0.957153 0.358282 0.000000
0.985138 0.355138 0.000000
1.000000 0.352056 0.000000
1.000000 0.348852 0.000000
1.000000 0.345586 0.000000
0.119539 0.413947 0.000000
0.126680 0.413947 0.000000
0.135531 0.414252 0.000000
0.152956 0.414649 0.000000
0.176608 0.415137 0.000000
0.204196 0.415595 0.000000
0.233890 0.416052 0.000000
0.265141 0.416175 0.000000
0.296849 0.414588 0.000000
0.327947 0.411231 0.000000
0.358282 0.407172 0.000000
0.387762 0.402716 0.000000
0.416114 0.398077 0.000000
0.443549 0.393469 0.021485
0.481971 0.398047 0.052186
0.526268 0.404700 0.000000
0.570153 0.409400 0.000000
0.613855 0.413001 0.000000
0.656306 0.414740 0.000000
0.696864 0.414954 0.000000
0.735683 0.413825 0.000000
0.771267 0.411536 0.000000
0.804807 0.408881 0.000000
0.837400 0.405921 0.000000
0.868986 0.402960 0.000000
0.899687 0.399878 0.000000
0.929595 0.396857 0.000000
0.958526 0.393744 0.000000
0.986297 0.390631 0.000000
1.000000 0.387427 0.000000
1.000000 0.384161 0.000000
1.000000 0.380682 0.000000
0.130861 0.450141 0.000000
0.137392 0.450111 0.000000
0.145663 0.450355 0.000000
0.162325 0.450752 0.000000
0.185061 0.451240 0.000000
0.212009 0.451881 0.000000
0.241001 0.452216 0.000000
0.272007 0.452369 0.000000
0.304173 0.452155 0.000000
0.336004 0.449042 0.000000
0.367041 0.445136 0.000000
0.397436 0.440803 0.000000
0.427070 0.436286 0.000000
0.455940 0.431800 0.000000
0.483925 0.427314 0.028840
0.522148 0.431647 0.063813
0.567193 0.438788 0.000000
0.611231 0.443763 0.000000
0.653986 0.446876 0.000000
0.695003 0.448127 0.000000
0.734127 0.447913 0.000000
0.771633 0.446448 0.000000
0.807431 0.444160 0.000000
0.839719 0.441230 0.000000
0.870970 0.438087 0.000000
0.901396 0.435004 0.000000
0.930938 0.431769 0.000000
0.959442 0.428565 0.000000
0.986786 0.425238 0.000000
1.000000 0.421881 0.000000
1.000000 0.418341 0.000000
1.000000 0.414618 0.000000
0.141299 0.486305 0.000000
0.147677 0.486213 0.000000
0.155215 0.486275 0.000000
0.171176 0.486458 0.000000
0.193210 0.486732 0.000000
0.219303 0.486976 0.000000
0.247654 0.487098 0.000000
0.278080 0.487129 0.000000
0.309972 0.486854 0.000000
0.342260 0.485389 0.000000
0.374182 0.482002 0.000000
0.405737 0.478218 0.000000
0.436561 0.474220 0.000000
0.466896 0.470100 0.000000
0.496468 0.466011 0.000000
0.525292 0.462013 0.035554
0.562860 0.465705 0.073182
0.608362 0.473274 0.006775
0.651392 0.477699 0.000000
0.692439 0.480018 0.000000
0.731685 0.480690 0.000000
0.769284 0.480018 0.000000
0.805417 0.478309 0.000000
0.839963 0.475685 0.000000
0.872038 0.472511 0.000000
0.902190 0.469276 0.000000
0.931487 0.466011 0.000000
0.959777 0.462745 0.000000
0.986999 0.459419 0.000000
1.000000 0.455940 0.000000
1.000000 0.452338 0.000000
1.000000 0.448554 0.000000
0.152682 0.522789 0.000000
0.158083 0.522881 0.000000
0.165713 0.522942 0.000000
0.181003 0.523095 0.000000
0.202182 0.523278 0.000000
0.227176 0.523491 0.000000
0.255192 0.523583 0.000000
0.285313 0.523461 0.000000
0.316777 0.523278 0.000000
0.349340 0.522850 0.000000
0.381842 0.520073 0.000000
0.413977 0.516381 0.000000
0.445533 0.512535 0.000000
0.476753 0.508476 0.000000
0.507378 0.504448 0.000000
0.537316 0.500603 0.000000
0.566461 0.496712 0.047120
0.603479 0.499916 0.082673
0.648554 0.507347 0.030335
0.690059 0.511101 0.000000
0.729671 0.512902 0.000000
0.767514 0.513115 0.000000
0.803799 0.512139 0.000000
0.838499 0.510216 0.000000
0.871763 0.507378 0.000000
0.903716 0.503960 0.000000
0.932799 0.500572 0.000000
0.960815 0.497169 0.000000
0.987732 0.493629 0.000000
1.000000 0.489937 0.000000
1.000000 0.486152 0.000000
1.000000 0.482094 0.000000
0.163394 0.558679 0.000000
0.168704 0.558465 0.000000
0.173220 0.551507 0.000000
0.187381 0.551629 0.000000
0.207706 0.551965 0.000000
0.231968 0.552300 0.000000
0.259068 0.552697 0.000000
0.288487 0.552941 0.000000
0.319585 0.553094 0.000000
0.351812 0.552941 0.000000
0.384649 0.552209 0.000000
0.417273 0.549187 0.000000
0.449653 0.545953 0.000000
0.481849 0.542626 0.000000
0.513512 0.539330 0.000000
0.544671 0.535973 0.000000
0.575280 0.532616 0.000000
0.605005 0.529351 0.050782
0.640192 0.531304 0.091096
0.683742 0.538079 0.058167
0.724147 0.541588 0.000000
0.762631 0.543206 0.000000
0.799435 0.543328 0.000000
0.834684 0.542412 0.000000
0.868528 0.540581 0.000000
0.901122 0.538048 0.000000
0.932372 0.534783 0.000000
0.961547 0.531182 0.000000
0.988434 0.527611 0.000000
1.000000 0.523796 0.000000
1.000000 0.519768 0.000000
1.000000 0.515465 0.000000
0.173587 0.593500 0.000000
0.178103 0.592554 0.000000
0.184634 0.591638 0.000000
0.198001 0.590997 0.000000
0.217197 0.590509 0.000000
0.240757 0.590509 0.000000
0.267552 0.590600 0.000000
0.296544 0.590784 0.000000
0.327245 0.590875 0.000000
0.359197 0.590723 0.000000
0.392218 0.590478 0.000000
0.425391 0.588586 0.000000
0.458595 0.585626 0.000000
0.491493 0.582574 0.000000
0.524041 0.579492 0.000000
0.556176 0.576318 0.000000
0.587854 0.573144 0.000000
0.618708 0.569970 0.000000
0.648707 0.566644 0.059724
0.681422 0.566705 0.098756
0.721981 0.571618 0.075776
0.760586 0.574365 0.015473
0.797452 0.575402 0.000000
0.832792 0.575250 0.000000
0.866667 0.574060 0.000000
0.899321 0.572168 0.000000
0.930663 0.569390 0.000000
0.960510 0.565942 0.000000
0.988861 0.561608 0.000000
1.000000 0.557488 0.000000
1.000000 0.553246 0.000000
1.000000 0.548699 0.000000
0.184115 0.630457 0.000000
0.188693 0.629633 0.000000
0.194797 0.628870 0.000000
0.207492 0.628229 0.000000
0.226200 0.627802 0.000000
0.249210 0.627680 0.000000
0.275395 0.627680 0.000000
0.303868 0.627741 0.000000
0.334295 0.627710 0.000000
0.365911 0.627527 0.000000
0.398657 0.627253 0.000000
0.432227 0.626764 0.000000
0.465705 0.624018 0.000000
0.499184 0.621210 0.000000
0.532464 0.618311 0.000000
0.565301 0.615320 0.000000
0.597711 0.612329 0.000000
0.629419 0.609247 0.000000
0.660304 0.606073 0.000000
0.690181 0.602808 0.068147
0.720638 0.601099 0.108003
0.758022 0.604120 0.093294
0.795071 0.606317 0.064607
0.830533 0.607019 0.000000
0.864561 0.606653 0.000000
0.897368 0.605432 0.000000
0.928801 0.603449 0.000000
0.958770 0.600549 0.000000
0.987182 0.596735 0.000000
1.000000 0.592004 0.000000
1.000000 0.586694 0.000000
1.000000 0.581872 0.000000
0.194247 0.666499 0.000000
0.198550 0.665736 0.000000
0.204288 0.665064 0.000000
0.216617 0.664424 0.000000
0.234775 0.663966 0.000000
0.257176 0.663844 0.000000
0.282658 0.663844 0.000000
0.310643 0.663874 0.000000
0.340764 0.663752 0.000000
0.372045 0.663630 0.000000
0.404456 0.663355 0.000000
0.437873 0.662989 0.000000
0.471839 0.661646 0.000000
0.505608 0.658930 0.000000
0.539239 0.656123 0.000000
0.572503 0.653254 0.000000
0.605280 0.650080 0.000000
0.637263 0.646876 0.000000
0.668452 0.643427 0.000000
0.698604 0.639826 0.009979
0.727779 0.636164 0.078370
0.755764 0.632715 0.117739
0.790005 0.633845 0.108919
0.825437 0.635554 0.086976
0.859586 0.636011 0.054688
0.892485 0.635676 0.000000
0.924071 0.634394 0.000000
0.954192 0.632227 0.000000
0.982849 0.629145 0.000000
1.000000 0.625116 0.000000
1.000000 0.620020 0.000000
1.000000 0.614313 0.000000
0.202853 0.698878 0.000000
0.206973 0.698543 0.000000
0.212680 0.698238 0.000000
0.224643 0.698054 0.000000
0.242222 0.697963 0.000000
0.264012 0.697963 0.000000
0.289006 0.697963 0.000000
0.316472 0.697841 0.000000
0.345892 0.697688 0.000000
0.376654 0.697322 0.000000
0.408606 0.696925 0.000000
0.441596 0.696437 0.000000
0.475380 0.696040 0.000000
0.509300 0.693904 0.000000
0.543206 0.691279 0.000000
0.576898 0.688563 0.000000
0.610010 0.685695 0.000000
0.642695 0.682704 0.000000
0.674495 0.679591 0.000000
0.705531 0.676356 0.000000
0.735744 0.673091 0.042237
0.764828 0.669795 0.090394
0.791348 0.665431 0.129610
0.822812 0.665095 0.127230
0.857237 0.666743 0.110231
0.890288 0.667292 0.090425
0.921935 0.666743 0.065553
0.952148 0.665309 0.000000
0.980804 0.662806 0.000000
1.000000 0.659388 0.000000
1.000000 0.655207 0.000000
1.000000 0.650752 0.000000
0.211978 0.733455 0.000000
0.216037 0.733150 0.000000
0.221439 0.732876 0.000000
0.233036 0.732601 0.000000
0.250034 0.732509 0.000000
0.271061 0.732479 0.000000
0.295506 0.732540 0.000000
0.322362 0.732509 0.000000
0.351446 0.732357 0.000000
0.381903 0.732052 0.000000
0.413519 0.731685 0.000000
0.446174 0.731197 0.000000
0.479469 0.730709 0.000000
0.513481 0.729763 0.000000
0.547570 0.727321 0.000000
0.581506 0.724697 0.000000
0.614893 0.721920 0.000000
0.647852 0.718990 0.000000
0.680110 0.715938 0.000000
0.711604 0.712795 0.000000
0.742245 0.709560 0.000000
0.771908 0.706264 0.070314
0.800595 0.703090 0.105135
0.825193 0.697505 0.143160
0.855406 0.696986 0.147219
0.888609 0.698512 0.134279
0.920287 0.698817 0.120272
0.950500 0.698054 0.105135
0.979065 0.696315 0.086854
1.000000 0.693690 0.061250
1.000000 0.690455 0.000000
1.000000 0.687221 0.000000
0.219760 0.765133 0.000000
0.223545 0.764797 0.000000
0.228733 0.764553 0.000000
0.239933 0.764462 0.000000
0.256413 0.764462 0.000000
0.276982 0.764553 0.000000
0.300816 0.764736 0.000000
0.327276 0.764920 0.000000
0.355871 0.764950 0.000000
0.385992 0.764889 0.000000
0.417456 0.764767 0.000000
0.449622 0.764523 0.000000
0.482795 0.764248 0.000000
0.516533 0.763943 0.000000
0.550866 0.762539 0.000000
0.585260 0.760372 0.000000
0.619257 0.758022 0.000000
0.652705 0.755428 0.000000
0.685481 0.752621 0.000000
0.717311 0.749599 0.000000
0.748379 0.746395 0.000000
0.778561 0.743252 0.031617
0.807919 0.740261 0.091951
0.836515 0.737392 0.122774
0.859831 0.731319 0.160250
0.885771 0.727810 0.167697
0.917662 0.729183 0.157931
0.948058 0.729488 0.148196
0.976684 0.728695 0.138308
1.000000 0.727047 0.127749
1.000000 0.724941 0.116274
1.000000 0.722957 0.104555
0.228519 0.798856 0.000000
0.232029 0.798459 0.000000
0.237003 0.798276 0.000000
0.247623 0.798184 0.000000
0.263676 0.798154 0.000000
0.283543 0.798215 0.000000
0.306981 0.798245 0.000000
0.332738 0.798306 0.000000
0.360723 0.798245 0.000000
0.390295 0.798062 0.000000
0.421088 0.797848 0.000000
0.453010 0.797452 0.000000
0.485634 0.797055 0.000000
0.518914 0.796628 0.000000
0.552728 0.796231 0.000000
0.587213 0.794125 0.000000
0.621302 0.791867 0.000000
0.654994 0.789456 0.000000
0.687984 0.786801 0.000000
0.720272 0.783993 0.000000
0.751705 0.781033 0.000000
0.782406 0.778073 0.000000
0.812284 0.775235 0.075013
0.841306 0.772580 0.112337
0.869535 0.770077 0.140902
0.891478 0.763302 0.177890
0.914427 0.758022 0.189700
0.944671 0.759121 0.182620
0.973327 0.759304 0.176089
1.000000 0.758724 0.169833
1.000000 0.757748 0.164767
1.000000 0.757076 0.161044
0.236301 0.831235 0.000000
0.239902 0.831022 0.000000
0.244602 0.830900 0.000000
0.255039 0.830900 0.000000
0.270390 0.830961 0.000000
0.289830 0.831113 0.000000
0.312505 0.831205 0.000000
0.337896 0.831266 0.000000
0.365454 0.831205 0.000000
0.394354 0.831022 0.000000
0.424811 0.830716 0.000000
0.456184 0.830320 0.000000
0.488411 0.829862 0.000000
0.521355 0.829404 0.000000
0.554772 0.829007 0.000000
0.588830 0.828000 0.000000
0.623224 0.825895 0.000000
0.657069 0.823667 0.000000
0.690364 0.821225 0.000000
0.722988 0.818601 0.000000
0.754849 0.815885 0.000000
0.785946 0.813107 0.000000
0.816251 0.810452 0.054353
0.845701 0.807889 0.103304
0.874296 0.805509 0.135378
0.901946 0.803311 0.162295
0.922332 0.795773 0.198856
0.942687 0.789181 0.215000
0.970611 0.789670 0.210483
0.997467 0.790097 0.207309
1.000000 0.790249 0.205417
1.000000 0.790890 0.206149
0.244083 0.864012 0.000000
0.247410 0.863859 0.000000
0.252262 0.863737 0.000000
0.262150 0.863706 0.000000
0.277104 0.863645 0.000000
0.295750 0.863523 0.000000
0.317693 0.863279 0.000000
0.342229 0.862882 0.000000
0.368902 0.862333 0.000000
0.397070 0.861692 0.000000
0.426673 0.860899 0.000000
0.457252 0.860075 0.000000
0.488777 0.859281 0.000000
0.521080 0.858549 0.000000
0.553918 0.857877 0.000000
0.587182 0.857359 0.000000
0.621363 0.855741 0.000000
0.655329 0.853635 0.000000
0.688808 0.851347 0.000000
0.721614 0.848936 0.000000
0.753719 0.846403 0.000000
0.785153 0.843839 0.000000
0.815793 0.841337 0.000000
0.845609 0.838926 0.087465
0.874571 0.836637 0.125856
0.902617 0.834531 0.155795
0.929686 0.832609 0.181979
0.948699 0.824643 0.218418
0.966644 0.817197 0.239017
0.992279 0.817380 0.236851
1.000000 0.818845 0.237522
1.000000 0.820920 0.241184
0.249393 0.893309 0.000000
0.252811 0.893248 0.000000
0.257359 0.893217 0.000000
0.267063 0.893248 0.000000
0.281559 0.893309 0.000000
0.299901 0.893309 0.000000
0.321386 0.893248 0.000000
0.345495 0.893095 0.000000
0.371710 0.892790 0.000000
0.399786 0.892393 0.000000
0.429084 0.891966 0.000000
0.459480 0.891447 0.000000
0.490761 0.890929 0.000000
0.522728 0.890349 0.000000
0.555322 0.889860 0.000000
0.588281 0.889311 0.000000
