其他预设/【239】阳光逆光效果预设26款/1.LUT预设（视频调色-PR-AE-PS-FCPX-达芬奇用）/阳光逆光预设__-2.cube
# Created by Adobe Lightroom plugin Export LUT (1.17.0)
# www.johnrellis.com/lightroom/exportlut.htm
# Preset: 阳光逆光预设[素锦印象]-2
# Color profile: /Library/Application Support/Adobe/Color/Profiles/Recommended/AdobeRGB1998.icc
LUT_3D_SIZE 32
0.000000 0.000000 0.000000
0.052155 0.000458 0.000732
0.080323 0.001617 0.000916
0.120729 0.000000 0.001953
0.169650 0.000000 0.002564
0.219455 0.000000 0.000793
0.268894 0.000000 0.000000
0.318059 0.000000 0.000000
0.367590 0.000000 0.000000
0.417334 0.000000 0.000000
0.467933 0.000000 0.000000
0.518151 0.000000 0.000000
0.567742 0.000000 0.000000
0.616266 0.000000 0.000000
0.662928 0.000000 0.000000
0.707546 0.000000 0.000000
0.748562 0.000000 0.000000
0.785183 0.000000 0.000000
0.817960 0.063539 0.000000
0.848325 0.097475 0.000000
0.876707 0.124331 0.000000
0.903258 0.147799 0.000000
0.928161 0.169436 0.000000
0.951385 0.189944 0.000000
0.973053 0.209171 0.000000
0.993347 0.227420 0.000000
1.000000 0.245457 0.000000
1.000000 0.262730 0.000000
1.000000 0.279423 0.026947
1.000000 0.296147 0.073884
1.000000 0.312474 0.099062
1.000000 0.328618 0.121645
0.004730 0.046082 0.000427
0.053040 0.044831 0.000305
0.078828 0.045655 0.005035
0.118929 0.045777 0.007996
0.167910 0.040711 0.007202
0.217868 0.031617 0.004883
0.267826 0.018006 0.000000
0.317082 0.001984 0.000000
0.366705 0.000000 0.000000
0.416815 0.000000 0.000000
0.467292 0.000000 0.000000
0.517693 0.000000 0.000000
0.567376 0.000000 0.000000
0.615839 0.000000 0.000000
0.662593 0.000000 0.000000
0.707240 0.000000 0.000000
0.748226 0.000000 0.000000
0.784909 0.047456 0.000000
0.817716 0.085603 0.000000
0.848081 0.112123 0.000000
0.876463 0.135134 0.000000
0.903075 0.156497 0.000000
0.927977 0.176883 0.000000
0.951232 0.196078 0.000000
0.972900 0.214664 0.000000
0.993225 0.232609 0.000000
1.000000 0.249699 0.000000
1.000000 0.266758 0.000000
1.000000 0.283177 0.031159
1.000000 0.299504 0.075685
1.000000 0.315557 0.100313
1.000000 0.331365 0.122652
0.011017 0.075288 0.000580
0.058686 0.074372 0.001617
0.081788 0.073793 0.002167
0.118318 0.074098 0.013001
0.165866 0.076875 0.015747
0.216159 0.076356 0.011810
0.266117 0.073060 0.005676
0.315740 0.067536 0.000000
0.365576 0.060121 0.000000
0.415778 0.040528 0.000000
0.466499 0.016114 0.000000
0.516930 0.000000 0.000000
0.566674 0.000000 0.000000
0.615290 0.000000 0.000000
0.662074 0.000000 0.000000
0.706874 0.012634 0.000000
0.747860 0.061280 0.000000
0.784543 0.085786 0.000000
0.817411 0.107637 0.000000
0.847807 0.128664 0.000000
0.876219 0.148653 0.000000
0.902861 0.167727 0.000000
0.927764 0.186526 0.000000
0.951019 0.204410 0.000000
0.972717 0.222171 0.000000
0.993011 0.239078 0.000000
1.000000 0.255772 0.000000
1.000000 0.272099 0.000000
1.000000 0.288060 0.038178
1.000000 0.303960 0.077852
1.000000 0.319585 0.101961
1.000000 0.335271 0.124514
0.022858 0.110903 0.001343
0.063386 0.110628 0.002289
0.086061 0.110384 0.003784
0.124147 0.110079 0.002441
0.167330 0.111940 0.015412
0.212314 0.114412 0.024720
0.262760 0.114656 0.015625
0.313054 0.112673 0.005402
0.363195 0.109651 0.000000
0.413855 0.105257 0.000000
0.464759 0.100801 0.000000
0.515526 0.096651 0.000000
0.565332 0.093996 0.000000
0.614008 0.093843 0.000000
0.661036 0.096407 0.000000
0.705867 0.104311 0.000000
0.747005 0.115297 0.000000
0.783719 0.128634 0.000000
0.816648 0.142977 0.000000
0.847074 0.158175 0.000000
0.875639 0.173587 0.000000
0.902312 0.189487 0.000000
0.927276 0.205478 0.000000
0.950561 0.221378 0.000000
0.972259 0.237125 0.000000
0.992615 0.252567 0.000000
1.000000 0.267948 0.000000
1.000000 0.283360 0.000000
1.000000 0.298466 0.050843
1.000000 0.313298 0.082155
1.000000 0.328344 0.105562
1.000000 0.343297 0.127626
0.038972 0.152987 0.000000
0.070741 0.152529 0.000061
0.095003 0.151858 0.001434
0.130983 0.151217 0.001312
0.172641 0.150729 0.000000
0.218204 0.152468 0.007752
0.260990 0.152987 0.020325
0.308995 0.153689 0.014343
0.359869 0.153201 0.000000
0.410895 0.152285 0.000000
0.462135 0.150637 0.000000
0.513115 0.149477 0.000000
0.563287 0.148989 0.000000
0.612146 0.149722 0.000000
0.659297 0.152041 0.000000
0.704280 0.157168 0.000000
0.745602 0.164065 0.000000
0.782467 0.172915 0.000000
0.815518 0.182681 0.000000
0.846098 0.193698 0.000000
0.874693 0.205722 0.000000
0.901488 0.218509 0.000000
0.926482 0.231571 0.000000
0.949828 0.245060 0.000000
0.971588 0.258518 0.000000
0.991974 0.272190 0.000000
1.000000 0.286076 0.000000
1.000000 0.299748 0.006073
1.000000 0.313573 0.063416
1.000000 0.327581 0.089357
1.000000 0.341314 0.111177
1.000000 0.355505 0.132692
0.059998 0.195407 0.000000
0.082429 0.195010 0.000000
0.104494 0.194339 0.000000
0.139162 0.192935 0.000000
0.179232 0.192355 0.000000
0.222049 0.191562 0.000000
0.269291 0.193606 0.000000
0.311681 0.192660 0.000885
0.355474 0.192813 0.011597
0.406989 0.194003 0.000000
0.458717 0.195041 0.000000
0.510124 0.195377 0.000000
0.560479 0.196292 0.000000
0.609766 0.197665 0.000000
0.657069 0.200259 0.000000
0.702266 0.204410 0.000000
0.743740 0.209903 0.000000
0.780728 0.216342 0.000000
0.813931 0.223362 0.000000
0.844694 0.231754 0.000000
0.873411 0.241032 0.000000
0.900328 0.251041 0.000000
0.925444 0.261540 0.000000
0.948852 0.272892 0.000000
0.970703 0.284459 0.000000
0.991119 0.296147 0.000000
1.000000 0.308232 0.000000
1.000000 0.320348 0.034668
1.000000 0.332799 0.074434
1.000000 0.345434 0.097414
1.000000 0.358190 0.118776
1.000000 0.371283 0.139467
0.075349 0.237430 0.000000
0.094697 0.236942 0.000000
0.114534 0.236362 0.000000
0.148013 0.235233 0.000000
0.186954 0.234073 0.000000
0.228763 0.233219 0.000000
0.271946 0.232273 0.000000
0.320134 0.234379 0.000000
0.362737 0.233127 0.000000
0.406775 0.233585 0.000000
0.454597 0.235508 0.000000
0.506340 0.237736 0.000000
0.557122 0.239933 0.000000
0.606653 0.242039 0.000000
0.654322 0.244938 0.000000
0.699733 0.248844 0.000000
0.741421 0.253452 0.000000
0.778653 0.258366 0.000000
0.812070 0.263920 0.000000
0.842985 0.270237 0.000000
0.871855 0.277531 0.000000
0.898924 0.285405 0.000000
0.924102 0.294285 0.000000
0.947631 0.303441 0.000000
0.969574 0.313115 0.000000
0.990021 0.323033 0.000000
1.000000 0.333501 0.009522
1.000000 0.344152 0.062196
1.000000 0.355077 0.086641
1.000000 0.366369 0.107668
1.000000 0.377905 0.127657
1.000000 0.389899 0.147768
0.092287 0.278965 0.000000
0.108644 0.278630 0.000000
0.126711 0.278111 0.000000
0.157900 0.277134 0.000000
0.195865 0.275486 0.000000
0.236606 0.274510 0.000000
0.278965 0.273533 0.000000
0.322210 0.272587 0.000000
0.371496 0.275303 0.000000
0.414771 0.274327 0.000000
0.458930 0.275059 0.000000
0.503532 0.276890 0.000000
0.553216 0.280156 0.000000
0.603082 0.283360 0.000000
0.651057 0.286900 0.000000
0.696742 0.290929 0.000000
0.738613 0.295262 0.000000
0.776150 0.299474 0.000000
0.809751 0.303899 0.000000
0.840940 0.308873 0.000000
0.870024 0.314641 0.000000
0.897185 0.321080 0.000000
0.922545 0.328130 0.000000
0.946166 0.335729 0.000000
0.968200 0.343633 0.000000
0.988739 0.352270 0.001068
1.000000 0.361089 0.052033
1.000000 0.370214 0.078767
1.000000 0.379828 0.099489
1.000000 0.389807 0.118624
1.000000 0.400214 0.137850
1.000000 0.410956 0.157229
0.111757 0.320714 0.000000
0.125185 0.320439 0.000000
0.141268 0.320104 0.000000
0.170382 0.319036 0.000000
0.207034 0.317723 0.000000
0.246006 0.316045 0.000000
0.287480 0.315312 0.000000
0.330083 0.314397 0.000000
0.373480 0.313085 0.000000
0.423651 0.316808 0.000000
0.466987 0.316197 0.000000
0.510765 0.316869 0.000000
0.554620 0.319158 0.000000
0.599115 0.322393 0.000000
0.647242 0.326696 0.000000
0.693202 0.331243 0.000000
0.735470 0.335393 0.000000
0.773312 0.339239 0.000000
0.807126 0.342901 0.000000
0.838560 0.346929 0.000000
0.867826 0.351690 0.000000
0.895232 0.356847 0.000000
0.920714 0.362676 0.000000
0.944457 0.368994 0.000000
0.966583 0.375647 0.005066
0.987243 0.382605 0.050660
1.000000 0.390173 0.075349
1.000000 0.398047 0.094759
1.000000 0.406317 0.112917
1.000000 0.415167 0.131106
1.000000 0.424353 0.149477
1.000000 0.434119 0.168276
0.132723 0.362860 0.000000
0.143923 0.362554 0.000000
0.157992 0.362249 0.000000
0.185031 0.361334 0.000000
0.219547 0.360052 0.000000
0.257572 0.358373 0.000000
0.297704 0.357214 0.000000
0.339483 0.356237 0.000000
0.382238 0.355352 0.000000
0.425330 0.354162 0.000000
0.475868 0.358312 0.000000
0.518883 0.357916 0.000000
0.561822 0.358892 0.000000
0.604242 0.361059 0.000000
0.645808 0.364446 0.000000
0.689387 0.369207 0.000000
0.731991 0.373693 0.000000
0.770047 0.377417 0.000000
0.804196 0.380682 0.000000
0.835843 0.384131 0.000000
0.865415 0.388128 0.000000
0.892943 0.392584 0.000000
0.918639 0.397253 0.000000
0.942504 0.402472 0.024292
0.964782 0.407904 0.059113
0.985534 0.413855 0.077150
1.000000 0.420111 0.093996
1.000000 0.426886 0.110719
1.000000 0.434028 0.127474
1.000000 0.441749 0.144442
1.000000 0.449989 0.162081
1.000000 0.458656 0.180392
0.153079 0.405066 0.000000
0.163088 0.404822 0.000000
0.176303 0.404517 0.000000
0.200961 0.403754 0.000000
0.233494 0.402472 0.000000
0.270237 0.400946 0.000000
0.309422 0.399207 0.000000
0.350164 0.398322 0.000000
0.392096 0.397345 0.000000
0.434821 0.396216 0.000000
0.477485 0.395087 0.000000
0.527642 0.399725 0.000000
0.569726 0.399573 0.000000
0.611383 0.400702 0.000000
0.652155 0.402960 0.000000
0.691524 0.406378 0.000000
0.728267 0.410132 0.040558
0.766415 0.414069 0.026490
0.800900 0.417121 0.018402
0.832914 0.420325 0.016632
0.862699 0.423774 0.023041
0.890471 0.427405 0.037873
0.916320 0.431495 0.057313
0.940368 0.435767 0.070771
0.962737 0.440467 0.083955
0.983612 0.445350 0.097810
1.000000 0.450629 0.112123
1.000000 0.456397 0.127138
1.000000 0.462654 0.142550
1.000000 0.469368 0.158755
1.000000 0.476661 0.175784
1.000000 0.484413 0.193759
0.174868 0.447242 0.000000
0.183536 0.447028 0.000000
0.195529 0.446632 0.000000
0.217990 0.445930 0.000000
0.248722 0.444831 0.000000
0.284092 0.443336 0.000000
0.322210 0.441627 0.000000
0.361913 0.440192 0.000000
0.403082 0.439185 0.000000
0.444953 0.438056 0.000000
0.487037 0.436896 0.000000
0.528862 0.435798 0.000000
0.578363 0.440864 0.000000
0.619165 0.440955 0.000000
0.658900 0.442145 0.000000
0.697353 0.444343 0.000000
0.733120 0.446815 0.000000
0.765713 0.449256 0.047456
0.797330 0.452064 0.071778
0.829648 0.455238 0.070924
0.859739 0.458320 0.072969
0.887724 0.461616 0.078279
0.913787 0.465034 0.085328
0.937987 0.468818 0.094545
0.960510 0.472633 0.105196
0.981476 0.476844 0.117281
1.000000 0.481361 0.130129
1.000000 0.486275 0.143709
1.000000 0.491676 0.158480
1.000000 0.497566 0.173892
1.000000 0.504021 0.190646
1.000000 0.511040 0.208286
0.196353 0.489021 0.000000
0.204166 0.488838 0.000000
0.214786 0.488594 0.000000
0.235874 0.487861 0.000000
0.264836 0.486824 0.000000
0.298619 0.485420 0.000000
0.335637 0.483772 0.000000
0.374365 0.481605 0.000000
0.414527 0.480598 0.000000
0.455543 0.479469 0.000000
0.496986 0.478401 0.000000
0.538231 0.477150 0.000000
0.579095 0.476143 0.000000
0.627222 0.481575 0.000000
0.666163 0.481697 0.000000
0.703578 0.482734 0.000000
0.738155 0.483711 0.000000
0.769802 0.484688 0.000000
0.799161 0.486091 0.059998
0.827176 0.488502 0.091920
0.856596 0.491615 0.099153
0.884794 0.494667 0.102876
0.911040 0.497871 0.108644
0.935424 0.501061 0.116457
0.958099 0.504387 0.125765
0.979187 0.507958 0.136141
0.998901 0.511833 0.147921
1.000000 0.516167 0.161044
1.000000 0.520775 0.174960
1.000000 0.526024 0.190127
1.000000 0.531731 0.206332
1.000000 0.538048 0.223789
0.217838 0.530266 0.000000
0.225467 0.530022 0.000000
0.234989 0.529686 0.000000
0.254459 0.529137 0.000000
0.281621 0.528069 0.000000
0.314061 0.526665 0.000000
0.349767 0.525078 0.000000
0.387671 0.523125 0.000000
0.426642 0.521324 0.000000
0.466865 0.520165 0.000000
0.507408 0.518944 0.000000
0.547936 0.517815 0.000000
0.588006 0.516686 0.000000
0.627405 0.515709 0.000000
0.673243 0.521111 0.000000
0.710018 0.521141 0.000000
0.743404 0.520684 0.000000
0.774166 0.520317 0.000000
0.802823 0.520348 0.000000
0.830167 0.521447 0.071687
0.856291 0.523613 0.103487
0.881682 0.526635 0.125429
0.908141 0.529625 0.130526
0.932708 0.532586 0.137179
0.955505 0.535607 0.145571
0.976715 0.538689 0.155184
0.996551 0.542046 0.166262
1.000000 0.545800 0.178622
1.000000 0.549920 0.192294
1.000000 0.554559 0.206943
1.000000 0.559747 0.222965
1.000000 0.565393 0.240238
0.240055 0.570489 0.000000
0.246647 0.570336 0.000000
0.255222 0.570001 0.000000
0.273472 0.569360 0.000000
0.299321 0.568383 0.000000
0.330236 0.567163 0.000000
0.364538 0.565484 0.000000
0.401190 0.563592 0.000000
0.439216 0.561425 0.000000
0.478492 0.559991 0.000000
0.518059 0.558770 0.000000
0.557794 0.557488 0.000000
0.597101 0.556298 0.000000
0.635828 0.555322 0.000000
0.673396 0.554376 0.000000
0.715480 0.558648 0.000000
0.748898 0.557733 0.000000
0.778653 0.555932 0.000000
0.806607 0.554742 0.000000
0.833402 0.554620 0.020356
0.858946 0.555444 0.085634
0.883268 0.557305 0.117006
0.906371 0.560082 0.143435
0.929839 0.563165 0.157565
0.952758 0.565881 0.165164
0.974090 0.568780 0.174502
0.993988 0.571801 0.185061
1.000000 0.575128 0.196933
1.000000 0.578851 0.210025
1.000000 0.583001 0.224582
1.000000 0.587671 0.240452
1.000000 0.592828 0.257633
0.262119 0.609674 0.000000
0.268376 0.609461 0.000000
0.275975 0.609155 0.000000
0.292882 0.608545 0.000000
0.317113 0.607568 0.000000
0.346624 0.606287 0.000000
0.379461 0.604730 0.000000
0.414984 0.602869 0.000000
0.452155 0.600641 0.000000
0.490028 0.598474 0.000000
0.528618 0.597070 0.000000
0.567315 0.595727 0.000000
0.605493 0.594232 0.000000
0.643061 0.592920 0.000000
0.679591 0.591730 0.000000
0.715023 0.590753 0.000000
0.752804 0.593317 0.000000
0.783291 0.591608 0.000000
0.810605 0.589166 0.000000
0.836728 0.587854 0.000000
0.861753 0.587488 0.058717
0.885588 0.588190 0.101595
0.908232 0.589746 0.132357
0.929625 0.592157 0.159609
0.949828 0.595453 0.185245
0.971313 0.598138 0.194095
0.991302 0.600916 0.204105
1.000000 0.604028 0.215702
1.000000 0.607416 0.228855
1.000000 0.611170 0.243015
1.000000 0.615412 0.258824
1.000000 0.620203 0.276066
0.283757 0.646052 0.000000
0.289128 0.645838 0.000000
0.296757 0.645563 0.000000
0.312261 0.644953 0.000000
0.334905 0.644007 0.000000
0.362585 0.642725 0.000000
0.394018 0.641108 0.000000
0.428168 0.639185 0.000000
0.463905 0.637018 0.000000
0.500664 0.634607 0.000000
0.537865 0.632654 0.000000
0.575219 0.631037 0.000000
0.612299 0.629450 0.000000
0.648646 0.627893 0.000000
0.684138 0.626429 0.000000
0.718532 0.625238 0.000000
0.751797 0.624170 0.000000
0.786099 0.625513 0.000000
0.814633 0.623590 0.000000
0.840146 0.621149 0.000000
0.864622 0.619654 0.000000
0.887968 0.619165 0.080201
0.910185 0.619501 0.118746
0.931212 0.620813 0.149630
0.951080 0.622889 0.177554
0.969787 0.626001 0.204471
0.988464 0.629389 0.223758
1.000000 0.632288 0.235264
1.000000 0.635370 0.248020
1.000000 0.638941 0.262333
1.000000 0.642878 0.277958
1.000000 0.647303 0.295354
0.304601 0.679408 0.000000
0.309850 0.679194 0.000000
0.316594 0.678950 0.000000
0.330938 0.678340 0.000000
0.352056 0.677363 0.000000
0.377966 0.676143 0.000000
0.407935 0.674556 0.000000
0.440375 0.672663 0.000000
0.474800 0.670558 0.000000
0.510307 0.668208 0.000000
0.546136 0.665705 0.000000
0.582238 0.664057 0.000000
0.618097 0.662379 0.000000
0.653468 0.660853 0.000000
0.688014 0.659388 0.000000
0.721523 0.658045 0.000000
0.754177 0.657008 0.000000
0.785672 0.656123 0.000000
0.816922 0.656458 0.000000
0.843626 0.654414 0.000000
0.867552 0.651881 0.000000
0.890410 0.650233 0.035462
0.912200 0.649470 0.101320
0.932860 0.649592 0.137606
0.952361 0.650568 0.168521
0.970794 0.652491 0.197177
0.988220 0.655421 0.225223
1.000000 0.659602 0.253330
1.000000 0.662837 0.267948
1.000000 0.666163 0.282200
1.000000 0.669947 0.297978
1.000000 0.674067 0.315435
0.325353 0.710933 0.000000
0.329839 0.710719 0.000000
0.336339 0.710445 0.000000
0.349493 0.709895 0.000000
0.368902 0.709010 0.000000
0.393347 0.707820 0.000000
0.421576 0.706355 0.000000
0.452613 0.704555 0.000000
0.485664 0.702571 0.000000
0.519677 0.700374 0.000000
0.554467 0.697932 0.000000
0.589258 0.695827 0.000000
0.623987 0.694209 0.000000
0.658289 0.692653 0.000000
0.691798 0.691188 0.000000
0.724514 0.689815 0.000000
0.756405 0.688655 0.000000
0.787228 0.687709 0.000000
0.817136 0.686976 0.000000
0.845792 0.686488 0.000000
0.870542 0.684077 0.000000
0.892912 0.681392 0.000000
0.914244 0.679530 0.077668
0.934508 0.678584 0.123262
0.953704 0.678401 0.158022
0.971893 0.679164 0.188907
0.989075 0.680995 0.218479
1.000000 0.683925 0.247715
1.000000 0.688106 0.277409
1.000000 0.692805 0.302953
1.000000 0.696376 0.318730
1.000000 0.700435 0.336431
0.345159 0.741299 0.000000
0.349706 0.741054 0.000000
0.355413 0.740841 0.000000
0.367590 0.740322 0.000000
0.385687 0.739467 0.000000
0.408698 0.738338 0.000000
0.435340 0.736904 0.000000
0.464698 0.735286 0.000000
0.496193 0.733364 0.000000
0.529168 0.731258 0.000000
0.562646 0.729000 0.000000
0.596399 0.726619 0.000000
0.629816 0.724880 0.000000
0.663050 0.723354 0.000000
0.695674 0.721828 0.000000
0.727504 0.720455 0.000000
0.758572 0.719265 0.000000
0.788754 0.718257 0.000000
0.817990 0.717403 0.000000
0.846311 0.716823 0.000000
0.872618 0.715602 0.000000
0.895415 0.712612 0.000000
0.916320 0.709773 0.018860
0.936187 0.707668 0.105165
0.955077 0.706477 0.145602
0.972961 0.706142 0.179538
0.989929 0.706813 0.210971
1.000000 0.708553 0.241550
1.000000 0.711574 0.272251
1.000000 0.715846 0.303746
1.000000 0.721614 0.336492
1.000000 0.726223 0.358190
0.364813 0.770443 0.000000
0.368780 0.770260 0.000000
0.374182 0.770047 0.000000
0.385412 0.769558 0.000000
0.402411 0.768704 0.000000
0.423896 0.767636 0.000000
0.448951 0.766293 0.000000
0.476753 0.764736 0.000000
0.506920 0.762905 0.000000
0.538445 0.760922 0.000000
0.570703 0.758816 0.000000
0.603326 0.756558 0.000000
0.635676 0.754421 0.000000
0.667720 0.752865 0.000000
0.699336 0.751400 0.000000
0.730343 0.750057 0.000000
0.760647 0.748745 0.000000
0.790097 0.747707 0.000000
0.818723 0.746792 0.000000
0.846433 0.746059 0.000000
0.873289 0.745602 0.000000
0.897581 0.743709 0.000000
0.918395 0.739956 0.000000
0.937926 0.736904 0.080201
0.956451 0.734646 0.130861
0.974060 0.733272 0.168795
0.990784 0.732876 0.202548
1.000000 0.733516 0.234684
1.000000 0.735286 0.266453
1.000000 0.738338 0.298802
1.000000 0.742763 0.332311
1.000000 0.749050 0.367346
0.383734 0.798459 0.000000
0.387427 0.798337 0.000000
0.392340 0.798062 0.000000
0.402777 0.797604 0.000000
0.418647 0.796841 0.000000
0.438849 0.795804 0.000000
0.462440 0.794553 0.000000
0.488930 0.793027 0.000000
0.517479 0.791379 0.000000
0.547692 0.789456 0.000000
0.578698 0.787472 0.000000
0.610163 0.785306 0.000000
0.641535 0.783139 0.000000
0.672511 0.781338 0.000000
0.703029 0.779873 0.000000
0.733181 0.778470 0.000000
0.762570 0.777218 0.000000
0.791348 0.776089 0.000000
0.819303 0.775143 0.000000
0.846433 0.774289 0.000000
0.872740 0.773709 0.000000
0.898222 0.773281 0.000000
0.920714 0.770840 0.000000
0.939635 0.766232 0.018006
0.957824 0.762966 0.112673
0.975189 0.760616 0.156405
0.991669 0.759152 0.193027
1.000000 0.758724 0.226993
1.000000 0.759365 0.260105
1.000000 0.761166 0.293462
1.000000 0.764523 0.327520
1.000000 0.769680 0.362951
0.402411 0.825345 0.000000
0.405737 0.825193 0.000000
0.410315 0.824979 0.000000
0.420142 0.824521 0.000000
0.434882 0.823789 0.000000
0.453559 0.822812 0.000000
0.475898 0.821622 0.000000
0.500725 0.820218 0.000000
0.528130 0.818631 0.000000
0.556909 0.816800 0.000000
0.586603 0.814908 0.000000
0.616846 0.812863 0.000000
0.647059 0.810788 0.000000
0.677180 0.808652 0.000000
0.706691 0.807248 0.000000
0.735836 0.805844 0.000000
0.764462 0.804532 0.000000
0.792447 0.803372 0.000000
0.819699 0.802335 0.000000
0.846220 0.801480 0.000000
0.872007 0.800778 0.000000
0.897032 0.800259 0.000000
0.921233 0.799924 0.000000
0.942168 0.797055 0.000000
0.959228 0.791409 0.087678
0.976257 0.788052 0.141421
0.992523 0.785611 0.182071
1.000000 0.784115 0.218326
1.000000 0.783719 0.253056
1.000000 0.784482 0.287327
1.000000 0.786801 0.322087
1.000000 0.790890 0.357916
0.420661 0.851072 0.000000
0.423743 0.850919 0.000000
0.428046 0.850706 0.000000
0.437018 0.850278 0.000000
0.450599 0.849607 0.000000
0.468238 0.848692 0.000000
0.489082 0.847562 0.000000
0.512779 0.846220 0.000000
0.538628 0.844694 0.000000
0.566033 0.843015 0.000000
0.594446 0.841184 0.000000
0.623377 0.839261 0.000000
0.652583 0.837278 0.000000
0.681636 0.835264 0.000000
0.710353 0.833463 0.000000
0.738521 0.832090 0.000000
0.766262 0.830808 0.000000
0.793423 0.829587 0.003357
0.820005 0.828550 0.009277
0.845914 0.827604 0.016449
0.871092 0.826841 0.028931
0.895598 0.826230 0.040558
0.919341 0.825803 0.054170
0.942473 0.825528 0.063233
0.962066 0.822324 0.086641
0.977356 0.815702 0.123049
0.993378 0.812253 0.169619
1.000000 0.809812 0.208713
1.000000 0.808408 0.244938
1.000000 0.808255 0.280400
1.000000 0.809506 0.315953
1.000000 0.812650 0.352239
0.438605 0.875731 0.000000
0.441352 0.875578 0.000000
0.445319 0.875395 0.000000
0.453742 0.874968 0.000000
0.466407 0.874327 0.000000
0.482765 0.873472 0.000000
0.502434 0.872404 0.000000
0.524681 0.871153 0.000000
0.549126 0.869688 0.000000
0.575189 0.868070 0.000000
0.602228 0.866392 0.000000
0.630091 0.864530 0.000000
0.658106 0.862669 0.030274
0.686152 0.860716 0.060456
0.713985 0.858824 0.076081
0.741268 0.857328 0.080629
0.768093 0.856046 0.082490
0.794491 0.854887 0.085176
0.820279 0.853788 0.087434
0.845548 0.852842 0.090700
0.870115 0.851987 0.094148
0.894102 0.851316 0.098207
0.917449 0.850797 0.102327
0.940063 0.850431 0.106783
0.962127 0.850248 0.111940
0.980621 0.846860 0.127138
0.994293 0.839231 0.154696
1.000000 0.835721 0.197574
1.000000 0.833402 0.235874
1.000000 0.832273 0.272770
1.000000 0.832578 0.309239
1.000000 0.834714 0.346044
0.456306 0.899351 0.000000
0.458991 0.899229 0.000000
0.462654 0.899016 0.000000
0.470375 0.898650 0.000000
0.482094 0.898039 0.000000
0.497383 0.897246 0.000000
0.515618 0.896239 0.000000
0.536675 0.895048 0.016175
0.559777 0.893675 0.035950
0.584375 0.892180 0.056184
0.610224 0.890562 0.067353
0.636774 0.888823 0.078187
0.663691 0.887022 0.088197
0.690791 0.885191 0.098604
0.717647 0.883391 0.108705
0.744228 0.881590 0.118166
0.770138 0.880369 0.119753
0.795682 0.879179 0.122072
0.820737 0.878111 0.124117
0.845274 0.877134 0.126711
0.869291 0.876280 0.129763
0.892699 0.875547 0.133120
0.915496 0.874968 0.136904
0.937682 0.874571 0.140902
0.959289 0.874296 0.144991
0.980346 0.874174 0.149569
0.997864 0.870634 0.162478
1.000000 0.862364 0.185031
1.000000 0.858549 0.225772
1.000000 0.856443 0.264317
1.000000 0.855772 0.301732
1.000000 0.856992 0.339239
0.473976 0.922087 0.070558
0.476387 0.921965 0.071260
0.479805 0.921782 0.071748
0.486854 0.921447 0.073060
0.497841 0.920836 0.075807
0.512047 0.920104 0.079408
0.529229 0.919127 0.083528
0.548821 0.918029 0.088319
0.570642 0.916747 0.094209
0.593896 0.915343 0.100008
0.618463 0.913817 0.106661
0.643732 0.912200 0.113588
0.669551 0.910521 0.121309
0.695521 0.908782 0.128969
0.721523 0.907012 0.137453
0.747219 0.905303 0.146090
0.772457 0.903807 0.151827
0.797086 0.902678 0.153750
0.821378 0.901610 0.156191
0.845212 0.900633 0.158724
0.868528 0.899748 0.161501
0.891325 0.898985 0.164797
0.913603 0.898375 0.168276
0.935302 0.897887 0.171847
0.956512 0.897520 0.176089
0.977203 0.897276 0.180392
0.997345 0.897154 0.184848
1.000000 0.893584 0.196231
1.000000 0.884733 0.216587
1.000000 0.880674 0.255009
1.000000 0.879026 0.293828
1.000000 0.879271 0.332006
0.491676 0.943938 0.111452
0.493935 0.943847 0.111849
0.497017 0.943664 0.112612
0.503563 0.943359 0.113619
0.513787 0.942809 0.115267
0.527001 0.942077 0.117952
0.543023 0.941192 0.120790
0.561334 0.940154 0.124208
0.581689 0.938964 0.128450
0.603784 0.937652 0.133303
0.627008 0.936187 0.138521
0.651118 0.934661 0.144411
0.675746 0.933074 0.150820
0.700710 0.931426 0.157626
0.725673 0.929747 0.164858
0.750515 0.928099 0.172885
