其他预设/【239】阳光逆光效果预设26款/1.LUT预设（视频调色-PR-AE-PS-FCPX-达芬奇用）/阳光逆光预设__-20.cube
# Created by Adobe Lightroom plugin Export LUT (1.17.0)
# www.johnrellis.com/lightroom/exportlut.htm
# Preset: 阳光逆光预设[素锦印象]-20
# Color profile: /Library/Application Support/Adobe/Color/Profiles/Recommended/AdobeRGB1998.icc
LUT_3D_SIZE 5
DOMAIN_MIN 0.000000 0.000000 0.000000
DOMAIN_MAX 0.903226 0.903226 0.903226
0.109163 0.091035 0.106691
0.309758 0.071870 0.113893
0.552544 0.000000 0.135866
0.784543 0.000000 0.165927
0.982391 0.000000 0.199802
0.136172 0.268986 0.126528
0.311009 0.261692 0.132815
0.552361 0.238773 0.151308
0.783383 0.222080 0.175051
0.982300 0.229892 0.206088
0.200137 0.486885 0.172366
0.325078 0.484596 0.174777
0.560632 0.479896 0.182559
0.782742 0.463630 0.196628
0.979034 0.460121 0.220615
0.261479 0.706600 0.204471
0.356390 0.705287 0.205905
0.561517 0.700710 0.209720
0.780545 0.695491 0.217044
0.975708 0.691646 0.239475
0.334997 0.924285 0.237339
0.405615 0.923430 0.238254
0.578790 0.920012 0.242313
0.778988 0.918578 0.252628
0.967498 0.920043 0.270909
0.123171 0.088563 0.282750
0.307225 0.088106 0.283268
0.548943 0.076387 0.283665
0.779568 0.000000 0.287449
0.979278 0.079896 0.296056
0.161410 0.263645 0.284123
0.313024 0.259007 0.284306
0.550500 0.245090 0.285313
0.779385 0.229953 0.288487
0.978790 0.238895 0.297856
0.215030 0.484138 0.287388
0.332189 0.481819 0.288121
0.558984 0.476143 0.288792
0.779904 0.462745 0.292485
0.977386 0.462989 0.303044
0.272923 0.704921 0.293004
0.365454 0.703517 0.294530
0.565057 0.699214 0.295720
0.780789 0.694362 0.298589
0.974945 0.692317 0.311620
0.351781 0.923095 0.308629
0.418402 0.922240 0.309270
0.586847 0.920226 0.312444
0.782620 0.918517 0.319341
0.968200 0.920226 0.333227
0.194369 0.094636 0.464393
0.325994 0.094759 0.463539
0.558007 0.067353 0.461830
0.781399 0.000000 0.456153
0.978637 0.124819 0.455787
0.222904 0.258549 0.463172
0.336278 0.254673 0.462531
0.560632 0.241062 0.461463
0.781094 0.234348 0.456031
0.977935 0.262303 0.458198
0.253696 0.480659 0.460822
0.353735 0.478737 0.460426
0.568566 0.473152 0.459602
0.781338 0.468788 0.459236
0.976165 0.475990 0.462013
0.304173 0.701015 0.452583
0.388525 0.698970 0.453010
0.583795 0.694423 0.458595
0.784939 0.692256 0.459266
0.973968 0.696040 0.464271
0.377783 0.920409 0.452308
0.446571 0.919432 0.455879
0.609277 0.917327 0.462867
0.791897 0.916411 0.466163
0.969146 0.919188 0.473396
0.271244 0.100435 0.645808
0.365332 0.097017 0.645228
0.568078 0.072389 0.643732
0.785306 0.009339 0.641871
0.978973 0.132723 0.636866
0.287388 0.252415 0.644556
0.374060 0.249149 0.644038
0.570489 0.239689 0.642695
0.785122 0.233433 0.640955
0.977844 0.263645 0.637415
0.312535 0.468544 0.641962
0.393652 0.467872 0.641444
0.583246 0.468391 0.639948
0.784939 0.465949 0.638209
0.975921 0.475776 0.639216
0.351202 0.694240 0.640558
0.423804 0.693019 0.640101
0.598108 0.690425 0.639582
0.789944 0.689418 0.639765
0.973999 0.695766 0.642329
0.415229 0.917418 0.639216
0.474189 0.916564 0.640345
0.620966 0.915404 0.642420
0.797665 0.915312 0.645411
0.969055 0.918883 0.650568
0.308568 0.094453 0.874113
0.385809 0.088624 0.873838
0.568475 0.064668 0.873533
0.773739 0.056855 0.873320
0.967132 0.136690 0.874022
0.317388 0.241367 0.873228
0.391699 0.238865 0.873045
0.570886 0.232486 0.872801
0.774075 0.232120 0.872374
0.966186 0.262425 0.873472
0.342412 0.458320 0.872831
0.412696 0.458564 0.872496
0.582177 0.457374 0.872007
0.776883 0.457313 0.871824
0.964569 0.470192 0.874662
0.381567 0.681727 0.874754
0.442847 0.681544 0.874266
0.595331 0.679927 0.874205
0.780545 0.680507 0.875425
0.962951 0.693019 0.880491
0.434333 0.909545 0.881590
0.483253 0.909178 0.881559
0.619257 0.909056 0.882414
0.790005 0.910430 0.883818
0.957794 0.916655 0.886900
