其他预设/【239】阳光逆光效果预设26款/1.LUT预设（视频调色-PR-AE-PS-FCPX-达芬奇用）/阳光逆光预设__-3.cube
# Created by Adobe Lightroom plugin Export LUT (1.17.0)
# www.johnrellis.com/lightroom/exportlut.htm
# Preset: 阳光逆光预设[素锦印象]-3
# Color profile: /Library/Application Support/Adobe/Color/Profiles/Recommended/AdobeRGB1998.icc
LUT_3D_SIZE 8
DOMAIN_MIN 0.000000 0.000000 0.000000
DOMAIN_MAX 0.903226 0.903226 0.903226
0.000000 0.000000 0.000000
0.211948 0.000000 0.000000
0.455329 0.000000 0.000000
0.663722 0.000000 0.000000
0.830930 0.121553 0.000000
0.938689 0.212284 0.000000
1.000000 0.288182 0.106386
1.000000 0.357092 0.177859
0.043214 0.198398 0.000000
0.216007 0.197269 0.000000
0.445686 0.204227 0.000000
0.658412 0.206821 0.000000
0.827390 0.233402 0.000000
0.936309 0.278599 0.024231
1.000000 0.331945 0.121553
1.000000 0.388037 0.188846
0.129915 0.411810 0.000000
0.252873 0.407965 0.000000
0.457618 0.402258 0.000000
0.646693 0.400031 0.052461
0.815366 0.411109 0.083589
0.927947 0.423560 0.117281
1.000000 0.445472 0.166903
1.000000 0.476509 0.224460
0.233097 0.593225 0.000000
0.312139 0.590509 0.000000
0.483253 0.582788 0.000000
0.665431 0.576806 0.000000
0.813962 0.571130 0.105409
0.914275 0.571374 0.196109
0.994385 0.576715 0.230533
1.000000 0.589654 0.280308
0.330724 0.744350 0.000000
0.383825 0.742000 0.000000
0.519768 0.734157 0.000000
0.675746 0.725277 0.000000
0.820706 0.718227 0.000000
0.917510 0.700038 0.176181
0.984649 0.694789 0.281895
1.000000 0.701534 0.351202
0.417456 0.850919 0.096468
0.453254 0.849058 0.101564
0.555322 0.842771 0.118471
0.684138 0.833219 0.143069
0.809415 0.825559 0.149752
0.919402 0.819974 0.160861
0.986450 0.797360 0.259800
1.000000 0.790738 0.374365
0.495766 0.930755 0.195895
0.520317 0.929259 0.198764
0.595422 0.924346 0.208652
0.698512 0.916564 0.226505
0.804044 0.908507 0.243259
0.900511 0.902373 0.253605
0.986175 0.898039 0.267735
1.000000 0.873960 0.357153
0.572259 0.992370 0.291051
0.589227 0.991241 0.293462
0.643153 0.987457 0.301793
0.722164 0.981415 0.317021
0.808743 0.974212 0.339544
0.889647 0.968444 0.353765
0.964660 0.963836 0.367651
1.000000 0.960357 0.385138
0.029297 0.000824 0.146853
0.223880 0.000000 0.151156
0.468177 0.000000 0.126314
0.668238 0.085634 0.130098
0.832242 0.161685 0.130831
0.938293 0.238560 0.147463
1.000000 0.307439 0.179660
1.000000 0.371283 0.224155
0.030274 0.202457 0.145602
0.231724 0.203586 0.142275
0.457588 0.216190 0.142153
0.663172 0.226230 0.137819
0.828763 0.254002 0.139162
0.935912 0.297704 0.156435
1.000000 0.347845 0.188296
1.000000 0.400458 0.232395
0.134066 0.415656 0.115175
0.276463 0.410101 0.131746
0.465095 0.404608 0.128389
0.648463 0.408453 0.168948
0.817227 0.420813 0.171786
0.927794 0.433722 0.187533
1.000000 0.455207 0.217563
1.000000 0.485298 0.260777
0.250828 0.594354 0.109895
0.332769 0.590936 0.121889
0.493355 0.583398 0.129030
0.668788 0.577874 0.121889
0.813993 0.574395 0.185183
0.914519 0.576440 0.239567
0.993744 0.582269 0.266514
1.000000 0.595392 0.308537
0.349706 0.744137 0.128054
0.399207 0.741878 0.131197
0.529168 0.734218 0.142092
0.680110 0.725460 0.147616
0.821775 0.718776 0.147768
0.916838 0.701595 0.226719
0.983520 0.698207 0.313634
1.000000 0.705104 0.372778
0.431739 0.850309 0.172580
0.465644 0.848478 0.175326
0.563653 0.842313 0.184298
0.688899 0.832914 0.200809
0.811246 0.825528 0.204868
0.919463 0.820188 0.212589
0.985504 0.798398 0.293248
1.000000 0.793118 0.397375
0.506889 0.929961 0.237858
0.530571 0.928527 0.240116
0.602960 0.923705 0.248051
0.703182 0.916136 0.262699
0.806424 0.908232 0.277562
0.901152 0.902281 0.286229
0.985687 0.898131 0.298283
1.000000 0.874784 0.380560
0.580926 0.991577 0.318151
0.597192 0.990509 0.320195
0.649592 0.986786 0.327733
0.726528 0.980865 0.341741
0.811307 0.973846 0.362493
0.890745 0.968200 0.376287
0.964691 0.963714 0.389014
1.000000 0.960388 0.405402
0.110719 0.000000 0.298009
0.240726 0.000000 0.297276
0.475624 0.000000 0.299870
0.681178 0.000000 0.282292
0.841581 0.130526 0.268528
0.939208 0.274144 0.284031
1.000000 0.343420 0.299107
1.000000 0.402441 0.322698
0.123323 0.198398 0.296330
0.254429 0.194339 0.295323
0.479805 0.198764 0.293248
0.681880 0.200381 0.278080
0.837247 0.257328 0.276677
0.936797 0.326879 0.288670
1.000000 0.378790 0.303746
1.000000 0.428779 0.328161
0.176699 0.418311 0.289708
0.290867 0.417121 0.286839
0.483436 0.411383 0.287083
0.667292 0.421546 0.294102
0.825254 0.434119 0.295933
0.928923 0.452491 0.304479
1.000000 0.476905 0.321233
1.000000 0.507012 0.347662
0.264561 0.598932 0.274205
0.345495 0.596124 0.275212
0.515343 0.586145 0.285588
0.678157 0.581811 0.283574
0.814603 0.583093 0.315465
0.916106 0.588891 0.335637
0.992309 0.596643 0.353704
1.000000 0.610803 0.383215
0.357580 0.746914 0.269566
0.415717 0.743893 0.274937
0.552056 0.734981 0.288884
0.691768 0.726253 0.293034
0.824887 0.720485 0.292912
0.914733 0.706844 0.338384
0.979889 0.709194 0.399176
1.000000 0.715572 0.434821
0.453040 0.850095 0.291569
0.490852 0.847745 0.296971
0.588190 0.841093 0.308446
0.702968 0.832334 0.317906
0.816770 0.825528 0.321508
0.919280 0.820951 0.325750
0.982361 0.802029 0.382788
1.000000 0.801175 0.465827
0.536095 0.927947 0.336217
0.559167 0.926421 0.339178
0.625879 0.921752 0.345800
0.717708 0.914702 0.355932
0.813809 0.907256 0.367987
0.903014 0.902007 0.374121
0.983917 0.898436 0.382727
1.000000 0.877684 0.450385
0.609430 0.988952 0.396796
0.621881 0.988159 0.396460
0.669520 0.984710 0.402411
0.740322 0.979156 0.413642
0.819181 0.972686 0.430518
0.894255 0.967376 0.443549
0.964599 0.963409 0.454017
1.000000 0.960479 0.467353
0.183536 0.000000 0.440314
0.279973 0.000000 0.439765
0.477089 0.000000 0.437507
0.686488 0.000000 0.436896
0.842252 0.139712 0.420478
0.941253 0.260288 0.405676
1.000000 0.366705 0.414466
1.000000 0.440528 0.433661
0.193545 0.190341 0.439185
0.288701 0.186740 0.438575
0.484291 0.174624 0.436011
0.687831 0.201724 0.433906
0.841672 0.243168 0.418799
0.939910 0.319463 0.407660
1.000000 0.403540 0.419043
1.000000 0.461433 0.436011
0.227604 0.407721 0.433570
0.310369 0.406165 0.432929
0.500267 0.400092 0.430274
0.691707 0.410285 0.426062
0.839841 0.421881 0.415686
0.932860 0.462745 0.420081
1.000000 0.500267 0.433112
1.000000 0.530999 0.448402
0.297429 0.600549 0.426520
0.366308 0.599420 0.425452
0.529747 0.593408 0.422431
0.691066 0.587793 0.425727
0.822080 0.596979 0.437903
0.919463 0.604334 0.444434
0.990814 0.614557 0.456550
1.000000 0.629603 0.475807
0.380865 0.749203 0.413458
0.432959 0.746670 0.414008
0.568048 0.738705 0.419471
0.709010 0.727718 0.429236
0.828580 0.723018 0.430060
0.911254 0.716945 0.462623
0.977874 0.722866 0.493538
1.000000 0.729824 0.517479
0.474647 0.850278 0.413550
0.512749 0.847898 0.418128
0.613794 0.840665 0.432136
0.722744 0.831907 0.442878
0.824521 0.825681 0.447517
0.918303 0.822263 0.450507
0.976959 0.808835 0.494820
1.000000 0.814450 0.559258
0.570214 0.925628 0.445777
0.597711 0.923522 0.453651
0.660334 0.918791 0.463264
0.737881 0.912871 0.468330
0.824369 0.905913 0.479774
0.905241 0.901762 0.484108
0.980468 0.899046 0.490364
1.000000 0.882933 0.545617
0.667109 0.983032 0.511406
0.680781 0.981933 0.515404
0.708736 0.980285 0.511559
0.759457 0.976806 0.509697
0.830198 0.971038 0.522972
0.898985 0.966186 0.535637
0.963928 0.963012 0.543175
1.000000 0.960754 0.552636
0.256352 0.000000 0.574609
0.327337 0.000000 0.574151
0.494942 0.000000 0.572564
0.680842 0.000000 0.569329
0.840726 0.149569 0.562097
0.937682 0.275639 0.536706
1.000000 0.377325 0.526421
1.000000 0.471168 0.538170
0.265171 0.190280 0.573724
0.334813 0.187137 0.573236
0.499916 0.176852 0.571557
0.683986 0.183932 0.568231
0.840330 0.248508 0.560143
0.936431 0.331243 0.537072
1.000000 0.414649 0.529747
1.000000 0.497810 0.543938
0.290227 0.397833 0.569848
0.354467 0.395697 0.569421
0.512718 0.390143 0.567742
0.692988 0.392859 0.564355
0.838804 0.426703 0.555322
0.932128 0.465888 0.540551
0.998108 0.518029 0.543420
1.000000 0.576684 0.565057
0.336034 0.588098 0.563439
0.391547 0.587579 0.562921
0.535088 0.585321 0.561181
0.706355 0.582879 0.558282
0.836606 0.595941 0.552667
0.924773 0.614496 0.555230
0.988983 0.635706 0.566491
1.000000 0.649897 0.576349
0.409705 0.748287 0.555108
0.455604 0.746731 0.554437
0.580255 0.740871 0.552514
0.724697 0.731746 0.556359
0.830381 0.727138 0.561608
0.910002 0.730831 0.578363
0.977691 0.733761 0.587243
1.000000 0.739345 0.600977
0.497108 0.850706 0.538354
0.531640 0.848508 0.540063
0.630121 0.841337 0.548211
0.745815 0.831907 0.567376
0.831510 0.826535 0.570703
0.914549 0.823392 0.573632
0.970184 0.818265 0.606928
1.000000 0.824826 0.641718
0.585626 0.925109 0.546258
0.611017 0.923156 0.551110
0.686152 0.916838 0.569390
0.769131 0.909758 0.591516
0.832639 0.905730 0.589197
0.906096 0.901884 0.594873
0.975341 0.900053 0.598871
1.000000 0.889067 0.641291
0.674556 0.982574 0.584802
0.692012 0.981018 0.591241
0.743252 0.976287 0.612177
0.795987 0.972015 0.628504
0.837705 0.970184 0.616663
0.901762 0.965362 0.629328
0.961730 0.962921 0.634363
1.000000 0.961273 0.640803
0.319646 0.000000 0.701717
0.373785 0.000000 0.701381
0.513573 0.000000 0.700099
0.678523 0.000000 0.697902
0.832181 0.141421 0.694606
0.933654 0.281437 0.666651
0.999542 0.391119 0.641688
1.000000 0.481453 0.635584
0.327794 0.194766 0.700893
0.380346 0.192813 0.700526
0.517815 0.187503 0.699245
0.680842 0.187594 0.697078
0.833066 0.237186 0.693690
0.932555 0.335485 0.665888
0.998047 0.426490 0.643336
1.000000 0.507012 0.639460
0.351049 0.390967 0.697810
0.399695 0.389868 0.697475
0.530449 0.386969 0.696193
0.687709 0.385931 0.694087
0.835264 0.410803 0.690761
0.928649 0.469215 0.664637
0.992889 0.525933 0.650538
1.000000 0.583307 0.653834
0.383886 0.573144 0.692927
0.427741 0.572320 0.692592
0.551049 0.570916 0.691310
0.699458 0.570733 0.689265
0.837125 0.584131 0.686213
0.921874 0.618891 0.668452
0.984680 0.645655 0.666743
1.000000 0.676234 0.676814
0.440070 0.734524 0.687434
0.478126 0.733852 0.687098
0.586481 0.731899 0.685878
0.719509 0.729976 0.684138
0.835569 0.728267 0.682704
0.915923 0.737087 0.679072
0.976715 0.748257 0.688624
1.000000 0.760708 0.701991
0.518364 0.852842 0.671412
0.549340 0.851011 0.671321
0.639918 0.844999 0.671870
0.749660 0.836240 0.675837
0.840604 0.829587 0.685847
0.909728 0.826932 0.691371
0.965515 0.828397 0.707332
1.000000 0.829129 0.716213
0.601678 0.924681 0.655512
0.624750 0.922911 0.657954
0.693385 0.917266 0.667323
0.776028 0.910307 0.683314
0.850004 0.904845 0.703578
0.905638 0.902678 0.702480
0.967773 0.900664 0.705867
1.000000 0.896757 0.736904
0.681239 0.982300 0.669429
0.697108 0.980896 0.673518
0.744167 0.976715 0.687007
0.804776 0.971344 0.707942
0.864103 0.966491 0.733211
0.902129 0.965667 0.721370
0.958251 0.963134 0.728054
1.000000 0.962127 0.732326
0.370153 0.080446 0.818875
0.411994 0.079011 0.818570
0.528435 0.080598 0.817533
0.673030 0.102419 0.815793
0.812680 0.160922 0.813474
0.931731 0.269474 0.810269
0.994263 0.393469 0.761563
1.000000 0.493843 0.738430
0.377569 0.206455 0.818051
0.418433 0.206058 0.817777
0.532341 0.205997 0.816739
0.674952 0.213657 0.815030
0.813138 0.242893 0.812772
0.931182 0.322148 0.809567
0.992859 0.428260 0.761776
1.000000 0.518364 0.740749
0.401465 0.390173 0.815274
0.438880 0.389563 0.815030
0.545678 0.389044 0.814054
0.681605 0.391730 0.812436
0.814511 0.403937 0.810330
0.928923 0.453315 0.807156
0.988067 0.526818 0.763546
1.000000 0.591363 0.749599
0.431525 0.560388 0.811246
0.467445 0.560967 0.810910
0.571344 0.564935 0.809659
0.694362 0.565423 0.808194
0.816831 0.571283 0.806394
0.923888 0.601953 0.803586
0.980316 0.646571 0.769772
1.000000 0.680720 0.764187
0.472145 0.713191 0.806729
0.503288 0.712978 0.806424
0.594781 0.712703 0.805509
0.711543 0.714412 0.803952
0.818875 0.715755 0.802640
0.916045 0.727291 0.800961
0.972290 0.750698 0.781186
1.000000 0.767147 0.784024
0.531975 0.843412 0.802884
0.558465 0.842496 0.802670
0.638087 0.839689 0.801968
0.736629 0.835630 0.801144
0.826902 0.831174 0.800687
0.907408 0.827787 0.800534
0.965606 0.835813 0.796506
1.000000 0.844053 0.808133
0.610620 0.930388 0.780697
0.631525 0.928740 0.781064
0.693111 0.923613 0.782650
0.770169 0.916808 0.786282
0.845274 0.910124 0.792691
0.909636 0.905394 0.803922
0.959625 0.903655 0.809873
1.000000 0.904051 0.823178
0.684565 0.982361 0.763455
0.698878 0.981170 0.765621
0.741970 0.977539 0.772946
0.800015 0.972686 0.785336
0.860258 0.967956 0.802548
0.914397 0.964508 0.823972
0.953491 0.963897 0.821805
1.000000 0.962615 0.825345
0.408270 0.130404 0.925017
0.441505 0.132204 0.924804
0.538170 0.141268 0.923949
0.664363 0.165133 0.922484
0.790494 0.210605 0.920592
0.902220 0.283116 0.918242
0.996612 0.379889 0.915251
1.000000 0.493019 0.849180
0.415290 0.225193 0.924285
0.447608 0.226169 0.924041
0.542260 0.230350 0.923217
0.666499 0.244114 0.921813
0.791043 0.274174 0.919921
0.901732 0.329961 0.917601
0.995392 0.414069 0.914672
1.000000 0.517052 0.850065
0.439551 0.393652 0.921752
0.468879 0.393927 0.921508
0.556664 0.395636 0.920745
0.673945 0.401923 0.919432
0.793057 0.417212 0.917662
0.900023 0.450141 0.915557
0.990997 0.510796 0.912688
1.000000 0.589044 0.853635
0.466865 0.551812 0.918242
0.503746 0.558099 0.917601
0.584466 0.561639 0.916716
0.688838 0.564508 0.915587
0.797421 0.572564 0.914122
0.897032 0.589593 0.912444
0.983215 0.629816 0.909972
1.000000 0.678492 0.860533
0.490059 0.690791 0.914794
0.516442 0.691218 0.914519
0.596918 0.694026 0.913573
0.703273 0.701869 0.911955
0.803616 0.709560 0.910521
0.892699 0.715267 0.909514
0.973388 0.736141 0.907958
1.000000 0.766445 0.871122
0.541497 0.817960 0.911131
0.564202 0.817716 0.910948
0.633112 0.817166 0.910307
0.721401 0.816434 0.909422
0.808896 0.816739 0.908598
0.889097 0.819577 0.907927
0.962890 0.827390 0.907256
1.000000 0.844968 0.885283
0.602960 0.924468 0.908690
0.621241 0.923583 0.908568
0.675929 0.920592 0.908263
0.749599 0.916320 0.907897
0.825162 0.911864 0.907683
0.892485 0.907683 0.907836
0.952087 0.903777 0.908324
0.997467 0.911711 0.903349
0.674403 0.993103 0.882475
0.687495 0.991913 0.882872
0.728359 0.988098 0.884398
0.786618 0.982330 0.887419
0.848417 0.976074 0.892210
0.905058 0.970611 0.899138
0.953857 0.966552 0.910124
0.990723 0.965698 0.921324
