其他预设/【239】阳光逆光效果预设26款/1.LUT预设（视频调色-PR-AE-PS-FCPX-达芬奇用）/阳光逆光预设__-8.cube
# Created by Adobe Lightroom plugin Export LUT (1.17.0)
# www.johnrellis.com/lightroom/exportlut.htm
# Preset: 阳光逆光预设[素锦印象]-8
# Color profile: /Library/Application Support/Adobe/Color/Profiles/Recommended/AdobeRGB1998.icc
LUT_3D_SIZE 5
DOMAIN_MIN 0.000000 0.000000 0.000000
DOMAIN_MAX 0.903226 0.903226 0.903226
0.186404 0.162448 0.156893
0.292180 0.153750 0.152956
0.564874 0.103731 0.133730
0.870329 0.000000 0.101564
1.000000 0.000000 0.079225
0.170382 0.262516 0.145357
0.294743 0.261509 0.141268
0.560082 0.282780 0.142519
0.875944 0.274327 0.086061
1.000000 0.256199 0.072694
0.139803 0.506004 0.126467
0.291295 0.505119 0.124056
0.549035 0.494697 0.092897
0.852903 0.554253 0.160433
1.000000 0.559472 0.209323
0.000000 0.798245 0.028809
0.274357 0.797726 0.019867
0.555200 0.795102 0.000000
0.826413 0.772885 0.000000
1.000000 0.763485 0.143740
0.122164 1.000000 0.098848
0.283299 1.000000 0.100191
0.526665 0.997192 0.103975
0.766140 0.986999 0.020264
0.995239 0.970642 0.000000
0.190127 0.157595 0.245243
0.297459 0.140963 0.247501
0.558892 0.000000 0.249668
0.862425 0.000000 0.225803
1.000000 0.000000 0.225254
0.180911 0.264103 0.247501
0.303197 0.263584 0.246952
0.566613 0.247990 0.241245
0.868193 0.226047 0.231601
1.000000 0.234012 0.229648
0.182712 0.504601 0.256535
0.299535 0.506401 0.242618
0.552331 0.495216 0.223941
0.856046 0.564385 0.287236
1.000000 0.551324 0.283970
0.196933 0.795346 0.263706
0.277562 0.798550 0.220859
0.558556 0.795468 0.216922
0.828244 0.773404 0.157992
1.000000 0.767788 0.268925
0.277714 1.000000 0.280949
0.301640 1.000000 0.230472
0.536522 0.997345 0.233158
0.769741 0.986999 0.218540
0.995911 0.970703 0.102663
0.220676 0.136965 0.443427
0.330724 0.118410 0.445136
0.563745 0.000000 0.449470
0.856229 0.000000 0.475196
1.000000 0.000000 0.445533
0.174899 0.249516 0.445472
0.311437 0.241520 0.446967
0.567651 0.238987 0.449836
0.858549 0.165835 0.466621
1.000000 0.149844 0.437598
0.199802 0.503624 0.447211
0.324254 0.504173 0.447486
0.577417 0.505791 0.447120
0.870329 0.504814 0.447120
1.000000 0.515282 0.451026
0.226719 0.794522 0.469795
0.338720 0.794644 0.464668
0.569787 0.796292 0.440558
0.837186 0.777188 0.405707
1.000000 0.806516 0.548730
0.313664 0.999481 0.462745
0.404120 0.997528 0.464729
0.591119 0.992157 0.460578
0.794858 0.983062 0.467475
0.997101 0.969268 0.387304
0.262577 0.092164 0.710933
0.364965 0.013031 0.712398
0.594171 0.000000 0.716854
0.846921 0.000000 0.722713
1.000000 0.000000 0.696071
0.205844 0.227268 0.712612
0.337255 0.219760 0.713558
0.588861 0.198367 0.717067
0.847410 0.165286 0.722652
1.000000 0.224155 0.694606
0.140749 0.495796 0.711940
0.276158 0.485603 0.712398
0.555322 0.464881 0.717708
0.848264 0.479438 0.721523
1.000000 0.517021 0.694636
0.191287 0.780087 0.720455
0.314000 0.780148 0.720394
0.574182 0.781765 0.720974
0.851652 0.788876 0.722957
1.000000 0.803708 0.736538
0.346685 0.996490 0.696925
0.434211 0.994018 0.697810
0.648585 0.984680 0.709377
0.849668 0.973754 0.735592
0.994171 0.966644 0.696010
0.244144 0.000000 0.955810
0.340368 0.000000 0.955932
0.551385 0.000000 0.956603
0.784329 0.000000 0.957153
0.998230 0.000000 0.958007
0.210239 0.208682 0.955383
0.323400 0.203433 0.955413
0.546624 0.188052 0.955871
0.782071 0.177279 0.956085
0.997253 0.208316 0.957061
0.091402 0.446601 0.954314
0.257450 0.439094 0.954559
0.523064 0.436530 0.954437
0.777737 0.452857 0.953826
0.993652 0.504631 0.954589
0.119997 0.704341 0.953246
0.263676 0.701778 0.952819
0.518090 0.700862 0.951507
0.803464 0.744198 0.948821
0.986755 0.789029 0.951415
0.280858 0.956451 0.953460
0.379278 0.956359 0.953033
0.614618 0.957183 0.951965
0.837766 0.960571 0.950469
0.981231 0.967681 0.951812
