其他预设/【239】阳光逆光效果预设26款/1.LUT预设（视频调色-PR-AE-PS-FCPX-达芬奇用）/阳光逆光预设__-3.cube
# Created by Adobe Lightroom plugin Export LUT (1.17.0)
# www.johnrellis.com/lightroom/exportlut.htm
# Preset: 阳光逆光预设[素锦印象]-3
# Color profile: /Library/Application Support/Adobe/Color/Profiles/Recommended/AdobeRGB1998.icc
LUT_3D_SIZE 5
DOMAIN_MIN 0.000000 0.000000 0.000000
DOMAIN_MAX 0.903226 0.903226 0.903226
0.000000 0.000000 0.000000
0.398352 0.000000 0.000000
0.753689 0.065095 0.000000
0.959808 0.232181 0.013977
1.000000 0.357092 0.177859
0.104402 0.362249 0.000000
0.400183 0.354711 0.000000
0.739498 0.360327 0.033173
0.952331 0.391363 0.111879
1.000000 0.450782 0.213474
0.282780 0.673518 0.000000
0.459541 0.665370 0.000000
0.752102 0.653590 0.000000
0.933898 0.636194 0.219516
1.000000 0.646906 0.314122
0.437598 0.873045 0.123812
0.537102 0.867216 0.137362
0.748409 0.852049 0.169711
0.938567 0.841337 0.187747
1.000000 0.811246 0.370733
0.572259 0.992370 0.291051
0.626612 0.988647 0.298985
0.765499 0.977844 0.327398
0.908904 0.967224 0.357031
1.000000 0.960357 0.385138
0.093233 0.000000 0.260929
0.416815 0.000000 0.264744
0.767208 0.047120 0.233402
0.958984 0.284855 0.255009
1.000000 0.393988 0.296300
0.143465 0.368231 0.254734
0.424598 0.363073 0.251499
0.752255 0.381506 0.257542
0.951812 0.419623 0.272282
1.000000 0.477394 0.316838
0.305058 0.677028 0.230838
0.489479 0.667170 0.248295
0.758145 0.656306 0.248905
0.931121 0.648341 0.333898
1.000000 0.660395 0.387274
0.469123 0.871672 0.271702
0.565148 0.865507 0.283207
0.758663 0.851255 0.299931
0.937987 0.841917 0.308965
1.000000 0.817655 0.442023
0.599237 0.989899 0.372351
0.648432 0.986450 0.378454
0.776364 0.976410 0.400580
0.911437 0.966522 0.425910
1.000000 0.960479 0.448676
0.220951 0.000000 0.508293
0.436500 0.000000 0.506584
0.773098 0.064881 0.502678
0.958923 0.294377 0.468910
1.000000 0.467079 0.492195
0.249729 0.350896 0.504234
0.453040 0.342962 0.502403
0.774441 0.366827 0.496010
0.954192 0.438849 0.476844
1.000000 0.534661 0.504417
0.353185 0.680201 0.492714
0.513085 0.675410 0.490089
0.772091 0.664240 0.493751
0.933837 0.673274 0.514885
1.000000 0.687892 0.540429
0.508476 0.871244 0.477272
0.610254 0.864012 0.491493
0.783352 0.850217 0.513115
0.933989 0.843565 0.519890
1.000000 0.836759 0.603754
0.670893 0.982818 0.546471
0.726650 0.977661 0.571527
0.800626 0.973175 0.563867
0.916320 0.964965 0.583703
1.000000 0.960998 0.596185
0.333379 0.014710 0.732082
0.479988 0.000000 0.730922
0.755337 0.070314 0.727169
0.951263 0.310674 0.691279
1.000000 0.484352 0.660853
0.357427 0.342718 0.729244
0.494392 0.339757 0.728115
0.759579 0.343389 0.724483
0.947173 0.447974 0.690211
1.000000 0.563073 0.673030
0.419654 0.652552 0.721004
0.536706 0.650996 0.719936
0.771695 0.652644 0.716609
0.934966 0.686610 0.699733
1.000000 0.722103 0.710506
0.543359 0.874296 0.699458
0.630091 0.868315 0.700038
0.800443 0.854582 0.707912
0.924315 0.847898 0.722225
1.000000 0.849119 0.743709
0.682521 0.982269 0.692103
0.730434 0.978058 0.703761
0.834623 0.969024 0.737728
0.916136 0.964996 0.746853
1.000000 0.962280 0.755337
0.408270 0.130404 0.925017
0.509728 0.138003 0.924224
0.728695 0.184970 0.921599
0.927489 0.306798 0.917540
1.000000 0.493019 0.849180
0.431586 0.350378 0.922545
0.525383 0.352270 0.921782
0.733089 0.368048 0.919310
0.925231 0.431678 0.915496
1.000000 0.567956 0.852445
0.473548 0.621118 0.916625
0.562036 0.625818 0.915618
0.750881 0.642451 0.912779
0.917266 0.661128 0.910399
1.000000 0.723232 0.865354
0.556146 0.846372 0.910399
0.624262 0.845121 0.909819
0.771237 0.842374 0.908568
0.906737 0.842710 0.907713
1.000000 0.862791 0.889342
0.674403 0.993103 0.882475
0.715938 0.989258 0.883879
0.817777 0.979187 0.889586
0.918029 0.969390 0.901183
0.990723 0.965698 0.921324
