其他预设/【239】阳光逆光效果预设26款/1.LUT预设（视频调色-PR-AE-PS-FCPX-达芬奇用）/阳光逆光预设__-23.cube
# Created by Adobe Lightroom plugin Export LUT (1.17.0)
# www.johnrellis.com/lightroom/exportlut.htm
# Preset: 阳光逆光预设[素锦印象]-23
# Color profile: /Library/Application Support/Adobe/Color/Profiles/Recommended/AdobeRGB1998.icc
LUT_3D_SIZE 8
DOMAIN_MIN 0.000000 0.000000 0.000000
DOMAIN_MAX 0.903226 0.903226 0.903226
0.000000 0.000000 0.000000
0.075776 0.000000 0.000000
0.186740 0.000000 0.000000
0.318639 0.000000 0.000000
0.465583 0.000000 0.000000
0.630243 0.000000 0.000000
0.808896 0.000000 0.000000
0.954864 0.000000 0.000000
0.000000 0.069642 0.000000
0.072816 0.065766 0.001587
0.188510 0.060792 0.000000
0.319982 0.027008 0.000000
0.466682 0.000000 0.000000
0.631189 0.000000 0.000000
0.809506 0.000000 0.000000
0.955016 0.000000 0.000000
0.000000 0.166903 0.000000
0.091249 0.166842 0.000000
0.180911 0.153506 0.007324
0.319005 0.171389 0.000000
0.470466 0.174716 0.000000
0.634699 0.172000 0.000000
0.811612 0.170291 0.000000
0.955535 0.168002 0.000000
0.019226 0.283268 0.000000
0.112062 0.283299 0.000000
0.220737 0.282017 0.000000
0.312139 0.262303 0.011749
0.455543 0.284092 0.000000
0.640955 0.311101 0.000000
0.815183 0.329656 0.000000
0.956390 0.336614 0.000000
0.053193 0.416663 0.000000
0.129000 0.416724 0.000000
0.245426 0.416815 0.000000
0.362127 0.409064 0.000000
0.457893 0.386969 0.000000
0.610956 0.417762 0.000000
0.811124 0.467262 0.000000
0.957336 0.481331 0.000000
0.064363 0.576745 0.000000
0.144686 0.576959 0.000000
0.271672 0.577813 0.000000
0.404273 0.579522 0.000000
0.528344 0.566796 0.000000
0.633570 0.547601 0.000000
0.783963 0.581262 0.000000
0.945556 0.618341 0.000000
0.048066 0.756924 0.000000
0.151278 0.756924 0.000000
0.291752 0.756985 0.000000
0.433722 0.757107 0.000000
0.573266 0.755947 0.000000
0.699855 0.742061 0.000000
0.809445 0.728237 0.000000
0.924498 0.739498 0.098360
0.017151 0.909880 0.000000
0.149996 0.909606 0.000000
0.295354 0.908751 0.000000
0.439399 0.907317 0.000000
0.579248 0.905486 0.000000
0.713527 0.899809 0.000000
0.835660 0.889372 0.000000
0.942229 0.880034 0.065370
0.000000 0.000000 0.069245
0.077577 0.000000 0.069795
0.188540 0.000000 0.070100
0.320531 0.000000 0.061707
0.467567 0.000000 0.023499
0.632258 0.000000 0.000000
0.810513 0.000000 0.000000
0.955932 0.000000 0.000000
0.000000 0.069825 0.069764
0.079500 0.068818 0.070375
0.190524 0.059815 0.067475
0.321904 0.000000 0.058686
0.468574 0.000000 0.015045
0.633204 0.000000 0.000000
0.811093 0.000000 0.000000
0.956085 0.000000 0.000000
0.000000 0.166995 0.069947
0.089845 0.167147 0.065919
0.186130 0.156741 0.078798
0.325261 0.169741 0.045075
0.472236 0.167575 0.000000
0.636652 0.159823 0.000000
0.813107 0.152407 0.000000
0.956573 0.146456 0.000000
0.000000 0.284428 0.022827
0.101534 0.284092 0.028229
0.219242 0.283543 0.015503
0.315648 0.264408 0.084199
0.460822 0.285222 0.043397
0.642695 0.307134 0.000000
0.816556 0.323430 0.000000
0.957336 0.329198 0.000000
0.000000 0.417548 0.000000
0.114656 0.417548 0.000000
0.240696 0.417426 0.000000
0.362463 0.410681 0.000000
0.460609 0.388739 0.083162
0.615473 0.419745 0.040864
0.813901 0.465797 0.000000
0.958129 0.477638 0.000000
0.000000 0.577569 0.000000
0.125124 0.577783 0.000000
0.264408 0.578546 0.000000
0.401251 0.580133 0.000000
0.528923 0.568231 0.000000
0.635615 0.549065 0.027863
0.786831 0.582788 0.033722
0.947021 0.617456 0.000000
0.000000 0.757687 0.000000
0.125002 0.757717 0.000000
0.281865 0.757656 0.000000
0.428901 0.757717 0.000000
0.571252 0.756954 0.000000
0.700008 0.742916 0.000000
0.810452 0.728969 0.000000
0.925872 0.740383 0.127504
0.000000 0.910460 0.000000
0.121370 0.910216 0.000000
0.284825 0.909331 0.000000
0.433936 0.907774 0.000000
0.576379 0.905882 0.000000
0.712337 0.900389 0.000000
0.835782 0.889769 0.000000
0.942687 0.880308 0.109743
0.000000 0.000000 0.156252
0.089601 0.000000 0.156435
0.194064 0.000000 0.157717
0.326329 0.000000 0.164981
0.473426 0.000000 0.159243
0.638972 0.000000 0.142153
0.815946 0.000000 0.123445
0.959442 0.000000 0.097017
0.000000 0.071443 0.156710
0.090059 0.066712 0.156680
0.196872 0.037568 0.157748
0.328222 0.000000 0.161135
0.475166 0.000000 0.152132
0.639796 0.000000 0.140902
0.816495 0.000000 0.120668
0.959533 0.000000 0.093202
0.000000 0.167269 0.156680
0.091402 0.167178 0.156649
0.201633 0.165072 0.156863
0.333227 0.157626 0.153323
0.478492 0.140902 0.147219
0.642969 0.108125 0.134554
0.818296 0.024140 0.110231
0.959869 0.000000 0.077089
0.000000 0.284947 0.161746
0.089570 0.285313 0.158236
0.214023 0.285039 0.150881
0.326360 0.270420 0.165591
0.478340 0.285893 0.147005
0.648615 0.293431 0.121401
0.821378 0.301030 0.086152
0.960418 0.302190 0.002686
0.000000 0.418738 0.152743
0.077699 0.419318 0.146151
0.226780 0.419471 0.135988
0.362768 0.416480 0.134981
0.469520 0.394171 0.169070
0.630823 0.425177 0.151003
0.823697 0.458900 0.015442
0.960937 0.464698 0.000000
0.000000 0.579644 0.116396
0.000000 0.580438 0.100587
0.239139 0.581109 0.089937
0.391333 0.582116 0.076661
0.530388 0.573297 0.101930
0.642512 0.553765 0.158907
0.796811 0.587518 0.153719
0.952178 0.613825 0.000000
0.000000 0.760250 0.000000
0.000000 0.760464 0.000000
0.244053 0.760159 0.000000
0.411841 0.759792 0.000000
0.563775 0.759487 0.000000
0.700465 0.745968 0.000000
0.813962 0.731502 0.143038
0.930663 0.743221 0.193118
0.000000 0.912505 0.000000
0.000000 0.912322 0.000000
0.244266 0.911284 0.000000
0.414588 0.909483 0.000000
0.566186 0.907256 0.000000
0.707881 0.902525 0.000000
0.836179 0.891142 0.000000
0.944427 0.881285 0.190249
0.066255 0.000000 0.252232
0.122560 0.000000 0.252201
0.221958 0.000000 0.252079
0.335210 0.000000 0.253544
0.481697 0.000000 0.263523
0.647242 0.000000 0.267277
0.823117 0.000000 0.260288
0.964813 0.000000 0.238285
0.041657 0.063386 0.252506
0.114748 0.054597 0.252537
0.220523 0.000000 0.252293
0.337255 0.000000 0.253666
0.483192 0.000000 0.261631
0.648585 0.000000 0.263676
0.824125 0.000000 0.254459
0.965270 0.000000 0.232517
0.000031 0.176944 0.252415
0.100649 0.173342 0.252537
0.216892 0.163241 0.252415
0.342901 0.149538 0.252659
0.487831 0.109041 0.254520
0.653468 0.000000 0.249607
0.827176 0.000000 0.235966
0.965545 0.000000 0.225803
0.015595 0.285374 0.250950
0.107362 0.285374 0.250767
0.220951 0.284764 0.250248
0.347539 0.281102 0.250217
0.494301 0.275639 0.244938
0.659297 0.265385 0.237949
0.829740 0.253147 0.226719
0.965698 0.246128 0.215640
0.000000 0.419593 0.255985
0.099092 0.419989 0.254490
0.223941 0.420966 0.248386
0.361761 0.420203 0.240787
0.485115 0.402655 0.254978
0.657374 0.428473 0.236545
0.833036 0.440864 0.211246
0.965728 0.440467 0.199039
0.000000 0.580804 0.252323
0.024506 0.581537 0.248875
0.216068 0.583917 0.235416
0.373541 0.585657 0.220401
0.531518 0.582269 0.220066
0.654658 0.561456 0.249973
0.813809 0.593133 0.239322
0.961700 0.604150 0.191501
0.000000 0.761074 0.229404
0.000000 0.761624 0.223697
0.193393 0.763241 0.201694
0.378882 0.763546 0.180240
0.550072 0.762295 0.171023
0.700923 0.751400 0.194736
0.820462 0.735622 0.243290
0.939086 0.747585 0.266392
0.000000 0.913085 0.185519
0.000000 0.913237 0.178897
0.191379 0.913542 0.153140
0.378973 0.912444 0.124971
0.548821 0.909636 0.112337
0.699062 0.906554 0.096223
0.837125 0.893675 0.193790
0.947662 0.882902 0.275456
0.131167 0.000000 0.345983
0.169253 0.000000 0.345892
0.260655 0.000000 0.345708
0.370855 0.000000 0.345159
0.494179 0.000000 0.346593
0.660792 0.000000 0.361669
0.831846 0.000000 0.368872
0.968780 0.000000 0.360906
0.115389 0.024079 0.346258
0.159182 0.000000 0.346136
0.256657 0.000000 0.345892
0.370397 0.000000 0.345220
0.495735 0.000000 0.346471
0.662074 0.000000 0.360418
0.832700 0.000000 0.366552
0.969238 0.000000 0.358221
0.066987 0.175265 0.346075
0.124636 0.168612 0.346227
0.244114 0.157717 0.345800
0.369329 0.139040 0.344854
0.500633 0.099763 0.345678
0.666468 0.000000 0.355596
0.835691 0.000000 0.358007
0.970611 0.000000 0.348516
0.073030 0.299901 0.343938
0.129488 0.298009 0.343938
0.238010 0.290959 0.343786
0.367834 0.279850 0.343053
0.508049 0.268009 0.342535
0.673640 0.237156 0.345434
0.840452 0.185946 0.340978
0.972503 0.153414 0.331212
0.083162 0.420813 0.340215
0.137087 0.420874 0.340002
0.244938 0.420691 0.339330
0.372381 0.420478 0.338231
0.512352 0.416602 0.337133
0.682002 0.412940 0.329625
0.844236 0.406958 0.322332
0.972625 0.403113 0.315740
0.000000 0.582452 0.346715
0.105501 0.583154 0.345739
0.236545 0.585260 0.341772
0.372564 0.588251 0.333440
0.525811 0.590143 0.320745
0.672511 0.571649 0.336126
0.837766 0.593103 0.319402
0.971344 0.586481 0.300359
0.000000 0.762295 0.341100
0.000000 0.762753 0.338994
0.216281 0.764218 0.331182
0.368444 0.766049 0.316167
0.529229 0.766445 0.297459
0.700038 0.759762 0.299199
0.830045 0.741176 0.335302
0.951019 0.752132 0.342443
0.000000 0.913542 0.317449
0.000000 0.913634 0.315007
0.218296 0.913787 0.306737
0.376959 0.913542 0.293065
0.529686 0.912413 0.273869
0.691768 0.908659 0.268132
0.839475 0.897337 0.301976
0.952209 0.885222 0.364141
0.205295 0.000000 0.446418
0.235477 0.000000 0.446387
0.318883 0.000000 0.446265
0.428595 0.000000 0.445991
0.550134 0.000000 0.445350
0.681361 0.000000 0.446754
0.844083 0.000000 0.462013
0.974975 0.000000 0.458869
0.191196 0.000000 0.446754
0.224186 0.000000 0.446693
0.312779 0.000000 0.446571
0.426184 0.000000 0.446174
0.550042 0.000000 0.445441
0.682582 0.000000 0.446723
0.844846 0.000000 0.461006
0.975311 0.000000 0.457374
0.130953 0.162539 0.447456
0.180880 0.158480 0.447364
0.291203 0.143374 0.447059
0.417670 0.109560 0.446448
0.549340 0.000000 0.445502
0.686793 0.000000 0.446296
0.847318 0.000000 0.457252
0.976410 0.000000 0.452125
0.109895 0.313146 0.445991
0.155520 0.308782 0.446113
0.259068 0.292302 0.446632
0.400336 0.274174 0.446204
0.547021 0.255924 0.444862
0.693202 0.229526 0.444526
0.851194 0.180240 0.449836
0.977783 0.153902 0.443061
0.106630 0.452857 0.442939
0.154696 0.451301 0.443000
0.261143 0.445563 0.443091
0.389197 0.433753 0.443061
0.538293 0.415473 0.442390
0.700313 0.404700 0.440131
0.854917 0.394842 0.438972
0.977630 0.401373 0.434638
0.099825 0.592798 0.437995
0.152621 0.592920 0.437934
0.262669 0.593256 0.437446
0.392340 0.593408 0.436469
0.540032 0.592767 0.434668
0.702174 0.588830 0.433997
0.856382 0.585657 0.427375
0.976196 0.583612 0.424537
0.000000 0.763760 0.441596
0.106722 0.764157 0.440742
0.248081 0.765377 0.437690
0.389105 0.766873 0.431922
0.545190 0.766842 0.424994
0.705379 0.765042 0.419104
0.843046 0.748684 0.442359
0.965759 0.756374 0.433906
0.000000 0.914000 0.427802
0.098054 0.914061 0.426612
0.252476 0.914092 0.422278
0.399451 0.913573 0.415808
0.559442 0.910918 0.413367
0.704372 0.908263 0.409339
0.846281 0.902007 0.417731
0.957244 0.888487 0.471656
0.274632 0.000000 0.579187
0.300877 0.000000 0.579217
0.378820 0.000000 0.579248
0.486641 0.000000 0.579309
0.608209 0.000000 0.579309
0.735103 0.000000 0.579248
0.860746 0.000000 0.577325
0.980468 0.000000 0.572534
0.260563 0.000000 0.579614
0.288914 0.000000 0.579644
0.370977 0.000000 0.579644
0.482307 0.000000 0.579644
0.606348 0.000000 0.579583
0.734798 0.000000 0.579492
0.861234 0.000000 0.577234
0.980743 0.000000 0.571832
0.204410 0.144228 0.580896
0.242924 0.138064 0.580865
0.342535 0.113344 0.580835
0.466865 0.006561 0.580713
0.599359 0.000000 0.580468
0.733364 0.000000 0.580163
0.862730 0.000000 0.576989
0.981537 0.000000 0.569329
0.119875 0.308843 0.581537
0.166445 0.301854 0.581750
0.282261 0.280369 0.582361
0.436500 0.264164 0.581994
0.585504 0.239506 0.581537
0.729885 0.206180 0.580896
0.864714 0.169802 0.576104
0.982330 0.155154 0.565240
0.107546 0.470436 0.580224
0.159670 0.467384 0.580407
0.270726 0.455726 0.581048
0.401862 0.433021 0.582025
0.561883 0.411963 0.581994
0.723018 0.400153 0.580804
0.865568 0.394141 0.574151
0.981384 0.404364 0.562432
0.087282 0.622797 0.578210
0.149477 0.621576 0.578271
0.268040 0.617029 0.578576
0.402411 0.608240 0.578973
0.555840 0.596796 0.579004
0.718990 0.590570 0.577691
0.863462 0.592493 0.571649
0.976745 0.603784 0.567773
0.048310 0.774838 0.575067
0.136080 0.774838 0.575067
0.264591 0.774655 0.574945
0.403967 0.773892 0.574701
0.561395 0.771511 0.573938
0.723873 0.766079 0.571832
0.858579 0.762417 0.575158
0.972656 0.762020 0.572259
0.086976 0.914427 0.560510
0.154635 0.914458 0.559960
0.279240 0.914305 0.558129
0.421820 0.913298 0.555871
0.578790 0.910155 0.556695
0.732784 0.905455 0.566094
0.855650 0.903960 0.571313
0.959777 0.893675 0.606409
0.295354 0.000000 0.757168
0.320745 0.000000 0.757229
0.396643 0.000000 0.757534
0.502434 0.000000 0.758083
0.621698 0.000000 0.758846
0.745296 0.000000 0.759915
0.868650 0.000000 0.761257
0.984924 0.000000 0.751614
0.281621 0.000000 0.757717
0.308659 0.000000 0.757809
0.388190 0.000000 0.758083
0.497383 0.000000 0.758602
0.618860 0.000000 0.759335
0.743862 0.000000 0.760342
0.868193 0.000000 0.761624
0.984924 0.000000 0.751705
0.227878 0.115480 0.759548
0.263005 0.107210 0.759609
0.358160 0.067781 0.759823
0.479103 0.000000 0.760281
0.608484 0.000000 0.760891
0.738674 0.000000 0.761746
0.866300 0.000000 0.762905
0.984680 0.000000 0.751980
0.005768 0.282628 0.762356
0.150057 0.280186 0.762417
0.298528 0.271183 0.762600
0.445716 0.254826 0.762905
0.589929 0.230564 0.763363
0.729244 0.199557 0.764034
0.862486 0.164767 0.764920
0.983673 0.148348 0.752621
0.000000 0.458869 0.763912
0.105989 0.455146 0.764096
0.252445 0.441962 0.764828
0.396643 0.418952 0.765988
0.565148 0.409857 0.766171
0.717311 0.401556 0.766476
0.857145 0.397620 0.766934
0.980255 0.405921 0.753658
0.000000 0.616907 0.765713
0.092195 0.615045 0.765896
0.250675 0.608453 0.766445
0.399176 0.597650 0.767330
0.560418 0.590234 0.767727
0.716945 0.592218 0.767575
0.854429 0.595850 0.767849
0.973419 0.605951 0.756344
0.000000 0.769558 0.768002
0.078126 0.768704 0.768124
0.249973 0.765713 0.768551
0.405676 0.761196 0.769070
0.568414 0.757870 0.769314
0.725307 0.760189 0.769100
0.854704 0.764828 0.769467
0.965454 0.771237 0.763302
0.000000 0.920745 0.770809
0.069673 0.920531 0.770871
0.254978 0.919677 0.771115
0.415869 0.917632 0.771481
0.579339 0.914092 0.771847
0.729671 0.909880 0.772457
0.856687 0.905852 0.773037
0.957214 0.904387 0.781704
