其他预设/【239】阳光逆光效果预设26款/1.LUT预设（视频调色-PR-AE-PS-FCPX-达芬奇用）/阳光逆光预设__-14.cube
# Created by Adobe Lightroom plugin Export LUT (1.17.0)
# www.johnrellis.com/lightroom/exportlut.htm
# Preset: 阳光逆光预设[素锦印象]-14
# Color profile: /Library/Application Support/Adobe/Color/Profiles/Recommended/AdobeRGB1998.icc
LUT_3D_SIZE 8
DOMAIN_MIN 0.000000 0.000000 0.000000
DOMAIN_MAX 0.903226 0.903226 0.903226
0.000000 0.000000 0.000000
0.131838 0.000000 0.000000
0.281895 0.000000 0.034363
0.460975 0.000000 0.081056
0.664759 0.000000 0.108888
0.854917 0.000000 0.129183
0.986877 0.000000 0.140749
1.000000 0.000000 0.146883
0.000000 0.124849 0.000000
0.129732 0.122621 0.010193
0.279515 0.106538 0.066194
0.459693 0.017731 0.092012
0.663600 0.000000 0.115450
0.853483 0.000000 0.130282
0.985626 0.000000 0.138949
1.000000 0.000000 0.143862
0.000000 0.272526 0.109651
0.092775 0.273503 0.089143
0.282994 0.269993 0.101472
0.456672 0.258488 0.119905
0.661494 0.249699 0.129488
0.851164 0.240269 0.130098
0.983154 0.246647 0.129244
1.000000 0.273686 0.130922
0.000000 0.448737 0.158450
0.000000 0.450721 0.139193
0.265568 0.451331 0.127108
0.473152 0.448890 0.129763
0.658534 0.441047 0.130007
0.847196 0.451637 0.110750
0.977813 0.453742 0.097200
1.000000 0.454566 0.097749
0.000000 0.651575 0.147311
0.000000 0.652979 0.134981
0.205112 0.654658 0.097292
0.469978 0.651270 0.084352
0.674403 0.646082 0.053803
0.839628 0.639216 0.000000
0.969482 0.636316 0.000000
1.000000 0.622187 0.000000
0.000000 0.822690 0.079866
0.000000 0.823392 0.055238
0.004517 0.824033 0.000000
0.434882 0.818143 0.000000
0.648096 0.810147 0.000000
0.817136 0.803250 0.000000
0.956146 0.806943 0.000000
1.000000 0.782803 0.000000
0.000000 0.943603 0.000000
0.000000 0.943389 0.000000
0.029236 0.941650 0.000000
0.411414 0.935485 0.000000
0.614649 0.926635 0.000000
0.776425 0.917693 0.000000
0.906065 0.910735 0.000000
1.000000 0.916686 0.000000
0.000000 1.000000 0.000000
0.000000 1.000000 0.000000
0.194949 1.000000 0.000000
0.431617 1.000000 0.000000
0.600793 1.000000 0.000000
0.744442 0.995727 0.000000
0.864103 0.987274 0.000000
0.961639 0.980346 0.000000
0.000000 0.000000 0.196017
0.140047 0.000000 0.197238
0.281712 0.000000 0.200320
0.463172 0.000000 0.211460
0.668330 0.000000 0.205844
0.856870 0.000000 0.197757
0.987488 0.000000 0.189395
1.000000 0.000000 0.183017
0.000000 0.132204 0.197543
0.118898 0.122927 0.198856
0.280583 0.101503 0.203922
0.463539 0.000000 0.205570
0.667811 0.000000 0.202579
0.855863 0.000000 0.195254
0.986419 0.000000 0.186282
1.000000 0.000000 0.179934
0.000000 0.271489 0.203708
0.095674 0.272038 0.207950
0.276158 0.270481 0.202670
0.461097 0.256107 0.202487
0.665583 0.235874 0.196323
0.853483 0.215579 0.184909
0.983673 0.226688 0.173831
1.000000 0.268376 0.168429
0.000000 0.447913 0.208804
0.000000 0.449287 0.207065
0.246738 0.452674 0.192508
0.469764 0.448646 0.187106
0.661799 0.439979 0.178500
0.848814 0.444984 0.159701
0.978210 0.446906 0.146334
1.000000 0.452888 0.144289
0.000000 0.650843 0.188113
0.000000 0.652033 0.181979
0.183536 0.655146 0.157626
0.459205 0.651881 0.141482
0.672114 0.645838 0.124178
0.841611 0.639063 0.103761
0.970123 0.634119 0.086458
1.000000 0.621759 0.099092
0.000000 0.821805 0.144503
0.000000 0.822202 0.135317
0.110231 0.822690 0.097078
0.425879 0.818418 0.036683
0.645716 0.810178 0.000000
0.817258 0.803159 0.000000
0.957092 0.807065 0.000000
1.000000 0.782437 0.000000
0.000000 0.942779 0.051331
0.000000 0.942443 0.007324
0.112428 0.940673 0.000000
0.417243 0.934783 0.000000
0.618860 0.925994 0.000000
0.779232 0.917082 0.000000
0.907500 0.910155 0.000000
1.000000 0.916472 0.000000
0.000000 1.000000 0.000000
0.000000 1.000000 0.000000
0.208286 1.000000 0.000000
0.454108 1.000000 0.000000
0.614740 1.000000 0.000000
0.752956 0.994659 0.000000
0.868894 0.986419 0.000000
0.963806 0.979797 0.040681
0.126650 0.000000 0.290196
0.199710 0.000000 0.289891
0.344244 0.000000 0.289158
0.485176 0.000000 0.282475
0.683772 0.000000 0.293248
0.864652 0.000000 0.299474
0.990295 0.000000 0.286046
1.000000 0.000000 0.276066
0.060151 0.118257 0.289616
0.167300 0.112520 0.289403
0.330327 0.078370 0.288548
0.484474 0.000000 0.283574
0.683406 0.000000 0.293004
0.864256 0.000000 0.295567
0.989593 0.000000 0.282322
1.000000 0.066865 0.276585
0.000000 0.293156 0.284886
0.140230 0.288029 0.285161
0.300603 0.272343 0.285405
0.483619 0.252628 0.283848
0.683192 0.210269 0.285863
0.863615 0.152163 0.280644
0.987060 0.194583 0.272526
1.000000 0.296269 0.272435
0.000000 0.448585 0.275883
0.105898 0.449287 0.277379
0.286839 0.450935 0.279973
0.475135 0.449928 0.274113
0.679316 0.436011 0.269566
0.858701 0.428717 0.264042
0.981079 0.440436 0.261662
1.000000 0.469154 0.265537
0.000000 0.650996 0.277989
0.000000 0.651637 0.278477
0.248753 0.653346 0.276310
0.449409 0.654292 0.258061
0.672480 0.647272 0.247929
0.849790 0.639796 0.244144
0.972045 0.633112 0.246586
1.000000 0.631556 0.256840
0.000000 0.821164 0.265446
0.000000 0.821073 0.264927
0.209384 0.820615 0.257633
0.436133 0.817777 0.238285
0.651545 0.809506 0.231968
0.822171 0.802243 0.231418
0.959930 0.807675 0.230320
1.000000 0.785611 0.249485
0.000000 0.941833 0.230014
0.000000 0.941253 0.227939
0.202518 0.938933 0.219303
0.454994 0.932189 0.218875
0.651820 0.922240 0.233066
0.797665 0.914214 0.237675
0.915770 0.908507 0.246555
1.000000 0.916533 0.253941
0.000000 1.000000 0.157443
0.000000 1.000000 0.153170
0.234012 1.000000 0.161166
0.510552 1.000000 0.215793
0.675776 0.997009 0.253391
0.789944 0.989532 0.261295
0.889342 0.982849 0.272740
0.972503 0.977691 0.287999
0.234134 0.000000 0.444953
0.284825 0.000000 0.445228
0.416388 0.000000 0.445716
0.578943 0.000000 0.446571
0.719936 0.000000 0.432349
0.874510 0.000000 0.441993
0.990723 0.000000 0.432746
1.000000 0.000000 0.403723
0.186770 0.087190 0.445594
0.250401 0.069093 0.445777
0.397955 0.000000 0.446204
0.570184 0.000000 0.447089
0.719051 0.000000 0.435096
0.873777 0.000000 0.442939
0.989868 0.000000 0.432166
1.000000 0.000000 0.402960
0.090150 0.298222 0.445472
0.175113 0.290105 0.445930
0.336248 0.260563 0.447486
0.541161 0.231632 0.447883
0.714046 0.203281 0.442023
0.871611 0.184207 0.445838
0.987091 0.224613 0.430671
1.000000 0.326787 0.409491
0.000000 0.490730 0.442908
0.129976 0.487160 0.443336
0.311894 0.474464 0.444862
0.502892 0.452277 0.446815
0.701198 0.435462 0.447395
0.865965 0.433814 0.444465
0.978851 0.469947 0.434699
1.000000 0.552331 0.446906
0.000000 0.653437 0.427375
0.036042 0.653498 0.429328
0.291722 0.653376 0.435096
0.490394 0.650721 0.443061
0.688502 0.645228 0.443000
0.856199 0.643885 0.444099
0.967742 0.657282 0.446967
1.000000 0.679866 0.453223
0.000000 0.820523 0.424598
0.000000 0.820462 0.425299
0.268162 0.818845 0.426581
0.481636 0.814176 0.426246
0.687556 0.804776 0.430335
0.842863 0.798245 0.444587
0.957641 0.805722 0.447669
1.000000 0.802335 0.456703
0.000000 0.940185 0.391272
0.000000 0.939544 0.390539
0.268803 0.936645 0.387732
0.488441 0.929595 0.386419
0.707454 0.915312 0.419989
0.843107 0.906554 0.451606
0.932250 0.904479 0.458106
1.000000 0.916136 0.463172
0.000000 1.000000 0.332647
0.000000 1.000000 0.330724
0.269017 1.000000 0.324010
0.507988 1.000000 0.337530
0.748623 0.987915 0.428077
0.851957 0.979767 0.464271
0.921843 0.976349 0.471107
0.984131 0.974090 0.479683
0.295079 0.000000 0.633661
0.335332 0.000000 0.633722
0.447974 0.000000 0.633906
0.592401 0.000000 0.634058
0.740352 0.000000 0.634455
0.870939 0.000000 0.629358
0.986236 0.000000 0.622950
1.000000 0.000000 0.574029
0.263798 0.000000 0.633936
0.309819 0.000000 0.634028
0.432227 0.000000 0.634119
0.583337 0.000000 0.634150
0.735103 0.000000 0.634333
0.868772 0.000000 0.630365
0.985321 0.000000 0.623377
1.000000 0.074281 0.573358
0.150332 0.261540 0.634241
0.222507 0.256870 0.634272
0.384314 0.245274 0.634058
0.556329 0.221958 0.633845
0.719753 0.196384 0.633661
0.861570 0.193118 0.632563
0.981750 0.228977 0.623682
1.000000 0.316320 0.571221
0.110292 0.463966 0.631495
0.193606 0.460517 0.631647
0.353338 0.450080 0.631922
0.534234 0.440253 0.631830
0.705867 0.436744 0.631281
0.853452 0.442786 0.633021
0.974670 0.464973 0.619379
1.000000 0.510216 0.568902
0.000000 0.642664 0.628016
0.155764 0.640528 0.628199
0.339239 0.633753 0.628443
0.528740 0.626123 0.628412
0.712947 0.631189 0.626886
0.854429 0.643854 0.626032
0.963622 0.662196 0.614618
1.000000 0.705653 0.603174
0.000000 0.805783 0.622553
0.097200 0.804898 0.623346
0.321813 0.801541 0.625391
0.518273 0.796811 0.627314
0.704799 0.794644 0.623163
0.854185 0.794095 0.623529
0.952331 0.805753 0.624781
1.000000 0.822354 0.627893
0.000000 0.936889 0.588769
0.112062 0.936004 0.588434
0.328954 0.932464 0.586419
0.523003 0.925231 0.580499
0.710292 0.913939 0.574670
0.863218 0.902129 0.606806
0.943603 0.900694 0.628382
1.000000 0.913634 0.631159
0.066712 1.000000 0.515312
0.180819 1.000000 0.514000
0.351232 1.000000 0.509453
0.529992 1.000000 0.502098
0.723964 0.990356 0.519799
0.883635 0.973632 0.608362
0.944976 0.970581 0.634363
0.990417 0.970855 0.639521
0.316472 0.000000 0.783871
0.348577 0.000000 0.783871
0.441901 0.000000 0.783719
0.566278 0.000000 0.783627
0.697353 0.000000 0.783505
0.821134 0.000000 0.783505
0.937285 0.000000 0.796780
1.000000 0.000000 0.799893
0.301701 0.000000 0.783566
0.335882 0.000000 0.783474
0.433570 0.000000 0.783413
0.561242 0.000000 0.783291
0.694453 0.000000 0.783139
0.819272 0.000000 0.783108
0.936248 0.000000 0.796597
1.000000 0.118898 0.798703
0.267979 0.245365 0.783291
0.307683 0.243290 0.783200
0.415656 0.236179 0.782956
0.551232 0.226108 0.782681
0.689021 0.221805 0.782345
0.815763 0.237217 0.782010
0.933654 0.271916 0.795682
1.000000 0.328771 0.793088
0.252567 0.424262 0.781949
0.299229 0.424720 0.781704
0.425635 0.430243 0.780972
0.567132 0.436805 0.780331
0.699611 0.442695 0.779751
0.820371 0.458808 0.779141
0.933135 0.483680 0.791897
1.000000 0.517296 0.779629
0.245518 0.587121 0.779690
0.294194 0.587091 0.779568
0.423529 0.589044 0.778958
0.585870 0.600916 0.777310
0.744839 0.634180 0.774197
0.843137 0.646601 0.773892
0.937621 0.660548 0.782620
1.000000 0.679988 0.758938
0.239139 0.738613 0.777310
0.290318 0.738186 0.777310
0.421698 0.737636 0.776822
0.584192 0.741421 0.775601
0.739834 0.756344 0.773342
0.862272 0.782132 0.771267
0.943145 0.800565 0.771420
1.000000 0.819852 0.756161
0.220005 0.890105 0.787198
0.275364 0.889647 0.787320
0.412451 0.888426 0.787259
0.575952 0.888273 0.785702
0.731197 0.891752 0.780545
0.855222 0.897917 0.770809
0.942687 0.899382 0.771511
0.997742 0.911589 0.774044
0.242741 1.000000 0.744930
0.293889 1.000000 0.743282
0.424353 1.000000 0.736721
0.583581 0.997192 0.724422
0.737240 0.986267 0.710506
0.863188 0.975647 0.708614
0.952697 0.967437 0.763363
0.990478 0.968505 0.778592
0.320928 0.000000 0.906401
0.347295 0.000000 0.906645
0.426093 0.000000 0.906493
0.534295 0.000000 0.906310
0.651575 0.000000 0.905943
0.765530 0.000000 0.905394
0.868986 0.000000 0.904753
0.967163 0.160494 0.928313
0.318486 0.000000 0.905303
0.345342 0.000000 0.905516
0.425055 0.000000 0.905425
0.533928 0.000000 0.905119
0.651545 0.000000 0.904631
0.765621 0.000000 0.903899
0.868864 0.121920 0.903075
0.966888 0.220432 0.926543
0.327825 0.237247 0.905211
0.354314 0.236698 0.905119
0.433448 0.235477 0.904753
0.541863 0.236637 0.904265
0.658656 0.245853 0.903410
0.771176 0.271763 0.902586
0.872190 0.318456 0.901976
0.967803 0.371679 0.925292
0.400671 0.426307 0.902983
0.429389 0.430732 0.902556
0.492592 0.431769 0.902037
0.587274 0.438025 0.901549
0.691554 0.450080 0.900633
0.793149 0.472297 0.899840
0.884306 0.506249 0.899199
0.971069 0.539788 0.921080
0.403174 0.557214 0.900786
0.433845 0.560540 0.900237
0.528130 0.575067 0.898650
0.657282 0.608362 0.896025
0.756527 0.634699 0.894194
0.832639 0.649042 0.893736
0.903899 0.669215 0.893675
0.976226 0.690517 0.913512
0.408148 0.685786 0.898985
0.438697 0.687800 0.898680
0.532036 0.696437 0.897581
0.657740 0.716396 0.895537
0.777249 0.747707 0.892821
0.875273 0.789914 0.890105
0.926329 0.801724 0.890867
0.982086 0.812955 0.904143
0.417273 0.810056 0.898161
0.447303 0.811032 0.898070
0.538079 0.815152 0.897215
0.658961 0.825223 0.895628
0.775723 0.842466 0.893400
0.870176 0.865537 0.891447
0.939574 0.891142 0.890410
0.985901 0.906065 0.891020
0.411810 0.942840 0.914733
0.441321 0.943084 0.914611
0.531792 0.944457 0.914305
0.649683 0.947875 0.912840
0.765377 0.954223 0.909819
0.859892 0.963165 0.903838
0.935027 0.968078 0.884916
0.985870 0.967132 0.890929
0.322362 0.000000 0.997986
0.344182 0.000000 0.998016
0.410681 0.000000 0.997650
0.504967 0.000000 0.997314
0.610010 0.000000 0.996735
0.714900 0.000000 0.995911
0.813474 0.133608 0.994995
0.899809 0.247745 0.993774
0.328954 0.000000 0.997406
0.350378 0.000000 0.997406
0.415900 0.000000 0.997101
0.509300 0.000000 0.996674
0.613703 0.000000 0.996063
0.717891 0.113924 0.995209
0.815671 0.200626 0.994171
0.901122 0.289220 0.992950
0.364294 0.237522 0.995972
0.383673 0.238376 0.995911
0.443915 0.241276 0.995453
0.532738 0.250828 0.995239
0.632441 0.268559 0.994415
0.732296 0.299565 0.993286
0.825895 0.346319 0.992126
0.907317 0.407813 0.990906
0.463508 0.424353 0.992615
0.478279 0.425788 0.992554
0.524865 0.429969 0.992126
0.597284 0.439765 0.991547
0.681910 0.456214 0.990661
0.768246 0.481300 0.989502
0.849790 0.516442 0.988281
0.920500 0.558587 0.987304
0.572107 0.584497 0.987701
0.593133 0.591943 0.987243
0.655299 0.616205 0.985473
0.702388 0.622827 0.985016
0.759823 0.634485 0.984283
0.821592 0.651362 0.983520
0.882689 0.674189 0.982971
0.937957 0.701869 0.982696
0.578180 0.677913 0.986481
0.597406 0.682612 0.985992
0.656458 0.698939 0.984405
0.736782 0.726833 0.982025
0.819120 0.765164 0.979217
0.873869 0.789242 0.978271
0.915801 0.803586 0.978698
0.955138 0.818051 0.978515
0.588128 0.775326 0.985962
0.606134 0.778286 0.985565
0.661524 0.788571 0.984283
0.739254 0.807309 0.982269
0.819089 0.833524 0.979767
0.887846 0.864164 0.977264
0.941985 0.896880 0.975097
0.970031 0.905730 0.975372
0.582422 0.876921 0.983734
0.599664 0.878355 0.983429
0.654322 0.883726 0.982452
0.732906 0.894133 0.980926
0.813443 0.909270 0.979034
0.882933 0.927611 0.977142
0.938750 0.947417 0.975586
0.980194 0.966583 0.974487
