其他预设/【239】阳光逆光效果预设26款/1.LUT预设（视频调色-PR-AE-PS-FCPX-达芬奇用）/阳光逆光预设__-12.cube
# Created by Adobe Lightroom plugin Export LUT (1.17.0)
# www.johnrellis.com/lightroom/exportlut.htm
# Preset: 阳光逆光预设[素锦印象]-12
# Color profile: /Library/Application Support/Adobe/Color/Profiles/Recommended/AdobeRGB1998.icc
LUT_3D_SIZE 8
DOMAIN_MIN 0.000000 0.000000 0.000000
DOMAIN_MAX 0.903226 0.903226 0.903226
0.000000 0.000000 0.000000
0.096895 0.000000 0.000000
0.257542 0.000000 0.000000
0.424598 0.000000 0.000000
0.597284 0.000000 0.000000
0.757839 0.000000 0.000000
0.895354 0.079347 0.000000
1.000000 0.152071 0.099092
0.000000 0.093996 0.000000
0.098756 0.096864 0.000000
0.259464 0.123751 0.000000
0.428931 0.136263 0.000000
0.602411 0.141482 0.000000
0.759945 0.146944 0.000000
0.895964 0.164736 0.000000
1.000000 0.205325 0.111757
0.000000 0.246769 0.000000
0.099062 0.244785 0.000000
0.266453 0.255161 0.000000
0.448127 0.287968 0.000000
0.622889 0.301274 0.000000
0.774044 0.303136 0.010346
0.903929 0.308965 0.087953
1.000000 0.327214 0.154757
0.000000 0.400336 0.000000
0.088411 0.398657 0.000000
0.261753 0.398474 0.000000
0.454383 0.422827 0.000000
0.651606 0.457191 0.029419
0.795712 0.466346 0.145357
0.913451 0.462013 0.169894
1.000000 0.467140 0.219089
0.000000 0.554406 0.000000
0.045686 0.552605 0.000000
0.257328 0.546471 0.000000
0.435950 0.557885 0.000000
0.637812 0.584100 0.000000
0.810636 0.605280 0.112093
0.921599 0.607782 0.233433
1.000000 0.611933 0.304875
0.000000 0.699580 0.000000
0.000000 0.699001 0.000000
0.252995 0.694148 0.000000
0.411444 0.686275 0.000000
0.602533 0.706172 0.000000
0.790097 0.726772 0.014191
0.929808 0.735134 0.200504
1.000000 0.731472 0.333349
0.000000 0.836057 0.000000
0.000000 0.835294 0.000000
0.246220 0.831785 0.000000
0.408362 0.825925 0.000000
0.571130 0.825467 0.000000
0.745968 0.836820 0.106630
0.905394 0.847623 0.182040
1.000000 0.844694 0.307988
0.000000 0.956939 0.110262
0.075288 0.956329 0.112276
0.262882 0.954162 0.119112
0.413886 0.950530 0.131563
0.555993 0.944274 0.146242
0.713283 0.944396 0.193301
0.861997 0.945769 0.253635
0.989715 0.946258 0.319005
0.000000 0.000000 0.078370
0.105745 0.000000 0.083772
0.263890 0.000000 0.067872
0.426642 0.000000 0.072114
0.597101 0.000000 0.066560
0.754849 0.000000 0.067506
0.892821 0.073304 0.092226
1.000000 0.149203 0.143313
0.000000 0.098482 0.082490
0.111147 0.102510 0.080385
0.265599 0.121492 0.083436
0.431312 0.132265 0.080507
0.602411 0.137758 0.076020
0.758083 0.144594 0.079194
0.893889 0.162448 0.102937
1.000000 0.203342 0.152224
0.000000 0.249729 0.094179
0.113710 0.249363 0.074006
0.272984 0.257145 0.079377
0.449073 0.289799 0.118074
0.621393 0.300481 0.114656
0.771664 0.302220 0.118318
0.901091 0.307774 0.140169
1.000000 0.326329 0.185977
0.000000 0.402869 0.066011
0.103700 0.401434 0.053071
0.266789 0.399542 0.059724
0.456367 0.421820 0.074189
0.648432 0.455146 0.133791
0.792203 0.464576 0.184939
0.910613 0.461097 0.202060
1.000000 0.467109 0.242802
0.000000 0.556542 0.000000
0.075990 0.554559 0.000000
0.263554 0.548028 0.000000
0.438270 0.557153 0.029328
0.638575 0.583032 0.078065
0.809079 0.604181 0.168185
0.920165 0.609033 0.264714
1.000000 0.612818 0.323980
0.000000 0.700191 0.000000
0.000000 0.698817 0.000000
0.258305 0.694057 0.000000
0.414099 0.685817 0.000000
0.603967 0.705470 0.072908
0.791318 0.726619 0.129335
0.929015 0.735073 0.236698
1.000000 0.733120 0.356512
0.000000 0.835508 0.041352
0.000000 0.834409 0.045380
0.251774 0.831083 0.056794
0.411475 0.825437 0.068666
0.572290 0.824582 0.099428
0.746853 0.836088 0.156741
0.905486 0.846983 0.217716
1.000000 0.844480 0.331853
0.000000 0.956451 0.155520
0.100435 0.955901 0.156832
0.269413 0.953796 0.161593
0.417639 0.950164 0.170474
0.559411 0.944793 0.182834
0.714870 0.944335 0.222293
0.862882 0.945495 0.277958
0.989685 0.946044 0.340642
0.000000 0.000000 0.206882
0.109224 0.000000 0.207187
0.282841 0.000000 0.213169
0.441962 0.000000 0.198886
0.596979 0.000000 0.178073
0.753231 0.000000 0.190890
0.891539 0.000000 0.202335
1.000000 0.110903 0.228794
0.000000 0.119081 0.207279
0.106996 0.095369 0.207980
0.285710 0.090425 0.206638
0.440803 0.009644 0.193210
0.602258 0.000000 0.188724
0.756527 0.093416 0.197513
0.892882 0.127077 0.208438
1.000000 0.182010 0.235355
0.000000 0.257450 0.213474
0.135958 0.258366 0.211429
0.292363 0.264408 0.210788
0.454963 0.280858 0.220310
0.622217 0.286534 0.219547
0.770413 0.290013 0.222019
0.899596 0.297490 0.233158
1.000000 0.318944 0.260899
0.051240 0.411078 0.226108
0.155673 0.411200 0.222049
0.284245 0.406622 0.202914
0.472236 0.427527 0.219394
0.651545 0.456886 0.257206
0.791623 0.461891 0.272068
0.909606 0.459785 0.281559
1.000000 0.467323 0.308965
0.109346 0.562371 0.238071
0.160433 0.562280 0.223453
0.284245 0.557153 0.198703
0.448981 0.559808 0.205600
0.648768 0.586023 0.229435
0.809873 0.605798 0.282353
0.919005 0.617365 0.352728
1.000000 0.616999 0.382208
0.117525 0.703487 0.238590
0.138766 0.703548 0.213993
0.279637 0.699275 0.198154
0.428809 0.690364 0.198215
0.611109 0.705592 0.219394
0.796323 0.727413 0.255863
0.927581 0.736538 0.331395
1.000000 0.741207 0.429603
0.132265 0.836149 0.250126
0.146273 0.836301 0.228428
0.274174 0.833555 0.211734
0.424750 0.827390 0.212863
0.577173 0.823545 0.221500
0.751736 0.835752 0.261326
0.908385 0.847868 0.312596
1.000000 0.847013 0.408728
0.208255 0.954406 0.295781
0.210239 0.954894 0.278416
0.293492 0.953948 0.258183
0.432227 0.950378 0.263127
0.568933 0.944884 0.269627
0.719265 0.943481 0.298375
0.866361 0.945068 0.349493
0.990234 0.946258 0.408820
0.000000 0.000000 0.340917
0.099825 0.000000 0.341253
0.282963 0.000000 0.341131
0.470832 0.000000 0.344671
0.629938 0.000000 0.327428
0.762844 0.000000 0.307134
0.887083 0.000000 0.294591
1.000000 0.000000 0.313207
0.000000 0.098756 0.342351
0.082124 0.090425 0.342321
0.285466 0.037598 0.341802
0.474128 0.000000 0.342260
0.628351 0.000000 0.324315
0.760800 0.000000 0.304417
0.886931 0.000000 0.296727
1.000000 0.000000 0.317906
0.000000 0.274907 0.340703
0.114504 0.271794 0.340734
0.291295 0.249393 0.341161
0.475257 0.254398 0.334203
0.622034 0.226169 0.315160
0.763485 0.230167 0.311528
0.895476 0.251164 0.322210
1.000000 0.277958 0.339940
0.070527 0.422248 0.349035
0.165835 0.422431 0.348119
0.320226 0.421302 0.343542
0.491432 0.432319 0.349157
0.649653 0.447547 0.363378
0.786191 0.445136 0.361578
0.905547 0.444007 0.366400
1.000000 0.453376 0.384497
0.128908 0.573999 0.358740
0.196536 0.573114 0.356237
0.337041 0.570031 0.349645
0.466468 0.561883 0.331884
0.669917 0.594812 0.362005
0.809812 0.610163 0.408118
0.916136 0.618341 0.440253
1.000000 0.617029 0.455146
0.190860 0.710689 0.367132
0.241672 0.710323 0.366400
0.342321 0.707698 0.350988
0.457404 0.699733 0.329625
0.623560 0.706325 0.345129
0.805356 0.729854 0.385504
0.925170 0.741085 0.450263
1.000000 0.754421 0.527276
0.266972 0.837278 0.391699
0.304265 0.836393 0.392950
0.353704 0.835874 0.365759
0.449317 0.831998 0.339330
0.585351 0.822873 0.337652
0.759640 0.835325 0.376989
0.912352 0.849088 0.429389
1.000000 0.850828 0.509087
0.372686 0.950103 0.445594
0.399847 0.949157 0.449622
0.399268 0.951293 0.410559
0.457099 0.951141 0.373632
0.585565 0.945434 0.376440
0.724880 0.941894 0.394415
0.871336 0.944182 0.444373
0.990631 0.946563 0.500145
0.000000 0.000000 0.476692
0.071962 0.000000 0.476844
0.286503 0.000000 0.476783
0.469184 0.000000 0.476661
0.659541 0.000000 0.476600
0.794919 0.000000 0.449256
0.906401 0.000000 0.431830
1.000000 0.000000 0.429999
0.000000 0.098451 0.477668
0.000000 0.088960 0.477821
0.284306 0.009369 0.477485
0.472389 0.000000 0.477180
0.660975 0.000000 0.474647
0.793454 0.000000 0.447974
0.905119 0.000000 0.431556
1.000000 0.000000 0.430945
0.000000 0.290471 0.476356
0.104921 0.281254 0.477089
0.277440 0.242435 0.478676
0.480995 0.229618 0.477272
0.662684 0.239902 0.467842
0.787198 0.226688 0.443824
0.900023 0.210391 0.430884
1.000000 0.222843 0.434058
0.000000 0.435248 0.476356
0.146120 0.434546 0.476326
0.310643 0.430823 0.475929
0.494514 0.412970 0.475288
0.654353 0.411780 0.458991
0.775113 0.386938 0.439155
0.896300 0.387976 0.441810
1.000000 0.397833 0.453376
0.145113 0.585199 0.484230
0.211704 0.585107 0.483589
0.356054 0.583215 0.481117
0.514946 0.576715 0.475196
0.678218 0.593256 0.491249
0.803922 0.603571 0.512413
0.910124 0.593439 0.508415
1.000000 0.591333 0.516136
0.217258 0.720089 0.486427
0.263706 0.719234 0.485542
0.382422 0.715480 0.483375
0.523003 0.708522 0.482826
0.631525 0.702632 0.464057
0.819272 0.736995 0.513512
0.921172 0.747189 0.568139
0.997009 0.757259 0.606287
0.291112 0.842527 0.497841
0.325933 0.841520 0.498573
0.424964 0.837858 0.502831
0.533410 0.832853 0.500877
0.608576 0.828092 0.464820
0.764920 0.832761 0.490883
0.915892 0.850309 0.546777
0.999359 0.855192 0.611780
0.389532 0.951690 0.532250
0.415351 0.950683 0.535119
0.492134 0.947356 0.545220
0.569085 0.945037 0.543786
0.606622 0.946532 0.492226
0.725826 0.939544 0.492470
0.874723 0.942779 0.543023
0.990356 0.946838 0.597284
0.000000 0.000000 0.619715
0.000000 0.000000 0.619715
0.280705 0.000000 0.619471
0.470405 0.000000 0.620386
0.658228 0.000000 0.619654
0.815976 0.000000 0.597925
0.926879 0.000000 0.567559
1.000000 0.075929 0.555383
0.000000 0.098451 0.619715
0.000000 0.087739 0.619684
0.275273 0.000000 0.619989
0.469947 0.000000 0.620203
0.659724 0.000000 0.619226
0.816037 0.000000 0.596551
0.925597 0.079500 0.567834
1.000000 0.156649 0.556847
0.000000 0.290593 0.620478
0.000000 0.264408 0.621424
0.258793 0.239963 0.621729
0.470130 0.218753 0.621149
0.666133 0.201511 0.619409
0.816922 0.232700 0.593866
0.921477 0.269902 0.570153
1.000000 0.289220 0.562951
0.000000 0.454719 0.619593
0.112947 0.452033 0.619532
0.301091 0.437873 0.619898
0.472084 0.402106 0.621424
0.675196 0.399207 0.619257
0.814450 0.430335 0.594324
0.913603 0.418494 0.576013
1.000000 0.418311 0.572900
0.113771 0.596002 0.618341
0.190524 0.595636 0.618250
0.339757 0.594018 0.617914
0.507530 0.589990 0.617060
0.676539 0.572869 0.616327
0.798825 0.565850 0.593011
0.899779 0.541619 0.577996
0.997986 0.540368 0.583551
0.227665 0.736538 0.618708
0.276432 0.735927 0.618372
0.401129 0.732662 0.617365
0.548791 0.725673 0.616358
0.683101 0.715694 0.616052
0.819760 0.734981 0.640894
0.914580 0.741176 0.661433
0.996338 0.729000 0.656214
0.322393 0.850187 0.616205
0.355261 0.849332 0.616693
0.449805 0.845731 0.619074
0.569574 0.839841 0.624537
0.689723 0.832029 0.633967
0.766842 0.827604 0.606531
0.922545 0.856718 0.668147
0.993317 0.862303 0.717281
0.411719 0.954559 0.632380
0.435462 0.953613 0.634272
0.507591 0.950500 0.640894
0.605768 0.945708 0.652857
0.710018 0.939666 0.669245
0.747768 0.941100 0.619104
0.876463 0.940826 0.646632
0.989349 0.947875 0.700801
0.000000 0.000000 0.763516
0.000000 0.000000 0.763302
0.255039 0.000000 0.763424
0.456519 0.000000 0.763455
0.641993 0.000000 0.762997
0.822416 0.000000 0.761776
0.936980 0.000000 0.712764
1.000000 0.213840 0.681880
0.000000 0.101442 0.765042
0.000000 0.090913 0.764767
0.247440 0.002594 0.764736
0.455024 0.000000 0.764584
0.642725 0.000000 0.764218
0.824369 0.000000 0.763088
0.937713 0.000000 0.713771
1.000000 0.258946 0.685115
0.000000 0.261723 0.764920
0.000000 0.250187 0.765164
0.221988 0.240421 0.765225
0.448829 0.219974 0.764920
0.642725 0.185397 0.764431
0.825956 0.180362 0.762844
0.935851 0.261784 0.713924
1.000000 0.360204 0.691524
0.000000 0.461402 0.762020
0.069795 0.456641 0.762264
0.280552 0.436011 0.763302
0.442054 0.395850 0.764401
0.642054 0.383459 0.763577
0.825528 0.391028 0.761288
0.931334 0.438849 0.717556
1.000000 0.476905 0.702785
0.000000 0.605798 0.761990
0.153323 0.604852 0.762203
0.317082 0.600946 0.762478
0.485420 0.591089 0.762325
0.641657 0.559625 0.763210
0.821103 0.563409 0.761166
0.924681 0.597711 0.729549
1.000000 0.593988 0.718379
0.193454 0.745632 0.761318
0.246464 0.745174 0.761227
0.375494 0.743374 0.760952
0.524437 0.739101 0.760281
0.671046 0.732082 0.759670
0.809567 0.715114 0.759426
0.909697 0.711666 0.735164
0.993042 0.698390 0.729946
0.316899 0.870298 0.752193
0.352453 0.869047 0.751949
0.452796 0.864866 0.751949
0.578729 0.857847 0.753079
0.705409 0.849302 0.756374
0.814023 0.839872 0.758816
0.919890 0.857145 0.785702
0.988281 0.857053 0.798001
0.436988 0.958923 0.744442
0.459052 0.958099 0.745510
0.524895 0.954833 0.748653
0.618524 0.950378 0.755825
0.720790 0.945098 0.766903
0.817411 0.939483 0.780850
0.872068 0.936980 0.751034
0.988251 0.951751 0.809537
0.000000 0.000000 0.904448
0.000000 0.000000 0.904295
0.198367 0.000000 0.904448
0.425940 0.000000 0.904082
0.614038 0.000000 0.903593
0.789883 0.000000 0.902800
0.952087 0.000000 0.901213
1.000000 0.116762 0.824125
0.000000 0.112062 0.905089
0.000000 0.104036 0.904936
0.187564 0.065217 0.904936
0.423316 0.000000 0.904662
0.613306 0.000000 0.904082
0.789761 0.000000 0.903258
0.952087 0.000000 0.901671
1.000000 0.192142 0.825345
0.000000 0.258854 0.905669
0.000000 0.256596 0.905608
0.153964 0.248478 0.905669
0.414923 0.231418 0.904814
0.610346 0.205661 0.904234
0.788327 0.180911 0.903441
0.950286 0.212161 0.901610
1.000000 0.331823 0.828794
0.000000 0.464607 0.902861
0.029206 0.463630 0.902678
0.180453 0.419257 0.904631
0.408667 0.399542 0.904631
0.607691 0.390112 0.903777
0.784482 0.381262 0.902800
0.944823 0.407355 0.900603
1.000000 0.475166 0.835599
0.000000 0.610773 0.901884
0.044953 0.609400 0.901762
0.288884 0.602106 0.901946
0.467109 0.589075 0.901854
0.608972 0.557153 0.903044
0.780514 0.553246 0.902098
0.935332 0.570306 0.899992
1.000000 0.616083 0.847501
0.141939 0.744045 0.900969
0.208804 0.743587 0.901061
0.347570 0.741878 0.901091
0.496803 0.738308 0.900877
0.646204 0.733120 0.900206
0.777676 0.709712 0.900481
0.921660 0.715023 0.898558
0.999969 0.746273 0.863188
0.276249 0.877134 0.899351
0.314366 0.876616 0.899413
0.417090 0.874540 0.899474
0.547143 0.870512 0.899229
0.679957 0.865171 0.898924
0.800900 0.858946 0.898711
0.906554 0.845212 0.899229
0.988281 0.852720 0.882078
0.403113 0.986572 0.883238
0.428809 0.985473 0.883452
0.505852 0.981384 0.883940
0.611627 0.974212 0.884977
0.723568 0.965240 0.887480
0.827451 0.956268 0.892546
0.912444 0.948760 0.898589
0.982879 0.956939 0.922271
