其他预设/【239】阳光逆光效果预设26款/1.LUT预设（视频调色-PR-AE-PS-FCPX-达芬奇用）/阳光逆光预设__-21.cube
# Created by Adobe Lightroom plugin Export LUT (1.17.0)
# www.johnrellis.com/lightroom/exportlut.htm
# Preset: 阳光逆光预设[素锦印象]-21
# Color profile: /Library/Application Support/Adobe/Color/Profiles/Recommended/AdobeRGB1998.icc
LUT_3D_SIZE 32
0.000000 0.000000 0.000000
0.000000 0.000000 0.000000
0.000000 0.000000 0.000000
0.053468 0.000000 0.000000
0.092287 0.000000 0.000000
0.131441 0.000000 0.000000
0.173648 0.000000 0.000000
0.217502 0.000000 0.000000
0.263005 0.000000 0.000000
0.308934 0.000000 0.000000
0.355169 0.000000 0.000000
0.400122 0.000000 0.000000
0.443580 0.000000 0.000000
0.485176 0.000000 0.000000
0.524743 0.000000 0.000000
0.562493 0.000000 0.000000
0.598566 0.000000 0.000000
0.633051 0.000000 0.000000
0.666407 0.000000 0.000000
0.700069 0.000000 0.000000
0.734096 0.000000 0.000000
0.768338 0.000000 0.000000
0.803189 0.000000 0.000000
0.838407 0.000000 0.000000
0.872038 0.000000 0.000000
0.903929 0.000000 0.000000
0.933989 0.000000 0.000000
0.962158 0.000000 0.000000
0.988617 0.000000 0.000000
1.000000 0.000000 0.000000
1.000000 0.000000 0.000000
1.000000 0.000000 0.000000
0.000000 0.000000 0.000000
0.000000 0.000000 0.000000
0.000000 0.000000 0.000000
0.056519 0.000000 0.000000
0.093294 0.000000 0.000000
0.131899 0.000000 0.000000
0.174166 0.000000 0.000000
0.217929 0.000000 0.000000
0.263127 0.000000 0.000000
0.309270 0.000000 0.000000
0.355261 0.000000 0.000000
0.400244 0.000000 0.000000
0.443702 0.000000 0.000000
0.485389 0.000000 0.000000
0.524865 0.000000 0.000000
0.562585 0.000000 0.000000
0.598566 0.000000 0.000000
0.633143 0.000000 0.000000
0.666438 0.000000 0.000000
0.700069 0.000000 0.000000
0.734066 0.000000 0.000000
0.768338 0.000000 0.000000
0.803220 0.000000 0.000000
0.838437 0.000000 0.000000
0.872038 0.000000 0.000000
0.903929 0.000000 0.000000
0.933959 0.000000 0.000000
0.962127 0.000000 0.000000
0.988617 0.000000 0.000000
1.000000 0.000000 0.000000
1.000000 0.000000 0.000000
1.000000 0.000000 0.000000
0.000000 0.000000 0.000000
0.000000 0.000000 0.000000
0.000000 0.000000 0.000000
0.059205 0.000000 0.000000
0.093935 0.000000 0.000000
0.132692 0.000000 0.000000
0.174624 0.000000 0.000000
0.218235 0.000000 0.000000
0.263371 0.000000 0.000000
0.309514 0.000000 0.000000
0.355444 0.000000 0.000000
0.400458 0.000000 0.000000
0.443946 0.000000 0.000000
0.485451 0.000000 0.000000
0.524895 0.000000 0.000000
0.562646 0.000000 0.000000
0.598627 0.000000 0.000000
0.633143 0.000000 0.000000
0.666499 0.000000 0.000000
0.700069 0.000000 0.000000
0.734188 0.000000 0.000000
0.768399 0.000000 0.000000
0.803250 0.000000 0.000000
0.838437 0.000000 0.000000
0.872068 0.000000 0.000000
0.903929 0.000000 0.000000
0.933959 0.000000 0.000000
0.962127 0.000000 0.000000
0.988586 0.000000 0.000000
1.000000 0.000000 0.000000
1.000000 0.000000 0.000000
1.000000 0.000000 0.000000
0.000000 0.055055 0.000000
0.000000 0.058656 0.000000
0.000000 0.060487 0.000000
0.058991 0.056641 0.000000
0.093507 0.054475 0.000000
0.133761 0.054322 0.000000
0.175357 0.051911 0.000000
0.218997 0.047120 0.000000
0.264012 0.040436 0.000000
0.310033 0.036316 0.000000
0.355901 0.033967 0.000000
0.400916 0.035889 0.000000
0.444129 0.023133 0.000000
0.485634 0.002319 0.000000
0.525139 0.000000 0.000000
0.562768 0.000000 0.000000
0.598749 0.000000 0.000000
0.633265 0.000000 0.000000
0.666590 0.000000 0.000000
0.700099 0.000000 0.000000
0.734188 0.000000 0.000000
0.768429 0.000000 0.000000
0.803311 0.000000 0.000000
0.838499 0.000000 0.000000
0.872099 0.000000 0.000000
0.903929 0.000000 0.000000
0.933959 0.000000 0.000000
0.962097 0.000000 0.000000
0.988525 0.000000 0.000000
1.000000 0.000000 0.000000
1.000000 0.000000 0.000000
1.000000 0.000000 0.000000
0.000000 0.089570 0.000000
0.000000 0.090486 0.000000
0.000000 0.091432 0.000000
0.058900 0.091676 0.000000
0.090272 0.085481 0.000000
0.127077 0.091188 0.000000
0.176150 0.097963 0.000000
0.220340 0.100771 0.000000
0.265293 0.102785 0.000000
0.310948 0.105257 0.000000
0.356664 0.107485 0.000000
0.401495 0.107179 0.000000
0.444709 0.104646 0.000000
0.486030 0.100801 0.000000
0.525383 0.095430 0.000000
0.562890 0.089448 0.000000
0.598871 0.081056 0.000000
0.633356 0.070924 0.000000
0.666651 0.057221 0.000000
0.700282 0.029664 0.000000
0.734279 0.000000 0.000000
0.768551 0.000000 0.000000
0.803403 0.000000 0.000000
0.838590 0.000000 0.000000
0.872160 0.000000 0.000000
0.903960 0.000000 0.000000
0.933928 0.000000 0.000000
0.962066 0.000000 0.000000
0.988495 0.000000 0.000000
1.000000 0.000000 0.000000
1.000000 0.000000 0.000000
1.000000 0.000000 0.000000
0.000000 0.127504 0.000000
0.000000 0.128450 0.000000
0.000000 0.128664 0.000000
0.062928 0.129091 0.000000
0.100954 0.126558 0.000000
0.127382 0.119783 0.000000
0.162997 0.125002 0.000000
0.214603 0.136599 0.000000
0.266606 0.144442 0.000000
0.312261 0.148653 0.000000
0.357671 0.150942 0.000000
0.402258 0.151431 0.000000
0.445258 0.150668 0.000000
0.486549 0.148531 0.000000
0.525689 0.145510 0.000000
0.563256 0.141573 0.000000
0.599115 0.136812 0.000000
0.633448 0.131258 0.000000
0.666743 0.125154 0.000000
0.700435 0.118685 0.000000
0.734432 0.112825 0.000000
0.768704 0.106050 0.000000
0.803555 0.099672 0.000000
0.838712 0.093843 0.000000
0.872221 0.087037 0.000000
0.903960 0.080476 0.000000
0.933898 0.074495 0.000000
0.962005 0.067414 0.000000
0.988403 0.062745 0.000000
1.000000 0.058503 0.000000
1.000000 0.053925 0.000000
1.000000 0.054108 0.000000
0.000000 0.168185 0.000000
0.000000 0.168307 0.000000
0.000000 0.168582 0.000000
0.070008 0.168795 0.000000
0.110262 0.169467 0.000000
0.142000 0.163363 0.000000
0.167178 0.156252 0.000000
0.200565 0.159792 0.000000
0.254582 0.174533 0.000000
0.308293 0.184573 0.000000
0.358923 0.190219 0.000000
0.403326 0.191928 0.000000
0.446021 0.192050 0.000000
0.487129 0.190982 0.000000
0.526207 0.188785 0.000000
0.563622 0.185611 0.000000
0.599390 0.181857 0.000000
0.633692 0.177432 0.000000
0.666957 0.172854 0.000000
0.700587 0.168154 0.000000
0.734615 0.164309 0.000000
0.768856 0.160250 0.000000
0.803738 0.156405 0.000000
0.838834 0.152651 0.000000
0.872282 0.148898 0.000000
0.903990 0.145083 0.000000
0.933867 0.141817 0.000000
0.961944 0.138582 0.000000
0.988281 0.135470 0.000000
1.000000 0.133150 0.000000
1.000000 0.131258 0.000000
1.000000 0.130190 0.000000
0.000000 0.209506 0.000000
0.000000 0.209751 0.000000
0.018372 0.209751 0.000000
0.080323 0.210208 0.000000
0.119417 0.210697 0.000000
0.154330 0.208743 0.000000
0.184207 0.202182 0.000000
0.209476 0.195315 0.000000
0.241459 0.196780 0.000000
0.296696 0.212711 0.000000
0.350530 0.223331 0.000000
0.401892 0.229618 0.000000
0.447028 0.231540 0.000000
0.487800 0.230961 0.000000
0.526818 0.229252 0.000000
0.563989 0.226444 0.000000
0.599695 0.223026 0.000000
0.633906 0.219211 0.000000
0.667140 0.215457 0.000000
0.700862 0.211826 0.000000
0.734798 0.208408 0.000000
0.769070 0.205264 0.000000
0.803922 0.202518 0.000000
0.838987 0.199924 0.000000
0.872374 0.197055 0.000000
0.904021 0.194278 0.000000
0.933837 0.191348 0.000000
0.961852 0.188540 0.000000
0.988159 0.185946 0.000000
1.000000 0.183413 0.000000
1.000000 0.181399 0.000000
1.000000 0.179812 0.000000
0.000000 0.252781 0.000000
0.000000 0.252842 0.000000
0.028229 0.253056 0.000000
0.086397 0.253239 0.000000
0.125765 0.253819 0.000000
0.163302 0.254307 0.000000
0.197391 0.249882 0.000000
0.227237 0.243534 0.000000
0.253758 0.236606 0.000000
0.283696 0.235233 0.000000
0.338872 0.251041 0.000000
0.391669 0.261112 0.000000
0.441627 0.267216 0.000000
0.488533 0.269780 0.000000
0.527459 0.268345 0.000000
0.564477 0.265995 0.000000
0.600061 0.262821 0.000000
0.634211 0.259556 0.000000
0.667353 0.255741 0.000000
0.701076 0.252598 0.000000
0.734981 0.249943 0.000000
0.769253 0.247044 0.000000
0.804135 0.244755 0.000000
0.839139 0.242741 0.000000
0.872435 0.240421 0.000000
0.904021 0.237644 0.000000
0.933776 0.235111 0.000000
0.961730 0.232395 0.000000
0.988006 0.229770 0.000000
1.000000 0.227237 0.000000
1.000000 0.224949 0.000000
1.000000 0.222934 0.000000
0.000000 0.296757 0.000000
0.000000 0.296849 0.000000
0.036286 0.296971 0.000000
0.091279 0.297154 0.000000
0.131106 0.297581 0.000000
0.169772 0.297887 0.000000
0.207248 0.297398 0.000000
0.240391 0.291600 0.000000
0.270970 0.285313 0.000000
0.298680 0.278416 0.000000
0.327642 0.275151 0.000000
0.380194 0.288914 0.000000
0.431525 0.298405 0.000000
0.479500 0.303532 0.000000
0.524376 0.305455 0.000000
0.565026 0.304601 0.000000
0.600458 0.301732 0.000000
0.634455 0.298314 0.000000
0.667628 0.295018 0.000000
0.701289 0.291966 0.000000
0.735256 0.289403 0.000000
0.769528 0.287022 0.000000
0.804440 0.285100 0.000000
0.839384 0.283299 0.000000
0.872526 0.281071 0.000000
0.904021 0.278660 0.000000
0.933715 0.276066 0.000000
0.961608 0.273442 0.000000
0.987823 0.270603 0.000000
1.000000 0.267826 0.000000
1.000000 0.265232 0.000000
1.000000 0.262882 0.000000
0.000000 0.340337 0.000000
0.000000 0.340398 0.000000
0.035187 0.340551 0.000000
0.093050 0.340642 0.000000
0.134432 0.340887 0.000000
0.173983 0.341100 0.000000
0.212985 0.341405 0.000000
0.249638 0.338811 0.000000
0.283116 0.332891 0.000000
0.314427 0.326482 0.000000
0.342901 0.319524 0.000000
0.371801 0.315618 0.000000
0.419928 0.326268 0.000000
0.469276 0.334752 0.000000
0.515343 0.339117 0.000000
0.558495 0.340490 0.000000
0.599237 0.339605 0.000000
0.634668 0.336736 0.000000
0.667842 0.333318 0.000000
0.701656 0.330480 0.000000
0.735531 0.327916 0.000000
0.769802 0.325750 0.000000
0.804746 0.324132 0.000000
0.839536 0.322515 0.000000
0.872648 0.320500 0.000000
0.904021 0.318181 0.000000
0.933593 0.315526 0.000000
0.961425 0.312627 0.000000
0.987579 0.309789 0.000000
1.000000 0.306676 0.000000
1.000000 0.303807 0.000000
1.000000 0.301213 0.000000
0.000000 0.383001 0.000000
0.000000 0.383062 0.000000
0.030793 0.383001 0.000000
0.093019 0.383001 0.000000
0.136110 0.383124 0.000000
0.176272 0.383276 0.000000
0.216037 0.383398 0.000000
0.255192 0.383551 0.000000
0.291386 0.378729 0.000000
0.325292 0.372839 0.000000
0.356847 0.366339 0.000000
0.385687 0.359564 0.000000
0.414252 0.354864 0.000000
0.457984 0.362493 0.000000
0.505150 0.369940 0.000000
0.549310 0.373541 0.000000
0.590936 0.374487 0.000000
0.630335 0.373449 0.000000
0.668116 0.371221 0.000000
0.701900 0.368505 0.000000
0.735836 0.366033 0.000000
0.770077 0.364019 0.000000
0.805020 0.362341 0.000000
0.839750 0.360967 0.000000
0.872770 0.358984 0.000000
0.903990 0.356634 0.000000
0.933501 0.353918 0.000000
0.961212 0.350896 0.000000
0.987304 0.347814 0.000000
1.000000 0.344518 0.000000
1.000000 0.341344 0.000000
1.000000 0.338262 0.000000
0.000000 0.423804 0.000000
0.000000 0.423896 0.000000
0.022065 0.423896 0.000000
0.092073 0.423926 0.000000
0.136202 0.423957 0.000000
0.177798 0.423865 0.000000
0.217868 0.423835 0.000000
0.257298 0.423774 0.000000
0.296147 0.422431 0.000000
0.332097 0.416938 0.000000
0.365972 0.410956 0.000000
0.397498 0.404395 0.000000
0.426551 0.397711 0.000000
0.454688 0.392615 0.000000
0.493996 0.397131 0.000000
0.539117 0.403937 0.000000
0.581689 0.407050 0.000000
0.621881 0.407599 0.000000
0.660670 0.406744 0.000000
0.699550 0.405524 0.000000
0.736141 0.403601 0.000000
0.770443 0.401587 0.000000
0.805356 0.400183 0.000000
0.839994 0.398810 0.000000
0.872831 0.396887 0.000000
0.903960 0.394415 0.000000
0.933379 0.391547 0.000000
0.960998 0.388464 0.000000
0.986999 0.385016 0.000000
1.000000 0.381476 0.000000
1.000000 0.377966 0.000000
1.000000 0.374487 0.000000
0.000000 0.462867 0.000000
0.000000 0.462776 0.000000
0.019593 0.462776 0.000000
0.091798 0.462776 0.000000
0.136721 0.462654 0.000000
0.178470 0.462562 0.000000
0.219120 0.462379 0.000000
0.258579 0.462196 0.000000
0.297887 0.461830 0.000000
0.335729 0.458747 0.000000
0.371313 0.453071 0.000000
0.404944 0.447059 0.000000
0.436286 0.440711 0.000000
0.465217 0.434058 0.000000
0.492500 0.428290 0.017945
0.528130 0.430579 0.050019
0.571557 0.436683 0.000000
0.612573 0.439460 0.000000
0.652186 0.440314 0.000000
0.691798 0.440528 0.000000
0.730953 0.439948 0.000000
0.769863 0.438880 0.000000
0.805783 0.437629 0.000000
0.840238 0.436316 0.000000
0.872923 0.434302 0.000000
0.903929 0.431800 0.000000
0.933196 0.428748 0.000000
0.960693 0.425391 0.000000
0.986664 0.421759 0.000000
1.000000 0.417945 0.000000
1.000000 0.414099 0.000000
1.000000 0.410285 0.000000
0.000000 0.499855 0.000000
0.000000 0.499825 0.000000
0.021729 0.499763 0.000000
0.093385 0.499733 0.000000
0.137911 0.499611 0.000000
0.179355 0.499489 0.000000
0.219760 0.499153 0.000000
0.259098 0.498878 0.000000
0.298192 0.498512 0.000000
0.337133 0.498024 0.000000
0.373938 0.493141 0.000000
0.409064 0.487495 0.000000
0.442206 0.481422 0.000000
0.473213 0.475196 0.000000
0.501915 0.468666 0.000000
0.528496 0.462562 0.050843
0.560632 0.462715 0.082490
0.602472 0.468360 0.018738
0.642939 0.471534 0.000000
0.683314 0.473610 0.000000
0.723293 0.474617 0.000000
0.762875 0.474861 0.000000
0.802548 0.474739 0.000000
0.840421 0.473487 0.000000
0.872953 0.471321 0.000000
0.903868 0.468727 0.000000
0.932982 0.465492 0.000000
0.960418 0.461952 0.000000
0.986267 0.458045 0.000000
1.000000 0.454017 0.000000
1.000000 0.449775 0.000000
1.000000 0.445563 0.000000
0.000000 0.535241 0.000000
0.000000 0.535210 0.000000
0.030732 0.535149 0.000000
0.094942 0.535058 0.000000
0.139193 0.534844 0.000000
0.180331 0.534661 0.000000
0.219944 0.534356 0.000000
0.259068 0.534051 0.000000
0.298039 0.533562 0.000000
0.336522 0.533074 0.000000
0.374701 0.531151 0.000000
0.410956 0.525963 0.000000
0.445319 0.520256 0.000000
0.478004 0.514275 0.000000
0.508446 0.508019 0.000000
0.536828 0.501610 0.000000
0.562707 0.495277 0.072419
0.591669 0.493721 0.106600
0.632990 0.499794 0.075624
0.674098 0.504234 0.000000
0.714839 0.507286 0.000000
0.755184 0.509148 0.000000
0.795499 0.510491 0.000000
0.834775 0.510521 0.000000
0.871305 0.508568 0.000000
0.903777 0.505486 0.000000
0.932769 0.502068 0.000000
0.960052 0.498268 0.000000
0.985809 0.494057 0.000000
1.000000 0.489631 0.000000
1.000000 0.485115 0.000000
1.000000 0.480568 0.000000
0.000000 0.569085 0.000000
0.000000 0.569085 0.000000
0.049561 0.568994 0.000000
0.098909 0.568933 0.000000
0.141115 0.568750 0.000000
0.181521 0.568475 0.000000
0.220523 0.568139 0.000000
0.259220 0.567773 0.000000
0.297581 0.567315 0.000000
0.335821 0.566735 0.000000
0.373938 0.566155 0.000000
0.411078 0.562646 0.000000
0.446509 0.557366 0.000000
0.480262 0.551659 0.000000
0.512322 0.545739 0.000000
0.542260 0.539574 0.000000
0.570092 0.533318 0.012543
0.595666 0.527123 0.089967
0.622431 0.524559 0.128847
0.664240 0.531945 0.103426
0.705898 0.537530 0.067994
0.746853 0.541436 0.000000
0.787808 0.544518 0.000000
0.827939 0.546258 0.000000
0.865263 0.545556 0.000000
0.899992 0.542931 0.000000
0.932158 0.538445 0.000000
0.959686 0.534234 0.000000
0.985290 0.529747 0.000000
1.000000 0.525048 0.000000
1.000000 0.520195 0.000000
1.000000 0.515251 0.000000
0.000000 0.601770 0.000000
0.009186 0.601678 0.000000
0.063783 0.601648 0.000000
0.104463 0.601526 0.000000
0.144381 0.601373 0.000000
0.182925 0.601129 0.000000
0.221530 0.600855 0.000000
0.259373 0.600458 0.000000
0.297429 0.600000 0.000000
0.335180 0.599512 0.000000
0.372717 0.599023 0.000000
0.410254 0.598291 0.000000
0.446632 0.593378 0.000000
0.481575 0.588220 0.000000
0.514763 0.582757 0.000000
0.546166 0.577020 0.000000
0.575921 0.571221 0.000000
0.603479 0.565270 0.062135
0.628840 0.559380 0.107088
0.654353 0.556329 0.148043
0.696284 0.564721 0.127535
0.737972 0.571160 0.100282
0.779660 0.576410 0.058717
0.820554 0.580133 0.000000
0.858640 0.581109 0.000000
0.894102 0.579889 0.000000
0.926848 0.576501 0.000000
0.957214 0.571374 0.000000
0.984741 0.565301 0.000000
1.000000 0.560235 0.000000
1.000000 0.554986 0.000000
1.000000 0.549737 0.000000
0.000000 0.634607 0.000000
0.038514 0.634577 0.000000
0.075013 0.634546 0.000000
0.110292 0.634455 0.000000
0.147799 0.634333 0.000000
0.185458 0.634150 0.000000
0.223056 0.633967 0.000000
0.260472 0.633600 0.000000
0.297948 0.633356 0.000000
0.335180 0.632990 0.000000
0.372534 0.632502 0.000000
0.409674 0.632044 0.000000
0.446815 0.630091 0.000000
0.482643 0.625269 0.000000
0.516991 0.620233 0.000000
0.549828 0.614923 0.000000
0.581018 0.609430 0.000000
0.610346 0.603906 0.000000
0.637751 0.598322 0.084535
0.663111 0.592798 0.122683
0.688746 0.590143 0.161349
0.728634 0.597955 0.149722
0.770932 0.605737 0.126558
0.812680 0.611810 0.097139
0.851560 0.614832 0.047791
0.887694 0.615229 0.000000
0.921111 0.613275 0.000000
0.952026 0.609308 0.000000
0.980682 0.603571 0.000000
1.000000 0.596185 0.000000
1.000000 0.589654 0.000000
1.000000 0.584009 0.000000
0.027222 0.668360 0.000000
0.064668 0.668330 0.000000
0.084932 0.668330 0.000000
0.116793 0.668238 0.000000
0.152255 0.668177 0.000000
0.188571 0.668055 0.000000
0.225467 0.667750 0.000000
0.262242 0.667536 0.000000
0.299077 0.667262 0.000000
0.336004 0.666926 0.000000
0.372930 0.666560 0.000000
0.409796 0.666194 0.000000
0.446754 0.665705 0.000000
0.483375 0.662470 0.000000
0.518791 0.657801 0.000000
0.552758 0.652857 0.000000
0.585229 0.647791 0.000000
0.616144 0.642603 0.000000
0.645289 0.637324 0.040253
0.672602 0.632105 0.103395
0.697902 0.626917 0.138003
0.723354 0.624414 0.174807
0.761868 0.632105 0.170718
0.804318 0.640833 0.150484
0.844053 0.646204 0.128206
0.880919 0.648615 0.101411
0.914977 0.648280 0.062196
0.946441 0.645777 0.000000
0.975586 0.641321 0.000000
1.000000 0.635126 0.000000
1.000000 0.627314 0.000000
1.000000 0.618097 0.000000
0.060090 0.702510 0.000000
0.077363 0.702480 0.000000
0.095125 0.702480 0.000000
0.123751 0.702449 0.000000
0.157626 0.702327 0.000000
0.192599 0.702174 0.000000
0.228275 0.701991 0.000000
0.264256 0.701839 0.000000
0.300725 0.701595 0.000000
0.337194 0.701350 0.000000
0.373785 0.701106 0.000000
0.410498 0.700771 0.000000
0.447150 0.700465 0.000000
0.483894 0.699855 0.000000
0.520134 0.695552 0.000000
0.555230 0.691066 0.000000
0.588891 0.686336 0.000000
0.621149 0.681483 0.000000
0.651759 0.676570 0.000000
0.680659 0.671565 0.076905
0.707881 0.666682 0.120760
0.733211 0.661830 0.153231
0.758633 0.659541 0.188174
0.795682 0.667018 0.191135
0.836271 0.675074 0.174166
0.873838 0.679683 0.156710
0.908507 0.681300 0.137606
0.940490 0.680446 0.115480
0.970092 0.677424 0.086519
0.997528 0.672602 0.011078
1.000000 0.666163 0.000000
1.000000 0.658656 0.000000
0.076356 0.737484 0.000000
0.090089 0.737514 0.000000
0.105165 0.737453 0.000000
0.130983 0.737423 0.000000
0.163058 0.737362 0.000000
0.196872 0.737301 0.000000
0.231724 0.737179 0.000000
0.267063 0.737026 0.000000
0.302861 0.736873 0.000000
0.339208 0.736690 0.000000
0.375341 0.736538 0.000000
0.411902 0.736324 0.000000
0.448371 0.736110 0.000000
0.484871 0.735836 0.000000
0.521416 0.734066 0.000000
0.557549 0.729885 0.000000
0.592279 0.725490 0.000000
0.625696 0.721004 0.000000
0.657710 0.716457 0.000000
0.688167 0.711727 0.001801
0.717037 0.707118 0.098451
0.744167 0.702510 0.137087
0.769558 0.698116 0.167941
0.794491 0.695491 0.201633
0.828183 0.701045 0.212131
0.866453 0.708248 0.198215
0.901823 0.712032 0.184329
0.934356 0.713039 0.170321
0.964385 0.711635 0.155245
0.992187 0.708339 0.137789
1.000000 0.703700 0.116884
1.000000 0.698329 0.087892
0.090486 0.773220 0.000000
0.101381 0.773220 0.000000
0.114443 0.773220 0.000000
0.138918 0.773159 0.000000
0.168917 0.773098 0.000000
0.201602 0.773007 0.000000
0.235538 0.772915 0.000000
0.270115 0.772763 0.000000
0.305699 0.772610 0.000000
0.341344 0.772396 0.000000
0.377386 0.772183 0.000000
0.413428 0.771908 0.000000
0.449622 0.771603 0.000000
0.485847 0.771237 0.000000
0.522057 0.770871 0.000000
0.558648 0.767910 0.000000
0.594354 0.763790 0.000000
0.628809 0.759640 0.000000
0.662013 0.755306 0.000000
0.693751 0.751003 0.000000
0.723995 0.746639 0.067323
0.752712 0.742245 0.118959
0.779721 0.738033 0.154116
0.805051 0.733913 0.183413
0.828580 0.730282 0.215976
0.858915 0.733974 0.233585
0.894926 0.740200 0.222629
0.928038 0.743221 0.212100
0.958495 0.743740 0.201846
0.986633 0.742214 0.191501
1.000000 0.739467 0.180880
1.000000 0.736324 0.170260
0.104158 0.807675 0.000000
0.113344 0.807645 0.000000
0.125185 0.807614 0.000000
0.147219 0.807553 0.000000
0.175570 0.807462 0.000000
0.206668 0.807340 0.000000
0.239567 0.807218 0.000000
0.273564 0.807004 0.000000
0.308537 0.806760 0.000000
0.343542 0.806485 0.000000
0.379004 0.806241 0.000000
0.414710 0.805844 0.000000
0.450416 0.805509 0.000000
0.486213 0.805051 0.000000
0.522057 0.804562 0.000000
0.557916 0.803738 0.000000
0.594476 0.800015 0.000000
0.629816 0.796078 0.000000
0.663905 0.792111 0.000000
0.696712 0.788022 0.000000
0.728054 0.783902 0.000000
0.758022 0.779812 0.098146
0.786404 0.775784 0.140169
0.813230 0.771817 0.172549
0.838407 0.768063 0.200381
0.860655 0.763607 0.231754
0.887907 0.765652 0.256168
0.921569 0.770993 0.247868
0.952453 0.773495 0.240513
0.980896 0.773953 0.233768
1.000000 0.773190 0.228031
1.000000 0.772091 0.223636
0.117922 0.840391 0.000000
0.125948 0.840360 0.000000
0.136507 0.840360 0.000000
0.156497 0.840269 0.000000
0.182803 0.840146 0.000000
0.212558 0.840024 0.000000
0.244450 0.839811 0.000000
0.277226 0.839597 0.000000
0.311254 0.839322 0.000000
0.345800 0.838987 0.000000
0.380468 0.838651 0.000000
0.415747 0.838224 0.000000
0.450965 0.837766 0.000000
0.486275 0.837247 0.000000
0.521599 0.836698 0.000000
0.556909 0.836057 0.000000
0.592889 0.834165 0.000000
0.628962 0.830564 0.000000
0.663813 0.826810 0.000000
0.697444 0.822995 0.000000
0.729763 0.819089 0.000000
0.760769 0.815213 0.072999
0.790311 0.811398 0.125765
0.818326 0.807645 0.162142
0.844846 0.804044 0.192325
0.869718 0.800595 0.218967
0.890806 0.795499 0.249027
0.915007 0.796109 0.280308
0.946349 0.800778 0.274754
0.975067 0.803220 0.270603
1.000000 0.804349 0.267887
1.000000 0.805295 0.267338
0.132235 0.871397 0.000000
0.139681 0.871366 0.000000
0.148745 0.871336 0.000000
0.166720 0.871244 0.000000
0.190982 0.871122 0.000000
0.219089 0.870970 0.000000
0.249424 0.870726 0.000000
0.281376 0.870481 0.000000
0.314275 0.870146 0.000000
0.347875 0.869780 0.000000
0.382025 0.869322 0.000000
0.416480 0.868864 0.000000
0.451118 0.868315 0.000000
0.485939 0.867735 0.000000
0.520684 0.867094 0.000000
0.555474 0.866423 0.000000
0.590234 0.865660 0.000000
0.626429 0.862821 0.000000
0.661952 0.859312 0.000000
0.696315 0.855711 0.000000
0.729427 0.852110 0.000000
0.761288 0.848386 0.012512
0.791714 0.844785 0.110964
0.820737 0.841215 0.152560
0.848264 0.837766 0.185397
0.874327 0.834409 0.213870
0.898894 0.831266 0.239597
0.919280 0.826261 0.268559
0.940337 0.825406 0.305913
0.969268 0.829831 0.304112
0.995941 0.832853 0.303593
1.000000 0.835691 0.306004
0.146975 0.900603 0.000000
0.153201 0.900572 0.000000
0.161532 0.900511 0.000000
0.177432 0.900450 0.000000
0.199924 0.900267 0.000000
0.226200 0.900114 0.000000
0.255070 0.899870 0.000000
0.285771 0.899565 0.000000
0.317723 0.899199 0.000000
0.350439 0.898802 0.000000
0.383612 0.898314 0.000000
0.417273 0.897795 0.000000
0.451179 0.897215 0.000000
0.485328 0.896574 0.000000
0.519493 0.895872 0.000000
0.553674 0.895109 0.000000
0.587945 0.894316 0.000000
0.622400 0.893156 0.000000
0.658534 0.889860 0.000000
0.693568 0.886442 0.000000
0.727321 0.882994 0.000000
0.759915 0.879515 0.000000
0.791165 0.876036 0.095247
0.821012 0.872648 0.143740
0.849485 0.869322 0.179660
0.876555 0.866087 0.210147
0.902098 0.863005 0.237278
0.926055 0.860136 0.262638
0.945830 0.855558 0.290379
0.964904 0.854154 0.329137
0.990448 0.858396 0.337072
1.000000 0.863005 0.341894
0.161624 0.928130 0.000000
0.167208 0.928099 0.000000
0.174441 0.928038 0.000000
0.188907 0.927977 0.000000
0.209567 0.927825 0.000000
0.234287 0.927581 0.000000
0.261479 0.927337 0.000000
0.290654 0.927031 0.000000
0.321324 0.926635 0.000000
0.353033 0.926207 0.000000
0.385382 0.925719 0.000000
0.418158 0.925139 0.000000
0.451301 0.924529 0.000000
0.484749 0.923827 0.000000
0.518242 0.923095 0.000000
0.551812 0.922271 0.000000
