其他预设/【239】阳光逆光效果预设26款/1.LUT预设（视频调色-PR-AE-PS-FCPX-达芬奇用）/阳光逆光预设__-26.cube
# Created by Adobe Lightroom plugin Export LUT (1.17.0)
# www.johnrellis.com/lightroom/exportlut.htm
# Preset: 阳光逆光预设[素锦印象]-26
# Color profile: /Library/Application Support/Adobe/Color/Profiles/Recommended/AdobeRGB1998.icc
LUT_3D_SIZE 32
0.000000 0.082338 0.075593
0.000000 0.081880 0.075563
0.000000 0.081605 0.075807
0.008942 0.082918 0.076112
0.050568 0.086122 0.076478
0.074556 0.089906 0.076661
0.098970 0.093477 0.076570
0.129488 0.096162 0.076356
0.168307 0.096956 0.075685
0.216922 0.094209 0.074067
0.274693 0.086091 0.071290
0.334569 0.073915 0.066560
0.391302 0.064393 0.059998
0.445136 0.064820 0.048005
0.496498 0.078614 0.027222
0.546227 0.100038 0.005585
0.595300 0.125643 0.000000
0.643641 0.154330 0.000000
0.692714 0.186770 0.000000
0.739162 0.221500 0.000000
0.782589 0.257877 0.000000
0.822477 0.295018 0.000000
0.858122 0.332799 0.000000
0.889220 0.370062 0.000000
0.916442 0.405768 0.065614
0.940520 0.440345 0.101228
0.961975 0.474128 0.133944
0.981170 0.507256 0.167208
0.998352 0.539849 0.202182
1.000000 0.572290 0.239445
1.000000 0.604852 0.279484
1.000000 0.637629 0.323522
0.000000 0.082490 0.075868
0.000000 0.082765 0.075776
0.000000 0.083497 0.075959
0.009094 0.084901 0.076265
0.050690 0.087984 0.076631
0.074617 0.091676 0.076814
0.098695 0.095186 0.076722
0.128847 0.097932 0.076509
0.167300 0.099123 0.075868
0.215824 0.096925 0.074220
0.273045 0.089631 0.071504
0.332830 0.078889 0.066804
0.389532 0.070954 0.060700
0.443305 0.072541 0.048402
0.494606 0.085359 0.028992
0.544335 0.105867 0.007202
0.593103 0.130465 0.000000
0.641627 0.157961 0.000000
0.690211 0.189700 0.000000
0.736477 0.223575 0.000000
0.779843 0.258976 0.000000
0.819944 0.295659 0.000000
0.855894 0.333074 0.000000
0.887297 0.370001 0.000000
0.914794 0.405615 0.064759
0.939117 0.440345 0.100099
0.960845 0.473976 0.132601
0.980194 0.507073 0.166415
0.997559 0.539727 0.201205
1.000000 0.572198 0.238468
1.000000 0.604639 0.278386
1.000000 0.637415 0.322301
0.000000 0.085328 0.076265
0.000000 0.085725 0.076173
0.000000 0.086336 0.075685
0.015351 0.087739 0.076295
0.050385 0.090394 0.077058
0.074495 0.093996 0.077241
0.098268 0.097475 0.077180
0.128298 0.100465 0.076936
0.166415 0.101747 0.076265
0.214664 0.100099 0.074678
0.271519 0.094057 0.071565
0.331151 0.085389 0.067201
0.387945 0.079500 0.061067
0.441749 0.081849 0.048981
0.492836 0.094179 0.029725
0.542657 0.113222 0.007904
0.591424 0.136934 0.000000
0.640009 0.163821 0.000000
0.688411 0.194461 0.000000
0.734493 0.227268 0.000000
0.778042 0.262089 0.000000
0.818235 0.298314 0.000000
0.854368 0.335210 0.000000
0.885985 0.371679 0.000000
0.913664 0.407233 0.065461
0.938170 0.441505 0.100160
0.959991 0.475044 0.133120
0.979492 0.508080 0.166659
0.996979 0.540612 0.201297
1.000000 0.572992 0.238437
1.000000 0.605280 0.278538
1.000000 0.638025 0.322240
0.000000 0.091432 0.077272
0.000000 0.091920 0.076875
0.000000 0.092927 0.076692
0.019135 0.094942 0.075868
0.061097 0.097963 0.075807
0.077150 0.099428 0.076936
0.098116 0.101961 0.077668
0.127687 0.105409 0.077363
0.165377 0.107546 0.076661
0.213138 0.107027 0.075013
0.269444 0.103212 0.072175
0.328923 0.097108 0.067384
0.385443 0.094392 0.061555
0.438972 0.098573 0.051240
0.490211 0.110140 0.032319
0.539788 0.128023 0.010163
0.588556 0.150088 0.000000
0.637385 0.175723 0.000000
0.685176 0.204532 0.000000
0.731044 0.235904 0.000000
0.774533 0.269322 0.000000
0.814908 0.304173 0.000000
0.851560 0.340276 0.000000
0.883696 0.376379 0.004211
0.911955 0.411505 0.068116
0.936919 0.445594 0.102693
0.959045 0.478950 0.135164
0.978759 0.511742 0.168551
0.996338 0.543969 0.203311
1.000000 0.575952 0.240146
1.000000 0.607935 0.279973
1.000000 0.640223 0.323430
0.000000 0.100832 0.078859
0.000000 0.101350 0.077821
0.000000 0.101747 0.077699
0.015106 0.103822 0.076905
0.061311 0.108614 0.075563
0.088838 0.113252 0.074556
0.107515 0.112886 0.076020
0.129671 0.113741 0.077577
0.163699 0.116030 0.077333
0.210544 0.117311 0.075624
0.266117 0.115908 0.072663
0.324926 0.113497 0.068513
0.381415 0.113863 0.062989
0.434913 0.119448 0.053529
0.486091 0.131197 0.035676
0.535790 0.147890 0.014954
0.584649 0.168673 0.000000
0.633936 0.193118 0.000000
0.681636 0.220005 0.000000
0.727596 0.249821 0.000000
0.771115 0.281498 0.000000
0.811734 0.314885 0.000000
0.848661 0.349676 0.000000
0.881254 0.384619 0.017029
0.909880 0.418738 0.073579
0.935119 0.452186 0.106508
0.957519 0.484871 0.138399
0.977447 0.516991 0.171206
0.995178 0.548730 0.205753
1.000000 0.580255 0.242496
1.000000 0.611780 0.282017
1.000000 0.643732 0.325475
0.000000 0.112581 0.080690
0.000000 0.113283 0.079622
0.000000 0.113802 0.078218
0.009857 0.114870 0.078218
0.053254 0.120241 0.076478
0.086000 0.127901 0.073884
0.126497 0.136355 0.071534
0.149569 0.133150 0.073274
0.177127 0.131594 0.074830
0.210422 0.130587 0.076051
0.262913 0.131502 0.073854
0.321172 0.132143 0.069917
0.377295 0.135073 0.064240
0.430701 0.142550 0.056672
0.481697 0.154421 0.040162
0.531334 0.170871 0.020417
0.580438 0.190799 0.000000
0.629938 0.214298 0.000000
0.677577 0.239536 0.000000
0.723690 0.267674 0.000000
0.767636 0.297734 0.000000
0.808713 0.329808 0.000000
0.856779 0.375067 0.003021
0.888151 0.408331 0.062196
0.915618 0.440467 0.093843
0.939818 0.471870 0.123598
0.961273 0.502678 0.154147
0.980377 0.533104 0.186191
0.997406 0.563409 0.219883
1.000000 0.593561 0.255985
1.000000 0.623987 0.295232
1.000000 0.654719 0.338109
0.000000 0.128878 0.082856
0.000000 0.129427 0.081544
0.000000 0.130220 0.079530
0.005371 0.131594 0.078828
0.041932 0.135317 0.077974
0.078370 0.144900 0.075074
0.119173 0.156069 0.070649
0.178103 0.169863 0.063752
0.208682 0.162783 0.066651
0.243229 0.158053 0.068544
0.281132 0.155032 0.070039
0.320195 0.153201 0.071229
0.375830 0.158877 0.066285
0.428901 0.168093 0.059144
0.479469 0.180789 0.045686
0.528649 0.197024 0.026764
0.578668 0.217136 0.006165
0.628168 0.239719 0.000000
0.676081 0.264256 0.000000
0.722896 0.291203 0.000000
0.767758 0.320592 0.000000
0.810025 0.352117 0.000000
0.848325 0.385138 0.018250
0.881956 0.418067 0.068360
0.911070 0.450294 0.098695
0.936339 0.481147 0.128237
0.958434 0.511467 0.158541
0.977966 0.541192 0.190249
0.995392 0.570764 0.223606
1.000000 0.600305 0.259495
1.000000 0.629969 0.298253
1.000000 0.660182 0.341192
0.000000 0.149599 0.085481
0.000000 0.150210 0.083864
0.000000 0.151217 0.081849
0.000000 0.152743 0.079286
0.028260 0.155001 0.078950
0.069001 0.163546 0.076478
0.107332 0.177157 0.071168
0.160555 0.191104 0.063783
0.240635 0.209689 0.040497
0.278813 0.200656 0.046235
0.314488 0.193576 0.051453
0.350256 0.189731 0.056794
0.385107 0.188937 0.060548
0.422278 0.192294 0.062837
0.472847 0.205844 0.053346
0.522301 0.222690 0.036530
0.572229 0.242527 0.018585
0.621149 0.264103 0.000305
0.668757 0.287022 0.000000
0.715785 0.312688 0.000000
0.761044 0.340490 0.000000
0.803738 0.370001 0.004608
0.842741 0.401160 0.046387
0.877043 0.432502 0.078798
0.906798 0.463050 0.106050
0.932616 0.492897 0.134615
0.955261 0.522057 0.164004
0.975250 0.550835 0.194980
0.993011 0.579675 0.228153
1.000000 0.608423 0.263706
1.000000 0.637476 0.302678
1.000000 0.667079 0.345373
0.000000 0.176669 0.088594
0.000000 0.177218 0.087037
0.000000 0.178164 0.084535
0.000000 0.180026 0.079469
0.010468 0.182376 0.079011
0.059541 0.186221 0.078340
0.096132 0.200504 0.072724
0.145785 0.217441 0.063691
0.215000 0.233463 0.042298
0.311315 0.259525 0.000000
0.351263 0.250584 0.000000
0.383368 0.241886 0.000000
0.415229 0.237797 0.011261
0.446754 0.236912 0.025635
0.477913 0.239353 0.042603
0.515892 0.249180 0.049683
0.565118 0.268742 0.033753
0.613642 0.289433 0.019013
0.661128 0.311498 0.009491
0.708431 0.335760 0.005829
0.754055 0.362036 0.011414
0.797330 0.389899 0.035065
0.836973 0.419348 0.065797
0.871977 0.448981 0.089174
0.902342 0.478096 0.115175
0.928801 0.506493 0.142275
0.951934 0.534569 0.170993
0.972381 0.562371 0.201450
0.990478 0.590173 0.234104
1.000000 0.618097 0.269352
1.000000 0.646326 0.308080
1.000000 0.675196 0.350622
0.000000 0.209293 0.092805
0.000000 0.209964 0.090730
0.000000 0.210758 0.088045
0.000000 0.212467 0.081971
0.000000 0.215000 0.078584
0.039612 0.218021 0.078279
0.085451 0.227085 0.074769
0.132570 0.244785 0.065370
0.197604 0.264683 0.039155
0.278294 0.282811 0.000000
0.378271 0.319554 0.000000
0.417487 0.311742 0.000000
0.446906 0.301335 0.000000
0.476539 0.296147 0.000000
0.506859 0.295415 0.000000
0.536828 0.297642 0.000000
0.566644 0.302098 0.027527
0.605921 0.315496 0.042023
0.653498 0.336889 0.035340
0.700923 0.360082 0.034913
0.746853 0.384955 0.045228
0.790249 0.411170 0.062531
0.830320 0.438392 0.079194
0.865873 0.466133 0.100374
0.896941 0.493599 0.124086
0.924071 0.520714 0.150057
0.947875 0.547692 0.177737
0.968933 0.574640 0.207858
0.987610 0.601678 0.240635
1.000000 0.628962 0.275822
1.000000 0.656550 0.314672
1.000000 0.684779 0.357519
0.000000 0.246464 0.098238
0.000000 0.247013 0.096101
0.000000 0.247929 0.092988
0.000000 0.249699 0.086061
0.000000 0.252232 0.078065
0.001984 0.255283 0.077211
0.073671 0.258671 0.076539
0.120516 0.274937 0.067659
0.181674 0.295720 0.043244
0.259678 0.318334 0.000000
0.341497 0.339818 0.000000
0.440986 0.387701 0.000000
0.481025 0.381842 0.000000
0.509545 0.370001 0.000000
0.537713 0.362860 0.000000
0.565850 0.359625 0.000000
0.593927 0.359075 0.000000
0.621851 0.361334 0.000000
0.649866 0.365972 0.044617
0.691585 0.383703 0.060975
0.738064 0.407507 0.066285
0.782223 0.432349 0.077241
0.823178 0.458289 0.092439
0.859709 0.484596 0.111788
0.891600 0.510765 0.134279
0.919463 0.536645 0.159091
0.943816 0.562402 0.186374
0.965393 0.588281 0.215885
0.984497 0.614313 0.247929
1.000000 0.640620 0.282872
1.000000 0.667414 0.321538
1.000000 0.694881 0.364538
0.000000 0.288365 0.105898
0.000000 0.288975 0.103426
0.000000 0.289860 0.099580
0.000000 0.291356 0.091890
0.000000 0.293950 0.079530
0.000000 0.296788 0.076234
0.057740 0.300237 0.075257
0.108492 0.307805 0.071351
0.168399 0.329015 0.050629
0.241733 0.352453 0.000000
0.322698 0.378119 0.000000
0.401190 0.404028 0.000000
0.508141 0.466041 0.000000
0.554223 0.465248 0.000000
0.581231 0.450294 0.000000
0.607813 0.439734 0.000000
0.633997 0.433143 0.000000
0.659754 0.429786 0.000000
0.685389 0.429480 0.000000
0.712093 0.432868 0.029328
0.739559 0.439582 0.081758
0.780911 0.460700 0.095583
0.821561 0.484565 0.110262
0.857969 0.509026 0.128267
0.889799 0.533440 0.149660
0.917632 0.557824 0.174014
0.942077 0.582086 0.200290
0.963653 0.606500 0.228977
0.982788 0.631189 0.260563
0.999756 0.656214 0.295323
1.000000 0.681849 0.333715
1.000000 0.708156 0.376501
0.000000 0.336614 0.116396
0.000000 0.337285 0.113497
0.000000 0.337804 0.109468
0.000000 0.339117 0.100771
0.000000 0.341344 0.086122
0.000000 0.343908 0.075166
0.003937 0.346715 0.074006
0.097475 0.350011 0.072786
0.156405 0.365209 0.060090
0.227970 0.389685 0.000885
0.306798 0.417182 0.000000
0.385809 0.447425 0.000000
0.462501 0.475532 0.000000
0.561273 0.526177 0.000000
0.612634 0.529534 0.000000
0.639948 0.514794 0.000000
0.664332 0.502190 0.000000
0.687953 0.493172 0.000000
0.711299 0.487800 0.000000
0.735714 0.486366 0.000000
0.760830 0.488808 0.025116
0.786374 0.494514 0.088899
0.812070 0.503288 0.121248
0.849729 0.526818 0.138705
0.882658 0.550256 0.158999
0.911467 0.573602 0.182406
0.936797 0.597070 0.208377
0.959136 0.620630 0.236881
0.978912 0.644465 0.268070
0.996368 0.668849 0.302861
1.000000 0.693690 0.341344
1.000000 0.719387 0.384405
0.000000 0.384833 0.128603
0.000000 0.385290 0.125368
0.000000 0.385809 0.121401
0.000000 0.386969 0.112490
0.000000 0.388830 0.096742
0.000000 0.391363 0.075563
0.000000 0.393957 0.074556
0.084504 0.397528 0.072663
0.144656 0.401801 0.070436
0.215091 0.425818 0.026917
0.290166 0.452216 0.000000
0.365270 0.480934 0.000000
0.441169 0.511131 0.000000
0.516442 0.536980 0.000000
0.613733 0.580682 0.000000
0.669245 0.587427 0.000000
0.695491 0.572625 0.000000
0.716701 0.558221 0.000000
0.737728 0.547814 0.000000
0.759792 0.542016 0.000000
0.782620 0.540185 0.000000
0.805844 0.541985 0.049348
0.828946 0.547051 0.103914
0.851530 0.554955 0.139010
0.875303 0.567346 0.168887
0.905180 0.589960 0.191836
0.931426 0.612604 0.217227
0.954528 0.635462 0.245457
0.974945 0.658625 0.276677
0.992950 0.682216 0.311437
1.000000 0.706447 0.350256
1.000000 0.731411 0.393530
0.000000 0.434638 0.142947
0.000000 0.435157 0.140200
0.000000 0.435706 0.136049
0.000000 0.436927 0.126619
0.000000 0.438911 0.111177
0.000000 0.441474 0.086946
0.000000 0.444099 0.076967
0.063905 0.446845 0.075593
0.139254 0.449958 0.073610
0.203189 0.461494 0.061524
0.275364 0.486336 0.000000
0.347173 0.513329 0.000000
0.419409 0.541161 0.000000
0.494148 0.569146 0.000000
0.569512 0.591730 0.000000
0.663844 0.629145 0.000000
0.721096 0.638392 0.000000
0.745754 0.624048 0.000000
0.764492 0.609216 0.000000
0.784176 0.599054 0.000000
0.804532 0.593133 0.000000
0.825254 0.591150 0.000000
0.845762 0.592401 0.077424
0.865904 0.596551 0.124971
0.885527 0.603449 0.161868
0.904601 0.613031 0.195499
0.925841 0.628412 0.226505
0.949920 0.650874 0.254795
0.971130 0.673610 0.286473
0.989746 0.696803 0.321691
1.000000 0.720516 0.361120
1.000000 0.744961 0.405310
0.000000 0.486091 0.160311
0.000000 0.486580 0.157351
0.000000 0.486946 0.153506
0.000000 0.488075 0.144167
0.000000 0.489631 0.129122
0.000000 0.491890 0.105745
0.000000 0.494423 0.083772
0.008423 0.496773 0.082277
0.133822 0.499153 0.080262
0.195590 0.501610 0.078035
0.262913 0.520653 0.050385
0.331853 0.545129 0.000000
0.400336 0.570275 0.000000
0.470954 0.595636 0.000000
0.545434 0.620356 0.000000
0.620172 0.639582 0.000000
0.708736 0.671046 0.000000
0.766781 0.683223 0.000000
0.790707 0.670466 0.000000
0.808286 0.656764 0.000000
0.826352 0.647364 0.000000
0.844602 0.641657 0.000000
0.862730 0.639307 0.007843
0.880674 0.640009 0.108370
0.898283 0.643610 0.152499
0.915526 0.649928 0.190127
0.932311 0.658900 0.225650
0.948577 0.670741 0.261875
0.967193 0.688960 0.296788
0.986328 0.711391 0.332097
1.000000 0.734310 0.371740
1.000000 0.757931 0.416175
0.000000 0.534173 0.179263
0.000000 0.534478 0.176486
0.000000 0.534783 0.172610
0.000000 0.535607 0.163821
0.000000 0.537011 0.149355
0.000000 0.538811 0.128115
0.000000 0.541253 0.096162
0.000000 0.542840 0.092836
0.127352 0.544549 0.091432
0.193240 0.546349 0.089754
0.251011 0.551812 0.084199
0.317327 0.574334 0.049866
0.383246 0.597467 0.000000
0.450507 0.620966 0.000000
0.521080 0.643885 0.000000
0.595331 0.665339 0.000000
0.667475 0.681605 0.000000
0.749355 0.708461 0.000000
0.807675 0.724147 0.000000
0.830655 0.713497 0.000000
0.846281 0.700496 0.000000
0.862181 0.691310 0.000000
0.878172 0.685542 0.000000
0.894133 0.683009 0.085115
0.909972 0.683314 0.141024
0.925505 0.686549 0.183047
0.940826 0.692561 0.221439
0.955749 0.701411 0.259068
0.970245 0.713008 0.298253
0.984070 0.727382 0.340246
0.999817 0.747951 0.382086
1.000000 0.770993 0.427314
0.000000 0.579400 0.199802
0.000000 0.579797 0.197086
0.000000 0.586969 0.197086
0.000000 0.587549 0.188785
0.000000 0.588586 0.175082
0.000000 0.589868 0.155306
0.000000 0.591669 0.127047
0.000000 0.592950 0.110414
0.127565 0.593866 0.109468
0.196841 0.594873 0.107881
0.251652 0.596002 0.106355
0.309148 0.608118 0.095216
0.372534 0.629175 0.069184
0.437171 0.650599 0.000000
0.504204 0.671412 0.000000
0.575036 0.691096 0.000000
0.648127 0.709560 0.000000
0.716457 0.723415 0.000000
0.790280 0.746304 0.000000
0.846098 0.764126 0.000000
0.866636 0.754391 0.000000
0.880674 0.742214 0.000000
0.894499 0.733242 0.000000
0.908385 0.727413 0.055909
0.922179 0.724453 0.131075
0.935882 0.724331 0.177707
0.949493 0.727047 0.218112
0.962951 0.732631 0.257023
0.976135 0.741115 0.296757
0.988922 0.752560 0.339269
1.000000 0.766842 0.385626
1.000000 0.784298 0.437232
0.000000 0.623774 0.222843
0.000000 0.624842 0.221012
0.000000 0.625940 0.217929
0.000000 0.627314 0.210849
0.000000 0.628779 0.198703
0.000000 0.630213 0.180972
0.000000 0.631891 0.155978
0.000000 0.633478 0.128267
0.124727 0.634089 0.127565
0.195956 0.634699 0.126589
0.251164 0.635554 0.124880
0.299321 0.636408 0.123751
0.359991 0.655055 0.108949
0.421881 0.674678 0.086976
0.485847 0.693935 0.041718
0.553399 0.712245 0.000000
0.623468 0.729519 0.000000
0.693690 0.745724 0.000000
0.757443 0.757992 0.000000
0.822782 0.777523 0.000000
0.876005 0.796841 0.000000
0.894347 0.787778 0.000000
0.908019 0.777462 0.000000
0.920409 0.769039 0.000000
0.932799 0.763485 0.117372
0.945159 0.760739 0.170840
0.957519 0.760769 0.214084
0.969787 0.763638 0.254795
0.981903 0.769375 0.295720
0.993713 0.777890 0.338750
1.000000 0.789364 0.385412
1.000000 0.803799 0.437079
0.000000 0.663935 0.245914
0.000000 0.664912 0.244236
0.000000 0.665949 0.241581
0.000000 0.667140 0.235111
0.000000 0.668452 0.223972
0.000000 0.669764 0.207706
0.000000 0.671168 0.185489
0.000000 0.672786 0.154513
0.124636 0.673396 0.147555
0.196994 0.673793 0.146639
0.252140 0.674372 0.145937
0.300389 0.674922 0.144778
0.349889 0.681331 0.140444
0.409674 0.699336 0.127565
0.471199 0.717067 0.110506
0.535882 0.734066 0.086244
0.603204 0.750179 0.023651
0.671168 0.765286 0.000000
0.737087 0.779385 0.000000
0.794827 0.789883 0.000000
0.851743 0.806332 0.000000
0.902251 0.826444 0.000000
0.918669 0.818021 0.000000
0.931792 0.809201 0.000000
0.942870 0.801358 0.103822
0.953979 0.796231 0.164279
0.965148 0.793759 0.210636
0.976349 0.794064 0.252811
0.987427 0.797116 0.294835
0.998322 0.802914 0.338262
1.000000 0.811582 0.385016
1.000000 0.823270 0.436744
0.000000 0.702388 0.270451
0.000000 0.703243 0.268894
0.000000 0.704189 0.266392
0.000000 0.705257 0.260288
0.000000 0.706355 0.250095
0.000000 0.707515 0.235569
0.035431 0.708675 0.215579
0.068635 0.710201 0.188846
0.129305 0.711086 0.169955
0.199588 0.711238 0.169284
0.254276 0.711452 0.168582
0.302281 0.711727 0.167727
0.346349 0.711971 0.166781
0.399969 0.724025 0.160555
0.459449 0.740383 0.150149
0.521721 0.756283 0.137118
0.586938 0.771481 0.120363
0.652857 0.785611 0.097841
0.717372 0.798642 0.062684
0.777859 0.810910 0.000000
0.829191 0.820157 0.000000
0.879026 0.834012 0.000000
0.926482 0.854154 0.000000
0.941192 0.846433 0.004150
0.953765 0.838956 0.099794
0.963745 0.831968 0.165347
0.973754 0.827390 0.213779
0.983856 0.825437 0.257084
0.993896 0.826108 0.299596
1.000000 0.829435 0.343450
1.000000 0.835447 0.390417
1.000000 0.844266 0.441901
0.074311 0.741756 0.298222
0.076967 0.742245 0.296513
0.080903 0.742641 0.294011
0.085817 0.743252 0.288212
0.093965 0.743954 0.278721
0.103059 0.744778 0.265324
0.112917 0.745815 0.247227
0.123354 0.747127 0.223850
0.139681 0.748653 0.195285
0.207004 0.748684 0.194858
0.260472 0.748836 0.194675
0.307958 0.748928 0.194125
0.351568 0.749020 0.193576
0.394720 0.750668 0.192264
0.452216 0.765621 0.185702
0.512596 0.780148 0.177798
0.575128 0.793790 0.168399
0.638605 0.806394 0.156924
0.700832 0.817990 0.143557
0.759915 0.828794 0.127443
0.813565 0.839109 0.107027
0.858701 0.846708 0.111208
0.902007 0.857877 0.118990
0.944945 0.875792 0.124819
0.959503 0.869932 0.140108
0.971557 0.863615 0.162814
0.980652 0.857328 0.213199
0.989837 0.853452 0.257664
0.999054 0.852079 0.300664
1.000000 0.853117 0.344518
1.000000 0.856779 0.391455
1.000000 0.862943 0.442267
0.130678 0.776577 0.325200
0.132784 0.777005 0.323613
0.134035 0.777462 0.321477
0.137758 0.777920 0.315923
0.142550 0.778592 0.307378
0.148226 0.779294 0.294957
0.154910 0.780179 0.278691
0.162478 0.781247 0.257633
0.171145 0.782620 0.230747
0.215793 0.783017 0.220859
0.267430 0.783017 0.220493
0.313634 0.782956 0.220340
0.356756 0.782803 0.219944
0.398047 0.782650 0.219638
0.446204 0.789334 0.217166
0.504601 0.802396 0.212467
0.564965 0.814603 0.206882
0.626093 0.825956 0.200504
0.686458 0.836332 0.193240
0.744106 0.846006 0.185061
0.797055 0.855161 0.175967
0.844541 0.863890 0.165927
0.884459 0.870268 0.173953
0.922454 0.879240 0.183780
0.959716 0.893278 0.189700
0.975219 0.890166 0.201053
0.986969 0.884825 0.213260
0.995331 0.879423 0.258244
1.000000 0.876249 0.301427
1.000000 0.875364 0.345495
1.000000 0.876890 0.392096
1.000000 0.880858 0.442451
0.177310 0.811734 0.355596
0.178714 0.812161 0.354253
0.179782 0.812467 0.352209
0.182254 0.812802 0.347173
0.185275 0.813291 0.338933
0.189578 0.813779 0.327611
0.194797 0.814389 0.312688
0.200748 0.815152 0.293523
0.207431 0.816159 0.269505
0.229404 0.816831 0.249668
0.278141 0.816342 0.249271
0.322759 0.815885 0.248844
0.364904 0.815396 0.248447
0.405432 0.814817 0.248020
0.444800 0.814115 0.247501
0.499062 0.824002 0.245029
0.557061 0.834623 0.241764
0.615747 0.844480 0.237919
0.673915 0.853696 0.233951
0.730007 0.862272 0.229404
0.781979 0.870329 0.224918
0.828946 0.877989 0.219760
0.870939 0.885283 0.213901
0.906279 0.890288 0.224125
0.939605 0.897185 0.235111
0.973236 0.909270 0.245396
0.989441 0.908324 0.256504
1.000000 0.903624 0.266911
1.000000 0.899229 0.304906
1.000000 0.896666 0.348455
1.000000 0.896300 0.394202
1.000000 0.898253 0.443977
0.216312 0.841978 0.384741
0.217380 0.842344 0.383642
0.218723 0.842618 0.381689
0.220554 0.842954 0.377142
0.223087 0.843320 0.369604
0.226688 0.843778 0.359350
0.231113 0.844358 0.345769
0.236118 0.845121 0.328740
0.241947 0.846067 0.307439
0.248692 0.847227 0.281315
0.292027 0.846860 0.279484
0.335119 0.846311 0.279362
0.376135 0.845762 0.279454
0.415869 0.845151 0.279179
0.454994 0.844358 0.278965
0.498207 0.846311 0.278630
0.554131 0.855558 0.277379
0.610681 0.864195 0.275975
0.666651 0.872129 0.274357
0.720729 0.879484 0.272557
0.771176 0.886381 0.270665
0.816953 0.892943 0.268498
0.858244 0.899107 0.265843
0.895201 0.904906 0.262577
0.926421 0.908782 0.274479
0.955749 0.914122 0.286656
0.985473 0.923919 0.298222
1.000000 0.924712 0.310613
1.000000 0.920653 0.321874
1.000000 0.917174 0.354620
1.000000 0.915221 0.399573
1.000000 0.915465 0.448524
0.256626 0.870451 0.416236
0.257755 0.870695 0.415076
0.258457 0.870878 0.413214
0.259953 0.871092 0.409064
0.261906 0.871366 0.402197
0.264927 0.871702 0.392798
0.268437 0.872160 0.380407
0.272740 0.872801 0.364935
0.277928 0.873625 0.346044
0.283757 0.874693 0.323186
0.310063 0.874876 0.311742
0.350927 0.874327 0.311864
0.390387 0.873655 0.311955
0.429389 0.872862 0.312200
0.467750 0.871946 0.312200
0.505791 0.870878 0.312291
0.554253 0.875608 0.312413
0.608515 0.882963 0.312566
0.662226 0.889708 0.312566
0.714015 0.895964 0.312688
0.762692 0.901732 0.312779
0.807095 0.907225 0.312627
0.847288 0.912383 0.312200
0.883513 0.917296 0.311254
0.916167 0.921874 0.309850
0.943877 0.924926 0.322881
0.969787 0.929046 0.336004
0.996277 0.937102 0.348699
1.000000 0.939086 0.362646
1.000000 0.935546 0.375036
1.000000 0.932769 0.403876
1.000000 0.931518 0.451789
0.297612 0.896056 0.448554
0.298192 0.896239 0.447425
0.299046 0.896391 0.445747
0.300267 0.896605 0.441962
0.302159 0.896910 0.435828
0.304967 0.897368 0.427558
0.308415 0.898070 0.416938
0.312963 0.898924 0.403815
0.318364 0.900023 0.387671
0.324376 0.901305 0.368322
0.337133 0.902403 0.349859
0.375525 0.902007 0.350713
0.413672 0.901457 0.351598
0.451545 0.900725 0.352331
0.489235 0.899779 0.352941
0.526238 0.898619 0.353460
0.563561 0.897734 0.354131
0.615259 0.903655 0.355749
0.666194 0.909087 0.357366
0.715236 0.914061 0.358984
0.761105 0.918669 0.360662
0.803281 0.923033 0.362249
0.841581 0.927153 0.363470
0.876341 0.931121 0.364172
0.907805 0.934874 0.364630
0.936278 0.938415 0.365179
0.960662 0.940764 0.378729
0.983398 0.943816 0.392676
1.000000 0.950286 0.405890
1.000000 0.952911 0.421241
1.000000 0.949889 0.435859
1.000000 0.947845 0.462806
0.346258 0.921263 0.486213
0.346838 0.921355 0.485206
0.347295 0.921447 0.483711
0.348272 0.921599 0.480171
0.349981 0.921813 0.474617
0.352026 0.922148 0.467140
0.354894 0.922606 0.457557
0.358434 0.923247 0.445624
0.362890 0.924010 0.431250
0.367926 0.924987 0.414008
0.373602 0.926085 0.393469
0.403388 0.925689 0.389868
0.439063 0.924804 0.390509
0.474983 0.923796 0.391211
0.510735 0.922667 0.392004
0.546349 0.921416 0.392950
