其他预设/【239】阳光逆光效果预设26款/1.LUT预设（视频调色-PR-AE-PS-FCPX-达芬奇用）/阳光逆光预设__-7.cube
# Created by Adobe Lightroom plugin Export LUT (1.17.0)
# www.johnrellis.com/lightroom/exportlut.htm
# Preset: 阳光逆光预设[素锦印象]-7
# Color profile: /Library/Application Support/Adobe/Color/Profiles/Recommended/AdobeRGB1998.icc
LUT_3D_SIZE 8
DOMAIN_MIN 0.000000 0.000000 0.000000
DOMAIN_MAX 0.903226 0.903226 0.903226
0.199588 0.166049 0.161166
0.269596 0.162722 0.160494
0.379797 0.157504 0.161379
0.505974 0.150912 0.164065
0.648554 0.139406 0.165713
0.785489 0.127504 0.165377
0.908751 0.125063 0.163943
1.000000 0.139834 0.163210
0.202976 0.230991 0.160525
0.268589 0.226963 0.160678
0.370825 0.216281 0.172274
0.505791 0.204776 0.167117
0.648737 0.195743 0.167391
0.785428 0.186862 0.166140
0.908598 0.183566 0.164340
1.000000 0.191379 0.163546
0.220615 0.330327 0.167819
0.266331 0.328588 0.168093
0.378698 0.323217 0.169009
0.487404 0.314641 0.193423
0.630732 0.318975 0.194156
0.778592 0.313817 0.180972
0.907744 0.305760 0.166873
1.000000 0.305455 0.164401
0.242618 0.447822 0.173556
0.280369 0.447211 0.173373
0.382116 0.444862 0.172946
0.510979 0.441108 0.171817
0.635157 0.435828 0.194430
0.751217 0.444190 0.230503
0.890166 0.448890 0.216678
1.000000 0.447913 0.206851
0.260410 0.584222 0.168704
0.295689 0.583795 0.168215
0.393286 0.582300 0.166781
0.519646 0.579583 0.164187
0.654810 0.575921 0.160189
0.776669 0.567590 0.183993
0.881834 0.571832 0.239445
0.986297 0.589258 0.279637
0.276951 0.717952 0.156649
0.309361 0.717556 0.156039
0.401160 0.716243 0.154238
0.522362 0.714015 0.150912
0.653559 0.711086 0.146090
0.785000 0.708370 0.139590
0.900542 0.700191 0.165988
0.990295 0.700069 0.256168
0.294347 0.846555 0.138979
0.323491 0.846220 0.138216
0.408331 0.845029 0.136355
0.522972 0.842954 0.132967
0.648432 0.840238 0.128054
0.774960 0.837430 0.121920
0.897063 0.835264 0.115328
1.000000 0.824979 0.147433
0.316136 0.962951 0.124331
0.341405 0.962585 0.124056
0.416907 0.961303 0.122591
0.522210 0.959045 0.120089
0.639582 0.955962 0.116823
0.759060 0.952361 0.113252
0.874937 0.948730 0.110811
0.983703 0.945647 0.110597
0.204990 0.165438 0.218143
0.270817 0.163912 0.217258
0.379461 0.168215 0.210758
0.506279 0.159304 0.208743
0.649195 0.143008 0.206638
0.785885 0.126406 0.203220
0.908995 0.121584 0.199466
1.000000 0.137270 0.196963
0.211154 0.228824 0.216526
0.272099 0.226383 0.215885
0.379156 0.219821 0.213687
0.506188 0.210880 0.211246
0.649317 0.198215 0.207919
0.785824 0.186313 0.203799
0.908843 0.181521 0.199893
1.000000 0.189639 0.197147
0.232181 0.329015 0.211521
0.278508 0.326879 0.215030
0.380560 0.322698 0.214328
0.487495 0.320226 0.231937
0.637964 0.320562 0.222843
0.782895 0.311894 0.210422
0.908202 0.304723 0.201419
1.000000 0.304845 0.198306
0.251225 0.447181 0.211917
0.288396 0.446418 0.212650
0.386023 0.444404 0.211673
0.512230 0.441016 0.209537
0.635401 0.437140 0.227878
0.756130 0.446021 0.251377
0.892790 0.448554 0.238529
1.000000 0.446357 0.228458
0.264195 0.584131 0.204593
0.298711 0.583734 0.204105
0.395300 0.582208 0.202762
0.520867 0.579522 0.200107
0.655634 0.575891 0.196323
0.776730 0.567742 0.216403
0.881651 0.573480 0.264988
0.987579 0.589899 0.295872
0.278996 0.717891 0.192569
0.310979 0.717556 0.192203
0.402319 0.716213 0.190494
0.523217 0.713985 0.187686
0.654200 0.711116 0.183749
0.785550 0.708370 0.178622
0.900450 0.700160 0.201022
0.989868 0.701381 0.280858
0.296971 0.846494 0.177920
0.325719 0.846189 0.177584
0.409979 0.844968 0.175998
0.524071 0.842924 0.173526
0.649287 0.840177 0.170016
0.775540 0.837369 0.165560
0.897368 0.835233 0.160952
1.000000 0.824949 0.186679
0.320531 0.962768 0.167178
0.345220 0.962402 0.166873
0.419867 0.961151 0.165988
0.524346 0.958892 0.164248
0.641108 0.955810 0.162051
0.760037 0.952239 0.159945
0.875486 0.948638 0.158389
0.983886 0.945586 0.158419
0.221714 0.167025 0.303319
0.270665 0.169131 0.302770
0.383795 0.174472 0.301030
0.510033 0.167086 0.297826
0.653254 0.119203 0.291600
0.789578 0.000000 0.278325
0.911070 0.000000 0.275853
1.000000 0.097871 0.274083
0.235142 0.221622 0.301946
0.279210 0.222477 0.301396
0.384283 0.222782 0.300023
0.510735 0.208347 0.296818
0.654261 0.167971 0.287755
0.789395 0.137636 0.279088
0.910796 0.145022 0.276738
1.000000 0.167666 0.274723
0.247257 0.326848 0.299290
0.286809 0.325658 0.299046
0.387030 0.322057 0.298039
0.512993 0.312932 0.293309
0.654810 0.303166 0.288731
0.788602 0.295232 0.284337
0.909850 0.292119 0.280125
1.000000 0.296635 0.277348
0.264134 0.446601 0.295720
0.298772 0.445899 0.295811
0.391821 0.444129 0.294255
0.516594 0.440711 0.292332
0.636500 0.440711 0.307866
0.772457 0.445502 0.306767
0.902159 0.442084 0.296696
1.000000 0.436561 0.286564
0.273869 0.583856 0.290959
0.305760 0.583581 0.290105
0.397711 0.582391 0.286809
0.523461 0.579583 0.284886
0.658534 0.575738 0.282139
0.776944 0.568505 0.299596
0.880919 0.580011 0.338628
0.992126 0.590417 0.344518
0.286992 0.717739 0.280858
0.317205 0.717433 0.280003
0.406226 0.716182 0.278202
0.526329 0.713893 0.276371
0.656703 0.711025 0.273838
0.787411 0.708278 0.270695
0.899962 0.700374 0.290074
0.987976 0.706783 0.355016
0.306188 0.846220 0.269566
0.334539 0.845853 0.269596
0.417304 0.844633 0.269291
0.529320 0.842588 0.267796
0.652857 0.839933 0.265751
0.777829 0.837156 0.263523
0.898528 0.835142 0.261204
0.999237 0.825010 0.283024
0.336034 0.962097 0.263096
0.361700 0.961608 0.264714
0.432624 0.960357 0.264134
0.533501 0.958129 0.263432
0.647303 0.955169 0.262364
0.764004 0.951720 0.261570
0.877623 0.948302 0.261143
0.984436 0.945403 0.261814
0.250370 0.170443 0.402625
0.290288 0.172061 0.402289
0.393408 0.174166 0.401251
0.518944 0.169772 0.399847
0.658564 0.146059 0.401404
0.791806 0.079255 0.393957
0.913054 0.000000 0.382116
1.000000 0.000000 0.369574
0.259861 0.220249 0.401831
0.296269 0.219791 0.401587
0.395300 0.218509 0.400763
0.519463 0.212955 0.399512
0.658961 0.193515 0.400793
0.792142 0.148074 0.392248
0.913268 0.099458 0.380011
1.000000 0.087098 0.367834
0.259739 0.320806 0.400702
0.291447 0.318120 0.400671
0.392248 0.314092 0.400000
0.521508 0.313939 0.398352
0.661158 0.296361 0.396735
0.793637 0.267735 0.384802
0.914000 0.245823 0.371679
1.000000 0.266789 0.369574
0.275303 0.446906 0.397894
0.306432 0.446296 0.397742
0.396826 0.444221 0.397192
0.524987 0.440162 0.395972
0.663508 0.431220 0.390295
0.792935 0.425269 0.385840
0.911070 0.423255 0.382208
1.000000 0.426551 0.379797
0.290349 0.583551 0.396368
0.320134 0.583246 0.395941
0.407599 0.582116 0.394141
0.529473 0.579431 0.391608
0.663996 0.575402 0.389990
0.776425 0.573663 0.408911
0.892576 0.584436 0.418372
1.000000 0.585412 0.413581
0.302770 0.717403 0.388220
0.331487 0.717067 0.387732
0.416907 0.715846 0.386603
0.535698 0.713313 0.386938
0.662959 0.710536 0.385626
0.790921 0.708034 0.384039
0.898253 0.702754 0.405707
0.983520 0.719600 0.462013
0.322026 0.845792 0.377844
0.349126 0.845396 0.378027
0.431189 0.843900 0.379370
0.544152 0.841367 0.382971
0.662470 0.838926 0.382116
0.783261 0.836545 0.381109
0.900511 0.834928 0.380407
0.996338 0.826383 0.404974
0.352056 0.961456 0.369268
0.376837 0.960937 0.370489
0.453559 0.959014 0.375952
0.555688 0.956237 0.382422
0.662379 0.953491 0.382300
0.773281 0.950408 0.382269
0.882231 0.947417 0.382696
0.985229 0.945006 0.383856
0.284092 0.171572 0.520684
0.317845 0.171145 0.520500
0.411994 0.168307 0.520012
0.534691 0.161898 0.519005
0.666499 0.141573 0.518059
0.795315 0.119631 0.513512
0.913573 0.092836 0.504570
1.000000 0.091310 0.491432
0.287602 0.217014 0.520378
0.320012 0.215793 0.520226
0.412390 0.211398 0.519768
0.534905 0.205509 0.518853
0.666712 0.190433 0.517876
0.795468 0.176394 0.513146
0.913573 0.158328 0.503990
1.000000 0.156710 0.490913
0.277623 0.314580 0.519982
0.308293 0.311589 0.519951
0.405890 0.308507 0.519524
0.533898 0.307195 0.518395
0.667781 0.301335 0.517205
0.795773 0.295720 0.512108
0.913603 0.280461 0.501946
1.000000 0.277653 0.489052
0.280644 0.444068 0.518364
0.309117 0.442359 0.518364
0.393835 0.435065 0.518395
0.527825 0.430518 0.517510
0.669306 0.434455 0.515587
0.796323 0.427863 0.509819
0.913573 0.411505 0.497261
1.000000 0.405707 0.484565
0.297917 0.582452 0.515404
0.326146 0.582086 0.515343
0.411414 0.580713 0.514977
0.533867 0.578088 0.514214
0.671229 0.574792 0.512871
0.796353 0.568688 0.507378
0.910369 0.566125 0.503136
1.000000 0.567803 0.500420
0.323095 0.716762 0.508537
0.350134 0.716426 0.508324
0.431922 0.715084 0.507805
0.548638 0.712398 0.508354
0.673915 0.709377 0.510185
0.795193 0.707698 0.509300
0.894194 0.709895 0.532372
0.986786 0.725795 0.552819
0.342901 0.844999 0.498085
0.368383 0.844602 0.498268
0.446937 0.843107 0.499275
0.559564 0.840116 0.503502
0.677516 0.837217 0.508049
0.791012 0.835477 0.507561
0.902525 0.834653 0.507286
0.991272 0.829587 0.533898
0.373053 0.960449 0.486793
0.396582 0.959899 0.487709
0.469886 0.957946 0.491676
0.574060 0.954589 0.500114
0.682979 0.951049 0.508446
0.785641 0.948547 0.508690
0.887907 0.946227 0.509239
0.985534 0.944549 0.510338
0.312016 0.170138 0.647242
0.341131 0.168978 0.647120
0.425971 0.163790 0.646876
0.541375 0.153536 0.646418
0.668910 0.142580 0.645808
0.797757 0.119295 0.645228
0.913542 0.128786 0.635828
1.000000 0.172335 0.621912
0.313054 0.212741 0.647120
0.341497 0.211185 0.647089
0.425635 0.205905 0.646845
0.541161 0.197665 0.646418
0.669032 0.191196 0.645716
0.797848 0.176486 0.645136
0.913390 0.184115 0.635767
1.000000 0.214572 0.622065
0.301518 0.307408 0.647242
0.331640 0.306462 0.647181
0.419715 0.303624 0.646906
0.538994 0.300389 0.646326
0.669245 0.301274 0.645472
0.798062 0.296361 0.644770
0.912718 0.303746 0.635767
1.000000 0.319005 0.622827
0.290562 0.431678 0.646906
0.318975 0.429816 0.646906
0.405921 0.424811 0.646876
0.533745 0.424323 0.646174
0.670039 0.430762 0.644831
0.798123 0.434424 0.643824
0.910948 0.441779 0.636896
1.000000 0.441413 0.623896
0.303502 0.571588 0.645472
0.330053 0.570672 0.645472
0.411017 0.567498 0.645441
0.527031 0.562402 0.645258
0.668666 0.564965 0.644007
0.798154 0.573358 0.642573
0.909453 0.572229 0.636835
1.000000 0.563561 0.622431
0.325750 0.713283 0.643397
0.351873 0.713008 0.643336
0.432288 0.712062 0.643122
0.548455 0.710323 0.642634
0.673823 0.708553 0.642054
0.798306 0.707576 0.641474
0.907164 0.704952 0.636744
0.999420 0.705776 0.633692
0.361395 0.844083 0.633478
0.386023 0.843626 0.633509
0.462928 0.841978 0.633936
0.570672 0.839139 0.635279
0.685206 0.836393 0.637110
0.798611 0.834348 0.641047
0.903075 0.834501 0.641230
0.982666 0.837339 0.669398
0.395911 0.958984 0.617975
0.418067 0.958434 0.618555
0.487709 0.956481 0.621057
0.584924 0.953429 0.625269
0.693538 0.949615 0.632502
0.800107 0.946075 0.642878
0.893767 0.944732 0.643763
0.984070 0.944060 0.645075
0.328679 0.167453 0.784024
0.354528 0.166049 0.783993
0.432227 0.160433 0.783871
0.540764 0.149630 0.783688
0.662654 0.139315 0.783413
0.787228 0.137484 0.783078
0.908110 0.139101 0.782895
1.000000 0.191318 0.763729
0.328832 0.208194 0.784024
0.354437 0.206790 0.783993
0.431739 0.201633 0.783902
0.540429 0.193668 0.783719
0.662623 0.187289 0.783413
0.787289 0.188418 0.783047
0.907958 0.191257 0.782834
1.000000 0.231754 0.763882
0.321477 0.302983 0.784268
0.348150 0.302068 0.784207
0.427832 0.299535 0.784085
0.538750 0.296452 0.783871
0.662654 0.296300 0.783413
0.787869 0.303380 0.782834
0.907469 0.308324 0.782589
1.000000 0.336217 0.764614
0.309148 0.421576 0.784543
0.336156 0.420539 0.784512
0.419623 0.419013 0.784390
0.536522 0.419959 0.783932
0.663935 0.424933 0.783230
0.789883 0.438575 0.782315
0.906279 0.444648 0.782040
1.000000 0.461524 0.766201
0.308751 0.555505 0.784329
0.334203 0.554528 0.784360
0.411688 0.551141 0.784421
0.531640 0.551293 0.783993
0.665126 0.558221 0.783017
0.791684 0.570794 0.781888
0.904692 0.578485 0.781552
0.997131 0.590478 0.768978
0.329381 0.695949 0.783536
0.354070 0.695583 0.783505
0.430610 0.694575 0.783413
0.539879 0.693385 0.783200
0.660121 0.691768 0.782956
0.790402 0.699062 0.781949
0.902617 0.710292 0.781216
0.992157 0.715267 0.772824
0.359014 0.836179 0.782467
0.382818 0.835996 0.782437
0.457374 0.835294 0.782254
0.561334 0.834287 0.782010
0.677424 0.833402 0.781735
0.793637 0.833219 0.781552
0.900298 0.834653 0.781704
0.986358 0.835355 0.778683
0.408484 0.957519 0.766598
0.430091 0.956970 0.766720
0.496376 0.955108 0.767117
0.590784 0.952178 0.768063
0.697810 0.948455 0.770535
0.802914 0.945037 0.775235
0.898680 0.942931 0.784176
0.979309 0.943725 0.785519
0.329808 0.167086 0.922545
0.353491 0.165835 0.922515
0.425818 0.161227 0.922454
0.528313 0.153719 0.922332
0.644343 0.148531 0.922148
0.764187 0.156497 0.921843
0.880674 0.178134 0.921569
0.990234 0.209659 0.921386
0.330266 0.205966 0.922576
0.353857 0.204898 0.922545
0.425971 0.200961 0.922484
0.528466 0.195712 0.922332
0.644617 0.192844 0.922148
0.764462 0.201022 0.921782
0.880766 0.220035 0.921477
0.989929 0.246769 0.921324
0.328740 0.299809 0.922667
0.352575 0.299321 0.922637
0.425544 0.297612 0.922545
0.528923 0.296117 0.922393
0.645838 0.297551 0.922087
0.765805 0.307591 0.921599
0.881285 0.325505 0.921141
0.988739 0.346258 0.920928
0.327459 0.416022 0.922759
0.352239 0.416022 0.922759
0.426886 0.416236 0.922576
0.532128 0.417945 0.922271
0.649989 0.423316 0.921813
0.769558 0.435981 0.921141
0.882719 0.454871 0.920470
0.986694 0.467384 0.920378
0.322057 0.539635 0.922911
0.347662 0.539757 0.922881
0.426612 0.541222 0.922606
0.539940 0.547845 0.921965
0.657160 0.554345 0.921324
0.774472 0.566125 0.920562
0.884550 0.584710 0.919707
0.983612 0.594568 0.919707
0.336522 0.672694 0.922515
0.360021 0.672602 0.922484
0.432258 0.672541 0.922332
0.534691 0.672908 0.922057
0.657313 0.679286 0.921294
0.779660 0.693782 0.920073
0.886503 0.710079 0.919158
0.979644 0.721309 0.919097
0.366461 0.807767 0.921691
0.388556 0.807828 0.921630
0.456855 0.808011 0.921447
0.554528 0.808591 0.921141
0.666224 0.810697 0.920684
0.778958 0.815274 0.920104
0.888182 0.828885 0.919097
0.974975 0.841032 0.918944
0.403754 0.940917 0.920653
0.423682 0.940764 0.920592
0.485908 0.940337 0.920470
0.578363 0.939727 0.920226
0.684565 0.939300 0.919951
0.791714 0.939544 0.919677
0.890196 0.941039 0.919707
0.970703 0.943877 0.920317
