其他预设/【239】阳光逆光效果预设26款/1.LUT预设（视频调色-PR-AE-PS-FCPX-达芬奇用）/阳光逆光预设__-6.cube
# Created by Adobe Lightroom plugin Export LUT (1.17.0)
# www.johnrellis.com/lightroom/exportlut.htm
# Preset: 阳光逆光预设[素锦印象]-6
# Color profile: /Library/Application Support/Adobe/Color/Profiles/Recommended/AdobeRGB1998.icc
LUT_3D_SIZE 32
0.000000 0.000000 0.000000
0.025879 0.001526 0.001373
0.058747 0.001282 0.001495
0.085969 0.004059 0.003449
0.119417 0.005554 0.005798
0.153872 0.005066 0.006500
0.188266 0.006165 0.006348
0.222812 0.005829 0.004425
0.257572 0.004303 0.002716
0.293126 0.002045 0.000000
0.329992 0.000000 0.000000
0.367773 0.000000 0.000000
0.406744 0.000000 0.000000
0.446998 0.000000 0.000000
0.488411 0.000000 0.000000
0.530999 0.000000 0.000000
0.574609 0.000000 0.000000
0.617090 0.000000 0.000000
0.658198 0.000000 0.000000
0.699458 0.000000 0.000000
0.739467 0.000000 0.000000
0.777890 0.000000 0.000000
0.814633 0.000000 0.000000
0.849699 0.004486 0.000000
0.883299 0.010956 0.000000
0.915282 0.022095 0.000000
0.945617 0.040192 0.000000
0.974395 0.059388 0.000000
1.000000 0.070161 0.000000
1.000000 0.082429 0.026825
1.000000 0.096101 0.072206
1.000000 0.110994 0.097139
0.003052 0.022950 0.000214
0.026551 0.022522 0.001801
0.056733 0.023926 0.005127
0.085481 0.028840 0.006867
0.118776 0.032990 0.009064
0.153201 0.035126 0.008515
0.187747 0.035035 0.008453
0.222385 0.035889 0.006439
0.257237 0.035584 0.003540
0.292912 0.034302 0.000000
0.329686 0.032197 0.000000
0.367590 0.029877 0.000000
0.406592 0.029206 0.000000
0.446845 0.028656 0.000000
0.488258 0.029084 0.000000
0.530968 0.028809 0.000000
0.574426 0.028473 0.000000
0.616938 0.028534 0.000000
0.658045 0.029603 0.000000
0.699336 0.030060 0.000000
0.739376 0.032197 0.000000
0.777768 0.034607 0.000000
0.814511 0.039307 0.000000
0.849668 0.043519 0.000000
0.883207 0.051331 0.000000
0.915221 0.059602 0.000000
0.945556 0.065797 0.000000
0.974334 0.073732 0.000000
1.000000 0.083040 0.000000
1.000000 0.093385 0.031098
1.000000 0.105104 0.073274
1.000000 0.118685 0.098116
0.005737 0.054078 0.000641
0.033692 0.052369 0.001190
0.059113 0.050294 0.004944
0.084718 0.055573 0.012116
0.117922 0.060182 0.012940
0.152468 0.062501 0.013184
0.187015 0.063996 0.011780
0.221775 0.064332 0.009766
0.256718 0.064698 0.005676
0.292485 0.064179 0.000488
0.329320 0.063813 0.000000
0.367193 0.063966 0.000000
0.406287 0.063600 0.000000
0.446601 0.064729 0.000000
0.487953 0.065492 0.000000
0.530755 0.065675 0.000000
0.574273 0.066316 0.000000
0.616724 0.066926 0.000000
0.657954 0.067506 0.000000
0.699153 0.068696 0.000000
0.739284 0.069306 0.000000
0.777676 0.069734 0.000000
0.814389 0.071504 0.000000
0.849546 0.072786 0.000000
0.883116 0.075746 0.000000
0.915099 0.079133 0.000000
0.945464 0.083986 0.000000
0.974243 0.089784 0.000000
1.000000 0.096986 0.000000
1.000000 0.105715 0.035431
1.000000 0.115602 0.075105
1.000000 0.127871 0.099672
0.014557 0.081117 0.001099
0.041016 0.081209 0.000366
0.065278 0.080385 0.002838
0.087526 0.078828 0.011139
0.117952 0.083284 0.019196
0.150851 0.086976 0.021302
0.185519 0.089601 0.018372
0.220554 0.090700 0.014954
0.255589 0.091615 0.009613
0.291569 0.092134 0.003021
0.328527 0.092500 0.000000
0.366583 0.093355 0.000000
0.405585 0.094697 0.000000
0.445991 0.095674 0.000000
0.487465 0.096925 0.000000
0.530266 0.098116 0.000000
0.573846 0.099367 0.000000
0.616327 0.100526 0.000000
0.657557 0.101198 0.000000
0.698787 0.102174 0.000000
0.738979 0.102724 0.000000
0.777371 0.103548 0.000000
0.814145 0.104524 0.000000
0.849302 0.105440 0.000000
0.882902 0.106996 0.000000
0.914916 0.108797 0.000000
0.945281 0.111940 0.000000
0.974060 0.116335 0.000000
1.000000 0.121492 0.000000
1.000000 0.127932 0.046632
1.000000 0.135744 0.078889
1.000000 0.145693 0.102693
0.025849 0.111055 0.000000
0.054017 0.110994 0.000000
0.071626 0.111055 0.000000
0.095277 0.109163 0.004395
0.120027 0.107637 0.015930
0.152377 0.112673 0.022492
0.183841 0.115175 0.027588
0.218814 0.117891 0.022400
0.254307 0.119570 0.015473
0.290227 0.121309 0.009430
0.327398 0.122835 0.001770
0.365484 0.124331 0.000000
0.404761 0.126192 0.000000
0.445106 0.128145 0.000000
0.486671 0.129976 0.000000
0.529442 0.131899 0.000000
0.573114 0.133516 0.000000
0.615625 0.134920 0.000000
0.656947 0.136019 0.000000
0.698299 0.136995 0.000000
0.738460 0.137667 0.000000
0.776974 0.138857 0.000000
0.813748 0.139559 0.000000
0.848936 0.140139 0.000000
0.882567 0.140932 0.000000
0.914580 0.142367 0.000000
0.944976 0.144472 0.000000
0.973754 0.147097 0.000000
1.000000 0.151003 0.004517
1.000000 0.155886 0.059297
1.000000 0.161654 0.084657
1.000000 0.169558 0.107424
0.044007 0.141634 0.000000
0.063844 0.141726 0.000000
0.078614 0.141695 0.000000
0.101900 0.141024 0.000000
0.127230 0.138186 0.006043
0.153323 0.137148 0.017182
0.187350 0.142336 0.020935
0.218753 0.144533 0.026307
0.252171 0.147127 0.026947
0.288518 0.149783 0.019043
0.325750 0.152468 0.011627
0.364111 0.155001 0.004456
0.403418 0.157412 0.000000
0.443977 0.159945 0.000000
0.485603 0.162417 0.000000
0.528527 0.164858 0.000000
0.572168 0.167178 0.000000
0.614771 0.169100 0.000000
0.656092 0.170596 0.000000
0.697536 0.171969 0.000000
0.737789 0.173098 0.000000
0.776364 0.173556 0.000000
0.813230 0.174197 0.000000
0.848447 0.174777 0.000000
0.882109 0.175509 0.000000
0.914153 0.176486 0.000000
0.944579 0.177829 0.000000
0.973358 0.179721 0.000000
1.000000 0.182193 0.026551
1.000000 0.185672 0.068635
1.000000 0.190463 0.091890
1.000000 0.196658 0.113680
0.061433 0.172671 0.000000
0.072969 0.172732 0.000000
0.086610 0.172671 0.000000
0.108858 0.172732 0.000000
0.135042 0.170809 0.000000
0.160403 0.167758 0.002716
0.187411 0.167025 0.015503
0.222293 0.172641 0.019379
0.254002 0.174746 0.026917
0.286870 0.177401 0.034058
0.323949 0.181155 0.027832
0.362402 0.184543 0.018647
0.401831 0.188022 0.010407
0.442512 0.191318 0.000671
0.484352 0.194369 0.000000
0.527337 0.197452 0.000000
0.571008 0.200626 0.000000
0.613672 0.202853 0.000000
0.655116 0.204685 0.000000
0.696681 0.206241 0.000000
0.736995 0.207584 0.000000
0.775662 0.208347 0.000000
0.812528 0.209110 0.000000
0.847807 0.209415 0.000000
0.881529 0.209964 0.000000
0.913603 0.210422 0.000000
0.944030 0.211398 0.000000
0.972869 0.212711 0.003998
1.000000 0.214420 0.052918
1.000000 0.217105 0.078950
1.000000 0.220768 0.100252
1.000000 0.225681 0.121096
0.073762 0.203922 0.000000
0.083650 0.204074 0.000000
0.095521 0.204013 0.000000
0.116548 0.204135 0.000000
0.142397 0.203433 0.000000
0.168704 0.200809 0.000000
0.194369 0.197665 0.000000
0.222049 0.197391 0.014679
0.257786 0.203342 0.020569
0.290257 0.205966 0.028351
0.324102 0.209171 0.038575
0.360418 0.213321 0.041291
0.400092 0.217594 0.031800
0.440864 0.221744 0.020844
0.482795 0.225650 0.009308
0.525841 0.229526 0.000000
0.569665 0.233219 0.000000
0.612329 0.235996 0.000000
0.653895 0.238254 0.000000
0.695613 0.240360 0.000000
0.736019 0.241825 0.000000
0.774746 0.242832 0.000000
0.811704 0.243595 0.000000
0.847074 0.243931 0.000000
0.880797 0.244205 0.000000
0.912932 0.244724 0.000000
0.943389 0.245090 0.000000
0.972229 0.245914 0.036286
0.999481 0.247257 0.069337
1.000000 0.249088 0.090089
1.000000 0.251865 0.109804
1.000000 0.255833 0.129824
0.087404 0.235843 0.000000
0.096010 0.235874 0.000000
0.106538 0.235904 0.000000
0.125856 0.235966 0.000000
0.150668 0.236057 0.000000
0.177035 0.234073 0.000000
0.203403 0.231388 0.000000
0.229129 0.228367 0.000000
0.257542 0.228428 0.013916
0.294285 0.235172 0.020905
0.327794 0.238437 0.031586
0.362554 0.242069 0.044556
0.398566 0.246433 0.056092
0.439002 0.251469 0.050172
0.480995 0.256413 0.036957
0.524132 0.261143 0.022766
0.568078 0.265476 0.006714
0.610864 0.269017 0.000000
0.652522 0.271519 0.000000
0.694362 0.273991 0.000000
0.734859 0.275944 0.000000
0.773709 0.276982 0.000000
0.810727 0.277806 0.000000
0.846159 0.278233 0.000000
0.879942 0.278599 0.000000
0.912139 0.278660 0.000000
0.942626 0.278935 0.031403
0.971496 0.279362 0.064363
0.998749 0.280186 0.083101
1.000000 0.281529 0.101625
1.000000 0.283604 0.120394
1.000000 0.286717 0.139834
0.101686 0.268620 0.000000
0.108949 0.268620 0.000000
0.118135 0.268650 0.000000
0.136172 0.268742 0.000000
0.159609 0.268772 0.000000
0.185763 0.268162 0.000000
0.212467 0.265690 0.000000
0.238987 0.262943 0.000000
0.264927 0.259953 0.000000
0.294041 0.260594 0.014069
0.331945 0.268040 0.023804
0.366491 0.271763 0.035950
0.402319 0.276066 0.050690
0.439399 0.280735 0.061036
0.479042 0.286046 0.063752
0.522301 0.291844 0.055207
0.566339 0.297032 0.040101
0.609186 0.301061 0.024323
0.650965 0.304295 0.010315
0.692866 0.307164 0.000000
0.733577 0.309422 0.000000
0.772457 0.310979 0.000000
0.809659 0.311772 0.000000
0.845121 0.312352 0.000000
0.878996 0.312505 0.013397
0.911223 0.312535 0.039338
0.941741 0.312596 0.063874
0.970642 0.312810 0.080171
0.997955 0.313176 0.097017
1.000000 0.314122 0.113863
1.000000 0.315618 0.131716
1.000000 0.318090 0.150546
0.115358 0.302342 0.000000
0.121889 0.302403 0.000000
0.130617 0.302464 0.000000
0.147066 0.302434 0.000000
0.169345 0.302586 0.000000
0.194949 0.302739 0.000000
0.221775 0.300847 0.000000
0.248661 0.298344 0.000000
0.275456 0.295506 0.000000
0.301671 0.292576 0.000000
0.331762 0.293889 0.016327
0.370916 0.302007 0.027039
0.406439 0.306310 0.042237
0.443397 0.311101 0.055787
0.481605 0.316350 0.064179
0.520958 0.321904 0.071626
0.564324 0.327855 0.067201
0.607294 0.332647 0.060426
0.649226 0.336461 0.050385
0.691310 0.339910 0.037171
0.732143 0.342626 0.028321
0.771115 0.344335 0.024414
0.808408 0.345495 0.029267
0.843931 0.346075 0.040192
0.877928 0.346380 0.055879
0.910155 0.346288 0.068513
0.940734 0.346197 0.081514
0.969665 0.346197 0.095674
0.996979 0.346288 0.110750
1.000000 0.346777 0.126650
1.000000 0.347936 0.143954
1.000000 0.349920 0.162539
0.129335 0.337224 0.000000
0.135225 0.337316 0.000000
0.143252 0.337285 0.000000
0.158511 0.337316 0.000000
0.179812 0.337438 0.000000
0.204532 0.337591 0.000000
0.231327 0.336980 0.000000
0.258579 0.334661 0.000000
0.285985 0.332097 0.000000
0.313085 0.329259 0.000000
0.339544 0.326268 0.000000
0.370733 0.328222 0.016449
0.411200 0.337102 0.029511
0.447883 0.342046 0.045869
0.485817 0.347295 0.059052
0.525078 0.352941 0.067018
0.564996 0.358495 0.075013
0.605219 0.363561 0.079011
0.647272 0.368048 0.073640
0.689601 0.372198 0.068055
0.730556 0.375250 0.064912
0.769650 0.377417 0.064179
0.807004 0.378790 0.065797
0.842679 0.379583 0.070253
0.876707 0.379858 0.077668
0.908995 0.379828 0.086915
0.939635 0.379583 0.098146
0.968597 0.379431 0.110780
0.995911 0.379339 0.124880
1.000000 0.379553 0.140261
1.000000 0.380346 0.157015
1.000000 0.381811 0.175174
0.143343 0.373114 0.000000
0.148775 0.373205 0.000000
0.155947 0.373236 0.000000
0.170504 0.373297 0.000000
0.190646 0.373480 0.000000
0.214450 0.373663 0.000000
0.241215 0.373877 0.000000
0.268498 0.372045 0.000000
0.296391 0.369604 0.000000
0.324163 0.366949 0.000000
0.351629 0.364111 0.000000
0.378515 0.361028 0.000000
0.410864 0.363653 0.017639
0.452674 0.373327 0.030091
0.490517 0.378790 0.048005
0.529534 0.384619 0.060578
0.569055 0.390051 0.069581
0.607691 0.394781 0.078645
0.646021 0.399023 0.088411
0.687770 0.403723 0.086946
0.728817 0.407507 0.084047
0.768063 0.410010 0.083223
0.805478 0.411749 0.085054
0.841245 0.412634 0.089113
0.875364 0.413001 0.095552
0.907713 0.413031 0.103853
0.938415 0.412848 0.114137
0.967407 0.412512 0.125887
0.994720 0.412207 0.139437
1.000000 0.412299 0.154452
1.000000 0.412726 0.170779
1.000000 0.413855 0.188785
0.157137 0.410224 0.000000
0.162387 0.410254 0.000000
0.169009 0.410315 0.000000
0.182712 0.410407 0.000000
0.201968 0.410498 0.000000
0.225254 0.410681 0.000000
0.251316 0.410956 0.000000
0.278996 0.410407 0.000000
0.307012 0.408087 0.000000
0.335363 0.405676 0.000000
0.363653 0.402899 0.000000
0.391424 0.400031 0.000000
0.418616 0.396979 0.000000
0.452216 0.400244 0.014405
0.494972 0.410407 0.029572
0.534447 0.416754 0.047730
0.573358 0.422034 0.062104
0.611627 0.426612 0.072908
0.649683 0.430732 0.083314
0.688350 0.435096 0.093965
0.726986 0.439002 0.101930
0.766323 0.442054 0.101411
0.803861 0.444099 0.103090
0.839719 0.445319 0.106630
0.873899 0.445930 0.112398
0.906340 0.445930 0.120302
0.937041 0.445686 0.129824
0.966064 0.445319 0.141360
0.993408 0.444984 0.154452
1.000000 0.444770 0.169039
1.000000 0.445045 0.185397
1.000000 0.445899 0.203403
0.171206 0.448432 0.000000
0.176120 0.448402 0.000000
0.182315 0.448463 0.000000
0.195315 0.448554 0.000000
0.213931 0.448676 0.000000
0.236332 0.448951 0.000000
0.261875 0.449165 0.000000
0.289464 0.449531 0.000000
0.317815 0.447700 0.000000
0.346654 0.445350 0.000000
0.375402 0.442756 0.000000
0.404120 0.440009 0.000000
0.432288 0.437018 0.000000
0.460029 0.434058 0.000000
0.495003 0.437995 0.010681
0.538628 0.448554 0.027161
0.577996 0.454444 0.048829
0.615808 0.458747 0.065248
0.653559 0.462806 0.077363
0.691829 0.467048 0.089052
0.729091 0.470588 0.101991
0.765194 0.473548 0.115480
0.802152 0.476020 0.120027
0.838102 0.477516 0.123568
0.872343 0.478218 0.129122
0.904814 0.478431 0.136507
0.935546 0.478279 0.145815
0.964630 0.477913 0.157259
0.991974 0.477455 0.170016
1.000000 0.477241 0.184543
1.000000 0.477302 0.200748
1.000000 0.477852 0.218753
0.185275 0.487770 0.000000
0.189914 0.487800 0.000000
0.195590 0.487800 0.000000
0.207980 0.487922 0.000000
0.225925 0.488014 0.000000
0.248020 0.488319 0.000000
0.272892 0.488533 0.000000
0.300053 0.488899 0.000000
0.328923 0.488411 0.000000
0.357916 0.486183 0.000000
0.387304 0.483680 0.000000
0.416663 0.481056 0.000000
0.445777 0.478187 0.000000
0.474464 0.475227 0.000000
0.502586 0.472084 0.000000
0.538720 0.476722 0.002777
0.581476 0.486091 0.025513
0.620203 0.491341 0.052277
0.657801 0.495308 0.069306
0.695552 0.499245 0.083040
0.732296 0.502495 0.097047
0.767880 0.505058 0.112062
0.802365 0.507317 0.127504
0.836362 0.509209 0.140352
0.870665 0.510246 0.145785
0.903197 0.510582 0.153170
0.933959 0.510430 0.162325
0.963043 0.510185 0.173220
0.990387 0.509758 0.186191
1.000000 0.509392 0.200443
1.000000 0.509300 0.216953
1.000000 0.509758 0.235142
0.199405 0.528069 0.000000
0.203738 0.528130 0.000000
0.209323 0.528161 0.000000
0.221164 0.528283 0.000000
0.238437 0.528374 0.000000
0.259861 0.528588 0.000000
0.284184 0.528801 0.000000
0.311131 0.529076 0.000000
0.339879 0.529381 0.000000
0.369207 0.527581 0.000000
0.398993 0.525200 0.000000
0.428840 0.522637 0.000000
0.458595 0.519860 0.000000
0.488075 0.516899 0.000000
0.517144 0.513787 0.000000
0.545617 0.510613 0.000000
0.581628 0.514702 0.000000
0.623255 0.522911 0.028901
0.662165 0.528099 0.058717
0.699397 0.531762 0.075196
0.735592 0.534630 0.091371
0.770748 0.536858 0.107729
0.804776 0.538659 0.124392
0.837766 0.540185 0.141817
0.869444 0.541558 0.159915
0.901457 0.542260 0.170077
0.932250 0.542321 0.179141
0.961364 0.542107 0.190005
0.988708 0.541650 0.202884
1.000000 0.541314 0.217502
1.000000 0.541161 0.233921
1.000000 0.541466 0.252384
0.213199 0.567864 0.000000
0.217472 0.567834 0.000000
0.222629 0.567956 0.000000
0.234043 0.567956 0.000000
0.250645 0.568048 0.000000
0.271336 0.568170 0.000000
0.295262 0.568353 0.000000
0.321508 0.568536 0.000000
0.349920 0.568780 0.000000
0.379675 0.568322 0.000000
0.409552 0.566064 0.000000
0.439765 0.563622 0.000000
0.470161 0.560998 0.000000
0.500389 0.558282 0.000000
0.530297 0.555383 0.000000
0.559808 0.552422 0.000000
0.588952 0.549462 0.000000
0.624903 0.553124 0.000000
0.665431 0.560143 0.032898
0.703365 0.564477 0.065187
0.739071 0.566979 0.084535
0.773709 0.568750 0.102937
0.807401 0.570184 0.120974
0.839933 0.571283 0.139590
0.871244 0.572168 0.158633
0.901244 0.573053 0.178592
0.930419 0.573724 0.196475
0.959533 0.573632 0.207492
0.986847 0.573205 0.220279
1.000000 0.572900 0.235019
1.000000 0.572686 0.251652
1.000000 0.572900 0.270512
0.226841 0.607721 0.000000
0.230594 0.607782 0.000000
0.235874 0.607782 0.000000
0.246677 0.607874 0.000000
0.262669 0.607965 0.000000
0.282689 0.608118 0.000000
0.306126 0.608301 0.000000
0.332036 0.608484 0.000000
0.360082 0.608759 0.000000
0.389563 0.609003 0.000000
0.419928 0.607416 0.000000
0.450538 0.605188 0.000000
0.481422 0.602808 0.000000
0.512261 0.600244 0.000000
0.542962 0.597620 0.000000
0.573419 0.594842 0.000000
0.603540 0.592004 0.000000
0.633173 0.589166 0.000000
0.668879 0.592248 0.000000
0.706844 0.596887 0.047608
0.742672 0.599512 0.076020
0.776791 0.600946 0.097383
0.810025 0.601862 0.117372
0.842161 0.602502 0.136995
0.873075 0.602899 0.157229
0.902770 0.603204 0.177951
0.931121 0.603632 0.199680
0.958038 0.604364 0.222782
0.984924 0.604395 0.238499
1.000000 0.604059 0.253422
1.000000 0.603876 0.270420
1.000000 0.604059 0.289616
0.239963 0.648493 0.000000
0.243656 0.648524 0.000000
0.248692 0.648585 0.000000
0.259098 0.648615 0.000000
0.274723 0.648737 0.000000
0.294133 0.648859 0.000000
0.317052 0.649012 0.000000
0.342535 0.649195 0.000000
0.370153 0.649378 0.000000
0.399542 0.649592 0.000000
0.430060 0.649317 0.000000
0.461006 0.647272 0.000000
0.492256 0.645045 0.000000
0.523644 0.642664 0.000000
0.554986 0.640162 0.000000
0.586175 0.637537 0.000000
0.617090 0.634852 0.000000
0.647700 0.632136 0.000000
0.677790 0.629297 0.000000
0.711604 0.630396 0.000000
0.746487 0.632288 0.065309
0.779995 0.633204 0.090517
0.812772 0.633722 0.113130
0.844450 0.633875 0.134524
0.874998 0.633783 0.155673
0.904326 0.633509 0.177371
0.932341 0.633326 0.199924
0.959014 0.633478 0.223758
0.984192 0.634058 0.249058
1.000000 0.634852 0.272679
1.000000 0.634699 0.290043
1.000000 0.634913 0.309697
0.252598 0.688869 0.000000
0.256077 0.688869 0.000000
0.260838 0.688899 0.000000
0.270939 0.688930 0.000000
0.286015 0.688930 0.000000
0.305058 0.688991 0.000000
0.327337 0.689052 0.000000
0.352209 0.689174 0.000000
0.379522 0.689204 0.000000
0.408515 0.689296 0.000000
0.438880 0.689418 0.000000
0.470039 0.688045 0.000000
0.501488 0.685939 0.000000
0.533196 0.683680 0.000000
0.564996 0.681270 0.000000
0.596704 0.678767 0.000000
0.628229 0.676143 0.000000
0.659419 0.673487 0.000000
0.690303 0.670741 0.000000
0.720699 0.667964 0.000000
0.752255 0.666926 0.027649
0.784329 0.666468 0.083070
0.815549 0.665553 0.108492
0.846830 0.665248 0.131594
0.877012 0.664637 0.154269
0.905974 0.663905 0.176913
0.933654 0.663111 0.200412
0.959991 0.662593 0.224887
0.984863 0.662501 0.250736
1.000000 0.663081 0.278386
1.000000 0.664668 0.308202
1.000000 0.665797 0.331182
0.264225 0.727596 0.000000
0.267643 0.727596 0.000000
0.272099 0.727565 0.000000
0.281895 0.727596 0.000000
0.296452 0.727626 0.000000
0.314916 0.727626 0.000000
0.336736 0.727596 0.000000
0.361151 0.727565 0.000000
0.387823 0.727565 0.000000
0.416327 0.727504 0.000000
0.446387 0.727474 0.000000
0.477607 0.727138 0.000000
0.509148 0.725185 0.000000
0.540978 0.723018 0.000000
0.573022 0.720760 0.000000
0.605127 0.718318 0.000000
0.637018 0.715785 0.000000
0.668727 0.713191 0.000000
0.700191 0.710567 0.000000
0.731197 0.707820 0.000000
0.761837 0.705135 0.000000
0.791165 0.702022 0.065064
0.820584 0.699428 0.103120
0.849271 0.696742 0.128756
0.879057 0.695583 0.152895
0.907622 0.694270 0.176669
0.934936 0.692958 0.200900
0.960998 0.691798 0.226108
0.985565 0.691005 0.252659
1.000000 0.690822 0.280858
1.000000 0.691829 0.311284
1.000000 0.694697 0.344182
0.275029 0.764736 0.000000
0.278264 0.764767 0.000000
0.282597 0.764767 0.000000
0.291997 0.764736 0.000000
0.306035 0.764675 0.000000
0.324010 0.764645 0.000000
0.345190 0.764614 0.000000
0.368963 0.764492 0.000000
0.395270 0.764401 0.000000
0.423316 0.764248 0.000000
0.452918 0.764157 0.000000
0.483650 0.763973 0.000000
0.515190 0.762753 0.000000
0.547265 0.760678 0.000000
0.579370 0.758541 0.000000
0.611688 0.756252 0.000000
0.643854 0.753811 0.000000
0.675929 0.751278 0.000000
0.707790 0.748714 0.000000
0.739345 0.746090 0.000000
0.770474 0.743435 0.000000
0.801175 0.740688 0.000000
0.828244 0.735744 0.090761
0.855039 0.731106 0.126040
0.881102 0.726528 0.151369
0.909270 0.724697 0.176333
0.936278 0.722744 0.201663
0.962005 0.721004 0.227634
0.986267 0.719600 0.254826
1.000000 0.718837 0.283665
1.000000 0.719356 0.314458
1.000000 0.721798 0.347875
0.284855 0.800443 0.000000
0.287968 0.800443 0.000000
0.292210 0.800412 0.000000
0.301274 0.800351 0.000000
0.314794 0.800320 0.000000
0.332158 0.800229 0.000000
0.352789 0.800107 0.000000
0.376135 0.799985 0.000000
0.401862 0.799771 0.000000
0.429358 0.799588 0.000000
0.458442 0.799344 0.000000
0.488716 0.799100 0.000000
0.520043 0.798764 0.000000
0.552026 0.796811 0.000000
0.584222 0.794736 0.000000
0.616632 0.792569 0.000000
0.649042 0.790249 0.000000
0.681361 0.787808 0.000000
0.713527 0.785336 0.000000
0.745357 0.782773 0.000000
0.776883 0.780148 0.000000
0.808011 0.777523 0.000000
0.838682 0.774868 0.027283
0.863401 0.767910 0.117525
0.887633 0.761410 0.151247
0.911009 0.755001 0.176333
0.937621 0.752529 0.202487
0.963012 0.750210 0.229252
0.986938 0.748287 0.257145
1.000000 0.747066 0.286595
1.000000 0.747097 0.317967
1.000000 0.749111 0.351812
0.293858 0.834653 0.000000
0.296788 0.834653 0.000000
0.300877 0.834623 0.000000
0.309575 0.834562 0.000000
0.322698 0.834470 0.000000
0.339605 0.834348 0.000000
0.359594 0.834195 0.000000
0.382452 0.833982 0.000000
0.407568 0.833768 0.000000
0.434607 0.833494 0.000000
0.463081 0.833219 0.000000
0.492988 0.832822 0.000000
0.523827 0.832456 0.000000
0.555535 0.831357 0.000000
0.587793 0.829404 0.000000
0.620203 0.827298 0.000000
0.652705 0.825071 0.000000
0.685145 0.822751 0.000000
0.717494 0.820340 0.000000
0.749569 0.817838 0.000000
0.781369 0.815244 0.000000
0.812802 0.812650 0.000000
0.843809 0.810056 0.000000
0.874327 0.807431 0.087098
0.896605 0.798642 0.145937
0.918425 0.790494 0.178805
0.939117 0.782437 0.203708
0.964019 0.779477 0.231205
0.987610 0.777035 0.259831
1.000000 0.775326 0.289799
1.000000 0.774838 0.321691
1.000000 0.776455 0.356115
0.302037 0.867369 0.000000
0.305028 0.867369 0.000000
0.308934 0.867338 0.000000
0.317296 0.867247 0.000000
0.329931 0.867155 0.000000
0.346258 0.867002 0.000000
0.365667 0.866819 0.000000
0.387945 0.866575 0.000000
0.412573 0.866270 0.000000
0.438911 0.865965 0.000000
0.467018 0.865568 0.000000
0.496345 0.865171 0.000000
0.526665 0.864652 0.000000
0.557977 0.864134 0.000000
0.590082 0.862455 0.000000
0.622461 0.860441 0.000000
0.654963 0.858274 0.000000
0.687434 0.856016 0.000000
0.719875 0.853666 0.000000
0.752071 0.851255 0.000000
0.784054 0.848753 0.000000
0.815732 0.846189 0.000000
0.846921 0.843595 0.000000
0.877714 0.841032 0.084627
0.907927 0.838437 0.124697
0.927794 0.827909 0.176516
0.947265 0.818387 0.209018
0.965698 0.809201 0.233890
0.988251 0.805631 0.262760
1.000000 0.803403 0.293309
1.000000 0.802457 0.325780
1.000000 0.803647 0.360693
0.309514 0.898589 0.000000
0.312261 0.898558 0.000000
0.316136 0.898497 0.000000
0.324071 0.898436 0.000000
0.336431 0.898283 0.000000
0.352209 0.898131 0.000000
0.371130 0.897917 0.000000
0.392767 0.897642 0.000000
0.416785 0.897307 0.000000
0.442664 0.896941 0.000000
0.470069 0.896483 0.000000
0.498817 0.896025 0.000000
0.528710 0.895476 0.000000
0.559533 0.894835 0.000000
0.591089 0.893858 0.000000
0.623407 0.891905 0.000000
0.655940 0.889860 0.000000
0.688380 0.887663 0.000000
0.720821 0.885405 0.000000
0.753109 0.883024 0.000000
0.785153 0.880552 0.000000
0.816922 0.878080 0.000000
0.848295 0.875517 0.000000
0.879240 0.872953 0.087465
0.909667 0.870329 0.129091
0.939361 0.867613 0.161868
0.956939 0.855619 0.209781
0.973999 0.845060 0.242191
0.990173 0.835142 0.267216
1.000000 0.831144 0.297215
1.000000 0.829679 0.330327
1.000000 0.830411 0.365698
0.316197 0.928222 0.000000
0.318791 0.928191 0.000000
0.322423 0.928161 0.000000
0.330175 0.928069 0.000000
0.342107 0.927916 0.000000
0.357458 0.927703 0.000000
0.375830 0.927489 0.000000
0.396826 0.927184 0.000000
0.420233 0.926818 0.000000
0.445563 0.926390 0.000000
0.472450 0.925902 0.000000
0.500694 0.925353 0.000000
0.530022 0.924712 0.000000
0.560327 0.924041 0.000000
0.591302 0.923278 0.000000
0.623255 0.921782 0.000000
