其他预设/【239】阳光逆光效果预设26款/1.LUT预设（视频调色-PR-AE-PS-FCPX-达芬奇用）/阳光逆光预设__-11.cube
# Created by Adobe Lightroom plugin Export LUT (1.17.0)
# www.johnrellis.com/lightroom/exportlut.htm
# Preset: 阳光逆光预设[素锦印象]-11
# Color profile: /Library/Application Support/Adobe/Color/Profiles/Recommended/AdobeRGB1998.icc
LUT_3D_SIZE 8
DOMAIN_MIN 0.000000 0.000000 0.000000
DOMAIN_MAX 0.903226 0.903226 0.903226
0.000000 0.000000 0.000000
0.114412 0.000000 0.005035
0.259586 0.000000 0.000000
0.426917 0.000000 0.000000
0.600336 0.000000 0.000000
0.740871 0.000000 0.000000
0.860319 0.000000 0.000000
0.975708 0.000000 0.000000
0.000000 0.108400 0.000000
0.114290 0.104646 0.002777
0.267948 0.112978 0.000000
0.437842 0.106203 0.000000
0.609613 0.071839 0.000000
0.747799 0.000000 0.000000
0.865049 0.000000 0.000000
0.978515 0.000000 0.000000
0.090547 0.238529 0.000000
0.157443 0.238132 0.000000
0.259525 0.234165 0.007507
0.443427 0.265202 0.000000
0.611810 0.262303 0.000000
0.746365 0.241520 0.000000
0.859770 0.214878 0.000000
0.974487 0.191806 0.000000
0.157870 0.392767 0.000000
0.209751 0.393194 0.000000
0.322210 0.390448 0.000000
0.430091 0.381933 0.000000
0.609552 0.407263 0.000000
0.741634 0.392096 0.000000
0.858976 0.371557 0.000000
0.975006 0.356207 0.000000
0.223270 0.550896 0.000000
0.264469 0.550011 0.000000
0.371710 0.544762 0.000000
0.486702 0.536614 0.000000
0.601617 0.529503 0.000000
0.746914 0.534997 0.000000
0.863432 0.515679 0.000000
0.975921 0.501274 0.000000
0.279118 0.679530 0.000000
0.309758 0.675959 0.000000
0.400824 0.671748 0.000000
0.518212 0.664271 0.000000
0.629419 0.659113 0.000000
0.739162 0.653010 0.102205
0.858732 0.649531 0.005249
0.977325 0.638483 0.000000
0.329076 0.793729 0.000000
0.353887 0.792355 0.000000
0.431159 0.790036 0.000000
0.539147 0.784695 0.000000
0.652399 0.779843 0.000000
0.759854 0.775906 0.104646
0.862303 0.772793 0.195773
0.968811 0.774563 0.203861
0.384497 0.914092 0.000000
0.405249 0.913664 0.000000
0.470405 0.911681 0.000000
0.566217 0.907347 0.000000
0.681941 0.906065 0.000000
0.786770 0.902068 0.147189
0.886809 0.898711 0.239384
0.978180 0.898955 0.325261
0.000000 0.000000 0.096254
0.120729 0.000000 0.098543
0.273655 0.000000 0.094820
0.445258 0.000000 0.076143
0.616297 0.000000 0.028901
0.753323 0.000000 0.000000
0.869017 0.000000 0.000000
0.981811 0.000000 0.000000
0.000000 0.110719 0.098329
0.127993 0.112398 0.097719
0.277531 0.110353 0.089601
0.449439 0.090272 0.070466
0.620020 0.000000 0.009552
0.756008 0.000000 0.000000
0.872221 0.000000 0.000000
0.984558 0.000000 0.000000
0.060792 0.249027 0.074769
0.163973 0.246311 0.089509
0.273533 0.244083 0.103243
0.454231 0.265660 0.035340
0.622889 0.259098 0.000000
0.755428 0.236454 0.000000
0.869688 0.210361 0.000000
0.981628 0.186282 0.000000
0.149844 0.405249 0.038422
0.212284 0.403754 0.053529
0.330449 0.399054 0.062043
0.447425 0.395026 0.102083
0.626368 0.414923 0.000000
0.754177 0.395117 0.000000
0.869139 0.373144 0.000000
0.981781 0.356573 0.000000
0.220096 0.556329 0.000000
0.263340 0.555749 0.000000
0.374456 0.551019 0.000000
0.494911 0.544213 0.005524
0.612238 0.537743 0.110811
0.754238 0.538933 0.000000
0.868498 0.517449 0.000000
0.980194 0.502281 0.000000
0.278721 0.684291 0.000000
0.311284 0.682979 0.000000
0.403784 0.678370 0.000000
0.522972 0.669673 0.000000
0.634272 0.663203 0.071351
0.742794 0.655879 0.149355
0.861845 0.651667 0.110018
0.979980 0.640162 0.000000
0.331182 0.798856 0.000000
0.357275 0.798581 0.000000
0.434485 0.795590 0.000000
0.542229 0.788998 0.000000
0.655726 0.782895 0.044434
0.763516 0.779049 0.152468
0.866270 0.776730 0.226627
0.972320 0.778622 0.232242
0.386999 0.917021 0.059602
0.407385 0.916228 0.061036
0.472236 0.913970 0.067872
0.567742 0.909392 0.075074
0.680079 0.904295 0.089143
0.786679 0.901488 0.178225
0.888029 0.899657 0.261448
0.979339 0.900633 0.343175
0.000000 0.000000 0.208286
0.127047 0.000000 0.208438
0.279820 0.000000 0.219821
0.456367 0.000000 0.220493
0.624689 0.000000 0.202304
0.757992 0.000000 0.179080
0.870878 0.000000 0.170901
0.982391 0.000000 0.165988
0.029297 0.111055 0.211215
0.137881 0.108278 0.211887
0.288121 0.093019 0.218112
0.463233 0.000000 0.212894
0.630518 0.000000 0.186465
0.760372 0.000000 0.179507
0.873045 0.000000 0.170962
0.983734 0.000000 0.166232
0.060914 0.252262 0.215763
0.147585 0.254246 0.214420
0.297215 0.254154 0.209873
0.467628 0.246616 0.196445
0.629755 0.230594 0.184085
0.759182 0.209354 0.174166
0.872374 0.183932 0.167330
0.983551 0.158663 0.163485
0.078920 0.414435 0.200961
0.162020 0.414221 0.190005
0.334722 0.407599 0.198611
0.464210 0.405219 0.216251
0.631128 0.406592 0.176455
0.756954 0.384436 0.165011
0.870359 0.362585 0.159304
0.982300 0.346105 0.158267
0.144381 0.567926 0.160952
0.233097 0.565270 0.178317
0.371130 0.558129 0.185916
0.501244 0.548608 0.195010
0.624079 0.545220 0.223026
0.758450 0.536858 0.182437
0.869444 0.513176 0.150149
0.981415 0.497841 0.151858
0.257328 0.690364 0.170535
0.299413 0.688502 0.174807
0.403693 0.683345 0.181369
0.527001 0.674678 0.180179
0.641840 0.667872 0.209964
0.751492 0.662318 0.247959
0.866270 0.653864 0.217197
0.980194 0.638697 0.156558
0.327520 0.801175 0.184390
0.355932 0.800412 0.186313
0.435340 0.797848 0.188846
0.543908 0.792111 0.189242
0.660334 0.785489 0.202884
0.767544 0.780911 0.247654
0.867033 0.777310 0.297948
0.971679 0.778195 0.292393
0.392157 0.918364 0.214542
0.410559 0.918334 0.212833
0.475288 0.916442 0.214359
0.569055 0.911040 0.214054
0.680781 0.906035 0.217838
0.789029 0.902220 0.259770
0.889311 0.899992 0.321477
0.978576 0.900603 0.388586
0.077516 0.000000 0.339574
0.158633 0.000000 0.338964
0.298741 0.000000 0.340368
0.474525 0.000000 0.352514
0.642237 0.000000 0.345617
0.768643 0.000000 0.327153
0.878477 0.000000 0.320928
0.988037 0.000000 0.305272
0.073274 0.105257 0.339422
0.158450 0.100343 0.339849
0.302800 0.077241 0.341039
0.478370 0.000000 0.350439
0.643702 0.000000 0.342077
0.769619 0.000000 0.325566
0.879088 0.000000 0.322148
0.988556 0.000000 0.304112
0.071077 0.259495 0.343328
0.156161 0.256382 0.343633
0.314580 0.249760 0.344274
0.490913 0.239109 0.344976
0.645075 0.208896 0.330541
0.767605 0.173709 0.310155
0.875608 0.162753 0.303471
0.985718 0.130251 0.298772
0.093721 0.420447 0.345464
0.171939 0.422339 0.345006
0.326207 0.423224 0.339422
0.495979 0.417304 0.334783
0.644984 0.400092 0.319646
0.766110 0.380133 0.310430
0.876127 0.358740 0.302403
0.985138 0.339727 0.297673
0.139193 0.575891 0.326909
0.203311 0.576013 0.323552
0.346777 0.572869 0.314458
0.516442 0.557336 0.325078
0.637812 0.553002 0.343206
0.764218 0.534997 0.309514
0.872679 0.510826 0.297490
0.983276 0.495003 0.295109
0.215702 0.697078 0.297978
0.259678 0.694484 0.296361
0.401038 0.688869 0.316411
0.531304 0.679194 0.318395
0.650477 0.670497 0.330785
0.758541 0.667597 0.358343
0.870695 0.655482 0.324956
0.980499 0.637751 0.293431
0.299535 0.807889 0.294133
0.345922 0.805783 0.306828
0.445869 0.800412 0.325444
0.547021 0.794186 0.320836
0.664881 0.785977 0.320592
0.771817 0.781918 0.351720
0.871305 0.781765 0.389715
0.973999 0.780758 0.373236
0.420325 0.918242 0.345830
0.446418 0.916930 0.353491
0.491829 0.916045 0.344976
0.571130 0.913390 0.334173
0.681025 0.908385 0.334966
0.791623 0.903655 0.353887
0.891020 0.901183 0.400427
0.977935 0.901518 0.453742
0.134646 0.000000 0.467781
0.196262 0.000000 0.467506
0.329381 0.000000 0.468696
0.484169 0.000000 0.468818
0.653803 0.000000 0.470832
0.780880 0.000000 0.449653
0.887297 0.000000 0.436378
0.990173 0.000000 0.438758
0.126314 0.095918 0.468666
0.192081 0.088045 0.467445
0.329229 0.037385 0.468391
0.487678 0.000000 0.469795
0.656306 0.000000 0.469825
0.780819 0.000000 0.448707
0.886778 0.000000 0.437049
0.989715 0.079866 0.440742
0.102663 0.255314 0.470283
0.176333 0.249485 0.470497
0.332647 0.245029 0.471290
0.499489 0.235355 0.471534
0.663050 0.229282 0.466682
0.781338 0.233127 0.448737
0.885832 0.244114 0.442359
0.988647 0.267369 0.449622
0.133516 0.421302 0.470680
0.199344 0.420844 0.471107
0.346288 0.419104 0.470863
0.516594 0.418555 0.468910
0.663844 0.415106 0.461158
0.776181 0.406775 0.451453
0.882353 0.390082 0.443427
0.988983 0.363073 0.434241
0.176822 0.582910 0.467750
0.233616 0.582940 0.467048
0.371557 0.582177 0.465217
0.530266 0.574334 0.459327
0.663142 0.565179 0.457740
0.773770 0.541131 0.441962
0.881224 0.519097 0.432013
0.988006 0.499763 0.425086
0.254215 0.707698 0.442481
0.296788 0.706600 0.442237
0.411475 0.702846 0.443946
0.556329 0.693599 0.457862
0.669306 0.682734 0.453712
0.769497 0.677394 0.469947
0.878752 0.658808 0.432502
0.983917 0.639796 0.419745
0.331640 0.813962 0.427161
0.363378 0.813230 0.429450
0.453468 0.809873 0.437873
0.576471 0.802060 0.459724
0.670222 0.794858 0.444129
0.779751 0.788174 0.458289
0.876738 0.788968 0.488167
0.979980 0.785183 0.461311
0.416144 0.925475 0.439155
0.438880 0.924834 0.442542
0.506950 0.922454 0.453864
0.603906 0.915740 0.473640
0.678645 0.913878 0.449622
0.792355 0.907774 0.450233
0.892912 0.905058 0.486824
0.979919 0.906432 0.528710
0.176577 0.000000 0.584070
0.226444 0.000000 0.584131
0.347173 0.000000 0.585931
0.493782 0.000000 0.586633
0.651423 0.000000 0.587427
0.788022 0.000000 0.570520
0.897032 0.000000 0.551598
0.995453 0.080659 0.546563
0.172244 0.084779 0.588312
0.224613 0.075929 0.588434
0.348425 0.004486 0.589044
0.497047 0.000000 0.589380
0.655451 0.000000 0.589258
0.789731 0.000000 0.570916
0.897337 0.087221 0.552880
0.995331 0.166659 0.548882
0.157809 0.248356 0.588220
0.217075 0.247593 0.588647
0.349706 0.243442 0.589258
0.502647 0.236088 0.589166
0.661921 0.228855 0.588800
0.790433 0.251530 0.569574
0.895018 0.280613 0.556115
0.993072 0.301793 0.555261
0.185031 0.412543 0.587976
0.238529 0.412451 0.588434
0.370550 0.414130 0.588281
0.518303 0.414069 0.586175
0.668605 0.413458 0.584710
0.787808 0.428107 0.569024
0.889372 0.428473 0.561791
0.988739 0.429908 0.563928
0.232395 0.570581 0.588159
0.277928 0.570825 0.588098
0.399451 0.571466 0.587549
0.544060 0.573022 0.585779
0.677180 0.571405 0.584436
0.786496 0.568109 0.575097
0.886564 0.556481 0.571252
0.986084 0.549889 0.574548
0.294743 0.714839 0.580041
0.331975 0.713466 0.579248
0.437446 0.710170 0.578637
0.566369 0.704677 0.579217
0.682856 0.695796 0.577630
0.783749 0.686397 0.574548
0.883848 0.662867 0.556298
0.987091 0.643732 0.548241
0.366979 0.819272 0.555901
0.394293 0.817990 0.556451
0.476936 0.814817 0.560143
0.581964 0.809873 0.566583
0.688472 0.803891 0.575616
0.784695 0.795407 0.566796
0.880125 0.795010 0.587732
0.984833 0.783322 0.552453
0.440955 0.929137 0.556146
0.461860 0.928588 0.558465
0.524834 0.926543 0.565484
0.606714 0.923064 0.573358
0.705592 0.918120 0.589502
0.784329 0.915099 0.564294
0.891783 0.909636 0.579370
0.980407 0.911406 0.614679
0.206790 0.000000 0.709712
0.249516 0.000000 0.709560
0.360174 0.000000 0.709712
0.498024 0.000000 0.709682
0.646876 0.000000 0.709987
0.797024 0.000000 0.710048
0.905821 0.000000 0.679194
1.000000 0.188815 0.665187
0.203555 0.079774 0.711116
0.247562 0.072053 0.711025
0.360082 0.014374 0.711086
0.499855 0.000000 0.711177
0.649134 0.000000 0.711269
0.798947 0.000000 0.711238
0.906645 0.128695 0.680568
1.000000 0.240940 0.668025
0.202701 0.251438 0.711391
0.248600 0.250706 0.711421
0.364233 0.248356 0.711513
0.505455 0.245121 0.711452
0.654383 0.244816 0.711269
0.801205 0.252506 0.710780
0.905089 0.299901 0.681453
0.999115 0.348760 0.672816
0.237552 0.411749 0.710567
0.281407 0.413489 0.710842
0.393896 0.418585 0.710719
0.524926 0.419684 0.710262
0.664790 0.422522 0.709804
0.802365 0.427314 0.709133
0.902068 0.450355 0.684871
0.995148 0.466651 0.681117
0.283116 0.562219 0.711025
0.320928 0.563317 0.711086
0.426123 0.567407 0.710903
0.554070 0.573632 0.709895
0.675135 0.572259 0.709590
0.801633 0.572137 0.709438
0.900664 0.581872 0.693263
0.991608 0.578515 0.691127
0.336309 0.706905 0.710628
0.368017 0.706905 0.710506
0.458900 0.707057 0.710262
0.573144 0.706294 0.709621
0.684810 0.702876 0.709194
0.795804 0.696284 0.708797
0.896025 0.693172 0.698329
0.986999 0.683864 0.698756
0.398444 0.835264 0.701015
0.423499 0.834226 0.700801
0.498390 0.831113 0.701106
0.595178 0.826474 0.701900
0.696895 0.821988 0.703914
0.796933 0.814389 0.702449
0.890806 0.805051 0.698665
0.985840 0.782895 0.681941
0.468116 0.935027 0.685603
0.486519 0.934417 0.686702
0.540764 0.931914 0.689021
0.617426 0.929198 0.693294
0.705074 0.926329 0.698878
0.796719 0.922576 0.705287
0.886564 0.916594 0.691707
0.976745 0.916350 0.724056
0.215244 0.000000 0.852201
0.256046 0.000000 0.852110
0.363256 0.000000 0.852506
0.497810 0.000000 0.852598
0.641932 0.000000 0.852689
0.786801 0.000000 0.852781
0.924926 0.000000 0.852506
1.000000 0.208011 0.800870
0.212650 0.078889 0.852995
0.254246 0.072633 0.852934
0.363043 0.042786 0.853178
0.498665 0.000000 0.853300
0.643153 0.000000 0.853300
0.787716 0.000000 0.853300
0.925109 0.117281 0.853178
1.000000 0.253391 0.802213
0.216861 0.256291 0.853971
0.259129 0.255894 0.853910
0.368841 0.255314 0.854215
0.504234 0.255009 0.853635
0.648096 0.259556 0.853574
0.790341 0.272465 0.853605
0.924315 0.295811 0.853391
1.000000 0.360235 0.805325
0.259525 0.417762 0.854002
0.302495 0.421607 0.853727
0.398810 0.422827 0.853788
0.524193 0.425116 0.853513
0.659083 0.429114 0.853239
0.793271 0.435920 0.853239
0.920958 0.445655 0.853269
1.000000 0.479438 0.810727
0.299413 0.561486 0.854795
0.333135 0.562646 0.854551
0.427893 0.567254 0.854276
0.545556 0.572747 0.853696
0.667689 0.573205 0.853941
0.792874 0.574060 0.854307
0.915282 0.576043 0.854704
0.996246 0.594720 0.818845
0.353796 0.703059 0.855680
0.381842 0.703700 0.855741
0.462684 0.705287 0.855833
0.566491 0.705776 0.855833
0.674189 0.703120 0.855833
0.785733 0.696986 0.855894
0.905730 0.696407 0.855924
0.990753 0.708492 0.829374
0.409400 0.839445 0.856687
0.431769 0.839292 0.856779
0.498512 0.838407 0.857115
0.588159 0.835904 0.857420
0.687495 0.831754 0.857969
0.790707 0.826139 0.858579
0.894102 0.819211 0.859281
0.983734 0.824216 0.847318
0.471473 0.958984 0.846464
0.488319 0.958312 0.846677
0.540368 0.955779 0.846952
0.616724 0.951385 0.847074
0.706386 0.945830 0.848051
0.802396 0.939696 0.851041
0.896178 0.932677 0.855467
0.974517 0.927459 0.861662
