其他预设/【239】阳光逆光效果预设26款/1.LUT预设（视频调色-PR-AE-PS-FCPX-达芬奇用）/阳光逆光预设__-17.cube
# Created by Adobe Lightroom plugin Export LUT (1.17.0)
# www.johnrellis.com/lightroom/exportlut.htm
# Preset: 阳光逆光预设[素锦印象]-17
# Color profile: /Library/Application Support/Adobe/Color/Profiles/Recommended/AdobeRGB1998.icc
LUT_3D_SIZE 32
0.000000 0.000000 0.000000
0.060090 0.000000 0.000000
0.089113 0.001068 0.000000
0.142794 0.000000 0.000000
0.206058 0.000000 0.000000
0.268528 0.000000 0.000000
0.328222 0.000000 0.000000
0.384039 0.000000 0.000000
0.435615 0.000000 0.000000
0.482979 0.028992 0.000000
0.527611 0.065980 0.000000
0.569848 0.087892 0.000000
0.610163 0.107790 0.000000
0.649195 0.126589 0.000000
0.687190 0.144594 0.000000
0.724178 0.161105 0.000000
0.760037 0.177340 0.000000
0.794095 0.193668 0.000000
0.825742 0.209110 0.000000
0.856229 0.224796 0.000000
0.884459 0.240299 0.000000
0.910674 0.255253 0.000000
0.934569 0.269474 0.000000
0.956023 0.283238 0.000000
0.975219 0.295750 0.000000
0.992645 0.307836 0.000000
1.000000 0.319585 0.000000
1.000000 0.330785 0.000000
1.000000 0.341802 0.000000
1.000000 0.352636 0.006256
1.000000 0.363348 0.053193
1.000000 0.373968 0.075288
0.001282 0.058900 0.000000
0.059480 0.058289 0.000000
0.089265 0.060761 0.000000
0.143221 0.062440 0.000000
0.206058 0.064027 0.000000
0.268070 0.064485 0.000000
0.327825 0.064363 0.000000
0.383429 0.068635 0.000000
0.434821 0.075746 0.000000
0.482307 0.086854 0.000000
0.526909 0.099733 0.000000
0.569085 0.113283 0.000000
0.609461 0.128298 0.000000
0.648524 0.143679 0.000000
0.686519 0.158999 0.000000
0.723476 0.173556 0.000000
0.759304 0.188357 0.000000
0.793454 0.202792 0.000000
0.825132 0.217472 0.000000
0.855528 0.232181 0.000000
0.883818 0.246708 0.000000
0.910002 0.260899 0.000000
0.933959 0.274693 0.000000
0.955474 0.287572 0.000000
0.974731 0.299901 0.000000
0.992187 0.311742 0.000000
1.000000 0.322820 0.000000
1.000000 0.334081 0.000000
1.000000 0.344701 0.000000
1.000000 0.355352 0.005554
1.000000 0.365911 0.051911
1.000000 0.376196 0.074495
0.000824 0.088197 0.000000
0.060426 0.088441 0.000000
0.089631 0.088746 0.000000
0.142855 0.096315 0.000000
0.205905 0.103029 0.000000
0.267826 0.105806 0.000000
0.327092 0.107607 0.000000
0.382483 0.110445 0.000000
0.434028 0.115053 0.000000
0.481514 0.120943 0.000000
0.526055 0.130098 0.000000
0.568261 0.140108 0.000000
0.608698 0.151125 0.000000
0.647822 0.163577 0.000000
0.685786 0.176425 0.000000
0.722774 0.188907 0.000000
0.758633 0.202182 0.000000
0.792752 0.215274 0.000000
0.824613 0.228183 0.000000
0.854948 0.241917 0.000000
0.883238 0.255344 0.000000
0.909514 0.268589 0.000000
0.933440 0.281773 0.000000
0.955047 0.293889 0.000000
0.974365 0.305608 0.000000
0.991852 0.316838 0.000000
1.000000 0.327764 0.000000
1.000000 0.338445 0.000000
1.000000 0.348791 0.000000
1.000000 0.359167 0.005066
1.000000 0.369360 0.052644
1.000000 0.379522 0.074800
0.000000 0.140627 0.000000
0.060090 0.141299 0.000000
0.095247 0.142153 0.000000
0.145937 0.142367 0.000000
0.205478 0.150179 0.000000
0.265415 0.159335 0.000000
0.325841 0.162417 0.000000
0.381262 0.164706 0.000000
0.432502 0.167422 0.000000
0.480049 0.170871 0.000000
0.524620 0.176089 0.000000
0.566918 0.182315 0.000000
0.607233 0.190402 0.000000
0.646326 0.199069 0.000000
0.684413 0.208286 0.000000
0.721492 0.217807 0.000000
0.757382 0.228153 0.000000
0.791592 0.238895 0.000000
0.823545 0.249760 0.000000
0.853819 0.261112 0.000000
0.882139 0.272892 0.000000
0.908446 0.284489 0.000000
0.932525 0.296056 0.000000
0.954223 0.307134 0.000000
0.973663 0.317662 0.000000
0.991272 0.328008 0.000000
1.000000 0.338048 0.000000
1.000000 0.347997 0.000000
1.000000 0.357824 0.000000
1.000000 0.367468 0.005676
1.000000 0.377173 0.053407
1.000000 0.386725 0.074983
0.000000 0.200137 0.000000
0.058717 0.200443 0.000000
0.098909 0.200687 0.000000
0.151980 0.200839 0.000000
0.207279 0.200992 0.000000
0.266239 0.206882 0.000000
0.322789 0.214542 0.000000
0.378241 0.220188 0.000000
0.430304 0.221988 0.000000
0.477699 0.224430 0.000000
0.522271 0.227237 0.000000
0.564599 0.231174 0.000000
0.605035 0.236118 0.000000
0.644221 0.242008 0.000000
0.682399 0.248142 0.000000
0.719539 0.255192 0.000000
0.755612 0.262455 0.000000
0.789883 0.270726 0.000000
0.822202 0.279026 0.000000
0.852506 0.288121 0.000000
0.880827 0.297581 0.000000
0.907195 0.307317 0.000000
0.931365 0.317144 0.000000
0.953185 0.326604 0.000000
0.972686 0.335729 0.000000
0.990417 0.344732 0.000000
1.000000 0.353643 0.000000
1.000000 0.362280 0.000000
1.000000 0.371130 0.000000
1.000000 0.379950 0.008637
1.000000 0.388800 0.055390
1.000000 0.397772 0.075654
0.000000 0.258152 0.000000
0.054078 0.258335 0.000000
0.099886 0.258396 0.000000
0.154879 0.258152 0.000000
0.211368 0.258152 0.000000
0.266972 0.257877 0.000000
0.324041 0.262119 0.000000
0.376745 0.268009 0.000000
0.425666 0.273564 0.000000
0.474617 0.276646 0.000000
0.519524 0.278660 0.000000
0.561913 0.280613 0.000000
0.602380 0.283635 0.000000
0.641688 0.286992 0.000000
0.679988 0.291112 0.000000
0.717250 0.295750 0.000000
0.753445 0.300938 0.000000
0.788022 0.306950 0.000000
0.820432 0.313054 0.000000
0.850858 0.319921 0.000000
0.879301 0.327306 0.000000
0.905852 0.334905 0.000000
0.932464 0.344457 0.000000
0.954070 0.352270 0.000000
0.973388 0.359777 0.000000
0.990936 0.367071 0.000000
1.000000 0.374517 0.000000
1.000000 0.381872 0.000000
1.000000 0.389563 0.000000
1.000000 0.397345 0.022644
1.000000 0.405219 0.063416
1.000000 0.413214 0.080262
0.000000 0.314122 0.000000
0.051148 0.313939 0.000000
0.100832 0.313909 0.000000
0.156680 0.313573 0.000000
0.214084 0.313146 0.000000
0.269810 0.312505 0.000000
0.324010 0.312230 0.000000
0.378241 0.315068 0.000000
0.426795 0.318944 0.000000
0.471992 0.323308 0.000000
0.514916 0.328161 0.000000
0.559503 0.329931 0.000000
0.600153 0.331121 0.000000
0.639460 0.332921 0.000000
0.677852 0.335119 0.000000
0.715114 0.337957 0.000000
0.751308 0.341253 0.000000
0.786526 0.345281 0.000000
0.818997 0.349706 0.000000
0.849607 0.354650 0.000000
0.878355 0.360418 0.000000
0.905180 0.366400 0.000000
0.929717 0.372839 0.000000
0.951843 0.379095 0.000000
0.971557 0.385199 0.000000
0.989349 0.391119 0.000000
1.000000 0.397223 0.000000
1.000000 0.403479 0.000000
1.000000 0.409827 0.000000
1.000000 0.416571 0.027100
1.000000 0.423377 0.064393
1.000000 0.430457 0.081849
0.000000 0.365270 0.000000
0.051331 0.365118 0.000000
0.101289 0.365026 0.000000
0.157382 0.364477 0.000000
0.214664 0.363684 0.000000
0.270359 0.362799 0.000000
0.323980 0.362188 0.000000
0.375952 0.361791 0.000000
0.427222 0.363470 0.000000
0.471962 0.366003 0.000000
0.514244 0.369268 0.000000
0.554406 0.373175 0.000000
0.594873 0.376165 0.000000
0.635859 0.377234 0.000000
0.674372 0.378149 0.000000
0.711727 0.379400 0.000000
0.748501 0.381567 0.000000
0.783688 0.384161 0.000000
0.816190 0.386908 0.000000
0.846921 0.390417 0.000000
0.875792 0.394507 0.000000
0.902770 0.399084 0.000000
0.927489 0.403967 0.000000
0.949767 0.408789 0.000000
0.969665 0.413306 0.000000
0.987610 0.418006 0.000000
1.000000 0.422766 0.000000
1.000000 0.427588 0.000000
1.000000 0.432868 0.000000
1.000000 0.438392 0.030854
1.000000 0.444282 0.066896
1.000000 0.450355 0.083528
0.000000 0.412512 0.000000
0.064546 0.412421 0.000000
0.106325 0.412207 0.000000
0.160159 0.411536 0.000000
0.216159 0.410681 0.000000
0.270512 0.409491 0.000000
0.323247 0.408484 0.000000
0.374243 0.407752 0.000000
0.423438 0.407233 0.000000
0.472175 0.408759 0.000000
0.514397 0.410163 0.000000
0.554314 0.412177 0.000000
0.592523 0.415137 0.000000
0.629694 0.418463 0.000000
0.669337 0.419806 0.000000
0.708461 0.420630 0.000000
0.745296 0.421668 0.000000
0.780484 0.423255 0.000000
0.813046 0.424720 0.000000
0.843992 0.426978 0.000000
0.873014 0.429969 0.000000
0.900175 0.433204 0.000000
0.925048 0.436774 0.000000
0.947509 0.440375 0.000000
0.967559 0.443763 0.000000
0.985687 0.446937 0.000000
1.000000 0.450446 0.000000
1.000000 0.454078 0.000000
1.000000 0.458167 0.000000
1.000000 0.462593 0.037415
1.000000 0.467445 0.069795
1.000000 0.472511 0.085817
0.017487 0.455940 0.000000
0.080049 0.455726 0.000000
0.115175 0.455451 0.000000
0.165103 0.454810 0.000000
0.218296 0.453895 0.000000
0.271031 0.452613 0.000000
0.322789 0.451148 0.000000
0.372717 0.450263 0.000000
0.420905 0.449531 0.000000
0.467414 0.448981 0.000000
0.514183 0.450355 0.000000
0.554192 0.450752 0.000000
0.592401 0.452064 0.000000
0.629389 0.454170 0.000000
0.665919 0.457130 0.000000
0.702174 0.460212 0.000000
0.741024 0.461189 0.000000
0.777035 0.461860 0.000000
0.809751 0.462654 0.000000
0.840848 0.463905 0.000000
0.870054 0.465949 0.000000
0.897276 0.468299 0.000000
0.922301 0.470771 0.000000
0.944884 0.473152 0.000000
0.965087 0.475257 0.000000
0.983368 0.477455 0.000000
1.000000 0.479713 0.000000
1.000000 0.482307 0.000000
1.000000 0.485206 0.000000
1.000000 0.488594 0.045167
1.000000 0.492470 0.072480
1.000000 0.496498 0.088106
0.065522 0.495979 0.000000
0.096315 0.495888 0.000000
0.126558 0.495583 0.000000
0.171206 0.494881 0.000000
0.221653 0.493874 0.000000
0.272465 0.492714 0.000000
0.322667 0.491188 0.000000
0.371313 0.489967 0.000000
0.418494 0.489052 0.000000
0.464332 0.488350 0.000000
0.508751 0.487831 0.000000
0.553979 0.489448 0.000000
0.592676 0.489326 0.000000
0.629908 0.490364 0.000000
0.666102 0.492103 0.000000
0.701411 0.494453 0.000000
0.735622 0.497414 0.000000
0.770687 0.499641 0.000000
0.805447 0.500053 0.000000
0.837156 0.500816 0.000000
0.866545 0.502159 0.000000
0.894011 0.503655 0.000000
0.919280 0.505425 0.000000
0.942107 0.506920 0.000000
0.962493 0.508141 0.000000
0.981018 0.509117 0.000000
0.998077 0.510277 0.000000
1.000000 0.511803 0.000000
1.000000 0.513695 0.001740
1.000000 0.515953 0.053315
1.000000 0.518791 0.076051
1.000000 0.521965 0.091554
0.091890 0.533684 0.000000
0.114717 0.533471 0.000000
0.139467 0.533165 0.000000
0.179599 0.532464 0.000000
0.226627 0.531579 0.000000
0.274876 0.530449 0.000000
0.323217 0.529046 0.000000
0.370642 0.527489 0.000000
0.416632 0.526513 0.000000
0.461555 0.525780 0.000000
0.505364 0.525322 0.000000
0.548333 0.525261 0.000000
0.594659 0.528985 0.000000
0.632502 0.528405 0.000000
0.668727 0.529137 0.000000
0.703792 0.530419 0.000000
0.737881 0.532494 0.000000
0.770413 0.535149 0.000000
0.800931 0.537926 0.000000
0.833494 0.539178 0.000000
0.864469 0.539910 0.000000
0.891997 0.540856 0.000000
0.917266 0.541558 0.000000
0.940063 0.542138 0.000000
0.960540 0.542229 0.000000
0.979095 0.542290 0.000000
0.996277 0.542412 0.000000
1.000000 0.542809 0.000000
1.000000 0.543633 0.020935
1.000000 0.544915 0.063508
1.000000 0.546777 0.082734
1.000000 0.548974 0.096986
0.115755 0.570092 0.000000
0.133242 0.569940 0.000000
0.154086 0.569604 0.000000
0.189425 0.568963 0.000000
0.232883 0.568078 0.000000
0.278447 0.566888 0.000000
0.324956 0.565484 0.000000
0.370642 0.564019 0.000000
0.415656 0.562737 0.000000
0.459724 0.562432 0.000000
0.503014 0.562249 0.000000
0.545495 0.562219 0.000000
0.587335 0.562432 0.000000
0.631006 0.564813 0.000000
0.668299 0.564172 0.000000
0.703426 0.564904 0.000000
0.737423 0.566125 0.000000
0.769680 0.567864 0.000000
0.800015 0.569787 0.000000
0.829221 0.572656 0.000000
0.857603 0.575647 0.000000
0.886870 0.576287 0.000000
0.913451 0.576471 0.000000
0.936553 0.576318 0.000000
0.957305 0.575677 0.000000
0.976074 0.574853 0.000000
0.993500 0.574090 0.000000
1.000000 0.573602 0.000000
1.000000 0.573449 0.033234
1.000000 0.573907 0.069520
1.000000 0.574853 0.086580
1.000000 0.576165 0.100404
0.136355 0.604669 0.000000
0.151522 0.604425 0.000000
0.168765 0.604150 0.000000
0.200259 0.603662 0.000000
0.240024 0.602838 0.000000
0.283238 0.601831 0.000000
0.327520 0.600763 0.000000
0.371496 0.599542 0.000000
0.415137 0.598291 0.000000
0.457954 0.597467 0.000000
0.500237 0.597223 0.000000
0.541924 0.597223 0.000000
0.582971 0.597345 0.000000
0.623713 0.597589 0.000000
0.663966 0.597894 0.000000
0.702937 0.599420 0.000000
0.736873 0.599969 0.000000
0.768978 0.600885 0.000000
0.799161 0.601953 0.000000
0.828214 0.603998 0.000000
0.855711 0.606653 0.000000
0.881712 0.609735 0.000000
0.907530 0.611231 0.000000
0.932189 0.610559 0.000000
0.953918 0.609003 0.000000
0.972961 0.607416 0.000000
0.990631 0.605829 0.000000
1.000000 0.604547 0.000000
1.000000 0.603632 0.049897
1.000000 0.603235 0.075471
1.000000 0.603388 0.091981
1.000000 0.603906 0.104921
0.156985 0.639185 0.000000
0.169192 0.638972 0.000000
0.183658 0.638727 0.000000
0.211978 0.638270 0.000000
0.248631 0.637476 0.000000
0.288884 0.636530 0.000000
0.330724 0.635401 0.000000
0.372961 0.634211 0.000000
0.415015 0.633021 0.000000
0.456794 0.631800 0.000000
0.497871 0.631403 0.000000
0.538781 0.631342 0.000000
0.579126 0.631495 0.000000
0.619226 0.631678 0.000000
0.659022 0.631891 0.000000
0.697993 0.632197 0.000000
0.736263 0.633875 0.000000
0.768215 0.633906 0.000000
0.798428 0.634302 0.000000
0.827268 0.635492 0.000000
0.854673 0.637354 0.000000
0.880522 0.639521 0.000000
0.904540 0.641779 0.000000
0.926635 0.643824 0.000000
0.948882 0.642390 0.000000
0.969238 0.639979 0.000000
0.987610 0.637385 0.000000
1.000000 0.635401 0.016480
1.000000 0.633814 0.063142
1.000000 0.632807 0.082460
1.000000 0.632258 0.097597
1.000000 0.632044 0.110811
0.175387 0.672816 0.000000
0.185855 0.672633 0.000000
0.198795 0.672389 0.000000
0.223758 0.671931 0.000000
0.257206 0.671199 0.000000
0.295079 0.670344 0.000000
0.334722 0.669306 0.000000
0.375128 0.668299 0.000000
0.415839 0.667109 0.000000
0.456275 0.665949 0.000000
0.496284 0.664851 0.000000
0.536309 0.664759 0.000000
0.575799 0.664668 0.000000
0.615259 0.664729 0.000000
0.654322 0.664790 0.000000
0.692958 0.665003 0.000000
0.730556 0.665278 0.000000
0.767330 0.666651 0.000000
0.797574 0.666407 0.000000
0.826535 0.666987 0.000000
0.853819 0.668025 0.000000
0.879545 0.669398 0.000000
0.903471 0.670771 0.000000
0.925444 0.671901 0.000000
0.945403 0.672602 0.046387
0.964355 0.672358 0.071778
0.983490 0.669429 0.067262
1.000000 0.666316 0.061891
1.000000 0.663813 0.073365
1.000000 0.662074 0.090517
1.000000 0.660853 0.104555
1.000000 0.659998 0.116579
0.193484 0.705257 0.000000
0.201999 0.705135 0.000000
0.213840 0.704860 0.000000
0.236118 0.704463 0.000000
0.266697 0.703822 0.000000
0.301854 0.702998 0.000000
0.339239 0.702022 0.000000
0.377844 0.700984 0.000000
0.416938 0.699886 0.000000
0.456123 0.698726 0.000000
0.495277 0.697566 0.000000
0.534081 0.696834 0.000000
0.572869 0.696712 0.000000
0.611475 0.696590 0.000000
0.649989 0.696468 0.000000
0.687770 0.696315 0.000000
0.724910 0.696345 0.000000
0.761074 0.696620 0.000000
0.796567 0.698177 0.000000
0.825559 0.697963 0.000000
0.852842 0.698268 0.000000
0.878416 0.698848 0.000000
0.902251 0.699336 0.000000
0.924102 0.699611 0.008576
0.943999 0.699428 0.063691
0.962310 0.699184 0.087312
0.979492 0.699123 0.106081
0.997009 0.697200 0.111177
1.000000 0.694026 0.108370
1.000000 0.690974 0.102602
1.000000 0.689021 0.111147
1.000000 0.687587 0.122774
0.210513 0.736538 0.000000
0.218448 0.736385 0.000000
0.229435 0.737850 0.000000
0.249699 0.737453 0.000000
0.277745 0.736782 0.000000
0.310094 0.735927 0.000000
0.345373 0.734951 0.000000
0.382055 0.733822 0.000000
0.419745 0.732662 0.000000
0.457710 0.731472 0.000000
0.495552 0.730251 0.000000
0.533318 0.728939 0.000000
0.571283 0.728359 0.000000
0.609216 0.728084 0.000000
0.646998 0.727779 0.000000
0.684230 0.727504 0.000000
0.720912 0.727382 0.000000
0.756588 0.727382 0.000000
0.791104 0.727596 0.000000
0.825040 0.729305 0.000000
0.852476 0.728573 0.000000
0.877928 0.728298 0.000000
0.901640 0.727932 0.000000
0.923217 0.727230 0.034974
0.942901 0.726162 0.075715
0.961059 0.725063 0.097108
0.978149 0.724056 0.114717
0.994476 0.723476 0.129946
1.000000 0.723415 0.143862
1.000000 0.720516 0.141726
1.000000 0.717678 0.136995
1.000000 0.714687 0.129580
0.227726 0.766842 0.000000
0.234409 0.766964 0.000000
0.243809 0.766964 0.000000
0.261814 0.766781 0.000000
0.287419 0.766354 0.000000
0.317632 0.765652 0.000000
0.350835 0.764767 0.000000
0.385931 0.763729 0.000000
0.422004 0.762661 0.000000
0.458503 0.761440 0.000000
0.495399 0.760250 0.000000
0.532280 0.758968 0.000000
0.569238 0.757748 0.000000
0.606439 0.757321 0.000000
0.643549 0.756893 0.000000
0.680262 0.756466 0.000000
0.716365 0.756130 0.000000
0.751583 0.755917 0.000000
0.785702 0.755917 0.000000
0.818570 0.756130 0.000000
0.850980 0.757778 0.000000
0.876799 0.756497 0.000000
0.900420 0.755428 0.001434
0.921996 0.753933 0.056580
0.941588 0.752132 0.084901
0.959747 0.750271 0.105287
0.976837 0.748592 0.122042
0.993133 0.747311 0.137453
1.000000 0.746578 0.151217
1.000000 0.746487 0.164187
1.000000 0.745968 0.171481
1.000000 0.743191 0.167636
0.243473 0.795590 0.000000
0.249943 0.795651 0.000000
0.258061 0.795712 0.000000
0.274296 0.795560 0.000000
0.297826 0.795102 0.000000
0.325902 0.794400 0.000000
0.357214 0.793545 0.000000
0.390387 0.792569 0.000000
0.424903 0.791531 0.000000
0.460243 0.790341 0.000000
0.496101 0.789151 0.000000
0.532128 0.787839 0.000000
0.568170 0.786465 0.000000
0.604456 0.785397 0.000000
0.640894 0.784787 0.000000
0.676905 0.784176 0.000000
0.712398 0.783688 0.000000
0.747097 0.783200 0.000000
0.780728 0.782925 0.000000
0.813230 0.782834 0.000000
0.844450 0.782986 0.000000
0.875273 0.784451 0.000000
0.899290 0.782284 0.050629
0.920745 0.780117 0.075837
0.940337 0.777554 0.094026
0.958465 0.775021 0.112978
0.975494 0.772671 0.129793
0.991791 0.770779 0.144778
1.000000 0.769436 0.158572
1.000000 0.768734 0.171054
1.000000 0.768765 0.183139
1.000000 0.769345 0.195193
0.259190 0.822934 0.000000
0.264744 0.822995 0.000000
0.272099 0.823026 0.000000
0.287083 0.822843 0.000000
0.308537 0.822385 0.000000
0.334722 0.821744 0.000000
0.363928 0.820920 0.000000
0.395331 0.819974 0.000000
0.428565 0.818845 0.000000
0.462593 0.817716 0.000000
0.497200 0.816464 0.000000
0.532341 0.815122 0.000000
0.567468 0.813687 0.000000
0.602930 0.812192 0.000000
0.638544 0.811276 0.000000
0.673976 0.810513 0.000000
0.708888 0.809812 0.000000
0.743069 0.809232 0.000000
0.776272 0.808743 0.000000
0.808347 0.808438 0.000000
0.839200 0.808347 0.000000
0.868894 0.808408 0.025971
0.898100 0.809476 0.066651
0.920012 0.806058 0.093324
0.939513 0.802945 0.108980
0.957610 0.799802 0.123384
0.974640 0.796811 0.138582
0.990906 0.794339 0.153536
1.000000 0.792386 0.167056
1.000000 0.791196 0.179477
1.000000 0.790646 0.191531
1.000000 0.790890 0.203342
0.274968 0.849332 0.000000
0.279789 0.849302 0.000000
0.286442 0.849149 0.000000
0.299870 0.848905 0.000000
0.319677 0.848417 0.000000
0.343877 0.847745 0.000000
0.371374 0.846921 0.000000
0.401251 0.845975 0.000000
0.432807 0.844938 0.000000
0.465644 0.843778 0.000000
0.499245 0.842557 0.000000
0.533410 0.841184 0.000000
0.567742 0.839719 0.000000
0.602319 0.838132 0.000000
0.636835 0.836545 0.000000
0.671595 0.835599 0.000000
0.705715 0.834653 0.000000
0.739254 0.833768 0.000000
0.771817 0.833005 0.000000
0.803220 0.832334 0.000000
0.833524 0.831815 0.022156
0.862608 0.831418 0.063691
0.890623 0.831174 0.083803
0.918181 0.831785 0.100435
0.938231 0.827268 0.122042
0.956298 0.823575 0.135134
0.973327 0.820096 0.147799
0.989685 0.817044 0.160616
1.000000 0.814603 0.174258
1.000000 0.812924 0.186709
1.000000 0.812039 0.198520
1.000000 0.812100 0.210117
0.290105 0.873167 0.000000
0.294377 0.873136 0.000000
0.300359 0.873045 0.000000
0.312749 0.872770 0.000000
0.330816 0.872282 0.000000
0.353185 0.871611 0.000000
0.378912 0.870817 0.000000
0.407111 0.869871 0.000000
0.437385 0.868803 0.000000
0.468788 0.867613 0.000000
0.501122 0.866331 0.000000
0.534142 0.864927 0.000000
0.567498 0.863432 0.000000
0.601282 0.861753 0.000000
0.635004 0.860014 0.000000
0.668666 0.858518 0.000000
0.702083 0.857389 0.000000
0.734859 0.856260 0.000000
0.766781 0.855222 0.000000
0.797635 0.854276 0.031373
0.827329 0.853422 0.066835
0.855955 0.852750 0.084688
0.883513 0.852171 0.100404
0.910094 0.851713 0.114321
0.936217 0.851896 0.126711
0.954894 0.846769 0.146578
0.971923 0.842832 0.158511
0.988312 0.839322 0.169894
1.000000 0.836423 0.180972
1.000000 0.834409 0.193423
1.000000 0.833280 0.205081
1.000000 0.833219 0.216617
0.305241 0.895384 0.000000
0.309026 0.895384 0.000000
0.314641 0.895232 0.000000
0.325902 0.894926 0.000000
0.342260 0.894438 0.000000
0.362921 0.893797 0.000000
0.386999 0.892943 0.000000
0.413519 0.891936 0.000000
0.442176 0.890806 0.000000
0.472236 0.889555 0.000000
0.503349 0.888182 0.000000
0.534997 0.886717 0.000000
0.567376 0.885100 0.000000
0.600153 0.883391 0.000000
0.632929 0.881529 0.000000
0.665583 0.879637 0.000000
0.698116 0.878141 0.000000
0.730068 0.876799 0.008087
0.761288 0.875547 0.048859
0.791531 0.874388 0.070985
0.820706 0.873350 0.087465
0.848844 0.872435 0.101686
0.876005 0.871611 0.114748
0.902251 0.870878 0.127260
0.927489 0.870237 0.139528
0.953033 0.870817 0.150301
0.970672 0.865324 0.168887
0.987060 0.861357 0.180179
1.000000 0.858183 0.190524
1.000000 0.855802 0.200778
1.000000 0.854459 0.211978
1.000000 0.854215 0.223362
0.319432 0.915068 0.000000
0.322881 0.915038 0.000000
0.327764 0.914946 0.000000
0.338018 0.914641 0.000000
0.353216 0.914153 0.000000
0.372381 0.913512 0.000000
0.394903 0.912688 0.000000
0.419898 0.911742 0.000000
0.447028 0.910613 0.000000
0.475776 0.909392 0.001434
0.505394 0.908080 0.004425
0.536126 0.906615 0.007721
0.567498 0.905058 0.012299
0.599176 0.903349 0.016419
0.631067 0.901518 0.024292
0.662867 0.899626 0.029480
0.694362 0.897734 0.041535
0.725673 0.896300 0.065888
0.756191 0.894926 0.080171
0.785885 0.893645 0.093690
0.814542 0.892393 0.105959
0.842252 0.891325 0.117952
0.869017 0.890349 0.129397
0.894865 0.889433 0.140505
0.919829 0.888609 0.151614
0.944060 0.887907 0.162448
0.968627 0.888396 0.172793
0.985870 0.883391 0.189456
1.000000 0.879667 0.200778
1.000000 0.877104 0.210575
1.000000 0.875517 0.220249
1.000000 0.875120 0.230594
0.333318 0.933440 0.067659
0.336767 0.933379 0.067964
0.341009 0.933257 0.067811
0.350408 0.932952 0.068177
0.364172 0.932464 0.068391
0.381964 0.931853 0.068330
0.402777 0.931060 0.068452
0.426368 0.930114 0.069062
0.452125 0.929015 0.069856
0.479347 0.927855 0.071015
0.507866 0.926543 0.071931
0.537407 0.925139 0.073243
0.567620 0.923613 0.074739
0.598474 0.921935 0.076661
0.629389 0.920165 0.078676
0.660273 0.918303 0.080903
0.691005 0.916381 0.083223
0.721401 0.914641 0.089967
0.751339 0.913176 0.100465
0.780392 0.911803 0.111055
0.808591 0.910521 0.121553
0.835874 0.909331 0.132357
0.862272 0.908202 0.142702
0.887785 0.907195 0.153017
0.912474 0.906279 0.163027
0.936461 0.905455 0.173312
0.959747 0.904753 0.183658
0.982727 0.904540 0.193668
1.000000 0.900999 0.208347
1.000000 0.897826 0.219821
1.000000 0.896056 0.229160
1.000000 0.895537 0.238743
0.346807 0.950622 0.096529
0.349828 0.950561 0.096529
0.353826 0.950439 0.096437
0.362249 0.950164 0.096468
0.375250 0.949737 0.096620
0.391577 0.949157 0.097108
0.411200 0.948455 0.097444
0.433417 0.947631 0.098360
0.457801 0.946685 0.099123
0.483864 0.945617 0.100160
0.511162 0.944457 0.101289
0.539696 0.943145 0.102724
0.568902 0.941680 0.103822
0.598688 0.940124 0.105470
0.628809 0.938445 0.106996
0.658869 0.936645 0.108492
0.688777 0.934813 0.110323
0.718288 0.932982 0.112276
0.747585 0.931395 0.120058
0.776089 0.929992 0.129183
0.803738 0.928618 0.138308
0.830625 0.927398 0.147524
0.856657 0.926207 0.157015
0.881834 0.925139 0.166201
0.906310 0.924163 0.175937
0.930114 0.923247 0.185489
0.953307 0.922454 0.195071
0.975769 0.921752 0.204776
0.997436 0.921202 0.214725
1.000000 0.919036 0.227939
1.000000 0.916472 0.239902
1.000000 0.915770 0.249088
0.360632 0.967620 0.120027
0.363317 0.967559 0.120027
0.367010 0.967437 0.120363
0.374701 0.967163 0.120241
0.386572 0.966735 0.120211
0.401801 0.966155 0.120485
0.420050 0.965484 0.120638
0.440772 0.964660 0.121096
0.463783 0.963745 0.121584
0.488624 0.962707 0.122560
0.514702 0.961517 0.123232
0.542046 0.960235 0.124147
0.570245 0.958831 0.125154
0.598993 0.957305 0.126467
0.628107 0.955688 0.127657
0.657343 0.953979 0.129152
