其他预设/【239】阳光逆光效果预设26款/1.LUT预设（视频调色-PR-AE-PS-FCPX-达芬奇用）/阳光逆光预设__-8.cube
# Created by Adobe Lightroom plugin Export LUT (1.17.0)
# www.johnrellis.com/lightroom/exportlut.htm
# Preset: 阳光逆光预设[素锦印象]-8
# Color profile: /Library/Application Support/Adobe/Color/Profiles/Recommended/AdobeRGB1998.icc
LUT_3D_SIZE 8
DOMAIN_MIN 0.000000 0.000000 0.000000
DOMAIN_MAX 0.903226 0.903226 0.903226
0.186404 0.162448 0.156893
0.212528 0.159274 0.156252
0.329808 0.149508 0.150973
0.485512 0.121859 0.138979
0.651881 0.076478 0.127260
0.830228 0.000000 0.107729
0.969696 0.000000 0.086275
1.000000 0.000000 0.079225
0.183078 0.188235 0.154574
0.214755 0.188724 0.153384
0.324987 0.193668 0.147158
0.487343 0.185489 0.135958
0.653529 0.168765 0.124971
0.829953 0.144717 0.103639
0.968566 0.124575 0.081514
1.000000 0.122744 0.076173
0.167544 0.296300 0.143587
0.213077 0.296269 0.143343
0.330388 0.293950 0.137819
0.472938 0.306432 0.147829
0.648737 0.321294 0.139101
0.834287 0.321294 0.102571
0.973175 0.309636 0.065583
1.000000 0.297124 0.071015
0.152743 0.434150 0.134676
0.206546 0.433509 0.134066
0.326604 0.431922 0.132204
0.473640 0.424567 0.116213
0.637293 0.440803 0.120729
0.820676 0.495521 0.182895
0.963287 0.492500 0.161105
1.000000 0.471809 0.151705
0.116487 0.586847 0.111910
0.187106 0.586664 0.111055
0.324193 0.586664 0.107637
0.476387 0.585199 0.091432
0.629236 0.571252 0.018585
0.798917 0.588098 0.000000
0.947936 0.630304 0.186038
1.000000 0.642359 0.262974
0.000000 0.757107 0.059632
0.154055 0.758328 0.057771
0.317601 0.757656 0.048096
0.477668 0.756741 0.027131
0.638300 0.749996 0.000000
0.791287 0.735134 0.000000
0.931060 0.726711 0.000000
1.000000 0.740597 0.195499
0.000000 0.902434 0.000977
0.142855 0.902190 0.000610
0.309300 0.900267 0.000000
0.467018 0.897368 0.000000
0.618769 0.893217 0.000000
0.770626 0.883970 0.000000
0.913542 0.871031 0.000000
1.000000 0.839567 0.000000
0.122164 1.000000 0.098848
0.187869 1.000000 0.099367
0.317632 1.000000 0.100984
0.457954 1.000000 0.104982
0.595972 0.994720 0.107179
0.732021 0.988800 0.082734
0.866667 0.981018 0.000000
0.995239 0.970642 0.000000
0.185397 0.161746 0.180728
0.215061 0.155245 0.181247
0.329046 0.134432 0.183749
0.482368 0.077882 0.172946
0.647547 0.000000 0.165866
0.825071 0.000000 0.152987
0.966308 0.000000 0.141024
1.000000 0.000000 0.139498
0.178042 0.189181 0.181369
0.216709 0.188846 0.181125
0.332341 0.181949 0.178592
0.484840 0.166781 0.173434
0.650202 0.141756 0.165225
0.826261 0.101839 0.151308
0.965728 0.074647 0.139651
1.000000 0.094179 0.138827
0.179355 0.295232 0.187045
0.212406 0.297520 0.178225
0.332769 0.294957 0.172641
0.474342 0.309270 0.190677
0.651148 0.313634 0.176394
0.833616 0.307897 0.150820
0.969055 0.298558 0.138857
1.000000 0.290959 0.142092
0.176577 0.432288 0.188724
0.201633 0.433875 0.170809
0.326329 0.432349 0.169528
0.473304 0.423529 0.154726
0.635065 0.439551 0.170901
0.817685 0.490547 0.216251
0.960815 0.487098 0.197360
1.000000 0.467445 0.187198
0.171756 0.584985 0.187320
0.184756 0.586633 0.158816
0.323888 0.585870 0.157443
0.475105 0.583642 0.148592
0.627741 0.569268 0.117586
0.798245 0.587579 0.119203
0.946838 0.631678 0.226322
1.000000 0.640589 0.282780
0.132540 0.754360 0.168154
0.156100 0.755764 0.136934
0.318120 0.755184 0.134890
0.477821 0.754665 0.131746
0.637659 0.748989 0.096590
0.791226 0.734615 0.000000
0.931487 0.727108 0.000000
1.000000 0.741665 0.231693
0.111788 0.899626 0.153109
0.145846 0.899962 0.123720
0.310124 0.898344 0.122560
0.467414 0.895964 0.121370
0.619226 0.892241 0.119997
0.770138 0.883085 0.000000
0.912688 0.869749 0.000000
1.000000 0.838712 0.000000
0.168521 1.000000 0.168490
0.195193 1.000000 0.151461
0.321538 1.000000 0.152529
0.460487 0.999847 0.155093
0.598871 0.995148 0.158663
0.733394 0.988922 0.145907
0.866880 0.980774 0.000000
0.995056 0.970214 0.000000
0.192447 0.155215 0.274388
0.228458 0.146273 0.275303
0.335393 0.132998 0.276738
0.482277 0.078431 0.283391
0.644373 0.000000 0.277317
0.820401 0.000000 0.266667
0.964843 0.000000 0.252842
1.000000 0.000000 0.253727
0.177951 0.187350 0.275608
0.221103 0.182895 0.276219
0.337041 0.174319 0.276860
0.483345 0.143343 0.278691
0.645319 0.042512 0.271366
0.822568 0.000000 0.255161
0.964538 0.000000 0.253788
1.000000 0.000000 0.254459
0.179141 0.297642 0.275975
0.217044 0.297856 0.276158
0.341680 0.296880 0.275090
0.488777 0.289220 0.271885
0.656245 0.280156 0.268772
0.830503 0.269261 0.263249
0.966674 0.266514 0.259251
1.000000 0.273655 0.259281
0.182773 0.433448 0.280400
0.227085 0.433814 0.278904
0.340032 0.434150 0.272801
0.481575 0.427222 0.262760
0.646967 0.455024 0.290990
0.828733 0.478706 0.292241
0.966003 0.470497 0.279881
1.000000 0.452033 0.269841
0.189609 0.585016 0.285191
0.237644 0.585473 0.284428
0.333928 0.588556 0.266270
0.482582 0.588281 0.264714
0.635462 0.574090 0.242466
0.807645 0.596521 0.257176
0.949584 0.643885 0.331395
1.000000 0.637018 0.343938
0.196231 0.753445 0.289433
0.241978 0.753841 0.287022
0.319768 0.756893 0.252384
0.480568 0.755673 0.250309
0.639460 0.750851 0.237644
0.793729 0.735531 0.205814
0.935454 0.730831 0.211521
1.000000 0.750027 0.333593
0.223697 0.897826 0.291722
0.263218 0.897490 0.289220
0.314214 0.899168 0.243778
0.470924 0.896239 0.242832
0.622522 0.892241 0.241703
0.771298 0.883757 0.211612
0.914366 0.870573 0.167269
1.000000 0.840757 0.172091
0.289982 1.000000 0.307103
0.316777 1.000000 0.305333
0.337926 1.000000 0.257664
0.471809 0.999115 0.259861
0.606806 0.994354 0.262150
0.738338 0.988434 0.260624
0.868376 0.980621 0.208164
0.995789 0.970275 0.153750
0.207095 0.142123 0.384802
0.246464 0.137301 0.385534
0.351720 0.119417 0.386877
0.484718 0.073152 0.388556
0.645258 0.000000 0.402319
0.817807 0.000000 0.407233
0.958526 0.000000 0.395575
1.000000 0.000000 0.377996
0.193484 0.178958 0.386328
0.236820 0.175326 0.386694
0.348272 0.162844 0.387610
0.486091 0.143709 0.388800
0.646235 0.108370 0.401709
0.818326 0.000000 0.403967
0.958556 0.000000 0.391180
1.000000 0.000000 0.374487
0.171633 0.290227 0.385595
0.209720 0.285191 0.386114
0.339544 0.281041 0.387304
0.489448 0.284398 0.387610
0.651179 0.266026 0.395911
0.823789 0.214206 0.390539
0.962280 0.174319 0.375525
1.000000 0.195926 0.363592
0.185733 0.430823 0.386053
0.231876 0.430976 0.386145
0.350988 0.431220 0.385962
0.495064 0.431128 0.384985
0.662745 0.425818 0.382635
0.833646 0.421942 0.380163
0.965118 0.423499 0.379126
1.000000 0.429297 0.379889
0.213382 0.586511 0.397070
0.255894 0.586572 0.396521
0.362829 0.587884 0.393988
0.490394 0.591669 0.380011
0.648005 0.580957 0.365484
0.822782 0.615930 0.403021
0.955138 0.641444 0.434089
1.000000 0.626581 0.428779
0.215030 0.755123 0.405798
0.256779 0.756435 0.404761
0.362890 0.757076 0.398016
0.482033 0.759915 0.371679
0.645075 0.757259 0.369665
0.800931 0.739773 0.338689
0.940856 0.739528 0.365362
1.000000 0.777310 0.491157
0.239506 0.897642 0.404425
0.276677 0.897612 0.402960
0.377813 0.896971 0.397925
0.482460 0.897490 0.370306
0.632746 0.893217 0.370550
0.775875 0.885740 0.353918
0.917113 0.871427 0.315251
1.000000 0.844205 0.327825
0.306188 1.000000 0.407019
0.335637 1.000000 0.407385
0.424598 0.997711 0.410468
0.504997 0.996826 0.387732
0.629877 0.992126 0.390387
0.753872 0.986542 0.394903
0.873106 0.979828 0.355169
0.996857 0.970031 0.310521
0.235813 0.129335 0.511192
0.272068 0.123354 0.511894
0.372045 0.095277 0.513725
0.505058 0.000000 0.516869
0.650141 0.000000 0.520989
0.817594 0.000000 0.542535
0.953765 0.000000 0.537865
1.000000 0.000000 0.514031
0.220645 0.168307 0.512535
0.260075 0.163638 0.513329
0.365972 0.146426 0.514946
0.503929 0.117800 0.517357
0.650904 0.086152 0.521050
0.818143 0.000000 0.541863
0.954070 0.000000 0.535821
1.000000 0.000000 0.512230
0.174044 0.277623 0.513817
0.221164 0.273259 0.514824
0.350774 0.269841 0.515984
0.502007 0.267430 0.518120
0.653407 0.261143 0.521050
0.819211 0.236118 0.538262
0.954742 0.206485 0.527977
1.000000 0.220462 0.506096
0.177707 0.427863 0.514366
0.223484 0.426520 0.514611
0.333745 0.419745 0.515618
0.488258 0.410681 0.519310
0.658869 0.413672 0.521813
0.824033 0.401434 0.529229
0.956390 0.387488 0.514702
1.000000 0.399390 0.500725
0.207706 0.583734 0.518425
0.249332 0.584100 0.518669
0.356176 0.584894 0.519127
0.495064 0.586419 0.519829
0.664149 0.588037 0.519402
0.831754 0.589990 0.521508
0.956634 0.596460 0.525689
1.000000 0.603479 0.529290
0.231907 0.753750 0.536126
0.269505 0.754055 0.535424
0.370367 0.754635 0.532158
0.507256 0.755306 0.526543
0.657832 0.755123 0.515801
0.809110 0.743069 0.493599
0.940948 0.769100 0.564202
1.000000 0.796689 0.621515
0.255711 0.896666 0.533013
0.290166 0.896391 0.531945
0.387945 0.895354 0.528618
0.525689 0.892699 0.527428
0.660548 0.889860 0.521050
0.791684 0.885435 0.520897
0.919738 0.871214 0.473793
1.000000 0.856413 0.518425
0.322972 0.998718 0.523430
0.351110 0.998077 0.523583
0.438209 0.995575 0.526085
0.565545 0.990997 0.538079
0.676143 0.986633 0.539239
0.783108 0.981933 0.543420
0.885405 0.976928 0.521721
0.997375 0.968719 0.472541
0.259831 0.101320 0.671229
0.294499 0.090700 0.671717
0.391699 0.001709 0.672816
0.522515 0.000000 0.675685
0.668818 0.000000 0.679255
0.813626 0.000000 0.683009
0.948486 0.000000 0.684504
1.000000 0.000000 0.659297
0.242741 0.148745 0.671077
0.280247 0.142733 0.671382
0.383429 0.118776 0.672755
0.519188 0.066133 0.675349
0.667994 0.000000 0.678614
0.813443 0.000000 0.682551
0.948180 0.000000 0.683589
1.000000 0.024689 0.658198
0.184146 0.264256 0.673518
0.237247 0.262699 0.673762
0.363073 0.257481 0.674769
0.511345 0.248783 0.676905
0.666102 0.238743 0.679835
0.815122 0.223087 0.683589
0.948211 0.222110 0.681483
1.000000 0.259220 0.655665
0.148531 0.420813 0.672541
0.201633 0.417334 0.673060
0.322667 0.404547 0.675807
0.487465 0.395178 0.679561
0.659724 0.394903 0.682582
0.818631 0.395789 0.686000
0.947448 0.409918 0.679927
1.000000 0.429145 0.655177
0.165255 0.581659 0.675441
0.212161 0.580407 0.675685
0.323827 0.575250 0.676448
0.461830 0.563531 0.677821
0.644800 0.560204 0.681147
0.819364 0.576104 0.684260
0.943053 0.588434 0.678523
1.000000 0.597467 0.661921
0.193881 0.744167 0.679866
0.236912 0.744656 0.680385
0.346624 0.745327 0.680842
0.492134 0.746334 0.681422
0.659632 0.748135 0.681666
0.821195 0.753140 0.683314
0.940948 0.762387 0.692042
1.000000 0.770108 0.698268
0.252842 0.897551 0.683345
0.290288 0.897307 0.682948
0.396338 0.895476 0.681361
0.536614 0.891936 0.679866
0.687312 0.886442 0.682155
0.817624 0.882353 0.686915
0.921935 0.872801 0.660426
1.000000 0.889342 0.734463
0.342412 0.997070 0.659510
0.369879 0.996338 0.659663
0.455665 0.993622 0.661219
0.577508 0.988678 0.667567
0.712337 0.981201 0.684504
0.820432 0.975708 0.697749
0.904845 0.972839 0.698451
0.995392 0.967102 0.652979
0.262242 0.058656 0.826474
0.295354 0.019165 0.827146
0.389044 0.000000 0.827726
0.514549 0.000000 0.829038
0.654017 0.000000 0.830503
0.794308 0.000000 0.832212
0.928099 0.000000 0.834348
1.000000 0.000000 0.808499
0.246403 0.125826 0.825162
0.282322 0.118959 0.825742
0.381170 0.091341 0.826474
0.510796 0.000000 0.827451
0.651972 0.000000 0.828733
0.792752 0.000000 0.830259
0.926696 0.000000 0.832242
1.000000 0.000000 0.806485
0.200778 0.253117 0.826932
0.247440 0.251377 0.827024
0.362585 0.245640 0.827237
0.501671 0.236088 0.828061
0.647181 0.224277 0.829007
0.791531 0.215885 0.830716
0.927337 0.212161 0.833341
1.000000 0.259342 0.806577
0.127596 0.398627 0.827512
0.185580 0.394568 0.827604
0.316991 0.384283 0.828214
0.478248 0.380560 0.829191
0.636530 0.378119 0.830167
0.789914 0.384558 0.832029
0.927855 0.396368 0.834562
1.000000 0.434913 0.807370
0.103029 0.555413 0.825345
0.166812 0.552911 0.825040
0.289677 0.543908 0.824857
0.442359 0.531731 0.826688
0.621912 0.535180 0.828092
0.787350 0.553002 0.829221
0.925231 0.575891 0.831449
1.000000 0.610315 0.812070
0.143648 0.712276 0.827024
0.195560 0.711513 0.827054
0.313176 0.708858 0.827146
0.457343 0.705287 0.827298
0.620661 0.705104 0.826444
0.794766 0.725704 0.827420
0.923644 0.748318 0.831022
1.000000 0.764736 0.823178
0.202914 0.869017 0.830167
0.245304 0.869230 0.830442
0.357000 0.869474 0.830472
0.503349 0.870024 0.830442
0.665064 0.870909 0.829709
0.810697 0.873716 0.829526
0.922606 0.879789 0.832212
0.998688 0.889189 0.842130
0.315953 0.996460 0.815000
0.348608 0.995636 0.814755
0.446815 0.992950 0.815091
0.580499 0.986969 0.816587
0.718105 0.978943 0.821836
0.832731 0.972381 0.830228
0.919402 0.969268 0.838437
0.989105 0.965850 0.816526
0.244144 0.000000 0.955810
0.276402 0.000000 0.956054
0.366644 0.000000 0.955932
0.486336 0.000000 0.956390
0.617945 0.000000 0.956695
0.751308 0.000000 0.956970
0.878630 0.000000 0.957580
0.998230 0.000000 0.958007
0.231540 0.108553 0.955291
0.266239 0.102541 0.955505
0.361089 0.079438 0.955535
0.484047 0.000610 0.955749
0.616785 0.000000 0.956054
0.750454 0.000000 0.956329
0.878019 0.000000 0.956786
0.997681 0.000000 0.957214
0.201999 0.242741 0.955016
0.243198 0.241672 0.955108
0.348211 0.236942 0.954803
0.477272 0.230503 0.955596
0.612573 0.222477 0.955688
0.747860 0.218479 0.955688
0.877073 0.226017 0.956115
0.996826 0.249363 0.956603
0.122713 0.373510 0.955047
0.188357 0.373083 0.955200
0.317967 0.370733 0.955047
0.460151 0.368200 0.955291
0.603662 0.367071 0.955444
0.744350 0.372198 0.955413
0.876921 0.390539 0.955474
0.995178 0.418067 0.955779
0.031861 0.519768 0.953429
0.143771 0.518059 0.953704
0.282689 0.512169 0.953887
0.437324 0.508751 0.954162
0.596765 0.515465 0.953735
0.745541 0.531090 0.953185
0.880339 0.561364 0.952789
0.991791 0.593347 0.953399
0.093294 0.667048 0.952636
0.159304 0.665949 0.952453
0.284123 0.662348 0.952087
0.427344 0.658534 0.951568
0.601740 0.669886 0.950500
0.765042 0.700008 0.949767
0.889738 0.728206 0.950378
0.987854 0.754940 0.951934
0.181460 0.813535 0.952850
0.224002 0.813321 0.952697
0.333074 0.812924 0.952270
0.475257 0.814542 0.951629
0.632959 0.822110 0.950164
0.777157 0.836210 0.948272
0.899413 0.860197 0.948302
0.983581 0.877592 0.950072
0.280858 0.956451 0.953460
0.312932 0.956420 0.953307
0.407843 0.956390 0.952941
0.542138 0.956756 0.952392
0.684993 0.957763 0.951476
0.810544 0.959869 0.950591
0.909331 0.963134 0.950317
0.981231 0.967681 0.951812
