其他预设/【239】阳光逆光效果预设26款/1.LUT预设（视频调色-PR-AE-PS-FCPX-达芬奇用）/阳光逆光预设__-12.cube
# Created by Adobe Lightroom plugin Export LUT (1.17.0)
# www.johnrellis.com/lightroom/exportlut.htm
# Preset: 阳光逆光预设[素锦印象]-12
# Color profile: /Library/Application Support/Adobe/Color/Profiles/Recommended/AdobeRGB1998.icc
LUT_3D_SIZE 32
0.000000 0.000000 0.000000
0.000000 0.000000 0.000000
0.000000 0.000000 0.000000
0.044617 0.000000 0.000000
0.096895 0.000000 0.000000
0.136568 0.000000 0.000000
0.176638 0.000000 0.000000
0.216770 0.000000 0.000000
0.257542 0.000000 0.000000
0.298375 0.000000 0.000000
0.340185 0.000000 0.000000
0.382300 0.000000 0.000000
0.424598 0.000000 0.000000
0.467445 0.000000 0.000000
0.510307 0.000000 0.000000
0.553307 0.000000 0.000000
0.597284 0.000000 0.000000
0.640040 0.000000 0.000000
0.680232 0.000000 0.000000
0.719478 0.000000 0.000000
0.757839 0.000000 0.000000
0.794614 0.005585 0.000000
0.829770 0.032685 0.000000
0.863340 0.062593 0.000000
0.895354 0.079347 0.000000
0.925780 0.096864 0.000000
0.954589 0.114626 0.025055
0.981811 0.132998 0.072969
1.000000 0.152071 0.099092
1.000000 0.172396 0.123812
1.000000 0.194278 0.148440
1.000000 0.217502 0.173526
0.000000 0.000000 0.000000
0.000000 0.000000 0.000000
0.000000 0.000000 0.000000
0.043305 0.003449 0.000000
0.096223 0.008179 0.000000
0.136233 0.009491 0.000000
0.176455 0.012024 0.000000
0.216831 0.014832 0.000000
0.257511 0.010803 0.000000
0.298650 0.005615 0.000000
0.340490 0.000000 0.000000
0.382544 0.000000 0.000000
0.424903 0.002960 0.000000
0.467689 0.007630 0.000000
0.510613 0.008545 0.000000
0.553582 0.006653 0.000000
0.597436 0.006958 0.000000
0.640040 0.006836 0.000000
0.680110 0.011383 0.000000
0.719234 0.019867 0.000000
0.757534 0.032990 0.000000
0.794339 0.050294 0.000000
0.829404 0.066133 0.000000
0.862974 0.078187 0.000000
0.895018 0.092287 0.000000
0.925444 0.107118 0.000000
0.954284 0.122744 0.028473
0.981506 0.140230 0.074372
1.000000 0.158083 0.100343
1.000000 0.177584 0.124758
1.000000 0.198642 0.148898
1.000000 0.221317 0.174166
0.000000 0.000000 0.000000
0.000000 0.000000 0.000000
0.000000 0.000000 0.000000
0.043000 0.015259 0.000000
0.095399 0.033448 0.000000
0.135683 0.044160 0.000000
0.176272 0.050904 0.000000
0.216800 0.053773 0.000000
0.257725 0.054749 0.000000
0.298985 0.050538 0.000000
0.340826 0.047669 0.000000
0.383001 0.053468 0.000000
0.425422 0.058015 0.000000
0.468360 0.060792 0.000000
0.511101 0.062287 0.000000
0.554162 0.061250 0.000000
0.598138 0.061799 0.000000
0.640467 0.062379 0.000000
0.680507 0.063722 0.000000
0.719478 0.067659 0.000000
0.757778 0.071809 0.000000
0.794461 0.077943 0.000000
0.829496 0.085939 0.000000
0.863035 0.095247 0.000000
0.895018 0.106783 0.000000
0.925414 0.119417 0.000000
0.954192 0.133608 0.035157
0.981415 0.149294 0.076570
1.000000 0.166171 0.101839
1.000000 0.184695 0.126101
1.000000 0.204593 0.150332
1.000000 0.226566 0.175357
0.000000 0.046906 0.000000
0.000000 0.048768 0.000000
0.015290 0.051270 0.000000
0.058228 0.056977 0.000000
0.097230 0.069917 0.000000
0.134981 0.077455 0.000000
0.176028 0.083467 0.000000
0.217411 0.086976 0.000000
0.258549 0.088685 0.000000
0.300084 0.089357 0.000000
0.341833 0.092683 0.000000
0.384192 0.095644 0.000000
0.426795 0.098146 0.000000
0.469703 0.099977 0.000000
0.512657 0.100404 0.000000
0.555749 0.100923 0.000000
0.599725 0.101808 0.000000
0.641779 0.102602 0.000000
0.681514 0.103883 0.000000
0.720272 0.106142 0.000000
0.758358 0.108644 0.000000
0.794888 0.112245 0.000000
0.829862 0.117861 0.000000
0.863340 0.124483 0.000000
0.895293 0.132753 0.000000
0.925689 0.142672 0.000000
0.954437 0.154086 0.048615
0.981628 0.167727 0.081697
1.000000 0.182742 0.106050
1.000000 0.199100 0.129458
1.000000 0.217563 0.153384
1.000000 0.238041 0.178042
0.000000 0.093996 0.000000
0.000000 0.094179 0.000000
0.020661 0.094240 0.000000
0.066499 0.094911 0.000000
0.098756 0.096864 0.000000
0.139925 0.107729 0.000000
0.177462 0.113436 0.000000
0.217929 0.118898 0.000000
0.259464 0.123751 0.000000
0.301244 0.127962 0.000000
0.343389 0.131380 0.000000
0.386084 0.134340 0.000000
0.428931 0.136263 0.000000
0.472053 0.138064 0.000000
0.515099 0.139376 0.000000
0.558648 0.140352 0.000000
0.602411 0.141482 0.000000
0.644099 0.142611 0.000000
0.683650 0.143526 0.000000
0.722255 0.144930 0.000000
0.759945 0.146944 0.000000
0.796231 0.149813 0.000000
0.830930 0.153475 0.000000
0.864225 0.158389 0.000000
0.895964 0.164736 0.000000
0.926238 0.172244 0.010895
0.954772 0.181735 0.063355
0.981781 0.192508 0.088716
1.000000 0.205325 0.111757
1.000000 0.219852 0.134890
1.000000 0.236179 0.158022
1.000000 0.254826 0.182589
0.000000 0.131960 0.000000
0.000000 0.131930 0.000000
0.008759 0.131594 0.000000
0.064790 0.131472 0.000000
0.102632 0.133333 0.000000
0.139071 0.135653 0.000000
0.184390 0.147463 0.000000
0.221744 0.152987 0.000000
0.260410 0.159579 0.000000
0.303044 0.164431 0.000000
0.345861 0.168460 0.000000
0.388983 0.171756 0.000000
0.432074 0.174136 0.000000
0.475441 0.176120 0.000000
0.518547 0.177890 0.000000
0.562676 0.179477 0.000000
0.606134 0.180911 0.000000
0.647456 0.181949 0.000000
0.686641 0.182864 0.000000
0.725063 0.183932 0.000000
0.762448 0.185550 0.000000
0.798428 0.187503 0.000000
0.836515 0.191775 0.000000
0.869169 0.195651 0.000000
0.900298 0.200687 0.000000
0.929870 0.206516 0.049561
0.957824 0.214237 0.078492
0.984283 0.223148 0.100710
1.000000 0.233890 0.122255
1.000000 0.246342 0.143984
1.000000 0.260807 0.166659
1.000000 0.277470 0.190524
0.000000 0.170779 0.000000
0.000000 0.170535 0.000000
0.000000 0.170321 0.000000
0.061006 0.169955 0.000000
0.101411 0.170291 0.000000
0.141299 0.172732 0.000000
0.181186 0.175723 0.000000
0.229618 0.188663 0.000000
0.267674 0.193698 0.000000
0.307622 0.199710 0.000000
0.349859 0.205539 0.000000
0.393469 0.209445 0.000000
0.437018 0.212558 0.000000
0.480598 0.215030 0.000000
0.524773 0.217380 0.000000
0.568811 0.219303 0.000000
0.611872 0.220859 0.000000
0.652857 0.221744 0.000000
0.691707 0.222416 0.000000
0.729824 0.223331 0.000000
0.766995 0.224765 0.000000
0.802762 0.226383 0.000000
0.837034 0.228733 0.000000
0.869810 0.231754 0.000000
0.900969 0.235721 0.036133
0.930449 0.240421 0.069795
0.958221 0.246769 0.090883
0.984436 0.254124 0.111177
1.000000 0.263035 0.131533
1.000000 0.273930 0.152529
1.000000 0.286595 0.174441
1.000000 0.301488 0.197787
0.000000 0.208957 0.000000
0.000000 0.208682 0.000000
0.000000 0.208499 0.000000
0.045167 0.207950 0.000000
0.097292 0.207126 0.000000
0.140383 0.208743 0.000000
0.181918 0.211643 0.000000
0.223178 0.215213 0.000000
0.275059 0.229557 0.000000
0.314244 0.234348 0.000000
0.355413 0.239994 0.000000
0.397711 0.246464 0.000000
0.441505 0.250950 0.000000
0.486122 0.254276 0.000000
0.530510 0.257084 0.000000
0.574243 0.259068 0.000000
0.616938 0.260655 0.000000
0.657343 0.261540 0.000000
0.695827 0.261967 0.000000
0.733486 0.262730 0.000000
0.770108 0.263615 0.000000
0.805417 0.264836 0.000000
0.839170 0.266667 0.002136
0.871519 0.268864 0.038911
0.902251 0.271794 0.067689
0.931334 0.275853 0.086580
0.958770 0.280766 0.104738
0.984741 0.286839 0.123079
1.000000 0.294469 0.142367
1.000000 0.303685 0.162356
1.000000 0.314885 0.183902
1.000000 0.328130 0.206851
0.000000 0.246769 0.000000
0.000000 0.246525 0.000000
0.000000 0.246281 0.000000
0.039857 0.245640 0.000000
0.099062 0.244785 0.000000
0.138857 0.244358 0.000000
0.181552 0.247471 0.000000
0.223514 0.251072 0.000000
0.266453 0.255161 0.000000
0.322057 0.271275 0.000000
0.362554 0.275975 0.000000
0.404425 0.281193 0.000000
0.448127 0.287968 0.000000
0.492714 0.294408 0.010529
0.536858 0.297551 0.001038
0.580591 0.299870 0.000000
0.622889 0.301274 0.000000
0.662867 0.302037 0.000000
0.700771 0.302129 0.000000
0.738033 0.302556 0.000000
0.774044 0.303136 0.010346
0.808713 0.303746 0.031647
0.841917 0.304906 0.057099
0.873686 0.306676 0.072969
0.903929 0.308965 0.087953
0.932525 0.311864 0.103670
0.959594 0.315801 0.119600
0.985168 0.320836 0.136599
1.000000 0.327214 0.154757
1.000000 0.335180 0.174044
1.000000 0.344915 0.194827
1.000000 0.356695 0.217258
0.000000 0.284520 0.000000
0.000000 0.284367 0.000000
0.000000 0.284062 0.000000
0.032837 0.283482 0.000000
0.099031 0.282689 0.000000
0.139162 0.281468 0.000000
0.180179 0.282994 0.000000
0.222904 0.286687 0.000000
0.266209 0.291020 0.000000
0.310918 0.295689 0.000000
0.370794 0.313787 0.000000
0.412573 0.318456 0.000000
0.455573 0.323919 0.000000
0.499336 0.329961 0.000000
0.543664 0.336553 0.038025
0.587732 0.341039 0.059052
0.629694 0.342565 0.053285
0.669215 0.343023 0.051881
0.706722 0.342962 0.054566
0.743282 0.342870 0.060304
0.778592 0.343023 0.066041
0.812467 0.343328 0.074495
0.844938 0.343755 0.083925
0.876005 0.344732 0.094881
0.905669 0.346319 0.107546
0.933745 0.348486 0.121096
0.960357 0.351568 0.135531
0.985565 0.355627 0.151369
1.000000 0.361028 0.168551
1.000000 0.367895 0.187076
1.000000 0.376440 0.207309
1.000000 0.386969 0.229343
0.000000 0.322484 0.000000
0.000000 0.322362 0.000000
0.000000 0.322087 0.000000
0.016327 0.321538 0.000000
0.096925 0.320592 0.000000
0.139223 0.319524 0.000000
0.177371 0.318395 0.000000
0.221195 0.322210 0.000000
0.265293 0.326757 0.000000
0.310796 0.331975 0.000000
0.357671 0.337560 0.000000
0.421180 0.357244 0.000000
0.463508 0.361547 0.000000
0.506706 0.366522 0.000000
0.550500 0.372198 0.000000
0.594293 0.378271 0.057832
0.636622 0.383917 0.086519
0.675685 0.384527 0.087068
0.712703 0.384100 0.087373
0.748653 0.383642 0.089601
0.783261 0.383276 0.093874
0.816464 0.382879 0.099550
0.848295 0.383032 0.107332
0.878721 0.383429 0.116670
0.907774 0.384314 0.127474
0.935302 0.385687 0.139223
0.961334 0.387976 0.152743
0.986084 0.391241 0.167483
1.000000 0.395666 0.183780
1.000000 0.401465 0.201633
1.000000 0.408911 0.221225
1.000000 0.418311 0.242802
0.000000 0.360723 0.000000
0.000000 0.360571 0.000000
0.000000 0.360266 0.000000
0.000000 0.359686 0.000000
0.093324 0.358953 0.000000
0.138582 0.357794 0.000000
0.178134 0.356725 0.000000
0.218936 0.357977 0.000000
0.264012 0.362615 0.000000
0.309545 0.367864 0.000000
0.356390 0.373419 0.000000
0.405005 0.379431 0.000000
0.475349 0.403449 0.000000
0.518242 0.407477 0.000000
0.561547 0.411994 0.000000
0.604578 0.416815 0.005982
0.645930 0.421241 0.071382
0.685237 0.425299 0.099886
0.722286 0.427619 0.116091
0.757321 0.426612 0.117403
0.790829 0.425513 0.120394
0.822995 0.424567 0.125429
0.853758 0.423774 0.131594
0.883268 0.423407 0.139406
0.911406 0.423529 0.148928
0.938109 0.424231 0.159823
0.963439 0.425727 0.172213
0.987488 0.428107 0.186069
1.000000 0.431617 0.201419
1.000000 0.436500 0.218509
1.000000 0.442969 0.237552
1.000000 0.451179 0.258457
0.000000 0.400336 0.000000
0.000000 0.400214 0.000000
0.000000 0.399969 0.000000
0.000000 0.399420 0.000000
0.088411 0.398657 0.000000
0.137514 0.397528 0.000000
0.178805 0.396216 0.000000
0.216861 0.394629 0.000000
0.261753 0.398474 0.000000
0.307744 0.403815 0.000000
0.355138 0.409705 0.000000
0.403906 0.415991 0.000000
0.454383 0.422827 0.000000
0.525566 0.446509 0.000000
0.568750 0.450324 0.000000
0.610986 0.454047 0.000000
0.651606 0.457191 0.029419
0.690150 0.460029 0.083742
0.727016 0.462959 0.112215
0.762539 0.466407 0.137270
0.795712 0.466346 0.145357
0.827146 0.464790 0.149142
0.857176 0.463508 0.154604
0.885954 0.462562 0.161563
0.913451 0.462013 0.169894
0.939483 0.462043 0.179812
0.964263 0.462776 0.191379
0.987793 0.464424 0.204410
1.000000 0.467140 0.219089
1.000000 0.471199 0.235660
1.000000 0.476753 0.254002
1.000000 0.484016 0.274632
0.000000 0.439338 0.000000
0.000000 0.439094 0.000000
0.000000 0.438880 0.000000
0.000000 0.438331 0.000000
0.082460 0.437324 0.000000
0.135256 0.436133 0.000000
0.178408 0.434760 0.000000
0.217777 0.433112 0.000000
0.257969 0.433112 0.000000
0.304601 0.438392 0.000000
0.351904 0.444251 0.000000
0.400549 0.450690 0.000000
0.450568 0.457496 0.000000
0.502281 0.464637 0.000000
0.574823 0.489174 0.000000
0.617853 0.492592 0.000000
0.657557 0.494392 0.000000
0.695277 0.496101 0.058656
0.731502 0.497658 0.097322
0.766354 0.499886 0.126223
0.799802 0.502586 0.152132
0.831449 0.505272 0.173861
0.860746 0.503410 0.178378
0.888792 0.501915 0.184543
0.915557 0.500755 0.192111
0.940948 0.500053 0.201297
0.965118 0.500114 0.211917
0.988128 0.500999 0.224216
1.000000 0.503075 0.238285
1.000000 0.506371 0.254154
1.000000 0.511101 0.272190
1.000000 0.517479 0.292180
0.000000 0.477943 0.000000
0.000000 0.477790 0.000000
0.000000 0.477485 0.000000
0.000000 0.476875 0.000000
0.075196 0.475898 0.000000
0.132448 0.474769 0.000000
0.177432 0.473274 0.000000
0.217960 0.471473 0.000000
0.256382 0.469581 0.000000
0.300725 0.472633 0.000000
0.348089 0.478462 0.000000
0.396674 0.484840 0.000000
0.446357 0.491707 0.000000
0.497627 0.499031 0.000000
0.550072 0.506401 0.000000
0.621973 0.530388 0.000000
0.663844 0.532921 0.000000
0.700832 0.533165 0.000000
0.736263 0.533501 0.075380
0.770443 0.534447 0.112184
0.803189 0.535821 0.141878
0.834409 0.537957 0.168429
0.863981 0.540764 0.193759
0.891630 0.541253 0.208560
0.917632 0.539452 0.215396
0.942412 0.538231 0.223789
0.965972 0.537652 0.233829
0.988464 0.538018 0.245609
1.000000 0.539361 0.259098
1.000000 0.541985 0.274479
1.000000 0.545983 0.291997
1.000000 0.551568 0.311742
0.000000 0.516472 0.000000
0.000000 0.516258 0.000000
0.000000 0.516045 0.000000
0.000000 0.515435 0.000000
0.064485 0.514519 0.000000
0.128542 0.513420 0.000000
0.175814 0.511986 0.000000
0.217746 0.510369 0.000000
0.257420 0.508415 0.000000
0.296147 0.506981 0.000000
0.344091 0.512657 0.000000
0.392523 0.518944 0.000000
0.441688 0.525444 0.000000
0.492012 0.532311 0.000000
0.543175 0.539239 0.000000
0.595331 0.546258 0.000000
0.665736 0.569390 0.000000
0.706386 0.571374 0.000000
0.741207 0.570397 0.017792
0.774777 0.570031 0.093538
0.806973 0.570184 0.128908
0.837675 0.570916 0.158877
0.866758 0.572503 0.186404
0.894194 0.574823 0.212985
0.919860 0.578119 0.239414
0.943938 0.576593 0.248051
0.966857 0.575372 0.257298
0.988708 0.575067 0.268406
1.000000 0.575799 0.281346
1.000000 0.577661 0.296117
1.000000 0.580835 0.313054
1.000000 0.585657 0.332341
0.000000 0.554406 0.000000
0.000000 0.554223 0.000000
0.000000 0.553948 0.000000
0.000000 0.553429 0.000000
0.045686 0.552605 0.000000
0.124239 0.551415 0.000000
0.173495 0.550103 0.000000
0.216861 0.548394 0.000000
0.257328 0.546471 0.000000
0.296086 0.544244 0.000000
0.338933 0.545830 0.000000
0.387213 0.551629 0.000000
0.435950 0.557885 0.000000
0.485389 0.564263 0.000000
0.535637 0.570825 0.000000
0.586358 0.577447 0.000000
0.637812 0.584100 0.000000
0.706661 0.606683 0.000000
0.746181 0.608240 0.000000
0.779080 0.606470 0.064149
0.810636 0.605280 0.112093
0.840726 0.604700 0.146853
0.869261 0.604883 0.177157
0.896330 0.605890 0.205570
0.921599 0.607782 0.233433
0.945190 0.610803 0.261112
0.967376 0.612726 0.281987
0.988647 0.611872 0.292454
1.000000 0.611933 0.304875
1.000000 0.613184 0.319158
1.000000 0.615717 0.335515
1.000000 0.619684 0.354284
0.000000 0.591150 0.000000
0.000000 0.590997 0.000000
0.000000 0.592920 0.000000
0.000000 0.592309 0.000000
0.018647 0.591455 0.000000
0.120211 0.590265 0.000000
0.171878 0.588861 0.000000
0.216251 0.587091 0.000000
0.257694 0.585168 0.000000
0.297276 0.582940 0.000000
0.335271 0.580529 0.000000
0.382361 0.585168 0.000000
0.430823 0.590906 0.000000
0.479774 0.596918 0.000000
0.529168 0.603143 0.000000
0.579065 0.609491 0.000000
0.629511 0.615991 0.000000
0.680049 0.622431 0.000000
0.746090 0.643488 0.000000
0.784390 0.644709 0.000000
0.815183 0.642023 0.089998
0.844602 0.639948 0.132631
0.872587 0.638666 0.166812
0.899046 0.638239 0.197757
0.923766 0.638575 0.227054
0.946929 0.640040 0.255955
0.968475 0.642847 0.284764
0.988556 0.647181 0.314336
1.000000 0.647852 0.329686
1.000000 0.648432 0.343420
1.000000 0.650294 0.359289
1.000000 0.653529 0.377569
0.000000 0.627832 0.000000
0.000000 0.627985 0.000000
0.000000 0.628016 0.000000
0.000000 0.627802 0.000000
0.000000 0.627161 0.000000
0.114443 0.626215 0.000000
0.168490 0.624964 0.000000
0.214115 0.623316 0.000000
0.256565 0.621546 0.000000
0.296483 0.619501 0.000000
0.335210 0.617212 0.000000
0.376104 0.616938 0.000000
0.424384 0.622461 0.000000
0.472877 0.628168 0.000000
0.521660 0.634119 0.000000
0.570764 0.640131 0.000000
0.620050 0.646143 0.000000
0.669429 0.652186 0.000000
0.718715 0.658198 0.000000
0.780667 0.676875 0.000000
0.818784 0.678737 0.046326
0.847684 0.675349 0.113832
0.875212 0.672694 0.153567
0.901213 0.670832 0.187747
0.925566 0.669795 0.219211
0.948425 0.669825 0.249516
0.969726 0.671077 0.279454
0.989532 0.673915 0.309850
1.000000 0.678462 0.341253
1.000000 0.683314 0.369238
1.000000 0.684504 0.384558
1.000000 0.687129 0.402380
0.000000 0.663874 0.000000
0.000000 0.663966 0.000000
0.000000 0.664027 0.000000
0.000000 0.663813 0.000000
0.000000 0.663264 0.000000
0.107576 0.662409 0.000000
0.164889 0.661189 0.000000
0.211734 0.659754 0.000000
0.254856 0.658106 0.000000
0.295628 0.656184 0.000000
0.334936 0.654078 0.000000
0.373266 0.651728 0.000000
0.418158 0.654444 0.000000
0.466316 0.659754 0.000000
0.514488 0.665187 0.000000
0.562768 0.670680 0.000000
0.611109 0.676234 0.000000
0.659388 0.681758 0.000000
0.707546 0.687312 0.000000
0.755276 0.692897 0.000000
0.813230 0.709285 0.000000
0.850767 0.711635 0.087068
0.877836 0.707576 0.137667
0.903380 0.704250 0.176028
0.927398 0.701808 0.210056
0.949859 0.700374 0.242100
0.970886 0.700130 0.273411
0.990448 0.701350 0.304875
1.000000 0.704280 0.337011
1.000000 0.709041 0.370214
1.000000 0.715877 0.404883
1.000000 0.719997 0.428351
0.000000 0.699580 0.000000
0.000000 0.699641 0.000000
0.000000 0.699733 0.000000
0.000000 0.699519 0.000000
0.000000 0.699001 0.000000
0.100771 0.698177 0.000000
0.160555 0.697108 0.000000
0.208927 0.695735 0.000000
0.252995 0.694148 0.000000
0.294438 0.692409 0.000000
0.334234 0.690455 0.000000
0.372992 0.688228 0.000000
0.411444 0.686275 0.000000
0.459449 0.691066 0.000000
0.507225 0.696040 0.000000
0.554864 0.701076 0.000000
0.602533 0.706172 0.000000
0.650019 0.711330 0.000000
0.697230 0.716487 0.000000
0.743984 0.721614 0.000000
0.790097 0.726772 0.014191
0.844297 0.741085 0.066041
0.881041 0.743740 0.117983
0.906188 0.739010 0.163088
0.929808 0.735134 0.200504
0.951934 0.732265 0.234806
0.972625 0.730526 0.267796
0.991882 0.730220 0.300359
1.000000 0.731472 0.333349
1.000000 0.734524 0.367254
1.000000 0.739590 0.402655
1.000000 0.746944 0.439033
0.000000 0.735348 0.000000
0.000000 0.735348 0.000000
0.000000 0.735225 0.000000
0.000000 0.734920 0.000000
0.000000 0.734371 0.000000
0.093172 0.733577 0.000000
0.156832 0.732570 0.000000
0.206546 0.731350 0.000000
0.250980 0.729976 0.000000
0.293065 0.728359 0.000000
0.333440 0.726558 0.000000
0.372717 0.724514 0.000000
0.410803 0.722316 0.000000
0.452918 0.722927 0.000000
0.500359 0.727321 0.000000
0.547601 0.731807 0.000000
0.594476 0.736355 0.000000
0.641199 0.740932 0.000000
0.687465 0.745541 0.000000
0.733242 0.750118 0.000000
0.778317 0.754665 0.049592
0.822446 0.759182 0.082948
0.872801 0.771359 0.106050
0.908232 0.773922 0.146548
0.931487 0.768521 0.188602
0.953307 0.764187 0.225406
0.973724 0.760952 0.260166
0.992767 0.759091 0.294072
1.000000 0.758724 0.328038
1.000000 0.760037 0.362768
1.000000 0.763485 0.398627
1.000000 0.769284 0.435279
0.000000 0.769436 0.000000
0.000000 0.769436 0.000000
0.000000 0.769406 0.000000
0.000000 0.769100 0.000000
0.000000 0.768612 0.000000
0.085939 0.767849 0.000000
0.152712 0.766934 0.000000
0.203464 0.765835 0.000000
0.248905 0.764523 0.000000
0.291325 0.763027 0.000000
0.332097 0.761410 0.000000
0.371466 0.759609 0.000000
0.409888 0.757565 0.000000
0.447761 0.755306 0.000000
0.493202 0.758114 0.000000
0.540032 0.762112 0.000000
0.586358 0.766110 0.000000
0.632410 0.770199 0.000000
0.677913 0.774228 0.000000
0.722835 0.778286 0.019745
0.766995 0.782315 0.071534
0.810269 0.786252 0.096681
0.852476 0.790158 0.118471
0.899168 0.800412 0.139437
0.932891 0.802426 0.173922
0.954437 0.796597 0.214267
0.974609 0.791867 0.251347
0.993439 0.788479 0.286687
1.000000 0.786496 0.321813
1.000000 0.786282 0.357366
1.000000 0.788174 0.393744
1.000000 0.792477 0.430854
0.000000 0.803586 0.000000
0.000000 0.803586 0.000000
0.000000 0.803525 0.000000
0.000000 0.803220 0.000000
0.000000 0.802731 0.000000
0.080171 0.802029 0.000000
0.150057 0.801144 0.000000
0.201450 0.800076 0.000000
0.247501 0.798795 0.000000
0.289982 0.797391 0.000000
0.330907 0.795804 0.000000
0.370428 0.794064 0.000000
0.409094 0.792172 0.000000
0.447059 0.790036 0.000000
0.486030 0.788907 0.000000
0.532525 0.792233 0.000000
0.578454 0.795621 0.000000
0.623774 0.799039 0.000000
0.668513 0.802518 0.000000
0.712673 0.805966 0.061158
0.755978 0.809384 0.088411
0.798367 0.812772 0.110597
0.839719 0.816098 0.131106
0.879789 0.819303 0.150271
0.923003 0.827665 0.170413
0.955718 0.829892 0.202029
0.975586 0.823606 0.241611
0.994141 0.818662 0.278752
1.000000 0.815152 0.315038
1.000000 0.813382 0.351415
1.000000 0.813748 0.388434
1.000000 0.816556 0.425971
0.000000 0.836057 0.000000
0.000000 0.836057 0.000000
0.000000 0.836027 0.000000
0.000000 0.835721 0.000000
0.000000 0.835294 0.000000
0.077424 0.834653 0.000000
0.148714 0.833860 0.000000
0.200320 0.832914 0.000000
0.246220 0.831785 0.000000
0.289036 0.830533 0.000000
0.329808 0.829160 0.000000
0.369665 0.827604 0.000000
0.408362 0.825925 0.000000
0.446357 0.824033 0.000000
0.483589 0.822019 0.000000
0.525566 0.822660 0.000000
0.571130 0.825467 0.000000
0.615900 0.828305 0.000000
0.659998 0.831144 0.056611
0.703426 0.834012 0.084901
0.745968 0.836820 0.106630
0.787625 0.839567 0.126741
0.828122 0.842283 0.145541
0.867430 0.844968 0.163790
0.905394 0.847623 0.182040
0.945464 0.854307 0.201602
0.976623 0.856260 0.230991
0.994903 0.849699 0.270207
1.000000 0.844694 0.307988
1.000000 0.841398 0.345220
1.000000 0.840208 0.383062
1.000000 0.841459 0.420996
0.000000 0.867765 0.000000
0.000000 0.867765 0.000000
0.000000 0.867674 0.000000
0.000000 0.867399 0.000000
0.000000 0.866972 0.000000
0.080690 0.866423 0.000000
0.149844 0.865660 0.000000
0.200961 0.864775 0.000000
0.246464 0.863767 0.000000
0.288762 0.862669 0.000000
0.329625 0.861357 0.000000
0.369116 0.860014 0.000000
0.407782 0.858488 0.000000
0.445747 0.856809 0.000000
0.482979 0.855009 0.000000
0.519554 0.853086 0.000000
0.564019 0.854978 0.000000
0.608362 0.857206 0.060090
0.651911 0.859464 0.085237
0.694606 0.861723 0.106203
0.736477 0.863920 0.125277
0.777371 0.866117 0.143740
0.817136 0.868254 0.161166
0.855680 0.870329 0.178897
0.892973 0.872374 0.196170
0.928862 0.874357 0.213596
0.965942 0.879545 0.232944
0.995514 0.881407 0.260929
1.000000 0.874510 0.299596
1.000000 0.869688 0.338109
1.000000 0.866941 0.376623
1.000000 0.866667 0.415076
0.000000 0.898283 0.000000
0.000000 0.898253 0.000000
0.000000 0.898192 0.000000
0.000000 0.897948 0.000000
0.000000 0.897581 0.000000
0.091615 0.897124 0.000000
0.154971 0.896574 0.000000
0.204379 0.895903 0.000000
0.249088 0.895109 0.000000
0.290776 0.894255 0.000000
0.331060 0.893248 0.000000
0.370336 0.892119 0.001343
0.408759 0.890867 0.016175
0.446418 0.889464 0.033875
0.483558 0.887877 0.049378
0.520012 0.886168 0.060975
0.558465 0.885313 0.073426
0.602289 0.886992 0.094575
0.645350 0.888670 0.113313
0.687495 0.890288 0.130648
0.728603 0.891875 0.147555
0.768765 0.893462 0.164309
0.807797 0.894957 0.180667
0.845579 0.896422 0.197208
0.882170 0.897826 0.213962
0.917449 0.899168 0.230991
0.951263 0.900542 0.248020
0.985351 0.904326 0.266911
1.000000 0.906157 0.293828
1.000000 0.898863 0.331914
1.000000 0.894469 0.371405
1.000000 0.892607 0.410346
0.000000 0.928588 0.062409
0.000000 0.928557 0.062867
0.000000 0.928466 0.063325
0.000000 0.928222 0.064607
0.000000 0.927886 0.065675
0.110750 0.927428 0.067750
0.165652 0.926879 0.069673
0.211612 0.926238 0.072084
0.254215 0.925444 0.075685
0.294835 0.924590 0.079133
0.334112 0.923613 0.083162
0.372595 0.922515 0.087160
0.410315 0.921324 0.091859
0.447517 0.920012 0.096193
0.484138 0.918578 0.101137
0.520317 0.916991 0.106142
