其他预设/【239】阳光逆光效果预设26款/1.LUT预设（视频调色-PR-AE-PS-FCPX-达芬奇用）/阳光逆光预设__-25.cube
# Created by Adobe Lightroom plugin Export LUT (1.17.0)
# www.johnrellis.com/lightroom/exportlut.htm
# Preset: 阳光逆光预设[素锦印象]-25
# Color profile: /Library/Application Support/Adobe/Color/Profiles/Recommended/AdobeRGB1998.icc
LUT_3D_SIZE 5
DOMAIN_MIN 0.000000 0.000000 0.000000
DOMAIN_MAX 0.903226 0.903226 0.903226
0.078279 0.078279 0.078279
0.248051 0.076417 0.076051
0.454200 0.086488 0.081880
0.667170 0.093874 0.081147
0.889555 0.082612 0.063539
0.095399 0.239017 0.081331
0.246769 0.237308 0.083589
0.449165 0.233921 0.102632
0.667811 0.231601 0.085023
0.890013 0.228122 0.065858
0.142855 0.438422 0.094209
0.255711 0.438056 0.093660
0.456458 0.437018 0.091463
0.653986 0.435889 0.155673
0.884062 0.444800 0.145937
0.181979 0.648676 0.088380
0.276707 0.648707 0.087343
0.467323 0.648829 0.082399
0.677790 0.649073 0.071595
0.884123 0.649928 0.179416
0.207736 0.875151 0.047974
0.295506 0.875303 0.041566
0.483009 0.875822 0.018433
0.694759 0.876799 0.000000
0.917205 0.877989 0.000000
0.081331 0.079225 0.225498
0.245090 0.089052 0.226352
0.454871 0.074128 0.211063
0.667750 0.088777 0.208927
0.890440 0.051392 0.203067
0.110109 0.236240 0.224125
0.248295 0.236881 0.223972
0.454810 0.235050 0.218418
0.668147 0.231998 0.212924
0.890806 0.222965 0.205386
0.144320 0.438544 0.217502
0.262333 0.437629 0.221500
0.457404 0.436927 0.220157
0.653223 0.439796 0.254124
0.887694 0.442725 0.232273
0.181430 0.648859 0.212894
0.280827 0.648585 0.217350
0.468940 0.648798 0.215549
0.678370 0.649104 0.212100
0.883970 0.651148 0.268162
0.201389 0.875486 0.207065
0.291508 0.875608 0.206332
0.481025 0.876127 0.204013
0.693874 0.877073 0.199008
0.917144 0.878172 0.191012
0.103731 0.093843 0.413367
0.241215 0.101076 0.413031
0.452857 0.091463 0.414374
0.669825 0.000000 0.405005
0.893919 0.000000 0.397406
0.119417 0.229770 0.413062
0.248081 0.232120 0.412665
0.455482 0.226017 0.412787
0.671351 0.202518 0.401038
0.895109 0.162722 0.392706
0.151553 0.436011 0.411719
0.261204 0.436835 0.411597
0.458747 0.436805 0.411749
0.672541 0.433722 0.406134
0.896025 0.420752 0.398047
0.183017 0.649256 0.411109
0.278355 0.649195 0.410285
0.467536 0.649470 0.407721
0.679713 0.649409 0.405859
0.883391 0.654963 0.445869
0.208835 0.875608 0.418494
0.294591 0.875822 0.419013
0.464302 0.877989 0.402411
0.686915 0.878538 0.400061
0.916381 0.878996 0.396460
0.122896 0.102022 0.618524
0.248142 0.102724 0.618463
0.456458 0.108980 0.618097
0.671962 0.048127 0.615778
0.896147 0.000000 0.614343
0.126558 0.229191 0.618708
0.250248 0.229465 0.618647
0.458839 0.234012 0.618189
0.673213 0.213138 0.614984
0.897185 0.156405 0.612970
0.117952 0.434943 0.619104
0.237675 0.431769 0.619287
0.456336 0.430182 0.618982
0.676417 0.419745 0.613275
0.900298 0.394995 0.609339
0.168856 0.654749 0.618891
0.268376 0.654780 0.618708
0.463569 0.652949 0.617639
0.675715 0.649653 0.620264
0.902129 0.638544 0.614588
0.205203 0.876432 0.625666
0.290959 0.876707 0.626246
0.473671 0.877684 0.629023
0.670497 0.881132 0.618494
0.912535 0.880491 0.617090
0.125795 0.093111 0.852720
0.254124 0.087953 0.852720
0.469032 0.070832 0.852781
0.694453 0.021302 0.852842
0.907500 0.000000 0.838346
0.102449 0.225040 0.853117
0.245853 0.223636 0.853147
0.466163 0.219638 0.853147
0.693812 0.216556 0.853117
0.907652 0.170535 0.838590
0.000000 0.429725 0.854551
0.177096 0.423407 0.854826
0.444221 0.422034 0.854765
0.687526 0.426795 0.854368
0.907439 0.404303 0.840452
0.000000 0.665461 0.855253
0.175113 0.662684 0.855528
0.413428 0.651698 0.856382
0.665034 0.642725 0.856779
0.905730 0.635828 0.845701
0.070863 0.899382 0.856077
0.225742 0.898833 0.856199
0.443458 0.896544 0.856596
0.670954 0.889006 0.855467
0.900786 0.882872 0.862943
