其他预设/【212】创意蓝橙调色预设24款/1.3D LUT预设（视频调色-PR-AE-PS-FCPX-达芬奇用）/1.蓝橙色调__.cube
# Created by Adobe Lightroom plugin Export LUT (1.17.0)
# www.johnrellis.com/lightroom/exportlut.htm
# Preset: 1.蓝橙色调[素锦印象]
# Color profile: /Library/Application Support/Adobe/Color/Profiles/Recommended/AdobeRGB1998.icc
LUT_3D_SIZE 5
DOMAIN_MIN 0.000000 0.000000 0.000000
DOMAIN_MAX 0.903226 0.903226 0.903226
0.108125 0.108125 0.108125
0.282414 0.136843 0.116915
0.587366 0.210147 0.106050
0.831388 0.291203 0.117678
0.981537 0.368841 0.228794
0.116487 0.179171 0.141329
0.270970 0.203342 0.126131
0.571283 0.270024 0.106203
0.824643 0.331518 0.117922
0.979583 0.393500 0.232273
0.102846 0.320409 0.208713
0.255985 0.325322 0.179873
0.546502 0.382177 0.143648
0.802701 0.430182 0.121706
0.973053 0.466651 0.244999
0.000000 0.515770 0.305119
0.204532 0.516320 0.246586
0.555505 0.540734 0.221561
0.796841 0.553948 0.190036
0.962341 0.566400 0.267216
0.000000 0.763821 0.437049
0.168002 0.761196 0.399695
0.563378 0.741726 0.350469
0.858152 0.753841 0.345129
0.975128 0.698939 0.341405
0.032532 0.164645 0.226932
0.233677 0.177768 0.216892
0.556664 0.248753 0.172030
0.812314 0.343847 0.115846
0.977783 0.393439 0.229984
0.000000 0.228244 0.247898
0.232792 0.232792 0.232792
0.545800 0.291630 0.195651
0.808072 0.370062 0.130098
0.976074 0.415167 0.233677
0.000000 0.356786 0.299931
0.201541 0.367254 0.270970
0.529992 0.395850 0.240635
0.793423 0.446540 0.191409
0.970123 0.481758 0.246311
0.000000 0.548150 0.388678
0.150240 0.550713 0.351873
0.536309 0.556512 0.294926
0.789334 0.566247 0.275273
0.960113 0.576349 0.268376
0.000000 0.778714 0.500206
0.000000 0.776944 0.469306
0.538354 0.754452 0.410071
0.850370 0.766354 0.406134
0.970825 0.710292 0.391516
0.000000 0.301030 0.452888
0.000000 0.305760 0.450080
0.454932 0.296117 0.410040
0.800626 0.393805 0.383734
0.968414 0.461036 0.346319
0.000000 0.355749 0.466896
0.000000 0.348302 0.465003
0.454719 0.338628 0.420081
0.792996 0.427710 0.399969
0.967590 0.475593 0.349676
0.000000 0.462928 0.512902
0.000000 0.462593 0.508049
0.450660 0.450660 0.450660
0.771847 0.509636 0.435096
0.962585 0.531731 0.377234
0.000000 0.612757 0.573846
0.000000 0.623621 0.569177
0.419440 0.618769 0.496956
0.757168 0.614282 0.475227
0.949584 0.627527 0.446357
0.000000 0.818753 0.667597
0.000000 0.822477 0.651637
0.405798 0.804257 0.577478
0.799741 0.791165 0.553063
0.953887 0.750210 0.540215
0.000000 0.454749 0.698054
0.000000 0.472694 0.695003
0.106355 0.434150 0.686854
0.685573 0.479103 0.625635
0.930419 0.678218 0.698024
0.000000 0.490761 0.703914
0.000000 0.502678 0.701534
0.136385 0.467720 0.692592
0.684932 0.506462 0.631922
0.929473 0.685298 0.699519
0.000000 0.566369 0.723018
0.000000 0.572412 0.721614
0.150027 0.559075 0.711391
0.683680 0.580316 0.651209
0.928954 0.701320 0.695796
0.000000 0.673274 0.752621
0.000000 0.677913 0.751461
0.108736 0.684871 0.742245
0.680964 0.680964 0.680964
0.928252 0.728359 0.680507
0.000000 0.825345 0.819242
0.000000 0.834867 0.817624
0.000000 0.860136 0.809201
0.676112 0.831022 0.732357
0.923949 0.810636 0.712764
0.000000 0.562829 0.882231
0.000000 0.574212 0.881193
0.000000 0.591913 0.879210
0.606226 0.664454 0.861082
0.866545 0.718013 0.820371
0.000000 0.578485 0.884031
0.000000 0.588830 0.883024
0.000000 0.606073 0.881010
0.605982 0.676265 0.863890
0.866636 0.727016 0.823056
0.000000 0.619776 0.890501
0.000000 0.624598 0.889738
0.000000 0.646479 0.887144
0.588434 0.708095 0.873716
0.867613 0.754513 0.831785
0.000000 0.698024 0.900725
0.000000 0.702693 0.900114
0.000000 0.717281 0.897856
0.485512 0.749783 0.889158
0.869535 0.800504 0.847166
0.000000 0.794064 0.913329
0.000000 0.799039 0.912932
0.000000 0.817716 0.911345
0.455177 0.850584 0.905425
0.870939 0.870909 0.870939
