其他预设/【212】创意蓝橙调色预设24款/1.3D LUT预设（视频调色-PR-AE-PS-FCPX-达芬奇用）/1.蓝橙色调__.cube
# Created by Adobe Lightroom plugin Export LUT (1.17.0)
# www.johnrellis.com/lightroom/exportlut.htm
# Preset: 1.蓝橙色调[素锦印象]
# Color profile: /Library/Application Support/Adobe/Color/Profiles/Recommended/AdobeRGB1998.icc
LUT_3D_SIZE 8
DOMAIN_MIN 0.000000 0.000000 0.000000
DOMAIN_MAX 0.903226 0.903226 0.903226
0.108125 0.108125 0.108125
0.183352 0.119203 0.113283
0.319982 0.143984 0.116945
0.494270 0.184360 0.111421
0.671290 0.235935 0.101717
0.803189 0.280949 0.110811
0.904875 0.321721 0.152316
0.981537 0.368841 0.228794
0.110109 0.140139 0.121096
0.181888 0.148135 0.115877
0.316075 0.168887 0.117830
0.489113 0.206729 0.111604
0.667170 0.254398 0.101289
0.800870 0.294408 0.110780
0.903685 0.331792 0.152712
0.980957 0.376318 0.229679
0.118379 0.195041 0.149783
0.170443 0.199222 0.143160
0.305028 0.224979 0.129000
0.472480 0.263127 0.112886
0.653834 0.304845 0.101656
0.792813 0.336095 0.110964
0.899504 0.364630 0.154482
0.978943 0.401343 0.233371
0.114870 0.273655 0.186984
0.158541 0.276677 0.170871
0.296818 0.290196 0.161624
0.462348 0.326665 0.139498
0.631861 0.367071 0.103914
0.779019 0.393927 0.111788
0.892180 0.414405 0.158236
0.975402 0.441901 0.240299
0.080964 0.370581 0.232578
0.136019 0.372534 0.215518
0.289433 0.373968 0.193301
0.460487 0.403449 0.174380
0.625666 0.435218 0.150332
0.759548 0.456214 0.115633
0.881743 0.473487 0.163577
0.970367 0.493416 0.250523
0.000000 0.483253 0.288823
0.092256 0.484169 0.273045
0.271427 0.482856 0.229923
0.459266 0.496834 0.218540
0.636744 0.524163 0.191165
0.765286 0.531456 0.179232
0.868132 0.535668 0.170535
0.964080 0.551293 0.263523
0.000000 0.621637 0.359014
0.000000 0.621851 0.344823
0.233768 0.619135 0.286595
0.458778 0.610803 0.271611
0.655024 0.637568 0.259129
0.793271 0.632288 0.235203
0.881621 0.617395 0.236545
0.956817 0.612421 0.278904
0.000000 0.763821 0.437049
0.000000 0.763424 0.426062
0.234775 0.759579 0.388006
0.467628 0.747280 0.359075
0.661158 0.750668 0.349432
0.833188 0.763027 0.348180
0.916289 0.725154 0.333989
0.975128 0.698939 0.341405
0.093965 0.130495 0.160647
0.163821 0.139773 0.156344
0.303777 0.165225 0.138643
0.472023 0.217685 0.117800
0.654994 0.267124 0.101778
0.794553 0.304234 0.109682
0.901061 0.337255 0.151553
0.980163 0.377630 0.228885
0.090425 0.157839 0.169589
0.164401 0.164401 0.164401
0.298955 0.185489 0.150607
0.469947 0.230442 0.123476
0.651881 0.280308 0.101869
0.792538 0.315465 0.109682
0.899992 0.346136 0.152529
0.979644 0.384680 0.229984
0.106752 0.210544 0.186343
0.161013 0.217807 0.182559
0.294865 0.233341 0.170169
0.461891 0.270390 0.144381
0.640833 0.320806 0.101930
0.785428 0.351232 0.109926
0.896117 0.376104 0.154238
0.977722 0.408453 0.233738
0.098665 0.288273 0.220829
0.148592 0.292607 0.210452
0.292088 0.301274 0.191409
0.456641 0.331304 0.174624
0.626703 0.371038 0.140047
0.772824 0.403204 0.111666
0.889250 0.422675 0.158083
0.974334 0.447639 0.240848
0.039582 0.383917 0.264042
0.120668 0.385779 0.250278
0.279179 0.385534 0.217472
0.457954 0.410742 0.201907
0.622095 0.438727 0.182956
0.757198 0.459663 0.151186
0.879179 0.479194 0.163333
0.969451 0.497719 0.250980
0.000000 0.494270 0.316838
0.053590 0.495338 0.303471
0.250370 0.493751 0.251682
0.453132 0.502892 0.241703
0.634638 0.529076 0.216739
0.762997 0.534874 0.207889
0.866392 0.539452 0.184237
0.963317 0.554650 0.263951
0.000000 0.629603 0.383886
0.000000 0.629877 0.370977
0.220523 0.627283 0.319310
0.450080 0.616541 0.292241
0.649744 0.640894 0.281010
0.791501 0.636072 0.257603
0.879973 0.620905 0.260227
0.956695 0.615442 0.279850
0.000000 0.768399 0.456703
0.000000 0.768063 0.446387
0.216190 0.764492 0.410559
0.457649 0.751888 0.377630
0.654383 0.752346 0.366796
0.830167 0.766323 0.366369
0.914672 0.728450 0.351598
0.974243 0.701869 0.351873
0.000000 0.179202 0.253086
0.060151 0.185611 0.251255
0.260380 0.192142 0.240238
0.459266 0.217533 0.211490
0.642176 0.280034 0.186465
0.780606 0.336065 0.161929
0.891722 0.372381 0.150973
0.976867 0.399786 0.230289
0.000000 0.206729 0.259037
0.086336 0.207065 0.258762
0.260288 0.211246 0.245029
0.453956 0.237461 0.220554
0.638392 0.293614 0.195377
0.779110 0.344640 0.166812
0.890715 0.379767 0.151461
0.976379 0.406104 0.231662
0.000000 0.255924 0.279362
0.078737 0.257267 0.277623
0.259098 0.259098 0.259098
0.441230 0.287175 0.242496
0.629145 0.331121 0.215549
0.774258 0.372381 0.183566
0.887266 0.404852 0.153628
0.974609 0.427649 0.235172
0.000000 0.320592 0.302922
0.045380 0.327245 0.302495
0.240238 0.335210 0.276402
0.434394 0.348791 0.264225
0.614008 0.384466 0.242191
0.764920 0.417365 0.212222
0.881773 0.444068 0.176364
0.971466 0.463661 0.241978
0.000000 0.414893 0.345495
0.000000 0.421057 0.341833
0.220768 0.424872 0.307897
0.436255 0.431128 0.281743
0.607752 0.452522 0.271519
0.749966 0.473579 0.250858
0.873716 0.494789 0.221530
0.966888 0.510765 0.252232
0.000000 0.526177 0.397406
0.000000 0.528679 0.390204
0.196506 0.529839 0.353033
0.422217 0.520867 0.313054
0.624231 0.546899 0.295537
0.753933 0.548211 0.291447
0.861845 0.553552 0.273442
0.961089 0.565057 0.265080
0.000000 0.654292 0.458717
0.000000 0.654994 0.449744
0.154116 0.653437 0.411902
0.412696 0.640620 0.359197
0.627649 0.651148 0.348486
0.783932 0.649805 0.328527
0.873747 0.633906 0.332860
0.954376 0.627527 0.318547
0.000000 0.783597 0.519860
0.000000 0.783261 0.510735
0.107088 0.780636 0.480049
0.417304 0.767453 0.439216
0.628290 0.757534 0.422126
0.815732 0.775082 0.423957
0.908659 0.740017 0.407263
0.969207 0.714321 0.408972
0.000000 0.255161 0.380285
0.000000 0.265110 0.377661
0.102296 0.244755 0.375372
0.386419 0.256870 0.349523
0.628046 0.288792 0.324529
0.775448 0.353491 0.303258
0.886809 0.401312 0.283177
0.972778 0.428565 0.244053
0.000000 0.281102 0.385351
0.000000 0.283787 0.384253
0.112581 0.263432 0.380133
0.386389 0.271885 0.353033
0.623682 0.306188 0.330663
0.772854 0.365057 0.310002
0.885649 0.409308 0.288457
0.972534 0.433326 0.245731
0.000000 0.325750 0.401526
0.000000 0.324987 0.401740
0.120790 0.314488 0.394781
0.385840 0.316503 0.364477
0.609827 0.355962 0.348363
0.764401 0.401190 0.329870
0.881956 0.434882 0.304265
0.971130 0.452338 0.258030
0.000000 0.389410 0.430335
0.000000 0.389868 0.429511
0.094942 0.388251 0.419989
0.382788 0.382788 0.382788
0.588434 0.417639 0.372778
0.751980 0.450538 0.354040
0.875822 0.474739 0.326360
0.967956 0.487556 0.284733
0.000000 0.463355 0.457740
0.000000 0.466194 0.456641
0.049714 0.474678 0.448524
0.362493 0.472419 0.403326
0.576410 0.480934 0.392004
0.735103 0.505913 0.380072
0.866300 0.526116 0.357427
0.962921 0.535241 0.322606
0.000000 0.562860 0.502831
0.000000 0.567498 0.501701
0.000000 0.579187 0.489601
0.343755 0.573205 0.437140
0.589960 0.574395 0.410437
0.734951 0.574487 0.406989
0.852811 0.583551 0.393713
0.955871 0.592096 0.369421
0.000000 0.686397 0.562463
0.000000 0.689174 0.558312
0.000000 0.693935 0.537285
0.326818 0.682979 0.482979
0.576867 0.664912 0.446693
0.766293 0.675166 0.435065
0.861295 0.658686 0.437232
0.946746 0.653742 0.421912
0.000000 0.809415 0.617060
0.000000 0.809323 0.610407
0.000000 0.807065 0.584283
0.319768 0.796658 0.539483
0.583124 0.773465 0.512016
0.779355 0.782559 0.507927
0.896941 0.760311 0.490150
0.959869 0.736538 0.494270
0.000000 0.348180 0.527276
0.000000 0.355596 0.525353
0.000000 0.351873 0.523644
0.223636 0.304204 0.506645
0.524315 0.339178 0.471901
0.758907 0.413489 0.475868
0.874388 0.478706 0.469581
0.960296 0.513970 0.455848
0.000000 0.368139 0.531090
0.000000 0.373999 0.529198
0.000000 0.364019 0.527764
0.226719 0.320806 0.510704
0.524193 0.351171 0.474800
0.756039 0.424933 0.479469
0.873045 0.486000 0.473274
0.959930 0.518029 0.457008
0.000000 0.409857 0.542748
0.000000 0.412665 0.542199
0.000000 0.401221 0.539971
0.232212 0.371283 0.523705
0.523705 0.389654 0.483955
0.746487 0.460121 0.491096
0.868620 0.509178 0.483864
0.959167 0.530449 0.459113
0.000000 0.463294 0.562799
0.000000 0.463478 0.562585
0.000000 0.458198 0.558831
0.238682 0.443977 0.541802
0.522423 0.448371 0.499123
0.731533 0.508263 0.506645
0.862577 0.541588 0.495003
0.959533 0.545159 0.451759
0.000000 0.531518 0.589929
0.000000 0.531853 0.589319
0.000000 0.531579 0.584314
0.229740 0.528588 0.566674
0.518944 0.518944 0.518944
0.713771 0.556725 0.518944
0.854551 0.580529 0.504997
0.955200 0.584314 0.468910
0.000000 0.610163 0.619715
0.000000 0.612024 0.619196
0.000000 0.617945 0.615229
0.205539 0.626825 0.600580
0.502861 0.611933 0.542260
0.703090 0.612207 0.532891
0.839322 0.630640 0.526726
0.946868 0.638178 0.503593
0.000000 0.714931 0.668696
0.000000 0.718044 0.668086
0.000000 0.725582 0.661219
0.147463 0.730556 0.636011
0.490822 0.710353 0.575830
0.726558 0.706142 0.555627
0.841855 0.693446 0.552605
0.936919 0.693874 0.539879
0.000000 0.828122 0.718563
0.000000 0.829465 0.715419
0.000000 0.832883 0.702052
0.000000 0.834379 0.671260
0.488563 0.811490 0.619715
0.718868 0.789883 0.595544
0.876890 0.788785 0.590356
0.946868 0.765652 0.588159
0.000000 0.435035 0.665919
0.000000 0.440986 0.664912
0.000000 0.452094 0.662531
0.000000 0.424048 0.658900
0.395789 0.397559 0.633326
0.655299 0.446540 0.595178
0.844327 0.573541 0.633204
0.936156 0.647639 0.657557
0.000000 0.449287 0.668086
0.000000 0.454200 0.666987
0.000000 0.460426 0.665064
0.000000 0.434272 0.661006
0.395758 0.408209 0.635492
0.655116 0.455909 0.597192
0.844297 0.580865 0.636561
0.935821 0.650141 0.658289
0.000000 0.484321 0.675013
0.000000 0.488472 0.674067
0.000000 0.487098 0.673030
0.000000 0.466987 0.667903
0.393652 0.442664 0.643122
0.654353 0.486671 0.604456
0.844450 0.604547 0.647883
0.934966 0.658045 0.659571
0.000000 0.527459 0.687068
0.000000 0.532036 0.686091
0.000000 0.529686 0.685298
0.000000 0.517876 0.679500
0.396521 0.503838 0.658442
0.653315 0.532891 0.616114
0.841825 0.633692 0.658350
0.934722 0.668025 0.657435
0.000000 0.583154 0.703426
0.000000 0.587060 0.702602
0.000000 0.585473 0.701625
0.000000 0.581323 0.695491
0.388952 0.575372 0.676265
0.652338 0.586816 0.631281
0.834623 0.659236 0.660029
0.935973 0.677943 0.647333
0.000000 0.648798 0.723232
0.000000 0.650690 0.722744
0.000000 0.652338 0.721248
0.000000 0.655085 0.715236
0.384009 0.658778 0.698329
0.649989 0.649989 0.649989
0.822782 0.688563 0.658198
0.934142 0.700740 0.642481
0.000000 0.729213 0.755459
0.000000 0.731746 0.755093
0.000000 0.737148 0.754177
0.000000 0.746731 0.749386
0.363714 0.758511 0.734066
0.642542 0.737697 0.676173
0.813413 0.733150 0.666316
0.924010 0.744564 0.661128
0.000000 0.830381 0.804135
0.000000 0.833371 0.803586
0.000000 0.843137 0.801541
0.000000 0.857115 0.795102
0.329534 0.853300 0.761471
0.641077 0.826841 0.709834
0.841489 0.820554 0.695155
0.929168 0.801144 0.687953
0.000000 0.507195 0.785550
0.000000 0.511650 0.785061
0.000000 0.527001 0.783139
0.000000 0.520806 0.782345
0.224033 0.508873 0.775479
0.575189 0.530755 0.747280
0.770108 0.579797 0.713130
0.908171 0.717403 0.765194
0.000000 0.516411 0.786648
0.000000 0.520500 0.786069
0.000000 0.534783 0.784207
0.000000 0.527398 0.783505
0.228672 0.516716 0.776577
0.576104 0.538140 0.748501
0.769955 0.585351 0.714504
0.908354 0.721157 0.767086
0.000000 0.541253 0.790372
0.000000 0.544854 0.789822
0.000000 0.557641 0.787961
0.000000 0.549096 0.787350
0.238560 0.542260 0.780240
0.578454 0.562341 0.753079
0.769619 0.603754 0.719203
0.909270 0.733883 0.773648
0.000000 0.575525 0.796933
0.000000 0.578820 0.796445
0.000000 0.590021 0.794644
0.000000 0.583734 0.793912
0.238407 0.581384 0.786862
0.579309 0.599939 0.761257
0.769345 0.632593 0.727016
0.911711 0.754788 0.784421
0.000000 0.620294 0.806088
0.000000 0.623255 0.805600
0.000000 0.632990 0.804013
0.000000 0.629114 0.803037
0.185214 0.628077 0.796994
0.572473 0.646357 0.775967
0.769375 0.669093 0.737636
0.914672 0.778225 0.795193
0.000000 0.674189 0.817288
0.000000 0.676753 0.816922
0.000000 0.685756 0.815488
0.000000 0.686397 0.814572
0.127749 0.689418 0.809598
0.552422 0.702602 0.792569
0.769162 0.714290 0.751339
0.913481 0.788418 0.789761
0.000000 0.734401 0.830014
0.000000 0.736751 0.829709
0.000000 0.745174 0.828519
0.000000 0.750515 0.827634
0.144350 0.760159 0.823423
0.553094 0.774838 0.810208
0.767941 0.767910 0.767941
0.910124 0.801999 0.778561
0.000000 0.809140 0.858976
0.000000 0.811460 0.858854
0.000000 0.819669 0.858213
0.000000 0.832486 0.857115
0.000000 0.847288 0.853971
0.532891 0.863767 0.843107
0.770138 0.845609 0.796384
0.906310 0.838895 0.784543
0.000000 0.562829 0.882231
0.000000 0.566186 0.881926
0.000000 0.577996 0.880888
0.000000 0.593957 0.879362
0.000000 0.598749 0.877592
0.540734 0.650660 0.866392
0.737301 0.681209 0.844877
0.866545 0.718013 0.820371
0.000000 0.568017 0.882750
0.000000 0.571252 0.882414
0.000000 0.582605 0.881407
0.000000 0.598138 0.879881
0.000000 0.603113 0.878111
0.540856 0.654444 0.867124
0.737697 0.685023 0.845609
0.866575 0.720760 0.821225
0.000000 0.582879 0.884642
0.000000 0.585870 0.884367
0.000000 0.596429 0.883360
0.000000 0.612085 0.881773
0.000000 0.617304 0.880003
0.539117 0.666835 0.869902
0.738766 0.697871 0.848264
0.866728 0.729854 0.823941
0.000000 0.603113 0.888243
0.000000 0.605829 0.887968
0.000000 0.615717 0.886961
0.000000 0.633845 0.885069
0.000000 0.638697 0.883543
0.527123 0.684749 0.874266
0.739284 0.718532 0.853208
0.867216 0.744869 0.828641
0.000000 0.639612 0.893095
0.000000 0.641108 0.892851
0.000000 0.645930 0.892088
0.000000 0.652888 0.890684
0.000000 0.664088 0.888884
0.487770 0.704707 0.880766
0.738064 0.745663 0.860838
0.868070 0.765652 0.835477
0.000000 0.685512 0.899077
0.000000 0.686946 0.898894
0.000000 0.691615 0.898222
0.000000 0.699214 0.897002
0.000000 0.703822 0.895537
0.390295 0.728481 0.889677
0.730526 0.778103 0.873167
0.869261 0.792691 0.844511
0.000000 0.737728 0.905943
0.000000 0.739162 0.905791
0.000000 0.743923 0.905272
0.000000 0.752560 0.904234
0.000000 0.762783 0.902800
0.317815 0.778897 0.898650
0.699855 0.813535 0.886656
0.870420 0.826963 0.856168
0.000000 0.794064 0.913329
0.000000 0.795529 0.913207
0.000000 0.800748 0.912779
0.000000 0.810605 0.911955
0.000000 0.825376 0.910613
0.333715 0.844022 0.907012
0.698207 0.869718 0.899016
0.870939 0.870909 0.870939
