其他预设/【212】创意蓝橙调色预设24款/1.3D LUT预设（视频调色-PR-AE-PS-FCPX-达芬奇用）/1.蓝橙色调__.cube
# Created by Adobe Lightroom plugin Export LUT (1.17.0)
# www.johnrellis.com/lightroom/exportlut.htm
# Preset: 1.蓝橙色调[素锦印象]
# Color profile: /Library/Application Support/Adobe/Color/Profiles/Recommended/AdobeRGB1998.icc
LUT_3D_SIZE 32
0.108125 0.108125 0.108125
0.117586 0.109346 0.108644
0.130098 0.110933 0.109468
0.153933 0.114565 0.111330
0.183352 0.119203 0.113283
0.214572 0.124636 0.114748
0.247684 0.130556 0.116091
0.282414 0.136843 0.116915
0.319982 0.143984 0.116945
0.360266 0.152468 0.116060
0.403449 0.161715 0.114931
0.448249 0.172457 0.113466
0.494270 0.184360 0.111421
0.540917 0.196933 0.108980
0.587366 0.210147 0.106050
0.630884 0.223606 0.103456
0.671290 0.235935 0.101717
0.708095 0.247929 0.101564
0.741756 0.259159 0.103120
0.773342 0.270237 0.105776
0.803189 0.280949 0.110811
0.831388 0.291203 0.117678
0.857633 0.301579 0.126986
0.882078 0.311620 0.138888
0.904875 0.321721 0.152316
0.926146 0.332189 0.168063
0.945953 0.343328 0.185916
0.964416 0.355413 0.205905
0.981537 0.368841 0.228794
0.997284 0.384192 0.254398
1.000000 0.401892 0.283146
1.000000 0.423072 0.316533
0.108431 0.111574 0.109377
0.117739 0.113008 0.109010
0.130465 0.114504 0.109804
0.154086 0.118044 0.111452
0.183261 0.122774 0.113588
0.214389 0.127871 0.115267
0.247349 0.133486 0.116243
0.282048 0.139681 0.117037
0.319463 0.146914 0.116884
0.360021 0.154940 0.116030
0.402960 0.164431 0.114870
0.447791 0.175021 0.113405
0.493690 0.186923 0.111330
0.540368 0.199557 0.108858
0.586816 0.212497 0.105959
0.630488 0.225437 0.103639
0.670863 0.237766 0.101900
0.707698 0.249668 0.101717
0.741299 0.261082 0.102754
0.773037 0.271855 0.105684
0.802976 0.282353 0.110933
0.831144 0.292515 0.117617
0.857481 0.302586 0.127352
0.881956 0.312779 0.138338
0.904784 0.322667 0.152590
0.926024 0.333196 0.167880
0.945892 0.344213 0.185672
0.964324 0.356298 0.205783
0.981476 0.369574 0.228702
0.997253 0.384894 0.254398
1.000000 0.402533 0.283574
1.000000 0.423590 0.316655
0.108339 0.116243 0.111360
0.118196 0.117525 0.110780
0.131228 0.119570 0.110201
0.154330 0.123018 0.111849
0.183352 0.127382 0.114015
0.214206 0.132143 0.115908
0.246799 0.137514 0.116884
0.281498 0.143862 0.117067
0.319127 0.150454 0.117128
0.359350 0.158602 0.116274
0.402350 0.167880 0.114900
0.447181 0.178378 0.113436
0.493080 0.189944 0.111604
0.539788 0.202365 0.109163
0.585931 0.215854 0.105715
0.629938 0.228428 0.103365
0.670222 0.240635 0.101625
0.707210 0.252140 0.101717
0.740932 0.263310 0.102541
0.772641 0.273838 0.105745
0.802701 0.284092 0.110780
0.830869 0.294408 0.117830
0.857237 0.304326 0.127352
0.881773 0.314153 0.138918
0.904601 0.324132 0.152621
0.925902 0.334508 0.167941
0.945769 0.345403 0.185733
0.964233 0.357427 0.206027
0.981415 0.370733 0.228733
0.997192 0.385809 0.254765
1.000000 0.403510 0.283726
1.000000 0.424445 0.316930
0.108919 0.127871 0.115541
0.119539 0.128695 0.114778
0.132631 0.130312 0.114229
0.154940 0.132692 0.113039
0.183169 0.136477 0.114992
0.213626 0.140810 0.116304
0.245914 0.145754 0.117311
0.280491 0.151644 0.117494
0.317906 0.157992 0.117372
0.358190 0.165866 0.116518
0.400977 0.174838 0.115389
0.445686 0.185428 0.113680
0.491402 0.196902 0.111391
0.538018 0.209171 0.108919
0.584680 0.221775 0.105959
0.628565 0.234257 0.103365
0.669032 0.246098 0.101381
0.706172 0.257267 0.101472
0.739986 0.268009 0.102785
0.771817 0.278264 0.105745
0.801938 0.288426 0.110536
0.830289 0.298100 0.117861
0.856718 0.307927 0.127016
0.881315 0.317510 0.138613
0.904234 0.327153 0.152377
0.925597 0.337255 0.168399
0.945525 0.347967 0.186252
0.964019 0.359808 0.206302
0.981231 0.372930 0.229068
0.997040 0.387884 0.254978
1.000000 0.405371 0.284215
1.000000 0.426154 0.317418
0.110109 0.140139 0.121096
0.119905 0.140841 0.120394
0.131563 0.141787 0.119783
0.152987 0.143954 0.118685
0.181888 0.148135 0.115877
0.212711 0.152651 0.117708
0.244755 0.157137 0.118318
0.278996 0.162387 0.118379
0.316075 0.168887 0.117830
0.356146 0.176516 0.116945
0.398962 0.185214 0.115419
0.443366 0.195712 0.113466
0.489113 0.206729 0.111604
0.535698 0.218570 0.108919
0.582422 0.231052 0.105653
0.626490 0.242985 0.103304
0.667170 0.254398 0.101289
0.704433 0.265141 0.101137
0.738430 0.275364 0.102205
0.770596 0.284794 0.105715
0.800870 0.294408 0.110780
0.829404 0.303960 0.118044
0.855924 0.313451 0.126986
0.880644 0.322515 0.138979
0.903685 0.331792 0.152712
0.925139 0.341588 0.168704
0.945129 0.352056 0.186526
0.963714 0.363470 0.206577
0.980957 0.376318 0.229679
0.996796 0.391058 0.255528
1.000000 0.408209 0.284489
1.000000 0.428779 0.317845
0.111879 0.152285 0.127169
0.120272 0.152743 0.126925
0.130922 0.153597 0.126009
0.150301 0.155459 0.124880
0.176852 0.159182 0.122744
0.209842 0.165072 0.119387
0.242985 0.170413 0.119814
0.276768 0.175662 0.119265
0.313634 0.181765 0.118746
0.353307 0.189425 0.117250
0.395789 0.198428 0.115633
0.440162 0.208408 0.113710
0.485847 0.219150 0.111818
0.532586 0.230625 0.108888
0.579309 0.242588 0.105623
0.623804 0.253788 0.103243
0.664698 0.264714 0.101686
0.702205 0.274937 0.101045
0.736507 0.284428 0.102419
0.768856 0.293706 0.105592
0.799374 0.302831 0.110445
0.828122 0.311620 0.118013
0.854917 0.320287 0.127230
0.879789 0.329046 0.139162
0.902892 0.338170 0.153017
0.924529 0.347356 0.169009
0.944610 0.357397 0.187198
0.963287 0.368414 0.207492
0.980591 0.380987 0.230198
0.996521 0.395270 0.256229
1.000000 0.412238 0.285679
1.000000 0.432471 0.319036
0.114321 0.164889 0.133944
0.121187 0.165438 0.133211
0.129824 0.166323 0.132052
0.148653 0.167697 0.131380
0.173342 0.170901 0.129641
0.203983 0.175998 0.126131
0.239384 0.183444 0.122591
0.274418 0.189853 0.120241
0.310552 0.196078 0.119509
0.350072 0.203708 0.117983
0.392187 0.212589 0.116396
0.436439 0.222416 0.114229
0.482033 0.233097 0.111879
0.528832 0.244022 0.109163
0.575708 0.255589 0.105867
0.620417 0.266606 0.103426
0.661555 0.277073 0.101320
0.699367 0.286595 0.100954
0.734035 0.295537 0.102296
0.766720 0.304021 0.105531
0.797543 0.312474 0.110445
0.826596 0.320684 0.117983
0.853544 0.329015 0.127565
0.878660 0.337163 0.139498
0.901976 0.345586 0.153384
0.923705 0.354467 0.169467
0.943908 0.364050 0.187381
0.962707 0.374701 0.207980
0.980163 0.386694 0.231113
0.996155 0.400641 0.257267
1.000000 0.417090 0.286687
1.000000 0.437049 0.320195
0.116487 0.179171 0.141329
0.122316 0.179660 0.140505
0.129946 0.180423 0.138766
0.147555 0.181704 0.137331
0.171572 0.184115 0.135958
0.199802 0.188663 0.134005
0.233524 0.195071 0.130007
0.270970 0.203342 0.126131
0.308446 0.211215 0.120851
0.346105 0.218540 0.118929
0.387976 0.227573 0.117067
0.431952 0.237308 0.114870
0.477577 0.247745 0.112306
0.524224 0.258793 0.109316
0.571283 0.270024 0.106203
0.616419 0.280644 0.103182
0.658015 0.290532 0.101076
0.696132 0.299504 0.100923
0.731228 0.307622 0.102541
0.764157 0.315923 0.105226
0.795377 0.323613 0.110811
0.824643 0.331518 0.117922
0.851987 0.338994 0.127932
0.877287 0.346685 0.139834
0.900847 0.354559 0.153841
0.922789 0.362707 0.170321
0.943084 0.371893 0.188266
0.962066 0.381964 0.208865
0.979583 0.393500 0.232273
0.995697 0.406897 0.258335
1.000000 0.423041 0.287968
1.000000 0.442512 0.321752
0.118379 0.195041 0.149783
0.123812 0.195407 0.148409
0.130617 0.196323 0.146944
0.146181 0.197482 0.144106
0.170443 0.199222 0.143160
0.198154 0.203128 0.141207
0.230198 0.208713 0.137942
0.265843 0.215824 0.133516
0.305028 0.224979 0.129000
0.345006 0.234318 0.123445
0.383307 0.242649 0.117952
0.427070 0.252567 0.115511
0.472480 0.263127 0.112886
0.519280 0.274022 0.109804
0.566339 0.285039 0.106691
0.611658 0.295628 0.103090
0.653834 0.304845 0.101656
0.692348 0.313603 0.101167
0.727779 0.321324 0.102266
0.761196 0.328862 0.105440
0.792813 0.336095 0.110964
0.822507 0.343267 0.118105
0.850156 0.350164 0.128298
0.875731 0.357366 0.140505
0.899504 0.364630 0.154482
0.921599 0.372320 0.170901
0.942168 0.380835 0.189242
0.961273 0.390417 0.210178
0.978943 0.401343 0.233371
0.995148 0.414343 0.259678
1.000000 0.429816 0.289494
1.000000 0.448859 0.323522
0.119844 0.212650 0.158297
0.124483 0.213046 0.157198
0.130678 0.213687 0.155550
0.144503 0.215000 0.151003
0.169497 0.216190 0.149874
0.197391 0.219211 0.148379
0.228397 0.224002 0.146181
0.263188 0.230594 0.141299
0.300938 0.238560 0.136477
0.341863 0.248417 0.131960
0.383703 0.258701 0.125551
0.422156 0.267399 0.118379
0.467048 0.278508 0.113863
0.513542 0.289433 0.110780
0.560723 0.300572 0.106874
0.606622 0.311009 0.103853
0.649134 0.320226 0.101778
0.688045 0.328527 0.101015
0.723995 0.335698 0.102327
0.757778 0.342840 0.105226
0.789883 0.349615 0.110933
0.819974 0.356176 0.118685
0.848020 0.362585 0.128786
0.873899 0.369146 0.141146
0.897948 0.375769 0.155520
0.920317 0.382940 0.171572
0.941070 0.390814 0.190127
0.960357 0.399756 0.211368
0.978210 0.410224 0.234806
0.994537 0.422644 0.261570
1.000000 0.437629 0.291447
1.000000 0.456031 0.325353
0.119539 0.231693 0.167300
0.124147 0.232029 0.166262
0.130282 0.232639 0.164340
0.143435 0.233799 0.159823
0.167178 0.235080 0.156802
0.196292 0.236759 0.155673
0.227695 0.241306 0.153414
0.261234 0.246677 0.150484
0.299107 0.254276 0.143648
0.338720 0.263127 0.139559
0.380682 0.273533 0.134157
0.423957 0.284550 0.127596
0.462440 0.293156 0.120241
0.507683 0.304631 0.111543
0.554803 0.316014 0.107546
0.600885 0.326665 0.104555
0.643793 0.335790 0.102174
0.683192 0.343816 0.101534
0.719631 0.350927 0.102693
0.754055 0.357458 0.105806
0.786618 0.363867 0.110780
0.817166 0.369909 0.118898
0.845579 0.375891 0.129152
0.871855 0.381842 0.141329
0.896239 0.387884 0.156283
0.918853 0.394446 0.172915
0.939818 0.401770 0.191684
0.959350 0.410163 0.212955
0.977356 0.420050 0.236454
0.993866 0.431800 0.263218
1.000000 0.446235 0.293309
1.000000 0.464088 0.327733
0.118074 0.252018 0.177249
0.122438 0.252537 0.175631
0.128603 0.253086 0.173953
0.141451 0.254185 0.169375
0.163394 0.255283 0.163424
0.194522 0.256474 0.162753
0.226719 0.259617 0.160739
0.260838 0.264805 0.157778
0.297978 0.271916 0.153109
0.337621 0.279728 0.145296
0.378210 0.289097 0.141817
0.421027 0.299687 0.136690
0.465339 0.311070 0.129458
0.504356 0.319921 0.120760
0.548241 0.331334 0.108949
0.594629 0.342138 0.104952
0.638025 0.351507 0.102785
0.678035 0.359350 0.101991
0.714839 0.366278 0.103304
0.749905 0.372747 0.105745
0.782956 0.378790 0.111299
0.813993 0.384375 0.119356
0.842832 0.389899 0.129549
0.869566 0.395331 0.142153
0.894255 0.400977 0.156863
0.917235 0.406836 0.174105
0.938476 0.413611 0.192874
0.958190 0.421393 0.214237
0.976410 0.430549 0.238407
0.993072 0.441810 0.265476
1.000000 0.455665 0.295903
1.000000 0.472938 0.330358
0.114870 0.273655 0.186984
0.119356 0.274052 0.185611
0.125551 0.274662 0.183688
0.138521 0.275517 0.178927
0.158541 0.276677 0.170871
0.191409 0.277623 0.168948
0.224979 0.279057 0.167849
0.260014 0.284092 0.164981
0.296818 0.290196 0.161624
0.336614 0.298161 0.155062
0.377661 0.306310 0.146975
0.418982 0.315862 0.144808
0.462348 0.326665 0.139498
0.507347 0.338415 0.130892
0.546532 0.346899 0.121645
0.588373 0.357305 0.109163
0.631861 0.367071 0.103914
0.672175 0.375097 0.102480
0.709682 0.381933 0.103120
0.745388 0.388128 0.106600
0.779019 0.393927 0.111788
0.810575 0.399359 0.120089
0.839933 0.404425 0.130343
0.867063 0.409369 0.143191
0.892180 0.414405 0.158236
0.915404 0.420020 0.175051
0.936980 0.426154 0.194491
0.956939 0.433356 0.215976
0.975402 0.441901 0.240299
0.992248 0.452522 0.267704
1.000000 0.465797 0.298405
1.000000 0.482521 0.333349
0.109590 0.296605 0.197818
0.114748 0.296849 0.196201
0.120974 0.297215 0.194003
0.134218 0.298314 0.189273
0.154269 0.299199 0.180972
0.186038 0.300114 0.175418
0.222477 0.300908 0.174655
0.258518 0.304479 0.172457
0.296300 0.310124 0.169100
0.335210 0.316960 0.165072
0.377111 0.325505 0.156924
0.418616 0.333837 0.150668
0.460548 0.343633 0.147982
0.504448 0.354376 0.141390
0.549065 0.365667 0.132570
0.587854 0.373877 0.122438
0.625757 0.381903 0.110964
0.665980 0.390570 0.103548
0.704128 0.397528 0.104189
0.740383 0.403784 0.107179
0.774685 0.409491 0.112795
0.806790 0.414618 0.120729
0.836637 0.419501 0.131044
0.864317 0.424018 0.144411
0.889830 0.428687 0.159152
0.913451 0.433631 0.176761
0.935363 0.439277 0.196353
0.955596 0.445808 0.218051
0.974273 0.453956 0.242466
0.991302 0.463996 0.270054
1.000000 0.476661 0.301305
1.000000 0.492775 0.336645
0.102846 0.320409 0.208713
0.108186 0.320684 0.207004
0.114595 0.321019 0.204929
0.128603 0.321874 0.200107
0.149294 0.322881 0.191684
0.178195 0.323644 0.181949
0.218601 0.324254 0.181033
0.255985 0.325322 0.179873
0.294835 0.330938 0.176699
0.334783 0.337407 0.172824
0.376104 0.345434 0.167666
0.418372 0.353491 0.159457
0.460334 0.362066 0.154086
0.502892 0.371832 0.150576
0.546502 0.382177 0.143648
0.589837 0.392554 0.134646
0.626337 0.399176 0.124697
0.660243 0.405188 0.113527
0.698054 0.413031 0.104829
0.735073 0.419409 0.108186
0.769955 0.425116 0.113375
0.802701 0.430182 0.121706
0.833219 0.434699 0.132174
0.861295 0.439063 0.145052
0.887297 0.443305 0.160678
0.911315 0.447822 0.177890
0.933593 0.452857 0.198093
0.954131 0.459083 0.220340
0.973053 0.466651 0.244999
0.990326 0.476081 0.272801
1.000000 0.488106 0.304295
1.000000 0.503624 0.340276
0.093019 0.345098 0.220401
0.099428 0.345342 0.218509
0.106538 0.345708 0.216373
0.121492 0.346563 0.211551
0.143008 0.347387 0.203189
0.170047 0.348211 0.190646
0.212406 0.348272 0.187808
0.253056 0.348730 0.186831
0.292729 0.352178 0.184695
0.333257 0.358465 0.181186
0.374731 0.365515 0.177157
0.418372 0.374609 0.171237
0.460395 0.382086 0.162570
0.502617 0.390509 0.157687
0.545068 0.399939 0.153872
0.587610 0.409583 0.146395
0.627741 0.417884 0.137484
0.661891 0.423224 0.128054
0.693385 0.427832 0.117922
0.729335 0.434913 0.109071
0.764920 0.440742 0.114351
0.798398 0.445747 0.122438
0.829465 0.450233 0.133059
0.858183 0.454292 0.146548
0.884581 0.458320 0.162234
0.909056 0.462348 0.179965
0.931670 0.467140 0.199832
0.952544 0.472786 0.222538
0.971771 0.479774 0.247532
0.989258 0.488655 0.275914
1.000000 0.500206 0.307774
1.000000 0.515099 0.343999
0.080964 0.370581 0.232578
0.087800 0.370825 0.230716
0.096101 0.371130 0.228977
0.113130 0.371710 0.223972
0.136019 0.372534 0.215518
0.163882 0.373175 0.203616
0.204135 0.373266 0.195499
0.248783 0.373266 0.194553
0.289433 0.373968 0.193301
0.331212 0.379828 0.190036
0.373388 0.386633 0.186160
0.416144 0.394324 0.181827
0.460487 0.403449 0.174380
0.502983 0.410803 0.165042
0.544945 0.419135 0.161501
0.586145 0.427619 0.157107
0.625666 0.435218 0.150332
0.662928 0.441840 0.142092
0.695583 0.446448 0.132753
0.726009 0.450355 0.123293
0.759548 0.456214 0.115633
0.793668 0.461372 0.123354
0.825406 0.465888 0.134585
0.854704 0.469825 0.147951
0.881743 0.473487 0.163577
0.906615 0.477333 0.181582
0.929625 0.481636 0.201999
0.950866 0.486824 0.224826
0.970367 0.493416 0.250523
0.988159 0.501793 0.278996
1.000000 0.512688 0.311223
1.000000 0.527062 0.348028
0.064973 0.396551 0.245121
0.073976 0.396612 0.243656
0.084016 0.397009 0.241825
0.103334 0.397498 0.236820
0.128725 0.398108 0.228672
0.157992 0.398688 0.216861
0.194034 0.398779 0.203494
0.242954 0.398322 0.202914
0.286412 0.398230 0.201785
0.328435 0.401831 0.199374
0.371527 0.408392 0.195651
0.414771 0.415808 0.191745
0.459113 0.424323 0.186770
0.503563 0.432837 0.177890
0.546227 0.440162 0.168093
0.586786 0.447486 0.165896
0.625605 0.454200 0.161868
0.662318 0.460090 0.155550
0.696864 0.465095 0.148104
0.728206 0.469001 0.139498
0.757504 0.472389 0.129580
0.788663 0.476905 0.124880
0.821164 0.481453 0.135744
0.851072 0.485389 0.148989
0.878599 0.488960 0.165103
0.904021 0.492531 0.183719
0.927428 0.496529 0.204379
0.949096 0.501366 0.227329
0.968933 0.507408 0.253483
0.986938 0.515343 0.282719
1.000000 0.525750 0.315251
1.000000 0.539544 0.352575
0.024750 0.423621 0.258854
0.048737 0.423774 0.257359
0.067262 0.424048 0.255131
0.091463 0.424537 0.250584
0.120119 0.424994 0.242588
0.151125 0.425513 0.231266
0.185428 0.425574 0.215793
0.235630 0.425055 0.211673
0.282658 0.424628 0.210575
0.325322 0.424903 0.208988
0.369482 0.431312 0.205570
0.413855 0.438697 0.201541
0.458625 0.446845 0.197238
0.504814 0.456428 0.190829
0.548425 0.463600 0.181430
0.589868 0.469642 0.171725
0.627649 0.475257 0.171023
0.663722 0.480171 0.167636
0.697871 0.484443 0.162020
0.729885 0.488075 0.154971
0.759518 0.491005 0.147097
0.787655 0.493812 0.138125
0.816556 0.496986 0.137118
0.847196 0.500938 0.150790
0.875303 0.504479 0.166812
0.901274 0.507836 0.185428
0.925139 0.511620 0.206638
0.947173 0.516106 0.230411
0.967376 0.521813 0.256565
0.985687 0.529259 0.286351
1.000000 0.539147 0.319280
1.000000 0.552483 0.357336
0.000000 0.452461 0.273045
0.000000 0.452613 0.272099
0.020691 0.452827 0.269780
0.073182 0.453223 0.265232
0.108400 0.453651 0.257633
0.142855 0.454078 0.246647
0.178958 0.454200 0.231510
0.226169 0.453590 0.221225
0.277684 0.452705 0.219913
0.323247 0.451972 0.218418
0.367590 0.455879 0.215702
0.413123 0.463020 0.211978
0.458839 0.470954 0.207828
0.504936 0.479774 0.203006
0.552331 0.489662 0.195285
0.593317 0.494423 0.185550
0.631800 0.498451 0.177890
0.667079 0.502159 0.177707
0.700618 0.505455 0.174777
0.732235 0.508293 0.169619
0.761776 0.510582 0.163149
0.789487 0.512444 0.155917
0.816342 0.514580 0.147921
0.842985 0.516564 0.152102
0.871794 0.520104 0.168521
0.898344 0.523369 0.187747
0.922759 0.526848 0.209354
0.945190 0.531121 0.233463
0.965789 0.536400 0.259953
0.984405 0.543481 0.289982
1.000000 0.552880 0.323766
1.000000 0.565698 0.362341
0.000000 0.483253 0.288823
0.000000 0.483284 0.287419
0.000000 0.483497 0.285252
0.025269 0.483833 0.280735
0.092256 0.484169 0.273045
0.132479 0.484535 0.262303
0.171328 0.484535 0.247501
0.213901 0.483955 0.231113
0.271427 0.482856 0.229923
0.320745 0.481849 0.228275
0.365698 0.481910 0.225986
0.412482 0.489021 0.222599
0.459266 0.496834 0.218540
0.506371 0.505394 0.214145
0.553704 0.514549 0.208957
0.598322 0.521538 0.200412
0.636744 0.524163 0.191165
0.672328 0.526207 0.186252
0.705165 0.528313 0.186130
0.736172 0.530083 0.183352
0.765286 0.531456 0.179232
0.792355 0.532311 0.173281
0.818021 0.533135 0.166873
0.843503 0.534600 0.159823
0.868132 0.535668 0.170535
0.895232 0.538933 0.189883
0.920195 0.542321 0.211856
0.943114 0.546258 0.236454
0.964080 0.551293 0.263523
0.983093 0.557977 0.293980
0.999908 0.567010 0.328435
1.000000 0.579370 0.367590
0.000000 0.515770 0.305119
0.000000 0.516014 0.303838
0.000000 0.516045 0.301518
0.000000 0.516381 0.297124
0.066285 0.516655 0.289769
0.118288 0.516899 0.279240
0.161929 0.516960 0.265324
0.204532 0.516320 0.246586
0.263066 0.515129 0.240848
0.316991 0.513725 0.239261
0.364752 0.512413 0.237186
0.411872 0.516594 0.233982
0.459998 0.524224 0.230381
0.507866 0.532280 0.226108
0.555505 0.540734 0.221561
0.602564 0.549004 0.215976
0.642847 0.552270 0.207736
0.678645 0.552789 0.198428
0.711330 0.553216 0.196170
0.741695 0.553765 0.196231
0.770230 0.554009 0.193881
0.796841 0.553948 0.190036
0.821500 0.553552 0.185519
0.844907 0.553246 0.179812
0.869139 0.554070 0.173495
0.891997 0.554528 0.192294
0.917510 0.557824 0.214298
0.940978 0.561639 0.239567
0.962341 0.566400 0.267216
0.981689 0.572717 0.298283
0.998810 0.581384 0.333349
1.000000 0.593256 0.373144
0.000000 0.550408 0.322545
0.000000 0.550622 0.321141
0.000000 0.550713 0.319341
0.000000 0.550835 0.314916
0.000000 0.551110 0.307774
0.099092 0.551263 0.297429
0.150851 0.551202 0.283238
0.197055 0.550530 0.265354
0.252811 0.549279 0.252781
0.312230 0.547509 0.251286
0.363653 0.545861 0.249149
0.410742 0.545373 0.246494
0.460060 0.552453 0.242893
0.508812 0.559960 0.239200
0.557031 0.567773 0.235111
0.604730 0.575921 0.230564
0.649592 0.582055 0.224979
0.685664 0.581659 0.216648
0.718776 0.580468 0.207919
0.748745 0.579278 0.208133
0.776547 0.578271 0.208804
0.802579 0.577234 0.206607
0.826688 0.575799 0.203738
0.849058 0.574121 0.199191
0.870329 0.572656 0.194430
0.893187 0.572961 0.195254
0.914733 0.573358 0.217166
0.938689 0.577081 0.242588
0.960540 0.581628 0.271183
0.980255 0.587701 0.302831
0.997681 0.595941 0.338323
1.000000 0.607446 0.378973
0.000000 0.585992 0.340612
0.000000 0.586084 0.339269
0.000000 0.586114 0.337469
0.000000 0.586358 0.332952
0.000000 0.586511 0.326024
0.071595 0.586419 0.315709
0.137545 0.586267 0.302647
0.189212 0.585473 0.285527
0.241001 0.583978 0.266300
0.305821 0.582055 0.264805
0.361212 0.579950 0.262577
0.410651 0.577691 0.259586
0.459663 0.581323 0.256504
0.509239 0.588190 0.253269
0.557977 0.595422 0.250034
0.606104 0.602899 0.245914
0.653559 0.610559 0.241917
0.693996 0.612818 0.236332
0.726680 0.609949 0.227970
0.757046 0.606897 0.219974
0.784237 0.604364 0.222477
0.809476 0.601953 0.223239
0.833066 0.599451 0.221805
0.854917 0.596796 0.218906
0.875212 0.594171 0.215213
0.894377 0.591669 0.211002
0.915953 0.591669 0.221714
0.936400 0.592523 0.246189
0.958679 0.596979 0.275029
0.978790 0.602777 0.307500
0.996521 0.610803 0.343969
1.000000 0.621942 0.385443
0.000000 0.621637 0.359014
0.000000 0.621698 0.357763
0.000000 0.621759 0.356054
0.000000 0.621851 0.351751
0.000000 0.621851 0.344823
0.000000 0.621820 0.335149
0.123293 0.621424 0.322606
0.181674 0.620661 0.306615
0.233768 0.619135 0.286595
0.298680 0.616907 0.279973
0.358038 0.614496 0.277806
0.410498 0.611933 0.275120
0.458778 0.610803 0.271611
0.509331 0.617060 0.268986
0.558648 0.623651 0.266209
0.607233 0.630488 0.262882
0.655024 0.637568 0.259129
0.700221 0.643305 0.255375
0.735836 0.641657 0.249790
0.765713 0.636988 0.242161
0.793271 0.632288 0.235203
0.817716 0.628351 0.239414
0.840543 0.624689 0.240085
0.861784 0.621027 0.239200
0.881621 0.617395 0.236545
0.900114 0.613825 0.233494
0.917357 0.610376 0.229313
0.937530 0.610651 0.251408
0.956817 0.612421 0.278904
0.977356 0.618006 0.311986
0.995392 0.625757 0.349401
1.000000 0.636561 0.391791
0.000000 0.657404 0.378210
0.000000 0.657404 0.376684
0.000000 0.657435 0.375097
0.000000 0.657435 0.371038
0.000000 0.657404 0.364355
0.000000 0.657252 0.355505
0.106844 0.656825 0.343420
0.174472 0.655879 0.328588
0.230594 0.654383 0.310338
0.291081 0.652033 0.297826
0.354742 0.649256 0.295293
0.409918 0.646418 0.292393
0.459541 0.643458 0.288884
0.509270 0.646448 0.286351
0.559380 0.652491 0.283787
0.608331 0.658808 0.281132
0.656336 0.665217 0.278447
0.703273 0.671656 0.275395
0.744472 0.674006 0.272679
0.775448 0.669154 0.266331
0.802518 0.662715 0.259098
0.827115 0.656641 0.255161
0.849119 0.651514 0.259007
0.869688 0.646723 0.259800
0.888975 0.642054 0.258824
0.906981 0.637629 0.256779
0.923857 0.633356 0.253483
0.939269 0.629358 0.257908
0.957733 0.630213 0.285710
0.975860 0.633356 0.316930
0.994293 0.640833 0.355077
1.000000 0.651423 0.398688
0.000000 0.693111 0.397528
0.000000 0.693080 0.396063
0.000000 0.693111 0.394415
0.000000 0.693111 0.390631
0.000000 0.692927 0.384253
0.000000 0.692714 0.376043
0.091035 0.692164 0.365026
0.168765 0.691218 0.351415
0.228794 0.689662 0.335149
0.285191 0.687282 0.318059
0.351995 0.684382 0.315679
0.409613 0.681239 0.312383
0.461036 0.678126 0.309026
0.509270 0.676387 0.305241
0.560052 0.681910 0.303624
0.609461 0.687556 0.301366
0.657679 0.693355 0.299535
0.704677 0.699214 0.297307
0.750484 0.705074 0.295018
0.786007 0.703120 0.293492
0.812619 0.695064 0.286503
0.836912 0.687190 0.279454
0.858793 0.680018 0.277806
0.878599 0.673945 0.281407
0.897246 0.668269 0.282200
0.914702 0.662898 0.281346
0.931121 0.657740 0.279118
0.946502 0.652888 0.276341
0.959777 0.649134 0.294896
0.976501 0.650843 0.324926
0.993164 0.656092 0.360998
1.000000 0.666346 0.405707
0.000000 0.728664 0.417212
0.000000 0.728664 0.415869
0.000000 0.728664 0.414405
0.000000 0.728573 0.410498
0.000000 0.728389 0.404852
0.000000 0.728084 0.397192
0.076753 0.727443 0.387060
0.166110 0.726467 0.375097
0.229892 0.724788 0.360967
0.287266 0.722469 0.345525
0.351232 0.719356 0.339117
0.410590 0.716152 0.335821
0.463478 0.712795 0.332189
0.511925 0.709377 0.327733
0.561303 0.711696 0.325505
0.610895 0.716762 0.324346
