其他预设/【212】创意蓝橙调色预设24款/1.3D LUT预设（视频调色-PR-AE-PS-FCPX-达芬奇用）/10.蓝橙色调__.cube
# Created by Adobe Lightroom plugin Export LUT (1.17.0)
# www.johnrellis.com/lightroom/exportlut.htm
# Preset: 10.蓝橙色调[素锦印象]
# Color profile: /Library/Application Support/Adobe/Color/Profiles/Recommended/AdobeRGB1998.icc
LUT_3D_SIZE 5
DOMAIN_MIN 0.000000 0.000000 0.000000
DOMAIN_MAX 0.903226 0.903226 0.903226
0.074983 0.074983 0.074983
0.297276 0.024109 0.079011
0.562066 0.047761 0.066163
0.781308 0.102174 0.053559
0.938262 0.138979 0.127199
0.037934 0.167117 0.125063
0.275731 0.183536 0.081544
0.551080 0.187991 0.058137
0.775265 0.191440 0.042664
0.939330 0.199405 0.130770
0.000000 0.322698 0.235172
0.201541 0.332921 0.171725
0.537499 0.354284 0.003052
0.766812 0.341070 0.018128
0.933562 0.321660 0.137331
0.000000 0.491585 0.350866
0.000000 0.505547 0.312413
0.502434 0.511559 0.204166
0.756619 0.494575 0.000000
0.929168 0.460731 0.158999
0.000000 0.699641 0.485908
0.000000 0.706172 0.461097
0.415961 0.707668 0.349096
0.786374 0.689662 0.217288
0.940490 0.615412 0.214969
0.000000 0.171206 0.247807
0.257664 0.168307 0.213657
0.539208 0.214755 0.067170
0.762142 0.227787 0.032502
0.931304 0.208255 0.124758
0.000000 0.241947 0.270207
0.239445 0.239445 0.239445
0.535363 0.258732 0.115297
0.759609 0.268650 0.023011
0.930907 0.246891 0.127474
0.000000 0.358465 0.320287
0.122774 0.374212 0.295048
0.520531 0.374609 0.205173
0.753719 0.375982 0.009216
0.929900 0.348333 0.137606
0.000000 0.516320 0.413428
0.000000 0.530236 0.391516
0.484810 0.535088 0.294835
0.750454 0.510643 0.162570
0.927276 0.476539 0.160952
0.000000 0.709071 0.528923
0.000000 0.715053 0.509758
0.369604 0.723384 0.408240
0.780667 0.706233 0.297704
0.940398 0.626001 0.216434
0.000000 0.329442 0.471931
0.000000 0.316472 0.465339
0.495918 0.316228 0.407874
0.748104 0.320470 0.264500
0.927977 0.319829 0.132448
0.000000 0.371283 0.481086
0.000000 0.357610 0.476478
0.486641 0.356695 0.420294
0.742580 0.354192 0.287663
0.928618 0.338170 0.135561
0.000000 0.460395 0.516747
0.000000 0.459052 0.510643
0.457465 0.457465 0.457465
0.732174 0.444343 0.345678
0.928252 0.405432 0.146120
0.000000 0.576715 0.564813
0.000000 0.584588 0.559960
0.336492 0.597589 0.501823
0.722316 0.567346 0.419501
0.924743 0.516655 0.186160
0.000000 0.740383 0.654627
0.000000 0.744564 0.642390
0.000000 0.753384 0.572137
0.722866 0.738918 0.486366
0.930053 0.658381 0.326604
0.000000 0.471931 0.673976
0.000000 0.471778 0.670741
0.152590 0.422004 0.659174
0.693172 0.483162 0.587793
0.900053 0.495583 0.495552
0.000000 0.497047 0.676326
0.000000 0.491157 0.673945
0.149905 0.451820 0.661616
0.687404 0.504234 0.594079
0.898405 0.507073 0.499428
0.000000 0.551537 0.689265
0.000000 0.548882 0.686885
0.058015 0.531792 0.674922
0.675257 0.566369 0.617578
0.900511 0.541650 0.505913
0.000000 0.633570 0.715938
0.000000 0.635340 0.712154
0.000000 0.638209 0.701747
0.653559 0.653529 0.653559
0.904417 0.604120 0.512596
0.000000 0.755520 0.781064
0.000000 0.762295 0.777798
0.000000 0.784390 0.766262
0.528038 0.789242 0.687709
0.895689 0.739925 0.603479
0.000000 0.589014 0.849760
0.000000 0.596551 0.847349
0.000000 0.585077 0.842832
0.585107 0.625360 0.823911
0.859220 0.690944 0.771237
0.000000 0.600397 0.851804
0.000000 0.607324 0.849516
0.000000 0.597711 0.844938
0.575280 0.633509 0.826719
0.858793 0.699580 0.775235
0.000000 0.631006 0.859495
0.000000 0.634333 0.857847
0.000000 0.634791 0.852689
0.519829 0.655482 0.836698
0.857206 0.725673 0.787442
0.000000 0.689540 0.871458
0.000000 0.693050 0.870207
0.000000 0.699306 0.865843
0.357580 0.702602 0.854246
0.853483 0.769802 0.808286
0.000000 0.764157 0.888243
0.000000 0.768093 0.887419
0.000000 0.783047 0.883543
0.000000 0.801907 0.875761
0.841672 0.841642 0.841642
