其他预设/【212】创意蓝橙调色预设24款/1.3D LUT预设（视频调色-PR-AE-PS-FCPX-达芬奇用）/10.蓝橙色调__.cube
# Created by Adobe Lightroom plugin Export LUT (1.17.0)
# www.johnrellis.com/lightroom/exportlut.htm
# Preset: 10.蓝橙色调[素锦印象]
# Color profile: /Library/Application Support/Adobe/Color/Profiles/Recommended/AdobeRGB1998.icc
LUT_3D_SIZE 8
DOMAIN_MIN 0.000000 0.000000 0.000000
DOMAIN_MAX 0.903226 0.903226 0.903226
0.074983 0.074983 0.074983
0.177554 0.046601 0.078279
0.335882 0.016815 0.078035
0.488472 0.020722 0.072541
0.636286 0.066957 0.056794
0.754879 0.096376 0.049256
0.853178 0.115724 0.076722
0.938262 0.138979 0.127199
0.070466 0.111299 0.086915
0.167697 0.114748 0.079530
0.328374 0.109377 0.078065
0.480934 0.111238 0.071351
0.628962 0.120851 0.053040
0.746517 0.132235 0.043427
0.847501 0.141543 0.074067
0.935210 0.157321 0.125154
0.005249 0.187381 0.140047
0.131350 0.192447 0.119295
0.311376 0.207279 0.078767
0.473579 0.211460 0.065278
0.625086 0.213779 0.034180
0.745052 0.212100 0.028443
0.851164 0.210910 0.075746
0.938079 0.214572 0.130556
0.000000 0.277775 0.204227
0.060883 0.283116 0.186099
0.282567 0.287144 0.135134
0.459358 0.303868 0.048402
0.626184 0.311925 0.004608
0.745388 0.301549 0.012604
0.848508 0.290959 0.075929
0.935729 0.284489 0.134615
0.000000 0.367468 0.265812
0.000000 0.372473 0.252567
0.224765 0.379828 0.189273
0.437232 0.384558 0.136568
0.605035 0.398016 0.000000
0.733303 0.387457 0.000000
0.840574 0.372351 0.076539
0.932036 0.360327 0.141695
0.000000 0.462531 0.330785
0.000000 0.469490 0.322759
0.114412 0.481331 0.271183
0.407538 0.483436 0.217044
0.592004 0.482887 0.132174
0.727291 0.476204 0.000000
0.837247 0.458167 0.085756
0.930388 0.440742 0.155459
0.000000 0.578180 0.409644
0.000000 0.582696 0.401801
0.000000 0.591638 0.361486
0.343755 0.595605 0.284581
0.580560 0.591211 0.229709
0.732967 0.571649 0.121859
0.838682 0.546532 0.095644
0.925658 0.521324 0.172152
0.000000 0.699641 0.485908
0.000000 0.701198 0.480995
0.000000 0.708431 0.449897
0.240513 0.715480 0.379797
0.548913 0.704768 0.329931
0.753689 0.701320 0.244785
0.866300 0.656092 0.114992
0.940490 0.615412 0.214969
0.018708 0.108309 0.153445
0.157656 0.113436 0.135134
0.318395 0.132723 0.079225
0.471046 0.153292 0.069551
0.621759 0.159915 0.048341
0.740414 0.162020 0.038453
0.843503 0.160891 0.072602
0.932372 0.164736 0.123659
0.000000 0.145968 0.166964
0.149142 0.149142 0.149142
0.313146 0.162600 0.097597
0.468055 0.176303 0.067964
0.618250 0.181643 0.045014
0.736599 0.181369 0.034180
0.839475 0.177829 0.070039
0.929259 0.178744 0.122103
0.000000 0.208652 0.188663
0.118654 0.218631 0.182223
0.303746 0.223819 0.136690
0.462959 0.238895 0.063539
0.613581 0.242588 0.029816
0.734340 0.238376 0.023377
0.840269 0.231540 0.070527
0.931212 0.227848 0.126101
0.000000 0.291752 0.238376
0.000000 0.299016 0.228611
0.276616 0.302647 0.180697
0.453162 0.310887 0.114595
0.609491 0.322026 0.003967
0.730587 0.312993 0.005768
0.837278 0.301305 0.069795
0.929107 0.292149 0.129793
0.000000 0.379461 0.292851
0.000000 0.383673 0.282109
0.199680 0.391241 0.220737
0.432502 0.392096 0.176364
0.595789 0.399786 0.084321
0.724758 0.394202 0.000000
0.834470 0.379461 0.072602
0.927886 0.365637 0.138491
0.000000 0.469947 0.351019
0.000000 0.474495 0.342931
0.088899 0.485054 0.299382
0.397070 0.487312 0.244205
0.586938 0.486427 0.169802
0.723751 0.481056 0.000000
0.834012 0.463569 0.084627
0.927459 0.444465 0.153445
0.000000 0.578668 0.422950
0.000000 0.581445 0.414679
0.000000 0.590814 0.379370
0.323674 0.596979 0.302007
0.572961 0.593439 0.254185
0.728298 0.573388 0.158297
0.834104 0.548486 0.090669
0.921782 0.522759 0.169162
0.000000 0.699031 0.496681
0.000000 0.701106 0.492531
0.000000 0.708644 0.464118
0.219242 0.716274 0.398352
0.544396 0.711116 0.353033
0.750546 0.705531 0.269841
0.864225 0.658778 0.148867
0.938689 0.617029 0.212711
0.000000 0.194064 0.281071
0.000000 0.192905 0.274968
0.291691 0.188632 0.241337
0.463233 0.195895 0.160983
0.615961 0.241581 0.055787
0.735622 0.252171 0.018952
0.842252 0.240452 0.071168
0.933074 0.224857 0.127535
0.000000 0.221653 0.284459
0.000000 0.216556 0.280552
0.285252 0.213352 0.248508
0.457404 0.216495 0.175113
0.610834 0.253330 0.080598
0.731930 0.262882 0.016968
0.839322 0.250401 0.070161
0.931365 0.235019 0.126864
0.000000 0.273259 0.305394
0.000000 0.272587 0.301122
0.270237 0.270237 0.270237
0.449226 0.272618 0.212039
0.608301 0.291661 0.122835
0.730373 0.300450 0.009491
0.838071 0.286656 0.069734
0.930449 0.269993 0.129183
0.000000 0.334356 0.327764
0.000000 0.339757 0.326085
0.208438 0.348394 0.296300
0.441230 0.345251 0.253025
0.603449 0.351690 0.174929
0.727687 0.357977 0.000000
0.836790 0.342596 0.071015
0.929717 0.324102 0.134432
0.000000 0.407691 0.363653
0.000000 0.414069 0.361456
0.130373 0.428382 0.336553
0.418128 0.427436 0.284092
0.590143 0.424353 0.231876
0.721157 0.421118 0.127016
0.832639 0.409094 0.075410
0.927642 0.389014 0.142489
0.000000 0.494484 0.413153
0.000000 0.500023 0.410071
0.000000 0.511498 0.385565
0.358862 0.513390 0.323613
0.578241 0.509056 0.268772
0.715724 0.496315 0.207065
0.830137 0.484474 0.086610
0.927184 0.462287 0.157412
0.000000 0.598322 0.477150
0.000000 0.601587 0.471901
0.000000 0.609613 0.446387
0.266667 0.615351 0.380835
0.551934 0.609705 0.332128
0.722499 0.589624 0.253025
0.832334 0.564324 0.166354
0.923705 0.538567 0.175570
0.000000 0.709590 0.540551
0.000000 0.710292 0.535424
0.000000 0.716793 0.513664
0.115389 0.726375 0.461067
0.512749 0.721584 0.410529
0.733761 0.715938 0.342748
0.859770 0.671321 0.243290
0.938689 0.627802 0.214237
0.000000 0.283757 0.408362
0.000000 0.286931 0.405188
0.053285 0.248478 0.396551
0.428504 0.272313 0.352026
0.600000 0.269078 0.269078
0.726223 0.292393 0.182803
0.834684 0.308629 0.068727
0.929168 0.283635 0.129061
0.000000 0.306401 0.411872
0.000000 0.302281 0.410834
0.065248 0.270085 0.400580
0.426062 0.288853 0.357794
0.596796 0.284794 0.277684
0.723598 0.302922 0.192752
0.832944 0.317418 0.067842
0.928557 0.289952 0.129519
0.000000 0.342626 0.424018
0.000000 0.340032 0.422675
0.020264 0.324376 0.411780
0.414862 0.333684 0.372351
0.588647 0.332219 0.304936
0.722011 0.340734 0.225772
0.836576 0.349065 0.071260
0.930877 0.317418 0.134279
0.000000 0.398596 0.447028
0.000000 0.398047 0.444862
0.000000 0.397162 0.435920
0.397620 0.397620 0.397620
0.576013 0.396765 0.343664
0.714290 0.392065 0.264134
0.831785 0.388037 0.125429
0.929229 0.362066 0.139376
0.000000 0.461036 0.470466
0.000000 0.463203 0.469032
0.000000 0.471504 0.461555
0.333562 0.478096 0.421424
0.566613 0.467872 0.381353
0.708370 0.458259 0.311711
0.829313 0.444221 0.189761
0.928008 0.419959 0.148806
0.000000 0.534661 0.504723
0.000000 0.540795 0.506035
0.000000 0.551751 0.497292
0.260410 0.558953 0.455512
0.553155 0.551751 0.402441
0.702358 0.531334 0.355871
0.824063 0.513481 0.260838
0.927276 0.487495 0.163760
0.000000 0.626062 0.555505
0.000000 0.629419 0.553460
0.000000 0.638361 0.540520
0.123262 0.645441 0.498451
0.504051 0.638514 0.443336
0.709590 0.622156 0.377142
0.823697 0.590845 0.317998
0.924041 0.560143 0.183108
0.000000 0.731167 0.614618
0.000000 0.732509 0.610620
0.000000 0.736233 0.593408
0.000000 0.742855 0.550988
0.433600 0.740261 0.492988
0.697749 0.732296 0.447913
0.849332 0.693843 0.354131
0.936309 0.645960 0.254093
0.000000 0.373419 0.533349
0.000000 0.377264 0.530175
0.000000 0.358404 0.527977
0.262486 0.313054 0.512657
0.559594 0.359258 0.461372
0.705074 0.353338 0.380774
0.824277 0.360693 0.301274
0.926207 0.355993 0.164309
0.000000 0.388586 0.535149
0.000000 0.387823 0.534203
0.000000 0.370825 0.532494
0.254154 0.325414 0.515404
0.556695 0.370092 0.464302
0.703334 0.364294 0.386450
0.823545 0.368902 0.306706
0.926085 0.360967 0.166354
0.000000 0.419745 0.544945
0.000000 0.417792 0.545068
0.000000 0.404761 0.540337
0.229984 0.369390 0.523369
0.547234 0.403326 0.473793
0.695583 0.397101 0.402594
0.819883 0.394079 0.321721
0.925017 0.376135 0.169680
0.000000 0.462074 0.560021
0.000000 0.460639 0.559014
0.000000 0.454597 0.554009
0.212039 0.440162 0.537926
0.535058 0.455512 0.492683
0.688472 0.449287 0.430976
0.818021 0.433417 0.342473
0.927489 0.399481 0.159396
0.000000 0.516533 0.580072
0.000000 0.516594 0.579095
0.000000 0.515557 0.573510
0.160922 0.514183 0.558038
0.516014 0.516014 0.516014
0.679713 0.507500 0.460761
0.814755 0.483680 0.366827
0.926452 0.446662 0.194705
0.000000 0.574212 0.599481
0.000000 0.575525 0.598718
0.000000 0.579248 0.593896
0.000000 0.588617 0.581537
0.445624 0.590631 0.531914
0.671321 0.575341 0.495644
0.808438 0.555871 0.418982
0.924163 0.514488 0.264256
0.000000 0.652399 0.639857
0.000000 0.654322 0.637659
0.000000 0.662013 0.633600
0.000000 0.674861 0.618555
0.363226 0.672419 0.560388
0.668666 0.660548 0.515038
0.804135 0.628992 0.460731
0.916136 0.590417 0.340368
0.000000 0.751583 0.697810
0.000000 0.753689 0.695583
0.000000 0.756954 0.683223
0.000000 0.764767 0.658442
0.216281 0.764218 0.597864
0.634516 0.750668 0.563531
0.825895 0.727047 0.484138
0.923491 0.676600 0.403723
0.000000 0.456947 0.651881
0.000000 0.460578 0.649744
0.000000 0.449622 0.646418
0.000000 0.419959 0.639521
0.443580 0.410956 0.617945
0.669184 0.456916 0.563256
0.798367 0.464607 0.506035
0.908598 0.460548 0.438361
0.000000 0.464485 0.649256
0.000000 0.466987 0.646998
0.000000 0.454749 0.645014
0.000000 0.427222 0.638300
0.437293 0.416297 0.617487
0.666285 0.463355 0.564477
0.796658 0.470192 0.508446
0.907897 0.464240 0.439521
0.000000 0.491188 0.654902
0.000000 0.488869 0.653925
0.000000 0.478614 0.651118
0.000000 0.457496 0.643885
0.417670 0.439246 0.623651
0.661555 0.489509 0.573754
0.794095 0.492744 0.519738
0.907713 0.478614 0.445014
0.000000 0.522881 0.663355
0.000000 0.521080 0.662287
0.000000 0.514977 0.659632
0.000000 0.503563 0.654231
0.378058 0.482460 0.636896
0.656367 0.531792 0.591028
0.792386 0.528832 0.538354
0.909728 0.499977 0.449317
0.000000 0.562554 0.673701
0.000000 0.562463 0.672908
0.000000 0.559777 0.670466
0.000000 0.554742 0.663783
0.337163 0.546227 0.647395
0.643030 0.573968 0.605890
0.787411 0.565057 0.551354
0.911559 0.519951 0.439429
0.000000 0.610590 0.688258
0.000000 0.612329 0.687678
0.000000 0.612757 0.685145
0.000000 0.613764 0.678676
0.284764 0.617121 0.663935
0.627253 0.627161 0.627222
0.783749 0.617273 0.574243
0.912749 0.566796 0.451759
0.000000 0.674708 0.719142
0.000000 0.677241 0.718288
0.000000 0.681575 0.715328
0.000000 0.688350 0.709834
0.157107 0.700923 0.695857
0.566278 0.701259 0.645472
0.775998 0.682704 0.607874
0.902434 0.648219 0.516960
0.000000 0.755642 0.766018
0.000000 0.757504 0.764675
0.000000 0.764431 0.759915
0.000000 0.777218 0.752743
0.000000 0.794858 0.734737
0.471473 0.783597 0.666621
0.782132 0.769650 0.627405
0.902373 0.726619 0.566155
0.000000 0.523949 0.750820
0.000000 0.526604 0.749416
0.000000 0.525017 0.746883
0.000000 0.508263 0.743954
0.229129 0.484016 0.734890
0.601434 0.528649 0.711971
0.766537 0.566003 0.664179
0.876005 0.593866 0.636866
0.000000 0.530632 0.751858
0.000000 0.533135 0.750454
0.000000 0.530175 0.748196
0.000000 0.514061 0.744808
0.228489 0.491554 0.736080
0.600092 0.534081 0.713680
0.766415 0.571344 0.666621
0.876341 0.598077 0.639368
0.000000 0.548119 0.754147
0.000000 0.550408 0.752956
0.000000 0.546471 0.751186
0.000000 0.532860 0.747860
0.221225 0.514611 0.739254
0.591821 0.549157 0.717433
0.763912 0.586236 0.672236
0.875669 0.608240 0.643702
0.000000 0.573297 0.759792
0.000000 0.575189 0.758511
0.000000 0.573053 0.756649
0.000000 0.562860 0.753323
0.189548 0.550042 0.744991
0.570703 0.570977 0.724208
0.759884 0.610193 0.681605
0.875731 0.624659 0.649989
0.000000 0.606622 0.768246
0.000000 0.608667 0.767330
0.000000 0.609400 0.765225
0.000000 0.602380 0.762234
0.000000 0.593439 0.754757
0.520531 0.597467 0.736263
0.755520 0.642664 0.695583
0.877104 0.647272 0.657832
0.000000 0.647333 0.779019
0.000000 0.649073 0.778073
0.000000 0.652827 0.775448
0.000000 0.650324 0.772702
0.000000 0.647211 0.766506
0.460853 0.650752 0.750698
0.747463 0.683131 0.712642
0.879149 0.675685 0.665003
0.000000 0.693050 0.791257
0.000000 0.694728 0.790433
0.000000 0.700649 0.787625
0.000000 0.702968 0.785122
0.000000 0.707637 0.779934
0.408087 0.719448 0.767239
0.734188 0.734157 0.734188
0.879942 0.717128 0.676326
0.000000 0.755062 0.823178
0.000000 0.756832 0.822751
0.000000 0.762814 0.820676
0.000000 0.774044 0.817105
0.000000 0.785031 0.812711
0.254978 0.803922 0.800290
0.677241 0.805081 0.751492
0.874174 0.784573 0.714565
0.000000 0.589014 0.849760
0.000000 0.591180 0.848997
0.000000 0.598322 0.846647
0.000000 0.589044 0.844724
0.000000 0.583673 0.839902
0.509972 0.609644 0.828397
0.747707 0.665858 0.809812
0.859220 0.690944 0.771237
0.000000 0.592889 0.850431
0.000000 0.594965 0.849729
0.000000 0.601862 0.847318
0.000000 0.592859 0.845487
0.000000 0.587762 0.840665
0.506493 0.612421 0.829343
0.746883 0.668696 0.810788
0.859251 0.693843 0.772671
0.000000 0.603723 0.852598
0.000000 0.605707 0.851926
0.000000 0.612879 0.849638
0.000000 0.605188 0.847501
0.000000 0.600580 0.842863
0.491096 0.620722 0.832151
0.742702 0.676967 0.813443
0.858671 0.702510 0.776577
0.000000 0.618708 0.856870
0.000000 0.620508 0.856199
0.000000 0.627314 0.853941
0.000000 0.625299 0.851377
0.000000 0.620905 0.846983
0.461799 0.636866 0.836820
0.732815 0.689509 0.818143
0.857664 0.716426 0.783047
0.000000 0.645747 0.862516
0.000000 0.646723 0.861967
0.000000 0.650111 0.860288
0.000000 0.652003 0.857511
0.000000 0.646845 0.853727
0.402167 0.659266 0.844297
0.713405 0.705806 0.825559
0.856474 0.736233 0.792416
0.000000 0.680201 0.869657
0.000000 0.681239 0.869291
0.000000 0.684779 0.867918
0.000000 0.690425 0.865202
0.000000 0.684199 0.862425
0.256199 0.687251 0.854612
0.668391 0.722988 0.836454
0.854124 0.761959 0.804501
0.000000 0.719997 0.878202
0.000000 0.721096 0.877897
0.000000 0.724880 0.876768
0.000000 0.731594 0.874388
0.000000 0.734676 0.871519
0.000000 0.737148 0.866087
0.594568 0.758999 0.851591
0.850553 0.796384 0.821012
0.000000 0.764157 0.888243
0.000000 0.765347 0.888060
0.000000 0.769497 0.887083
0.000000 0.777371 0.885039
0.000000 0.788327 0.881956
0.000000 0.797726 0.877684
0.536553 0.820096 0.866758
0.841672 0.841642 0.841642
