其他预设/【212】创意蓝橙调色预设24款/1.3D LUT预设（视频调色-PR-AE-PS-FCPX-达芬奇用）/10.蓝橙色调__.cube
# Created by Adobe Lightroom plugin Export LUT (1.17.0)
# www.johnrellis.com/lightroom/exportlut.htm
# Preset: 10.蓝橙色调[素锦印象]
# Color profile: /Library/Application Support/Adobe/Color/Profiles/Recommended/AdobeRGB1998.icc
LUT_3D_SIZE 32
0.074983 0.074983 0.074983
0.074983 0.074983 0.074983
0.094392 0.072267 0.075654
0.136080 0.061524 0.076936
0.177554 0.046601 0.078279
0.218509 0.039155 0.079103
0.258366 0.031189 0.079255
0.297276 0.024109 0.079011
0.335882 0.016815 0.078035
0.374121 0.010468 0.077302
0.412543 0.011292 0.076509
0.450660 0.017426 0.074769
0.488472 0.020722 0.072541
0.525566 0.035187 0.069245
0.562066 0.047761 0.066163
0.597620 0.059388 0.062135
0.636286 0.066957 0.056794
0.669886 0.075837 0.050874
0.699428 0.083497 0.048554
0.727535 0.091005 0.045808
0.754879 0.096376 0.049256
0.781308 0.102174 0.053559
0.806424 0.106661 0.061128
0.830350 0.111391 0.067842
0.853178 0.115724 0.076722
0.875181 0.120211 0.087160
0.896574 0.125612 0.098878
0.917571 0.131655 0.112215
0.938262 0.138979 0.127199
0.958648 0.148714 0.143648
0.978698 0.160678 0.162661
0.998138 0.176120 0.184237
0.074983 0.074983 0.074983
0.074983 0.074983 0.074983
0.093446 0.072480 0.075319
0.135164 0.063813 0.076509
0.176547 0.062257 0.078035
0.217227 0.059144 0.079255
0.257420 0.052552 0.079438
0.296086 0.046052 0.079286
0.334417 0.041291 0.077974
0.372717 0.035401 0.076905
0.411048 0.033722 0.076234
0.449104 0.038331 0.074922
0.486824 0.045167 0.072663
0.523888 0.057130 0.069398
0.560204 0.062348 0.065705
0.595819 0.069062 0.062013
0.634028 0.076051 0.055329
0.667414 0.081819 0.050935
0.696834 0.089113 0.047181
0.724880 0.095033 0.045655
0.752224 0.100343 0.047547
0.778714 0.105226 0.052094
0.804013 0.109926 0.059815
0.828122 0.113802 0.067079
0.851164 0.117830 0.076081
0.873320 0.122255 0.086244
0.894926 0.127077 0.098085
0.916075 0.133059 0.111299
0.936919 0.140322 0.125978
0.957458 0.149599 0.142763
0.977600 0.161105 0.161654
0.997162 0.176089 0.183017
0.074983 0.074983 0.074983
0.074983 0.074983 0.074983
0.092348 0.073884 0.075227
0.134249 0.073610 0.076844
0.175540 0.073274 0.078340
0.216342 0.070832 0.079561
0.255894 0.068116 0.079774
0.294743 0.064759 0.079347
0.333196 0.062470 0.078401
0.371405 0.060945 0.076967
0.409735 0.060456 0.075990
0.447852 0.062013 0.074311
0.485451 0.065156 0.072114
0.522576 0.069093 0.069703
0.558892 0.074220 0.065949
0.594690 0.078920 0.061463
0.632593 0.084718 0.056275
0.665827 0.089662 0.050507
0.695216 0.095613 0.046998
0.723262 0.101198 0.046571
0.750759 0.105715 0.047425
0.777340 0.110109 0.051240
0.802731 0.113954 0.059846
0.826932 0.118135 0.067048
0.850034 0.121492 0.075410
0.872282 0.125490 0.085695
0.893980 0.130068 0.097353
0.915251 0.135744 0.110445
0.936187 0.142519 0.125429
0.956786 0.151583 0.142458
0.976989 0.162875 0.161105
0.996612 0.177523 0.182559
0.074281 0.088167 0.075532
0.074708 0.090211 0.075654
0.091676 0.092134 0.076295
0.132448 0.093446 0.077455
0.173495 0.092561 0.079072
0.214298 0.091218 0.079652
0.254063 0.088808 0.079591
0.292943 0.086793 0.079133
0.331395 0.084535 0.077974
0.369665 0.083925 0.076875
0.408057 0.083101 0.076265
0.446143 0.084779 0.073548
0.483680 0.087190 0.071382
0.520745 0.090028 0.068574
0.557183 0.092744 0.065339
0.593286 0.096681 0.060670
0.630793 0.101198 0.054414
0.663661 0.104707 0.050019
0.692927 0.108858 0.045899
0.720790 0.113252 0.043793
0.748165 0.116518 0.045502
0.774777 0.119631 0.050782
0.800443 0.123323 0.058625
0.825071 0.126345 0.066255
0.848722 0.129854 0.074769
0.871427 0.133089 0.085054
0.893462 0.136873 0.097261
0.914946 0.142275 0.110689
0.935943 0.148623 0.125826
0.956573 0.156466 0.142397
0.976684 0.167636 0.161196
0.996216 0.181155 0.182467
0.070466 0.111299 0.086915
0.071382 0.113130 0.082826
0.086458 0.114137 0.077211
0.125673 0.114046 0.077394
0.167697 0.114748 0.079530
0.210758 0.114290 0.079957
0.250706 0.112428 0.079957
0.289708 0.110933 0.079530
0.328374 0.109377 0.078065
0.366644 0.109194 0.076997
0.405066 0.108400 0.075837
0.443153 0.109895 0.073121
0.480934 0.111238 0.071351
0.518029 0.113375 0.067842
0.554650 0.115908 0.064057
0.591608 0.117739 0.059724
0.628962 0.120851 0.053040
0.661830 0.123415 0.048005
0.691279 0.127138 0.042969
0.719203 0.129671 0.040406
0.746517 0.132235 0.043427
0.773129 0.134463 0.049470
0.798947 0.136873 0.057588
0.823758 0.139010 0.065400
0.847501 0.141543 0.074067
0.870420 0.144228 0.084718
0.892576 0.147341 0.096986
0.914122 0.151431 0.110567
0.935210 0.157321 0.125154
0.955840 0.164523 0.142123
0.976013 0.174319 0.161166
0.995605 0.187106 0.182437
0.065736 0.129702 0.098512
0.066072 0.130892 0.096132
0.075624 0.132174 0.091035
0.116213 0.132296 0.083223
0.157412 0.132815 0.079591
0.203281 0.136233 0.080964
0.247349 0.137118 0.080354
0.286564 0.135897 0.079683
0.325292 0.135042 0.078523
0.363836 0.134432 0.077211
0.402411 0.134646 0.074922
0.440681 0.135317 0.072633
0.478431 0.136385 0.070222
0.515740 0.137881 0.066651
0.552636 0.138735 0.062928
0.590356 0.140902 0.058656
0.627405 0.143130 0.049836
0.660365 0.145418 0.042939
0.689998 0.147372 0.039155
0.718196 0.148287 0.040253
0.745693 0.150118 0.041138
0.772641 0.151705 0.046754
0.812100 0.157290 0.061036
0.836027 0.158694 0.069551
0.858732 0.160861 0.079286
0.880552 0.162478 0.090700
0.901640 0.165316 0.102388
0.922179 0.168521 0.116732
0.942321 0.173617 0.131777
0.962158 0.180453 0.148592
0.981476 0.189578 0.167514
1.000000 0.201480 0.188876
0.058717 0.148470 0.111391
0.059785 0.149264 0.109102
0.067201 0.150362 0.105745
0.108125 0.151461 0.100038
0.149630 0.151949 0.090120
0.192996 0.155276 0.081422
0.240818 0.160464 0.081697
0.285710 0.161868 0.080720
0.324987 0.161593 0.079133
0.364233 0.161288 0.076692
0.403204 0.161532 0.073884
0.441901 0.162081 0.071138
0.479896 0.162753 0.068116
0.517540 0.163516 0.064485
0.554223 0.164279 0.060151
0.592950 0.165621 0.053651
0.629969 0.167330 0.045106
0.662959 0.167941 0.039002
0.692683 0.169100 0.035248
0.721401 0.169955 0.034424
0.749874 0.170871 0.039734
0.777951 0.172030 0.047761
0.805142 0.173098 0.058625
0.830991 0.174319 0.066529
0.855283 0.175509 0.077546
0.878050 0.177066 0.088899
0.899657 0.179110 0.101930
0.920531 0.181857 0.115663
0.940887 0.185824 0.130892
0.960784 0.191379 0.148196
0.980224 0.199374 0.166842
0.999023 0.210330 0.188296
0.037934 0.167117 0.125063
0.040192 0.167819 0.123476
0.057038 0.169039 0.120546
0.097597 0.170352 0.114534
0.141634 0.171176 0.106477
0.182834 0.172335 0.095491
0.228336 0.177981 0.081910
0.275731 0.183536 0.081544
0.320623 0.186313 0.079377
0.360143 0.185885 0.076692
0.399481 0.186435 0.072786
0.438392 0.186587 0.070100
0.476600 0.186954 0.066346
0.514244 0.187289 0.063539
0.551080 0.187991 0.058137
0.590661 0.189609 0.048768
0.627222 0.190249 0.039887
0.660029 0.190433 0.034455
0.689845 0.190646 0.029267
0.718563 0.190768 0.030182
0.747127 0.191135 0.033722
0.775265 0.191440 0.042664
0.802518 0.191592 0.055940
0.828458 0.191928 0.066224
0.852964 0.192416 0.076722
0.875914 0.193454 0.087922
0.897734 0.194553 0.101198
0.918791 0.196323 0.115297
0.939330 0.199405 0.130770
0.959380 0.204196 0.147524
0.978973 0.211032 0.166934
0.997925 0.220798 0.188174
0.005249 0.187381 0.140047
0.008881 0.188083 0.138460
0.038972 0.189212 0.136385
0.088106 0.190799 0.130739
0.131350 0.192447 0.119295
0.176608 0.193118 0.111574
0.219028 0.195560 0.098970
0.264622 0.201663 0.081392
0.311376 0.207279 0.078767
0.356329 0.210391 0.075776
0.395972 0.210575 0.072236
0.435035 0.210819 0.068757
0.473579 0.211460 0.065278
0.511406 0.211765 0.060639
0.549157 0.212253 0.053986
0.588647 0.213352 0.045441
0.625086 0.213779 0.034180
0.657801 0.213199 0.029633
0.687617 0.212802 0.026184
0.716457 0.212161 0.026642
0.745052 0.212100 0.028443
0.773281 0.211429 0.039368
0.800565 0.211154 0.052125
0.826596 0.211032 0.064057
0.851164 0.210910 0.075746
0.874266 0.210666 0.087892
0.896239 0.211337 0.100740
0.917418 0.212436 0.114961
0.938079 0.214572 0.130556
0.958251 0.218357 0.147860
0.977905 0.224247 0.167147
0.996918 0.232822 0.188388
0.000000 0.208774 0.155215
0.000000 0.209354 0.154421
0.013001 0.210391 0.152407
0.076570 0.212161 0.146242
0.116915 0.214420 0.133394
0.168429 0.215152 0.125521
0.212741 0.216129 0.115572
0.256443 0.219455 0.100526
0.301457 0.225284 0.081849
0.347234 0.230686 0.075013
0.391913 0.234226 0.071351
0.431250 0.234714 0.066987
0.470008 0.235050 0.063478
0.508080 0.235447 0.058076
0.547631 0.236301 0.049866
0.586969 0.237125 0.038239
0.623529 0.237400 0.027100
0.656428 0.236667 0.021576
0.686427 0.235508 0.020996
0.715267 0.234318 0.021088
0.743709 0.233341 0.024109
0.771481 0.232303 0.035004
0.798428 0.231235 0.049928
0.824186 0.230320 0.062531
0.848722 0.229343 0.074891
0.871916 0.228702 0.087251
0.894194 0.228550 0.100069
0.915709 0.228885 0.114809
0.936675 0.230503 0.130800
0.957153 0.233524 0.148196
0.977081 0.238590 0.167544
0.996338 0.246281 0.189334
0.000000 0.230411 0.171237
0.000000 0.230991 0.170077
0.000000 0.231968 0.167880
0.059785 0.233890 0.162570
0.103456 0.236454 0.150942
0.154879 0.237675 0.137667
0.205783 0.238499 0.129793
0.249699 0.239536 0.118410
0.294133 0.243565 0.100557
0.338506 0.249088 0.080446
0.383368 0.254307 0.069093
0.427802 0.257908 0.065858
0.466651 0.258366 0.061341
0.505058 0.258549 0.055879
0.545586 0.260044 0.044312
0.584588 0.260990 0.030823
0.620966 0.260655 0.021820
0.653864 0.259648 0.014710
0.684077 0.258000 0.012573
0.713008 0.256321 0.014466
0.741451 0.254734 0.020539
0.769467 0.253056 0.032136
0.796597 0.251560 0.048066
0.822507 0.250248 0.061707
0.847135 0.248875 0.074006
0.870420 0.247745 0.086397
0.892729 0.246708 0.100526
0.914336 0.246464 0.114687
0.935363 0.247288 0.130800
0.955932 0.249485 0.148562
0.975982 0.253666 0.168063
0.995331 0.260410 0.190036
0.000000 0.252903 0.187106
0.000000 0.253574 0.186038
0.000000 0.254582 0.184085
0.007172 0.256474 0.179110
0.085969 0.259129 0.168429
0.134981 0.261326 0.150332
0.194827 0.261601 0.143404
0.243412 0.262425 0.132967
0.287449 0.263798 0.119417
0.332158 0.267643 0.098604
0.375799 0.272831 0.077272
0.419928 0.278202 0.061891
0.470253 0.285527 0.056641
0.511742 0.287236 0.047578
0.553796 0.288975 0.033021
0.593744 0.289799 0.020172
0.630030 0.289189 0.009888
0.662562 0.287266 0.007202
0.692103 0.285069 0.006226
0.720729 0.282475 0.009400
0.748745 0.280034 0.019043
0.775937 0.277806 0.031159
0.802152 0.275456 0.049775
0.827268 0.273442 0.064240
0.851194 0.271275 0.076631
0.873960 0.269322 0.089326
0.895842 0.267643 0.103731
0.916960 0.266941 0.118471
0.937591 0.266911 0.134432
0.957794 0.268406 0.152010
0.977447 0.271702 0.171450
0.996521 0.277562 0.193606
0.000000 0.277775 0.204227
0.000000 0.278355 0.202976
0.000000 0.279210 0.201114
0.000000 0.280949 0.195895
0.060883 0.283116 0.186099
0.117311 0.285557 0.169863
0.178561 0.286381 0.155398
0.234714 0.286412 0.147799
0.282567 0.287144 0.135134
0.326970 0.289006 0.118227
0.371679 0.292790 0.096284
0.415320 0.298344 0.072724
0.459358 0.303868 0.048402
0.507988 0.310094 0.040650
0.549859 0.311955 0.028016
0.589746 0.312627 0.014557
0.626184 0.311925 0.004608
0.658778 0.309789 0.000000
0.688563 0.307042 0.000519
0.717250 0.304112 0.004608
0.745388 0.301549 0.012604
0.772793 0.298833 0.025513
0.799161 0.296178 0.044678
0.824430 0.293431 0.063142
0.848508 0.290959 0.075929
0.871519 0.288334 0.089235
0.893553 0.286412 0.103273
0.914885 0.285100 0.118196
0.935729 0.284489 0.134615
0.956146 0.285313 0.152651
0.976013 0.287846 0.172305
0.995331 0.292912 0.194461
0.000000 0.300053 0.219730
0.000000 0.300755 0.218357
0.000000 0.301488 0.216587
0.000000 0.303227 0.212009
0.000000 0.305455 0.203128
0.094667 0.307927 0.188693
0.152773 0.309911 0.165835
0.220920 0.309575 0.160830
0.273411 0.309911 0.150362
0.320226 0.310765 0.136019
0.364965 0.312840 0.115969
0.408728 0.316533 0.094026
0.453040 0.322698 0.068482
0.499550 0.329808 0.024994
0.545800 0.334661 0.020661
0.585779 0.335424 0.008301
0.622034 0.334539 0.000000
0.654749 0.332311 0.000000
0.684871 0.329198 0.000000
0.713802 0.325963 0.000000
0.742153 0.323033 0.006683
0.769802 0.320043 0.021302
0.796414 0.316930 0.042329
0.821927 0.313939 0.061524
0.846281 0.310887 0.075624
0.869444 0.308171 0.088746
0.891691 0.305699 0.103243
0.913237 0.303685 0.118929
0.934264 0.302678 0.135470
0.954864 0.302922 0.153445
0.974914 0.304845 0.173526
0.994446 0.309117 0.195895
0.000000 0.322698 0.235172
0.000000 0.323278 0.233738
0.000000 0.323980 0.232120
0.000000 0.325658 0.227817
0.000000 0.327764 0.219516
0.061799 0.330297 0.206668
0.131350 0.332494 0.186313
0.201541 0.332921 0.171725
0.261875 0.332860 0.164981
0.312108 0.333379 0.151980
0.358282 0.334356 0.136355
0.402594 0.336522 0.114137
0.447944 0.341985 0.092744
0.492805 0.348363 0.062226
0.537499 0.354284 0.003052
0.581262 0.357610 0.000000
0.618311 0.357061 0.000000
0.651148 0.354498 0.000000
0.681422 0.351080 0.000000
0.710536 0.347753 0.000000
0.739010 0.344396 0.002686
0.766812 0.341070 0.018128
0.793606 0.337652 0.038788
0.819394 0.334478 0.061097
0.843992 0.331029 0.074830
0.867521 0.327947 0.089082
0.890135 0.325139 0.104280
0.912139 0.322942 0.120150
0.933562 0.321660 0.137331
0.954528 0.321477 0.155917
0.974914 0.323125 0.176486
0.994629 0.326879 0.199100
0.000000 0.345220 0.250614
0.000000 0.346014 0.249424
0.000000 0.346624 0.247654
0.000000 0.348180 0.243534
0.000000 0.350378 0.236332
0.000000 0.353094 0.224521
0.105501 0.355596 0.206455
0.172854 0.357275 0.182681
0.246464 0.356695 0.177951
0.301976 0.356909 0.167819
0.351141 0.357397 0.153109
0.398108 0.359838 0.135988
0.443091 0.362829 0.113466
0.486824 0.367132 0.091371
0.529778 0.372381 0.050233
0.572442 0.376928 0.000000
0.613062 0.378576 0.000000
0.647181 0.376562 0.000000
0.678035 0.373144 0.000000
0.707607 0.369512 0.000000
0.736538 0.366033 0.000183
0.764767 0.362676 0.013458
0.791897 0.359136 0.038758
0.817929 0.355627 0.060914
0.842802 0.351965 0.075532
0.866575 0.348516 0.090059
0.889433 0.345373 0.105653
0.911589 0.342718 0.122225
0.933135 0.341161 0.139315
0.954101 0.340368 0.158328
0.974487 0.341375 0.178927
0.994141 0.344457 0.201999
0.000000 0.367468 0.265812
0.000000 0.368048 0.264408
0.000000 0.368719 0.262913
0.000000 0.370275 0.258946
0.000000 0.372473 0.252567
0.000000 0.375128 0.241855
0.069245 0.377661 0.226047
0.148135 0.379797 0.202762
0.224765 0.379828 0.189273
0.288731 0.379461 0.183169
0.342473 0.381140 0.170840
0.391730 0.383093 0.155612
0.437232 0.384558 0.136568
0.481178 0.387030 0.112551
0.523369 0.390631 0.088197
0.564843 0.394903 0.031952
0.605035 0.398016 0.000000
0.642237 0.397803 0.000000
0.674372 0.394903 0.000000
0.704189 0.391150 0.000000
0.733303 0.387457 0.000000
0.761654 0.383825 0.011658
0.789090 0.380011 0.036561
0.815427 0.376257 0.060731
0.840574 0.372351 0.076539
0.864683 0.368719 0.090944
0.887816 0.365240 0.106966
0.910246 0.362432 0.123354
0.932036 0.360327 0.141695
0.953246 0.359258 0.160555
0.973816 0.359747 0.181460
0.993683 0.362341 0.204959
0.000000 0.389868 0.280980
0.000000 0.390509 0.279942
0.000000 0.394507 0.280919
0.000000 0.396002 0.277226
0.000000 0.398016 0.271000
0.000000 0.400488 0.261143
0.000000 0.403052 0.246647
0.122652 0.405097 0.226352
0.197848 0.406622 0.202670
0.275120 0.407660 0.198978
0.334905 0.409003 0.190311
0.387182 0.410529 0.176455
0.435431 0.411841 0.159945
0.479957 0.412634 0.137911
0.523033 0.414435 0.111116
0.564111 0.417273 0.085603
0.603845 0.420264 0.004028
0.640497 0.420966 0.000000
0.674189 0.418677 0.000000
0.704585 0.414954 0.000000
0.733577 0.410864 0.000000
0.761868 0.406714 0.012482
0.789242 0.402472 0.039826
0.815427 0.398322 0.062623
0.840269 0.393927 0.078523
0.864073 0.389715 0.093385
0.886961 0.385779 0.109071
0.909209 0.382361 0.125826
0.930999 0.379767 0.143343
0.952270 0.378241 0.163149
0.973022 0.378241 0.184360
0.992950 0.380285 0.208042
0.000000 0.413458 0.297032
0.000000 0.414343 0.296300
0.000000 0.415534 0.295262
0.000000 0.417212 0.292302
0.000000 0.419532 0.286687
0.000000 0.422095 0.278050
0.000000 0.424872 0.265171
0.089601 0.428565 0.247929
0.172244 0.431769 0.223911
0.253819 0.432654 0.212924
0.321355 0.433021 0.207675
0.376776 0.434058 0.194766
0.427192 0.434882 0.179721
0.473640 0.435523 0.161013
0.516930 0.435676 0.136904
0.558740 0.436957 0.108919
0.598138 0.438911 0.079866
0.634760 0.440070 0.000000
0.668727 0.438972 0.000000
0.700252 0.435767 0.000000
0.729915 0.431891 0.000000
0.758572 0.427771 0.014374
0.786374 0.423468 0.038758
0.812955 0.419135 0.064576
0.838163 0.414618 0.079133
0.862272 0.410163 0.094789
0.885466 0.405859 0.111482
0.907958 0.402228 0.127932
0.929931 0.399329 0.146334
0.951385 0.397467 0.165896
0.972259 0.397009 0.187503
0.992309 0.398657 0.211582
0.000000 0.436316 0.312810
0.000000 0.437293 0.312261
0.000000 0.438453 0.311284
0.000000 0.440528 0.308751
0.000000 0.443397 0.303990
0.000000 0.446693 0.296513
0.000000 0.450172 0.285496
0.000000 0.453468 0.269810
0.146792 0.456458 0.248081
0.226413 0.458076 0.226108
0.303868 0.457984 0.221866
0.364996 0.458320 0.213199
0.417975 0.458839 0.198520
0.466987 0.459297 0.181949
0.511864 0.459144 0.160922
0.554284 0.459113 0.134768
0.594415 0.459632 0.106600
0.631006 0.459846 0.072816
0.665034 0.459480 0.000000
0.696834 0.456611 0.000000
0.726864 0.452979 0.000000
0.755673 0.448951 0.015137
0.783719 0.444617 0.040986
0.810605 0.440101 0.065614
0.836088 0.435248 0.081483
0.860441 0.430640 0.097353
0.883818 0.426123 0.113344
0.906493 0.422126 0.130556
0.928649 0.418891 0.149111
0.950225 0.416693 0.168795
0.971221 0.415839 0.190768
0.991455 0.416938 0.215061
0.000000 0.462531 0.330785
0.000000 0.463600 0.330358
0.000000 0.464851 0.329534
0.000000 0.466896 0.327184
0.000000 0.469490 0.322759
0.000000 0.472389 0.315648
0.000000 0.475441 0.305119
0.000000 0.478614 0.290990
0.114412 0.481331 0.271183
0.197360 0.483528 0.245792
0.281804 0.483528 0.235538
0.350835 0.483253 0.229892
0.407538 0.483436 0.217044
0.458869 0.483742 0.201236
0.506676 0.483986 0.183047
0.550561 0.483406 0.159670
0.592004 0.482887 0.132174
0.629664 0.482124 0.104158
0.664179 0.480934 0.065309
0.696529 0.479591 0.000000
0.727291 0.476204 0.000000
0.756374 0.472084 0.003876
0.784024 0.467567 0.051423
0.811337 0.462989 0.070314
0.837247 0.458167 0.085756
0.861814 0.453285 0.102663
0.885405 0.448493 0.119142
0.908171 0.444343 0.136782
0.930388 0.440742 0.155459
0.951934 0.438178 0.175509
0.972839 0.437049 0.197879
0.992920 0.437842 0.222690
0.000000 0.491585 0.350866
0.000000 0.492409 0.350256
0.000000 0.493324 0.349126
0.000000 0.494850 0.346593
0.000000 0.497108 0.342260
0.000000 0.499672 0.335454
0.000000 0.502556 0.325505
0.000000 0.505547 0.312413
0.058717 0.508476 0.294530
0.171847 0.510948 0.271000
0.255009 0.512078 0.250034
0.334478 0.511589 0.245274
0.397620 0.511376 0.236332
0.452155 0.511498 0.221500
0.502434 0.511559 0.204166
0.549645 0.511742 0.184573
0.591730 0.509880 0.159030
0.630182 0.507286 0.129732
0.664820 0.504601 0.101137
0.697047 0.502007 0.053285
0.727779 0.499306 0.000000
0.756619 0.494575 0.000000
0.783566 0.489570 0.042390
0.809049 0.484199 0.072816
0.835111 0.479072 0.088655
0.859922 0.473945 0.105440
0.883757 0.468971 0.122194
0.906828 0.464454 0.139651
0.929168 0.460731 0.158999
0.950866 0.457862 0.179294
0.971893 0.456306 0.201968
0.992096 0.456764 0.227390
0.000000 0.518853 0.369360
0.000000 0.519615 0.368841
0.000000 0.520623 0.367926
0.000000 0.522118 0.365484
0.000000 0.524132 0.361028
0.000000 0.526482 0.354650
0.000000 0.529137 0.345373
0.000000 0.531884 0.333013
0.000000 0.534722 0.316472
0.138552 0.537285 0.295140
0.223423 0.539300 0.267887
0.312200 0.538842 0.259129
0.382879 0.538354 0.253025
0.441871 0.538201 0.240574
0.495003 0.538170 0.224186
0.544610 0.538109 0.205570
0.590051 0.537102 0.183627
0.629297 0.533257 0.157565
0.665064 0.529107 0.126680
0.697749 0.525383 0.097414
0.728786 0.522240 0.023865
0.758083 0.518181 0.000000
0.785336 0.512718 0.029358
0.810452 0.506889 0.072877
0.832151 0.499458 0.091981
0.857206 0.494148 0.108339
0.881346 0.489052 0.125063
0.904662 0.484291 0.142885
0.927214 0.480262 0.162142
0.949187 0.477058 0.182589
0.970459 0.475227 0.205600
0.990936 0.475441 0.231632
0.000000 0.549767 0.390356
0.000000 0.550561 0.389929
0.000000 0.551415 0.389014
0.000000 0.552667 0.386511
0.000000 0.554498 0.382177
0.000000 0.556512 0.375830
0.000000 0.558923 0.367193
0.000000 0.561425 0.355291
0.000000 0.563867 0.339727
0.088899 0.566186 0.319677
0.196963 0.567895 0.294163
0.284398 0.568048 0.274205
0.365362 0.566735 0.268437
0.430182 0.565789 0.260044
0.486061 0.564965 0.244144
0.537407 0.564141 0.226627
0.585504 0.563470 0.206394
0.627588 0.560143 0.182589
0.663966 0.554437 0.155276
0.697810 0.549310 0.122866
0.729183 0.545098 0.091646
0.758846 0.541131 0.000000
0.786282 0.535546 0.009735
0.811398 0.529107 0.068879
0.834348 0.522271 0.093782
0.855711 0.515221 0.112612
0.879911 0.509789 0.129122
0.903227 0.504753 0.147158
0.925902 0.500328 0.165988
0.947936 0.496803 0.186984
0.969329 0.494697 0.210178
0.990021 0.494484 0.236545
0.000000 0.578180 0.409644
0.000000 0.579004 0.409247
0.000000 0.579828 0.408301
0.000000 0.581048 0.405982
0.000000 0.582696 0.401801
0.000000 0.584558 0.395605
0.000000 0.586816 0.387335
0.000000 0.589166 0.375891
0.000000 0.591638 0.361486
0.000000 0.593896 0.342901
0.164065 0.595758 0.319707
0.251957 0.596948 0.291997
0.343755 0.595605 0.284581
0.415869 0.594232 0.277928
0.476265 0.593072 0.265476
0.530327 0.592126 0.248722
0.580560 0.591211 0.229709
0.627893 0.590387 0.208255
0.666072 0.584161 0.183139
0.700740 0.577569 0.154452
0.732967 0.571649 0.121859
0.762722 0.566491 0.084779
0.790463 0.561028 0.000000
0.815640 0.553948 0.068086
0.838682 0.546532 0.095644
0.859800 0.538964 0.117647
0.879393 0.531304 0.134951
0.902831 0.525963 0.152926
0.925658 0.521324 0.172152
0.947814 0.517540 0.193210
0.969268 0.515190 0.216953
0.990021 0.514733 0.243992
0.000000 0.607935 0.429358
0.000000 0.608484 0.429145
0.000000 0.609033 0.428168
0.000000 0.609979 0.425788
0.000000 0.611261 0.421424
0.000000 0.612909 0.415381
0.000000 0.614832 0.407202
0.000000 0.616876 0.396612
0.000000 0.619165 0.382818
0.000000 0.621271 0.365667
0.120058 0.623102 0.344549
0.225864 0.624475 0.318975
0.317113 0.623987 0.301244
0.398199 0.622278 0.295201
0.464271 0.620752 0.287266
0.520897 0.619440 0.271061
0.573236 0.618189 0.252873
0.622431 0.617029 0.232670
0.667933 0.615167 0.209354
0.703273 0.607080 0.183078
0.736263 0.599725 0.152560
0.766659 0.593011 0.118746
0.794553 0.586542 0.075135
0.820005 0.579278 0.065400
0.843107 0.571160 0.097353
0.864286 0.562982 0.122011
0.883818 0.554925 0.142367
0.901946 0.546899 0.158450
0.924346 0.541711 0.177432
0.946654 0.537652 0.198886
0.968261 0.534966 0.222629
0.989105 0.534203 0.249912
0.000000 0.636774 0.447242
0.000000 0.637171 0.447150
0.000000 0.637537 0.446479
0.000000 0.638148 0.444770
0.000000 0.639429 0.440833
0.000000 0.641230 0.435218
0.000000 0.643519 0.427741
0.000000 0.646082 0.418006
0.000000 0.648829 0.405737
0.000000 0.651575 0.389990
0.008789 0.654047 0.370855
0.198642 0.655909 0.348272
0.289097 0.656794 0.323125
0.381231 0.655238 0.317510
0.453864 0.653712 0.310613
0.515068 0.652247 0.298405
0.570062 0.650996 0.280888
0.621332 0.649805 0.261601
0.670008 0.648798 0.239658
0.712184 0.644312 0.214755
0.745815 0.635035 0.186893
0.776699 0.626276 0.154482
0.804654 0.617792 0.119997
0.830167 0.609674 0.070314
0.853025 0.600427 0.105745
0.873930 0.591333 0.131716
0.893217 0.582361 0.153597
0.911070 0.573999 0.172976
0.927733 0.565637 0.188724
0.948730 0.560601 0.209140
0.970184 0.557733 0.233768
0.990723 0.556634 0.261540
0.000000 0.670008 0.467994
0.000000 0.670314 0.467750
0.000000 0.670558 0.467018
0.000000 0.670954 0.465461
0.000000 0.671626 0.462684
0.000000 0.673060 0.457221
0.000000 0.674861 0.449928
0.000000 0.676936 0.440406
0.000000 0.679164 0.428382
0.000000 0.681392 0.413642
0.000000 0.683345 0.395666
0.162661 0.684871 0.374670
0.266270 0.685573 0.351385
0.358373 0.684504 0.337865
0.437781 0.682612 0.331090
0.504021 0.680903 0.323095
