其他预设/【212】创意蓝橙调色预设24款/1.3D LUT预设（视频调色-PR-AE-PS-FCPX-达芬奇用）/11.蓝橙色调__.cube
# Created by Adobe Lightroom plugin Export LUT (1.17.0)
# www.johnrellis.com/lightroom/exportlut.htm
# Preset: 11.蓝橙色调[素锦印象]
# Color profile: /Library/Application Support/Adobe/Color/Profiles/Recommended/AdobeRGB1998.icc
LUT_3D_SIZE 32
0.094728 0.094728 0.094728
0.102113 0.095705 0.094972
0.111940 0.097169 0.095583
0.134707 0.100526 0.096559
0.165011 0.105348 0.097078
0.195285 0.110780 0.097414
0.225528 0.116396 0.097139
0.255467 0.122835 0.096407
0.286198 0.129519 0.095155
0.318151 0.137148 0.093172
0.352178 0.146059 0.090974
0.388128 0.155886 0.088502
0.426459 0.167422 0.084718
0.467872 0.179965 0.080110
0.512230 0.193881 0.073060
0.559655 0.208499 0.062776
0.607507 0.223697 0.039796
0.654810 0.238743 0.003937
0.700160 0.253513 0.000000
0.742702 0.267399 0.000000
0.782589 0.280491 0.000000
0.819638 0.292454 0.000000
0.853635 0.303777 0.000000
0.884611 0.314031 0.000000
0.912993 0.323613 0.000000
0.939055 0.332677 0.000000
0.963043 0.341039 0.000000
0.985260 0.349493 0.000000
1.000000 0.357824 0.055146
1.000000 0.366491 0.091463
1.000000 0.375921 0.122164
1.000000 0.386633 0.153048
0.094514 0.096681 0.095888
0.101686 0.097963 0.095583
0.111879 0.099580 0.095644
0.134401 0.103151 0.096590
0.164584 0.108156 0.097322
0.195041 0.113375 0.097688
0.225223 0.119112 0.097139
0.255344 0.125124 0.096407
0.286076 0.131685 0.095155
0.318303 0.139590 0.093111
0.352209 0.148196 0.090944
0.388312 0.157931 0.088411
0.426703 0.169314 0.084627
0.468147 0.181765 0.079988
0.512840 0.195560 0.072786
0.560174 0.210269 0.062806
0.608026 0.225193 0.038911
0.655390 0.240543 0.001434
0.700618 0.255070 0.000000
0.743252 0.268956 0.000000
0.783108 0.281712 0.000000
0.820096 0.293767 0.000000
0.854032 0.304997 0.000000
0.885008 0.315282 0.000000
0.913329 0.324590 0.000000
0.939361 0.333440 0.000000
0.963287 0.342107 0.000000
0.985443 0.350439 0.000000
1.000000 0.358709 0.057038
1.000000 0.367407 0.092103
1.000000 0.376745 0.122438
1.000000 0.387243 0.153597
0.094392 0.099886 0.097139
0.101015 0.101198 0.096620
0.111360 0.102785 0.096162
0.134188 0.106691 0.096803
0.164034 0.111818 0.097505
0.194614 0.116823 0.097871
0.224857 0.122164 0.097322
0.254948 0.128267 0.096345
0.285893 0.134554 0.095064
0.317937 0.142184 0.093080
0.352087 0.150546 0.090883
0.388190 0.160586 0.088289
0.426734 0.171633 0.084779
0.468208 0.184024 0.080110
0.512718 0.197940 0.072877
0.560296 0.212558 0.062379
0.608209 0.227604 0.038605
0.655573 0.242557 0.001282
0.700923 0.256962 0.000000
0.743435 0.270787 0.000000
0.783322 0.283574 0.000000
0.820340 0.295293 0.000000
0.854215 0.306493 0.000000
0.885191 0.316655 0.000000
0.913512 0.325963 0.000000
0.939483 0.334783 0.000000
0.963409 0.343114 0.000000
0.985565 0.351446 0.000000
1.000000 0.359777 0.057160
1.000000 0.368353 0.092470
1.000000 0.377569 0.122927
1.000000 0.388128 0.153933
0.093721 0.106966 0.100740
0.099519 0.108553 0.099733
0.110567 0.109682 0.099550
0.133150 0.113893 0.097902
0.163088 0.119142 0.098085
0.193606 0.123873 0.097932
0.223758 0.128939 0.097658
0.254093 0.134432 0.096712
0.285191 0.140597 0.095155
0.317449 0.147799 0.093141
0.351507 0.155856 0.090944
0.387762 0.165896 0.088289
0.426307 0.176852 0.084749
0.467720 0.189120 0.080018
0.512596 0.202609 0.072724
0.560113 0.217105 0.062104
0.608209 0.231876 0.037629
0.655695 0.246555 0.001221
0.701045 0.261204 0.000000
0.743679 0.274357 0.000000
0.783627 0.287236 0.000000
0.820554 0.299046 0.000000
0.854520 0.309606 0.000000
0.885344 0.319493 0.000000
0.913573 0.328679 0.000000
0.939544 0.337285 0.000000
0.963409 0.345556 0.000000
0.985534 0.353765 0.000000
1.000000 0.361883 0.056977
1.000000 0.370245 0.092744
1.000000 0.379431 0.123476
1.000000 0.389807 0.154391
0.092592 0.115999 0.105348
0.096620 0.117464 0.104433
0.107515 0.118776 0.103792
0.128542 0.122377 0.102571
0.159487 0.128481 0.099977
0.191897 0.134035 0.098634
0.222477 0.138613 0.098085
0.252903 0.143709 0.096895
0.284154 0.149416 0.095094
0.316472 0.156313 0.093324
0.350896 0.164218 0.090791
0.387030 0.173770 0.088411
0.425727 0.184512 0.084779
0.467292 0.196658 0.079927
0.512078 0.209628 0.072633
0.559625 0.223972 0.061860
0.607752 0.238621 0.035554
0.655207 0.252873 0.000000
0.700710 0.266972 0.000000
0.743465 0.280217 0.000000
0.783474 0.292485 0.000000
0.820554 0.303868 0.000000
0.854459 0.314488 0.000000
0.885374 0.324163 0.000000
0.913573 0.333043 0.000000
0.939544 0.341436 0.000000
0.963409 0.349340 0.000000
0.985534 0.357214 0.000000
1.000000 0.365179 0.059358
1.000000 0.373449 0.093477
1.000000 0.382330 0.124422
1.000000 0.392584 0.155428
0.090730 0.126314 0.110628
0.093172 0.127626 0.110231
0.102632 0.129091 0.108797
0.123384 0.131991 0.107240
0.151766 0.136477 0.105074
0.186404 0.143954 0.101839
0.220218 0.150393 0.098695
0.251072 0.155032 0.097505
0.282322 0.160342 0.095491
0.315007 0.166781 0.093416
0.349279 0.174502 0.091127
0.385595 0.183688 0.088441
0.424262 0.194339 0.084993
0.466194 0.205905 0.080110
0.511070 0.218753 0.072328
0.558709 0.232670 0.061402
0.606775 0.246921 0.036439
0.654322 0.260990 0.000000
0.699947 0.274723 0.000000
0.742824 0.287572 0.000000
0.782895 0.299657 0.000000
0.820066 0.310735 0.000000
0.851225 0.319738 0.000000
0.882536 0.329137 0.000000
0.911192 0.337713 0.000000
0.937469 0.345922 0.000000
0.961700 0.353582 0.000000
0.984100 0.361273 0.000000
1.000000 0.368902 0.057710
1.000000 0.376898 0.092958
1.000000 0.385687 0.123842
1.000000 0.395636 0.154971
0.088075 0.137179 0.117128
0.089998 0.138277 0.116579
0.098177 0.139925 0.115419
0.116976 0.142641 0.112398
0.144930 0.146212 0.110903
0.177066 0.151919 0.107576
0.213077 0.159823 0.103883
0.247776 0.167056 0.099214
0.279210 0.172427 0.096437
0.311894 0.178775 0.094087
0.346258 0.186130 0.091554
0.382605 0.194888 0.088869
0.421302 0.205081 0.085451
0.463081 0.216281 0.080293
0.508141 0.228794 0.072816
0.555871 0.242618 0.061372
0.604273 0.256474 0.036042
0.652003 0.270420 0.000000
0.697810 0.283696 0.000000
0.740841 0.296178 0.000000
0.781003 0.307744 0.000000
0.818173 0.318334 0.000000
0.852140 0.328099 0.000000
0.883177 0.336553 0.000000
0.911528 0.344793 0.000000
0.937652 0.352483 0.000000
0.961791 0.359930 0.000000
0.984161 0.367193 0.000000
1.000000 0.374517 0.059297
1.000000 0.382238 0.094270
1.000000 0.390600 0.125216
1.000000 0.400305 0.156649
0.084565 0.149264 0.124697
0.086915 0.150393 0.123964
0.094209 0.151858 0.122744
0.110018 0.154604 0.119203
0.138827 0.157961 0.117617
0.169528 0.162325 0.115358
0.204105 0.168917 0.111421
0.241032 0.177279 0.107088
0.276707 0.185122 0.101900
0.309606 0.192142 0.095003
0.344213 0.199405 0.092409
0.380713 0.207736 0.089693
0.419684 0.217411 0.085969
0.461585 0.228489 0.080690
0.506645 0.240940 0.072724
0.554681 0.254124 0.061585
0.603174 0.268070 0.034546
0.651026 0.281743 0.000000
0.697078 0.294682 0.000000
0.740291 0.306828 0.000000
0.780606 0.317998 0.000000
0.817929 0.328130 0.000000
0.852018 0.337316 0.000000
0.883085 0.345556 0.000000
0.911498 0.353155 0.000000
0.937713 0.360327 0.000000
0.961852 0.367254 0.000000
0.984253 0.374182 0.000000
1.000000 0.381079 0.061952
1.000000 0.388373 0.095949
1.000000 0.396521 0.126833
1.000000 0.405859 0.158328
0.079072 0.162600 0.133272
0.083101 0.163790 0.132570
0.089906 0.165316 0.131777
0.104799 0.167971 0.128359
0.131716 0.171328 0.124758
0.163912 0.175021 0.123262
0.196872 0.180270 0.120058
0.232486 0.187106 0.115389
0.269993 0.195682 0.111086
0.307347 0.204440 0.105318
0.341894 0.212314 0.097780
0.378424 0.221530 0.090425
0.417548 0.231052 0.086305
0.459602 0.241703 0.080995
0.504692 0.253971 0.072877
0.552880 0.267124 0.061463
0.601587 0.280858 0.032471
0.649653 0.294194 0.000000
0.695857 0.306767 0.000000
0.739376 0.318608 0.000000
0.779904 0.329473 0.000000
0.817411 0.339117 0.000000
0.851682 0.347662 0.000000
0.882872 0.355627 0.000000
0.911345 0.362737 0.000000
0.937560 0.369421 0.000000
0.961791 0.375860 0.000000
0.984222 0.382147 0.000000
1.000000 0.388708 0.064149
1.000000 0.395727 0.098024
1.000000 0.403388 0.128786
1.000000 0.412329 0.160342
0.073579 0.177188 0.142550
0.078767 0.178103 0.142092
0.084779 0.179568 0.140719
0.098848 0.182376 0.137881
0.122621 0.185824 0.132418
0.157565 0.189242 0.131014
0.191379 0.193606 0.128450
0.226108 0.199161 0.123445
0.262394 0.206302 0.118990
0.300481 0.215152 0.114870
0.339757 0.225254 0.108309
0.376379 0.234104 0.100649
0.415473 0.244541 0.090089
0.457343 0.255802 0.081727
0.502678 0.267735 0.073579
0.550866 0.280980 0.061494
0.599664 0.294316 0.032166
0.647822 0.307408 0.000000
0.694148 0.319951 0.000000
0.737972 0.331487 0.000000
0.778927 0.341894 0.000000
0.816770 0.351141 0.000000
0.851286 0.359442 0.000000
0.882628 0.366583 0.000000
0.911254 0.373297 0.000000
0.937530 0.379522 0.000000
0.961761 0.385565 0.000000
0.984192 0.391363 0.000000
1.000000 0.397375 0.066926
1.000000 0.403784 0.100435
1.000000 0.411170 0.131258
1.000000 0.419684 0.162722
0.066743 0.192538 0.152438
0.071199 0.193545 0.151827
0.077394 0.194919 0.150729
0.091829 0.197635 0.147982
0.114748 0.201114 0.142794
0.148470 0.204471 0.137667
0.185397 0.208255 0.136599
0.220310 0.213046 0.133425
0.256413 0.218723 0.126558
0.293523 0.226444 0.122957
0.332708 0.236118 0.118227
0.374182 0.247257 0.111818
0.413367 0.257267 0.103120
0.455390 0.269108 0.089937
0.500481 0.282414 0.074281
0.548699 0.295720 0.061555
0.597711 0.308873 0.032624
0.645838 0.321904 0.000000
0.692653 0.334325 0.000000
0.736812 0.345525 0.000000
0.778042 0.355413 0.000000
0.816007 0.364294 0.000000
0.850736 0.372107 0.000000
0.882170 0.378912 0.000000
0.910918 0.385077 0.000000
0.937285 0.390692 0.000000
0.961608 0.396063 0.000000
0.984070 0.401465 0.000000
1.000000 0.406989 0.069276
1.000000 0.412940 0.102693
1.000000 0.419776 0.133883
1.000000 0.427893 0.165621
0.052430 0.208652 0.162753
0.060426 0.209537 0.162051
0.067353 0.210819 0.161044
0.082856 0.213260 0.158389
0.105531 0.216831 0.153353
0.135653 0.220554 0.144869
0.177371 0.223819 0.144625
0.214389 0.227939 0.141512
0.250645 0.232914 0.137057
0.288060 0.239017 0.128969
0.326024 0.247562 0.126589
0.366918 0.258305 0.121828
0.408942 0.269535 0.114015
0.450660 0.280888 0.104707
0.495613 0.293919 0.088869
0.543389 0.308751 0.066529
0.592462 0.322545 0.035401
0.640864 0.335576 0.000000
0.688045 0.347753 0.000000
0.732967 0.358984 0.000000
0.774716 0.368841 0.000000
0.813230 0.377539 0.000000
0.848447 0.385046 0.000000
0.880400 0.391424 0.000000
0.909514 0.397192 0.000000
0.936095 0.402411 0.000000
0.960601 0.407324 0.000000
0.983307 0.412116 0.005066
1.000000 0.417212 0.071962
1.000000 0.422675 0.104952
1.000000 0.429023 0.136110
1.000000 0.436652 0.168185
0.022248 0.224399 0.173007
0.032136 0.225376 0.172366
0.049500 0.226627 0.171145
0.070161 0.229129 0.169039
0.094606 0.232517 0.164004
0.124086 0.236454 0.156100
0.165255 0.239902 0.150515
0.206455 0.243442 0.149966
0.244419 0.247990 0.145968
0.281743 0.253147 0.139773
0.320317 0.260014 0.131746
0.359411 0.269383 0.130434
0.402106 0.281041 0.125368
0.449256 0.295079 0.116365
0.493996 0.307897 0.104677
0.541955 0.322240 0.085542
0.590753 0.337285 0.056794
0.639124 0.351324 0.000000
0.686610 0.363592 0.000000
0.731777 0.374701 0.000000
0.773892 0.384222 0.000000
0.812680 0.392584 0.000000
0.848020 0.399573 0.000000
0.880095 0.405615 0.000000
0.909270 0.410712 0.000000
0.935943 0.415381 0.000000
0.960540 0.419684 0.000000
0.983246 0.424109 0.012268
1.000000 0.428534 0.075715
1.000000 0.433539 0.108370
1.000000 0.439338 0.139254
1.000000 0.446509 0.171481
0.000000 0.241215 0.183749
0.000000 0.242100 0.182895
0.006165 0.243320 0.182132
0.047639 0.245640 0.179843
0.080079 0.248966 0.175418
0.111452 0.252995 0.167727
0.148135 0.256962 0.156344
0.196750 0.259953 0.157321
0.237552 0.264103 0.154238
0.276188 0.268956 0.149660
0.314702 0.274693 0.142306
0.354345 0.282597 0.136568
0.395697 0.293187 0.134463
0.441352 0.306340 0.127840
0.491707 0.321996 0.117128
0.540276 0.336614 0.103304
0.589075 0.351202 0.081544
0.637568 0.365820 0.036591
0.685023 0.380072 0.000000
0.730526 0.390936 0.000000
0.772824 0.400519 0.000000
0.811887 0.408362 0.000000
0.847410 0.414923 0.000000
0.879606 0.420508 0.000000
0.908904 0.425116 0.000000
0.935668 0.429175 0.000000
0.960327 0.432990 0.000000
0.983093 0.436622 0.022095
1.000000 0.440681 0.079774
1.000000 0.445075 0.112123
1.000000 0.450477 0.143221
1.000000 0.457099 0.175448
0.000000 0.258152 0.194522
0.000000 0.259068 0.193942
0.000000 0.259983 0.193027
0.000000 0.262455 0.190951
0.060182 0.265843 0.186954
0.096132 0.269810 0.179751
0.133822 0.273930 0.168582
0.182284 0.277287 0.162905
0.228733 0.280827 0.163180
0.269596 0.285466 0.158572
0.308965 0.290593 0.153689
0.348821 0.297368 0.145083
0.390265 0.306493 0.140658
0.434577 0.318700 0.137514
0.483558 0.333501 0.129397
0.537285 0.350866 0.116609
0.587182 0.365942 0.100771
0.635798 0.380163 0.075959
0.683650 0.394415 0.009216
0.729183 0.407691 0.000000
0.771756 0.417090 0.000000
0.811032 0.424781 0.000000
0.846799 0.430976 0.000000
0.879088 0.436042 0.000000
0.908476 0.440162 0.000000
0.935332 0.443702 0.000000
0.960021 0.446876 0.000000
0.982818 0.450080 0.032349
1.000000 0.453437 0.084321
1.000000 0.457282 0.115969
1.000000 0.462135 0.146853
1.000000 0.468238 0.179110
0.000000 0.275364 0.205875
0.000000 0.276219 0.205356
0.000000 0.277256 0.204379
0.000000 0.279484 0.202365
0.004486 0.282750 0.198306
0.076387 0.286717 0.191836
0.117708 0.290990 0.181552
0.161868 0.295140 0.168215
0.216770 0.298192 0.169833
0.261295 0.302373 0.167514
0.302770 0.307347 0.162753
0.342931 0.313176 0.156741
0.384710 0.321141 0.148409
0.428962 0.332128 0.144747
0.476478 0.346136 0.139712
0.529229 0.362829 0.129702
0.583856 0.380529 0.115236
0.634028 0.395422 0.097261
0.682155 0.409308 0.070466
0.727932 0.422095 0.000000
0.770474 0.433875 0.000000
0.809964 0.441688 0.000000
0.845853 0.447608 0.000000
0.878325 0.452094 0.000000
0.907836 0.455695 0.000000
0.934783 0.458747 0.000000
0.959564 0.461341 0.000000
0.982422 0.463996 0.046143
1.000000 0.466896 0.088746
1.000000 0.470253 0.120150
1.000000 0.474556 0.151339
1.000000 0.480201 0.183932
0.000000 0.293034 0.217227
0.000000 0.293767 0.216648
0.000000 0.294865 0.216007
0.000000 0.297032 0.214023
0.000000 0.300175 0.210544
0.036683 0.304234 0.204288
0.098787 0.308659 0.195010
0.144259 0.313115 0.181064
0.200687 0.316564 0.175692
0.251530 0.320226 0.176761
0.295354 0.324926 0.172366
0.337133 0.330327 0.167544
0.378820 0.337224 0.160220
0.423438 0.346929 0.150820
0.470283 0.359930 0.147616
0.521630 0.375677 0.140902
0.575677 0.392889 0.129427
0.630335 0.410254 0.113497
0.680690 0.425025 0.093629
0.726650 0.437690 0.064820
0.769650 0.448737 0.000000
0.809018 0.458625 0.000000
0.845090 0.464698 0.000000
0.877714 0.468879 0.000000
0.907378 0.471931 0.000000
0.934386 0.474495 0.000000
0.959197 0.476631 0.000000
0.982116 0.478706 0.057527
1.000000 0.480964 0.094118
1.000000 0.483833 0.125032
1.000000 0.487648 0.156069
1.000000 0.492714 0.188937
0.000000 0.310948 0.229313
0.000000 0.311681 0.228733
0.000000 0.311772 0.227329
0.000000 0.314000 0.225528
0.000000 0.317144 0.222171
0.000000 0.321080 0.216709
0.074861 0.325628 0.208072
0.126162 0.330388 0.195346
0.178347 0.334630 0.181552
0.237675 0.337957 0.183658
0.285954 0.342351 0.181888
0.329900 0.347662 0.177554
0.372442 0.353887 0.172061
0.416785 0.362676 0.163394
0.464759 0.374548 0.152468
0.515068 0.389563 0.149416
0.568627 0.406439 0.140963
0.622950 0.423407 0.128359
0.676631 0.439918 0.110994
0.724544 0.453101 0.090272
0.767666 0.464210 0.061158
0.807492 0.473487 0.000000
0.843717 0.481514 0.000000
0.876585 0.485939 0.000000
0.906462 0.488685 0.000000
0.933684 0.490761 0.000000
0.958679 0.492409 0.000000
0.981750 0.493935 0.065156
1.000000 0.495735 0.099001
1.000000 0.498024 0.130373
1.000000 0.501274 0.161410
1.000000 0.505913 0.194644
0.000000 0.329656 0.241520
0.000000 0.330205 0.241093
0.000000 0.331060 0.240299
0.000000 0.333074 0.238529
0.000000 0.336156 0.235447
0.000000 0.340185 0.230350
0.012787 0.344854 0.222477
0.105074 0.349706 0.211002
0.157717 0.354620 0.194949
0.220371 0.358343 0.190494
0.275853 0.362371 0.191806
0.322972 0.367803 0.187350
0.368017 0.373999 0.182284
0.412177 0.381353 0.175967
0.460426 0.392493 0.165133
0.512474 0.406928 0.154177
0.565423 0.423102 0.149935
0.619532 0.439796 0.140383
0.673152 0.455909 0.126284
0.722805 0.469612 0.109163
0.766873 0.480659 0.088808
0.806638 0.489815 0.062104
0.843015 0.497200 0.000000
0.875914 0.503319 0.000000
0.905821 0.506004 0.000000
0.933165 0.507591 0.000000
0.958282 0.508721 0.003265
0.981353 0.509789 0.072602
1.000000 0.511009 0.105592
1.000000 0.512871 0.135988
1.000000 0.515526 0.167300
1.000000 0.519615 0.200748
0.000000 0.349920 0.255283
0.000000 0.350561 0.254643
0.000000 0.351415 0.253880
0.000000 0.353307 0.252232
0.000000 0.356481 0.249393
0.000000 0.360540 0.244785
0.000000 0.365240 0.237613
0.076051 0.370428 0.226902
0.137819 0.375708 0.211948
0.197177 0.380621 0.197086
0.262211 0.384710 0.198947
0.314946 0.389899 0.197848
0.363104 0.396155 0.192599
0.409674 0.403388 0.186709
0.457252 0.412818 0.178347
0.510033 0.426642 0.165988
0.564477 0.442329 0.155428
0.618402 0.458473 0.149294
0.671901 0.474006 0.138949
0.721584 0.487373 0.125124
0.766110 0.497963 0.108980
0.805844 0.506401 0.090608
0.842161 0.513542 0.067018
0.875151 0.519188 0.000000
0.905119 0.523888 0.000000
0.932616 0.524956 0.000000
0.957794 0.525536 0.024048
0.981018 0.526085 0.080110
1.000000 0.526848 0.112001
1.000000 0.528099 0.142428
1.000000 0.530358 0.173617
1.000000 0.534020 0.207370
0.000000 0.371954 0.270024
0.000000 0.372564 0.269352
0.000000 0.373419 0.268620
0.000000 0.375402 0.267155
0.000000 0.378576 0.264408
0.000000 0.382696 0.260197
0.000000 0.387671 0.253666
0.000000 0.393164 0.243992
0.111666 0.398932 0.229984
0.171695 0.404883 0.210208
0.243534 0.409400 0.205997
0.305028 0.414527 0.207279
0.357397 0.420905 0.203006
0.407294 0.428290 0.197086
0.456092 0.436500 0.190341
0.508537 0.449073 0.179110
0.564324 0.464149 0.164981
0.619257 0.479469 0.155459
0.672511 0.494453 0.148226
0.721798 0.506859 0.138064
0.766232 0.516716 0.125765
0.805600 0.524163 0.111666
0.840818 0.529931 0.095399
0.873838 0.535302 0.075746
0.903899 0.539483 0.026551
0.931456 0.542351 0.000000
0.956786 0.542473 0.044831
0.980102 0.542565 0.087373
1.000000 0.542809 0.118257
1.000000 0.543633 0.148501
1.000000 0.545342 0.179690
1.000000 0.548577 0.214145
0.000000 0.395361 0.285710
0.000000 0.396094 0.285191
0.000000 0.397070 0.284550
0.000000 0.399237 0.283207
0.000000 0.402472 0.280674
0.000000 0.406806 0.276860
0.000000 0.411963 0.270756
0.000000 0.417853 0.261814
0.070741 0.424140 0.248844
0.147402 0.430610 0.229831
0.217105 0.436530 0.212955
0.290593 0.441718 0.214389
0.350317 0.448096 0.213321
0.404181 0.455787 0.207431
0.456458 0.464393 0.200443
0.507927 0.474006 0.192538
0.564416 0.488563 0.178531
0.621180 0.503349 0.163119
0.675074 0.517388 0.154788
0.724117 0.528832 0.148226
0.768429 0.537804 0.139498
0.807736 0.544213 0.128786
0.842222 0.548852 0.117311
0.873136 0.552178 0.105013
0.903258 0.555932 0.089906
0.930816 0.558953 0.068605
0.956298 0.560296 0.061707
0.979675 0.559838 0.096223
1.000000 0.559625 0.125887
1.000000 0.559960 0.155734
1.000000 0.561120 0.187259
1.000000 0.563897 0.221927
0.000000 0.422034 0.303532
0.000000 0.422644 0.303014
0.000000 0.423651 0.302464
0.000000 0.425849 0.301213
0.000000 0.429267 0.298894
0.000000 0.433845 0.295079
0.000000 0.439277 0.289494
0.000000 0.445563 0.281285
0.000000 0.452461 0.268864
0.113222 0.459754 0.251316
0.184512 0.467109 0.225406
0.270024 0.472877 0.221622
0.340093 0.479469 0.222538
0.400458 0.487251 0.218051
0.456825 0.496040 0.211093
0.511498 0.505425 0.202976
0.566369 0.516533 0.192569
0.624109 0.530724 0.177279
0.679774 0.543633 0.160922
0.728695 0.553674 0.156374
0.772488 0.561273 0.151156
0.811398 0.566522 0.143984
0.845487 0.569848 0.135653
0.875425 0.571679 0.126772
0.902739 0.573083 0.117342
0.930358 0.575616 0.106477
0.955810 0.577600 0.093385
0.979339 0.577630 0.104799
1.000000 0.576898 0.134371
1.000000 0.576806 0.164034
1.000000 0.577417 0.195712
1.000000 0.579797 0.231022
0.000000 0.451301 0.322942
0.000000 0.451911 0.322606
0.000000 0.452918 0.321996
0.000000 0.455329 0.320958
0.000000 0.458961 0.318639
0.000000 0.463691 0.315373
0.000000 0.469581 0.310155
0.000000 0.476387 0.302312
0.000000 0.483894 0.290654
0.033570 0.492073 0.273808
0.153109 0.500603 0.249302
0.239414 0.507927 0.228946
0.324804 0.514427 0.229984
0.394079 0.521996 0.229099
0.455665 0.530694 0.222232
0.514488 0.540032 0.214176
0.571344 0.549981 0.205264
0.628962 0.561852 0.192203
0.685145 0.573510 0.176059
0.735470 0.581750 0.160494
0.778622 0.587488 0.160555
0.816861 0.591180 0.157046
0.850523 0.593164 0.152193
0.880095 0.593683 0.146365
0.906157 0.593378 0.139895
0.929656 0.592615 0.133028
0.955169 0.594202 0.125185
0.978790 0.595483 0.117403
1.000000 0.594568 0.142977
1.000000 0.593927 0.172732
1.000000 0.594141 0.204593
1.000000 0.596094 0.240696
0.000000 0.485817 0.344945
0.000000 0.486183 0.344610
0.000000 0.486885 0.344579
0.000000 0.489235 0.343572
0.000000 0.493050 0.341680
0.000000 0.498238 0.338354
0.000000 0.504509 0.333654
0.000000 0.511711 0.326116
0.000000 0.519829 0.315038
0.000000 0.528496 0.299138
0.104097 0.537530 0.275364
0.195285 0.546532 0.240391
0.301640 0.553002 0.237919
0.383215 0.560143 0.238590
0.452064 0.568383 0.234318
0.515587 0.577295 0.225956
0.576287 0.586755 0.216922
0.634913 0.596857 0.206821
0.691249 0.606348 0.192264
0.741695 0.612696 0.177584
0.785824 0.616144 0.166598
0.823392 0.617853 0.168795
0.856382 0.618158 0.167300
0.885466 0.617304 0.164340
0.911192 0.615717 0.160555
0.934051 0.613642 0.155917
0.954498 0.611231 0.151064
0.978058 0.612055 0.146242
0.999878 0.612390 0.151858
1.000000 0.611292 0.181796
1.000000 0.611109 0.214115
1.000000 0.612665 0.250706
0.000000 0.524987 0.369665
0.000000 0.525505 0.369512
0.000000 0.526207 0.369421
0.000000 0.527947 0.369329
0.000000 0.531640 0.367529
0.000000 0.537011 0.364569
0.000000 0.543542 0.359686
0.000000 0.551049 0.352605
0.000000 0.559442 0.341924
0.000000 0.568414 0.326268
0.000000 0.577813 0.303563
0.154299 0.587366 0.270665
0.266056 0.595178 0.246433
0.365820 0.601923 0.247562
0.445563 0.609369 0.247501
0.514763 0.617823 0.239506
0.579583 0.626459 0.230625
0.640894 0.635218 0.220798
0.699062 0.643519 0.209628
0.749599 0.647333 0.195956
0.793820 0.648402 0.183383
0.831632 0.647395 0.178103
0.863828 0.645655 0.181796
0.892271 0.643091 0.181979
0.917449 0.640070 0.180728
0.939879 0.636683 0.178378
0.959960 0.633173 0.175265
0.977996 0.629633 0.171786
0.999359 0.629480 0.170077
1.000000 0.629236 0.191928
1.000000 0.628595 0.224430
1.000000 0.629847 0.261784
0.000000 0.568902 0.397162
0.000000 0.569390 0.396979
0.000000 0.570062 0.396704
0.000000 0.571801 0.396612
0.000000 0.574395 0.396063
0.000000 0.579644 0.393225
0.000000 0.586206 0.388159
0.000000 0.593744 0.381170
0.000000 0.602075 0.370672
0.000000 0.611139 0.355474
0.000000 0.620539 0.333928
0.080354 0.630274 0.302464
0.208042 0.639704 0.256229
0.338933 0.645472 0.257328
0.432044 0.651820 0.258366
0.509331 0.658686 0.254490
0.578515 0.665919 0.246067
0.642695 0.673243 0.236820
0.703273 0.680446 0.226871
0.757565 0.684627 0.215579
0.801572 0.682856 0.204196
0.839445 0.679255 0.194217
0.871611 0.674861 0.193698
0.899351 0.670375 0.198489
0.924041 0.665736 0.200381
0.946014 0.661036 0.200351
0.965698 0.656336 0.199008
0.983398 0.651728 0.197360
0.999359 0.647242 0.194888
1.000000 0.646052 0.195041
1.000000 0.646052 0.234745
1.000000 0.646998 0.273045
0.000000 0.615717 0.425788
0.000000 0.616297 0.425849
0.000000 0.617090 0.425666
0.000000 0.618708 0.425391
0.000000 0.621363 0.424933
0.000000 0.625330 0.423621
0.000000 0.631952 0.418860
0.000000 0.639551 0.411810
0.000000 0.648127 0.401740
0.000000 0.657160 0.386999
0.000000 0.666590 0.365850
0.000000 0.676051 0.336095
0.159213 0.685084 0.294255
0.299931 0.691493 0.269932
0.412482 0.696345 0.271763
0.500420 0.701534 0.272831
