其他预设/【212】创意蓝橙调色预设24款/1.3D LUT预设（视频调色-PR-AE-PS-FCPX-达芬奇用）/11.蓝橙色调__.cube
# Created by Adobe Lightroom plugin Export LUT (1.17.0)
# www.johnrellis.com/lightroom/exportlut.htm
# Preset: 11.蓝橙色调[素锦印象]
# Color profile: /Library/Application Support/Adobe/Color/Profiles/Recommended/AdobeRGB1998.icc
LUT_3D_SIZE 8
DOMAIN_MIN 0.000000 0.000000 0.000000
DOMAIN_MAX 0.903226 0.903226 0.903226
0.094728 0.094728 0.094728
0.165011 0.105348 0.097078
0.286198 0.129519 0.095155
0.426459 0.167422 0.084718
0.607507 0.223697 0.039796
0.782589 0.280491 0.000000
0.912993 0.323613 0.000000
1.000000 0.357824 0.055146
0.092592 0.115999 0.105348
0.159487 0.128481 0.099977
0.284154 0.149416 0.095094
0.425727 0.184512 0.084779
0.607752 0.238621 0.035554
0.783474 0.292485 0.000000
0.913573 0.333043 0.000000
1.000000 0.365179 0.059358
0.079072 0.162600 0.133272
0.131716 0.171328 0.124758
0.269993 0.195682 0.111086
0.417548 0.231052 0.086305
0.601587 0.280858 0.032471
0.779904 0.329473 0.000000
0.911345 0.362737 0.000000
1.000000 0.388708 0.064149
0.022248 0.224399 0.173007
0.094606 0.232517 0.164004
0.244419 0.247990 0.145968
0.402106 0.281041 0.125368
0.590753 0.337285 0.056794
0.773892 0.384222 0.000000
0.909270 0.410712 0.000000
1.000000 0.428534 0.075715
0.000000 0.293034 0.217227
0.000000 0.300175 0.210544
0.200687 0.316564 0.175692
0.378820 0.337224 0.160220
0.575677 0.392889 0.129427
0.769650 0.448737 0.000000
0.907378 0.471931 0.000000
1.000000 0.480964 0.094118
0.000000 0.371954 0.270024
0.000000 0.378576 0.264408
0.111666 0.398932 0.229984
0.357397 0.420905 0.203006
0.564324 0.464149 0.164981
0.766232 0.516716 0.125765
0.903899 0.539483 0.026551
1.000000 0.542809 0.118257
0.000000 0.485817 0.344945
0.000000 0.493050 0.341680
0.000000 0.519829 0.315038
0.301640 0.553002 0.237919
0.576287 0.586755 0.216922
0.785824 0.616144 0.166598
0.911192 0.615717 0.160555
0.999878 0.612390 0.151858
0.000000 0.667506 0.457374
0.000000 0.672908 0.455940
0.000000 0.696284 0.434211
0.067170 0.730068 0.332891
0.568200 0.749081 0.290318
0.822416 0.764828 0.256779
0.941741 0.725002 0.244419
1.000000 0.695460 0.256229
0.081941 0.113558 0.138338
0.149660 0.121767 0.134981
0.276432 0.146792 0.113436
0.415930 0.194400 0.092012
0.599390 0.250278 0.039155
0.779416 0.302373 0.000000
0.912230 0.339269 0.000000
1.000000 0.367742 0.059480
0.076539 0.135012 0.147524
0.143862 0.143862 0.143862
0.271611 0.163882 0.126162
0.415167 0.204257 0.098421
0.598901 0.261448 0.037934
0.779385 0.312688 0.000000
0.912596 0.347906 0.000000
1.000000 0.374517 0.061891
0.064881 0.177035 0.163394
0.122469 0.188998 0.163394
0.261753 0.205112 0.150790
0.410742 0.237186 0.121431
0.595270 0.295537 0.049256
0.777005 0.345006 0.000000
0.911131 0.375433 0.000000
1.000000 0.397101 0.066896
0.000000 0.236576 0.197513
0.081544 0.245518 0.193637
0.240146 0.259403 0.173892
0.399084 0.287388 0.157504
0.589014 0.340551 0.109071
0.773068 0.396063 0.000000
0.909483 0.420691 0.000000
1.000000 0.435462 0.078920
0.000000 0.303075 0.237736
0.000000 0.309972 0.232883
0.180575 0.326726 0.195499
0.377966 0.345586 0.183963
0.574334 0.397284 0.159091
0.768734 0.451179 0.088350
0.907012 0.479347 0.000000
1.000000 0.486488 0.096315
0.000000 0.380468 0.287419
0.000000 0.387457 0.283207
0.090852 0.407782 0.254826
0.352087 0.429847 0.222049
0.563928 0.470100 0.186465
0.764920 0.519585 0.156008
0.903288 0.541619 0.103334
1.000000 0.547204 0.120699
0.000000 0.493935 0.361334
0.000000 0.501640 0.359106
0.000000 0.528161 0.336553
0.277317 0.561944 0.252811
0.573114 0.594049 0.235660
0.785397 0.620325 0.187686
0.910704 0.618738 0.186404
0.999939 0.615595 0.170962
0.000000 0.672999 0.471901
0.000000 0.678126 0.470558
0.000000 0.700710 0.451789
0.000000 0.734279 0.360693
0.555962 0.752193 0.307927
0.817319 0.767453 0.275822
0.940612 0.728054 0.262577
1.000000 0.698390 0.275090
0.000000 0.156497 0.218051
0.024323 0.161166 0.218021
0.246708 0.175448 0.210697
0.402136 0.193942 0.169955
0.585718 0.256016 0.137514
0.768551 0.326635 0.074556
0.906859 0.374395 0.000000
1.000000 0.391241 0.063355
0.000000 0.178134 0.223148
0.049836 0.179355 0.225010
0.242588 0.191806 0.216159
0.398932 0.209201 0.179904
0.584283 0.266545 0.146944
0.768765 0.334020 0.082765
0.907134 0.381659 0.000000
1.000000 0.397345 0.065492
0.000000 0.215885 0.239109
0.000000 0.219913 0.240421
0.231174 0.231174 0.231174
0.389868 0.250431 0.205936
0.579156 0.297032 0.168765
0.767330 0.357549 0.106844
0.906401 0.405707 0.000000
1.000000 0.418067 0.072297
0.000000 0.262547 0.257633
0.000000 0.270359 0.260288
0.181186 0.289189 0.248173
0.380163 0.304692 0.235233
0.572107 0.346349 0.201175
0.764370 0.398779 0.143954
0.905303 0.439063 0.026032
1.000000 0.453590 0.083284
0.000000 0.322454 0.289006
0.000000 0.331518 0.290929
0.119173 0.353277 0.279026
0.361273 0.368841 0.251408
0.560510 0.408118 0.235752
0.759823 0.456947 0.192966
0.903593 0.487343 0.128511
1.000000 0.501762 0.101411
0.000000 0.399664 0.335363
0.000000 0.408392 0.336309
0.000000 0.432105 0.325719
0.310582 0.455909 0.276432
0.555718 0.488472 0.252354
0.758022 0.529503 0.235111
0.899870 0.549493 0.200565
1.000000 0.558679 0.147189
0.000000 0.514519 0.409552
0.000000 0.522118 0.409857
0.000000 0.549371 0.399268
0.190951 0.585473 0.333928
0.551507 0.614862 0.296361
0.779263 0.633570 0.254063
0.906065 0.628138 0.258305
0.997406 0.624231 0.243900
0.000000 0.687556 0.517754
0.000000 0.691981 0.515648
0.000000 0.712123 0.505364
0.000000 0.745541 0.442054
0.503868 0.765316 0.360632
0.797208 0.776944 0.338933
0.935485 0.738735 0.318944
1.000000 0.708675 0.333989
0.000000 0.214786 0.313573
0.000000 0.224002 0.311406
0.076692 0.204623 0.318547
0.364874 0.237369 0.302220
0.567132 0.242161 0.241947
0.761593 0.315526 0.206485
0.904021 0.377356 0.164950
1.000000 0.419715 0.095430
0.000000 0.234043 0.316930
0.000000 0.237339 0.317388
0.079164 0.221103 0.322515
0.362097 0.249119 0.305669
0.564538 0.256199 0.248508
0.760403 0.325017 0.213138
0.903838 0.384192 0.170565
1.000000 0.423987 0.099123
0.000000 0.266361 0.329717
0.000000 0.269139 0.331579
0.060578 0.265599 0.335119
0.353735 0.284367 0.317479
0.555718 0.299199 0.270695
0.755306 0.356268 0.234134
0.901884 0.405676 0.187564
1.000000 0.439796 0.117464
0.000000 0.312718 0.351659
0.000000 0.316564 0.352636
0.000000 0.324010 0.355230
0.337285 0.337285 0.337285
0.543297 0.361883 0.306188
0.750546 0.405921 0.264439
0.900816 0.443854 0.214572
1.000000 0.469917 0.153841
0.000000 0.365759 0.373724
0.000000 0.371038 0.375677
0.000000 0.387732 0.379461
0.271489 0.410346 0.356786
0.531426 0.431586 0.341497
0.743771 0.471443 0.305028
0.897765 0.497475 0.254887
1.000000 0.513664 0.201877
0.000000 0.434333 0.410498
0.000000 0.440162 0.412024
0.000000 0.465126 0.418769
0.185641 0.498116 0.396674
0.523674 0.522087 0.356329
0.741512 0.549798 0.343328
0.892546 0.566461 0.312200
0.998047 0.571221 0.263279
0.000000 0.548577 0.486183
0.000000 0.554070 0.486793
0.000000 0.580255 0.489387
0.000000 0.616968 0.462867
0.475624 0.645930 0.392157
0.761349 0.659571 0.357794
0.896300 0.648402 0.363928
0.992798 0.643427 0.345953
0.000000 0.714626 0.596429
0.000000 0.718166 0.594232
0.000000 0.730129 0.585321
0.000000 0.760311 0.549340
0.353857 0.786679 0.449775
0.751247 0.791989 0.443366
0.924437 0.759548 0.407141
0.998962 0.730190 0.430182
0.000000 0.290532 0.430976
0.000000 0.297246 0.429084
0.000000 0.295506 0.435218
0.202914 0.252811 0.437537
0.518425 0.305303 0.416480
0.744198 0.290806 0.332708
0.896513 0.379400 0.309819
0.998718 0.434699 0.285344
0.000000 0.305821 0.434485
0.000000 0.311131 0.432441
0.000000 0.305821 0.439551
0.192538 0.264256 0.441260
0.516289 0.315831 0.419501
0.742611 0.304753 0.338323
0.895872 0.387701 0.314549
0.998688 0.439643 0.287724
0.000000 0.338079 0.446143
0.000000 0.342535 0.445502
0.000000 0.338262 0.452796
0.164981 0.308690 0.453529
0.509392 0.349615 0.429572
0.737789 0.349889 0.357977
0.894316 0.415351 0.330083
0.999054 0.456031 0.294224
0.000000 0.380255 0.467292
0.000000 0.384771 0.466194
0.000000 0.387060 0.473121
0.132387 0.379248 0.472999
0.496132 0.403388 0.447547
0.729458 0.417304 0.390417
0.892271 0.458991 0.352026
1.000000 0.480476 0.295720
0.000000 0.438605 0.497871
0.000000 0.442359 0.495888
0.000000 0.449866 0.501457
0.000000 0.458137 0.500938
0.474617 0.474617 0.474617
0.720699 0.498787 0.433570
0.889586 0.518395 0.383307
0.998749 0.527825 0.326207
0.000000 0.509117 0.535363
0.000000 0.512871 0.534203
0.000000 0.526543 0.540002
0.000000 0.548974 0.541802
0.380804 0.576135 0.500725
0.711238 0.589746 0.483955
0.880339 0.599969 0.445594
0.993225 0.595727 0.387518
0.000000 0.611749 0.602716
0.000000 0.615320 0.601831
0.000000 0.629938 0.602014
0.000000 0.659937 0.600793
0.239811 0.689998 0.546349
0.712673 0.702205 0.507134
0.877958 0.686824 0.502739
0.983764 0.679866 0.476356
0.000000 0.751675 0.697932
0.000000 0.754940 0.696437
0.000000 0.765316 0.689326
0.000000 0.784573 0.670253
0.000000 0.808774 0.604517
0.666712 0.810727 0.575555
0.900572 0.795621 0.540642
0.984436 0.766537 0.554955
0.000000 0.390875 0.588220
0.000000 0.396674 0.586908
0.000000 0.405890 0.587701
0.000000 0.376074 0.597894
0.382727 0.338750 0.594903
0.698085 0.407507 0.559503
0.877836 0.410590 0.476905
0.982269 0.508934 0.485542
0.000000 0.404089 0.592462
0.000000 0.408911 0.590997
0.000000 0.414710 0.592676
0.000000 0.386877 0.601953
0.375280 0.346502 0.598474
0.696864 0.417700 0.562676
0.877012 0.421881 0.482246
0.981994 0.514855 0.489052
0.000000 0.434791 0.602136
0.000000 0.438941 0.601160
0.000000 0.440803 0.604578
0.000000 0.419715 0.612085
0.338506 0.370459 0.608728
0.691676 0.450416 0.572900
0.873625 0.458045 0.499611
0.981201 0.533440 0.498939
0.000000 0.473945 0.620264
0.000000 0.478523 0.619196
0.000000 0.482551 0.622827
0.000000 0.471046 0.628534
0.266545 0.427344 0.625605
0.682155 0.501762 0.590265
0.868498 0.512657 0.526513
0.980957 0.560449 0.509972
0.000000 0.526024 0.645655
0.000000 0.529992 0.644434
0.000000 0.536736 0.646052
0.000000 0.535454 0.651209
0.191623 0.521355 0.648463
0.670008 0.568322 0.616022
0.864012 0.579461 0.560937
0.982696 0.593866 0.518334
0.000000 0.588464 0.675471
0.000000 0.591791 0.674067
0.000000 0.600855 0.674006
0.000000 0.608576 0.678309
0.000000 0.618555 0.676570
0.648310 0.648219 0.648249
0.855619 0.658869 0.606897
0.979980 0.649928 0.548150
0.000000 0.668635 0.722164
0.000000 0.671870 0.721401
0.000000 0.683558 0.718990
0.000000 0.699092 0.722194
0.000000 0.725124 0.718837
0.548241 0.747799 0.667933
0.844572 0.744076 0.663508
0.965820 0.739162 0.630976
0.000000 0.773373 0.791196
0.000000 0.776486 0.790616
0.000000 0.787503 0.787747
0.000000 0.807126 0.780697
0.000000 0.839902 0.769955
0.389471 0.847288 0.689540
0.852079 0.839384 0.696132
0.962066 0.815824 0.692409
0.000000 0.496712 0.758145
0.000000 0.501946 0.757809
0.000000 0.518608 0.755032
0.000000 0.503685 0.760647
0.000000 0.448615 0.765805
0.602197 0.492317 0.756039
0.834165 0.589990 0.711086
0.950988 0.637324 0.685542
0.000000 0.504295 0.758572
0.000000 0.509056 0.758145
0.000000 0.524895 0.755459
0.000000 0.509453 0.761288
0.000000 0.457404 0.765896
0.596979 0.496681 0.756100
0.832151 0.594049 0.711910
0.950195 0.640589 0.686732
0.000000 0.527459 0.765011
0.000000 0.531426 0.764279
0.000000 0.545586 0.761471
0.000000 0.531365 0.766903
0.000000 0.488563 0.770687
0.583093 0.517754 0.761257
0.829618 0.615930 0.720424
0.949096 0.658015 0.696620
0.000000 0.558740 0.775113
0.000000 0.562402 0.774319
0.000000 0.574762 0.771481
0.000000 0.566949 0.775875
0.000000 0.537133 0.779263
0.549126 0.549493 0.770871
0.825650 0.649958 0.734371
0.947753 0.683864 0.710262
0.000000 0.598383 0.787289
0.000000 0.601434 0.786465
0.000000 0.612482 0.783841
0.000000 0.611933 0.785885
0.000000 0.594171 0.789059
0.457954 0.582666 0.783383
0.818753 0.689265 0.750118
0.946380 0.715541 0.725948
0.000000 0.647059 0.803037
0.000000 0.650050 0.802487
0.000000 0.660334 0.800534
0.000000 0.667872 0.800961
0.000000 0.662745 0.803677
0.349340 0.660883 0.800015
0.810666 0.739742 0.772274
0.945586 0.753933 0.744076
0.000000 0.702541 0.821592
0.000000 0.705501 0.821286
0.000000 0.715145 0.819760
0.000000 0.729152 0.818479
0.000000 0.736294 0.820737
0.228946 0.753445 0.817777
0.796139 0.796109 0.796139
0.942901 0.801816 0.767697
0.000000 0.773648 0.859983
0.000000 0.776242 0.859770
0.000000 0.786099 0.859617
0.000000 0.803220 0.857939
0.000000 0.825071 0.856291
0.000000 0.856535 0.851896
0.730526 0.868925 0.810849
0.935546 0.863890 0.809720
0.000000 0.569390 0.882322
0.000000 0.573419 0.882048
0.000000 0.587060 0.880430
0.000000 0.597681 0.880003
0.000000 0.568536 0.883696
0.406104 0.573419 0.881468
0.799619 0.709712 0.867643
0.920470 0.767056 0.839445
0.000000 0.573663 0.882597
0.000000 0.577569 0.882322
0.000000 0.590845 0.880827
0.000000 0.601495 0.880217
0.000000 0.573297 0.883879
0.396979 0.576043 0.881834
0.797879 0.711849 0.867948
0.920043 0.769070 0.840238
0.000000 0.586297 0.884977
0.000000 0.589837 0.884642
0.000000 0.602228 0.882994
0.000000 0.615808 0.882353
0.000000 0.590387 0.885771
0.363226 0.586755 0.884215
0.792660 0.720516 0.870115
0.919097 0.777096 0.843778
0.000000 0.602777 0.889860
0.000000 0.606226 0.889586
0.000000 0.617945 0.888121
0.000000 0.639551 0.885710
0.000000 0.618372 0.889250
0.298100 0.610010 0.888579
0.781491 0.734218 0.874479
0.917967 0.790646 0.850095
0.000000 0.634241 0.896269
0.000000 0.636225 0.896117
0.000000 0.642786 0.894926
0.000000 0.653254 0.893004
0.000000 0.654444 0.893614
0.096559 0.641871 0.894224
0.757961 0.749630 0.880797
0.916228 0.809140 0.858732
0.000000 0.674067 0.904479
0.000000 0.675837 0.904112
0.000000 0.682002 0.902983
0.000000 0.692470 0.901213
0.000000 0.701137 0.899718
0.000000 0.686549 0.901976
0.700984 0.763272 0.891386
0.914061 0.833555 0.870451
0.000000 0.720119 0.914397
0.000000 0.721828 0.914153
0.000000 0.727871 0.913268
0.000000 0.739071 0.911833
0.000000 0.756741 0.909514
0.000000 0.752926 0.911009
0.580774 0.790982 0.904112
0.909819 0.863279 0.884337
0.000000 0.770382 0.925261
0.000000 0.772061 0.925048
0.000000 0.778439 0.924498
0.000000 0.790768 0.923674
0.000000 0.810422 0.922148
0.000000 0.826932 0.922362
0.473640 0.858762 0.917113
0.901549 0.901518 0.901518
