其他预设/【212】创意蓝橙调色预设24款/1.3D LUT预设（视频调色-PR-AE-PS-FCPX-达芬奇用）/11.蓝橙色调__.cube
# Created by Adobe Lightroom plugin Export LUT (1.17.0)
# www.johnrellis.com/lightroom/exportlut.htm
# Preset: 11.蓝橙色调[素锦印象]
# Color profile: /Library/Application Support/Adobe/Color/Profiles/Recommended/AdobeRGB1998.icc
LUT_3D_SIZE 5
DOMAIN_MIN 0.000000 0.000000 0.000000
DOMAIN_MAX 0.903226 0.903226 0.903226
0.094728 0.094728 0.094728
0.255467 0.122835 0.096407
0.512230 0.193881 0.073060
0.819638 0.292454 0.000000
1.000000 0.357824 0.055146
0.084565 0.149264 0.124697
0.241032 0.177279 0.107088
0.506645 0.240940 0.072724
0.817929 0.328130 0.000000
1.000000 0.381079 0.061952
0.000000 0.258152 0.194522
0.182284 0.277287 0.162905
0.483558 0.333501 0.129397
0.811032 0.424781 0.000000
1.000000 0.453437 0.084321
0.000000 0.395361 0.285710
0.000000 0.417853 0.261814
0.456458 0.464393 0.200443
0.807736 0.544213 0.128786
1.000000 0.559625 0.125887
0.000000 0.667506 0.457374
0.000000 0.688350 0.444587
0.385504 0.741817 0.289586
0.859525 0.754604 0.248997
1.000000 0.695460 0.256229
0.015442 0.144350 0.196872
0.221317 0.160952 0.190738
0.492897 0.223789 0.134188
0.810422 0.343542 0.000000
1.000000 0.384680 0.062531
0.000000 0.194339 0.214817
0.207919 0.207919 0.207919
0.487007 0.257450 0.159060
0.809720 0.364691 0.000000
1.000000 0.405219 0.068513
0.000000 0.283543 0.255192
0.121157 0.308354 0.246586
0.471168 0.348150 0.214328
0.805875 0.435157 0.118196
1.000000 0.471199 0.089754
0.000000 0.417151 0.335729
0.000000 0.441901 0.326940
0.442084 0.489235 0.260380
0.802304 0.553368 0.214633
1.000000 0.571527 0.143923
0.000000 0.681819 0.502342
0.000000 0.700191 0.495674
0.277043 0.755947 0.341222
0.851041 0.768765 0.310307
1.000000 0.704952 0.314885
0.000000 0.250370 0.368688
0.000000 0.255558 0.372229
0.436072 0.270726 0.355932
0.796902 0.326299 0.260227
1.000000 0.423560 0.198032
0.000000 0.291020 0.380316
0.000000 0.290806 0.385962
0.428748 0.304814 0.366094
0.793423 0.359319 0.279088
1.000000 0.438361 0.204044
0.000000 0.371405 0.419989
0.000000 0.380774 0.423407
0.401251 0.401251 0.401251
0.784512 0.454261 0.332708
1.000000 0.494240 0.241398
0.000000 0.491157 0.482277
0.000000 0.508965 0.487037
0.247166 0.563989 0.456428
0.775570 0.593957 0.411536
0.994903 0.599512 0.341619
0.000000 0.732692 0.645319
0.000000 0.743465 0.638056
0.000000 0.785092 0.575158
0.784268 0.803006 0.499794
0.992828 0.746395 0.489326
0.000000 0.420325 0.634668
0.000000 0.438178 0.630304
0.000000 0.376898 0.644587
0.738582 0.447089 0.598291
0.975280 0.541283 0.541039
0.000000 0.452674 0.643824
0.000000 0.464668 0.641352
0.000000 0.414679 0.653712
0.734524 0.478065 0.608392
0.974243 0.560479 0.552178
0.000000 0.521996 0.672969
0.000000 0.533349 0.670802
0.000000 0.515648 0.679408
0.718990 0.564508 0.638819
0.973358 0.609705 0.574517
0.000000 0.621942 0.716609
0.000000 0.633356 0.713832
0.000000 0.647181 0.719356
0.690028 0.690028 0.690028
0.971405 0.691524 0.611566
0.000000 0.775082 0.810727
0.000000 0.785245 0.808682
0.000000 0.820462 0.800381
0.489876 0.853239 0.719173
0.955718 0.828550 0.724392
0.000000 0.569390 0.882322
0.000000 0.582605 0.880949
0.000000 0.584802 0.882048
0.555596 0.613336 0.877562
0.920470 0.767056 0.839445
0.000000 0.582696 0.884367
0.000000 0.594934 0.882994
0.000000 0.599695 0.883665
0.535882 0.620905 0.879667
0.919463 0.774746 0.842802
0.000000 0.617029 0.892851
0.000000 0.623621 0.891691
0.000000 0.645777 0.889372
0.421515 0.639002 0.888701
0.917113 0.799161 0.854032
0.000000 0.685359 0.907195
0.000000 0.691279 0.906188
0.000000 0.711269 0.902953
0.000000 0.702083 0.903593
0.913176 0.840330 0.873625
0.000000 0.770382 0.925261
0.000000 0.776333 0.924651
0.000000 0.799496 0.923064
0.000000 0.831022 0.922454
0.901549 0.901518 0.901518
