其他预设/【212】创意蓝橙调色预设24款/1.3D LUT预设（视频调色-PR-AE-PS-FCPX-达芬奇用）/12.蓝橙色调__.cube
# Created by Adobe Lightroom plugin Export LUT (1.17.0)
# www.johnrellis.com/lightroom/exportlut.htm
# Preset: 12.蓝橙色调[素锦印象]
# Color profile: /Library/Application Support/Adobe/Color/Profiles/Recommended/AdobeRGB1998.icc
LUT_3D_SIZE 32
0.108492 0.107820 0.107912
0.120851 0.108736 0.108370
0.138033 0.109743 0.109071
0.166293 0.112184 0.110170
0.201266 0.114778 0.111269
0.236790 0.117617 0.111940
0.273045 0.120455 0.111482
0.309819 0.123171 0.110536
0.347997 0.126070 0.109377
0.387274 0.129824 0.107424
0.427863 0.133974 0.105959
0.469093 0.138369 0.103456
0.510582 0.143404 0.099977
0.552331 0.148867 0.095674
0.593957 0.154604 0.091066
0.634363 0.159854 0.085603
0.671534 0.165957 0.079591
0.705104 0.171572 0.074617
0.735439 0.177066 0.069398
0.764370 0.182315 0.064973
0.792172 0.187045 0.061830
0.819059 0.192111 0.060121
0.844938 0.197238 0.059602
0.869444 0.202274 0.062409
0.892424 0.207156 0.068696
0.913817 0.212131 0.077485
0.933501 0.217624 0.088746
0.951781 0.223209 0.101900
0.968750 0.229801 0.116304
0.984527 0.237247 0.133089
0.999176 0.245975 0.151400
1.000000 0.256535 0.172305
0.108003 0.111604 0.110048
0.120211 0.113283 0.108461
0.137850 0.114595 0.109102
0.166445 0.116640 0.110658
0.201144 0.119173 0.111543
0.237034 0.121767 0.111971
0.273686 0.124300 0.111727
0.310826 0.126680 0.110750
0.349218 0.130129 0.109285
0.389105 0.133272 0.107515
0.430030 0.137697 0.105470
0.471443 0.141848 0.103120
0.513298 0.147097 0.099733
0.555291 0.151827 0.095644
0.597375 0.157656 0.090547
0.637629 0.163455 0.084627
0.674678 0.169039 0.078859
0.708125 0.174624 0.073762
0.738338 0.179721 0.068940
0.767117 0.184909 0.064485
0.794827 0.189883 0.060761
0.821500 0.194491 0.059663
0.847166 0.199313 0.060182
0.871519 0.204044 0.063569
0.894224 0.208835 0.069856
0.915343 0.214176 0.078126
0.934844 0.219455 0.089387
0.952911 0.225315 0.102449
0.969726 0.231571 0.117464
0.985382 0.238926 0.134279
0.999939 0.247593 0.152895
1.000000 0.258152 0.173587
0.107546 0.117617 0.112734
0.119692 0.119020 0.110597
0.137423 0.120760 0.109438
0.166018 0.122469 0.110567
0.201022 0.124819 0.111910
0.237156 0.127199 0.112306
0.273991 0.129519 0.111849
0.311376 0.132052 0.110842
0.350225 0.134859 0.109560
0.390234 0.138094 0.107515
0.431434 0.141909 0.105470
0.473030 0.146548 0.102754
0.515007 0.150912 0.099641
0.557061 0.156771 0.094820
0.598962 0.162234 0.089967
0.639490 0.167666 0.083864
0.676509 0.172732 0.078431
0.709804 0.177707 0.073426
0.739956 0.183169 0.068452
0.768643 0.188022 0.064424
0.796231 0.192599 0.060853
0.822782 0.196963 0.059846
0.848295 0.201816 0.059968
0.872496 0.206455 0.063416
0.895109 0.211490 0.069306
0.916136 0.216373 0.078431
0.935546 0.221439 0.090242
0.953521 0.227146 0.103029
0.970245 0.233463 0.118318
0.985840 0.240818 0.134707
1.000000 0.249271 0.153414
1.000000 0.259861 0.174533
0.105348 0.131868 0.119448
0.115999 0.133181 0.116487
0.135683 0.133944 0.113985
0.164736 0.134463 0.111391
0.199649 0.136080 0.112764
0.236118 0.137881 0.112581
0.273136 0.139803 0.112123
0.310948 0.142153 0.111086
0.350134 0.144594 0.109590
0.390509 0.148043 0.107668
0.431983 0.151583 0.105348
0.474037 0.155673 0.102571
0.516289 0.160403 0.099031
0.558587 0.165347 0.094697
0.600946 0.170321 0.089174
0.641382 0.175418 0.083314
0.678279 0.180606 0.077424
0.711635 0.185458 0.072236
0.741939 0.189700 0.068055
0.770657 0.194247 0.063539
0.798367 0.198581 0.060273
0.824857 0.203037 0.058076
0.850095 0.207095 0.060090
0.873838 0.211521 0.063386
0.896056 0.216037 0.069612
0.916655 0.220310 0.079347
0.935790 0.225223 0.090608
0.953643 0.230747 0.103853
0.970336 0.236698 0.118685
0.985931 0.243839 0.135348
1.000000 0.252293 0.153964
1.000000 0.262730 0.175235
0.102876 0.146120 0.127443
0.110079 0.147189 0.125154
0.129000 0.147616 0.123507
0.158816 0.148623 0.118379
0.195926 0.150973 0.113436
0.234775 0.153353 0.113680
0.272587 0.154879 0.113008
0.311101 0.156558 0.111971
0.350805 0.159121 0.110170
0.391760 0.162051 0.107759
0.433631 0.165530 0.105318
0.475990 0.169375 0.102449
0.518334 0.173922 0.098543
0.560876 0.178256 0.093874
0.602960 0.182742 0.088594
0.642939 0.187533 0.082429
0.679469 0.191470 0.076783
0.712459 0.195499 0.071443
0.742611 0.199374 0.067292
0.771420 0.203677 0.062593
0.799161 0.207401 0.059449
0.825772 0.211368 0.057313
0.850980 0.215152 0.059266
0.874632 0.218814 0.063264
0.896696 0.222843 0.070069
0.917174 0.226963 0.079805
0.936248 0.231357 0.091341
0.954070 0.236362 0.104585
0.970733 0.241978 0.119753
0.986297 0.248783 0.136446
1.000000 0.256962 0.155489
1.000000 0.267247 0.176791
0.100191 0.159182 0.135164
0.103853 0.160220 0.133425
0.121981 0.160678 0.132143
0.150607 0.161959 0.128725
0.185885 0.164309 0.121584
0.227970 0.168887 0.114687
0.269841 0.172183 0.114778
0.308873 0.174044 0.112856
0.349096 0.176120 0.110842
0.390356 0.178805 0.108217
0.432715 0.182254 0.105226
0.475502 0.185794 0.102296
0.518059 0.189914 0.097841
0.560784 0.193729 0.093111
0.603204 0.197574 0.087709
0.643153 0.201633 0.081575
0.679469 0.205478 0.075898
0.712276 0.208682 0.070710
0.742336 0.211704 0.065919
0.771206 0.214847 0.061799
0.798795 0.218051 0.059297
0.825315 0.221256 0.056672
0.837064 0.220676 0.057862
0.862242 0.223880 0.060822
0.885832 0.227512 0.066529
0.907805 0.231022 0.075715
0.928222 0.235172 0.086305
0.947204 0.239689 0.099306
0.964874 0.244846 0.114443
0.981353 0.250980 0.131136
0.996674 0.258640 0.150118
1.000000 0.268345 0.171603
0.097383 0.170932 0.142397
0.098909 0.172061 0.141299
0.114504 0.172702 0.139803
0.141176 0.174105 0.136538
0.174990 0.175875 0.132021
0.213107 0.179660 0.123751
0.256870 0.185794 0.115450
0.299870 0.190005 0.114870
0.339849 0.192355 0.111910
0.380987 0.194919 0.109224
0.422736 0.198062 0.106081
0.465034 0.201541 0.102663
0.507866 0.205203 0.098390
0.551049 0.209049 0.093721
0.594385 0.212772 0.088014
0.635737 0.216434 0.081697
0.673274 0.219638 0.075837
0.706905 0.222354 0.069764
0.737209 0.224765 0.065492
0.765927 0.227085 0.061341
0.793027 0.229435 0.058564
0.818753 0.231479 0.056397
0.843107 0.233829 0.056947
0.866361 0.236088 0.061250
0.888457 0.238560 0.067292
0.909545 0.241520 0.076234
0.929473 0.244785 0.087678
0.948211 0.248905 0.100832
0.965759 0.253422 0.116091
0.982147 0.259281 0.133242
0.997436 0.266453 0.152377
1.000000 0.275853 0.174075
0.092561 0.185641 0.151980
0.094118 0.186557 0.151125
0.108278 0.187472 0.149874
0.132784 0.189395 0.145663
0.167514 0.191165 0.141024
0.204410 0.193515 0.135592
0.246189 0.199069 0.126223
0.292058 0.206455 0.115389
0.337621 0.211948 0.113130
0.379278 0.214572 0.109743
0.421576 0.217685 0.106264
0.464546 0.220890 0.102266
0.507805 0.224399 0.098116
0.551415 0.227970 0.092775
0.594934 0.231601 0.086580
0.636469 0.234501 0.080507
0.674006 0.237217 0.074189
0.707729 0.239353 0.068391
0.738125 0.241001 0.063752
0.766934 0.242679 0.059663
0.794217 0.244083 0.055848
0.820005 0.245792 0.054505
0.844480 0.247257 0.056245
0.867765 0.248875 0.061494
0.889799 0.250675 0.068482
0.910796 0.253178 0.077363
0.930571 0.255924 0.089387
0.949187 0.259464 0.102632
0.966613 0.263523 0.118105
0.982910 0.268742 0.135561
0.998077 0.275608 0.154818
1.000000 0.284337 0.176577
0.085512 0.201999 0.163180
0.089326 0.202914 0.162356
0.103334 0.203922 0.161227
0.125154 0.205936 0.157137
0.157473 0.208438 0.149813
0.197269 0.210422 0.145693
0.237430 0.213840 0.137881
0.281651 0.220066 0.128176
0.329076 0.228122 0.116426
0.376074 0.234836 0.110536
0.419074 0.237797 0.106600
0.462348 0.240940 0.102541
0.506004 0.244236 0.097566
0.550134 0.247745 0.092042
0.593805 0.250950 0.085817
0.635584 0.253941 0.078828
0.673426 0.255924 0.072786
0.707362 0.257176 0.067079
0.737911 0.258152 0.062470
0.766934 0.259312 0.058289
0.794339 0.260166 0.053742
0.820401 0.260929 0.052857
0.845060 0.261906 0.054719
0.868406 0.263157 0.061158
0.890471 0.264317 0.068788
0.911437 0.265843 0.078553
0.931212 0.268284 0.090700
0.949798 0.271031 0.104189
0.967163 0.274662 0.120027
0.983459 0.279484 0.137575
0.998566 0.285740 0.157015
1.000000 0.294011 0.179446
0.074922 0.219791 0.175113
0.083467 0.220615 0.174441
0.096101 0.221683 0.173068
0.116609 0.224094 0.169284
0.145571 0.226993 0.160220
0.189029 0.229007 0.155367
0.230808 0.231693 0.149294
0.274022 0.235782 0.139773
0.320073 0.242588 0.128878
0.368444 0.250767 0.116304
0.416876 0.258396 0.106966
0.460639 0.261692 0.102541
0.504662 0.265110 0.097200
0.548821 0.268193 0.091432
0.592462 0.271061 0.084901
0.633906 0.273533 0.078035
0.671595 0.274998 0.071473
0.705409 0.275731 0.065522
0.736141 0.276066 0.061372
0.765499 0.276402 0.056703
0.793606 0.276890 0.051789
0.820279 0.277256 0.051392
0.845579 0.277836 0.054444
0.869352 0.278508 0.061006
0.891661 0.279301 0.069368
0.912596 0.280430 0.079835
0.932250 0.281865 0.092622
0.950591 0.284062 0.106416
0.967803 0.286931 0.122499
0.983886 0.291051 0.139956
0.998840 0.296635 0.159609
1.000000 0.304265 0.181857
0.061036 0.239322 0.188327
0.072908 0.240116 0.187686
0.085176 0.241276 0.186435
0.105837 0.243626 0.182528
0.134554 0.246860 0.173770
0.175784 0.249393 0.163882
0.223270 0.251408 0.159701
0.266850 0.253971 0.152071
0.312566 0.258824 0.140078
0.359838 0.265812 0.128969
0.408728 0.274174 0.115053
0.458015 0.282261 0.102022
0.502434 0.285863 0.097505
0.546990 0.288914 0.091066
0.590875 0.291814 0.084108
0.632502 0.294133 0.077119
0.670344 0.295079 0.069856
0.704372 0.295201 0.064363
0.735378 0.295201 0.059327
0.765133 0.294926 0.053864
0.793454 0.294713 0.050233
0.820279 0.294591 0.049317
0.845670 0.294499 0.054536
0.869505 0.294499 0.062196
0.891905 0.294835 0.070192
0.912902 0.295415 0.081300
0.932616 0.296300 0.093690
0.951019 0.297856 0.108766
0.968261 0.300206 0.124971
0.984314 0.303685 0.142794
0.999268 0.308721 0.162875
1.000000 0.315862 0.185275
0.026764 0.259556 0.202029
0.051514 0.260349 0.201236
0.068330 0.261570 0.199771
0.091096 0.263981 0.196170
0.120760 0.267277 0.188174
0.158053 0.270420 0.174533
0.212131 0.272129 0.169314
0.259739 0.274174 0.162753
0.304936 0.276982 0.153323
0.352453 0.282200 0.139101
0.400061 0.289158 0.128420
0.448981 0.297398 0.113954
0.484810 0.298528 0.098604
0.528679 0.302281 0.093568
0.572442 0.305455 0.086824
0.615106 0.308110 0.079164
0.654505 0.309697 0.071687
0.690181 0.310155 0.065461
0.722499 0.310094 0.060243
0.753475 0.309941 0.054017
0.783139 0.309483 0.049836
0.811337 0.309331 0.047089
0.838193 0.309117 0.052827
0.863371 0.308904 0.060304
0.886900 0.308812 0.069337
0.908721 0.308995 0.080110
0.929107 0.309545 0.093080
0.948150 0.310704 0.107942
0.965911 0.312596 0.124178
0.982452 0.315526 0.142428
0.997772 0.319982 0.163088
1.000000 0.326421 0.185824
0.000000 0.276555 0.213230
0.003906 0.277501 0.212680
0.035676 0.278660 0.211368
0.073274 0.281315 0.208194
0.104646 0.285100 0.201389
0.142092 0.288945 0.188968
0.193423 0.291630 0.176516
0.248081 0.293400 0.172732
0.295842 0.295476 0.164340
0.341924 0.298405 0.152499
0.388861 0.303105 0.138399
0.435096 0.309270 0.127840
0.482429 0.316625 0.111940
0.530480 0.324773 0.091096
0.573144 0.327398 0.086275
0.615290 0.329686 0.078065
0.654475 0.330846 0.071077
0.690089 0.330846 0.064210
0.722591 0.330236 0.059205
0.753902 0.329656 0.051423
0.783749 0.329015 0.047211
0.812192 0.328283 0.046418
0.839109 0.327611 0.051850
0.864408 0.326879 0.061311
0.887907 0.326268 0.070497
0.909728 0.325872 0.082185
0.930083 0.325933 0.095796
0.949065 0.326452 0.111055
0.966735 0.327672 0.128084
0.983124 0.330053 0.146487
0.998322 0.333989 0.167025
1.000000 0.339849 0.190280
0.000000 0.298528 0.228061
0.000000 0.299260 0.227207
0.000000 0.300603 0.225986
0.019409 0.303288 0.222934
0.081880 0.306920 0.216373
0.123659 0.311070 0.204746
0.170108 0.314855 0.186587
0.234134 0.316106 0.182193
0.287572 0.317693 0.175357
0.335729 0.319677 0.165743
0.382818 0.322637 0.151858
0.429816 0.327245 0.138552
0.476448 0.333410 0.126711
0.523980 0.340642 0.108553
0.571954 0.348699 0.082734
0.614862 0.351537 0.077577
0.654078 0.352300 0.069947
0.689784 0.352117 0.062989
0.722560 0.351080 0.056092
0.753964 0.350042 0.049958
0.784024 0.348791 0.046204
0.812558 0.347784 0.046693
0.839597 0.346532 0.054322
0.864897 0.345281 0.062959
0.888396 0.344182 0.072847
0.910246 0.343297 0.084443
0.930571 0.342626 0.098909
0.949523 0.342596 0.114076
0.967132 0.343389 0.131258
0.983490 0.345159 0.150362
0.998596 0.348486 0.171084
1.000000 0.353826 0.194400
0.000000 0.320348 0.242466
0.000000 0.321172 0.241672
0.000000 0.322362 0.240482
0.000000 0.325017 0.237491
0.031373 0.328771 0.231724
0.100282 0.333013 0.221225
0.149630 0.337133 0.204440
0.212772 0.339391 0.190097
0.275608 0.340368 0.186893
0.327886 0.341833 0.177249
0.376165 0.343450 0.166354
0.423774 0.346563 0.151308
0.470741 0.351171 0.138949
0.517662 0.357336 0.125246
0.565362 0.364508 0.104433
0.612634 0.372198 0.074403
0.652735 0.373968 0.070405
0.688746 0.373358 0.063294
0.721798 0.372015 0.056092
0.753628 0.370611 0.050141
0.783963 0.369116 0.046662
0.812772 0.367529 0.049287
0.839963 0.365942 0.055604
0.865354 0.364294 0.064363
0.888823 0.362676 0.074647
0.910582 0.361028 0.087495
0.930724 0.359808 0.101747
0.949462 0.359136 0.117525
0.966888 0.359197 0.134279
0.983062 0.360357 0.153109
0.998047 0.362860 0.173983
1.000000 0.367315 0.197543
0.000000 0.342351 0.257237
0.000000 0.343175 0.256321
0.000000 0.344091 0.255253
0.000000 0.346654 0.252201
0.000000 0.350011 0.246647
0.066651 0.354009 0.237125
0.126833 0.358038 0.221561
0.182528 0.361425 0.198642
0.257328 0.362005 0.195224
0.315557 0.363073 0.188907
0.367712 0.364721 0.178592
0.416327 0.366674 0.166567
0.464363 0.370184 0.151217
0.511894 0.375402 0.138613
0.559380 0.381659 0.122988
0.606775 0.388647 0.099947
0.650690 0.394659 0.065797
0.687617 0.394812 0.063294
0.720851 0.393194 0.057374
0.752651 0.391424 0.050477
0.783078 0.389441 0.047791
0.811978 0.387366 0.050355
0.839200 0.385443 0.058747
0.864652 0.383093 0.067262
0.888182 0.381018 0.077424
0.909941 0.378882 0.090333
0.930114 0.377203 0.104341
0.948882 0.376013 0.120485
0.966369 0.375463 0.137789
0.982666 0.376043 0.156771
0.997742 0.378119 0.178042
1.000000 0.382116 0.201907
0.000000 0.364904 0.272587
0.000000 0.365637 0.271672
0.000000 0.366796 0.270542
0.000000 0.369055 0.267887
0.000000 0.372412 0.262577
0.000000 0.376379 0.253758
0.097597 0.380499 0.240055
0.160006 0.384192 0.219028
0.233280 0.385718 0.203922
0.301640 0.386206 0.201663
0.357855 0.387549 0.192111
0.409247 0.388922 0.181155
0.457801 0.391028 0.167300
0.506126 0.394659 0.150607
0.553460 0.399725 0.138155
0.600427 0.405737 0.121065
0.644739 0.411200 0.096010
0.685115 0.415198 0.058442
0.719875 0.414710 0.058625
0.752102 0.412634 0.054444
0.782803 0.410437 0.050385
0.811887 0.408026 0.055024
0.839261 0.405615 0.061189
0.864775 0.402869 0.070161
0.888334 0.400244 0.080903
0.910033 0.397681 0.094026
0.930144 0.395331 0.108431
0.948882 0.393622 0.124361
0.966308 0.392584 0.142214
0.982544 0.392554 0.161410
0.997559 0.394018 0.182742
1.000000 0.397406 0.206882
0.000000 0.386999 0.287541
0.000000 0.387488 0.286412
0.000000 0.381994 0.281071
0.000000 0.384100 0.278477
0.000000 0.387274 0.273930
0.000000 0.391363 0.266209
0.056764 0.395636 0.254307
0.134585 0.399817 0.236271
0.197787 0.403204 0.210727
0.278721 0.403632 0.209079
0.340490 0.404639 0.203738
0.394659 0.406287 0.193393
0.445319 0.408270 0.181827
0.494209 0.411017 0.166781
0.542657 0.415229 0.149172
0.589563 0.420661 0.137087
0.634516 0.425696 0.118807
0.675807 0.429633 0.093233
0.713252 0.432502 0.044923
0.747097 0.431647 0.055299
0.778683 0.429633 0.056214
0.808408 0.427222 0.058778
0.836423 0.424567 0.064149
0.862486 0.421820 0.072480
0.886625 0.418982 0.083742
0.908934 0.416205 0.097139
0.929503 0.413642 0.112367
0.948577 0.411536 0.129030
0.966155 0.410040 0.146792
0.982422 0.409552 0.166384
0.997406 0.410498 0.188174
1.000000 0.413428 0.212711
0.000000 0.407904 0.301762
0.000000 0.407721 0.300328
0.000000 0.407782 0.298711
0.000000 0.409125 0.295842
0.000000 0.411475 0.291020
0.000000 0.415076 0.284001
0.000000 0.419287 0.272770
0.103395 0.423621 0.256840
0.174807 0.427497 0.233371
0.254185 0.429084 0.219455
0.326574 0.429572 0.216892
0.385229 0.430976 0.207950
0.439277 0.432959 0.196933
0.490242 0.435035 0.183932
0.539483 0.438025 0.166873
0.587915 0.442237 0.149050
0.632685 0.446235 0.136324
0.673976 0.449317 0.116609
0.711666 0.451301 0.090120
0.746548 0.452918 0.032319
0.778531 0.451148 0.056519
0.808316 0.448463 0.063203
0.836332 0.445380 0.068238
0.862394 0.442237 0.077119
0.886503 0.438941 0.088350
0.908751 0.435492 0.101900
0.929320 0.432471 0.117006
0.948363 0.429877 0.133730
0.965972 0.427924 0.151858
0.982208 0.426917 0.171939
0.997192 0.427436 0.193973
1.000000 0.429847 0.218784
0.000000 0.432563 0.318608
0.000000 0.432441 0.317388
0.000000 0.432471 0.315679
0.000000 0.433692 0.312932
0.000000 0.436103 0.308354
0.000000 0.439826 0.301701
0.000000 0.444007 0.291600
0.041230 0.448402 0.277104
0.147494 0.452522 0.256352
0.221012 0.455665 0.229679
0.307286 0.455970 0.227939
0.373846 0.456916 0.222965
0.431647 0.458595 0.212100
0.485664 0.460700 0.199771
0.536645 0.463020 0.184817
0.585992 0.465980 0.166476
0.631861 0.468605 0.149813
0.673060 0.470588 0.136141
0.710872 0.471626 0.115755
0.745937 0.472389 0.086366
0.778164 0.472297 0.038056
0.807828 0.469673 0.065034
0.835843 0.466499 0.074403
0.862028 0.462776 0.082643
0.886168 0.459083 0.094148
0.908476 0.455268 0.107546
0.929137 0.451789 0.122652
0.948241 0.448737 0.139559
0.965850 0.446357 0.157900
0.982116 0.444923 0.178134
0.997040 0.444892 0.200626
1.000000 0.446876 0.225742
0.000000 0.458564 0.336522
0.000000 0.458350 0.335210
0.000000 0.458473 0.333654
0.000000 0.459663 0.330999
0.000000 0.462043 0.326665
0.000000 0.465522 0.320348
0.000000 0.469795 0.311070
0.000000 0.474311 0.297765
0.111879 0.478737 0.278660
0.193668 0.482643 0.252720
0.281895 0.484016 0.239322
0.359228 0.484565 0.236851
0.422522 0.486000 0.228000
0.480018 0.487861 0.216129
0.533928 0.490150 0.202640
0.584527 0.492134 0.185916
0.630976 0.492866 0.166812
0.672450 0.492958 0.151431
0.709651 0.492622 0.136538
0.744350 0.492134 0.114656
0.776333 0.491249 0.083680
0.805509 0.489479 0.052338
0.832517 0.485695 0.074983
0.858671 0.481910 0.086610
0.882963 0.477638 0.097993
0.905394 0.473579 0.111238
0.926238 0.469612 0.126040
0.945556 0.466072 0.142641
0.963409 0.463172 0.160983
0.979919 0.461280 0.181369
0.995087 0.460761 0.203952
1.000000 0.462165 0.229313
0.000000 0.482399 0.352422
0.000000 0.482582 0.351690
0.000000 0.483131 0.350469
0.000000 0.484779 0.348272
0.000000 0.487495 0.344488
0.000000 0.491157 0.338689
0.000000 0.495399 0.330083
0.000000 0.499916 0.317754
0.027985 0.504417 0.300603
0.163302 0.508385 0.276738
0.246311 0.511284 0.250095
0.337865 0.511498 0.248051
0.409247 0.512444 0.243534
0.470497 0.514214 0.232151
0.527489 0.516289 0.219242
0.581231 0.518486 0.204471
0.628687 0.518242 0.186557
0.671565 0.516869 0.167025
0.709407 0.515251 0.153262
0.744411 0.513817 0.137057
0.776944 0.512352 0.114046
0.806607 0.510460 0.080781
0.833524 0.507134 0.068605
0.858152 0.502739 0.089845
0.882536 0.498482 0.105104
0.905089 0.493904 0.117708
0.925963 0.489448 0.132784
0.945251 0.485481 0.149752
0.963134 0.482155 0.167849
0.979644 0.479835 0.188418
0.994781 0.478920 0.211368
1.000000 0.479927 0.237369
0.000000 0.511498 0.371435
0.000000 0.511467 0.370947
0.000000 0.511650 0.370214
0.000000 0.513207 0.367834
0.000000 0.515984 0.364263
0.000000 0.519554 0.358618
0.000000 0.523888 0.350713
0.000000 0.528557 0.339513
0.000000 0.533471 0.323796
0.122286 0.537774 0.302159
0.215061 0.541497 0.273686
0.311955 0.542596 0.260899
0.393988 0.543084 0.258213
0.461463 0.544244 0.249760
0.521721 0.545586 0.237125
0.577905 0.547112 0.223178
0.629297 0.547814 0.207126
0.672633 0.544671 0.188449
0.711574 0.541100 0.168887
0.746731 0.538170 0.156161
0.779110 0.535515 0.138582
0.808713 0.532433 0.114656
0.835538 0.529198 0.079744
0.859403 0.523980 0.086580
0.882780 0.519615 0.108827
0.905303 0.514946 0.126223
0.926146 0.510124 0.140749
0.945464 0.505638 0.157931
0.963287 0.501946 0.176455
0.979767 0.499123 0.197421
0.994781 0.497719 0.220340
1.000000 0.498329 0.246769
0.000000 0.539147 0.389258
0.000000 0.538994 0.388525
0.000000 0.539208 0.387762
0.000000 0.540429 0.386603
0.000000 0.543206 0.383185
0.000000 0.547051 0.378210
0.000000 0.551568 0.370916
0.000000 0.556573 0.360662
0.000000 0.561791 0.345861
0.028290 0.566613 0.325994
0.182589 0.571008 0.300084
0.276524 0.573571 0.274327
0.373327 0.573632 0.272221
0.449409 0.574182 0.268528
0.513664 0.575433 0.256596
0.572961 0.576806 0.243442
0.628229 0.578241 0.228611
0.675990 0.576318 0.211185
0.715724 0.571130 0.192477
0.751949 0.566186 0.172091
0.784054 0.561852 0.160311
0.813413 0.557488 0.142458
0.840177 0.553033 0.117311
0.864225 0.548089 0.085573
0.885344 0.541558 0.109621
0.904540 0.535180 0.130434
0.925444 0.530327 0.149020
0.944976 0.525658 0.165957
0.962921 0.521569 0.185061
0.979431 0.518456 0.205997
0.994415 0.516686 0.229618
1.000000 0.516838 0.256413
0.000000 0.572107 0.410285
0.000000 0.571954 0.409766
0.000000 0.572107 0.409003
0.000000 0.573053 0.407965
0.000000 0.575311 0.405219
0.000000 0.578882 0.400366
0.000000 0.583124 0.393164
0.000000 0.587793 0.383337
0.000000 0.592493 0.369512
0.000000 0.597101 0.351171
0.140444 0.601221 0.327337
0.243107 0.604273 0.297826
0.346990 0.604486 0.287327
0.432288 0.604181 0.284550
0.502495 0.604547 0.277012
0.564538 0.605249 0.264134
0.621912 0.606012 0.250004
0.675319 0.606806 0.233951
0.717922 0.601556 0.215946
0.754818 0.594965 0.196384
0.787869 0.588647 0.177523
0.817227 0.582940 0.164706
0.843809 0.577173 0.145724
0.867674 0.571160 0.119875
0.888914 0.564508 0.110872
0.907591 0.557153 0.133394
0.924285 0.550042 0.153567
0.943664 0.545220 0.173556
0.961700 0.540734 0.192569
0.978271 0.537133 0.213748
0.993317 0.534997 0.237705
1.000000 0.534783 0.264958
0.000000 0.604334 0.430549
0.000000 0.604242 0.429908
0.000000 0.604608 0.429358
0.000000 0.605646 0.428473
0.000000 0.607355 0.426856
0.000000 0.610651 0.422553
0.000000 0.614710 0.415534
0.000000 0.619135 0.406104
0.000000 0.623713 0.393072
0.000000 0.628016 0.375769
0.069368 0.631891 0.354070
0.212284 0.634852 0.326879
0.314397 0.636042 0.304295
0.412238 0.635096 0.302312
0.489906 0.634577 0.298863
0.555261 0.634943 0.287388
0.615259 0.635370 0.273564
0.670832 0.635920 0.258335
0.722133 0.635889 0.241245
0.759701 0.627405 0.222019
0.793332 0.619257 0.202304
0.823148 0.611414 0.185367
0.849363 0.604028 0.171481
0.872923 0.596643 0.151614
0.894041 0.589166 0.125154
0.912535 0.581018 0.139071
0.928954 0.573022 0.160861
0.943664 0.565637 0.180941
0.961151 0.560845 0.202304
0.977722 0.556939 0.223728
0.992798 0.554437 0.248020
1.000000 0.553979 0.276066
0.000000 0.637751 0.451362
0.000000 0.637842 0.450660
0.000000 0.638117 0.450141
0.000000 0.638972 0.449165
0.000000 0.640375 0.447333
0.000000 0.642481 0.444404
0.000000 0.645655 0.437415
0.000000 0.649165 0.427710
0.000000 0.652613 0.414954
0.000000 0.656001 0.398352
0.000000 0.658961 0.377844
0.171450 0.661341 0.352911
0.278538 0.662745 0.325597
0.384039 0.661677 0.317906
0.469490 0.660609 0.314916
0.540337 0.660182 0.308019
0.602655 0.660395 0.294896
0.660090 0.660670 0.280186
0.713741 0.660945 0.263951
0.759762 0.657618 0.245579
0.794125 0.647852 0.226658
0.824765 0.638361 0.206485
0.851469 0.629236 0.191043
0.874968 0.620630 0.176059
0.896147 0.611994 0.155306
0.915007 0.603388 0.141787
0.931334 0.594598 0.165743
0.945983 0.586419 0.187167
0.959075 0.579034 0.207370
0.974884 0.574395 0.229465
0.990295 0.571588 0.254032
1.000000 0.570825 0.282597
0.000000 0.666499 0.468269
0.000000 0.666651 0.467811
0.000000 0.667018 0.467414
0.000000 0.667994 0.466407
0.000000 0.669490 0.464698
0.000000 0.671443 0.462531
0.000000 0.674250 0.457496
0.000000 0.677943 0.448615
0.000000 0.681697 0.436622
0.000000 0.685451 0.421485
0.000000 0.688869 0.402655
0.115694 0.691737 0.380346
0.250401 0.693721 0.355810
0.356664 0.693874 0.338750
0.452155 0.692622 0.336522
0.529351 0.691768 0.333165
