其他预设/【212】创意蓝橙调色预设24款/1.3D LUT预设（视频调色-PR-AE-PS-FCPX-达芬奇用）/12.蓝橙色调__.cube
# Created by Adobe Lightroom plugin Export LUT (1.17.0)
# www.johnrellis.com/lightroom/exportlut.htm
# Preset: 12.蓝橙色调[素锦印象]
# Color profile: /Library/Application Support/Adobe/Color/Profiles/Recommended/AdobeRGB1998.icc
LUT_3D_SIZE 8
DOMAIN_MIN 0.000000 0.000000 0.000000
DOMAIN_MAX 0.903226 0.903226 0.903226
0.108492 0.107820 0.107912
0.201266 0.114778 0.111269
0.347997 0.126070 0.109377
0.510582 0.143404 0.099977
0.671534 0.165957 0.079591
0.792172 0.187045 0.061830
0.892424 0.207156 0.068696
0.968750 0.229801 0.116304
0.102876 0.146120 0.127443
0.195926 0.150973 0.113436
0.350805 0.159121 0.110170
0.518334 0.173922 0.098543
0.679469 0.191470 0.076783
0.799161 0.207401 0.059449
0.896696 0.222843 0.070069
0.970733 0.241978 0.119753
0.085512 0.201999 0.163180
0.157473 0.208438 0.149813
0.329076 0.228122 0.116426
0.506004 0.244236 0.097566
0.673426 0.255924 0.072786
0.794339 0.260166 0.053742
0.890471 0.264317 0.068788
0.967163 0.274662 0.120027
0.000000 0.276555 0.213230
0.104646 0.285100 0.201389
0.295842 0.295476 0.164340
0.482429 0.316625 0.111940
0.654475 0.330846 0.071077
0.783749 0.329015 0.047211
0.887907 0.326268 0.070497
0.966735 0.327672 0.128084
0.000000 0.364904 0.272587
0.000000 0.372412 0.262577
0.233280 0.385718 0.203922
0.457801 0.391028 0.167300
0.644739 0.411200 0.096010
0.782803 0.410437 0.050385
0.888334 0.400244 0.080903
0.966308 0.392584 0.142214
0.000000 0.458564 0.336522
0.000000 0.462043 0.326665
0.111879 0.478737 0.278660
0.422522 0.486000 0.228000
0.630976 0.492866 0.166812
0.776333 0.491249 0.083680
0.882963 0.477638 0.097993
0.963409 0.463172 0.160983
0.000000 0.572107 0.410285
0.000000 0.575311 0.405219
0.000000 0.592493 0.369512
0.346990 0.604486 0.287327
0.621912 0.606012 0.250004
0.787869 0.588647 0.177523
0.888914 0.564508 0.110872
0.961700 0.540734 0.192569
0.000000 0.700771 0.488624
0.000000 0.703578 0.485023
0.000000 0.714076 0.460243
0.217380 0.725124 0.384985
0.591119 0.727108 0.356695
0.809873 0.724178 0.291691
0.910948 0.670649 0.218418
0.971252 0.628931 0.241428
0.086976 0.136385 0.174014
0.183322 0.143954 0.161776
0.342657 0.165347 0.119478
0.508812 0.195438 0.098848
0.674983 0.211460 0.075868
0.798611 0.222385 0.059052
0.897307 0.231846 0.071138
0.971954 0.245884 0.121126
0.077577 0.167544 0.186191
0.175051 0.173404 0.173617
0.337285 0.186954 0.135500
0.509789 0.214694 0.098085
0.677363 0.229282 0.074128
0.801053 0.237949 0.055879
0.900084 0.245182 0.072267
0.973907 0.257176 0.124239
0.052277 0.220462 0.202640
0.144137 0.230320 0.198703
0.321874 0.240146 0.166690
0.502953 0.265385 0.105348
0.674556 0.280705 0.070130
0.798215 0.282597 0.050507
0.896941 0.283116 0.072206
0.971344 0.287907 0.126253
0.000000 0.294713 0.246433
0.080934 0.303838 0.239567
0.292271 0.312596 0.199619
0.488441 0.328832 0.154940
0.664240 0.350195 0.068269
0.793271 0.346960 0.047120
0.895171 0.341070 0.075868
0.970855 0.338537 0.134218
0.000000 0.377691 0.297887
0.000000 0.385199 0.290532
0.207767 0.400092 0.233707
0.461707 0.405097 0.199130
0.650477 0.420356 0.142306
0.786954 0.422217 0.055146
0.891569 0.410193 0.084932
0.968719 0.400305 0.146822
0.000000 0.470314 0.358343
0.000000 0.476295 0.351659
0.078035 0.492531 0.310582
0.418708 0.499153 0.255131
0.633661 0.502220 0.196292
0.777035 0.496345 0.132662
0.884092 0.484657 0.101137
0.965057 0.469123 0.165377
0.000000 0.583673 0.430793
0.000000 0.588556 0.427161
0.000000 0.604334 0.394385
0.327947 0.615229 0.308934
0.619501 0.613886 0.275517
0.789822 0.595636 0.205478
0.891234 0.570642 0.134646
0.964050 0.546685 0.198856
0.000000 0.707424 0.503990
0.000000 0.709560 0.499947
0.000000 0.719478 0.477272
0.192660 0.730343 0.406561
0.579675 0.727047 0.371771
0.803922 0.725765 0.311131
0.910216 0.674647 0.242100
0.971954 0.632532 0.243870
0.000000 0.190066 0.273381
0.000000 0.195956 0.267704
0.300084 0.194369 0.244388
0.489815 0.202121 0.172122
0.658289 0.252995 0.109438
0.785458 0.280735 0.052613
0.890135 0.279088 0.068788
0.968841 0.276982 0.121706
0.000000 0.217929 0.278508
0.046784 0.219333 0.276188
0.295720 0.217838 0.252720
0.489662 0.222934 0.185214
0.661067 0.266270 0.121920
0.787991 0.292454 0.050874
0.892210 0.289403 0.070253
0.969848 0.285985 0.124178
0.000000 0.267155 0.298894
0.000000 0.269902 0.295598
0.278233 0.271794 0.272618
0.477546 0.277287 0.219242
0.655207 0.302495 0.150973
0.785611 0.326177 0.047700
0.891325 0.320256 0.071656
0.969604 0.313970 0.128267
0.000000 0.326024 0.320439
0.000000 0.332219 0.320134
0.209201 0.348119 0.296818
0.462684 0.348638 0.260166
0.646296 0.360204 0.194980
0.781552 0.373083 0.099458
0.888823 0.369329 0.075837
0.968353 0.358892 0.135805
0.000000 0.399786 0.359106
0.000000 0.408606 0.359625
0.122927 0.427710 0.338048
0.435645 0.430121 0.287663
0.633326 0.434180 0.247990
0.777096 0.435645 0.173251
0.887236 0.432502 0.087343
0.967224 0.416815 0.149935
0.000000 0.489479 0.412757
0.000000 0.496651 0.411170
0.000000 0.515465 0.391089
0.368872 0.524956 0.326268
0.625055 0.524346 0.282261
0.771359 0.511559 0.239689
0.882048 0.501396 0.145357
0.963928 0.482460 0.169039
0.000000 0.597833 0.478737
0.000000 0.601831 0.476692
0.000000 0.618311 0.456489
0.258183 0.632227 0.389349
0.595636 0.629908 0.349218
0.782864 0.610773 0.284184
0.885100 0.581811 0.235599
0.961669 0.556481 0.200595
0.000000 0.716426 0.545861
0.000000 0.719081 0.542138
0.000000 0.728573 0.526757
0.000000 0.739712 0.468147
0.543725 0.737636 0.425238
0.784939 0.734340 0.376440
0.904356 0.686244 0.308751
0.970367 0.639979 0.242130
0.000000 0.265263 0.396796
0.000000 0.272984 0.389776
0.087892 0.245457 0.385504
0.444739 0.256382 0.346258
0.644404 0.242039 0.250858
0.781277 0.291020 0.189853
0.888853 0.327550 0.090578
0.969512 0.316991 0.128817
0.000000 0.286564 0.395727
0.000000 0.291844 0.391363
0.090211 0.265263 0.388983
0.440406 0.272984 0.350774
0.642115 0.260502 0.260136
0.781094 0.302495 0.199374
0.889555 0.334905 0.101930
0.970031 0.323064 0.130251
0.000000 0.328222 0.411444
0.000000 0.332097 0.408728
0.058045 0.320256 0.404913
0.430854 0.322972 0.368353
0.632532 0.314336 0.289677
0.773617 0.337255 0.226688
0.884031 0.356237 0.128664
0.967773 0.344488 0.132204
0.000000 0.384009 0.434577
0.000000 0.387884 0.431464
0.000000 0.389746 0.427405
0.407813 0.391211 0.393439
0.618097 0.390295 0.336706
0.769192 0.392889 0.267613
0.884581 0.397406 0.169528
0.967498 0.385382 0.141482
0.000000 0.445808 0.457130
0.000000 0.450080 0.455787
0.000000 0.462989 0.453651
0.326513 0.474037 0.415076
0.600336 0.466987 0.381079
0.758755 0.461524 0.318517
0.879973 0.453162 0.223514
0.966003 0.439002 0.155673
0.000000 0.520745 0.493904
0.000000 0.522179 0.489906
0.000000 0.542107 0.489601
0.235355 0.559594 0.452674
0.585199 0.555962 0.403662
0.751644 0.539239 0.368627
0.872953 0.524315 0.294377
0.963134 0.501823 0.176150
0.000000 0.621881 0.553582
0.000000 0.624537 0.550896
0.000000 0.637079 0.541070
0.000000 0.652064 0.500847
0.530846 0.649775 0.448707
0.762356 0.636988 0.395392
0.873655 0.606134 0.358068
0.958770 0.575677 0.263432
0.000000 0.731258 0.614801
0.000000 0.732906 0.610925
0.000000 0.739162 0.596612
0.000000 0.752499 0.556847
0.446052 0.754971 0.499367
0.745815 0.747768 0.474739
0.892912 0.707973 0.401892
0.962799 0.660151 0.347356
0.000000 0.345861 0.522667
0.000000 0.351568 0.517876
0.000000 0.349737 0.513817
0.255009 0.294285 0.503380
0.592554 0.332128 0.455238
0.762570 0.302556 0.349645
0.880308 0.347204 0.294621
0.966064 0.364355 0.206577
0.000000 0.362280 0.523186
0.000000 0.365942 0.518059
0.000000 0.359777 0.515557
0.244907 0.307927 0.506798
0.590600 0.345434 0.459266
0.760891 0.317357 0.356420
0.879576 0.356146 0.300267
0.966094 0.369604 0.209445
0.000000 0.397620 0.531365
0.000000 0.402655 0.527825
0.000000 0.395727 0.528069
0.221225 0.359045 0.518883
0.584314 0.387121 0.473426
0.757259 0.365240 0.381292
0.878599 0.386542 0.319921
0.967163 0.387335 0.217380
0.000000 0.443854 0.550011
0.000000 0.448493 0.547326
0.000000 0.447639 0.545556
0.193057 0.433478 0.535454
0.568963 0.446693 0.493874
0.746944 0.431434 0.417487
0.875364 0.430426 0.344488
0.967803 0.411383 0.214908
0.000000 0.501946 0.572961
0.000000 0.505364 0.570123
0.000000 0.509850 0.567315
0.110262 0.511528 0.557702
0.546929 0.517601 0.521538
0.736660 0.508049 0.462806
0.871916 0.489082 0.378363
0.966064 0.460212 0.250828
0.000000 0.568719 0.600702
0.000000 0.572107 0.598779
0.000000 0.582147 0.597314
0.000000 0.597436 0.590967
0.465736 0.605432 0.543633
0.724575 0.587518 0.511650
0.860441 0.566400 0.439094
0.959594 0.528191 0.317479
0.000000 0.649348 0.642420
0.000000 0.652857 0.641199
0.000000 0.664363 0.636561
0.000000 0.684108 0.626734
0.355566 0.688136 0.568841
0.720943 0.677150 0.534112
0.856626 0.648371 0.496468
0.951720 0.612329 0.407568
0.000000 0.755550 0.705074
0.000000 0.758907 0.703517
0.000000 0.766079 0.693324
0.000000 0.772793 0.665003
0.135409 0.780301 0.604730
0.681697 0.766110 0.584039
0.872129 0.743984 0.525994
0.950683 0.696376 0.478553
0.000000 0.417029 0.636316
0.000000 0.421881 0.634211
0.000000 0.437263 0.629450
0.000000 0.403876 0.629816
0.452125 0.384741 0.615534
0.716335 0.432990 0.562005
0.858549 0.407996 0.472114
0.949767 0.445869 0.432074
0.000000 0.431617 0.641688
0.000000 0.436072 0.639948
0.000000 0.446845 0.634913
0.000000 0.415595 0.634485
0.449073 0.395392 0.619715
0.716213 0.444221 0.566705
0.858274 0.419226 0.478065
0.949828 0.452338 0.435859
0.000000 0.459846 0.644862
0.000000 0.463874 0.643702
0.000000 0.469734 0.640711
0.000000 0.446113 0.639612
0.426398 0.422400 0.625910
0.710719 0.474739 0.577111
0.854765 0.451057 0.494118
0.949126 0.470008 0.444465
0.000000 0.496284 0.655879
0.000000 0.500633 0.654658
0.000000 0.507103 0.651392
0.000000 0.491859 0.647761
0.376379 0.467384 0.634638
0.699214 0.517357 0.590967
0.848447 0.496529 0.516167
0.948425 0.494057 0.451453
0.000000 0.544518 0.673274
0.000000 0.547906 0.671595
0.000000 0.556085 0.667201
0.000000 0.550958 0.664851
0.329900 0.542809 0.653559
0.691188 0.573754 0.615290
0.845853 0.556329 0.547997
0.950988 0.526879 0.457923
0.000000 0.600153 0.692897
0.000000 0.602502 0.690761
0.000000 0.612116 0.685695
0.000000 0.615320 0.683803
0.258488 0.622400 0.674739
0.673274 0.635401 0.640528
0.837858 0.622675 0.583795
0.948058 0.579400 0.481056
0.000000 0.665278 0.722042
0.000000 0.667720 0.720577
0.000000 0.677760 0.717067
0.000000 0.690455 0.713771
0.000000 0.708797 0.705074
0.598718 0.714534 0.657710
0.827420 0.697963 0.631067
0.935363 0.667262 0.558587
0.000000 0.751827 0.772793
0.000000 0.754757 0.772122
0.000000 0.764981 0.769039
0.000000 0.782681 0.760708
0.000000 0.809171 0.746609
0.485939 0.800137 0.678004
0.830564 0.784512 0.656886
0.930755 0.744808 0.615839
0.000000 0.486610 0.754025
0.000000 0.490608 0.752895
0.000000 0.504234 0.748684
0.000000 0.498970 0.746090
0.170321 0.466835 0.742702
0.639582 0.515465 0.724208
0.821500 0.561089 0.674281
0.923400 0.566186 0.622522
0.000000 0.494484 0.754849
0.000000 0.498177 0.753719
0.000000 0.510857 0.749691
0.000000 0.505211 0.747555
0.168063 0.474983 0.743832
0.637446 0.521233 0.725338
0.820676 0.566339 0.676234
0.922972 0.570764 0.624750
0.000000 0.515587 0.758145
0.000000 0.518853 0.757046
0.000000 0.530358 0.753201
0.000000 0.525231 0.751247
0.150912 0.500694 0.747402
0.628595 0.539574 0.729427
0.817990 0.583978 0.683070
0.921691 0.586114 0.632502
0.000000 0.544549 0.764279
0.000000 0.547601 0.763485
0.000000 0.557763 0.760006
0.000000 0.557244 0.757412
0.058747 0.539849 0.753719
0.606806 0.566613 0.736721
0.813687 0.611994 0.694362
0.920256 0.610193 0.644068
0.000000 0.582330 0.773587
0.000000 0.585046 0.772702
0.000000 0.594079 0.769467
0.000000 0.598779 0.766110
0.000000 0.586694 0.762966
0.552728 0.597131 0.748287
0.807950 0.647791 0.709346
0.918853 0.641627 0.658412
0.000000 0.627527 0.784848
0.000000 0.629938 0.784054
0.000000 0.638361 0.781277
0.000000 0.648920 0.777188
0.000000 0.644709 0.774777
0.476814 0.651789 0.762936
0.799222 0.692775 0.728756
0.917479 0.680079 0.674861
0.000000 0.677852 0.797726
0.000000 0.680140 0.797055
0.000000 0.688075 0.794736
0.000000 0.702205 0.790555
0.000000 0.708827 0.788205
0.402014 0.723751 0.779049
0.784604 0.746212 0.751369
0.913878 0.730312 0.698329
0.000000 0.740475 0.827390
0.000000 0.742702 0.827024
0.000000 0.750515 0.825620
0.000000 0.765072 0.822751
0.000000 0.786496 0.817868
0.133425 0.810178 0.809140
0.724453 0.813870 0.765682
0.904082 0.797330 0.743557
0.000000 0.537835 0.847715
0.000000 0.540948 0.847166
0.000000 0.551781 0.845090
0.000000 0.571374 0.841184
0.000000 0.554742 0.840116
0.514855 0.587060 0.831052
0.787289 0.658961 0.815091
0.893187 0.693263 0.775937
0.000000 0.542138 0.848234
0.000000 0.545159 0.847654
0.000000 0.555718 0.845640
0.000000 0.574823 0.841733
0.000000 0.559045 0.840635
0.510063 0.589685 0.831693
0.786007 0.661769 0.815702
0.892851 0.695949 0.777127
0.000000 0.554620 0.850217
0.000000 0.557397 0.849699
0.000000 0.567285 0.847684
0.000000 0.585382 0.843931
0.000000 0.573327 0.842527
0.490669 0.598322 0.834134
0.781399 0.670954 0.817868
0.891752 0.704891 0.781125
0.000000 0.571191 0.854185
0.000000 0.573816 0.853696
0.000000 0.583124 0.851774
0.000000 0.600397 0.848112
0.000000 0.596155 0.846006
0.449378 0.614099 0.838468
0.771450 0.685145 0.821897
0.890105 0.719448 0.787747
0.000000 0.601648 0.859373
0.000000 0.603113 0.858946
0.000000 0.607965 0.857542
0.000000 0.615351 0.854856
0.000000 0.625879 0.851133
0.356634 0.634821 0.844968
0.752255 0.702785 0.828031
0.887816 0.739498 0.797024
0.000000 0.639887 0.865812
0.000000 0.641321 0.865476
0.000000 0.646113 0.864225
0.000000 0.653986 0.861936
0.000000 0.666011 0.858000
0.000000 0.663935 0.853849
0.708553 0.720241 0.837522
0.884520 0.765255 0.809079
0.000000 0.683375 0.873411
0.000000 0.684779 0.873136
0.000000 0.689631 0.872160
0.000000 0.698512 0.870176
0.000000 0.712551 0.866880
0.000000 0.717739 0.863249
0.615656 0.748562 0.850523
0.879393 0.797421 0.824125
0.000000 0.730434 0.881895
0.000000 0.731868 0.881682
0.000000 0.737087 0.880888
0.000000 0.747097 0.879301
0.000000 0.763394 0.876616
0.000000 0.782132 0.872862
0.530877 0.808194 0.863218
0.869505 0.838102 0.842252
