其他预设/【212】创意蓝橙调色预设24款/1.3D LUT预设（视频调色-PR-AE-PS-FCPX-达芬奇用）/12.蓝橙色调__.cube
# Created by Adobe Lightroom plugin Export LUT (1.17.0)
# www.johnrellis.com/lightroom/exportlut.htm
# Preset: 12.蓝橙色调[素锦印象]
# Color profile: /Library/Application Support/Adobe/Color/Profiles/Recommended/AdobeRGB1998.icc
LUT_3D_SIZE 5
DOMAIN_MIN 0.000000 0.000000 0.000000
DOMAIN_MAX 0.903226 0.903226 0.903226
0.108492 0.107820 0.107912
0.309819 0.123171 0.110536
0.593957 0.154604 0.091066
0.819059 0.192111 0.060121
0.968750 0.229801 0.116304
0.092561 0.185641 0.151980
0.292058 0.206455 0.115389
0.594934 0.231601 0.086580
0.820005 0.245792 0.054505
0.966613 0.263523 0.118105
0.000000 0.320348 0.242466
0.212772 0.339391 0.190097
0.565362 0.364508 0.104433
0.812772 0.367529 0.049287
0.966888 0.359197 0.134279
0.000000 0.482399 0.352422
0.000000 0.499916 0.317754
0.527489 0.516289 0.219242
0.806607 0.510460 0.080781
0.963134 0.482155 0.167849
0.000000 0.700771 0.488624
0.000000 0.710536 0.471565
0.438270 0.729915 0.365759
0.841398 0.710719 0.272435
0.971252 0.628931 0.241428
0.000000 0.175692 0.248356
0.269139 0.181247 0.222690
0.584070 0.231724 0.114717
0.819821 0.267216 0.052033
0.970825 0.269047 0.122774
0.000000 0.240391 0.268193
0.249760 0.244968 0.245609
0.580041 0.273686 0.146609
0.818906 0.302617 0.049195
0.970153 0.297551 0.126284
0.000000 0.352605 0.317845
0.127626 0.377539 0.301213
0.561120 0.387640 0.224704
0.813016 0.401221 0.053132
0.967468 0.380468 0.140078
0.000000 0.504173 0.408423
0.000000 0.522789 0.390539
0.507347 0.539391 0.298100
0.802274 0.523644 0.207187
0.963104 0.495949 0.173861
0.000000 0.710323 0.530175
0.000000 0.719020 0.518120
0.372473 0.736965 0.413825
0.831418 0.723323 0.337072
0.969665 0.636225 0.239750
0.000000 0.305486 0.459724
0.000000 0.310216 0.451850
0.520104 0.293034 0.401099
0.804807 0.305699 0.255070
0.968505 0.342687 0.132631
0.000000 0.352300 0.466896
0.000000 0.350011 0.463905
0.511467 0.339300 0.415503
0.801816 0.343328 0.280400
0.968353 0.359625 0.135805
0.000000 0.445777 0.507042
0.000000 0.452338 0.502373
0.478431 0.455329 0.458412
0.790494 0.444221 0.346868
0.967590 0.423041 0.152407
0.000000 0.565850 0.557733
0.000000 0.579675 0.555871
0.324041 0.604669 0.503166
0.774350 0.577661 0.435340
0.961578 0.532280 0.263798
0.000000 0.745418 0.660426
0.000000 0.750240 0.647517
0.000000 0.767147 0.578698
0.774105 0.756405 0.517571
0.958190 0.676844 0.411414
0.000000 0.437812 0.670497
0.000000 0.452888 0.663813
0.061250 0.404883 0.658442
0.745815 0.465644 0.591608
0.943999 0.479347 0.487861
0.000000 0.468666 0.675349
0.000000 0.481086 0.669917
0.037385 0.440162 0.665217
0.743008 0.494942 0.602808
0.943725 0.499397 0.499519
0.000000 0.533471 0.694057
0.000000 0.545129 0.688960
0.000000 0.529900 0.683742
0.730556 0.567712 0.630976
0.943053 0.544640 0.516655
0.000000 0.621118 0.719936
0.000000 0.631281 0.716609
0.000000 0.642176 0.710872
0.703426 0.664607 0.669856
0.941161 0.620356 0.543359
0.000000 0.749630 0.787900
0.000000 0.758572 0.785214
0.000000 0.789944 0.772763
0.551751 0.802945 0.698604
0.924865 0.758450 0.649928
0.000000 0.537835 0.847715
0.000000 0.548302 0.845762
0.000000 0.561700 0.841123
0.607660 0.608484 0.826963
0.893187 0.693263 0.775937
0.000000 0.550927 0.849577
0.000000 0.560601 0.847654
0.000000 0.575280 0.842893
0.597131 0.617578 0.829160
0.892088 0.702052 0.779843
0.000000 0.585138 0.856596
0.000000 0.589990 0.855192
0.000000 0.616785 0.848966
0.527642 0.637629 0.837919
0.889036 0.728756 0.792050
0.000000 0.650355 0.867613
0.000000 0.655024 0.866514
0.000000 0.670253 0.862272
0.274937 0.680476 0.853696
0.883482 0.772610 0.812558
0.000000 0.730434 0.881895
0.000000 0.735378 0.881132
0.000000 0.754330 0.878141
0.000000 0.786130 0.871489
0.869505 0.838102 0.842252
