其他预设/【212】创意蓝橙调色预设24款/1.3D LUT预设（视频调色-PR-AE-PS-FCPX-达芬奇用）/13.蓝橙色调__.cube
# Created by Adobe Lightroom plugin Export LUT (1.17.0)
# www.johnrellis.com/lightroom/exportlut.htm
# Preset: 13.蓝橙色调[素锦印象]
# Color profile: /Library/Application Support/Adobe/Color/Profiles/Recommended/AdobeRGB1998.icc
LUT_3D_SIZE 8
DOMAIN_MIN 0.000000 0.000000 0.000000
DOMAIN_MAX 0.903226 0.903226 0.903226
0.121706 0.121706 0.121706
0.181094 0.125124 0.121706
0.314275 0.145418 0.115480
0.508080 0.190188 0.089815
0.713405 0.251194 0.000000
0.847684 0.294591 0.000000
0.948363 0.325353 0.000000
1.000000 0.348638 0.000000
0.119203 0.133394 0.130190
0.168276 0.141970 0.122774
0.302129 0.161105 0.115724
0.494789 0.205722 0.089845
0.700221 0.263249 0.000000
0.838773 0.303166 0.000000
0.943359 0.332341 0.000000
1.000000 0.354253 0.000000
0.108278 0.165988 0.156069
0.126009 0.174289 0.151339
0.269139 0.197116 0.131044
0.471534 0.251438 0.087343
0.685237 0.306249 0.000000
0.833158 0.339055 0.000000
0.944274 0.361761 0.000000
1.000000 0.377417 0.000000
0.078004 0.213626 0.195438
0.077363 0.220676 0.193698
0.216129 0.240879 0.168734
0.435187 0.293828 0.132357
0.670375 0.365087 0.000000
0.825772 0.395026 0.000000
0.938598 0.407019 0.000000
1.000000 0.414160 0.000000
0.000000 0.275181 0.247196
0.000000 0.281651 0.246525
0.094667 0.311254 0.230228
0.369726 0.342657 0.181674
0.623896 0.408148 0.121553
0.804257 0.447608 0.000000
0.926787 0.463294 0.000000
1.000000 0.462989 0.000000
0.000000 0.358831 0.318364
0.000000 0.366705 0.319402
0.000000 0.397711 0.318944
0.246708 0.443397 0.234836
0.576532 0.478157 0.186069
0.783749 0.509087 0.123568
0.917113 0.521324 0.000000
1.000000 0.522820 0.000000
0.000000 0.487800 0.428626
0.000000 0.495186 0.429206
0.000000 0.518395 0.428168
0.000000 0.571527 0.388891
0.505272 0.599420 0.287114
0.771389 0.604913 0.217716
0.908995 0.593866 0.170382
1.000000 0.584741 0.000000
0.000000 0.654047 0.570184
0.000000 0.659327 0.568719
0.000000 0.678553 0.563561
0.000000 0.716732 0.543114
0.274418 0.745907 0.413336
0.745968 0.750668 0.377661
0.921080 0.711116 0.324285
1.000000 0.674891 0.275364
0.113924 0.131868 0.150515
0.166293 0.137301 0.143130
0.292851 0.162509 0.122408
0.479286 0.218631 0.090791
0.688991 0.275456 0.000000
0.832090 0.312322 0.000000
0.939788 0.337713 0.000000
1.000000 0.356054 0.000000
0.109560 0.146426 0.160006
0.154086 0.154086 0.154086
0.282567 0.172702 0.132845
0.472175 0.229160 0.090700
0.681941 0.285130 0.000000
0.827420 0.320653 0.000000
0.936065 0.344091 0.000000
1.000000 0.361151 0.000000
0.097993 0.177737 0.177493
0.123079 0.187350 0.177768
0.258213 0.203433 0.159182
0.456855 0.252445 0.113680
0.667689 0.319188 0.000000
0.821347 0.351293 0.000000
0.934783 0.370275 0.000000
1.000000 0.382940 0.000000
0.060304 0.223301 0.212406
0.068544 0.231846 0.212863
0.205661 0.251316 0.188540
0.421912 0.293065 0.158450
0.650233 0.357000 0.064332
0.810452 0.400214 0.000000
0.928862 0.412268 0.000000
1.000000 0.418189 0.000000
0.000000 0.285039 0.263188
0.000000 0.291386 0.262638
0.070497 0.320623 0.251957
0.362951 0.348455 0.200992
0.611292 0.405188 0.150057
0.795499 0.444709 0.000000
0.921172 0.467903 0.000000
1.000000 0.466468 0.000000
0.000000 0.366796 0.332036
0.000000 0.373297 0.332372
0.000000 0.403906 0.333562
0.217838 0.448371 0.254826
0.569299 0.480415 0.207095
0.779019 0.510216 0.154574
0.913970 0.521538 0.000000
1.000000 0.525719 0.000000
0.000000 0.490181 0.437476
0.000000 0.495918 0.436927
0.000000 0.519127 0.436744
0.000000 0.572503 0.405188
0.492103 0.601801 0.305913
0.765866 0.606317 0.236179
0.904143 0.594446 0.194461
1.000000 0.584802 0.067628
0.000000 0.653864 0.577081
0.000000 0.659724 0.576226
0.000000 0.679072 0.571618
0.000000 0.716823 0.553826
0.249912 0.752407 0.436835
0.739925 0.754482 0.398596
0.918303 0.714290 0.341436
1.000000 0.677363 0.292943
0.080293 0.165530 0.214908
0.097993 0.170901 0.212955
0.266117 0.163760 0.187716
0.466499 0.213779 0.146548
0.676905 0.291539 0.074311
0.823117 0.352209 0.000000
0.936706 0.372595 0.000000
1.000000 0.379522 0.000000
0.069337 0.183322 0.221408
0.098756 0.185885 0.220645
0.255283 0.180240 0.196506
0.455695 0.222660 0.156680
0.667781 0.296147 0.089479
0.818936 0.355627 0.000000
0.933837 0.378119 0.000000
1.000000 0.384436 0.000000
0.000000 0.215610 0.243412
0.054505 0.220768 0.241398
0.227024 0.227024 0.227024
0.434791 0.255375 0.186130
0.656764 0.318395 0.120180
0.814572 0.371679 0.000000
0.931029 0.400244 0.000000
1.000000 0.403418 0.000000
0.000000 0.259678 0.272068
0.000000 0.265965 0.270451
0.140230 0.285618 0.265812
0.401343 0.309361 0.232456
0.637629 0.359594 0.166629
0.805966 0.402319 0.053437
0.926757 0.435950 0.000000
1.000000 0.436530 0.000000
0.000000 0.319524 0.317479
0.000000 0.324804 0.316014
0.000000 0.351934 0.318853
0.336217 0.379980 0.270878
0.599298 0.418647 0.232364
0.789059 0.450050 0.150607
0.918853 0.472511 0.000000
1.000000 0.481788 0.000000
0.000000 0.400275 0.383856
0.000000 0.405402 0.382940
0.000000 0.432929 0.387488
0.132235 0.476783 0.347692
0.553216 0.501030 0.280461
0.767544 0.520439 0.241764
0.908629 0.527916 0.154025
1.000000 0.533654 0.000000
0.000000 0.518517 0.485237
0.000000 0.521935 0.482795
0.000000 0.542809 0.481880
0.000000 0.591485 0.466438
0.442481 0.620630 0.366796
0.756222 0.622156 0.304540
0.899077 0.608148 0.276707
1.000000 0.595300 0.188266
0.000000 0.667292 0.613031
0.000000 0.670985 0.610437
0.000000 0.688746 0.605219
0.000000 0.724819 0.593561
0.067353 0.762753 0.501152
0.713619 0.763607 0.462043
0.910826 0.728542 0.401709
1.000000 0.691981 0.360143
0.000000 0.225895 0.313817
0.000000 0.235386 0.311101
0.125887 0.211002 0.312261
0.427802 0.191897 0.255924
0.655879 0.267338 0.194583
0.813779 0.337163 0.127169
0.929595 0.387854 0.000000
1.000000 0.408209 0.000000
0.000000 0.245701 0.322057
0.000000 0.250217 0.320378
0.117250 0.229099 0.319677
0.420722 0.209018 0.263951
0.649958 0.277592 0.203403
0.810208 0.343114 0.137270
0.927703 0.391638 0.000000
1.000000 0.412055 0.000000
0.000000 0.277592 0.342046
0.000000 0.282750 0.340154
0.064149 0.275731 0.339605
0.394537 0.259495 0.289860
0.632837 0.312657 0.234470
0.804898 0.367193 0.170596
0.928862 0.408881 0.036042
1.000000 0.429267 0.000000
0.000000 0.327398 0.379431
0.000000 0.332036 0.375311
0.000000 0.338048 0.374701
0.347082 0.347082 0.347082
0.603784 0.371923 0.287938
0.790890 0.406622 0.217380
0.921874 0.436103 0.117708
1.000000 0.458900 0.000000
0.000000 0.384955 0.418555
0.000000 0.389410 0.415778
0.000000 0.405829 0.417975
0.197971 0.434516 0.403571
0.566094 0.450263 0.357977
0.774044 0.469093 0.285435
0.914397 0.481819 0.192966
1.000000 0.492592 0.000000
0.000000 0.463966 0.480262
0.000000 0.470375 0.480537
0.000000 0.486763 0.478187
0.000000 0.522576 0.472145
0.506035 0.542657 0.404181
0.748959 0.550500 0.368902
0.900664 0.548974 0.289891
1.000000 0.543816 0.173098
0.000000 0.568536 0.568688
0.000000 0.572930 0.567193
0.000000 0.586389 0.560357
0.000000 0.622217 0.554864
0.293919 0.658228 0.476905
0.733639 0.656855 0.423957
0.886564 0.636408 0.395789
0.997253 0.616815 0.310216
0.000000 0.696620 0.679622
0.000000 0.700343 0.677577
0.000000 0.711910 0.668208
0.000000 0.735988 0.651667
0.000000 0.778012 0.598077
0.661402 0.777554 0.554376
0.895567 0.753079 0.488685
0.993225 0.719203 0.460700
0.000000 0.314946 0.449866
0.000000 0.322606 0.447242
0.000000 0.317449 0.449042
0.283787 0.270207 0.442237
0.613581 0.249454 0.352667
0.796994 0.330846 0.282597
0.922362 0.388861 0.224674
1.000000 0.424811 0.134554
0.000000 0.331273 0.456062
0.000000 0.337774 0.454017
0.000000 0.329839 0.456092
0.264134 0.278325 0.448157
0.607507 0.265324 0.359686
0.794095 0.340826 0.290929
0.921263 0.395178 0.231785
1.000000 0.428382 0.139345
0.000000 0.364569 0.473945
0.000000 0.370825 0.471321
0.000000 0.365637 0.475441
0.191958 0.321233 0.466560
0.586725 0.314244 0.382544
0.782010 0.373358 0.317540
0.916350 0.415747 0.254551
1.000000 0.439979 0.151125
0.000000 0.407416 0.504326
0.000000 0.412573 0.501335
0.000000 0.417792 0.503807
0.073640 0.402655 0.497292
0.553552 0.393011 0.427893
0.766323 0.430915 0.365789
0.911284 0.452338 0.289769
1.000000 0.459968 0.161135
0.000000 0.466224 0.546960
0.000000 0.470802 0.544488
0.000000 0.480751 0.541100
0.000000 0.483467 0.536553
0.496742 0.496742 0.496742
0.743374 0.504387 0.427497
0.902342 0.504875 0.339086
1.000000 0.500053 0.217655
0.000000 0.529564 0.590417
0.000000 0.533654 0.588495
0.000000 0.546227 0.581567
0.000000 0.561486 0.581537
0.306462 0.591485 0.552056
0.709255 0.594141 0.509056
0.884581 0.587457 0.432685
1.000000 0.565972 0.317144
0.000000 0.615778 0.660853
0.000000 0.619257 0.659052
0.000000 0.631983 0.652888
0.000000 0.653590 0.646876
0.000000 0.689662 0.623133
0.666560 0.692164 0.560693
0.862638 0.677577 0.527428
0.986969 0.652399 0.440803
0.000000 0.715267 0.746426
0.000000 0.718563 0.744747
0.000000 0.730190 0.738491
0.000000 0.753262 0.727352
0.000000 0.788144 0.701411
0.508202 0.801022 0.623011
0.865385 0.786709 0.595911
0.977234 0.754604 0.568872
0.000000 0.419287 0.607355
0.000000 0.426093 0.605798
0.000000 0.434028 0.604089
0.000000 0.393133 0.606500
0.504601 0.391913 0.585107
0.762387 0.373236 0.474891
0.903258 0.441260 0.422278
1.000000 0.482765 0.380896
0.000000 0.429633 0.608698
0.000000 0.435065 0.606683
0.000000 0.440528 0.605676
0.000000 0.402716 0.607202
0.494179 0.396918 0.586725
0.757809 0.383062 0.479500
0.900999 0.448432 0.427680
1.000000 0.486915 0.384253
0.000000 0.460365 0.623346
0.000000 0.464759 0.621149
0.000000 0.467475 0.619989
0.000000 0.439307 0.620386
0.456794 0.418830 0.600763
0.746853 0.422156 0.501244
0.895750 0.476295 0.450294
1.000000 0.503075 0.397986
0.000000 0.495277 0.643915
0.000000 0.499886 0.641444
0.000000 0.507774 0.639490
0.000000 0.493690 0.641993
0.355932 0.458961 0.627619
0.729885 0.486091 0.540826
0.888609 0.523156 0.488350
1.000000 0.529046 0.417029
0.000000 0.537621 0.668452
0.000000 0.542168 0.666865
0.000000 0.555566 0.661952
0.000000 0.551690 0.663630
0.207553 0.537835 0.652735
0.698054 0.555810 0.585168
0.876280 0.574395 0.526574
1.000000 0.557000 0.429206
0.000000 0.587976 0.698451
0.000000 0.592462 0.697658
0.000000 0.605921 0.692439
0.000000 0.613916 0.691646
0.000000 0.619043 0.684993
0.648798 0.648798 0.648798
0.859373 0.646509 0.585290
0.994018 0.615503 0.479622
0.000000 0.652674 0.746700
0.000000 0.656641 0.746212
0.000000 0.669001 0.742428
0.000000 0.688441 0.736843
0.000000 0.705196 0.732784
0.467842 0.740780 0.700313
0.829343 0.730983 0.662837
0.972015 0.710536 0.589776
0.000000 0.729061 0.811765
0.000000 0.732021 0.810758
0.000000 0.742824 0.807187
0.000000 0.762936 0.800565
0.000000 0.792660 0.788266
0.000000 0.834501 0.755795
0.804440 0.820279 0.713680
0.955749 0.799680 0.684321
0.000000 0.509422 0.747219
0.000000 0.514763 0.745998
0.000000 0.533013 0.741726
0.000000 0.512261 0.744411
0.143648 0.459174 0.740841
0.704372 0.548028 0.715724
0.867887 0.545922 0.620325
0.974762 0.607080 0.605280
0.000000 0.516930 0.749172
0.000000 0.521904 0.747951
0.000000 0.539117 0.743771
0.000000 0.518761 0.745968
0.122591 0.468727 0.742611
0.699702 0.554620 0.717891
0.866209 0.552422 0.624506
0.974060 0.611597 0.608820
0.000000 0.536431 0.755825
0.000000 0.540917 0.754726
0.000000 0.556603 0.750668
0.000000 0.540734 0.752346
0.000000 0.500359 0.749111
0.683345 0.576379 0.725002
0.860502 0.574182 0.638483
0.971862 0.626612 0.620478
0.000000 0.562554 0.767636
0.000000 0.566461 0.766384
0.000000 0.580560 0.762570
0.000000 0.575372 0.762661
0.000000 0.546807 0.760159
0.646998 0.599145 0.737881
0.850980 0.608392 0.661036
0.968963 0.649866 0.637812
0.000000 0.595636 0.783413
0.000000 0.599359 0.782467
0.000000 0.611933 0.779080
0.000000 0.618616 0.776547
0.000000 0.600244 0.775143
0.551629 0.615473 0.757595
0.837583 0.652277 0.690730
0.965454 0.680751 0.659907
0.000000 0.635370 0.802853
0.000000 0.638697 0.802029
0.000000 0.650263 0.799130
0.000000 0.668025 0.794369
0.000000 0.661433 0.794186
0.385443 0.666560 0.782742
0.816464 0.708217 0.729519
0.960784 0.719600 0.686641
0.000000 0.679133 0.824582
0.000000 0.682185 0.823941
0.000000 0.692744 0.821592
0.000000 0.711208 0.817563
0.000000 0.723507 0.815854
0.000000 0.737514 0.809964
0.779019 0.778988 0.779019
0.950927 0.772610 0.724941
0.000000 0.734737 0.867155
0.000000 0.737484 0.866850
0.000000 0.747097 0.865690
0.000000 0.764675 0.863279
0.000000 0.792477 0.858305
0.000000 0.818967 0.852934
0.626368 0.858061 0.821408
0.928557 0.846983 0.792752
0.000000 0.584436 0.869657
0.000000 0.588769 0.868986
0.000000 0.604211 0.866575
0.000000 0.610620 0.864958
0.000000 0.582971 0.864958
0.583337 0.639033 0.852049
0.852506 0.722591 0.827695
0.948058 0.724971 0.771725
0.000000 0.588281 0.870665
0.000000 0.592523 0.870024
0.000000 0.607507 0.867613
0.000000 0.614862 0.865873
0.000000 0.587884 0.865873
0.574517 0.640131 0.853391
0.851286 0.724849 0.829618
0.947478 0.727687 0.773617
0.000000 0.598596 0.874418
0.000000 0.602625 0.873716
0.000000 0.616846 0.871427
0.000000 0.629206 0.868956
0.000000 0.604242 0.869139
0.539666 0.643519 0.858030
0.846586 0.732143 0.836881
0.945403 0.736995 0.780301
0.000000 0.610925 0.881163
0.000000 0.614771 0.880552
0.000000 0.628260 0.878325
0.000000 0.652766 0.874144
0.000000 0.630823 0.874815
0.465156 0.652247 0.865904
0.830991 0.746487 0.844938
0.942107 0.752499 0.791348
0.000000 0.636164 0.890532
0.000000 0.638636 0.890043
0.000000 0.646845 0.888212
0.000000 0.660517 0.884672
0.000000 0.665919 0.882475
0.306706 0.669215 0.876707
0.802182 0.762264 0.855070
0.937133 0.774319 0.807126
0.000000 0.667994 0.902220
0.000000 0.670253 0.901793
0.000000 0.677943 0.900298
0.000000 0.691249 0.897398
0.000000 0.710658 0.892576
0.000000 0.697353 0.890410
0.734798 0.770932 0.870542
0.929625 0.803281 0.828183
0.000000 0.703853 0.915709
0.000000 0.705928 0.915373
0.000000 0.713191 0.914244
0.000000 0.726467 0.911986
0.000000 0.747616 0.908171
0.000000 0.753689 0.905394
0.573510 0.790127 0.892088
0.917082 0.840970 0.855558
0.000000 0.742031 0.930388
0.000000 0.743984 0.930175
0.000000 0.751064 0.929381
0.000000 0.764523 0.927825
0.000000 0.786160 0.925139
0.000000 0.815061 0.921324
0.290898 0.840787 0.915099
0.891508 0.891508 0.891508
