其他预设/【212】创意蓝橙调色预设24款/1.3D LUT预设（视频调色-PR-AE-PS-FCPX-达芬奇用）/13.蓝橙色调__.cube
# Created by Adobe Lightroom plugin Export LUT (1.17.0)
# www.johnrellis.com/lightroom/exportlut.htm
# Preset: 13.蓝橙色调[素锦印象]
# Color profile: /Library/Application Support/Adobe/Color/Profiles/Recommended/AdobeRGB1998.icc
LUT_3D_SIZE 5
DOMAIN_MIN 0.000000 0.000000 0.000000
DOMAIN_MAX 0.903226 0.903226 0.903226
0.121706 0.121706 0.121706
0.275273 0.138491 0.118074
0.620813 0.222599 0.048341
0.875547 0.303319 0.000000
1.000000 0.348638 0.000000
0.111971 0.156649 0.148440
0.239689 0.180392 0.128878
0.594781 0.269352 0.039246
0.866972 0.335576 0.000000
1.000000 0.370794 0.000000
0.019501 0.242283 0.219425
0.113741 0.268193 0.205539
0.534600 0.353491 0.126833
0.847715 0.428077 0.000000
1.000000 0.437079 0.000000
0.000000 0.387030 0.342565
0.000000 0.411963 0.344152
0.413733 0.488991 0.242100
0.818357 0.531731 0.130648
1.000000 0.538903 0.000000
0.000000 0.654047 0.570184
0.000000 0.672267 0.565179
0.000000 0.732692 0.491035
0.812711 0.749569 0.360479
1.000000 0.674891 0.275364
0.093690 0.154910 0.195529
0.236118 0.157504 0.175143
0.579858 0.256596 0.096864
0.854124 0.349432 0.000000
1.000000 0.372320 0.000000
0.067384 0.195071 0.218570
0.205539 0.205539 0.205539
0.561486 0.278721 0.126223
0.848875 0.374182 0.000000
1.000000 0.391211 0.000000
0.000000 0.275395 0.273716
0.021607 0.299809 0.273777
0.505943 0.357275 0.207889
0.834226 0.430396 0.000000
1.000000 0.453193 0.000000
0.000000 0.418067 0.391730
0.000000 0.441810 0.394141
0.367834 0.514977 0.305547
0.808988 0.541314 0.223392
1.000000 0.545678 0.000000
0.000000 0.666133 0.604395
0.000000 0.683436 0.599451
0.000000 0.746242 0.547692
0.796445 0.763607 0.427588
1.000000 0.688716 0.342840
0.000000 0.268040 0.378820
0.000000 0.272099 0.378271
0.523125 0.214542 0.301823
0.840665 0.346654 0.187015
1.000000 0.421454 0.000000
0.000000 0.310582 0.399298
0.000000 0.310674 0.399329
0.500298 0.267460 0.325658
0.832609 0.370275 0.215152
1.000000 0.432197 0.000000
0.000000 0.394873 0.461006
0.000000 0.407355 0.457313
0.419654 0.419654 0.419654
0.811521 0.451331 0.299351
1.000000 0.474342 0.081514
0.000000 0.521019 0.554681
0.000000 0.533715 0.546929
0.000000 0.585260 0.531548
0.772366 0.593896 0.443824
1.000000 0.569635 0.274083
0.000000 0.705715 0.711940
0.000000 0.718196 0.705928
0.000000 0.761593 0.675898
0.706081 0.785794 0.589014
0.985504 0.734646 0.511681
0.000000 0.442329 0.642451
0.000000 0.462654 0.637110
0.000000 0.384192 0.638972
0.791318 0.413153 0.508934
0.998474 0.510094 0.440406
0.000000 0.471839 0.652674
0.000000 0.486000 0.647700
0.000000 0.425452 0.647639
0.780606 0.444892 0.526268
0.995819 0.524590 0.451881
0.000000 0.530541 0.683589
0.000000 0.545617 0.678370
0.000000 0.526909 0.676997
0.749447 0.539513 0.584863
0.992523 0.570184 0.484474
0.000000 0.614618 0.733547
0.000000 0.626398 0.728420
0.000000 0.644160 0.724208
0.683162 0.683101 0.683131
0.984222 0.653986 0.545403
0.000000 0.730953 0.826444
0.000000 0.741360 0.824002
0.000000 0.778378 0.813443
0.181674 0.843381 0.771817
0.949310 0.811093 0.711696
0.000000 0.584436 0.869657
0.000000 0.599268 0.867369
0.000000 0.596399 0.865568
0.678340 0.666041 0.847074
0.948058 0.724971 0.771725
0.000000 0.595636 0.873167
0.000000 0.609461 0.870970
0.000000 0.611872 0.868589
0.660426 0.672755 0.851041
0.946075 0.734066 0.778164
0.000000 0.622370 0.885527
0.000000 0.630671 0.883665
0.000000 0.658534 0.878202
0.550439 0.680415 0.866209
0.939849 0.762570 0.798642
0.000000 0.676631 0.905455
0.000000 0.684047 0.904082
0.000000 0.708949 0.898863
0.000000 0.713466 0.891661
0.927123 0.811795 0.834348
0.000000 0.742031 0.930388
0.000000 0.748745 0.929656
0.000000 0.774166 0.926665
0.000000 0.817197 0.921050
0.891508 0.891508 0.891508
