其他预设/【212】创意蓝橙调色预设24款/1.3D LUT预设（视频调色-PR-AE-PS-FCPX-达芬奇用）/13.蓝橙色调__.cube
# Created by Adobe Lightroom plugin Export LUT (1.17.0)
# www.johnrellis.com/lightroom/exportlut.htm
# Preset: 13.蓝橙色调[素锦印象]
# Color profile: /Library/Application Support/Adobe/Color/Profiles/Recommended/AdobeRGB1998.icc
LUT_3D_SIZE 32
0.121706 0.121706 0.121706
0.124758 0.121187 0.121859
0.134005 0.120363 0.121859
0.154238 0.122103 0.122011
0.181094 0.125124 0.121706
0.209873 0.128847 0.121187
0.241093 0.133089 0.119844
0.275273 0.138491 0.118074
0.314275 0.145418 0.115480
0.357580 0.154116 0.111574
0.405127 0.164584 0.106630
0.455573 0.177066 0.099275
0.508080 0.190188 0.089815
0.565850 0.206302 0.074434
0.620813 0.222599 0.048341
0.669581 0.237339 0.000000
0.713405 0.251194 0.000000
0.751919 0.263371 0.000000
0.786069 0.274510 0.000000
0.817868 0.285039 0.000000
0.847684 0.294591 0.000000
0.875547 0.303319 0.000000
0.901488 0.311406 0.000000
0.925628 0.318853 0.000000
0.948363 0.325353 0.000000
0.969970 0.331609 0.000000
0.990539 0.337499 0.000000
1.000000 0.343114 0.000000
1.000000 0.348638 0.000000
1.000000 0.354101 0.000000
1.000000 0.359686 0.000000
1.000000 0.365728 0.000000
0.121706 0.121706 0.121706
0.123598 0.121370 0.121675
0.132967 0.122011 0.121736
0.153140 0.124178 0.121889
0.179690 0.127260 0.121767
0.208499 0.130587 0.121309
0.239689 0.134859 0.120180
0.273808 0.140261 0.118196
0.312505 0.146975 0.115663
0.355871 0.155825 0.111757
0.403113 0.166110 0.106661
0.453437 0.178286 0.099428
0.505760 0.191806 0.089723
0.563073 0.207492 0.075288
0.617609 0.223301 0.051179
0.666163 0.238071 0.000000
0.709926 0.251713 0.000000
0.748653 0.263951 0.000000
0.783047 0.275242 0.000000
0.815061 0.285618 0.000000
0.845121 0.294865 0.000000
0.873259 0.303624 0.000000
0.899382 0.311620 0.000000
0.923796 0.318883 0.000000
0.946715 0.325628 0.000000
0.968475 0.331884 0.000000
0.989258 0.337774 0.000000
1.000000 0.343511 0.000000
1.000000 0.348882 0.000000
1.000000 0.354345 0.000000
1.000000 0.359899 0.000000
1.000000 0.365820 0.000000
0.121614 0.121920 0.121889
0.122377 0.123232 0.121736
0.131563 0.124331 0.121798
0.151736 0.126680 0.121920
0.178103 0.129793 0.121798
0.206790 0.133150 0.121157
0.237949 0.137240 0.120058
0.271794 0.142550 0.118105
0.310613 0.149386 0.115541
0.353613 0.158053 0.111727
0.400977 0.168551 0.106600
0.451392 0.180362 0.099672
0.503593 0.193881 0.089998
0.560845 0.209598 0.075380
0.615015 0.225315 0.051698
0.663722 0.239902 0.000000
0.707515 0.253239 0.000000
0.746395 0.265324 0.000000
0.781094 0.276371 0.000000
0.813321 0.286412 0.000000
0.843595 0.296056 0.000000
0.871885 0.304692 0.000000
0.898192 0.312535 0.000000
0.922728 0.319799 0.000000
0.945769 0.326452 0.000000
0.967620 0.332769 0.000000
0.988495 0.338537 0.000000
1.000000 0.344213 0.000000
1.000000 0.349584 0.000000
1.000000 0.354986 0.000000
1.000000 0.360418 0.000000
1.000000 0.366400 0.000000
0.120699 0.126619 0.125093
0.120790 0.128389 0.124392
0.128511 0.129946 0.123293
0.148684 0.132143 0.121920
0.174960 0.135225 0.121828
0.203555 0.138430 0.121218
0.234653 0.142489 0.120119
0.268803 0.147646 0.118166
0.307378 0.154147 0.115480
0.350439 0.162661 0.111879
0.397620 0.173129 0.106813
0.448005 0.185336 0.099611
0.500023 0.198764 0.089723
0.557092 0.214450 0.075410
0.611505 0.229496 0.051362
0.660060 0.243748 0.000000
0.704158 0.256931 0.000000
0.743221 0.268711 0.000000
0.778012 0.279667 0.000000
0.810391 0.289342 0.000000
0.840848 0.298558 0.000000
0.869383 0.307195 0.000000
0.896086 0.314702 0.000000
0.921050 0.322057 0.000000
0.944579 0.328618 0.000000
0.966827 0.334722 0.000000
0.988006 0.340551 0.000000
1.000000 0.346227 0.000000
1.000000 0.351415 0.000000
1.000000 0.356664 0.000000
1.000000 0.361975 0.000000
1.000000 0.367803 0.000000
0.119203 0.133394 0.130190
0.119112 0.134920 0.129366
0.121920 0.136385 0.128267
0.141207 0.138460 0.126101
0.168276 0.141970 0.122774
0.198428 0.145571 0.121340
0.229496 0.149508 0.120272
0.263676 0.154604 0.118379
0.302129 0.161105 0.115724
0.345006 0.169863 0.111696
0.392096 0.180331 0.106905
0.442359 0.192355 0.099489
0.494789 0.205722 0.089845
0.551690 0.221042 0.075410
0.606165 0.236210 0.052003
0.655329 0.250034 0.000000
0.700221 0.263249 0.000000
0.739986 0.274723 0.000000
0.775448 0.284977 0.000000
0.808133 0.294560 0.000000
0.838773 0.303166 0.000000
0.867521 0.311650 0.000000
0.894438 0.318883 0.000000
0.919646 0.325902 0.000000
0.943359 0.332341 0.000000
0.965850 0.338109 0.000000
0.987152 0.343755 0.000000
1.000000 0.349096 0.000000
1.000000 0.354253 0.000000
1.000000 0.359350 0.000000
1.000000 0.364477 0.000000
1.000000 0.370031 0.000000
0.117220 0.140352 0.135348
0.117342 0.141573 0.134920
0.117189 0.143343 0.134066
0.132357 0.145418 0.131624
0.157870 0.147982 0.128847
0.189487 0.152895 0.124605
0.223514 0.158297 0.120424
0.257572 0.163394 0.118349
0.295872 0.170108 0.115724
0.338933 0.178988 0.111879
0.386084 0.189425 0.106630
0.436561 0.201541 0.099428
0.488930 0.214908 0.089509
0.546441 0.230014 0.074800
0.601251 0.244907 0.050538
0.650996 0.258701 0.000000
0.696407 0.271092 0.000000
0.736934 0.282231 0.000000
0.772854 0.292332 0.000000
0.806210 0.301457 0.000000
0.837278 0.309911 0.000000
0.866453 0.317784 0.000000
0.904845 0.328832 0.000000
0.929137 0.334997 0.000000
0.951873 0.340764 0.000000
0.973358 0.346105 0.000000
0.993744 0.351141 0.000000
1.000000 0.355810 0.000000
1.000000 0.360388 0.000000
1.000000 0.365270 0.000000
1.000000 0.370031 0.000000
1.000000 0.375250 0.000000
0.115084 0.148226 0.141817
0.114961 0.149416 0.141207
0.114839 0.150912 0.140444
0.123445 0.153414 0.138552
0.148226 0.156100 0.135500
0.178164 0.159609 0.131563
0.214054 0.166140 0.126650
0.252293 0.173648 0.120363
0.291112 0.181216 0.115816
0.334783 0.190524 0.111635
0.382635 0.201450 0.105928
0.433722 0.213870 0.098390
0.487037 0.227207 0.088289
0.546654 0.242985 0.072175
0.602319 0.257877 0.041840
0.652033 0.271183 0.000000
0.697505 0.282933 0.000000
0.738094 0.293370 0.000000
0.774380 0.302770 0.000000
0.808164 0.311437 0.000000
0.840116 0.319707 0.000000
0.870237 0.327337 0.000000
0.898375 0.334203 0.000000
0.924498 0.340581 0.000000
0.948699 0.346258 0.000000
0.971069 0.351537 0.000000
0.991974 0.356207 0.000000
1.000000 0.360662 0.000000
1.000000 0.365240 0.000000
1.000000 0.369574 0.000000
1.000000 0.374090 0.000000
1.000000 0.379065 0.000000
0.111971 0.156649 0.148440
0.111879 0.157595 0.148074
0.112001 0.158816 0.147494
0.115328 0.161624 0.145937
0.136721 0.164584 0.142214
0.166964 0.167361 0.139284
0.200412 0.172305 0.134524
0.239689 0.180392 0.128878
0.282811 0.190066 0.121340
0.326024 0.200748 0.112764
0.374060 0.212436 0.106081
0.425360 0.225162 0.098238
0.479133 0.238682 0.087709
0.538659 0.254551 0.071443
0.594781 0.269352 0.039246
0.645136 0.282261 0.000000
0.691188 0.293675 0.000000
0.732540 0.303807 0.000000
0.769528 0.312657 0.000000
0.803983 0.320928 0.000000
0.836393 0.328618 0.000000
0.866972 0.335576 0.000000
0.895415 0.342260 0.000000
0.921813 0.348089 0.000000
0.946319 0.353338 0.000000
0.968994 0.358129 0.000000
0.990143 0.362585 0.000000
1.000000 0.366705 0.000000
1.000000 0.370794 0.000000
1.000000 0.374792 0.000000
1.000000 0.379095 0.000000
1.000000 0.383734 0.000000
0.108278 0.165988 0.156069
0.108186 0.166873 0.155703
0.108278 0.168002 0.155306
0.108400 0.170687 0.154360
0.126009 0.174289 0.151339
0.155367 0.177157 0.146731
0.188510 0.180667 0.143099
0.225620 0.187076 0.137575
0.269139 0.197116 0.131044
0.317693 0.209506 0.121920
0.365545 0.222171 0.110964
0.416602 0.237125 0.098329
0.471534 0.251438 0.087343
0.530938 0.267521 0.070527
0.587366 0.282170 0.036164
0.638422 0.294987 0.000000
0.685237 0.306249 0.000000
0.727443 0.315892 0.000000
0.765194 0.324254 0.000000
0.800229 0.332097 0.000000
0.833158 0.339055 0.000000
0.864073 0.345464 0.000000
0.892851 0.351598 0.000000
0.919524 0.356909 0.000000
0.944274 0.361761 0.000000
0.967193 0.366033 0.000000
0.988586 0.370031 0.000000
1.000000 0.373754 0.000000
1.000000 0.377417 0.000000
1.000000 0.381109 0.000000
1.000000 0.384985 0.000000
1.000000 0.389288 0.000000
0.103548 0.176394 0.164492
0.103334 0.177188 0.164401
0.103548 0.178256 0.163760
0.103059 0.180667 0.163027
0.116182 0.184573 0.160952
0.140688 0.188388 0.155154
0.177035 0.191440 0.151492
0.213657 0.196078 0.146029
0.254643 0.204227 0.140230
0.302800 0.216251 0.132448
0.356268 0.231205 0.121828
0.407813 0.245518 0.108614
0.463264 0.262608 0.091524
0.521782 0.280583 0.069978
0.579370 0.295811 0.031586
0.631861 0.308598 0.000000
0.679866 0.319860 0.000000
0.723171 0.329168 0.000000
0.761593 0.337316 0.000000
0.797116 0.344427 0.000000
0.830289 0.350988 0.000000
0.861204 0.356817 0.000000
0.890013 0.362066 0.000000
0.916716 0.366674 0.000000
0.941588 0.370855 0.000000
0.964752 0.374823 0.000000
0.986511 0.378332 0.000000
1.000000 0.381659 0.000000
1.000000 0.384985 0.000000
1.000000 0.388373 0.000000
1.000000 0.391852 0.000000
1.000000 0.395819 0.000000
0.097566 0.187381 0.173800
0.097444 0.188144 0.173495
0.097200 0.189273 0.173159
0.096651 0.191531 0.172580
0.105837 0.195407 0.171054
0.127138 0.200076 0.166598
0.160647 0.203983 0.158511
0.201816 0.207523 0.155398
0.242405 0.213626 0.148135
0.288029 0.223941 0.142275
0.340917 0.238285 0.133211
0.398474 0.255253 0.120699
0.455116 0.272007 0.104280
0.513573 0.290440 0.081697
0.570825 0.308843 0.034791
0.624048 0.322698 0.000000
0.672847 0.333837 0.000000
0.717037 0.343175 0.000000
0.756374 0.350774 0.000000
0.792691 0.357549 0.000000
0.826444 0.363470 0.000000
0.857939 0.368811 0.000000
0.887175 0.373602 0.000000
0.914244 0.377813 0.000000
0.939452 0.381506 0.000000
0.962890 0.384924 0.000000
0.984863 0.387854 0.000000
1.000000 0.390723 0.000000
1.000000 0.393561 0.000000
1.000000 0.396429 0.000000
1.000000 0.399512 0.000000
1.000000 0.403052 0.000000
0.089479 0.199557 0.183719
0.089296 0.200259 0.183536
0.089204 0.201419 0.183444
0.088563 0.203616 0.182895
0.093568 0.207218 0.181796
0.112978 0.212345 0.178500
0.142000 0.217380 0.170474
0.187015 0.221012 0.164309
0.229892 0.225559 0.159091
0.275395 0.233677 0.149660
0.325963 0.246464 0.143740
0.382605 0.262638 0.133455
0.456062 0.288060 0.117372
0.517632 0.306859 0.095064
0.576806 0.325322 0.062562
0.630274 0.341650 0.000000
0.678981 0.355077 0.000000
0.722927 0.363592 0.000000
0.761929 0.370306 0.000000
0.797848 0.376074 0.000000
0.831113 0.380896 0.000000
0.861906 0.385260 0.000000
0.890471 0.388983 0.000000
0.917021 0.392096 0.000000
0.941802 0.394873 0.000000
0.964904 0.397498 0.000000
0.986572 0.399756 0.000000
1.000000 0.401984 0.000000
1.000000 0.404181 0.000000
1.000000 0.406439 0.000000
1.000000 0.408972 0.000000
1.000000 0.411994 0.000000
0.078004 0.213626 0.195438
0.077729 0.214389 0.195254
0.077394 0.215244 0.195071
0.076692 0.217288 0.194461
0.077363 0.220676 0.193698
0.096040 0.226078 0.191440
0.123384 0.231907 0.184970
0.162142 0.236973 0.171725
0.216129 0.240879 0.168734
0.262333 0.246586 0.161990
0.313970 0.257725 0.151614
0.369665 0.273045 0.144686
0.435187 0.293828 0.132357
0.504387 0.316381 0.113497
0.565423 0.334478 0.086458
0.620661 0.350835 0.032013
0.670375 0.365087 0.000000
0.714870 0.377661 0.000000
0.754879 0.384955 0.000000
0.791745 0.390387 0.000000
0.825772 0.395026 0.000000
0.857298 0.398749 0.000000
0.886412 0.402014 0.000000
0.913420 0.404730 0.000000
0.938598 0.407019 0.000000
0.962066 0.408911 0.000000
0.984100 0.410742 0.000000
1.000000 0.412451 0.000000
1.000000 0.414160 0.000000
1.000000 0.416022 0.000000
1.000000 0.418128 0.000000
1.000000 0.420691 0.000000
0.062348 0.227481 0.207126
0.062104 0.228092 0.206851
0.061524 0.228977 0.206790
0.060395 0.231083 0.206271
0.059358 0.234012 0.205509
0.076753 0.239689 0.204105
0.102968 0.246067 0.199435
0.139254 0.252384 0.188052
0.193668 0.257023 0.176638
0.248264 0.262028 0.172213
0.298924 0.269871 0.163088
0.355444 0.283604 0.153872
0.418097 0.302678 0.145235
0.484901 0.323583 0.130098
0.553185 0.345159 0.108034
0.610498 0.361303 0.076600
0.661372 0.375006 0.000000
0.707027 0.387152 0.000000
0.747829 0.397742 0.000000
0.785336 0.405432 0.000000
0.820310 0.409644 0.000000
0.852598 0.413184 0.000000
0.882383 0.415930 0.000000
0.909972 0.418097 0.000000
0.935607 0.419989 0.000000
0.959472 0.421454 0.000000
0.981903 0.422705 0.000000
1.000000 0.423804 0.000000
1.000000 0.425025 0.000000
1.000000 0.426490 0.000000
1.000000 0.428138 0.000000
1.000000 0.430274 0.000000
0.019501 0.242283 0.219425
0.018341 0.242924 0.219364
0.017273 0.243778 0.219089
0.014069 0.245792 0.218723
0.010620 0.248783 0.218173
0.036133 0.254002 0.217319
0.076631 0.261051 0.214084
0.113741 0.268193 0.205539
0.161074 0.274784 0.188174
0.228702 0.279362 0.183047
0.284154 0.285618 0.175204
0.340978 0.296880 0.164157
0.402502 0.313481 0.155550
0.467414 0.332860 0.144747
0.534600 0.353491 0.126833
0.598932 0.372747 0.102296
0.652064 0.386419 0.066499
0.699062 0.397864 0.000000
0.741054 0.407904 0.000000
0.779385 0.417182 0.000000
0.814664 0.425086 0.000000
0.847715 0.428077 0.000000
0.878172 0.430518 0.000000
0.906310 0.432227 0.000000
0.932464 0.433631 0.000000
0.956909 0.434638 0.000000
0.979828 0.435462 0.000000
1.000000 0.436286 0.000000
1.000000 0.437079 0.000000
1.000000 0.437964 0.000000
1.000000 0.439277 0.000000
1.000000 0.441016 0.000000
0.000000 0.258152 0.232883
0.000000 0.258824 0.232822
0.000000 0.259709 0.232670
0.000000 0.261662 0.232395
0.000000 0.264775 0.232029
0.000000 0.269535 0.231388
0.012177 0.277195 0.229587
0.081544 0.285344 0.223270
0.130892 0.293278 0.209140
0.194644 0.299321 0.189151
0.265995 0.304540 0.186923
0.325597 0.313420 0.178683
0.387213 0.327062 0.165621
0.450843 0.343969 0.156924
0.516258 0.362951 0.143557
0.580957 0.381659 0.123812
0.640162 0.397864 0.097902
0.690150 0.409674 0.054932
0.733852 0.419471 0.000000
0.773617 0.428229 0.000000
0.809995 0.436378 0.000000
0.843442 0.443854 0.000000
0.874632 0.446113 0.000000
0.903441 0.447456 0.000000
0.930114 0.448371 0.000000
0.955016 0.448890 0.000000
0.978332 0.449195 0.000000
1.000000 0.449561 0.000000
1.000000 0.449836 0.000000
1.000000 0.450202 0.000000
1.000000 0.450965 0.000000
1.000000 0.452094 0.000000
0.000000 0.275181 0.247196
0.000000 0.275731 0.246983
0.000000 0.276677 0.246983
0.000000 0.278569 0.246738
0.000000 0.281651 0.246525
0.000000 0.285985 0.246128
0.000000 0.293706 0.245274
0.000000 0.302403 0.241093
0.094667 0.311254 0.230228
0.155795 0.319219 0.208804
0.238132 0.325322 0.196902
0.308293 0.333349 0.191348
0.369726 0.342657 0.181674
0.434791 0.357458 0.166201
0.499153 0.374487 0.157626
0.563622 0.392340 0.142275
0.623896 0.408148 0.121553
0.679011 0.421881 0.093843
0.725856 0.431952 0.039124
0.766842 0.440192 0.000000
0.804257 0.447608 0.000000
0.838590 0.454475 0.000000
0.870054 0.460883 0.000000
0.899504 0.462837 0.000000
0.926787 0.463294 0.000000
0.952209 0.463478 0.000000
0.976043 0.463294 0.000000
0.998352 0.463172 0.000000
1.000000 0.462989 0.000000
1.000000 0.462989 0.000000
1.000000 0.463203 0.000000
1.000000 0.463935 0.000000
0.000000 0.293400 0.262699
0.000000 0.294133 0.262760
0.000000 0.297368 0.264561
0.000000 0.299260 0.264530
0.000000 0.302434 0.264225
0.000000 0.306493 0.263859
0.000000 0.313573 0.263493
0.000000 0.322728 0.260807
0.000000 0.332433 0.252659
0.116243 0.341588 0.235569
0.190585 0.351446 0.205814
0.286625 0.358465 0.206119
0.356634 0.367010 0.196872
0.421820 0.377752 0.184268
0.489235 0.392859 0.166903
0.553613 0.409247 0.157900
0.614496 0.424201 0.141360
0.670344 0.437049 0.119661
0.720516 0.447883 0.090913
0.763455 0.455634 0.024598
0.801541 0.461952 0.000000
0.836332 0.467964 0.000000
0.868254 0.473396 0.000000
0.897581 0.478431 0.000000
0.924865 0.479744 0.000000
0.950378 0.479194 0.000000
0.974182 0.478340 0.000000
0.996643 0.477546 0.000000
1.000000 0.476814 0.000000
1.000000 0.476204 0.000000
1.000000 0.475959 0.000000
1.000000 0.476143 0.000000
0.000000 0.313878 0.280186
0.000000 0.314824 0.280400
0.000000 0.316045 0.280644
0.000000 0.318273 0.280858
0.000000 0.321630 0.280827
0.000000 0.325841 0.280644
0.000000 0.332006 0.280461
0.000000 0.341588 0.279332
0.000000 0.351781 0.273533
0.046235 0.363104 0.261295
0.147890 0.374456 0.237064
0.246311 0.382483 0.215091
0.333898 0.389746 0.211460
0.403967 0.398138 0.200656
0.471199 0.409827 0.184878
0.538720 0.424659 0.168643
0.600214 0.438483 0.158236
0.657069 0.450843 0.140932
0.708980 0.461311 0.118593
0.754574 0.469520 0.089723
0.794522 0.475593 0.021820
0.830533 0.480873 0.000000
0.863493 0.485634 0.000000
0.893675 0.490089 0.000000
0.921447 0.494118 0.000000
0.947448 0.494881 0.000000
0.971801 0.493660 0.000000
0.994690 0.492439 0.000000
1.000000 0.491218 0.000000
1.000000 0.490120 0.000000
1.000000 0.489387 0.000000
1.000000 0.489113 0.000000
0.000000 0.335332 0.298314
0.000000 0.336278 0.298680
0.000000 0.337530 0.299016
0.000000 0.339727 0.299016
0.000000 0.343053 0.299168
0.000000 0.347265 0.299168
0.000000 0.352636 0.298985
0.000000 0.361944 0.298589
0.000000 0.373449 0.295323
0.000000 0.386175 0.286748
0.088960 0.398444 0.267735
0.188266 0.408759 0.232853
0.301518 0.415076 0.225254
0.383612 0.422858 0.216770
0.454017 0.431189 0.204105
0.523430 0.443702 0.185306
0.588098 0.456336 0.170687
0.645808 0.467536 0.159121
0.699092 0.477272 0.141787
0.746151 0.484749 0.119783
0.787503 0.490608 0.091188
0.824491 0.495247 0.027741
0.858610 0.499245 0.000000
0.889616 0.502953 0.000000
0.918090 0.506371 0.000000
0.944457 0.509545 0.000000
0.969207 0.509514 0.000000
0.992462 0.507805 0.000000
1.000000 0.506065 0.000000
1.000000 0.504509 0.000000
1.000000 0.503227 0.000000
1.000000 0.502464 0.000000
0.000000 0.358831 0.318364
0.000000 0.359808 0.318822
0.000000 0.361089 0.319127
0.000000 0.363287 0.319341
0.000000 0.366705 0.319402
0.000000 0.370825 0.319432
0.000000 0.376104 0.319371
0.000000 0.384985 0.319860
0.000000 0.397711 0.318944
0.000000 0.410834 0.312535
0.000000 0.423346 0.297856
0.131167 0.434943 0.269535
0.246708 0.443397 0.234836
0.355840 0.449561 0.234440
0.436103 0.457618 0.221805
0.507469 0.466651 0.206973
0.576532 0.478157 0.186069
0.637201 0.487984 0.173983
0.692012 0.496956 0.162173
0.740841 0.503807 0.145235
0.783749 0.509087 0.123568
0.821683 0.512871 0.096834
0.855772 0.515862 0.049897
0.887846 0.518669 0.000000
0.917113 0.521324 0.000000
0.944060 0.523705 0.000000
0.969116 0.526024 0.000000
0.992615 0.525139 0.000000
1.000000 0.522820 0.000000
1.000000 0.520714 0.000000
1.000000 0.518944 0.000000
1.000000 0.517601 0.000000
0.000000 0.387030 0.342565
0.000000 0.388098 0.342779
0.000000 0.389166 0.342962
0.000000 0.391363 0.343206
0.000000 0.394659 0.343481
0.000000 0.399207 0.343786
0.000000 0.404822 0.343847
0.000000 0.411963 0.344152
0.000000 0.424872 0.344274
0.000000 0.438392 0.340124
0.000000 0.451850 0.328923
0.000000 0.464637 0.305913
0.181216 0.475471 0.266331
0.314885 0.482033 0.248203
0.413733 0.488991 0.242100
0.493690 0.497139 0.228122
0.565454 0.505577 0.210117
0.630365 0.513146 0.188907
0.686580 0.520104 0.179599
0.736110 0.525444 0.167941
0.779843 0.529137 0.151339
0.818357 0.531731 0.130648
0.852323 0.533318 0.104982
0.882994 0.534417 0.068055
0.913054 0.535943 0.000000
0.940673 0.537530 0.000000
0.966339 0.539147 0.000000
0.990295 0.540734 0.000000
1.000000 0.538903 0.000000
1.000000 0.536278 0.000000
1.000000 0.533959 0.000000
1.000000 0.532097 0.000000
0.000000 0.417639 0.368658
0.000000 0.418647 0.368933
0.000000 0.419898 0.369207
0.000000 0.422126 0.369482
0.000000 0.425422 0.369726
0.000000 0.429725 0.369726
0.000000 0.435279 0.369818
0.000000 0.441871 0.369848
0.000000 0.452613 0.370153
0.000000 0.466285 0.367498
0.000000 0.480232 0.358740
0.000000 0.493751 0.340734
0.095674 0.505882 0.308415
0.240970 0.515496 0.259800
0.379461 0.520714 0.261906
0.472145 0.527703 0.249882
0.550927 0.535058 0.234531
0.619928 0.541161 0.214786
0.680873 0.545708 0.193210
0.731594 0.549279 0.187716
0.776364 0.551659 0.176150
0.815915 0.552911 0.160739
0.850797 0.553429 0.141268
0.881621 0.553216 0.117037
0.907866 0.551659 0.083925
0.936309 0.552239 0.000000
0.962676 0.553033 0.000000
0.987243 0.553887 0.000000
1.000000 0.554772 0.000000
1.000000 0.552056 0.000000
1.000000 0.549279 0.000000
1.000000 0.546990 0.000000
0.000000 0.452857 0.398749
0.000000 0.453895 0.399054
0.000000 0.455024 0.399298
0.000000 0.457130 0.399451
0.000000 0.460334 0.399481
0.000000 0.464515 0.399420
0.000000 0.469612 0.399268
0.000000 0.476081 0.399084
0.000000 0.484016 0.398749
0.000000 0.497627 0.397070
0.000000 0.511711 0.390448
0.000000 0.525505 0.375799
0.000000 0.538323 0.349340
0.167056 0.548913 0.306126
0.323857 0.554681 0.276188
0.442084 0.559289 0.274022
0.530083 0.565270 0.258946
0.606867 0.571740 0.242222
0.671473 0.574273 0.221073
0.726497 0.575128 0.201816
0.772244 0.575769 0.198245
0.812711 0.575647 0.187320
0.848417 0.574823 0.172213
0.879850 0.573205 0.153750
0.907591 0.571221 0.130831
0.932494 0.569116 0.102388
0.959442 0.568841 0.030152
0.984466 0.568750 0.000000
1.000000 0.568780 0.000000
1.000000 0.568597 0.000000
1.000000 0.565301 0.000000
1.000000 0.562524 0.000000
0.000000 0.487800 0.428626
0.000000 0.488808 0.428931
0.000000 0.489998 0.429206
0.000000 0.492134 0.429267
0.000000 0.495186 0.429206
0.000000 0.499397 0.429175
0.000000 0.504509 0.428901
0.000000 0.510735 0.428656
0.000000 0.518395 0.428168
0.000000 0.530022 0.427314
0.000000 0.544213 0.422522
0.000000 0.558404 0.410620
0.000000 0.571527 0.388891
0.000000 0.583032 0.352697
0.241245 0.591485 0.301183
0.399847 0.594751 0.295445
0.505272 0.599420 0.287114
0.590417 0.605005 0.271092
0.664515 0.609888 0.253056
0.722683 0.607660 0.231937
0.771389 0.604913 0.217716
0.812436 0.602686 0.213901
0.848753 0.600214 0.203006
0.880705 0.597162 0.188540
0.908995 0.593866 0.170382
0.934112 0.590356 0.149203
0.956573 0.586725 0.123659
0.982086 0.585687 0.081209
1.000000 0.584741 0.000000
1.000000 0.583978 0.000000
1.000000 0.582361 0.000000
1.000000 0.579095 0.000000
0.000000 0.526421 0.461555
0.000000 0.527428 0.461860
0.000000 0.528496 0.462013
0.000000 0.530358 0.461921
0.000000 0.533288 0.461738
0.000000 0.537102 0.461372
0.000000 0.541955 0.460792
0.000000 0.547967 0.460151
0.000000 0.555108 0.459297
0.000000 0.563561 0.458350
0.000000 0.577539 0.454719
0.000000 0.591516 0.445014
0.000000 0.604822 0.426947
0.000000 0.616907 0.396674
0.152224 0.626429 0.352117
0.333471 0.631617 0.314336
0.471382 0.634150 0.316899
0.567468 0.638636 0.302312
0.649561 0.643336 0.285527
0.717281 0.643793 0.266331
0.769131 0.637659 0.246281
0.812284 0.632227 0.236606
0.849058 0.627680 0.232120
0.881559 0.623224 0.221469
0.910307 0.618433 0.207279
0.935851 0.613581 0.189975
0.958679 0.608698 0.169406
0.979095 0.603815 0.145968
1.000000 0.601770 0.111696
1.000000 0.600061 0.052461
1.000000 0.598383 0.000000
1.000000 0.595666 0.000000
0.000000 0.566033 0.495399
0.000000 0.566796 0.495552
0.000000 0.567926 0.495583
0.000000 0.569635 0.495369
0.000000 0.572534 0.495094
0.000000 0.576440 0.494820
0.000000 0.581567 0.494484
0.000000 0.587915 0.493935
0.000000 0.595392 0.493416
0.000000 0.604089 0.492622
0.000000 0.615808 0.490394
0.000000 0.630396 0.482918
0.000000 0.644343 0.468208
0.000000 0.657130 0.442939
0.000000 0.667811 0.404486
0.253727 0.674891 0.356725
0.426734 0.676509 0.345281
0.543664 0.678676 0.342687
0.633753 0.682033 0.326665
0.712215 0.685664 0.309331
0.771267 0.679957 0.289769
0.816953 0.670253 0.270329
0.854612 0.662257 0.264591
0.887083 0.655390 0.259892
0.915923 0.648829 0.249210
0.941527 0.642359 0.234684
0.964385 0.635859 0.217716
0.984863 0.629511 0.198520
1.000000 0.623316 0.176516
1.000000 0.620050 0.148592
1.000000 0.617243 0.111574
1.000000 0.614130 0.046632
0.000000 0.611780 0.534386
0.000000 0.612543 0.534325
0.000000 0.613397 0.534386
0.000000 0.614923 0.533898
0.000000 0.617395 0.533196
0.000000 0.620844 0.532494
0.000000 0.625330 0.531456
0.000000 0.630854 0.530266
0.000000 0.637537 0.528985
0.000000 0.645228 0.527184
0.000000 0.653773 0.525109
0.000000 0.667048 0.518822
0.000000 0.680293 0.505730
0.000000 0.692500 0.483986
0.000000 0.702998 0.450782
0.149783 0.710628 0.408026
