其他预设/【212】创意蓝橙调色预设24款/1.3D LUT预设（视频调色-PR-AE-PS-FCPX-达芬奇用）/14.蓝橙色调__.cube
# Created by Adobe Lightroom plugin Export LUT (1.17.0)
# www.johnrellis.com/lightroom/exportlut.htm
# Preset: 14.蓝橙色调[素锦印象]
# Color profile: /Library/Application Support/Adobe/Color/Profiles/Recommended/AdobeRGB1998.icc
LUT_3D_SIZE 32
0.108125 0.108125 0.108125
0.108125 0.108125 0.108125
0.108125 0.108125 0.108125
0.133028 0.108980 0.107301
0.187900 0.111269 0.104738
0.238193 0.114992 0.101259
0.284398 0.119326 0.096986
0.327459 0.124422 0.091798
0.369207 0.130526 0.085389
0.410315 0.137057 0.077363
0.451514 0.144778 0.066743
0.492378 0.152529 0.047852
0.532952 0.161837 0.008850
0.573236 0.171267 0.000000
0.612146 0.181827 0.000000
0.654353 0.195010 0.000000
0.692012 0.207462 0.000000
0.724880 0.218509 0.000000
0.754360 0.228641 0.000000
0.782345 0.238254 0.000000
0.808804 0.247196 0.000000
0.833707 0.255558 0.000000
0.856687 0.263401 0.000000
0.878019 0.270603 0.000000
0.897978 0.277531 0.000000
0.916960 0.284489 0.008179
0.935302 0.291630 0.064179
0.953124 0.299138 0.090730
0.970489 0.307286 0.115663
0.987366 0.316564 0.139925
1.000000 0.327245 0.165255
1.000000 0.339605 0.192935
0.108125 0.108125 0.108125
0.108125 0.108125 0.108125
0.108125 0.108125 0.108125
0.132021 0.110384 0.107240
0.186374 0.114900 0.104494
0.236484 0.118715 0.101045
0.282750 0.123445 0.096681
0.325628 0.128359 0.091524
0.367224 0.134463 0.085145
0.408362 0.140719 0.077119
0.449317 0.147982 0.066621
0.490028 0.156130 0.047578
0.530449 0.164858 0.009033
0.570703 0.173983 0.000000
0.609583 0.184024 0.000000
0.651301 0.196902 0.000000
0.688411 0.208865 0.000000
0.721004 0.219547 0.000000
0.750515 0.229526 0.000000
0.778592 0.238865 0.000000
0.805264 0.247776 0.000000
0.830442 0.255650 0.000000
0.853666 0.263554 0.000000
0.875273 0.270787 0.000000
0.895506 0.277592 0.000000
0.914733 0.284428 0.002228
0.933349 0.291478 0.061250
0.951354 0.299046 0.089082
0.968933 0.307256 0.113741
0.986023 0.316320 0.138033
1.000000 0.326787 0.163607
1.000000 0.339117 0.190768
0.108125 0.108125 0.108125
0.108125 0.108125 0.108125
0.108125 0.108125 0.108125
0.130495 0.112551 0.107088
0.184451 0.119173 0.104219
0.234562 0.124239 0.100618
0.280583 0.128573 0.096315
0.323491 0.133608 0.091127
0.365179 0.139528 0.084718
0.406409 0.145296 0.076722
0.447303 0.152163 0.066255
0.488136 0.160098 0.046815
0.528527 0.168673 0.008087
0.568719 0.177859 0.000000
0.607630 0.187503 0.000000
0.649317 0.199771 0.000000
0.686091 0.211429 0.000000
0.718593 0.221683 0.000000
0.748165 0.231296 0.000000
0.776303 0.240604 0.000000
0.803220 0.249058 0.000000
0.828550 0.257084 0.000000
0.852018 0.264836 0.000000
0.873777 0.271885 0.000000
0.894133 0.278660 0.000000
0.913512 0.285405 0.000000
0.932219 0.292363 0.059358
0.950378 0.299687 0.087587
0.968109 0.307713 0.112184
0.985260 0.316838 0.137331
1.000000 0.327245 0.162875
1.000000 0.339422 0.190158
0.108125 0.108125 0.108125
0.108125 0.108125 0.108125
0.108125 0.108125 0.108125
0.128573 0.115846 0.106874
0.181369 0.128176 0.103456
0.231479 0.134371 0.099702
0.277623 0.139437 0.095247
0.320836 0.144076 0.089998
0.362585 0.149172 0.083589
0.403754 0.155001 0.075471
0.444800 0.161471 0.064790
0.485481 0.168673 0.043183
0.525780 0.177249 0.004425
0.565911 0.185489 0.000000
0.605097 0.194736 0.000000
0.646571 0.206668 0.000000
0.683101 0.217533 0.000000
0.715389 0.227024 0.000000
0.744717 0.236057 0.000000
0.772732 0.244511 0.000000
0.799710 0.252720 0.000000
0.825193 0.260349 0.000000
0.849149 0.267704 0.000000
0.871489 0.274754 0.000000
0.892515 0.281376 0.000000
0.912474 0.288090 0.000000
0.931609 0.295048 0.058167
0.950011 0.302403 0.087343
0.967834 0.310155 0.112490
0.984985 0.319066 0.137057
1.000000 0.329168 0.162722
1.000000 0.340917 0.189792
0.108125 0.108125 0.108125
0.108125 0.108125 0.108125
0.108003 0.109102 0.108034
0.120333 0.117525 0.106966
0.173434 0.135927 0.102998
0.225895 0.148074 0.098390
0.272435 0.153780 0.093751
0.315953 0.158450 0.088411
0.358038 0.163119 0.081819
0.399237 0.168795 0.073457
0.440345 0.174594 0.062470
0.481117 0.181491 0.037415
0.521569 0.189059 0.000000
0.561852 0.197055 0.000000
0.601404 0.205295 0.000000
0.643305 0.216648 0.000000
0.680018 0.226780 0.000000
0.712551 0.235508 0.000000
0.742306 0.243809 0.000000
0.770504 0.251804 0.000000
0.797421 0.259220 0.000000
0.823056 0.266453 0.000000
0.847135 0.273350 0.000000
0.869749 0.279789 0.000000
0.891051 0.286198 0.000000
0.911223 0.292515 0.000000
0.930480 0.299107 0.057099
0.949035 0.306035 0.086183
0.966918 0.313664 0.111604
0.984131 0.322210 0.136568
1.000000 0.331945 0.162081
1.000000 0.343450 0.188907
0.104036 0.122896 0.115694
0.103548 0.125185 0.115908
0.103365 0.128634 0.113741
0.118135 0.134127 0.105379
0.159731 0.142611 0.102846
0.215976 0.157321 0.097780
0.267338 0.168734 0.091859
0.311131 0.175570 0.085939
0.353491 0.179995 0.079103
0.395087 0.185245 0.070375
0.436347 0.191073 0.058595
0.477333 0.197055 0.028168
0.517906 0.203922 0.000000
0.558465 0.211154 0.000000
0.599115 0.219547 0.000000
0.640711 0.229770 0.000000
0.677485 0.239017 0.000000
0.710262 0.246891 0.000000
0.740352 0.254368 0.000000
0.768917 0.261448 0.000000
0.796262 0.268345 0.000000
0.822293 0.274907 0.000000
0.863584 0.288273 0.000000
0.884703 0.294194 0.000000
0.904479 0.299626 0.000000
0.923156 0.305333 0.037201
0.941039 0.311284 0.076814
0.958251 0.317662 0.100923
0.974945 0.324651 0.124544
0.991089 0.332860 0.148440
1.000000 0.342290 0.173220
1.000000 0.353399 0.199557
0.095583 0.145998 0.129030
0.095125 0.148043 0.128847
0.095064 0.151034 0.126162
0.098085 0.157473 0.108522
0.151034 0.160708 0.103456
0.203311 0.168368 0.096956
0.259678 0.180941 0.090394
0.309972 0.191501 0.082765
0.352911 0.199802 0.074403
0.395483 0.205692 0.064271
0.437446 0.211185 0.044800
0.479011 0.217044 0.009461
0.519982 0.223026 0.000000
0.560723 0.229587 0.000000
0.602716 0.238193 0.000000
0.644404 0.247288 0.000000
0.681056 0.255283 0.000000
0.713710 0.262394 0.000000
0.744045 0.268864 0.000000
0.773312 0.275608 0.000000
0.801724 0.282017 0.000000
0.829129 0.288457 0.000000
0.854765 0.294774 0.000000
0.878477 0.300694 0.000000
0.900267 0.306554 0.000000
0.920134 0.311986 0.028595
0.938689 0.317632 0.073823
0.956268 0.323674 0.099733
0.973236 0.330236 0.123415
0.989471 0.337926 0.147280
1.000000 0.346746 0.172061
1.000000 0.357214 0.198215
0.084169 0.168429 0.143465
0.083894 0.170016 0.142672
0.084047 0.172580 0.139864
0.086122 0.177981 0.127901
0.137667 0.181552 0.118654
0.188998 0.185245 0.113680
0.242649 0.194003 0.104280
0.296971 0.204013 0.091585
0.346654 0.212467 0.074708
0.389502 0.220005 0.060548
0.431617 0.229648 0.031434
0.473579 0.235325 0.000000
0.514794 0.241062 0.000000
0.555688 0.247074 0.000000
0.598962 0.255772 0.000000
0.640070 0.263737 0.000000
0.676509 0.270695 0.000000
0.709224 0.276799 0.000000
0.739773 0.282444 0.000000
0.769223 0.288182 0.000000
0.797879 0.293889 0.000000
0.825437 0.299687 0.000000
0.851377 0.305089 0.000000
0.875303 0.310369 0.000000
0.897368 0.315496 0.000000
0.917540 0.320439 0.022889
0.936339 0.325383 0.072450
0.954223 0.330816 0.098329
0.971405 0.336919 0.121981
0.987884 0.344030 0.146334
1.000000 0.352392 0.171023
1.000000 0.362402 0.197574
0.066621 0.191989 0.159335
0.066316 0.193606 0.158328
0.066560 0.195682 0.155856
0.069032 0.200351 0.146090
0.119448 0.204166 0.134951
0.178317 0.206729 0.132326
0.228305 0.211185 0.125277
0.281041 0.219791 0.115602
0.333501 0.228946 0.103212
0.382757 0.237583 0.086763
0.425971 0.244053 0.065156
0.468452 0.251591 0.007446
0.510155 0.260075 0.000000
0.551232 0.266453 0.000000
0.595605 0.274815 0.000000
0.636378 0.281895 0.000000
0.672816 0.287785 0.000000
0.705715 0.292882 0.000000
0.736355 0.297765 0.000000
0.766079 0.302556 0.000000
0.794949 0.307500 0.000000
0.822690 0.312352 0.000000
0.848783 0.317205 0.000000
0.872892 0.321752 0.000000
0.895079 0.326146 0.000000
0.915465 0.330388 0.018952
0.934508 0.334752 0.071626
0.952544 0.339574 0.097353
0.969879 0.345006 0.121920
0.986511 0.351507 0.146029
1.000000 0.359228 0.170474
1.000000 0.368719 0.197238
0.016693 0.216220 0.176150
0.016693 0.217594 0.174746
0.018128 0.219303 0.172183
0.024048 0.223178 0.164431
0.100740 0.226841 0.154482
0.164462 0.229404 0.148562
0.218051 0.232273 0.145174
0.267613 0.237522 0.137392
0.318700 0.245365 0.127413
0.369635 0.253941 0.115084
0.418524 0.262455 0.099672
0.461616 0.268650 0.077699
0.503990 0.275853 0.036042
0.546502 0.284489 0.000000
0.591913 0.294347 0.000000
0.633021 0.301152 0.000000
0.670039 0.306218 0.000000
0.703487 0.310674 0.000000
0.734463 0.314794 0.000000
0.764187 0.318730 0.000000
0.792874 0.322576 0.000000
0.820218 0.326635 0.000000
0.845914 0.330297 0.000000
0.869780 0.333928 0.000000
0.891936 0.337438 0.000000
0.912535 0.341070 0.014801
0.931945 0.344823 0.069551
0.950439 0.349065 0.096681
0.968170 0.354131 0.121736
0.985168 0.360143 0.145846
1.000000 0.367407 0.170962
1.000000 0.376471 0.198062
0.000000 0.239811 0.192447
0.000000 0.241154 0.191196
0.000000 0.242649 0.188632
0.000000 0.246006 0.181857
0.077760 0.249363 0.174014
0.144167 0.252354 0.164431
0.207370 0.254337 0.164645
0.256748 0.257786 0.158328
0.306065 0.263554 0.149844
0.356085 0.270970 0.139925
0.405982 0.279240 0.127382
0.454780 0.287694 0.111421
0.497627 0.293645 0.090455
0.542504 0.301884 0.060883
0.587488 0.311437 0.000000
0.628717 0.319921 0.000000
0.665888 0.324987 0.000000
0.699428 0.328679 0.000000
0.730709 0.331853 0.000000
0.760739 0.335149 0.000000
0.789670 0.338384 0.000000
0.817319 0.341741 0.000000
0.843351 0.344762 0.000000
0.867491 0.347753 0.000000
0.889830 0.350500 0.000000
0.910582 0.353399 0.015351
0.930083 0.356451 0.070436
0.948699 0.359991 0.096681
0.966552 0.364294 0.121920
0.983673 0.369635 0.146090
1.000000 0.376318 0.171450
1.000000 0.384619 0.198215
0.000000 0.263737 0.209171
0.000000 0.264897 0.207919
0.000000 0.266239 0.205844
0.000000 0.269078 0.199771
0.023590 0.272129 0.193057
0.123476 0.275029 0.184024
0.191257 0.277134 0.179019
0.247227 0.279484 0.178042
0.295262 0.283146 0.171633
0.344366 0.289403 0.162753
0.393622 0.296788 0.152255
0.443000 0.304784 0.139651
0.501732 0.319554 0.125978
0.551629 0.329137 0.105898
0.598657 0.337926 0.077668
0.640558 0.345129 0.005066
0.677882 0.351080 0.000000
0.711299 0.355261 0.000000
0.741909 0.357244 0.000000
0.771237 0.359228 0.000000
0.799161 0.361181 0.000000
0.825528 0.363073 0.000000
0.850187 0.364782 0.000000
0.873136 0.366430 0.000000
0.894591 0.368139 0.000000
0.914672 0.370001 0.037781
0.933593 0.372137 0.078584
0.951598 0.374884 0.103853
0.968902 0.378424 0.128084
0.985595 0.382818 0.151980
1.000000 0.388769 0.176913
1.000000 0.396368 0.203372
0.000000 0.290074 0.228153
0.000000 0.291051 0.226688
0.000000 0.292119 0.224552
0.000000 0.294438 0.219181
0.000000 0.296880 0.212863
0.097993 0.299474 0.203891
0.170443 0.301518 0.195010
0.236332 0.303044 0.197116
0.287388 0.306065 0.192386
0.335058 0.310155 0.185214
0.384649 0.317174 0.176333
0.434455 0.325017 0.166049
0.487098 0.335302 0.153872
0.542840 0.347753 0.139284
0.590448 0.355840 0.118410
0.633143 0.362158 0.093416
0.671107 0.367071 0.053529
0.705013 0.371130 0.000000
0.736446 0.374884 0.000000
0.766110 0.376654 0.000000
0.794400 0.377966 0.000000
0.821164 0.379126 0.000000
0.846128 0.380255 0.000000
0.869413 0.381262 0.000000
0.891112 0.382300 0.000000
0.911467 0.383398 0.035370
0.930694 0.384955 0.078004
0.949035 0.387060 0.103334
0.966613 0.389899 0.127443
0.983581 0.393805 0.151766
0.999756 0.399054 0.176913
1.000000 0.406043 0.203799
0.000000 0.312718 0.244450
0.000000 0.313481 0.242924
0.000000 0.314580 0.241215
0.000000 0.316533 0.236484
0.000000 0.318669 0.230747
0.058869 0.321172 0.222812
0.147402 0.323583 0.213321
0.218418 0.325078 0.209873
0.276677 0.327062 0.211734
0.325078 0.330510 0.205570
0.372778 0.335454 0.198001
0.422156 0.342535 0.188632
0.475441 0.353246 0.179171
0.529198 0.364324 0.167300
0.581964 0.374853 0.151705
0.625452 0.380560 0.131899
0.663752 0.384436 0.108492
0.698207 0.387335 0.078157
0.730220 0.390356 0.000000
0.760708 0.393378 0.000000
0.789731 0.395331 0.000000
0.816922 0.396063 0.000000
0.842374 0.396582 0.000000
0.866087 0.397040 0.000000
0.888182 0.397375 0.000000
0.908812 0.397986 0.035309
0.928344 0.398871 0.077577
0.946899 0.400305 0.104341
0.964752 0.402564 0.128481
0.981994 0.405768 0.152560
0.998383 0.410498 0.177981
1.000000 0.416846 0.204959
0.000000 0.335454 0.260624
0.000000 0.336156 0.259403
0.000000 0.336919 0.257664
0.000000 0.338628 0.253544
0.000000 0.340703 0.248386
0.000000 0.342962 0.241001
0.120516 0.345373 0.231693
0.195529 0.347387 0.224155
0.263005 0.348608 0.226780
0.315190 0.351354 0.224949
0.362554 0.355077 0.218326
0.411872 0.362127 0.211124
0.464302 0.372015 0.202914
0.516777 0.381872 0.192569
0.568811 0.391485 0.179782
0.617121 0.399451 0.164309
0.656733 0.403021 0.145663
0.691646 0.405127 0.123384
0.724117 0.406989 0.096529
0.755184 0.409277 0.053986
0.784787 0.411658 0.000000
0.812741 0.413275 0.000000
0.838499 0.413336 0.000000
0.862638 0.413245 0.000000
0.885100 0.413153 0.000000
0.906249 0.413214 0.037995
0.926268 0.413611 0.079408
0.945403 0.414710 0.105776
0.963775 0.416449 0.130861
0.981384 0.419409 0.155612
0.998169 0.423682 0.181460
1.000000 0.429755 0.209293
0.000000 0.357763 0.277012
0.000000 0.358648 0.275975
0.000000 0.359472 0.274357
0.000000 0.361059 0.271000
0.000000 0.362982 0.266148
0.000000 0.365332 0.259220
0.084016 0.367895 0.250980
0.171969 0.370275 0.242191
0.244541 0.371710 0.239567
0.305058 0.373388 0.244144
0.353887 0.376654 0.237949
0.403204 0.383001 0.232547
0.453956 0.391394 0.225284
0.504936 0.399908 0.215915
0.555474 0.408331 0.204715
0.603784 0.415778 0.191257
0.647700 0.421271 0.176150
0.684382 0.423560 0.158907
0.717891 0.424872 0.137881
0.749844 0.426612 0.113924
0.780362 0.428321 0.081147
0.809171 0.430152 0.000000
0.835966 0.431342 0.000000
0.860502 0.430793 0.000000
0.883360 0.430152 0.000000
0.904845 0.429725 0.043305
0.925170 0.429603 0.082704
0.944518 0.430121 0.109163
0.963012 0.431403 0.134310
0.980713 0.433600 0.158694
0.997436 0.437140 0.184421
1.000000 0.442390 0.212009
0.000000 0.379889 0.293034
0.000000 0.380499 0.291966
0.000000 0.381323 0.290593
0.000000 0.382727 0.287572
0.000000 0.384558 0.283421
0.000000 0.386938 0.277379
0.000000 0.389441 0.269139
0.145571 0.391821 0.260410
0.221012 0.393744 0.253635
0.289708 0.394842 0.256443
0.345159 0.399237 0.257877
0.394812 0.404700 0.252628
0.443427 0.410498 0.246159
0.493416 0.418250 0.237858
0.543236 0.425879 0.227695
0.591363 0.432898 0.215824
0.635615 0.438025 0.202670
0.675959 0.441749 0.188327
0.711086 0.443336 0.171908
0.743587 0.444343 0.152041
0.774594 0.445441 0.129091
0.803952 0.446540 0.099977
0.831418 0.447456 0.051789
0.857053 0.447913 0.000000
0.880369 0.446876 0.000000
0.902220 0.446052 0.049683
0.922972 0.445472 0.085145
0.942687 0.445472 0.111482
0.961547 0.446174 0.136355
0.979492 0.447883 0.161135
0.996490 0.450935 0.187411
1.000000 0.455787 0.215457
0.000000 0.402319 0.309483
0.000000 0.402869 0.308598
0.000000 0.408240 0.310582
0.000000 0.409400 0.307927
0.000000 0.411109 0.304051
0.000000 0.413153 0.298405
0.000000 0.415564 0.290959
0.114534 0.417731 0.282078
0.199893 0.419684 0.274052
0.273747 0.423651 0.272679
0.338781 0.427619 0.278721
0.391089 0.432441 0.276066
0.440223 0.437263 0.270054
0.489326 0.443153 0.262394
0.538994 0.450172 0.252995
0.587304 0.456489 0.241794
0.631708 0.460945 0.229984
0.672084 0.463813 0.217166
0.709102 0.465675 0.202945
0.742489 0.466438 0.187320
0.773434 0.466499 0.168307
0.802762 0.466651 0.146761
0.830320 0.466621 0.120943
0.855955 0.466346 0.085084
0.879637 0.465522 0.000000
0.901213 0.463813 0.059846
0.921630 0.462348 0.089265
0.941192 0.461555 0.114473
0.960021 0.461585 0.139437
0.978149 0.462654 0.163943
0.995331 0.465156 0.190188
1.000000 0.469398 0.218631
0.000000 0.426123 0.327001
0.000000 0.427222 0.326635
0.000000 0.428534 0.325719
0.000000 0.430213 0.324132
0.000000 0.432258 0.320684
0.000000 0.434546 0.315740
0.000000 0.436927 0.308812
0.063081 0.439796 0.300969
0.174777 0.444404 0.293858
0.251225 0.448280 0.288457
0.322881 0.451118 0.291752
0.380835 0.454627 0.294804
0.430793 0.458778 0.288792
0.478828 0.462867 0.281865
0.527581 0.468696 0.273075
0.575982 0.474678 0.262974
0.620783 0.478950 0.252323
0.661799 0.481575 0.240452
0.699580 0.483253 0.227970
0.734676 0.484382 0.214328
0.766720 0.484749 0.199954
0.796902 0.484504 0.181491
0.825193 0.484199 0.161105
0.851469 0.483497 0.137087
0.875853 0.482399 0.105562
0.898680 0.480934 0.063630
0.919524 0.479133 0.092531
0.939391 0.477913 0.117464
0.958526 0.477455 0.142733
0.976837 0.478065 0.167422
0.994202 0.479927 0.193606
1.000000 0.483528 0.222171
0.000000 0.449073 0.343999
0.000000 0.450141 0.343420
0.000000 0.451270 0.342901
0.000000 0.452857 0.341253
0.000000 0.454902 0.338231
0.000000 0.457649 0.333989
0.000000 0.461585 0.328649
0.000000 0.465614 0.322026
0.142885 0.469520 0.314427
0.227787 0.472999 0.307195
0.301671 0.475837 0.304662
0.368200 0.478218 0.309697
0.421393 0.481514 0.307805
0.470405 0.485298 0.300877
0.517723 0.488899 0.293126
0.566369 0.494636 0.283726
0.611749 0.498604 0.273777
0.653376 0.500999 0.262791
0.691798 0.502281 0.251377
0.727535 0.503136 0.239475
0.760555 0.503349 0.226444
0.791165 0.503227 0.212406
0.820157 0.502586 0.195285
0.847013 0.501518 0.175753
0.871946 0.500023 0.153017
0.895293 0.498207 0.124239
0.917235 0.496162 0.096254
0.937346 0.494453 0.121248
0.956695 0.493538 0.145388
0.975219 0.493568 0.170504
0.992767 0.494881 0.197086
1.000000 0.497963 0.225834
0.000000 0.474006 0.362402
0.000000 0.475227 0.362280
0.000000 0.476631 0.362097
0.000000 0.478767 0.360784
0.000000 0.481605 0.358556
0.000000 0.484688 0.354864
0.000000 0.488045 0.349676
0.000000 0.491554 0.342840
0.097810 0.494911 0.335027
0.200565 0.498116 0.326940
0.277928 0.500877 0.320348
0.350744 0.502739 0.322423
0.411170 0.505028 0.326299
0.461799 0.508446 0.319860
0.510307 0.511894 0.312535
0.557916 0.515984 0.304356
0.604547 0.520165 0.295140
0.647547 0.522789 0.285496
0.687251 0.524254 0.275395
0.724208 0.525200 0.264530
0.758450 0.525475 0.253391
0.789822 0.525078 0.241398
0.818692 0.524224 0.228580
0.846250 0.523003 0.212497
0.871763 0.521202 0.194064
0.895506 0.519036 0.172457
0.917967 0.516594 0.145998
0.939025 0.514214 0.130312
0.958404 0.512718 0.154879
0.976806 0.512261 0.179568
0.994202 0.513146 0.206210
1.000000 0.515648 0.235233
0.000000 0.505241 0.385534
0.000000 0.506126 0.385321
0.000000 0.507164 0.384894
0.000000 0.508782 0.383276
0.000000 0.510948 0.380774
0.000000 0.513603 0.377020
0.000000 0.516625 0.371679
0.000000 0.519860 0.365240
0.000000 0.523217 0.357519
0.168307 0.526574 0.349035
0.254276 0.529625 0.340978
0.330144 0.532067 0.337194
0.399634 0.533684 0.341711
0.455512 0.536217 0.341466
0.505638 0.539239 0.334386
0.553948 0.542229 0.326329
0.600458 0.545342 0.317845
0.644038 0.547265 0.308507
0.684077 0.548028 0.299229
0.721370 0.548150 0.289158
0.755734 0.547631 0.278508
0.787106 0.546380 0.267430
0.815518 0.544488 0.255589
0.841581 0.542138 0.242771
0.867369 0.540063 0.227054
0.891569 0.537621 0.208896
0.914488 0.534905 0.188083
0.936339 0.532036 0.162173
0.956634 0.529656 0.158785
0.975250 0.528710 0.183902
0.992798 0.528954 0.210513
1.000000 0.531060 0.240085
0.000000 0.534234 0.407111
0.000000 0.535119 0.406806
0.000000 0.536095 0.406409
0.000000 0.537591 0.404913
0.000000 0.539666 0.402289
0.000000 0.541985 0.398383
0.000000 0.544488 0.393133
0.000000 0.547356 0.386664
0.000000 0.550469 0.378973
0.121645 0.553613 0.370428
0.225559 0.556512 0.361334
0.305608 0.558953 0.354101
0.380987 0.560174 0.355322
0.444678 0.561669 0.359197
0.497322 0.564080 0.354559
0.546838 0.566766 0.347112
0.594385 0.569574 0.338994
0.639063 0.571313 0.330510
0.679988 0.571679 0.321843
0.718166 0.571466 0.312352
0.753201 0.570611 0.302861
0.785245 0.568994 0.292790
0.814328 0.566705 0.281895
0.840421 0.563745 0.270665
0.861906 0.558373 0.255955
0.886534 0.555871 0.241123
0.909911 0.552972 0.223362
0.932158 0.549950 0.202609
0.953521 0.546715 0.177798
0.972961 0.544793 0.186954
0.990814 0.544640 0.214145
1.000000 0.546349 0.243961
0.000000 0.567773 0.431525
0.000000 0.568750 0.431647
0.000000 0.569635 0.431250
0.000000 0.570855 0.429664
0.000000 0.572412 0.426734
0.000000 0.574273 0.422827
0.000000 0.576349 0.417334
0.000000 0.578576 0.410712
0.000000 0.580865 0.402564
0.000000 0.583215 0.393652
0.191440 0.585321 0.383764
0.280430 0.587121 0.374731
0.358434 0.588159 0.369848
0.430182 0.588403 0.374212
0.488136 0.589319 0.375372
0.538415 0.590967 0.367926
0.586511 0.592859 0.359747
0.632837 0.594873 0.351324
0.674525 0.594690 0.342840
0.713436 0.594141 0.334386
0.749355 0.592920 0.325536
0.782132 0.590997 0.316136
0.811612 0.588190 0.306035
0.837919 0.584527 0.295354
0.861387 0.580194 0.283818
0.882811 0.575494 0.271305
0.906310 0.572534 0.256748
0.928740 0.569146 0.239139
0.950286 0.565606 0.218814
0.971069 0.561822 0.193973
0.989227 0.561089 0.218845
1.000000 0.562219 0.248905
0.000000 0.596979 0.452125
0.000000 0.597925 0.452399
0.000000 0.598810 0.452338
0.000000 0.599939 0.451270
0.000000 0.601343 0.448249
0.000000 0.602930 0.444343
0.000000 0.604791 0.439002
0.000000 0.606836 0.432471
0.000000 0.609003 0.424628
0.000000 0.611292 0.415747
0.145327 0.613458 0.406043
0.252049 0.615259 0.396338
0.335485 0.616419 0.389319
0.413062 0.616632 0.390631
0.478065 0.616876 0.394293
0.531792 0.618036 0.391272
0.581140 0.619623 0.383734
0.628534 0.621576 0.375708
0.673365 0.622736 0.367315
0.712978 0.621424 0.359228
0.749447 0.619440 0.350927
0.782528 0.616846 0.342046
0.812375 0.613306 0.332769
0.838926 0.609033 0.322850
0.862730 0.604120 0.312383
0.884154 0.598749 0.300877
0.903655 0.593133 0.288487
0.926268 0.589837 0.274571
0.948058 0.586206 0.257542
0.969055 0.582300 0.237461
0.988769 0.579004 0.226230
1.000000 0.579706 0.257084
0.000000 0.627527 0.473487
0.000000 0.628290 0.473579
0.000000 0.628931 0.473365
0.000000 0.629786 0.472663
0.000000 0.630854 0.470375
0.000000 0.632105 0.466072
0.000000 0.633570 0.460700
0.000000 0.635279 0.454139
0.000000 0.637263 0.446296
0.000000 0.639277 0.437537
0.060060 0.641199 0.427985
0.217563 0.643000 0.418219
0.310277 0.644160 0.410254
0.391852 0.644434 0.407385
0.464302 0.644099 0.411933
0.524102 0.644373 0.415076
0.574395 0.645747 0.407874
0.622705 0.647333 0.400061
0.669551 0.649348 0.391821
0.711788 0.648951 0.383734
0.748928 0.646265 0.375738
0.782498 0.642878 0.367651
0.812680 0.638666 0.358831
0.839567 0.633692 0.349767
0.863615 0.628229 0.339849
0.885313 0.622309 0.329076
0.905028 0.616144 0.317632
0.923033 0.609857 0.305119
0.944457 0.606134 0.291844
0.965698 0.602197 0.274907
0.986145 0.598016 0.255467
1.000000 0.596307 0.262852
0.000000 0.656641 0.493355
0.000000 0.657221 0.493324
0.000000 0.657801 0.493080
0.000000 0.658656 0.492439
0.000000 0.659907 0.491127
0.000000 0.661524 0.488045
0.000000 0.663661 0.483101
0.000000 0.666041 0.477302
0.000000 0.668788 0.470436
0.000000 0.671656 0.462654
0.000000 0.674434 0.453864
0.177707 0.676997 0.444892
0.287114 0.678767 0.437232
0.375952 0.679622 0.433692
0.455665 0.679316 0.437629
0.520958 0.679255 0.441779
0.575647 0.679957 0.440955
0.624567 0.681361 0.433478
0.672023 0.683070 0.425727
0.718166 0.684993 0.417304
0.756344 0.681849 0.409766
0.789944 0.677089 0.402045
0.819883 0.671595 0.393591
0.846494 0.665492 0.384863
0.870329 0.658991 0.375708
0.891844 0.652186 0.365454
0.911406 0.645228 0.354559
0.929290 0.638117 0.342687
0.945708 0.630976 0.330266
0.965606 0.626581 0.317449
0.985901 0.622248 0.301457
1.000000 0.617273 0.282597
0.000000 0.692500 0.518059
0.000000 0.692958 0.517937
0.000000 0.693324 0.517571
0.000000 0.693904 0.516655
0.000000 0.694911 0.515221
0.000000 0.696345 0.513451
0.000000 0.697902 0.508598
0.000000 0.699733 0.502373
0.000000 0.701717 0.495308
0.000000 0.703792 0.487190
0.000000 0.705715 0.478157
0.111604 0.707393 0.469062
0.255192 0.708522 0.460792
0.353155 0.708858 0.455726
0.439521 0.708003 0.458564
0.510613 0.707393 0.463508
