其他预设/【212】创意蓝橙调色预设24款/1.3D LUT预设（视频调色-PR-AE-PS-FCPX-达芬奇用）/14.蓝橙色调__.cube
# Created by Adobe Lightroom plugin Export LUT (1.17.0)
# www.johnrellis.com/lightroom/exportlut.htm
# Preset: 14.蓝橙色调[素锦印象]
# Color profile: /Library/Application Support/Adobe/Color/Profiles/Recommended/AdobeRGB1998.icc
LUT_3D_SIZE 5
DOMAIN_MIN 0.000000 0.000000 0.000000
DOMAIN_MAX 0.903226 0.903226 0.903226
0.108125 0.108125 0.108125
0.327459 0.124422 0.091798
0.612146 0.181827 0.000000
0.833707 0.255558 0.000000
0.970489 0.307286 0.115663
0.084169 0.168429 0.143465
0.296971 0.204013 0.091585
0.598962 0.255772 0.000000
0.825437 0.299687 0.000000
0.971405 0.336919 0.121981
0.000000 0.335454 0.260624
0.195529 0.347387 0.224155
0.568811 0.391485 0.179782
0.812741 0.413275 0.000000
0.963775 0.416449 0.130861
0.000000 0.505241 0.385534
0.000000 0.519860 0.365240
0.505638 0.539239 0.334386
0.787106 0.546380 0.267430
0.956634 0.529656 0.158785
0.000000 0.722835 0.538231
0.000000 0.730343 0.525109
0.413214 0.730922 0.472908
0.791043 0.734798 0.458930
0.950561 0.680903 0.395789
0.000000 0.187350 0.245060
0.281071 0.185153 0.226383
0.583764 0.246708 0.150423
0.810452 0.318364 0.000000
0.962707 0.337102 0.110842
0.000000 0.252567 0.275731
0.258488 0.258488 0.258488
0.571862 0.294224 0.195285
0.805936 0.344091 0.044770
0.961944 0.360967 0.114687
0.000000 0.368750 0.333806
0.133791 0.384833 0.320256
0.539635 0.409949 0.289738
0.792599 0.429847 0.202548
0.959625 0.434791 0.130465
0.000000 0.529992 0.440009
0.000000 0.544335 0.428504
0.493477 0.558709 0.400549
0.775479 0.562799 0.345006
0.951415 0.545678 0.245121
0.000000 0.731289 0.573999
0.000000 0.738796 0.563409
0.375341 0.746761 0.514153
0.783291 0.747951 0.510582
0.945739 0.696895 0.451087
0.000000 0.341070 0.464729
0.000000 0.323980 0.458717
0.530327 0.354711 0.429694
0.786038 0.382574 0.349310
0.954162 0.413214 0.265934
0.000000 0.378149 0.478859
0.000000 0.367926 0.471901
0.518669 0.391150 0.443397
0.778439 0.412360 0.369757
0.954009 0.428840 0.275639
0.000000 0.471443 0.520043
0.000000 0.470802 0.513481
0.487251 0.487251 0.487251
0.763241 0.496529 0.427100
0.949493 0.488808 0.324804
0.000000 0.592279 0.578515
0.000000 0.597070 0.573022
0.368597 0.615625 0.540520
0.742977 0.617426 0.516808
0.935515 0.597925 0.433387
0.000000 0.759487 0.681941
0.000000 0.765988 0.673610
0.000000 0.774533 0.623163
0.733852 0.765774 0.620569
0.925841 0.736019 0.573449
0.000000 0.489509 0.673793
0.000000 0.484291 0.671717
0.325048 0.466011 0.659510
0.730922 0.534936 0.615930
0.917052 0.581842 0.585534
0.000000 0.513787 0.678706
0.000000 0.505852 0.675654
0.317540 0.491524 0.663020
0.724086 0.551690 0.622004
0.914763 0.590265 0.588891
0.000000 0.570611 0.694881
0.000000 0.566979 0.691768
0.270787 0.562737 0.679805
0.710018 0.605158 0.646174
0.914366 0.621546 0.602045
0.000000 0.655879 0.727138
0.000000 0.656703 0.723110
0.086275 0.662043 0.713039
0.688624 0.688563 0.688594
0.913329 0.678981 0.625544
0.000000 0.774411 0.794919
0.000000 0.781979 0.792752
0.000000 0.803128 0.783627
0.565728 0.808408 0.730220
0.897551 0.793027 0.715938
0.000000 0.607904 0.851102
0.000000 0.615534 0.849516
0.000000 0.618433 0.843473
0.691585 0.697261 0.825589
0.880095 0.741848 0.796139
0.000000 0.619348 0.853147
0.000000 0.627344 0.851591
0.000000 0.629633 0.845731
0.685512 0.703670 0.828153
0.879301 0.748196 0.799527
0.000000 0.649165 0.860868
0.000000 0.653956 0.859617
0.000000 0.660670 0.854246
0.639338 0.713771 0.838132
0.877226 0.768124 0.810361
0.000000 0.706935 0.873442
0.000000 0.711421 0.872496
0.000000 0.719509 0.868956
0.507897 0.743099 0.856016
0.873014 0.802762 0.829465
0.000000 0.778317 0.890227
0.000000 0.782864 0.889647
0.000000 0.800107 0.887297
0.301549 0.822324 0.879606
0.860136 0.860105 0.860105
