其他预设/【212】创意蓝橙调色预设24款/1.3D LUT预设（视频调色-PR-AE-PS-FCPX-达芬奇用）/14.蓝橙色调__.cube
# Created by Adobe Lightroom plugin Export LUT (1.17.0)
# www.johnrellis.com/lightroom/exportlut.htm
# Preset: 14.蓝橙色调[素锦印象]
# Color profile: /Library/Application Support/Adobe/Color/Profiles/Recommended/AdobeRGB1998.icc
LUT_3D_SIZE 8
DOMAIN_MIN 0.000000 0.000000 0.000000
DOMAIN_MAX 0.903226 0.903226 0.903226
0.108125 0.108125 0.108125
0.187900 0.111269 0.104738
0.369207 0.130526 0.085389
0.532952 0.161837 0.008850
0.692012 0.207462 0.000000
0.808804 0.247196 0.000000
0.897978 0.277531 0.000000
0.970489 0.307286 0.115663
0.108125 0.108125 0.108125
0.173434 0.135927 0.102998
0.358038 0.163119 0.081819
0.521569 0.189059 0.000000
0.680018 0.226780 0.000000
0.797421 0.259220 0.000000
0.891051 0.286198 0.000000
0.966918 0.313664 0.111604
0.066621 0.191989 0.159335
0.119448 0.204166 0.134951
0.333501 0.228946 0.103212
0.510155 0.260075 0.000000
0.672816 0.287785 0.000000
0.794949 0.307500 0.000000
0.895079 0.326146 0.000000
0.969879 0.345006 0.121920
0.000000 0.290074 0.228153
0.000000 0.296880 0.212863
0.287388 0.306065 0.192386
0.487098 0.335302 0.153872
0.671107 0.367071 0.053529
0.794400 0.377966 0.000000
0.891112 0.382300 0.000000
0.966613 0.389899 0.127443
0.000000 0.379889 0.293034
0.000000 0.384558 0.283421
0.221012 0.393744 0.253635
0.443427 0.410498 0.246159
0.635615 0.438025 0.202670
0.774594 0.445441 0.129091
0.880369 0.446876 0.000000
0.961547 0.446174 0.136355
0.000000 0.474006 0.362402
0.000000 0.481605 0.358556
0.097810 0.494911 0.335027
0.411170 0.505028 0.326299
0.604547 0.520165 0.295140
0.758450 0.525475 0.253391
0.871763 0.521202 0.194064
0.958404 0.512718 0.154879
0.000000 0.596979 0.452125
0.000000 0.601343 0.448249
0.000000 0.609003 0.424628
0.335485 0.616419 0.389319
0.581140 0.619623 0.383734
0.749447 0.619440 0.350927
0.862730 0.604120 0.312383
0.948058 0.586206 0.257542
0.000000 0.722835 0.538231
0.000000 0.725093 0.535485
0.000000 0.732326 0.518090
0.216373 0.739284 0.484901
0.557580 0.729915 0.485145
0.750912 0.735988 0.466072
0.874144 0.713313 0.436896
0.950561 0.680903 0.395789
0.094453 0.127352 0.146914
0.169284 0.114626 0.137697
0.348241 0.150423 0.096407
0.510613 0.205814 0.007446
0.671382 0.246342 0.000000
0.790158 0.272496 0.000000
0.886595 0.293492 0.000000
0.963867 0.315404 0.108034
0.079683 0.154360 0.165530
0.155917 0.155917 0.155917
0.338872 0.178500 0.123171
0.505486 0.219547 0.060182
0.665644 0.260533 0.000000
0.784756 0.283268 0.000000
0.881529 0.301549 0.000000
0.960174 0.321111 0.104280
0.000000 0.215091 0.198154
0.109865 0.230167 0.196231
0.320256 0.244511 0.174929
0.494667 0.267704 0.124025
0.657252 0.303014 0.000000
0.781186 0.323033 0.000000
0.882109 0.335485 0.000000
0.962097 0.349859 0.112154
0.000000 0.302953 0.255436
0.000000 0.310887 0.248966
0.283574 0.318761 0.233677
0.473365 0.340917 0.202457
0.646967 0.364660 0.141665
0.774563 0.380316 0.000000
0.877653 0.386725 0.000000
0.959045 0.392584 0.118044
0.000000 0.390875 0.315221
0.000000 0.394629 0.307897
0.210086 0.402838 0.281224
0.435218 0.414618 0.274052
0.620539 0.437507 0.235050
0.762020 0.446235 0.176425
0.872679 0.450385 0.051881
0.956725 0.448768 0.131136
0.000000 0.481025 0.379400
0.000000 0.485512 0.374456
0.069337 0.496651 0.352850
0.401465 0.506126 0.341375
0.596033 0.521508 0.316442
0.752163 0.528649 0.279454
0.866606 0.524743 0.225986
0.955047 0.514794 0.151156
0.000000 0.595178 0.461219
0.000000 0.597192 0.455970
0.000000 0.605524 0.434852
0.320684 0.615106 0.401556
0.573327 0.619623 0.398474
0.742153 0.619837 0.366430
0.855863 0.604578 0.328527
0.942473 0.587152 0.275151
0.000000 0.720455 0.545373
0.000000 0.723507 0.543267
0.000000 0.731319 0.527459
0.189792 0.739071 0.495064
0.557336 0.736599 0.502159
0.748409 0.739803 0.483314
0.870909 0.715969 0.450538
0.947326 0.683131 0.408515
0.000000 0.209689 0.278874
0.000000 0.196475 0.275608
0.316869 0.210544 0.255924
0.495308 0.229068 0.205814
0.661982 0.279545 0.170871
0.783902 0.319738 0.119844
0.885801 0.340551 0.000000
0.964813 0.347173 0.115816
0.000000 0.231846 0.286381
0.000000 0.223667 0.283116
0.308293 0.234318 0.264561
0.486702 0.248447 0.219852
0.653132 0.291569 0.184878
0.778500 0.326635 0.130312
0.882048 0.346838 0.000000
0.962737 0.352850 0.114321
0.000000 0.283757 0.310704
0.000000 0.282048 0.306706
0.291203 0.291203 0.291203
0.475166 0.304082 0.258854
0.646082 0.332494 0.220829
0.774685 0.356176 0.167239
0.879881 0.373236 0.000000
0.961303 0.376013 0.117739
0.000000 0.344945 0.337469
0.000000 0.349584 0.336095
0.227878 0.362280 0.320745
0.458442 0.375982 0.308873
0.634913 0.393469 0.269657
0.767575 0.406104 0.221103
0.876005 0.415442 0.143648
0.959838 0.415442 0.125673
0.000000 0.417456 0.377203
0.000000 0.423011 0.376104
0.150210 0.439002 0.365057
0.427405 0.447272 0.356970
0.611017 0.464454 0.328557
0.753475 0.469947 0.285283
0.866880 0.471901 0.227024
0.956512 0.466773 0.136263
0.000000 0.505425 0.433661
0.000000 0.510704 0.432441
0.000000 0.522820 0.419501
0.370886 0.531121 0.394751
0.583307 0.540337 0.385077
0.739071 0.545617 0.355261
0.857603 0.542901 0.312657
0.951629 0.532891 0.243626
0.000000 0.614923 0.508507
0.000000 0.617487 0.504875
0.000000 0.624414 0.487892
0.276066 0.631739 0.455909
0.559258 0.632837 0.454353
0.732418 0.635279 0.426673
0.850126 0.622827 0.395300
0.940307 0.607233 0.350164
0.000000 0.730434 0.582544
0.000000 0.731563 0.578882
0.000000 0.738796 0.565759
0.000000 0.748653 0.536706
0.534081 0.744869 0.536675
0.734676 0.747433 0.530205
0.863584 0.729641 0.501213
0.942412 0.699458 0.463081
0.000000 0.295964 0.402411
0.000000 0.290929 0.401373
0.177829 0.270909 0.393103
0.458747 0.307286 0.371771
0.637934 0.312657 0.317113
0.766323 0.350134 0.284184
0.872221 0.377173 0.241886
0.959899 0.382910 0.137301
0.000000 0.314397 0.409705
0.000000 0.307317 0.407874
0.179660 0.291630 0.398749
0.455726 0.322393 0.378027
0.633692 0.326665 0.325109
0.762478 0.359716 0.291752
0.869657 0.383825 0.248417
0.958953 0.387304 0.141878
0.000000 0.350500 0.423560
0.000000 0.347478 0.421271
0.166934 0.341802 0.412390
0.442176 0.363073 0.394385
0.623011 0.370794 0.351812
0.759426 0.396490 0.321508
0.872313 0.413672 0.277073
0.960571 0.409400 0.174380
0.000000 0.408576 0.450202
0.000000 0.407324 0.447333
0.099580 0.409552 0.440070
0.424842 0.424842 0.424842
0.606195 0.432715 0.391791
0.747646 0.444312 0.356512
0.863981 0.451637 0.308721
0.956420 0.446113 0.224430
0.000000 0.471626 0.477638
0.000000 0.473335 0.476143
0.000000 0.481331 0.471138
0.364630 0.497169 0.453925
0.588922 0.504875 0.440314
0.737972 0.508507 0.404242
0.857389 0.508446 0.358587
0.951232 0.498299 0.287327
0.000000 0.548211 0.519188
0.000000 0.554040 0.521233
0.000000 0.563287 0.515557
0.289677 0.575433 0.493446
0.566033 0.577722 0.484901
0.723964 0.580407 0.459236
0.846891 0.576806 0.421027
0.944579 0.564233 0.362585
0.000000 0.642206 0.577905
0.000000 0.645624 0.576684
0.000000 0.653742 0.568292
0.141054 0.662562 0.542382
0.529320 0.661128 0.529473
0.717464 0.664149 0.516594
0.838132 0.652430 0.487770
0.932586 0.637263 0.444862
0.000000 0.752041 0.647974
0.000000 0.754116 0.645380
0.000000 0.759274 0.633387
0.000000 0.764889 0.603235
0.453773 0.762783 0.579156
0.710506 0.759457 0.594812
0.850095 0.750088 0.569940
0.933104 0.724727 0.539055
0.000000 0.385443 0.526390
0.000000 0.382544 0.525505
0.000000 0.367681 0.520195
0.364294 0.371191 0.510735
0.596429 0.401648 0.484382
0.744289 0.401038 0.426886
0.855894 0.436011 0.402869
0.946471 0.452857 0.366125
0.000000 0.398566 0.530480
0.000000 0.393835 0.530266
0.000000 0.382177 0.526268
0.357458 0.379553 0.514611
0.592859 0.411078 0.487648
0.742153 0.411048 0.432532
0.854856 0.443244 0.407935
0.946075 0.457191 0.368444
0.000000 0.426978 0.541405
0.000000 0.425605 0.541405
0.000000 0.418402 0.536858
0.328649 0.407874 0.525231
0.581415 0.440467 0.497993
0.732174 0.440497 0.448219
0.849790 0.464851 0.421515
0.943999 0.469459 0.373327
0.000000 0.472969 0.560967
0.000000 0.471626 0.559319
0.000000 0.468971 0.554253
0.307744 0.468177 0.543420
0.567834 0.489998 0.520287
0.722835 0.491402 0.479103
0.846128 0.501335 0.444343
0.945281 0.489845 0.377325
0.000000 0.530938 0.585992
0.000000 0.530663 0.584558
0.000000 0.530236 0.578393
0.261723 0.534112 0.567407
0.548425 0.548425 0.548425
0.710140 0.549432 0.514061
0.839811 0.548241 0.472602
0.941131 0.534844 0.410376
0.000000 0.590234 0.609674
0.000000 0.590845 0.608392
0.000000 0.592920 0.602808
0.166720 0.601556 0.593713
0.480385 0.611597 0.567498
0.694301 0.616663 0.559838
0.829801 0.617029 0.527489
0.933898 0.602533 0.473365
0.000000 0.670649 0.656397
0.000000 0.672969 0.654597
0.000000 0.677974 0.650019
0.000000 0.689113 0.639612
0.395422 0.692012 0.603143
0.683284 0.689387 0.602380
0.818265 0.684535 0.578576
0.920195 0.672114 0.539757
0.000000 0.768399 0.718593
0.000000 0.770657 0.716945
0.000000 0.777310 0.709346
0.000000 0.785122 0.691005
0.225254 0.784787 0.647517
0.664607 0.773342 0.653468
0.827604 0.771817 0.639460
0.919249 0.751186 0.613306
0.000000 0.473793 0.651209
0.000000 0.474372 0.650568
0.000000 0.463050 0.646357
0.178042 0.449561 0.638819
0.530022 0.484932 0.621515
0.707332 0.508934 0.591394
0.832609 0.519677 0.554681
0.924559 0.558404 0.549218
0.000000 0.481880 0.648768
0.000000 0.478248 0.647944
0.000000 0.468391 0.644343
0.177218 0.455848 0.636988
0.524651 0.488014 0.620874
0.703700 0.513481 0.592248
0.830533 0.524010 0.556451
0.923613 0.560876 0.550134
0.000000 0.505730 0.658320
0.000000 0.502831 0.656855
0.000000 0.495216 0.652522
0.175479 0.486061 0.644831
0.513664 0.507347 0.629206
0.698512 0.535943 0.601984
0.827329 0.544549 0.568231
0.922698 0.573297 0.556909
0.000000 0.539818 0.669184
0.000000 0.537774 0.667536
0.000000 0.533745 0.663600
0.149935 0.531548 0.658930
0.482979 0.538262 0.646876
0.693629 0.574273 0.621546
0.824796 0.579126 0.588922
0.923339 0.593317 0.566583
0.000000 0.581994 0.681361
0.000000 0.581231 0.680476
0.000000 0.579553 0.677028
0.000000 0.579278 0.670649
0.435126 0.583459 0.658808
0.678309 0.610773 0.636622
0.817075 0.612329 0.603937
0.922759 0.610620 0.566583
0.000000 0.631861 0.698543
0.000000 0.632898 0.698573
0.000000 0.633326 0.695216
0.000000 0.635798 0.688869
0.379461 0.643275 0.678096
0.662104 0.662104 0.662104
0.810391 0.662989 0.632166
0.920958 0.652399 0.588373
0.000000 0.696651 0.733425
0.000000 0.699825 0.733181
0.000000 0.703639 0.730312
0.000000 0.709407 0.724758
0.271580 0.720363 0.713863
0.604211 0.726741 0.684657
0.796323 0.725154 0.674556
0.908568 0.717891 0.641810
0.000000 0.774472 0.781308
0.000000 0.776425 0.780301
0.000000 0.784115 0.776791
0.000000 0.796353 0.770993
0.000000 0.811887 0.758083
0.506645 0.802670 0.710872
0.793057 0.795621 0.716823
0.902586 0.784604 0.695766
0.000000 0.543420 0.753658
0.000000 0.547204 0.752773
0.000000 0.541192 0.750515
0.000000 0.534203 0.746120
0.400977 0.538048 0.736965
0.672663 0.605371 0.719753
0.800015 0.619379 0.692622
0.898009 0.649653 0.683009
0.000000 0.550378 0.754604
0.000000 0.553796 0.753750
0.000000 0.546746 0.751583
0.000000 0.539788 0.746670
0.397314 0.543084 0.737942
0.671382 0.608789 0.721218
0.799222 0.623346 0.694423
0.897704 0.652644 0.684718
0.000000 0.569085 0.758267
0.000000 0.570336 0.757565
0.000000 0.564538 0.755367
0.000000 0.559045 0.750698
0.389441 0.562799 0.742153
0.666011 0.620020 0.726070
0.796628 0.636530 0.700649
0.896849 0.662654 0.690272
0.000000 0.595178 0.765377
0.000000 0.597162 0.764340
0.000000 0.592706 0.762264
0.000000 0.588769 0.757809
0.364965 0.592828 0.749599
0.652491 0.636744 0.734585
0.792508 0.657832 0.711055
0.896056 0.678492 0.698573
0.000000 0.628595 0.774807
0.000000 0.631128 0.774075
0.000000 0.630060 0.772061
0.000000 0.626825 0.768093
0.295781 0.628565 0.760586
0.614771 0.654047 0.747097
0.787106 0.685573 0.725032
0.895567 0.699763 0.709041
0.000000 0.669154 0.786862
0.000000 0.671412 0.786282
0.000000 0.674525 0.784329
0.000000 0.674037 0.780880
0.183536 0.676417 0.774685
0.559319 0.691676 0.762753
0.779080 0.721340 0.743191
0.895201 0.726925 0.721218
0.000000 0.714290 0.800870
0.000000 0.716396 0.800351
0.000000 0.723384 0.798550
0.000000 0.725673 0.795804
0.000000 0.732082 0.790707
0.505303 0.746975 0.781125
0.766140 0.766110 0.766110
0.892576 0.764431 0.738582
0.000000 0.773251 0.832578
0.000000 0.775174 0.832303
0.000000 0.782193 0.831327
0.000000 0.794705 0.829252
0.000000 0.804562 0.825010
0.365209 0.820371 0.814908
0.715114 0.823911 0.785977
0.882780 0.821195 0.778408
0.000000 0.607904 0.851102
0.000000 0.610834 0.850584
0.000000 0.614343 0.849088
0.000000 0.613916 0.846036
0.339788 0.629908 0.839811
0.641016 0.682765 0.828672
0.798428 0.729000 0.817105
0.880095 0.741848 0.796139
0.000000 0.611749 0.851652
0.000000 0.614557 0.851194
0.000000 0.617975 0.849699
0.000000 0.617487 0.846677
0.335668 0.633082 0.840543
0.637842 0.684047 0.829465
0.797696 0.731258 0.817807
0.879850 0.743771 0.797177
0.000000 0.622553 0.853880
0.000000 0.625177 0.853422
0.000000 0.629969 0.851926
0.000000 0.629236 0.848997
0.314672 0.643275 0.843015
0.624628 0.688228 0.832425
0.795132 0.738827 0.820340
0.879057 0.750271 0.800626
0.000000 0.636927 0.858183
0.000000 0.639490 0.857694
0.000000 0.648371 0.856138
0.000000 0.647608 0.853391
0.250278 0.658595 0.847715
0.596857 0.696132 0.837675
0.789517 0.749538 0.824949
0.877958 0.761044 0.806485
0.000000 0.663783 0.863981
0.000000 0.665217 0.863615
0.000000 0.669978 0.862394
0.000000 0.670985 0.860258
0.000000 0.677089 0.855100
0.548302 0.709957 0.845182
0.776730 0.760372 0.832090
0.876310 0.776364 0.814939
0.000000 0.697627 0.871366
0.000000 0.699001 0.871061
0.000000 0.703639 0.870024
0.000000 0.710201 0.868070
0.000000 0.707851 0.864652
0.439796 0.727291 0.855985
0.746975 0.772519 0.842466
0.873838 0.796750 0.826169
0.000000 0.736324 0.880217
0.000000 0.737667 0.879973
0.000000 0.742214 0.879149
0.000000 0.750576 0.877531
0.000000 0.755184 0.874723
0.289158 0.765194 0.868559
0.685328 0.794675 0.856413
0.869444 0.823575 0.840818
0.000000 0.778317 0.890227
0.000000 0.779660 0.890043
0.000000 0.784451 0.889403
0.000000 0.793545 0.888212
0.000000 0.805722 0.886076
0.000000 0.817288 0.881468
0.626520 0.840421 0.872282
0.860136 0.860105 0.860105
