其他预设/【212】创意蓝橙调色预设24款/1.3D LUT预设（视频调色-PR-AE-PS-FCPX-达芬奇用）/15.蓝橙色调__.cube
# Created by Adobe Lightroom plugin Export LUT (1.17.0)
# www.johnrellis.com/lightroom/exportlut.htm
# Preset: 15.蓝橙色调[素锦印象]
# Color profile: /Library/Application Support/Adobe/Color/Profiles/Recommended/AdobeRGB1998.icc
LUT_3D_SIZE 5
DOMAIN_MIN 0.000000 0.000000 0.000000
DOMAIN_MAX 0.903226 0.903226 0.903226
0.121706 0.121706 0.121706
0.332128 0.132479 0.122866
0.628717 0.177218 0.101076
0.836088 0.225223 0.079255
0.968231 0.258274 0.127413
0.106020 0.197421 0.162142
0.303258 0.218540 0.125978
0.614862 0.253605 0.097108
0.828336 0.273808 0.075196
0.969207 0.291936 0.131228
0.000000 0.334203 0.253727
0.220188 0.349645 0.201694
0.589807 0.397894 0.105959
0.817044 0.393774 0.066285
0.962280 0.380346 0.138033
0.000000 0.511864 0.372869
0.000000 0.531273 0.338537
0.535698 0.548608 0.241489
0.801389 0.534691 0.078737
0.955932 0.500572 0.164279
0.000000 0.725490 0.505486
0.000000 0.733059 0.486946
0.435615 0.736172 0.389960
0.817502 0.723598 0.288914
0.960632 0.643214 0.227512
0.022858 0.181735 0.255222
0.271580 0.189273 0.229038
0.590967 0.251194 0.122835
0.810666 0.288823 0.073487
0.960113 0.289342 0.123384
0.000000 0.247440 0.276158
0.251560 0.251560 0.251560
0.581537 0.290959 0.153262
0.807218 0.322179 0.070192
0.959503 0.316442 0.125917
0.000000 0.360235 0.325109
0.141238 0.382422 0.307164
0.556603 0.403784 0.231724
0.798734 0.418128 0.064790
0.957671 0.397711 0.137331
0.000000 0.531579 0.430121
0.000000 0.551049 0.411780
0.510430 0.565728 0.325475
0.790463 0.545068 0.216251
0.953216 0.512169 0.165621
0.000000 0.731716 0.546044
0.000000 0.738613 0.532189
0.389960 0.750332 0.445777
0.809323 0.738766 0.362463
0.960174 0.651942 0.229068
0.000000 0.313634 0.473732
0.000000 0.319646 0.463783
0.516686 0.312444 0.415442
0.788571 0.328618 0.265385
0.954345 0.358160 0.127047
0.000000 0.363684 0.483558
0.000000 0.360082 0.476081
0.504875 0.356817 0.428168
0.781674 0.363165 0.288823
0.954803 0.374914 0.130373
0.000000 0.457557 0.521477
0.000000 0.462776 0.513909
0.468940 0.468940 0.468940
0.767819 0.461097 0.355596
0.953521 0.436713 0.141909
0.000000 0.582422 0.574456
0.000000 0.591577 0.567315
0.334081 0.614771 0.516594
0.751308 0.595453 0.450568
0.945678 0.543725 0.252873
0.000000 0.752285 0.666712
0.000000 0.758511 0.654994
0.000000 0.773800 0.587640
0.744381 0.762631 0.534142
0.942412 0.687648 0.405646
0.000000 0.442878 0.679591
0.000000 0.459083 0.674098
0.118929 0.418738 0.664485
0.714504 0.484077 0.596643
0.922820 0.490364 0.489174
0.000000 0.473091 0.682521
0.000000 0.485298 0.676661
0.108461 0.449409 0.666835
0.707271 0.506401 0.602930
0.920409 0.503716 0.494331
0.000000 0.534813 0.695888
0.000000 0.546075 0.690272
0.000000 0.531762 0.680262
0.691737 0.572290 0.627100
0.920165 0.547845 0.510063
0.000000 0.625299 0.724269
0.000000 0.633326 0.718441
0.000000 0.642206 0.708522
0.666712 0.666712 0.666712
0.919890 0.624048 0.536126
0.000000 0.751583 0.788540
0.000000 0.760006 0.785458
0.000000 0.791104 0.773007
0.529290 0.802792 0.700740
0.904204 0.762112 0.642298
0.000000 0.541924 0.851438
0.000000 0.552331 0.849241
0.000000 0.566613 0.843076
0.583429 0.621790 0.825406
0.867552 0.692744 0.773861
0.000000 0.555138 0.853147
0.000000 0.564660 0.851072
0.000000 0.580102 0.844907
0.573144 0.630243 0.827695
0.866484 0.701442 0.777707
0.000000 0.589624 0.860044
0.000000 0.594415 0.858457
0.000000 0.621332 0.851438
0.507774 0.649256 0.836820
0.863554 0.728359 0.789975
0.000000 0.655421 0.870787
0.000000 0.659998 0.869566
0.000000 0.675013 0.864897
0.264775 0.688838 0.853849
0.857939 0.773281 0.811032
0.000000 0.736263 0.885283
0.000000 0.741176 0.884428
0.000000 0.759854 0.881071
0.000000 0.791623 0.873289
0.842771 0.842741 0.842741
