其他预设/【212】创意蓝橙调色预设24款/1.3D LUT预设（视频调色-PR-AE-PS-FCPX-达芬奇用）/15.蓝橙色调__.cube
# Created by Adobe Lightroom plugin Export LUT (1.17.0)
# www.johnrellis.com/lightroom/exportlut.htm
# Preset: 15.蓝橙色调[素锦印象]
# Color profile: /Library/Application Support/Adobe/Color/Profiles/Recommended/AdobeRGB1998.icc
LUT_3D_SIZE 8
DOMAIN_MIN 0.000000 0.000000 0.000000
DOMAIN_MAX 0.903226 0.903226 0.903226
0.121706 0.121706 0.121706
0.215793 0.123720 0.123812
0.373297 0.136782 0.121126
0.543542 0.160891 0.110994
0.702754 0.193393 0.091218
0.812161 0.219577 0.079652
0.898253 0.239017 0.088899
0.968231 0.258274 0.127413
0.116793 0.155856 0.136324
0.204013 0.159731 0.125246
0.362310 0.169009 0.121828
0.531853 0.189303 0.110933
0.690517 0.215000 0.090791
0.801114 0.234257 0.078462
0.891600 0.250034 0.086366
0.964813 0.266453 0.125368
0.099031 0.213504 0.173129
0.166049 0.219059 0.159548
0.338994 0.240879 0.124331
0.520409 0.262089 0.108095
0.683650 0.278538 0.085512
0.799039 0.285771 0.074159
0.895720 0.293187 0.087160
0.967803 0.301427 0.130983
0.000000 0.291539 0.225467
0.114199 0.298100 0.211978
0.301671 0.307744 0.174807
0.506249 0.345037 0.116213
0.683497 0.364385 0.076112
0.799100 0.358953 0.067414
0.892302 0.353521 0.087495
0.964874 0.351171 0.135225
0.000000 0.379004 0.283665
0.000000 0.385473 0.272984
0.241154 0.398413 0.217807
0.468482 0.416266 0.181491
0.655085 0.439765 0.098512
0.782742 0.434730 0.063386
0.882444 0.422126 0.088197
0.960266 0.412238 0.142947
0.000000 0.479408 0.351354
0.000000 0.489113 0.345525
0.124636 0.507012 0.298253
0.433112 0.516228 0.249760
0.633783 0.521599 0.183871
0.773404 0.516594 0.083497
0.877623 0.500267 0.100160
0.957549 0.482643 0.160037
0.000000 0.604181 0.432044
0.000000 0.608515 0.427924
0.000000 0.620020 0.388006
0.358373 0.627222 0.315740
0.611109 0.625849 0.272404
0.772244 0.608362 0.193637
0.875486 0.582483 0.105470
0.951019 0.556146 0.181827
0.000000 0.725490 0.505486
0.000000 0.727504 0.501122
0.000000 0.736019 0.475288
0.245243 0.745174 0.412116
0.573358 0.734646 0.379187
0.783780 0.734951 0.309392
0.893950 0.686641 0.221927
0.960632 0.643214 0.227512
0.103395 0.143648 0.181765
0.188449 0.152255 0.168856
0.345403 0.174960 0.128420
0.515648 0.209110 0.111452
0.679500 0.232486 0.090639
0.792813 0.246464 0.078126
0.886748 0.256657 0.085023
0.961639 0.267643 0.122896
0.096437 0.172885 0.191867
0.179416 0.179416 0.179416
0.337591 0.195377 0.143923
0.511040 0.226871 0.110689
0.673915 0.247684 0.090181
0.787716 0.258549 0.077211
0.881865 0.266300 0.083467
0.958160 0.274998 0.120882
0.077699 0.226413 0.208835
0.152132 0.235966 0.205020
0.323461 0.248203 0.173800
0.502617 0.278416 0.112947
0.666316 0.296605 0.086030
0.784634 0.301366 0.072541
0.882689 0.303502 0.082521
0.960113 0.306889 0.125277
0.000000 0.300359 0.252140
0.097200 0.308843 0.245457
0.292058 0.318547 0.208713
0.489113 0.343267 0.161349
0.659571 0.367651 0.079072
0.779294 0.364080 0.066773
0.878782 0.358495 0.081910
0.957427 0.354406 0.129366
0.000000 0.388037 0.306981
0.000000 0.393896 0.298497
0.216495 0.407874 0.245792
0.457588 0.418250 0.211612
0.640406 0.436347 0.146151
0.771023 0.437781 0.062409
0.874876 0.426154 0.085115
0.955505 0.414893 0.138888
0.000000 0.484138 0.368963
0.000000 0.490486 0.362402
0.095369 0.506493 0.322301
0.418647 0.516167 0.273045
0.624872 0.522210 0.212680
0.767575 0.517662 0.135988
0.873442 0.503777 0.099123
0.954192 0.484688 0.156954
0.000000 0.600885 0.442847
0.000000 0.603021 0.437690
0.000000 0.615442 0.403052
0.334447 0.625788 0.330205
0.600793 0.625574 0.293797
0.765194 0.608515 0.218692
0.869474 0.582605 0.118502
0.946563 0.556085 0.176791
0.000000 0.722652 0.514672
0.000000 0.725368 0.510979
0.000000 0.734310 0.488106
0.216526 0.744503 0.427131
0.570031 0.740932 0.402564
0.779873 0.738582 0.332799
0.891020 0.689021 0.245579
0.958618 0.643977 0.224216
0.000000 0.198184 0.284825
0.035035 0.205631 0.278080
0.303716 0.203738 0.252750
0.497292 0.217258 0.181247
0.667903 0.276768 0.118044
0.785000 0.304173 0.072175
0.884489 0.302953 0.083772
0.961944 0.299107 0.125826
0.000000 0.225772 0.288548
0.073426 0.227420 0.283848
0.296056 0.225132 0.258610
0.489082 0.235447 0.192355
0.659998 0.286198 0.130129
0.780056 0.312871 0.071809
0.880888 0.310521 0.082399
0.959991 0.305943 0.125185
0.000000 0.275547 0.308568
0.000000 0.277928 0.303746
0.279271 0.279271 0.279271
0.479500 0.290684 0.226505
0.655299 0.322637 0.158358
0.777798 0.345983 0.068208
0.879210 0.340246 0.081575
0.958740 0.332250 0.127291
0.000000 0.335637 0.330236
0.000000 0.341466 0.329198
0.217044 0.356359 0.305669
0.466255 0.366155 0.271489
0.647364 0.381933 0.202853
0.773770 0.393866 0.103944
0.877287 0.388434 0.082948
0.957549 0.375830 0.132998
0.000000 0.409705 0.368444
0.000000 0.417792 0.368231
0.137270 0.439918 0.349340
0.436530 0.447791 0.305974
0.628382 0.454871 0.258793
0.763790 0.453773 0.176883
0.871611 0.448890 0.086519
0.954650 0.431647 0.142061
0.000000 0.504173 0.425086
0.000000 0.511223 0.423468
0.000000 0.528527 0.402319
0.372259 0.537438 0.345006
0.608637 0.539361 0.300542
0.754299 0.529137 0.247990
0.867247 0.518395 0.139162
0.953185 0.498116 0.160342
0.000000 0.616815 0.493660
0.000000 0.619287 0.490242
0.000000 0.630152 0.465980
0.269047 0.639796 0.403662
0.575219 0.637324 0.367742
0.755093 0.622400 0.301213
0.864652 0.595850 0.235111
0.947967 0.569177 0.184329
0.000000 0.730159 0.556542
0.000000 0.731228 0.551446
0.000000 0.738766 0.534722
0.000000 0.752163 0.483345
0.537835 0.748226 0.455116
0.759945 0.746120 0.401068
0.884428 0.701595 0.321294
0.958160 0.652918 0.225559
0.000000 0.272313 0.408392
0.000000 0.282261 0.403937
0.108736 0.256657 0.395972
0.444465 0.271397 0.358465
0.641474 0.263554 0.262089
0.769314 0.312840 0.198642
0.873472 0.346685 0.093019
0.956451 0.333715 0.125734
0.000000 0.298070 0.413153
0.000000 0.304234 0.408179
0.110536 0.277043 0.400824
0.441566 0.288670 0.363958
0.637446 0.280583 0.270878
0.765866 0.322820 0.206882
0.871275 0.352667 0.103243
0.955688 0.338903 0.125704
0.000000 0.338231 0.425055
0.000000 0.342199 0.420752
0.088197 0.328771 0.412787
0.427588 0.336217 0.378698
0.627100 0.333684 0.300755
0.763973 0.359930 0.237675
0.875334 0.378485 0.134310
0.958068 0.362646 0.130983
0.000000 0.396704 0.450080
0.000000 0.399878 0.445014
0.000000 0.400366 0.438514
0.406928 0.406928 0.406928
0.609949 0.408789 0.347997
0.753689 0.412268 0.276951
0.868894 0.415503 0.172213
0.955840 0.401404 0.136233
0.000000 0.462287 0.474861
0.000000 0.465522 0.471473
0.000000 0.477028 0.467384
0.337591 0.492348 0.433814
0.594965 0.490608 0.399573
0.745357 0.483284 0.332067
0.864866 0.472023 0.228916
0.953765 0.453803 0.147066
0.000000 0.541161 0.513481
0.000000 0.547295 0.513542
0.000000 0.562707 0.508385
0.251621 0.577508 0.470924
0.575097 0.575586 0.429572
0.734920 0.560601 0.386328
0.856962 0.543542 0.303410
0.951965 0.517052 0.166567
0.000000 0.638239 0.568109
0.000000 0.641566 0.565911
0.000000 0.652949 0.554864
0.000000 0.665278 0.514702
0.525444 0.661646 0.474708
0.736446 0.651972 0.420417
0.852171 0.622065 0.367529
0.944793 0.588434 0.251774
0.000000 0.747341 0.628626
0.000000 0.749294 0.624903
0.000000 0.754391 0.609247
0.000000 0.764706 0.568414
0.453437 0.763058 0.524346
0.721492 0.757931 0.499794
0.870481 0.723690 0.423529
0.950378 0.674586 0.343938
0.000000 0.354009 0.537072
0.000000 0.361028 0.533928
0.000000 0.359258 0.526421
0.268437 0.315343 0.517449
0.582971 0.355596 0.469978
0.743984 0.328069 0.361822
0.859525 0.368383 0.303136
0.950591 0.379553 0.202487
0.000000 0.372015 0.539452
0.000000 0.377935 0.537102
0.000000 0.371374 0.530785
0.259312 0.328222 0.520623
0.579278 0.367498 0.472969
0.741787 0.341680 0.368414
0.858640 0.376959 0.308568
0.950347 0.384405 0.204776
0.000000 0.408392 0.547539
0.000000 0.413947 0.544366
0.000000 0.406500 0.541619
0.235416 0.374090 0.529015
0.567407 0.404211 0.482673
0.731655 0.382544 0.388312
0.854032 0.403388 0.324926
0.948760 0.399268 0.208927
0.000000 0.454566 0.564691
0.000000 0.458808 0.561089
0.000000 0.457801 0.557366
0.209140 0.445747 0.545006
0.552453 0.462501 0.503685
0.721950 0.447761 0.425544
0.851164 0.446662 0.350286
0.950713 0.423560 0.205814
0.000000 0.513603 0.587213
0.000000 0.517205 0.584314
0.000000 0.520226 0.578729
0.136385 0.521294 0.566278
0.529625 0.529625 0.529625
0.708766 0.520134 0.468635
0.845884 0.502495 0.382361
0.948486 0.471168 0.241398
0.000000 0.574792 0.607507
0.000000 0.577813 0.605158
0.000000 0.584253 0.599268
0.000000 0.596094 0.589258
0.452247 0.604639 0.545373
0.694606 0.597833 0.518669
0.836637 0.581811 0.447456
0.944091 0.541283 0.314275
0.000000 0.656733 0.649805
0.000000 0.659205 0.647395
0.000000 0.668635 0.640558
0.000000 0.685817 0.628717
0.358343 0.689143 0.575036
0.688014 0.681971 0.546471
0.827543 0.657679 0.500511
0.932525 0.619898 0.398077
0.000000 0.759030 0.708248
0.000000 0.761563 0.706050
0.000000 0.767269 0.694545
0.000000 0.779141 0.671168
0.156649 0.783169 0.612238
0.656428 0.770596 0.596826
0.843351 0.753079 0.539300
0.933989 0.706722 0.475624
0.000000 0.429480 0.657435
0.000000 0.434882 0.655634
0.000000 0.449775 0.647456
0.000000 0.417731 0.644495
0.452125 0.414130 0.625422
0.691341 0.457771 0.572595
0.833433 0.430945 0.482612
0.931334 0.463539 0.438880
0.000000 0.439338 0.654810
0.000000 0.443610 0.652705
0.000000 0.454994 0.646113
0.000000 0.425055 0.642542
0.445594 0.419684 0.624414
0.687709 0.464210 0.573480
0.831205 0.438209 0.485603
0.930419 0.467414 0.440162
0.000000 0.471077 0.661952
0.000000 0.474281 0.659419
0.000000 0.479713 0.653712
0.000000 0.456519 0.649073
0.427863 0.446113 0.630976
0.682002 0.493019 0.583459
0.827543 0.468513 0.501030
0.929656 0.484260 0.448249
0.000000 0.507256 0.671229
0.000000 0.510613 0.668574
0.000000 0.516960 0.663447
0.000000 0.504967 0.660792
0.391089 0.492409 0.645899
0.676051 0.539635 0.602960
0.824186 0.517510 0.528161
0.930571 0.510643 0.458259
0.000000 0.550958 0.681483
0.000000 0.554314 0.679774
0.000000 0.562585 0.674586
0.000000 0.557305 0.670039
0.338109 0.552941 0.655695
0.659419 0.583642 0.617639
0.815702 0.565789 0.549676
0.930632 0.535668 0.455604
0.000000 0.603174 0.696223
0.000000 0.606897 0.695491
0.000000 0.616480 0.689937
0.000000 0.617914 0.685176
0.266026 0.623957 0.672267
0.640772 0.640681 0.640742
0.808347 0.631373 0.585809
0.929381 0.589532 0.480415
0.000000 0.671656 0.728359
0.000000 0.674861 0.727749
0.000000 0.683894 0.723049
0.000000 0.694697 0.717189
0.000000 0.709834 0.704982
0.576013 0.715633 0.659785
0.795499 0.703578 0.631098
0.915770 0.674250 0.554955
0.000000 0.754330 0.774350
0.000000 0.756588 0.772976
0.000000 0.765194 0.768368
0.000000 0.782712 0.760250
0.000000 0.806271 0.744137
0.467842 0.798154 0.679744
0.796994 0.787076 0.658534
0.911284 0.750790 0.610773
0.000000 0.488624 0.756893
0.000000 0.492592 0.755703
0.000000 0.506126 0.751217
0.000000 0.502129 0.747311
0.192660 0.477241 0.739925
0.610925 0.532280 0.718471
0.785122 0.567468 0.671687
0.899382 0.564752 0.616297
0.000000 0.496407 0.757565
0.000000 0.500084 0.756344
0.000000 0.512627 0.751980
0.000000 0.507744 0.747738
0.189639 0.484535 0.740658
0.608911 0.537530 0.719600
0.784268 0.572320 0.673487
0.898985 0.569238 0.618494
0.000000 0.517510 0.760342
0.000000 0.520653 0.759243
0.000000 0.532006 0.755123
0.000000 0.527428 0.751095
0.173831 0.508690 0.744015
0.601007 0.554192 0.723598
0.781399 0.588678 0.679774
0.897795 0.584192 0.625788
0.000000 0.546624 0.766415
0.000000 0.549401 0.765072
0.000000 0.559319 0.761257
0.000000 0.559045 0.756985
0.107393 0.545556 0.750240
0.581262 0.578759 0.730922
0.776822 0.614801 0.690272
0.896574 0.607813 0.636683
0.000000 0.584009 0.774533
0.000000 0.586633 0.773587
0.000000 0.595453 0.770108
0.000000 0.600122 0.765560
0.000000 0.589776 0.759701
0.531975 0.606073 0.742489
0.770687 0.648676 0.704341
0.895537 0.639094 0.650355
0.000000 0.629023 0.785122
0.000000 0.631403 0.784237
0.000000 0.639490 0.781216
0.000000 0.649958 0.776394
0.000000 0.645869 0.771664
0.460883 0.656123 0.757443
0.761288 0.692042 0.722835
0.894713 0.677974 0.666255
0.000000 0.679133 0.797360
0.000000 0.681361 0.796658
0.000000 0.689052 0.794125
0.000000 0.702724 0.789487
0.000000 0.708736 0.785214
0.387030 0.724147 0.773892
0.745449 0.745388 0.745418
0.891630 0.729274 0.689143
0.000000 0.742458 0.827329
0.000000 0.744625 0.826932
0.000000 0.752255 0.825345
0.000000 0.766384 0.822141
0.000000 0.786923 0.816434
0.092714 0.808957 0.805631
0.684932 0.814237 0.761746
0.881285 0.799374 0.736721
0.000000 0.541924 0.851438
0.000000 0.544976 0.850828
0.000000 0.555810 0.848508
0.000000 0.575219 0.844144
0.000000 0.562463 0.840879
0.499489 0.602136 0.829709
0.753658 0.666712 0.812467
0.867552 0.692744 0.773861
0.000000 0.546319 0.851896
0.000000 0.549248 0.851286
0.000000 0.559808 0.848997
0.000000 0.578729 0.844694
0.000000 0.566613 0.841459
0.495003 0.604547 0.830411
0.752438 0.669306 0.813138
0.867216 0.695369 0.774990
0.000000 0.558862 0.853788
0.000000 0.561578 0.853208
0.000000 0.571435 0.851011
0.000000 0.589380 0.846830
0.000000 0.580346 0.843412
0.476509 0.612421 0.832914
0.747738 0.677882 0.815488
0.866148 0.704280 0.778988
0.000000 0.575616 0.857694
0.000000 0.578210 0.857115
0.000000 0.587488 0.854978
0.000000 0.604578 0.850950
0.000000 0.602136 0.847166
0.437476 0.626886 0.837461
0.737636 0.691371 0.819821
0.864561 0.718929 0.785641
0.000000 0.606317 0.862669
0.000000 0.607752 0.862242
0.000000 0.612543 0.860655
0.000000 0.619837 0.857786
0.000000 0.630823 0.852964
0.349157 0.645624 0.844480
0.717952 0.708309 0.826444
0.862303 0.739254 0.795071
0.000000 0.644892 0.868986
0.000000 0.646265 0.868620
0.000000 0.650965 0.867277
0.000000 0.658717 0.864775
0.000000 0.670497 0.860472
0.000000 0.671656 0.854276
0.673396 0.725704 0.836576
0.859007 0.765652 0.807431
0.000000 0.688777 0.876585
0.000000 0.690120 0.876280
0.000000 0.694911 0.875181
0.000000 0.703639 0.873014
0.000000 0.717494 0.869352
0.000000 0.723384 0.864530
0.582544 0.755123 0.850462
0.853605 0.799191 0.823178
0.000000 0.736263 0.885283
0.000000 0.737758 0.885008
0.000000 0.742885 0.884123
0.000000 0.752743 0.882383
0.000000 0.768734 0.879393
0.000000 0.787289 0.874907
0.497292 0.814633 0.864469
0.842771 0.842741 0.842741
