其他预设/【212】创意蓝橙调色预设24款/1.3D LUT预设（视频调色-PR-AE-PS-FCPX-达芬奇用）/15.蓝橙色调__.cube
# Created by Adobe Lightroom plugin Export LUT (1.17.0)
# www.johnrellis.com/lightroom/exportlut.htm
# Preset: 15.蓝橙色调[素锦印象]
# Color profile: /Library/Application Support/Adobe/Color/Profiles/Recommended/AdobeRGB1998.icc
LUT_3D_SIZE 32
0.121706 0.121706 0.121706
0.130861 0.120302 0.121736
0.149783 0.118196 0.122286
0.179263 0.121035 0.123049
0.215793 0.123720 0.123812
0.253513 0.126375 0.124300
0.292271 0.129183 0.123507
0.332128 0.132479 0.122866
0.373297 0.136782 0.121126
0.415442 0.141634 0.119600
0.458259 0.147738 0.117556
0.501122 0.154238 0.114778
0.543542 0.160891 0.110994
0.584710 0.168460 0.106630
0.628717 0.177218 0.101076
0.669001 0.185611 0.096010
0.702754 0.193393 0.091218
0.732937 0.200717 0.087312
0.760464 0.207095 0.084077
0.786893 0.213565 0.081239
0.812161 0.219577 0.079652
0.836088 0.225223 0.079255
0.858305 0.229984 0.080476
0.878965 0.234653 0.083528
0.898253 0.239017 0.088899
0.916625 0.243503 0.095277
0.934325 0.247990 0.104128
0.951476 0.252811 0.114595
0.968231 0.258274 0.127413
0.984405 0.264958 0.142214
0.999908 0.272923 0.160311
1.000000 0.283207 0.181216
0.121706 0.121706 0.121706
0.129488 0.122438 0.121614
0.148623 0.123262 0.122499
0.178347 0.125551 0.123293
0.214572 0.128298 0.123873
0.252140 0.130587 0.124392
0.290806 0.133028 0.123659
0.330236 0.136538 0.122683
0.371283 0.140352 0.121187
0.413458 0.145205 0.119448
0.456001 0.150973 0.117708
0.498787 0.157046 0.114809
0.541009 0.164126 0.111025
0.582116 0.171328 0.106752
0.625788 0.179538 0.101167
0.665522 0.187869 0.096284
0.699092 0.195407 0.091646
0.729091 0.202213 0.087404
0.756649 0.208347 0.084596
0.783200 0.214664 0.081453
0.808713 0.220462 0.079591
0.832883 0.225803 0.078889
0.855375 0.230777 0.079957
0.876310 0.235386 0.082673
0.895872 0.239536 0.087770
0.914488 0.243992 0.094453
0.932433 0.248295 0.103120
0.949828 0.253208 0.113405
0.966735 0.258488 0.125978
0.983093 0.265019 0.141115
0.998779 0.272862 0.158907
1.000000 0.282902 0.179904
0.121462 0.126986 0.122225
0.128267 0.128634 0.122072
0.147341 0.130282 0.122499
0.177096 0.131899 0.123171
0.212985 0.133913 0.124208
0.250462 0.136233 0.124361
0.288884 0.138552 0.123842
0.328374 0.141665 0.122713
0.369390 0.145113 0.121279
0.411292 0.150057 0.119600
0.453986 0.155673 0.117647
0.496803 0.161196 0.114992
0.538933 0.168246 0.111055
0.580163 0.175540 0.106508
0.623713 0.183383 0.101472
0.663264 0.191257 0.096254
0.696742 0.198306 0.091737
0.726680 0.204471 0.087953
0.754330 0.210880 0.084504
0.780972 0.216800 0.081453
0.806699 0.222324 0.079591
0.831083 0.227604 0.078828
0.853758 0.232151 0.080293
0.874846 0.236820 0.082918
0.894560 0.241154 0.087312
0.913268 0.245151 0.093874
0.931365 0.249332 0.102541
0.948882 0.254124 0.113100
0.965942 0.259373 0.125490
0.982391 0.265751 0.140536
0.998138 0.273533 0.158267
1.000000 0.283391 0.179110
0.119051 0.141390 0.128603
0.124147 0.143709 0.125704
0.145113 0.144350 0.122774
0.174746 0.143862 0.123842
0.210544 0.145510 0.124727
0.247898 0.147127 0.124605
0.286198 0.149264 0.124331
0.325841 0.151888 0.123049
0.366735 0.155154 0.121645
0.408728 0.159518 0.119997
0.451392 0.164920 0.117708
0.494118 0.170474 0.114839
0.536187 0.177005 0.110933
0.577295 0.183749 0.106508
0.621180 0.191348 0.100954
0.660304 0.198489 0.095888
0.693629 0.204807 0.091310
0.723415 0.210849 0.087587
0.750942 0.216373 0.084352
0.777554 0.221866 0.081147
0.803281 0.226841 0.079103
0.827848 0.231479 0.078798
0.850980 0.236210 0.079347
0.872679 0.240391 0.082216
0.893004 0.244480 0.086763
0.912291 0.248417 0.093660
0.930785 0.252506 0.102480
0.948547 0.257145 0.112978
0.965667 0.262364 0.125551
0.982116 0.268498 0.140444
0.997803 0.275822 0.158114
1.000000 0.285313 0.178927
0.116793 0.155856 0.136324
0.118044 0.157168 0.133974
0.136995 0.157534 0.132082
0.167636 0.157900 0.125856
0.204013 0.159731 0.125246
0.243290 0.161868 0.125734
0.281712 0.163577 0.124971
0.321263 0.165896 0.123568
0.362310 0.169009 0.121828
0.404273 0.173129 0.120241
0.446784 0.178256 0.117586
0.489570 0.183627 0.114534
0.531853 0.189303 0.110933
0.573297 0.195651 0.106020
0.617517 0.202640 0.100710
0.656672 0.209232 0.095705
0.690517 0.215000 0.090791
0.720699 0.220127 0.086793
0.748623 0.225101 0.083528
0.775387 0.229801 0.080415
0.801114 0.234257 0.078462
0.825803 0.238499 0.078218
0.849088 0.242466 0.078920
0.871031 0.246281 0.081788
0.891600 0.250034 0.086366
0.911131 0.253696 0.092988
0.929747 0.257511 0.101625
0.947631 0.261753 0.112245
0.964813 0.266453 0.125368
0.981353 0.272221 0.140475
0.997131 0.279393 0.157717
1.000000 0.288518 0.178347
0.114199 0.168460 0.144076
0.114626 0.169741 0.142184
0.129335 0.170382 0.140688
0.158389 0.170993 0.137545
0.193423 0.172702 0.128817
0.234775 0.177127 0.126467
0.276982 0.180606 0.125856
0.316686 0.182864 0.124483
0.357733 0.186007 0.122560
0.399908 0.189822 0.120424
0.442756 0.194247 0.117647
0.485725 0.199374 0.114382
0.528130 0.204623 0.110567
0.569940 0.210452 0.105867
0.614771 0.216861 0.100221
0.653864 0.222812 0.094759
0.688014 0.227604 0.090181
0.718441 0.232212 0.086152
0.746761 0.236210 0.082918
0.773892 0.240177 0.080140
0.800076 0.244144 0.078096
0.825101 0.247959 0.077455
0.865141 0.256626 0.079927
0.885557 0.259739 0.084260
0.904631 0.262791 0.090364
0.922698 0.265782 0.098756
0.939940 0.269078 0.108186
0.956512 0.272831 0.119326
0.972534 0.277256 0.132753
0.988006 0.282719 0.148287
1.000000 0.289769 0.166201
1.000000 0.298772 0.187076
0.110628 0.182895 0.152682
0.111025 0.183932 0.151247
0.122225 0.184909 0.149905
0.150698 0.186038 0.146517
0.184787 0.187442 0.141360
0.224186 0.191287 0.132570
0.269963 0.197848 0.126955
0.315221 0.202914 0.125582
0.357214 0.206149 0.123171
0.400336 0.209995 0.120089
0.443885 0.214481 0.117098
0.487556 0.219211 0.113466
0.530358 0.224063 0.109041
0.573602 0.229343 0.103914
0.619379 0.235721 0.098177
0.658076 0.240635 0.092500
0.691676 0.244419 0.088258
0.722011 0.247837 0.084077
0.750484 0.251255 0.081025
0.778256 0.254612 0.077913
0.805478 0.258152 0.076051
0.831846 0.261601 0.076081
0.856596 0.264775 0.078431
0.879545 0.268009 0.082399
0.900603 0.270970 0.089052
0.919799 0.273716 0.097414
0.937713 0.276646 0.107332
0.954620 0.279911 0.118746
0.970916 0.283879 0.132052
0.986481 0.288914 0.147555
1.000000 0.295293 0.165225
1.000000 0.303624 0.186130
0.106020 0.197421 0.162142
0.106142 0.198245 0.160983
0.115663 0.199222 0.159731
0.141482 0.200717 0.155795
0.176303 0.202213 0.150912
0.212924 0.204288 0.144442
0.255650 0.210391 0.135042
0.303258 0.218540 0.125978
0.350622 0.225101 0.123964
0.394049 0.229038 0.120485
0.438117 0.233463 0.117281
0.482033 0.237980 0.113039
0.525139 0.242496 0.108614
0.570031 0.247959 0.103304
0.614862 0.253605 0.097108
0.653407 0.257725 0.091279
0.687251 0.260502 0.087221
0.717678 0.263249 0.083162
0.746426 0.265568 0.080049
0.774350 0.268467 0.076631
0.801816 0.271183 0.074922
0.828336 0.273808 0.075196
0.853361 0.276493 0.076967
0.876555 0.278935 0.081209
0.897856 0.281193 0.087770
0.917357 0.283543 0.096315
0.935485 0.285679 0.106416
0.952697 0.288518 0.117739
0.969207 0.291936 0.131228
0.984985 0.296239 0.146883
1.000000 0.302159 0.164797
1.000000 0.309911 0.185763
0.099031 0.213504 0.173129
0.099458 0.214359 0.171908
0.110475 0.215305 0.170748
0.133700 0.217014 0.166903
0.166049 0.219059 0.159548
0.205203 0.220676 0.154696
0.244663 0.224033 0.147280
0.289738 0.231418 0.136995
0.338994 0.240879 0.124331
0.388128 0.248692 0.121370
0.432471 0.253208 0.117128
0.476783 0.257664 0.112825
0.520409 0.262089 0.108095
0.566918 0.267887 0.102052
0.611139 0.272801 0.095827
0.649683 0.276280 0.090364
0.683650 0.278538 0.085512
0.714321 0.279973 0.082002
0.743221 0.281987 0.078187
0.771420 0.283879 0.075349
0.799039 0.285771 0.074159
0.825742 0.287694 0.074281
0.850950 0.289555 0.076356
0.874296 0.291386 0.080781
0.895720 0.293187 0.087160
0.915404 0.294682 0.096193
0.933776 0.296483 0.105867
0.951141 0.298558 0.117372
0.967803 0.301427 0.130983
0.983703 0.305089 0.146578
0.998810 0.310338 0.164981
1.000000 0.317510 0.185733
0.089815 0.230930 0.184726
0.091127 0.231754 0.183902
0.104158 0.232456 0.182742
0.125399 0.234379 0.178866
0.153994 0.237003 0.169863
0.196109 0.238437 0.164858
0.236698 0.240696 0.158236
0.279271 0.245518 0.148959
0.326360 0.253758 0.137667
0.376226 0.263920 0.123934
0.426184 0.272587 0.117556
0.470802 0.277348 0.112764
0.514977 0.281834 0.107698
0.562737 0.288151 0.101198
0.607202 0.292790 0.094606
0.646357 0.295811 0.089052
0.681117 0.297612 0.084016
0.712276 0.298589 0.079805
0.741482 0.299657 0.076448
0.769772 0.300755 0.073396
0.797177 0.302007 0.072236
0.823453 0.302953 0.072602
0.848295 0.303868 0.075349
0.871336 0.305119 0.079225
0.892760 0.305852 0.086458
0.912657 0.306828 0.095125
0.931365 0.307958 0.105013
0.949157 0.309483 0.117220
0.966217 0.311803 0.131014
0.982452 0.315129 0.147036
0.997894 0.319860 0.165377
1.000000 0.326482 0.186648
0.077180 0.248997 0.196902
0.081880 0.249699 0.196139
0.095003 0.250675 0.195041
0.115572 0.252720 0.191012
0.143008 0.255558 0.182986
0.183017 0.257816 0.173098
0.228397 0.259709 0.168795
0.270512 0.262364 0.161166
0.316289 0.268864 0.149386
0.364904 0.277684 0.137789
0.415106 0.287999 0.122591
0.465187 0.297429 0.112306
0.511376 0.303014 0.107240
0.558556 0.308812 0.100191
0.602777 0.313237 0.093355
0.642145 0.315801 0.087190
0.677150 0.316869 0.081971
0.708492 0.317357 0.078157
0.738003 0.317693 0.074311
0.766506 0.318029 0.072206
0.794186 0.318639 0.070863
0.820768 0.319097 0.070985
0.845914 0.319554 0.073487
0.869230 0.319799 0.078767
0.890837 0.320104 0.085878
0.910857 0.320409 0.094545
0.929656 0.320806 0.105165
0.947539 0.321691 0.117281
0.964691 0.323369 0.131167
0.981079 0.326024 0.147250
0.996643 0.330053 0.165774
1.000000 0.336126 0.187137
0.055238 0.268437 0.209964
0.067933 0.269261 0.209323
0.081910 0.270237 0.208103
0.102358 0.272374 0.204288
0.130343 0.275364 0.196902
0.166140 0.278538 0.183658
0.217411 0.280186 0.178775
0.263279 0.282414 0.172091
0.307347 0.285832 0.162844
0.355627 0.293523 0.149294
0.404730 0.302556 0.137026
0.454902 0.312840 0.120638
0.521141 0.331823 0.103090
0.570764 0.338720 0.096315
0.615900 0.342809 0.088838
0.655146 0.344366 0.082643
0.689387 0.344366 0.077516
0.720272 0.343633 0.073610
0.749111 0.342840 0.070527
0.776913 0.341863 0.069062
0.803555 0.341192 0.068605
0.828916 0.340459 0.070619
0.852689 0.339696 0.073915
0.874846 0.338842 0.080476
0.895506 0.338170 0.087800
0.914885 0.337530 0.097322
0.933074 0.337194 0.108461
0.950408 0.337407 0.121096
0.967010 0.338293 0.135348
0.982971 0.340154 0.151431
0.998047 0.343633 0.170352
1.000000 0.349065 0.191897
0.000000 0.291539 0.225467
0.021180 0.292271 0.224491
0.054841 0.293309 0.223087
0.083223 0.295140 0.219425
0.114199 0.298100 0.211978
0.151125 0.301183 0.199557
0.201633 0.303410 0.187472
0.254582 0.305058 0.183474
0.301671 0.307744 0.174807
0.348425 0.312596 0.163149
0.398383 0.320806 0.149172
0.449531 0.330999 0.135775
0.506249 0.345037 0.116213
0.561944 0.357702 0.094789
0.608148 0.362860 0.088197
0.648432 0.364630 0.081666
0.683497 0.364385 0.076112
0.714748 0.363043 0.072053
0.744045 0.361608 0.069154
0.772152 0.360235 0.067170
0.799100 0.358953 0.067414
0.824826 0.357671 0.068574
0.848875 0.356298 0.072999
0.871366 0.354955 0.079164
0.892302 0.353521 0.087495
0.911925 0.352300 0.096742
0.930419 0.351293 0.108309
0.947997 0.350958 0.121065
0.964874 0.351171 0.135225
0.981079 0.352575 0.151827
0.996460 0.355383 0.170596
1.000000 0.360204 0.192813
0.000000 0.312413 0.239200
0.000000 0.313146 0.238285
0.000000 0.314153 0.237095
0.050019 0.316167 0.233646
0.093690 0.318944 0.226505
0.133272 0.322484 0.215061
0.179049 0.325597 0.197330
0.240452 0.326787 0.193088
0.292119 0.329015 0.186435
0.339788 0.332097 0.176577
0.388495 0.338079 0.163424
0.441413 0.348363 0.149111
0.495705 0.360418 0.133944
0.549554 0.372381 0.111238
0.601007 0.382757 0.085389
0.642023 0.384924 0.080781
0.677424 0.384405 0.074983
0.709010 0.382727 0.070802
0.738766 0.380743 0.068116
0.767361 0.378943 0.065919
0.794766 0.377234 0.065614
0.820920 0.375586 0.067659
0.845426 0.373663 0.071687
0.868284 0.371710 0.078157
0.889555 0.369879 0.086763
0.909453 0.367987 0.096803
0.928222 0.366461 0.108705
0.946044 0.365393 0.121584
0.963165 0.365087 0.136110
0.979583 0.365942 0.152804
0.995178 0.368170 0.172152
1.000000 0.372442 0.194491
0.000000 0.334203 0.253727
0.000000 0.334966 0.252964
0.000000 0.335882 0.251591
0.000000 0.337835 0.248142
0.062715 0.340673 0.241611
0.111788 0.344091 0.231144
0.159792 0.347631 0.214633
0.220188 0.349645 0.201694
0.280217 0.351171 0.198123
0.331151 0.353948 0.188968
0.379675 0.357855 0.178286
0.433265 0.367315 0.163882
0.486427 0.377447 0.148928
0.538933 0.387976 0.131441
0.589807 0.397894 0.105959
0.635370 0.404944 0.076478
0.671839 0.404883 0.074342
0.703822 0.402716 0.069734
0.733883 0.400427 0.066529
0.762814 0.398138 0.064637
0.790555 0.395911 0.064668
0.817044 0.393774 0.066285
0.841825 0.391394 0.071412
0.865080 0.388952 0.077790
0.886748 0.386511 0.086336
0.907073 0.384253 0.097017
0.926329 0.382269 0.109377
0.944671 0.380957 0.122499
0.962280 0.380346 0.138033
0.979095 0.380743 0.155367
0.994995 0.382635 0.175357
1.000000 0.386633 0.198550
0.000000 0.356573 0.268711
0.000000 0.357397 0.267765
0.000000 0.358312 0.266636
0.000000 0.360479 0.263493
0.000000 0.363317 0.257450
0.082002 0.366918 0.247868
0.137697 0.370703 0.232761
0.192752 0.374151 0.211521
0.264012 0.375280 0.208377
0.320684 0.377356 0.201846
0.374212 0.382422 0.192233
0.425666 0.388403 0.180087
0.477913 0.396460 0.164340
0.529015 0.404852 0.148257
0.578546 0.413275 0.128511
0.624231 0.419898 0.101717
0.664790 0.424323 0.067933
0.698177 0.422858 0.069429
0.729061 0.420325 0.065827
0.758755 0.417853 0.063874
0.787198 0.415442 0.063416
0.814237 0.412879 0.066102
0.839536 0.410101 0.071015
0.863188 0.407294 0.078248
0.885191 0.404364 0.087800
0.905882 0.401740 0.098116
0.925383 0.399237 0.110933
0.943938 0.397406 0.124941
0.961639 0.396216 0.140627
0.978485 0.396002 0.158328
0.994354 0.397345 0.178500
1.000000 0.400671 0.201785
0.000000 0.379004 0.283665
0.000000 0.379797 0.282902
0.000000 0.380591 0.281712
0.000000 0.382574 0.278569
0.000000 0.385473 0.272984
0.001617 0.388983 0.264286
0.110780 0.392859 0.250797
0.171176 0.396460 0.231205
0.241154 0.398413 0.217807
0.308141 0.401678 0.216068
0.364569 0.406165 0.206882
0.417273 0.410651 0.195804
0.468482 0.416266 0.181491
0.519677 0.423041 0.164034
0.568688 0.430091 0.147646
0.614099 0.435828 0.126436
0.655085 0.439765 0.098512
0.691737 0.442206 0.060609
0.723873 0.440162 0.065309
0.753933 0.437354 0.062776
0.782742 0.434730 0.063386
0.810147 0.431739 0.066011
0.835904 0.428687 0.071077
0.859983 0.425360 0.078218
0.882444 0.422126 0.088197
0.903471 0.418952 0.099153
0.923400 0.416083 0.112551
0.942260 0.413825 0.126986
0.960266 0.412238 0.142947
0.977356 0.411688 0.161074
0.993500 0.412451 0.181430
1.000000 0.415290 0.205478
0.000000 0.401984 0.299107
0.000000 0.402838 0.298344
0.000000 0.408484 0.300481
0.000000 0.410254 0.297490
0.000000 0.413062 0.292271
0.000000 0.416327 0.284031
0.071046 0.420050 0.271305
0.147036 0.423774 0.253239
0.213413 0.429725 0.230564
0.294255 0.433021 0.229862
0.357794 0.436713 0.224186
0.414008 0.440650 0.213413
0.466560 0.444434 0.200595
0.517845 0.449317 0.183810
0.567559 0.454536 0.164370
0.612665 0.458686 0.147616
0.653407 0.461189 0.125307
0.689906 0.462470 0.095674
0.723720 0.463020 0.052857
0.754360 0.460334 0.062226
0.782956 0.456764 0.063508
0.810208 0.453223 0.067170
0.835935 0.449409 0.072480
0.859800 0.445563 0.080415
0.881865 0.441505 0.090730
0.902617 0.437568 0.101961
0.922210 0.433967 0.114595
0.940917 0.430915 0.129305
0.958892 0.428717 0.145663
0.976135 0.427588 0.163943
0.992401 0.427893 0.184939
1.000000 0.430243 0.209384
0.000000 0.426856 0.315892
0.000000 0.428046 0.315740
0.000000 0.429633 0.314824
0.000000 0.432013 0.312444
0.000000 0.435096 0.308049
0.000000 0.438666 0.300664
0.000000 0.444099 0.290166
0.115816 0.449897 0.274815
0.189487 0.455390 0.253452
0.269688 0.458564 0.241062
0.342260 0.461036 0.238590
0.401862 0.464118 0.228977
0.456611 0.467262 0.216648
0.507836 0.470314 0.202213
0.557733 0.474250 0.183474
0.604028 0.477333 0.164065
0.644984 0.478950 0.146548
0.681971 0.479408 0.123781
0.716365 0.479530 0.091951
0.748501 0.479164 0.047150
0.778012 0.476173 0.063050
0.805844 0.472511 0.067964
0.832151 0.468482 0.074006
0.856565 0.464332 0.081544
0.879149 0.460029 0.091859
0.900328 0.455665 0.104036
0.920317 0.451698 0.117128
0.939300 0.448280 0.132143
0.957549 0.445624 0.148714
0.974945 0.444038 0.167208
0.991363 0.443854 0.188540
1.000000 0.445747 0.213443
0.000000 0.450813 0.332158
0.000000 0.452308 0.332036
0.000000 0.454108 0.331548
0.000000 0.457038 0.329747
0.000000 0.461097 0.326116
0.000000 0.465766 0.319829
0.000000 0.470893 0.310063
0.064179 0.476051 0.295689
0.161349 0.480995 0.275792
0.237522 0.485023 0.252384
0.322087 0.486671 0.250614
0.388159 0.488838 0.245090
0.445624 0.491371 0.233310
0.499062 0.493996 0.219516
0.549493 0.496468 0.202823
0.596612 0.498512 0.183413
0.638666 0.498939 0.164370
0.675929 0.498421 0.146426
0.710689 0.497719 0.121492
0.743404 0.497017 0.087251
0.773739 0.495491 0.047517
0.801846 0.491981 0.067597
0.828611 0.487953 0.075441
0.853483 0.483528 0.084230
0.876524 0.478798 0.094636
0.898009 0.474128 0.106172
0.918212 0.469673 0.119814
0.937469 0.465766 0.134829
0.955901 0.462715 0.151736
0.973449 0.460670 0.170901
0.990082 0.460090 0.192569
1.000000 0.461433 0.217746
0.000000 0.479408 0.351354
0.000000 0.480873 0.351415
0.000000 0.482612 0.351080
0.000000 0.485389 0.349218
0.000000 0.489113 0.345525
0.000000 0.493294 0.339513
0.000000 0.497810 0.329961
0.000000 0.502373 0.316655
0.124636 0.507012 0.298253
0.209079 0.511070 0.274449
0.296300 0.512902 0.262394
0.371557 0.514305 0.259495
0.433112 0.516228 0.249760
0.489113 0.518334 0.236637
0.541527 0.520562 0.221714
0.590112 0.521904 0.203403
0.633783 0.521599 0.183871
0.672541 0.520226 0.165682
0.708278 0.518944 0.146578
0.742000 0.517845 0.120180
0.773404 0.516594 0.083497
0.802274 0.514000 0.059693
0.828763 0.509789 0.077211
0.854154 0.505241 0.089235
0.877623 0.500267 0.100160
0.899382 0.495277 0.112642
0.919799 0.490455 0.127138
0.939117 0.486183 0.142672
0.957549 0.482643 0.160037
0.975006 0.480262 0.179629
0.991424 0.479286 0.201999
1.000000 0.480293 0.227939
0.000000 0.511864 0.372869
0.000000 0.512779 0.372717
0.000000 0.513848 0.372320
0.000000 0.516045 0.370153
0.000000 0.519158 0.366461
0.000000 0.522728 0.360143
0.000000 0.526909 0.351202
0.000000 0.531273 0.338537
0.060395 0.535882 0.321416
0.178836 0.540154 0.298985
0.264317 0.543328 0.276310
0.352575 0.544244 0.274052
0.421851 0.545525 0.268772
0.480934 0.547082 0.256168
0.535698 0.548608 0.241489
0.587060 0.550134 0.225040
0.631586 0.548363 0.206149
0.671290 0.545281 0.185916
0.707393 0.542504 0.167971
0.741176 0.539971 0.147158
0.772519 0.537469 0.118898
0.801389 0.534691 0.078737
0.827420 0.530236 0.070680
0.851164 0.524834 0.089845
0.874754 0.519707 0.103731
0.896880 0.514305 0.116609
0.917632 0.509148 0.130739
0.937285 0.504448 0.146914
0.955932 0.500572 0.164279
0.973571 0.497719 0.184237
0.990143 0.496284 0.207340
1.000000 0.496895 0.233616
0.000000 0.541344 0.391913
0.000000 0.542229 0.392004
0.000000 0.543175 0.391730
0.000000 0.545159 0.390112
0.000000 0.547906 0.386175
0.000000 0.551080 0.380133
0.000000 0.554864 0.371557
0.000000 0.558892 0.359442
0.000000 0.563134 0.343603
0.138430 0.567193 0.322576
0.232731 0.570550 0.297887
0.326024 0.571496 0.287480
0.403815 0.571923 0.284062
0.467903 0.572839 0.274937
0.525048 0.573846 0.260990
0.578485 0.574945 0.245151
0.627527 0.575097 0.227726
0.668208 0.570794 0.208194
0.705653 0.566705 0.187778
0.739986 0.563104 0.170138
0.771878 0.559716 0.147677
0.801297 0.556054 0.117952
0.828061 0.552178 0.073976
0.851774 0.546197 0.086854
0.871031 0.538354 0.104921
0.893431 0.532860 0.120516
0.914580 0.527398 0.134646
0.934539 0.522454 0.150698
0.953491 0.518181 0.168399
0.971405 0.514855 0.188540
0.988342 0.513146 0.211795
1.000000 0.513329 0.238834
0.000000 0.575280 0.413886
0.000000 0.576226 0.414069
0.000000 0.577111 0.413764
0.000000 0.578271 0.412696
0.000000 0.580529 0.408667
0.000000 0.583215 0.402686
0.000000 0.586297 0.394018
0.000000 0.589563 0.382300
0.000000 0.593042 0.366552
0.071992 0.596185 0.346899
0.201144 0.598810 0.323430
0.294102 0.600153 0.302129
0.383032 0.599481 0.299260
0.453529 0.599115 0.294621
0.512963 0.599176 0.281102
0.567742 0.599237 0.265690
0.619074 0.599512 0.248814
0.663874 0.596704 0.230167
0.702052 0.591150 0.210208
0.737667 0.586297 0.188724
0.770047 0.581964 0.170901
0.799924 0.577417 0.147463
0.826993 0.572503 0.115694
0.851164 0.566857 0.083162
0.872282 0.559594 0.104280
0.891417 0.552422 0.123201
0.912596 0.546777 0.140291
0.932677 0.541283 0.155825
0.951690 0.536522 0.173831
0.969726 0.532799 0.194430
0.986816 0.530663 0.217929
1.000000 0.530419 0.245304
0.000000 0.604181 0.432044
0.000000 0.605127 0.432227
0.000000 0.605921 0.431922
0.000000 0.606958 0.430823
0.000000 0.608515 0.427924
0.000000 0.610956 0.422004
0.000000 0.613764 0.413733
0.000000 0.616785 0.402533
0.000000 0.620020 0.388006
0.000000 0.623194 0.369726
0.161288 0.625849 0.347906
0.262364 0.627680 0.324224
0.358373 0.627222 0.315740
0.436408 0.626490 0.312230
0.500755 0.626032 0.303166
0.557824 0.625849 0.288670
0.611109 0.625849 0.272404
0.661433 0.626062 0.254795
0.702541 0.620783 0.235264
0.738949 0.614405 0.214664
0.772244 0.608362 0.193637
0.802213 0.602564 0.174777
0.829465 0.596490 0.148989
0.853880 0.589960 0.115389
0.875486 0.582483 0.105470
0.894499 0.574487 0.126101
0.911711 0.566796 0.144686
0.931792 0.561242 0.163912
0.951019 0.556146 0.181827
0.969207 0.552117 0.202823
0.986328 0.549615 0.226841
1.000000 0.549065 0.254826
0.000000 0.633967 0.450752
0.000000 0.634699 0.450599
0.000000 0.635218 0.450111
0.000000 0.635981 0.448890
0.000000 0.636957 0.446693
0.000000 0.638758 0.441505
0.000000 0.641077 0.433326
0.000000 0.643793 0.422583
0.000000 0.646693 0.408942
0.000000 0.649592 0.391882
0.102571 0.652125 0.371435
0.231174 0.653956 0.349554
0.328771 0.654292 0.332860
0.416205 0.653132 0.329992
0.486641 0.652216 0.325261
0.546197 0.651881 0.311955
0.601343 0.651606 0.296483
0.653254 0.651575 0.279210
0.702205 0.651362 0.260410
0.739437 0.643519 0.240238
0.773465 0.636011 0.218967
0.804166 0.628595 0.197940
0.831510 0.621210 0.177462
0.856107 0.613581 0.150240
0.878264 0.605615 0.113588
0.897459 0.596918 0.130037
0.914733 0.588495 0.150149
0.930358 0.580499 0.168917
0.949187 0.575036 0.188937
0.967559 0.570733 0.209781
0.984802 0.567773 0.234226
1.000000 0.566796 0.262486
0.000000 0.661982 0.467659
0.000000 0.662470 0.467384
0.000000 0.662959 0.466926
0.000000 0.663691 0.465614
0.000000 0.664790 0.463661
0.000000 0.666377 0.460731
0.000000 0.669276 0.453376
0.000000 0.672572 0.443732
0.000000 0.676204 0.431250
0.000000 0.679957 0.415839
0.000000 0.683345 0.397711
0.198489 0.686030 0.378149
0.304143 0.687526 0.359930
0.399359 0.687007 0.354742
0.476417 0.686213 0.351415
0.540734 0.685573 0.343145
0.598077 0.685267 0.328069
0.651759 0.685023 0.311162
0.702907 0.685084 0.293095
0.747921 0.681849 0.272953
0.782345 0.672206 0.252384
0.813260 0.662623 0.230350
0.840482 0.652979 0.209476
0.864744 0.643488 0.186954
0.886656 0.633936 0.157717
0.906065 0.624262 0.141604
0.922972 0.614801 0.163516
0.938293 0.605982 0.183139
0.952148 0.597925 0.202335
0.969268 0.592828 0.224552
0.986175 0.589563 0.249302
1.000000 0.588190 0.278416
0.000000 0.696254 0.488594
0.000000 0.696681 0.488289
0.000000 0.696986 0.487648
0.000000 0.697505 0.486275
0.000000 0.698360 0.484138
0.000000 0.699580 0.481147
0.000000 0.701503 0.476020
0.000000 0.704189 0.466285
0.000000 0.707149 0.454047
0.000000 0.710140 0.439368
0.000000 0.712764 0.422126
0.150912 0.714839 0.403571
0.276646 0.715877 0.385840
0.375830 0.715358 0.376196
0.459541 0.714046 0.372930
0.528649 0.712978 0.368383
