其他预设/【212】创意蓝橙调色预设24款/1.3D LUT预设（视频调色-PR-AE-PS-FCPX-达芬奇用）/16.蓝橙色调__.cube
# Created by Adobe Lightroom plugin Export LUT (1.17.0)
# www.johnrellis.com/lightroom/exportlut.htm
# Preset: 16.蓝橙色调[素锦印象]
# Color profile: /Library/Application Support/Adobe/Color/Profiles/Recommended/AdobeRGB1998.icc
LUT_3D_SIZE 5
DOMAIN_MIN 0.000000 0.000000 0.000000
DOMAIN_MAX 0.903226 0.903226 0.903226
0.064881 0.064881 0.064881
0.294041 0.093172 0.033021
0.611200 0.173404 0.000000
0.868101 0.247135 0.000000
0.996460 0.277379 0.000000
0.000000 0.146120 0.121950
0.253696 0.173831 0.101106
0.592004 0.233036 0.000000
0.861326 0.294896 0.000000
0.995636 0.308568 0.000000
0.000000 0.288670 0.236179
0.000000 0.312963 0.216892
0.530510 0.353948 0.180117
0.844419 0.386481 0.000000
0.989746 0.392340 0.000000
0.000000 0.459358 0.371466
0.000000 0.479316 0.370947
0.408331 0.525597 0.303197
0.809323 0.540581 0.277226
0.976745 0.511345 0.230716
0.000000 0.728237 0.577783
0.000000 0.740383 0.574792
0.000000 0.778164 0.515099
0.783749 0.776577 0.484382
0.955261 0.701808 0.501518
0.000000 0.142611 0.189517
0.255161 0.137331 0.178897
0.583795 0.190524 0.112276
0.854978 0.271519 0.000000
0.993439 0.309514 0.000000
0.000000 0.208988 0.223972
0.217075 0.217075 0.217075
0.565759 0.241825 0.155917
0.850401 0.300511 0.000000
0.992218 0.332036 0.000000
0.000000 0.319005 0.292088
0.000000 0.347051 0.295232
0.507866 0.372412 0.264775
0.833463 0.396490 0.178531
0.987060 0.401556 0.099397
0.000000 0.483925 0.415839
0.000000 0.506065 0.419471
0.366339 0.550958 0.351843
0.800107 0.556725 0.342107
0.973205 0.525719 0.290867
0.000000 0.738857 0.608392
0.000000 0.750301 0.605188
0.000000 0.788937 0.558892
0.766964 0.784512 0.532128
0.949523 0.718349 0.544549
0.000000 0.282780 0.381048
0.000000 0.272435 0.388190
0.532525 0.252171 0.356115
0.841367 0.284276 0.270665
0.988128 0.343084 0.227970
0.000000 0.330999 0.402564
0.000000 0.322637 0.408545
0.512352 0.304814 0.375219
0.833463 0.326543 0.296696
0.987213 0.362524 0.240665
0.000000 0.426612 0.460304
0.000000 0.435828 0.463752
0.444404 0.444404 0.444404
0.810971 0.443153 0.373327
0.981109 0.436561 0.300877
0.000000 0.563622 0.549645
0.000000 0.575921 0.549157
0.113558 0.619654 0.538506
0.767819 0.615930 0.511315
0.961761 0.577173 0.440620
0.000000 0.774929 0.706691
0.000000 0.782773 0.701564
0.000000 0.808713 0.671290
0.704524 0.803250 0.646265
0.931334 0.762203 0.648829
0.000000 0.462470 0.626032
0.000000 0.464942 0.629236
0.241794 0.383734 0.636011
0.795895 0.437934 0.563378
0.960327 0.510735 0.531426
0.000000 0.496101 0.639033
0.000000 0.493721 0.641993
0.183413 0.428046 0.646967
0.786831 0.471473 0.578302
0.957733 0.528862 0.542870
0.000000 0.566186 0.673701
0.000000 0.571893 0.674434
0.000000 0.550256 0.678248
0.759152 0.567895 0.627039
0.952178 0.581598 0.574670
0.000000 0.663844 0.725124
0.000000 0.673304 0.722713
0.000000 0.683833 0.725582
0.703120 0.703029 0.703090
0.939818 0.673091 0.634180
0.000000 0.794156 0.810452
0.000000 0.802243 0.809384
0.000000 0.831693 0.803738
0.338415 0.855253 0.756405
0.905608 0.818540 0.766659
0.000000 0.613336 0.845945
0.000000 0.625177 0.844968
0.000000 0.596582 0.847745
0.732021 0.686671 0.833371
0.913054 0.736873 0.789517
0.000000 0.626184 0.848875
0.000000 0.636957 0.847898
0.000000 0.614374 0.850126
0.719570 0.694026 0.836362
0.911223 0.745449 0.794705
0.000000 0.658503 0.858610
0.000000 0.664210 0.857694
0.000000 0.665858 0.857603
0.642542 0.703273 0.847623
0.905852 0.771237 0.810544
0.000000 0.719509 0.874083
0.000000 0.724666 0.873442
0.000000 0.741512 0.870878
0.326085 0.732998 0.867399
0.895995 0.812497 0.836210
0.000000 0.790951 0.892607
0.000000 0.795895 0.892241
0.000000 0.814328 0.891020
0.000000 0.838437 0.889158
0.872557 0.872526 0.872557
