其他预设/【212】创意蓝橙调色预设24款/1.3D LUT预设（视频调色-PR-AE-PS-FCPX-达芬奇用）/16.蓝橙色调__.cube
# Created by Adobe Lightroom plugin Export LUT (1.17.0)
# www.johnrellis.com/lightroom/exportlut.htm
# Preset: 16.蓝橙色调[素锦印象]
# Color profile: /Library/Application Support/Adobe/Color/Profiles/Recommended/AdobeRGB1998.icc
LUT_3D_SIZE 32
0.064881 0.064881 0.064881
0.075319 0.065187 0.064546
0.091554 0.065553 0.063905
0.126772 0.067933 0.061860
0.170321 0.072847 0.059846
0.213107 0.078645 0.054871
0.254154 0.085389 0.046723
0.294041 0.093172 0.033021
0.334691 0.101564 0.016815
0.376471 0.110597 0.000000
0.419837 0.121431 0.000000
0.464942 0.132662 0.000000
0.511742 0.145357 0.000000
0.560357 0.158755 0.000000
0.611200 0.173404 0.000000
0.659876 0.187228 0.000000
0.704707 0.200046 0.000000
0.744839 0.211460 0.000000
0.780148 0.222049 0.000000
0.812345 0.231449 0.000000
0.841611 0.239750 0.000000
0.868101 0.247135 0.000000
0.891783 0.252934 0.000000
0.913115 0.258396 0.000000
0.932464 0.262791 0.000000
0.950256 0.266911 0.000000
0.966735 0.270573 0.000000
0.982116 0.274052 0.000000
0.996460 0.277379 0.000000
1.000000 0.281102 0.000000
1.000000 0.284886 0.000000
1.000000 0.289799 0.000000
0.064729 0.065309 0.065248
0.073274 0.067689 0.064363
0.090211 0.069245 0.063600
0.125277 0.073243 0.061433
0.168765 0.078340 0.059419
0.211398 0.084260 0.054871
0.252781 0.090517 0.045594
0.292882 0.097505 0.033112
0.333288 0.105531 0.015991
0.375097 0.115175 0.000000
0.418494 0.125277 0.000000
0.463600 0.136233 0.000000
0.510307 0.148592 0.000000
0.558831 0.161685 0.000000
0.609522 0.175723 0.000000
0.657893 0.189425 0.000000
0.702693 0.202335 0.000000
0.742916 0.213626 0.000000
0.778317 0.223911 0.000000
0.810697 0.232944 0.000000
0.840208 0.241001 0.000000
0.866850 0.248051 0.000000
0.890715 0.254002 0.000000
0.912200 0.259220 0.000000
0.931670 0.263828 0.000000
0.949584 0.267826 0.000000
0.966186 0.271244 0.000000
0.981628 0.274815 0.000000
0.996033 0.278264 0.000000
1.000000 0.281773 0.000000
1.000000 0.285649 0.000000
1.000000 0.290288 0.000000
0.063081 0.070893 0.068330
0.069764 0.072999 0.067170
0.087495 0.074830 0.066072
0.122988 0.079347 0.063539
0.166751 0.085206 0.059236
0.209354 0.090791 0.054597
0.250706 0.096773 0.046387
0.290898 0.103426 0.032868
0.331731 0.111086 0.015625
0.373449 0.120180 0.000000
0.416876 0.130129 0.000000
0.462165 0.140810 0.000000
0.508873 0.152346 0.000000
0.557427 0.165469 0.000000
0.607996 0.179202 0.000000
0.656458 0.192752 0.000000
0.701106 0.205081 0.000000
0.741482 0.216159 0.000000
0.777096 0.226383 0.000000
0.809659 0.235142 0.000000
0.839261 0.243137 0.000000
0.866087 0.250217 0.000000
0.890043 0.255955 0.000000
0.911650 0.260990 0.000000
0.931182 0.265415 0.000000
0.949157 0.269352 0.000000
0.965789 0.272801 0.000000
0.981292 0.276158 0.000000
0.995758 0.279393 0.000000
1.000000 0.282841 0.000000
1.000000 0.286717 0.000000
1.000000 0.291203 0.000000
0.058686 0.083406 0.076295
0.061067 0.086061 0.074983
0.081544 0.087160 0.074006
0.117678 0.091005 0.071534
0.161868 0.096162 0.066316
0.205295 0.102296 0.059205
0.247013 0.108980 0.044160
0.287633 0.115114 0.031647
0.328649 0.122072 0.013397
0.370855 0.129854 0.000000
0.414374 0.139101 0.000000
0.459602 0.149752 0.000000
0.506126 0.161288 0.000000
0.554620 0.173709 0.000000
0.605615 0.186618 0.000000
0.653925 0.199619 0.000000
0.698787 0.211398 0.000000
0.739223 0.222385 0.000000
0.775082 0.231815 0.000000
0.807645 0.240330 0.000000
0.837583 0.247837 0.000000
0.864591 0.254520 0.000000
0.888823 0.259983 0.000000
0.910674 0.264836 0.000000
0.930510 0.268986 0.000000
0.948699 0.272648 0.000000
0.965515 0.275944 0.000000
0.981079 0.279088 0.000000
0.995605 0.282261 0.000000
1.000000 0.285466 0.000000
1.000000 0.288975 0.000000
1.000000 0.293462 0.000000
0.047272 0.097963 0.085695
0.046082 0.100160 0.085512
0.067384 0.102388 0.084108
0.105287 0.104524 0.081605
0.151125 0.110475 0.078157
0.198398 0.115908 0.070161
0.241550 0.120851 0.060822
0.282750 0.127535 0.043122
0.324224 0.135012 0.017823
0.366186 0.144137 0.000000
0.409949 0.152560 0.000000
0.455238 0.162692 0.000000
0.502220 0.173373 0.000000
0.550835 0.185000 0.000000
0.601923 0.197971 0.000000
0.650477 0.209812 0.000000
0.695827 0.221256 0.000000
0.736812 0.231357 0.000000
0.773007 0.240238 0.000000
0.806027 0.248234 0.000000
0.836057 0.255467 0.000000
0.863340 0.261173 0.000000
0.887785 0.266423 0.000000
0.909789 0.270756 0.000000
0.929778 0.274632 0.000000
0.948119 0.277775 0.000000
0.964996 0.280949 0.000000
0.980652 0.283787 0.000000
0.995239 0.286534 0.000000
1.000000 0.289433 0.000000
1.000000 0.292699 0.000000
1.000000 0.296941 0.000000
0.028931 0.113100 0.096834
0.027436 0.115175 0.096651
0.041199 0.117220 0.095583
0.087343 0.120241 0.091402
0.134707 0.123476 0.088899
0.185245 0.130770 0.084291
0.233829 0.136355 0.074556
0.276646 0.140871 0.063813
0.318700 0.147097 0.046265
0.361395 0.154940 0.016785
0.405341 0.164248 0.000000
0.450874 0.174716 0.000000
0.497749 0.186313 0.000000
0.546563 0.198856 0.000000
0.598077 0.211215 0.000000
0.646937 0.222995 0.000000
0.692622 0.233707 0.000000
0.734035 0.243137 0.000000
0.770779 0.251469 0.000000
0.804257 0.258732 0.000000
0.834745 0.264897 0.000000
0.862333 0.270573 0.000000
0.892485 0.276829 0.000000
0.913939 0.280400 0.000000
0.933379 0.283726 0.000000
0.951202 0.286320 0.000000
0.967620 0.288670 0.000000
0.982879 0.291081 0.000000
0.997131 0.293462 0.000000
1.000000 0.295872 0.000000
1.000000 0.298924 0.000000
1.000000 0.302678 0.000000
0.006592 0.129305 0.108980
0.006806 0.130648 0.108858
0.005035 0.132998 0.108400
0.066773 0.136568 0.105562
0.117861 0.139864 0.100740
0.167636 0.144320 0.096407
0.220035 0.152346 0.092012
0.269413 0.158053 0.081086
0.313085 0.162631 0.069215
0.357061 0.169039 0.051667
0.401678 0.177188 0.018616
0.447761 0.186893 0.000000
0.495277 0.197391 0.000000
0.545068 0.209323 0.000000
0.597131 0.222721 0.000000
0.646204 0.235172 0.000000
0.691890 0.246921 0.000000
0.733547 0.257481 0.000000
0.770626 0.265263 0.000000
0.804501 0.271794 0.000000
0.835508 0.277653 0.000000
0.863676 0.282506 0.000000
0.888853 0.286534 0.000000
0.911376 0.289708 0.000000
0.931609 0.292485 0.000000
0.949920 0.294560 0.000000
0.966613 0.296666 0.000000
0.982055 0.298436 0.000000
0.996429 0.300328 0.000000
1.000000 0.302403 0.000000
1.000000 0.304997 0.000000
1.000000 0.308354 0.000000
0.000000 0.146120 0.121950
0.000000 0.147494 0.122194
0.000000 0.149508 0.122011
0.025483 0.153262 0.120394
0.093751 0.157595 0.113527
0.150515 0.160647 0.110231
0.201602 0.166018 0.105318
0.253696 0.173831 0.101106
0.303929 0.179782 0.089662
0.349096 0.184695 0.076783
0.394720 0.191409 0.062257
0.441382 0.199985 0.026886
0.489265 0.209537 0.000000
0.539879 0.220737 0.000000
0.592004 0.233036 0.000000
0.641352 0.244968 0.000000
0.687434 0.256107 0.000000
0.729549 0.266087 0.000000
0.767117 0.275090 0.000000
0.801389 0.283604 0.000000
0.832792 0.290898 0.000000
0.861326 0.294896 0.000000
0.886839 0.298283 0.000000
0.909636 0.300877 0.000000
0.930114 0.302892 0.000000
0.948638 0.304601 0.000000
0.965515 0.306035 0.000000
0.981170 0.307317 0.000000
0.995636 0.308568 0.000000
1.000000 0.310307 0.000000
1.000000 0.312413 0.000000
1.000000 0.315282 0.000000
0.000000 0.164645 0.136995
0.000000 0.165835 0.137057
0.000000 0.167605 0.136873
0.000000 0.171237 0.136019
0.067384 0.176120 0.131044
0.127901 0.179873 0.122286
0.184634 0.182895 0.120851
0.236362 0.188632 0.115541
0.288212 0.196384 0.111055
0.339757 0.202853 0.099428
0.386481 0.208194 0.085847
0.434028 0.215244 0.069917
0.482612 0.223941 0.038148
0.534173 0.234134 0.000000
0.586389 0.245701 0.000000
0.636103 0.256687 0.000000
0.682795 0.267155 0.000000
0.725582 0.276799 0.000000
0.763729 0.285069 0.000000
0.798550 0.292760 0.000000
0.830381 0.299962 0.000000
0.859220 0.306035 0.000000
0.884947 0.311681 0.000000
0.908019 0.313542 0.000000
0.928710 0.315068 0.000000
0.947417 0.316106 0.000000
0.964508 0.316686 0.000000
0.980285 0.317357 0.000000
0.994903 0.318181 0.000000
1.000000 0.319341 0.000000
1.000000 0.320867 0.000000
1.000000 0.323339 0.000000
0.000000 0.184268 0.152773
0.000000 0.185153 0.152682
0.000000 0.186801 0.152529
0.000000 0.190127 0.151980
0.001770 0.195193 0.148562
0.098787 0.199924 0.139406
0.165652 0.202670 0.135195
0.220157 0.206302 0.131106
0.271916 0.211795 0.125887
0.323796 0.219608 0.121706
0.376867 0.226871 0.109651
0.425391 0.232517 0.095308
0.474678 0.239780 0.078584
0.527092 0.249454 0.052155
0.580041 0.260075 0.000000
0.630671 0.270329 0.000000
0.678248 0.280064 0.000000
0.721767 0.288975 0.000000
0.760525 0.296727 0.000000
0.795895 0.303716 0.000000
0.828092 0.310338 0.000000
0.857084 0.315923 0.000000
0.882963 0.321050 0.000000
0.906065 0.325383 0.000000
0.926940 0.328099 0.000000
0.945892 0.328435 0.000000
0.963226 0.328557 0.000000
0.979217 0.328710 0.000000
0.994049 0.328923 0.000000
1.000000 0.329503 0.000000
1.000000 0.330510 0.000000
1.000000 0.332311 0.000000
0.000000 0.204166 0.168795
0.000000 0.205081 0.168704
0.000000 0.206455 0.168704
0.000000 0.209445 0.168490
0.000000 0.214664 0.165866
0.061860 0.219913 0.158633
0.134432 0.224063 0.145968
0.202457 0.226383 0.146639
0.256748 0.230014 0.140475
0.308385 0.235752 0.137087
0.360784 0.243809 0.133242
0.415473 0.251774 0.120851
0.466468 0.258213 0.105501
0.519219 0.266606 0.087373
0.572808 0.276036 0.062348
0.624018 0.285588 0.000000
0.672328 0.294285 0.000000
0.716609 0.302678 0.000000
0.756252 0.309667 0.000000
0.792325 0.316075 0.000000
0.825101 0.321996 0.000000
0.854612 0.327001 0.000000
0.880949 0.331640 0.000000
0.904387 0.335393 0.000000
0.925444 0.338994 0.000000
0.944549 0.341863 0.000000
0.962036 0.341680 0.000000
0.978180 0.341100 0.000000
0.993164 0.340673 0.000000
1.000000 0.340581 0.000000
1.000000 0.341039 0.000000
1.000000 0.342412 0.000000
0.000000 0.224857 0.185367
0.000000 0.225772 0.185275
0.000000 0.226993 0.185153
0.000000 0.229587 0.185336
0.000000 0.234562 0.183261
0.000000 0.240055 0.177737
0.099062 0.245121 0.166598
0.177096 0.247776 0.158572
0.240055 0.250584 0.157290
0.294316 0.254337 0.149752
0.345922 0.260410 0.148898
0.399298 0.269169 0.144717
0.461555 0.280919 0.132937
0.516320 0.288609 0.116579
0.571496 0.297276 0.097108
0.624048 0.305821 0.071412
0.673030 0.313756 0.010132
0.717800 0.320836 0.000000
0.757565 0.326848 0.000000
0.793759 0.332097 0.000000
0.826444 0.337011 0.000000
0.855711 0.341222 0.000000
0.881743 0.344793 0.000000
0.904997 0.347967 0.000000
0.925902 0.350652 0.000000
0.944884 0.353002 0.000000
0.962280 0.355108 0.000000
0.978332 0.355138 0.000000
0.993225 0.354009 0.000000
1.000000 0.353307 0.000000
1.000000 0.353094 0.000000
1.000000 0.353796 0.000000
0.000000 0.246647 0.202731
0.000000 0.247379 0.202579
0.000000 0.248386 0.202579
0.000000 0.250706 0.202426
0.000000 0.255131 0.201022
0.000000 0.260563 0.196780
0.030030 0.266239 0.187564
0.138186 0.270512 0.173068
0.218601 0.272343 0.173037
0.278264 0.275547 0.168582
0.333318 0.279698 0.159548
0.385718 0.286900 0.160983
0.443061 0.297551 0.157229
0.504479 0.308293 0.144106
0.560723 0.316197 0.126436
0.614649 0.324010 0.107027
0.664820 0.331060 0.083345
0.710719 0.337346 0.043824
0.751675 0.342657 0.000000
0.788785 0.347326 0.000000
0.822263 0.351385 0.000000
0.852232 0.354833 0.000000
0.878782 0.358038 0.000000
0.902464 0.360388 0.000000
0.923735 0.362402 0.000000
0.943023 0.364294 0.000000
0.960662 0.365850 0.000000
0.976928 0.367468 0.000000
0.992035 0.367529 0.000000
1.000000 0.366186 0.000000
1.000000 0.365362 0.000000
1.000000 0.365515 0.000000
0.000000 0.267491 0.219425
0.000000 0.268223 0.219272
0.000000 0.269200 0.219272
0.000000 0.271275 0.219242
0.000000 0.275151 0.218418
0.000000 0.280797 0.215122
0.000000 0.286656 0.207706
0.093538 0.291905 0.195163
0.182437 0.294926 0.181521
0.257969 0.297002 0.184543
0.316533 0.300511 0.179477
0.372564 0.305608 0.171267
0.427558 0.314611 0.173678
0.486275 0.325505 0.168887
0.548730 0.336492 0.155123
0.604578 0.343755 0.136965
0.655818 0.349889 0.117800
0.702785 0.355505 0.095857
0.745083 0.359899 0.068940
0.783261 0.363867 0.005829
0.817746 0.367193 0.000000
0.848508 0.370062 0.000000
0.875700 0.372320 0.000000
0.899901 0.374029 0.000000
0.921538 0.375616 0.000000
0.941131 0.376867 0.000000
0.959045 0.377966 0.000000
0.975525 0.378973 0.000000
0.990845 0.380011 0.000000
1.000000 0.379919 0.000000
1.000000 0.378576 0.000000
1.000000 0.378058 0.000000
0.000000 0.288670 0.236179
0.000000 0.289342 0.236210
0.000000 0.290166 0.236210
0.000000 0.292119 0.236088
0.000000 0.295476 0.235721
0.000000 0.301061 0.233066
0.000000 0.307164 0.227543
0.000000 0.312963 0.216892
0.138979 0.317540 0.200992
0.229618 0.319432 0.196750
0.297581 0.322362 0.195834
0.356451 0.326787 0.190158
0.413764 0.333165 0.185000
0.470344 0.342657 0.185733
0.530510 0.353948 0.180117
0.592462 0.364263 0.165896
0.646021 0.370367 0.148043
0.694362 0.374945 0.129610
0.737972 0.378637 0.109865
0.777371 0.381933 0.088075
0.812802 0.384497 0.060609
0.844419 0.386481 0.000000
0.872282 0.388006 0.000000
0.897032 0.389075 0.000000
0.919097 0.389990 0.000000
0.939086 0.390661 0.000000
0.957366 0.391241 0.000000
0.974151 0.391882 0.000000
0.989746 0.392340 0.000000
1.000000 0.392828 0.000000
1.000000 0.392645 0.000000
1.000000 0.391577 0.000000
0.000000 0.310155 0.253330
0.000000 0.310765 0.253361
0.000000 0.311620 0.253422
0.000000 0.313481 0.253239
0.000000 0.316258 0.253208
0.000000 0.321813 0.251377
0.000000 0.328008 0.247013
0.000000 0.334325 0.238560
0.083833 0.339849 0.224735
0.184665 0.343481 0.207584
0.274022 0.345312 0.212284
0.338994 0.349462 0.208408
0.398077 0.354223 0.201450
0.455756 0.361181 0.198032
0.513848 0.370977 0.197177
0.574487 0.382025 0.190829
0.633631 0.390845 0.177249
0.684871 0.395697 0.159762
0.730251 0.398810 0.142367
0.771115 0.401373 0.125246
0.807706 0.403143 0.106935
0.840330 0.404486 0.087434
0.868986 0.405371 0.064057
0.894316 0.405676 0.013764
0.916899 0.405768 0.000000
0.937255 0.405829 0.000000
0.955779 0.405829 0.000000
0.972808 0.405859 0.000000
0.988525 0.405921 0.000000
1.000000 0.406073 0.000000
1.000000 0.406104 0.000000
1.000000 0.405585 0.000000
0.000000 0.331975 0.270787
0.000000 0.332494 0.270756
0.000000 0.333196 0.270665
0.000000 0.335027 0.270573
0.000000 0.337621 0.270451
0.000000 0.342565 0.269566
0.000000 0.348791 0.266056
0.000000 0.355261 0.259434
0.000000 0.361456 0.248173
0.138766 0.366278 0.231418
0.237003 0.369574 0.221592
0.316991 0.372564 0.225376
0.380468 0.376654 0.220523
0.440131 0.381750 0.212406
0.498634 0.389624 0.210178
0.557977 0.399756 0.208286
0.616632 0.409277 0.202274
0.672877 0.416510 0.189242
0.721645 0.420050 0.172580
0.763943 0.421881 0.156680
0.801785 0.423072 0.140932
0.835355 0.423621 0.125795
0.864866 0.423529 0.110872
0.890867 0.423285 0.095552
0.914000 0.422675 0.079713
0.934783 0.422065 0.061585
0.953704 0.421424 0.021393
0.971008 0.420996 0.000000
0.986999 0.420539 0.000000
1.000000 0.420203 0.000000
1.000000 0.419989 0.000000
1.000000 0.419715 0.000000
0.000000 0.354101 0.288396
0.000000 0.354681 0.288457
0.000000 0.356909 0.289525
0.000000 0.358434 0.289464
0.000000 0.361120 0.289464
0.000000 0.365209 0.288914
0.000000 0.371435 0.286351
0.000000 0.377935 0.280858
0.000000 0.384436 0.271519
0.070863 0.391180 0.257908
0.189853 0.396429 0.239902
0.288457 0.398962 0.239353
0.361883 0.402533 0.239017
0.425086 0.406775 0.233921
0.486610 0.412787 0.223484
0.546410 0.421332 0.223484
0.605127 0.430457 0.220798
0.661097 0.438331 0.214817
0.713405 0.443336 0.202792
0.758206 0.445075 0.187350
0.797055 0.445258 0.172915
0.831418 0.444770 0.159335
0.861601 0.443885 0.146426
0.888090 0.442542 0.134859
0.911528 0.441169 0.122927
0.932555 0.439704 0.112428
0.951629 0.438392 0.101778
0.969116 0.437171 0.091371
0.985260 0.436194 0.081270
1.000000 0.435492 0.070893
1.000000 0.434852 0.061128
1.000000 0.434302 0.049104
0.000000 0.377630 0.307225
0.000000 0.378332 0.307286
0.000000 0.379217 0.307378
0.000000 0.381018 0.307530
0.000000 0.383612 0.307561
0.000000 0.387030 0.307652
0.000000 0.393256 0.305638
0.000000 0.400031 0.301427
0.000000 0.407660 0.294285
0.000000 0.415076 0.283177
0.137881 0.421302 0.266270
0.241154 0.425391 0.248692
0.336492 0.427710 0.256138
0.406134 0.431739 0.251591
0.469459 0.436225 0.244907
0.533013 0.443214 0.233707
0.591913 0.451209 0.235416
0.648341 0.458717 0.232731
0.701289 0.464668 0.227573
0.748623 0.467597 0.216373
0.789700 0.467414 0.202365
0.825406 0.466316 0.189609
0.856657 0.464668 0.177676
0.884001 0.462623 0.167025
0.908080 0.460395 0.157748
0.929625 0.458198 0.148470
0.949126 0.456245 0.140688
0.966949 0.454505 0.133486
0.983337 0.453071 0.127291
0.998474 0.451881 0.122255
1.000000 0.450935 0.118013
1.000000 0.450202 0.115724
0.000000 0.402014 0.326360
0.000000 0.402747 0.326574
0.000000 0.403662 0.326665
0.000000 0.405371 0.326848
0.000000 0.407843 0.326940
0.000000 0.411170 0.326970
0.000000 0.416754 0.326146
0.000000 0.424475 0.323339
0.000000 0.432471 0.317723
0.000000 0.440253 0.308080
0.020935 0.447303 0.293614
0.191836 0.452888 0.273960
0.298375 0.455787 0.266300
0.383673 0.458900 0.269718
0.452674 0.463172 0.264134
0.517418 0.468452 0.256046
0.581353 0.475044 0.244724
0.637781 0.481514 0.248417
0.691493 0.487190 0.245975
0.739528 0.490608 0.241520
0.781857 0.491035 0.231998
0.818845 0.489113 0.219364
0.851255 0.486702 0.207919
0.879484 0.483894 0.197940
0.904295 0.480934 0.189212
0.926390 0.477913 0.181033
0.946319 0.475257 0.174289
0.964477 0.472969 0.168246
0.981140 0.470985 0.163729
0.996460 0.469368 0.160006
1.000000 0.468055 0.157900
1.000000 0.467109 0.157351
0.000000 0.428840 0.347631
0.000000 0.429541 0.347784
0.000000 0.430518 0.347967
0.000000 0.432319 0.348211
0.000000 0.434852 0.348455
0.000000 0.438270 0.348577
0.000000 0.443061 0.348333
0.000000 0.450629 0.346502
0.000000 0.458717 0.341741
0.000000 0.466865 0.333745
0.000000 0.474403 0.320958
0.129366 0.481178 0.303136
0.244327 0.486152 0.280644
0.352758 0.488624 0.283940
0.432776 0.492470 0.283024
0.502403 0.497200 0.276982
0.568200 0.502647 0.267430
0.629664 0.507622 0.259953
0.684047 0.512383 0.263310
0.733242 0.515435 0.261570
0.776242 0.516350 0.258305
0.813840 0.514611 0.250492
0.846586 0.510887 0.238956
0.875761 0.507195 0.229435
0.901274 0.503502 0.220798
0.923888 0.499886 0.213596
0.944182 0.496437 0.207645
0.962646 0.493477 0.202518
0.979522 0.490974 0.198917
0.994965 0.488899 0.196201
1.000000 0.487251 0.195315
1.000000 0.486091 0.195926
0.000000 0.459358 0.371466
0.000000 0.459968 0.371557
0.000000 0.460792 0.371649
0.000000 0.462348 0.371771
0.000000 0.464820 0.371984
0.000000 0.468116 0.372107
0.000000 0.472206 0.372290
0.000000 0.479316 0.370947
0.000000 0.487678 0.367376
0.000000 0.496162 0.360540
0.000000 0.504631 0.350011
0.000000 0.512383 0.334020
0.190616 0.518944 0.312230
0.306310 0.522820 0.295720
0.408331 0.525597 0.303197
0.485939 0.529808 0.298009
0.555779 0.534234 0.291417
0.620600 0.538048 0.281132
0.678553 0.540795 0.276890
0.728115 0.542351 0.280308
0.771695 0.542290 0.279484
0.809323 0.540581 0.277226
0.841917 0.536522 0.270176
0.870329 0.530999 0.259800
0.896574 0.526360 0.251530
0.919860 0.521965 0.244450
0.940703 0.517967 0.238621
0.959533 0.514366 0.234073
0.976745 0.511345 0.230716
0.992432 0.508782 0.228824
1.000000 0.506920 0.228855
1.000000 0.505608 0.230625
0.000000 0.490883 0.396216
0.000000 0.491524 0.396338
0.000000 0.492470 0.396460
0.000000 0.494087 0.396643
0.000000 0.496498 0.396796
0.000000 0.499733 0.396979
0.000000 0.503593 0.397101
0.000000 0.509483 0.396674
0.000000 0.517998 0.393744
0.000000 0.526970 0.388373
0.000000 0.535973 0.379217
0.000000 0.544396 0.365270
0.106752 0.551843 0.345403
0.248295 0.557519 0.320073
0.369146 0.560174 0.316075
0.463203 0.563073 0.319493
0.539513 0.567041 0.313359
0.609491 0.571252 0.306798
0.671534 0.572381 0.295933
0.723842 0.571710 0.295659
0.767910 0.570306 0.299413
0.806210 0.567529 0.299840
0.838926 0.563653 0.298558
0.867063 0.557885 0.292576
0.891081 0.550164 0.282231
0.915099 0.545068 0.274907
0.936522 0.540337 0.269413
0.955840 0.536187 0.265141
0.973419 0.532647 0.262333
0.989410 0.529747 0.261173
1.000000 0.527581 0.261448
1.000000 0.526268 0.264286
0.000000 0.526757 0.423987
0.000000 0.527459 0.424170
0.000000 0.528283 0.424262
0.000000 0.529839 0.424384
0.000000 0.532128 0.424628
0.000000 0.535241 0.424689
0.000000 0.539178 0.424842
0.000000 0.543877 0.424933
0.000000 0.551843 0.422766
0.000000 0.560723 0.417914
0.000000 0.569726 0.409705
0.000000 0.578241 0.397406
0.000000 0.586114 0.379309
0.183627 0.592554 0.355261
0.309636 0.596796 0.329229
0.430915 0.598108 0.337407
0.518456 0.600916 0.336797
0.593957 0.604486 0.330266
0.662135 0.606897 0.322637
0.718654 0.603998 0.313024
0.764584 0.600061 0.316625
0.803250 0.596002 0.321141
0.836362 0.590936 0.322179
0.864408 0.585138 0.321630
0.888670 0.577935 0.316594
0.910216 0.569696 0.307286
0.932219 0.564172 0.301396
0.951965 0.559411 0.297185
0.969848 0.555291 0.294774
0.986114 0.552026 0.293706
1.000000 0.549676 0.295171
1.000000 0.548302 0.298619
0.000000 0.563500 0.452491
0.000000 0.564263 0.452705
0.000000 0.565087 0.452857
0.000000 0.566613 0.452979
0.000000 0.568811 0.452949
0.000000 0.571862 0.453040
0.000000 0.575616 0.453010
0.000000 0.580163 0.453040
0.000000 0.586481 0.452308
0.000000 0.595453 0.448035
0.000000 0.604486 0.440986
0.000000 0.613245 0.429816
0.000000 0.621546 0.413947
0.057069 0.628656 0.392065
0.252354 0.634028 0.365240
0.384558 0.636133 0.353765
0.493019 0.637507 0.362158
0.575891 0.640253 0.356970
0.649928 0.643091 0.350652
0.713222 0.641779 0.343053
0.762997 0.634394 0.334691
0.802396 0.627649 0.342107
0.835508 0.620996 0.346838
0.863645 0.614008 0.348547
0.887724 0.606928 0.348730
0.908843 0.598901 0.344488
0.927703 0.589624 0.335241
0.947875 0.584192 0.331151
0.966125 0.579706 0.328923
0.982635 0.576104 0.328557
0.997498 0.573602 0.330663
1.000000 0.572290 0.335149
0.000000 0.602686 0.482643
0.000000 0.603326 0.482795
0.000000 0.604120 0.482856
0.000000 0.605432 0.482918
0.000000 0.607507 0.482612
0.000000 0.610254 0.482582
0.000000 0.613703 0.482368
0.000000 0.618006 0.482155
0.000000 0.623194 0.481971
0.000000 0.631281 0.479042
0.000000 0.640284 0.472480
0.000000 0.649226 0.462745
0.000000 0.657649 0.448402
0.000000 0.665217 0.428626
0.175998 0.671138 0.403662
0.323125 0.674708 0.377539
0.455299 0.674861 0.381231
0.552728 0.675715 0.386175
0.631952 0.677638 0.380468
0.703426 0.679561 0.374426
0.759030 0.672816 0.366705
0.802121 0.661860 0.359960
0.835080 0.652949 0.370794
0.863157 0.644465 0.376074
0.887266 0.636316 0.378241
0.908049 0.628504 0.379004
0.926574 0.620020 0.375219
0.943297 0.610193 0.366461
0.961578 0.604883 0.363867
0.978393 0.601038 0.363989
0.993469 0.598383 0.366430
1.000000 0.597223 0.372015
0.000000 0.642908 0.513329
0.000000 0.643488 0.513298
0.000000 0.644129 0.513481
0.000000 0.645441 0.513359
0.000000 0.647486 0.513298
0.000000 0.650324 0.513176
0.000000 0.653925 0.513085
0.000000 0.658412 0.512932
0.000000 0.663783 0.512993
0.000000 0.670344 0.512139
0.000000 0.679652 0.506645
0.000000 0.688716 0.497749
0.000000 0.697139 0.484779
0.000000 0.704646 0.466896
0.000000 0.710750 0.443915
0.265141 0.714595 0.418555
0.407538 0.715267 0.405676
0.525902 0.714260 0.416022
0.613642 0.714748 0.416876
0.688594 0.715633 0.411414
0.756710 0.716518 0.406134
0.801938 0.703212 0.399268
0.837644 0.689387 0.396094
0.865049 0.678920 0.407233
0.888640 0.669490 0.413092
0.909148 0.660792 0.415778
0.927092 0.652583 0.416510
0.943206 0.643854 0.413519
0.958007 0.633783 0.404883
0.974273 0.628870 0.404150
0.989380 0.626246 0.407538
1.000000 0.625330 0.414252
0.000000 0.687098 0.546929
0.000000 0.687617 0.546990
0.000000 0.688167 0.546929
0.000000 0.689296 0.546715
0.000000 0.691066 0.546349
0.000000 0.693477 0.545892
0.000000 0.696651 0.545556
0.000000 0.700557 0.544945
0.000000 0.705135 0.544274
0.000000 0.710475 0.543511
0.000000 0.717678 0.539574
0.000000 0.725948 0.530877
0.000000 0.733700 0.518639
0.000000 0.740597 0.502190
0.000000 0.746304 0.481239
0.184665 0.750149 0.457588
