其他预设/【212】创意蓝橙调色预设24款/1.3D LUT预设（视频调色-PR-AE-PS-FCPX-达芬奇用）/16.蓝橙色调__.cube
# Created by Adobe Lightroom plugin Export LUT (1.17.0)
# www.johnrellis.com/lightroom/exportlut.htm
# Preset: 16.蓝橙色调[素锦印象]
# Color profile: /Library/Application Support/Adobe/Color/Profiles/Recommended/AdobeRGB1998.icc
LUT_3D_SIZE 8
DOMAIN_MIN 0.000000 0.000000 0.000000
DOMAIN_MAX 0.903226 0.903226 0.903226
0.064881 0.064881 0.064881
0.170321 0.072847 0.059846
0.334691 0.101564 0.016815
0.511742 0.145357 0.000000
0.704707 0.200046 0.000000
0.841611 0.239750 0.000000
0.932464 0.262791 0.000000
0.996460 0.277379 0.000000
0.047272 0.097963 0.085695
0.151125 0.110475 0.078157
0.324224 0.135012 0.017823
0.502220 0.173373 0.000000
0.695827 0.221256 0.000000
0.836057 0.255467 0.000000
0.929778 0.274632 0.000000
0.995239 0.286534 0.000000
0.000000 0.164645 0.136995
0.067384 0.176120 0.131044
0.288212 0.196384 0.111055
0.482612 0.223941 0.038148
0.682795 0.267155 0.000000
0.830381 0.299962 0.000000
0.928710 0.315068 0.000000
0.994903 0.318181 0.000000
0.000000 0.246647 0.202731
0.000000 0.255131 0.201022
0.218601 0.272343 0.173037
0.443061 0.297551 0.157229
0.664820 0.331060 0.083345
0.822263 0.351385 0.000000
0.923735 0.362402 0.000000
0.992035 0.367529 0.000000
0.000000 0.331975 0.270787
0.000000 0.337621 0.270451
0.000000 0.361456 0.248173
0.380468 0.376654 0.220523
0.616632 0.409277 0.202274
0.801785 0.423072 0.140932
0.914000 0.422675 0.079713
0.986999 0.420539 0.000000
0.000000 0.428840 0.347631
0.000000 0.434852 0.348455
0.000000 0.458717 0.341741
0.244327 0.486152 0.280644
0.568200 0.502647 0.267430
0.776242 0.516350 0.258305
0.901274 0.503502 0.220798
0.979522 0.490974 0.198917
0.000000 0.563500 0.452491
0.000000 0.568811 0.452949
0.000000 0.586481 0.452308
0.000000 0.621546 0.413947
0.493019 0.637507 0.362158
0.762997 0.634394 0.334691
0.887724 0.606928 0.348730
0.966125 0.579706 0.328923
0.000000 0.728237 0.577783
0.000000 0.731807 0.576928
0.000000 0.744533 0.573785
0.000000 0.769467 0.551598
0.291936 0.783597 0.473640
0.719753 0.777035 0.488136
0.889525 0.736904 0.479866
0.955261 0.701808 0.501518
0.018799 0.095338 0.119142
0.152651 0.095644 0.114687
0.318120 0.117830 0.085847
0.493172 0.165255 0.030823
0.688716 0.219791 0.000000
0.831754 0.262425 0.000000
0.927825 0.281956 0.000000
0.994354 0.288609 0.000000
0.000000 0.125887 0.136782
0.133028 0.133028 0.133028
0.306706 0.144533 0.107485
0.487739 0.180026 0.061707
0.683864 0.230137 0.000000
0.828763 0.270298 0.000000
0.925750 0.292302 0.000000
0.993103 0.296910 0.000000
0.000000 0.182803 0.168551
0.056275 0.197452 0.172915
0.276799 0.209537 0.158846
0.470466 0.228244 0.114290
0.671595 0.267124 0.000000
0.823514 0.299565 0.000000
0.923949 0.321263 0.000000
0.992523 0.326696 0.000000
0.000000 0.259190 0.225284
0.000000 0.269871 0.226658
0.205295 0.285466 0.198947
0.433448 0.303777 0.191348
0.650782 0.331304 0.132876
0.813169 0.351598 0.017945
0.918914 0.363195 0.000000
0.989715 0.370062 0.000000
0.000000 0.342596 0.289158
0.000000 0.348333 0.289067
0.000000 0.371099 0.271702
0.374792 0.384314 0.243259
0.607782 0.411994 0.227665
0.795468 0.425147 0.172732
0.910796 0.425208 0.123171
0.985199 0.423011 0.075959
0.000000 0.436896 0.362127
0.000000 0.441901 0.362493
0.000000 0.465064 0.357000
0.231022 0.491981 0.303227
0.563317 0.507652 0.286992
0.772366 0.520317 0.279484
0.898802 0.507225 0.242283
0.977905 0.494270 0.218570
0.000000 0.567285 0.462928
0.000000 0.571649 0.462684
0.000000 0.589441 0.462409
0.000000 0.624598 0.429114
0.482155 0.641382 0.375067
0.758846 0.637842 0.350744
0.884428 0.610285 0.363775
0.963989 0.583001 0.342290
0.000000 0.729580 0.585504
0.000000 0.733333 0.584985
0.000000 0.746090 0.581994
0.000000 0.770871 0.561883
0.274510 0.787930 0.489143
0.715053 0.779751 0.503136
0.887266 0.740414 0.491829
0.953216 0.705776 0.512810
0.000000 0.160555 0.215000
0.000000 0.158480 0.216922
0.290135 0.152743 0.201785
0.479500 0.163912 0.156283
0.678065 0.216983 0.120546
0.825254 0.264408 0.068849
0.925414 0.294896 0.000000
0.993744 0.313939 0.000000
0.000000 0.188205 0.226108
0.000000 0.185733 0.228977
0.278325 0.180758 0.212650
0.470375 0.187808 0.171420
0.670558 0.231724 0.135866
0.822141 0.273716 0.084260
0.923766 0.301823 0.000000
0.992889 0.319554 0.000000
0.000000 0.237339 0.254246
0.000000 0.241459 0.255741
0.246250 0.246250 0.246250
0.449195 0.249668 0.212680
0.657740 0.277317 0.173648
0.816770 0.306889 0.124819
0.921080 0.327825 0.040589
0.991363 0.340734 0.000000
0.000000 0.296117 0.287877
0.000000 0.303746 0.290349
0.126772 0.323583 0.286015
0.414038 0.330938 0.273320
0.635828 0.346990 0.228122
0.806119 0.363439 0.182101
0.916106 0.373846 0.136477
0.988495 0.379095 0.077455
0.000000 0.367193 0.335851
0.000000 0.374945 0.338567
0.000000 0.401831 0.340887
0.350652 0.413916 0.311986
0.594659 0.432898 0.302647
0.787106 0.440528 0.255161
0.906798 0.438483 0.215030
0.983185 0.434730 0.182132
0.000000 0.460304 0.405158
0.000000 0.466712 0.407111
0.000000 0.491798 0.410040
0.168887 0.518853 0.376562
0.549859 0.530632 0.350774
0.761440 0.537224 0.345129
0.892882 0.523033 0.307988
0.974975 0.509056 0.281315
0.000000 0.588769 0.503471
0.000000 0.593469 0.504051
0.000000 0.610315 0.504387
0.000000 0.643183 0.482490
0.437018 0.660090 0.419379
0.749111 0.655848 0.408057
0.877836 0.628473 0.421546
0.960204 0.601709 0.397314
0.000000 0.740993 0.617365
0.000000 0.743496 0.615625
0.000000 0.755245 0.612024
0.000000 0.779080 0.598016
0.178042 0.797116 0.534508
0.696529 0.786954 0.549340
0.880308 0.753933 0.532799
0.947356 0.722499 0.555657
0.000000 0.239017 0.322301
0.000000 0.242435 0.324498
0.141390 0.206088 0.329290
0.445106 0.218479 0.301183
0.659388 0.211398 0.241642
0.816312 0.265354 0.212528
0.919799 0.304967 0.185672
0.990814 0.325719 0.142611
0.000000 0.263218 0.331151
0.000000 0.260258 0.334539
0.121645 0.229770 0.336858
0.438392 0.237888 0.308507
0.653651 0.231846 0.251377
0.813077 0.278355 0.221927
0.918303 0.313695 0.193668
0.990326 0.331334 0.147280
0.000000 0.302434 0.351965
0.000000 0.302953 0.354955
0.044984 0.294499 0.356970
0.415320 0.292454 0.331304
0.635950 0.291630 0.283665
0.805631 0.322545 0.253696
0.916594 0.345251 0.221012
0.989563 0.354559 0.173251
0.000000 0.359472 0.387091
0.000000 0.363287 0.387152
0.000000 0.369268 0.390387
0.374640 0.374640 0.374640
0.606744 0.374487 0.335821
0.791165 0.386389 0.298192
0.909667 0.394324 0.260166
0.985840 0.396185 0.219181
0.000000 0.423774 0.424628
0.000000 0.428107 0.423987
0.000000 0.444434 0.430396
0.243931 0.465492 0.419196
0.567193 0.469276 0.404517
0.771939 0.470039 0.360510
0.899840 0.464698 0.320317
0.979706 0.456519 0.283268
0.000000 0.506188 0.480934
0.000000 0.511376 0.481849
0.000000 0.530755 0.487190
0.000000 0.561517 0.482094
0.510765 0.569390 0.448707
0.743954 0.570794 0.443427
0.883543 0.554131 0.403265
0.969665 0.536278 0.368780
0.000000 0.621332 0.567132
0.000000 0.626123 0.567956
0.000000 0.641596 0.569116
0.000000 0.672572 0.562890
0.330419 0.692836 0.509453
0.727840 0.689174 0.502739
0.864805 0.660731 0.509697
0.952270 0.634180 0.479896
0.000000 0.763394 0.673945
0.000000 0.766018 0.672450
0.000000 0.773892 0.665675
0.000000 0.790402 0.652918
0.000000 0.811551 0.605707
0.658595 0.798672 0.609766
0.866270 0.776730 0.598383
0.937438 0.748623 0.617731
0.000000 0.329107 0.443061
0.000000 0.334325 0.443366
0.000000 0.315557 0.451179
0.349340 0.298497 0.449073
0.619562 0.288975 0.412268
0.801328 0.278782 0.341466
0.911070 0.338109 0.325231
0.983886 0.371649 0.308537
0.000000 0.347051 0.449836
0.000000 0.347723 0.452033
0.000000 0.330999 0.457984
0.336767 0.307256 0.454871
0.614160 0.304082 0.417334
0.798459 0.294530 0.349065
0.909819 0.348241 0.331548
0.983398 0.377691 0.312413
0.000000 0.384253 0.468086
0.000000 0.383856 0.471168
0.000000 0.375006 0.476448
0.267002 0.336065 0.473396
0.596002 0.351446 0.434974
0.787442 0.344305 0.373449
0.905180 0.380682 0.351843
0.981811 0.396796 0.322942
0.000000 0.432685 0.497261
0.000000 0.435889 0.498268
0.000000 0.436378 0.504295
0.186740 0.424689 0.502831
0.566186 0.425116 0.468574
0.771359 0.419562 0.416663
0.898985 0.432166 0.383948
0.980835 0.426093 0.335454
0.000000 0.498543 0.538964
0.000000 0.502373 0.537865
0.000000 0.508873 0.541711
0.000000 0.513878 0.541039
0.518730 0.518730 0.518730
0.748440 0.510094 0.473793
0.888945 0.501030 0.429816
0.974517 0.486305 0.382788
0.000000 0.571527 0.584436
0.000000 0.574945 0.583734
0.000000 0.585931 0.585351
0.000000 0.602991 0.587732
0.357946 0.620722 0.563806
0.713222 0.615320 0.553857
0.869200 0.598871 0.512291
0.961639 0.575525 0.468055
0.000000 0.670130 0.655573
0.000000 0.673121 0.654902
0.000000 0.683497 0.652338
0.000000 0.705440 0.653101
0.000000 0.725338 0.625208
0.671138 0.717281 0.605951
0.845212 0.700679 0.605371
0.941100 0.675746 0.571405
0.000000 0.784909 0.739834
0.000000 0.787533 0.739010
0.000000 0.796902 0.735409
0.000000 0.809689 0.723415
0.000000 0.825956 0.691096
0.538079 0.820371 0.652399
0.842649 0.804776 0.673823
0.924743 0.777859 0.682795
0.000000 0.435889 0.589075
0.000000 0.441718 0.588678
0.000000 0.431739 0.595270
0.000000 0.386389 0.600305
0.547784 0.408087 0.589197
0.767880 0.399939 0.531731
0.893645 0.413886 0.478859
0.967041 0.476631 0.485817
0.000000 0.448127 0.592645
0.000000 0.452949 0.591699
0.000000 0.441138 0.598474
0.000000 0.399969 0.602747
0.541314 0.418372 0.591852
0.764248 0.410651 0.535760
0.891844 0.423682 0.484260
0.966217 0.482338 0.489418
0.000000 0.482277 0.608209
0.000000 0.483589 0.608515
0.000000 0.474403 0.613397
0.000000 0.445045 0.616419
0.516655 0.445930 0.605615
0.754238 0.449775 0.553033
0.886503 0.458656 0.504448
0.963989 0.502770 0.502556
0.000000 0.523339 0.630426
0.000000 0.527306 0.629480
0.000000 0.523857 0.634577
0.000000 0.509483 0.638422
0.430793 0.477790 0.631006
0.738033 0.511681 0.583917
0.878416 0.513481 0.537987
0.961364 0.533684 0.521172
0.000000 0.574640 0.658289
0.000000 0.578302 0.657527
0.000000 0.582269 0.659815
0.000000 0.579095 0.662837
0.305333 0.564538 0.657801
0.711025 0.582391 0.620661
0.866667 0.575799 0.575463
0.958282 0.568414 0.538018
0.000000 0.634333 0.690852
0.000000 0.637842 0.690517
0.000000 0.646509 0.689906
0.000000 0.651575 0.692714
0.063050 0.657496 0.690120
0.669612 0.669612 0.669612
0.849027 0.656916 0.630671
0.949218 0.633234 0.584100
0.000000 0.708309 0.738308
0.000000 0.711360 0.738216
0.000000 0.721187 0.736812
0.000000 0.734524 0.737423
0.000000 0.751949 0.735531
0.514855 0.762814 0.705592
0.820340 0.746975 0.703578
0.927062 0.728603 0.672206
0.000000 0.793851 0.797940
0.000000 0.796262 0.797482
0.000000 0.804959 0.795712
0.000000 0.821042 0.792081
0.000000 0.845853 0.786221
0.138582 0.852140 0.739895
0.797391 0.825223 0.750210
0.909697 0.810544 0.750546
0.000000 0.538506 0.734035
0.000000 0.543023 0.733547
0.000000 0.542412 0.735164
0.000000 0.513909 0.739834
0.322515 0.465126 0.739284
0.735134 0.553277 0.723812
0.859892 0.568963 0.663600
0.938262 0.614282 0.657343
0.000000 0.546868 0.736324
0.000000 0.550927 0.735805
0.000000 0.549248 0.737484
0.000000 0.522179 0.741604
0.307713 0.473945 0.741390
0.732052 0.560571 0.726650
0.858366 0.575830 0.667262
0.937499 0.619074 0.660456
0.000000 0.569146 0.743771
0.000000 0.572778 0.743282
0.000000 0.571557 0.744656
0.000000 0.549676 0.748226
0.256107 0.506188 0.748257
0.717494 0.586419 0.733181
0.853147 0.598566 0.679408
0.935027 0.634913 0.670741
0.000000 0.599695 0.755856
0.000000 0.602869 0.755184
0.000000 0.606622 0.755306
0.000000 0.591516 0.758572
0.161624 0.562554 0.758633
0.691310 0.623285 0.744106
0.844572 0.633814 0.698848
0.931487 0.659480 0.686458
0.000000 0.638392 0.771450
0.000000 0.641291 0.771084
0.000000 0.651118 0.769497
0.000000 0.642176 0.772000
0.000000 0.624445 0.772274
0.618921 0.641962 0.760800
0.832914 0.677333 0.723690
0.927001 0.691279 0.706477
0.000000 0.683772 0.789792
0.000000 0.686366 0.789395
0.000000 0.695216 0.788144
0.000000 0.698909 0.788663
0.000000 0.692988 0.789273
0.473335 0.693050 0.782528
0.815824 0.729519 0.754208
0.921263 0.729946 0.730495
0.000000 0.732509 0.809171
0.000000 0.734859 0.808896
0.000000 0.742885 0.807919
0.000000 0.755734 0.806668
0.000000 0.760403 0.808164
0.292515 0.770779 0.804807
0.788540 0.788510 0.788540
0.911406 0.779355 0.762631
0.000000 0.792111 0.843900
0.000000 0.794186 0.843839
0.000000 0.801694 0.843503
0.000000 0.815305 0.842649
0.000000 0.835294 0.841093
0.000000 0.855314 0.838437
0.676600 0.855650 0.811612
0.892882 0.842527 0.813809
0.000000 0.613336 0.845945
0.000000 0.616815 0.845670
0.000000 0.628840 0.844633
0.000000 0.609155 0.847013
0.000000 0.586755 0.847379
0.663600 0.661952 0.836576
0.849271 0.726070 0.819333
0.913054 0.736873 0.789517
0.000000 0.617670 0.846830
0.000000 0.621027 0.846555
0.000000 0.632868 0.845487
0.000000 0.614221 0.847745
0.000000 0.592309 0.848142
0.658747 0.664424 0.837491
0.848264 0.728786 0.820890
0.912505 0.739467 0.791104
0.000000 0.629694 0.849851
0.000000 0.632776 0.849577
0.000000 0.643885 0.848539
0.000000 0.630945 0.850248
0.000000 0.610834 0.850675
0.639002 0.671901 0.840665
0.844663 0.737758 0.826200
0.910674 0.748165 0.796384
0.000000 0.645289 0.855131
0.000000 0.648188 0.854856
0.000000 0.658656 0.853849
0.000000 0.658015 0.854246
0.000000 0.639765 0.855039
0.572045 0.671351 0.847654
0.836484 0.751675 0.835203
0.907744 0.762295 0.805020
0.000000 0.674220 0.862577
0.000000 0.675898 0.862333
0.000000 0.681575 0.861387
0.000000 0.690425 0.859586
0.000000 0.676265 0.860960
0.457984 0.686702 0.856199
0.816831 0.772335 0.841886
0.903624 0.781430 0.816861
0.000000 0.709895 0.871611
0.000000 0.711482 0.871397
0.000000 0.716793 0.870695
0.000000 0.725734 0.869261
0.000000 0.723934 0.868620
0.138491 0.715541 0.866697
0.775082 0.783963 0.852323
0.897826 0.805631 0.831937
0.000000 0.749447 0.881804
0.000000 0.750973 0.881651
0.000000 0.756069 0.881132
0.000000 0.765347 0.880095
0.000000 0.779110 0.878416
0.000000 0.773220 0.877958
0.658412 0.801846 0.867674
0.888975 0.835386 0.850370
0.000000 0.790951 0.892607
0.000000 0.792416 0.892485
0.000000 0.797574 0.892149
0.000000 0.807340 0.891508
0.000000 0.822995 0.890379
0.000000 0.836301 0.889525
0.483314 0.853269 0.884001
0.872557 0.872526 0.872557
