其他预设/【212】创意蓝橙调色预设24款/1.3D LUT预设（视频调色-PR-AE-PS-FCPX-达芬奇用）/17.蓝橙色调__.cube
# Created by Adobe Lightroom plugin Export LUT (1.17.0)
# www.johnrellis.com/lightroom/exportlut.htm
# Preset: 17.蓝橙色调[素锦印象]
# Color profile: /Library/Application Support/Adobe/Color/Profiles/Recommended/AdobeRGB1998.icc
LUT_3D_SIZE 5
DOMAIN_MIN 0.000000 0.000000 0.000000
DOMAIN_MAX 0.903226 0.903226 0.903226
0.101472 0.101472 0.101472
0.333165 0.107790 0.096010
0.640589 0.140352 0.029633
0.861143 0.176883 0.000000
1.000000 0.192477 0.000000
0.071626 0.187137 0.149233
0.295323 0.205722 0.104616
0.624262 0.234257 0.000000
0.853819 0.241642 0.000000
1.000000 0.239933 0.000000
0.000000 0.330480 0.247684
0.151858 0.349248 0.187930
0.581506 0.382849 0.084657
0.837949 0.380102 0.000000
1.000000 0.353399 0.000000
0.000000 0.510124 0.369757
0.000000 0.527611 0.347478
0.498787 0.546685 0.227420
0.814328 0.530571 0.000000
1.000000 0.493050 0.000000
0.000000 0.737545 0.512505
0.000000 0.745357 0.499641
0.255100 0.763729 0.363195
0.822934 0.749599 0.270787
1.000000 0.656672 0.000000
0.000000 0.178073 0.247929
0.277226 0.174319 0.221622
0.608820 0.222293 0.104921
0.841184 0.263584 0.000000
1.000000 0.241459 0.000000
0.000000 0.245457 0.269718
0.245365 0.245365 0.245365
0.595575 0.269749 0.141176
0.836851 0.302770 0.000000
1.000000 0.277195 0.000000
0.000000 0.360723 0.321080
0.000000 0.384771 0.304723
0.555657 0.395422 0.224552
0.824125 0.403632 0.000000
1.000000 0.375647 0.000000
0.000000 0.532311 0.427344
0.000000 0.550835 0.415045
0.470832 0.568078 0.313512
0.805051 0.542565 0.203922
1.000000 0.506920 0.000000
0.000000 0.745876 0.553643
0.000000 0.753292 0.541619
0.141451 0.776577 0.432319
0.811276 0.764309 0.347997
1.000000 0.667048 0.160403
0.000000 0.323857 0.472663
0.000000 0.317998 0.466072
0.540154 0.295262 0.412757
0.821775 0.300267 0.268070
1.000000 0.330419 0.000000
0.000000 0.373022 0.482887
0.000000 0.363012 0.478096
0.523461 0.345159 0.425849
0.814176 0.341192 0.291752
1.000000 0.349187 0.000000
0.000000 0.468086 0.522271
0.000000 0.472755 0.515251
0.469184 0.469184 0.469184
0.795590 0.450233 0.355779
1.000000 0.417334 0.090761
0.000000 0.593042 0.575738
0.000000 0.602258 0.568505
0.214359 0.630274 0.515953
0.767697 0.598688 0.450355
0.998169 0.539879 0.244511
0.000000 0.774563 0.677790
0.000000 0.780423 0.666773
0.000000 0.799985 0.603906
0.734249 0.788510 0.534234
0.993194 0.707057 0.402411
0.000000 0.468330 0.691218
0.000000 0.483192 0.685359
0.023835 0.402289 0.679072
0.754940 0.475349 0.603937
0.979492 0.491249 0.513542
0.000000 0.498604 0.694850
0.000000 0.509117 0.689265
0.000000 0.441260 0.682673
0.746700 0.502098 0.612329
0.977447 0.506554 0.519310
0.000000 0.562066 0.710597
0.000000 0.572656 0.705104
0.000000 0.543816 0.697902
0.725002 0.577081 0.640101
0.977203 0.551080 0.531212
0.000000 0.654444 0.740505
0.000000 0.662318 0.735225
0.000000 0.669429 0.727077
0.683619 0.683619 0.683619
0.976043 0.630640 0.549645
0.000000 0.791287 0.813809
0.000000 0.799191 0.810666
0.000000 0.828397 0.796689
0.403388 0.844419 0.710780
0.954284 0.789731 0.658198
0.000000 0.588190 0.887205
0.000000 0.598138 0.884825
0.000000 0.591547 0.880217
0.623255 0.630060 0.861814
0.929503 0.703548 0.801419
0.000000 0.601892 0.889494
0.000000 0.611017 0.887205
0.000000 0.608057 0.882353
0.607507 0.639277 0.864714
0.927947 0.713497 0.805905
0.000000 0.638361 0.898314
0.000000 0.642786 0.896605
0.000000 0.659113 0.890043
0.504875 0.655787 0.876493
0.923308 0.744503 0.820340
0.000000 0.707973 0.912535
0.000000 0.712306 0.911192
0.000000 0.726131 0.906035
0.044129 0.716335 0.896422
0.913634 0.798001 0.845640
0.000000 0.794736 0.931792
0.000000 0.799496 0.930877
0.000000 0.817594 0.927306
0.000000 0.845487 0.919829
0.884764 0.884764 0.884764
