其他预设/【212】创意蓝橙调色预设24款/1.3D LUT预设（视频调色-PR-AE-PS-FCPX-达芬奇用）/17.蓝橙色调__.cube
# Created by Adobe Lightroom plugin Export LUT (1.17.0)
# www.johnrellis.com/lightroom/exportlut.htm
# Preset: 17.蓝橙色调[素锦印象]
# Color profile: /Library/Application Support/Adobe/Color/Profiles/Recommended/AdobeRGB1998.icc
LUT_3D_SIZE 8
DOMAIN_MIN 0.000000 0.000000 0.000000
DOMAIN_MAX 0.903226 0.903226 0.903226
0.101472 0.101472 0.101472
0.209171 0.104036 0.101564
0.375860 0.110262 0.092409
0.553857 0.127047 0.069154
0.716457 0.152743 0.000000
0.834653 0.173251 0.000000
0.933959 0.185031 0.000000
1.000000 0.192477 0.000000
0.092531 0.141573 0.121126
0.193240 0.145296 0.100832
0.364538 0.150546 0.091096
0.543786 0.165438 0.066438
0.707454 0.183230 0.000000
0.827329 0.195315 0.000000
0.929320 0.202579 0.000000
1.000000 0.206790 0.000000
0.056275 0.204623 0.161135
0.132387 0.211460 0.144442
0.331853 0.228153 0.105379
0.525658 0.248692 0.052033
0.697108 0.258885 0.000000
0.822660 0.259220 0.000000
0.930266 0.256809 0.000000
1.000000 0.253178 0.000000
0.000000 0.286381 0.217258
0.000000 0.293339 0.207218
0.279301 0.302190 0.161196
0.496712 0.329961 0.096529
0.686213 0.350378 0.000000
0.816800 0.341405 0.000000
0.925200 0.329503 0.000000
1.000000 0.317388 0.000000
0.000000 0.376623 0.279393
0.000000 0.381994 0.273716
0.158114 0.399634 0.205051
0.445228 0.406989 0.168856
0.652827 0.427802 0.072267
0.798886 0.426673 0.000000
0.914855 0.409400 0.000000
1.000000 0.391424 0.000000
0.000000 0.478706 0.348913
0.000000 0.484260 0.346624
0.000000 0.504540 0.306706
0.381720 0.514611 0.236667
0.619837 0.517510 0.167849
0.783200 0.510796 0.016724
0.906340 0.495979 0.000000
1.000000 0.472328 0.000000
0.000000 0.605524 0.431800
0.000000 0.609216 0.428962
0.000000 0.621973 0.404608
0.200961 0.638270 0.296178
0.577661 0.633509 0.258305
0.776822 0.615198 0.171176
0.902007 0.586389 0.000000
1.000000 0.556847 0.000000
0.000000 0.737545 0.512505
0.000000 0.739712 0.508782
0.000000 0.748196 0.495155
0.000000 0.764950 0.422889
0.497841 0.759457 0.356542
0.771084 0.754757 0.294285
0.921538 0.707088 0.195956
1.000000 0.656672 0.000000
0.074922 0.133272 0.169253
0.183139 0.135744 0.156344
0.352209 0.153567 0.110903
0.529351 0.190738 0.065919
0.698238 0.206546 0.000000
0.821012 0.212985 0.000000
0.925719 0.213077 0.000000
1.000000 0.210300 0.000000
0.059419 0.164492 0.181064
0.167971 0.167971 0.167971
0.341558 0.178225 0.127993
0.524041 0.211551 0.062989
0.693507 0.225834 0.000000
0.817197 0.229374 0.000000
0.922301 0.227390 0.000000
1.000000 0.222629 0.000000
0.000000 0.220462 0.199924
0.116335 0.231174 0.195712
0.318090 0.238071 0.161959
0.510979 0.261875 0.090547
0.683619 0.282139 0.000000
0.812345 0.280369 0.000000
0.921202 0.273289 0.000000
1.000000 0.264408 0.000000
0.000000 0.297826 0.246403
0.000000 0.307073 0.241184
0.269139 0.315496 0.198428
0.485023 0.332433 0.149233
0.670466 0.354589 0.000000
0.803738 0.351659 0.000000
0.916045 0.338872 0.000000
1.000000 0.324651 0.000000
0.000000 0.386877 0.303716
0.000000 0.392523 0.298405
0.134218 0.409125 0.244633
0.438331 0.413672 0.201511
0.642969 0.428077 0.131807
0.790951 0.431159 0.000000
0.909514 0.415991 0.000000
1.000000 0.396460 0.000000
0.000000 0.485512 0.367834
0.000000 0.489418 0.364874
0.000000 0.508537 0.330449
0.366125 0.519188 0.258244
0.613825 0.521019 0.199435
0.778927 0.513085 0.115633
0.903197 0.500938 0.000000
1.000000 0.476051 0.000000
0.000000 0.606561 0.445167
0.000000 0.608972 0.441413
0.000000 0.621942 0.419837
0.173190 0.639521 0.323735
0.568536 0.635950 0.282109
0.771847 0.617426 0.201144
0.897459 0.587427 0.087953
0.998199 0.558801 0.000000
0.000000 0.737362 0.523278
0.000000 0.739986 0.519860
0.000000 0.748623 0.506889
0.000000 0.765621 0.441047
0.487770 0.764981 0.375860
0.766140 0.758450 0.318120
0.918975 0.709987 0.223362
1.000000 0.658564 0.000000
0.000000 0.196414 0.277958
0.000000 0.197482 0.273045
0.311955 0.188815 0.246006
0.512261 0.192935 0.174197
0.686305 0.244205 0.100313
0.811490 0.282933 0.000000
0.921996 0.272404 0.000000
1.000000 0.253635 0.000000
0.000000 0.224186 0.282109
0.000000 0.221439 0.279301
0.301122 0.214206 0.252720
0.503441 0.215610 0.186496
0.679713 0.257328 0.115572
0.807828 0.294194 0.000000
0.919371 0.282383 0.000000
1.000000 0.263493 0.000000
0.000000 0.274846 0.302708
0.000000 0.276738 0.298711
0.274083 0.274083 0.274083
0.486702 0.277348 0.220615
0.671351 0.299962 0.147402
0.804196 0.323705 0.000000
0.916960 0.317571 0.000000
1.000000 0.297093 0.000000
0.000000 0.335241 0.324834
0.000000 0.341283 0.323705
0.163607 0.357916 0.299870
0.461280 0.357549 0.265141
0.657252 0.365972 0.192752
0.797086 0.373480 0.079927
0.913237 0.372961 0.000000
1.000000 0.350195 0.000000
0.000000 0.411749 0.365393
0.000000 0.418677 0.365087
0.000000 0.442023 0.347265
0.413947 0.445441 0.297215
0.629786 0.447181 0.251621
0.783474 0.441932 0.162753
0.905913 0.439704 0.000000
1.000000 0.415839 0.000000
0.000000 0.507652 0.423774
0.000000 0.512718 0.423041
0.000000 0.533013 0.406043
0.290471 0.545983 0.326879
0.599329 0.542168 0.291661
0.767453 0.526757 0.239292
0.897459 0.511528 0.115541
1.000000 0.491188 0.000000
0.000000 0.623713 0.495613
0.000000 0.626642 0.492866
0.000000 0.638087 0.477272
0.000000 0.654871 0.408576
0.539574 0.651026 0.359472
0.762264 0.633295 0.289403
0.892332 0.600824 0.223270
0.999023 0.572107 0.000000
0.000000 0.746639 0.565332
0.000000 0.748043 0.560967
0.000000 0.755825 0.548608
0.000000 0.773678 0.500725
0.432502 0.775540 0.427070
0.744564 0.767697 0.390234
0.912200 0.723110 0.303929
1.000000 0.669703 0.194339
0.000000 0.278691 0.405188
0.000000 0.287449 0.400366
0.073426 0.239475 0.395331
0.462715 0.255833 0.354894
0.663294 0.240238 0.264805
0.799710 0.280735 0.195651
0.913420 0.310826 0.073518
1.000000 0.300511 0.000000
0.000000 0.303288 0.409033
0.000000 0.305180 0.405951
0.057221 0.263981 0.400092
0.457282 0.274815 0.360113
0.658503 0.260258 0.273533
0.796506 0.293156 0.204379
0.911620 0.318730 0.087221
1.000000 0.307164 0.000000
0.000000 0.343816 0.422248
0.000000 0.345800 0.419287
0.000000 0.326513 0.412757
0.437171 0.327794 0.375433
0.644617 0.319158 0.302098
0.791165 0.335729 0.234714
0.912474 0.348028 0.122744
1.000000 0.334630 0.000000
0.000000 0.402716 0.447639
0.000000 0.405829 0.442786
0.000000 0.404883 0.437415
0.403571 0.403571 0.403571
0.622126 0.398993 0.346166
0.778958 0.395880 0.273686
0.905913 0.393042 0.164096
1.000000 0.380896 0.000000
0.000000 0.467659 0.472175
0.000000 0.470497 0.468482
0.000000 0.482795 0.465583
0.277531 0.497444 0.427619
0.596246 0.485969 0.395727
0.765255 0.472999 0.325628
0.899168 0.457221 0.220829
1.000000 0.441382 0.000000
0.000000 0.546441 0.511192
0.000000 0.551019 0.510369
0.000000 0.568383 0.507164
0.065553 0.587274 0.469520
0.559625 0.579706 0.423377
0.747707 0.559899 0.381994
0.887877 0.537102 0.293339
1.000000 0.509819 0.112367
0.000000 0.648768 0.570703
0.000000 0.651911 0.568811
0.000000 0.662348 0.559991
0.000000 0.680598 0.521813
0.462409 0.679377 0.456855
0.741817 0.665248 0.414038
0.879820 0.628321 0.362768
0.994720 0.591516 0.237308
0.000000 0.765774 0.637232
0.000000 0.767636 0.633906
0.000000 0.772946 0.619654
0.000000 0.785611 0.586969
0.271214 0.794461 0.507836
0.701564 0.782284 0.495460
0.897398 0.747066 0.413519
1.000000 0.692287 0.334417
0.000000 0.368444 0.539055
0.000000 0.374823 0.535851
0.000000 0.360113 0.531792
0.292973 0.301030 0.520165
0.610193 0.338628 0.468238
0.775357 0.316930 0.374701
0.900694 0.342565 0.309728
1.000000 0.346807 0.204227
0.000000 0.385931 0.541344
0.000000 0.391058 0.538659
0.000000 0.373480 0.536004
0.274357 0.311192 0.523552
0.605707 0.352361 0.471717
0.772732 0.331670 0.380987
0.899535 0.352575 0.315221
1.000000 0.352850 0.206394
0.000000 0.422095 0.549889
0.000000 0.427222 0.546715
0.000000 0.412421 0.546075
0.206668 0.356634 0.533806
0.590936 0.394720 0.483406
0.762234 0.376287 0.400702
0.894835 0.383856 0.331884
1.000000 0.371588 0.210788
0.000000 0.468421 0.567254
0.000000 0.472358 0.563989
0.000000 0.468208 0.561425
0.136995 0.445197 0.549889
0.568231 0.459358 0.505455
0.748989 0.443824 0.434760
0.890379 0.432044 0.355566
1.000000 0.400183 0.205539
0.000000 0.527825 0.590295
0.000000 0.530999 0.587488
0.000000 0.534234 0.582635
0.000000 0.531853 0.571740
0.533715 0.533715 0.533715
0.731868 0.519554 0.474311
0.883268 0.493874 0.385840
1.000000 0.456153 0.240299
0.000000 0.591577 0.613672
0.000000 0.594446 0.611505
0.000000 0.602289 0.606043
0.000000 0.615198 0.598383
0.397864 0.622675 0.547753
0.709377 0.604456 0.523980
0.869688 0.580163 0.447211
0.997772 0.535393 0.310552
0.000000 0.677180 0.659022
0.000000 0.679591 0.657038
0.000000 0.688380 0.650080
0.000000 0.706233 0.638178
0.195956 0.714656 0.579278
0.687343 0.699123 0.550072
0.855833 0.669032 0.505730
0.984802 0.625696 0.394965
0.000000 0.786618 0.723110
0.000000 0.787961 0.720027
0.000000 0.792660 0.708553
0.000000 0.802762 0.686305
0.000000 0.814542 0.624811
0.616785 0.800961 0.591821
0.868101 0.781033 0.540520
0.984771 0.727596 0.477119
0.000000 0.451209 0.664729
0.000000 0.456275 0.662715
0.000000 0.460182 0.657588
0.000000 0.411810 0.654902
0.491096 0.408331 0.634394
0.728450 0.445930 0.577020
0.873106 0.439918 0.508324
0.987976 0.454627 0.457160
0.000000 0.461860 0.663600
0.000000 0.465827 0.661616
0.000000 0.466865 0.657557
0.000000 0.422095 0.654536
0.483040 0.414710 0.634791
0.724910 0.454597 0.579004
0.871092 0.447883 0.511711
0.987213 0.459480 0.458900
0.000000 0.492897 0.670130
0.000000 0.495857 0.667964
0.000000 0.493660 0.664515
0.000000 0.459022 0.660761
0.454231 0.438911 0.642115
0.716823 0.486793 0.589990
0.866728 0.477272 0.525444
0.986297 0.477790 0.466285
0.000000 0.529595 0.680385
0.000000 0.532982 0.678004
0.000000 0.534691 0.674495
0.000000 0.514275 0.671992
0.375341 0.478157 0.657191
0.705135 0.536736 0.609522
0.861601 0.523186 0.547631
0.986816 0.504906 0.473762
0.000000 0.575341 0.693233
0.000000 0.578515 0.691524
0.000000 0.585138 0.686946
0.000000 0.575769 0.683558
0.279210 0.557549 0.670375
0.684108 0.589166 0.628534
0.852964 0.572442 0.567315
0.987457 0.532738 0.469795
0.000000 0.629908 0.710353
0.000000 0.633082 0.709316
0.000000 0.642206 0.703792
0.000000 0.642969 0.700343
0.096101 0.644282 0.689052
0.654627 0.654536 0.654597
0.842344 0.639246 0.598444
0.985168 0.590692 0.490120
0.000000 0.700710 0.744350
0.000000 0.703548 0.743526
0.000000 0.712154 0.739132
0.000000 0.724269 0.733486
0.000000 0.739925 0.723018
0.530602 0.743282 0.669459
0.822446 0.720699 0.645350
0.969299 0.684993 0.562127
0.000000 0.791409 0.797147
0.000000 0.793637 0.795895
0.000000 0.801816 0.791409
0.000000 0.817807 0.782742
0.000000 0.839719 0.763180
0.291417 0.839322 0.688045
0.811032 0.817533 0.672786
0.961608 0.776608 0.623255
0.000000 0.521874 0.776547
0.000000 0.525628 0.775357
0.000000 0.538384 0.770901
0.000000 0.515923 0.769467
0.161837 0.465797 0.763302
0.662257 0.542870 0.739528
0.832853 0.567376 0.686488
0.955016 0.588800 0.652766
0.000000 0.529717 0.777340
0.000000 0.533104 0.776150
0.000000 0.544976 0.771847
0.000000 0.522606 0.770138
0.142794 0.473640 0.764309
0.659174 0.547814 0.740810
0.831601 0.573053 0.688655
0.954559 0.593011 0.654749
0.000000 0.551049 0.780697
0.000000 0.554070 0.779538
0.000000 0.564721 0.775418
0.000000 0.545525 0.773678
0.085451 0.504662 0.767880
0.646815 0.563531 0.745388
0.827451 0.592004 0.696010
0.953368 0.607080 0.661036
0.000000 0.580896 0.787503
0.000000 0.583459 0.786282
0.000000 0.592828 0.782406
0.000000 0.582300 0.779965
0.000000 0.551751 0.774533
0.616724 0.585718 0.753811
0.820676 0.621942 0.707942
0.952178 0.629206 0.670314
0.000000 0.619593 0.796994
0.000000 0.621973 0.796017
0.000000 0.630213 0.792569
0.000000 0.629511 0.789090
0.000000 0.607813 0.784512
0.536461 0.607355 0.767239
0.811215 0.660487 0.724147
0.951293 0.658839 0.681453
0.000000 0.666499 0.809445
0.000000 0.668727 0.808560
0.000000 0.676295 0.805478
0.000000 0.684993 0.800900
0.000000 0.674830 0.797421
0.415991 0.669520 0.784024
0.796475 0.709560 0.745144
0.950378 0.696651 0.693751
0.000000 0.719295 0.824155
0.000000 0.721370 0.823453
0.000000 0.728573 0.820768
0.000000 0.741390 0.816098
0.000000 0.746059 0.812558
0.260044 0.754086 0.802426
0.770626 0.770596 0.770596
0.945892 0.750088 0.712245
0.000000 0.789578 0.860380
0.000000 0.791653 0.859953
0.000000 0.799008 0.858335
0.000000 0.812528 0.854978
0.000000 0.834165 0.848417
0.000000 0.855863 0.838560
0.652491 0.856657 0.784085
0.929808 0.831693 0.760952
0.000000 0.588190 0.887205
0.000000 0.591058 0.886503
0.000000 0.601404 0.884031
0.000000 0.606531 0.880827
0.000000 0.577661 0.878477
0.529534 0.608972 0.866606
0.812314 0.681025 0.847318
0.929503 0.703548 0.801419
0.000000 0.592676 0.887816
0.000000 0.595514 0.887144
0.000000 0.605554 0.884703
0.000000 0.611170 0.881468
0.000000 0.582910 0.879118
0.521996 0.611109 0.867521
0.810605 0.684688 0.848020
0.929015 0.706538 0.802762
0.000000 0.605737 0.890318
0.000000 0.608392 0.889647
0.000000 0.617731 0.887266
0.000000 0.626978 0.883665
0.000000 0.600458 0.881468
0.491737 0.618128 0.870817
0.804349 0.697047 0.850736
0.927428 0.716732 0.807370
0.000000 0.623651 0.895262
0.000000 0.626093 0.894652
0.000000 0.634882 0.892363
0.000000 0.651087 0.887999
0.000000 0.629023 0.885832
0.424781 0.632197 0.876768
0.791196 0.713863 0.855894
0.924987 0.733577 0.815183
0.000000 0.656031 0.901793
0.000000 0.657313 0.901305
0.000000 0.661646 0.899596
0.000000 0.668238 0.896391
0.000000 0.667170 0.892485
0.297704 0.660548 0.885008
0.762692 0.729152 0.864286
0.921263 0.757321 0.826383
0.000000 0.696773 0.910155
0.000000 0.698116 0.909758
0.000000 0.702480 0.908263
0.000000 0.709590 0.905486
0.000000 0.718563 0.900969
0.000000 0.701076 0.896208
0.695827 0.744869 0.877043
0.915557 0.788724 0.841245
0.000000 0.743587 0.920256
0.000000 0.744900 0.919921
0.000000 0.749477 0.918700
0.000000 0.757687 0.916350
0.000000 0.770687 0.912383
0.000000 0.768093 0.908293
0.554955 0.782925 0.894285
0.905669 0.829801 0.860563
0.000000 0.794736 0.931792
0.000000 0.796139 0.931518
0.000000 0.801144 0.930541
0.000000 0.810697 0.928679
0.000000 0.826200 0.925505
0.000000 0.843595 0.921019
0.377996 0.860410 0.911528
0.884764 0.884764 0.884764
