其他预设/【212】创意蓝橙调色预设24款/1.3D LUT预设（视频调色-PR-AE-PS-FCPX-达芬奇用）/17.蓝橙色调__.cube
# Created by Adobe Lightroom plugin Export LUT (1.17.0)
# www.johnrellis.com/lightroom/exportlut.htm
# Preset: 17.蓝橙色调[素锦印象]
# Color profile: /Library/Application Support/Adobe/Color/Profiles/Recommended/AdobeRGB1998.icc
LUT_3D_SIZE 32
0.101472 0.101472 0.101472
0.116915 0.101808 0.101503
0.135714 0.102174 0.101289
0.168246 0.103273 0.101747
0.209171 0.104036 0.101564
0.250340 0.105104 0.100282
0.291569 0.106294 0.098299
0.333165 0.107790 0.096010
0.375860 0.110262 0.092409
0.419623 0.113252 0.088624
0.464271 0.117311 0.083314
0.509209 0.121492 0.077302
0.553857 0.127047 0.069154
0.597559 0.133303 0.058015
0.640589 0.140352 0.029633
0.680842 0.146670 0.000000
0.716457 0.152743 0.000000
0.748836 0.158419 0.000000
0.778561 0.164004 0.000000
0.807126 0.168765 0.000000
0.834653 0.173251 0.000000
0.861143 0.176883 0.000000
0.886442 0.179934 0.000000
0.910643 0.182803 0.000000
0.933959 0.185031 0.000000
0.956634 0.186740 0.000000
0.978820 0.188663 0.000000
1.000000 0.190280 0.000000
1.000000 0.192477 0.000000
1.000000 0.195071 0.000000
1.000000 0.198764 0.000000
1.000000 0.204044 0.066865
0.100649 0.106081 0.103487
0.114992 0.106935 0.101350
0.133822 0.107576 0.101625
0.166659 0.108644 0.101595
0.207706 0.109468 0.101442
0.248844 0.110597 0.100160
0.290105 0.111147 0.098482
0.331701 0.112917 0.095949
0.374182 0.115084 0.092409
0.418158 0.117708 0.088350
0.462684 0.121614 0.083406
0.507561 0.126253 0.077028
0.552087 0.131472 0.068574
0.595819 0.137942 0.056672
0.638758 0.144076 0.029541
0.678706 0.150179 0.000916
0.714107 0.155947 0.000000
0.746487 0.161501 0.000000
0.776242 0.166873 0.000000
0.804898 0.171420 0.000000
0.832547 0.175509 0.000000
0.859159 0.178805 0.000000
0.884581 0.181735 0.000000
0.908934 0.184329 0.000000
0.932403 0.186526 0.000000
0.955200 0.188540 0.000000
0.977569 0.190036 0.000000
0.999451 0.192050 0.000000
1.000000 0.193759 0.000000
1.000000 0.196170 0.000000
1.000000 0.199619 0.000000
1.000000 0.204959 0.066285
0.099580 0.112306 0.106416
0.112032 0.113466 0.104158
0.131930 0.114473 0.101534
0.164889 0.115084 0.101808
0.205722 0.116091 0.101411
0.246983 0.117037 0.099947
0.288029 0.118013 0.098268
0.329717 0.119356 0.095766
0.372412 0.121431 0.092226
0.416175 0.123964 0.088228
0.460945 0.127687 0.082948
0.505821 0.132174 0.076905
0.550439 0.137545 0.068360
0.594293 0.143008 0.057343
0.637201 0.149233 0.029297
0.677150 0.155367 0.000000
0.712490 0.160464 0.000000
0.744808 0.165408 0.000000
0.774716 0.170443 0.000000
0.803464 0.174838 0.000000
0.831266 0.178470 0.000000
0.858000 0.181857 0.000000
0.883543 0.184665 0.000000
0.907988 0.186770 0.000000
0.931548 0.188998 0.000000
0.954437 0.190646 0.000000
0.976837 0.192081 0.000000
0.998779 0.193790 0.000000
1.000000 0.195499 0.000000
1.000000 0.197940 0.000000
1.000000 0.201419 0.000000
1.000000 0.206332 0.064973
0.096376 0.126772 0.113436
0.104372 0.128420 0.110567
0.126925 0.128542 0.107057
0.160983 0.128481 0.101564
0.201724 0.129458 0.101259
0.243168 0.130129 0.099825
0.284550 0.130922 0.097932
0.326421 0.132113 0.095216
0.369421 0.133822 0.091920
0.413397 0.136019 0.087984
0.458198 0.139895 0.082338
0.503227 0.144045 0.076600
0.547784 0.149325 0.067628
0.591669 0.154330 0.055116
0.635096 0.159609 0.027405
0.674830 0.164889 0.000000
0.710109 0.169802 0.000000
0.742519 0.174350 0.000000
0.772396 0.178256 0.000000
0.801083 0.182345 0.000000
0.829007 0.185275 0.000000
0.855863 0.188113 0.000000
0.881651 0.190738 0.000000
0.906462 0.192599 0.000000
0.930419 0.194339 0.000000
0.953674 0.195712 0.000000
0.976349 0.197024 0.000000
0.998474 0.198489 0.000000
1.000000 0.200198 0.000000
1.000000 0.202243 0.000000
1.000000 0.205447 0.000000
1.000000 0.209995 0.064820
0.092531 0.141573 0.121126
0.093324 0.143099 0.119203
0.115572 0.143221 0.116487
0.150576 0.143404 0.110780
0.193240 0.145296 0.100832
0.237064 0.146853 0.099947
0.278996 0.147585 0.097627
0.321233 0.148836 0.094911
0.364538 0.150546 0.091096
0.408637 0.153170 0.087343
0.453742 0.156374 0.082063
0.498848 0.160616 0.075624
0.543786 0.165438 0.066438
0.588037 0.169863 0.052644
0.631861 0.174777 0.022766
0.671778 0.179171 0.000000
0.707454 0.183230 0.000000
0.740139 0.186496 0.000000
0.770443 0.189853 0.000000
0.799344 0.192782 0.000000
0.827329 0.195315 0.000000
0.854337 0.197787 0.000000
0.880247 0.199619 0.000000
0.905180 0.201297 0.000000
0.929320 0.202579 0.000000
0.952758 0.203616 0.000000
0.975555 0.204562 0.000000
0.997772 0.205417 0.000000
1.000000 0.206790 0.000000
1.000000 0.208621 0.000000
1.000000 0.211185 0.000000
1.000000 0.215396 0.063661
0.087770 0.155703 0.129641
0.088441 0.156771 0.127535
0.101442 0.157961 0.124971
0.138155 0.158267 0.121340
0.178531 0.159548 0.113466
0.225986 0.163790 0.100587
0.272190 0.166659 0.097230
0.315099 0.168032 0.094240
0.358923 0.169772 0.090944
0.403418 0.172641 0.086275
0.448737 0.176059 0.080568
0.494270 0.180056 0.073854
0.539452 0.184146 0.064973
0.584253 0.188205 0.048585
0.628717 0.192447 0.017090
0.668818 0.196078 0.000000
0.704829 0.199252 0.000000
0.737819 0.202060 0.000000
0.768460 0.204623 0.000000
0.797757 0.206943 0.000000
0.826078 0.208591 0.000000
0.853391 0.209995 0.000000
0.889433 0.213687 0.000000
0.913817 0.214542 0.000000
0.937255 0.215183 0.000000
0.959960 0.215671 0.000000
0.982025 0.216037 0.000000
1.000000 0.216800 0.000000
1.000000 0.217685 0.000000
1.000000 0.219028 0.000000
1.000000 0.221530 0.000000
1.000000 0.225254 0.071107
0.081300 0.170993 0.138735
0.081270 0.172122 0.137636
0.087312 0.173526 0.135561
0.122957 0.174929 0.130190
0.166201 0.175570 0.125002
0.210575 0.178653 0.115389
0.260990 0.184512 0.102144
0.309606 0.189120 0.093996
0.354314 0.191348 0.089998
0.399878 0.194522 0.085054
0.445899 0.198276 0.078950
0.492256 0.201755 0.071229
0.537957 0.205600 0.061158
0.583307 0.209598 0.037720
0.629114 0.213352 0.005463
0.669337 0.216526 0.000000
0.705531 0.218509 0.000000
0.738643 0.220310 0.000000
0.769528 0.221805 0.000000
0.799313 0.223392 0.000000
0.828397 0.224552 0.000000
0.856657 0.225498 0.000000
0.883757 0.226383 0.000000
0.909636 0.227085 0.000000
0.934325 0.227298 0.000000
0.957794 0.227329 0.000000
0.980316 0.227512 0.000000
1.000000 0.227573 0.000000
1.000000 0.227970 0.000000
1.000000 0.228977 0.000000
1.000000 0.230533 0.000000
1.000000 0.233982 0.069886
0.071626 0.187137 0.149233
0.072236 0.188022 0.147921
0.072572 0.189364 0.146700
0.108064 0.191257 0.141909
0.151980 0.192416 0.134401
0.196506 0.193454 0.128420
0.243839 0.198337 0.117861
0.295323 0.205722 0.104616
0.345769 0.212253 0.089418
0.392004 0.215763 0.083711
0.438727 0.219608 0.077058
0.485573 0.223148 0.069398
0.531884 0.226993 0.058289
0.578637 0.230594 0.030091
0.624262 0.234257 0.000000
0.664759 0.236698 0.000000
0.701198 0.238224 0.000000
0.734615 0.239170 0.000000
0.765866 0.239841 0.000000
0.795987 0.240726 0.000000
0.825345 0.241306 0.000000
0.853819 0.241642 0.000000
0.881163 0.241733 0.000000
0.907256 0.241733 0.000000
0.932097 0.241398 0.000000
0.955810 0.241062 0.000000
0.978546 0.240543 0.000000
1.000000 0.239994 0.000000
1.000000 0.239933 0.000000
1.000000 0.240177 0.000000
1.000000 0.241520 0.000000
1.000000 0.244175 0.067445
0.056275 0.204623 0.161135
0.056092 0.205539 0.160342
0.057038 0.206760 0.159091
0.092470 0.208927 0.154788
0.132387 0.211460 0.144442
0.183902 0.212100 0.139467
0.229282 0.213870 0.131502
0.279210 0.219944 0.119539
0.331853 0.228153 0.105379
0.383886 0.236515 0.085725
0.431250 0.240879 0.076143
0.478614 0.244999 0.066896
0.525658 0.248692 0.052033
0.573602 0.252903 0.019074
0.619379 0.256168 0.000000
0.660212 0.258030 0.000000
0.697108 0.258885 0.000000
0.731014 0.259068 0.000000
0.762478 0.259342 0.000000
0.793027 0.259220 0.000000
0.822660 0.259220 0.000000
0.851438 0.258640 0.000000
0.878935 0.258427 0.000000
0.905211 0.257847 0.000000
0.930266 0.256809 0.000000
0.954131 0.255833 0.000000
0.977050 0.254887 0.000000
0.999237 0.253849 0.000000
1.000000 0.253178 0.000000
1.000000 0.252934 0.000000
1.000000 0.253788 0.000000
1.000000 0.255772 0.066621
0.011536 0.223514 0.174014
0.011078 0.224338 0.173404
0.012299 0.225345 0.172427
0.072694 0.227573 0.168551
0.113985 0.230533 0.159030
0.166354 0.232273 0.148714
0.217685 0.233127 0.143343
0.265263 0.235996 0.133211
0.316442 0.242802 0.120729
0.369970 0.251469 0.105196
0.423041 0.260716 0.083772
0.470771 0.266361 0.063813
0.518425 0.270451 0.044739
0.567559 0.274968 0.008820
0.614008 0.278477 0.000000
0.655726 0.280095 0.000000
0.693385 0.280400 0.000000
0.727840 0.280095 0.000000
0.759762 0.279698 0.000000
0.790555 0.278996 0.000000
0.820340 0.278264 0.000000
0.848966 0.277501 0.000000
0.876493 0.276005 0.000000
0.902678 0.274907 0.000000
0.927794 0.273503 0.000000
0.951843 0.271794 0.000000
0.975097 0.270146 0.000000
0.997589 0.268772 0.000000
1.000000 0.267704 0.000000
1.000000 0.267002 0.000000
1.000000 0.267185 0.000000
1.000000 0.268620 0.066346
0.000000 0.243076 0.187411
0.000000 0.243809 0.186893
0.000000 0.244755 0.185855
0.025116 0.247196 0.182681
0.092409 0.250523 0.174472
0.140719 0.253513 0.158450
0.203220 0.254185 0.154818
0.253269 0.255436 0.146365
0.303166 0.259495 0.133761
0.355566 0.266850 0.120577
0.409369 0.275853 0.103639
0.463264 0.285527 0.078889
0.511437 0.292241 0.033997
0.561212 0.297154 0.000000
0.608118 0.300542 0.000000
0.650324 0.302098 0.000000
0.688533 0.302220 0.000000
0.723384 0.301610 0.000000
0.755825 0.300511 0.000000
0.787076 0.299229 0.000000
0.817258 0.297948 0.000000
0.846250 0.296452 0.000000
0.874052 0.294804 0.000000
0.900542 0.293004 0.000000
0.925902 0.291081 0.000000
0.950134 0.288884 0.000000
0.973510 0.286687 0.000000
0.996155 0.284886 0.000000
1.000000 0.283207 0.000000
1.000000 0.281956 0.000000
1.000000 0.281621 0.000000
1.000000 0.282475 0.065522
0.000000 0.263554 0.201602
0.000000 0.264317 0.201205
0.000000 0.265171 0.200381
0.000000 0.267491 0.197543
0.061250 0.271122 0.190494
0.116091 0.274693 0.176242
0.179782 0.276677 0.162387
0.240146 0.277287 0.158297
0.290806 0.278813 0.148653
0.343053 0.284276 0.133761
0.395941 0.291936 0.120150
0.450080 0.300999 0.101198
0.512383 0.315312 0.069978
0.563439 0.323827 0.000000
0.611383 0.327520 0.000000
0.654322 0.328740 0.000000
0.692775 0.328252 0.000000
0.727687 0.326879 0.000000
0.760098 0.324987 0.000000
0.791196 0.323064 0.000000
0.821103 0.320836 0.000000
0.849699 0.318608 0.000000
0.876982 0.316075 0.000000
0.903105 0.313542 0.000000
0.928099 0.310796 0.000000
0.952087 0.308049 0.000000
0.975250 0.305241 0.000000
0.997650 0.302800 0.000000
1.000000 0.300572 0.000000
1.000000 0.298863 0.000000
1.000000 0.297856 0.000000
1.000000 0.298131 0.068238
0.000000 0.286381 0.217258
0.000000 0.286931 0.216831
0.000000 0.287755 0.216159
0.000000 0.289891 0.213687
0.000000 0.293339 0.207218
0.083711 0.297429 0.194644
0.146822 0.300725 0.173556
0.221622 0.301183 0.169192
0.279301 0.302190 0.161196
0.330938 0.304448 0.149569
0.385168 0.310826 0.132998
0.438911 0.318853 0.118959
0.496712 0.329961 0.096529
0.554498 0.341314 0.058198
0.603143 0.348425 0.000000
0.646967 0.350866 0.000000
0.686213 0.350378 0.000000
0.721736 0.348577 0.000000
0.754818 0.346380 0.000000
0.786465 0.343938 0.000000
0.816800 0.341405 0.000000
0.845853 0.338659 0.000000
0.873503 0.335882 0.000000
0.899901 0.332738 0.000000
0.925200 0.329503 0.000000
0.949493 0.326268 0.000000
0.972961 0.323095 0.000000
0.995575 0.320195 0.000000
1.000000 0.317388 0.000000
1.000000 0.315190 0.000000
1.000000 0.313695 0.000000
1.000000 0.313420 0.067597
0.000000 0.308202 0.232364
0.000000 0.308598 0.231601
0.000000 0.309392 0.231174
0.000000 0.311406 0.229007
0.000000 0.314885 0.223423
0.000061 0.319066 0.212314
0.114839 0.323095 0.193545
0.191867 0.325109 0.175631
0.262638 0.325353 0.173556
0.318639 0.326787 0.163180
0.371649 0.330114 0.149569
0.426886 0.337133 0.133303
0.483253 0.346807 0.117250
0.540032 0.357000 0.090883
0.594965 0.366522 0.030579
0.639704 0.371374 0.000000
0.679377 0.372290 0.000000
0.715511 0.370459 0.000000
0.749233 0.367895 0.000000
0.781521 0.365148 0.000000
0.812436 0.362341 0.000000
0.841947 0.359258 0.000000
0.870115 0.355932 0.000000
0.896910 0.352514 0.000000
0.922545 0.348821 0.000000
0.947143 0.345190 0.000000
0.970855 0.341588 0.000000
0.993805 0.338170 0.000000
1.000000 0.335058 0.000000
1.000000 0.332372 0.000000
1.000000 0.330449 0.000000
1.000000 0.329595 0.067018
0.000000 0.330480 0.247684
0.000000 0.331121 0.247196
0.000000 0.331701 0.246647
0.000000 0.333257 0.244877
0.000000 0.336980 0.239872
0.000000 0.341283 0.230228
0.068818 0.345708 0.213779
0.151858 0.349248 0.187930
0.239017 0.349554 0.182650
0.303624 0.350500 0.176455
0.358984 0.351934 0.164889
0.414710 0.357397 0.149660
0.471015 0.365209 0.133425
0.526665 0.374029 0.114351
0.581506 0.382849 0.084657
0.631800 0.389715 0.002167
0.672816 0.392554 0.000000
0.709255 0.392401 0.000000
0.743618 0.389868 0.000000
0.776486 0.386755 0.000000
0.807950 0.383551 0.000000
0.837949 0.380102 0.000000
0.866484 0.376349 0.000000
0.893736 0.372473 0.000000
0.919768 0.368566 0.000000
0.944823 0.364538 0.000000
0.968963 0.360571 0.000000
0.992370 0.356847 0.000000
1.000000 0.353399 0.000000
1.000000 0.350378 0.000000
1.000000 0.348150 0.000000
1.000000 0.346807 0.069093
0.000000 0.353552 0.263218
0.000000 0.354009 0.262943
0.000000 0.354620 0.262486
0.000000 0.356146 0.261082
0.000000 0.359442 0.256901
0.000000 0.363928 0.248417
0.000000 0.368750 0.234195
0.112215 0.373022 0.211154
0.203250 0.375006 0.189792
0.284459 0.375036 0.190188
0.346075 0.376928 0.179446
0.402441 0.379919 0.167178
0.458595 0.385534 0.149783
0.513970 0.392523 0.132479
0.568017 0.400000 0.111116
0.618799 0.406256 0.077699
0.664546 0.410681 0.000000
0.702876 0.412146 0.000000
0.737942 0.411597 0.000000
0.771633 0.408515 0.000000
0.803830 0.405158 0.000000
0.834501 0.401495 0.000000
0.863584 0.397528 0.000000
0.891295 0.393225 0.000000
0.917723 0.388983 0.000000
0.943145 0.384710 0.000000
0.967620 0.380285 0.000000
0.991272 0.376104 0.000000
1.000000 0.372320 0.000000
1.000000 0.368841 0.000000
1.000000 0.366033 0.000000
1.000000 0.364294 0.069978
0.000000 0.376623 0.279393
0.000000 0.376959 0.278935
0.000000 0.377661 0.278508
0.000000 0.379095 0.277195
0.000000 0.381994 0.273716
0.000000 0.386481 0.266545
0.000000 0.391241 0.253910
0.038209 0.395880 0.234226
0.158114 0.399634 0.205051
0.256077 0.400214 0.198642
0.328771 0.401923 0.194827
0.389319 0.404181 0.182986
0.445228 0.406989 0.168856
0.501274 0.412451 0.149081
0.555322 0.418524 0.131228
0.606256 0.424018 0.107759
0.652827 0.427802 0.072267
0.695094 0.430274 0.000000
0.731991 0.431006 0.000000
0.766110 0.430213 0.000000
0.798886 0.426673 0.000000
0.830106 0.422705 0.000000
0.859770 0.418372 0.000000
0.887938 0.414038 0.000000
0.914855 0.409400 0.000000
0.940642 0.404730 0.000000
0.965515 0.400153 0.000000
0.989563 0.395636 0.000000
1.000000 0.391424 0.000000
1.000000 0.387579 0.000000
1.000000 0.384405 0.000000
1.000000 0.382147 0.071473
0.000000 0.400153 0.295354
0.000000 0.400610 0.295109
0.000000 0.403876 0.296483
0.000000 0.405127 0.295384
0.000000 0.407691 0.292760
0.000000 0.411810 0.286107
0.000000 0.416602 0.274968
0.000000 0.421424 0.257511
0.113497 0.426123 0.231754
0.217502 0.429786 0.207980
0.308537 0.430854 0.209262
0.376165 0.432776 0.199924
0.435920 0.434699 0.186893
0.492103 0.437598 0.169772
0.547539 0.442206 0.148440
0.598993 0.446571 0.130343
0.646082 0.449256 0.104982
0.688808 0.450813 0.064881
0.728237 0.451484 0.000000
0.763668 0.451331 0.000000
0.796506 0.449775 0.000000
0.828031 0.445441 0.000000
0.857969 0.440833 0.000000
0.886320 0.435920 0.000000
0.913268 0.430762 0.000000
0.939086 0.425574 0.000000
0.963897 0.420508 0.000000
0.987976 0.415503 0.000000
1.000000 0.410895 0.000000
1.000000 0.406683 0.000000
1.000000 0.403082 0.000000
1.000000 0.400366 0.072938
0.000000 0.425177 0.312688
0.000000 0.426001 0.312596
0.000000 0.426856 0.312383
0.000000 0.428412 0.311559
0.000000 0.430701 0.309911
0.000000 0.434882 0.304173
0.000000 0.439734 0.294316
0.000000 0.445686 0.279454
0.000000 0.451728 0.257145
0.167544 0.456550 0.225864
0.276341 0.457618 0.218051
0.356115 0.458442 0.216037
0.420783 0.460060 0.203128
0.479103 0.461494 0.188693
0.534966 0.464393 0.169314
0.588434 0.467628 0.146609
0.635981 0.469490 0.128725
0.679500 0.470192 0.101808
0.719722 0.470405 0.056794
0.756954 0.470100 0.000000
0.791135 0.469306 0.000000
0.823209 0.467109 0.000000
0.853788 0.462348 0.000000
0.882750 0.457160 0.000000
0.910185 0.451850 0.000000
0.936492 0.446326 0.000000
0.961761 0.440925 0.000000
0.986206 0.435645 0.000000
1.000000 0.430640 0.000000
1.000000 0.426093 0.000000
1.000000 0.422126 0.000000
1.000000 0.419043 0.075563
0.000000 0.450416 0.329656
0.000000 0.451148 0.329595
0.000000 0.452033 0.329473
0.000000 0.453529 0.328649
0.000000 0.455573 0.327123
0.000000 0.459937 0.323125
0.000000 0.465858 0.314885
0.000000 0.471839 0.301854
0.000000 0.477790 0.282200
0.114015 0.482979 0.253788
0.230472 0.485786 0.226719
0.330266 0.485908 0.227726
0.403113 0.486763 0.219730
0.465705 0.488045 0.205966
0.523186 0.489235 0.190127
0.578058 0.491432 0.168307
0.627649 0.492103 0.146212
0.671809 0.491859 0.127657
0.712673 0.491096 0.098970
0.750729 0.490059 0.037507
0.785855 0.488655 0.000000
0.818479 0.487098 0.000000
0.849607 0.484077 0.000000
0.879149 0.478767 0.000000
0.907103 0.473182 0.000000
0.933806 0.467384 0.000000
0.959472 0.461555 0.000000
0.984192 0.456031 0.000000
1.000000 0.450752 0.000000
1.000000 0.445777 0.000000
1.000000 0.441413 0.000000
1.000000 0.437903 0.077058
0.000000 0.478706 0.348913
0.000000 0.479652 0.348760
0.000000 0.480537 0.348638
0.000000 0.482155 0.347967
0.000000 0.484260 0.346624
0.000000 0.487617 0.343755
0.000000 0.492988 0.336126
0.000000 0.498787 0.324407
0.000000 0.504540 0.306706
0.000000 0.509941 0.281102
0.176120 0.514031 0.246921
0.294560 0.514549 0.236973
0.381720 0.514611 0.236667
0.449958 0.515557 0.223148
0.511345 0.516564 0.208255
0.568170 0.517693 0.189853
0.619837 0.517510 0.167849
0.666041 0.516136 0.146670
0.707912 0.514580 0.126497
0.747036 0.512810 0.095583
0.783200 0.510796 0.016724
0.816526 0.508293 0.000000
0.847562 0.505852 0.000000
0.877745 0.501823 0.000000
0.906340 0.495979 0.000000
0.933501 0.490059 0.000000
0.959503 0.483986 0.000000
0.984527 0.478035 0.000000
1.000000 0.472328 0.000000
1.000000 0.467048 0.000000
1.000000 0.462318 0.000000
1.000000 0.458320 0.084504
0.000000 0.510124 0.369757
0.000000 0.510735 0.369635
0.000000 0.511437 0.369360
0.000000 0.512688 0.368475
0.000000 0.514702 0.367132
0.000000 0.517021 0.365026
0.000000 0.521996 0.358312
0.000000 0.527611 0.347478
0.000000 0.533562 0.331579
0.000000 0.539208 0.308568
0.112825 0.544121 0.277531
0.244877 0.546654 0.246983
0.354009 0.546166 0.248173
0.432654 0.546288 0.242191
0.498787 0.546685 0.227420
0.559106 0.547173 0.210605
0.613489 0.546532 0.190982
0.661463 0.543603 0.168338
0.704524 0.540429 0.148104
0.744015 0.537438 0.125551
0.780606 0.534173 0.091981
0.814328 0.530571 0.000000
0.845182 0.526757 0.000000
0.873960 0.523003 0.000000
0.902953 0.517754 0.000000
0.930571 0.511559 0.000000
0.957031 0.505241 0.000000
0.982452 0.499031 0.000000
1.000000 0.493050 0.000000
1.000000 0.487404 0.000000
1.000000 0.482338 0.000000
1.000000 0.477913 0.088258
0.000000 0.540673 0.389990
0.000000 0.541314 0.389929
0.000000 0.542016 0.389685
0.000000 0.543359 0.388708
0.000000 0.545129 0.387274
0.000000 0.547448 0.385229
0.000000 0.551141 0.380438
0.000000 0.556542 0.370428
0.000000 0.562371 0.355962
0.000000 0.567956 0.335058
0.000000 0.572930 0.306584
0.185977 0.576593 0.270207
0.314519 0.576410 0.258671
0.408820 0.575586 0.258640
0.481453 0.575555 0.246921
0.545708 0.575616 0.231052
0.604608 0.575830 0.213107
0.655695 0.572625 0.191684
0.700679 0.567926 0.168460
0.741299 0.563470 0.149233
0.778683 0.559197 0.124849
0.813077 0.554711 0.088228
0.844633 0.549920 0.000000
0.873472 0.544915 0.000000
0.898833 0.539147 0.000000
0.926940 0.532982 0.000000
0.953887 0.526452 0.000000
0.979736 0.519951 0.000000
1.000000 0.513725 0.000000
1.000000 0.507774 0.000000
1.000000 0.502312 0.000000
1.000000 0.497597 0.091615
0.000000 0.574456 0.412085
0.000000 0.575158 0.411902
0.000000 0.575830 0.411658
0.000000 0.576867 0.410773
0.000000 0.578332 0.408972
0.000000 0.580377 0.406806
0.000000 0.582818 0.403876
0.000000 0.587579 0.394629
0.000000 0.592828 0.380774
0.000000 0.597925 0.361639
0.000000 0.602564 0.335515
0.114321 0.606317 0.301946
0.260441 0.607752 0.270237
0.377142 0.605921 0.271122
0.460761 0.604730 0.267277
0.529351 0.604120 0.251987
0.591485 0.603601 0.234714
0.648981 0.603357 0.215579
0.695552 0.597009 0.193393
0.738125 0.590936 0.169070
0.776394 0.585321 0.149905
0.811490 0.579767 0.123537
0.843626 0.573907 0.083253
0.872862 0.567803 0.000000
0.899504 0.561578 0.000000
0.924163 0.555047 0.000000
0.951385 0.548333 0.000000
0.977508 0.541466 0.000000
1.000000 0.534874 0.000000
1.000000 0.528557 0.000000
1.000000 0.522789 0.000000
1.000000 0.517723 0.096010
0.000000 0.605524 0.431800
0.000000 0.606226 0.431830
0.000000 0.606867 0.431434
0.000000 0.607874 0.430579
0.000000 0.609216 0.428962
0.000000 0.611048 0.426642
0.000000 0.613367 0.423713
0.000000 0.616907 0.417395
0.000000 0.621973 0.404608
0.000000 0.627008 0.387091
0.000000 0.631739 0.363287
0.000000 0.635767 0.332860
0.200961 0.638270 0.296178
0.336553 0.637232 0.284550
0.435431 0.635431 0.284459
0.511376 0.634272 0.274815
0.577661 0.633509 0.258305
0.638331 0.632929 0.240055
0.692866 0.630610 0.219089
0.736873 0.622827 0.196353
0.776822 0.615198 0.171176
0.812467 0.608179 0.151980
0.845121 0.601068 0.123537
0.874846 0.593744 0.078370
0.902007 0.586389 0.000000
0.926879 0.579004 0.000000
0.949554 0.570855 0.000000
0.975952 0.563745 0.000000
1.000000 0.556847 0.000000
1.000000 0.550286 0.000000
1.000000 0.544121 0.016327
1.000000 0.538689 0.102937
0.000000 0.637537 0.452033
0.000000 0.638087 0.452003
0.000000 0.638575 0.451423
0.000000 0.639368 0.450507
0.000000 0.640528 0.448646
0.000000 0.642084 0.446326
0.000000 0.644160 0.443244
0.000000 0.646632 0.439551
0.000000 0.651240 0.428107
0.000000 0.656092 0.411841
0.000000 0.660731 0.390021
0.000000 0.664881 0.362219
0.125765 0.667933 0.328435
0.282078 0.668666 0.298589
0.402747 0.666316 0.299687
0.490517 0.664515 0.298375
0.561120 0.663508 0.282750
0.625269 0.662623 0.264897
0.684840 0.662013 0.245182
0.735256 0.656794 0.223270
0.776638 0.647395 0.199557
0.813748 0.638422 0.174929
0.846860 0.629786 0.154238
0.877104 0.621241 0.123201
0.904723 0.612696 0.072511
0.930022 0.604120 0.000000
0.953277 0.595697 0.000000
0.974182 0.586084 0.000000
0.999268 0.578668 0.000000
1.000000 0.571740 0.000000
1.000000 0.565270 0.031708
1.000000 0.559411 0.108766
0.000000 0.668910 0.471443
0.000000 0.669368 0.471138
0.000000 0.669764 0.470771
0.000000 0.670558 0.469673
0.000000 0.671778 0.467903
0.000000 0.673457 0.465644
0.000000 0.675746 0.462867
0.000000 0.678584 0.459480
0.000000 0.682551 0.452766
0.000000 0.687892 0.437812
0.000000 0.693111 0.418250
0.000000 0.697871 0.392889
0.000000 0.701564 0.362036
0.225620 0.703609 0.329137
0.365179 0.702174 0.319341
0.467323 0.699916 0.319280
0.546593 0.698360 0.311864
0.614435 0.697292 0.294865
0.677119 0.696407 0.275914
0.735836 0.695674 0.254520
0.781125 0.686427 0.231754
0.819364 0.675105 0.207218
0.853452 0.664088 0.183505
0.883909 0.653834 0.160311
0.911833 0.643641 0.126467
0.937346 0.633600 0.069093
0.960784 0.623713 0.000000
0.982147 0.613733 0.000000
1.000000 0.603174 0.000000
1.000000 0.595239 0.000000
1.000000 0.588373 0.062959
1.000000 0.581964 0.120333
0.000000 0.704463 0.492958
0.000000 0.704799 0.492866
0.000000 0.705165 0.492317
0.000000 0.705776 0.491188
0.000000 0.706813 0.489265
0.000000 0.708217 0.486946
0.000000 0.710170 0.483955
0.000000 0.712612 0.480232
0.000000 0.715511 0.475776
0.000000 0.719997 0.463691
0.000000 0.724758 0.445106
0.000000 0.729183 0.421454
0.000000 0.732784 0.392859
0.152132 0.734981 0.361425
0.313848 0.734859 0.337469
0.435828 0.732204 0.338506
