其他预设/【212】创意蓝橙调色预设24款/1.3D LUT预设（视频调色-PR-AE-PS-FCPX-达芬奇用）/18.蓝橙色调-夜景灯光__.cube
# Created by Adobe Lightroom plugin Export LUT (1.17.0)
# www.johnrellis.com/lightroom/exportlut.htm
# Preset: 18.蓝橙色调-夜景灯光[素锦印象]
# Color profile: /Library/Application Support/Adobe/Color/Profiles/Recommended/AdobeRGB1998.icc
LUT_3D_SIZE 32
0.117464 0.115999 0.142428
0.117464 0.115999 0.142428
0.122225 0.115602 0.142641
0.142580 0.113130 0.144076
0.167269 0.109987 0.146029
0.193271 0.110109 0.148074
0.221469 0.109926 0.149996
0.252323 0.109010 0.151797
0.286534 0.107668 0.152895
0.325078 0.104860 0.153628
0.368414 0.101625 0.154269
0.415625 0.097261 0.155062
0.466407 0.092287 0.155642
0.519829 0.087495 0.155703
0.575402 0.080507 0.155856
0.630732 0.073640 0.155642
0.682734 0.066194 0.155947
0.730068 0.066438 0.156649
0.772457 0.067872 0.158419
0.810452 0.073335 0.161868
0.844572 0.083345 0.166445
0.875059 0.092042 0.173312
0.901701 0.105104 0.181796
0.924926 0.118318 0.192416
0.945281 0.132021 0.205020
0.963104 0.147616 0.219364
0.978759 0.164004 0.236301
0.992523 0.182498 0.255070
1.000000 0.202914 0.277165
1.000000 0.226596 0.301915
1.000000 0.253727 0.330022
1.000000 0.285283 0.362158
0.117464 0.115999 0.142428
0.117464 0.115999 0.142428
0.122896 0.115480 0.142794
0.143343 0.112947 0.144228
0.168063 0.112764 0.146487
0.193790 0.113161 0.148501
0.221988 0.112917 0.150698
0.252689 0.112337 0.152163
0.286839 0.110811 0.153414
0.325414 0.108522 0.154147
0.368627 0.105470 0.154635
0.415991 0.101442 0.155398
0.466560 0.097719 0.155673
0.519890 0.093385 0.156039
0.575402 0.086976 0.156039
0.630793 0.082063 0.155612
0.682643 0.075624 0.155947
0.730098 0.074372 0.156954
0.772305 0.076448 0.158724
0.810391 0.080690 0.162173
0.844541 0.088808 0.166781
0.874968 0.098665 0.173312
0.901701 0.109407 0.182071
0.924926 0.122560 0.192325
0.945220 0.136019 0.204929
0.963043 0.150454 0.219791
0.978729 0.166506 0.236332
0.992462 0.184695 0.255528
1.000000 0.204868 0.277348
1.000000 0.228183 0.302129
1.000000 0.254948 0.330266
1.000000 0.286503 0.362524
0.117464 0.115999 0.142428
0.117464 0.115999 0.142428
0.124269 0.115450 0.142947
0.144625 0.115999 0.144625
0.168856 0.116976 0.146944
0.194614 0.117098 0.148989
0.222446 0.116976 0.151186
0.252964 0.116457 0.152651
0.287175 0.115175 0.153597
0.325689 0.113252 0.154452
0.368750 0.110689 0.154788
0.416144 0.107332 0.155367
0.466621 0.104158 0.155917
0.520073 0.100282 0.156130
0.575372 0.096132 0.156069
0.630823 0.090181 0.155978
0.682521 0.086976 0.156100
0.729915 0.085481 0.156863
0.772274 0.087251 0.158755
0.810330 0.091005 0.162051
0.844541 0.096864 0.167117
0.874937 0.105684 0.173770
0.901579 0.116487 0.182010
0.924834 0.127932 0.192630
0.945159 0.140383 0.205417
0.963012 0.154635 0.219760
0.978668 0.169833 0.236881
0.992432 0.187625 0.255772
1.000000 0.207340 0.277623
1.000000 0.230259 0.302525
1.000000 0.256870 0.330724
1.000000 0.288151 0.363134
0.117769 0.121889 0.143282
0.119265 0.122683 0.143679
0.127413 0.123110 0.145022
0.145968 0.125063 0.147555
0.170504 0.125490 0.148806
0.196017 0.125795 0.150484
0.223758 0.125277 0.152102
0.254093 0.124788 0.153536
0.287968 0.123903 0.154482
0.326513 0.122499 0.155001
0.369421 0.121004 0.155428
0.416510 0.119234 0.155947
0.466896 0.116732 0.156649
0.519951 0.114626 0.156527
0.575494 0.111086 0.156588
0.630762 0.107881 0.156161
0.682460 0.105043 0.156588
0.729854 0.104372 0.157168
0.772213 0.105257 0.159335
0.810086 0.108370 0.162539
0.844358 0.113771 0.167269
0.874784 0.119875 0.174105
0.901488 0.129030 0.182589
0.924712 0.138735 0.193393
0.945068 0.149783 0.206180
0.962890 0.162631 0.220584
0.978576 0.176883 0.237247
0.992340 0.193637 0.256443
1.000000 0.212711 0.278538
1.000000 0.234836 0.303166
1.000000 0.260716 0.331609
1.000000 0.291508 0.363928
0.118532 0.133516 0.145113
0.122591 0.134005 0.145602
0.131228 0.134310 0.146639
0.145907 0.134798 0.149874
0.167605 0.137636 0.154818
0.196811 0.138094 0.154299
0.225559 0.137179 0.154269
0.255741 0.136751 0.155001
0.289433 0.136477 0.155703
0.327459 0.135897 0.156344
0.370336 0.134920 0.156771
0.417151 0.134615 0.156771
0.467323 0.134035 0.157229
0.520317 0.133211 0.157321
0.575616 0.131258 0.157076
0.630701 0.129580 0.156741
0.682216 0.128328 0.156985
0.729610 0.127840 0.157717
0.771878 0.128511 0.159915
0.809873 0.130434 0.163241
0.844144 0.133730 0.168032
0.874571 0.139467 0.174655
0.901274 0.145846 0.183536
0.924529 0.153994 0.194308
0.944854 0.163729 0.206912
0.962707 0.174350 0.221866
0.978393 0.187716 0.238437
0.992157 0.202945 0.257725
1.000000 0.220645 0.279637
1.000000 0.241794 0.304692
1.000000 0.266880 0.332921
1.000000 0.296788 0.365301
0.121157 0.145113 0.147097
0.126955 0.145144 0.147738
0.134249 0.145388 0.148623
0.148196 0.145083 0.151431
0.166445 0.146639 0.155764
0.191073 0.150546 0.161044
0.223423 0.152407 0.160311
0.256291 0.151705 0.158541
0.290898 0.151492 0.157778
0.328740 0.152132 0.158053
0.371405 0.152407 0.158206
0.417975 0.152834 0.158175
0.467781 0.153780 0.158267
0.520653 0.153902 0.158297
0.575738 0.153353 0.157992
0.630701 0.152712 0.157900
0.682063 0.152651 0.157656
0.729397 0.151858 0.158724
0.771542 0.153048 0.160464
0.809659 0.153841 0.164065
0.843870 0.156466 0.169253
0.874266 0.160555 0.175875
0.900999 0.165835 0.184817
0.924285 0.172457 0.195438
0.944640 0.179812 0.208225
0.962463 0.189273 0.223117
0.978180 0.200595 0.240055
0.991943 0.214237 0.259525
1.000000 0.231022 0.281498
1.000000 0.250950 0.306371
1.000000 0.274876 0.334997
1.000000 0.303929 0.367437
0.127169 0.156161 0.149386
0.132265 0.156405 0.149691
0.138399 0.156771 0.150576
0.151217 0.156619 0.153079
0.167483 0.156832 0.156497
0.189578 0.159884 0.160769
0.217472 0.164706 0.166567
0.251987 0.168124 0.166506
0.288060 0.169009 0.164065
0.328710 0.169863 0.161715
0.372564 0.171084 0.159915
0.418921 0.172702 0.159792
0.468330 0.174350 0.159945
0.521233 0.175509 0.159762
0.576165 0.176577 0.159182
0.630732 0.177096 0.158907
0.682094 0.177310 0.158755
0.729061 0.177340 0.160067
0.771206 0.178225 0.161685
0.809293 0.178836 0.165286
0.843442 0.180972 0.170291
0.873991 0.183261 0.177462
0.900694 0.186954 0.186252
0.924010 0.191958 0.197055
0.944335 0.198245 0.209964
0.962188 0.206180 0.224918
0.977874 0.215915 0.242100
0.991638 0.228183 0.261326
1.000000 0.243229 0.283787
1.000000 0.261845 0.308721
1.000000 0.284550 0.337285
1.000000 0.312505 0.369909
0.132815 0.169009 0.154025
0.137819 0.169070 0.153628
0.143801 0.169009 0.153353
0.155642 0.169100 0.154330
0.171511 0.169284 0.157321
0.190372 0.170413 0.161105
0.215640 0.174777 0.165652
0.246220 0.180514 0.171145
0.282933 0.185580 0.172793
0.323278 0.188327 0.170047
0.368536 0.190921 0.167147
0.417762 0.193393 0.164065
0.469398 0.195560 0.161807
0.521752 0.198093 0.161501
0.576440 0.200168 0.160800
0.630854 0.201144 0.160342
0.681849 0.202365 0.160464
0.728786 0.202792 0.161288
0.770871 0.203372 0.163180
0.808835 0.204318 0.166720
0.843076 0.205203 0.171908
0.873564 0.206821 0.179294
0.900298 0.209781 0.187869
0.923613 0.213169 0.199191
0.943938 0.218021 0.212192
0.961822 0.224491 0.227207
0.977508 0.232975 0.244388
0.991302 0.243534 0.264164
1.000000 0.257389 0.286442
1.000000 0.274449 0.311650
1.000000 0.296056 0.340490
1.000000 0.322728 0.373236
0.139040 0.183444 0.159213
0.143465 0.183291 0.158846
0.149325 0.183322 0.158572
0.160952 0.183444 0.158267
0.177005 0.183444 0.158633
0.194522 0.183719 0.161654
0.216464 0.186282 0.165530
0.245060 0.191592 0.169802
0.278599 0.198306 0.175692
0.317784 0.205112 0.179477
0.362585 0.209628 0.176242
0.411719 0.213779 0.173098
0.464210 0.217899 0.170077
0.519829 0.221225 0.166415
0.576928 0.223911 0.162722
0.630854 0.226200 0.162142
0.681758 0.227543 0.162081
0.728450 0.228458 0.163149
0.770443 0.228855 0.165194
0.808408 0.229191 0.168887
0.842588 0.230137 0.173983
0.873136 0.231022 0.181186
0.899870 0.232761 0.190433
0.923156 0.235325 0.201511
0.943511 0.239261 0.214603
0.961395 0.244236 0.229953
0.977111 0.251011 0.247135
0.990906 0.260410 0.267063
1.000000 0.272679 0.289525
1.000000 0.288487 0.315007
1.000000 0.308812 0.344030
1.000000 0.334264 0.376745
0.145357 0.199161 0.164065
0.149905 0.199222 0.163668
0.155276 0.199283 0.163546
0.166812 0.199191 0.162997
0.182773 0.199130 0.162936
0.200900 0.199252 0.163302
0.220249 0.199802 0.165774
0.246342 0.204135 0.168917
0.277867 0.210391 0.174014
0.314824 0.218448 0.180362
0.356451 0.226596 0.186435
0.405158 0.232822 0.183322
0.457679 0.238468 0.180240
0.513207 0.243473 0.176425
0.571008 0.247715 0.172000
0.628748 0.250706 0.167697
0.681727 0.252506 0.164401
0.728237 0.253513 0.165438
0.769924 0.254490 0.167269
0.807919 0.254459 0.170962
0.842100 0.255009 0.176150
0.872587 0.255619 0.183505
0.899351 0.256352 0.192966
0.922698 0.257939 0.204471
0.943053 0.260624 0.217716
0.960906 0.264561 0.233127
0.976623 0.270268 0.250584
0.990448 0.278477 0.270542
1.000000 0.289433 0.293187
1.000000 0.303899 0.319036
1.000000 0.322881 0.348211
1.000000 0.347173 0.381231
0.151583 0.216861 0.168490
0.156069 0.216678 0.168276
0.162112 0.216739 0.167880
0.173220 0.216770 0.167330
0.189059 0.216434 0.166903
0.207706 0.216373 0.167086
0.227695 0.216464 0.167544
0.249424 0.217929 0.169253
0.279515 0.223819 0.172122
0.314672 0.231571 0.177981
0.355138 0.240604 0.185122
0.399817 0.250126 0.193149
0.450690 0.257603 0.191196
0.506401 0.264347 0.187533
0.564294 0.270268 0.183230
0.622065 0.275090 0.179080
0.676356 0.277836 0.174868
0.725917 0.279026 0.171298
0.769558 0.279393 0.170047
0.807401 0.279698 0.173495
0.841581 0.279820 0.179019
0.872038 0.279789 0.186465
0.898802 0.280003 0.196231
0.922087 0.281071 0.207462
0.942504 0.282719 0.221225
0.960357 0.285618 0.236728
0.976104 0.290196 0.254490
0.989899 0.297276 0.274662
1.000000 0.306950 0.297642
1.000000 0.320256 0.323491
1.000000 0.337957 0.352880
1.000000 0.361242 0.386206
0.158267 0.235935 0.172183
0.162539 0.235782 0.171969
0.167941 0.235782 0.171847
0.179599 0.235477 0.171176
0.195651 0.235294 0.170626
0.214725 0.235050 0.170535
0.235447 0.235019 0.170809
0.256931 0.235325 0.170932
0.282506 0.238254 0.171969
0.316686 0.245609 0.174746
0.355169 0.254612 0.182315
0.398718 0.264744 0.190646
0.446784 0.275456 0.199588
0.499123 0.283787 0.199496
0.556634 0.291508 0.195438
0.615076 0.297673 0.191043
0.669764 0.302129 0.186923
0.719936 0.304387 0.183658
0.765133 0.305241 0.180850
0.805814 0.304936 0.179477
0.841032 0.304448 0.182345
0.871458 0.304112 0.190036
0.898192 0.303929 0.199649
0.921477 0.304173 0.211276
0.941863 0.305089 0.225010
0.959777 0.307103 0.240787
0.975494 0.310796 0.258915
0.989288 0.316686 0.279271
1.000000 0.325475 0.302556
1.000000 0.337530 0.328557
1.000000 0.354101 0.358099
1.000000 0.376165 0.391608
0.164584 0.256352 0.175387
0.169009 0.256168 0.175174
0.174838 0.256016 0.174929
0.186221 0.255802 0.174411
0.202243 0.255375 0.173587
0.221988 0.255009 0.173251
0.243503 0.254978 0.173312
0.265812 0.255009 0.173526
0.288945 0.255406 0.173922
0.319554 0.260807 0.174289
0.357092 0.269444 0.178378
0.398810 0.279545 0.187625
0.445411 0.290593 0.197055
0.496407 0.302068 0.206332
0.548943 0.310857 0.208316
0.607416 0.319036 0.204105
0.662806 0.324865 0.200168
0.713527 0.328405 0.196719
0.759487 0.330266 0.194156
0.800900 0.330785 0.192935
0.837919 0.330022 0.193423
0.870481 0.328588 0.195102
0.897520 0.327855 0.203647
0.920836 0.327276 0.215793
0.941222 0.327642 0.229374
0.959136 0.328985 0.245457
0.974823 0.331853 0.263615
0.988647 0.336736 0.284550
1.000000 0.344396 0.307866
1.000000 0.355627 0.334417
1.000000 0.371069 0.364080
1.000000 0.392035 0.397833
0.171176 0.278447 0.178042
0.175723 0.278172 0.177951
0.181430 0.278019 0.177707
0.193057 0.277684 0.177310
0.209751 0.276982 0.176425
0.229557 0.276524 0.175784
0.251865 0.276280 0.175723
0.275090 0.276188 0.175753
0.299077 0.276219 0.176089
0.324804 0.277867 0.175753
0.359991 0.285344 0.177096
0.400488 0.295048 0.183413
0.445197 0.306004 0.193423
0.494362 0.317723 0.203159
0.547082 0.329686 0.213291
0.599512 0.338842 0.217868
0.655177 0.346227 0.214084
0.706600 0.351263 0.210758
0.753445 0.354040 0.208377
0.795712 0.355474 0.207248
0.833402 0.355413 0.207858
0.866545 0.354406 0.209781
0.895415 0.352544 0.213626
0.920104 0.350683 0.220279
0.940520 0.350256 0.234440
0.958434 0.350805 0.250858
0.974121 0.352972 0.269352
0.987915 0.357153 0.290227
0.999908 0.363958 0.314061
1.000000 0.374212 0.340734
1.000000 0.388678 0.370581
1.000000 0.408850 0.404730
0.178256 0.301793 0.180514
0.182681 0.301671 0.180392
0.188632 0.301335 0.180056
0.200717 0.300877 0.179538
0.217563 0.300145 0.178744
0.237583 0.299260 0.177829
0.260380 0.299016 0.177829
0.284581 0.298680 0.177798
0.309575 0.298558 0.177951
0.334691 0.298772 0.178164
0.363928 0.301915 0.178256
0.402991 0.311376 0.181247
0.446601 0.321965 0.188724
0.494118 0.333776 0.199252
0.545251 0.345892 0.209842
0.598627 0.357946 0.221195
0.647303 0.366308 0.228550
0.699275 0.372656 0.225528
0.747005 0.376837 0.223239
0.790127 0.379126 0.222263
0.828580 0.379950 0.222995
0.862394 0.379400 0.225223
0.891814 0.378027 0.229252
0.917205 0.375860 0.235142
0.939208 0.373571 0.242618
0.957641 0.372900 0.256657
0.973358 0.374334 0.275517
0.987121 0.377874 0.296696
0.999115 0.383856 0.320623
1.000000 0.393256 0.347448
1.000000 0.406928 0.377996
1.000000 0.426154 0.412390
0.185824 0.326604 0.182681
0.190402 0.326268 0.182620
0.196017 0.326024 0.182376
0.208408 0.325414 0.181765
0.225528 0.324437 0.181003
0.246128 0.323156 0.179751
0.269413 0.322637 0.179629
0.294102 0.322393 0.179782
0.320073 0.322026 0.180117
0.346014 0.321904 0.180392
0.372473 0.322240 0.180911
0.406561 0.328252 0.181155
0.448920 0.338750 0.185367
0.495186 0.350256 0.194522
0.544518 0.362432 0.205600
0.596551 0.374670 0.217136
0.647089 0.385473 0.229862
0.691432 0.392828 0.240574
0.740017 0.398413 0.238529
0.784115 0.401953 0.237797
0.823362 0.403693 0.238621
0.857908 0.403876 0.241428
0.887907 0.402899 0.245640
0.913787 0.401068 0.251713
0.936187 0.398962 0.259525
0.955627 0.397070 0.269322
0.972473 0.395972 0.282261
0.986267 0.398810 0.303716
0.998199 0.404120 0.327764
1.000000 0.412726 0.355016
1.000000 0.425635 0.385809
1.000000 0.444129 0.420447
0.194247 0.352148 0.185367
0.198856 0.351904 0.185061
0.204715 0.351568 0.185061
0.216983 0.350896 0.184573
0.234379 0.349798 0.183841
0.255070 0.348363 0.182620
0.278294 0.347265 0.182315
0.303899 0.346746 0.182406
0.330541 0.346288 0.182803
0.357275 0.346014 0.183017
0.384558 0.346105 0.183566
0.413489 0.347631 0.184207
0.451911 0.355993 0.184237
0.497078 0.367346 0.189731
0.545129 0.379370 0.200534
0.595361 0.391577 0.212436
0.644862 0.402594 0.225650
0.691890 0.412207 0.239628
0.732937 0.418891 0.254276
0.777737 0.423835 0.254002
0.817868 0.426490 0.255100
0.853178 0.427405 0.258061
0.883726 0.427131 0.262730
0.910033 0.425940 0.269078
0.932860 0.424048 0.277256
0.952605 0.422370 0.287327
0.969879 0.421057 0.299290
0.984985 0.420661 0.313237
0.997253 0.424567 0.335943
1.000000 0.432563 0.363226
1.000000 0.444770 0.394171
1.000000 0.462470 0.429236
0.203433 0.378607 0.188785
0.208042 0.378363 0.188571
0.214267 0.377996 0.188235
0.226261 0.377234 0.187869
0.243809 0.376043 0.187289
0.264591 0.374456 0.186343
0.287663 0.372625 0.185367
0.313756 0.372015 0.185306
0.341070 0.371557 0.185580
0.368811 0.371221 0.186038
0.396735 0.371130 0.186282
0.424811 0.371191 0.186801
0.456886 0.374456 0.187076
0.500053 0.385229 0.188418
0.547723 0.397314 0.194308
0.596765 0.409583 0.207095
0.645197 0.420691 0.220951
0.691463 0.430304 0.235630
0.734585 0.438392 0.251530
0.772152 0.444312 0.268894
0.812070 0.448341 0.272160
0.848051 0.450355 0.275425
0.879271 0.450813 0.280461
0.906157 0.450111 0.287266
0.929259 0.448768 0.295781
0.949340 0.447364 0.306279
0.966827 0.446418 0.318364
0.982116 0.446235 0.332738
0.995422 0.447425 0.349218
1.000000 0.452583 0.372045
1.000000 0.464240 0.403357
1.000000 0.481361 0.438788
0.213748 0.406744 0.192203
0.218235 0.406439 0.192142
0.224460 0.405982 0.191928
0.236454 0.405158 0.191592
0.253819 0.403815 0.190799
0.274784 0.402258 0.189975
0.298405 0.399969 0.188388
0.324620 0.399115 0.188205
0.352605 0.398627 0.188205
0.381048 0.398230 0.188571
0.410071 0.398047 0.188785
0.439277 0.398047 0.189059
0.468574 0.398566 0.189487
0.505577 0.404761 0.189181
0.552026 0.416938 0.192752
0.600671 0.429023 0.200565
0.648096 0.440009 0.215702
0.693294 0.449653 0.231266
0.735927 0.457679 0.248234
0.774075 0.464088 0.266636
0.807523 0.469184 0.286046
0.842679 0.472419 0.293217
0.874601 0.473732 0.298650
0.901946 0.473732 0.305669
0.925444 0.472938 0.314611
0.945861 0.471931 0.325475
0.963561 0.471443 0.338140
0.979004 0.471595 0.352850
0.992401 0.473243 0.369818
1.000000 0.476875 0.389227
1.000000 0.483925 0.412909
1.000000 0.500481 0.448768
0.225193 0.437049 0.195682
0.229252 0.436835 0.195712
0.235172 0.436378 0.195499
0.247440 0.435401 0.194858
0.265049 0.434119 0.194278
0.286229 0.432288 0.193271
0.310307 0.429847 0.191623
0.336492 0.428199 0.190799
0.365118 0.427741 0.190707
0.394629 0.427253 0.190829
0.424598 0.427222 0.191135
0.454780 0.427100 0.191379
0.485084 0.427161 0.191714
0.517357 0.429297 0.191806
0.558740 0.438025 0.191623
0.606561 0.450202 0.198398
0.653315 0.460914 0.209079
0.697719 0.470253 0.226474
0.739223 0.478065 0.244633
0.776699 0.484169 0.264073
0.809812 0.488960 0.284489
0.838987 0.493202 0.306340
0.869596 0.495918 0.317266
0.897520 0.496712 0.324834
0.921416 0.496620 0.334020
0.942168 0.496162 0.345403
0.960113 0.495918 0.358312
0.975708 0.496742 0.373419
0.989197 0.498756 0.390692
1.000000 0.502800 0.410742
1.000000 0.509728 0.433753
1.000000 0.520867 0.460975
0.237034 0.469947 0.199100
0.241184 0.469673 0.199130
0.247623 0.469154 0.198734
0.259525 0.468269 0.198184
0.277562 0.466621 0.197360
0.299382 0.464668 0.196139
0.323278 0.462135 0.194766
0.349371 0.459449 0.193179
0.378882 0.458961 0.193057
0.409308 0.458686 0.192935
0.440223 0.458412 0.193118
0.471595 0.458259 0.193271
0.503014 0.458350 0.193179
0.534417 0.458717 0.193637
0.569543 0.462440 0.193606
0.614252 0.472969 0.197299
0.660212 0.483406 0.205783
0.704097 0.492256 0.220859
0.744533 0.499702 0.240360
0.781003 0.505303 0.261204
0.813352 0.509606 0.282994
0.841642 0.513085 0.306004
0.866514 0.516533 0.329808
0.892851 0.518975 0.344121
0.917235 0.519554 0.353826
0.938231 0.519829 0.365454
0.956420 0.520256 0.378851
0.972168 0.521477 0.394568
0.985748 0.524010 0.412207
0.997314 0.528588 0.432471
1.000000 0.536095 0.456001
1.000000 0.547723 0.483558
0.250126 0.505364 0.202396
0.254795 0.504997 0.202121
0.260655 0.504479 0.201846
0.272831 0.503502 0.201419
0.290990 0.501915 0.200351
0.312902 0.499916 0.199283
0.337591 0.497108 0.197513
0.364050 0.493935 0.195621
0.393713 0.492836 0.195163
0.425147 0.492409 0.194888
0.457130 0.492164 0.194827
0.489662 0.491981 0.194675
0.522240 0.491920 0.194858
0.554650 0.492226 0.194980
0.587060 0.492805 0.195041
0.623926 0.497353 0.196048
0.668849 0.507561 0.205203
0.712062 0.516014 0.216342
0.751553 0.522667 0.235538
0.786984 0.527611 0.258366
0.818448 0.531365 0.281834
0.845884 0.534020 0.306249
0.869505 0.536492 0.330663
0.890166 0.539330 0.356390
0.912779 0.542016 0.373938
0.934112 0.542962 0.385840
0.952544 0.544030 0.399847
0.968444 0.545861 0.415839
0.982086 0.549035 0.434028
0.993683 0.554162 0.454688
1.000000 0.562249 0.478614
1.000000 0.574517 0.506584
0.264286 0.542992 0.205722
0.268864 0.542626 0.205447
0.274662 0.542229 0.205234
0.287297 0.541009 0.204471
0.305547 0.539300 0.203433
0.327733 0.537194 0.202152
0.352819 0.534356 0.200534
0.379919 0.530968 0.198245
0.409522 0.528496 0.196811
0.441627 0.528038 0.196658
0.474678 0.527520 0.196567
0.508019 0.527123 0.196353
0.541314 0.526879 0.196384
0.574670 0.526909 0.196475
0.607660 0.527031 0.196780
0.641108 0.528099 0.197421
0.679255 0.533349 0.204746
0.721431 0.541405 0.216464
0.760159 0.547143 0.230594
0.794491 0.551293 0.254948
0.824826 0.554162 0.280583
0.851347 0.556085 0.306676
0.874083 0.557763 0.332982
0.893492 0.559319 0.359228
0.910369 0.562036 0.386328
0.929839 0.565484 0.406714
0.948455 0.567315 0.420935
0.964538 0.569757 0.437354
0.978302 0.573602 0.456123
0.989868 0.579400 0.477333
0.999329 0.588159 0.501671
1.000000 0.600732 0.529534
0.279484 0.581445 0.209384
0.283940 0.581048 0.209110
0.289952 0.580499 0.208835
0.302434 0.579431 0.208042
0.320500 0.577722 0.207126
0.342992 0.575341 0.205539
0.368353 0.572473 0.203830
0.396063 0.568963 0.201389
0.425177 0.565148 0.198764
0.458045 0.564416 0.198642
0.491768 0.563836 0.198672
0.525719 0.563317 0.198520
0.560021 0.562737 0.198367
0.594110 0.562432 0.198672
0.627802 0.562280 0.198856
0.661036 0.562493 0.199283
0.694057 0.563195 0.204410
0.732143 0.568444 0.217319
0.769680 0.573358 0.232517
0.803342 0.576226 0.251164
0.832456 0.578088 0.279393
0.857847 0.579187 0.307591
0.879576 0.579828 0.335698
0.898161 0.580652 0.363684
0.913939 0.582208 0.391302
0.927489 0.585138 0.419226
0.944244 0.589929 0.442390
0.960449 0.593194 0.459266
0.974273 0.597681 0.478431
0.985870 0.604242 0.500114
0.995300 0.613458 0.524620
1.000000 0.626001 0.551995
0.295384 0.620356 0.213901
0.299382 0.619989 0.213840
0.305516 0.619440 0.213352
0.317998 0.618311 0.212589
0.336431 0.616510 0.211337
0.358587 0.614191 0.209964
0.384497 0.611231 0.207980
0.412451 0.607568 0.205325
0.441718 0.603388 0.202365
0.474495 0.601617 0.201328
0.508690 0.600855 0.201175
0.543420 0.600061 0.201266
0.578271 0.599390 0.201205
0.612879 0.598749 0.201328
0.647211 0.598352 0.201694
0.680903 0.598260 0.202152
0.713924 0.598322 0.204044
0.744350 0.597101 0.218814
0.780392 0.601190 0.235264
0.812833 0.602991 0.254124
0.841184 0.603326 0.278111
0.865293 0.603235 0.309209
0.885985 0.602899 0.339574
0.903593 0.602838 0.369329
0.918608 0.603693 0.398627
0.931273 0.605768 0.427558
0.941955 0.609369 0.455695
0.956268 0.615869 0.481178
0.970092 0.621302 0.500938
0.981750 0.628321 0.522789
0.991211 0.637781 0.546960
0.998474 0.650355 0.574090
0.311559 0.659449 0.220096
0.316472 0.658961 0.219669
0.322057 0.658473 0.219425
0.334417 0.657343 0.218479
0.352361 0.655543 0.217258
0.374792 0.653223 0.215640
0.400641 0.650172 0.213260
0.428870 0.646571 0.210361
0.458625 0.642359 0.206943
0.490394 0.639124 0.204685
0.525231 0.638178 0.204746
0.560327 0.637201 0.204685
0.595575 0.636194 0.204990
0.630640 0.635370 0.205447
0.665217 0.634638 0.205997
0.699245 0.634058 0.206607
0.732570 0.633692 0.208164
0.763363 0.632532 0.221622
0.792355 0.630488 0.239384
0.823301 0.631312 0.259922
0.850553 0.630243 0.282200
0.873716 0.628504 0.311376
0.893187 0.627039 0.344549
0.909728 0.626062 0.376471
0.923857 0.626093 0.407630
0.935760 0.627558 0.437995
0.945739 0.630701 0.467536
0.954040 0.635798 0.496620
0.965850 0.643977 0.523278
0.977569 0.651453 0.544976
0.987091 0.661067 0.568811
0.994385 0.673671 0.595605
0.329534 0.697261 0.228244
0.333562 0.696956 0.228000
0.339269 0.696468 0.227543
0.351202 0.695338 0.226566
0.369116 0.693568 0.225193
0.391211 0.691249 0.223178
0.416999 0.688258 0.220676
0.444923 0.684749 0.217533
0.474861 0.680598 0.213931
0.505638 0.676173 0.209934
0.540673 0.674891 0.210117
0.576013 0.673732 0.210208
0.611536 0.672480 0.210575
0.646693 0.671321 0.211215
0.681514 0.670314 0.212131
0.715694 0.669306 0.213046
0.749081 0.668635 0.214847
0.781430 0.668666 0.227146
0.808011 0.664088 0.245731
0.834745 0.661036 0.267491
0.860472 0.658717 0.291447
0.882689 0.655177 0.316594
0.901061 0.652186 0.350408
0.916533 0.650233 0.385168
0.929625 0.649470 0.418494
0.940642 0.650385 0.450690
0.949828 0.653101 0.482063
0.957427 0.657862 0.512078
0.963684 0.664240 0.540551
0.973419 0.673365 0.566400
0.983001 0.683223 0.590082
0.990295 0.695827 0.616510
0.347845 0.733730 0.239200
0.351843 0.733364 0.238804
0.357397 0.732906 0.238376
0.368872 0.731838 0.237522
0.386145 0.730159 0.235874
0.407813 0.727871 0.233799
0.432990 0.725063 0.230961
0.460670 0.721645 0.227756
0.490333 0.717708 0.223789
0.521202 0.713130 0.218814
0.555047 0.710750 0.217655
0.590539 0.709316 0.218051
0.626062 0.707851 0.218814
0.661341 0.706447 0.219821
0.696162 0.705013 0.220829
