其他预设/【212】创意蓝橙调色预设24款/1.3D LUT预设（视频调色-PR-AE-PS-FCPX-达芬奇用）/18.蓝橙色调-夜景灯光__.cube
# Created by Adobe Lightroom plugin Export LUT (1.17.0)
# www.johnrellis.com/lightroom/exportlut.htm
# Preset: 18.蓝橙色调-夜景灯光[素锦印象]
# Color profile: /Library/Application Support/Adobe/Color/Profiles/Recommended/AdobeRGB1998.icc
LUT_3D_SIZE 8
DOMAIN_MIN 0.000000 0.000000 0.000000
DOMAIN_MAX 0.903226 0.903226 0.903226
0.117464 0.115999 0.142428
0.167269 0.109987 0.146029
0.286534 0.107668 0.152895
0.466407 0.092287 0.155642
0.682734 0.066194 0.155947
0.844572 0.083345 0.166445
0.945281 0.132021 0.205020
1.000000 0.202914 0.277165
0.118532 0.133516 0.145113
0.167605 0.137636 0.154818
0.289433 0.136477 0.155703
0.467323 0.134035 0.157229
0.682216 0.128328 0.156985
0.844144 0.133730 0.168032
0.944854 0.163729 0.206912
1.000000 0.220645 0.279637
0.139040 0.183444 0.159213
0.177005 0.183444 0.158633
0.278599 0.198306 0.175692
0.464210 0.217899 0.170077
0.681758 0.227543 0.162081
0.842588 0.230137 0.173983
0.943511 0.239261 0.214603
1.000000 0.272679 0.289525
0.164584 0.256352 0.175387
0.202243 0.255375 0.173587
0.288945 0.255406 0.173922
0.445411 0.290593 0.197055
0.662806 0.324865 0.200168
0.837919 0.330022 0.193423
0.941222 0.327642 0.229374
1.000000 0.344396 0.307866
0.194247 0.352148 0.185367
0.234379 0.349798 0.183841
0.330541 0.346288 0.182803
0.451911 0.355993 0.184237
0.644862 0.402594 0.225650
0.817868 0.426490 0.255100
0.932860 0.424048 0.277256
0.997253 0.424567 0.335943
0.237034 0.469947 0.199100
0.277562 0.466621 0.197360
0.378882 0.458961 0.193057
0.503014 0.458350 0.193179
0.660212 0.483406 0.205783
0.813352 0.509606 0.282994
0.917235 0.519554 0.353826
0.985748 0.524010 0.412207
0.295384 0.620356 0.213901
0.336431 0.616510 0.211337
0.441718 0.603388 0.202365
0.578271 0.599390 0.201205
0.713924 0.598322 0.204044
0.841184 0.603326 0.278111
0.918608 0.603693 0.398627
0.970092 0.621302 0.500938
0.367285 0.768276 0.253880
0.403906 0.764828 0.250462
0.505608 0.752987 0.236912
0.639124 0.741909 0.230320
0.775875 0.735653 0.237827
0.881895 0.719509 0.318425
0.942412 0.699397 0.447608
0.969604 0.710933 0.580346
0.103151 0.123629 0.187778
0.147707 0.128328 0.180240
0.271946 0.139956 0.161563
0.446601 0.157809 0.158511
0.667323 0.159304 0.158206
0.837339 0.160525 0.168276
0.942473 0.176944 0.206546
1.000000 0.222812 0.278752
0.103029 0.149142 0.193576
0.154238 0.151369 0.185336
0.272313 0.161776 0.172457
0.448615 0.178592 0.160433
0.667628 0.185611 0.159274
0.837095 0.187594 0.169802
0.942138 0.199130 0.208743
1.000000 0.238193 0.281468
0.121004 0.198093 0.199924
0.167300 0.200137 0.193515
0.271458 0.207065 0.191928
0.439796 0.235447 0.180545
0.668666 0.254307 0.165194
0.836393 0.257664 0.175662
0.941039 0.260868 0.216251
1.000000 0.285527 0.291203
0.137118 0.271794 0.208377
0.184878 0.271366 0.199710
0.290898 0.268376 0.196841
0.439246 0.296818 0.199313
0.647303 0.335363 0.208438
0.829984 0.345495 0.201755
0.939117 0.340612 0.230961
0.999847 0.353185 0.309514
0.152529 0.368139 0.207218
0.210880 0.364996 0.205814
0.325597 0.358556 0.202884
0.451575 0.362524 0.202670
0.639979 0.408026 0.222690
0.810971 0.434089 0.260838
0.929900 0.433204 0.283207
0.996521 0.430671 0.337377
0.198520 0.484504 0.220188
0.251316 0.480995 0.218540
0.368566 0.469856 0.212192
0.503136 0.467964 0.211734
0.658045 0.487800 0.210849
0.811032 0.514031 0.280156
0.914580 0.525261 0.358190
0.984619 0.529290 0.416236
0.257389 0.632105 0.236332
0.307897 0.628016 0.233768
0.428412 0.614252 0.224338
0.572503 0.606561 0.220493
0.713436 0.604334 0.221836
0.839689 0.606897 0.274632
0.917815 0.606470 0.396612
0.969085 0.624933 0.504204
0.337743 0.775113 0.277653
0.379095 0.771633 0.273930
0.489967 0.759548 0.260838
0.629297 0.746029 0.249607
0.770993 0.739071 0.256046
0.880400 0.722621 0.316350
0.941955 0.701411 0.445136
0.969451 0.712032 0.579583
0.000000 0.169345 0.301793
0.000000 0.176638 0.294560
0.223148 0.161135 0.269322
0.424720 0.151858 0.229862
0.645563 0.200534 0.201938
0.820096 0.253086 0.172519
0.935424 0.251621 0.211002
1.000000 0.266209 0.284154
0.000000 0.195682 0.302770
0.000519 0.195499 0.297978
0.227695 0.179263 0.272343
0.424079 0.181155 0.239017
0.644953 0.221927 0.209628
0.819974 0.268406 0.174014
0.935180 0.265904 0.213016
1.000000 0.278416 0.286900
0.000000 0.245609 0.315343
0.032624 0.243015 0.309728
0.238743 0.230350 0.278569
0.424750 0.247807 0.262486
0.644373 0.278386 0.228672
0.818753 0.314275 0.185794
0.934447 0.310277 0.220645
0.999542 0.317784 0.296574
0.000000 0.312718 0.327398
0.047425 0.315496 0.320836
0.246006 0.306096 0.272984
0.422339 0.311803 0.278874
0.627253 0.350439 0.269627
0.808682 0.380224 0.231479
0.931670 0.376867 0.241398
0.997498 0.377264 0.314885
0.000000 0.411505 0.343969
0.067781 0.410956 0.328985
0.266514 0.399359 0.274723
0.445228 0.387976 0.269566
0.628443 0.420050 0.284977
0.793362 0.453468 0.293095
0.920745 0.459754 0.301061
0.993072 0.452369 0.350805
0.000000 0.529381 0.354345
0.102144 0.527245 0.333745
0.302739 0.513451 0.283421
0.489540 0.498665 0.275608
0.651301 0.502342 0.273075
0.803647 0.527153 0.304784
0.906096 0.542596 0.371771
0.980957 0.545830 0.429267
0.022705 0.669306 0.357977
0.148562 0.666041 0.333867
0.354345 0.650813 0.299290
0.541100 0.630152 0.285283
0.705226 0.623926 0.284855
0.833951 0.618647 0.299626
0.915129 0.615869 0.389654
0.965759 0.636835 0.514763
0.204471 0.798093 0.370306
0.255070 0.794736 0.352026
0.421912 0.781704 0.338293
0.587640 0.760006 0.312688
0.750088 0.750546 0.316258
0.876402 0.736324 0.328191
0.940185 0.708492 0.436072
0.968902 0.715908 0.576898
0.000000 0.260380 0.473457
0.000000 0.267277 0.467231
0.000000 0.237980 0.452522
0.336004 0.187869 0.389441
0.607843 0.147890 0.347265
0.810666 0.229191 0.313542
0.928008 0.294347 0.281010
0.997436 0.314611 0.291783
0.000000 0.287114 0.472480
0.000000 0.291112 0.467292
0.000000 0.254673 0.453407
0.339361 0.203555 0.391913
0.612787 0.172732 0.346715
0.809537 0.252354 0.320073
0.927581 0.307561 0.285679
0.997345 0.322942 0.294255
0.000000 0.335851 0.480476
0.000000 0.334142 0.476387
0.000000 0.304662 0.458381
0.350286 0.254887 0.397620
0.612055 0.270298 0.364782
0.806424 0.316442 0.340826
0.926268 0.348547 0.300023
0.996521 0.354131 0.303990
0.000000 0.404639 0.496986
0.000000 0.400824 0.492134
0.000000 0.382727 0.468635
0.366155 0.342840 0.402441
0.606622 0.371954 0.395514
0.802029 0.396368 0.368261
0.923217 0.410224 0.325078
0.994629 0.406897 0.322210
0.000000 0.479286 0.502434
0.000000 0.478950 0.497475
0.000000 0.477729 0.474037
0.374487 0.441444 0.393286
0.598474 0.444770 0.405921
0.783566 0.480018 0.412787
0.911925 0.490089 0.380529
0.987823 0.482246 0.372808
0.000000 0.600092 0.527367
0.000000 0.600519 0.519677
0.010407 0.590875 0.478614
0.399756 0.555108 0.393652
0.629664 0.534783 0.381079
0.788663 0.550469 0.417365
0.896910 0.570916 0.445869
0.975860 0.569085 0.448402
0.000000 0.723995 0.537102
0.000000 0.721798 0.525933
0.158267 0.710811 0.480201
0.441413 0.679347 0.404181
0.669032 0.654963 0.388067
0.820035 0.639857 0.392004
0.907073 0.637018 0.449592
0.961456 0.653742 0.528801
0.000000 0.830900 0.537652
0.000000 0.828550 0.527520
0.285985 0.818143 0.488746
0.500755 0.794095 0.436744
0.699092 0.769802 0.410925
0.858518 0.759152 0.414221
0.934630 0.723232 0.449470
0.968048 0.722591 0.572137
0.000000 0.378668 0.654017
0.000000 0.384527 0.650111
0.000000 0.385443 0.639612
0.000000 0.281682 0.606561
0.481605 0.229099 0.521477
0.752285 0.249760 0.491798
0.912718 0.353674 0.479713
0.984680 0.403754 0.455421
0.000000 0.400336 0.653040
0.000000 0.404547 0.649622
0.000000 0.396094 0.640467
0.000000 0.301030 0.609613
0.484565 0.244388 0.523064
0.755154 0.269780 0.494087
0.911833 0.368383 0.483619
0.984527 0.410651 0.456275
0.000000 0.446509 0.654932
0.000000 0.451087 0.651301
0.000000 0.431098 0.643671
0.000000 0.359228 0.617212
0.494209 0.294163 0.527977
0.765164 0.331853 0.502464
0.909239 0.412696 0.495460
0.984283 0.431739 0.457008
0.000000 0.506554 0.662348
0.000000 0.506157 0.659724
0.000000 0.488899 0.649287
0.068360 0.441291 0.618708
0.509911 0.375219 0.533623
0.771176 0.429328 0.521782
0.906554 0.471138 0.508537
0.985657 0.457160 0.445319
0.000000 0.580682 0.672755
0.000000 0.578424 0.669947
0.000000 0.567864 0.657008
0.138827 0.540337 0.622644
0.529473 0.481086 0.537469
0.765621 0.522850 0.543938
0.903014 0.537346 0.523278
0.982116 0.517235 0.464240
0.000000 0.666926 0.681300
0.000000 0.666957 0.678340
0.000000 0.665797 0.665248
0.187686 0.654658 0.626459
0.541009 0.592889 0.529351
0.758419 0.589471 0.547387
0.885924 0.618311 0.566888
0.968444 0.607233 0.530663
0.000000 0.776822 0.694514
0.000000 0.776761 0.689570
0.000000 0.774472 0.669032
0.265415 0.758083 0.617456
0.567651 0.704677 0.532189
0.788968 0.676753 0.512596
0.890440 0.674861 0.566064
0.953033 0.688533 0.597894
0.000000 0.867338 0.686641
0.000000 0.865873 0.680598
0.000000 0.859220 0.657771
0.385687 0.841276 0.614282
0.612360 0.804135 0.554559
0.807004 0.779904 0.528893
0.918151 0.751278 0.543664
0.962432 0.741238 0.602319
0.000000 0.464851 0.782773
0.000000 0.469673 0.781247
0.000000 0.485451 0.775540
0.000000 0.448249 0.769528
0.254887 0.333928 0.728481
0.641840 0.301671 0.652613
0.854520 0.414710 0.625483
0.953429 0.587213 0.672877
0.000000 0.480232 0.782315
0.000000 0.484230 0.780758
0.000000 0.498024 0.775448
0.000000 0.457710 0.769650
0.254093 0.347112 0.729793
0.643915 0.315618 0.653559
0.855650 0.428901 0.628382
0.953155 0.591699 0.673762
0.000000 0.518853 0.782223
0.000000 0.522026 0.780941
0.000000 0.526726 0.776699
0.000000 0.489509 0.770169
0.278843 0.401953 0.736385
0.651179 0.361517 0.656458
0.859739 0.475013 0.638636
0.952514 0.605676 0.675715
0.000000 0.567193 0.784726
0.000000 0.570916 0.783230
0.000000 0.568750 0.779721
0.000000 0.541650 0.771572
0.319860 0.486946 0.747097
0.663172 0.435218 0.660456
0.867185 0.544488 0.656825
0.952758 0.623651 0.674617
0.000000 0.629236 0.788388
0.000000 0.632471 0.786984
0.000000 0.626612 0.783688
0.000000 0.610620 0.774136
0.347631 0.577935 0.748959
0.678462 0.525261 0.664729
0.874418 0.618219 0.676600
0.955230 0.640925 0.664973
0.000000 0.701289 0.792691
0.000000 0.700862 0.791775
0.000000 0.699031 0.787594
0.000000 0.693965 0.776761
0.390753 0.681209 0.749996
0.696284 0.628229 0.667872
0.870756 0.675196 0.684535
0.955169 0.675013 0.661769
0.000000 0.788968 0.805234
0.000000 0.790036 0.804318
0.000000 0.793912 0.800229
0.000000 0.799954 0.789181
0.440681 0.792111 0.752316
0.710323 0.727016 0.666529
0.864439 0.722042 0.684565
0.940887 0.740719 0.700465
0.000000 0.892607 0.819211
0.000000 0.892271 0.815976
0.000000 0.890074 0.803250
0.174807 0.882475 0.777096
0.530358 0.860441 0.736294
0.735622 0.812833 0.677699
0.888701 0.789670 0.655543
0.945708 0.782589 0.702235
0.000000 0.514855 0.864469
0.000000 0.518486 0.863798
0.000000 0.530755 0.861479
0.000000 0.535180 0.858701
0.000000 0.500008 0.854856
0.528405 0.471412 0.818692
0.777188 0.445106 0.764858
0.913573 0.596826 0.743648
0.000000 0.524620 0.864256
0.000000 0.527916 0.863615
0.000000 0.539178 0.861418
0.000000 0.541222 0.858854
0.000000 0.508324 0.854795
0.533837 0.482704 0.819211
0.778256 0.455421 0.765194
0.913939 0.604456 0.745632
0.000000 0.551568 0.864134
0.000000 0.554345 0.863554
0.000000 0.564385 0.861418
0.000000 0.561791 0.859312
0.000000 0.535851 0.854643
0.552239 0.519646 0.821195
0.782315 0.489113 0.766262
0.915282 0.629969 0.752499
0.000000 0.589532 0.864683
0.000000 0.592004 0.864164
0.000000 0.600671 0.862181
0.000000 0.596460 0.860227
0.071382 0.579217 0.854887
0.581415 0.577600 0.825925
0.789029 0.541375 0.768124
0.918273 0.669551 0.764004
0.000000 0.639124 0.865660
0.000000 0.641413 0.865110
0.000000 0.649012 0.863310
0.000000 0.643793 0.861753
0.078584 0.632471 0.856413
0.611749 0.646876 0.836637
0.797879 0.605158 0.770626
0.923278 0.718990 0.780636
0.000000 0.699214 0.866728
0.000000 0.701320 0.866239
0.000000 0.708583 0.864530
0.000000 0.705226 0.862821
0.175113 0.702144 0.857267
0.616114 0.710597 0.839261
0.808621 0.678004 0.773617
0.928740 0.766842 0.797116
0.000000 0.767330 0.867674
0.000000 0.769345 0.867277
0.000000 0.774014 0.865934
0.000000 0.776638 0.863462
0.315526 0.782345 0.856596
0.651606 0.789029 0.838804
0.820279 0.753475 0.776761
0.929351 0.791348 0.792660
0.000000 0.848264 0.878141
0.000000 0.850370 0.877836
0.000000 0.857237 0.876646
0.000000 0.865324 0.873930
0.400946 0.875059 0.866850
0.688594 0.870726 0.843229
0.834043 0.825986 0.782620
0.926452 0.823148 0.793210
0.000000 0.544457 0.916167
0.000000 0.546899 0.915892
0.000000 0.555657 0.914946
0.000000 0.571160 0.913176
0.000000 0.572625 0.911864
0.553552 0.633204 0.901946
0.749905 0.656947 0.877134
0.870237 0.633722 0.847318
0.000000 0.549950 0.916106
0.000000 0.552300 0.915831
0.000000 0.560693 0.914916
0.000000 0.575738 0.913146
0.000000 0.577356 0.911833
0.558068 0.638514 0.902159
0.752865 0.662898 0.877379
0.870787 0.638697 0.847440
0.000000 0.566186 0.916075
0.000000 0.568353 0.915831
0.000000 0.576074 0.914946
0.000000 0.590143 0.913268
0.000000 0.592859 0.911772
0.570275 0.655421 0.902953
0.762600 0.682399 0.878355
0.872526 0.654810 0.847959
0.000000 0.589197 0.916411
0.000000 0.591180 0.916167
0.000000 0.598322 0.915312
0.000000 0.611536 0.913695
0.000000 0.616754 0.912016
0.569818 0.674556 0.903319
0.777554 0.712978 0.880522
0.875608 0.680446 0.848966
0.000000 0.629297 0.916258
0.000000 0.630152 0.916106
0.000000 0.632685 0.915648
0.000000 0.635554 0.914824
0.000000 0.645991 0.912871
0.543328 0.694331 0.904753
0.796017 0.751064 0.884398
0.879850 0.713924 0.850584
0.000000 0.679774 0.915831
0.000000 0.680659 0.915709
0.000000 0.683528 0.915251
0.000000 0.687709 0.914458
0.000000 0.690089 0.913359
0.470436 0.717861 0.907225
0.809506 0.789425 0.892454
0.885252 0.753689 0.852964
0.000000 0.737881 0.915129
0.000000 0.738918 0.914977
0.000000 0.742275 0.914519
0.000000 0.748318 0.913664
0.000000 0.755184 0.912200
0.481453 0.774289 0.906828
0.798062 0.817624 0.895476
0.891814 0.798489 0.856138
0.000000 0.801328 0.913939
0.000000 0.802518 0.913787
0.000000 0.806790 0.913298
0.000000 0.814939 0.912322
0.000000 0.825772 0.910185
0.584985 0.843961 0.904143
0.815732 0.864439 0.895506
0.899413 0.847776 0.860288
