其他预设/【212】创意蓝橙调色预设24款/1.3D LUT预设（视频调色-PR-AE-PS-FCPX-达芬奇用）/18.蓝橙色调-夜景灯光__.cube
# Created by Adobe Lightroom plugin Export LUT (1.17.0)
# www.johnrellis.com/lightroom/exportlut.htm
# Preset: 18.蓝橙色调-夜景灯光[素锦印象]
# Color profile: /Library/Application Support/Adobe/Color/Profiles/Recommended/AdobeRGB1998.icc
LUT_3D_SIZE 5
DOMAIN_MIN 0.000000 0.000000 0.000000
DOMAIN_MAX 0.903226 0.903226 0.903226
0.117464 0.115999 0.142428
0.252323 0.109010 0.151797
0.575402 0.080507 0.155856
0.875059 0.092042 0.173312
1.000000 0.202914 0.277165
0.132815 0.169009 0.154025
0.246220 0.180514 0.171145
0.576440 0.200168 0.160800
0.873564 0.206821 0.179294
1.000000 0.257389 0.286442
0.178256 0.301793 0.180514
0.284581 0.298680 0.177798
0.545251 0.345892 0.209842
0.862394 0.379400 0.225223
0.999115 0.383856 0.320623
0.250126 0.505364 0.202396
0.364050 0.493935 0.195621
0.587060 0.492805 0.195041
0.845884 0.534020 0.306249
0.982086 0.549035 0.434028
0.367285 0.768276 0.253880
0.476387 0.756771 0.241520
0.708858 0.738613 0.233219
0.901213 0.713222 0.347173
0.969604 0.710933 0.580346
0.016999 0.154513 0.268284
0.201297 0.153231 0.244053
0.539300 0.183108 0.191043
0.859220 0.231876 0.177554
1.000000 0.254704 0.282597
0.000000 0.216678 0.278996
0.214237 0.207950 0.252415
0.540032 0.244053 0.211978
0.858946 0.283665 0.183688
1.000000 0.296086 0.291783
0.006928 0.347265 0.300816
0.235142 0.341131 0.249302
0.530480 0.360143 0.256840
0.843687 0.412787 0.246342
0.996765 0.405859 0.325719
0.084810 0.550195 0.310826
0.297612 0.537896 0.265812
0.587366 0.519677 0.256107
0.839689 0.547417 0.296818
0.978546 0.564385 0.446387
0.241703 0.791104 0.331029
0.407843 0.778744 0.318608
0.682704 0.751095 0.294774
0.896849 0.723293 0.341100
0.969085 0.714687 0.577813
0.000000 0.321141 0.568811
0.000000 0.327520 0.554009
0.405493 0.206516 0.455207
0.837736 0.247715 0.394903
0.993866 0.345708 0.333501
0.000000 0.380865 0.570245
0.000000 0.366796 0.559136
0.415900 0.256870 0.461189
0.834073 0.319188 0.412543
0.993683 0.370062 0.334569
0.000000 0.498451 0.592004
0.000000 0.485206 0.576349
0.444984 0.409796 0.470069
0.825681 0.462318 0.454505
0.990234 0.455665 0.362341
0.000000 0.663752 0.611139
0.000000 0.663325 0.589899
0.473213 0.604486 0.459968
0.814145 0.592065 0.486152
0.969390 0.604730 0.489845
0.000000 0.849058 0.613550
0.117952 0.841794 0.586511
0.553307 0.799496 0.493996
0.872465 0.766476 0.468788
0.967498 0.726925 0.568872
0.000000 0.480293 0.807034
0.000000 0.495033 0.802701
0.000000 0.440467 0.791989
0.679347 0.329992 0.683406
0.945373 0.601892 0.697230
0.000000 0.519341 0.806424
0.000000 0.530541 0.802579
0.000000 0.474647 0.791928
0.685695 0.373663 0.685664
0.945098 0.628931 0.708278
0.000000 0.603479 0.809415
0.000000 0.610101 0.806180
0.000000 0.573999 0.793423
0.704860 0.498207 0.691798
0.945617 0.667048 0.712581
0.000000 0.722713 0.814755
0.000000 0.722286 0.812253
0.109621 0.718166 0.796292
0.732296 0.662623 0.697688
0.947997 0.710170 0.701534
0.000000 0.889952 0.843320
0.000000 0.897002 0.840330
0.337743 0.882475 0.796567
0.763577 0.815457 0.706447
0.941009 0.793332 0.726619
0.000000 0.544457 0.916167
0.000000 0.552789 0.915251
0.000000 0.574182 0.912505
0.632502 0.651881 0.896178
0.870237 0.633722 0.847318
0.000000 0.561334 0.916075
0.000000 0.568872 0.915221
0.000000 0.588434 0.912566
0.643519 0.668269 0.897154
0.872007 0.649744 0.847807
0.000000 0.607538 0.916411
0.000000 0.610132 0.915892
0.000000 0.631098 0.913085
0.653407 0.706966 0.900450
0.877562 0.696284 0.849699
0.000000 0.693660 0.915709
0.000000 0.696651 0.915251
0.000000 0.705135 0.913725
0.584466 0.744991 0.904417
0.886778 0.764401 0.853666
0.000000 0.801328 0.913939
0.000000 0.805325 0.913451
0.000000 0.820829 0.911589
0.662409 0.849729 0.902129
0.899413 0.847776 0.860288
