其他预设/【212】创意蓝橙调色预设24款/1.3D LUT预设（视频调色-PR-AE-PS-FCPX-达芬奇用）/19.蓝橙色调-夜景灯光__.cube
# Created by Adobe Lightroom plugin Export LUT (1.17.0)
# www.johnrellis.com/lightroom/exportlut.htm
# Preset: 19.蓝橙色调-夜景灯光[素锦印象]
# Color profile: /Library/Application Support/Adobe/Color/Profiles/Recommended/AdobeRGB1998.icc
LUT_3D_SIZE 5
DOMAIN_MIN 0.000000 0.000000 0.000000
DOMAIN_MAX 0.903226 0.903226 0.903226
0.111360 0.115419 0.127291
0.227512 0.148348 0.148623
0.452308 0.203250 0.166842
0.737728 0.268864 0.197299
0.954192 0.359777 0.289281
0.127108 0.169162 0.169314
0.236606 0.193393 0.178103
0.464179 0.239994 0.185214
0.744198 0.300908 0.205234
0.955688 0.383124 0.299016
0.127932 0.277317 0.248783
0.232425 0.291783 0.239384
0.494759 0.331640 0.262089
0.764340 0.377661 0.279820
0.959838 0.454322 0.345830
0.069001 0.426368 0.355718
0.200595 0.440162 0.343053
0.534356 0.469032 0.341619
0.797360 0.498604 0.388128
0.960906 0.566827 0.470405
0.000000 0.653132 0.511345
0.203586 0.662684 0.501762
0.600458 0.673518 0.501335
0.879332 0.690883 0.537346
0.972381 0.712490 0.621851
0.093172 0.162051 0.208591
0.222873 0.187350 0.223636
0.457496 0.231601 0.226658
0.741543 0.296544 0.247715
0.954955 0.386694 0.302403
0.104524 0.208255 0.242100
0.230442 0.226413 0.249149
0.466407 0.264164 0.252720
0.747280 0.319158 0.265843
0.956054 0.405798 0.321386
0.091341 0.307286 0.306004
0.203159 0.326329 0.303532
0.496101 0.353399 0.317052
0.764858 0.395941 0.331823
0.958648 0.471962 0.388464
0.000000 0.450141 0.401740
0.177981 0.465492 0.396124
0.530266 0.489693 0.388312
0.796414 0.515282 0.429633
0.958770 0.583673 0.503716
0.000000 0.664790 0.543145
0.152377 0.674037 0.535363
0.578302 0.683986 0.526635
0.875700 0.701869 0.565667
0.970245 0.721462 0.640009
0.000000 0.256748 0.357122
0.000000 0.258793 0.374029
0.457221 0.303899 0.389746
0.748928 0.339940 0.378820
0.952850 0.444648 0.433173
0.000000 0.293370 0.385321
0.022339 0.296666 0.396643
0.464393 0.334478 0.405890
0.752621 0.369757 0.399786
0.953796 0.460822 0.444251
0.000000 0.381048 0.441138
0.000000 0.391363 0.449073
0.484688 0.418982 0.453620
0.764920 0.453315 0.458503
0.955200 0.523339 0.493294
0.000000 0.510643 0.519860
0.000000 0.526421 0.526360
0.447242 0.552941 0.512444
0.790829 0.566705 0.538781
0.954101 0.628656 0.585779
0.000000 0.704341 0.643519
0.000000 0.710536 0.638361
0.449470 0.718929 0.608759
0.850309 0.724575 0.638697
0.964263 0.746792 0.689326
0.000000 0.397406 0.549767
0.000000 0.398199 0.560418
0.233127 0.377050 0.584436
0.747982 0.477119 0.586450
0.940642 0.573144 0.618647
0.000000 0.422705 0.567559
0.000000 0.423041 0.575708
0.248722 0.408942 0.595361
0.751125 0.497658 0.596216
0.941161 0.586236 0.626581
0.000000 0.486732 0.605127
0.000000 0.490059 0.611536
0.271794 0.493385 0.625696
0.761105 0.555322 0.625086
0.944274 0.622827 0.647181
0.000000 0.582879 0.657465
0.000000 0.588251 0.661433
0.293553 0.605158 0.670588
0.777340 0.638239 0.670130
0.949432 0.684962 0.683253
0.000000 0.729122 0.748959
0.000000 0.735531 0.750759
0.312413 0.757443 0.752956
0.761044 0.761288 0.725216
0.955322 0.784665 0.759335
0.000000 0.558831 0.769986
0.000000 0.557244 0.774014
0.060334 0.552850 0.784634
0.727840 0.610407 0.788083
0.931334 0.715938 0.784848
0.000000 0.570825 0.775174
0.000000 0.569512 0.778805
0.082399 0.566583 0.788510
0.723873 0.618921 0.791562
0.931823 0.722591 0.788388
0.000000 0.607721 0.789487
0.000000 0.605798 0.791409
0.000000 0.605341 0.799619
0.693355 0.641810 0.803403
0.933715 0.743526 0.800046
0.000000 0.672328 0.815579
0.000000 0.672602 0.816983
0.000000 0.672480 0.820584
0.628565 0.691402 0.822171
0.937072 0.779873 0.820798
0.000000 0.753536 0.846983
0.000000 0.755764 0.847990
0.165621 0.764736 0.850889
0.660426 0.788388 0.852811
0.941619 0.838621 0.855222
