其他预设/【212】创意蓝橙调色预设24款/1.3D LUT预设（视频调色-PR-AE-PS-FCPX-达芬奇用）/19.蓝橙色调-夜景灯光__.cube
# Created by Adobe Lightroom plugin Export LUT (1.17.0)
# www.johnrellis.com/lightroom/exportlut.htm
# Preset: 19.蓝橙色调-夜景灯光[素锦印象]
# Color profile: /Library/Application Support/Adobe/Color/Profiles/Recommended/AdobeRGB1998.icc
LUT_3D_SIZE 32
0.111360 0.115419 0.127291
0.116945 0.116884 0.128328
0.124849 0.118959 0.129763
0.141970 0.123812 0.133333
0.161654 0.129915 0.137850
0.182315 0.136141 0.141878
0.204166 0.142184 0.145632
0.227512 0.148348 0.148623
0.252659 0.154971 0.151247
0.280095 0.161471 0.153689
0.309911 0.168582 0.155825
0.342565 0.176394 0.158175
0.377356 0.184726 0.160403
0.414069 0.193729 0.163516
0.452308 0.203250 0.166842
0.492134 0.212619 0.170199
0.533165 0.222049 0.173587
0.574701 0.231327 0.177401
0.616297 0.240513 0.181308
0.657618 0.249729 0.185794
0.698146 0.259403 0.190982
0.737728 0.268864 0.197299
0.775723 0.279179 0.204593
0.811612 0.290135 0.213504
0.845212 0.301427 0.224216
0.876371 0.313939 0.236759
0.904845 0.327581 0.251560
0.930755 0.342840 0.269047
0.954192 0.359777 0.289281
0.975341 0.379156 0.313207
0.994263 0.401526 0.340642
1.000000 0.427680 0.372564
0.111910 0.117678 0.128908
0.117433 0.119356 0.129915
0.125856 0.121492 0.130800
0.142641 0.126467 0.134157
0.162234 0.132235 0.138643
0.182834 0.138155 0.142672
0.204685 0.144106 0.146090
0.227848 0.150027 0.149050
0.253086 0.156374 0.151705
0.280552 0.162936 0.153964
0.310369 0.170077 0.156252
0.342992 0.177829 0.158419
0.377752 0.186038 0.160922
0.414435 0.195102 0.163882
0.452735 0.204532 0.167056
0.492531 0.214054 0.170382
0.533349 0.223148 0.174197
0.575006 0.232425 0.177859
0.616541 0.241764 0.181491
0.657893 0.250980 0.185824
0.698390 0.260258 0.191318
0.737881 0.269993 0.197482
0.775845 0.280186 0.204959
0.811795 0.290898 0.213779
0.845335 0.302342 0.224277
0.876463 0.314794 0.236820
0.904906 0.328496 0.251591
0.930785 0.343633 0.269169
0.954223 0.360510 0.289677
0.975372 0.379889 0.313451
0.994293 0.402136 0.340917
1.000000 0.428290 0.372961
0.112764 0.121065 0.131655
0.118776 0.122805 0.132448
0.127077 0.124880 0.133303
0.143496 0.129946 0.136385
0.162997 0.135378 0.139681
0.183383 0.140993 0.143679
0.205203 0.146639 0.146792
0.228336 0.152438 0.149599
0.253696 0.158602 0.152224
0.280980 0.164981 0.154208
0.310887 0.172122 0.156588
0.343420 0.179873 0.158755
0.378332 0.187930 0.161257
0.414893 0.197024 0.164187
0.453040 0.206271 0.167514
0.492897 0.215671 0.170840
0.533837 0.225010 0.174319
0.575372 0.233951 0.178134
0.616907 0.243320 0.181888
0.658106 0.252506 0.186313
0.698634 0.261875 0.191409
0.738125 0.271305 0.197726
0.776150 0.281407 0.205203
0.811978 0.292027 0.214115
0.845548 0.303532 0.224643
0.876585 0.315862 0.237217
0.905028 0.329503 0.251957
0.930877 0.344549 0.269566
0.954314 0.361517 0.289952
0.975433 0.380804 0.313787
0.994293 0.402960 0.341405
1.000000 0.429114 0.373327
0.114260 0.129274 0.137484
0.120882 0.130983 0.138216
0.129366 0.132815 0.139528
0.145113 0.136721 0.142031
0.164370 0.141695 0.144564
0.184939 0.146548 0.146304
0.206607 0.151797 0.148287
0.229801 0.157168 0.150912
0.254856 0.163180 0.153231
0.282200 0.169406 0.155459
0.312047 0.176425 0.157687
0.344701 0.184024 0.159548
0.379309 0.192172 0.162112
0.415961 0.201083 0.165164
0.454383 0.209964 0.168307
0.493904 0.219333 0.171725
0.534844 0.228580 0.175051
0.576318 0.237552 0.178958
0.617762 0.246738 0.182437
0.658930 0.255589 0.187106
0.699367 0.264775 0.192203
0.738674 0.274296 0.198581
0.776577 0.284245 0.205814
0.812375 0.294896 0.214694
0.845853 0.306065 0.225437
0.876860 0.318395 0.238102
0.905241 0.331670 0.252873
0.931060 0.346746 0.270268
0.954437 0.363622 0.290806
0.975525 0.382666 0.314641
0.994385 0.404944 0.342199
1.000000 0.430854 0.374273
0.117128 0.138796 0.144900
0.123384 0.140047 0.145602
0.130922 0.141512 0.146548
0.145266 0.144839 0.148562
0.165408 0.149813 0.151186
0.186893 0.154757 0.152773
0.208530 0.159060 0.153689
0.231601 0.164034 0.154788
0.256840 0.169833 0.155856
0.284092 0.176303 0.157168
0.313909 0.182956 0.158907
0.346502 0.190433 0.161135
0.381170 0.198672 0.163485
0.417639 0.207218 0.166384
0.455879 0.216220 0.169589
0.495369 0.225040 0.172854
0.536309 0.233860 0.176425
0.577539 0.242924 0.179904
0.619104 0.251682 0.183597
0.660029 0.260441 0.188144
0.700252 0.269474 0.193179
0.739651 0.278721 0.199741
0.777371 0.288762 0.206912
0.813077 0.298985 0.215854
0.846403 0.309941 0.226627
0.877348 0.322087 0.239048
0.905608 0.335363 0.254002
0.931334 0.350103 0.271794
0.954650 0.366827 0.292058
0.975647 0.385809 0.316075
0.994476 0.407752 0.343633
1.000000 0.433661 0.375647
0.120577 0.148165 0.152560
0.125338 0.149142 0.153109
0.131807 0.150515 0.153445
0.145174 0.153262 0.155398
0.163912 0.157595 0.156832
0.187106 0.163394 0.159579
0.210788 0.168521 0.161379
0.234012 0.172824 0.161776
0.259159 0.177829 0.162264
0.286381 0.183780 0.163119
0.316381 0.190524 0.164065
0.348974 0.198062 0.165347
0.383459 0.205997 0.166964
0.419867 0.214939 0.168917
0.458045 0.223819 0.171237
0.497536 0.232517 0.174594
0.538201 0.241306 0.177829
0.579431 0.249882 0.181399
0.620722 0.258427 0.185061
0.661555 0.266972 0.189548
0.701686 0.275669 0.194797
0.740871 0.284825 0.200931
0.778439 0.294316 0.208438
0.813931 0.304387 0.217502
0.847196 0.315343 0.228061
0.877897 0.327184 0.240757
0.906096 0.340337 0.255680
0.931731 0.354742 0.273259
0.954894 0.371160 0.294102
0.975860 0.389960 0.317815
0.994598 0.411719 0.345525
1.000000 0.437415 0.377752
0.123659 0.158053 0.160647
0.127932 0.158877 0.160922
0.133181 0.160159 0.161410
0.145480 0.162570 0.162295
0.163272 0.166598 0.164096
0.185336 0.171328 0.165347
0.210788 0.177707 0.168612
0.236576 0.183413 0.170779
0.261814 0.187900 0.170596
0.289372 0.193332 0.171115
0.319432 0.199588 0.171633
0.351812 0.206699 0.172335
0.386419 0.214237 0.173587
0.422766 0.222477 0.175479
0.460822 0.231144 0.177798
0.500298 0.239811 0.179965
0.540764 0.248661 0.182223
0.581750 0.257664 0.184573
0.622889 0.266392 0.187289
0.663478 0.274846 0.191379
0.703426 0.283207 0.196780
0.742367 0.292149 0.202762
0.779782 0.301549 0.210361
0.815091 0.311254 0.219455
0.848112 0.321965 0.230106
0.878660 0.333288 0.242893
0.906676 0.346197 0.258000
0.932189 0.360510 0.275547
0.955291 0.376593 0.296269
0.976104 0.395117 0.320256
0.994720 0.416663 0.347875
1.000000 0.442084 0.380133
0.127108 0.169162 0.169314
0.130404 0.169894 0.169436
0.135439 0.170932 0.169528
0.145968 0.173007 0.169894
0.163333 0.176669 0.172000
0.184604 0.181338 0.173434
0.209201 0.186404 0.174624
0.236606 0.193393 0.178103
0.264958 0.199802 0.180758
0.292424 0.204593 0.180789
0.322545 0.210239 0.180911
0.355261 0.216739 0.181064
0.389868 0.223880 0.181979
0.426123 0.231724 0.183627
0.464179 0.239994 0.185214
0.503441 0.248142 0.187198
0.543877 0.256474 0.189120
0.584649 0.264988 0.191592
0.625605 0.273594 0.193973
0.665919 0.282536 0.196597
0.705531 0.291691 0.200259
0.744198 0.300908 0.205234
0.781338 0.309850 0.212772
0.816373 0.319310 0.221866
0.849210 0.329595 0.232425
0.879606 0.340948 0.245212
0.907378 0.353338 0.260410
0.932769 0.367254 0.278233
0.955688 0.383124 0.299016
0.976379 0.401373 0.323003
0.994903 0.422614 0.350835
1.000000 0.447883 0.383215
0.129915 0.181399 0.179110
0.133394 0.182040 0.179141
0.137606 0.183352 0.179294
0.147219 0.185458 0.179416
0.163821 0.188357 0.179995
0.184909 0.192569 0.182101
0.209079 0.197726 0.183078
0.235843 0.202976 0.184634
0.265263 0.210086 0.188754
0.296208 0.217227 0.191653
0.326360 0.222568 0.191836
0.359045 0.228367 0.191440
0.393652 0.235080 0.191958
0.429969 0.242344 0.193027
0.467781 0.249882 0.194461
0.507134 0.257786 0.196170
0.547417 0.265782 0.197848
0.588128 0.273838 0.199771
0.628687 0.282200 0.201816
0.668666 0.290623 0.204471
0.707973 0.299657 0.207645
0.746395 0.308873 0.211734
0.783230 0.318791 0.216922
0.818021 0.328649 0.224460
0.850523 0.338506 0.235447
0.880674 0.349462 0.248325
0.908263 0.361639 0.263615
0.933410 0.375219 0.281407
0.956207 0.390661 0.302159
0.976745 0.408545 0.326452
0.995117 0.429511 0.354437
1.000000 0.454383 0.386938
0.132601 0.195071 0.189487
0.135470 0.195834 0.189731
0.139345 0.196841 0.189578
0.148806 0.198795 0.189090
0.163546 0.201602 0.188998
0.185641 0.205234 0.191318
0.209751 0.210086 0.192569
0.236912 0.215061 0.192355
0.265537 0.220554 0.194675
0.296727 0.228153 0.199496
0.330755 0.235935 0.202701
0.362982 0.241611 0.203433
0.397803 0.247623 0.203494
0.434089 0.254276 0.203891
0.472084 0.261479 0.204654
0.511223 0.268925 0.205936
0.551324 0.276249 0.207248
0.591852 0.283970 0.208957
0.632105 0.291844 0.210910
0.671717 0.300084 0.213321
0.710842 0.308476 0.216587
0.748836 0.317693 0.220340
0.785367 0.327062 0.225467
0.819760 0.337316 0.231479
0.852049 0.348425 0.239078
0.881865 0.359136 0.251743
0.909270 0.370825 0.267216
0.934173 0.384070 0.285130
0.956756 0.399268 0.306126
0.977142 0.416785 0.330327
0.995361 0.437415 0.358434
1.000000 0.462013 0.391119
0.134035 0.209842 0.200534
0.136965 0.210513 0.200534
0.140780 0.211429 0.200290
0.149325 0.213321 0.200076
0.163729 0.215854 0.199161
0.185031 0.219150 0.199771
0.210391 0.223453 0.201968
0.237919 0.228641 0.202976
0.267582 0.233280 0.200778
0.298070 0.239506 0.205539
0.331731 0.247288 0.210513
0.368292 0.255558 0.214450
0.402319 0.261631 0.216098
0.438727 0.267704 0.215946
0.476539 0.274174 0.216495
0.515618 0.281193 0.217105
0.555627 0.288121 0.218143
0.595911 0.295384 0.219364
0.635859 0.302739 0.221134
0.675227 0.310521 0.223148
0.713832 0.318700 0.226352
0.751675 0.327337 0.229953
0.787747 0.336706 0.234897
0.821805 0.346624 0.240970
0.853666 0.357488 0.248508
0.883268 0.369085 0.257633
0.910338 0.381109 0.271427
0.934997 0.394018 0.289403
0.957366 0.408789 0.310582
0.977569 0.425879 0.334783
0.995605 0.446204 0.363134
1.000000 0.470527 0.395941
0.134401 0.225589 0.212222
0.137118 0.226230 0.212131
0.141268 0.227054 0.211582
0.149386 0.228824 0.211398
0.163272 0.231327 0.209934
0.182589 0.234379 0.208621
0.210483 0.237949 0.211429
0.238315 0.242863 0.212741
0.269078 0.248173 0.212894
0.301366 0.252323 0.209201
0.333654 0.259220 0.216556
0.369482 0.267430 0.222232
0.408118 0.276158 0.226932
0.443610 0.282536 0.229648
0.481483 0.288518 0.229313
0.520439 0.294682 0.229465
0.560296 0.301152 0.230228
0.600458 0.307988 0.231113
0.639857 0.314885 0.232181
0.678950 0.322179 0.234104
0.717281 0.329839 0.237156
0.754574 0.338262 0.240909
0.790249 0.347204 0.245457
0.823911 0.356970 0.251835
0.855436 0.367620 0.259159
0.884642 0.379095 0.268284
0.911467 0.391516 0.279118
0.935912 0.404730 0.294316
0.958038 0.419165 0.315526
0.978027 0.435950 0.339910
0.995850 0.455940 0.368444
1.000000 0.479927 0.401495
0.133669 0.242100 0.223941
0.136507 0.242527 0.223667
0.140139 0.243503 0.223453
0.148226 0.245243 0.222873
0.161746 0.247684 0.221317
0.180758 0.250584 0.219150
0.207828 0.253727 0.219486
0.238285 0.258091 0.222568
0.269841 0.263218 0.222751
0.303014 0.268223 0.221378
0.337987 0.272587 0.217655
0.371923 0.279911 0.228367
0.409400 0.288304 0.235050
0.450050 0.297215 0.240330
0.486610 0.303685 0.243503
0.525597 0.309392 0.243351
0.565270 0.315373 0.243168
0.605097 0.321691 0.243656
0.644190 0.328069 0.244419
0.682826 0.334905 0.246281
0.720760 0.342351 0.248966
0.757656 0.350256 0.252659
0.792905 0.358953 0.257450
0.826169 0.368383 0.263554
0.857267 0.378759 0.270726
0.886107 0.389990 0.279850
0.912596 0.402167 0.290990
0.936797 0.415717 0.303960
0.958801 0.430426 0.320897
0.978515 0.446876 0.345708
0.996155 0.466377 0.374273
1.000000 0.490089 0.407507
0.131594 0.259312 0.236118
0.134249 0.259861 0.235843
0.137942 0.260594 0.235752
0.145998 0.262394 0.235019
0.159335 0.264591 0.233280
0.177798 0.267460 0.230900
0.202487 0.270603 0.227481
0.236790 0.274327 0.231632
0.269627 0.279057 0.232944
0.304631 0.284642 0.232883
0.340215 0.289067 0.229770
0.376562 0.293706 0.229892
0.412177 0.301366 0.241093
0.451148 0.309667 0.248264
0.492988 0.318608 0.253941
0.531060 0.325200 0.257389
0.570520 0.330755 0.257420
0.610101 0.336492 0.257450
0.648768 0.342504 0.258091
0.686976 0.348821 0.259617
0.724575 0.355779 0.262028
0.760952 0.363500 0.265568
0.795712 0.371710 0.270359
0.828580 0.380896 0.276219
0.859220 0.390967 0.283665
0.887633 0.401923 0.292607
0.913756 0.413855 0.303716
0.937621 0.427192 0.316594
0.959380 0.442054 0.332036
0.979065 0.458503 0.352087
0.996429 0.477760 0.380713
1.000000 0.501122 0.414374
0.127932 0.277317 0.248783
0.130709 0.277836 0.248478
0.134340 0.278508 0.248264
0.142794 0.280095 0.247288
0.155978 0.282475 0.245701
0.174380 0.285435 0.242863
0.198428 0.288609 0.239292
0.232425 0.291783 0.239384
0.268956 0.295872 0.243290
0.304906 0.301244 0.243076
0.342748 0.306798 0.243107
0.379797 0.310277 0.239109
0.416754 0.315618 0.243931
0.454292 0.323247 0.254673
0.494759 0.331640 0.262089
0.537285 0.340246 0.267918
0.576257 0.346929 0.271916
0.615167 0.352361 0.272465
0.653468 0.357855 0.272892
0.691371 0.363745 0.274022
0.728450 0.370397 0.276371
0.764340 0.377661 0.279820
0.798672 0.385718 0.284154
0.831022 0.394385 0.290135
0.861204 0.404150 0.297398
0.889220 0.414771 0.306584
0.914916 0.426612 0.317479
0.938415 0.439826 0.330510
0.959838 0.454322 0.345830
0.979309 0.470863 0.364202
0.996704 0.489815 0.388037
1.000000 0.512902 0.421820
0.122652 0.295933 0.262119
0.125734 0.296635 0.261692
0.129122 0.297276 0.261448
0.138064 0.298833 0.260288
0.151675 0.301061 0.258396
0.169955 0.304051 0.255650
0.193942 0.307134 0.251713
0.224277 0.310246 0.247257
0.265782 0.313817 0.252232
0.303868 0.318547 0.254093
0.342931 0.323949 0.253727
0.382666 0.328954 0.253330
0.420966 0.332158 0.250004
0.458961 0.337865 0.258183
0.497902 0.345586 0.268772
0.539178 0.353765 0.276280
0.582147 0.362127 0.282414
0.620844 0.368872 0.287022
0.658289 0.374304 0.288609
0.695796 0.379797 0.289769
0.732448 0.385931 0.291600
0.767910 0.392920 0.294835
0.801663 0.400458 0.299474
0.833494 0.409064 0.304967
0.863249 0.418341 0.312474
0.890806 0.428779 0.321386
0.916075 0.440284 0.332189
0.939178 0.453162 0.345312
0.960266 0.467720 0.360723
0.979400 0.484138 0.379217
0.996674 0.502983 0.400702
1.000000 0.525383 0.429755
0.116457 0.315404 0.275608
0.119387 0.315923 0.275120
0.123445 0.316564 0.274876
0.132235 0.318090 0.273960
0.146365 0.320378 0.271916
0.164981 0.323186 0.269383
0.188968 0.326390 0.265141
0.218357 0.329564 0.259800
0.259342 0.332799 0.260502
0.302281 0.336584 0.265660
0.342351 0.341680 0.265599
0.383490 0.346929 0.266209
0.423957 0.351049 0.264530
0.463905 0.354376 0.261875
0.502495 0.360449 0.272892
0.542351 0.368048 0.283787
0.584070 0.376043 0.291539
0.626123 0.384314 0.297887
0.663935 0.390875 0.303197
0.700313 0.396765 0.306249
0.736507 0.402716 0.308080
0.771481 0.409003 0.311162
0.804685 0.416297 0.315312
0.836027 0.424537 0.321111
0.865293 0.433509 0.328374
0.892332 0.443671 0.337316
0.917205 0.454963 0.348028
0.939910 0.467628 0.361242
0.960662 0.482033 0.376654
0.979431 0.498482 0.395117
0.996368 0.517235 0.416754
1.000000 0.539208 0.442695
0.109041 0.335241 0.289708
0.112306 0.335698 0.289494
0.116670 0.336370 0.289189
0.126009 0.337926 0.287877
0.140993 0.340032 0.286137
0.160098 0.342748 0.283391
0.184146 0.345953 0.279637
0.213504 0.349187 0.274235
0.250492 0.352392 0.269413
0.298161 0.355810 0.275181
0.341192 0.360143 0.278294
0.383276 0.365209 0.278935
0.426642 0.370611 0.279240
0.467628 0.373846 0.276768
0.509087 0.377356 0.274205
0.548028 0.383856 0.288640
0.588861 0.391608 0.299138
0.629603 0.399390 0.307195
0.669245 0.406836 0.314458
0.705715 0.413642 0.320562
0.740688 0.420142 0.325414
0.775051 0.426276 0.328252
0.807828 0.433082 0.332433
0.838621 0.440894 0.337957
0.867308 0.449592 0.345281
0.893889 0.459541 0.354192
0.918273 0.470527 0.364935
0.940581 0.483040 0.378149
0.960937 0.497292 0.393622
0.979370 0.513603 0.412116
0.995941 0.532525 0.433967
1.000000 0.554620 0.460029
0.100740 0.356085 0.304723
0.104829 0.356512 0.304204
0.109834 0.357122 0.303929
0.120119 0.358618 0.302922
0.135744 0.360632 0.301091
0.155581 0.363317 0.298833
0.180575 0.366491 0.294865
0.210086 0.369818 0.289799
0.244846 0.373114 0.283787
0.292180 0.376196 0.285618
0.340246 0.379980 0.291356
0.383764 0.384833 0.292363
0.427832 0.390082 0.293156
0.472816 0.395392 0.293309
0.514488 0.398077 0.289921
0.556878 0.401678 0.289036
0.596277 0.408667 0.305425
0.635859 0.415900 0.316228
0.674403 0.423072 0.324651
0.711299 0.430121 0.332525
0.745754 0.437079 0.339544
0.778714 0.444068 0.346563
0.810819 0.450660 0.350561
0.841123 0.458137 0.355993
0.869291 0.466621 0.362982
0.895354 0.476173 0.371832
0.919310 0.487007 0.382666
0.941192 0.499306 0.395758
0.961089 0.513481 0.411414
0.979187 0.529717 0.429969
0.995392 0.548669 0.451972
1.000000 0.570855 0.478370
0.093202 0.377905 0.320714
0.097353 0.378424 0.320500
0.103334 0.379065 0.319860
0.113863 0.380499 0.319158
0.130739 0.382422 0.317510
0.151888 0.385107 0.314855
0.177127 0.388251 0.311589
0.206851 0.391699 0.306493
0.241672 0.395087 0.300328
0.284794 0.398260 0.296452
0.337316 0.401617 0.302892
0.384680 0.406012 0.307134
0.430121 0.411078 0.307500
0.476448 0.416449 0.308354
0.521660 0.420966 0.307530
0.564355 0.423743 0.304540
0.606592 0.427680 0.307866
0.644556 0.434180 0.323674
0.681880 0.440803 0.334844
0.717708 0.447517 0.343938
0.751583 0.454231 0.352300
0.783352 0.461189 0.360357
0.813901 0.469032 0.369268
0.843534 0.476204 0.374823
0.871183 0.484443 0.381811
0.896727 0.493721 0.390509
0.920165 0.504295 0.401373
0.941650 0.516442 0.414374
0.961181 0.530480 0.430274
0.978851 0.546777 0.448951
0.994659 0.565698 0.471138
1.000000 0.587793 0.497200
0.083772 0.401282 0.337530
0.088045 0.401770 0.337407
0.094881 0.402319 0.336980
0.107301 0.403784 0.336126
0.125460 0.405829 0.334356
0.147463 0.408423 0.332219
0.173861 0.411566 0.328649
0.203677 0.415106 0.324224
0.239048 0.418677 0.318120
0.278935 0.422156 0.311620
0.332555 0.425299 0.314763
0.385168 0.429023 0.321294
0.432837 0.433875 0.323278
0.480354 0.439124 0.323796
0.528466 0.444709 0.324559
0.573510 0.448402 0.322972
0.616541 0.450752 0.320378
0.655909 0.454353 0.327733
0.691585 0.460151 0.343511
0.726162 0.466285 0.355352
0.758907 0.472663 0.365087
0.789334 0.479103 0.374151
0.817990 0.486000 0.383032
0.846067 0.494667 0.393652
0.873045 0.502831 0.401282
0.898039 0.511925 0.409979
0.920989 0.522271 0.420966
0.941985 0.534386 0.434089
0.961151 0.548241 0.449775
0.978393 0.564477 0.468574
0.993805 0.583337 0.490852
1.000000 0.605035 0.516350
0.069001 0.426368 0.355718
0.076112 0.426795 0.355230
0.082795 0.427436 0.354864
0.097871 0.428748 0.354284
0.117983 0.430884 0.352758
0.142611 0.433417 0.350256
0.169589 0.436652 0.347234
0.200595 0.440162 0.343053
0.236271 0.443946 0.337316
0.276677 0.447517 0.330755
0.325994 0.450843 0.328038
0.383978 0.454200 0.334783
0.436439 0.458442 0.340093
0.485054 0.463630 0.340764
0.534356 0.469032 0.341619
0.583978 0.474861 0.342626
0.626856 0.476692 0.340032
0.667536 0.478004 0.337987
0.703639 0.481392 0.349981
0.736721 0.486946 0.365362
0.768124 0.492653 0.377661
0.797360 0.498604 0.388128
0.824247 0.504875 0.398108
0.849485 0.511833 0.408026
0.874998 0.521386 0.420172
0.899229 0.530846 0.430426
0.921660 0.541039 0.441291
0.942199 0.552972 0.454536
0.960906 0.566827 0.470405
0.977752 0.582910 0.489235
0.992889 0.601312 0.510735
1.000000 0.622705 0.535790
0.034943 0.453376 0.374731
0.052186 0.453773 0.374517
0.065126 0.454444 0.374212
0.085145 0.455726 0.373327
0.109194 0.457740 0.371832
0.135470 0.460395 0.369848
0.165286 0.463569 0.366644
0.197208 0.467140 0.362737
0.233860 0.471015 0.357519
0.275090 0.474861 0.351324
0.321172 0.478431 0.344671
0.381323 0.481666 0.349065
0.438880 0.485328 0.356023
0.490913 0.489967 0.358984
0.541131 0.495247 0.359777
0.591150 0.500420 0.360876
0.638880 0.504875 0.361364
0.678889 0.505211 0.359167
0.716762 0.505669 0.358038
0.749294 0.509178 0.373816
0.779049 0.514275 0.389685
0.806821 0.519768 0.402655
0.832517 0.525597 0.413916
0.855924 0.531762 0.424475
0.877714 0.538689 0.435218
0.900664 0.549248 0.449073
0.922210 0.560327 0.462348
0.942290 0.572107 0.475654
0.960540 0.585748 0.491524
0.977050 0.601526 0.509758
0.991882 0.619562 0.530877
1.000000 0.640497 0.555474
0.000000 0.482429 0.395087
0.000000 0.482887 0.394903
0.016175 0.483406 0.394507
0.065888 0.484840 0.393683
0.096651 0.486854 0.392279
0.127230 0.489448 0.390478
0.159609 0.492622 0.387457
0.194186 0.496284 0.383612
0.232425 0.500053 0.378668
0.274479 0.504112 0.372595
0.321050 0.507897 0.366125
0.377356 0.511040 0.364508
0.440436 0.514092 0.371740
0.496773 0.517784 0.378698
0.548333 0.522484 0.379461
0.598535 0.527184 0.381048
0.648005 0.532189 0.382422
0.691768 0.534539 0.382361
0.728908 0.534051 0.381018
0.763302 0.533928 0.380438
0.791470 0.537560 0.400488
0.817655 0.542473 0.416724
0.841978 0.547845 0.430152
0.864164 0.553643 0.442267
0.884245 0.559808 0.453468
0.902647 0.566705 0.464820
0.923095 0.578637 0.481056
0.942229 0.591577 0.497139
0.960113 0.604852 0.512474
0.976287 0.620203 0.530358
0.990784 0.637903 0.551019
1.000000 0.658350 0.575158
0.000000 0.513756 0.416693
0.000000 0.514153 0.416602
0.000000 0.514824 0.416327
0.006775 0.516106 0.415503
0.079103 0.518120 0.414160
0.117067 0.520745 0.412207
0.153658 0.523827 0.409491
0.191379 0.527367 0.405585
0.231266 0.531243 0.401190
0.274815 0.535088 0.395209
0.322515 0.538720 0.388983
0.374640 0.541833 0.383062
0.440925 0.544244 0.389227
0.502037 0.546990 0.396887
0.555962 0.550835 0.401343
0.606653 0.555138 0.402716
0.656001 0.559747 0.404608
0.703670 0.564630 0.406775
0.742184 0.564691 0.406256
0.775448 0.563409 0.405707
0.805570 0.562829 0.408606
0.829892 0.566766 0.430182
0.852598 0.571588 0.446693
0.873289 0.577050 0.460945
0.892180 0.583001 0.473487
0.909178 0.589410 0.485878
0.924529 0.596155 0.497444
0.942748 0.609339 0.515068
0.959625 0.623957 0.533593
0.975463 0.638941 0.550958
0.989624 0.656245 0.571252
1.000000 0.676265 0.594873
0.000000 0.547082 0.439765
0.000000 0.547417 0.439277
0.000000 0.547936 0.439033
0.000000 0.549218 0.438331
0.049439 0.551080 0.436988
0.106111 0.553491 0.434882
0.148257 0.556481 0.432074
0.189456 0.559747 0.428473
0.231632 0.563348 0.424262
0.276921 0.566918 0.419043
0.325963 0.570336 0.413001
0.379095 0.573236 0.407599
0.441627 0.575372 0.408576
0.506798 0.577508 0.416754
0.565026 0.580194 0.424994
0.615961 0.584161 0.426917
0.665126 0.588220 0.428962
0.712184 0.592706 0.431342
0.756466 0.597284 0.434119
0.788632 0.594873 0.433692
0.817868 0.593072 0.434302
0.843412 0.592981 0.441932
0.864195 0.597101 0.463447
0.883330 0.602045 0.480415
0.900786 0.607660 0.494789
0.916655 0.613642 0.507897
0.931060 0.620111 0.519921
0.944060 0.626978 0.531731
0.959808 0.640986 0.550500
0.974609 0.657496 0.571374
0.988434 0.674372 0.591211
1.000000 0.693874 0.614252
0.000000 0.581415 0.463020
0.000000 0.581781 0.462623
0.000000 0.582208 0.462379
0.000000 0.583337 0.461646
0.000000 0.585077 0.460212
0.096651 0.587396 0.458320
0.145571 0.590082 0.455512
0.189731 0.593072 0.452399
0.234775 0.596399 0.448157
0.282261 0.599695 0.443244
0.332677 0.602899 0.437934
0.386633 0.605554 0.433539
0.444800 0.607446 0.430579
0.513146 0.608942 0.438697
0.573968 0.610895 0.447578
0.627222 0.613794 0.453620
0.675471 0.617548 0.456001
0.721523 0.621576 0.458930
0.764920 0.626032 0.462196
0.802548 0.628351 0.464729
0.830503 0.625483 0.465248
0.855711 0.623468 0.466865
0.876707 0.624201 0.479591
0.894102 0.628473 0.500145
0.910124 0.633570 0.516686
0.924773 0.639185 0.530755
0.938109 0.645319 0.543725
0.950164 0.651972 0.556023
0.961089 0.658991 0.567834
0.974487 0.673701 0.587366
0.987304 0.692012 0.610559
0.999115 0.711116 0.633356
0.000000 0.616754 0.486793
0.000000 0.617151 0.486732
0.000000 0.617578 0.486244
0.000000 0.618585 0.485359
0.000000 0.620203 0.484077
0.092500 0.622339 0.482155
0.146761 0.624750 0.479774
0.193973 0.627527 0.476661
0.241459 0.630518 0.472938
0.290532 0.633539 0.468696
0.342412 0.636225 0.464149
0.397894 0.638544 0.460395
0.457008 0.640101 0.458564
0.522484 0.640925 0.463630
0.585290 0.642115 0.472786
