其他预设/【212】创意蓝橙调色预设24款/1.3D LUT预设（视频调色-PR-AE-PS-FCPX-达芬奇用）/19.蓝橙色调-夜景灯光__.cube
# Created by Adobe Lightroom plugin Export LUT (1.17.0)
# www.johnrellis.com/lightroom/exportlut.htm
# Preset: 19.蓝橙色调-夜景灯光[素锦印象]
# Color profile: /Library/Application Support/Adobe/Color/Profiles/Recommended/AdobeRGB1998.icc
LUT_3D_SIZE 8
DOMAIN_MIN 0.000000 0.000000 0.000000
DOMAIN_MAX 0.903226 0.903226 0.903226
0.111360 0.115419 0.127291
0.161654 0.129915 0.137850
0.252659 0.154971 0.151247
0.377356 0.184726 0.160403
0.533165 0.222049 0.173587
0.698146 0.259403 0.190982
0.845212 0.301427 0.224216
0.954192 0.359777 0.289281
0.117128 0.138796 0.144900
0.165408 0.149813 0.151186
0.256840 0.169833 0.155856
0.381170 0.198672 0.163485
0.536309 0.233860 0.176425
0.700252 0.269474 0.193179
0.846403 0.309941 0.226627
0.954650 0.366827 0.292058
0.129915 0.181399 0.179110
0.163821 0.188357 0.179995
0.265263 0.210086 0.188754
0.393652 0.235080 0.191958
0.547417 0.265782 0.197848
0.707973 0.299657 0.207645
0.850523 0.338506 0.235447
0.956207 0.390661 0.302159
0.133669 0.242100 0.223941
0.161746 0.247684 0.221317
0.269841 0.263218 0.222751
0.409400 0.288304 0.235050
0.565270 0.315373 0.243168
0.720760 0.342351 0.248966
0.857267 0.378759 0.270726
0.958801 0.430426 0.320897
0.116457 0.315404 0.275608
0.146365 0.320378 0.271916
0.259342 0.332799 0.260502
0.423957 0.351049 0.264530
0.584070 0.376043 0.291539
0.736507 0.402716 0.308080
0.865293 0.433509 0.328374
0.960662 0.482033 0.376654
0.083772 0.401282 0.337530
0.125460 0.405829 0.334356
0.239048 0.418677 0.318120
0.432837 0.433875 0.323278
0.616541 0.450752 0.320378
0.758907 0.472663 0.365087
0.873045 0.502831 0.401282
0.961151 0.548241 0.449775
0.000000 0.513756 0.416693
0.079103 0.518120 0.414160
0.231266 0.531243 0.401190
0.440925 0.544244 0.389227
0.656001 0.559747 0.404608
0.805570 0.562829 0.408606
0.892180 0.583001 0.473487
0.959625 0.623957 0.533593
0.000000 0.653132 0.511345
0.000000 0.656245 0.508843
0.252811 0.665248 0.498390
0.474128 0.672786 0.488197
0.703700 0.677180 0.518822
0.856046 0.693294 0.535149
0.930327 0.689448 0.562158
0.972381 0.712490 0.621851
0.106294 0.135470 0.163821
0.158877 0.147677 0.169863
0.252873 0.170230 0.175143
0.379034 0.201907 0.183993
0.535058 0.237675 0.192020
0.699458 0.274876 0.202396
0.845853 0.316320 0.228122
0.954376 0.369421 0.293034
0.112184 0.155093 0.177279
0.162875 0.165408 0.182437
0.255344 0.184909 0.188022
0.382391 0.211551 0.191043
0.538170 0.245579 0.198428
0.701625 0.281621 0.208347
0.847013 0.324132 0.230350
0.954833 0.376043 0.295659
0.129152 0.195743 0.204288
0.164950 0.205356 0.208621
0.264714 0.221683 0.215183
0.393286 0.244785 0.217380
0.548363 0.273533 0.221347
0.709133 0.305699 0.229557
0.851011 0.346014 0.250065
0.956390 0.398749 0.305699
0.129488 0.254398 0.245304
0.159182 0.261082 0.245151
0.270542 0.274174 0.243626
0.410040 0.296300 0.255283
0.565332 0.322057 0.262730
0.721279 0.348180 0.267735
0.857389 0.384283 0.287816
0.958587 0.435981 0.333837
0.107973 0.326452 0.294652
0.139834 0.331121 0.291783
0.249851 0.342931 0.275822
0.426368 0.359747 0.282994
0.584924 0.382300 0.307958
0.736416 0.408240 0.324071
0.865141 0.438911 0.343145
0.960174 0.487465 0.389319
0.069978 0.410101 0.353613
0.117556 0.414435 0.350927
0.234165 0.427008 0.336919
0.431525 0.440925 0.338659
0.617975 0.457099 0.335180
0.758999 0.477821 0.378576
0.872557 0.508080 0.413733
0.960479 0.553552 0.460792
0.000000 0.520562 0.429816
0.052369 0.524865 0.427619
0.224979 0.537591 0.415717
0.432746 0.550072 0.399786
0.654414 0.564324 0.417304
0.805783 0.567193 0.418433
0.891447 0.587457 0.484047
0.959014 0.628351 0.541955
0.000000 0.656825 0.521202
0.000000 0.659846 0.518578
0.242741 0.668757 0.508995
0.467506 0.676326 0.498085
0.701595 0.679683 0.528099
0.853696 0.695521 0.543664
0.929656 0.692317 0.568750
0.971740 0.715236 0.627497
0.083894 0.172335 0.225803
0.118257 0.176608 0.232578
0.248325 0.202121 0.244297
0.382391 0.218173 0.236973
0.539910 0.253422 0.246586
0.703578 0.291875 0.261234
0.847868 0.334813 0.279057
0.954925 0.391791 0.316777
0.097383 0.190188 0.239780
0.129641 0.194705 0.245151
0.250919 0.215396 0.252506
0.384619 0.231327 0.247166
0.542290 0.263462 0.255314
0.705379 0.299138 0.266728
0.848875 0.341131 0.284154
0.955230 0.397436 0.322240
0.091341 0.228580 0.266789
0.128359 0.234104 0.270603
0.257786 0.249638 0.274357
0.392645 0.268284 0.275486
0.550683 0.293675 0.278721
0.711757 0.323644 0.285740
0.852293 0.363134 0.303044
0.956237 0.417517 0.341741
0.082826 0.282353 0.300572
0.121553 0.289921 0.304631
0.239048 0.306096 0.301610
0.409033 0.319921 0.310918
0.565484 0.342382 0.316228
0.722347 0.366857 0.320836
0.857755 0.402075 0.337652
0.957641 0.453468 0.377050
0.021759 0.351141 0.345159
0.098299 0.357641 0.346685
0.222354 0.373480 0.340948
0.422034 0.384527 0.338354
0.586084 0.402625 0.357580
0.736110 0.426978 0.371679
0.864469 0.457343 0.388312
0.958648 0.505455 0.428809
0.000000 0.432410 0.398871
0.064576 0.438239 0.399481
0.210330 0.453162 0.393439
0.414069 0.464210 0.381598
0.620050 0.478798 0.384833
0.758328 0.495430 0.421576
0.871031 0.525902 0.453407
0.958404 0.571160 0.495552
0.000000 0.540307 0.470710
0.000000 0.544884 0.469764
0.193576 0.557458 0.461952
0.405707 0.569787 0.442939
0.646021 0.579095 0.458595
0.804227 0.583215 0.458686
0.889067 0.602350 0.517205
0.957061 0.642664 0.568963
0.000000 0.668696 0.553704
0.000000 0.671229 0.551019
0.194858 0.680049 0.542840
0.437720 0.688014 0.531090
0.687831 0.688472 0.552575
0.845304 0.702724 0.571221
0.927337 0.701839 0.589685
0.969574 0.724300 0.645686
0.000000 0.224369 0.308812
0.000000 0.226719 0.315587
0.151095 0.223117 0.330938
0.378637 0.266209 0.337469
0.544671 0.272984 0.320317
0.708614 0.312078 0.330755
0.850187 0.360815 0.352453
0.954345 0.420050 0.386328
0.000000 0.240085 0.322362
0.000000 0.241428 0.327092
0.155886 0.238346 0.338811
0.381079 0.276860 0.343359
0.546471 0.284703 0.328038
0.709987 0.321294 0.337865
0.850858 0.368017 0.358343
0.954650 0.424994 0.390051
0.000000 0.273289 0.345769
0.000000 0.276371 0.350072
0.161929 0.280797 0.359777
0.388128 0.309087 0.361639
0.552911 0.321263 0.353002
0.714748 0.352148 0.361242
0.853452 0.392279 0.377111
0.955444 0.444678 0.406134
0.000000 0.325902 0.380377
0.000000 0.329686 0.383429
0.158175 0.340826 0.390600
0.398993 0.358434 0.390723
0.564263 0.375830 0.391730
0.723384 0.398718 0.395727
0.857877 0.432258 0.408270
0.956115 0.481788 0.438697
0.000000 0.388525 0.417487
0.000000 0.393500 0.420325
0.160098 0.410346 0.427466
0.374304 0.427070 0.419501
0.583795 0.436652 0.431617
0.735286 0.458534 0.441138
0.863279 0.488075 0.453925
0.956268 0.534447 0.486152
0.000000 0.467475 0.466896
0.000000 0.473335 0.469306
0.152743 0.489479 0.472694
0.358618 0.505730 0.460975
0.610681 0.512871 0.461891
0.755917 0.525261 0.486732
0.868681 0.555413 0.512322
0.955627 0.597742 0.544793
0.000000 0.570733 0.533593
0.000000 0.574853 0.533684
0.116426 0.586755 0.530907
0.349676 0.599573 0.515923
0.622705 0.601587 0.518303
0.798428 0.610224 0.522148
0.885222 0.625666 0.565759
0.954498 0.664576 0.608637
0.000000 0.690547 0.609430
0.000000 0.692775 0.607752
0.032715 0.699001 0.599329
0.361303 0.706355 0.583185
0.646662 0.704585 0.586938
0.829129 0.713680 0.612634
0.923125 0.716915 0.620447
0.966186 0.738430 0.673335
0.000000 0.292058 0.407050
0.000000 0.293431 0.412024
0.000000 0.293217 0.426062
0.273259 0.282231 0.440040
0.541039 0.343999 0.443091
0.712032 0.346197 0.422492
0.850706 0.405737 0.445930
0.950256 0.476875 0.485756
0.000000 0.304326 0.417304
0.000000 0.305180 0.421302
0.000000 0.304417 0.432898
0.269902 0.291447 0.445197
0.542962 0.352941 0.447669
0.713100 0.356268 0.428534
0.851194 0.413275 0.450904
0.950469 0.481849 0.488960
0.000000 0.334295 0.438300
0.000000 0.336370 0.442206
0.000000 0.337804 0.451484
0.263066 0.328313 0.461738
0.549706 0.381109 0.462318
0.716884 0.389349 0.448402
0.852995 0.438331 0.467689
0.951263 0.497871 0.499519
0.000000 0.377905 0.465522
0.000000 0.380346 0.468635
0.000000 0.386877 0.477729
0.276463 0.392370 0.486732
0.560510 0.425635 0.485939
0.723598 0.439857 0.480171
0.856626 0.476448 0.493080
0.953521 0.521019 0.512230
0.000000 0.438209 0.502739
0.000000 0.441108 0.505211
0.000000 0.450111 0.512078
0.282780 0.463996 0.518975
0.574090 0.481147 0.516747
0.734005 0.499214 0.518853
0.861936 0.526207 0.526452
0.954101 0.567132 0.547204
0.000000 0.509667 0.545281
0.000000 0.513146 0.547478
0.000000 0.524987 0.553307
0.287419 0.545159 0.559686
0.550896 0.555657 0.545434
0.750912 0.563195 0.560693
0.866758 0.590234 0.575769
0.953216 0.627680 0.598108
0.000000 0.603052 0.604761
0.000000 0.606775 0.606256
0.000000 0.619532 0.610315
0.282261 0.636469 0.608972
0.536980 0.638575 0.585504
0.781216 0.642084 0.595850
0.880247 0.654322 0.621302
0.952239 0.690425 0.653285
0.000000 0.719631 0.680598
0.000000 0.721462 0.679774
0.000000 0.726864 0.675257
0.272587 0.732143 0.661189
0.542657 0.730556 0.637995
0.801694 0.727077 0.659724
0.913939 0.738613 0.667933
0.962066 0.756161 0.706935
0.000000 0.374029 0.518608
0.000000 0.375097 0.522332
0.000000 0.375189 0.533898
0.097810 0.365118 0.548821
0.474952 0.377142 0.559106
0.709895 0.446021 0.557061
0.848112 0.469917 0.550439
0.942748 0.553674 0.593164
0.000000 0.383490 0.525872
0.000000 0.384070 0.529137
0.000000 0.383795 0.539391
0.108431 0.374578 0.553002
0.474159 0.384192 0.562463
0.710994 0.453071 0.560388
0.848478 0.476967 0.554376
0.942840 0.557946 0.595850
0.000000 0.409491 0.543908
0.000000 0.409979 0.546410
0.000000 0.410193 0.554498
0.131106 0.404761 0.566003
0.465492 0.406195 0.573816
0.714931 0.476020 0.571221
0.849851 0.499855 0.567590
0.943420 0.571832 0.604395
0.000000 0.446235 0.566003
0.000000 0.447517 0.568414
0.000000 0.450660 0.576104
0.153201 0.451209 0.585718
0.441688 0.445869 0.592432
0.721462 0.511467 0.588891
0.852750 0.535119 0.587976
0.945129 0.592767 0.616236
0.000000 0.495491 0.594293
0.000000 0.497078 0.596246
0.000000 0.501793 0.602197
0.163760 0.507927 0.610101
0.441657 0.513146 0.615015
0.730465 0.554681 0.611719
0.857786 0.577600 0.612543
0.948302 0.619104 0.629694
0.000000 0.554864 0.627375
0.000000 0.556756 0.628809
0.000000 0.562860 0.633356
0.181155 0.572992 0.639307
0.451209 0.587152 0.643458
0.741665 0.607233 0.640558
0.864134 0.629480 0.644617
0.950500 0.661250 0.656489
0.000000 0.630243 0.672724
0.000000 0.632502 0.673915
0.000000 0.639918 0.677607
0.185000 0.653040 0.682033
0.458930 0.671199 0.684108
0.726650 0.676905 0.668635
0.873625 0.688716 0.684565
0.949676 0.720485 0.704036
0.000000 0.727443 0.735775
0.000000 0.729488 0.736385
0.000000 0.737057 0.737911
0.184085 0.750240 0.739010
0.466499 0.763729 0.732631
0.721828 0.754360 0.706783
0.897551 0.763424 0.724880
0.956817 0.778378 0.747951
0.000000 0.468025 0.644770
0.000000 0.468147 0.647120
0.000000 0.466926 0.654597
0.000000 0.460792 0.665461
0.324926 0.447242 0.676173
0.696071 0.511192 0.678859
0.844480 0.577325 0.673610
0.935027 0.626825 0.688136
0.000000 0.474281 0.648768
0.000000 0.474159 0.650874
0.000000 0.472908 0.657771
0.000000 0.467109 0.668086
0.329198 0.455085 0.678248
0.696254 0.516045 0.680659
0.844907 0.581476 0.675624
0.935241 0.629816 0.689845
0.000000 0.492683 0.659663
0.000000 0.492653 0.661402
0.000000 0.491798 0.667353
0.000000 0.487831 0.676356
0.340551 0.480049 0.685328
0.695155 0.531212 0.687007
0.846433 0.595422 0.682460
0.935821 0.641169 0.696376
0.000000 0.521416 0.674739
0.000000 0.521538 0.676295
0.000000 0.521447 0.681270
0.000000 0.520317 0.688991
0.349157 0.518242 0.696559
0.687160 0.553948 0.697475
0.849119 0.617792 0.693812
0.937133 0.659571 0.706722
0.000000 0.560235 0.694423
0.000000 0.560723 0.695644
0.000000 0.561852 0.699580
0.000000 0.561975 0.705013
0.334417 0.563195 0.710780
0.656123 0.580377 0.712612
0.853056 0.646448 0.708888
0.939483 0.683925 0.720394
0.000000 0.607691 0.717739
0.000000 0.608484 0.718715
0.000000 0.611017 0.721828
0.000000 0.614801 0.726162
0.335821 0.619898 0.730282
0.637690 0.634058 0.731319
0.858213 0.682765 0.728634
0.942748 0.714260 0.737209
0.000000 0.661189 0.743069
0.000000 0.662196 0.743832
0.000000 0.665949 0.746212
0.000000 0.672724 0.749752
0.375067 0.683528 0.753384
0.650629 0.700984 0.755062
0.864530 0.727352 0.753628
0.946258 0.753475 0.760128
0.000000 0.733852 0.786313
0.000000 0.735195 0.786923
0.000000 0.740078 0.788876
0.000000 0.748928 0.791653
0.400702 0.762020 0.794125
0.659174 0.778927 0.793881
0.857755 0.787320 0.781033
0.950195 0.805570 0.796841
0.000000 0.558831 0.769986
0.000000 0.558373 0.771237
0.000000 0.556664 0.775265
0.000000 0.553674 0.781399
0.321660 0.554864 0.787411
0.656214 0.589929 0.788815
0.861814 0.669734 0.788632
0.931334 0.715938 0.784848
0.000000 0.562554 0.771695
0.000000 0.562127 0.772854
0.000000 0.560479 0.776761
0.000000 0.557702 0.782712
0.323857 0.559258 0.788540
0.654749 0.592767 0.789914
0.861723 0.671992 0.789548
0.931487 0.717952 0.785885
0.000000 0.574640 0.776699
0.000000 0.574273 0.777768
0.000000 0.572961 0.781338
0.000000 0.570947 0.786831
0.326604 0.573541 0.792142
0.647791 0.602258 0.793698
0.860899 0.679103 0.792813
0.932036 0.724727 0.789548
0.000000 0.593835 0.783841
0.000000 0.593652 0.784848
0.000000 0.592859 0.788113
0.000000 0.591913 0.793210
0.313207 0.595483 0.798184
0.635950 0.620020 0.799832
0.858091 0.690059 0.798337
0.933013 0.736110 0.795865
0.000000 0.623957 0.796139
0.000000 0.623560 0.796689
0.000000 0.622004 0.798489
0.000000 0.618006 0.800961
0.246494 0.621881 0.806088
0.612024 0.644373 0.807980
0.850248 0.703456 0.806302
0.934539 0.752193 0.804898
0.000000 0.661891 0.811398
0.000000 0.661891 0.811856
0.000000 0.661646 0.813382
0.000000 0.660853 0.815427
0.155673 0.659754 0.817594
0.558587 0.673976 0.818906
0.829831 0.719173 0.817929
0.936522 0.773587 0.817136
0.000000 0.705684 0.828641
0.000000 0.706020 0.828977
0.000000 0.707210 0.830228
0.000000 0.709316 0.832090
0.243198 0.713741 0.834012
0.550134 0.724514 0.834470
0.804746 0.752255 0.833066
0.938872 0.801450 0.833341
0.000000 0.753536 0.846983
0.000000 0.754208 0.847288
0.000000 0.756497 0.848325
0.000000 0.761196 0.849973
0.335088 0.769375 0.851743
0.600793 0.783474 0.852659
0.812985 0.807279 0.853361
0.941619 0.838621 0.855222
