其他预设/【212】创意蓝橙调色预设24款/1.3D LUT预设（视频调色-PR-AE-PS-FCPX-达芬奇用）/2.蓝橙色调-适合风光__.cube
# Created by Adobe Lightroom plugin Export LUT (1.17.0)
# www.johnrellis.com/lightroom/exportlut.htm
# Preset: 2.蓝橙色调-适合风光[素锦印象]
# Color profile: /Library/Application Support/Adobe/Color/Profiles/Recommended/AdobeRGB1998.icc
LUT_3D_SIZE 8
DOMAIN_MIN 0.000000 0.000000 0.000000
DOMAIN_MAX 0.903226 0.903226 0.903226
0.084779 0.084779 0.084779
0.173922 0.093355 0.086610
0.319677 0.113985 0.080690
0.489845 0.149722 0.053864
0.679988 0.199069 0.000000
0.823270 0.239475 0.000000
0.924254 0.266300 0.000000
1.000000 0.288670 0.000000
0.079805 0.115175 0.100282
0.165866 0.126406 0.086671
0.313237 0.143099 0.079591
0.482246 0.175448 0.050568
0.671382 0.219547 0.000000
0.816068 0.253910 0.000000
0.920195 0.277317 0.000000
0.999603 0.296971 0.000000
0.051118 0.176394 0.138796
0.131899 0.184054 0.122377
0.296605 0.206607 0.089143
0.472938 0.241154 0.032593
0.665370 0.279210 0.000000
0.813779 0.303777 0.000000
0.922118 0.318151 0.000000
1.000000 0.329320 0.000000
0.000000 0.253910 0.189975
0.074586 0.261082 0.175662
0.267582 0.271763 0.139498
0.457465 0.309606 0.085359
0.663416 0.359747 0.000000
0.812314 0.374640 0.000000
0.919310 0.377142 0.000000
0.999023 0.377813 0.000000
0.000000 0.338262 0.246555
0.000000 0.345006 0.236027
0.213840 0.358923 0.180728
0.429450 0.378790 0.145663
0.639551 0.426917 0.035431
0.800351 0.450904 0.000000
0.912596 0.446235 0.000000
0.995972 0.438331 0.000000
0.000000 0.437293 0.313787
0.000000 0.446632 0.307317
0.084810 0.468086 0.257542
0.406104 0.484352 0.203677
0.623651 0.508629 0.134127
0.794034 0.527764 0.000000
0.908751 0.523949 0.000000
0.993927 0.507683 0.032013
0.000000 0.577050 0.408545
0.000000 0.584314 0.401526
0.000000 0.602838 0.360204
0.331640 0.620722 0.256870
0.618524 0.630243 0.212345
0.801663 0.625208 0.126192
0.910338 0.605249 0.000000
0.989746 0.581567 0.070619
0.000000 0.735409 0.509514
0.000000 0.738369 0.505882
0.000000 0.752621 0.469520
0.150454 0.769436 0.366644
0.583764 0.764523 0.312871
0.823545 0.765438 0.245090
0.933562 0.711818 0.177157
1.000000 0.668330 0.126223
0.059052 0.117433 0.147524
0.156893 0.120668 0.138003
0.304692 0.147005 0.099916
0.470710 0.198703 0.049348
0.662470 0.240757 0.000000
0.810056 0.269810 0.000000
0.917052 0.287236 0.000000
0.997742 0.300847 0.000000
0.033478 0.144472 0.158785
0.149020 0.149020 0.149020
0.298802 0.167422 0.117037
0.467567 0.214145 0.045594
0.658350 0.254765 0.000000
0.806638 0.281804 0.000000
0.914092 0.296818 0.000000
0.995789 0.308598 0.000000
0.001617 0.195438 0.178347
0.120180 0.206760 0.174502
0.288151 0.218235 0.146181
0.462196 0.253086 0.087251
0.652399 0.300481 0.000000
0.803983 0.322789 0.000000
0.914122 0.332189 0.000000
0.996643 0.338201 0.000000
0.000000 0.267552 0.220371
0.045197 0.276280 0.213199
0.262242 0.285863 0.176638
0.450019 0.313756 0.136995
0.646998 0.361730 0.000000
0.799435 0.384192 0.000000
0.911223 0.386023 0.000000
0.994842 0.384192 0.000000
0.000000 0.350835 0.272007
0.000000 0.356970 0.263798
0.188083 0.370916 0.207858
0.425391 0.386053 0.178073
0.630030 0.426398 0.116609
0.792874 0.454749 0.000000
0.908080 0.452979 0.000000
0.993347 0.443305 0.000000
0.000000 0.447517 0.334936
0.000000 0.454658 0.328740
0.025635 0.474189 0.287694
0.395636 0.490486 0.228763
0.618921 0.512016 0.167361
0.790585 0.529625 0.090791
0.906279 0.529412 0.000000
0.992065 0.511620 0.020966
0.000000 0.580102 0.423560
0.000000 0.585718 0.416663
0.000000 0.604150 0.381079
0.303807 0.624170 0.275853
0.610925 0.633661 0.237430
0.797696 0.627192 0.158938
0.906584 0.606195 0.084382
0.987366 0.583856 0.063355
0.000000 0.735805 0.521721
0.000000 0.739284 0.518547
0.000000 0.753597 0.486061
0.103120 0.770809 0.392401
0.576196 0.770565 0.338567
0.819394 0.769253 0.271794
0.931670 0.714595 0.204593
1.000000 0.670405 0.122866
0.000000 0.184939 0.255100
0.000000 0.181338 0.253849
0.276432 0.187137 0.232151
0.459998 0.206943 0.175509
0.655451 0.270298 0.108217
0.803861 0.328496 0.000000
0.914916 0.338231 0.000000
0.997681 0.336095 0.000000
0.000000 0.206821 0.260655
0.000000 0.202701 0.259709
0.270207 0.207218 0.237919
0.453620 0.224491 0.186770
0.649378 0.280735 0.122438
0.800687 0.334783 0.000000
0.912749 0.345800 0.000000
0.996582 0.342840 0.000000
0.000000 0.251804 0.279820
0.000000 0.252628 0.278080
0.255497 0.255497 0.255497
0.444800 0.273808 0.216098
0.644800 0.316930 0.151827
0.799039 0.360082 0.000000
0.911467 0.373968 0.000000
0.995758 0.367590 0.000000
0.000000 0.307286 0.301183
0.000000 0.313878 0.301488
0.195499 0.328374 0.278477
0.435615 0.340124 0.247929
0.637842 0.374243 0.190799
0.795712 0.404303 0.091066
0.909880 0.420233 0.000000
0.994842 0.409155 0.000000
0.000000 0.379339 0.338628
0.000000 0.388098 0.339178
0.114961 0.410071 0.320745
0.412055 0.421637 0.271611
0.622522 0.444953 0.233677
0.788022 0.465309 0.161379
0.905913 0.475563 0.000000
0.992859 0.463172 0.000000
0.000000 0.476387 0.398138
0.000000 0.485237 0.397498
0.000000 0.506554 0.378485
0.347326 0.522148 0.305486
0.610071 0.534051 0.259678
0.782315 0.541711 0.219699
0.901976 0.539544 0.133059
0.991638 0.527581 0.035096
0.000000 0.604395 0.481361
0.000000 0.610590 0.477882
0.000000 0.627680 0.454841
0.219272 0.647456 0.372717
0.586694 0.653498 0.319677
0.791714 0.642847 0.252110
0.903197 0.618280 0.215152
0.988098 0.597589 0.100862
0.000000 0.748562 0.569085
0.000000 0.750423 0.564721
0.000000 0.762997 0.542077
0.000000 0.781521 0.472663
0.534447 0.781949 0.406134
0.799344 0.779294 0.352056
0.926665 0.727138 0.285740
0.997253 0.681056 0.227481
0.000000 0.271733 0.382055
0.000000 0.272648 0.381811
0.054871 0.237430 0.377935
0.422950 0.262821 0.345312
0.635248 0.274174 0.273625
0.794553 0.325963 0.209751
0.908568 0.367346 0.122744
0.994903 0.377783 0.000000
0.000000 0.291417 0.387671
0.000000 0.287205 0.388434
0.060883 0.257969 0.382605
0.420142 0.278172 0.350042
0.631617 0.289616 0.281376
0.791897 0.336065 0.217777
0.907134 0.373877 0.131075
0.994507 0.382666 0.000000
0.000000 0.326299 0.402289
0.000000 0.324620 0.402350
0.000000 0.311009 0.395422
0.407965 0.322087 0.363439
0.622095 0.337346 0.305913
0.789181 0.372412 0.245060
0.908873 0.399145 0.157900
0.995727 0.403723 0.000000
0.000000 0.382269 0.427955
0.000000 0.382666 0.427161
0.000000 0.383825 0.421851
0.388342 0.388342 0.388342
0.607691 0.405188 0.343114
0.781125 0.424201 0.279118
0.904479 0.437263 0.189883
0.994324 0.440223 0.000000
0.000000 0.445655 0.454444
0.000000 0.449439 0.455146
0.000000 0.461799 0.451881
0.314733 0.478645 0.415564
0.596429 0.482948 0.380285
0.774166 0.493477 0.324041
0.900908 0.493172 0.238163
0.992706 0.488563 0.080415
0.000000 0.527459 0.497780
0.000000 0.534936 0.500298
0.000000 0.554192 0.498116
0.217838 0.575128 0.458808
0.581384 0.579644 0.401068
0.767910 0.573236 0.366979
0.894560 0.563775 0.301122
0.990021 0.546777 0.181033
0.000000 0.639826 0.567376
0.000000 0.646052 0.567346
0.000000 0.663722 0.559686
0.000000 0.683467 0.516014
0.523705 0.687343 0.446418
0.776761 0.676570 0.386786
0.893400 0.644556 0.356695
0.983795 0.617548 0.273899
0.000000 0.773648 0.649134
0.000000 0.775845 0.645655
0.000000 0.783505 0.629358
0.000000 0.797726 0.580835
0.430426 0.801450 0.505669
0.756588 0.794980 0.474983
0.915190 0.750973 0.398108
0.989746 0.703395 0.356390
0.000000 0.376104 0.531090
0.000000 0.378424 0.529931
0.000000 0.358556 0.531365
0.235142 0.297185 0.521721
0.589380 0.353826 0.476143
0.772671 0.364416 0.397467
0.897154 0.401770 0.339422
0.989075 0.419409 0.261357
0.000000 0.392096 0.533806
0.000000 0.389197 0.535332
0.000000 0.371618 0.536767
0.223239 0.311315 0.525353
0.586175 0.365942 0.479133
0.770687 0.376684 0.403479
0.896391 0.410101 0.344701
0.988891 0.424079 0.263310
0.000000 0.421607 0.546502
0.000000 0.420447 0.548547
0.000000 0.407874 0.547906
0.191318 0.363531 0.535332
0.575311 0.404028 0.489387
0.762600 0.414618 0.421180
0.892882 0.436469 0.359838
0.988098 0.438666 0.266575
0.000000 0.468025 0.566796
0.000000 0.467353 0.567193
0.000000 0.462196 0.565667
0.158236 0.444190 0.553338
0.560266 0.465248 0.510063
0.754025 0.474830 0.452705
0.890318 0.478065 0.381567
0.989776 0.461006 0.261295
0.000000 0.528710 0.593469
0.000000 0.529381 0.593561
0.000000 0.529778 0.590692
0.000000 0.529381 0.578027
0.536889 0.536889 0.536889
0.743832 0.543236 0.487495
0.886229 0.531914 0.408209
0.987732 0.507561 0.290043
0.000000 0.595056 0.620996
0.000000 0.597131 0.621149
0.000000 0.603449 0.618860
0.000000 0.617212 0.609186
0.450324 0.627985 0.557519
0.733791 0.621759 0.527001
0.877531 0.609949 0.466743
0.982910 0.576196 0.353552
0.000000 0.686671 0.672511
0.000000 0.689387 0.671504
0.000000 0.700221 0.669459
0.000000 0.720119 0.656886
0.335576 0.727138 0.592218
0.729580 0.720211 0.549340
0.871885 0.688106 0.514092
0.972869 0.655085 0.431983
0.000000 0.798886 0.740902
0.000000 0.801602 0.738888
0.000000 0.807401 0.727871
0.000000 0.820066 0.702388
0.000000 0.825986 0.631739
0.686641 0.812284 0.609674
0.889860 0.788418 0.544121
0.973968 0.741176 0.504692
0.000000 0.481941 0.683986
0.000000 0.486885 0.682277
0.000000 0.472663 0.682918
0.000000 0.433417 0.680018
0.450111 0.408423 0.661921
0.731411 0.481025 0.607874
0.867369 0.517540 0.560327
0.965240 0.542809 0.523491
0.000000 0.491188 0.682643
0.000000 0.492378 0.681666
0.000000 0.478706 0.682612
0.000000 0.442237 0.679408
0.442267 0.415351 0.662074
0.728481 0.488716 0.609552
0.865873 0.523644 0.562982
0.964691 0.546349 0.524804
0.000000 0.518883 0.690791
0.000000 0.516075 0.690730
0.000000 0.504631 0.690333
0.000000 0.476295 0.686519
0.414679 0.442786 0.669642
0.723018 0.518730 0.619532
0.862791 0.547784 0.575586
0.964019 0.560601 0.531426
0.000000 0.553460 0.701778
0.000000 0.551568 0.701625
0.000000 0.544732 0.701259
0.000000 0.528435 0.698878
0.359930 0.496468 0.684810
0.715938 0.567712 0.638788
0.859678 0.586542 0.596246
0.964813 0.581231 0.537407
0.000000 0.597925 0.714839
0.000000 0.597406 0.715053
0.000000 0.594812 0.714595
0.000000 0.587945 0.710964
0.302708 0.576074 0.697841
0.700862 0.619287 0.657069
0.854582 0.626062 0.612177
0.966644 0.599664 0.530297
0.000000 0.650874 0.732174
0.000000 0.652125 0.732509
0.000000 0.653315 0.731746
0.000000 0.655207 0.728145
0.219760 0.661128 0.716670
0.682033 0.682033 0.682033
0.849363 0.681147 0.638361
0.965820 0.644495 0.546105
0.000000 0.719203 0.765774
0.000000 0.722316 0.765164
0.000000 0.727810 0.764096
0.000000 0.737331 0.761105
0.000000 0.756191 0.750179
0.611139 0.762387 0.699947
0.840085 0.748379 0.675959
0.953185 0.723812 0.613275
0.000000 0.803586 0.814481
0.000000 0.805997 0.813474
0.000000 0.815152 0.809567
0.000000 0.831052 0.804227
0.000000 0.856260 0.787900
0.494118 0.845518 0.714992
0.844022 0.832242 0.699916
0.949584 0.796048 0.664240
0.000000 0.560204 0.801419
0.000000 0.563684 0.800015
0.000000 0.560266 0.799374
0.000000 0.537285 0.799313
0.125154 0.499519 0.794583
0.650080 0.566918 0.775296
0.832883 0.633112 0.730098
0.928130 0.689998 0.724483
0.000000 0.568139 0.803433
0.000000 0.571435 0.802121
0.000000 0.566369 0.801633
0.000000 0.544274 0.801297
0.127291 0.509545 0.796872
0.650385 0.575586 0.778134
0.833646 0.641169 0.734279
0.928893 0.696132 0.728817
0.000000 0.586450 0.805264
0.000000 0.589654 0.804349
0.000000 0.583337 0.804593
0.000000 0.564813 0.804135
0.105287 0.537011 0.799954
0.641260 0.593378 0.781582
0.830350 0.656489 0.739895
0.927642 0.703578 0.731746
0.000000 0.612512 0.810544
0.000000 0.615412 0.809689
0.000000 0.611597 0.809842
0.000000 0.597650 0.809018
0.000000 0.578180 0.804746
0.617853 0.618036 0.787015
0.825162 0.680507 0.749020
0.926970 0.717098 0.737270
0.000000 0.647883 0.819913
0.000000 0.650782 0.819425
0.000000 0.651057 0.818997
0.000000 0.641932 0.818235
0.000000 0.628840 0.814267
0.561761 0.646723 0.799344
0.821225 0.715175 0.764523
0.927825 0.737697 0.746029
0.000000 0.690364 0.830716
0.000000 0.692805 0.830045
0.000000 0.696925 0.828672
0.000000 0.693538 0.827726
0.000000 0.688838 0.824399
0.484779 0.700038 0.811673
0.812406 0.753017 0.780056
0.928801 0.761501 0.753048
0.000000 0.737240 0.842039
0.000000 0.739284 0.841306
0.000000 0.746944 0.839261
0.000000 0.748959 0.838560
0.000000 0.754726 0.836088
0.419196 0.773342 0.826566
0.800290 0.800259 0.800290
0.928710 0.796048 0.764218
0.000000 0.798917 0.872190
0.000000 0.801144 0.871885
0.000000 0.808072 0.869718
0.000000 0.821286 0.867216
0.000000 0.834592 0.864988
0.200046 0.859434 0.855406
0.748623 0.862455 0.814206
0.922423 0.850340 0.795712
0.000000 0.622858 0.900359
0.000000 0.625788 0.899718
0.000000 0.633997 0.898466
0.000000 0.620050 0.898314
0.000000 0.609552 0.896056
0.566217 0.664607 0.885435
0.815427 0.745174 0.870054
0.912596 0.779355 0.841764
0.000000 0.627131 0.901305
0.000000 0.629877 0.900694
0.000000 0.637842 0.899321
0.000000 0.624414 0.899290
0.000000 0.614527 0.897002
0.563409 0.667750 0.886564
0.815427 0.748653 0.871275
0.912932 0.782620 0.843595
0.000000 0.638209 0.903349
0.000000 0.640894 0.902831
0.000000 0.650416 0.901488
0.000000 0.637720 0.900908
0.000000 0.628717 0.898833
0.546349 0.674800 0.889281
0.812345 0.756710 0.873716
0.912535 0.790066 0.847135
0.000000 0.652583 0.906798
0.000000 0.655116 0.906249
0.000000 0.664485 0.904784
0.000000 0.659754 0.903960
0.000000 0.650813 0.902007
0.510277 0.687221 0.893187
0.804044 0.767697 0.877226
0.911467 0.801236 0.852384
0.000000 0.680018 0.911650
0.000000 0.681422 0.911192
0.000000 0.686580 0.910124
0.000000 0.689235 0.908507
0.000000 0.679438 0.907408
0.436866 0.705165 0.899840
0.788785 0.782528 0.883391
0.910338 0.817563 0.860319
0.000000 0.714778 0.917571
0.000000 0.716335 0.917449
0.000000 0.721584 0.916716
0.000000 0.729946 0.914946
0.000000 0.720394 0.914061
0.239994 0.726802 0.908263
0.749538 0.794644 0.891325
0.907774 0.837156 0.869413
0.000000 0.754513 0.924132
0.000000 0.756008 0.924041
0.000000 0.761166 0.923461
0.000000 0.770321 0.921935
0.000000 0.773129 0.920592
0.000000 0.776303 0.917174
0.679042 0.820615 0.903655
0.905119 0.864469 0.882841
0.000000 0.798215 0.931823
0.000000 0.799741 0.931762
0.000000 0.805081 0.931151
0.000000 0.814878 0.929595
0.000000 0.827604 0.927520
0.000000 0.837675 0.924712
0.616999 0.870939 0.914458
0.897704 0.897704 0.897704
