其他预设/【212】创意蓝橙调色预设24款/1.3D LUT预设（视频调色-PR-AE-PS-FCPX-达芬奇用）/2.蓝橙色调-适合风光__.cube
# Created by Adobe Lightroom plugin Export LUT (1.17.0)
# www.johnrellis.com/lightroom/exportlut.htm
# Preset: 2.蓝橙色调-适合风光[素锦印象]
# Color profile: /Library/Application Support/Adobe/Color/Profiles/Recommended/AdobeRGB1998.icc
LUT_3D_SIZE 32
0.084779 0.084779 0.084779
0.094942 0.085817 0.085267
0.108186 0.086580 0.085664
0.137057 0.089601 0.086275
0.173922 0.093355 0.086610
0.210391 0.097536 0.086061
0.246311 0.102419 0.084901
0.282200 0.107637 0.083284
0.319677 0.113985 0.080690
0.359045 0.121309 0.076661
0.400885 0.129427 0.072206
0.444526 0.139132 0.065339
0.489845 0.149722 0.053864
0.536614 0.161257 0.029816
0.583520 0.173495 0.000000
0.632990 0.186618 0.000000
0.679988 0.199069 0.000000
0.721950 0.210727 0.000000
0.758633 0.221012 0.000000
0.792264 0.230625 0.000000
0.823270 0.239475 0.000000
0.851835 0.247257 0.000000
0.877958 0.254124 0.000000
0.901976 0.260655 0.000000
0.924254 0.266300 0.000000
0.945129 0.271794 0.000000
0.964904 0.277256 0.000000
0.983673 0.282811 0.000000
1.000000 0.288670 0.000000
1.000000 0.295171 0.066621
1.000000 0.302556 0.102052
1.000000 0.311681 0.133944
0.084321 0.087892 0.086244
0.094484 0.088991 0.085298
0.107454 0.090394 0.085634
0.136477 0.093568 0.086244
0.173159 0.097230 0.086580
0.209537 0.101595 0.086000
0.245640 0.105989 0.084871
0.281346 0.111391 0.083253
0.318578 0.117494 0.080415
0.358007 0.124392 0.076722
0.399603 0.132540 0.071931
0.443153 0.141817 0.065156
0.488380 0.152163 0.054444
0.534936 0.163729 0.029664
0.581811 0.175753 0.000000
0.631006 0.188998 0.000000
0.677455 0.200900 0.000000
0.719265 0.212650 0.000000
0.756100 0.222751 0.000000
0.789883 0.232059 0.000000
0.821103 0.240421 0.000000
0.849851 0.248051 0.000000
0.876158 0.255009 0.000000
0.900359 0.261479 0.000000
0.922820 0.267094 0.000000
0.943877 0.272496 0.000000
0.963806 0.277836 0.000000
0.982696 0.283513 0.000000
1.000000 0.289036 0.000000
1.000000 0.295537 0.064973
1.000000 0.302861 0.100771
1.000000 0.311925 0.132845
0.083772 0.092378 0.088746
0.093477 0.093507 0.087251
0.107118 0.095094 0.085817
0.135988 0.098665 0.086091
0.172305 0.102510 0.086397
0.208560 0.106722 0.086152
0.244419 0.111055 0.084718
0.280247 0.116030 0.083131
0.317479 0.121492 0.080659
0.356786 0.128664 0.076631
0.398322 0.136629 0.071504
0.441962 0.145480 0.065095
0.486976 0.156069 0.053468
0.533654 0.167208 0.029572
0.580438 0.179355 0.000000
0.629694 0.191775 0.000000
0.675776 0.204105 0.000000
0.717617 0.214969 0.000000
0.754482 0.225071 0.000000
0.788449 0.234043 0.000000
0.819791 0.242527 0.000000
0.848722 0.249851 0.000000
0.875151 0.256840 0.000000
0.899504 0.262699 0.000000
0.922057 0.268650 0.000000
0.943206 0.273808 0.000000
0.963195 0.279088 0.000000
0.982208 0.284489 0.000000
1.000000 0.290257 0.000000
1.000000 0.296483 0.064332
1.000000 0.303746 0.100191
1.000000 0.312657 0.132235
0.082246 0.102754 0.093568
0.091249 0.103883 0.091646
0.106172 0.105135 0.089723
0.134768 0.109010 0.086519
0.170565 0.113375 0.086519
0.206851 0.116793 0.086030
0.242679 0.121035 0.084596
0.278630 0.125185 0.082765
0.315862 0.130678 0.079896
0.355230 0.137179 0.076234
0.396612 0.144625 0.071473
0.440101 0.153902 0.064515
0.485115 0.163973 0.053193
0.531640 0.175296 0.026795
0.578637 0.186160 0.000000
0.627863 0.198672 0.000000
0.673701 0.210025 0.000000
0.715328 0.220584 0.000000
0.752163 0.230045 0.000000
0.786069 0.238804 0.000000
0.817563 0.246983 0.000000
0.846647 0.254093 0.000000
0.873411 0.260349 0.000000
0.898131 0.266392 0.000000
0.921111 0.271885 0.000000
0.942565 0.277134 0.000000
0.962829 0.282170 0.000000
0.981964 0.287419 0.000000
1.000000 0.292943 0.000000
1.000000 0.299016 0.063966
1.000000 0.306035 0.100038
1.000000 0.314641 0.132021
0.079805 0.115175 0.100282
0.086549 0.116701 0.098512
0.101411 0.117922 0.096529
0.128695 0.120333 0.092775
0.165866 0.126406 0.086671
0.204074 0.130678 0.085939
0.239994 0.134188 0.084871
0.275975 0.138369 0.082704
0.313237 0.143099 0.079591
0.352331 0.149386 0.075929
0.393805 0.156741 0.070741
0.437171 0.165743 0.063600
0.482246 0.175448 0.050568
0.528771 0.185855 0.024720
0.575891 0.196719 0.000000
0.625483 0.208499 0.000000
0.671382 0.219547 0.000000
0.713252 0.229435 0.000000
0.750484 0.238285 0.000000
0.784512 0.246769 0.000000
0.816068 0.253910 0.000000
0.845335 0.260533 0.000000
0.872190 0.266819 0.000000
0.897093 0.272251 0.000000
0.920195 0.277317 0.000000
0.941863 0.282109 0.000000
0.962188 0.287053 0.000000
0.981415 0.291875 0.000000
0.999603 0.296971 0.000000
1.000000 0.302861 0.063508
1.000000 0.309667 0.099275
1.000000 0.317937 0.131716
0.076020 0.129030 0.108003
0.081636 0.130282 0.106447
0.094423 0.131533 0.103761
0.122042 0.133303 0.099916
0.156435 0.137301 0.094514
0.197452 0.144625 0.086152
0.236820 0.149874 0.084840
0.273014 0.153628 0.082399
0.310307 0.158267 0.078889
0.349584 0.164279 0.074800
0.390967 0.171603 0.069795
0.434546 0.179934 0.062501
0.479438 0.189364 0.048432
0.526116 0.199466 0.020447
0.573938 0.209781 0.000000
0.623590 0.221134 0.000000
0.669429 0.231601 0.000000
0.711452 0.240879 0.000000
0.748898 0.249271 0.000000
0.783383 0.256657 0.000000
0.815213 0.263645 0.000000
0.844694 0.269780 0.000000
0.881712 0.278477 0.000000
0.905669 0.283268 0.000000
0.927794 0.287907 0.000000
0.948486 0.291966 0.000000
0.967956 0.296178 0.000000
0.986389 0.300572 0.000000
1.000000 0.305364 0.002289
1.000000 0.310735 0.073304
1.000000 0.317174 0.106752
1.000000 0.325231 0.138308
0.070344 0.143923 0.117128
0.076387 0.145022 0.115908
0.087922 0.146487 0.113497
0.114046 0.148836 0.108064
0.149447 0.151217 0.103639
0.187869 0.156558 0.095888
0.230564 0.164950 0.086610
0.271519 0.171176 0.081758
0.309178 0.176028 0.078035
0.349126 0.181918 0.073671
0.390906 0.189425 0.067414
0.434791 0.197452 0.059998
0.480110 0.206394 0.043061
0.527031 0.216007 0.013855
0.575982 0.226505 0.000000
0.625727 0.237125 0.000000
0.671595 0.246952 0.000000
0.713527 0.255558 0.000000
0.751095 0.263340 0.000000
0.785916 0.270085 0.000000
0.818357 0.276585 0.000000
0.848600 0.282170 0.000000
0.876432 0.287358 0.000000
0.901915 0.291936 0.000000
0.925261 0.296056 0.000000
0.946685 0.299901 0.000000
0.966613 0.303746 0.000000
0.985260 0.307652 0.000000
1.000000 0.312016 0.000000
1.000000 0.316960 0.071626
1.000000 0.322881 0.106233
1.000000 0.330449 0.137484
0.062623 0.159304 0.127443
0.070497 0.160372 0.126131
0.081483 0.161929 0.123751
0.104463 0.164401 0.117372
0.141909 0.166659 0.113191
0.178683 0.169650 0.107362
0.219577 0.176303 0.097841
0.262730 0.184939 0.087648
0.305211 0.193393 0.077516
0.345006 0.199374 0.072328
0.387060 0.206332 0.066712
0.430945 0.214725 0.058412
0.476295 0.223209 0.038209
0.523308 0.232547 0.008759
0.573297 0.242985 0.000000
0.622492 0.253422 0.000000
0.668147 0.262425 0.000000
0.710201 0.270512 0.000000
0.748043 0.277531 0.000000
0.783078 0.283604 0.000000
0.815824 0.289311 0.000000
0.846250 0.294408 0.000000
0.874266 0.298650 0.000000
0.899962 0.302678 0.000000
0.923522 0.306249 0.000000
0.945129 0.309728 0.000000
0.965209 0.312840 0.000000
0.984070 0.316258 0.000000
1.000000 0.320134 0.000000
1.000000 0.324437 0.070344
1.000000 0.329870 0.105684
1.000000 0.336889 0.137301
0.051118 0.176394 0.138796
0.063691 0.177584 0.137423
0.074128 0.178927 0.135470
0.096559 0.181460 0.129976
0.131899 0.184054 0.122377
0.172122 0.186465 0.117922
0.210971 0.190311 0.110506
0.252628 0.197299 0.100587
0.296605 0.206607 0.089143
0.341405 0.216861 0.073243
0.383276 0.224491 0.065461
0.427283 0.232425 0.054871
0.472938 0.241154 0.032593
0.520012 0.250401 0.001495
0.570916 0.261021 0.000000
0.619806 0.270726 0.000000
0.665370 0.279210 0.000000
0.707607 0.286900 0.000000
0.745510 0.293095 0.000000
0.780850 0.298741 0.000000
0.813779 0.303777 0.000000
0.844419 0.308049 0.000000
0.872618 0.311864 0.000000
0.898436 0.315099 0.000000
0.922118 0.318151 0.000000
0.943877 0.320653 0.000000
0.964141 0.323339 0.000000
0.983093 0.326177 0.000000
1.000000 0.329320 0.000000
1.000000 0.333227 0.069947
1.000000 0.338079 0.105104
1.000000 0.344518 0.137484
0.031495 0.194553 0.150607
0.048066 0.195712 0.149538
0.063874 0.196933 0.147616
0.087251 0.199344 0.142702
0.119112 0.202457 0.132265
0.163912 0.204379 0.128206
0.204379 0.207187 0.122408
0.244755 0.211826 0.112306
0.287205 0.219333 0.102235
0.332433 0.229587 0.089723
0.379370 0.241184 0.072145
0.423072 0.250370 0.051789
0.468818 0.259098 0.026856
0.516350 0.268681 0.000000
0.568292 0.279698 0.000000
0.617304 0.289128 0.000000
0.663203 0.297459 0.000000
0.705623 0.304479 0.000000
0.743954 0.310369 0.000000
0.779324 0.315251 0.000000
0.812284 0.319402 0.000000
0.842710 0.323064 0.000000
0.870726 0.326085 0.000000
0.896483 0.328557 0.000000
0.920195 0.330816 0.000000
0.942168 0.332921 0.000000
0.962646 0.334844 0.000000
0.981872 0.337072 0.000000
1.000000 0.339788 0.000000
1.000000 0.342962 0.070008
1.000000 0.347356 0.105898
1.000000 0.353277 0.138064
0.000000 0.213321 0.163088
0.015473 0.214298 0.162112
0.041199 0.215640 0.160220
0.074891 0.217990 0.155795
0.107393 0.220951 0.146639
0.151217 0.223453 0.137118
0.196963 0.225742 0.132937
0.237766 0.228946 0.125612
0.279911 0.234379 0.113191
0.323735 0.242924 0.103273
0.370642 0.253971 0.089662
0.419684 0.266667 0.068818
0.464881 0.277806 0.019471
0.514061 0.287816 0.000000
0.565362 0.298650 0.000000
0.614191 0.308141 0.000000
0.660029 0.315984 0.000000
0.702571 0.322698 0.000000
0.741085 0.328130 0.000000
0.776883 0.332341 0.000000
0.810056 0.336187 0.000000
0.840818 0.338903 0.000000
0.869078 0.341314 0.000000
0.895018 0.343236 0.000000
0.918853 0.344915 0.000000
0.940948 0.346197 0.000000
0.961517 0.347539 0.000000
0.980896 0.349065 0.000000
0.999115 0.351232 0.000000
1.000000 0.353796 0.068940
1.000000 0.357549 0.105837
1.000000 0.362982 0.138735
0.000000 0.232792 0.175967
0.000000 0.233677 0.174838
0.000000 0.234989 0.173220
0.055879 0.237217 0.169223
0.093446 0.240360 0.160983
0.133486 0.243473 0.146761
0.186893 0.245335 0.143008
0.231144 0.248020 0.136629
0.272984 0.251652 0.127901
0.317113 0.258183 0.113313
0.362463 0.267948 0.103914
0.411048 0.279911 0.088411
0.467781 0.296910 0.060578
0.519982 0.311589 0.000000
0.572534 0.323613 0.000000
0.621942 0.332982 0.000000
0.667994 0.340581 0.000000
0.710201 0.346532 0.000000
0.748074 0.350774 0.000000
0.783139 0.354406 0.000000
0.815549 0.356756 0.000000
0.845396 0.358770 0.000000
0.872801 0.359991 0.000000
0.898100 0.360967 0.000000
0.921416 0.361639 0.000000
0.943084 0.362219 0.000000
0.963348 0.362737 0.000000
0.982361 0.363561 0.000000
1.000000 0.364813 0.000000
1.000000 0.366796 0.073701
1.000000 0.369970 0.109438
1.000000 0.374609 0.142519
0.000000 0.253910 0.189975
0.000000 0.254856 0.189120
0.000000 0.255985 0.187442
0.001099 0.258122 0.183444
0.074586 0.261082 0.175662
0.117983 0.264347 0.162570
0.171420 0.266484 0.151644
0.222873 0.268681 0.147616
0.267582 0.271763 0.139498
0.310979 0.276402 0.127993
0.357275 0.284459 0.113771
0.404913 0.295476 0.103944
0.457465 0.309606 0.085359
0.515984 0.327367 0.039094
0.567864 0.341527 0.000000
0.617182 0.352300 0.000000
0.663416 0.359747 0.000000
0.705837 0.365545 0.000000
0.744228 0.369604 0.000000
0.779629 0.372473 0.000000
0.812314 0.374640 0.000000
0.842527 0.376074 0.000000
0.870237 0.376806 0.000000
0.895720 0.377203 0.000000
0.919310 0.377142 0.000000
0.941192 0.377050 0.000000
0.961669 0.376959 0.000000
0.980865 0.377295 0.000000
0.999023 0.377813 0.000000
1.000000 0.379248 0.072877
1.000000 0.381750 0.109712
1.000000 0.385840 0.143099
0.000000 0.274144 0.203647
0.000000 0.274998 0.202457
0.000000 0.275914 0.201053
0.000000 0.278172 0.197330
0.032044 0.281132 0.190219
0.099275 0.284520 0.178164
0.147890 0.287755 0.159396
0.210117 0.289464 0.157382
0.259220 0.292088 0.150881
0.304417 0.295628 0.141756
0.349737 0.301640 0.128420
0.397498 0.310948 0.114961
0.449500 0.324559 0.102693
0.505699 0.340734 0.078828
0.563561 0.357641 0.006439
0.612909 0.370031 0.000000
0.658625 0.379065 0.000000
0.701350 0.384741 0.000000
0.740139 0.388647 0.000000
0.775998 0.391363 0.000000
0.809201 0.393072 0.000000
0.839811 0.394079 0.000000
0.867826 0.394293 0.000000
0.893675 0.393957 0.000000
0.917479 0.393378 0.000000
0.939605 0.392798 0.000000
0.960266 0.392126 0.000000
0.979644 0.391699 0.000000
0.997955 0.391821 0.000000
1.000000 0.392554 0.073579
1.000000 0.394537 0.110689
1.000000 0.397986 0.144564
0.000000 0.294926 0.217288
0.000000 0.295750 0.216495
0.000000 0.296666 0.215091
0.000000 0.298833 0.211460
0.000000 0.301762 0.204929
0.074128 0.305333 0.193973
0.128817 0.308873 0.176730
0.191714 0.311162 0.165347
0.248692 0.313420 0.162020
0.297276 0.316655 0.153628
0.342596 0.320500 0.143832
0.390875 0.328649 0.128908
0.442908 0.341131 0.115572
0.497108 0.355535 0.099519
0.553521 0.371313 0.070161
0.608179 0.386114 0.000000
0.654688 0.396796 0.000000
0.697230 0.404425 0.000000
0.736385 0.408118 0.000000
0.772641 0.410559 0.000000
0.806119 0.411902 0.000000
0.837034 0.412421 0.000000
0.865354 0.412207 0.000000
0.891478 0.411383 0.000000
0.915587 0.410346 0.000000
0.937987 0.409247 0.000000
0.959014 0.408026 0.000000
0.978729 0.407141 0.000000
0.997345 0.406714 0.000000
1.000000 0.407080 0.075990
1.000000 0.408453 0.113588
1.000000 0.411414 0.147951
0.000000 0.316442 0.231693
0.000000 0.317205 0.230869
0.000000 0.318120 0.229465
0.000000 0.320195 0.226230
0.000000 0.323278 0.220462
0.005646 0.326970 0.210513
0.105867 0.330938 0.195102
0.164553 0.334295 0.173648
0.234379 0.335973 0.171939
0.288243 0.338781 0.165652
0.336645 0.342321 0.156497
0.385138 0.349035 0.145022
0.436744 0.359380 0.128450
0.489570 0.371893 0.114473
0.543969 0.386023 0.094545
0.597833 0.399969 0.059297
0.649012 0.412512 0.000000
0.693111 0.421637 0.000000
0.732631 0.427863 0.000000
0.769497 0.430304 0.000000
0.803555 0.431556 0.000000
0.834958 0.431586 0.000000
0.863645 0.431006 0.000000
0.890105 0.429725 0.000000
0.914458 0.428168 0.000000
0.937133 0.426459 0.000000
0.958282 0.424842 0.000000
0.978149 0.423407 0.000000
0.996857 0.422400 0.000000
1.000000 0.422095 0.077974
1.000000 0.422858 0.116274
1.000000 0.425208 0.150820
0.000000 0.338262 0.246555
0.000000 0.338903 0.245548
0.000000 0.339940 0.244541
0.000000 0.342077 0.241276
0.000000 0.345006 0.236027
0.000000 0.348760 0.227237
0.075288 0.352728 0.213291
0.141726 0.356634 0.192020
0.213840 0.358923 0.180728
0.276219 0.361089 0.178073
0.329412 0.365759 0.169680
0.379431 0.371008 0.159792
0.429450 0.378790 0.145663
0.482612 0.389807 0.126741
0.535821 0.402319 0.111910
0.588678 0.415045 0.089174
0.639551 0.426917 0.035431
0.687739 0.437568 0.000000
0.728969 0.445045 0.000000
0.765835 0.450080 0.000000
0.800351 0.450904 0.000000
0.832090 0.450843 0.000000
0.861143 0.449775 0.000000
0.887907 0.448127 0.000000
0.912596 0.446235 0.000000
0.935515 0.444007 0.000000
0.956939 0.441840 0.000000
0.977081 0.439796 0.000000
0.995972 0.438331 0.000000
1.000000 0.437446 0.079805
1.000000 0.437690 0.118349
1.000000 0.439521 0.153902
0.000000 0.360815 0.261753
0.000000 0.361517 0.260868
0.000000 0.364996 0.261601
0.000000 0.367010 0.258640
0.000000 0.370001 0.253635
0.000000 0.373632 0.245518
0.000000 0.377722 0.232731
0.117128 0.381720 0.213809
0.186343 0.385077 0.190494
0.262333 0.388617 0.189090
0.322332 0.393408 0.183932
0.376135 0.398383 0.174197
0.426703 0.403815 0.163210
0.479469 0.412909 0.145724
0.534020 0.424292 0.123690
0.586206 0.435737 0.108125
0.636622 0.446418 0.081788
0.684443 0.456184 0.003082
0.728115 0.463935 0.000000
0.766018 0.469276 0.000000
0.800046 0.472511 0.000000
0.831754 0.471748 0.000000
0.860777 0.470192 0.000000
0.887510 0.467933 0.000000
0.912016 0.465309 0.000000
0.934783 0.462348 0.000000
0.956085 0.459480 0.000000
0.976165 0.456855 0.000000
0.995087 0.454688 0.000000
1.000000 0.453346 0.082704
1.000000 0.452979 0.121157
1.000000 0.454261 0.156954
0.000000 0.385077 0.278325
0.000000 0.386114 0.277897
0.000000 0.387366 0.276860
0.000000 0.389685 0.274540
0.000000 0.392920 0.269841
0.000000 0.396674 0.262516
0.000000 0.400916 0.251072
0.081819 0.405402 0.234379
0.158114 0.411414 0.209720
0.240024 0.415381 0.198917
0.309789 0.419226 0.196841
0.367651 0.423865 0.187655
0.421302 0.428717 0.176852
0.472328 0.434455 0.163455
0.526757 0.444404 0.143069
0.580285 0.454749 0.120150
0.630121 0.464363 0.103243
0.677974 0.473335 0.073213
0.722103 0.480568 0.000000
0.761685 0.485969 0.000000
0.796750 0.489815 0.000000
0.828702 0.491585 0.000000
0.858213 0.489631 0.000000
0.885283 0.487129 0.000000
0.910185 0.484047 0.000000
0.933257 0.480629 0.000000
0.954833 0.477394 0.000000
0.975097 0.474281 0.000000
0.994202 0.471656 0.003784
1.000000 0.469642 0.085695
1.000000 0.468879 0.124178
1.000000 0.469551 0.160586
0.000000 0.409949 0.295048
0.000000 0.411109 0.294774
0.000000 0.412329 0.293706
0.000000 0.414618 0.291691
0.000000 0.417731 0.287449
0.000000 0.421729 0.280613
0.000000 0.427253 0.270848
0.000000 0.433112 0.256046
0.128756 0.439094 0.233677
0.208927 0.443915 0.208530
0.292088 0.447181 0.206546
0.357305 0.451087 0.201083
0.414649 0.455695 0.190249
0.468208 0.460487 0.177951
0.521111 0.467353 0.161563
0.575189 0.476661 0.138705
0.626246 0.484993 0.117067
0.673945 0.492958 0.097536
0.718227 0.499397 0.062867
0.758083 0.504051 0.000000
0.793851 0.507225 0.000000
0.826047 0.509453 0.000000
0.855772 0.509575 0.000000
0.883177 0.506645 0.000000
0.908385 0.503136 0.000000
0.931701 0.499367 0.000000
0.953460 0.495521 0.000000
0.973907 0.491951 0.000000
0.993164 0.488808 0.010224
1.000000 0.486366 0.088838
1.000000 0.485023 0.127687
1.000000 0.485145 0.164523
0.000000 0.437293 0.313787
0.000000 0.438544 0.313237
0.000000 0.440101 0.312810
0.000000 0.442725 0.310857
0.000000 0.446632 0.307317
0.000000 0.451179 0.301305
0.000000 0.456458 0.292088
0.000000 0.462104 0.278325
0.084810 0.468086 0.257542
0.173281 0.473640 0.227359
0.267338 0.476905 0.216495
0.343328 0.480232 0.213443
0.406104 0.484352 0.203677
0.463539 0.488991 0.191592
0.517388 0.493874 0.177707
0.571191 0.501091 0.158145
0.623651 0.508629 0.134127
0.672694 0.515587 0.113588
0.717342 0.521324 0.091951
0.757748 0.525292 0.049928
0.794034 0.527764 0.000000
0.826383 0.528923 0.000000
0.855680 0.529320 0.000000
0.883299 0.527794 0.000000
0.908751 0.523949 0.000000
0.932280 0.519738 0.000000
0.954162 0.515435 0.000000
0.974670 0.511376 0.000000
0.993927 0.507683 0.032013
1.000000 0.504753 0.096223
1.000000 0.502831 0.135439
1.000000 0.502586 0.172396
0.000000 0.470436 0.336126
0.000000 0.471504 0.335760
0.000000 0.472663 0.335027
0.000000 0.475196 0.333135
0.000000 0.478767 0.329534
0.000000 0.483070 0.323583
0.000000 0.488319 0.314763
0.000000 0.493935 0.301701
0.000000 0.499977 0.282780
0.138216 0.506035 0.254887
0.232883 0.510765 0.226963
0.325414 0.513848 0.224094
0.396887 0.517357 0.218326
0.458961 0.521508 0.206302
0.516106 0.525750 0.192966
0.570275 0.530205 0.177371
0.623346 0.536339 0.155154
0.673610 0.541741 0.129427
0.718349 0.545800 0.110323
0.758480 0.548211 0.088045
0.794522 0.549371 0.036927
0.826688 0.549340 0.000000
0.855314 0.548333 0.000000
0.881315 0.546960 0.000000
0.906889 0.543694 0.000000
0.930602 0.539055 0.000000
0.952758 0.534356 0.000000
0.973480 0.529808 0.000000
0.992889 0.525689 0.043244
1.000000 0.522271 0.100862
1.000000 0.519799 0.139620
1.000000 0.519036 0.177279
0.000000 0.503593 0.358801
0.000000 0.504723 0.358282
0.000000 0.505974 0.357580
0.000000 0.508385 0.355657
0.000000 0.511833 0.352087
0.000000 0.515984 0.346258
0.000000 0.521050 0.337743
0.000000 0.526574 0.325750
0.000000 0.532616 0.307652
0.081575 0.538598 0.282078
0.189181 0.544366 0.244236
0.297795 0.547173 0.234928
0.381109 0.549950 0.231327
0.449653 0.553277 0.221622
0.510979 0.557061 0.208194
0.568170 0.561059 0.193210
0.622187 0.565393 0.175204
0.673335 0.569543 0.151339
0.719600 0.571954 0.124819
0.759854 0.572839 0.108858
0.795895 0.572686 0.086305
0.828183 0.571496 0.032288
0.856962 0.569451 0.000000
0.882567 0.566735 0.000000
0.904570 0.562921 0.000000
0.928435 0.558282 0.000000
0.950835 0.553246 0.000000
0.971801 0.548302 0.000000
0.991394 0.543694 0.049287
1.000000 0.539818 0.104280
1.000000 0.536889 0.143740
1.000000 0.535668 0.181949
0.000000 0.541192 0.384253
0.000000 0.542290 0.383734
0.000000 0.543572 0.383062
0.000000 0.545708 0.381109
0.000000 0.548821 0.377325
0.000000 0.552728 0.371649
0.000000 0.557366 0.363287
0.000000 0.562463 0.351141
0.000000 0.568017 0.334203
0.000000 0.573632 0.310277
0.148745 0.579004 0.275853
0.260227 0.582696 0.246677
0.360204 0.584588 0.243442
0.437385 0.586847 0.237766
0.503410 0.589654 0.224460
0.563806 0.592737 0.209873
0.620264 0.596185 0.193484
0.672694 0.599054 0.172396
0.719448 0.599603 0.148531
0.761196 0.598749 0.121920
0.797238 0.597040 0.109346
0.829496 0.594568 0.086732
0.858244 0.591302 0.033814
0.883757 0.587335 0.000000
0.906554 0.583032 0.000000
0.927184 0.578027 0.000000
0.949554 0.572747 0.000000
0.970581 0.567346 0.000000
0.990265 0.562219 0.060792
1.000000 0.557855 0.109468
1.000000 0.554528 0.148867
1.000000 0.552789 0.187747
0.000000 0.577050 0.408545
0.000000 0.578088 0.408209
0.000000 0.579309 0.407324
0.000000 0.581384 0.405310
0.000000 0.584314 0.401526
0.000000 0.588006 0.395941
0.000000 0.592493 0.387732
0.000000 0.597436 0.376257
0.000000 0.602838 0.360204
0.000000 0.608484 0.337835
0.079957 0.614099 0.307042
0.209384 0.619013 0.263859
0.331640 0.620722 0.256870
0.421088 0.622400 0.252659
0.493904 0.624720 0.242863
0.558709 0.627344 0.228519
0.618524 0.630243 0.212345
0.674556 0.633265 0.194522
0.722713 0.632227 0.172274
0.764736 0.629267 0.148867
0.801663 0.625208 0.126192
0.833585 0.620935 0.114137
0.862119 0.616022 0.091798
0.887541 0.610834 0.048676
0.910338 0.605249 0.000000
0.930755 0.599634 0.000000
0.949004 0.592645 0.000000
0.970001 0.587060 0.000000
0.989746 0.581567 0.070619
1.000000 0.576715 0.116793
1.000000 0.572930 0.156283
1.000000 0.570855 0.195834
0.000000 0.614832 0.434150
0.000000 0.615747 0.433631
0.000000 0.616632 0.432654
0.000000 0.618555 0.430640
0.000000 0.621210 0.426764
0.000000 0.624628 0.421149
0.000000 0.628687 0.413153
0.000000 0.633387 0.401831
0.000000 0.638666 0.386603
0.000000 0.644068 0.365698
0.000000 0.649592 0.337469
0.165560 0.654810 0.298985
0.292821 0.657588 0.271122
0.398810 0.658686 0.267582
0.480842 0.660029 0.262394
0.550225 0.661769 0.248508
0.613306 0.663600 0.232975
0.671717 0.665766 0.215976
0.725795 0.667262 0.196506
0.768246 0.661769 0.174838
0.805600 0.655512 0.151949
0.838102 0.648859 0.133303
0.866300 0.642206 0.121157
0.891600 0.635523 0.099275
0.914275 0.628656 0.063905
0.934691 0.621820 0.000000
0.953124 0.615076 0.000000
0.969360 0.606531 0.000000
0.988617 0.600702 0.077150
1.000000 0.595453 0.123507
1.000000 0.591180 0.162814
1.000000 0.588647 0.202701
0.000000 0.653010 0.459358
0.000000 0.653559 0.458991
0.000000 0.654383 0.458259
0.000000 0.656184 0.456092
0.000000 0.658747 0.452491
0.000000 0.662348 0.447120
0.000000 0.666804 0.439399
0.000000 0.671901 0.429114
0.000000 0.677485 0.414649
0.000000 0.683375 0.395575
0.000000 0.689174 0.369512
0.098909 0.694575 0.335119
0.241520 0.698878 0.290929
0.372534 0.699458 0.287663
0.466438 0.699977 0.283574
0.542626 0.700801 0.274418
0.609583 0.701839 0.259403
0.671015 0.702998 0.243168
0.728267 0.704463 0.225162
0.777310 0.701717 0.204685
0.814420 0.692348 0.184237
0.846983 0.682795 0.162631
0.875059 0.673548 0.147677
0.899779 0.664820 0.135531
0.922057 0.656245 0.114687
0.942077 0.647852 0.083619
0.960266 0.639612 0.000000
0.976410 0.630884 0.000000
0.990692 0.621912 0.086152
1.000000 0.616052 0.135897
1.000000 0.611353 0.175113
1.000000 0.608362 0.215457
0.000000 0.696651 0.486397
0.000000 0.697139 0.486091
0.000000 0.697566 0.485725
0.000000 0.698512 0.484688
0.000000 0.700710 0.480842
0.000000 0.703670 0.475288
0.000000 0.707393 0.467536
0.000000 0.711696 0.456977
0.000000 0.716365 0.442908
0.000000 0.721340 0.424445
0.000000 0.726223 0.400061
0.000000 0.730739 0.368505
0.202090 0.734432 0.329778
0.336736 0.735409 0.308171
0.444129 0.734920 0.304448
0.528313 0.734798 0.299870
