其他预设/【212】创意蓝橙调色预设24款/1.3D LUT预设（视频调色-PR-AE-PS-FCPX-达芬奇用）/2.蓝橙色调-适合风光__.cube
# Created by Adobe Lightroom plugin Export LUT (1.17.0)
# www.johnrellis.com/lightroom/exportlut.htm
# Preset: 2.蓝橙色调-适合风光[素锦印象]
# Color profile: /Library/Application Support/Adobe/Color/Profiles/Recommended/AdobeRGB1998.icc
LUT_3D_SIZE 5
DOMAIN_MIN 0.000000 0.000000 0.000000
DOMAIN_MAX 0.903226 0.903226 0.903226
0.084779 0.084779 0.084779
0.282200 0.107637 0.083284
0.583520 0.173495 0.000000
0.851835 0.247257 0.000000
1.000000 0.288670 0.000000
0.062623 0.159304 0.127443
0.262730 0.184939 0.087648
0.573297 0.242985 0.000000
0.846250 0.294408 0.000000
1.000000 0.320134 0.000000
0.000000 0.294926 0.217288
0.191714 0.311162 0.165347
0.553521 0.371313 0.070161
0.837034 0.412421 0.000000
0.997345 0.406714 0.000000
0.000000 0.470436 0.336126
0.000000 0.493935 0.301701
0.516106 0.525750 0.192966
0.826688 0.549340 0.000000
0.992889 0.525689 0.043244
0.000000 0.735409 0.509514
0.000000 0.748257 0.482887
0.414496 0.765530 0.324956
0.857145 0.751125 0.226322
1.000000 0.668330 0.126223
0.000000 0.166110 0.226200
0.244877 0.169345 0.207126
0.560571 0.236393 0.109224
0.834318 0.318975 0.000000
0.996735 0.325658 0.000000
0.000000 0.223697 0.247715
0.227604 0.227604 0.227604
0.553399 0.276616 0.143130
0.831785 0.350683 0.000000
0.996246 0.351110 0.000000
0.000000 0.329595 0.295201
0.117891 0.351965 0.277836
0.534173 0.384253 0.209354
0.825467 0.434546 0.000000
0.994690 0.428656 0.000000
0.000000 0.501183 0.401465
0.000000 0.525170 0.385138
0.497719 0.553185 0.278691
0.820249 0.559899 0.185733
0.991485 0.540307 0.048066
0.000000 0.746975 0.555871
0.000000 0.758633 0.537102
0.341161 0.782101 0.393988
0.850370 0.768154 0.310094
0.999237 0.678431 0.201114
0.000000 0.322820 0.455177
0.000000 0.308659 0.454170
0.507256 0.306035 0.410346
0.819791 0.348547 0.285801
0.993347 0.398566 0.120394
0.000000 0.363073 0.469062
0.000000 0.349920 0.467323
0.496590 0.348577 0.422065
0.814145 0.382849 0.307012
0.993622 0.413703 0.126864
0.000000 0.456794 0.512230
0.000000 0.458473 0.510521
0.461646 0.461646 0.461646
0.802731 0.478676 0.364385
0.992187 0.470069 0.173770
0.000000 0.585901 0.573480
0.000000 0.597986 0.572137
0.307073 0.629511 0.516411
0.790646 0.614954 0.444007
0.984924 0.575311 0.286473
0.000000 0.785397 0.693355
0.000000 0.792111 0.682399
0.000000 0.812253 0.603357
0.784665 0.802182 0.525780
0.982666 0.719112 0.425818
0.000000 0.502007 0.713771
0.000000 0.500359 0.713069
0.000000 0.430213 0.708309
0.759518 0.516838 0.638575
0.955413 0.582940 0.582788
0.000000 0.529961 0.717708
0.000000 0.521447 0.718044
0.000000 0.465858 0.711971
0.753414 0.541650 0.646235
0.953979 0.594171 0.587396
0.000000 0.589166 0.733791
0.000000 0.585046 0.734096
0.000000 0.561639 0.727810
0.740230 0.616693 0.675074
0.954742 0.627588 0.597253
0.000000 0.676265 0.763119
0.000000 0.678553 0.761410
0.000000 0.683162 0.755734
0.713771 0.713771 0.713771
0.956054 0.684932 0.608057
0.000000 0.802609 0.829923
0.000000 0.811246 0.827298
0.000000 0.838926 0.818753
0.571466 0.849485 0.741329
0.942626 0.809812 0.699733
0.000000 0.622858 0.900359
0.000000 0.633112 0.898711
0.000000 0.612482 0.897642
0.655573 0.692592 0.881010
0.912596 0.779355 0.841764
0.000000 0.634730 0.902464
0.000000 0.644282 0.900877
0.000000 0.626673 0.899687
0.647852 0.701045 0.883818
0.912444 0.787259 0.845701
0.000000 0.665064 0.909087
0.000000 0.670222 0.908049
0.000000 0.668147 0.906035
0.587213 0.715694 0.893065
0.911070 0.809049 0.856229
0.000000 0.723873 0.918669
0.000000 0.728969 0.918029
0.000000 0.737362 0.915679
0.383154 0.747158 0.907530
0.907408 0.843626 0.872679
0.000000 0.798215 0.931823
0.000000 0.803372 0.931395
0.000000 0.821988 0.928466
0.000000 0.843351 0.923064
0.897704 0.897704 0.897704
