其他预设/【212】创意蓝橙调色预设24款/1.3D LUT预设（视频调色-PR-AE-PS-FCPX-达芬奇用）/20.蓝橙色调-夜景灯光__.cube
# Created by Adobe Lightroom plugin Export LUT (1.17.0)
# www.johnrellis.com/lightroom/exportlut.htm
# Preset: 20.蓝橙色调-夜景灯光[素锦印象]
# Color profile: /Library/Application Support/Adobe/Color/Profiles/Recommended/AdobeRGB1998.icc
LUT_3D_SIZE 32
0.078279 0.078279 0.078279
0.078279 0.078279 0.078279
0.078279 0.078279 0.078279
0.078279 0.078279 0.078279
0.105684 0.077760 0.077455
0.163210 0.075898 0.074617
0.216251 0.073487 0.070466
0.265354 0.072053 0.064698
0.311376 0.069612 0.056123
0.354376 0.068605 0.038209
0.395972 0.067964 0.014740
0.436652 0.069581 0.000000
0.477455 0.070283 0.000000
0.519127 0.073335 0.000000
0.562524 0.077852 0.000000
0.607294 0.080720 0.000000
0.651362 0.084901 0.000000
0.693660 0.089265 0.000000
0.732753 0.093111 0.000000
0.768887 0.095796 0.000000
0.802121 0.097383 0.000000
0.832212 0.097658 0.000000
0.858824 0.099763 0.000000
0.882078 0.103395 0.000000
0.902525 0.107546 0.000000
0.920653 0.113039 0.000000
0.936797 0.118410 0.000000
0.951263 0.125673 0.000000
0.964294 0.135561 0.000000
0.976074 0.147463 0.000000
0.986633 0.163149 0.059327
0.995941 0.182162 0.116457
0.078279 0.078279 0.078279
0.078279 0.078279 0.078279
0.078279 0.078279 0.078279
0.078279 0.078279 0.078279
0.105318 0.078553 0.077394
0.162387 0.078737 0.074434
0.215976 0.078096 0.070069
0.264836 0.076600 0.064302
0.310674 0.075715 0.055207
0.353979 0.074983 0.036866
0.395697 0.074708 0.013306
0.436469 0.074525 0.000000
0.477180 0.077180 0.000000
0.518791 0.080751 0.000000
0.562432 0.083528 0.000000
0.607080 0.087861 0.000000
0.651026 0.091951 0.000000
0.693385 0.095583 0.000000
0.732540 0.097963 0.000000
0.768765 0.100343 0.000000
0.801999 0.101869 0.000000
0.832120 0.102113 0.000000
0.858732 0.104097 0.000000
0.882017 0.107942 0.000000
0.902495 0.111421 0.000000
0.920592 0.116304 0.000000
0.936767 0.121004 0.000000
0.951232 0.128725 0.000000
0.964263 0.137789 0.000000
0.976043 0.149660 0.000000
0.986603 0.164920 0.059724
0.995911 0.183474 0.116670
0.078279 0.078279 0.078279
0.078279 0.078279 0.078279
0.078279 0.078279 0.078279
0.078279 0.078279 0.078279
0.104616 0.080140 0.077272
0.161654 0.082765 0.074098
0.215030 0.083406 0.069612
0.264073 0.083345 0.063661
0.310033 0.083223 0.053864
0.353368 0.082643 0.035126
0.395056 0.083131 0.011353
0.435950 0.083619 0.000000
0.476722 0.084962 0.000000
0.518425 0.089021 0.000000
0.561852 0.092439 0.000000
0.606714 0.094942 0.000000
0.650752 0.098848 0.000000
0.693111 0.102998 0.000000
0.732326 0.105348 0.000000
0.768582 0.106752 0.000000
0.801877 0.108034 0.000000
0.832059 0.106783 0.000000
0.858640 0.109895 0.000000
0.881926 0.112581 0.000000
0.902434 0.116243 0.000000
0.920562 0.120455 0.000000
0.936706 0.125216 0.000000
0.951171 0.132082 0.000000
0.964233 0.141024 0.000000
0.976013 0.152438 0.000000
0.986572 0.167147 0.060914
0.995880 0.185672 0.117189
0.078279 0.078279 0.078279
0.078279 0.078279 0.078279
0.078279 0.078279 0.078279
0.078279 0.078279 0.078279
0.102907 0.082856 0.077119
0.159457 0.090425 0.073487
0.212955 0.094148 0.068635
0.262455 0.096071 0.062287
0.308629 0.096284 0.051209
0.352178 0.097444 0.031006
0.393957 0.098177 0.007172
0.434852 0.099214 0.000000
0.475654 0.101686 0.000000
0.517510 0.103700 0.000000
0.561181 0.106600 0.000000
0.605982 0.110323 0.000000
0.650111 0.112856 0.000000
0.692531 0.115724 0.000000
0.731899 0.118715 0.000000
0.768124 0.120241 0.000000
0.801572 0.120089 0.000000
0.831724 0.120058 0.000000
0.858427 0.121157 0.000000
0.881743 0.123720 0.000000
0.902281 0.126406 0.000000
0.920439 0.129366 0.000000
0.936614 0.133516 0.000000
0.951110 0.139315 0.000000
0.964172 0.147433 0.000000
0.975952 0.158145 0.000000
0.986511 0.172091 0.061311
0.995850 0.189548 0.117861
0.078279 0.078279 0.078279
0.078279 0.078279 0.078279
0.078279 0.078279 0.078279
0.078279 0.078279 0.078279
0.096956 0.085389 0.077089
0.156466 0.100587 0.072541
0.209995 0.107851 0.067109
0.260044 0.111879 0.060212
0.306615 0.114137 0.046632
0.350256 0.115877 0.024781
0.392309 0.116884 0.000732
0.433326 0.118441 0.000000
0.474281 0.120455 0.000000
0.516197 0.122774 0.000000
0.559838 0.125917 0.000000
0.604669 0.129061 0.000000
0.649073 0.131777 0.000000
0.691585 0.133944 0.000000
0.731075 0.136019 0.000000
0.767514 0.137301 0.000000
0.801022 0.136751 0.000000
0.831388 0.135378 0.000000
0.858152 0.136812 0.000000
0.881529 0.138186 0.000000
0.902068 0.140200 0.000000
0.920226 0.142092 0.000000
0.936431 0.145327 0.000000
0.950958 0.150210 0.000000
0.964019 0.157015 0.000000
0.975830 0.166720 0.000000
0.986389 0.179477 0.062745
0.995727 0.196048 0.119142
0.078279 0.078279 0.078279
0.078279 0.078279 0.078279
0.078279 0.078279 0.078279
0.078279 0.078279 0.078279
0.083955 0.081819 0.077821
0.146822 0.109285 0.072053
0.206088 0.123384 0.065095
0.256565 0.129946 0.056367
0.303502 0.133822 0.038758
0.347692 0.136324 0.016297
0.389960 0.138491 0.000000
0.431189 0.140139 0.000000
0.472358 0.141787 0.000000
0.514488 0.144015 0.000000
0.558160 0.146731 0.000000
0.603235 0.149783 0.000000
0.647669 0.151949 0.000000
0.690364 0.154665 0.000000
0.730068 0.155673 0.000000
0.766690 0.156435 0.000000
0.800412 0.155795 0.000000
0.830869 0.154543 0.000000
0.857664 0.155245 0.000000
0.881132 0.155886 0.000000
0.901732 0.156435 0.000000
0.919982 0.157748 0.000000
0.936217 0.159762 0.000000
0.950774 0.163241 0.000000
0.963836 0.169131 0.000000
0.975677 0.177584 0.000000
0.986267 0.188998 0.064729
0.995605 0.204288 0.120089
0.078279 0.078279 0.078279
0.078279 0.078279 0.078279
0.078279 0.078279 0.078279
0.077729 0.082155 0.077974
0.088167 0.089998 0.076936
0.132357 0.111940 0.072511
0.195132 0.135531 0.063874
0.252293 0.148623 0.049928
0.299809 0.154391 0.028779
0.344549 0.157412 0.005737
0.387091 0.160220 0.000000
0.428717 0.161868 0.000000
0.469947 0.164279 0.000000
0.512291 0.166445 0.000000
0.556207 0.168978 0.000000
0.601404 0.171603 0.000000
0.646082 0.173922 0.000000
0.688899 0.175814 0.000000
0.728786 0.177401 0.000000
0.765713 0.177432 0.000000
0.799557 0.176669 0.000000
0.830167 0.174899 0.000000
0.857115 0.174960 0.000000
0.880674 0.174899 0.000000
0.901366 0.174502 0.000000
0.919646 0.174929 0.000000
0.935912 0.176272 0.000000
0.950500 0.178561 0.000000
0.963622 0.183017 0.000000
0.975463 0.190158 0.000000
0.986053 0.200198 0.067445
0.995392 0.214359 0.121859
0.073152 0.096407 0.086641
0.072663 0.098054 0.087068
0.072023 0.101320 0.086763
0.071778 0.107271 0.081971
0.090852 0.113680 0.074067
0.123842 0.119966 0.071809
0.180911 0.142458 0.063813
0.241337 0.162203 0.046296
0.295354 0.174777 0.017212
0.340612 0.179324 0.000000
0.383825 0.182162 0.000000
0.425727 0.184512 0.000000
0.467353 0.186526 0.000000
0.509697 0.188785 0.000000
0.553887 0.191318 0.000000
0.599207 0.194339 0.000000
0.644129 0.196536 0.000000
0.687129 0.198276 0.000000
0.727352 0.199496 0.000000
0.764523 0.199374 0.000000
0.798611 0.198367 0.000000
0.829374 0.196780 0.000000
0.856443 0.196262 0.000000
0.880156 0.195163 0.000000
0.900908 0.194125 0.000000
0.919280 0.193484 0.000000
0.935576 0.193820 0.000000
0.950225 0.195193 0.000000
0.963378 0.198611 0.000000
0.975219 0.204166 0.000000
0.985840 0.213107 0.070558
0.995178 0.225589 0.123873
0.060548 0.124849 0.102022
0.060090 0.126284 0.101900
0.059358 0.129305 0.100862
0.059541 0.134554 0.094484
0.070680 0.141787 0.070161
0.124331 0.145968 0.067140
0.170077 0.153567 0.062196
0.228946 0.172519 0.043366
0.285740 0.188540 0.011017
0.336584 0.200717 0.000000
0.380224 0.204166 0.000000
0.422400 0.206821 0.000000
0.464424 0.208988 0.000000
0.507042 0.211307 0.000000
0.551202 0.214084 0.000000
0.596704 0.217075 0.000000
0.641901 0.219608 0.000000
0.685298 0.221286 0.000000
0.725643 0.222110 0.000000
0.763149 0.221958 0.000000
0.797452 0.220615 0.000000
0.828458 0.219181 0.000000
0.855680 0.218204 0.000000
0.879515 0.216190 0.000000
0.900359 0.214694 0.000000
0.918791 0.213077 0.000000
0.935180 0.212467 0.000000
0.949859 0.212924 0.000000
0.963043 0.215030 0.000000
0.974945 0.219638 0.000000
0.985565 0.227176 0.074220
0.994934 0.238376 0.126406
0.020417 0.153872 0.119600
0.018982 0.155459 0.119234
0.017670 0.158145 0.117525
0.018189 0.163058 0.111330
0.029145 0.170138 0.088838
0.108522 0.174868 0.060853
0.167025 0.178653 0.053223
0.219547 0.187472 0.035248
0.275242 0.201419 0.004791
0.327977 0.214115 0.000000
0.376440 0.225162 0.000000
0.418830 0.229099 0.000000
0.461067 0.231479 0.000000
0.503838 0.234043 0.000000
0.548333 0.236790 0.000000
0.594079 0.240024 0.000000
0.639490 0.242710 0.000000
0.682979 0.244602 0.000000
0.723781 0.245274 0.000000
0.761532 0.244694 0.000000
0.796262 0.243442 0.000000
0.827329 0.242405 0.000000
0.854856 0.240269 0.000000
0.878782 0.238041 0.000000
0.899779 0.235538 0.000000
0.918303 0.233280 0.000000
0.934752 0.231815 0.000000
0.949462 0.231388 0.000000
0.962707 0.232700 0.000000
0.974609 0.236027 0.000000
0.985260 0.242466 0.078645
0.994629 0.252262 0.129458
0.000000 0.183444 0.138705
0.000000 0.185122 0.137850
0.000000 0.187320 0.135927
0.000000 0.191958 0.130007
0.000000 0.198398 0.112398
0.059785 0.205020 0.059297
0.155612 0.207065 0.048524
0.212802 0.210269 0.018341
0.267002 0.218784 0.000000
0.319036 0.228855 0.000000
0.368566 0.238712 0.000000
0.415717 0.248875 0.000000
0.457618 0.253849 0.000000
0.500694 0.256382 0.000000
0.545251 0.259525 0.000000
0.591241 0.263096 0.000000
0.636805 0.265629 0.000000
0.680537 0.267735 0.000000
0.721706 0.268772 0.000000
0.759915 0.268223 0.000000
0.794827 0.266941 0.000000
0.826169 0.265476 0.000000
0.853880 0.263279 0.000000
0.877958 0.260258 0.000000
0.899077 0.257298 0.000000
0.917693 0.254429 0.000000
0.934234 0.251896 0.000000
0.949004 0.250675 0.000000
0.962310 0.250950 0.000000
0.974243 0.253269 0.000000
0.984894 0.258518 0.083162
0.994263 0.267002 0.132784
0.000000 0.213138 0.158114
0.000000 0.214755 0.156924
0.000000 0.216800 0.155123
0.000000 0.220737 0.149325
0.000000 0.226627 0.134920
0.000000 0.233768 0.091737
0.132265 0.236027 0.068666
0.203403 0.237980 0.053803
0.258732 0.240848 0.005249
0.311894 0.247318 0.000000
0.360632 0.254582 0.000000
0.407996 0.263096 0.000000
0.454963 0.272587 0.000000
0.497292 0.278904 0.000000
0.541985 0.282200 0.000000
0.588159 0.285863 0.000000
0.633997 0.288975 0.000000
0.677974 0.291081 0.000000
0.719478 0.292088 0.000000
0.758083 0.291295 0.000000
0.793271 0.290684 0.000000
0.824857 0.289036 0.000000
0.852750 0.286290 0.000000
0.877073 0.282841 0.000000
0.898344 0.278965 0.000000
0.917021 0.275639 0.000000
0.933623 0.272557 0.000000
0.948486 0.270390 0.000000
0.961822 0.269871 0.000000
0.973816 0.271153 0.000000
0.984497 0.275273 0.087404
0.993896 0.282628 0.136385
0.000000 0.241947 0.177096
0.000000 0.243351 0.175967
0.000000 0.245212 0.174228
0.000000 0.248966 0.169192
0.000000 0.254246 0.156771
0.000000 0.260716 0.126070
0.082307 0.264775 0.079438
0.186526 0.265629 0.078767
0.249668 0.267430 0.057588
0.303258 0.270115 0.000000
0.353765 0.274296 0.000000
0.400427 0.279606 0.000000
0.447089 0.287114 0.000000
0.494820 0.297093 0.000000
0.538598 0.304784 0.000000
0.584833 0.308782 0.000000
0.630976 0.312200 0.000000
0.675227 0.314458 0.000000
0.717098 0.315496 0.000000
0.756039 0.315526 0.000000
0.791592 0.314702 0.000000
0.823484 0.312474 0.000000
0.851591 0.309422 0.000000
0.876066 0.305577 0.000000
0.897490 0.301213 0.000000
0.916289 0.297093 0.000000
0.933013 0.293370 0.000000
0.947936 0.290593 0.000000
0.961303 0.289128 0.000000
0.973327 0.289616 0.000000
0.984039 0.292607 0.092226
0.993469 0.298711 0.140383
0.000000 0.270024 0.195773
0.000000 0.271183 0.194553
0.000000 0.272892 0.192813
0.000000 0.276127 0.188022
0.000000 0.281041 0.177646
0.000000 0.286931 0.154421
0.000000 0.292088 0.111269
0.157137 0.293217 0.091279
0.235080 0.293950 0.083345
0.293797 0.295476 0.060090
0.345617 0.297307 0.000000
0.393469 0.300114 0.000000
0.439277 0.305119 0.000000
0.486366 0.312413 0.000000
0.535576 0.322271 0.000000
0.581537 0.331609 0.000000
0.627710 0.335241 0.000000
0.672267 0.337774 0.000000
0.714595 0.339178 0.000000
0.753902 0.339635 0.000000
0.789761 0.338537 0.000000
0.821958 0.336217 0.000000
0.850370 0.332677 0.000000
0.875059 0.328374 0.000000
0.896574 0.323613 0.000000
0.915526 0.318914 0.000000
0.932311 0.314519 0.000000
0.947295 0.311040 0.000000
0.960754 0.308873 0.000000
0.972808 0.308354 0.000000
0.983520 0.310491 0.098451
0.992950 0.315587 0.145144
0.000000 0.296818 0.213993
0.000000 0.297826 0.212802
0.000000 0.299138 0.211154
0.000000 0.302190 0.206546
0.000000 0.306676 0.196902
0.000000 0.312169 0.178439
0.000000 0.317449 0.144167
0.104341 0.320104 0.101717
0.214298 0.319890 0.103517
0.280644 0.320928 0.088869
0.336492 0.322118 0.063661
0.385870 0.322972 0.000000
0.432197 0.325750 0.000000
0.478401 0.331090 0.000000
0.526879 0.339055 0.000000
0.578180 0.349493 0.000000
0.624384 0.358129 0.000000
0.669093 0.361303 0.000000
0.711788 0.363287 0.000000
0.751522 0.363745 0.000000
0.787808 0.362402 0.000000
0.820371 0.359930 0.000000
0.848997 0.356146 0.000000
0.873899 0.351385 0.000000
0.895598 0.346105 0.000000
0.914672 0.340795 0.000000
0.931548 0.335821 0.000000
0.946624 0.331762 0.000000
0.960113 0.328801 0.000000
0.972229 0.327642 0.010071
0.983001 0.328710 0.104280
0.992432 0.332830 0.150057
0.000000 0.322362 0.231357
0.000000 0.323369 0.230167
0.000000 0.324620 0.228550
0.000000 0.327245 0.224491
0.000000 0.331395 0.216190
0.000000 0.336522 0.200259
0.000000 0.341772 0.172152
0.000000 0.345556 0.131014
0.181643 0.345800 0.116152
0.263005 0.345830 0.113497
0.324071 0.346746 0.094667
0.377417 0.347784 0.070375
0.424872 0.348150 0.000000
0.471290 0.351354 0.000000
0.518669 0.357824 0.000000
0.569238 0.366857 0.000000
0.620294 0.376806 0.000000
0.665797 0.384527 0.000000
0.708888 0.387182 0.000000
0.749081 0.387823 0.000000
0.785794 0.386664 0.000000
0.818692 0.383886 0.000000
0.847593 0.379767 0.000000
0.872679 0.374609 0.000000
0.894560 0.368780 0.000000
0.913756 0.362951 0.000000
0.930755 0.357397 0.000000
0.945892 0.352636 0.000000
0.959442 0.349035 0.000000
0.971588 0.347173 0.033722
0.982391 0.347417 0.110719
0.991852 0.350591 0.155306
0.000000 0.347265 0.248234
0.000000 0.348058 0.247227
0.000000 0.349279 0.245670
0.000000 0.351812 0.241672
0.000000 0.355444 0.234470
0.000000 0.360143 0.221012
0.000000 0.365423 0.197452
0.000000 0.369360 0.164492
0.131411 0.371221 0.128328
0.240116 0.370428 0.131991
0.308568 0.370916 0.122042
0.365759 0.371771 0.103090
0.416541 0.372412 0.076875
0.464027 0.373480 0.000000
0.511223 0.377813 0.000000
0.560693 0.385534 0.000000
0.611566 0.394629 0.000000
0.661433 0.403754 0.000000
0.705959 0.410620 0.000000
0.746517 0.412024 0.000000
0.783627 0.410803 0.000000
0.816861 0.407782 0.000000
0.846036 0.403418 0.000000
0.871366 0.397864 0.000000
0.893400 0.391608 0.000000
0.912749 0.385199 0.000000
0.929839 0.379187 0.000000
0.945098 0.373816 0.000000
0.958709 0.369512 0.000000
0.970886 0.366857 0.056245
0.981750 0.366339 0.117128
0.991211 0.368658 0.161196
0.000000 0.371283 0.265019
0.000000 0.372076 0.263920
0.000000 0.373175 0.262577
0.000000 0.375463 0.258640
0.000000 0.378943 0.251865
0.000000 0.383307 0.240055
0.000000 0.388434 0.220035
0.000000 0.392462 0.193271
0.042756 0.395483 0.155367
0.208103 0.395300 0.145815
0.290440 0.395056 0.146426
0.352056 0.395789 0.131136
0.406714 0.396948 0.112062
0.456306 0.397559 0.082734
0.504906 0.400183 0.000000
0.553979 0.406378 0.000000
0.604547 0.414557 0.000000
0.654566 0.422950 0.000000
0.702235 0.430457 0.000000
0.743893 0.435492 0.000000
0.781369 0.435035 0.000000
0.814969 0.431891 0.000000
0.844480 0.427222 0.000000
0.870024 0.421271 0.000000
0.892210 0.414679 0.000000
0.911681 0.407752 0.000000
0.928893 0.401190 0.000000
0.944213 0.395209 0.000000
0.957916 0.390295 0.000000
0.970184 0.386877 0.068696
0.981048 0.385595 0.124422
0.990539 0.386969 0.167330
0.000000 0.395514 0.281651
0.000000 0.396216 0.280552
0.000000 0.397284 0.279149
0.000000 0.399359 0.275731
0.000000 0.402747 0.269657
0.000000 0.406897 0.259159
0.000000 0.411841 0.241794
0.000000 0.416022 0.219272
0.000000 0.419715 0.187686
0.161501 0.421057 0.158968
0.266941 0.420386 0.162692
0.336858 0.420905 0.156100
0.395361 0.422004 0.140017
0.448707 0.423529 0.120516
0.498329 0.425025 0.088685
0.549371 0.429664 0.000000
0.599573 0.436835 0.000000
0.649622 0.444434 0.000000
0.697688 0.451179 0.000000
0.741115 0.456153 0.000000
0.779110 0.458869 0.000000
0.812985 0.456092 0.000000
0.842741 0.451209 0.000000
0.868528 0.444923 0.000000
0.890929 0.437781 0.000000
0.910552 0.430396 0.000000
0.927886 0.423224 0.000000
0.943297 0.416632 0.000000
0.957061 0.411200 0.000000
0.969390 0.407080 0.079774
0.980285 0.405066 0.131502
0.989776 0.405615 0.173709
0.000000 0.420539 0.298863
0.000000 0.421210 0.297978
0.000000 0.422278 0.296605
0.000000 0.424292 0.293370
0.000000 0.427436 0.287938
0.000000 0.431464 0.278721
0.000000 0.436316 0.263340
0.000000 0.440711 0.243717
0.000000 0.444678 0.216831
0.098512 0.447517 0.182712
0.235874 0.447486 0.176394
0.319738 0.447486 0.178866
0.383185 0.448676 0.165133
0.439857 0.450355 0.148745
0.492653 0.452155 0.127138
0.544488 0.455787 0.091402
0.596674 0.461494 0.011078
0.646571 0.468147 0.000000
0.694820 0.474250 0.000000
0.738643 0.478279 0.000000
0.777218 0.480171 0.000000
0.810910 0.480201 0.000000
0.840970 0.475196 0.000000
0.866972 0.468635 0.000000
0.889555 0.461036 0.000000
0.909361 0.453132 0.000000
0.926787 0.445472 0.000000
0.942321 0.438331 0.000000
0.956146 0.432197 0.000000
0.968536 0.427527 0.090211
0.979461 0.424750 0.139620
0.988983 0.424506 0.180850
0.000000 0.447028 0.316686
0.000000 0.447425 0.315953
0.000000 0.448402 0.314916
0.000000 0.450416 0.311833
0.000000 0.453498 0.306645
0.000000 0.457465 0.298161
0.000000 0.462257 0.284855
0.000000 0.466804 0.267613
0.000000 0.471229 0.244266
0.000000 0.474830 0.214115
0.191043 0.476448 0.189364
0.297063 0.476356 0.192477
0.369635 0.477241 0.188785
0.430549 0.479133 0.173800
0.486854 0.481270 0.156008
0.540429 0.484352 0.131502
0.593896 0.489143 0.093050
0.645441 0.494423 0.023957
0.693629 0.499550 0.000000
0.737484 0.502586 0.000000
0.776272 0.503410 0.000000
0.809964 0.502159 0.000000
0.839109 0.499336 0.000000
0.865354 0.492409 0.000000
0.888121 0.484443 0.000000
0.908049 0.476051 0.000000
0.925628 0.467842 0.000000
0.941253 0.460182 0.000000
0.955200 0.453346 0.000000
0.967620 0.448066 0.100984
0.978576 0.444587 0.147280
0.988128 0.443641 0.188083
0.000000 0.475441 0.335363
0.000000 0.475776 0.334997
0.000000 0.476295 0.334356
0.000000 0.478309 0.331579
0.000000 0.481392 0.326787
0.000000 0.485389 0.319036
0.000000 0.490181 0.307134
0.000000 0.495003 0.291752
0.000000 0.499855 0.271214
0.000000 0.504051 0.244266
0.132937 0.507347 0.211429
0.266270 0.507897 0.205661
0.353552 0.508690 0.207675
0.420722 0.510552 0.197024
0.480903 0.512963 0.180789
0.537438 0.515709 0.161868
0.591882 0.519341 0.133974
0.645014 0.523583 0.093324
0.694148 0.527153 0.041321
0.737942 0.528985 0.000000
0.776761 0.528710 0.000000
0.810361 0.526238 0.000000
0.838987 0.522179 0.000000
0.863645 0.516258 0.000000
0.886595 0.507958 0.000000
0.906676 0.499123 0.000000
0.924407 0.490333 0.000000
0.940154 0.482124 0.000000
0.954131 0.474769 0.031159
0.966613 0.468757 0.111727
0.977630 0.464668 0.155856
0.987182 0.462898 0.195987
0.000000 0.506279 0.355413
0.000000 0.506615 0.355016
0.000000 0.507134 0.354742
0.000000 0.508629 0.352941
0.000000 0.511650 0.348486
0.000000 0.515709 0.341497
0.000000 0.520714 0.330602
0.000000 0.525841 0.316777
0.000000 0.531060 0.298436
0.000000 0.536065 0.274144
0.003571 0.540276 0.243442
0.221408 0.542565 0.218418
0.330297 0.543236 0.221317
0.409033 0.544640 0.219211
0.473976 0.547021 0.204623
0.534142 0.549645 0.187503
0.590661 0.552453 0.167269
0.645045 0.555566 0.136477
0.695796 0.557610 0.095644
0.739925 0.557763 0.060792
0.778408 0.555962 0.000000
0.811856 0.552209 0.000000
0.840238 0.546654 0.000000
0.864317 0.539879 0.000000
0.885039 0.531518 0.000000
0.905241 0.522301 0.000000
0.923095 0.512993 0.000000
0.938933 0.504173 0.000000
0.953033 0.496284 0.065003
0.965576 0.489601 0.121981
0.976654 0.484749 0.164706
0.986206 0.482429 0.204166
0.000000 0.540703 0.377417
0.000000 0.540948 0.377142
0.000000 0.541497 0.376715
0.000000 0.542473 0.375738
0.000000 0.545220 0.372290
0.000000 0.549340 0.365759
0.000000 0.554528 0.355962
0.000000 0.559838 0.343114
0.000000 0.565301 0.326207
0.000000 0.570733 0.303990
0.000000 0.575555 0.275456
0.160800 0.579278 0.240482
0.298314 0.580255 0.234348
0.392004 0.581231 0.235721
0.464698 0.583154 0.227268
0.529320 0.585504 0.211826
0.589319 0.588067 0.193820
0.645991 0.590723 0.171176
0.697566 0.591211 0.139681
0.743008 0.589075 0.101106
0.781338 0.585382 0.077852
0.814298 0.579980 0.006744
0.842374 0.572900 0.000000
0.866178 0.564660 0.000000
0.886442 0.555749 0.000000
0.903777 0.545403 0.000000
0.921721 0.535698 0.000000
0.937652 0.526390 0.000000
0.951873 0.517845 0.081575
0.964477 0.510521 0.132753
0.975555 0.505119 0.173892
0.985168 0.501976 0.212772
0.000000 0.578241 0.401282
0.000000 0.578515 0.401068
0.000000 0.579034 0.400671
0.000000 0.579950 0.399695
0.000000 0.581659 0.397986
0.000000 0.585809 0.391913
0.000000 0.590845 0.382788
0.000000 0.596338 0.370642
0.000000 0.601953 0.355138
0.000000 0.607538 0.334661
0.000000 0.612696 0.308568
0.077028 0.617090 0.274907
0.251225 0.619623 0.247623
0.367498 0.620081 0.249821
0.452613 0.621210 0.250065
0.522393 0.623194 0.235264
0.586328 0.625391 0.218692
0.646052 0.627649 0.199527
0.700343 0.627832 0.175265
0.746212 0.623651 0.145876
0.785519 0.617121 0.111360
0.817838 0.609644 0.097261
0.845335 0.600824 0.064424
0.868681 0.590997 0.000000
0.888731 0.580682 0.000000
0.906004 0.570092 0.000000
0.920409 0.558465 0.000000
0.936339 0.548669 0.000000
0.950622 0.539574 0.096468
0.963287 0.531640 0.143099
0.974456 0.525505 0.183352
0.984039 0.521813 0.222202
0.000000 0.618372 0.426703
0.000000 0.618616 0.426337
0.000000 0.619043 0.425818
0.000000 0.620111 0.425025
0.000000 0.621668 0.423560
0.000000 0.624567 0.419623
0.000000 0.629480 0.410956
0.000000 0.634913 0.399512
0.000000 0.640589 0.384649
0.000000 0.646235 0.365576
0.000000 0.651667 0.341100
0.000000 0.656397 0.310277
0.187503 0.660151 0.270939
0.333349 0.660731 0.264408
0.433600 0.660914 0.265843
0.512169 0.661830 0.259495
0.580224 0.663203 0.244358
0.643000 0.664454 0.227024
0.701747 0.665766 0.207004
0.750240 0.661097 0.182986
0.789639 0.652064 0.156435
0.822446 0.641413 0.130282
0.849119 0.630457 0.119326
0.871885 0.618921 0.094545
0.891539 0.607141 0.028565
0.908598 0.595148 0.000000
0.923125 0.583062 0.000000
0.935332 0.571099 0.025086
0.949279 0.561364 0.110811
0.962036 0.552850 0.154269
0.973236 0.546105 0.193271
0.982818 0.541802 0.231968
0.000000 0.660670 0.452949
0.000000 0.660945 0.452552
0.000000 0.661402 0.452094
0.000000 0.662287 0.451209
0.000000 0.663813 0.449622
0.000000 0.665797 0.447395
0.000000 0.670069 0.440284
0.000000 0.675349 0.429084
0.000000 0.680781 0.415045
0.000000 0.686244 0.396948
0.000000 0.691402 0.374212
0.000000 0.695979 0.345556
0.113405 0.699702 0.309087
0.284276 0.701320 0.280430
0.406989 0.700587 0.282689
0.497108 0.700191 0.283330
0.570581 0.700526 0.270787
0.636500 0.700862 0.255192
0.697688 0.701228 0.237095
0.754818 0.701472 0.216983
0.794369 0.689601 0.194705
0.826963 0.675990 0.171084
0.853696 0.661860 0.152712
0.875792 0.648341 0.141817
0.894896 0.634882 0.121340
0.911559 0.621546 0.086976
0.926207 0.608392 0.000000
0.938262 0.595483 0.078065
0.948638 0.583581 0.126162
0.960693 0.574212 0.166049
0.971954 0.566796 0.203616
0.981506 0.561852 0.242161
0.000000 0.703731 0.479042
0.000000 0.703975 0.478645
0.000000 0.704341 0.478218
0.000000 0.705257 0.477211
0.000000 0.706569 0.475593
0.000000 0.708370 0.473426
0.000000 0.710780 0.469856
0.000000 0.715724 0.458717
0.000000 0.720668 0.445258
0.000000 0.725643 0.427863
0.000000 0.730343 0.406165
0.000000 0.734554 0.379492
0.000000 0.737942 0.346563
0.223484 0.740383 0.306615
0.372107 0.739162 0.301579
