其他预设/【212】创意蓝橙调色预设24款/1.3D LUT预设（视频调色-PR-AE-PS-FCPX-达芬奇用）/20.蓝橙色调-夜景灯光__.cube
# Created by Adobe Lightroom plugin Export LUT (1.17.0)
# www.johnrellis.com/lightroom/exportlut.htm
# Preset: 20.蓝橙色调-夜景灯光[素锦印象]
# Color profile: /Library/Application Support/Adobe/Color/Profiles/Recommended/AdobeRGB1998.icc
LUT_3D_SIZE 8
DOMAIN_MIN 0.000000 0.000000 0.000000
DOMAIN_MAX 0.903226 0.903226 0.903226
0.078279 0.078279 0.078279
0.105684 0.077760 0.077455
0.311376 0.069612 0.056123
0.477455 0.070283 0.000000
0.651362 0.084901 0.000000
0.802121 0.097383 0.000000
0.902525 0.107546 0.000000
0.964294 0.135561 0.000000
0.078279 0.078279 0.078279
0.096956 0.085389 0.077089
0.306615 0.114137 0.046632
0.474281 0.120455 0.000000
0.649073 0.131777 0.000000
0.801022 0.136751 0.000000
0.902068 0.140200 0.000000
0.964019 0.157015 0.000000
0.060548 0.124849 0.102022
0.070680 0.141787 0.070161
0.285740 0.188540 0.011017
0.464424 0.208988 0.000000
0.641901 0.219608 0.000000
0.797452 0.220615 0.000000
0.900359 0.214694 0.000000
0.963043 0.215030 0.000000
0.000000 0.241947 0.177096
0.000000 0.254246 0.156771
0.249668 0.267430 0.057588
0.447089 0.287114 0.000000
0.630976 0.312200 0.000000
0.791592 0.314702 0.000000
0.897490 0.301213 0.000000
0.961303 0.289128 0.000000
0.000000 0.347265 0.248234
0.000000 0.355444 0.234470
0.131411 0.371221 0.128328
0.416541 0.372412 0.076875
0.611566 0.394629 0.000000
0.783627 0.410803 0.000000
0.893400 0.391608 0.000000
0.958709 0.369512 0.000000
0.000000 0.447028 0.316686
0.000000 0.453498 0.306645
0.000000 0.471229 0.244266
0.369635 0.477241 0.188785
0.593896 0.489143 0.093050
0.776272 0.503410 0.000000
0.888121 0.484443 0.000000
0.955200 0.453346 0.000000
0.000000 0.578241 0.401282
0.000000 0.581659 0.397986
0.000000 0.601953 0.355138
0.251225 0.619623 0.247623
0.586328 0.625391 0.218692
0.785519 0.617121 0.111360
0.888731 0.580682 0.000000
0.950622 0.539574 0.096468
0.000000 0.745510 0.503777
0.000000 0.748074 0.499855
0.000000 0.759152 0.474098
0.000000 0.774228 0.382788
0.539910 0.770932 0.327550
0.795285 0.763943 0.268467
0.903014 0.694667 0.202579
0.954864 0.633082 0.173953
0.078279 0.078279 0.078279
0.087922 0.076448 0.081666
0.296300 0.110262 0.051301
0.463203 0.149599 0.000000
0.640742 0.160983 0.000000
0.796994 0.162844 0.000000
0.900664 0.156985 0.000000
0.963684 0.162203 0.000000
0.071687 0.091707 0.096010
0.082277 0.082277 0.082277
0.291478 0.127626 0.046998
0.461280 0.171786 0.000000
0.639185 0.184054 0.000000
0.796139 0.185580 0.000000
0.900237 0.178225 0.000000
0.963409 0.179843 0.000000
0.004242 0.150881 0.136080
0.000000 0.172885 0.131868
0.279149 0.189517 0.069825
0.456458 0.221836 0.000000
0.633875 0.245975 0.000000
0.793301 0.247684 0.000000
0.898772 0.237491 0.000000
0.962493 0.230381 0.000000
0.000000 0.259922 0.208347
0.000000 0.273045 0.197818
0.239445 0.284215 0.127443
0.443061 0.292271 0.027405
0.625635 0.322362 0.000000
0.788174 0.330236 0.000000
0.896147 0.315221 0.000000
0.960815 0.299138 0.000000
0.000000 0.359319 0.272618
0.000000 0.366827 0.261845
0.080171 0.382422 0.179904
0.414069 0.382849 0.137758
0.608606 0.399237 0.000000
0.780972 0.420386 0.000000
0.892332 0.400732 0.000000
0.958312 0.376379 0.000000
0.000000 0.455390 0.335790
0.000000 0.461799 0.327398
0.000000 0.479225 0.275792
0.360876 0.485603 0.221164
0.592096 0.495857 0.146181
0.774441 0.507408 0.000000
0.887205 0.490883 0.000000
0.954864 0.458350 0.000000
0.000000 0.584710 0.418555
0.000000 0.588251 0.415229
0.000000 0.608270 0.377447
0.214420 0.626947 0.270146
0.580804 0.631525 0.245701
0.783871 0.621729 0.155886
0.887388 0.584344 0.055268
0.950347 0.543297 0.098939
0.000000 0.748867 0.517418
0.000000 0.751308 0.513787
0.000000 0.762020 0.490639
0.000000 0.777218 0.405646
0.526940 0.774319 0.343664
0.789670 0.766567 0.290349
0.901610 0.698085 0.227115
0.954589 0.635706 0.173617
0.000000 0.157534 0.225010
0.000000 0.152590 0.221317
0.263340 0.113191 0.196506
0.453468 0.126467 0.100862
0.628779 0.195895 0.000000
0.786557 0.248692 0.000000
0.896483 0.234470 0.000000
0.962280 0.215946 0.000000
0.000000 0.183841 0.232883
0.000000 0.175662 0.232456
0.255619 0.153964 0.205966
0.448829 0.159457 0.122774
0.626337 0.212284 0.000000
0.785794 0.262608 0.000000
0.896147 0.247593 0.000000
0.962036 0.228305 0.000000
0.000000 0.237186 0.260624
0.000000 0.237095 0.259007
0.233005 0.233005 0.233005
0.436988 0.235203 0.173434
0.620874 0.260380 0.047028
0.783871 0.301213 0.000000
0.894926 0.289433 0.000000
0.961212 0.267552 0.000000
0.000000 0.301366 0.289189
0.000000 0.309850 0.290440
0.089784 0.328923 0.258518
0.421210 0.321324 0.226474
0.611810 0.333318 0.143496
0.780423 0.355932 0.000000
0.892668 0.352270 0.000000
0.959655 0.326207 0.000000
0.000000 0.383398 0.334783
0.000000 0.392828 0.334264
0.000000 0.412970 0.304173
0.388708 0.411444 0.258427
0.594446 0.419257 0.218357
0.773556 0.432197 0.106386
0.889220 0.427802 0.000000
0.957305 0.396399 0.000000
0.000000 0.476295 0.390600
0.000000 0.484169 0.388220
0.000000 0.504112 0.362768
0.298955 0.513664 0.291447
0.581506 0.519127 0.256229
0.766323 0.523339 0.208835
0.883543 0.506157 0.069947
0.953979 0.473640 0.025391
0.000000 0.604730 0.470863
0.000000 0.608331 0.468879
0.000000 0.627955 0.445441
0.075410 0.647700 0.370916
0.554253 0.651087 0.322057
0.776761 0.638148 0.254368
0.882322 0.597803 0.215335
0.949584 0.555627 0.106783
0.000000 0.759854 0.562310
0.000000 0.761776 0.558129
0.000000 0.770779 0.542626
0.000000 0.786679 0.475380
0.470771 0.785794 0.393896
0.767575 0.775265 0.358343
0.896391 0.710353 0.296422
0.951263 0.646662 0.244236
0.000000 0.246036 0.361730
0.000000 0.253269 0.356970
0.000000 0.182376 0.358495
0.410193 0.218235 0.319066
0.609400 0.205631 0.235630
0.780026 0.250462 0.148348
0.892576 0.287572 0.000000
0.960845 0.270848 0.000000
0.000000 0.268711 0.365393
0.000000 0.268070 0.364019
0.000000 0.212192 0.363409
0.406043 0.239597 0.325048
0.605921 0.228916 0.245914
0.778347 0.266270 0.162051
0.892058 0.297185 0.000000
0.960754 0.278752 0.000000
0.000000 0.309392 0.380804
0.000000 0.308843 0.380529
0.000000 0.283848 0.378088
0.393011 0.296239 0.342321
0.595239 0.292302 0.277134
0.773007 0.314885 0.201785
0.890440 0.329442 0.000000
0.960143 0.308385 0.000000
0.000000 0.367895 0.407324
0.000000 0.369696 0.405890
0.000000 0.367834 0.402411
0.369177 0.369177 0.369177
0.579400 0.372290 0.321294
0.765957 0.381781 0.248814
0.887633 0.381201 0.125307
0.958709 0.358862 0.000000
0.000000 0.432258 0.432776
0.000000 0.435889 0.432044
0.000000 0.450141 0.430304
0.257389 0.460883 0.388128
0.562921 0.455329 0.363226
0.756863 0.461952 0.301061
0.882780 0.450050 0.202609
0.956390 0.422614 0.000000
0.000000 0.512596 0.473884
0.000000 0.517174 0.473304
0.000000 0.539422 0.472267
0.067506 0.558831 0.432380
0.545068 0.557702 0.383368
0.749081 0.552270 0.351080
0.875151 0.531853 0.280125
0.952300 0.495155 0.136110
0.000000 0.636957 0.551904
0.000000 0.640284 0.550225
0.000000 0.657130 0.541619
0.000000 0.678401 0.499611
0.467994 0.682490 0.419165
0.758846 0.669215 0.373663
0.872160 0.622583 0.346044
0.944640 0.577234 0.260838
0.000000 0.779751 0.637171
0.000000 0.781369 0.633356
0.000000 0.786587 0.618738
0.000000 0.800259 0.573297
0.316930 0.804959 0.481544
0.721340 0.789029 0.465126
0.885496 0.733333 0.393164
0.943633 0.667994 0.355077
0.000000 0.333867 0.491981
0.000000 0.338811 0.488472
0.000000 0.318242 0.488808
0.218296 0.247807 0.479255
0.559655 0.304753 0.438178
0.759304 0.283513 0.354284
0.882689 0.324926 0.293523
0.955688 0.333928 0.200198
0.000000 0.350744 0.494911
0.000000 0.354559 0.491463
0.000000 0.330480 0.493080
0.196353 0.259464 0.483345
0.556756 0.318639 0.441810
0.757382 0.299901 0.360510
0.881895 0.335485 0.299168
0.955505 0.340337 0.203342
0.000000 0.387610 0.506493
0.000000 0.389807 0.504417
0.000000 0.370245 0.506188
0.116548 0.313542 0.496223
0.547417 0.361608 0.453956
0.751247 0.349554 0.380652
0.879484 0.369757 0.317052
0.955138 0.360845 0.211429
0.000000 0.436652 0.528435
0.000000 0.439490 0.525475
0.000000 0.430945 0.526635
0.000000 0.408301 0.516289
0.530846 0.425452 0.474952
0.741878 0.420722 0.412024
0.876402 0.419867 0.340276
0.955505 0.389502 0.209171
0.000000 0.502342 0.559289
0.000000 0.504692 0.555932
0.000000 0.505425 0.555413
0.000000 0.503746 0.544976
0.504234 0.504234 0.504234
0.731502 0.502403 0.449592
0.872190 0.484169 0.370275
0.952544 0.446632 0.249027
0.000000 0.578515 0.595300
0.000000 0.580835 0.592920
0.000000 0.589502 0.592279
0.000000 0.604883 0.585260
0.374090 0.614801 0.526177
0.718074 0.597101 0.497536
0.861875 0.570794 0.428504
0.945922 0.523552 0.318639
0.000000 0.681941 0.656245
0.000000 0.684474 0.654536
0.000000 0.694972 0.649775
0.000000 0.715389 0.637629
0.187259 0.725490 0.569360
0.706294 0.711269 0.524102
0.853727 0.663813 0.489662
0.935637 0.611444 0.402716
0.000000 0.805142 0.729580
0.000000 0.806455 0.726436
0.000000 0.810819 0.714443
0.000000 0.819089 0.686915
0.000000 0.826108 0.615595
0.643610 0.805997 0.588708
0.862547 0.771939 0.530266
0.929473 0.704921 0.489082
0.000000 0.433417 0.642481
0.000000 0.437568 0.640070
0.000000 0.436957 0.636439
0.000000 0.381140 0.637446
0.432715 0.352056 0.619562
0.717708 0.398108 0.564660
0.859586 0.414527 0.494453
0.937194 0.442512 0.448310
0.000000 0.446113 0.644678
0.000000 0.449439 0.642359
0.000000 0.445502 0.639979
0.000000 0.393957 0.640192
0.425269 0.360662 0.622553
0.715969 0.409247 0.567712
0.858518 0.424903 0.499062
0.936797 0.448463 0.451179
0.000000 0.478248 0.652796
0.000000 0.481056 0.650782
0.000000 0.473548 0.649866
0.000000 0.434638 0.649073
0.388220 0.386816 0.632959
0.709865 0.446571 0.579187
0.854887 0.458717 0.514427
0.935668 0.467414 0.459358
0.000000 0.519371 0.667964
0.000000 0.522667 0.665919
0.000000 0.518822 0.665187
0.000000 0.495491 0.663691
0.292515 0.439185 0.650324
0.699123 0.504875 0.598840
0.849546 0.509331 0.537896
0.934905 0.493965 0.467018
0.000000 0.572595 0.688533
0.000000 0.575494 0.686671
0.000000 0.577050 0.684535
0.000000 0.567010 0.683040
0.190982 0.543114 0.671260
0.683619 0.575921 0.625666
0.843961 0.568414 0.564477
0.935485 0.523949 0.467689
0.000000 0.634852 0.712459
0.000000 0.637385 0.710842
0.000000 0.643091 0.707485
0.000000 0.644434 0.705959
0.000000 0.647028 0.696498
0.658259 0.658259 0.658259
0.834836 0.641688 0.601740
0.931640 0.580835 0.491341
0.000000 0.710658 0.748836
0.000000 0.713252 0.747799
0.000000 0.722164 0.744106
0.000000 0.733730 0.742123
0.000000 0.753750 0.733455
0.527276 0.758328 0.669398
0.820279 0.726650 0.655940
0.915343 0.678706 0.577508
0.000000 0.800320 0.797055
0.000000 0.802914 0.796292
0.000000 0.812375 0.793210
0.000000 0.830198 0.786221
0.000000 0.850217 0.764920
0.335790 0.843198 0.679530
0.813413 0.812772 0.688594
0.903868 0.763943 0.651514
0.000000 0.517906 0.775235
0.000000 0.521477 0.774136
0.000000 0.533715 0.770230
0.000000 0.503349 0.771664
0.000000 0.439948 0.769772
0.630793 0.493416 0.751339
0.823056 0.558740 0.688960
0.898650 0.622919 0.672969
0.000000 0.526024 0.776181
0.000000 0.529259 0.775143
0.000000 0.540734 0.771359
0.000000 0.510582 0.772793
0.000000 0.450141 0.770871
0.627253 0.500206 0.752651
0.821897 0.566339 0.691676
0.897948 0.627955 0.675807
0.000000 0.548150 0.779782
0.000000 0.550988 0.778866
0.000000 0.561456 0.775235
0.000000 0.534661 0.776699
0.000000 0.485664 0.774472
0.613062 0.521996 0.757168
0.818021 0.591180 0.700893
0.895689 0.644587 0.685176
0.000000 0.578943 0.786465
0.000000 0.581598 0.785519
0.000000 0.590753 0.782315
0.000000 0.573297 0.782834
0.000000 0.538720 0.780575
0.578210 0.553002 0.765011
0.811887 0.629023 0.715663
0.893523 0.665980 0.696101
0.000000 0.618708 0.795529
0.000000 0.621118 0.794736
0.000000 0.629419 0.791897
0.000000 0.622248 0.791073
0.000000 0.600092 0.789090
0.481758 0.582116 0.777401
0.804013 0.674311 0.734188
0.891630 0.691493 0.707912
0.000000 0.665888 0.806149
0.000000 0.668177 0.805447
0.000000 0.675868 0.803067
0.000000 0.679011 0.801205
0.000000 0.670039 0.799588
0.354376 0.659297 0.790799
0.793332 0.725460 0.755978
0.889769 0.721798 0.720577
0.000000 0.717678 0.817533
0.000000 0.719783 0.816983
0.000000 0.727260 0.815091
0.000000 0.738338 0.812284
0.000000 0.741939 0.811002
0.217502 0.752255 0.804044
0.778012 0.777981 0.777981
0.885924 0.761776 0.738369
0.000000 0.779080 0.841550
0.000000 0.781155 0.841245
0.000000 0.788602 0.840177
0.000000 0.802487 0.837888
0.000000 0.821561 0.834562
0.000000 0.847166 0.827573
0.700252 0.840055 0.782864
0.875944 0.817990 0.776791
0.000000 0.566400 0.859220
0.000000 0.569207 0.858793
0.000000 0.579065 0.857206
0.000000 0.579339 0.855955
0.000000 0.550042 0.855863
0.461036 0.568780 0.848722
0.786007 0.686976 0.831540
0.873289 0.726955 0.794675
0.000000 0.570764 0.859586
0.000000 0.573510 0.859159
0.000000 0.583001 0.857603
0.000000 0.583734 0.856321
0.000000 0.555413 0.856199
0.452674 0.570977 0.849302
0.784970 0.691035 0.831876
0.872862 0.729702 0.795865
0.000000 0.583307 0.861051
0.000000 0.585840 0.860624
0.000000 0.594812 0.859129
0.000000 0.598901 0.857542
0.000000 0.573053 0.857420
0.418738 0.578332 0.851408
0.781125 0.703761 0.833249
0.871519 0.738827 0.799863
0.000000 0.600275 0.863920
0.000000 0.602655 0.863523
0.000000 0.610986 0.862089
0.000000 0.624964 0.859525
0.000000 0.601221 0.859648
0.347143 0.594659 0.854917
0.771023 0.717372 0.836301
0.869474 0.753170 0.806302
0.000000 0.630793 0.867552
0.000000 0.632044 0.867247
0.000000 0.636164 0.866209
0.000000 0.642390 0.864256
0.000000 0.637140 0.862943
0.212161 0.626703 0.859220
0.751369 0.732631 0.841001
0.866758 0.772000 0.814878
0.000000 0.668696 0.871916
0.000000 0.669978 0.871672
0.000000 0.674128 0.870787
0.000000 0.680995 0.869108
0.000000 0.684352 0.867033
0.000000 0.670130 0.864744
0.701503 0.743130 0.848600
0.863310 0.794644 0.825376
0.000000 0.711849 0.876768
0.000000 0.713130 0.876555
0.000000 0.717494 0.875822
0.000000 0.725460 0.874418
0.000000 0.738155 0.872007
0.000000 0.733364 0.870207
0.576562 0.761990 0.859312
0.858671 0.820798 0.837552
0.000000 0.758053 0.881895
0.000000 0.759335 0.881743
0.000000 0.764126 0.881132
0.000000 0.773251 0.879942
0.000000 0.788235 0.877958
0.000000 0.801297 0.875517
0.453437 0.823148 0.867796
0.850889 0.850889 0.850889
