其他预设/【212】创意蓝橙调色预设24款/1.3D LUT预设（视频调色-PR-AE-PS-FCPX-达芬奇用）/20.蓝橙色调-夜景灯光__.cube
# Created by Adobe Lightroom plugin Export LUT (1.17.0)
# www.johnrellis.com/lightroom/exportlut.htm
# Preset: 20.蓝橙色调-夜景灯光[素锦印象]
# Color profile: /Library/Application Support/Adobe/Color/Profiles/Recommended/AdobeRGB1998.icc
LUT_3D_SIZE 5
DOMAIN_MIN 0.000000 0.000000 0.000000
DOMAIN_MAX 0.903226 0.903226 0.903226
0.078279 0.078279 0.078279
0.265354 0.072053 0.064698
0.562524 0.077852 0.000000
0.832212 0.097658 0.000000
0.964294 0.135561 0.000000
0.073152 0.096407 0.086641
0.241337 0.162203 0.046296
0.553887 0.191318 0.000000
0.829374 0.196780 0.000000
0.963378 0.198611 0.000000
0.000000 0.296818 0.213993
0.104341 0.320104 0.101717
0.526879 0.339055 0.000000
0.820371 0.359930 0.000000
0.960113 0.328801 0.000000
0.000000 0.475441 0.335363
0.000000 0.495003 0.291752
0.480903 0.512963 0.180789
0.810361 0.526238 0.000000
0.954131 0.474769 0.031159
0.000000 0.745510 0.503777
0.000000 0.754788 0.487404
0.327550 0.775723 0.323827
0.836790 0.752377 0.249912
0.954864 0.633082 0.173953
0.000000 0.134676 0.187839
0.222660 0.087984 0.163882
0.541436 0.168826 0.000000
0.821958 0.226078 0.000000
0.962646 0.201968 0.000000
0.000000 0.201480 0.220951
0.195834 0.195834 0.195834
0.534783 0.222019 0.003754
0.819974 0.273869 0.000000
0.961822 0.244511 0.000000
0.000000 0.331273 0.289921
0.000000 0.359014 0.262943
0.512078 0.359869 0.182650
0.813474 0.391852 0.000000
0.958892 0.353429 0.000000
0.000000 0.497780 0.391730
0.000000 0.519310 0.368994
0.459937 0.538354 0.275517
0.803983 0.540459 0.170413
0.953216 0.489418 0.055390
0.000000 0.756222 0.547997
0.000000 0.764157 0.535790
0.228855 0.786954 0.395209
0.828458 0.768490 0.320439
0.952544 0.642969 0.218875
0.000000 0.289189 0.425666
0.000000 0.276677 0.423194
0.481880 0.264225 0.377935
0.807187 0.275608 0.243290
0.959686 0.304662 0.000000
0.000000 0.336553 0.437232
0.000000 0.320714 0.437629
0.471321 0.314946 0.392432
0.802548 0.322393 0.270054
0.959472 0.326329 0.000000
0.000000 0.432959 0.480903
0.000000 0.435248 0.478248
0.434638 0.434638 0.434638
0.790799 0.438270 0.334447
0.957092 0.401923 0.084504
0.000000 0.569360 0.546868
0.000000 0.582635 0.544854
0.205539 0.615473 0.489174
0.775601 0.592554 0.419043
0.947631 0.528191 0.261326
0.000000 0.791958 0.681849
0.000000 0.796750 0.669673
0.000000 0.813809 0.592798
0.752163 0.794095 0.514244
0.937835 0.683528 0.416632
0.000000 0.457740 0.679866
0.000000 0.470680 0.672908
0.000000 0.371984 0.672816
0.750912 0.431891 0.596429
0.928862 0.487007 0.510643
0.000000 0.490272 0.686427
0.000000 0.496407 0.681575
0.000000 0.417914 0.680079
0.745602 0.466712 0.607263
0.927367 0.505455 0.519738
0.000000 0.561456 0.709682
0.000000 0.568719 0.705196
0.000000 0.534966 0.702571
0.728328 0.564233 0.641840
0.925444 0.551324 0.535546
0.000000 0.661158 0.744198
0.000000 0.669459 0.739925
0.000000 0.674525 0.736355
0.693446 0.693446 0.693446
0.921416 0.628931 0.561181
0.000000 0.795621 0.809812
0.000000 0.804227 0.807492
0.000000 0.835843 0.797971
0.442267 0.843900 0.703120
0.896544 0.779202 0.688380
0.000000 0.566400 0.859220
0.000000 0.575860 0.857725
0.000000 0.564385 0.856291
0.582635 0.605127 0.844053
0.873289 0.726955 0.794675
0.000000 0.579583 0.860594
0.000000 0.588312 0.859129
0.000000 0.580407 0.857450
0.571191 0.617151 0.845609
0.871946 0.735988 0.798611
0.000000 0.614221 0.865660
0.000000 0.618402 0.864591
0.000000 0.628992 0.861357
0.453071 0.623835 0.853758
0.868193 0.762081 0.810330
0.000000 0.679103 0.873075
0.000000 0.683223 0.872282
0.000000 0.696651 0.869200
0.000000 0.684230 0.864561
0.862303 0.800870 0.828275
0.000000 0.758053 0.881895
0.000000 0.762539 0.881346
0.000000 0.779934 0.879088
0.000000 0.804227 0.874571
0.850889 0.850889 0.850889
