其他预设/【212】创意蓝橙调色预设24款/1.3D LUT预设（视频调色-PR-AE-PS-FCPX-达芬奇用）/21.蓝橙色调-夜景灯光__.cube
# Created by Adobe Lightroom plugin Export LUT (1.17.0)
# www.johnrellis.com/lightroom/exportlut.htm
# Preset: 21.蓝橙色调-夜景灯光[素锦印象]
# Color profile: /Library/Application Support/Adobe/Color/Profiles/Recommended/AdobeRGB1998.icc
LUT_3D_SIZE 5
DOMAIN_MIN 0.000000 0.000000 0.000000
DOMAIN_MAX 0.903226 0.903226 0.903226
0.097963 0.097963 0.097963
0.275059 0.096559 0.087251
0.573175 0.114473 0.000000
0.832883 0.143679 0.000000
1.000000 0.126253 0.000000
0.093233 0.114748 0.106355
0.245060 0.170626 0.079652
0.560784 0.204349 0.000000
0.828397 0.216434 0.000000
1.000000 0.194461 0.000000
0.000000 0.284367 0.215061
0.135225 0.303349 0.120760
0.521660 0.339086 0.000000
0.814542 0.357885 0.000000
1.000000 0.330419 0.000000
0.000000 0.455024 0.334447
0.000000 0.473243 0.289097
0.468360 0.483894 0.141848
0.797269 0.511345 0.000000
1.000000 0.482033 0.000000
0.000000 0.704738 0.496773
0.000000 0.715450 0.478462
0.327398 0.738918 0.292912
0.833280 0.725795 0.000000
1.000000 0.653803 0.000000
0.000000 0.155612 0.214206
0.227817 0.113924 0.171298
0.545129 0.208560 0.000000
0.819181 0.245121 0.000000
1.000000 0.203372 0.000000
0.000000 0.212253 0.236484
0.199496 0.199496 0.199496
0.537041 0.237461 0.000000
0.815976 0.285466 0.000000
1.000000 0.246677 0.000000
0.000000 0.318334 0.288396
0.000000 0.343175 0.262333
0.507408 0.349248 0.138369
0.804929 0.392309 0.000000
1.000000 0.358312 0.000000
0.000000 0.477882 0.390234
0.000000 0.497505 0.366064
0.448585 0.509636 0.250645
0.791623 0.518547 0.000000
1.000000 0.498512 0.000000
0.000000 0.716518 0.541405
0.000000 0.725887 0.528161
0.216953 0.753201 0.367590
0.823270 0.740780 0.197818
1.000000 0.664302 0.000000
0.000000 0.307836 0.453834
0.000000 0.292088 0.441047
0.477974 0.259464 0.367498
0.801358 0.276066 0.163241
1.000000 0.316533 0.000000
0.000000 0.350744 0.460517
0.000000 0.329992 0.451484
0.465156 0.307073 0.380591
0.795407 0.315618 0.195438
1.000000 0.337743 0.000000
0.000000 0.437812 0.497993
0.000000 0.433356 0.486885
0.422980 0.422980 0.422980
0.780117 0.420020 0.268894
1.000000 0.414679 0.000000
0.000000 0.554955 0.550072
0.000000 0.562646 0.542748
0.198917 0.585565 0.475380
0.758846 0.564446 0.360998
1.000000 0.534783 0.000000
0.000000 0.757961 0.678614
0.000000 0.764157 0.666346
0.000000 0.787289 0.586725
0.752010 0.780209 0.446845
1.000000 0.693782 0.155367
0.000000 0.468238 0.699550
0.000000 0.480903 0.690059
0.000000 0.386206 0.671351
0.732052 0.424231 0.573541
1.000000 0.420020 0.405798
0.000000 0.497169 0.702785
0.000000 0.503014 0.695155
0.000000 0.425086 0.676783
0.725734 0.454963 0.583185
1.000000 0.440711 0.413550
0.000000 0.560082 0.720974
0.000000 0.566522 0.713588
0.000000 0.526024 0.696437
0.705898 0.540154 0.613764
1.000000 0.495308 0.422614
0.000000 0.651057 0.752346
0.000000 0.658564 0.745602
0.000000 0.654139 0.730831
0.664454 0.664454 0.664454
1.000000 0.590478 0.433112
0.000000 0.796201 0.838895
0.000000 0.803830 0.834440
0.000000 0.829374 0.815518
0.373266 0.850736 0.704677
0.998047 0.780179 0.574151
0.000000 0.607446 0.927947
0.000000 0.617212 0.924651
0.000000 0.603204 0.916625
0.541497 0.599756 0.892699
0.951720 0.691890 0.809415
0.000000 0.620905 0.930358
0.000000 0.629877 0.927153
0.000000 0.619440 0.919127
0.518120 0.609400 0.896269
0.950256 0.703914 0.814633
0.000000 0.656886 0.940124
0.000000 0.661372 0.937804
0.000000 0.670832 0.928710
0.386572 0.637140 0.909728
0.945892 0.741543 0.831662
0.000000 0.725948 0.955474
0.000000 0.730373 0.953674
0.000000 0.744717 0.946654
0.000000 0.718837 0.932891
0.936797 0.806271 0.862028
0.000000 0.805753 0.967895
0.000000 0.811398 0.967559
0.000000 0.833249 0.966125
0.000000 0.858762 0.960021
0.909911 0.909911 0.909911
