其他预设/【212】创意蓝橙调色预设24款/1.3D LUT预设（视频调色-PR-AE-PS-FCPX-达芬奇用）/21.蓝橙色调-夜景灯光__.cube
# Created by Adobe Lightroom plugin Export LUT (1.17.0)
# www.johnrellis.com/lightroom/exportlut.htm
# Preset: 21.蓝橙色调-夜景灯光[素锦印象]
# Color profile: /Library/Application Support/Adobe/Color/Profiles/Recommended/AdobeRGB1998.icc
LUT_3D_SIZE 32
0.097963 0.097963 0.097963
0.097963 0.097963 0.097963
0.097963 0.097963 0.097963
0.097963 0.097963 0.097963
0.132876 0.097444 0.096895
0.183597 0.096956 0.094484
0.230777 0.096284 0.091310
0.275059 0.096559 0.087251
0.317876 0.097047 0.082185
0.359991 0.097749 0.075807
0.402258 0.099062 0.067384
0.444465 0.101076 0.054231
0.486946 0.104555 0.024079
0.529900 0.108644 0.000000
0.573175 0.114473 0.000000
0.615229 0.119265 0.000000
0.655879 0.123934 0.000000
0.694728 0.129274 0.000000
0.730983 0.133669 0.000000
0.765927 0.137972 0.000000
0.799771 0.141207 0.000000
0.832883 0.143679 0.000000
0.865110 0.144686 0.000000
0.896330 0.145449 0.000000
0.926696 0.143984 0.000000
0.956085 0.141665 0.000000
0.984527 0.138216 0.000000
1.000000 0.132998 0.000000
1.000000 0.126253 0.000000
1.000000 0.116457 0.000000
1.000000 0.109651 0.000000
1.000000 0.104891 0.000000
0.097963 0.097963 0.097963
0.097963 0.097963 0.097963
0.097963 0.097963 0.097963
0.097963 0.097963 0.097963
0.131899 0.098756 0.096803
0.182559 0.099733 0.094301
0.230076 0.099855 0.091066
0.274388 0.100191 0.086976
0.317296 0.100649 0.081880
0.359564 0.101778 0.075410
0.401709 0.103487 0.066926
0.444068 0.105531 0.053162
0.486549 0.109102 0.022614
0.529412 0.113161 0.000000
0.572839 0.117922 0.000000
0.614984 0.122896 0.000000
0.655512 0.128389 0.000000
0.694423 0.132540 0.000000
0.730739 0.137819 0.000000
0.765652 0.140780 0.000000
0.799649 0.144320 0.000000
0.832731 0.145724 0.000000
0.864988 0.147036 0.000000
0.896269 0.147738 0.000000
0.926635 0.146761 0.000000
0.956023 0.144198 0.000000
0.984497 0.140780 0.000000
1.000000 0.136110 0.000000
1.000000 0.128511 0.000000
1.000000 0.119783 0.000000
1.000000 0.113008 0.000000
1.000000 0.107668 0.000000
0.097963 0.097963 0.097963
0.097963 0.097963 0.097963
0.097963 0.097963 0.097963
0.097963 0.097963 0.097963
0.130861 0.100587 0.096712
0.181460 0.102968 0.094087
0.228977 0.103944 0.090761
0.273198 0.105165 0.086610
0.316228 0.105898 0.081453
0.358556 0.107057 0.074952
0.400946 0.108766 0.066346
0.443336 0.111238 0.051850
0.485908 0.115023 0.020630
0.528893 0.118990 0.000000
0.572259 0.123812 0.000000
0.614618 0.128573 0.000000
0.655116 0.132876 0.000000
0.694026 0.137240 0.000000
0.730434 0.141329 0.000000
0.765408 0.145083 0.000000
0.799405 0.148104 0.000000
0.832547 0.149752 0.000000
0.864805 0.151064 0.000000
0.896147 0.150668 0.000000
0.926513 0.150240 0.000000
0.955932 0.147646 0.000000
0.984436 0.144167 0.000000
1.000000 0.139437 0.000000
1.000000 0.132448 0.000000
1.000000 0.122957 0.000000
1.000000 0.116884 0.000000
1.000000 0.111299 0.000000
0.097963 0.097963 0.097963
0.097963 0.097963 0.097963
0.097963 0.097963 0.097963
0.097963 0.097963 0.097963
0.128145 0.103792 0.096529
0.178805 0.109194 0.093660
0.226383 0.112459 0.090089
0.271031 0.114717 0.085786
0.314427 0.115602 0.080568
0.356939 0.117952 0.073732
0.399420 0.119814 0.065003
0.441932 0.122255 0.048951
0.484504 0.125978 0.016754
0.527520 0.129854 0.000000
0.571160 0.134035 0.000000
0.613550 0.138430 0.000000
0.654200 0.142824 0.000000
0.693233 0.146639 0.000000
0.729732 0.150546 0.000000
0.764828 0.153597 0.000000
0.798978 0.156161 0.000000
0.832151 0.157992 0.000000
0.864500 0.158175 0.000000
0.895842 0.158297 0.000000
0.926268 0.157382 0.000000
0.955749 0.154696 0.000000
0.984283 0.151369 0.000000
1.000000 0.145846 0.000000
1.000000 0.139193 0.000000
1.000000 0.130434 0.000000
1.000000 0.124239 0.000000
1.000000 0.119081 0.000000
0.097963 0.097963 0.097963
0.097963 0.097963 0.097963
0.097963 0.097963 0.097963
0.097963 0.097963 0.097963
0.120699 0.106508 0.096529
0.174289 0.118379 0.092958
0.222354 0.124025 0.089113
0.267826 0.127443 0.084565
0.311589 0.129671 0.079011
0.354314 0.132235 0.071962
0.397009 0.134432 0.062745
0.439673 0.137392 0.043671
0.482429 0.141207 0.010498
0.525628 0.144747 0.000000
0.569329 0.148898 0.000000
0.611841 0.152651 0.000000
0.652796 0.156710 0.000000
0.691951 0.159792 0.000000
0.728756 0.163424 0.000000
0.763973 0.165530 0.000000
0.798184 0.167453 0.000000
0.831540 0.168978 0.000000
0.863981 0.169345 0.000000
0.895415 0.169375 0.000000
0.925902 0.168002 0.000000
0.955474 0.165042 0.000000
0.984070 0.161563 0.000000
1.000000 0.156741 0.000000
1.000000 0.149783 0.000000
1.000000 0.141604 0.000000
1.000000 0.135683 0.000000
1.000000 0.130098 0.000000
0.097963 0.097963 0.097963
0.097963 0.097963 0.097963
0.097963 0.097963 0.097963
0.097963 0.097963 0.097963
0.107546 0.103944 0.097200
0.164034 0.126070 0.092653
0.217380 0.136721 0.087831
0.263127 0.142123 0.082887
0.307439 0.145693 0.076967
0.350652 0.149142 0.069490
0.393652 0.152102 0.059602
0.436622 0.155489 0.035340
0.479561 0.158572 0.002441
0.523033 0.162112 0.000000
0.566979 0.166049 0.000000
0.609918 0.169436 0.000000
0.650965 0.173373 0.000000
0.690333 0.175906 0.000000
0.727260 0.178408 0.000000
0.762783 0.180911 0.000000
0.797177 0.182376 0.000000
0.830716 0.182712 0.000000
0.863249 0.183017 0.000000
0.894865 0.182498 0.000000
0.925444 0.180789 0.000000
0.955047 0.178164 0.000000
0.983734 0.174502 0.000000
1.000000 0.169162 0.000000
1.000000 0.163394 0.000000
1.000000 0.155184 0.000000
1.000000 0.149477 0.000000
1.000000 0.143465 0.000000
0.097963 0.097963 0.097963
0.097963 0.097963 0.097963
0.097963 0.097963 0.097963
0.097963 0.102174 0.097597
0.107515 0.108125 0.096803
0.148470 0.128176 0.093141
0.205142 0.147585 0.087160
0.257572 0.157717 0.080873
0.302312 0.162844 0.074403
0.346197 0.167178 0.066224
0.389654 0.170840 0.053193
0.432868 0.174014 0.025635
0.476143 0.177554 0.000000
0.519982 0.181186 0.000000
0.564141 0.185031 0.000000
0.607294 0.188540 0.000000
0.648646 0.191562 0.000000
0.688319 0.193942 0.000000
0.725582 0.196017 0.000000
0.761318 0.197330 0.000000
0.795926 0.198520 0.000000
0.829648 0.198856 0.000000
0.862394 0.198367 0.000000
0.894163 0.197574 0.000000
0.924834 0.195926 0.000000
0.954589 0.192966 0.000000
0.983337 0.189425 0.000000
1.000000 0.184390 0.000000
1.000000 0.178073 0.000000
1.000000 0.170932 0.000000
1.000000 0.165011 0.000000
1.000000 0.158480 0.000000
0.093233 0.114748 0.106355
0.092958 0.116121 0.106477
0.092653 0.118349 0.105806
0.092653 0.123323 0.101106
0.109957 0.127718 0.094667
0.137697 0.132082 0.093141
0.190097 0.152987 0.087373
0.245060 0.170626 0.079652
0.296452 0.180087 0.071290
0.340948 0.185306 0.062226
0.384985 0.189456 0.044312
0.428534 0.193454 0.013886
0.472297 0.197024 0.000000
0.516258 0.200717 0.000000
0.560784 0.204349 0.000000
0.604334 0.207645 0.000000
0.646021 0.210697 0.000000
0.685908 0.212802 0.000000
0.723507 0.214328 0.000000
0.759487 0.215915 0.000000
0.794461 0.216281 0.000000
0.828397 0.216434 0.000000
0.861357 0.215671 0.000000
0.893248 0.214328 0.000000
0.924132 0.212253 0.000000
0.953979 0.209476 0.000000
0.982849 0.205631 0.000000
1.000000 0.200626 0.000000
1.000000 0.194461 0.000000
1.000000 0.187594 0.000000
1.000000 0.181918 0.000000
1.000000 0.174746 0.000000
0.084413 0.138003 0.119295
0.084138 0.139284 0.118990
0.083833 0.141634 0.117739
0.084230 0.145998 0.111910
0.095430 0.151339 0.091981
0.138460 0.153506 0.090120
0.178653 0.160647 0.086824
0.231632 0.178042 0.079408
0.284367 0.194308 0.069245
0.335210 0.203677 0.056428
0.379583 0.208652 0.031495
0.423774 0.212863 0.000519
0.467842 0.216892 0.000000
0.512200 0.220920 0.000000
0.556909 0.224765 0.000000
0.600855 0.228061 0.000000
0.642908 0.230442 0.000000
0.683192 0.232609 0.000000
0.721065 0.234409 0.000000
0.757473 0.235264 0.000000
0.792721 0.235386 0.000000
0.827054 0.234745 0.000000
0.860136 0.233890 0.000000
0.892241 0.232334 0.000000
0.923278 0.230167 0.000000
0.953277 0.227146 0.000000
0.982300 0.223148 0.000000
1.000000 0.218204 0.000000
1.000000 0.212009 0.000000
1.000000 0.205539 0.000000
1.000000 0.199863 0.000000
1.000000 0.192233 0.000000
0.071015 0.162203 0.133913
0.070741 0.163577 0.133272
0.070741 0.165377 0.131502
0.071382 0.169467 0.125460
0.076020 0.175113 0.104707
0.126253 0.177584 0.086458
0.174350 0.179446 0.083589
0.221225 0.188571 0.077974
0.272648 0.203006 0.068330
0.323735 0.217624 0.051301
0.373938 0.227451 0.017304
0.418524 0.232242 0.000000
0.462959 0.236728 0.000000
0.507622 0.240787 0.000000
0.552789 0.244907 0.000000
0.597101 0.248478 0.000000
0.639582 0.251102 0.000000
0.680079 0.253239 0.000000
0.718410 0.254551 0.000000
0.755154 0.255039 0.000000
0.790860 0.254948 0.000000
0.825284 0.254612 0.000000
0.858793 0.253147 0.000000
0.891081 0.251469 0.000000
0.922332 0.248875 0.000000
0.952514 0.245518 0.000000
0.981689 0.241428 0.000000
1.000000 0.236240 0.000000
1.000000 0.230442 0.000000
1.000000 0.224643 0.000000
1.000000 0.218387 0.000000
1.000000 0.210239 0.000000
0.041352 0.186740 0.149935
0.041047 0.188144 0.148745
0.041077 0.189914 0.146883
0.043610 0.193515 0.141115
0.054231 0.198581 0.124269
0.093812 0.203372 0.084443
0.164950 0.203799 0.078584
0.213504 0.205478 0.074372
0.263066 0.215274 0.065766
0.313176 0.227787 0.047761
0.363012 0.241306 0.009400
0.412940 0.251682 0.000000
0.457832 0.256565 0.000000
0.502922 0.261021 0.000000
0.548333 0.265232 0.000000
0.592950 0.269017 0.000000
0.635767 0.271794 0.000000
0.676600 0.273960 0.000000
0.715389 0.275029 0.000000
0.752712 0.275334 0.000000
0.788663 0.275242 0.000000
0.823545 0.274174 0.000000
0.857237 0.273167 0.000000
0.889799 0.271122 0.000000
0.921294 0.268254 0.000000
0.951659 0.264775 0.000000
0.980957 0.260624 0.000000
1.000000 0.255619 0.000000
1.000000 0.249546 0.000000
1.000000 0.243809 0.000000
1.000000 0.237705 0.000000
1.000000 0.228763 0.000000
0.000000 0.211673 0.166018
0.000000 0.212863 0.164950
0.000000 0.214389 0.162905
0.000000 0.217838 0.157504
0.000000 0.222568 0.143435
0.037171 0.228061 0.106661
0.146761 0.228763 0.091096
0.205783 0.229587 0.075929
0.254032 0.231449 0.061006
0.304143 0.241184 0.038575
0.353124 0.252415 0.002747
0.402289 0.265293 0.000000
0.452461 0.275914 0.000000
0.497749 0.280949 0.000000
0.543359 0.285679 0.000000
0.588556 0.289616 0.000000
0.631708 0.292515 0.000000
0.672969 0.294469 0.000000
0.712154 0.295842 0.000000
0.749935 0.296147 0.000000
0.786313 0.295842 0.000000
0.821469 0.294987 0.000000
0.855497 0.293370 0.000000
0.888365 0.291112 0.000000
0.920104 0.288151 0.000000
0.950683 0.284672 0.000000
0.980194 0.280217 0.000000
1.000000 0.275059 0.000000
1.000000 0.269108 0.000000
1.000000 0.263676 0.000000
1.000000 0.257206 0.000000
1.000000 0.247593 0.000000
0.000000 0.236301 0.182376
0.000000 0.237369 0.181216
0.000000 0.238804 0.179355
0.000000 0.241733 0.174350
0.000000 0.246220 0.162264
0.000000 0.251408 0.134401
0.114046 0.254002 0.102327
0.192386 0.253910 0.095430
0.246494 0.254612 0.074556
0.295171 0.257847 0.024323
0.344305 0.266453 0.000000
0.392706 0.276982 0.000000
0.441749 0.289525 0.000000
0.492287 0.300664 0.000000
0.538262 0.305638 0.000000
0.583795 0.310277 0.000000
0.627405 0.313268 0.000000
0.668940 0.315373 0.000000
0.708705 0.316655 0.000000
0.746975 0.317021 0.000000
0.783810 0.316716 0.000000
0.819333 0.315618 0.000000
0.853635 0.314153 0.000000
0.886839 0.311467 0.000000
0.918791 0.308568 0.000000
0.949645 0.304814 0.000000
0.979370 0.300450 0.000000
1.000000 0.295109 0.000000
1.000000 0.288945 0.000000
1.000000 0.283818 0.000000
1.000000 0.277043 0.000000
1.000000 0.266758 0.000000
0.000000 0.260410 0.198856
0.000000 0.261631 0.197757
0.000000 0.262821 0.195773
0.000000 0.265599 0.191135
0.000000 0.269688 0.180911
0.000000 0.274693 0.159121
0.061006 0.278630 0.122835
0.170932 0.278477 0.110048
0.235080 0.278782 0.096101
0.286473 0.279393 0.071748
0.335515 0.283513 0.000000
0.384222 0.291325 0.000000
0.432410 0.301701 0.000000
0.481392 0.314153 0.000000
0.532189 0.325383 0.000000
0.578790 0.330541 0.000000
0.622766 0.334081 0.000000
0.664668 0.336339 0.000000
0.705013 0.337713 0.000000
0.743771 0.338170 0.000000
0.781094 0.337835 0.000000
0.817014 0.336675 0.000000
0.851713 0.334936 0.000000
0.885161 0.332464 0.000000
0.917449 0.329351 0.000000
0.948486 0.325353 0.000000
0.978454 0.320653 0.000000
1.000000 0.315373 0.000000
1.000000 0.309575 0.000000
1.000000 0.304356 0.000000
1.000000 0.297093 0.000000
1.000000 0.286381 0.000000
0.000000 0.284367 0.215061
0.000000 0.285222 0.213901
0.000000 0.286381 0.212284
0.000000 0.289036 0.207980
0.000000 0.292821 0.198856
0.000000 0.297581 0.180758
0.000000 0.301915 0.149752
0.135225 0.303349 0.120760
0.219089 0.302708 0.116579
0.276493 0.303227 0.096010
0.325841 0.303929 0.066438
0.375158 0.308751 0.000000
0.423713 0.316045 0.000000
0.472175 0.326543 0.000000
0.521660 0.339086 0.000000
0.572595 0.350256 0.000000
0.617762 0.354650 0.000000
0.660151 0.357153 0.000000
0.701015 0.358770 0.000000
0.740383 0.359289 0.000000
0.778164 0.358984 0.000000
0.814542 0.357885 0.000000
0.849577 0.355993 0.000000
0.883421 0.353399 0.000000
0.915953 0.350134 0.000000
0.947295 0.346258 0.000000
0.977478 0.341436 0.000000
1.000000 0.336065 0.000000
1.000000 0.330419 0.000000
1.000000 0.325170 0.000000
1.000000 0.317449 0.000000
1.000000 0.306157 0.000000
0.000000 0.307805 0.231449
0.000000 0.308782 0.230350
0.000000 0.309697 0.228794
0.000000 0.312261 0.224735
0.000000 0.315770 0.216770
0.000000 0.320195 0.201358
0.000000 0.324895 0.174838
0.078187 0.327672 0.139925
0.194766 0.327062 0.128908
0.262669 0.326848 0.117861
0.316777 0.327306 0.094972
0.365423 0.328679 0.059266
0.414588 0.333837 0.000000
0.463355 0.341070 0.000000
0.512169 0.351720 0.000000
0.562158 0.364385 0.000000
0.611292 0.374395 0.000000
0.655360 0.377905 0.000000
0.696895 0.379828 0.000000
0.736782 0.380591 0.000000
0.775051 0.380285 0.000000
0.811948 0.379065 0.000000
0.847349 0.377417 0.000000
0.881559 0.374640 0.000000
0.914397 0.371252 0.000000
0.946014 0.367407 0.000000
0.976440 0.362432 0.000000
1.000000 0.356725 0.000000
1.000000 0.351568 0.000000
1.000000 0.346075 0.000000
1.000000 0.338140 0.000000
1.000000 0.326146 0.000000
0.000000 0.331151 0.247562
0.000000 0.331853 0.246586
0.000000 0.332860 0.244968
0.000000 0.335180 0.241428
0.000000 0.338537 0.234012
0.000000 0.342718 0.221073
0.000000 0.347478 0.197879
0.000000 0.350683 0.168307
0.156954 0.351720 0.140352
0.244541 0.350652 0.137545
0.304692 0.350774 0.119173
0.356359 0.351110 0.093202
0.404883 0.353368 0.041932
0.454078 0.359014 0.000000
0.503136 0.366735 0.000000
0.552728 0.377234 0.000000
0.601312 0.388922 0.000000
0.648859 0.397833 0.000000
0.692531 0.400763 0.000000
0.732967 0.401892 0.000000
0.771817 0.401678 0.000000
0.809140 0.400671 0.000000
0.844968 0.398688 0.000000
0.879545 0.396124 0.000000
0.912749 0.392676 0.000000
0.944640 0.388525 0.000000
0.975341 0.383429 0.000000
1.000000 0.378058 0.000000
1.000000 0.372900 0.000000
1.000000 0.367285 0.000000
1.000000 0.358770 0.000000
1.000000 0.346044 0.000000
0.000000 0.354192 0.263706
0.000000 0.354803 0.262669
0.000000 0.355810 0.261326
0.000000 0.357916 0.257877
0.000000 0.361089 0.251194
0.000000 0.365057 0.239872
0.000000 0.369818 0.219760
0.000000 0.373327 0.194278
0.101778 0.375769 0.159091
0.218387 0.374884 0.150637
0.289494 0.374548 0.141573
0.345525 0.374731 0.119966
0.395514 0.375189 0.091127
0.444770 0.378729 0.011963
0.494545 0.385046 0.000000
0.544305 0.393256 0.000000
0.593591 0.402899 0.000000
0.640681 0.413733 0.000000
0.686702 0.421057 0.000000
0.729030 0.422980 0.000000
0.768399 0.423224 0.000000
0.806149 0.422217 0.000000
0.842557 0.420294 0.000000
0.877470 0.417670 0.000000
0.910979 0.414252 0.000000
0.943175 0.409979 0.000000
0.974182 0.404913 0.000000
1.000000 0.399695 0.000000
1.000000 0.394354 0.000000
1.000000 0.388678 0.000000
1.000000 0.379675 0.000000
1.000000 0.366339 0.000000
0.000000 0.377630 0.280339
0.000000 0.378332 0.279393
0.000000 0.379217 0.277928
0.000000 0.381292 0.274662
0.000000 0.384222 0.268650
0.000000 0.388128 0.258671
0.000000 0.392706 0.241459
0.000000 0.396551 0.219028
0.000000 0.399573 0.188205
0.180545 0.400244 0.162570
0.270268 0.399176 0.160006
0.332921 0.399268 0.143587
0.387030 0.399756 0.119417
0.436133 0.400610 0.085634
0.486549 0.405432 0.000000
0.537194 0.412543 0.000000
0.586847 0.420722 0.000000
0.634821 0.428962 0.000000
0.680537 0.438819 0.000000
0.724269 0.443977 0.000000
0.764858 0.444587 0.000000
0.803159 0.443793 0.000000
0.839902 0.442054 0.000000
0.875303 0.439429 0.000000
0.909148 0.435859 0.000000
0.941711 0.431617 0.000000
0.972961 0.426490 0.000000
1.000000 0.421546 0.000000
1.000000 0.415961 0.000000
1.000000 0.410101 0.000000
1.000000 0.400580 0.000000
1.000000 0.386664 0.000000
0.000000 0.401953 0.297612
0.000000 0.402777 0.296788
0.000000 0.403662 0.295415
0.000000 0.405463 0.292180
0.000000 0.408392 0.286717
0.000000 0.412146 0.277531
0.000000 0.416602 0.262516
0.000000 0.420722 0.242527
0.000000 0.424140 0.215488
0.126223 0.426459 0.179873
0.243503 0.425696 0.172976
0.318120 0.425269 0.165866
0.376776 0.425635 0.144533
0.429389 0.426215 0.117769
0.479286 0.428321 0.075593
0.530846 0.434211 0.000000
0.581445 0.441260 0.000000
0.629969 0.448463 0.000000
0.676783 0.455695 0.000000
0.720211 0.463783 0.000000
0.761257 0.466163 0.000000
0.799893 0.465553 0.000000
0.837156 0.463966 0.000000
0.872923 0.461341 0.000000
0.907225 0.457740 0.000000
0.940124 0.453315 0.000000
0.971618 0.448646 0.000000
1.000000 0.443427 0.000000
1.000000 0.437903 0.000000
1.000000 0.431891 0.000000
1.000000 0.421790 0.000000
1.000000 0.407111 0.000000
0.000000 0.427741 0.315740
0.000000 0.428382 0.314824
0.000000 0.429267 0.313542
0.000000 0.431067 0.310704
0.000000 0.433814 0.305577
0.000000 0.437507 0.297124
0.000000 0.441871 0.283879
0.000000 0.446204 0.265415
0.000000 0.449958 0.241642
0.040589 0.453010 0.209659
0.205295 0.453681 0.185092
0.298314 0.452949 0.182071
0.364721 0.453010 0.167880
0.421576 0.453681 0.144045
0.473579 0.454536 0.113436
0.524926 0.458259 0.058045
0.576898 0.464332 0.000000
0.626337 0.470344 0.000000
0.673671 0.476539 0.000000
0.718196 0.482216 0.000000
0.758968 0.488228 0.000000
0.797696 0.487861 0.000000
0.834348 0.485725 0.000000
0.870542 0.483253 0.000000
0.905241 0.479713 0.000000
0.938445 0.475532 0.000000
0.970245 0.470802 0.000000
1.000000 0.465583 0.000000
1.000000 0.459846 0.000000
1.000000 0.453651 0.000000
1.000000 0.443091 0.000000
1.000000 0.427680 0.000000
0.000000 0.455024 0.334447
0.000000 0.455451 0.333989
0.000000 0.456153 0.332860
0.000000 0.457954 0.330236
0.000000 0.460883 0.325475
0.000000 0.464515 0.317693
0.000000 0.468696 0.305760
0.000000 0.473243 0.289097
0.000000 0.477333 0.267338
0.000000 0.480873 0.238376
0.149294 0.483406 0.201266
0.271092 0.482612 0.195224
0.350469 0.482277 0.189639
0.412329 0.482948 0.168124
0.468360 0.483894 0.141848
0.520195 0.485054 0.106081
0.572961 0.489815 0.000000
0.623774 0.494789 0.000000
0.671901 0.499855 0.000000
0.717098 0.504265 0.000000
0.758907 0.508019 0.000000
0.797269 0.511345 0.000000
0.833616 0.508965 0.000000
0.868070 0.505455 0.000000
0.903136 0.501915 0.000000
0.936645 0.497902 0.000000
0.968780 0.493233 0.000000
0.999603 0.487861 0.000000
1.000000 0.482033 0.000000
1.000000 0.475685 0.000000
1.000000 0.464424 0.000000
1.000000 0.448371 0.000000
0.000000 0.484382 0.354101
0.000000 0.484688 0.353796
0.000000 0.485267 0.353185
0.000000 0.486763 0.351019
0.000000 0.489540 0.346471
0.000000 0.493019 0.339300
0.000000 0.497505 0.328313
0.000000 0.502098 0.312779
0.000000 0.506523 0.293156
0.000000 0.510613 0.266972
0.078614 0.513848 0.232547
0.231174 0.514733 0.208103
0.329351 0.514275 0.204105
0.401068 0.514427 0.191348
0.461738 0.515282 0.167483
0.517388 0.516228 0.137026
0.569665 0.517937 0.093385
0.621729 0.521813 0.000000
0.671351 0.525780 0.000000
0.717220 0.529015 0.000000
0.759579 0.531395 0.000000
0.798734 0.533257 0.000000
0.835019 0.533471 0.000000
0.869017 0.529351 0.000000
0.900877 0.524559 0.000000
0.934783 0.520531 0.000000
0.967285 0.515740 0.000000
0.998413 0.510338 0.000000
1.000000 0.504387 0.000000
1.000000 0.497841 0.000000
1.000000 0.485939 0.000000
1.000000 0.469184 0.000000
0.000000 0.515984 0.375036
0.000000 0.516289 0.374762
0.000000 0.516716 0.374304
0.000000 0.517784 0.373236
0.000000 0.520470 0.369116
0.000000 0.524041 0.362432
0.000000 0.528344 0.352392
0.000000 0.533349 0.337560
0.000000 0.537926 0.319646
0.000000 0.542412 0.295720
0.000000 0.546105 0.263859
0.171115 0.548943 0.223453
0.300633 0.548089 0.218021
0.386023 0.547814 0.212009
0.452796 0.548272 0.191684
0.512627 0.548943 0.164767
0.567773 0.549859 0.129915
0.620539 0.551690 0.072602
0.671443 0.554498 0.000000
0.718563 0.556268 0.000000
0.761471 0.557244 0.000000
0.801236 0.557824 0.000000
0.837949 0.558038 0.000000
0.872068 0.554864 0.000000
0.903532 0.549493 0.000000
0.932921 0.543267 0.000000
0.965728 0.538476 0.000000
0.997192 0.532982 0.000000
1.000000 0.526848 0.000000
1.000000 0.520256 0.000000
1.000000 0.507469 0.000000
1.000000 0.490120 0.000000
0.000000 0.549889 0.397589
0.000000 0.550225 0.397314
0.000000 0.550713 0.396704
0.000000 0.551781 0.395727
0.000000 0.553674 0.393286
0.000000 0.557183 0.386999
0.000000 0.561456 0.377569
0.000000 0.566369 0.363775
0.000000 0.571160 0.346746
0.000000 0.575677 0.324224
0.000000 0.579797 0.295109
0.100893 0.583001 0.257206
0.258976 0.583764 0.231754
0.363897 0.582849 0.227329
0.441138 0.582788 0.215518
0.505760 0.583368 0.190829
0.565057 0.584009 0.160861
0.620142 0.584894 0.119661
0.672389 0.586114 0.006836
0.720668 0.586511 0.000000
0.764675 0.586023 0.000000
0.805081 0.584985 0.000000
0.842283 0.583703 0.000000
0.876585 0.582086 0.000000
0.908354 0.576013 0.000000
0.937499 0.569055 0.000000
0.964263 0.561395 0.000000
0.995911 0.555779 0.000000
1.000000 0.549523 0.000000
1.000000 0.542809 0.000000
1.000000 0.529229 0.000000
1.000000 0.511131 0.000000
0.000000 0.585748 0.421180
0.000000 0.586084 0.420752
0.000000 0.586542 0.420172
0.000000 0.587549 0.419196
0.000000 0.589044 0.417456
0.000000 0.591943 0.412787
0.000000 0.596124 0.403754
0.000000 0.601038 0.390875
0.000000 0.605829 0.374487
0.000000 0.610559 0.353674
0.000000 0.614801 0.326329
0.000000 0.618555 0.291508
0.194827 0.621149 0.247562
0.333471 0.619989 0.242863
0.424781 0.619379 0.236515
0.496773 0.619593 0.216617
0.560540 0.619989 0.189181
0.619318 0.620600 0.154208
0.674250 0.621210 0.103700
0.723781 0.619928 0.000000
0.768948 0.617823 0.000000
0.810208 0.615137 0.000000
0.847990 0.612116 0.000000
0.882689 0.608972 0.000000
0.914580 0.604089 0.000000
0.943877 0.596460 0.000000
0.970764 0.588128 0.000000
0.995422 0.579156 0.000000
1.000000 0.572503 0.000000
1.000000 0.565606 0.000000
1.000000 0.551202 0.000000
1.000000 0.532341 0.000000
0.000000 0.623499 0.445502
0.000000 0.623804 0.444984
0.000000 0.624262 0.444495
0.000000 0.625177 0.443488
0.000000 0.626612 0.441596
0.000000 0.628687 0.439185
0.000000 0.632593 0.431128
0.000000 0.637446 0.419043
0.000000 0.642420 0.403052
0.000000 0.647272 0.383307
0.000000 0.651820 0.357885
0.000000 0.655848 0.325475
0.124178 0.658930 0.284611
0.289952 0.659266 0.258946
0.401617 0.658045 0.253727
0.484596 0.657404 0.242954
0.553613 0.657465 0.217075
0.616266 0.657588 0.186191
0.674647 0.657771 0.145480
0.727993 0.656916 0.079805
0.774380 0.652857 0.000000
0.816617 0.648371 0.000000
0.855131 0.643580 0.000000
0.890257 0.638666 0.000000
0.922362 0.633722 0.000000
0.951720 0.625544 0.000000
0.978668 0.616205 0.000000
1.000000 0.606439 0.000000
1.000000 0.596338 0.000000
1.000000 0.588617 0.000000
1.000000 0.573175 0.000000
1.000000 0.553674 0.000000
0.000000 0.663355 0.470863
0.000000 0.663691 0.470436
0.000000 0.664118 0.469917
0.000000 0.664973 0.468788
0.000000 0.666468 0.466896
0.000000 0.668452 0.464515
0.000000 0.671260 0.459724
0.000000 0.675868 0.448432
0.000000 0.680934 0.432624
0.000000 0.685695 0.414099
0.000000 0.690242 0.389868
0.000000 0.694331 0.359533
0.000000 0.697627 0.321630
0.224613 0.699763 0.276158
0.370001 0.697963 0.272496
