其他预设/【212】创意蓝橙调色预设24款/1.3D LUT预设（视频调色-PR-AE-PS-FCPX-达芬奇用）/21.蓝橙色调-夜景灯光__.cube
# Created by Adobe Lightroom plugin Export LUT (1.17.0)
# www.johnrellis.com/lightroom/exportlut.htm
# Preset: 21.蓝橙色调-夜景灯光[素锦印象]
# Color profile: /Library/Application Support/Adobe/Color/Profiles/Recommended/AdobeRGB1998.icc
LUT_3D_SIZE 8
DOMAIN_MIN 0.000000 0.000000 0.000000
DOMAIN_MAX 0.903226 0.903226 0.903226
0.097963 0.097963 0.097963
0.132876 0.097444 0.096895
0.317876 0.097047 0.082185
0.486946 0.104555 0.024079
0.655879 0.123934 0.000000
0.799771 0.141207 0.000000
0.926696 0.143984 0.000000
1.000000 0.126253 0.000000
0.097963 0.097963 0.097963
0.120699 0.106508 0.096529
0.311589 0.129671 0.079011
0.482429 0.141207 0.010498
0.652796 0.156710 0.000000
0.798184 0.167453 0.000000
0.925902 0.168002 0.000000
1.000000 0.149783 0.000000
0.084413 0.138003 0.119295
0.095430 0.151339 0.091981
0.284367 0.194308 0.069245
0.467842 0.216892 0.000000
0.642908 0.230442 0.000000
0.792721 0.235386 0.000000
0.923278 0.230167 0.000000
1.000000 0.212009 0.000000
0.000000 0.236301 0.182376
0.000000 0.246220 0.162264
0.246494 0.254612 0.074556
0.441749 0.289525 0.000000
0.627405 0.313268 0.000000
0.783810 0.316716 0.000000
0.918791 0.308568 0.000000
1.000000 0.288945 0.000000
0.000000 0.331151 0.247562
0.000000 0.338537 0.234012
0.156954 0.351720 0.140352
0.404883 0.353368 0.041932
0.601312 0.388922 0.000000
0.771817 0.401678 0.000000
0.912749 0.392676 0.000000
1.000000 0.372900 0.000000
0.000000 0.427741 0.315740
0.000000 0.433814 0.305577
0.000000 0.449958 0.241642
0.364721 0.453010 0.167880
0.576898 0.464332 0.000000
0.758968 0.488228 0.000000
0.905241 0.479713 0.000000
1.000000 0.459846 0.000000
0.000000 0.549889 0.397589
0.000000 0.553674 0.393286
0.000000 0.571160 0.346746
0.258976 0.583764 0.231754
0.565057 0.584009 0.160861
0.764675 0.586023 0.000000
0.908354 0.576013 0.000000
1.000000 0.549523 0.000000
0.000000 0.704738 0.496773
0.000000 0.707698 0.492653
0.000000 0.720424 0.463172
0.000000 0.737118 0.358282
0.530846 0.735775 0.277256
0.787716 0.733700 0.118166
0.942504 0.698360 0.000000
1.000000 0.653803 0.000000
0.094972 0.102235 0.108675
0.113252 0.094942 0.103090
0.299596 0.136324 0.079591
0.469581 0.167147 0.004364
0.644068 0.182650 0.000000
0.793423 0.189548 0.000000
0.923705 0.183200 0.000000
1.000000 0.157931 0.000000
0.087495 0.117861 0.125368
0.104646 0.104646 0.104646
0.293095 0.148104 0.078431
0.466529 0.185885 0.000000
0.641810 0.201633 0.000000
0.792081 0.207645 0.000000
0.923064 0.200473 0.000000
1.000000 0.176730 0.000000
0.063172 0.161410 0.150637
0.056092 0.179141 0.144869
0.277958 0.191348 0.075593
0.456123 0.238071 0.000000
0.633997 0.255375 0.000000
0.787503 0.260105 0.000000
0.920745 0.251865 0.000000
1.000000 0.229282 0.000000
0.000000 0.252628 0.211521
0.000000 0.263554 0.200870
0.238926 0.271092 0.135012
0.438758 0.288365 0.000000
0.620722 0.326390 0.000000
0.779568 0.331456 0.000000
0.916655 0.322362 0.000000
1.000000 0.300267 0.000000
0.000000 0.343175 0.271305
0.000000 0.350072 0.260868
0.116976 0.363622 0.183413
0.402106 0.362890 0.119692
0.599329 0.388983 0.000000
0.768490 0.410773 0.000000
0.911040 0.401770 0.000000
1.000000 0.380529 0.000000
0.000000 0.436469 0.334417
0.000000 0.442420 0.326116
0.000000 0.458167 0.273075
0.356268 0.461738 0.202701
0.574731 0.470283 0.070680
0.757748 0.488777 0.000000
0.903838 0.486152 0.000000
1.000000 0.465370 0.000000
0.000000 0.556237 0.414313
0.000000 0.559930 0.410101
0.000000 0.577081 0.369116
0.222354 0.591180 0.252537
0.560021 0.590265 0.195712
0.762905 0.589960 0.000000
0.907164 0.580774 0.000000
1.000000 0.553887 0.000000
0.000000 0.708400 0.510491
0.000000 0.711269 0.506645
0.000000 0.723598 0.480385
0.000000 0.740719 0.383398
0.518853 0.739895 0.298405
0.783017 0.737362 0.164340
0.941070 0.701228 0.000000
1.000000 0.656947 0.000000
0.000000 0.175967 0.248447
0.000000 0.169711 0.239902
0.263401 0.134218 0.199161
0.455695 0.151614 0.081575
0.627741 0.234745 0.000000
0.780117 0.264714 0.000000
0.917021 0.253269 0.000000
1.000000 0.218845 0.000000
0.000000 0.198642 0.251835
0.000000 0.187869 0.246159
0.254887 0.165530 0.207340
0.450080 0.174990 0.102876
0.625086 0.242283 0.000000
0.778958 0.276524 0.000000
0.916503 0.264714 0.000000
1.000000 0.231327 0.000000
0.000000 0.244022 0.273075
0.000000 0.239994 0.266758
0.231571 0.231571 0.231571
0.435431 0.235294 0.151400
0.618585 0.271519 0.000000
0.775204 0.313115 0.000000
0.914580 0.302007 0.000000
1.000000 0.271061 0.000000
0.000000 0.297917 0.294224
0.000000 0.301976 0.291814
0.118929 0.315435 0.257969
0.415198 0.311101 0.203586
0.606897 0.329168 0.056550
0.768826 0.366003 0.000000
0.911131 0.359045 0.000000
1.000000 0.330968 0.000000
0.000000 0.368292 0.332830
0.000000 0.376959 0.332341
0.000000 0.395789 0.302708
0.380163 0.393317 0.244907
0.584985 0.402930 0.161135
0.760494 0.421302 0.000000
0.906157 0.428901 0.000000
1.000000 0.403113 0.000000
0.000000 0.458045 0.389197
0.000000 0.465400 0.386847
0.000000 0.483436 0.359930
0.300053 0.490028 0.281987
0.563012 0.491341 0.218875
0.749630 0.498787 0.064393
0.899687 0.506249 0.000000
1.000000 0.482673 0.000000
0.000000 0.575189 0.465248
0.000000 0.578851 0.462898
0.000000 0.596033 0.436988
0.089845 0.611658 0.354711
0.535821 0.610529 0.289158
0.754696 0.604639 0.167208
0.902922 0.589166 0.000000
1.000000 0.567864 0.000000
0.000000 0.720516 0.555993
0.000000 0.722805 0.551507
0.000000 0.733486 0.534630
0.000000 0.752224 0.459846
0.463752 0.754360 0.360662
0.763302 0.749599 0.269810
0.935210 0.712154 0.000000
1.000000 0.667720 0.000000
0.000000 0.262242 0.384924
0.000000 0.268650 0.377844
0.000000 0.204013 0.365637
0.405737 0.218753 0.311284
0.608362 0.206760 0.194919
0.771939 0.264591 0.000000
0.910307 0.318242 0.000000
1.000000 0.279301 0.000000
0.000000 0.282658 0.385809
0.000000 0.280858 0.381476
0.000000 0.227695 0.369085
0.401038 0.237308 0.316197
0.604425 0.226596 0.205692
0.769894 0.276066 0.000305
0.909575 0.328222 0.000000
1.000000 0.287144 0.000000
0.000000 0.319158 0.398230
0.000000 0.316411 0.394446
0.000000 0.287907 0.381537
0.385748 0.288975 0.332280
0.591821 0.282902 0.238437
0.763333 0.313329 0.110231
0.907958 0.352422 0.000000
1.000000 0.316808 0.000000
0.000000 0.372107 0.421576
0.000000 0.371893 0.417243
0.000000 0.362249 0.403937
0.358984 0.358984 0.358984
0.572381 0.358007 0.286229
0.754330 0.370001 0.171267
0.905455 0.389685 0.000000
1.000000 0.368048 0.000000
0.000000 0.429267 0.442145
0.000000 0.430915 0.439338
0.000000 0.436316 0.429297
0.251835 0.445014 0.380804
0.550500 0.437049 0.332769
0.742245 0.441505 0.232456
0.900633 0.446143 0.000000
1.000000 0.432929 0.000000
0.000000 0.500603 0.477974
0.000000 0.503380 0.475380
0.000000 0.518486 0.468757
0.063996 0.534783 0.423590
0.527153 0.529137 0.363256
0.729915 0.524559 0.289738
0.892699 0.519127 0.114687
1.000000 0.507317 0.000000
0.000000 0.605585 0.543908
0.000000 0.608850 0.541711
0.000000 0.623987 0.531792
0.000000 0.642054 0.485542
0.461097 0.642817 0.403571
0.733822 0.633173 0.323827
0.892485 0.608515 0.211917
1.000000 0.587366 0.000000
0.000000 0.743343 0.632319
0.000000 0.745388 0.628504
0.000000 0.751919 0.613397
0.000000 0.768887 0.565942
0.298528 0.778775 0.459480
0.717128 0.769558 0.400244
0.922087 0.733608 0.261082
1.000000 0.682826 0.000000
0.000000 0.354376 0.524132
0.000000 0.358984 0.518853
0.000000 0.334997 0.509453
0.201816 0.260014 0.485359
0.551537 0.299474 0.424048
0.748470 0.271366 0.304875
0.901823 0.315312 0.192447
1.000000 0.344060 0.000000
0.000000 0.369574 0.524834
0.000000 0.373053 0.520073
0.000000 0.345434 0.512169
0.181521 0.272068 0.488594
0.548058 0.312840 0.427314
0.746059 0.286931 0.311498
0.900938 0.324834 0.199435
1.000000 0.349767 0.000000
0.000000 0.402289 0.532097
0.000000 0.404028 0.528130
0.000000 0.379767 0.521294
0.115694 0.323400 0.499031
0.536645 0.353857 0.439063
0.738216 0.334020 0.333623
0.898100 0.356420 0.221195
1.000000 0.368750 0.000000
0.000000 0.445289 0.548852
0.000000 0.447822 0.544732
0.000000 0.432929 0.537194
0.000000 0.405066 0.515618
0.517327 0.414588 0.459480
0.726131 0.401740 0.368048
0.894865 0.403998 0.246921
1.000000 0.398749 0.000000
0.000000 0.501701 0.572412
0.000000 0.503868 0.567987
0.000000 0.498024 0.560235
0.000000 0.488960 0.539513
0.488228 0.488228 0.488228
0.712306 0.479530 0.407813
0.890593 0.466224 0.278141
1.000000 0.450080 0.000000
0.000000 0.566155 0.599664
0.000000 0.568170 0.596307
0.000000 0.571099 0.590021
0.000000 0.577447 0.573419
0.366949 0.584863 0.510185
0.694392 0.567742 0.456764
0.879271 0.550103 0.341558
1.000000 0.521172 0.000000
0.000000 0.654810 0.651423
0.000000 0.656947 0.648859
0.000000 0.664302 0.640589
0.000000 0.679866 0.624201
0.173312 0.688991 0.551965
0.682216 0.675898 0.487465
0.872709 0.643824 0.399603
1.000000 0.607507 0.199741
0.000000 0.773007 0.727535
0.000000 0.775174 0.724849
0.000000 0.782162 0.713985
0.000000 0.793851 0.686946
0.000000 0.805997 0.611566
0.624475 0.795712 0.544091
0.894652 0.770169 0.434150
1.000000 0.709285 0.285740
0.000000 0.445991 0.664698
0.000000 0.450050 0.661616
0.000000 0.448615 0.653193
0.000000 0.394079 0.642573
0.414557 0.361608 0.611475
0.697108 0.393957 0.542016
0.877379 0.366949 0.431189
1.000000 0.391943 0.335058
0.000000 0.457191 0.665431
0.000000 0.460548 0.662409
0.000000 0.455573 0.655024
0.000000 0.404669 0.644404
0.406622 0.369177 0.614008
0.694911 0.404150 0.544854
0.876188 0.377661 0.435554
1.000000 0.398291 0.337530
0.000000 0.485420 0.669856
0.000000 0.488106 0.667170
0.000000 0.478920 0.661311
0.000000 0.438849 0.650599
0.369757 0.391760 0.622522
0.687526 0.437446 0.555413
0.872313 0.412360 0.450568
1.000000 0.418921 0.344213
0.000000 0.521111 0.681025
0.000000 0.524193 0.678187
0.000000 0.517937 0.672328
0.000000 0.490944 0.661891
0.281956 0.438544 0.637354
0.675013 0.489052 0.573205
0.866819 0.465034 0.473793
1.000000 0.449531 0.347417
0.000000 0.567651 0.697169
0.000000 0.570214 0.694545
0.000000 0.569390 0.688350
0.000000 0.554009 0.678492
0.185031 0.527947 0.656306
0.657343 0.551568 0.597223
0.861570 0.527764 0.499641
1.000000 0.486671 0.338567
0.000000 0.623041 0.717403
0.000000 0.625330 0.715023
0.000000 0.628992 0.708370
0.000000 0.623957 0.699672
0.000000 0.620111 0.680354
0.628779 0.628687 0.628717
0.852110 0.606775 0.535973
1.000000 0.550378 0.352209
0.000000 0.694759 0.754604
0.000000 0.697017 0.752865
0.000000 0.704982 0.746700
0.000000 0.710719 0.739010
0.000000 0.722225 0.720790
0.497078 0.730892 0.648280
0.834470 0.703578 0.593957
1.000000 0.654353 0.440406
0.000000 0.793027 0.818265
0.000000 0.795346 0.816770
0.000000 0.803372 0.810971
0.000000 0.817594 0.798398
0.000000 0.840574 0.777707
0.261387 0.842832 0.680903
0.833921 0.821317 0.629053
1.000000 0.762173 0.516289
0.000000 0.531518 0.800717
0.000000 0.534905 0.798886
0.000000 0.546685 0.792325
0.000000 0.515801 0.786648
0.000000 0.454841 0.774533
0.610742 0.497719 0.742245
0.831846 0.528313 0.671443
0.986664 0.530358 0.598505
0.000000 0.539055 0.801328
0.000000 0.542199 0.799619
0.000000 0.553094 0.793240
0.000000 0.522301 0.787808
0.000000 0.464363 0.775784
0.606867 0.503105 0.743801
0.830564 0.535119 0.673915
0.986267 0.536095 0.601099
0.000000 0.559838 0.804746
0.000000 0.562585 0.803037
0.000000 0.572442 0.796963
0.000000 0.544274 0.791867
0.000000 0.495277 0.780056
0.591485 0.520562 0.749386
0.826474 0.557916 0.682216
0.985229 0.555108 0.609400
0.000000 0.589136 0.811978
0.000000 0.591699 0.810422
0.000000 0.600336 0.804746
0.000000 0.580438 0.799374
0.000000 0.542992 0.788022
0.552392 0.545403 0.759731
0.819760 0.593805 0.696071
0.984436 0.584558 0.621088
0.000000 0.627741 0.822751
0.000000 0.629999 0.821286
0.000000 0.637781 0.816190
0.000000 0.628107 0.810636
0.000000 0.601312 0.800565
0.449256 0.573999 0.776120
0.810544 0.639612 0.714778
0.984375 0.623102 0.634730
0.000000 0.674861 0.836637
0.000000 0.676967 0.835325
0.000000 0.684199 0.830777
0.000000 0.684840 0.824887
0.000000 0.670710 0.816648
0.316350 0.653346 0.796109
0.796048 0.697658 0.739498
0.984771 0.671351 0.649012
0.000000 0.728298 0.853147
0.000000 0.730312 0.852079
0.000000 0.737331 0.848203
0.000000 0.747097 0.841886
0.000000 0.745235 0.835050
0.084749 0.749233 0.818204
0.770382 0.770352 0.770382
0.981872 0.737850 0.671107
0.000000 0.801846 0.895079
0.000000 0.803952 0.894438
0.000000 0.811368 0.892027
0.000000 0.825010 0.887022
0.000000 0.841611 0.879118
0.000000 0.862028 0.862913
0.645991 0.871733 0.789548
0.966979 0.838071 0.734188
0.000000 0.607446 0.927947
0.000000 0.610315 0.927001
0.000000 0.620447 0.923491
0.000000 0.620478 0.918700
0.000000 0.584955 0.913268
0.401160 0.574975 0.899382
0.798032 0.671839 0.870176
0.951720 0.691890 0.809415
0.000000 0.611872 0.928588
0.000000 0.614649 0.927642
0.000000 0.624506 0.924254
0.000000 0.625025 0.919402
0.000000 0.590265 0.914031
0.391363 0.578393 0.900389
0.796384 0.675807 0.871092
0.951263 0.695521 0.811002
0.000000 0.624781 0.931243
0.000000 0.627314 0.930358
0.000000 0.636591 0.927031
0.000000 0.640894 0.921965
0.000000 0.608179 0.916808
0.351080 0.590295 0.904021
0.788663 0.685542 0.874754
0.949767 0.707851 0.816373
0.000000 0.642359 0.936797
0.000000 0.644770 0.935943
0.000000 0.653529 0.932769
0.000000 0.668574 0.926818
0.000000 0.637842 0.922118
0.268650 0.616083 0.910369
0.771542 0.700435 0.881559
0.947448 0.728298 0.825559
0.000000 0.674250 0.943877
0.000000 0.675654 0.943206
0.000000 0.680079 0.940887
0.000000 0.686793 0.936584
0.000000 0.677546 0.930449
0.000000 0.654749 0.919829
0.735531 0.718044 0.892149
0.943969 0.756985 0.838865
0.000000 0.714748 0.952941
0.000000 0.716121 0.952361
0.000000 0.720638 0.950317
0.000000 0.727993 0.946563
0.000000 0.730251 0.941131
0.000000 0.706111 0.932891
0.646754 0.734829 0.908354
0.938628 0.795102 0.856779
0.000000 0.761440 0.963836
0.000000 0.762814 0.963378
0.000000 0.767605 0.961730
0.000000 0.776150 0.958526
0.000000 0.789731 0.953063
0.000000 0.778286 0.947173
0.483009 0.784909 0.928832
0.929290 0.844511 0.880064
0.000000 0.805753 0.967895
0.000000 0.807401 0.967803
0.000000 0.813352 0.967437
0.000000 0.824887 0.966674
0.000000 0.843839 0.965454
0.000000 0.856962 0.962066
0.276707 0.873869 0.948821
0.909911 0.909911 0.909911
