其他预设/【212】创意蓝橙调色预设24款/1.3D LUT预设（视频调色-PR-AE-PS-FCPX-达芬奇用）/22.蓝橙色调-深色调__.cube
# Created by Adobe Lightroom plugin Export LUT (1.17.0)
# www.johnrellis.com/lightroom/exportlut.htm
# Preset: 22.蓝橙色调-深色调[素锦印象]
# Color profile: /Library/Application Support/Adobe/Color/Profiles/Recommended/AdobeRGB1998.icc
LUT_3D_SIZE 5
DOMAIN_MIN 0.000000 0.000000 0.000000
DOMAIN_MAX 0.903226 0.903226 0.903226
0.088136 0.088136 0.088136
0.316075 0.064607 0.091463
0.617121 0.108156 0.070375
0.827298 0.167819 0.056855
0.962676 0.222324 0.140230
0.075929 0.160433 0.115785
0.280400 0.186648 0.093812
0.602960 0.211307 0.062440
0.822721 0.229557 0.045930
0.961303 0.258030 0.141329
0.000000 0.308965 0.212375
0.150668 0.330114 0.149050
0.555718 0.364111 0.015656
0.807889 0.361944 0.005005
0.956756 0.353552 0.147982
0.000000 0.478828 0.319799
0.000000 0.494087 0.299077
0.484047 0.516838 0.176486
0.786679 0.512688 0.000000
0.948882 0.477394 0.163546
0.000000 0.701900 0.447822
0.000000 0.710811 0.433600
0.287175 0.733730 0.283940
0.799863 0.717098 0.201968
0.952087 0.626368 0.214908
0.000000 0.129976 0.222324
0.249699 0.144778 0.198550
0.581872 0.207095 0.087984
0.814023 0.243381 0.037964
0.960113 0.255253 0.139834
0.000000 0.209201 0.242374
0.219333 0.219333 0.219333
0.569482 0.254643 0.121584
0.810452 0.283085 0.025116
0.958923 0.285008 0.141787
0.000000 0.333165 0.289891
0.000000 0.358984 0.272190
0.532708 0.374395 0.191989
0.797879 0.389654 0.000000
0.954864 0.370733 0.148135
0.000000 0.494911 0.378271
0.000000 0.510460 0.366949
0.454322 0.535454 0.258732
0.777737 0.522087 0.165621
0.947417 0.488624 0.164797
0.000000 0.708034 0.491524
0.000000 0.716609 0.478676
0.165927 0.742306 0.353429
0.789151 0.730251 0.272770
0.950591 0.633722 0.213657
0.000000 0.256596 0.436591
0.000000 0.280125 0.424018
0.494362 0.255589 0.382025
0.788510 0.285069 0.257176
0.955169 0.319738 0.141482
0.000000 0.312261 0.444556
0.000000 0.323095 0.435737
0.479225 0.306249 0.392920
0.781979 0.324468 0.277379
0.954864 0.338262 0.143618
0.000000 0.412482 0.478584
0.000000 0.424964 0.466407
0.427100 0.427100 0.427100
0.764645 0.426032 0.327520
0.952331 0.405554 0.151522
0.000000 0.541558 0.525994
0.000000 0.552087 0.518242
0.157229 0.589960 0.463447
0.739498 0.562707 0.394537
0.943053 0.517174 0.237186
0.000000 0.730434 0.622858
0.000000 0.736751 0.610803
0.000000 0.759121 0.547143
0.709224 0.753262 0.450996
0.938659 0.663935 0.353307
0.000000 0.386328 0.652705
0.000000 0.404150 0.646296
0.000000 0.347295 0.638453
0.712734 0.407904 0.565332
0.922393 0.464851 0.490211
0.000000 0.421790 0.655879
0.000000 0.435523 0.650080
0.000000 0.389654 0.642786
0.705776 0.439002 0.573602
0.921355 0.480476 0.496162
0.000000 0.494057 0.670954
0.000000 0.506310 0.665400
0.000000 0.496254 0.656947
0.683345 0.524224 0.599634
0.921324 0.520470 0.503044
0.000000 0.592920 0.696345
0.000000 0.602472 0.691676
0.000000 0.622370 0.681147
0.636957 0.636866 0.636896
0.920836 0.591669 0.510857
0.000000 0.734371 0.763302
0.000000 0.743313 0.760189
0.000000 0.776150 0.745693
0.308141 0.802609 0.644587
0.902068 0.738430 0.600946
0.000000 0.486976 0.836698
0.000000 0.498665 0.834501
0.000000 0.536309 0.826566
0.475868 0.508324 0.816281
0.869230 0.638911 0.749630
0.000000 0.502708 0.838254
0.000000 0.513298 0.836149
0.000000 0.550378 0.828305
0.451118 0.519799 0.818570
0.867460 0.650233 0.754025
0.000000 0.543450 0.844572
0.000000 0.548486 0.843046
0.000000 0.580316 0.835843
0.285222 0.545953 0.827726
0.862211 0.684810 0.768032
0.000000 0.619440 0.854429
0.000000 0.624262 0.853208
0.000000 0.639612 0.848722
0.000000 0.639979 0.840696
0.851957 0.741817 0.791989
0.000000 0.711818 0.868193
0.000000 0.717006 0.867369
0.000000 0.736599 0.864012
0.000000 0.779629 0.855711
0.825864 0.825834 0.825864
