其他预设/【212】创意蓝橙调色预设24款/1.3D LUT预设（视频调色-PR-AE-PS-FCPX-达芬奇用）/22.蓝橙色调-深色调__.cube
# Created by Adobe Lightroom plugin Export LUT (1.17.0)
# www.johnrellis.com/lightroom/exportlut.htm
# Preset: 22.蓝橙色调-深色调[素锦印象]
# Color profile: /Library/Application Support/Adobe/Color/Profiles/Recommended/AdobeRGB1998.icc
LUT_3D_SIZE 8
DOMAIN_MIN 0.000000 0.000000 0.000000
DOMAIN_MAX 0.903226 0.903226 0.903226
0.088136 0.088136 0.088136
0.185885 0.064424 0.091005
0.358923 0.066621 0.090303
0.533043 0.090425 0.080446
0.689204 0.127047 0.059602
0.802548 0.160250 0.049958
0.892424 0.189242 0.083467
0.962676 0.222324 0.140230
0.087312 0.108186 0.088563
0.170962 0.118624 0.092042
0.351110 0.122377 0.090394
0.527489 0.137453 0.078798
0.686030 0.160647 0.055573
0.800961 0.183047 0.046052
0.891630 0.205447 0.082826
0.962249 0.233463 0.140322
0.067109 0.179232 0.128176
0.113893 0.188418 0.113893
0.318212 0.211246 0.090852
0.509483 0.227024 0.073365
0.675532 0.238285 0.037293
0.795315 0.244663 0.027405
0.888853 0.252750 0.080720
0.960845 0.268925 0.142306
0.000000 0.263828 0.183291
0.000000 0.271000 0.175723
0.268406 0.284916 0.128634
0.476326 0.313390 0.063600
0.658320 0.326513 0.003693
0.785794 0.322515 0.004517
0.884031 0.318944 0.078004
0.958404 0.322301 0.145449
0.000000 0.354742 0.241794
0.000000 0.359716 0.236942
0.161715 0.379461 0.160616
0.429938 0.386572 0.128084
0.629175 0.411322 0.000000
0.772580 0.406653 0.000000
0.877165 0.394263 0.076265
0.954864 0.386969 0.151003
0.000000 0.451606 0.303288
0.000000 0.455848 0.299351
0.000000 0.474342 0.256046
0.374304 0.485115 0.187778
0.599054 0.494362 0.117983
0.757229 0.493904 0.000000
0.868254 0.475044 0.078157
0.950195 0.458625 0.160678
0.000000 0.569940 0.374273
0.000000 0.573510 0.370642
0.000000 0.587182 0.350378
0.230137 0.607019 0.226871
0.568200 0.607050 0.198703
0.754574 0.592584 0.112398
0.865721 0.563867 0.080537
0.944396 0.535515 0.175113
0.000000 0.701900 0.447822
0.000000 0.704524 0.443671
0.000000 0.713741 0.428809
0.000000 0.730617 0.348333
0.502068 0.729702 0.285588
0.755856 0.725338 0.222202
0.882444 0.673610 0.146304
0.952087 0.626368 0.214908
0.071107 0.089204 0.142550
0.155520 0.104219 0.129366
0.334783 0.129732 0.090791
0.511315 0.160342 0.079164
0.677028 0.180301 0.054047
0.796414 0.196536 0.040772
0.889799 0.211978 0.081727
0.961669 0.234470 0.140139
0.061891 0.129244 0.153750
0.140993 0.140993 0.140993
0.324620 0.159670 0.103609
0.507439 0.184237 0.077363
0.674525 0.201389 0.049409
0.795010 0.213565 0.036744
0.889097 0.225711 0.080568
0.961334 0.244755 0.140597
0.006806 0.193637 0.171511
0.092958 0.206119 0.168215
0.302708 0.220096 0.133608
0.493996 0.246983 0.072877
0.665919 0.260410 0.030671
0.790158 0.264347 0.021332
0.886564 0.267460 0.079377
0.960021 0.277897 0.142031
0.000000 0.274846 0.216068
0.000000 0.283391 0.211795
0.256840 0.297368 0.166293
0.468208 0.316930 0.116793
0.650752 0.337713 0.001373
0.781491 0.334356 0.000000
0.882048 0.328862 0.076783
0.957702 0.329015 0.145602
0.000000 0.363317 0.267796
0.000000 0.368078 0.263737
0.124575 0.388464 0.200046
0.425086 0.394232 0.162539
0.624231 0.413794 0.093263
0.769009 0.414069 0.000000
0.875486 0.401068 0.075441
0.954253 0.391791 0.151400
0.000000 0.457710 0.323980
0.000000 0.461799 0.320348
0.000000 0.480079 0.284245
0.361913 0.491707 0.213962
0.595361 0.498909 0.152926
0.754391 0.496590 0.068055
0.866789 0.480049 0.077211
0.949706 0.462257 0.160830
0.000000 0.574029 0.391333
0.000000 0.577630 0.387823
0.000000 0.590723 0.370153
0.186984 0.612116 0.248844
0.560754 0.611170 0.223270
0.752041 0.595819 0.147219
0.864439 0.567468 0.077607
0.943969 0.538537 0.175479
0.000000 0.703822 0.461402
0.000000 0.706416 0.457404
0.000000 0.715541 0.442939
0.000000 0.732387 0.370581
0.488533 0.732479 0.301549
0.750057 0.727596 0.244388
0.880797 0.676387 0.172976
0.951629 0.628565 0.214542
0.000000 0.145571 0.250736
0.000000 0.160861 0.242954
0.282872 0.159060 0.223453
0.485542 0.174563 0.157290
0.657130 0.230198 0.085420
0.782864 0.257511 0.021912
0.883543 0.258976 0.077241
0.959503 0.263127 0.140261
0.000000 0.180331 0.255070
0.000000 0.190249 0.248814
0.273686 0.186374 0.229343
0.478645 0.197757 0.169100
0.653498 0.244236 0.099947
0.781521 0.269780 0.018128
0.882933 0.269108 0.076936
0.959167 0.271794 0.140780
0.000000 0.237186 0.274266
0.000000 0.244511 0.266728
0.247440 0.247440 0.247440
0.461097 0.257664 0.199039
0.644373 0.285618 0.129152
0.777279 0.307744 0.002838
0.880705 0.302892 0.075685
0.958007 0.300816 0.142306
0.000000 0.302586 0.294285
0.000000 0.308202 0.290227
0.138247 0.331029 0.267887
0.437171 0.332555 0.232883
0.629999 0.348302 0.168429
0.769467 0.362310 0.061860
0.876616 0.355688 0.073518
0.955840 0.347295 0.146120
0.000000 0.381659 0.330999
0.000000 0.387732 0.329778
0.000000 0.411505 0.309056
0.393225 0.417334 0.254612
0.605005 0.424567 0.215671
0.757534 0.427680 0.138033
0.870512 0.421424 0.073274
0.952636 0.406226 0.152010
0.000000 0.473121 0.379950
0.000000 0.478065 0.378607
0.000000 0.497292 0.361730
0.284550 0.513664 0.276677
0.579156 0.515496 0.242832
0.743282 0.506462 0.200443
0.861967 0.494850 0.101106
0.948302 0.473945 0.162234
0.000000 0.586236 0.442817
0.000000 0.589868 0.440223
0.000000 0.601678 0.428992
0.000000 0.624292 0.349462
0.528710 0.624292 0.296971
0.741787 0.607996 0.233127
0.858396 0.576989 0.187716
0.942748 0.548363 0.177188
0.000000 0.710170 0.505669
0.000000 0.712367 0.501366
0.000000 0.721187 0.488106
0.000000 0.737972 0.438300
0.428717 0.742092 0.350072
0.727413 0.735134 0.311406
0.874510 0.686305 0.244511
0.950134 0.636072 0.213321
0.000000 0.217716 0.373480
0.000000 0.228916 0.368414
0.000000 0.205478 0.363012
0.423896 0.221042 0.328069
0.628412 0.222721 0.251804
0.769070 0.267979 0.186984
0.876310 0.302647 0.094484
0.957092 0.296818 0.141085
0.000000 0.245945 0.375586
0.000000 0.253422 0.371038
0.000000 0.229801 0.366918
0.418189 0.240360 0.332128
0.623987 0.242344 0.259373
0.766720 0.280430 0.195010
0.875425 0.310887 0.103273
0.956970 0.303197 0.141268
0.000000 0.291783 0.387915
0.000000 0.298711 0.383246
0.000000 0.291356 0.378637
0.400122 0.294102 0.345006
0.609979 0.298131 0.282689
0.759335 0.320134 0.219974
0.872740 0.337682 0.128176
0.956115 0.327367 0.143374
0.000000 0.353887 0.410010
0.000000 0.358465 0.405402
0.000000 0.366003 0.398535
0.366461 0.366461 0.366461
0.588373 0.371832 0.317754
0.748959 0.377325 0.252293
0.868437 0.381201 0.161166
0.954101 0.369818 0.147189
0.000000 0.420386 0.429633
0.000000 0.424170 0.426520
0.000000 0.439063 0.420661
0.236912 0.457588 0.380652
0.563256 0.450111 0.351080
0.735164 0.447913 0.291966
0.861570 0.440467 0.205417
0.951049 0.425238 0.154086
0.000000 0.498146 0.462043
0.000000 0.501946 0.460182
0.000000 0.518853 0.455726
0.000000 0.544884 0.417823
0.530999 0.543755 0.365179
0.720058 0.528588 0.331731
0.851225 0.512718 0.261021
0.946838 0.490517 0.164614
0.000000 0.604974 0.519646
0.000000 0.608301 0.517388
0.000000 0.619318 0.508568
0.000000 0.641291 0.469795
0.438056 0.645808 0.390753
0.718257 0.632166 0.345830
0.845762 0.596399 0.311772
0.939940 0.564080 0.223850
0.000000 0.722499 0.579004
0.000000 0.724514 0.575311
0.000000 0.731197 0.560418
0.000000 0.744594 0.530785
0.252323 0.758114 0.433295
0.678523 0.747494 0.409430
0.861479 0.705409 0.339208
0.943908 0.651881 0.294621
0.000000 0.295018 0.499306
0.000000 0.302708 0.495705
0.000000 0.319432 0.485695
0.208957 0.240177 0.480110
0.563256 0.291386 0.435462
0.738582 0.295598 0.358892
0.861326 0.327276 0.299046
0.950896 0.340764 0.219089
0.000000 0.315221 0.500847
0.000000 0.320989 0.497444
0.000000 0.331518 0.488808
0.181979 0.250797 0.483101
0.559228 0.305791 0.438178
0.736080 0.309728 0.363958
0.860258 0.336431 0.303502
0.950744 0.346288 0.220706
0.000000 0.355810 0.508415
0.000000 0.361822 0.504967
0.000000 0.367956 0.498116
0.095186 0.307317 0.492164
0.545983 0.349737 0.448035
0.727657 0.352575 0.380804
0.856901 0.366369 0.317479
0.950408 0.364263 0.224521
0.000000 0.405921 0.524041
0.000000 0.410498 0.520653
0.000000 0.420966 0.512383
0.000000 0.397528 0.506004
0.522667 0.413519 0.464790
0.714717 0.414221 0.406531
0.852567 0.410651 0.335088
0.951202 0.390387 0.218296
0.000000 0.469368 0.545281
0.000000 0.472969 0.542382
0.000000 0.484291 0.531853
0.000000 0.485237 0.525719
0.486946 0.486946 0.486946
0.699825 0.484382 0.435218
0.846891 0.467994 0.356634
0.948302 0.441169 0.243137
0.000000 0.539452 0.569055
0.000000 0.542687 0.566888
0.000000 0.553674 0.559167
0.000000 0.571984 0.553246
0.342931 0.584894 0.497017
0.680201 0.564599 0.469276
0.834012 0.545159 0.401923
0.941619 0.510460 0.294408
0.000000 0.628473 0.611597
0.000000 0.631464 0.609827
0.000000 0.641993 0.603082
0.000000 0.660883 0.588434
0.105715 0.676753 0.524865
0.659632 0.664576 0.481392
0.824155 0.628901 0.443854
0.931914 0.590753 0.358953
0.000000 0.739467 0.669947
0.000000 0.741299 0.666987
0.000000 0.747463 0.655268
0.000000 0.757534 0.629908
0.000000 0.773342 0.566644
0.582574 0.764309 0.518395
0.835691 0.737301 0.460334
0.931487 0.679866 0.418006
0.000000 0.369207 0.623377
0.000000 0.375036 0.621241
0.000000 0.394079 0.613581
0.000000 0.366674 0.610407
0.407172 0.323949 0.595422
0.684901 0.380804 0.538872
0.829648 0.410651 0.484627
0.930388 0.430640 0.436988
0.000000 0.383307 0.624201
0.000000 0.388281 0.622126
0.000000 0.405097 0.614801
0.000000 0.377874 0.611963
0.398688 0.332433 0.597375
0.682521 0.391119 0.541558
0.828336 0.418982 0.488075
0.930083 0.435676 0.438788
0.000000 0.417517 0.628290
0.000000 0.421576 0.626551
0.000000 0.435523 0.619745
0.000000 0.413367 0.617182
0.359472 0.358007 0.603906
0.674464 0.424842 0.550317
0.824247 0.446082 0.499001
0.929290 0.451911 0.443977
0.000000 0.458686 0.637659
0.000000 0.462928 0.635706
0.000000 0.477180 0.628901
0.000000 0.466407 0.625788
0.256382 0.406989 0.615198
0.660273 0.476905 0.565515
0.818479 0.487007 0.514977
0.929351 0.475196 0.447059
0.000000 0.510277 0.650904
0.000000 0.513817 0.649165
0.000000 0.525963 0.642817
0.000000 0.528649 0.637964
0.124483 0.503288 0.628626
0.640314 0.538140 0.585290
0.812802 0.535576 0.531609
0.931243 0.502586 0.442298
0.000000 0.570245 0.667445
0.000000 0.573236 0.665827
0.000000 0.583642 0.660121
0.000000 0.595636 0.653346
0.000000 0.597650 0.645716
0.608057 0.607996 0.608026
0.803464 0.597955 0.554253
0.929168 0.553582 0.453315
0.000000 0.643183 0.697353
0.000000 0.646021 0.696193
0.000000 0.655848 0.691920
0.000000 0.673121 0.683558
0.000000 0.694301 0.674861
0.459266 0.703304 0.611444
0.786343 0.676356 0.590234
0.915618 0.640070 0.513725
0.000000 0.737209 0.746853
0.000000 0.739925 0.745846
0.000000 0.749660 0.741665
0.000000 0.767605 0.732601
0.000000 0.790158 0.708339
0.186465 0.798245 0.624201
0.776242 0.775479 0.605035
0.909209 0.725399 0.564691
0.000000 0.434455 0.737667
0.000000 0.438911 0.736416
0.000000 0.454231 0.731930
0.000000 0.471778 0.724849
0.000000 0.398566 0.723781
0.582361 0.440528 0.703395
0.788449 0.501152 0.645258
0.895781 0.559869 0.624262
0.000000 0.443641 0.738247
0.000000 0.447791 0.736995
0.000000 0.461952 0.732662
0.000000 0.478462 0.725734
0.000000 0.408515 0.724605
0.578088 0.446509 0.704585
0.787137 0.507683 0.647303
0.895293 0.564385 0.626337
0.000000 0.468269 0.740871
0.000000 0.471870 0.739712
0.000000 0.484443 0.735622
0.000000 0.500420 0.728878
0.000000 0.442878 0.727535
0.561303 0.465766 0.708522
0.782681 0.529381 0.654200
0.893645 0.579492 0.633234
0.000000 0.501976 0.746487
0.000000 0.505119 0.745357
0.000000 0.515953 0.741604
0.000000 0.535668 0.734157
0.000000 0.494392 0.732784
0.519982 0.492775 0.715816
0.775479 0.562951 0.665492
0.892454 0.599786 0.640925
0.000000 0.545068 0.754574
0.000000 0.547845 0.753597
0.000000 0.557305 0.750149
0.000000 0.572320 0.743862
0.000000 0.555230 0.740597
0.406744 0.520439 0.727901
0.765347 0.605127 0.680446
0.891875 0.625391 0.648676
0.000000 0.596155 0.764797
0.000000 0.598688 0.763943
0.000000 0.607324 0.760891
0.000000 0.621668 0.755306
0.000000 0.624048 0.750729
0.244511 0.603815 0.741390
0.749538 0.657984 0.699611
0.891630 0.658198 0.656458
0.000000 0.652705 0.776638
0.000000 0.654994 0.775967
0.000000 0.663111 0.773312
0.000000 0.677424 0.768704
0.000000 0.694911 0.762570
0.000000 0.701259 0.755581
0.721584 0.721523 0.721553
0.888853 0.705257 0.668360
0.000000 0.723201 0.806790
0.000000 0.725399 0.806394
0.000000 0.733516 0.804746
0.000000 0.748501 0.801450
0.000000 0.772793 0.794919
0.000000 0.805020 0.784726
0.583917 0.809842 0.721889
0.875914 0.779690 0.707546
0.000000 0.486976 0.836698
0.000000 0.490455 0.836057
0.000000 0.502617 0.833738
0.000000 0.524102 0.829465
0.000000 0.511650 0.826780
0.323949 0.481971 0.820981
0.737179 0.589441 0.800748
0.869230 0.638911 0.749630
0.000000 0.492226 0.837095
0.000000 0.495583 0.836454
0.000000 0.507256 0.834195
0.000000 0.528161 0.829953
0.000000 0.517266 0.827176
0.312047 0.485939 0.821622
0.735164 0.593927 0.801297
0.868681 0.642390 0.750942
0.000000 0.507103 0.838804
0.000000 0.510094 0.838193
0.000000 0.520958 0.836027
0.000000 0.540764 0.831876
0.000000 0.536370 0.828672
0.262242 0.499855 0.823941
0.727626 0.608057 0.803311
0.866911 0.653834 0.755459
0.000000 0.527001 0.842435
0.000000 0.529870 0.841855
0.000000 0.540002 0.839750
0.000000 0.558556 0.835782
0.000000 0.567651 0.831418
0.121401 0.527550 0.827848
0.709194 0.622980 0.807614
0.864042 0.672724 0.763058
0.000000 0.562890 0.846983
0.000000 0.564416 0.846555
0.000000 0.569390 0.845060
0.000000 0.576776 0.842283
0.000000 0.603815 0.836057
0.000000 0.572686 0.833127
0.671565 0.639673 0.814481
0.859922 0.698787 0.773861
0.000000 0.607324 0.852811
0.000000 0.608789 0.852415
0.000000 0.613642 0.851102
0.000000 0.621698 0.848661
0.000000 0.633600 0.844511
0.000000 0.629877 0.840024
0.577783 0.653132 0.825406
0.853880 0.732235 0.787961
0.000000 0.657588 0.859861
0.000000 0.659022 0.859556
0.000000 0.663996 0.858457
0.000000 0.673060 0.856352
0.000000 0.687343 0.852750
0.000000 0.703029 0.847562
0.376318 0.699367 0.839017
0.844388 0.773709 0.805356
0.000000 0.711818 0.868193
0.000000 0.713313 0.867948
0.000000 0.718776 0.867033
0.000000 0.729213 0.865293
0.000000 0.745998 0.862333
0.000000 0.772396 0.857267
0.000000 0.791043 0.850950
0.825864 0.825834 0.825864
