其他预设/【212】创意蓝橙调色预设24款/1.3D LUT预设（视频调色-PR-AE-PS-FCPX-达芬奇用）/22.蓝橙色调-深色调__.cube
# Created by Adobe Lightroom plugin Export LUT (1.17.0)
# www.johnrellis.com/lightroom/exportlut.htm
# Preset: 22.蓝橙色调-深色调[素锦印象]
# Color profile: /Library/Application Support/Adobe/Color/Profiles/Recommended/AdobeRGB1998.icc
LUT_3D_SIZE 32
0.088136 0.088136 0.088136
0.088136 0.088136 0.088136
0.097993 0.087007 0.088258
0.141634 0.077974 0.089540
0.185885 0.064424 0.091005
0.229984 0.063203 0.091768
0.273411 0.063020 0.092317
0.316075 0.064607 0.091463
0.358923 0.066621 0.090303
0.402228 0.070527 0.089235
0.445930 0.075654 0.087587
0.489601 0.082673 0.084504
0.533043 0.090425 0.080446
0.576013 0.099001 0.075959
0.617121 0.108156 0.070375
0.654871 0.117708 0.064912
0.689204 0.127047 0.059602
0.720424 0.136110 0.053040
0.749233 0.144015 0.049928
0.776547 0.152773 0.047211
0.802548 0.160250 0.049958
0.827298 0.167819 0.056855
0.850523 0.175143 0.063447
0.872129 0.182376 0.072480
0.892424 0.189242 0.083467
0.911467 0.196902 0.095369
0.929473 0.204501 0.108980
0.946471 0.213077 0.123812
0.962676 0.222324 0.140230
0.978027 0.233036 0.158297
0.992615 0.245182 0.177981
1.000000 0.259953 0.200595
0.088136 0.088136 0.088136
0.088136 0.088136 0.088136
0.096468 0.086976 0.088289
0.140414 0.078370 0.089540
0.184665 0.072114 0.091188
0.228672 0.071748 0.092226
0.272465 0.071534 0.092195
0.315068 0.071839 0.091981
0.358160 0.074708 0.090486
0.401556 0.078462 0.089082
0.445258 0.083131 0.087160
0.489052 0.089143 0.084382
0.532494 0.096620 0.080293
0.575494 0.104097 0.075868
0.616724 0.113130 0.070161
0.654475 0.122255 0.064698
0.688869 0.131167 0.059388
0.720180 0.138949 0.053773
0.749020 0.147280 0.048737
0.776333 0.155673 0.046906
0.802426 0.162783 0.048859
0.827176 0.170077 0.055848
0.850431 0.176852 0.063905
0.872068 0.183963 0.072847
0.892363 0.191012 0.083101
0.911406 0.198215 0.095644
0.929412 0.206027 0.108949
0.946410 0.214267 0.123842
0.962615 0.223362 0.140078
0.977996 0.234012 0.158297
0.992584 0.246189 0.178103
1.000000 0.260807 0.200504
0.088136 0.088136 0.088136
0.088136 0.088136 0.088136
0.094514 0.087343 0.088319
0.138643 0.080385 0.089784
0.182895 0.081666 0.090913
0.227420 0.081605 0.091920
0.270939 0.081392 0.092500
0.313817 0.082368 0.091432
0.357153 0.083375 0.090547
0.400458 0.087251 0.089174
0.444312 0.091951 0.087190
0.488167 0.097353 0.084108
0.531670 0.103944 0.080354
0.574762 0.111757 0.075105
0.616022 0.119905 0.069764
0.653986 0.127687 0.063874
0.688441 0.136324 0.058442
0.719753 0.144106 0.052003
0.748653 0.151461 0.048035
0.776028 0.159091 0.046296
0.802213 0.166079 0.049104
0.826963 0.172915 0.056214
0.850248 0.180087 0.063050
0.871977 0.186374 0.072297
0.892241 0.193210 0.083284
0.911315 0.200412 0.095247
0.929320 0.207858 0.109102
0.946349 0.216037 0.123964
0.962585 0.225101 0.140169
0.977935 0.235477 0.158267
0.992523 0.247471 0.178347
1.000000 0.261997 0.200778
0.088045 0.088777 0.088106
0.088380 0.091096 0.088167
0.090822 0.094453 0.088380
0.134676 0.097261 0.089693
0.179355 0.098787 0.091676
0.224063 0.099031 0.092134
0.267857 0.099092 0.092714
0.311315 0.099519 0.091402
0.354620 0.100923 0.090242
0.398444 0.104128 0.088838
0.442420 0.107576 0.086885
0.486488 0.112551 0.084047
0.530053 0.118654 0.079591
0.573175 0.125521 0.074647
0.614832 0.131807 0.068910
0.652888 0.139345 0.063264
0.687465 0.146090 0.058503
0.719020 0.152987 0.051240
0.747951 0.159945 0.046235
0.775448 0.166476 0.044434
0.801724 0.172915 0.047730
0.826566 0.179232 0.054078
0.849912 0.185550 0.062501
0.871672 0.191714 0.071809
0.892027 0.197910 0.083223
0.911131 0.204776 0.095216
0.929137 0.211704 0.109102
0.946227 0.219669 0.123781
0.962432 0.228275 0.140536
0.977874 0.238376 0.158480
0.992462 0.250187 0.178500
1.000000 0.264347 0.201175
0.087312 0.108186 0.088563
0.087190 0.110567 0.088594
0.086793 0.114290 0.088502
0.124422 0.116854 0.090059
0.170962 0.118624 0.092042
0.218601 0.119997 0.092866
0.263218 0.120577 0.092592
0.307134 0.121096 0.091554
0.351110 0.122377 0.090394
0.394995 0.124819 0.088746
0.439338 0.128237 0.086183
0.483650 0.132387 0.083284
0.527489 0.137453 0.078798
0.570855 0.143252 0.073426
0.612696 0.148989 0.067506
0.651118 0.155032 0.061707
0.686030 0.160647 0.055573
0.717678 0.166506 0.048432
0.746914 0.172061 0.043824
0.774594 0.177401 0.042329
0.800961 0.183047 0.046052
0.825956 0.188479 0.053559
0.849363 0.193912 0.062348
0.871244 0.199802 0.071626
0.891630 0.205447 0.082826
0.910826 0.211307 0.095247
0.928893 0.218082 0.108919
0.946014 0.225132 0.124086
0.962249 0.233463 0.140322
0.977691 0.243107 0.158572
0.992340 0.254368 0.178744
1.000000 0.268193 0.201389
0.085145 0.127169 0.094118
0.085847 0.128695 0.092317
0.085908 0.130678 0.089631
0.110445 0.133303 0.089937
0.156649 0.135134 0.091890
0.207248 0.140291 0.093568
0.256870 0.143191 0.093019
0.301518 0.144076 0.092226
0.345861 0.145510 0.090517
0.390509 0.147463 0.088319
0.435187 0.150912 0.085389
0.479866 0.154543 0.082124
0.523888 0.159060 0.077852
0.567773 0.163516 0.072450
0.610071 0.168185 0.066438
0.648890 0.173129 0.060517
0.684047 0.178103 0.052399
0.715999 0.182376 0.045197
0.745418 0.186923 0.040314
0.773312 0.191104 0.040162
0.799893 0.195926 0.041810
0.825071 0.200351 0.050568
0.848661 0.204837 0.061311
0.870634 0.209628 0.071290
0.891142 0.214786 0.082246
0.910399 0.219883 0.095094
0.928527 0.225986 0.109041
0.945708 0.232425 0.124239
0.962005 0.240177 0.140658
0.977508 0.249241 0.159152
0.992157 0.260105 0.179263
1.000000 0.273228 0.202060
0.081392 0.143557 0.104524
0.081880 0.144747 0.102724
0.082185 0.146609 0.100832
0.095827 0.149783 0.095338
0.143618 0.151583 0.092348
0.190646 0.155886 0.093233
0.243656 0.163058 0.094087
0.294499 0.167361 0.092622
0.339574 0.168826 0.090639
0.384985 0.171084 0.087770
0.430060 0.174258 0.084871
0.475166 0.177401 0.081270
0.519677 0.181521 0.076570
0.564019 0.185428 0.070985
0.606806 0.189670 0.064698
0.646052 0.193240 0.058747
0.681636 0.196963 0.048402
0.713893 0.200290 0.041169
0.743587 0.203647 0.035554
0.771786 0.206943 0.034455
0.798611 0.210636 0.038636
0.824033 0.214145 0.047578
0.847776 0.217868 0.060212
0.869871 0.221836 0.070527
0.890532 0.225772 0.082368
0.909850 0.230320 0.094972
0.928099 0.235447 0.109255
0.945312 0.241489 0.124453
0.961700 0.248356 0.141207
0.977234 0.256748 0.159670
0.991943 0.266850 0.179751
1.000000 0.279515 0.202731
0.075929 0.160433 0.115785
0.076295 0.161776 0.114382
0.076661 0.163272 0.112734
0.079835 0.166629 0.108553
0.131319 0.168917 0.103273
0.177127 0.171511 0.096712
0.226841 0.178500 0.093874
0.280400 0.186648 0.093812
0.332158 0.192081 0.090517
0.378210 0.194522 0.087312
0.424109 0.197360 0.083742
0.469673 0.200656 0.080049
0.514885 0.204257 0.074830
0.559564 0.207828 0.069062
0.602960 0.211307 0.062440
0.642725 0.214420 0.053681
0.678859 0.217075 0.044404
0.711452 0.219486 0.035859
0.741512 0.221958 0.029389
0.770016 0.224460 0.028443
0.797086 0.226810 0.034424
0.822721 0.229557 0.045930
0.846708 0.232486 0.057954
0.869017 0.235264 0.069398
0.889769 0.238468 0.081544
0.909239 0.242313 0.094636
0.927550 0.246677 0.108827
0.944884 0.251835 0.124880
0.961303 0.258030 0.141329
0.976928 0.265660 0.159976
0.991669 0.275029 0.180514
1.000000 0.287144 0.203586
0.067109 0.179232 0.128176
0.067567 0.180270 0.126955
0.067933 0.181582 0.125704
0.068696 0.184543 0.122469
0.113893 0.188418 0.113893
0.166110 0.190585 0.109438
0.212863 0.194308 0.101778
0.264378 0.202823 0.092409
0.318212 0.211246 0.090852
0.370733 0.217319 0.087221
0.417365 0.220523 0.082887
0.463600 0.223758 0.078401
0.509483 0.227024 0.073365
0.554559 0.230533 0.066590
0.598413 0.233799 0.060060
0.638819 0.236576 0.048920
0.675532 0.238285 0.037293
0.708614 0.239994 0.028840
0.739071 0.241306 0.025147
0.767910 0.242893 0.024628
0.795315 0.244663 0.027405
0.821256 0.246128 0.040803
0.845457 0.248264 0.056001
0.867948 0.250278 0.068971
0.888853 0.252750 0.080720
0.908476 0.255711 0.094545
0.926940 0.259190 0.109102
0.944366 0.263432 0.124849
0.960845 0.268925 0.142306
0.976562 0.275731 0.160861
0.991363 0.284398 0.181338
1.000000 0.295659 0.204654
0.050599 0.199100 0.141360
0.049439 0.200198 0.140261
0.051057 0.201328 0.139284
0.051667 0.204105 0.136294
0.095033 0.208133 0.128054
0.151797 0.210910 0.119539
0.202487 0.213687 0.113466
0.251133 0.219028 0.103883
0.303319 0.227726 0.090333
0.357153 0.236179 0.086366
0.410040 0.243137 0.082124
0.456886 0.246403 0.077516
0.503258 0.250095 0.071473
0.548913 0.253239 0.064912
0.593408 0.256352 0.055909
0.634638 0.258610 0.041108
0.671901 0.260044 0.027558
0.705409 0.260777 0.020813
0.736202 0.261692 0.017212
0.765438 0.262211 0.018463
0.793301 0.263127 0.023774
0.819486 0.264225 0.033967
0.844053 0.265049 0.053101
0.866728 0.266331 0.066987
0.887877 0.268101 0.080140
0.907622 0.270115 0.094514
0.926207 0.272587 0.109651
0.943755 0.276219 0.125368
0.960357 0.280858 0.142641
0.976104 0.286961 0.161624
0.990997 0.294865 0.182284
1.000000 0.305272 0.205722
0.007263 0.219974 0.155032
0.006653 0.220920 0.154330
0.008118 0.222049 0.152865
0.009613 0.224399 0.150790
0.072145 0.228641 0.143771
0.128084 0.233066 0.127565
0.190036 0.235050 0.124514
0.240146 0.237919 0.116518
0.290837 0.244205 0.103578
0.343267 0.253025 0.089540
0.396643 0.261875 0.080446
0.449836 0.269017 0.076173
0.496651 0.272709 0.069978
0.542901 0.275883 0.062531
0.588067 0.278813 0.050446
0.629786 0.281132 0.033387
0.667750 0.281865 0.021210
0.701717 0.282261 0.013458
0.733059 0.282322 0.009308
0.762814 0.282444 0.010529
0.791043 0.282444 0.016480
0.817563 0.282597 0.028473
0.842405 0.282872 0.050050
0.865354 0.283391 0.066468
0.886717 0.284215 0.079622
0.906676 0.285405 0.093965
0.925383 0.287297 0.109499
0.943053 0.290074 0.125521
0.959777 0.293828 0.143526
0.975647 0.299016 0.162722
0.990600 0.306157 0.183505
1.000000 0.315892 0.207309
0.000000 0.241733 0.169100
0.000000 0.242466 0.168368
0.000000 0.243565 0.167300
0.000000 0.245975 0.165286
0.014710 0.249699 0.159976
0.101350 0.254856 0.142824
0.171115 0.257633 0.132570
0.228855 0.259892 0.127138
0.279118 0.262760 0.117861
0.331426 0.270024 0.101930
0.383612 0.278538 0.086976
0.436439 0.287663 0.073121
0.489754 0.294774 0.068452
0.536461 0.298314 0.060609
0.582116 0.301457 0.044068
0.624628 0.303441 0.025696
0.663233 0.304265 0.011872
0.697841 0.303838 0.005859
0.729610 0.303288 0.002228
0.759884 0.302800 0.003784
0.788510 0.302312 0.010040
0.815427 0.301915 0.023499
0.840574 0.301518 0.044434
0.863828 0.301213 0.064698
0.885435 0.301244 0.079011
0.905547 0.301701 0.093935
0.924468 0.302708 0.109834
0.942260 0.304692 0.126467
0.959136 0.307683 0.144259
0.975067 0.312169 0.163699
0.990143 0.318486 0.184970
1.000000 0.327337 0.208927
0.000000 0.263828 0.183291
0.000000 0.264561 0.182956
0.000000 0.265507 0.182010
0.000000 0.267552 0.179934
0.000000 0.271000 0.175723
0.068788 0.276402 0.161410
0.139925 0.280919 0.138979
0.212924 0.282353 0.137484
0.268406 0.284916 0.128634
0.319402 0.288609 0.116762
0.372229 0.295903 0.098756
0.424018 0.304265 0.083619
0.476326 0.313390 0.063600
0.529503 0.320745 0.056123
0.575799 0.323796 0.038788
0.619104 0.325872 0.017609
0.658320 0.326513 0.003693
0.693538 0.325628 0.000000
0.725887 0.324743 0.000000
0.756680 0.323583 0.000000
0.785794 0.322515 0.004517
0.813107 0.321447 0.018494
0.838590 0.320592 0.040955
0.862181 0.319554 0.063142
0.884031 0.318944 0.078004
0.904387 0.318608 0.094087
0.923461 0.318944 0.110109
0.941436 0.320073 0.127199
0.958404 0.322301 0.145449
0.974487 0.325994 0.164920
0.989624 0.331548 0.186465
1.000000 0.339635 0.210758
0.000000 0.286351 0.197787
0.000000 0.287053 0.197391
0.000000 0.287877 0.196414
0.000000 0.289677 0.195071
0.000000 0.292576 0.191592
0.000000 0.298192 0.179507
0.103609 0.303746 0.155520
0.188754 0.305943 0.143954
0.254002 0.307713 0.139528
0.308568 0.310246 0.129030
0.360418 0.314763 0.114687
0.412787 0.321569 0.097078
0.464240 0.329870 0.080201
0.516167 0.338872 0.047089
0.568414 0.345800 0.030030
0.613153 0.348211 0.010468
0.653071 0.348547 0.000000
0.688869 0.347814 0.000000
0.721859 0.346319 0.000000
0.753231 0.344823 0.000000
0.782834 0.343145 0.000000
0.810605 0.341588 0.009674
0.836423 0.340093 0.034974
0.860380 0.338445 0.061860
0.882506 0.337041 0.078004
0.903075 0.336065 0.094026
0.922362 0.335729 0.110597
0.940520 0.336065 0.128145
0.957641 0.337743 0.146487
0.973816 0.340642 0.166445
0.989075 0.345403 0.188174
1.000000 0.352636 0.212863
0.000000 0.308965 0.212375
0.000000 0.309514 0.211887
0.000000 0.310277 0.211215
0.000000 0.312078 0.209476
0.000000 0.314855 0.206882
0.000000 0.319951 0.196994
0.054902 0.325872 0.176638
0.150668 0.330114 0.149050
0.234440 0.331151 0.149020
0.295476 0.333196 0.140414
0.349035 0.335576 0.128878
0.401312 0.340520 0.112428
0.452949 0.347234 0.095338
0.504326 0.355566 0.074739
0.555718 0.364111 0.015656
0.605829 0.370031 0.001740
0.647364 0.370825 0.000000
0.683894 0.369818 0.000000
0.717525 0.368078 0.000000
0.749477 0.366217 0.000000
0.779629 0.364172 0.000000
0.807889 0.361944 0.005005
0.834165 0.359930 0.029725
0.858427 0.357733 0.059663
0.880858 0.355688 0.076570
0.901701 0.354070 0.093568
0.921172 0.353033 0.111086
0.939483 0.352697 0.129030
0.956756 0.353552 0.147982
0.973114 0.355779 0.168063
0.988464 0.359716 0.190219
1.000000 0.366308 0.214969
0.000000 0.331823 0.227207
0.000000 0.332525 0.226505
0.000000 0.333074 0.225772
0.000000 0.334783 0.224460
0.000000 0.337163 0.222080
0.000000 0.341772 0.214420
0.000000 0.347814 0.196872
0.104616 0.353368 0.167086
0.205783 0.355169 0.154971
0.278202 0.356420 0.152010
0.336675 0.358618 0.141146
0.389502 0.361151 0.128450
0.441718 0.366217 0.110170
0.493111 0.372961 0.092988
0.543938 0.380774 0.067964
0.593866 0.388708 0.000000
0.640162 0.392401 0.000000
0.678584 0.391852 0.000000
0.712978 0.389929 0.000000
0.745480 0.387762 0.000000
0.776211 0.385382 0.000000
0.804959 0.382788 0.000000
0.831693 0.380133 0.025177
0.856352 0.377386 0.057679
0.879057 0.374884 0.076600
0.900175 0.372595 0.094087
0.919890 0.370855 0.111910
0.938415 0.369909 0.130220
0.955840 0.370031 0.149569
0.972320 0.371527 0.170077
0.987793 0.374792 0.192233
1.000000 0.380560 0.217746
0.000000 0.354742 0.241794
0.000000 0.355230 0.241306
0.000000 0.355932 0.240696
0.000000 0.357488 0.239292
0.000000 0.359716 0.236942
0.000000 0.363684 0.231418
0.000000 0.369726 0.216770
0.024079 0.375494 0.191135
0.161715 0.379461 0.160616
0.255070 0.380072 0.161379
0.320958 0.381598 0.154238
0.377569 0.383642 0.142641
0.429938 0.386572 0.128084
0.481941 0.391852 0.107820
0.532769 0.398230 0.089693
0.582544 0.405402 0.059785
0.629175 0.411322 0.000000
0.671717 0.413275 0.000000
0.708034 0.411780 0.000000
0.741268 0.409369 0.000000
0.772580 0.406653 0.000000
0.801846 0.403723 0.000000
0.829038 0.400610 0.021241
0.854063 0.397406 0.056092
0.877165 0.394263 0.076265
0.898528 0.391424 0.094331
0.918517 0.389044 0.112520
0.937224 0.387518 0.131746
0.954864 0.386969 0.151003
0.971466 0.387732 0.172030
0.987091 0.390295 0.194675
1.000000 0.395392 0.220554
0.000000 0.377661 0.256687
0.000000 0.378210 0.256199
0.000000 0.378851 0.255650
0.000000 0.380224 0.254124
0.000000 0.382422 0.251896
0.000000 0.385534 0.248295
0.000000 0.391455 0.235721
0.000000 0.397406 0.213809
0.110140 0.402777 0.179629
0.223453 0.404120 0.168338
0.301671 0.404913 0.167391
0.363104 0.406744 0.156741
0.418372 0.408820 0.143893
0.470680 0.412207 0.127199
0.522515 0.417487 0.105043
0.572534 0.423774 0.085420
0.619776 0.429297 0.045991
0.662806 0.432990 0.000000
0.701991 0.433173 0.000000
0.736812 0.431189 0.000000
0.768704 0.428290 0.000000
0.798550 0.424933 0.000000
0.826230 0.421332 0.015686
0.851713 0.417700 0.053285
0.875120 0.414038 0.076112
0.896788 0.410712 0.095460
0.917021 0.407752 0.114260
0.935973 0.405493 0.133211
0.953796 0.404303 0.153262
0.970581 0.404456 0.174319
0.986358 0.406287 0.197726
1.000000 0.410742 0.223606
0.000000 0.401190 0.271489
0.000000 0.401709 0.271366
0.000000 0.402228 0.270695
0.000000 0.403662 0.269322
0.000000 0.405646 0.267338
0.000000 0.408484 0.264561
0.000000 0.413886 0.254276
0.000000 0.419898 0.235843
0.012055 0.425635 0.206516
0.176211 0.429297 0.175051
0.276524 0.429633 0.176120
0.346380 0.430976 0.170474
0.405951 0.432898 0.158389
0.460212 0.435065 0.144503
0.512596 0.438972 0.125063
0.564263 0.444068 0.100191
0.611810 0.448768 0.080323
0.655451 0.452003 0.028077
0.695155 0.453834 0.000000
0.731655 0.452674 0.000000
0.764645 0.449928 0.000000
0.795010 0.446357 0.000000
0.823239 0.442390 0.012604
0.849149 0.438300 0.053285
0.872953 0.434119 0.076753
0.894987 0.430121 0.096010
0.915465 0.426612 0.115541
0.934630 0.423835 0.134951
0.952667 0.422065 0.155459
0.969635 0.421546 0.176913
0.985534 0.422797 0.200778
1.000000 0.426551 0.227146
0.000000 0.425788 0.287144
0.000000 0.426215 0.286748
0.000000 0.426856 0.286198
0.000000 0.428107 0.284977
0.000000 0.430152 0.283177
0.000000 0.432715 0.280369
0.000000 0.437263 0.273075
0.000000 0.443427 0.257023
0.000000 0.449470 0.231815
0.119661 0.454597 0.194308
0.242252 0.455879 0.183474
0.326268 0.456641 0.183810
0.391394 0.458320 0.173129
0.449561 0.460304 0.159915
0.503380 0.462654 0.144076
0.555901 0.466682 0.121920
0.605280 0.470375 0.096864
0.649409 0.472847 0.075959
0.689693 0.473915 0.012421
0.726680 0.474220 0.000000
0.760525 0.471565 0.000000
0.791287 0.467964 0.000000
0.820035 0.463661 0.008850
0.846433 0.459174 0.051118
0.870665 0.454505 0.076875
0.893004 0.449958 0.097414
0.913787 0.445960 0.117281
0.933227 0.442573 0.137270
0.951476 0.440131 0.157992
0.968597 0.439033 0.179934
0.984680 0.439673 0.204013
0.999573 0.442786 0.230900
0.000000 0.451606 0.303288
0.000000 0.452033 0.302861
0.000000 0.452552 0.302342
0.000000 0.453834 0.301122
0.000000 0.455848 0.299351
0.000000 0.458350 0.296727
0.000000 0.461860 0.292058
0.000000 0.468086 0.278080
0.000000 0.474342 0.256046
0.000000 0.480018 0.223941
0.192691 0.483558 0.190585
0.299474 0.483864 0.191867
0.374304 0.485115 0.187778
0.437171 0.486885 0.175021
0.494423 0.488960 0.160830
0.548211 0.491615 0.142214
0.599054 0.494362 0.117983
0.644678 0.495583 0.094789
0.685389 0.495735 0.071473
0.722896 0.495308 0.000000
0.757229 0.493904 0.000000
0.788327 0.489815 0.000000
0.816678 0.485115 0.005493
0.843565 0.480171 0.052674
0.868254 0.475044 0.078157
0.890959 0.470100 0.098634
0.912047 0.465522 0.118898
0.931731 0.461555 0.139620
0.950195 0.458625 0.160678
0.967529 0.456916 0.183230
0.983764 0.456977 0.207523
0.998779 0.459480 0.235142
0.000000 0.478828 0.319799
0.000000 0.479255 0.319615
0.000000 0.479683 0.319066
0.000000 0.480964 0.317998
0.000000 0.482765 0.316289
0.000000 0.485298 0.313725
0.000000 0.488441 0.310491
0.000000 0.494087 0.299077
0.000000 0.500389 0.279454
0.000000 0.506432 0.251164
0.128054 0.511681 0.210697
0.262760 0.512902 0.199863
0.353155 0.513512 0.200107
0.422614 0.514977 0.190341
0.484047 0.516838 0.176486
0.540795 0.519097 0.160372
0.593194 0.520653 0.139742
0.640406 0.520562 0.115267
0.682155 0.519463 0.093935
0.720211 0.517937 0.068055
0.755093 0.515953 0.000000
0.786679 0.512688 0.000000
0.814939 0.507286 0.000000
0.840574 0.501457 0.054200
0.865690 0.495888 0.079500
0.888762 0.490517 0.100160
0.910185 0.485359 0.121157
0.930144 0.480842 0.142336
0.948882 0.477394 0.163546
0.966400 0.475135 0.186496
0.982788 0.474586 0.211551
0.997955 0.476539 0.239872
0.000000 0.507439 0.337438
0.000000 0.507897 0.337041
0.000000 0.508446 0.336492
0.000000 0.509545 0.335271
0.000000 0.511376 0.333776
0.000000 0.513787 0.331304
0.000000 0.516899 0.328069
0.000000 0.521386 0.320195
0.000000 0.527977 0.303136
0.000000 0.534325 0.277714
0.000000 0.540124 0.241581
0.210086 0.543481 0.207767
0.324132 0.543786 0.208621
0.405066 0.544640 0.205936
0.471565 0.546075 0.192905
0.531731 0.547723 0.177829
0.587488 0.549310 0.160128
0.636286 0.548119 0.137972
0.679744 0.545434 0.113436
0.718532 0.542596 0.093690
0.753872 0.539483 0.066102
0.785946 0.535851 0.000000
0.814694 0.530694 0.000000
0.840024 0.524010 0.046815
0.862974 0.517052 0.081086
0.886473 0.511131 0.102663
0.908232 0.505577 0.124147
0.928496 0.500603 0.144991
0.947448 0.496498 0.167330
0.965209 0.493660 0.190433
0.981781 0.492592 0.216190
0.997101 0.493965 0.244877
0.000000 0.537865 0.355444
0.000000 0.538262 0.355077
0.000000 0.538750 0.354528
0.000000 0.539879 0.353521
0.000000 0.541619 0.351812
0.000000 0.543969 0.349432
0.000000 0.547051 0.346441
0.000000 0.550469 0.342260
0.000000 0.557061 0.326635
0.000000 0.563592 0.303990
0.000000 0.569665 0.271702
0.138888 0.574578 0.227359
0.285252 0.575158 0.217716
0.381781 0.575189 0.217807
0.455818 0.575860 0.209659
0.520134 0.576928 0.195468
0.579004 0.577905 0.179232
0.632746 0.578332 0.160250
0.677455 0.574060 0.137606
0.717800 0.569421 0.112306
0.753658 0.564935 0.093996
0.786130 0.560143 0.065827
0.815274 0.554803 0.000000
0.841032 0.547692 0.030671
0.863615 0.539818 0.081971
0.884031 0.532067 0.105806
0.906157 0.525963 0.126741
0.926757 0.520439 0.148470
0.945953 0.515831 0.170932
0.963928 0.512474 0.194675
0.980713 0.510826 0.220981
0.996185 0.511742 0.250370
0.000000 0.569940 0.374273
0.000000 0.570306 0.374060
0.000000 0.570794 0.373541
0.000000 0.571801 0.372412
0.000000 0.573510 0.370642
0.000000 0.575769 0.368200
0.000000 0.578576 0.365148
0.000000 0.582025 0.361395
0.000000 0.587182 0.350378
0.000000 0.593469 0.329778
0.000000 0.599481 0.300908
0.000000 0.604578 0.261357
0.230137 0.607019 0.226871
0.350835 0.606378 0.228367
0.436500 0.606134 0.227634
0.505882 0.606531 0.214084
0.568200 0.607050 0.198703
0.625574 0.607660 0.181308
0.675715 0.605249 0.160891
0.717250 0.599054 0.138277
0.754574 0.592584 0.112398
0.787289 0.586358 0.096712
0.816770 0.579767 0.068116
0.842863 0.572473 0.014099
0.865721 0.563867 0.080537
0.885954 0.555200 0.109163
0.904082 0.546654 0.130526
0.924895 0.540581 0.152316
0.944396 0.535515 0.175113
0.962585 0.531640 0.199649
0.979583 0.529473 0.225956
0.995209 0.529839 0.256413
0.000000 0.602655 0.393317
0.000000 0.602899 0.392889
0.000000 0.603418 0.392218
0.000000 0.604425 0.391272
0.000000 0.605951 0.389441
0.000000 0.608087 0.386999
0.000000 0.610620 0.383734
0.000000 0.613794 0.379919
0.000000 0.617578 0.373816
0.000000 0.623621 0.355016
0.000000 0.629511 0.328801
0.000000 0.634638 0.293736
0.155550 0.638483 0.247684
0.310430 0.638025 0.239506
0.410986 0.637079 0.240146
0.488716 0.636713 0.233616
0.555169 0.636713 0.219089
0.615625 0.636774 0.202762
0.671717 0.637018 0.183902
0.717311 0.631312 0.163119
0.755642 0.623102 0.140047
0.789609 0.614771 0.116915
0.819181 0.606653 0.100923
0.845487 0.598291 0.073884
0.868681 0.589044 0.080690
0.888975 0.579461 0.112642
0.907103 0.570245 0.137392
0.923461 0.561364 0.157656
0.942748 0.555505 0.179782
0.961212 0.551019 0.204776
0.978424 0.548425 0.231907
0.994202 0.548333 0.262821
0.000000 0.635492 0.411841
0.000000 0.635859 0.411475
0.000000 0.636255 0.410742
0.000000 0.637140 0.409644
0.000000 0.638544 0.407843
0.000000 0.640467 0.405432
0.000000 0.642908 0.402197
0.000000 0.645777 0.398047
0.000000 0.649256 0.393225
0.000000 0.654047 0.379706
0.000000 0.659693 0.355871
0.000000 0.664698 0.323949
0.013764 0.668727 0.283116
0.254887 0.670069 0.251621
0.379370 0.668574 0.253269
0.468269 0.667475 0.252903
0.540002 0.667079 0.240787
0.603998 0.666743 0.225193
0.662837 0.666560 0.207828
0.717769 0.666438 0.187686
0.757473 0.656367 0.166751
0.792325 0.645991 0.144137
0.822660 0.635676 0.123995
0.849027 0.625666 0.107546
0.872496 0.615686 0.082643
0.892912 0.605035 0.116701
0.911040 0.594812 0.143832
0.927306 0.585290 0.167147
0.942016 0.576349 0.186618
0.959747 0.570825 0.210422
0.977173 0.567651 0.238132
0.993133 0.567102 0.269993
0.000000 0.668513 0.429786
0.000000 0.668788 0.429389
0.000000 0.669154 0.428931
0.000000 0.669947 0.427832
0.000000 0.671260 0.425971
0.000000 0.673060 0.423224
0.000000 0.675288 0.420172
0.000000 0.677943 0.416022
0.000000 0.681117 0.410956
0.000000 0.684810 0.404059
0.000000 0.690211 0.382238
0.000000 0.695247 0.353063
0.000000 0.699428 0.316747
0.182986 0.702235 0.273198
0.339178 0.700862 0.267674
0.442512 0.699245 0.268254
