其他预设/【212】创意蓝橙调色预设24款/1.3D LUT预设（视频调色-PR-AE-PS-FCPX-达芬奇用）/24.蓝橙色调-深色调__.cube
# Created by Adobe Lightroom plugin Export LUT (1.17.0)
# www.johnrellis.com/lightroom/exportlut.htm
# Preset: 24.蓝橙色调-深色调[素锦印象]
# Color profile: /Library/Application Support/Adobe/Color/Profiles/Recommended/AdobeRGB1998.icc
LUT_3D_SIZE 8
DOMAIN_MIN 0.000000 0.000000 0.000000
DOMAIN_MAX 0.903226 0.903226 0.903226
0.128420 0.128420 0.128420
0.167575 0.128328 0.129183
0.255772 0.134981 0.128206
0.394324 0.151553 0.120333
0.570092 0.183474 0.096834
0.724697 0.217136 0.045411
0.858122 0.243656 0.000000
0.976776 0.263066 0.000000
0.127291 0.142397 0.131319
0.166537 0.145693 0.129488
0.255283 0.151583 0.127932
0.393805 0.170443 0.119173
0.569665 0.202701 0.094545
0.724544 0.233219 0.035584
0.858122 0.257115 0.000000
0.976867 0.274296 0.000000
0.127352 0.177646 0.146304
0.157321 0.180240 0.143374
0.249912 0.193210 0.136446
0.392828 0.220676 0.117952
0.568505 0.255650 0.087129
0.723964 0.281407 0.000275
0.858122 0.299138 0.000000
0.977173 0.311040 0.000000
0.123354 0.231662 0.168673
0.146792 0.235386 0.159945
0.240665 0.242588 0.154971
0.388556 0.276402 0.138125
0.569024 0.317723 0.096529
0.723659 0.347753 0.000000
0.858488 0.360784 0.000000
0.977905 0.367041 0.000000
0.096651 0.308385 0.199374
0.123262 0.312902 0.188815
0.237491 0.321996 0.171756
0.377050 0.339055 0.157900
0.563745 0.385809 0.125490
0.725032 0.413184 0.054414
0.859495 0.431250 0.000000
0.979156 0.435096 0.000000
0.000000 0.413123 0.243717
0.015686 0.417914 0.231998
0.202792 0.430274 0.185489
0.388342 0.442878 0.178714
0.564965 0.470069 0.146517
0.728603 0.492226 0.109865
0.861357 0.501732 0.000000
0.981018 0.510643 0.000000
0.000000 0.557000 0.307042
0.000000 0.561242 0.293828
0.094331 0.574456 0.228092
0.390753 0.583429 0.205783
0.588190 0.594720 0.182071
0.753262 0.598688 0.140841
0.875212 0.590326 0.121065
0.982971 0.585718 0.058656
0.000000 0.718563 0.381262
0.000000 0.721645 0.367834
0.000000 0.730983 0.311467
0.362341 0.737118 0.258854
0.604273 0.740169 0.255039
0.797360 0.745510 0.224125
0.919554 0.714351 0.198917
1.000000 0.685359 0.195346
0.121645 0.138674 0.155276
0.158450 0.141817 0.153201
0.248112 0.148653 0.142184
0.385229 0.173281 0.130190
0.562432 0.214359 0.097566
0.720394 0.245884 0.029786
0.856138 0.265385 0.000000
0.976104 0.277531 0.000000
0.119112 0.154788 0.160037
0.157687 0.157687 0.157687
0.246220 0.163638 0.148714
0.385687 0.185092 0.132601
0.562737 0.225254 0.099641
0.720363 0.258701 0.021088
0.856199 0.276829 0.000000
0.976196 0.287907 0.000000
0.122713 0.187808 0.168521
0.152956 0.192752 0.167453
0.244327 0.200687 0.161501
0.386694 0.223239 0.142275
0.563989 0.260899 0.107149
0.720638 0.297185 0.004456
0.856443 0.314397 0.000000
0.976654 0.322057 0.000000
0.116732 0.241642 0.189761
0.141421 0.246464 0.184543
0.239811 0.253483 0.174411
0.385138 0.280491 0.160281
0.565393 0.318273 0.124453
0.721981 0.347448 0.057038
0.857115 0.371496 0.000000
0.977508 0.375250 0.000000
0.083436 0.318791 0.220981
0.112886 0.323278 0.212406
0.227481 0.332982 0.187625
0.376928 0.346868 0.176364
0.561730 0.388647 0.149691
0.723201 0.414069 0.099550
0.858824 0.431525 0.000000
0.978882 0.441199 0.000000
0.000000 0.422217 0.265110
0.000000 0.426856 0.255222
0.174044 0.440528 0.200778
0.384619 0.451789 0.196994
0.564355 0.475410 0.167483
0.727260 0.494728 0.139528
0.860502 0.503319 0.082948
0.980835 0.511864 0.000000
0.000000 0.563531 0.327642
0.000000 0.567803 0.316075
0.047059 0.580682 0.260349
0.378882 0.590082 0.224125
0.585016 0.600427 0.204532
0.752163 0.602441 0.166995
0.874174 0.592859 0.153109
0.982574 0.587884 0.109743
0.000000 0.721736 0.399603
0.000000 0.724819 0.387732
0.000000 0.734157 0.336614
0.342718 0.741176 0.276799
0.597436 0.743465 0.276921
0.793606 0.748470 0.247898
0.918303 0.717433 0.222385
1.000000 0.688228 0.220035
0.093355 0.170596 0.215457
0.111055 0.171511 0.215305
0.227420 0.174350 0.211460
0.374914 0.162722 0.181094
0.554711 0.199710 0.158724
0.714656 0.246128 0.126558
0.853025 0.286748 0.045228
0.975006 0.312200 0.000000
0.091371 0.186984 0.219028
0.119173 0.186160 0.219730
0.226444 0.187839 0.214694
0.373205 0.181369 0.187045
0.553704 0.214328 0.164096
0.714778 0.256321 0.129366
0.853269 0.295109 0.052644
0.975158 0.320989 0.000000
0.082704 0.220066 0.231327
0.114015 0.221378 0.231174
0.223728 0.223728 0.223728
0.370611 0.230991 0.204196
0.553002 0.257816 0.176120
0.715389 0.291173 0.137636
0.853941 0.323400 0.070069
0.975708 0.350347 0.000000
0.067872 0.266728 0.246342
0.097658 0.272740 0.247227
0.202304 0.284459 0.233585
0.371160 0.296178 0.225345
0.553613 0.322271 0.196078
0.716121 0.346899 0.155612
0.855070 0.370642 0.096132
0.976898 0.393133 0.000000
0.000000 0.343359 0.279515
0.000000 0.349859 0.277745
0.173037 0.365240 0.256901
0.368841 0.374731 0.237644
0.552178 0.400092 0.221805
0.716732 0.419532 0.187076
0.856382 0.433936 0.133272
0.978546 0.448127 0.000000
0.000000 0.446204 0.326421
0.000000 0.452369 0.322301
0.114199 0.468238 0.294713
0.358526 0.480171 0.259983
0.558740 0.494881 0.236667
0.721187 0.505241 0.222416
0.857176 0.510826 0.187076
0.980163 0.516289 0.119020
0.000000 0.582818 0.390143
0.000000 0.587274 0.383124
0.000000 0.599969 0.347967
0.320165 0.611810 0.283238
0.568719 0.618677 0.276677
0.746761 0.616419 0.245274
0.869688 0.603540 0.240085
0.980774 0.597314 0.209293
0.000000 0.732357 0.457527
0.000000 0.734951 0.448371
0.000000 0.744411 0.410773
0.256535 0.754177 0.339696
0.570703 0.754482 0.346929
0.778103 0.758328 0.321172
0.913115 0.728725 0.293278
1.000000 0.699214 0.295109
0.000000 0.230533 0.313481
0.000000 0.233371 0.313390
0.120607 0.210422 0.316991
0.342962 0.216312 0.307897
0.540215 0.149416 0.246311
0.708705 0.215915 0.220615
0.850675 0.268894 0.189059
0.975250 0.308080 0.132235
0.000000 0.247807 0.317052
0.000000 0.245518 0.318944
0.122805 0.225467 0.320684
0.342504 0.229129 0.310338
0.538842 0.177615 0.252171
0.707942 0.233005 0.225803
0.850523 0.280278 0.192905
0.975525 0.315648 0.133211
0.000000 0.279026 0.330663
0.000000 0.278477 0.332067
0.118776 0.269139 0.332067
0.340459 0.269474 0.319097
0.535088 0.250584 0.271336
0.705867 0.284337 0.243503
0.850492 0.316320 0.205264
0.976257 0.342565 0.142000
0.000000 0.330236 0.352148
0.000000 0.331334 0.352697
0.084871 0.333013 0.351354
0.334356 0.334356 0.334356
0.529931 0.339940 0.304540
0.704219 0.355505 0.269749
0.850858 0.372747 0.225864
0.977050 0.389654 0.164553
0.000000 0.390295 0.372381
0.000000 0.394324 0.373388
0.000000 0.409125 0.373785
0.298650 0.422492 0.345800
0.528588 0.429786 0.339086
0.702663 0.439765 0.306950
0.850645 0.446265 0.260716
0.977783 0.453071 0.201633
0.000000 0.484840 0.417029
0.000000 0.490547 0.417304
0.000000 0.507897 0.410681
0.254551 0.525322 0.371862
0.534325 0.531426 0.354345
0.706325 0.531212 0.344488
0.849393 0.532433 0.312840
0.977844 0.530480 0.256382
0.000000 0.612665 0.480415
0.000000 0.616876 0.477363
0.000000 0.629206 0.460395
0.179782 0.643030 0.410101
0.523857 0.646265 0.391608
0.731289 0.644129 0.363104
0.859464 0.627253 0.360815
0.976349 0.619257 0.331395
0.000000 0.752407 0.545129
0.000000 0.754849 0.539391
0.000000 0.761868 0.514153
0.000000 0.771603 0.457832
0.505699 0.772549 0.438911
0.744411 0.774075 0.430976
0.901183 0.750546 0.399725
0.994354 0.721492 0.403510
0.000000 0.321202 0.450416
0.000000 0.325200 0.449256
0.000000 0.309087 0.454719
0.198672 0.250706 0.454261
0.496071 0.280797 0.438697
0.689693 0.232975 0.375311
0.841642 0.277745 0.336126
0.970062 0.331395 0.312535
0.000000 0.336553 0.453101
0.000000 0.335332 0.454261
0.000000 0.319829 0.458412
0.189120 0.262669 0.457465
0.495399 0.293736 0.440894
0.689296 0.247410 0.376287
0.841276 0.292729 0.340398
0.970245 0.339788 0.314549
0.000000 0.366430 0.465034
0.000000 0.364874 0.466529
0.000000 0.353674 0.468971
0.174746 0.312291 0.467109
0.493507 0.335637 0.448585
0.687892 0.291875 0.380591
0.840208 0.337896 0.355138
0.971191 0.366522 0.318822
0.000000 0.411200 0.482856
0.000000 0.410895 0.483986
0.000000 0.406714 0.485878
0.162905 0.389441 0.482460
0.489235 0.401099 0.462287
0.683558 0.382452 0.407813
0.839841 0.401648 0.375067
0.974365 0.404303 0.316716
0.000000 0.473304 0.507622
0.000000 0.474250 0.508171
0.000000 0.476234 0.508568
0.116548 0.477638 0.503746
0.481239 0.481239 0.481239
0.679561 0.480049 0.445960
0.839933 0.478279 0.401801
0.974884 0.472847 0.342321
0.000000 0.547082 0.535515
0.000000 0.549828 0.536217
0.000000 0.559380 0.537163
0.000000 0.576593 0.531945
0.438697 0.579248 0.490822
0.678492 0.576440 0.489021
0.835630 0.573388 0.454536
0.972473 0.561486 0.396429
0.000000 0.652216 0.585657
0.000000 0.655940 0.585779
0.000000 0.667231 0.582025
0.000000 0.681270 0.560967
0.387060 0.684535 0.509239
0.692287 0.682673 0.507103
0.840970 0.666712 0.499855
0.968048 0.657832 0.467964
0.000000 0.779416 0.646784
0.000000 0.781674 0.643946
0.000000 0.788540 0.631403
0.000000 0.797147 0.596399
0.315679 0.799466 0.537652
0.686458 0.793912 0.554009
0.878477 0.783322 0.525994
0.981353 0.755276 0.526207
0.000000 0.422400 0.601526
0.000000 0.426490 0.600458
0.000000 0.416480 0.603601
0.000000 0.376287 0.607050
0.372351 0.338476 0.602045
0.648524 0.389685 0.578119
0.815305 0.397467 0.533623
0.951171 0.445441 0.517144
0.000000 0.434333 0.603235
0.000000 0.436988 0.602441
0.000000 0.424384 0.606043
0.000000 0.386542 0.609003
0.368902 0.348516 0.603998
0.647944 0.400793 0.579950
0.815000 0.407019 0.535882
0.951110 0.452888 0.519524
0.000000 0.462898 0.609918
0.000000 0.460731 0.610864
0.000000 0.450172 0.613458
0.000000 0.420233 0.615534
0.352270 0.380896 0.610346
0.646113 0.437385 0.586694
0.814084 0.437720 0.543023
0.951415 0.476539 0.526299
0.000000 0.499733 0.621973
0.000000 0.498543 0.622950
0.000000 0.492073 0.625177
0.000000 0.473243 0.626368
0.319280 0.439216 0.621180
0.642908 0.492897 0.598169
0.814115 0.481239 0.551446
0.953399 0.510796 0.533104
0.000000 0.550286 0.638483
0.000000 0.549950 0.639124
0.000000 0.547662 0.640589
0.000000 0.539971 0.640864
0.286442 0.525414 0.635431
0.639033 0.556817 0.613306
0.814633 0.544976 0.568109
0.958221 0.551080 0.534661
0.000000 0.612360 0.658320
0.000000 0.613031 0.658625
0.000000 0.614771 0.659510
0.000000 0.617304 0.658930
0.245701 0.622278 0.653559
0.632105 0.632105 0.632105
0.813321 0.628229 0.599023
0.960723 0.615625 0.551110
0.000000 0.695460 0.692927
0.000000 0.697230 0.693385
0.000000 0.703548 0.694209
0.000000 0.715541 0.693080
0.117311 0.733181 0.682918
0.594507 0.723507 0.640803
0.812528 0.717494 0.640192
0.954650 0.710567 0.608759
0.000000 0.810788 0.751125
0.000000 0.813230 0.750912
0.000000 0.820218 0.747799
0.000000 0.829313 0.734676
0.000000 0.836210 0.699397
0.545586 0.826169 0.654780
0.835752 0.822477 0.661219
0.962463 0.799252 0.654475
0.000000 0.516289 0.744564
0.000000 0.519615 0.743923
0.000000 0.518547 0.744320
0.000000 0.491432 0.747494
0.000000 0.443671 0.748440
0.567712 0.484840 0.738643
0.782010 0.541711 0.713161
0.922423 0.585779 0.698756
0.000000 0.524498 0.745480
0.000000 0.527489 0.744930
0.000000 0.524163 0.745663
0.000000 0.498146 0.748623
0.000000 0.452644 0.749508
0.566888 0.492256 0.739590
0.781704 0.548486 0.714473
0.922515 0.590448 0.700069
0.000000 0.547204 0.749264
0.000000 0.549828 0.748684
0.000000 0.543297 0.750057
0.000000 0.520958 0.752621
0.000000 0.483467 0.752926
0.562829 0.516381 0.743191
0.780697 0.571160 0.719356
0.922972 0.605829 0.704250
0.000000 0.579583 0.756161
0.000000 0.581933 0.755642
0.000000 0.575555 0.757046
0.000000 0.558465 0.759152
0.000000 0.531273 0.759121
0.549645 0.552483 0.749599
0.779385 0.606165 0.727474
0.924712 0.629450 0.709773
0.000000 0.622644 0.766140
0.000000 0.624689 0.765621
0.000000 0.620081 0.767025
0.000000 0.608606 0.768460
0.000000 0.589532 0.768215
0.509331 0.594171 0.759915
0.778073 0.649836 0.738552
0.928283 0.659907 0.715175
0.000000 0.675624 0.778988
0.000000 0.676997 0.778683
0.000000 0.675349 0.779782
0.000000 0.670985 0.780819
0.000000 0.662989 0.780423
0.455848 0.664149 0.773342
0.775814 0.704250 0.753017
0.932891 0.703883 0.723751
0.000000 0.736507 0.794308
0.000000 0.737789 0.794125
0.000000 0.739162 0.794919
0.000000 0.741512 0.795743
0.000000 0.746059 0.795041
0.422705 0.757351 0.789120
0.770779 0.770718 0.770748
0.936278 0.766934 0.741451
0.000000 0.823239 0.834440
0.000000 0.825101 0.834287
0.000000 0.831235 0.834043
0.000000 0.840177 0.834653
0.000000 0.855283 0.833066
0.313848 0.874052 0.822477
0.739712 0.857298 0.781033
0.937072 0.849699 0.780941
0.000000 0.600458 0.877806
0.000000 0.603082 0.877440
0.000000 0.612299 0.876310
0.000000 0.593652 0.878294
0.000000 0.567712 0.879484
0.469520 0.593805 0.874327
0.753079 0.661555 0.864347
0.902617 0.702174 0.842527
0.000000 0.605432 0.878447
0.000000 0.607935 0.878141
0.000000 0.616846 0.876951
0.000000 0.598352 0.878935
0.000000 0.573175 0.880125
0.466255 0.597742 0.875059
0.752560 0.665278 0.864958
0.902617 0.705623 0.843412
0.000000 0.620111 0.880888
0.000000 0.622400 0.880583
0.000000 0.630701 0.879393
0.000000 0.614466 0.881193
0.000000 0.591455 0.882322
0.452186 0.610895 0.877562
0.750179 0.677668 0.867247
0.902586 0.717220 0.846586
0.000000 0.640925 0.885527
0.000000 0.643030 0.885252
0.000000 0.650721 0.884154
0.000000 0.641749 0.885130
0.000000 0.621027 0.886290
0.418280 0.633021 0.882200
0.743618 0.697108 0.871489
0.902861 0.736385 0.852018
0.000000 0.677699 0.892027
0.000000 0.678767 0.891814
0.000000 0.682002 0.890990
0.000000 0.679103 0.890593
0.000000 0.660243 0.892149
0.347631 0.665034 0.888914
0.728511 0.722072 0.877989
0.903349 0.763210 0.859953
0.000000 0.724605 0.900359
0.000000 0.725643 0.900175
0.000000 0.729030 0.899504
0.000000 0.730312 0.898894
0.000000 0.714443 0.900053
0.114565 0.707057 0.898283
0.691798 0.751339 0.887724
0.903899 0.798459 0.870634
0.000000 0.779324 0.910521
0.000000 0.780423 0.910369
0.000000 0.784085 0.909880
0.000000 0.789609 0.909026
0.000000 0.783597 0.910033
0.000000 0.779355 0.908995
0.622095 0.799649 0.900786
0.903929 0.843595 0.884489
0.000000 0.840452 0.922271
0.000000 0.841642 0.922179
0.000000 0.845945 0.921813
0.000000 0.854246 0.921050
0.000000 0.858305 0.921630
0.000000 0.866026 0.920775
0.587823 0.884337 0.914824
0.902098 0.902068 0.902098
