其他预设/【212】创意蓝橙调色预设24款/1.3D LUT预设（视频调色-PR-AE-PS-FCPX-达芬奇用）/24.蓝橙色调-深色调__.cube
# Created by Adobe Lightroom plugin Export LUT (1.17.0)
# www.johnrellis.com/lightroom/exportlut.htm
# Preset: 24.蓝橙色调-深色调[素锦印象]
# Color profile: /Library/Application Support/Adobe/Color/Profiles/Recommended/AdobeRGB1998.icc
LUT_3D_SIZE 32
0.128420 0.128420 0.128420
0.129702 0.128389 0.128542
0.135500 0.127596 0.128634
0.149477 0.127291 0.128786
0.167575 0.128328 0.129183
0.186984 0.129458 0.129244
0.207584 0.131167 0.129274
0.230411 0.132753 0.128908
0.255772 0.134981 0.128206
0.284581 0.137850 0.127016
0.317693 0.141268 0.125521
0.354498 0.145846 0.123415
0.394324 0.151553 0.120333
0.436805 0.158236 0.116182
0.480751 0.165866 0.111177
0.525628 0.174594 0.104494
0.570092 0.183474 0.096834
0.611841 0.192264 0.088289
0.650568 0.200809 0.078126
0.688289 0.209140 0.066133
0.724697 0.217136 0.045411
0.759701 0.224430 0.010834
0.793515 0.231052 0.000000
0.826230 0.237736 0.000000
0.858122 0.243656 0.000000
0.889158 0.248875 0.000000
0.919188 0.254093 0.000000
0.948394 0.258671 0.000000
0.976776 0.263066 0.000000
1.000000 0.267124 0.000000
1.000000 0.271244 0.000000
1.000000 0.275578 0.000000
0.128420 0.128420 0.128420
0.129702 0.128389 0.128542
0.135866 0.128115 0.128603
0.149599 0.129244 0.128817
0.167666 0.130251 0.129213
0.186801 0.131411 0.129274
0.207706 0.132845 0.129122
0.230289 0.134646 0.128756
0.255680 0.136660 0.128054
0.284550 0.139467 0.127047
0.317662 0.143191 0.125521
0.354498 0.147677 0.123232
0.394415 0.153597 0.120119
0.436713 0.160403 0.116121
0.480720 0.168032 0.110903
0.525536 0.176394 0.104707
0.570062 0.185275 0.096773
0.611749 0.194339 0.087861
0.650538 0.202640 0.077974
0.688258 0.210697 0.066072
0.724697 0.218509 0.045258
0.759701 0.225834 0.009491
0.793484 0.232822 0.000000
0.826230 0.239109 0.000000
0.858122 0.244938 0.000000
0.889128 0.250309 0.000000
0.919219 0.255192 0.000000
0.948425 0.259831 0.000000
0.976776 0.264073 0.000000
1.000000 0.268315 0.000000
1.000000 0.272374 0.000000
1.000000 0.276585 0.000000
0.128450 0.129366 0.128511
0.129915 0.130098 0.128420
0.135866 0.130617 0.128756
0.149813 0.131685 0.128969
0.167697 0.132906 0.129152
0.186831 0.133852 0.129244
0.207462 0.135317 0.129122
0.230228 0.136873 0.128756
0.255680 0.139162 0.128023
0.284489 0.141939 0.127016
0.317510 0.145449 0.125490
0.354406 0.150484 0.123140
0.394171 0.156222 0.120058
0.436591 0.163272 0.115785
0.480598 0.170901 0.110750
0.525566 0.179171 0.104280
0.570031 0.188174 0.096529
0.611658 0.196750 0.087648
0.650538 0.205112 0.077668
0.688197 0.213107 0.065705
0.724666 0.220890 0.044160
0.759731 0.228000 0.008453
0.793484 0.234897 0.000000
0.826230 0.240879 0.000000
0.858122 0.246830 0.000000
0.889128 0.252323 0.000000
0.919188 0.256901 0.000000
0.948425 0.261601 0.000000
0.976806 0.265751 0.000000
1.000000 0.269780 0.000000
1.000000 0.273625 0.000000
1.000000 0.277958 0.000000
0.128145 0.135073 0.128939
0.130220 0.135836 0.128817
0.136660 0.136263 0.128786
0.149935 0.137392 0.129000
0.167697 0.138186 0.129244
0.186862 0.138918 0.129335
0.207370 0.140352 0.129213
0.230137 0.142031 0.128664
0.255406 0.144137 0.127932
0.284337 0.146914 0.126894
0.317357 0.150973 0.125338
0.354253 0.155947 0.122927
0.394049 0.161868 0.119814
0.436347 0.168887 0.115511
0.480537 0.176638 0.110384
0.525414 0.185061 0.103822
0.569909 0.194186 0.095674
0.611566 0.202365 0.087007
0.650385 0.210697 0.076570
0.687984 0.218387 0.064393
0.724575 0.225895 0.040589
0.759609 0.232639 0.005097
0.793454 0.239170 0.000000
0.826200 0.245182 0.000000
0.858122 0.250889 0.000000
0.889158 0.255833 0.000000
0.919249 0.260502 0.000000
0.948425 0.265232 0.000000
0.976806 0.269413 0.000000
1.000000 0.273014 0.000000
1.000000 0.276829 0.000000
1.000000 0.280858 0.000000
0.127291 0.142397 0.131319
0.129702 0.142916 0.130861
0.136049 0.143191 0.130678
0.148440 0.144259 0.130037
0.166537 0.145693 0.129488
0.186557 0.146731 0.129335
0.207126 0.147738 0.129244
0.229892 0.149294 0.128878
0.255283 0.151583 0.127932
0.284123 0.154726 0.126864
0.317144 0.158694 0.125093
0.353979 0.164157 0.122438
0.393805 0.170443 0.119173
0.436164 0.177707 0.114992
0.480232 0.185367 0.109560
0.525078 0.193820 0.102876
0.569665 0.202701 0.094545
0.611261 0.210849 0.085695
0.650202 0.218631 0.075074
0.687953 0.226017 0.062379
0.724544 0.233219 0.035584
0.759640 0.239689 0.000061
0.793423 0.245945 0.000000
0.826230 0.251621 0.000000
0.858122 0.257115 0.000000
0.889189 0.261875 0.000000
0.919249 0.266209 0.000000
0.948455 0.270451 0.000000
0.976867 0.274296 0.000000
1.000000 0.278050 0.000000
1.000000 0.281621 0.000000
1.000000 0.285679 0.000000
0.126162 0.150149 0.134279
0.129488 0.150698 0.133791
0.135012 0.151034 0.133455
0.146426 0.151736 0.132906
0.162783 0.152682 0.131960
0.184146 0.155093 0.130404
0.206729 0.157198 0.129213
0.229465 0.158694 0.128664
0.254978 0.160922 0.128084
0.283726 0.164340 0.126589
0.316838 0.168887 0.124727
0.353674 0.174380 0.122164
0.393439 0.181216 0.118593
0.435859 0.188449 0.114107
0.479927 0.196323 0.108705
0.524895 0.204868 0.101839
0.569451 0.213230 0.093416
0.611109 0.221317 0.084016
0.649928 0.228550 0.073487
0.687770 0.235904 0.059846
0.724361 0.242557 0.029419
0.759487 0.248905 0.000000
0.793362 0.254643 0.000000
0.826139 0.260319 0.000000
0.858122 0.265110 0.000000
0.889158 0.269444 0.000000
0.919280 0.273808 0.000000
0.948516 0.277836 0.000000
0.976898 0.281224 0.000000
1.000000 0.284642 0.000000
1.000000 0.288029 0.000000
1.000000 0.291722 0.000000
0.126070 0.158358 0.137697
0.129458 0.158724 0.137087
0.134157 0.159182 0.136599
0.145022 0.159762 0.136416
0.160037 0.160739 0.135531
0.179324 0.162722 0.133974
0.203342 0.166018 0.132509
0.229007 0.169100 0.130220
0.254459 0.171939 0.127962
0.283482 0.175723 0.126375
0.316442 0.180636 0.124239
0.353338 0.186587 0.121370
0.393042 0.193423 0.117922
0.435523 0.201053 0.113222
0.479683 0.209110 0.107424
0.524529 0.217655 0.100099
0.569146 0.225834 0.091920
0.610803 0.233585 0.081941
0.649714 0.240818 0.070924
0.687587 0.247623 0.055085
0.724239 0.253910 0.021637
0.759426 0.259800 0.000000
0.793271 0.265232 0.000000
0.826169 0.270146 0.000000
0.858122 0.274907 0.000000
0.889189 0.279026 0.000000
0.919310 0.282902 0.000000
0.948577 0.286534 0.000000
0.976989 0.289799 0.000000
1.000000 0.292943 0.000000
1.000000 0.295903 0.000000
1.000000 0.299351 0.000000
0.126436 0.167300 0.141695
0.129610 0.167666 0.141115
0.133669 0.168154 0.140475
0.143526 0.168887 0.139681
0.158358 0.169711 0.138979
0.176028 0.171176 0.138247
0.198398 0.174136 0.136263
0.225223 0.178561 0.134218
0.254063 0.183078 0.131807
0.283146 0.187106 0.128420
0.316167 0.192782 0.124697
0.352911 0.199802 0.120668
0.392828 0.207034 0.117037
0.435187 0.215091 0.111910
0.479347 0.223392 0.106111
0.524346 0.232029 0.098451
0.568811 0.240238 0.089723
0.610437 0.247776 0.079316
0.649378 0.254520 0.067323
0.687373 0.260929 0.048188
0.724056 0.267002 0.011170
0.759274 0.272557 0.000000
0.793210 0.277287 0.000000
0.826108 0.281987 0.000000
0.858091 0.286259 0.000000
0.889220 0.290135 0.000000
0.919371 0.293614 0.000000
0.948638 0.296818 0.000000
0.977081 0.299626 0.000000
1.000000 0.302556 0.000000
1.000000 0.305364 0.000000
1.000000 0.308415 0.000000
0.127352 0.177646 0.146304
0.130037 0.177890 0.145754
0.133700 0.178531 0.144961
0.142275 0.179355 0.143557
0.157321 0.180240 0.143374
0.174685 0.181552 0.142519
0.195041 0.183566 0.140932
0.220218 0.187655 0.138766
0.249912 0.193210 0.136446
0.282780 0.199405 0.133181
0.316167 0.205081 0.128847
0.353063 0.212222 0.123934
0.392828 0.220676 0.117952
0.435065 0.230014 0.111086
0.479103 0.238682 0.104311
0.523888 0.247379 0.096376
0.568505 0.255650 0.087129
0.610163 0.263218 0.076112
0.649195 0.269505 0.063813
0.687129 0.275700 0.037873
0.723964 0.281407 0.000275
0.759243 0.286412 0.000000
0.793179 0.291051 0.000000
0.826078 0.295323 0.000000
0.858122 0.299138 0.000000
0.889281 0.302525 0.000000
0.919463 0.305608 0.000000
0.948730 0.308415 0.000000
0.977173 0.311040 0.000000
1.000000 0.313512 0.000000
1.000000 0.315892 0.000000
1.000000 0.318608 0.000000
0.127413 0.189212 0.151278
0.129915 0.189578 0.150576
0.133394 0.189944 0.149874
0.141268 0.191073 0.147890
0.155978 0.191958 0.147250
0.173861 0.193240 0.146883
0.193668 0.194858 0.145541
0.217014 0.198001 0.143465
0.245396 0.203128 0.140871
0.278599 0.210147 0.137942
0.316136 0.218265 0.133944
0.353063 0.225406 0.128634
0.393011 0.233860 0.122438
0.435279 0.242924 0.114992
0.479164 0.253147 0.105837
0.523735 0.263310 0.094972
0.568322 0.272068 0.084077
0.609949 0.279362 0.072358
0.648890 0.285771 0.058350
0.686976 0.291508 0.024506
0.723842 0.296696 0.000000
0.759121 0.301610 0.000000
0.793149 0.305791 0.000000
0.826108 0.309728 0.000000
0.858213 0.312871 0.000000
0.889342 0.316167 0.000000
0.919554 0.318822 0.000000
0.948852 0.321355 0.000000
0.977356 0.323430 0.000000
1.000000 0.325505 0.000000
1.000000 0.327733 0.000000
1.000000 0.330083 0.000000
0.127016 0.202060 0.156558
0.129244 0.202426 0.156039
0.132815 0.202914 0.155032
0.140200 0.204013 0.152865
0.153597 0.205112 0.150912
0.172671 0.206302 0.150973
0.193240 0.207889 0.149966
0.215518 0.209903 0.148409
0.242496 0.214511 0.145235
0.274266 0.221073 0.142367
0.311528 0.229740 0.138766
0.353277 0.239811 0.133669
0.393256 0.248112 0.127504
0.435615 0.257237 0.119478
0.479652 0.267155 0.110231
0.524285 0.277379 0.099031
0.568353 0.287388 0.085054
0.609583 0.296208 0.068727
0.648707 0.302647 0.048188
0.686824 0.308263 0.010590
0.723720 0.313420 0.000000
0.759030 0.317723 0.000000
0.793149 0.321538 0.000000
0.826108 0.324865 0.000000
0.858274 0.328069 0.000000
0.889433 0.330785 0.000000
0.919646 0.333288 0.000000
0.949004 0.335271 0.000000
0.977478 0.337072 0.000000
1.000000 0.338720 0.000000
1.000000 0.340581 0.000000
1.000000 0.342565 0.000000
0.125826 0.216159 0.162325
0.128054 0.216617 0.161837
0.131197 0.217197 0.160739
0.138094 0.218265 0.158541
0.149935 0.219638 0.154513
0.170565 0.220798 0.154543
0.192477 0.222324 0.154360
0.215457 0.224277 0.152834
0.240391 0.226902 0.150698
0.271672 0.233341 0.146426
0.307469 0.241794 0.143191
0.348425 0.251987 0.138918
0.393713 0.263523 0.132601
0.436042 0.272770 0.125216
0.479957 0.282353 0.115419
0.524651 0.292149 0.104128
0.568750 0.302068 0.090364
0.609888 0.310643 0.074006
0.648615 0.318334 0.047852
0.686671 0.325719 0.000000
0.723659 0.330602 0.000000
0.758968 0.334813 0.000000
0.793118 0.338140 0.000000
0.826169 0.341222 0.000000
0.858366 0.344060 0.000000
0.889555 0.346441 0.000000
0.919829 0.348486 0.000000
0.949157 0.350195 0.000000
0.977691 0.351568 0.000000
1.000000 0.353002 0.000000
1.000000 0.354437 0.000000
1.000000 0.356146 0.000000
0.123354 0.231662 0.168673
0.125490 0.232090 0.167941
0.128695 0.232609 0.167025
0.135409 0.233738 0.164370
0.146792 0.235386 0.159945
0.166751 0.236698 0.158022
0.190768 0.238163 0.158206
0.215091 0.240085 0.156954
0.240665 0.242588 0.154971
0.269261 0.246708 0.151858
0.304906 0.255009 0.146731
0.344457 0.264897 0.143313
0.388556 0.276402 0.138125
0.436469 0.288975 0.130465
0.480385 0.298741 0.121553
0.525078 0.308293 0.110018
0.569024 0.317723 0.096529
0.610071 0.326024 0.080690
0.648890 0.333349 0.060670
0.686976 0.340581 0.007660
0.723659 0.347753 0.000000
0.759060 0.352331 0.000000
0.793179 0.355596 0.000000
0.826261 0.358465 0.000000
0.858488 0.360784 0.000000
0.889677 0.362860 0.000000
0.919982 0.364477 0.000000
0.949401 0.365850 0.000000
0.977905 0.367041 0.000000
1.000000 0.368078 0.000000
1.000000 0.369177 0.000000
1.000000 0.370489 0.000000
0.119753 0.248447 0.175448
0.121981 0.248936 0.174472
0.124849 0.249546 0.173465
0.131807 0.250675 0.170809
0.142977 0.252415 0.166171
0.161074 0.254154 0.161471
0.187625 0.255589 0.161868
0.214267 0.257420 0.161532
0.241093 0.259892 0.159274
0.269169 0.262852 0.156954
0.302586 0.269474 0.152224
0.342107 0.279240 0.146456
0.384466 0.290288 0.142641
0.431037 0.302678 0.136049
0.480385 0.315618 0.127230
0.525444 0.325628 0.116823
0.569360 0.334539 0.103426
0.610346 0.342199 0.088319
0.649226 0.349126 0.069459
0.687221 0.356085 0.028687
0.723995 0.362737 0.000000
0.759182 0.369024 0.000000
0.793240 0.373632 0.000000
0.826383 0.376165 0.000000
0.858610 0.378241 0.000000
0.889891 0.379889 0.000000
0.920195 0.381262 0.000000
0.949615 0.382330 0.000000
0.978180 0.383185 0.000000
1.000000 0.383948 0.000000
1.000000 0.384619 0.000000
1.000000 0.385626 0.000000
0.114260 0.266850 0.182773
0.116640 0.267277 0.181827
0.119783 0.267765 0.180545
0.126558 0.269078 0.177829
0.137850 0.271031 0.172885
0.153872 0.273259 0.165072
0.182559 0.274815 0.165011
0.212161 0.276585 0.165133
0.241062 0.278996 0.163516
0.270726 0.282078 0.161013
0.301030 0.285374 0.158175
0.339422 0.294591 0.152163
0.381842 0.305425 0.146181
0.426886 0.317388 0.141054
0.475105 0.329992 0.133394
0.525048 0.342840 0.123018
0.569512 0.352300 0.111604
0.610529 0.359503 0.096742
0.649409 0.366064 0.079377
0.687587 0.372534 0.053193
0.724392 0.378607 0.000000
0.759518 0.384436 0.000000
0.793484 0.390082 0.000000
0.826566 0.394385 0.000000
0.858824 0.396277 0.000000
0.890105 0.397650 0.000000
0.920470 0.398596 0.000000
0.949920 0.399359 0.000000
0.978485 0.399878 0.000000
1.000000 0.400366 0.000000
1.000000 0.400824 0.000000
1.000000 0.401434 0.000000
0.106905 0.286900 0.190463
0.109468 0.287297 0.189609
0.112825 0.287816 0.188357
0.119875 0.289250 0.185397
0.131472 0.291142 0.180331
0.147707 0.293614 0.172519
0.174990 0.295628 0.167788
0.208194 0.297398 0.168185
0.240024 0.299840 0.168063
0.271366 0.302739 0.165408
0.303410 0.306096 0.162234
0.337499 0.311192 0.158175
0.379278 0.321691 0.151431
0.424109 0.333288 0.144961
0.470985 0.345525 0.138674
0.519890 0.358038 0.129641
0.568719 0.369940 0.117800
0.610559 0.377722 0.105776
0.649622 0.383856 0.089662
0.687922 0.389715 0.069062
0.724727 0.395453 0.019287
0.759945 0.400702 0.000000
0.793912 0.405768 0.000000
0.826932 0.410681 0.000000
0.859068 0.414740 0.000000
0.890379 0.415900 0.000000
0.920745 0.416571 0.000000
0.950225 0.416968 0.000000
0.978820 0.417334 0.000000
1.000000 0.417304 0.000000
1.000000 0.417426 0.000000
1.000000 0.417823 0.000000
0.096651 0.308385 0.199374
0.099245 0.308934 0.198306
0.103243 0.309514 0.197116
0.111238 0.310857 0.193759
0.123262 0.312902 0.188815
0.140200 0.315526 0.180301
0.164218 0.318090 0.170932
0.201968 0.319799 0.171359
0.237491 0.321996 0.171756
0.271214 0.324804 0.169955
0.304875 0.328099 0.166903
0.338842 0.331853 0.163424
0.377050 0.339055 0.157900
0.421515 0.350317 0.149935
0.467903 0.362097 0.142855
0.515618 0.374182 0.135470
0.563745 0.385809 0.125490
0.609491 0.395575 0.113344
0.649897 0.402350 0.100221
0.688228 0.407965 0.082155
0.725032 0.413184 0.054414
0.760311 0.417792 0.000000
0.794339 0.422339 0.000000
0.827420 0.426886 0.000000
0.859495 0.431250 0.000000
0.890684 0.434516 0.000000
0.921080 0.435065 0.000000
0.950561 0.435157 0.000000
0.979156 0.435096 0.000000
1.000000 0.434913 0.000000
1.000000 0.434730 0.000000
1.000000 0.434791 0.000000
0.082490 0.331456 0.208774
0.085969 0.331792 0.208011
0.089998 0.332494 0.206638
0.099275 0.333959 0.203128
0.113344 0.335882 0.197818
0.131167 0.338598 0.189303
0.153506 0.341650 0.177157
0.193515 0.343450 0.174563
0.232914 0.345647 0.175113
0.269963 0.348211 0.174868
0.305333 0.351476 0.171786
0.341222 0.355138 0.168002
0.376959 0.359167 0.164187
0.419593 0.368872 0.156680
0.466163 0.380529 0.147250
0.513420 0.392157 0.139864
0.561028 0.403479 0.131716
0.606256 0.412970 0.121126
0.649134 0.420752 0.108949
0.688563 0.426856 0.094423
0.725338 0.431586 0.074342
0.760647 0.435737 0.030610
0.794736 0.439796 0.000000
0.827909 0.443824 0.000000
0.859953 0.447761 0.000000
0.891112 0.451637 0.000000
0.921447 0.453834 0.000000
0.950958 0.453773 0.000000
0.979553 0.453437 0.000000
1.000000 0.453010 0.000000
1.000000 0.452583 0.000000
1.000000 0.452308 0.000000
0.060365 0.356237 0.219333
0.064698 0.356817 0.218448
0.071260 0.357427 0.216983
0.082643 0.358831 0.213779
0.099062 0.360876 0.208133
0.119600 0.363531 0.199588
0.143587 0.366705 0.187167
0.181094 0.369329 0.178012
0.225986 0.371344 0.178683
0.267002 0.373968 0.179019
0.305577 0.377111 0.176699
0.343236 0.380743 0.173037
0.380865 0.384771 0.168978
0.419135 0.389502 0.163577
0.465461 0.400946 0.154299
0.513542 0.412604 0.143435
0.560662 0.423407 0.135927
0.605341 0.432380 0.127352
0.647913 0.439796 0.116823
0.688502 0.446113 0.103822
0.725765 0.450843 0.088960
0.761013 0.454597 0.067872
0.795193 0.458045 0.007263
0.828305 0.461494 0.000000
0.860441 0.464942 0.000000
0.891661 0.468330 0.000000
0.921965 0.471595 0.000000
0.951415 0.472786 0.000000
0.980011 0.472175 0.000000
1.000000 0.471473 0.000000
1.000000 0.470741 0.000000
1.000000 0.470253 0.000000
0.000000 0.383459 0.230930
0.000000 0.383948 0.230106
0.012238 0.384558 0.228550
0.050202 0.385931 0.225040
0.078004 0.388159 0.219425
0.103059 0.390906 0.210971
0.130678 0.394232 0.198154
0.163882 0.397559 0.181399
0.216342 0.399603 0.182132
0.262455 0.402075 0.182315
0.304936 0.405097 0.181888
0.345037 0.408606 0.178042
0.384771 0.412512 0.173800
0.424445 0.416938 0.168582
0.466682 0.423865 0.161624
0.514519 0.435157 0.150698
0.562493 0.445594 0.138766
0.606592 0.453742 0.132326
0.648829 0.460639 0.123934
0.689143 0.466346 0.112947
0.726467 0.470710 0.100038
0.761410 0.474067 0.084810
0.795499 0.477180 0.061952
0.828641 0.480110 0.000000
0.860899 0.483009 0.000000
0.892149 0.485847 0.000000
0.922454 0.488624 0.000000
0.951904 0.491371 0.000000
0.980499 0.491341 0.000000
1.000000 0.490333 0.000000
1.000000 0.489357 0.000000
1.000000 0.488533 0.000000
0.000000 0.413123 0.243717
0.000000 0.413672 0.242741
0.000000 0.414313 0.241184
0.000000 0.415686 0.237552
0.015686 0.417914 0.231998
0.078126 0.420661 0.222934
0.113100 0.424109 0.210025
0.147494 0.427680 0.191928
0.202792 0.430274 0.185489
0.255406 0.432654 0.185855
0.302403 0.435554 0.185977
0.346197 0.438911 0.183291
0.388342 0.442878 0.178714
0.430091 0.447028 0.173678
0.471565 0.451789 0.167697
0.517235 0.460365 0.158053
0.564965 0.470069 0.146517
0.609827 0.477638 0.135439
0.651606 0.483680 0.129152
0.691493 0.488655 0.120333
0.728603 0.492226 0.109865
0.763088 0.494667 0.097566
0.795956 0.496742 0.082612
0.829099 0.499367 0.058717
0.861357 0.501732 0.000000
0.892638 0.504112 0.000000
0.922972 0.506401 0.000000
0.952422 0.508690 0.000000
0.981018 0.510643 0.000000
1.000000 0.509483 0.000000
1.000000 0.508324 0.000000
1.000000 0.507347 0.000000
0.000000 0.445411 0.257664
0.000000 0.445991 0.256779
0.000000 0.446540 0.255131
0.000000 0.447974 0.251469
0.000000 0.450141 0.245609
0.000000 0.452979 0.236515
0.085420 0.456489 0.223453
0.129274 0.460212 0.205356
0.182712 0.463661 0.189059
0.244816 0.465858 0.189487
0.297826 0.468605 0.189731
0.346197 0.471809 0.189273
0.391455 0.475471 0.184329
0.435340 0.479591 0.178866
0.478950 0.484016 0.172946
0.522087 0.488899 0.165835
0.568933 0.497139 0.154482
0.613977 0.503746 0.142641
0.656214 0.508904 0.132906
0.695644 0.512902 0.126802
0.732448 0.515557 0.118990
0.766659 0.517327 0.108675
0.798795 0.518334 0.096864
0.829618 0.519158 0.082124
0.861753 0.521355 0.058289
0.893095 0.523095 0.000000
0.923461 0.524865 0.000000
0.952972 0.526757 0.000000
0.981567 0.528588 0.000000
1.000000 0.529015 0.000000
1.000000 0.527520 0.000000
1.000000 0.526390 0.000000
0.000000 0.480323 0.272984
0.000000 0.480812 0.272007
0.000000 0.481361 0.270329
0.000000 0.482887 0.266606
0.000000 0.485023 0.260716
0.000000 0.487892 0.251499
0.000000 0.491371 0.238407
0.102235 0.495186 0.219883
0.153506 0.499428 0.193271
0.229984 0.501579 0.193606
0.290898 0.504143 0.193759
0.344213 0.507073 0.193790
0.393225 0.510460 0.190646
0.440040 0.514214 0.185306
0.485389 0.518120 0.178897
0.529992 0.522301 0.172000
0.574395 0.526879 0.163577
0.619287 0.532403 0.151919
0.662043 0.536553 0.139864
0.701534 0.539422 0.131655
0.737911 0.541039 0.126497
0.771847 0.541772 0.118868
0.803708 0.541894 0.109957
0.833646 0.541650 0.098268
0.862333 0.541192 0.085115
0.893492 0.542840 0.063325
0.923888 0.544152 0.000000
0.953460 0.545464 0.000000
0.982086 0.546838 0.000000
1.000000 0.548119 0.000000
1.000000 0.547204 0.000000
1.000000 0.545861 0.000000
0.000000 0.517693 0.289464
0.000000 0.518334 0.288518
0.000000 0.518883 0.286839
0.000000 0.520256 0.283055
0.000000 0.522454 0.276738
0.000000 0.525231 0.267582
0.000000 0.528710 0.254551
0.045411 0.532464 0.235813
0.129580 0.536675 0.209537
0.209812 0.539330 0.197848
0.280186 0.541497 0.198520
0.339788 0.543847 0.198642
0.393256 0.546532 0.198398
0.442664 0.549676 0.192874
0.490150 0.552972 0.186709
0.536370 0.556481 0.179934
0.581689 0.560113 0.171908
0.626184 0.563928 0.162234
0.668940 0.566918 0.150546
0.708736 0.568353 0.138643
0.744839 0.568658 0.132967
0.778470 0.568231 0.128511
0.810147 0.567498 0.122225
0.839933 0.566217 0.113924
0.867735 0.564569 0.103883
0.894072 0.562890 0.091646
0.924315 0.564141 0.072786
0.953918 0.564996 0.014191
0.982574 0.565911 0.000000
1.000000 0.566735 0.000000
1.000000 0.567132 0.000000
1.000000 0.565576 0.000000
0.000000 0.557000 0.307042
0.000000 0.557458 0.305791
0.000000 0.557977 0.304265
0.000000 0.559350 0.300420
0.000000 0.561242 0.293828
0.000000 0.563867 0.284611
0.000000 0.567041 0.271458
0.000000 0.570672 0.253452
0.094331 0.574456 0.228092
0.180179 0.577752 0.204013
0.265293 0.579461 0.204654
0.332311 0.581231 0.205417
0.390753 0.583429 0.205783
0.443641 0.585779 0.202670
0.493233 0.588647 0.196811
0.541375 0.591547 0.189944
0.588190 0.594720 0.182071
0.633936 0.597986 0.173465
0.677119 0.599969 0.162661
0.716640 0.599817 0.151583
0.753262 0.598688 0.140841
0.786709 0.597040 0.137575
0.818112 0.595056 0.134310
0.847593 0.592828 0.128542
0.875212 0.590326 0.121065
0.900999 0.587488 0.112367
0.925017 0.584405 0.102296
0.954345 0.585077 0.086641
0.982971 0.585718 0.058656
1.000000 0.586084 0.000000
1.000000 0.586389 0.000000
1.000000 0.585626 0.000000
0.000000 0.596490 0.325109
0.000000 0.596857 0.323705
0.000000 0.597406 0.322057
0.000000 0.598688 0.317967
0.000000 0.600458 0.311803
0.000000 0.602869 0.302495
0.000000 0.605768 0.289372
0.000000 0.609125 0.271458
0.000000 0.612726 0.247715
0.143404 0.616419 0.215549
0.246159 0.617914 0.212802
0.322148 0.619318 0.213779
0.385931 0.621057 0.214725
0.443305 0.622919 0.214969
0.495369 0.625330 0.209232
0.545464 0.627832 0.202304
0.593805 0.630457 0.194949
0.640833 0.633143 0.186648
0.686641 0.635920 0.177249
0.725978 0.634089 0.167056
0.762570 0.631403 0.156619
0.796567 0.628229 0.146395
0.827665 0.624994 0.146365
0.856809 0.621576 0.143832
0.884123 0.617945 0.139284
0.909667 0.614099 0.132601
0.933440 0.610163 0.125246
0.955627 0.606073 0.116060
0.983368 0.606012 0.104524
1.000000 0.606195 0.085847
1.000000 0.606165 0.049836
1.000000 0.606012 0.000000
0.000000 0.636622 0.343297
0.000000 0.636988 0.342046
0.000000 0.637507 0.340307
0.000000 0.638575 0.336339
0.000000 0.640253 0.329931
0.000000 0.642634 0.320745
0.000000 0.645350 0.307958
0.000000 0.648463 0.290715
0.000000 0.651820 0.268223
0.110567 0.655360 0.238926
0.221469 0.657374 0.223301
0.309361 0.658381 0.224704
0.379217 0.659602 0.225986
0.440711 0.661006 0.227146
0.496376 0.662684 0.224613
0.548241 0.664515 0.218112
0.598108 0.666621 0.210971
0.646326 0.668666 0.203128
0.693202 0.670863 0.194644
0.736812 0.671290 0.184939
0.773190 0.666926 0.175967
0.807218 0.662226 0.166476
0.838773 0.657282 0.158236
0.867552 0.652522 0.159213
0.894469 0.647730 0.157778
0.919615 0.642847 0.153964
0.943145 0.637842 0.148470
0.965057 0.632776 0.142641
0.985412 0.627680 0.134737
1.000000 0.626795 0.125978
1.000000 0.626703 0.114412
1.000000 0.626246 0.096925
0.000000 0.677577 0.362066
0.000000 0.677913 0.360937
0.000000 0.678401 0.359289
0.000000 0.679500 0.355108
0.000000 0.681025 0.348913
0.000000 0.683101 0.339757
0.000000 0.685573 0.327001
0.000000 0.688411 0.310857
0.000000 0.691432 0.289342
0.051484 0.694545 0.262943
0.190311 0.697047 0.236973
0.294041 0.697597 0.238590
0.371405 0.698299 0.240238
0.437201 0.699153 0.242130
0.496376 0.700221 0.243381
0.550103 0.701595 0.237797
