其他预设/【212】创意蓝橙调色预设24款/1.3D LUT预设（视频调色-PR-AE-PS-FCPX-达芬奇用）/24.蓝橙色调-深色调__.cube
# Created by Adobe Lightroom plugin Export LUT (1.17.0)
# www.johnrellis.com/lightroom/exportlut.htm
# Preset: 24.蓝橙色调-深色调[素锦印象]
# Color profile: /Library/Application Support/Adobe/Color/Profiles/Recommended/AdobeRGB1998.icc
LUT_3D_SIZE 5
DOMAIN_MIN 0.000000 0.000000 0.000000
DOMAIN_MAX 0.903226 0.903226 0.903226
0.128420 0.128420 0.128420
0.230411 0.132753 0.128908
0.480751 0.165866 0.111177
0.759701 0.224430 0.010834
0.976776 0.263066 0.000000
0.126436 0.167300 0.141695
0.225223 0.178561 0.134218
0.479347 0.223392 0.106111
0.759274 0.272557 0.000000
0.977081 0.299626 0.000000
0.114260 0.266850 0.182773
0.212161 0.276585 0.165133
0.475105 0.329992 0.133394
0.759518 0.384436 0.000000
0.978485 0.399878 0.000000
0.000000 0.445411 0.257664
0.129274 0.460212 0.205356
0.478950 0.484016 0.172946
0.766659 0.517327 0.108675
0.981567 0.528588 0.000000
0.000000 0.718563 0.381262
0.000000 0.728267 0.331029
0.495094 0.738155 0.263035
0.832853 0.738735 0.216098
1.000000 0.685359 0.195346
0.104128 0.160678 0.197635
0.206912 0.165255 0.194186
0.465766 0.184329 0.155886
0.752407 0.260472 0.086183
0.975250 0.302495 0.000000
0.099001 0.200412 0.209689
0.203952 0.203952 0.203952
0.464485 0.228794 0.169100
0.753109 0.291295 0.094972
0.975738 0.332677 0.000000
0.061769 0.294072 0.243595
0.168917 0.310613 0.227848
0.464881 0.341680 0.202945
0.754940 0.385351 0.131319
0.977691 0.419318 0.000000
0.000000 0.470649 0.322515
0.000000 0.487068 0.294469
0.469368 0.509758 0.237369
0.761837 0.526635 0.199161
0.980774 0.533288 0.105501
0.000000 0.728847 0.439643
0.000000 0.738460 0.403296
0.455268 0.750210 0.323156
0.825406 0.752255 0.291051
1.000000 0.695552 0.272526
0.000000 0.273350 0.378759
0.000000 0.265995 0.382452
0.417243 0.244724 0.370672
0.740993 0.218204 0.276493
0.973907 0.309728 0.219242
0.000000 0.311498 0.391272
0.000000 0.302312 0.394812
0.415686 0.286687 0.378820
0.738766 0.277562 0.293889
0.974914 0.335912 0.222751
0.000000 0.400305 0.428443
0.000000 0.402899 0.429389
0.405615 0.405615 0.405615
0.734707 0.413458 0.344457
0.976776 0.424170 0.251591
0.000000 0.538933 0.485481
0.000000 0.554986 0.486244
0.330388 0.580316 0.432959
0.735683 0.575372 0.417914
0.975128 0.566033 0.341466
0.000000 0.765194 0.594903
0.000000 0.772457 0.578943
0.183749 0.785672 0.492927
0.771664 0.784207 0.485634
0.988525 0.737087 0.464057
0.000000 0.447120 0.638758
0.000000 0.447700 0.639094
0.000000 0.372534 0.644129
0.683680 0.425879 0.612665
0.944945 0.476844 0.563317
0.000000 0.478065 0.643946
0.000000 0.470649 0.646204
0.000000 0.410254 0.649378
0.681941 0.459388 0.618830
0.944945 0.499580 0.570428
0.000000 0.544030 0.663081
0.000000 0.539879 0.665126
0.000000 0.512840 0.665980
0.677211 0.547784 0.637903
0.948425 0.559472 0.583581
0.000000 0.644739 0.693355
0.000000 0.646479 0.694331
0.000000 0.651514 0.693446
0.667811 0.667750 0.667781
0.955291 0.654749 0.602014
0.000000 0.815061 0.773495
0.000000 0.822354 0.772793
0.000000 0.842466 0.756710
0.597559 0.833188 0.686519
0.956817 0.811307 0.686244
0.000000 0.600458 0.877806
0.000000 0.609369 0.876677
0.000000 0.579858 0.879210
0.563073 0.613733 0.871672
0.902617 0.702174 0.842527
0.000000 0.615686 0.880064
0.000000 0.623774 0.878996
0.000000 0.596765 0.881346
0.556603 0.627192 0.873960
0.902586 0.713558 0.845548
0.000000 0.657740 0.888548
0.000000 0.661036 0.887755
0.000000 0.649317 0.888579
0.498512 0.658595 0.883085
0.903105 0.748775 0.855680
0.000000 0.737606 0.902739
0.000000 0.741024 0.902159
0.000000 0.738613 0.901915
0.312505 0.727077 0.899199
0.903990 0.808713 0.873808
0.000000 0.840452 0.922271
0.000000 0.844511 0.921935
0.000000 0.856504 0.921294
0.000000 0.869780 0.919799
0.902098 0.902068 0.902098
