其他预设/【212】创意蓝橙调色预设24款/1.3D LUT预设（视频调色-PR-AE-PS-FCPX-达芬奇用）/4.蓝橙色调__.cube
# Created by Adobe Lightroom plugin Export LUT (1.17.0)
# www.johnrellis.com/lightroom/exportlut.htm
# Preset: 4.蓝橙色调[素锦印象]
# Color profile: /Library/Application Support/Adobe/Color/Profiles/Recommended/AdobeRGB1998.icc
LUT_3D_SIZE 5
DOMAIN_MIN 0.000000 0.000000 0.000000
DOMAIN_MAX 0.903226 0.903226 0.903226
0.128420 0.128420 0.128420
0.252201 0.153628 0.133394
0.518761 0.230076 0.121675
0.800412 0.329839 0.088869
1.000000 0.410040 0.144015
0.124361 0.168826 0.151003
0.242008 0.192538 0.146548
0.513787 0.270207 0.121370
0.798764 0.359411 0.087221
1.000000 0.430488 0.147677
0.098817 0.259190 0.206821
0.201968 0.278721 0.187564
0.499245 0.353063 0.173159
0.795407 0.438727 0.117311
1.000000 0.495155 0.162661
0.000000 0.406409 0.301488
0.065034 0.431769 0.281224
0.480507 0.488411 0.233219
0.795102 0.550164 0.221836
1.000000 0.593225 0.235935
0.000000 0.670619 0.475349
0.000000 0.691951 0.455787
0.430671 0.734218 0.360174
0.848905 0.756588 0.369970
1.000000 0.739040 0.434852
0.105715 0.160769 0.199100
0.223026 0.179904 0.200473
0.497261 0.245335 0.173068
0.790372 0.355810 0.128756
1.000000 0.431983 0.146517
0.092073 0.200870 0.216129
0.215518 0.215518 0.215518
0.492866 0.275731 0.191745
0.789914 0.375525 0.143893
1.000000 0.450324 0.150362
0.024598 0.282200 0.257755
0.156680 0.308537 0.254520
0.484321 0.363622 0.237583
0.787900 0.443549 0.198001
1.000000 0.509789 0.172763
0.000000 0.429206 0.350195
0.000000 0.456764 0.343725
0.464332 0.510582 0.291203
0.788022 0.561120 0.288487
0.997650 0.604791 0.299901
0.000000 0.682033 0.514458
0.000000 0.701564 0.503258
0.362829 0.746304 0.405524
0.839628 0.769467 0.425299
1.000000 0.751431 0.481117
0.000000 0.251621 0.355688
0.000000 0.259190 0.363958
0.442512 0.282414 0.364111
0.773648 0.358953 0.308843
0.994781 0.467506 0.303685
0.000000 0.292607 0.371832
0.000000 0.294011 0.381750
0.437110 0.317693 0.376532
0.770230 0.390021 0.329076
0.995239 0.482429 0.312078
0.000000 0.374975 0.418433
0.000000 0.385840 0.426703
0.417090 0.417090 0.417090
0.762905 0.479652 0.386786
0.994415 0.540734 0.356878
0.000000 0.499977 0.489815
0.000000 0.520104 0.498604
0.285252 0.576013 0.473457
0.757992 0.608392 0.470863
0.986725 0.650782 0.466651
0.000000 0.723079 0.639765
0.000000 0.733913 0.634150
0.000000 0.774197 0.577905
0.782010 0.796963 0.570275
0.990661 0.789029 0.601373
0.000000 0.408911 0.606134
0.000000 0.428443 0.604944
0.000000 0.373999 0.627039
0.716609 0.488289 0.602747
0.961730 0.609461 0.609400
0.000000 0.441199 0.616571
0.000000 0.452094 0.617792
0.000000 0.410254 0.636072
0.713344 0.513512 0.612207
0.961395 0.623194 0.617121
0.000000 0.509087 0.646693
0.000000 0.518822 0.648493
0.000000 0.507134 0.661952
0.704219 0.584802 0.641199
0.963561 0.661280 0.634241
0.000000 0.607507 0.692622
0.000000 0.618128 0.692378
0.000000 0.633722 0.702144
0.686610 0.686549 0.686580
0.967315 0.727504 0.662806
0.000000 0.761685 0.791958
0.000000 0.772030 0.790677
0.000000 0.806882 0.787533
0.550652 0.839994 0.728450
0.963378 0.845609 0.750790
0.000000 0.563806 0.864012
0.000000 0.577996 0.863279
0.000000 0.579400 0.867979
0.573693 0.625391 0.867765
0.923827 0.767971 0.841581
0.000000 0.578210 0.867643
0.000000 0.591272 0.866880
0.000000 0.594903 0.870939
0.558679 0.634089 0.871061
0.923491 0.775937 0.845365
0.000000 0.614893 0.879820
0.000000 0.622065 0.879026
0.000000 0.642390 0.879698
0.471534 0.656336 0.882414
0.922820 0.801022 0.857755
0.000000 0.687678 0.900328
0.000000 0.694118 0.899779
0.000000 0.715389 0.897429
0.155703 0.713802 0.900786
0.921386 0.844480 0.879667
0.000000 0.778927 0.926635
0.000000 0.785214 0.926390
0.000000 0.809018 0.925353
0.000000 0.839872 0.926848
0.913878 0.913848 0.913848
