其他预设/【212】创意蓝橙调色预设24款/1.3D LUT预设（视频调色-PR-AE-PS-FCPX-达芬奇用）/4.蓝橙色调__.cube
# Created by Adobe Lightroom plugin Export LUT (1.17.0)
# www.johnrellis.com/lightroom/exportlut.htm
# Preset: 4.蓝橙色调[素锦印象]
# Color profile: /Library/Application Support/Adobe/Color/Profiles/Recommended/AdobeRGB1998.icc
LUT_3D_SIZE 8
DOMAIN_MIN 0.000000 0.000000 0.000000
DOMAIN_MAX 0.903226 0.903226 0.903226
0.128420 0.128420 0.128420
0.179324 0.138094 0.131655
0.280552 0.160311 0.133089
0.428290 0.201236 0.128420
0.609949 0.260960 0.111666
0.765896 0.317205 0.091920
0.895048 0.365087 0.094026
1.000000 0.410040 0.144015
0.127413 0.144289 0.136629
0.175937 0.153750 0.135836
0.278508 0.173892 0.133669
0.426276 0.214511 0.128695
0.608301 0.272923 0.111330
0.764858 0.326513 0.091524
0.894560 0.372656 0.093935
1.000000 0.415991 0.145022
0.123873 0.178866 0.157290
0.158450 0.185794 0.154086
0.268345 0.208713 0.150759
0.421637 0.251499 0.136080
0.604608 0.309972 0.110384
0.763149 0.358007 0.089296
0.894163 0.398413 0.094667
1.000000 0.437079 0.148928
0.113130 0.229007 0.188083
0.139376 0.235752 0.183352
0.249912 0.252811 0.175479
0.410712 0.297063 0.166690
0.601007 0.355962 0.139590
0.761044 0.404669 0.098817
0.893217 0.440711 0.096773
1.000000 0.472602 0.156527
0.072145 0.293278 0.228031
0.102205 0.300603 0.223575
0.219120 0.320104 0.199313
0.391028 0.351110 0.192233
0.588952 0.410681 0.180026
0.758083 0.456397 0.155367
0.892088 0.491646 0.128237
1.000000 0.520531 0.170474
0.000000 0.379339 0.283696
0.000000 0.387182 0.279728
0.150942 0.411170 0.249699
0.377539 0.440345 0.229618
0.583368 0.484352 0.207279
0.757168 0.523339 0.208286
0.890227 0.550713 0.206394
1.000000 0.577661 0.211826
0.000000 0.504326 0.366217
0.000000 0.512688 0.362341
0.000000 0.539147 0.336431
0.329381 0.570611 0.272038
0.591485 0.601465 0.269841
0.777310 0.619776 0.253300
0.898802 0.628809 0.283543
0.997772 0.645472 0.313817
0.000000 0.670619 0.475349
0.000000 0.676692 0.472023
0.000000 0.698604 0.445808
0.209598 0.726406 0.370397
0.586145 0.742153 0.374182
0.812985 0.762539 0.371496
0.933959 0.743069 0.386053
1.000000 0.739040 0.434852
0.121798 0.140841 0.157687
0.167514 0.149355 0.157656
0.269932 0.170962 0.150271
0.415900 0.215763 0.141909
0.600183 0.280644 0.114229
0.760372 0.333867 0.091279
0.892454 0.377173 0.093599
1.000000 0.417700 0.144564
0.119539 0.156252 0.165072
0.164767 0.164767 0.164767
0.266209 0.183505 0.159213
0.415259 0.224399 0.146304
0.599542 0.287724 0.118746
0.759823 0.342199 0.090639
0.892149 0.384070 0.093568
1.000000 0.423468 0.145418
0.119020 0.189212 0.178653
0.153414 0.198672 0.180270
0.260472 0.215824 0.176699
0.412757 0.254093 0.162631
0.598077 0.312596 0.135042
0.758907 0.368627 0.094759
0.891875 0.408118 0.094179
1.000000 0.443549 0.149630
0.106386 0.238499 0.207095
0.133028 0.246586 0.205539
0.246616 0.262425 0.195193
0.405310 0.300847 0.188602
0.595087 0.356695 0.165164
0.757626 0.405280 0.130587
0.891203 0.448127 0.096254
1.000000 0.478004 0.157473
0.048005 0.302983 0.245945
0.088685 0.310063 0.242802
0.201846 0.329961 0.214481
0.389197 0.358068 0.210147
0.585168 0.413275 0.200565
0.755093 0.458106 0.179263
0.890532 0.493416 0.155612
1.000000 0.524956 0.171389
0.000000 0.387823 0.299809
0.000000 0.395483 0.297093
0.136110 0.419226 0.272496
0.371099 0.448035 0.246464
0.581598 0.489204 0.225193
0.754940 0.526207 0.229160
0.888579 0.553552 0.228428
1.000000 0.580652 0.232761
0.000000 0.510948 0.380896
0.000000 0.519127 0.377996
0.000000 0.545098 0.355627
0.307897 0.577050 0.286290
0.586816 0.606409 0.287907
0.775570 0.623377 0.270207
0.896941 0.632074 0.302434
0.996490 0.649317 0.331853
0.000000 0.674037 0.487373
0.000000 0.679744 0.485023
0.000000 0.701534 0.461555
0.182345 0.729427 0.391516
0.578119 0.745174 0.391394
0.808347 0.764981 0.388403
0.932189 0.746304 0.400946
1.000000 0.742641 0.448951
0.096162 0.169375 0.215610
0.111055 0.174441 0.217166
0.245212 0.191653 0.217655
0.401251 0.215854 0.196658
0.588525 0.276860 0.180179
0.752010 0.341100 0.160311
0.888212 0.396612 0.131228
1.000000 0.437812 0.147585
0.090517 0.186954 0.221103
0.118135 0.189395 0.224186
0.242832 0.204074 0.222202
0.398169 0.228092 0.204166
0.586419 0.286107 0.186893
0.751583 0.347265 0.164706
0.888060 0.401678 0.135744
1.000000 0.443030 0.148623
0.073091 0.218753 0.237095
0.107485 0.223026 0.239567
0.236088 0.236088 0.236088
0.392218 0.263615 0.224643
0.583429 0.314794 0.204044
0.750912 0.369787 0.179049
0.887938 0.419867 0.152804
1.000000 0.461707 0.152560
0.026947 0.261723 0.257420
0.084321 0.269230 0.260533
0.199405 0.290043 0.254368
0.387610 0.315068 0.249821
0.579828 0.362646 0.231571
0.749386 0.409400 0.206058
0.887572 0.452857 0.183291
1.000000 0.492805 0.171115
0.000000 0.322362 0.292271
0.000000 0.332158 0.295567
0.152926 0.357977 0.288945
0.374426 0.381811 0.268589
0.572778 0.424628 0.265110
0.746212 0.466529 0.249851
0.886229 0.501244 0.230198
0.999603 0.535058 0.225376
0.000000 0.408148 0.346532
0.000000 0.417823 0.348516
0.005097 0.444739 0.340520
0.330724 0.473304 0.298253
0.572442 0.507012 0.287053
0.746456 0.537926 0.296056
0.883177 0.565301 0.296696
0.997498 0.592370 0.298009
0.000000 0.530297 0.427588
0.000000 0.538994 0.427466
0.000000 0.564446 0.415991
0.235111 0.597162 0.358038
0.565270 0.622705 0.348394
0.768185 0.637079 0.330510
0.890806 0.644953 0.363775
0.992584 0.663966 0.390906
0.000000 0.685878 0.527214
0.000000 0.689815 0.525536
0.000000 0.710628 0.511131
0.000000 0.739437 0.457710
0.541894 0.755062 0.438666
0.790005 0.772946 0.443702
0.925811 0.757839 0.448890
1.000000 0.755367 0.495308
0.000000 0.217380 0.300084
0.000000 0.226322 0.299565
0.125734 0.213718 0.311192
0.365850 0.246494 0.306554
0.569360 0.267979 0.267948
0.742916 0.337316 0.251347
0.883085 0.400275 0.240421
0.998138 0.452857 0.229465
0.000000 0.235752 0.305699
0.000000 0.238956 0.308141
0.126345 0.228550 0.316686
0.364172 0.257450 0.310307
0.567224 0.280522 0.274388
0.741573 0.346227 0.257908
0.882658 0.406867 0.245518
0.998260 0.457069 0.232242
0.000000 0.266941 0.321019
0.000000 0.269566 0.324865
0.117128 0.269474 0.332097
0.358099 0.291814 0.323339
0.560967 0.320867 0.295689
0.738186 0.376684 0.279393
0.881926 0.429114 0.262943
0.998322 0.474098 0.246616
0.000000 0.313695 0.347387
0.000000 0.317693 0.350774
0.067750 0.327459 0.356481
0.346380 0.346380 0.346380
0.551904 0.381231 0.331060
0.734188 0.424628 0.311101
0.880552 0.466896 0.291356
0.997528 0.506279 0.277897
0.000000 0.369726 0.376532
0.000000 0.375677 0.379980
0.000000 0.394720 0.386816
0.286259 0.424323 0.370977
0.545464 0.450996 0.368139
0.729488 0.488563 0.354925
0.877958 0.521355 0.336065
0.995727 0.553704 0.326329
0.000000 0.444495 0.420996
0.000000 0.451911 0.424353
0.000000 0.478981 0.432929
0.211124 0.515160 0.413794
0.541527 0.540063 0.392523
0.729213 0.563165 0.399725
0.873198 0.590509 0.398444
0.992065 0.616144 0.393591
0.000000 0.559319 0.498299
0.000000 0.567437 0.500755
0.000000 0.592218 0.502434
0.000000 0.625147 0.475044
0.506554 0.647547 0.442084
0.749722 0.663478 0.430396
0.878630 0.669917 0.458961
0.985565 0.690578 0.478828
0.000000 0.708766 0.597131
0.000000 0.712245 0.595514
0.000000 0.726223 0.586603
0.000000 0.752834 0.551965
0.439338 0.772366 0.504967
0.752651 0.785214 0.525933
0.913817 0.777035 0.517388
0.996246 0.776272 0.563256
0.000000 0.291112 0.418769
0.000000 0.298528 0.418341
0.000000 0.298589 0.428962
0.210941 0.258610 0.438758
0.524346 0.325994 0.428016
0.722591 0.349493 0.379156
0.871092 0.428748 0.378607
0.988983 0.494392 0.387793
0.000000 0.306981 0.424048
0.000000 0.312932 0.423377
0.000000 0.309117 0.434577
0.201602 0.270085 0.443091
0.522698 0.336584 0.431495
0.721157 0.361028 0.385260
0.870481 0.436561 0.383825
0.988952 0.499184 0.390509
0.000000 0.339910 0.438514
0.000000 0.343633 0.440528
0.000000 0.341497 0.450294
0.177035 0.314672 0.457069
0.517266 0.370977 0.443366
0.716609 0.399054 0.405035
0.868620 0.462470 0.400763
0.989197 0.514855 0.398962
0.000000 0.382544 0.461952
0.000000 0.386236 0.463783
0.000000 0.390661 0.473396
0.151278 0.386542 0.479286
0.508171 0.425299 0.464118
0.710201 0.457038 0.437507
0.867094 0.502739 0.425055
0.991363 0.537499 0.404822
0.000000 0.441749 0.495552
0.000000 0.445563 0.497078
0.000000 0.454536 0.504601
0.055024 0.466590 0.508995
0.493416 0.493416 0.493416
0.704158 0.525933 0.477546
0.865202 0.556725 0.458350
0.989654 0.585077 0.441047
0.000000 0.511711 0.534325
0.000000 0.516075 0.535973
0.000000 0.530205 0.543389
0.000000 0.555505 0.548516
0.418097 0.583948 0.518120
0.699550 0.602502 0.522271
0.858366 0.629145 0.515251
0.984192 0.651698 0.503014
0.000000 0.608881 0.597986
0.000000 0.612818 0.597681
0.000000 0.629572 0.602441
0.000000 0.659876 0.602502
0.316625 0.684565 0.557580
0.706508 0.698299 0.552911
0.860075 0.704280 0.565789
0.976593 0.725307 0.575311
0.000000 0.738674 0.686183
0.000000 0.742061 0.685267
0.000000 0.752499 0.679591
0.000000 0.773739 0.664118
0.077150 0.795010 0.609827
0.686580 0.800107 0.618189
0.890929 0.805051 0.610254
0.984314 0.803281 0.641566
0.000000 0.384344 0.566735
0.000000 0.390661 0.566552
0.000000 0.399756 0.570825
0.000000 0.373510 0.584466
0.395117 0.356481 0.588403
0.680964 0.450263 0.567010
0.846616 0.496651 0.539849
0.968261 0.584405 0.567834
0.000000 0.396826 0.570520
0.000000 0.402197 0.570031
0.000000 0.407721 0.575097
0.000000 0.383276 0.587701
0.389349 0.364202 0.591333
0.679805 0.458900 0.569940
0.845853 0.504204 0.543908
0.968109 0.588739 0.570428
0.000000 0.427893 0.581994
0.000000 0.432380 0.581476
0.000000 0.433295 0.587884
0.000000 0.415412 0.598566
0.361364 0.388617 0.601404
0.676112 0.487221 0.580407
0.843626 0.529595 0.557580
0.967956 0.603418 0.578576
0.000000 0.465858 0.599969
0.000000 0.470832 0.599573
0.000000 0.473610 0.606409
0.000000 0.465309 0.615656
0.303075 0.438819 0.618524
0.670344 0.531121 0.597894
0.841032 0.569055 0.578790
0.969116 0.625360 0.588617
0.000000 0.515953 0.624720
0.000000 0.520287 0.624262
0.000000 0.525811 0.629664
0.000000 0.527062 0.637446
0.250828 0.523033 0.639490
0.662440 0.584558 0.620752
0.839475 0.616938 0.603418
0.972412 0.652216 0.596216
0.000000 0.576440 0.654475
0.000000 0.580224 0.653956
0.000000 0.588159 0.657740
0.000000 0.597498 0.663966
0.166079 0.612757 0.665827
0.649653 0.649653 0.649653
0.836759 0.676783 0.636378
0.972808 0.697993 0.620264
0.000000 0.654322 0.701167
0.000000 0.657923 0.700893
0.000000 0.669093 0.701930
0.000000 0.685023 0.707027
0.000000 0.712764 0.706935
0.580774 0.735470 0.671992
0.832639 0.746853 0.679866
0.964660 0.767819 0.678035
0.000000 0.758572 0.772152
0.000000 0.761685 0.771725
0.000000 0.772732 0.769833
0.000000 0.792599 0.767117
0.000000 0.825315 0.759091
0.477119 0.831754 0.700893
0.848875 0.837766 0.715206
0.968231 0.836454 0.728176
0.000000 0.480110 0.722103
0.000000 0.485359 0.721767
0.000000 0.503044 0.720638
0.000000 0.488258 0.730068
0.000000 0.444038 0.738796
0.606134 0.519554 0.733791
0.813413 0.609400 0.708858
0.942718 0.675044 0.714656
0.000000 0.488685 0.724147
0.000000 0.493538 0.723842
0.000000 0.510124 0.722713
0.000000 0.494728 0.732021
0.000000 0.453223 0.740444
0.603876 0.525048 0.735378
0.812833 0.614435 0.710903
0.942596 0.678645 0.716640
0.000000 0.511406 0.730953
0.000000 0.515740 0.730617
0.000000 0.530358 0.729519
0.000000 0.516075 0.738460
0.000000 0.483253 0.745968
0.594049 0.542748 0.740902
0.811063 0.631250 0.717983
0.942443 0.690730 0.723018
0.000000 0.542718 0.742184
0.000000 0.546563 0.741848
0.000000 0.559869 0.740658
0.000000 0.550896 0.748348
0.000000 0.529015 0.755062
0.567987 0.568292 0.750393
0.808438 0.657954 0.729549
0.942962 0.710079 0.732845
0.000000 0.583642 0.757809
0.000000 0.587091 0.757473
0.000000 0.598901 0.756313
0.000000 0.596216 0.761501
0.000000 0.583764 0.767361
0.498329 0.596674 0.765011
0.805173 0.692317 0.745022
0.944518 0.736110 0.745388
0.000000 0.633661 0.777249
0.000000 0.636805 0.776883
0.000000 0.647578 0.775875
0.000000 0.652399 0.779294
0.000000 0.650477 0.784054
0.418830 0.662989 0.782681
0.799985 0.736019 0.765225
0.947173 0.769039 0.760037
0.000000 0.690578 0.799374
0.000000 0.693446 0.799161
0.000000 0.703395 0.798367
0.000000 0.714595 0.800076
0.000000 0.724239 0.804654
0.350958 0.748226 0.804410
0.790402 0.790372 0.790402
0.948791 0.813016 0.780514
0.000000 0.767575 0.846159
0.000000 0.770199 0.846159
0.000000 0.779721 0.845975
0.000000 0.797055 0.845243
0.000000 0.817105 0.847166
0.000000 0.849088 0.844846
0.735866 0.866361 0.811490
0.946410 0.874601 0.820432
0.000000 0.563806 0.864012
0.000000 0.568078 0.863828
0.000000 0.582757 0.863005
0.000000 0.591150 0.864622
0.000000 0.566247 0.870909
0.450507 0.592004 0.870451
0.796170 0.710536 0.861295
0.923827 0.767971 0.841581
0.000000 0.568658 0.865110
0.000000 0.572656 0.864897
0.000000 0.586938 0.864073
0.000000 0.595453 0.865568
0.000000 0.571344 0.871763
0.444556 0.595239 0.871458
0.795041 0.713008 0.862150
0.923705 0.770352 0.842710
0.000000 0.582208 0.868833
0.000000 0.585962 0.868620
0.000000 0.599359 0.867796
0.000000 0.610040 0.868711
0.000000 0.588556 0.874662
0.419715 0.605829 0.874784
0.790463 0.721187 0.865141
0.923369 0.778500 0.846616
0.000000 0.599634 0.875425
0.000000 0.603235 0.875181
0.000000 0.615961 0.874296
0.000000 0.634333 0.873686
0.000000 0.616388 0.879545
0.371679 0.627100 0.880369
0.779599 0.733486 0.870512
0.923033 0.792142 0.853361
0.000000 0.633265 0.884916
0.000000 0.635401 0.884703
0.000000 0.642390 0.883940
0.000000 0.653620 0.882261
0.000000 0.652522 0.885954
0.259281 0.655970 0.888090
0.756252 0.748013 0.878508
0.922576 0.811368 0.862974
0.000000 0.675898 0.897002
0.000000 0.677882 0.896818
0.000000 0.684627 0.896178
0.000000 0.695796 0.894835
0.000000 0.700618 0.895048
0.000000 0.693965 0.898314
0.700343 0.762600 0.890593
0.921752 0.836942 0.875883
0.000000 0.725063 0.911070
0.000000 0.726955 0.910948
0.000000 0.733455 0.910491
0.000000 0.745266 0.909545
0.000000 0.760555 0.908629
0.000000 0.758999 0.911406
0.604395 0.799039 0.905852
0.919615 0.870115 0.892546
0.000000 0.778927 0.926635
0.000000 0.780758 0.926574
0.000000 0.787411 0.926299
0.000000 0.800046 0.925750
0.000000 0.820218 0.924773
0.000000 0.834257 0.926787
0.535912 0.870268 0.923552
0.913878 0.913848 0.913848
