其他预设/【212】创意蓝橙调色预设24款/1.3D LUT预设（视频调色-PR-AE-PS-FCPX-达芬奇用）/4.蓝橙色调__.cube
# Created by Adobe Lightroom plugin Export LUT (1.17.0)
# www.johnrellis.com/lightroom/exportlut.htm
# Preset: 4.蓝橙色调[素锦印象]
# Color profile: /Library/Application Support/Adobe/Color/Profiles/Recommended/AdobeRGB1998.icc
LUT_3D_SIZE 32
0.128420 0.128420 0.128420
0.133730 0.129427 0.128908
0.140963 0.130648 0.129488
0.157290 0.133730 0.130526
0.179324 0.138094 0.131655
0.202213 0.142794 0.132570
0.226383 0.148013 0.133211
0.252201 0.153628 0.133394
0.280552 0.160311 0.133089
0.311955 0.168002 0.132570
0.347662 0.177371 0.131655
0.386450 0.188693 0.130312
0.428290 0.201236 0.128420
0.472572 0.215122 0.125460
0.518761 0.230076 0.121675
0.565454 0.245792 0.116945
0.609949 0.260960 0.111666
0.652064 0.275944 0.106233
0.691829 0.290318 0.100923
0.729793 0.304051 0.095979
0.765896 0.317205 0.091920
0.800412 0.329839 0.088869
0.833371 0.342016 0.087861
0.864866 0.353796 0.089631
0.895048 0.365087 0.094026
0.923827 0.376287 0.101595
0.951263 0.387366 0.112398
0.977508 0.398627 0.126314
1.000000 0.410040 0.144015
1.000000 0.422400 0.165499
1.000000 0.435950 0.191287
1.000000 0.451759 0.222873
0.128389 0.130129 0.129335
0.133639 0.130983 0.129305
0.141146 0.132326 0.129335
0.157229 0.135592 0.130343
0.179110 0.139742 0.131685
0.202029 0.144533 0.132601
0.226230 0.149538 0.133242
0.251987 0.155276 0.133425
0.280247 0.161746 0.133150
0.311833 0.169436 0.132601
0.347417 0.178927 0.131502
0.386297 0.189975 0.130343
0.428138 0.202762 0.128389
0.472297 0.216587 0.125460
0.518456 0.231571 0.121675
0.565148 0.247105 0.116945
0.609613 0.262303 0.111635
0.651789 0.276921 0.106508
0.691554 0.291234 0.100954
0.729580 0.304936 0.096010
0.765713 0.317937 0.091676
0.800229 0.330602 0.088899
0.833188 0.342779 0.087892
0.864714 0.354437 0.089693
0.894896 0.365911 0.094026
0.923705 0.377050 0.101564
0.951202 0.387976 0.112428
0.977447 0.399207 0.126528
1.000000 0.410620 0.144198
1.000000 0.422858 0.165652
1.000000 0.436530 0.191501
1.000000 0.452216 0.222995
0.128298 0.132204 0.130434
0.133516 0.133211 0.130373
0.140780 0.134768 0.130404
0.157198 0.138094 0.130678
0.178927 0.142214 0.131991
0.201785 0.146761 0.132753
0.225895 0.151553 0.133425
0.251713 0.157198 0.133425
0.279942 0.163607 0.133150
0.311376 0.171389 0.132570
0.346929 0.180789 0.131838
0.385931 0.191928 0.130465
0.427832 0.204593 0.128359
0.471992 0.218387 0.125582
0.518090 0.233371 0.121401
0.564965 0.248783 0.116854
0.609491 0.264012 0.111482
0.651514 0.278599 0.106355
0.691371 0.292699 0.100832
0.729397 0.306340 0.095857
0.765530 0.319402 0.091768
0.800137 0.331792 0.088746
0.833097 0.343908 0.087739
0.864652 0.355474 0.089570
0.894804 0.366827 0.094179
0.923644 0.377996 0.101472
0.951141 0.388891 0.112337
0.977417 0.400000 0.126650
1.000000 0.411505 0.144106
1.000000 0.423713 0.165591
1.000000 0.437201 0.191592
1.000000 0.452949 0.223239
0.127962 0.137667 0.133120
0.132753 0.138918 0.132876
0.140536 0.139956 0.132937
0.156649 0.143221 0.133028
0.178439 0.147219 0.132448
0.201205 0.151614 0.133181
0.225345 0.156100 0.133516
0.251225 0.161410 0.133700
0.279332 0.167666 0.133425
0.310979 0.175479 0.132845
0.346502 0.184878 0.131899
0.385504 0.195773 0.130556
0.427222 0.208469 0.128389
0.471382 0.222416 0.125551
0.517632 0.237034 0.121584
0.564324 0.252567 0.116579
0.608911 0.267521 0.111421
0.651087 0.281865 0.106294
0.690944 0.295933 0.100710
0.729000 0.309239 0.095766
0.765225 0.322148 0.091646
0.799802 0.334447 0.088930
0.832883 0.346380 0.087922
0.864469 0.357885 0.089693
0.894682 0.369085 0.094331
0.923552 0.380072 0.101869
0.951080 0.390875 0.112673
0.977356 0.401953 0.126955
1.000000 0.413306 0.144533
1.000000 0.425391 0.165957
1.000000 0.438819 0.192142
1.000000 0.454475 0.223789
0.127413 0.144289 0.136629
0.131350 0.145388 0.136599
0.138796 0.146609 0.136629
0.153628 0.149325 0.136477
0.175937 0.153750 0.135836
0.200137 0.158358 0.134798
0.224491 0.162753 0.134096
0.250278 0.167727 0.134127
0.278508 0.173892 0.133669
0.310033 0.181704 0.133059
0.345617 0.190982 0.132265
0.384466 0.202060 0.130678
0.426276 0.214511 0.128695
0.470588 0.228305 0.125612
0.516869 0.243076 0.121523
0.563561 0.258274 0.116518
0.608301 0.272923 0.111330
0.650416 0.287114 0.105928
0.690517 0.300755 0.100587
0.728634 0.314000 0.095308
0.764858 0.326513 0.091524
0.799557 0.338537 0.088746
0.832670 0.350256 0.087770
0.864317 0.361669 0.089235
0.894560 0.372656 0.093935
0.923461 0.383429 0.101991
0.950988 0.394018 0.112825
0.977325 0.404883 0.127077
1.000000 0.415991 0.145022
1.000000 0.428046 0.166629
1.000000 0.441321 0.192813
1.000000 0.456855 0.224613
0.126406 0.151827 0.140902
0.129824 0.152834 0.140597
0.136202 0.153994 0.140322
0.150332 0.156252 0.139895
0.170748 0.159823 0.139406
0.196445 0.165377 0.138582
0.222965 0.170596 0.137392
0.248997 0.175753 0.135348
0.277409 0.181979 0.134188
0.308873 0.189700 0.133364
0.344396 0.198856 0.132570
0.383398 0.209934 0.131075
0.425177 0.222446 0.128664
0.469612 0.236057 0.125521
0.515892 0.250523 0.121401
0.562799 0.265415 0.116548
0.607538 0.280003 0.111269
0.649714 0.293889 0.105837
0.689876 0.307286 0.100435
0.728176 0.320165 0.095125
0.764523 0.332525 0.090700
0.799283 0.344244 0.088197
0.833127 0.355901 0.087404
0.864805 0.366918 0.089235
0.895048 0.377508 0.094270
0.923857 0.388037 0.102358
0.951385 0.398474 0.113558
0.977661 0.409186 0.127932
1.000000 0.420020 0.145785
1.000000 0.431891 0.167544
1.000000 0.444953 0.194034
1.000000 0.460365 0.226017
0.125338 0.159884 0.145418
0.128756 0.160800 0.145266
0.134188 0.161898 0.144900
0.146975 0.164126 0.144045
0.166232 0.167208 0.143984
0.190036 0.171725 0.143038
0.218173 0.178286 0.142336
0.247410 0.184573 0.141054
0.275944 0.190616 0.138430
0.307774 0.198642 0.135714
0.343175 0.208652 0.132876
0.382177 0.219516 0.131167
0.424079 0.231724 0.128908
0.468757 0.245304 0.125643
0.515221 0.259678 0.121401
0.562005 0.274632 0.116243
0.606897 0.288853 0.110872
0.649165 0.302373 0.105135
0.689448 0.315312 0.099672
0.727840 0.327855 0.094545
0.764401 0.339666 0.090669
0.799252 0.351232 0.087495
0.832517 0.362219 0.087098
0.864378 0.372808 0.089265
0.894743 0.383429 0.094148
0.923613 0.393713 0.102510
0.951232 0.403723 0.113954
0.977539 0.414038 0.128511
1.000000 0.424811 0.146731
1.000000 0.436347 0.168765
1.000000 0.449195 0.195315
1.000000 0.464363 0.227451
0.124361 0.168826 0.151003
0.127810 0.169711 0.150851
0.132509 0.170687 0.150210
0.143404 0.172915 0.148989
0.162478 0.175784 0.149081
0.184909 0.179599 0.148592
0.211521 0.185153 0.147036
0.242008 0.192538 0.146548
0.274022 0.200381 0.144900
0.306126 0.207828 0.142031
0.341772 0.217350 0.138521
0.380896 0.228855 0.134554
0.422797 0.242130 0.129793
0.467414 0.255833 0.125704
0.513787 0.270207 0.121370
0.560876 0.284703 0.116091
0.605768 0.298863 0.110414
0.648188 0.311864 0.105074
0.688502 0.324651 0.099275
0.727169 0.336675 0.094087
0.763729 0.348394 0.089815
0.798764 0.359411 0.087221
0.832120 0.370031 0.087160
0.864012 0.380346 0.089021
0.894438 0.390265 0.094636
0.923430 0.400244 0.102937
0.951049 0.410193 0.114321
0.977417 0.419989 0.129458
1.000000 0.430488 0.147677
1.000000 0.441749 0.169986
1.000000 0.454383 0.196780
1.000000 0.469337 0.229129
0.123873 0.178866 0.157290
0.126925 0.179751 0.157015
0.130922 0.180850 0.156527
0.141024 0.182956 0.155245
0.158450 0.185794 0.154086
0.181064 0.189151 0.154391
0.206455 0.193912 0.153017
0.235386 0.200259 0.151553
0.268345 0.208713 0.150759
0.304295 0.218357 0.148714
0.340154 0.227665 0.145357
0.379492 0.238682 0.141115
0.421637 0.251499 0.136080
0.466438 0.265690 0.130282
0.512596 0.281132 0.122988
0.559625 0.296239 0.116121
0.604608 0.309972 0.110384
0.647150 0.322789 0.104707
0.687617 0.335210 0.098817
0.726345 0.346838 0.093843
0.763149 0.358007 0.089296
0.798276 0.368627 0.086946
0.831724 0.378943 0.086549
0.863706 0.388800 0.088777
0.894163 0.398413 0.094667
0.923217 0.407874 0.103304
0.950927 0.417395 0.115114
0.977295 0.427008 0.130129
1.000000 0.437079 0.148928
1.000000 0.448127 0.171176
1.000000 0.460426 0.198550
1.000000 0.475135 0.231266
0.122957 0.190036 0.164096
0.125582 0.190738 0.163821
0.129183 0.191836 0.163394
0.138369 0.194003 0.162295
0.153780 0.196902 0.159579
0.177401 0.199985 0.160006
0.202518 0.204227 0.159426
0.230655 0.209720 0.157321
0.262211 0.217136 0.156008
0.298314 0.227115 0.155001
0.338476 0.238834 0.152651
0.377630 0.249607 0.148928
0.420172 0.262089 0.143709
0.465095 0.275975 0.137545
0.511498 0.290990 0.130007
0.558618 0.306523 0.121248
0.603571 0.321538 0.111757
0.646143 0.334813 0.104067
0.686702 0.346899 0.098024
0.725551 0.358068 0.093050
0.762539 0.368902 0.088869
0.797696 0.379156 0.086519
0.831296 0.388861 0.086244
0.863310 0.398352 0.088777
0.893889 0.407507 0.094728
0.922942 0.416663 0.103853
0.950713 0.425666 0.116091
0.977173 0.434913 0.131533
1.000000 0.444709 0.150271
1.000000 0.455299 0.173129
1.000000 0.467323 0.200626
1.000000 0.481758 0.233860
0.120516 0.202121 0.171572
0.122988 0.202823 0.171328
0.126894 0.203952 0.170901
0.135500 0.206058 0.169497
0.149569 0.208927 0.167056
0.171939 0.212131 0.165103
0.198764 0.216007 0.165591
0.226505 0.220890 0.164309
0.257755 0.227329 0.160861
0.292363 0.236271 0.160464
0.332280 0.248081 0.159060
0.376349 0.261601 0.156435
0.418708 0.273991 0.152041
0.463752 0.287510 0.145480
0.510399 0.302037 0.138064
0.557519 0.317205 0.129763
0.602655 0.331853 0.120027
0.645075 0.345678 0.110170
0.685664 0.359045 0.098939
0.724819 0.370306 0.092622
0.761868 0.380713 0.088136
0.797177 0.390417 0.086152
0.830838 0.399817 0.086091
0.862943 0.409003 0.088930
0.893584 0.417762 0.094881
0.922759 0.426337 0.104555
0.950530 0.434852 0.117189
0.977020 0.443854 0.132662
1.000000 0.453162 0.152071
1.000000 0.463325 0.175174
1.000000 0.475105 0.203281
1.000000 0.489235 0.236698
0.117464 0.215152 0.179599
0.119966 0.215885 0.179355
0.123507 0.216983 0.178958
0.131533 0.218906 0.177646
0.144900 0.221988 0.174960
0.164462 0.225345 0.170474
0.194034 0.228733 0.171542
0.222873 0.233433 0.170565
0.253544 0.239261 0.168917
0.288334 0.247074 0.164431
0.326513 0.258000 0.164584
0.369665 0.271427 0.163058
0.417945 0.287053 0.159670
0.462867 0.300481 0.155001
0.509728 0.314672 0.147158
0.557031 0.329320 0.138766
0.602228 0.343450 0.129488
0.644862 0.356664 0.119936
0.685512 0.369696 0.109407
0.724575 0.382177 0.097963
0.761624 0.393652 0.087648
0.796994 0.403052 0.085573
0.830716 0.411841 0.085939
0.862913 0.420447 0.089418
0.893614 0.428809 0.095644
0.922789 0.437018 0.105745
0.950591 0.445167 0.118471
0.977081 0.453590 0.134554
1.000000 0.462531 0.154299
1.000000 0.472419 0.177951
1.000000 0.483772 0.206363
1.000000 0.497536 0.240299
0.113130 0.229007 0.188083
0.115450 0.229801 0.187869
0.119020 0.230716 0.187259
0.126680 0.232761 0.185885
0.139376 0.235752 0.183352
0.157992 0.239353 0.178744
0.186343 0.243076 0.176486
0.218448 0.247196 0.177066
0.249912 0.252811 0.175479
0.283726 0.259709 0.172335
0.322606 0.269474 0.167941
0.364080 0.282109 0.168734
0.410712 0.297063 0.166690
0.461616 0.313878 0.162600
0.508141 0.328038 0.157137
0.555535 0.342351 0.148775
0.601007 0.355962 0.139590
0.643702 0.368688 0.130220
0.684565 0.380987 0.120424
0.723873 0.393133 0.110048
0.761044 0.404669 0.098817
0.796384 0.415900 0.086549
0.830167 0.424598 0.086213
0.862455 0.432837 0.089418
0.893217 0.440711 0.096773
0.922545 0.448402 0.106569
0.950439 0.456062 0.119844
0.976959 0.464118 0.136477
1.000000 0.472602 0.156527
1.000000 0.482094 0.180728
1.000000 0.493141 0.209506
1.000000 0.506523 0.244114
0.106813 0.243626 0.197391
0.109438 0.244388 0.196841
0.112886 0.245335 0.196384
0.120424 0.247471 0.195163
0.132906 0.250431 0.192233
0.150790 0.254276 0.187503
0.175448 0.258366 0.180941
0.211826 0.262303 0.182864
0.245518 0.267582 0.182101
0.279973 0.273869 0.180117
0.317906 0.282658 0.175570
0.360082 0.294224 0.172519
0.404791 0.308354 0.172915
0.454078 0.324407 0.169986
0.506554 0.341772 0.165164
0.554314 0.356390 0.159335
0.599573 0.369299 0.150820
0.642420 0.381537 0.141695
0.683619 0.393500 0.132143
0.723018 0.404944 0.122469
0.760433 0.416083 0.112490
0.795865 0.426947 0.101930
0.829709 0.437263 0.091554
0.862089 0.445869 0.090150
0.892943 0.453223 0.097536
0.922301 0.460639 0.107942
0.950225 0.467781 0.121920
0.976837 0.475380 0.138949
1.000000 0.483589 0.159487
1.000000 0.492622 0.184207
1.000000 0.503258 0.213260
1.000000 0.516320 0.248325
0.098817 0.259190 0.206821
0.101534 0.259953 0.206485
0.104799 0.260899 0.205936
0.112215 0.263066 0.204593
0.124819 0.266209 0.201877
0.142275 0.270085 0.197452
0.166201 0.274510 0.190494
0.201968 0.278721 0.187564
0.239963 0.283604 0.188907
0.276402 0.290043 0.186740
0.313420 0.297185 0.184512
0.355505 0.308049 0.178927
0.400366 0.320897 0.177249
0.448066 0.336156 0.176699
0.499245 0.353063 0.173159
0.552270 0.370459 0.167880
0.598230 0.383795 0.161837
0.640955 0.395605 0.153933
0.682460 0.406928 0.144717
0.722194 0.417914 0.135561
0.759731 0.428565 0.126284
0.795407 0.438727 0.117311
0.829313 0.448737 0.108034
0.861723 0.458381 0.099184
0.892607 0.466621 0.098878
0.922057 0.473548 0.109651
0.950072 0.480293 0.124025
0.976745 0.487434 0.141634
1.000000 0.495155 0.162661
1.000000 0.503899 0.187686
1.000000 0.514183 0.217624
1.000000 0.526940 0.253269
0.087922 0.275700 0.217197
0.090425 0.276524 0.216678
0.094118 0.277470 0.216159
0.102144 0.279606 0.214878
0.114870 0.282811 0.212406
0.132784 0.286931 0.207767
0.156069 0.291600 0.201022
0.187442 0.296452 0.191989
0.231693 0.301213 0.194491
0.271244 0.307256 0.193881
0.310307 0.314458 0.191592
0.350896 0.323217 0.188083
0.396063 0.335485 0.182406
0.443336 0.349676 0.181430
0.493019 0.365332 0.180209
0.545006 0.382208 0.176333
0.595636 0.398047 0.171176
0.639704 0.410315 0.165560
0.681209 0.421454 0.158114
0.721187 0.431952 0.149172
0.759030 0.441993 0.140505
0.794827 0.451728 0.132174
0.828946 0.461128 0.124086
0.861418 0.470283 0.116762
0.892363 0.479377 0.109712
0.921874 0.487068 0.112093
0.949950 0.493568 0.126528
0.976684 0.500298 0.144594
1.000000 0.507561 0.166293
1.000000 0.515892 0.192142
1.000000 0.525811 0.222446
1.000000 0.538140 0.258732
0.072145 0.293278 0.228031
0.075196 0.294041 0.227756
0.079255 0.295018 0.227268
0.088441 0.297307 0.225925
0.102205 0.300603 0.223575
0.120638 0.304875 0.219486
0.144686 0.309758 0.212619
0.174685 0.315160 0.202518
0.219120 0.320104 0.199313
0.264286 0.325719 0.201480
0.305699 0.332830 0.199191
0.347051 0.340734 0.196750
0.391028 0.351110 0.192233
0.439185 0.364446 0.185763
0.488106 0.379370 0.185489
0.538811 0.395331 0.183749
0.588952 0.410681 0.180026
0.636988 0.424994 0.175235
0.680232 0.436683 0.169772
0.720058 0.446998 0.163729
0.758083 0.456397 0.155367
0.794156 0.465583 0.147738
0.828397 0.474434 0.140475
0.860990 0.483131 0.133913
0.892088 0.491646 0.128237
0.921630 0.500114 0.123812
0.949798 0.507317 0.129824
0.976562 0.513695 0.148226
1.000000 0.520531 0.170474
1.000000 0.528496 0.196689
1.000000 0.538018 0.227665
1.000000 0.550072 0.264622
0.035828 0.312016 0.240055
0.045380 0.312810 0.239597
0.054780 0.313970 0.239353
0.068299 0.316258 0.238010
0.085451 0.319615 0.235843
0.106203 0.323980 0.231724
0.131655 0.329107 0.225254
0.161898 0.334752 0.215427
0.201358 0.340459 0.204440
0.254185 0.345830 0.207309
0.299748 0.352575 0.207431
0.343359 0.360266 0.205081
0.387091 0.369116 0.201938
0.434668 0.381384 0.195865
0.485176 0.395575 0.188632
0.535027 0.410590 0.189578
0.584649 0.425483 0.187778
0.632410 0.439185 0.184726
0.678248 0.452064 0.180240
0.719448 0.462684 0.175906
0.757290 0.471962 0.171298
0.793484 0.480446 0.164248
0.827939 0.488746 0.157382
0.860685 0.496925 0.151736
0.891783 0.504997 0.146761
0.921416 0.512963 0.143709
0.949645 0.520836 0.141787
0.976471 0.527672 0.152285
1.000000 0.534203 0.174929
1.000000 0.541711 0.201877
1.000000 0.550896 0.233646
1.000000 0.562585 0.271214
0.000000 0.332433 0.253147
0.000000 0.333318 0.252781
0.000000 0.334386 0.252232
0.010620 0.336706 0.251194
0.059083 0.340032 0.248905
0.086854 0.344518 0.245151
0.115663 0.349798 0.239078
0.147768 0.355871 0.229984
0.185275 0.362158 0.216129
0.239506 0.367803 0.212955
0.291905 0.374151 0.215854
0.338628 0.381842 0.213626
0.384710 0.390600 0.210483
0.431128 0.400427 0.206638
0.481758 0.413947 0.199222
0.533593 0.428412 0.192691
0.582452 0.442420 0.194247
0.629786 0.455482 0.193057
0.675624 0.467781 0.190433
0.718105 0.478645 0.187106
0.756619 0.487800 0.183871
0.792569 0.496284 0.181003
0.827207 0.504021 0.175082
0.860105 0.511681 0.169802
0.891325 0.519188 0.165957
0.921050 0.526696 0.163272
0.949371 0.534142 0.162051
0.976318 0.541741 0.162844
1.000000 0.548455 0.180179
1.000000 0.555566 0.207889
1.000000 0.564416 0.240024
1.000000 0.575830 0.278569
0.000000 0.354772 0.267674
0.000000 0.355596 0.267338
0.000000 0.356695 0.266789
0.000000 0.358892 0.265599
0.000000 0.362585 0.263554
0.050385 0.366979 0.260105
0.093843 0.372534 0.254307
0.130709 0.378851 0.245396
0.169772 0.385595 0.232090
0.219120 0.392065 0.218906
0.280247 0.398260 0.222171
0.332708 0.405707 0.222721
0.381689 0.414191 0.219669
0.430030 0.423713 0.216251
0.479652 0.435096 0.210971
0.532311 0.448890 0.202823
0.582605 0.461830 0.198489
0.629541 0.474098 0.200168
0.674952 0.485695 0.199771
0.717403 0.495949 0.197848
0.756130 0.504540 0.196170
0.792020 0.512444 0.194369
0.826383 0.520256 0.192813
0.859342 0.527459 0.189181
0.890745 0.534417 0.185763
0.920562 0.541375 0.183597
0.948943 0.548394 0.183200
0.975982 0.555688 0.184848
1.000000 0.563012 0.188815
1.000000 0.569970 0.214115
1.000000 0.578454 0.247288
1.000000 0.589532 0.286503
0.000000 0.379339 0.283696
0.000000 0.380133 0.283238
0.000000 0.381170 0.282811
0.000000 0.383520 0.281804
0.000000 0.387182 0.279728
0.000000 0.391913 0.276432
0.052247 0.397498 0.271031
0.106355 0.404059 0.262486
0.150942 0.411170 0.249699
0.196750 0.418585 0.231327
0.263676 0.424933 0.228489
0.324315 0.432074 0.231571
0.377539 0.440345 0.229618
0.428992 0.449683 0.226047
0.479530 0.459937 0.222416
0.531884 0.472297 0.215305
0.583368 0.484352 0.207279
0.631373 0.495308 0.205478
0.676448 0.505913 0.207950
0.718471 0.515312 0.208591
0.757168 0.523339 0.208286
0.792660 0.530236 0.208133
0.826017 0.536797 0.207462
0.858824 0.543938 0.207919
0.890227 0.550713 0.206394
0.920134 0.557153 0.204959
0.948547 0.563806 0.205356
0.975616 0.570611 0.207462
1.000000 0.577661 0.211826
1.000000 0.585046 0.221439
1.000000 0.593194 0.255039
1.000000 0.603998 0.295476
0.000000 0.406409 0.301488
0.000000 0.407233 0.300999
0.000000 0.408392 0.300572
0.000000 0.410681 0.299504
0.000000 0.414343 0.297459
0.000000 0.419165 0.294224
0.000000 0.425086 0.289189
0.065034 0.431769 0.281224
0.125399 0.439338 0.269017
0.177035 0.447059 0.250950
0.239872 0.454505 0.235508
0.311528 0.461311 0.239109
0.371923 0.469398 0.240421
0.426917 0.478492 0.237003
0.480507 0.488411 0.233219
0.532982 0.499001 0.228794
0.584924 0.509758 0.221042
0.634455 0.519463 0.213596
0.679927 0.528801 0.214694
0.721431 0.536950 0.218601
0.759823 0.543999 0.220554
0.795102 0.550164 0.221836
0.827695 0.555505 0.222873
0.858305 0.560754 0.223941
0.889525 0.567468 0.226047
0.919371 0.573846 0.227298
0.947875 0.580072 0.228031
0.974975 0.586511 0.230747
1.000000 0.593225 0.235935
1.000000 0.600397 0.243656
1.000000 0.608301 0.263706
1.000000 0.618830 0.304967
0.000000 0.436072 0.320867
0.000000 0.436805 0.320470
0.000000 0.437995 0.320195
0.000000 0.440406 0.319158
0.000000 0.444190 0.317174
0.000000 0.449134 0.313878
0.000000 0.455055 0.308904
0.000000 0.461891 0.301305
0.086305 0.469764 0.289433
0.151522 0.477913 0.272740
0.210819 0.486458 0.248447
0.292973 0.493294 0.247349
0.362829 0.500908 0.250950
0.423407 0.509575 0.249516
0.480079 0.518822 0.245701
0.534661 0.528527 0.241794
0.587488 0.538262 0.236362
0.637537 0.546807 0.229038
0.684749 0.554437 0.222293
0.726162 0.560998 0.227359
0.764034 0.566827 0.232761
0.799039 0.572015 0.236149
0.831388 0.576562 0.238499
0.861143 0.580591 0.240848
0.888975 0.584497 0.243198
0.918639 0.590814 0.247623
0.946990 0.597223 0.251804
0.974182 0.603265 0.255131
0.999878 0.609705 0.260685
1.000000 0.616693 0.269108
1.000000 0.624201 0.281071
1.000000 0.634150 0.315251
0.000000 0.468757 0.342504
0.000000 0.469581 0.342229
0.000000 0.470741 0.341711
0.000000 0.473152 0.340581
0.000000 0.476967 0.338659
0.000000 0.481941 0.335515
0.000000 0.488014 0.330785
0.000000 0.495216 0.323156
0.000000 0.503136 0.312200
0.115236 0.511650 0.295628
0.186130 0.520470 0.272770
0.266331 0.528069 0.256382
0.348821 0.534874 0.260868
0.417273 0.542504 0.263615
0.477546 0.550958 0.260258
0.534813 0.559777 0.256565
0.590112 0.568994 0.252476
0.641840 0.577142 0.246494
0.689326 0.583215 0.239933
0.732448 0.587640 0.234409
0.769741 0.591974 0.243626
0.804379 0.595941 0.250340
0.836393 0.599542 0.254948
0.865873 0.602655 0.259068
0.892882 0.605432 0.262821
0.918059 0.608240 0.266270
0.946288 0.614496 0.272984
0.973175 0.620996 0.280735
0.998901 0.627192 0.286870
1.000000 0.633845 0.295781
1.000000 0.641352 0.308446
1.000000 0.649928 0.326146
0.000000 0.504326 0.366217
0.000000 0.505211 0.365942
0.000000 0.506310 0.365393
0.000000 0.508843 0.364416
0.000000 0.512688 0.362341
0.000000 0.517693 0.359319
0.000000 0.523919 0.354314
0.000000 0.531090 0.347326
0.000000 0.539147 0.336431
0.016571 0.547509 0.320562
0.153414 0.556146 0.298955
0.230900 0.564538 0.270054
0.329381 0.570611 0.272038
0.407385 0.577295 0.277104
0.473487 0.584833 0.276951
0.533928 0.592950 0.273564
0.591485 0.601465 0.269841
0.646784 0.610529 0.266178
0.695216 0.615259 0.260136
0.738399 0.617884 0.255039
0.777310 0.619776 0.253300
0.811307 0.622278 0.264469
0.842924 0.624689 0.272190
0.872007 0.626856 0.278355
0.898802 0.628809 0.283543
0.923308 0.630579 0.288182
0.945800 0.632319 0.293309
0.972473 0.638544 0.302403
0.997772 0.645472 0.313817
1.000000 0.652125 0.323674
1.000000 0.659510 0.337011
1.000000 0.668116 0.355230
0.000000 0.543145 0.392035
0.000000 0.543908 0.391516
0.000000 0.545068 0.391058
0.000000 0.547539 0.390021
0.000000 0.551141 0.387915
0.000000 0.556054 0.384710
0.000000 0.561913 0.379828
0.000000 0.568841 0.372503
0.000000 0.576532 0.361761
0.000000 0.584710 0.346929
0.104555 0.593133 0.326238
0.203281 0.601373 0.299626
0.301793 0.607996 0.285313
0.393103 0.613855 0.291051
0.467231 0.620447 0.296483
0.531640 0.627893 0.293370
0.591821 0.635615 0.290135
0.648798 0.643397 0.286992
0.702235 0.650446 0.283482
0.745602 0.650965 0.278569
0.784878 0.650935 0.274723
0.819913 0.651057 0.277531
0.850858 0.652003 0.289555
0.879484 0.653071 0.298466
0.905760 0.654108 0.306004
0.929900 0.655116 0.312505
0.952026 0.656153 0.318700
0.972320 0.657160 0.324743
0.996826 0.663325 0.336736
1.000000 0.670863 0.351781
1.000000 0.678492 0.366888
1.000000 0.687282 0.386206
0.000000 0.583429 0.418830
0.000000 0.584192 0.418555
0.000000 0.585290 0.418097
0.000000 0.587610 0.416846
0.000000 0.591180 0.414588
0.000000 0.595789 0.411200
0.000000 0.601556 0.406348
0.000000 0.608148 0.398932
0.000000 0.615564 0.388556
0.000000 0.623621 0.374334
0.000000 0.631922 0.354955
0.168582 0.640101 0.329808
0.264317 0.647608 0.301732
0.374151 0.652583 0.307836
0.457862 0.658106 0.314549
0.528008 0.664240 0.316503
0.590906 0.670771 0.314061
0.649622 0.677485 0.311376
0.705287 0.684291 0.309239
0.754086 0.687648 0.306004
0.793454 0.685512 0.302525
0.829160 0.683375 0.300328
0.860533 0.682033 0.307378
0.888457 0.681697 0.320500
0.914153 0.681697 0.330694
0.937743 0.681819 0.339178
0.959411 0.682094 0.346746
0.979217 0.682521 0.354437
0.997253 0.683070 0.361639
1.000000 0.689357 0.376684
1.000000 0.697993 0.396490
1.000000 0.707454 0.418616
0.000000 0.625605 0.447303
0.000000 0.626368 0.446876
0.000000 0.627405 0.446326
0.000000 0.629603 0.444984
0.000000 0.633112 0.442664
0.000000 0.637568 0.439368
0.000000 0.643091 0.434119
0.000000 0.649439 0.427039
0.000000 0.656641 0.416968
0.000000 0.664363 0.402899
0.000000 0.672267 0.384558
0.116701 0.679957 0.361456
0.239109 0.686976 0.335485
0.349950 0.691890 0.327794
0.445350 0.696071 0.335424
0.522911 0.700771 0.343084
