其他预设/【212】创意蓝橙调色预设24款/1.3D LUT预设（视频调色-PR-AE-PS-FCPX-达芬奇用）/5.蓝橙色调-自然调__.cube
# Created by Adobe Lightroom plugin Export LUT (1.17.0)
# www.johnrellis.com/lightroom/exportlut.htm
# Preset: 5.蓝橙色调-自然调[素锦印象]
# Color profile: /Library/Application Support/Adobe/Color/Profiles/Recommended/AdobeRGB1998.icc
LUT_3D_SIZE 8
DOMAIN_MIN 0.000000 0.000000 0.000000
DOMAIN_MAX 0.903226 0.903226 0.903226
0.121706 0.121706 0.121706
0.191836 0.131289 0.123171
0.304784 0.154299 0.123354
0.442603 0.190829 0.117556
0.588647 0.236118 0.101625
0.712215 0.276646 0.082368
0.825650 0.312383 0.069245
0.932372 0.345617 0.087739
0.116335 0.151400 0.139071
0.186618 0.157137 0.133242
0.302556 0.174502 0.124025
0.440833 0.208286 0.117311
0.587488 0.250095 0.100771
0.711666 0.287480 0.081147
0.825437 0.320989 0.067994
0.932341 0.352636 0.087892
0.117647 0.196872 0.171756
0.165408 0.201572 0.167056
0.289158 0.221439 0.156649
0.435370 0.253117 0.130892
0.583856 0.292271 0.097902
0.709712 0.321874 0.077333
0.824643 0.349371 0.065034
0.932219 0.376257 0.088960
0.108644 0.259129 0.216220
0.147738 0.263676 0.211368
0.267338 0.274846 0.203342
0.421027 0.306706 0.184482
0.577752 0.340948 0.148318
0.706630 0.370306 0.096956
0.823453 0.394385 0.061372
0.932097 0.415320 0.091920
0.052552 0.333471 0.268803
0.110994 0.337499 0.264378
0.241825 0.348638 0.247257
0.396399 0.365545 0.240482
0.562829 0.400366 0.215213
0.701320 0.424170 0.178561
0.821378 0.446448 0.123598
0.932067 0.466224 0.099062
0.000000 0.420264 0.330938
0.000000 0.423957 0.326879
0.197360 0.435309 0.309514
0.385077 0.448432 0.302434
0.548669 0.471962 0.283391
0.695155 0.492226 0.257847
0.817075 0.507317 0.224552
0.930999 0.524498 0.173404
0.000000 0.530602 0.410224
0.000000 0.533959 0.406287
0.104067 0.545006 0.390234
0.356268 0.558251 0.367254
0.551415 0.571832 0.365545
0.702846 0.582666 0.345892
0.821073 0.586481 0.322484
0.926665 0.594385 0.296971
0.000000 0.663172 0.505303
0.000000 0.665705 0.501244
0.000000 0.673548 0.485115
0.317082 0.682277 0.462959
0.561486 0.688258 0.476143
0.727352 0.701839 0.462104
0.849851 0.697963 0.445106
0.941833 0.689998 0.424933
0.106569 0.148928 0.171420
0.181155 0.156344 0.166415
0.296178 0.176486 0.150668
0.434089 0.216983 0.135653
0.583062 0.264530 0.100496
0.709285 0.298436 0.080323
0.824216 0.328161 0.067140
0.931945 0.355962 0.088045
0.101595 0.171603 0.182010
0.177432 0.177432 0.177432
0.292149 0.192905 0.163668
0.433021 0.226932 0.142855
0.582269 0.272923 0.106691
0.708858 0.307561 0.078645
0.824063 0.335790 0.066102
0.931945 0.362493 0.088289
0.117556 0.212161 0.200687
0.166018 0.220066 0.201358
0.283940 0.234226 0.192355
0.428931 0.260929 0.168734
0.579431 0.299596 0.134432
0.707362 0.336889 0.079835
0.823484 0.361578 0.064088
0.931914 0.384802 0.089296
0.105653 0.272160 0.239780
0.145998 0.277928 0.237522
0.268528 0.288151 0.230076
0.418006 0.314946 0.213077
0.574060 0.346288 0.180514
0.704311 0.374517 0.138277
0.822538 0.403693 0.061311
0.931884 0.422187 0.093141
0.030274 0.344793 0.288914
0.103609 0.348852 0.285100
0.237278 0.359747 0.269108
0.396307 0.374395 0.262974
0.560693 0.406348 0.239628
0.699184 0.428931 0.205386
0.820127 0.450355 0.158206
0.931975 0.471748 0.100130
0.000000 0.429206 0.347570
0.000000 0.432837 0.344030
0.191348 0.443946 0.328405
0.384222 0.456367 0.321355
0.547662 0.478401 0.303380
0.693416 0.497261 0.279362
0.815640 0.512016 0.248051
0.930266 0.528466 0.200443
0.000000 0.537255 0.424048
0.000000 0.540673 0.420661
0.083070 0.551385 0.405676
0.349889 0.564294 0.382696
0.549554 0.576928 0.382269
0.701259 0.587366 0.363256
0.819516 0.590967 0.340642
0.925689 0.598993 0.315740
0.000000 0.666773 0.516106
0.000000 0.669306 0.512047
0.000000 0.677089 0.496895
0.306279 0.685786 0.474800
0.558343 0.691249 0.487404
0.724392 0.704555 0.475624
0.848142 0.701625 0.458686
0.940490 0.693996 0.438911
0.023224 0.200137 0.251347
0.123720 0.199863 0.249393
0.277958 0.213016 0.240696
0.426276 0.228367 0.207034
0.575372 0.274846 0.187778
0.703059 0.320226 0.163882
0.821378 0.358679 0.107393
0.931548 0.382025 0.089113
0.081056 0.218021 0.258457
0.136416 0.218235 0.256931
0.275181 0.228428 0.247837
0.423529 0.242649 0.217350
0.573510 0.285161 0.197299
0.702571 0.326848 0.169986
0.821195 0.363775 0.115572
0.931548 0.387732 0.089723
0.055482 0.257267 0.279149
0.126223 0.258335 0.276799
0.268650 0.268650 0.268650
0.416876 0.283818 0.246006
0.569726 0.315435 0.221012
0.701015 0.349371 0.190402
0.820523 0.382544 0.141848
0.931640 0.407813 0.091249
0.000000 0.306920 0.303380
0.103944 0.310948 0.302983
0.241215 0.324773 0.295933
0.407813 0.341222 0.286198
0.564355 0.364782 0.258396
0.697810 0.389502 0.226749
0.818936 0.416144 0.184848
0.931762 0.441505 0.103731
0.000000 0.371374 0.341863
0.001984 0.376989 0.342473
0.207950 0.391821 0.335576
0.392279 0.403265 0.328161
0.552758 0.427436 0.309789
0.692348 0.446235 0.280430
0.816068 0.465187 0.242557
0.930510 0.484871 0.187137
0.000000 0.452857 0.395727
0.000000 0.457557 0.395270
0.157595 0.470771 0.386908
0.368261 0.482826 0.371130
0.542748 0.499886 0.364202
0.686885 0.515251 0.344121
0.810910 0.528710 0.316258
0.927703 0.543145 0.274937
0.000000 0.557458 0.467872
0.000000 0.560967 0.466041
0.000000 0.571588 0.454963
0.323125 0.583490 0.432868
0.541283 0.593042 0.434638
0.694911 0.603326 0.417334
0.813962 0.606714 0.397070
0.922362 0.614923 0.373632
0.000000 0.678737 0.551751
0.000000 0.680751 0.547936
0.000000 0.688533 0.535027
0.258366 0.697475 0.513237
0.543694 0.701381 0.522026
0.713954 0.713558 0.517662
0.841917 0.713832 0.501701
0.935851 0.707454 0.483314
0.000000 0.271885 0.356054
0.000000 0.269810 0.355016
0.193240 0.260380 0.351171
0.403174 0.285313 0.336614
0.566461 0.289006 0.285557
0.697505 0.335851 0.266148
0.817197 0.377081 0.241947
0.930694 0.407691 0.187015
0.000000 0.285557 0.362005
0.000000 0.283207 0.360906
0.196841 0.275456 0.356603
0.401251 0.297185 0.341894
0.564355 0.301488 0.293462
0.696254 0.344945 0.273686
0.816678 0.383551 0.248081
0.930816 0.411902 0.190311
0.000000 0.317784 0.378302
0.000000 0.317174 0.377020
0.195346 0.316014 0.372595
0.395850 0.332830 0.358801
0.558129 0.340948 0.318914
0.692409 0.374640 0.298253
0.815244 0.405402 0.267826
0.930663 0.428656 0.208469
0.000000 0.368078 0.405219
0.000000 0.368383 0.403601
0.172732 0.371557 0.398260
0.387152 0.387152 0.387152
0.548760 0.399542 0.360052
0.687404 0.420050 0.333593
0.813077 0.441962 0.299718
0.929595 0.461067 0.246433
0.000000 0.423590 0.432013
0.000000 0.425544 0.431464
0.141299 0.433906 0.428351
0.353491 0.450141 0.416297
0.537652 0.464729 0.407324
0.680934 0.478767 0.380346
0.809232 0.493843 0.347051
0.927428 0.508324 0.300816
0.000000 0.493141 0.472450
0.000000 0.496162 0.472145
0.014771 0.507713 0.470649
0.313970 0.523613 0.456489
0.529808 0.534295 0.451759
0.674861 0.546654 0.435554
0.803098 0.558495 0.409522
0.923522 0.569574 0.370977
0.000000 0.588525 0.535729
0.000000 0.591638 0.534874
0.000000 0.600855 0.529381
0.249729 0.612238 0.509819
0.519249 0.617823 0.505119
0.681758 0.629053 0.496345
0.804196 0.633448 0.478401
0.917144 0.641962 0.455482
0.000000 0.701228 0.611872
0.000000 0.702907 0.609186
0.000000 0.707942 0.597955
0.060060 0.715724 0.574548
0.492653 0.719539 0.565576
0.694606 0.727565 0.576196
0.830869 0.732662 0.561547
0.928557 0.728298 0.545006
0.000000 0.355535 0.474708
0.000000 0.353216 0.474037
0.000000 0.344244 0.471290
0.327459 0.343450 0.463905
0.536889 0.373663 0.445045
0.686580 0.367834 0.386023
0.808713 0.418799 0.375433
0.923583 0.456336 0.356481
0.000000 0.365301 0.479011
0.000000 0.363073 0.478340
0.000000 0.354833 0.475288
0.323125 0.351293 0.467994
0.535363 0.382879 0.449012
0.685237 0.377905 0.392065
0.808103 0.425666 0.380499
0.923552 0.460822 0.359442
0.000000 0.392035 0.491554
0.000000 0.390967 0.490730
0.000000 0.386206 0.487587
0.310033 0.380804 0.480873
0.530938 0.412299 0.462409
0.680842 0.410986 0.412543
0.806088 0.449012 0.397375
0.923827 0.475349 0.367742
0.000000 0.432654 0.511467
0.000000 0.432258 0.510643
0.000000 0.431556 0.507195
0.303258 0.434424 0.500481
0.523888 0.457862 0.484504
0.674098 0.461860 0.445472
0.803952 0.484627 0.421393
0.925750 0.496071 0.373816
0.000000 0.486549 0.538781
0.000000 0.486763 0.537713
0.000000 0.488319 0.534081
0.281315 0.495338 0.526818
0.514519 0.514519 0.514519
0.666712 0.521660 0.485695
0.801175 0.532555 0.454047
0.924102 0.540887 0.409613
0.000000 0.546868 0.569085
0.000000 0.548089 0.568597
0.000000 0.553155 0.566369
0.241154 0.564660 0.561181
0.478340 0.578363 0.542596
0.657618 0.588067 0.535515
0.793515 0.598047 0.509209
0.918700 0.604822 0.471382
0.000000 0.626368 0.617578
0.000000 0.628229 0.617060
0.000000 0.634913 0.614740
0.131624 0.647578 0.607568
0.430579 0.652613 0.579248
0.658717 0.658869 0.580499
0.791287 0.666957 0.565423
0.911437 0.676081 0.542931
0.000000 0.729213 0.685725
0.000000 0.731197 0.684871
0.000000 0.737636 0.680171
0.000000 0.742611 0.661982
0.351385 0.745052 0.628931
0.659937 0.745998 0.636927
0.813779 0.755703 0.627436
0.919585 0.753719 0.612573
0.000000 0.442329 0.596704
0.000000 0.440314 0.596338
0.000000 0.433265 0.594568
0.191257 0.423133 0.590631
0.484718 0.454688 0.580133
0.656916 0.482826 0.557641
0.794369 0.481483 0.512902
0.909056 0.540215 0.521599
0.000000 0.449348 0.599390
0.000000 0.447364 0.598932
0.000000 0.440803 0.597131
0.194705 0.431708 0.593133
0.483467 0.460609 0.582696
0.655909 0.489540 0.560723
0.793637 0.488411 0.517082
0.908934 0.544488 0.524224
0.000000 0.470222 0.607630
0.000000 0.468757 0.607172
0.000000 0.464027 0.605280
0.200198 0.458412 0.600977
0.475959 0.479316 0.591516
0.652949 0.511101 0.570733
0.791287 0.511284 0.530846
0.908782 0.558160 0.532372
0.000000 0.502129 0.620691
0.000000 0.501335 0.620203
0.000000 0.499519 0.618311
0.195315 0.498451 0.614099
0.452644 0.507500 0.606012
0.648341 0.544549 0.587152
0.788296 0.546258 0.551812
0.909789 0.578576 0.542229
0.000000 0.544457 0.638636
0.000000 0.544335 0.638087
0.000000 0.544274 0.636011
0.162264 0.546532 0.631891
0.429877 0.556054 0.623926
0.643061 0.585077 0.608240
0.786038 0.588678 0.576165
0.912718 0.603845 0.550713
0.000000 0.594934 0.660792
0.000000 0.595209 0.660151
0.000000 0.596918 0.658106
0.089906 0.602014 0.654078
0.402686 0.614038 0.647242
0.635462 0.635462 0.635462
0.782101 0.641871 0.608484
0.912810 0.647364 0.574945
0.000000 0.660731 0.697169
0.000000 0.661677 0.696864
0.000000 0.665309 0.695521
0.000000 0.672938 0.692103
0.347723 0.686152 0.684199
0.601923 0.697292 0.662470
0.774960 0.706325 0.655695
0.905150 0.715023 0.632166
0.000000 0.751095 0.756222
0.000000 0.752285 0.755825
0.000000 0.756863 0.753750
0.000000 0.765652 0.748531
0.194644 0.779660 0.736751
0.550317 0.777066 0.700160
0.785550 0.782864 0.703182
0.907713 0.785702 0.689662
0.000000 0.527214 0.715328
0.000000 0.525628 0.715053
0.000000 0.520653 0.713893
0.000000 0.515892 0.711177
0.391211 0.524102 0.705226
0.638483 0.585901 0.692897
0.769528 0.602655 0.672877
0.893767 0.617762 0.653071
0.000000 0.532097 0.717006
0.000000 0.530632 0.716640
0.000000 0.525963 0.715511
0.000000 0.521569 0.712673
0.391333 0.529992 0.706752
0.637812 0.589349 0.694514
0.769100 0.606439 0.674647
0.893614 0.621424 0.655177
0.000000 0.547936 0.722255
0.000000 0.546685 0.721950
0.000000 0.542962 0.720729
0.000000 0.540032 0.717830
0.389593 0.548852 0.711879
0.634546 0.600549 0.700130
0.767849 0.619226 0.681025
0.893370 0.633570 0.662104
0.000000 0.573571 0.731258
0.000000 0.572656 0.730922
0.000000 0.570001 0.729641
0.000000 0.568658 0.726711
0.377325 0.577691 0.720760
0.624811 0.617609 0.709865
0.765896 0.640131 0.691859
0.893675 0.653162 0.672816
0.000000 0.608423 0.744015
0.000000 0.607904 0.743648
0.000000 0.606500 0.742397
0.000000 0.605310 0.739559
0.333562 0.611780 0.733761
0.595850 0.636927 0.723903
0.763638 0.667903 0.706569
0.894804 0.679683 0.686641
0.000000 0.650935 0.760006
0.000000 0.650843 0.759731
0.000000 0.650935 0.758572
0.000000 0.652308 0.756039
0.278813 0.658320 0.751156
0.559350 0.675898 0.741817
0.759915 0.704768 0.726650
0.896544 0.713497 0.703334
0.000000 0.699001 0.778897
0.000000 0.699336 0.778622
0.000000 0.700832 0.777615
0.000000 0.704738 0.775631
0.228458 0.713832 0.771725
0.530755 0.731136 0.764401
0.753231 0.753201 0.753201
0.896727 0.759152 0.727260
0.000000 0.767330 0.820340
0.000000 0.769284 0.820157
0.000000 0.772885 0.819821
0.000000 0.779263 0.818692
0.000000 0.790555 0.815244
0.459785 0.807065 0.806394
0.720974 0.816770 0.781552
0.892149 0.824613 0.775570
0.000000 0.613062 0.835203
0.000000 0.612024 0.835080
0.000000 0.609491 0.834257
0.000000 0.610712 0.832120
0.361395 0.628901 0.827207
0.617182 0.669917 0.818997
0.780819 0.718166 0.809384
0.878264 0.731197 0.791745
0.000000 0.616632 0.836179
0.000000 0.615595 0.836027
0.000000 0.613123 0.835233
0.000000 0.614374 0.833066
0.359411 0.632197 0.828153
0.614771 0.671809 0.820066
0.780423 0.720455 0.810330
0.878233 0.733242 0.792813
0.000000 0.628168 0.839536
0.000000 0.627253 0.839353
0.000000 0.624964 0.838560
0.000000 0.626154 0.836393
0.347417 0.642817 0.831571
0.605127 0.678126 0.823697
0.778775 0.728115 0.813718
0.878050 0.740475 0.796841
0.000000 0.644221 0.845670
0.000000 0.646357 0.845304
0.000000 0.644068 0.844541
0.000000 0.644465 0.842496
0.307683 0.658778 0.837797
0.586114 0.690120 0.830106
0.773678 0.737942 0.819913
0.878050 0.752560 0.803677
0.000000 0.671504 0.854612
0.000000 0.672999 0.854246
0.000000 0.672236 0.853391
0.000000 0.667628 0.851621
0.170901 0.677485 0.847318
0.550134 0.707454 0.839414
0.761959 0.750607 0.829099
0.878080 0.770016 0.813687
0.000000 0.706416 0.866087
0.000000 0.707759 0.865782
0.000000 0.709957 0.864927
0.000000 0.707668 0.863493
0.000000 0.708339 0.860197
0.472938 0.729335 0.852659
0.733700 0.765866 0.842252
0.877867 0.793851 0.827390
0.000000 0.746822 0.879881
0.000000 0.748135 0.879667
0.000000 0.752712 0.878874
0.000000 0.753567 0.877775
0.000000 0.757351 0.875273
0.392309 0.770901 0.869566
0.684474 0.795132 0.859739
0.876432 0.826078 0.845884
0.000000 0.791440 0.895628
0.000000 0.792782 0.895506
0.000000 0.797574 0.895018
0.000000 0.803525 0.894133
0.000000 0.810269 0.892515
0.336461 0.825498 0.888426
0.650629 0.847745 0.881559
0.871611 0.871611 0.871611
