其他预设/【212】创意蓝橙调色预设24款/1.3D LUT预设（视频调色-PR-AE-PS-FCPX-达芬奇用）/5.蓝橙色调-自然调__.cube
# Created by Adobe Lightroom plugin Export LUT (1.17.0)
# www.johnrellis.com/lightroom/exportlut.htm
# Preset: 5.蓝橙色调-自然调[素锦印象]
# Color profile: /Library/Application Support/Adobe/Color/Profiles/Recommended/AdobeRGB1998.icc
LUT_3D_SIZE 32
0.121706 0.121706 0.121706
0.130922 0.122591 0.121950
0.143648 0.124086 0.122194
0.165743 0.127016 0.122713
0.191836 0.131289 0.123171
0.218540 0.135988 0.123537
0.246128 0.141238 0.123964
0.274693 0.147280 0.123629
0.304784 0.154299 0.123354
0.336919 0.161990 0.122683
0.370977 0.170748 0.121736
0.406287 0.180209 0.120241
0.442603 0.190829 0.117556
0.479347 0.201694 0.114748
0.516045 0.213016 0.111147
0.552667 0.224521 0.106691
0.588647 0.236118 0.101625
0.622217 0.247044 0.096773
0.653346 0.257176 0.092012
0.683162 0.267063 0.087037
0.712215 0.276646 0.082368
0.741146 0.285924 0.077821
0.769741 0.294957 0.073854
0.797879 0.303868 0.070710
0.825650 0.312383 0.069245
0.852995 0.320867 0.069612
0.879789 0.329137 0.072602
0.906249 0.337377 0.078706
0.932372 0.345617 0.087739
0.958221 0.354284 0.099794
0.983764 0.363195 0.114809
1.000000 0.372992 0.133547
0.121065 0.124819 0.123537
0.130495 0.126070 0.122805
0.143618 0.127687 0.121889
0.165560 0.130373 0.122438
0.191531 0.134371 0.123110
0.218265 0.138766 0.123873
0.245823 0.143740 0.123934
0.274418 0.149691 0.123781
0.304570 0.156405 0.123323
0.336797 0.164096 0.122835
0.370794 0.172732 0.121675
0.406134 0.181949 0.120027
0.442390 0.192386 0.117769
0.479194 0.203586 0.114656
0.515953 0.214878 0.110811
0.552575 0.226139 0.106600
0.588464 0.237522 0.101839
0.622126 0.248478 0.096407
0.653223 0.258671 0.091341
0.683101 0.268162 0.087007
0.712215 0.277745 0.082307
0.741115 0.286839 0.077790
0.769711 0.295964 0.073793
0.797910 0.304692 0.070314
0.825650 0.313268 0.068788
0.852964 0.321752 0.069184
0.879850 0.329839 0.072602
0.906249 0.338140 0.079011
0.932372 0.346380 0.088014
0.958221 0.354864 0.099825
0.983764 0.363867 0.115023
1.000000 0.373541 0.133577
0.120546 0.129366 0.125978
0.130037 0.130373 0.125277
0.143038 0.132174 0.124178
0.165347 0.134737 0.122621
0.191104 0.138094 0.123537
0.217960 0.142367 0.123720
0.245548 0.147189 0.123781
0.274022 0.152712 0.123690
0.304265 0.159243 0.123415
0.336339 0.166873 0.122744
0.370489 0.175570 0.121553
0.405859 0.184878 0.119875
0.442145 0.194980 0.117617
0.478920 0.205722 0.114778
0.515740 0.217044 0.110689
0.552392 0.228305 0.106203
0.588312 0.239536 0.101656
0.621912 0.250187 0.096559
0.653132 0.260227 0.091737
0.682948 0.269993 0.086763
0.712123 0.279240 0.082094
0.741054 0.288273 0.077577
0.769650 0.297215 0.073274
0.797848 0.305821 0.070558
0.825620 0.314488 0.068574
0.852964 0.322789 0.069001
0.879789 0.330907 0.072419
0.906218 0.339117 0.078553
0.932372 0.347387 0.087556
0.958221 0.355840 0.100191
0.983764 0.364660 0.115358
1.000000 0.374456 0.133639
0.118532 0.139956 0.132113
0.128542 0.140841 0.130892
0.142092 0.142245 0.130068
0.164126 0.143679 0.127962
0.190402 0.146181 0.124483
0.217258 0.149752 0.123781
0.244724 0.154055 0.124269
0.273411 0.159243 0.123964
0.303502 0.165408 0.123720
0.335698 0.172549 0.123262
0.369970 0.180911 0.121675
0.405371 0.190280 0.119936
0.441596 0.200351 0.117464
0.478401 0.210880 0.114412
0.515343 0.221653 0.110750
0.551995 0.232639 0.106294
0.588006 0.243809 0.101198
0.621668 0.254307 0.096040
0.652796 0.264225 0.090944
0.682734 0.273381 0.086336
0.711971 0.282536 0.081605
0.740902 0.291447 0.077028
0.769497 0.300206 0.073060
0.797696 0.308721 0.070344
0.825559 0.316899 0.068513
0.852903 0.325261 0.068879
0.879728 0.333257 0.072328
0.906218 0.341314 0.078492
0.932372 0.349340 0.088167
0.958251 0.357733 0.100221
0.983764 0.366552 0.115175
1.000000 0.376104 0.133852
0.116335 0.151400 0.139071
0.126101 0.151980 0.138125
0.139162 0.152529 0.137942
0.159304 0.154238 0.136507
0.186618 0.157137 0.133242
0.215549 0.160311 0.128481
0.243381 0.163912 0.124758
0.272313 0.168582 0.124666
0.302556 0.174502 0.124025
0.334783 0.181521 0.123537
0.368933 0.189487 0.121981
0.404517 0.198337 0.120241
0.440833 0.208286 0.117311
0.477668 0.218265 0.114260
0.514733 0.228794 0.110353
0.551415 0.239506 0.105837
0.587488 0.250095 0.100771
0.621180 0.260319 0.095583
0.652430 0.269657 0.090791
0.682429 0.278843 0.085512
0.711666 0.287480 0.081147
0.740719 0.296178 0.076539
0.769375 0.304601 0.072572
0.797604 0.312902 0.069032
0.825437 0.320989 0.067994
0.852811 0.328985 0.068849
0.879667 0.336889 0.071962
0.906157 0.344701 0.078523
0.932341 0.352636 0.087892
0.958221 0.360815 0.100740
0.983795 0.369512 0.115816
1.000000 0.378943 0.134432
0.115267 0.161776 0.146090
0.124147 0.162264 0.145541
0.135439 0.162600 0.145113
0.154726 0.163973 0.144320
0.179385 0.166690 0.142000
0.209873 0.171481 0.138888
0.240970 0.175998 0.134218
0.270481 0.180087 0.129061
0.301030 0.185763 0.124575
0.333532 0.192386 0.123507
0.367803 0.200076 0.122103
0.403449 0.208988 0.119692
0.439796 0.218143 0.117189
0.476722 0.227909 0.113893
0.513817 0.237980 0.109957
0.550652 0.248173 0.105653
0.586755 0.258457 0.100069
0.620508 0.268101 0.094850
0.651850 0.277043 0.090059
0.681941 0.285679 0.085084
0.711299 0.294041 0.080690
0.740414 0.302220 0.076143
0.769131 0.310307 0.071839
0.797391 0.318395 0.069032
0.825315 0.326268 0.067201
0.852689 0.333959 0.068147
0.879637 0.341527 0.072053
0.906126 0.349157 0.078645
0.932311 0.356909 0.088319
0.958221 0.364904 0.100649
0.983764 0.373449 0.116365
1.000000 0.382727 0.134859
0.114992 0.172396 0.153353
0.122988 0.172824 0.152865
0.133059 0.173281 0.152743
0.150607 0.174716 0.151461
0.173831 0.176913 0.150423
0.201572 0.180789 0.147555
0.234623 0.186862 0.144289
0.267918 0.192386 0.139528
0.298863 0.197513 0.134432
0.331853 0.204135 0.129152
0.366369 0.212375 0.123232
0.402075 0.220829 0.120058
0.438453 0.229862 0.117098
0.475654 0.239292 0.113710
0.512810 0.248997 0.109285
0.549676 0.258610 0.104982
0.585901 0.268315 0.099611
0.619806 0.277531 0.094118
0.651209 0.285954 0.089326
0.681392 0.294102 0.084016
0.710872 0.302068 0.079561
0.740047 0.309911 0.074952
0.768795 0.317662 0.070649
0.797177 0.325292 0.067781
0.825101 0.332799 0.066438
0.852567 0.340154 0.067842
0.879515 0.347509 0.071443
0.906065 0.354925 0.078126
0.932280 0.362310 0.088777
0.958221 0.370153 0.101015
0.983825 0.378363 0.116732
1.000000 0.387396 0.135714
0.115816 0.184054 0.161807
0.122957 0.184390 0.161654
0.131380 0.184878 0.161318
0.147005 0.186252 0.159854
0.169863 0.188388 0.158785
0.195377 0.191287 0.156832
0.225986 0.196506 0.153841
0.260868 0.203403 0.150271
0.296056 0.210330 0.145785
0.329290 0.216220 0.139956
0.364263 0.223667 0.133730
0.400275 0.232364 0.127169
0.437079 0.242069 0.119753
0.474342 0.251713 0.113222
0.511650 0.261021 0.108949
0.548669 0.270359 0.104097
0.584924 0.279637 0.098665
0.618830 0.288151 0.093721
0.650416 0.296391 0.087953
0.680781 0.303929 0.083192
0.710292 0.311406 0.078431
0.739590 0.318883 0.073762
0.768460 0.326207 0.069795
0.796902 0.333379 0.067018
0.824918 0.340459 0.066163
0.852384 0.347662 0.067109
0.879362 0.354589 0.071260
0.905974 0.361639 0.078340
0.932250 0.368902 0.088380
0.958221 0.376287 0.101747
0.983825 0.384344 0.117739
1.000000 0.393133 0.136721
0.117647 0.196872 0.171756
0.123568 0.197269 0.171359
0.130648 0.198001 0.170901
0.144411 0.199466 0.169436
0.165408 0.201572 0.167056
0.191592 0.203952 0.166323
0.219608 0.207736 0.164034
0.252537 0.213870 0.160922
0.289158 0.221439 0.156649
0.326757 0.229435 0.151766
0.361883 0.236088 0.145449
0.398260 0.243961 0.138613
0.435370 0.253117 0.130892
0.472908 0.262852 0.122683
0.510216 0.273259 0.112978
0.547448 0.283391 0.103212
0.583856 0.292271 0.097902
0.617945 0.300450 0.092348
0.649592 0.307805 0.087190
0.680018 0.314946 0.081819
0.709712 0.321874 0.077333
0.739071 0.328893 0.072633
0.768093 0.335668 0.068666
0.796597 0.342596 0.066285
0.824643 0.349371 0.065034
0.852201 0.356023 0.066957
0.879271 0.362737 0.071443
0.905913 0.369360 0.078309
0.932219 0.376257 0.088960
0.958221 0.383398 0.102724
0.983886 0.391150 0.118593
1.000000 0.399756 0.137789
0.118502 0.210941 0.181918
0.122927 0.211551 0.181552
0.129213 0.212070 0.181033
0.141817 0.213565 0.179568
0.161563 0.215732 0.176852
0.187991 0.217990 0.176059
0.215885 0.220951 0.174258
0.246281 0.225650 0.171725
0.281285 0.232731 0.168063
0.319554 0.241032 0.163516
0.359350 0.249943 0.158114
0.395972 0.257267 0.150912
0.433356 0.265385 0.143282
0.470924 0.274601 0.134798
0.508659 0.284184 0.125521
0.545953 0.294377 0.114626
0.582696 0.304387 0.102022
0.616938 0.313420 0.091035
0.648646 0.320409 0.085847
0.679194 0.326940 0.081086
0.709071 0.333562 0.076173
0.738521 0.340215 0.071382
0.767666 0.346441 0.067414
0.796231 0.352972 0.065064
0.824338 0.359258 0.064729
0.851987 0.365545 0.066346
0.879118 0.371832 0.070985
0.905821 0.378180 0.078523
0.932189 0.384649 0.089784
0.958221 0.391608 0.103182
0.983917 0.398993 0.119631
1.000000 0.407172 0.139345
0.116670 0.226139 0.192813
0.121157 0.226596 0.192599
0.126864 0.227359 0.191989
0.138979 0.228702 0.190433
0.157626 0.230838 0.187686
0.182620 0.233249 0.185000
0.212863 0.235813 0.185245
0.241978 0.239353 0.182956
0.275212 0.245182 0.179507
0.312139 0.252995 0.175570
0.351995 0.261967 0.170596
0.393500 0.271550 0.164431
0.431067 0.279271 0.156863
0.469001 0.287572 0.148135
0.506889 0.296452 0.139010
0.544396 0.305943 0.128450
0.581201 0.315343 0.117098
0.615503 0.324498 0.104189
0.647578 0.332952 0.089723
0.678370 0.340063 0.079225
0.708370 0.346197 0.074586
0.737972 0.352148 0.069856
0.767147 0.358251 0.066133
0.795865 0.364141 0.063416
0.824094 0.370184 0.063020
0.851774 0.375982 0.065705
0.878965 0.381903 0.070497
0.905730 0.387915 0.079103
0.932158 0.394018 0.090333
0.958251 0.400549 0.104189
0.983978 0.407660 0.121065
1.000000 0.415595 0.140902
0.113741 0.242252 0.204379
0.117678 0.242741 0.204074
0.123629 0.243412 0.203311
0.134920 0.244846 0.202060
0.153079 0.246921 0.199527
0.177401 0.249241 0.195956
0.208469 0.251743 0.195224
0.239200 0.254917 0.194339
0.270298 0.258824 0.191440
0.305943 0.265995 0.187686
0.344793 0.274388 0.183078
0.386053 0.283879 0.177340
0.428717 0.294041 0.170718
0.466926 0.301915 0.162722
0.504906 0.310033 0.153536
0.542565 0.318700 0.143221
0.579522 0.327550 0.132540
0.614038 0.335973 0.120699
0.646296 0.343847 0.107637
0.677394 0.351659 0.092866
0.707637 0.359503 0.073365
0.737331 0.365332 0.067628
0.766598 0.370703 0.064515
0.795407 0.376287 0.062104
0.823789 0.381933 0.061738
0.851530 0.387335 0.065064
0.878813 0.392828 0.070344
0.905638 0.398413 0.079744
0.932097 0.404273 0.090883
0.958282 0.410407 0.105379
0.984039 0.417212 0.122866
1.000000 0.424811 0.142733
0.108644 0.259129 0.216220
0.112856 0.259648 0.215732
0.118349 0.260258 0.215122
0.130007 0.261662 0.213748
0.147738 0.263676 0.211368
0.171542 0.266056 0.207858
0.201328 0.268711 0.204532
0.235874 0.271214 0.205936
0.267338 0.274846 0.203342
0.300664 0.279881 0.200168
0.338537 0.287938 0.195773
0.378912 0.296849 0.190494
0.421027 0.306706 0.184482
0.464454 0.317082 0.177279
0.502678 0.324926 0.168856
0.540612 0.332708 0.159091
0.577752 0.340948 0.148318
0.612421 0.348638 0.137179
0.644892 0.355840 0.125307
0.676173 0.363073 0.112123
0.706630 0.370306 0.096956
0.736599 0.377813 0.076204
0.766049 0.384070 0.063050
0.794980 0.389288 0.060700
0.823453 0.394385 0.061372
0.851286 0.399451 0.065217
0.878660 0.404578 0.070527
0.905547 0.409735 0.080323
0.932097 0.415320 0.091920
0.958312 0.421118 0.106996
0.984100 0.427558 0.124422
1.000000 0.434760 0.145022
0.101198 0.276799 0.228763
0.105562 0.277195 0.228214
0.111543 0.277775 0.227543
0.123232 0.279210 0.226261
0.141024 0.281132 0.223880
0.164889 0.283513 0.220310
0.194125 0.286259 0.216373
0.230014 0.288823 0.215732
0.264134 0.291966 0.215671
0.297276 0.296056 0.212619
0.333074 0.302434 0.208804
0.372717 0.310887 0.203769
0.414008 0.320134 0.198276
0.456611 0.329900 0.191714
0.499947 0.340124 0.184146
0.538445 0.348058 0.175662
0.575708 0.355322 0.165225
0.610590 0.362371 0.154604
0.643366 0.368933 0.143069
0.674830 0.375525 0.131044
0.705470 0.382238 0.117647
0.735683 0.389227 0.101381
0.765408 0.396429 0.080934
0.794553 0.402930 0.059205
0.823087 0.407691 0.059998
0.851041 0.412299 0.064424
0.878477 0.417029 0.071046
0.905455 0.421912 0.081117
0.932097 0.427039 0.093263
0.958343 0.432563 0.108553
0.984192 0.438636 0.126131
1.000000 0.445563 0.147677
0.091768 0.294896 0.241459
0.096132 0.295506 0.241001
0.101869 0.295995 0.240482
0.114534 0.297398 0.239109
0.133272 0.299229 0.236881
0.157046 0.301762 0.233555
0.186282 0.304509 0.229221
0.220951 0.307378 0.225467
0.259922 0.309911 0.227359
0.294347 0.313725 0.225193
0.328740 0.318181 0.221744
0.366949 0.325658 0.217533
0.407599 0.334447 0.212222
0.449653 0.343664 0.206058
0.492439 0.353399 0.199283
0.535302 0.363317 0.191409
0.573480 0.371069 0.182742
0.608576 0.377173 0.172152
0.641566 0.383154 0.161349
0.673426 0.389197 0.150057
0.704250 0.395239 0.137972
0.734676 0.401617 0.124239
0.764523 0.408240 0.107790
0.793912 0.414923 0.086824
0.822721 0.421546 0.059541
0.850797 0.425879 0.063966
0.878325 0.430152 0.071870
0.905394 0.434730 0.082185
0.932067 0.439521 0.095247
0.958404 0.444709 0.110292
0.984314 0.450385 0.128542
1.000000 0.456977 0.149996
0.076783 0.313909 0.254948
0.082582 0.314458 0.254459
0.089479 0.314916 0.253788
0.103639 0.316258 0.252598
0.123415 0.318181 0.250248
0.148226 0.320531 0.246891
0.177401 0.323308 0.242618
0.211948 0.326329 0.237736
0.252628 0.328985 0.237400
0.290623 0.332189 0.238193
0.325933 0.336278 0.234836
0.361730 0.341314 0.231205
0.401740 0.349584 0.226383
0.443275 0.358404 0.220645
0.485389 0.367559 0.214145
0.527916 0.376898 0.207034
0.570001 0.386328 0.198978
0.606287 0.392950 0.190433
0.639673 0.398230 0.180301
0.671778 0.403632 0.169284
0.702907 0.409216 0.157839
0.733486 0.415045 0.145632
0.763546 0.421057 0.131594
0.793088 0.427344 0.114900
0.822110 0.433631 0.094301
0.850553 0.439948 0.065187
0.878172 0.443946 0.072602
0.905303 0.448127 0.082918
0.932097 0.452522 0.096986
0.958465 0.457435 0.113039
0.984436 0.462806 0.131380
1.000000 0.469032 0.153445
0.052552 0.333471 0.268803
0.062531 0.333806 0.268193
0.072053 0.334417 0.267643
0.088838 0.335668 0.266575
0.110994 0.337499 0.264378
0.137636 0.340002 0.260990
0.167941 0.342748 0.256687
0.202579 0.345647 0.251591
0.241825 0.348638 0.247257
0.285130 0.351232 0.249882
0.322393 0.355016 0.248417
0.358648 0.359411 0.244968
0.396399 0.365545 0.240482
0.437140 0.373785 0.235447
0.478889 0.382483 0.229404
0.520989 0.391363 0.222690
0.562829 0.400366 0.215213
0.602686 0.408545 0.207340
0.637629 0.414405 0.198917
0.669978 0.419226 0.189242
0.701320 0.424170 0.178561
0.732204 0.429358 0.166781
0.762478 0.434852 0.154238
0.792203 0.440650 0.140200
0.821378 0.446448 0.123598
0.849943 0.452308 0.103304
0.877958 0.458228 0.075807
0.905211 0.462226 0.085023
0.932067 0.466224 0.099062
0.958526 0.470802 0.115419
0.984558 0.475837 0.134646
1.000000 0.481819 0.157015
0.000000 0.353491 0.282902
0.003937 0.353826 0.282567
0.029053 0.354406 0.281956
0.067628 0.355596 0.280766
0.095521 0.357427 0.278538
0.125154 0.359747 0.275517
0.157015 0.362493 0.271489
0.192294 0.365515 0.266117
0.231662 0.368597 0.260838
0.276371 0.371313 0.260472
0.317998 0.374426 0.262425
0.355261 0.378576 0.259007
0.392493 0.383246 0.254917
0.432105 0.390295 0.250340
0.473396 0.398566 0.244694
0.515221 0.407111 0.238376
0.557214 0.415717 0.231693
0.597223 0.423590 0.224277
0.634424 0.430304 0.216617
0.667964 0.435584 0.208621
0.699611 0.440101 0.198764
0.730739 0.444800 0.188083
0.761257 0.449714 0.176547
0.791165 0.454932 0.164187
0.820493 0.460243 0.150118
0.849241 0.465705 0.134005
0.877409 0.471138 0.114137
0.905180 0.476661 0.087922
0.932097 0.480415 0.101747
0.958618 0.484688 0.118532
0.984710 0.489448 0.137911
1.000000 0.495125 0.161166
0.000000 0.374426 0.297917
0.000000 0.374792 0.297734
0.000000 0.375341 0.296971
0.005341 0.376501 0.295842
0.072786 0.378302 0.293828
0.109163 0.380591 0.290776
0.144350 0.383368 0.286625
0.181338 0.386389 0.281529
0.221439 0.389532 0.275761
0.264591 0.392737 0.271458
0.311528 0.395392 0.274113
0.351781 0.399115 0.273777
0.390173 0.403601 0.269902
0.428107 0.408453 0.265721
0.469306 0.416327 0.260533
0.511070 0.424475 0.254856
0.552941 0.432746 0.248325
0.593164 0.440284 0.241245
0.630640 0.446632 0.234287
0.665492 0.451942 0.226780
0.697841 0.456641 0.218906
0.729091 0.460975 0.209903
0.759854 0.465370 0.199069
0.790005 0.470192 0.187472
0.819547 0.475013 0.175296
0.848417 0.479988 0.161440
0.876738 0.485084 0.145327
0.904631 0.490211 0.126345
0.932128 0.495247 0.104494
0.958740 0.499092 0.122042
0.984894 0.503563 0.142031
1.000000 0.508995 0.165530
0.000000 0.396521 0.314000
0.000000 0.396979 0.313634
0.000000 0.397559 0.313085
0.000000 0.398657 0.311772
0.009339 0.400427 0.309758
0.087404 0.402716 0.306950
0.128969 0.405432 0.303136
0.168856 0.408484 0.298222
0.210025 0.411749 0.292149
0.253880 0.415045 0.286290
0.302800 0.417823 0.286290
0.347936 0.420996 0.288975
0.387640 0.425238 0.285771
0.426825 0.429938 0.281621
0.466316 0.435676 0.277165
0.508171 0.443549 0.271458
0.550134 0.451423 0.265415
0.590478 0.458595 0.258762
0.628168 0.464454 0.252079
0.663233 0.469368 0.245243
0.696040 0.473671 0.238132
0.727382 0.477821 0.230533
0.758267 0.482155 0.221927
0.788663 0.486336 0.211215
0.818357 0.490822 0.199619
0.847440 0.495247 0.187869
0.875944 0.499886 0.174228
0.903990 0.504631 0.158572
0.931670 0.509422 0.140139
0.958831 0.513970 0.126162
0.985046 0.518151 0.146578
1.000000 0.523339 0.170230
0.000000 0.420264 0.330938
0.000000 0.420600 0.330541
0.000000 0.421149 0.329931
0.000000 0.422278 0.328893
0.000000 0.423957 0.326879
0.039612 0.426154 0.324132
0.108125 0.428962 0.320348
0.153506 0.431952 0.315404
0.197360 0.435309 0.309514
0.242741 0.438727 0.303136
0.290684 0.441932 0.298650
0.341375 0.444617 0.301976
0.385077 0.448432 0.302434
0.425422 0.452918 0.298589
0.465492 0.457923 0.294133
0.506462 0.464393 0.288945
0.548669 0.471962 0.283391
0.589075 0.478645 0.277073
0.626947 0.483986 0.270970
0.662135 0.488411 0.264591
0.695155 0.492226 0.257847
0.726467 0.495705 0.250645
0.756619 0.499214 0.243351
0.787106 0.503410 0.234989
0.817075 0.507317 0.224552
0.846342 0.511437 0.213565
0.874968 0.515679 0.201846
0.903197 0.520043 0.188632
0.930999 0.524498 0.173404
0.958495 0.528954 0.155520
0.985260 0.533288 0.151186
1.000000 0.538231 0.175845
0.000000 0.445319 0.348974
0.000000 0.445716 0.348577
0.000000 0.446174 0.348119
0.000000 0.447272 0.346990
0.000000 0.448951 0.344976
0.000000 0.451209 0.342321
0.075685 0.453834 0.338537
0.133822 0.456916 0.333776
0.182528 0.460243 0.327916
0.230228 0.463783 0.321294
0.279332 0.467109 0.315709
0.332708 0.470100 0.315618
0.381445 0.473274 0.318791
0.424170 0.477516 0.316381
0.465339 0.482307 0.312200
0.506188 0.487434 0.307622
0.548180 0.494270 0.302098
0.588830 0.500298 0.296483
0.626764 0.505150 0.290532
0.662196 0.508965 0.284550
0.695521 0.512322 0.278233
0.726986 0.515312 0.271458
0.756832 0.517937 0.264775
0.785550 0.520745 0.257633
0.815549 0.524804 0.250248
0.845029 0.528588 0.239994
0.873869 0.532433 0.229129
0.902251 0.536461 0.217899
0.930236 0.540581 0.205112
0.957824 0.544762 0.190555
0.985046 0.548943 0.173526
1.000000 0.553521 0.181918
0.000000 0.471962 0.368109
0.000000 0.472267 0.367712
0.000000 0.472847 0.367315
0.000000 0.473884 0.366094
0.000000 0.475532 0.364141
0.000000 0.477760 0.361578
0.000000 0.480385 0.357946
0.105592 0.483467 0.353368
0.163760 0.486793 0.347662
0.215854 0.490364 0.341070
0.267704 0.493782 0.334478
0.320745 0.497108 0.330480
0.375433 0.499886 0.333684
0.422705 0.503624 0.335302
0.465309 0.508171 0.331212
0.507256 0.513176 0.326909
0.548699 0.518486 0.322026
0.589624 0.523888 0.316350
0.627771 0.527977 0.310948
0.663294 0.531243 0.305394
0.696864 0.534020 0.299474
0.728634 0.536461 0.293462
0.758633 0.538628 0.286931
0.786893 0.540520 0.280156
0.814023 0.542504 0.272953
0.843503 0.546471 0.266209
0.872557 0.550072 0.257023
0.901122 0.553826 0.246769
0.929198 0.557671 0.236027
0.956970 0.561669 0.223697
0.984344 0.565606 0.209781
1.000000 0.569421 0.193851
0.000000 0.500389 0.388434
0.000000 0.500755 0.388067
0.000000 0.501152 0.387579
0.000000 0.502190 0.386481
0.000000 0.503807 0.384527
0.000000 0.506035 0.382025
0.000000 0.508629 0.378607
0.050690 0.511681 0.373938
0.139864 0.514946 0.368261
0.199039 0.518517 0.361578
0.254429 0.522118 0.355016
0.309667 0.525536 0.349218
0.367102 0.528435 0.349706
0.419501 0.531609 0.353002
0.465034 0.535607 0.351812
0.508202 0.540093 0.347478
0.550286 0.544762 0.342992
0.591302 0.549340 0.337804
0.629664 0.552728 0.332738
0.665461 0.555230 0.327367
0.699275 0.557427 0.321965
0.731380 0.559380 0.316167
0.761563 0.561059 0.310002
0.790005 0.562371 0.303929
0.816678 0.563470 0.297246
0.842039 0.564416 0.290166
0.871061 0.568353 0.284337
0.899779 0.571984 0.275853
0.928038 0.575586 0.266361
0.955932 0.579431 0.256016
0.983398 0.583246 0.244968
1.000000 0.587060 0.232486
0.000000 0.530602 0.410224
0.000000 0.530846 0.409827
0.000000 0.531365 0.409247
0.000000 0.532433 0.408148
0.000000 0.533959 0.406287
0.000000 0.536065 0.403723
0.000000 0.538689 0.400244
0.000000 0.541680 0.395727
0.104067 0.545006 0.390234
0.178073 0.548608 0.383703
0.239170 0.552026 0.376898
0.298009 0.555322 0.370397
0.356268 0.558251 0.367254
0.414191 0.560662 0.371008
0.464424 0.563684 0.374029
0.508507 0.567681 0.370031
0.551415 0.571832 0.365545
0.593317 0.576074 0.360754
0.632563 0.579339 0.355810
0.668696 0.581109 0.350958
0.702846 0.582666 0.345892
0.735164 0.584009 0.340307
0.765621 0.585138 0.334600
0.794217 0.585962 0.328740
0.821073 0.586481 0.322484
0.846189 0.586694 0.316136
0.869718 0.586725 0.309361
0.898314 0.590631 0.303990
0.926665 0.594385 0.296971
0.954681 0.598077 0.288334
0.982269 0.601892 0.279332
1.000000 0.605768 0.269749
0.000000 0.562737 0.433173
0.000000 0.563043 0.432837
0.000000 0.563500 0.432288
0.000000 0.564508 0.431250
0.000000 0.565972 0.429236
0.000000 0.567956 0.426734
0.000000 0.570397 0.423224
0.000000 0.573175 0.418799
0.000000 0.576287 0.413031
0.151003 0.579400 0.406592
0.221714 0.582605 0.399786
0.285161 0.585626 0.393256
0.346380 0.588281 0.388769
0.407538 0.590356 0.390570
0.461891 0.592706 0.394202
0.508965 0.595880 0.394324
0.552453 0.599573 0.390295
0.594751 0.603388 0.385840
0.636072 0.607416 0.380804
0.672969 0.608881 0.376074
0.707576 0.609827 0.371191
0.740139 0.610620 0.366247
0.770779 0.611109 0.361059
0.799588 0.611383 0.355291
0.826535 0.611383 0.349615
0.851743 0.611078 0.343542
0.875364 0.610590 0.337407
0.897581 0.609918 0.330724
0.925170 0.613550 0.326268
0.953216 0.617548 0.320653
0.980896 0.621363 0.313481
1.000000 0.625422 0.306401
0.000000 0.595605 0.456886
0.000000 0.595911 0.456550
0.000000 0.596307 0.455970
0.000000 0.597223 0.454749
0.000000 0.598596 0.452857
0.000000 0.600427 0.450111
0.000000 0.602655 0.446540
0.000000 0.605219 0.442145
0.000000 0.607996 0.436652
0.112428 0.610895 0.430335
0.201297 0.613794 0.423499
0.271550 0.616480 0.416968
0.336797 0.618799 0.412238
0.400092 0.620691 0.411933
0.458747 0.622431 0.416114
0.509667 0.624720 0.419684
0.554101 0.628016 0.416938
0.596765 0.631525 0.412726
0.638331 0.635218 0.408240
0.678492 0.638636 0.403388
0.713405 0.638972 0.398840
0.746334 0.639155 0.394202
0.777188 0.639094 0.389319
0.806119 0.638758 0.384222
0.833097 0.638178 0.378882
0.858366 0.637354 0.373266
0.882078 0.636286 0.367376
0.904295 0.635157 0.361151
0.925200 0.633845 0.354620
0.951659 0.637201 0.351141
0.979309 0.641688 0.347662
1.000000 0.645930 0.342626
0.000000 0.629084 0.480873
0.000000 0.629358 0.480537
0.000000 0.629725 0.479988
0.000000 0.630549 0.478676
0.000000 0.631800 0.476753
0.000000 0.633448 0.474128
0.000000 0.635462 0.470497
0.000000 0.637812 0.465888
0.000000 0.640345 0.460487
0.008240 0.643000 0.454292
0.176638 0.645563 0.447730
0.256718 0.647883 0.441535
0.326970 0.649989 0.436957
0.393774 0.651606 0.436225
0.456123 0.652918 0.440436
0.509972 0.654841 0.444648
