其他预设/【212】创意蓝橙调色预设24款/1.3D LUT预设（视频调色-PR-AE-PS-FCPX-达芬奇用）/5.蓝橙色调-自然调__.cube
# Created by Adobe Lightroom plugin Export LUT (1.17.0)
# www.johnrellis.com/lightroom/exportlut.htm
# Preset: 5.蓝橙色调-自然调[素锦印象]
# Color profile: /Library/Application Support/Adobe/Color/Profiles/Recommended/AdobeRGB1998.icc
LUT_3D_SIZE 5
DOMAIN_MIN 0.000000 0.000000 0.000000
DOMAIN_MAX 0.903226 0.903226 0.903226
0.121706 0.121706 0.121706
0.274693 0.147280 0.123629
0.516045 0.213016 0.111147
0.741146 0.285924 0.077821
0.932372 0.345617 0.087739
0.115816 0.184054 0.161807
0.260868 0.203403 0.150271
0.511650 0.261021 0.108949
0.739590 0.318883 0.073762
0.932250 0.368902 0.088380
0.091768 0.294896 0.241459
0.220951 0.307378 0.225467
0.492439 0.353399 0.199283
0.734676 0.401617 0.124239
0.932067 0.439521 0.095247
0.000000 0.445319 0.348974
0.133822 0.456916 0.333776
0.465339 0.482307 0.312200
0.726986 0.515312 0.271458
0.930236 0.540581 0.205112
0.000000 0.663172 0.505303
0.000000 0.671199 0.490425
0.455238 0.684565 0.467323
0.762448 0.702327 0.457893
0.941833 0.689998 0.424933
0.069306 0.185641 0.229068
0.251438 0.197177 0.220005
0.503014 0.248447 0.178103
0.734829 0.326574 0.121706
0.931579 0.374578 0.088624
0.083528 0.233646 0.252140
0.243320 0.243320 0.243320
0.498177 0.282322 0.204654
0.733639 0.346746 0.144839
0.931609 0.394598 0.089754
0.000000 0.327001 0.302586
0.196292 0.344060 0.297642
0.483864 0.376165 0.276036
0.728695 0.416205 0.219059
0.931762 0.457832 0.109071
0.000000 0.469856 0.397742
0.085512 0.482795 0.389471
0.461341 0.505425 0.370825
0.721065 0.532036 0.336400
0.927520 0.555047 0.278080
0.000000 0.674769 0.540246
0.000000 0.682673 0.527703
0.426856 0.696132 0.499306
0.754879 0.713375 0.500725
0.937316 0.703212 0.469795
0.000000 0.313237 0.414771
0.047730 0.304448 0.411933
0.470375 0.327977 0.390204
0.723659 0.362310 0.320806
0.928008 0.426978 0.272343
0.000000 0.345464 0.429847
0.080385 0.340673 0.426520
0.465492 0.361028 0.405097
0.720119 0.391211 0.342382
0.928344 0.441260 0.281285
0.000000 0.427893 0.472724
0.000000 0.429206 0.468421
0.451118 0.451118 0.451118
0.711330 0.472358 0.402350
0.927214 0.497658 0.329503
0.000000 0.540307 0.532982
0.000000 0.548089 0.531334
0.384497 0.570916 0.508659
0.700038 0.586816 0.493660
0.919646 0.603662 0.439582
0.000000 0.715572 0.648371
0.000000 0.720546 0.640742
0.239872 0.730220 0.599603
0.719844 0.739498 0.604120
0.924376 0.740291 0.577783
0.000000 0.463539 0.626398
0.000000 0.457099 0.625025
0.310094 0.444709 0.617914
0.685237 0.513115 0.586694
0.904936 0.561944 0.558343
0.000000 0.483375 0.633814
0.000000 0.478309 0.632136
0.312963 0.470771 0.624781
0.682704 0.531884 0.595361
0.904662 0.575006 0.566217
0.000000 0.538598 0.655604
0.000000 0.537163 0.653986
0.295689 0.539269 0.646357
0.676081 0.584955 0.621942
0.906554 0.610956 0.583520
0.000000 0.621302 0.690547
0.000000 0.622675 0.688869
0.228794 0.632410 0.682338
0.664942 0.664881 0.664912
0.909392 0.674830 0.613581
0.000000 0.755673 0.773037
0.000000 0.759792 0.771664
0.000000 0.775082 0.763272
0.594537 0.786130 0.719600
0.904204 0.794797 0.710353
0.000000 0.613062 0.835203
0.000000 0.610101 0.834562
0.146334 0.616663 0.830137
0.667811 0.683772 0.816464
0.878264 0.731197 0.791745
0.000000 0.624506 0.838499
0.000000 0.621851 0.837766
0.120302 0.628107 0.833310
0.662593 0.690700 0.819913
0.878111 0.738155 0.795560
0.000000 0.656611 0.849821
0.000000 0.657160 0.848844
0.000000 0.659113 0.844846
0.625696 0.706691 0.832151
0.878080 0.760555 0.808286
0.000000 0.715999 0.869322
0.000000 0.720516 0.868406
0.000000 0.718624 0.865599
0.528527 0.744442 0.854215
0.877653 0.800992 0.831510
0.000000 0.791440 0.895628
0.000000 0.796017 0.895140
0.000000 0.806180 0.893553
0.432258 0.830655 0.886931
0.871611 0.871611 0.871611
