其他预设/【212】创意蓝橙调色预设24款/1.3D LUT预设（视频调色-PR-AE-PS-FCPX-达芬奇用）/6.蓝橙色调__.cube
# Created by Adobe Lightroom plugin Export LUT (1.17.0)
# www.johnrellis.com/lightroom/exportlut.htm
# Preset: 6.蓝橙色调[素锦印象]
# Color profile: /Library/Application Support/Adobe/Color/Profiles/Recommended/AdobeRGB1998.icc
LUT_3D_SIZE 5
DOMAIN_MIN 0.000000 0.000000 0.000000
DOMAIN_MAX 0.903226 0.903226 0.903226
0.091402 0.091402 0.091402
0.267338 0.131594 0.104616
0.563470 0.224704 0.111238
0.834836 0.328130 0.140108
0.987823 0.423987 0.270878
0.086244 0.152132 0.126772
0.253849 0.188907 0.119417
0.557427 0.273655 0.114382
0.832883 0.360815 0.143191
0.987182 0.444129 0.277165
0.000000 0.272190 0.206577
0.200229 0.296696 0.180789
0.538384 0.376593 0.169253
0.827695 0.453895 0.156435
0.984680 0.508019 0.300542
0.000000 0.434821 0.316442
0.000000 0.461646 0.296300
0.513481 0.522026 0.248081
0.823545 0.574670 0.253056
0.980133 0.605646 0.348058
0.000000 0.708766 0.491920
0.000000 0.725551 0.478889
0.465919 0.761959 0.400732
0.860624 0.772305 0.418494
0.980163 0.743282 0.501030
0.029999 0.135317 0.190738
0.223514 0.164553 0.193637
0.533288 0.253269 0.168246
0.823056 0.369635 0.141176
0.985595 0.442878 0.274357
0.000000 0.192386 0.214420
0.213657 0.213657 0.213657
0.527550 0.288823 0.193149
0.822141 0.392584 0.156283
0.985046 0.461250 0.280827
0.000000 0.294896 0.265751
0.148470 0.325231 0.264286
0.517021 0.385962 0.247166
0.818173 0.465461 0.221714
0.983062 0.521263 0.304387
0.000000 0.454749 0.367254
0.000000 0.483467 0.362188
0.492348 0.541161 0.310369
0.814786 0.585931 0.319188
0.978332 0.616388 0.361608
0.000000 0.717739 0.532982
0.000000 0.732570 0.525444
0.410620 0.770901 0.448798
0.850980 0.784390 0.469825
0.974701 0.755734 0.541772
0.000000 0.237125 0.368231
0.000000 0.255711 0.372229
0.459785 0.290654 0.377295
0.798825 0.388281 0.341100
0.977722 0.492531 0.357671
0.000000 0.286107 0.385473
0.000000 0.295842 0.391516
0.454017 0.328740 0.390387
0.795010 0.419043 0.361395
0.977569 0.506767 0.366369
0.000000 0.380316 0.435370
0.000000 0.395544 0.439094
0.432898 0.432898 0.432898
0.786831 0.506218 0.416693
0.974517 0.563165 0.411780
0.000000 0.518761 0.511192
0.000000 0.537621 0.514916
0.326513 0.596582 0.498482
0.780514 0.631403 0.496132
0.963226 0.667414 0.517052
0.000000 0.750118 0.662379
0.000000 0.760128 0.654139
0.000000 0.793057 0.601221
0.793637 0.807248 0.604700
0.957855 0.791714 0.646174
0.000000 0.387823 0.620142
0.000000 0.409461 0.618128
0.000000 0.385138 0.637079
0.733486 0.499184 0.616632
0.935882 0.651972 0.651942
0.000000 0.424689 0.631617
0.000000 0.442084 0.629358
0.000000 0.422126 0.646784
0.730007 0.525811 0.626520
0.935271 0.663081 0.658442
0.000000 0.500755 0.663294
0.000000 0.517052 0.661311
0.000000 0.519951 0.674250
0.720760 0.602014 0.657862
0.936400 0.693385 0.672938
0.000000 0.608118 0.709987
0.000000 0.621027 0.708064
0.000000 0.646021 0.714443
0.702113 0.702113 0.702113
0.938262 0.745388 0.695918
0.000000 0.760647 0.799985
0.000000 0.771695 0.798611
0.000000 0.811093 0.791653
0.606500 0.837339 0.745266
0.931945 0.839902 0.768307
0.000000 0.521233 0.858640
0.000000 0.536431 0.857725
0.000000 0.569024 0.857115
0.598840 0.642573 0.855406
0.900389 0.774380 0.833188
0.000000 0.537133 0.861845
0.000000 0.551080 0.860929
0.000000 0.584344 0.859800
0.591028 0.653285 0.858274
0.900145 0.781643 0.836851
0.000000 0.576867 0.871916
0.000000 0.584375 0.871092
0.000000 0.626520 0.867674
0.526116 0.673732 0.867765
0.899321 0.803006 0.847440
0.000000 0.653468 0.887633
0.000000 0.660243 0.887175
0.000000 0.682124 0.884764
0.266361 0.710567 0.883024
0.897307 0.837766 0.864836
0.000000 0.746517 0.907225
0.000000 0.753017 0.906950
0.000000 0.776913 0.905272
0.000000 0.820890 0.902770
0.891173 0.891173 0.891173
