其他预设/【212】创意蓝橙调色预设24款/1.3D LUT预设（视频调色-PR-AE-PS-FCPX-达芬奇用）/6.蓝橙色调__.cube
# Created by Adobe Lightroom plugin Export LUT (1.17.0)
# www.johnrellis.com/lightroom/exportlut.htm
# Preset: 6.蓝橙色调[素锦印象]
# Color profile: /Library/Application Support/Adobe/Color/Profiles/Recommended/AdobeRGB1998.icc
LUT_3D_SIZE 8
DOMAIN_MIN 0.000000 0.000000 0.000000
DOMAIN_MAX 0.903226 0.903226 0.903226
0.091402 0.091402 0.091402
0.168002 0.107393 0.098970
0.302464 0.141299 0.105989
0.467933 0.192325 0.110536
0.655818 0.257389 0.112886
0.804685 0.315221 0.130648
0.911315 0.365423 0.181369
0.987823 0.423987 0.270878
0.091188 0.115755 0.104494
0.163760 0.131899 0.102968
0.299962 0.161746 0.107729
0.465370 0.209689 0.111879
0.653864 0.271611 0.113436
0.803586 0.325811 0.131350
0.910826 0.373297 0.182193
0.987549 0.429877 0.272648
0.082185 0.166629 0.136538
0.138003 0.177584 0.130739
0.286931 0.210483 0.126192
0.458930 0.259403 0.115602
0.649226 0.315160 0.116213
0.801358 0.360937 0.134676
0.909911 0.400549 0.187198
0.986908 0.450660 0.279454
0.042634 0.234501 0.181613
0.107637 0.243961 0.174929
0.262577 0.266148 0.162203
0.445380 0.315282 0.155612
0.643488 0.376715 0.129000
0.798245 0.415351 0.140963
0.908141 0.444800 0.195895
0.985595 0.485725 0.291630
0.000000 0.312474 0.233555
0.000000 0.320928 0.228031
0.223728 0.343236 0.198886
0.422095 0.377050 0.190799
0.629267 0.437171 0.184390
0.793668 0.479316 0.170840
0.905608 0.501793 0.210391
0.983612 0.533043 0.311284
0.000000 0.406287 0.297063
0.000000 0.414740 0.293065
0.150729 0.440192 0.263340
0.403265 0.471870 0.240482
0.621729 0.515984 0.220096
0.790555 0.549645 0.233890
0.902190 0.567407 0.249485
0.980987 0.590204 0.339361
0.000000 0.538231 0.384710
0.000000 0.545769 0.382177
0.000000 0.572351 0.357488
0.355322 0.604883 0.297856
0.626551 0.637018 0.295109
0.805966 0.646357 0.286931
0.905272 0.644587 0.331273
0.977295 0.654322 0.377752
0.000000 0.708766 0.491920
0.000000 0.713252 0.490089
0.000000 0.731563 0.469520
0.267094 0.755612 0.407904
0.613947 0.768032 0.411109
0.831083 0.782101 0.417243
0.926146 0.750546 0.443214
0.980163 0.743282 0.501030
0.080659 0.108064 0.133822
0.148898 0.121309 0.134340
0.286900 0.157809 0.125795
0.451087 0.217166 0.117098
0.643854 0.280491 0.113832
0.798734 0.332616 0.131136
0.908812 0.377081 0.181827
0.986908 0.430488 0.271824
0.077729 0.131838 0.144961
0.144869 0.144869 0.144869
0.281987 0.175021 0.139345
0.450141 0.227909 0.124331
0.642847 0.291905 0.114351
0.798093 0.342107 0.131533
0.908476 0.384375 0.182803
0.986633 0.436133 0.273472
0.066957 0.179263 0.165316
0.129702 0.193210 0.168429
0.274907 0.217472 0.163394
0.446509 0.263737 0.149203
0.640070 0.328099 0.119905
0.796506 0.373663 0.135012
0.907652 0.409735 0.187411
0.986053 0.456153 0.280247
0.000000 0.245029 0.205417
0.097841 0.255406 0.203830
0.256321 0.276036 0.189059
0.437415 0.318578 0.185000
0.635676 0.377508 0.163699
0.793973 0.424048 0.141146
0.906157 0.451881 0.196414
0.984833 0.490272 0.292454
0.000000 0.321813 0.254093
0.000000 0.330053 0.250706
0.204990 0.352331 0.219699
0.418372 0.383551 0.213321
0.624018 0.439429 0.209171
0.789883 0.481392 0.197848
0.904143 0.507225 0.210727
0.983001 0.536858 0.312291
0.000000 0.413916 0.314549
0.000000 0.422034 0.311650
0.135348 0.447242 0.287663
0.395514 0.478614 0.259495
0.618555 0.520287 0.240391
0.787625 0.552636 0.255619
0.900206 0.570794 0.270665
0.980499 0.593225 0.340673
0.000000 0.543847 0.400153
0.000000 0.551141 0.398047
0.000000 0.577356 0.377081
0.335058 0.610346 0.313664
0.620691 0.641138 0.313146
0.803677 0.649775 0.303288
0.903197 0.648096 0.348638
0.975708 0.658595 0.394171
0.000000 0.711421 0.504417
0.000000 0.715846 0.502586
0.000000 0.733791 0.484932
0.245670 0.757961 0.427283
0.605921 0.770352 0.427619
0.825772 0.784024 0.433417
0.924224 0.753780 0.456550
0.978515 0.746944 0.513542
0.000000 0.146395 0.211826
0.022278 0.156954 0.212222
0.250858 0.180697 0.215427
0.428779 0.220066 0.197421
0.625940 0.289677 0.182437
0.787198 0.357916 0.170169
0.903899 0.405249 0.184054
0.985199 0.448005 0.275914
0.000000 0.171450 0.219364
0.059846 0.177798 0.221836
0.247562 0.197635 0.221592
0.425269 0.234592 0.206638
0.623407 0.300114 0.191470
0.786618 0.364843 0.175692
0.903624 0.411688 0.185061
0.984985 0.453285 0.277592
0.000000 0.214572 0.240238
0.004974 0.221683 0.242008
0.239139 0.239139 0.239139
0.418128 0.275242 0.230747
0.619501 0.332311 0.212680
0.785489 0.389075 0.193790
0.903014 0.434272 0.190005
0.984436 0.471901 0.284123
0.000000 0.269200 0.264744
0.000000 0.278294 0.268162
0.202457 0.302892 0.263767
0.412726 0.332128 0.258427
0.615015 0.383978 0.244541
0.782956 0.431647 0.226200
0.901549 0.469886 0.219760
0.983398 0.504204 0.296788
0.000000 0.339330 0.304479
0.000000 0.350134 0.308354
0.154391 0.377691 0.303319
0.396887 0.404944 0.281071
0.606683 0.449897 0.281163
0.778592 0.491127 0.273503
0.898558 0.519829 0.270024
0.981750 0.548821 0.316533
0.000000 0.431250 0.362860
0.000000 0.441474 0.365118
0.000000 0.469581 0.358892
0.351751 0.500877 0.318395
0.605097 0.536522 0.306493
0.777096 0.564263 0.322606
0.893553 0.584009 0.336034
0.978485 0.604852 0.358984
0.000000 0.560876 0.447608
0.000000 0.567407 0.447700
0.000000 0.593622 0.437812
0.270024 0.627344 0.387304
0.595392 0.654658 0.373968
0.794705 0.662776 0.362127
0.896086 0.661585 0.406775
0.970520 0.674769 0.448463
0.000000 0.720699 0.546441
0.000000 0.724331 0.543908
0.000000 0.740475 0.533288
0.133577 0.765743 0.487953
0.572229 0.777584 0.476051
0.806210 0.789914 0.484810
0.917479 0.764828 0.499519
0.972869 0.759670 0.554131
0.000000 0.202090 0.310033
0.000000 0.213291 0.309056
0.095888 0.209934 0.320104
0.382147 0.250278 0.316930
0.597436 0.290288 0.290135
0.773495 0.361151 0.276921
0.896025 0.422736 0.276951
0.983062 0.471077 0.284916
0.000000 0.225498 0.316564
0.000000 0.233555 0.315496
0.100038 0.227848 0.326268
0.380133 0.263279 0.321386
0.594995 0.303410 0.296880
0.772000 0.370489 0.283970
0.895415 0.429511 0.282628
0.983032 0.475288 0.287785
0.000000 0.263554 0.333776
0.000000 0.270878 0.333593
0.093904 0.274876 0.342992
0.373480 0.302037 0.335973
0.588037 0.343603 0.318486
0.768002 0.401953 0.306645
0.894072 0.452186 0.300938
0.982391 0.492378 0.302800
0.000000 0.318914 0.362890
0.000000 0.324895 0.361791
0.000000 0.338231 0.369665
0.360723 0.360723 0.360723
0.578546 0.403265 0.352087
0.763302 0.450263 0.338384
0.891752 0.490028 0.329931
0.980316 0.524773 0.334691
0.000000 0.382940 0.393286
0.000000 0.388708 0.393378
0.000000 0.410407 0.401953
0.312291 0.441749 0.390631
0.572137 0.473091 0.386328
0.758175 0.513512 0.380438
0.887816 0.543694 0.374334
0.976623 0.571893 0.383154
0.000000 0.464668 0.440009
0.000000 0.470192 0.440436
0.000000 0.498909 0.450568
0.247837 0.536492 0.437079
0.567376 0.565942 0.412604
0.756802 0.588251 0.424292
0.881468 0.610681 0.434699
0.970520 0.632624 0.449042
0.000000 0.587488 0.521386
0.000000 0.593103 0.521721
0.000000 0.616693 0.522637
0.094697 0.650843 0.500725
0.532677 0.675135 0.468177
0.773892 0.688014 0.459327
0.882597 0.686458 0.496071
0.961547 0.702174 0.528588
0.000000 0.738827 0.618555
0.000000 0.742061 0.616114
0.000000 0.752834 0.606134
0.000000 0.775998 0.575036
0.486519 0.790188 0.543725
0.768490 0.799008 0.561517
0.905303 0.782986 0.561639
0.963500 0.780056 0.614008
0.000000 0.275486 0.431739
0.000000 0.284001 0.430945
0.000000 0.296422 0.436469
0.219699 0.267308 0.449195
0.542504 0.335698 0.442023
0.745571 0.387488 0.414740
0.879637 0.463325 0.419226
0.969482 0.526757 0.440345
0.000000 0.294102 0.437232
0.000000 0.300877 0.436255
0.000000 0.308476 0.442512
0.213565 0.280888 0.453864
0.540673 0.347021 0.445716
0.744167 0.398322 0.420233
0.878874 0.470771 0.424353
0.969268 0.531212 0.443305
0.000000 0.332158 0.452461
0.000000 0.339361 0.451667
0.000000 0.344152 0.459541
0.199649 0.328679 0.468696
0.535027 0.383124 0.458289
0.739406 0.433173 0.438544
0.876646 0.495338 0.440864
0.968963 0.545586 0.451759
0.000000 0.380499 0.477638
0.000000 0.386633 0.476753
0.000000 0.397131 0.484169
0.182101 0.400946 0.492256
0.525261 0.439765 0.480171
0.733059 0.486915 0.468238
0.874327 0.533013 0.464271
0.970062 0.565667 0.458198
0.000000 0.446693 0.513451
0.000000 0.451698 0.512352
0.000000 0.464790 0.517144
0.122927 0.481575 0.523705
0.510094 0.510094 0.510094
0.727596 0.550713 0.503227
0.871702 0.582910 0.494697
0.966796 0.609796 0.493019
0.000000 0.523949 0.554620
0.000000 0.528527 0.553979
0.000000 0.544518 0.558190
0.000000 0.572442 0.565240
0.451575 0.602777 0.541894
0.723201 0.624598 0.543542
0.864012 0.649928 0.547051
0.959533 0.670954 0.550958
0.000000 0.628840 0.621698
0.000000 0.633051 0.621057
0.000000 0.648280 0.620020
0.000000 0.679988 0.621942
0.370062 0.704524 0.584588
0.727993 0.719905 0.577569
0.862699 0.719936 0.596643
0.950072 0.737209 0.617365
0.000000 0.761410 0.708736
0.000000 0.765286 0.707698
0.000000 0.775082 0.699672
0.000000 0.791714 0.680568
0.231449 0.808682 0.633204
0.707485 0.809445 0.647486
0.883482 0.808774 0.645167
0.951507 0.804562 0.680110
0.000000 0.364233 0.580072
0.000000 0.371252 0.579614
0.000000 0.394049 0.577234
0.000000 0.377630 0.593194
0.404730 0.365942 0.600244
0.699825 0.460029 0.581445
0.848875 0.546410 0.581720
0.943389 0.626551 0.613947
0.000000 0.378546 0.584222
0.000000 0.384588 0.583490
0.000000 0.405127 0.580957
0.000000 0.388159 0.596918
0.400092 0.375189 0.603235
0.698482 0.469093 0.584558
0.848081 0.552911 0.585321
0.943145 0.630274 0.616266
0.000000 0.414008 0.596521
0.000000 0.419043 0.595911
0.000000 0.433997 0.595148
0.000000 0.422278 0.608789
0.379461 0.405341 0.613855
0.694636 0.499062 0.595605
0.845731 0.574517 0.597498
0.942657 0.642420 0.623468
0.000000 0.457038 0.616144
0.000000 0.462470 0.615442
0.000000 0.477455 0.615656
0.000000 0.474556 0.627344
0.341924 0.462562 0.631708
0.688441 0.545464 0.613855
0.843015 0.607874 0.615961
0.943084 0.660273 0.631983
0.000000 0.512902 0.642573
0.000000 0.517723 0.641840
0.000000 0.532738 0.640497
0.000000 0.537987 0.650111
0.298985 0.542535 0.653559
0.679835 0.601495 0.637751
0.841489 0.647578 0.636316
0.945281 0.681605 0.638453
0.000000 0.579034 0.673335
0.000000 0.583185 0.672755
0.000000 0.597284 0.670314
0.000000 0.609979 0.677516
0.237247 0.629480 0.680690
0.666865 0.666865 0.666865
0.839017 0.697902 0.663172
0.944549 0.719081 0.658900
0.000000 0.660822 0.719265
0.000000 0.664576 0.718990
0.000000 0.677729 0.717556
0.000000 0.697353 0.719661
0.000000 0.726345 0.720699
0.616663 0.748104 0.693385
0.834653 0.758694 0.700282
0.936095 0.776913 0.707576
0.000000 0.762417 0.783658
0.000000 0.765805 0.783169
0.000000 0.777859 0.781125
0.000000 0.799863 0.776059
0.000000 0.832517 0.767636
0.541741 0.832395 0.720668
0.845487 0.836240 0.735378
0.936309 0.832609 0.750607
0.000000 0.453285 0.734066
0.000000 0.458747 0.733455
0.000000 0.478218 0.731868
0.000000 0.488045 0.735409
0.000000 0.456367 0.745357
0.611841 0.522911 0.742641
0.816983 0.624384 0.717647
0.914763 0.716976 0.744778
0.000000 0.463294 0.736965
0.000000 0.468513 0.736233
0.000000 0.486702 0.734554
0.000000 0.495277 0.738186
0.000000 0.466285 0.747768
0.611109 0.530999 0.745113
0.817044 0.630945 0.720882
0.915129 0.720974 0.747463
0.000000 0.488441 0.742947
0.000000 0.493019 0.742489
0.000000 0.509606 0.741024
0.000000 0.517388 0.744442
0.000000 0.495705 0.753140
0.603723 0.552911 0.749935
0.814725 0.647395 0.727535
0.914611 0.728756 0.751492
0.000000 0.522698 0.753445
0.000000 0.526879 0.753109
0.000000 0.541466 0.751736
0.000000 0.552453 0.753841
0.000000 0.539727 0.761379
0.584710 0.585046 0.757778
0.811124 0.673060 0.738308
0.914733 0.742031 0.758206
0.000000 0.567590 0.768948
0.000000 0.571527 0.768643
0.000000 0.584375 0.767361
0.000000 0.598383 0.766842
0.000000 0.592096 0.773220
0.538994 0.622156 0.770901
0.808072 0.707240 0.754086
0.916136 0.761044 0.767636
0.000000 0.621118 0.786770
0.000000 0.624414 0.786343
0.000000 0.635920 0.785092
0.000000 0.653986 0.782956
0.000000 0.655756 0.787900
0.471077 0.678523 0.786130
0.802274 0.746700 0.772030
0.918212 0.784298 0.777798
0.000000 0.679774 0.805600
0.000000 0.682673 0.805264
0.000000 0.693233 0.804166
0.000000 0.711604 0.802213
0.000000 0.726162 0.805447
0.419898 0.754269 0.805081
0.794034 0.794034 0.794034
0.919768 0.816312 0.792203
0.000000 0.753170 0.844114
0.000000 0.755947 0.844053
0.000000 0.765347 0.843137
0.000000 0.783230 0.841947
0.000000 0.810452 0.840085
0.246433 0.841855 0.838010
0.759548 0.854948 0.814206
0.917357 0.862181 0.821347
0.000000 0.521233 0.858640
0.000000 0.525658 0.858274
0.000000 0.541527 0.857420
0.000000 0.569116 0.855436
0.000000 0.560754 0.859831
0.487709 0.607843 0.858152
0.791287 0.714656 0.850156
0.900389 0.774380 0.833188
0.000000 0.526757 0.859800
0.000000 0.530999 0.859464
0.000000 0.546319 0.858518
0.000000 0.573297 0.856657
0.000000 0.565972 0.860777
0.484382 0.611597 0.859129
0.790860 0.718013 0.851133
0.900511 0.776913 0.834562
0.000000 0.541527 0.862974
0.000000 0.545586 0.862699
0.000000 0.559930 0.861875
0.000000 0.585412 0.859678
0.000000 0.582269 0.863218
0.467536 0.622217 0.861997
0.787747 0.727443 0.853605
0.900145 0.784115 0.838071
0.000000 0.560479 0.868254
0.000000 0.564233 0.867948
0.000000 0.577691 0.867094
0.000000 0.601923 0.865141
0.000000 0.608026 0.867094
0.427832 0.639368 0.866453
0.779873 0.741024 0.857603
0.899535 0.795468 0.843626
0.000000 0.596429 0.876005
0.000000 0.598627 0.875669
0.000000 0.605951 0.874876
0.000000 0.617456 0.873167
0.000000 0.641077 0.872313
0.332616 0.660548 0.873198
0.764797 0.758236 0.863767
0.898924 0.811490 0.851713
0.000000 0.641474 0.885374
0.000000 0.643519 0.885283
0.000000 0.650568 0.884703
0.000000 0.662226 0.883360
0.000000 0.679591 0.880858
0.000000 0.688167 0.881621
0.729030 0.774777 0.872282
0.897551 0.831632 0.861662
0.000000 0.692073 0.895842
0.000000 0.694087 0.895750
0.000000 0.700832 0.895354
0.000000 0.712886 0.894285
0.000000 0.731868 0.892454
0.000000 0.745785 0.891997
0.654780 0.800229 0.884794
0.895872 0.858152 0.875151
0.000000 0.746517 0.907225
0.000000 0.748440 0.907164
0.000000 0.755215 0.906828
0.000000 0.767880 0.905913
0.000000 0.788205 0.904479
0.000000 0.814389 0.903075
0.601984 0.854978 0.898131
0.891173 0.891173 0.891173
