其他预设/【212】创意蓝橙调色预设24款/1.3D LUT预设（视频调色-PR-AE-PS-FCPX-达芬奇用）/6.蓝橙色调__.cube
# Created by Adobe Lightroom plugin Export LUT (1.17.0)
# www.johnrellis.com/lightroom/exportlut.htm
# Preset: 6.蓝橙色调[素锦印象]
# Color profile: /Library/Application Support/Adobe/Color/Profiles/Recommended/AdobeRGB1998.icc
LUT_3D_SIZE 32
0.091402 0.091402 0.091402
0.099733 0.093141 0.092378
0.110475 0.095033 0.093477
0.135409 0.100374 0.096040
0.168002 0.107393 0.098970
0.200900 0.114992 0.101106
0.234043 0.122927 0.102937
0.267338 0.131594 0.104616
0.302464 0.141299 0.105989
0.339940 0.152224 0.107546
0.380285 0.164431 0.108583
0.422889 0.177768 0.109957
0.467933 0.192325 0.110536
0.514946 0.208255 0.111299
0.563470 0.224704 0.111238
0.610773 0.241276 0.111696
0.655818 0.257389 0.112886
0.698299 0.272984 0.114717
0.736660 0.287846 0.117952
0.771969 0.301732 0.123415
0.804685 0.315221 0.130648
0.834836 0.328130 0.140108
0.862577 0.340734 0.151583
0.887968 0.353094 0.165408
0.911315 0.365423 0.181369
0.932860 0.378363 0.199435
0.952697 0.392096 0.220157
0.971038 0.407111 0.243626
0.987823 0.423987 0.270878
1.000000 0.443519 0.302129
1.000000 0.466621 0.338323
1.000000 0.494545 0.380682
0.091432 0.093935 0.092531
0.099306 0.095735 0.092714
0.110353 0.097780 0.093507
0.135470 0.103182 0.096284
0.167880 0.110292 0.099214
0.200534 0.117739 0.101320
0.233738 0.125460 0.103151
0.267185 0.133913 0.104616
0.302220 0.143465 0.106233
0.339818 0.154330 0.107301
0.379980 0.166293 0.108797
0.422675 0.179721 0.109926
0.467536 0.194308 0.110719
0.514611 0.209934 0.111269
0.563165 0.226535 0.111360
0.610437 0.242985 0.111604
0.655451 0.259007 0.112581
0.698024 0.274327 0.114870
0.736385 0.289036 0.118135
0.771725 0.302892 0.123568
0.804471 0.316197 0.130831
0.834684 0.328954 0.140139
0.862425 0.341497 0.151919
0.887816 0.353918 0.165408
0.911192 0.366217 0.181460
0.932738 0.379156 0.199527
0.952636 0.392767 0.220249
0.970977 0.407691 0.243809
0.987793 0.424537 0.270939
1.000000 0.444007 0.302129
1.000000 0.467079 0.338506
1.000000 0.494942 0.380835
0.091524 0.097200 0.094362
0.099062 0.098970 0.094514
0.110201 0.101503 0.094759
0.135134 0.107210 0.096956
0.167453 0.114260 0.099855
0.200320 0.121401 0.101686
0.233249 0.128969 0.103517
0.266667 0.137209 0.104738
0.301793 0.146517 0.106355
0.339300 0.157046 0.107454
0.379522 0.169039 0.108919
0.422370 0.182315 0.110231
0.467262 0.196567 0.111025
0.514336 0.212345 0.111116
0.562799 0.228702 0.111452
0.610163 0.244846 0.111940
0.655238 0.260960 0.112825
0.697658 0.276219 0.114931
0.736172 0.290745 0.118166
0.771542 0.304448 0.123598
0.804318 0.317662 0.130678
0.834562 0.330419 0.140139
0.862303 0.342748 0.152102
0.887755 0.354986 0.165469
0.911131 0.367315 0.181521
0.932677 0.380102 0.199557
0.952575 0.393652 0.220310
0.970916 0.408576 0.244022
0.987732 0.425330 0.271275
1.000000 0.444739 0.302495
1.000000 0.467720 0.338659
1.000000 0.495583 0.381109
0.091402 0.105623 0.098939
0.098177 0.107362 0.098390
0.109957 0.109560 0.098604
0.135012 0.115053 0.098451
0.166720 0.122194 0.100557
0.199496 0.128878 0.102388
0.232456 0.135805 0.104005
0.265965 0.143740 0.105409
0.301122 0.152621 0.106813
0.338659 0.162844 0.107851
0.378882 0.174533 0.109560
0.421637 0.187533 0.110384
0.466499 0.201877 0.111330
0.513542 0.217227 0.111635
0.562158 0.233524 0.111666
0.609552 0.249516 0.112123
0.654658 0.265263 0.112825
0.697200 0.280400 0.114870
0.735744 0.294377 0.118593
0.771145 0.307866 0.123812
0.804013 0.320897 0.131044
0.834287 0.333471 0.140475
0.862089 0.345434 0.152316
0.887572 0.357610 0.165896
0.911009 0.369665 0.181674
0.932586 0.382208 0.200168
0.952483 0.395666 0.220645
0.970825 0.410529 0.244572
0.987671 0.427100 0.271702
1.000000 0.446326 0.303014
1.000000 0.469245 0.339269
1.000000 0.497017 0.381781
0.091188 0.115755 0.104494
0.095796 0.117372 0.104005
0.107607 0.119631 0.103944
0.130709 0.124239 0.103700
0.163760 0.131899 0.102968
0.198123 0.139406 0.103426
0.231205 0.145937 0.104952
0.264714 0.153323 0.106386
0.299962 0.161746 0.107729
0.337469 0.171664 0.108980
0.377844 0.182834 0.109987
0.420478 0.195987 0.110933
0.465370 0.209689 0.111879
0.512444 0.224949 0.111879
0.561212 0.240604 0.112123
0.608576 0.256291 0.112337
0.653864 0.271611 0.113436
0.696468 0.286473 0.114992
0.735134 0.300237 0.118471
0.770718 0.313390 0.123690
0.803586 0.325811 0.131350
0.834012 0.337987 0.140932
0.861814 0.349950 0.152407
0.887358 0.361578 0.166445
0.910826 0.373297 0.182193
0.932433 0.385687 0.200626
0.952331 0.398993 0.221439
0.970733 0.413397 0.245212
0.987549 0.429877 0.272648
1.000000 0.448981 0.303960
1.000000 0.471626 0.340307
1.000000 0.499275 0.382971
0.090150 0.126955 0.111025
0.093141 0.128603 0.110780
0.103243 0.130709 0.109712
0.125612 0.134401 0.109377
0.156222 0.140719 0.108461
0.193057 0.149813 0.107454
0.229496 0.158328 0.106477
0.263096 0.165103 0.107668
0.298314 0.173190 0.108492
0.336034 0.182773 0.109468
0.376287 0.193759 0.110842
0.419043 0.206241 0.111543
0.464027 0.219913 0.112154
0.511315 0.234653 0.112520
0.560021 0.249851 0.112764
0.607507 0.265293 0.112856
0.652918 0.280156 0.113893
0.695613 0.294377 0.115511
0.734401 0.307866 0.118898
0.770108 0.320317 0.124544
0.803159 0.332525 0.131746
0.833616 0.344213 0.141482
0.862119 0.355932 0.153475
0.887633 0.367224 0.167208
0.911040 0.378668 0.183474
0.932616 0.390600 0.201938
0.952514 0.403479 0.222721
0.970855 0.417762 0.246586
0.987640 0.433845 0.274052
1.000000 0.452766 0.305699
1.000000 0.475257 0.342199
1.000000 0.502678 0.385016
0.088930 0.139010 0.118532
0.090669 0.140444 0.118135
0.099550 0.142519 0.117159
0.120027 0.146242 0.115663
0.149660 0.151064 0.115633
0.184268 0.158572 0.113954
0.223178 0.168765 0.113100
0.261082 0.178408 0.110964
0.296422 0.186282 0.110018
0.334325 0.195590 0.110903
0.374609 0.206394 0.111696
0.417487 0.218540 0.112764
0.462470 0.231724 0.113313
0.510094 0.246189 0.113558
0.559075 0.261295 0.113375
0.606653 0.276036 0.113680
0.652064 0.290440 0.114260
0.694942 0.304143 0.116426
0.733822 0.317021 0.119417
0.769711 0.328985 0.125185
0.802853 0.340703 0.132723
0.833494 0.351904 0.142397
0.861448 0.362707 0.154421
0.887144 0.373693 0.168276
0.910674 0.384741 0.184451
0.932311 0.396338 0.202823
0.952270 0.408881 0.223880
0.970611 0.422736 0.247929
0.987457 0.438544 0.275425
1.000000 0.457069 0.307073
1.000000 0.479286 0.343847
1.000000 0.506462 0.386816
0.086244 0.152132 0.126772
0.088350 0.153536 0.126589
0.096193 0.155367 0.125887
0.114595 0.158755 0.123445
0.144198 0.163485 0.123049
0.176974 0.169497 0.122286
0.214115 0.178073 0.120272
0.253849 0.188907 0.119417
0.294011 0.199619 0.117128
0.332006 0.209476 0.113283
0.372656 0.220279 0.113283
0.415595 0.231907 0.114046
0.460700 0.244999 0.114260
0.508385 0.258976 0.114412
0.557427 0.273655 0.114382
0.605219 0.288304 0.114290
0.650782 0.302159 0.114839
0.693721 0.315282 0.117006
0.732845 0.327550 0.120333
0.768856 0.339117 0.125856
0.802152 0.350256 0.133364
0.832883 0.360815 0.143191
0.860960 0.371252 0.155276
0.886717 0.381598 0.169253
0.910307 0.392035 0.185641
0.932006 0.403265 0.204074
0.951965 0.415259 0.225437
0.970367 0.428687 0.249454
0.987182 0.444129 0.277165
1.000000 0.462287 0.309056
1.000000 0.484199 0.345953
1.000000 0.511040 0.389136
0.082185 0.166629 0.136538
0.085878 0.167941 0.136172
0.093324 0.169772 0.135348
0.110384 0.173007 0.133303
0.138003 0.177584 0.130739
0.171603 0.182986 0.130770
0.207065 0.189914 0.128969
0.245457 0.198978 0.126650
0.286931 0.210483 0.126192
0.329747 0.222782 0.123720
0.370397 0.234043 0.119722
0.413519 0.246464 0.115358
0.458930 0.259403 0.115602
0.506676 0.273259 0.115602
0.555566 0.287663 0.115267
0.603571 0.301823 0.115297
0.649226 0.315160 0.116213
0.692470 0.327977 0.117800
0.731716 0.339513 0.121553
0.767971 0.350652 0.126772
0.801358 0.360937 0.134676
0.832273 0.370916 0.144594
0.860502 0.380804 0.156405
0.886259 0.390600 0.170596
0.909911 0.400549 0.187198
0.931670 0.411170 0.205844
0.951659 0.422644 0.227146
0.970092 0.435706 0.251621
0.986908 0.450660 0.279454
1.000000 0.468421 0.311376
1.000000 0.489906 0.348302
1.000000 0.516503 0.391913
0.076905 0.182498 0.146944
0.082002 0.183719 0.146609
0.089479 0.185275 0.146029
0.105867 0.188571 0.143832
0.130495 0.192813 0.139620
0.165927 0.197726 0.139498
0.201602 0.203983 0.138369
0.239261 0.211612 0.135103
0.279179 0.221317 0.133791
0.322423 0.233860 0.133150
0.368017 0.247745 0.131228
0.411231 0.260197 0.126650
0.456886 0.273960 0.120485
0.504631 0.288304 0.117250
0.553857 0.302556 0.116732
0.602014 0.316350 0.116640
0.647883 0.329473 0.117159
0.691218 0.341833 0.118898
0.730526 0.352941 0.122591
0.766873 0.363165 0.128054
0.800595 0.373205 0.135561
0.831571 0.382513 0.145663
0.859831 0.391485 0.157931
0.885740 0.400732 0.172396
0.909453 0.410101 0.188968
0.931273 0.420142 0.207675
0.951324 0.431128 0.229252
0.969757 0.443610 0.253788
0.986633 0.458137 0.281804
1.000000 0.475380 0.313970
1.000000 0.496468 0.351263
1.000000 0.522667 0.394995
0.071046 0.199039 0.157992
0.076570 0.200259 0.157687
0.084657 0.201755 0.156985
0.100343 0.204837 0.155276
0.123903 0.209262 0.151125
0.157748 0.213840 0.147494
0.196048 0.219425 0.147341
0.233677 0.226108 0.145815
0.273381 0.234348 0.140993
0.315190 0.245457 0.141146
0.360632 0.259129 0.140658
0.409216 0.274510 0.138186
0.454780 0.288060 0.133639
0.502831 0.302770 0.126192
0.552178 0.318395 0.118257
0.600214 0.332067 0.118257
0.646326 0.344640 0.118715
0.689631 0.356451 0.120424
0.729244 0.367071 0.123995
0.765866 0.376898 0.129335
0.799710 0.386175 0.137179
0.830838 0.394934 0.147311
0.859220 0.403571 0.159579
0.885191 0.411963 0.174228
0.908995 0.420783 0.190890
0.930846 0.430091 0.209964
0.950927 0.440497 0.231754
0.969421 0.452461 0.256382
0.986297 0.466407 0.284733
1.000000 0.483314 0.317144
1.000000 0.503899 0.354803
1.000000 0.529686 0.398657
0.062501 0.216617 0.169497
0.068757 0.217624 0.169467
0.077546 0.219120 0.168429
0.093355 0.221988 0.166873
0.116518 0.226352 0.163058
0.147066 0.231052 0.156161
0.188876 0.235996 0.156435
0.228244 0.242191 0.155001
0.267735 0.249454 0.152560
0.310155 0.258885 0.146395
0.353796 0.271336 0.148501
0.401617 0.286168 0.148287
0.453620 0.303319 0.145052
0.501366 0.317937 0.140047
0.550958 0.333074 0.131624
0.599176 0.348211 0.122805
0.645319 0.361273 0.120394
0.688808 0.372625 0.121828
0.728542 0.382605 0.125551
0.765286 0.391913 0.131167
0.799252 0.400458 0.139284
0.830381 0.408606 0.149142
0.858885 0.416449 0.161776
0.884886 0.424231 0.176394
0.908690 0.432502 0.193210
0.930571 0.441199 0.212619
0.950683 0.450996 0.234684
0.969146 0.462318 0.259709
0.986023 0.475807 0.288060
1.000000 0.492134 0.321019
1.000000 0.512261 0.358923
1.000000 0.537652 0.403357
0.042634 0.234501 0.181613
0.055512 0.235538 0.181338
0.066285 0.236912 0.180636
0.083711 0.239780 0.178561
0.107637 0.243961 0.174929
0.137728 0.248753 0.168734
0.178683 0.253605 0.163912
0.221592 0.259251 0.164248
0.262577 0.266148 0.162203
0.304295 0.274449 0.158083
0.349065 0.285191 0.153323
0.394995 0.298955 0.156680
0.445380 0.315282 0.155612
0.499611 0.333165 0.151827
0.548730 0.348272 0.146609
0.597223 0.362737 0.138094
0.643488 0.376715 0.129000
0.687098 0.388952 0.123842
0.727108 0.398688 0.127016
0.764065 0.407416 0.133089
0.798245 0.415351 0.140963
0.829557 0.422950 0.151339
0.858091 0.430213 0.164065
0.884215 0.437385 0.178775
0.908141 0.444800 0.195895
0.930053 0.452918 0.215640
0.950225 0.462135 0.237858
0.968719 0.472877 0.262882
0.985595 0.485725 0.291630
1.000000 0.501518 0.324956
1.000000 0.521202 0.363104
1.000000 0.546166 0.407996
0.003662 0.253056 0.194034
0.019471 0.254154 0.193545
0.040772 0.255283 0.192905
0.070466 0.258122 0.191104
0.096803 0.262028 0.187533
0.127596 0.267002 0.181460
0.163943 0.272251 0.172000
0.212711 0.277379 0.173129
0.256260 0.283909 0.171817
0.299138 0.291569 0.169528
0.343297 0.301030 0.164248
0.389990 0.313298 0.161868
0.438483 0.328313 0.164157
0.491035 0.345281 0.162387
0.546532 0.363867 0.158175
0.595331 0.378302 0.153201
0.641596 0.391547 0.145296
0.685328 0.404120 0.136660
0.725582 0.415351 0.129305
0.762783 0.423529 0.135256
0.797177 0.431067 0.143282
0.828611 0.437995 0.153841
0.857328 0.444617 0.166690
0.883543 0.451209 0.181430
0.907530 0.458015 0.199008
0.929503 0.465553 0.218936
0.949737 0.474098 0.241215
0.968261 0.484169 0.266880
0.985168 0.496498 0.295811
1.000000 0.511681 0.329290
1.000000 0.530968 0.368109
1.000000 0.555444 0.413397
0.000000 0.272190 0.206577
0.000000 0.273106 0.206119
0.000000 0.274388 0.205417
0.042084 0.277073 0.203861
0.082338 0.281041 0.200534
0.115602 0.285893 0.194919
0.152316 0.291417 0.185916
0.200229 0.296696 0.180789
0.248569 0.302556 0.181613
0.293523 0.309972 0.179385
0.337743 0.318364 0.176699
0.384588 0.329412 0.171115
0.433234 0.342840 0.170016
0.484108 0.358862 0.171511
0.538384 0.376593 0.169253
0.592737 0.394049 0.165133
0.639643 0.407568 0.160311
0.683467 0.419409 0.153445
0.724025 0.430091 0.146029
0.761563 0.440131 0.139467
0.796078 0.447517 0.145449
0.827695 0.453895 0.156435
0.856565 0.459754 0.169558
0.882841 0.465766 0.184573
0.906920 0.471901 0.202243
0.928954 0.478798 0.222354
0.949218 0.486763 0.245304
0.967803 0.496315 0.271214
0.984680 0.508019 0.300542
0.999786 0.522698 0.334264
1.000000 0.541436 0.373632
1.000000 0.565515 0.419532
0.000000 0.291905 0.219852
0.000000 0.292882 0.219425
0.000000 0.294072 0.218662
0.000000 0.296666 0.217197
0.061036 0.300572 0.214206
0.100862 0.305608 0.208591
0.139528 0.311162 0.200504
0.182498 0.316960 0.188815
0.238193 0.322484 0.190372
0.286198 0.329351 0.189731
0.332677 0.337438 0.187472
0.378820 0.346929 0.183902
0.428138 0.359228 0.177676
0.478614 0.373846 0.178103
0.531395 0.390417 0.178653
0.584894 0.407385 0.176577
0.636683 0.423377 0.172671
0.681666 0.435615 0.168551
0.722316 0.445930 0.163027
0.760159 0.455238 0.157351
0.794949 0.463874 0.152621
0.826841 0.470344 0.159487
0.855741 0.475776 0.172885
0.882170 0.480995 0.188266
0.906310 0.486610 0.206088
0.928435 0.492866 0.226444
0.948730 0.500084 0.249516
0.967315 0.509056 0.275639
0.984192 0.520226 0.305638
0.999237 0.534356 0.340002
1.000000 0.552544 0.379492
1.000000 0.576165 0.426062
0.000000 0.312474 0.233555
0.000000 0.313237 0.233005
0.000000 0.314397 0.232578
0.000000 0.317082 0.231083
0.000000 0.320928 0.228031
0.081117 0.325811 0.223545
0.124880 0.331579 0.215702
0.168276 0.337682 0.203983
0.223728 0.343236 0.198886
0.277317 0.349676 0.200504
0.326207 0.357519 0.198276
0.373632 0.366247 0.195621
0.422095 0.377050 0.190799
0.473701 0.390387 0.183932
0.525628 0.405829 0.185824
0.578088 0.421851 0.186130
0.629267 0.437171 0.184390
0.678462 0.451514 0.181552
0.720851 0.462470 0.178439
0.758602 0.471321 0.175174
0.793668 0.479316 0.170840
0.825772 0.486641 0.167788
0.854887 0.492195 0.176059
0.881376 0.496925 0.192111
0.905608 0.501793 0.210391
0.927794 0.507439 0.231144
0.948119 0.514061 0.254429
0.966735 0.522484 0.280919
0.983612 0.533043 0.311284
0.998657 0.546685 0.345953
1.000000 0.564324 0.386175
1.000000 0.587488 0.433234
0.000000 0.333501 0.247807
0.000000 0.334447 0.247410
0.000000 0.335790 0.246830
0.000000 0.338323 0.245518
0.000000 0.342168 0.242741
0.047303 0.346960 0.238376
0.107332 0.352758 0.231632
0.154147 0.358831 0.220737
0.204440 0.365301 0.207950
0.265507 0.371466 0.209842
0.318212 0.378851 0.209293
0.368200 0.387427 0.206851
0.417121 0.396887 0.204044
0.468330 0.409125 0.197543
0.522087 0.423407 0.189975
0.573785 0.438483 0.193973
0.624384 0.453254 0.194705
0.673365 0.467048 0.193545
0.718471 0.479011 0.191714
0.757473 0.488197 0.190311
0.792355 0.495918 0.189151
0.824643 0.502464 0.186679
0.854063 0.508659 0.185275
0.880766 0.513359 0.196445
0.904967 0.517693 0.215030
0.927184 0.522728 0.236179
0.947539 0.528771 0.259678
0.966155 0.536492 0.286778
0.983032 0.546441 0.317266
0.998016 0.559533 0.352575
1.000000 0.576715 0.393256
1.000000 0.599481 0.441138
0.000000 0.356023 0.262852
0.000000 0.356909 0.262669
0.000000 0.357977 0.262119
0.000000 0.360571 0.260655
0.000000 0.364355 0.258274
0.000000 0.369238 0.254368
0.084260 0.374975 0.247868
0.137606 0.381598 0.238071
0.187259 0.388403 0.223545
0.249760 0.394842 0.219181
0.308843 0.401862 0.220493
0.361852 0.410224 0.218204
0.413062 0.419532 0.215763
0.463966 0.430152 0.211917
0.517815 0.443610 0.204288
0.571679 0.457618 0.198306
0.621729 0.471321 0.203159
0.670253 0.484443 0.204257
0.715358 0.495857 0.204440
0.755673 0.505211 0.204105
0.791196 0.512657 0.204623
0.823239 0.519158 0.205661
0.852811 0.524681 0.204746
0.879820 0.529931 0.205478
0.904204 0.534051 0.220096
0.926482 0.538445 0.241398
0.946899 0.543938 0.265568
0.965515 0.551049 0.292912
0.982361 0.560540 0.324132
0.997284 0.572992 0.359777
1.000000 0.589624 0.401221
1.000000 0.611963 0.449683
0.000000 0.380041 0.279179
0.000000 0.380957 0.278996
0.000000 0.382116 0.278538
0.000000 0.384619 0.277317
0.000000 0.388373 0.274998
0.000000 0.393347 0.271244
0.026978 0.399451 0.265599
0.116854 0.406043 0.256352
0.170809 0.413275 0.242863
0.228733 0.420356 0.228733
0.295995 0.427283 0.230594
0.354345 0.435340 0.230564
0.408667 0.444495 0.227573
0.461616 0.454780 0.224369
0.515129 0.466682 0.219150
0.569665 0.479805 0.211307
0.621454 0.492134 0.208316
0.669490 0.504204 0.213565
0.714229 0.514824 0.215976
0.754452 0.523369 0.217441
0.790219 0.530236 0.219486
0.822141 0.536065 0.221225
0.851499 0.541527 0.224002
0.878538 0.546258 0.225681
0.903380 0.550805 0.228458
0.925780 0.554681 0.247501
0.946197 0.559594 0.272038
0.964843 0.566155 0.299809
0.981659 0.574975 0.331273
0.996521 0.586999 0.367559
1.000000 0.603113 0.409552
1.000000 0.624964 0.458747
0.000000 0.406287 0.297063
0.000000 0.407080 0.296880
0.000000 0.408392 0.296147
0.000000 0.410834 0.294987
0.000000 0.414740 0.293065
0.000000 0.419715 0.289494
0.000000 0.425818 0.284092
0.085206 0.432654 0.276036
0.150729 0.440192 0.263340
0.206973 0.447974 0.245090
0.279362 0.454963 0.241062
0.345006 0.462776 0.242496
0.403265 0.471870 0.240482
0.459297 0.481941 0.237247
0.514122 0.492897 0.233951
0.568688 0.504753 0.227420
0.621729 0.515984 0.220096
0.670985 0.526635 0.220432
0.715114 0.536004 0.226322
0.754971 0.543572 0.230716
0.790555 0.549645 0.233890
0.822110 0.554498 0.236942
0.850523 0.558618 0.240635
0.877348 0.563195 0.245396
0.902190 0.567407 0.249485
0.925139 0.571557 0.254124
0.945556 0.575860 0.278996
0.964172 0.581872 0.307347
0.980987 0.590204 0.339361
0.995758 0.601587 0.376410
1.000000 0.617304 0.419074
1.000000 0.638514 0.468696
0.000000 0.434821 0.316442
0.000000 0.435706 0.316197
0.000000 0.436835 0.315679
0.000000 0.439429 0.314641
0.000000 0.443336 0.312749
0.000000 0.448432 0.309392
0.000000 0.454597 0.304204
0.000000 0.461646 0.296300
0.123629 0.469459 0.284581
0.187472 0.477699 0.267491
0.256291 0.485756 0.252079
0.332189 0.493294 0.253849
0.396948 0.502037 0.254337
0.456245 0.511772 0.251347
0.513481 0.522026 0.248081
0.569177 0.532830 0.244511
0.622766 0.542901 0.237369
0.673548 0.552087 0.230594
0.717922 0.559594 0.235325
0.757137 0.565820 0.242832
0.792325 0.570886 0.248081
0.823545 0.574670 0.253056
0.851225 0.577630 0.257633
0.876219 0.580407 0.262852
0.900877 0.584375 0.269352
0.923674 0.588434 0.276158
0.944793 0.592370 0.286625
0.963409 0.597803 0.315129
0.980133 0.605646 0.348058
0.994842 0.616541 0.385473
1.000000 0.631708 0.428901
1.000000 0.652369 0.479103
0.000000 0.465888 0.337591
0.000000 0.466773 0.337133
0.000000 0.467933 0.336614
0.000000 0.470497 0.335637
0.000000 0.474495 0.333837
0.000000 0.479622 0.330602
0.000000 0.486000 0.325811
0.000000 0.493111 0.318425
0.079988 0.501305 0.307530
0.162936 0.509941 0.291508
0.229740 0.518822 0.268925
0.314092 0.526421 0.266026
0.387213 0.534447 0.267887
0.451392 0.543359 0.266453
0.511620 0.552972 0.263462
0.569451 0.562982 0.260136
0.624933 0.572808 0.255741
0.676020 0.580591 0.249454
0.721981 0.586053 0.244358
0.760983 0.590326 0.253361
0.795499 0.593927 0.262303
0.826261 0.596582 0.269505
0.853513 0.598596 0.275395
0.877684 0.600092 0.281529
0.899626 0.601587 0.287663
0.922301 0.605463 0.296422
0.943359 0.609552 0.306096
0.962554 0.614191 0.323888
0.979248 0.621454 0.357122
0.993835 0.631861 0.395392
1.000000 0.646601 0.439612
1.000000 0.666590 0.489998
0.000000 0.500481 0.360235
0.000000 0.501091 0.360266
0.000000 0.502129 0.359930
0.000000 0.504753 0.358984
0.000000 0.508690 0.357031
0.000000 0.513878 0.353948
0.000000 0.520287 0.349187
0.000000 0.527855 0.342382
0.000000 0.535943 0.331731
0.129030 0.544640 0.316564
0.207523 0.553491 0.295354
0.289494 0.561395 0.279698
0.373571 0.568719 0.281834
0.444404 0.576776 0.283452
0.508263 0.585534 0.280705
0.568688 0.594781 0.277653
0.626490 0.604517 0.274784
0.679683 0.611963 0.269993
0.725643 0.615503 0.265171
0.766232 0.617212 0.261845
0.799954 0.619013 0.275395
0.830076 0.620264 0.285557
0.856809 0.621118 0.293797
0.880613 0.621698 0.301427
0.901762 0.622156 0.308598
0.920989 0.622797 0.315679
0.941894 0.626795 0.327031
0.961273 0.631403 0.339605
0.978271 0.637720 0.367102
0.992767 0.647578 0.405798
1.000000 0.661860 0.450843
1.000000 0.681025 0.501335
0.000000 0.538231 0.384710
0.000000 0.538842 0.384741
0.000000 0.539696 0.384680
0.000000 0.541863 0.383917
0.000000 0.545769 0.382177
0.000000 0.550866 0.379004
0.000000 0.557214 0.374487
0.000000 0.564355 0.367315
0.000000 0.572351 0.357488
0.069795 0.580926 0.342840
0.179904 0.589624 0.323186
0.259251 0.598108 0.297795
0.355322 0.604883 0.297856
0.434516 0.611994 0.300389
0.503380 0.619959 0.299870
0.566644 0.628473 0.297551
0.626551 0.637018 0.295109
0.683436 0.645624 0.292607
0.730465 0.647822 0.288579
0.770932 0.647486 0.285588
0.805966 0.646357 0.286931
0.835172 0.645869 0.301701
0.861265 0.645441 0.312963
0.884489 0.644984 0.322606
0.905272 0.644587 0.331273
0.923857 0.644343 0.339483
0.940551 0.644343 0.347509
0.959686 0.648768 0.361517
0.977295 0.654322 0.377752
0.991638 0.663722 0.417395
1.000000 0.677394 0.462715
1.000000 0.695888 0.513664
0.000000 0.578393 0.410559
0.000000 0.579034 0.410437
0.000000 0.579797 0.410346
0.000000 0.581506 0.409857
0.000000 0.584710 0.408515
0.000000 0.589776 0.405585
0.000000 0.595758 0.400641
0.000000 0.602747 0.393927
0.000000 0.610498 0.384222
0.000000 0.618769 0.370581
0.142580 0.627283 0.352331
0.236759 0.635676 0.328801
0.331304 0.642725 0.315496
0.421363 0.649042 0.318700
0.496620 0.655695 0.321752
0.563012 0.662776 0.319707
0.624720 0.669978 0.317998
0.682612 0.677119 0.316472
0.736202 0.683162 0.314916
0.776455 0.680415 0.312200
0.811612 0.676905 0.310918
0.841520 0.673548 0.316991
0.866697 0.671565 0.332586
0.889281 0.669917 0.344945
0.909483 0.668635 0.355535
0.927581 0.667659 0.365484
0.943847 0.667079 0.374823
0.958434 0.666926 0.383978
0.975433 0.671778 0.400488
0.990417 0.680049 0.429297
1.000000 0.693172 0.475441
1.000000 0.710933 0.526360
0.000000 0.620539 0.437049
0.000000 0.620935 0.436988
0.000000 0.621668 0.436713
0.000000 0.623285 0.436500
0.000000 0.625788 0.435859
0.000000 0.630365 0.433051
0.000000 0.636164 0.428260
0.000000 0.642939 0.421546
0.000000 0.650446 0.412146
0.000000 0.658473 0.399207
0.080049 0.666651 0.382208
0.210513 0.674525 0.360815
0.301671 0.681666 0.337072
0.405158 0.686580 0.340154
0.487434 0.691829 0.344427
0.558038 0.697475 0.345892
0.621698 0.703334 0.344640
0.680781 0.709194 0.343786
0.736202 0.715023 0.343328
0.783139 0.716182 0.342412
0.817838 0.710201 0.341650
0.848020 0.704280 0.342321
0.873381 0.699611 0.352880
0.895079 0.696681 0.368963
0.914549 0.694453 0.382330
0.932036 0.692775 0.394263
0.947723 0.691646 0.405188
0.961761 0.691096 0.415717
0.974365 0.691005 0.425910
0.989014 0.696620 0.445502
1.000000 0.709255 0.488869
1.000000 0.726284 0.540063
0.000000 0.664576 0.464790
0.000000 0.665126 0.464546
0.000000 0.665827 0.464271
0.000000 0.667323 0.463813
0.000000 0.669642 0.463172
0.000000 0.672938 0.462043
0.000000 0.678340 0.457252
0.000000 0.684535 0.450233
0.000000 0.691371 0.441016
0.000000 0.698634 0.428626
0.000000 0.705806 0.412360
0.178897 0.712825 0.393317
0.284520 0.719081 0.372137
0.386358 0.723537 0.365423
0.476509 0.727413 0.370428
0.552117 0.731502 0.375372
