其他预设/【212】创意蓝橙调色预设24款/1.3D LUT预设（视频调色-PR-AE-PS-FCPX-达芬奇用）/7.蓝橙色调-亮调__.cube
# Created by Adobe Lightroom plugin Export LUT (1.17.0)
# www.johnrellis.com/lightroom/exportlut.htm
# Preset: 7.蓝橙色调-亮调[素锦印象]
# Color profile: /Library/Application Support/Adobe/Color/Profiles/Recommended/AdobeRGB1998.icc
LUT_3D_SIZE 5
DOMAIN_MIN 0.000000 0.000000 0.000000
DOMAIN_MAX 0.903226 0.903226 0.903226
0.135348 0.135348 0.135348
0.343603 0.157076 0.131411
0.675105 0.224094 0.089601
0.892149 0.282933 0.000000
1.000000 0.315099 0.040925
0.115938 0.199924 0.178927
0.294804 0.221073 0.164797
0.650752 0.279484 0.105837
0.878965 0.324254 0.000000
1.000000 0.344976 0.035676
0.000000 0.329778 0.277775
0.119142 0.353826 0.259312
0.603571 0.409369 0.227085
0.859190 0.414008 0.162997
1.000000 0.421637 0.097932
0.000000 0.519646 0.425299
0.000000 0.543297 0.426581
0.463691 0.584497 0.359228
0.816953 0.565087 0.339788
0.996368 0.545769 0.304540
0.000000 0.749569 0.598718
0.000000 0.758114 0.592950
0.000000 0.776638 0.526513
0.780972 0.774624 0.528527
0.974548 0.726925 0.536278
0.093751 0.189334 0.229923
0.290471 0.194400 0.225437
0.634607 0.242649 0.182528
0.857816 0.303868 0.135378
1.000000 0.339818 0.000000
0.012757 0.247745 0.261662
0.254582 0.254582 0.254582
0.615076 0.289036 0.213931
0.851316 0.330236 0.160586
1.000000 0.361334 0.068116
0.000000 0.357153 0.330358
0.000000 0.385901 0.333654
0.559411 0.415869 0.304662
0.832303 0.422187 0.247074
1.000000 0.432532 0.195132
0.000000 0.543816 0.470649
0.000000 0.567895 0.474830
0.422766 0.600977 0.409461
0.802090 0.581079 0.401770
0.989105 0.562737 0.361517
0.000000 0.755428 0.625422
0.000000 0.763485 0.619623
0.000000 0.793851 0.572229
0.769802 0.785153 0.570733
0.970825 0.742550 0.573907
0.000000 0.322454 0.422461
0.000000 0.312718 0.429999
0.578088 0.323369 0.412177
0.834409 0.361089 0.351934
1.000000 0.395148 0.305638
0.000000 0.372625 0.446479
0.000000 0.363043 0.451331
0.556085 0.370550 0.430915
0.823117 0.395636 0.374914
1.000000 0.414435 0.318822
0.000000 0.467781 0.502831
0.000000 0.478767 0.507836
0.489448 0.489448 0.489448
0.799100 0.494942 0.444282
0.992493 0.486458 0.376593
0.000000 0.601923 0.587488
0.000000 0.611292 0.583948
0.207309 0.646723 0.567437
0.762722 0.635065 0.551415
0.970459 0.616144 0.499245
0.000000 0.773861 0.707240
0.000000 0.782101 0.702754
0.000000 0.806271 0.672602
0.705165 0.797452 0.651118
0.951110 0.769802 0.646448
0.000000 0.479377 0.640955
0.000000 0.483101 0.645197
0.302678 0.418830 0.649928
0.776120 0.515557 0.600183
0.962493 0.578882 0.594995
0.000000 0.509911 0.650416
0.000000 0.507439 0.652552
0.254551 0.451942 0.654536
0.764431 0.534264 0.607538
0.958282 0.585840 0.597192
0.000000 0.570092 0.674434
0.000000 0.575189 0.674403
0.041077 0.555596 0.675380
0.738705 0.597589 0.639704
0.955749 0.621241 0.615351
0.000000 0.661860 0.721096
0.000000 0.669093 0.716854
0.000000 0.677577 0.717342
0.694667 0.694606 0.694636
0.950347 0.688106 0.650202
0.000000 0.786648 0.802548
0.000000 0.794339 0.801144
0.000000 0.823270 0.796201
0.398138 0.843717 0.753506
0.923735 0.815824 0.749935
0.000000 0.614466 0.840665
0.000000 0.625727 0.839506
0.000000 0.600153 0.841337
0.721492 0.674189 0.826505
0.927764 0.731807 0.790951
0.000000 0.627314 0.844175
0.000000 0.637690 0.842954
0.000000 0.617121 0.844388
0.707973 0.681025 0.830228
0.926146 0.739834 0.795773
0.000000 0.660517 0.856046
0.000000 0.665980 0.854917
0.000000 0.667231 0.854276
0.629908 0.693629 0.843778
0.921233 0.764981 0.811124
0.000000 0.723995 0.876127
0.000000 0.728939 0.875334
0.000000 0.744961 0.872190
0.367468 0.738766 0.867277
0.911009 0.808682 0.838010
0.000000 0.801053 0.902098
0.000000 0.805905 0.901762
0.000000 0.824125 0.900389
0.000000 0.848203 0.898436
0.880949 0.880919 0.880919
