其他预设/【212】创意蓝橙调色预设24款/1.3D LUT预设（视频调色-PR-AE-PS-FCPX-达芬奇用）/7.蓝橙色调-亮调__.cube
# Created by Adobe Lightroom plugin Export LUT (1.17.0)
# www.johnrellis.com/lightroom/exportlut.htm
# Preset: 7.蓝橙色调-亮调[素锦印象]
# Color profile: /Library/Application Support/Adobe/Color/Profiles/Recommended/AdobeRGB1998.icc
LUT_3D_SIZE 32
0.135348 0.135348 0.135348
0.147524 0.136141 0.135439
0.161135 0.137179 0.135622
0.187228 0.139345 0.135714
0.222080 0.142733 0.135775
0.259831 0.146487 0.135164
0.300481 0.151339 0.133516
0.343603 0.157076 0.131411
0.389105 0.163973 0.128878
0.436072 0.171969 0.125490
0.484596 0.180911 0.120851
0.533013 0.190738 0.115145
0.580377 0.200931 0.108186
0.624384 0.211612 0.100282
0.675105 0.224094 0.089601
0.720180 0.235935 0.076997
0.757198 0.245579 0.065278
0.788907 0.254459 0.048829
0.817014 0.262547 0.022187
0.843595 0.270115 0.000000
0.868681 0.276646 0.000000
0.892149 0.282933 0.000000
0.913695 0.288518 0.000000
0.933837 0.293309 0.000000
0.952819 0.297734 0.000000
0.971130 0.301946 0.000000
0.989227 0.306188 0.000000
1.000000 0.310491 0.000885
1.000000 0.315099 0.040925
1.000000 0.320256 0.073457
1.000000 0.326329 0.098177
1.000000 0.333654 0.124453
0.134798 0.138796 0.137423
0.145022 0.139956 0.137057
0.159548 0.140841 0.136202
0.185580 0.142855 0.135805
0.220066 0.145998 0.135744
0.257389 0.149905 0.134981
0.297551 0.154330 0.133608
0.340154 0.160006 0.131563
0.385351 0.166567 0.128786
0.432166 0.174594 0.125612
0.480201 0.183108 0.121340
0.528313 0.192782 0.115389
0.575402 0.202914 0.108614
0.619654 0.213260 0.100801
0.669581 0.225498 0.090333
0.713680 0.236912 0.078492
0.750301 0.246372 0.067079
0.781949 0.255100 0.051423
0.810269 0.262699 0.026246
0.837186 0.269902 0.003449
0.862638 0.276677 0.000000
0.886503 0.282811 0.000000
0.908507 0.288060 0.000000
0.929046 0.293065 0.000000
0.948425 0.297520 0.000000
0.967132 0.301732 0.000000
0.985657 0.305791 0.000000
1.000000 0.310338 0.000000
1.000000 0.314763 0.032685
1.000000 0.319921 0.069795
1.000000 0.325780 0.094759
1.000000 0.332982 0.121248
0.133913 0.143374 0.140169
0.142061 0.144656 0.139712
0.156832 0.145693 0.139193
0.183078 0.147402 0.137667
0.217350 0.150332 0.135470
0.254490 0.153994 0.134768
0.294194 0.158450 0.133577
0.336614 0.163638 0.131655
0.381567 0.170199 0.129091
0.428229 0.177981 0.125460
0.476204 0.186557 0.121218
0.524346 0.196017 0.115755
0.571557 0.206210 0.108553
0.616114 0.216281 0.100984
0.665858 0.228214 0.090181
0.709560 0.239078 0.079011
0.745815 0.248264 0.067659
0.777523 0.256687 0.053010
0.806088 0.264103 0.028412
0.833280 0.271275 0.004334
0.859159 0.277836 0.000000
0.883391 0.283635 0.000000
0.905638 0.289189 0.000000
0.926482 0.293797 0.000000
0.946014 0.298253 0.000000
0.964935 0.302373 0.000000
0.983642 0.306432 0.000000
1.000000 0.310735 0.000000
1.000000 0.315282 0.028351
1.000000 0.320409 0.067781
1.000000 0.326085 0.093141
1.000000 0.333165 0.119600
0.131350 0.153689 0.146487
0.134981 0.155245 0.145937
0.151400 0.155764 0.145480
0.177859 0.157015 0.144076
0.212375 0.159060 0.140993
0.249943 0.162112 0.137087
0.289403 0.166659 0.133394
0.331914 0.171817 0.131319
0.376715 0.178073 0.128817
0.423316 0.185611 0.125429
0.471199 0.193912 0.121065
0.519249 0.203372 0.115389
0.566308 0.212985 0.108553
0.611078 0.222934 0.100740
0.661036 0.234226 0.090303
0.704005 0.244572 0.079316
0.740108 0.253208 0.067964
0.771664 0.260868 0.054566
0.800137 0.267826 0.030335
0.827207 0.274601 0.005982
0.853178 0.280613 0.000000
0.877714 0.286290 0.000000
0.900725 0.291539 0.000000
0.922515 0.296330 0.000000
0.943206 0.300664 0.000000
0.963104 0.304814 0.000000
0.982574 0.308873 0.000000
1.000000 0.313268 0.000000
1.000000 0.317601 0.028077
1.000000 0.322484 0.066621
1.000000 0.328099 0.091890
1.000000 0.334661 0.118257
0.128786 0.163912 0.153567
0.128908 0.165377 0.152682
0.141268 0.166262 0.152193
0.167971 0.167239 0.151522
0.202182 0.170138 0.149508
0.241398 0.173037 0.145113
0.281346 0.176364 0.140536
0.323613 0.181369 0.135836
0.368322 0.188052 0.130678
0.414679 0.196323 0.125490
0.462654 0.204532 0.120790
0.510704 0.213352 0.115511
0.558221 0.222843 0.108644
0.603845 0.232425 0.100343
0.654261 0.243565 0.089784
0.697414 0.253025 0.078614
0.734310 0.261173 0.067384
0.766812 0.268284 0.052979
0.795926 0.274876 0.027710
0.823423 0.280949 0.002594
0.849424 0.286564 0.000000
0.874144 0.291752 0.000000
0.897398 0.296605 0.000000
0.919554 0.300908 0.000000
0.940612 0.305058 0.000000
0.960906 0.309087 0.000000
0.980621 0.312932 0.000000
0.999847 0.316747 0.000000
1.000000 0.320958 0.021851
1.000000 0.325597 0.064363
1.000000 0.330816 0.089845
1.000000 0.337194 0.116548
0.125917 0.174289 0.160464
0.125673 0.175662 0.160220
0.130190 0.177066 0.159457
0.155581 0.178225 0.158053
0.188632 0.180026 0.156649
0.228946 0.184451 0.153841
0.272709 0.188510 0.149081
0.315648 0.192630 0.143893
0.360662 0.198703 0.138338
0.407538 0.205997 0.132753
0.455543 0.214817 0.126345
0.503929 0.224277 0.118868
0.551537 0.234226 0.110475
0.597833 0.244419 0.100343
0.649195 0.255467 0.088441
0.692409 0.264347 0.077150
0.729763 0.271855 0.065736
0.762844 0.278508 0.048432
0.792752 0.284489 0.021241
0.820951 0.289982 0.000000
0.847654 0.295171 0.000000
0.873045 0.299840 0.000000
0.925902 0.313725 0.000000
0.945861 0.317205 0.000000
0.964630 0.320409 0.000000
0.982574 0.323339 0.000000
0.999878 0.326452 0.000000
1.000000 0.329595 0.013275
1.000000 0.333165 0.058259
1.000000 0.337224 0.082918
1.000000 0.342260 0.106661
1.000000 0.348363 0.132631
0.121340 0.187289 0.169650
0.121401 0.188418 0.169284
0.121126 0.190066 0.168734
0.143404 0.192081 0.167727
0.177096 0.194064 0.165103
0.216587 0.196994 0.162173
0.263218 0.203220 0.159274
0.312963 0.208927 0.153353
0.360418 0.214054 0.147189
0.409247 0.221042 0.140688
0.458900 0.229252 0.134005
0.508721 0.238346 0.126192
0.557122 0.247593 0.117403
0.605798 0.257725 0.106905
0.658259 0.269566 0.093507
0.700649 0.278874 0.080018
0.737179 0.286931 0.064057
0.769741 0.293889 0.031891
0.799802 0.299321 0.002716
0.828916 0.304387 0.000000
0.857389 0.309209 0.000000
0.884977 0.314061 0.000000
0.911009 0.318547 0.000000
0.935241 0.322637 0.000000
0.957366 0.326329 0.000000
0.977295 0.329473 0.000000
0.995789 0.332433 0.000000
1.000000 0.335302 0.001282
1.000000 0.338476 0.049836
1.000000 0.342168 0.078431
1.000000 0.346563 0.102998
1.000000 0.352117 0.129091
0.115938 0.199924 0.178927
0.116030 0.200961 0.178470
0.115633 0.202365 0.178347
0.131197 0.204807 0.177249
0.160098 0.207645 0.173129
0.201083 0.209628 0.171267
0.244785 0.213626 0.167575
0.294804 0.221073 0.164797
0.348119 0.228061 0.158145
0.397772 0.234134 0.151339
0.448188 0.241611 0.144045
0.498634 0.249729 0.136263
0.547723 0.258427 0.127657
0.599908 0.268742 0.117433
0.650752 0.279484 0.105837
0.692805 0.287846 0.093599
0.729397 0.295109 0.080659
0.762295 0.301518 0.065248
0.792752 0.307683 0.036774
0.822232 0.313909 0.000000
0.851041 0.320165 0.000000
0.878965 0.324254 0.000000
0.905333 0.328222 0.000000
0.929900 0.331548 0.000000
0.952392 0.334691 0.000000
0.972808 0.337285 0.000000
0.991730 0.339788 0.000000
1.000000 0.342168 0.000000
1.000000 0.344976 0.035676
1.000000 0.348119 0.073732
1.000000 0.352178 0.099092
1.000000 0.357305 0.125551
0.108919 0.214237 0.189395
0.108553 0.215213 0.189395
0.108156 0.216495 0.189273
0.119020 0.219120 0.188540
0.145388 0.222568 0.185092
0.183200 0.225254 0.179324
0.228855 0.227543 0.178012
0.276463 0.232914 0.173892
0.329870 0.241276 0.170626
0.386175 0.249516 0.163546
0.437690 0.256168 0.156039
0.489082 0.263645 0.147677
0.539055 0.271550 0.139193
0.594629 0.282261 0.129061
0.644495 0.291814 0.118502
0.686458 0.299321 0.107576
0.723323 0.305577 0.096132
0.756619 0.311345 0.083406
0.787442 0.316838 0.068971
0.817380 0.322637 0.044160
0.846494 0.328313 0.000244
0.874571 0.334081 0.000000
0.901122 0.339605 0.000000
0.925872 0.342382 0.000000
0.948608 0.344854 0.000000
0.969299 0.346929 0.000000
0.988586 0.348821 0.000000
1.000000 0.350591 0.000000
1.000000 0.352941 0.024445
1.000000 0.355596 0.069337
1.000000 0.359075 0.095644
1.000000 0.363531 0.122469
0.099001 0.229923 0.201419
0.098756 0.230808 0.201114
0.098543 0.231998 0.201114
0.105531 0.234531 0.200687
0.130465 0.238254 0.198032
0.162966 0.242130 0.191104
0.212314 0.244205 0.188144
0.259892 0.247196 0.184634
0.311376 0.253910 0.180606
0.366949 0.263218 0.177127
0.424994 0.271977 0.169711
0.477302 0.278691 0.160800
0.528405 0.286015 0.152163
0.587030 0.297154 0.142550
0.637598 0.305699 0.132143
0.680842 0.312627 0.121798
0.718990 0.318425 0.111269
0.753353 0.323491 0.100282
0.784787 0.328466 0.088563
0.814725 0.333379 0.074617
0.843442 0.338201 0.058320
0.870787 0.343236 0.015564
0.896574 0.347936 0.000000
0.920684 0.352514 0.000000
0.943236 0.355657 0.000000
0.964263 0.357153 0.000000
0.984131 0.358495 0.000000
1.000000 0.359960 0.000000
1.000000 0.361852 0.011933
1.000000 0.364172 0.064515
1.000000 0.367285 0.093324
1.000000 0.371435 0.121004
0.086091 0.246250 0.213748
0.085695 0.247074 0.213657
0.085573 0.248081 0.213565
0.088472 0.250675 0.213382
0.113771 0.254795 0.211612
0.143496 0.259434 0.206058
0.186435 0.263188 0.195590
0.243626 0.265507 0.195499
0.295201 0.269749 0.190768
0.349432 0.277256 0.187778
0.406531 0.286595 0.184085
0.465461 0.295842 0.175998
0.521141 0.303868 0.166995
0.578882 0.313603 0.157382
0.629480 0.321263 0.147341
0.673213 0.327153 0.137545
0.712001 0.332036 0.127443
0.746822 0.336400 0.117556
0.778836 0.340398 0.107179
0.809262 0.344671 0.095796
0.838437 0.349004 0.083040
0.866239 0.353338 0.068208
0.892454 0.357610 0.042145
0.916960 0.361700 0.000000
0.939757 0.365606 0.000000
0.960998 0.368872 0.000000
0.981018 0.369818 0.000000
1.000000 0.370611 0.000000
1.000000 0.371923 0.000000
1.000000 0.373663 0.059022
1.000000 0.376135 0.089448
1.000000 0.379706 0.117830
0.066224 0.264256 0.227481
0.065553 0.265019 0.227604
0.065126 0.266178 0.227573
0.063294 0.268498 0.227359
0.092287 0.272892 0.226322
0.122164 0.278050 0.222049
0.161776 0.283085 0.212345
0.220279 0.286046 0.204654
0.278721 0.289220 0.203555
0.334325 0.294377 0.196872
0.390082 0.302403 0.195468
0.448249 0.311925 0.191592
0.537896 0.337682 0.187198
0.600641 0.347967 0.177310
0.652918 0.354437 0.167483
0.696925 0.358587 0.157565
0.735134 0.361395 0.147585
0.768826 0.363622 0.137728
0.799222 0.365728 0.128023
0.827939 0.368017 0.118013
0.855131 0.370459 0.108034
0.880705 0.373236 0.096895
0.904692 0.375769 0.084382
0.927276 0.378363 0.070558
0.948516 0.380865 0.047578
0.968566 0.383337 0.000732
0.987579 0.385565 0.000000
1.000000 0.386358 0.000000
1.000000 0.386633 0.009033
1.000000 0.387610 0.065492
1.000000 0.389349 0.094728
1.000000 0.392126 0.123507
0.000000 0.288304 0.245914
0.000000 0.288975 0.245762
0.000000 0.289799 0.245609
0.000000 0.291844 0.245335
0.049317 0.295628 0.244297
0.092897 0.300847 0.240482
0.134646 0.306462 0.232212
0.187411 0.311040 0.217777
0.259831 0.313420 0.216464
0.320073 0.317479 0.212589
0.380041 0.324041 0.204746
0.438849 0.333135 0.205692
0.511009 0.350622 0.204044
0.582361 0.365209 0.196475
0.637720 0.371954 0.186465
0.684077 0.375677 0.176699
0.723812 0.377783 0.166934
0.758541 0.379004 0.157351
0.789975 0.380224 0.147921
0.819425 0.381720 0.138582
0.847257 0.383459 0.129702
0.873472 0.385382 0.119905
0.897887 0.387366 0.109987
0.920958 0.389380 0.099275
0.942596 0.391333 0.086152
0.963043 0.393256 0.071565
0.982483 0.395148 0.046967
1.000000 0.397009 0.000000
1.000000 0.398016 0.000000
1.000000 0.398413 0.057374
1.000000 0.399573 0.090333
1.000000 0.401923 0.119661
0.000000 0.308324 0.261295
0.000000 0.309087 0.261234
0.000000 0.309789 0.260990
0.000000 0.311589 0.260899
0.000000 0.315251 0.260075
0.038453 0.320531 0.257389
0.101961 0.326635 0.250645
0.155398 0.332341 0.238102
0.223239 0.336126 0.222904
0.298619 0.338994 0.225315
0.360510 0.343725 0.220890
0.424750 0.352575 0.214298
0.492714 0.367773 0.218051
0.560601 0.381750 0.215488
0.622919 0.391455 0.207156
0.671107 0.394171 0.197086
0.711818 0.395300 0.187137
0.747616 0.395697 0.177646
0.780240 0.396002 0.168215
0.810666 0.396765 0.159091
0.839445 0.397742 0.150362
0.866453 0.399084 0.141665
0.891630 0.400397 0.132662
0.915221 0.401892 0.123598
0.937438 0.403265 0.113924
0.958373 0.404700 0.102632
0.978241 0.406134 0.090150
0.997406 0.407630 0.074922
1.000000 0.409277 0.052522
1.000000 0.410498 0.045899
1.000000 0.411170 0.086152
1.000000 0.413001 0.117525
0.000000 0.329778 0.277775
0.000000 0.330602 0.277775
0.000000 0.331243 0.277623
0.000000 0.332891 0.277317
0.000000 0.336065 0.276829
0.000000 0.341436 0.274601
0.041718 0.347448 0.269383
0.119142 0.353826 0.259312
0.185122 0.359380 0.242069
0.268467 0.362371 0.235508
0.339757 0.366094 0.235080
0.407965 0.375647 0.231357
0.476753 0.387366 0.228153
0.541894 0.399664 0.230533
0.603571 0.409369 0.227085
0.657496 0.414618 0.218784
0.700252 0.414893 0.208774
0.737118 0.414191 0.198520
0.770687 0.413519 0.188907
0.802029 0.413245 0.180087
0.831540 0.413428 0.171206
0.859190 0.414008 0.162997
0.884947 0.414649 0.154726
0.909178 0.415442 0.146426
0.932036 0.416449 0.137819
0.953704 0.417456 0.128786
0.974517 0.418677 0.119387
0.994598 0.420081 0.109194
1.000000 0.421637 0.097932
1.000000 0.423468 0.085084
1.000000 0.424811 0.086122
1.000000 0.426459 0.119570
0.000000 0.352209 0.295109
0.000000 0.353033 0.295171
0.000000 0.353857 0.295171
0.000000 0.355596 0.295140
0.000000 0.358404 0.295048
0.000000 0.364050 0.293584
0.000000 0.370550 0.289738
0.063447 0.377569 0.281468
0.145998 0.384070 0.266941
0.223728 0.388800 0.246342
0.315892 0.392493 0.251072
0.390539 0.401984 0.249424
0.459480 0.410681 0.243931
0.524529 0.419013 0.241947
0.584314 0.427131 0.242588
0.637995 0.432410 0.238956
0.685847 0.434546 0.230564
0.725490 0.433692 0.220523
0.760891 0.432441 0.210666
0.793881 0.431647 0.201999
0.824796 0.431342 0.193393
0.853666 0.431312 0.185611
0.880369 0.431464 0.177829
0.905333 0.431708 0.169863
0.928862 0.432074 0.162356
0.951110 0.432685 0.154879
0.972412 0.433448 0.146700
0.992889 0.434485 0.138582
1.000000 0.435615 0.130404
1.000000 0.436988 0.122164
1.000000 0.438331 0.113283
1.000000 0.439582 0.119081
0.000000 0.374884 0.312779
0.000000 0.375494 0.312657
0.000000 0.376196 0.312627
0.000000 0.377905 0.312535
0.000000 0.380621 0.312383
0.000000 0.385595 0.311681
0.000000 0.392218 0.308690
0.000000 0.399359 0.302068
0.096254 0.406165 0.290227
0.182162 0.412299 0.271855
0.277043 0.420294 0.260838
0.366064 0.427405 0.266606
0.438880 0.434791 0.263279
0.506157 0.441047 0.255680
0.567193 0.446845 0.255131
0.620691 0.451240 0.255344
0.668666 0.453498 0.251347
0.712306 0.453925 0.243442
0.750027 0.452277 0.233433
0.784024 0.450507 0.224277
0.815854 0.449500 0.215457
0.845579 0.448646 0.207340
0.873136 0.448096 0.199802
0.898955 0.447761 0.192599
0.923217 0.447730 0.185580
0.946197 0.447944 0.178775
0.968170 0.448371 0.171908
0.989288 0.449104 0.165347
1.000000 0.450111 0.158724
1.000000 0.451240 0.152560
1.000000 0.452491 0.146517
1.000000 0.453742 0.141390
0.000000 0.398749 0.331365
0.000000 0.399512 0.331518
0.000000 0.409186 0.338476
0.000000 0.410742 0.338323
0.000000 0.413336 0.338079
0.000000 0.417395 0.337560
0.000000 0.423621 0.334874
0.000000 0.430396 0.329015
0.000000 0.437598 0.318883
0.133272 0.449073 0.305272
0.232425 0.460060 0.286015
0.341588 0.466438 0.286961
0.426032 0.472419 0.287968
0.498817 0.477943 0.283116
0.563836 0.480873 0.273198
0.618067 0.482155 0.274876
0.665766 0.482643 0.274662
0.708644 0.482063 0.270787
0.748043 0.480232 0.262608
0.783017 0.477272 0.252964
0.814725 0.474434 0.243381
0.844450 0.472236 0.235233
0.872068 0.470405 0.227390
0.897704 0.468879 0.219638
0.921416 0.467445 0.212314
0.943877 0.466407 0.205386
0.965332 0.465614 0.198489
0.986114 0.465400 0.191836
1.000000 0.465736 0.186282
1.000000 0.466560 0.181247
1.000000 0.467628 0.176822
1.000000 0.468849 0.173861
0.000000 0.425788 0.352483
0.000000 0.427466 0.353399
0.000000 0.429419 0.354284
0.000000 0.432105 0.355016
0.000000 0.435370 0.355566
0.000000 0.439216 0.355657
0.000000 0.445533 0.353704
0.000000 0.452583 0.349157
0.000000 0.464088 0.343755
0.008789 0.476417 0.333227
0.181186 0.486763 0.315312
0.288548 0.493538 0.296452
0.394476 0.497017 0.305882
0.472480 0.501152 0.301183
0.541650 0.504479 0.294743
0.601007 0.503593 0.283970
0.649409 0.502495 0.287724
0.693019 0.501244 0.287236
0.733089 0.499825 0.283848
0.770291 0.497566 0.276158
0.803983 0.494453 0.266850
0.835080 0.491798 0.258640
0.863920 0.489479 0.250767
0.890654 0.487526 0.243595
0.915373 0.485695 0.236698
0.938689 0.484169 0.230014
0.960845 0.483131 0.223545
0.982269 0.482521 0.217807
1.000000 0.482643 0.213016
1.000000 0.483253 0.209354
1.000000 0.484230 0.206241
1.000000 0.485481 0.205020
0.000000 0.450538 0.371618
0.000000 0.452247 0.372503
0.000000 0.454078 0.373358
0.000000 0.456641 0.374182
0.000000 0.459785 0.374670
0.000000 0.463386 0.374823
0.000000 0.469673 0.374243
0.000000 0.481056 0.373724
0.000000 0.492622 0.369726
0.000000 0.503563 0.360143
0.112367 0.513512 0.344366
0.235782 0.520836 0.322850
0.350805 0.523949 0.316228
0.443580 0.526360 0.320623
0.517510 0.528954 0.314519
0.582208 0.529290 0.306218
0.636072 0.525353 0.295933
0.679927 0.522850 0.301884
0.720760 0.520684 0.301427
0.758602 0.518669 0.298039
0.793484 0.515923 0.291569
0.825834 0.512688 0.283207
0.855894 0.510002 0.275547
0.883635 0.507500 0.268589
0.909209 0.505211 0.261723
0.933165 0.503105 0.255192
0.955871 0.501518 0.249058
0.977722 0.500572 0.243809
0.998993 0.500237 0.239445
1.000000 0.500633 0.236606
1.000000 0.501549 0.234745
1.000000 0.502770 0.234531
0.000000 0.480018 0.394476
0.000000 0.481849 0.395544
0.000000 0.484138 0.396857
0.000000 0.487068 0.397833
0.000000 0.490822 0.398840
0.000000 0.494972 0.399451
0.000000 0.500847 0.399878
0.000000 0.510552 0.398962
0.000000 0.520653 0.394842
0.000000 0.530602 0.386419
0.000000 0.539635 0.372137
0.175479 0.547112 0.352117
0.292729 0.551263 0.329961
0.406806 0.551873 0.335149
0.489937 0.553521 0.334569
0.560723 0.555291 0.328191
0.621149 0.553368 0.319402
0.670954 0.548669 0.313787
0.713436 0.546380 0.319799
0.753048 0.544549 0.320653
0.789456 0.542840 0.319036
0.823026 0.540124 0.314000
0.853849 0.536858 0.307073
0.882841 0.534203 0.300725
0.909483 0.531640 0.294774
0.934173 0.529320 0.289036
0.957427 0.527367 0.284001
0.979583 0.526024 0.279728
1.000000 0.525414 0.276616
1.000000 0.525444 0.274601
1.000000 0.526085 0.274144
1.000000 0.527306 0.275792
0.000000 0.519646 0.425299
0.000000 0.520958 0.425940
0.000000 0.522423 0.426490
0.000000 0.524529 0.426917
0.000000 0.527428 0.427283
0.000000 0.530877 0.427497
0.000000 0.535119 0.427527
0.000000 0.543297 0.426581
0.000000 0.552850 0.422797
0.000000 0.562463 0.415534
0.000000 0.571496 0.403326
0.079072 0.579004 0.384863
0.240360 0.583825 0.362799
0.361059 0.584955 0.350805
0.463691 0.584497 0.359228
0.540154 0.585412 0.353796
0.608179 0.586328 0.347356
0.662776 0.580804 0.338048
0.708217 0.574792 0.335821
0.747555 0.571283 0.340948
0.783871 0.568170 0.341405
0.816953 0.565087 0.339788
0.847196 0.561028 0.334691
0.875029 0.556390 0.327550
0.902281 0.553246 0.321386
0.927733 0.550378 0.315648
0.951720 0.548180 0.311009
0.974548 0.546593 0.307164
0.996368 0.545769 0.304540
1.000000 0.545678 0.303380
1.000000 0.546319 0.303899
1.000000 0.547692 0.306554
0.000000 0.552575 0.450629
0.000000 0.554040 0.451392
0.000000 0.555596 0.452003
0.000000 0.557702 0.452552
0.000000 0.560204 0.452796
0.000000 0.563256 0.452522
0.000000 0.566857 0.452094
0.000000 0.572168 0.450996
0.000000 0.580468 0.447181
0.000000 0.588830 0.440284
0.000000 0.597070 0.429053
0.000000 0.604211 0.413092
0.170596 0.609400 0.392065
0.303899 0.611719 0.371405
0.422431 0.610834 0.372198
0.511925 0.610498 0.376532
0.584100 0.611261 0.370642
0.649317 0.611902 0.364263
0.698817 0.603876 0.355138
0.740932 0.597864 0.356786
0.777981 0.594079 0.361944
0.812070 0.590600 0.363043
0.842954 0.587182 0.362341
0.871122 0.582910 0.358160
0.893004 0.573754 0.346136
0.919249 0.570611 0.340612
0.944091 0.568139 0.336126
0.967651 0.566369 0.332464
0.990021 0.565362 0.330480
1.000000 0.565148 0.329625
1.000000 0.566125 0.331304
1.000000 0.567864 0.335485
0.000000 0.591669 0.480812
0.000000 0.593225 0.481666
0.000000 0.594507 0.482155
0.000000 0.596063 0.482155
0.000000 0.597894 0.481727
0.000000 0.600092 0.480903
0.000000 0.602716 0.479744
0.000000 0.605921 0.478340
0.000000 0.611994 0.474403
0.000000 0.618769 0.467201
0.000000 0.625360 0.456367
0.000000 0.631495 0.441321
0.000000 0.636164 0.421820
0.245151 0.638422 0.400458
0.368688 0.637568 0.385412
0.477272 0.634974 0.393805
0.556054 0.633936 0.392554
0.624018 0.633906 0.386114
0.683864 0.632013 0.379339
0.730220 0.623651 0.370977
0.769436 0.617914 0.375952
0.804227 0.613977 0.381140
0.835691 0.609949 0.382300
0.863920 0.605524 0.381384
0.889433 0.600183 0.376867
0.912902 0.593957 0.369329
0.938109 0.590875 0.364630
0.961913 0.588495 0.360845
0.984649 0.587060 0.358801
1.000000 0.586633 0.358465
1.000000 0.587671 0.361059
1.000000 0.589654 0.366125
0.000000 0.620966 0.502953
0.000000 0.622492 0.503807
0.000000 0.623743 0.504265
0.000000 0.625147 0.504234
0.000000 0.626734 0.503593
0.000000 0.628687 0.502739
0.000000 0.631128 0.501549
0.000000 0.634089 0.500084
0.000000 0.638575 0.497658
0.000000 0.645167 0.491341
0.000000 0.651698 0.481788
0.000000 0.657862 0.468299
0.000000 0.662989 0.450843
0.170993 0.666255 0.430732
0.317296 0.666743 0.412757
0.437690 0.664363 0.411872
0.531487 0.662287 0.420050
0.603418 0.662135 0.415045
0.668788 0.662654 0.409186
0.723598 0.658289 0.402289
0.766567 0.649348 0.395178
0.802152 0.643244 0.402899
0.833921 0.638422 0.407691
0.862547 0.633570 0.408728
0.888304 0.628595 0.407904
0.911803 0.622889 0.403754
0.933501 0.616297 0.396521
0.957824 0.613855 0.393683
0.980987 0.612329 0.392309
1.000000 0.612024 0.392859
1.000000 0.613153 0.396277
1.000000 0.615534 0.402777
0.000000 0.652155 0.526543
0.000000 0.653315 0.527092
0.000000 0.654078 0.527214
0.000000 0.654994 0.526635
0.000000 0.656031 0.525780
0.000000 0.657465 0.524376
0.000000 0.659297 0.522820
0.000000 0.661799 0.521141
0.000000 0.665156 0.519402
0.000000 0.670741 0.514397
0.000000 0.677028 0.505760
0.000000 0.683253 0.493843
0.000000 0.688655 0.478096
0.000000 0.692531 0.459266
0.256687 0.693843 0.440986
0.387976 0.692439 0.430762
0.498116 0.689479 0.438331
0.580041 0.688075 0.442634
0.647700 0.688258 0.437171
0.710384 0.688960 0.432044
0.759182 0.681880 0.425238
0.798825 0.672236 0.418616
0.830777 0.666102 0.428901
0.859770 0.660670 0.433204
0.886015 0.655299 0.434241
0.909728 0.650019 0.433631
0.931548 0.644160 0.430030
0.951781 0.637415 0.423041
0.974975 0.635370 0.421729
0.997436 0.635126 0.423072
1.000000 0.636255 0.426978
1.000000 0.638788 0.434119
0.000000 0.680354 0.547478
0.000000 0.681117 0.547692
0.000000 0.681880 0.547723
0.000000 0.682795 0.547417
0.000000 0.684108 0.546654
0.000000 0.686213 0.545983
0.000000 0.689204 0.545312
0.000000 0.693202 0.544823
0.000000 0.698024 0.544244
0.000000 0.704158 0.543053
0.000000 0.712062 0.536400
0.000000 0.719722 0.526696
0.000000 0.726436 0.513207
0.000000 0.731411 0.496773
0.191043 0.734005 0.479988
0.350317 0.733425 0.469032
0.474678 0.730098 0.473182
0.568444 0.727749 0.482673
0.640620 0.727230 0.483253
0.704128 0.727626 0.478492
0.763455 0.728298 0.474037
0.804746 0.717464 0.467414
0.839475 0.707057 0.463752
0.867704 0.700374 0.473335
0.893492 0.694331 0.477363
0.916899 0.688563 0.478370
0.938231 0.682948 0.477821
0.957855 0.676967 0.474739
0.976135 0.670130 0.468635
0.997314 0.668940 0.469886
1.000000 0.670100 0.474861
1.000000 0.672572 0.482948
0.000000 0.720455 0.577600
0.000000 0.721035 0.577630
0.000000 0.721401 0.577478
0.000000 0.721950 0.576806
0.000000 0.722774 0.575647
0.000000 0.724117 0.574426
0.000000 0.726162 0.573022
0.000000 0.728939 0.571496
0.000000 0.732448 0.570062
0.000000 0.736721 0.568475
0.000000 0.742306 0.563409
0.000000 0.748623 0.553552
0.000000 0.754269 0.540581
0.000000 0.758724 0.524895
0.000000 0.761196 0.508171
0.290379 0.761227 0.495277
