其他预设/【212】创意蓝橙调色预设24款/1.3D LUT预设（视频调色-PR-AE-PS-FCPX-达芬奇用）/7.蓝橙色调-亮调__.cube
# Created by Adobe Lightroom plugin Export LUT (1.17.0)
# www.johnrellis.com/lightroom/exportlut.htm
# Preset: 7.蓝橙色调-亮调[素锦印象]
# Color profile: /Library/Application Support/Adobe/Color/Profiles/Recommended/AdobeRGB1998.icc
LUT_3D_SIZE 8
DOMAIN_MIN 0.000000 0.000000 0.000000
DOMAIN_MAX 0.903226 0.903226 0.903226
0.135348 0.135348 0.135348
0.222080 0.142733 0.135775
0.389105 0.163973 0.128878
0.580377 0.200931 0.108186
0.757198 0.245579 0.065278
0.868681 0.276646 0.000000
0.952819 0.297734 0.000000
1.000000 0.315099 0.040925
0.128786 0.163912 0.153567
0.202182 0.170138 0.149508
0.368322 0.188052 0.130678
0.558221 0.222843 0.108644
0.734310 0.261173 0.067384
0.849424 0.286564 0.000000
0.940612 0.305058 0.000000
1.000000 0.320958 0.021851
0.108919 0.214237 0.189395
0.145388 0.222568 0.185092
0.329870 0.241276 0.170626
0.539055 0.271550 0.139193
0.723323 0.305577 0.096132
0.846494 0.328313 0.000244
0.948608 0.344854 0.000000
1.000000 0.352941 0.024445
0.000000 0.288304 0.245914
0.049317 0.295628 0.244297
0.259831 0.313420 0.216464
0.511009 0.350622 0.204044
0.723812 0.377783 0.166934
0.847257 0.383459 0.129702
0.942596 0.391333 0.086152
1.000000 0.398016 0.000000
0.000000 0.374884 0.312779
0.000000 0.380621 0.312383
0.096254 0.406165 0.290227
0.438880 0.434791 0.263279
0.668666 0.453498 0.251347
0.815854 0.449500 0.215457
0.923217 0.447730 0.185580
1.000000 0.450111 0.158724
0.000000 0.480018 0.394476
0.000000 0.490822 0.398840
0.000000 0.520653 0.394842
0.292729 0.551263 0.329961
0.621149 0.553368 0.319402
0.789456 0.542840 0.319036
0.909483 0.531640 0.294774
1.000000 0.525414 0.276616
0.000000 0.620966 0.502953
0.000000 0.626734 0.503593
0.000000 0.638575 0.497658
0.000000 0.662989 0.450843
0.531487 0.662287 0.420050
0.766567 0.649348 0.395178
0.888304 0.628595 0.407904
0.980987 0.612329 0.392309
0.000000 0.749569 0.598718
0.000000 0.751797 0.596857
0.000000 0.761685 0.591608
0.000000 0.783261 0.568261
0.366766 0.777401 0.506249
0.723598 0.773373 0.530877
0.890990 0.750454 0.524132
0.974548 0.726925 0.536278
0.122927 0.157076 0.176730
0.200626 0.162173 0.173648
0.356146 0.178103 0.158358
0.544549 0.216892 0.139681
0.723049 0.260258 0.100923
0.839078 0.291691 0.020905
0.933715 0.309911 0.000000
1.000000 0.321080 0.007782
0.116152 0.179416 0.188296
0.185611 0.185611 0.185611
0.342657 0.197696 0.171633
0.535454 0.229038 0.147372
0.712734 0.268315 0.110719
0.830045 0.297032 0.058778
0.924681 0.316594 0.000000
1.000000 0.326238 0.000000
0.094575 0.225772 0.213291
0.141817 0.237675 0.216495
0.314122 0.249577 0.204654
0.517815 0.272618 0.175174
0.698939 0.302251 0.140536
0.824918 0.324681 0.101656
0.926360 0.344823 0.004181
1.000000 0.355291 0.000000
0.000000 0.295140 0.262760
0.025605 0.305547 0.264988
0.242313 0.323064 0.236667
0.485145 0.346319 0.230472
0.684504 0.365759 0.194156
0.815000 0.374121 0.159030
0.919036 0.384771 0.121859
1.000000 0.395422 0.064973
0.000000 0.383948 0.329808
0.000000 0.389166 0.329107
0.071931 0.412573 0.311315
0.422553 0.432776 0.281346
0.644282 0.445930 0.268864
0.796719 0.445014 0.234592
0.910033 0.445716 0.205020
1.000000 0.448859 0.177554
0.000000 0.484443 0.406561
0.000000 0.490272 0.407202
0.000000 0.516197 0.402655
0.272496 0.545190 0.345983
0.607172 0.550591 0.334142
0.780270 0.543877 0.336431
0.902007 0.533196 0.310918
0.994110 0.525475 0.288151
0.000000 0.611780 0.503288
0.000000 0.613458 0.500908
0.000000 0.627070 0.496803
0.000000 0.654810 0.457893
0.516014 0.658228 0.426123
0.755398 0.646082 0.402991
0.877501 0.624537 0.412085
0.972107 0.607843 0.392798
0.000000 0.742397 0.599725
0.000000 0.746029 0.599145
0.000000 0.756710 0.594629
0.000000 0.779141 0.574060
0.361791 0.787259 0.524895
0.721767 0.777829 0.545800
0.887022 0.751431 0.530846
0.970153 0.726192 0.539422
0.070588 0.204868 0.254124
0.118868 0.205386 0.256321
0.327886 0.207736 0.247684
0.530968 0.222599 0.216220
0.717556 0.268223 0.196353
0.836057 0.304051 0.176730
0.934813 0.328832 0.140780
1.000000 0.346532 0.075257
0.042725 0.228824 0.263981
0.119265 0.227756 0.266300
0.313725 0.228702 0.255283
0.517967 0.241306 0.227237
0.702937 0.278813 0.205386
0.827207 0.310155 0.181704
0.928161 0.333318 0.145541
1.000000 0.350866 0.085695
0.000000 0.275334 0.291600
0.052949 0.279606 0.293126
0.282811 0.282811 0.282811
0.500572 0.297978 0.262608
0.693172 0.322484 0.235782
0.822110 0.341466 0.206577
0.924529 0.358099 0.172946
1.000000 0.371313 0.125093
0.000000 0.334997 0.326879
0.000000 0.343145 0.329808
0.172335 0.363958 0.324987
0.469245 0.377996 0.315587
0.675380 0.391241 0.285069
0.812039 0.396735 0.252811
0.919463 0.404181 0.220920
1.000000 0.410254 0.183139
0.000000 0.408698 0.376745
0.000000 0.417121 0.379675
0.000000 0.449470 0.385473
0.399390 0.467628 0.357946
0.635859 0.474708 0.350774
0.789670 0.469459 0.316960
0.905516 0.466835 0.285557
0.998199 0.466773 0.255833
0.000000 0.509667 0.451759
0.000000 0.516869 0.454108
0.000000 0.542077 0.456275
0.213016 0.566094 0.417121
0.587182 0.568383 0.397986
0.763272 0.559960 0.398901
0.890929 0.551568 0.374182
0.990143 0.546288 0.352026
0.000000 0.631403 0.543023
0.000000 0.634028 0.541680
0.000000 0.644587 0.536400
0.000000 0.667231 0.506584
0.480323 0.669459 0.466438
0.743679 0.661921 0.457130
0.871946 0.645899 0.469978
0.971435 0.633539 0.453681
0.000000 0.750546 0.628626
0.000000 0.751278 0.625422
0.000000 0.760006 0.619684
0.000000 0.784634 0.607202
0.290745 0.794400 0.557794
0.705440 0.784207 0.581537
0.880858 0.763546 0.564416
0.966491 0.741909 0.576867
0.000000 0.277775 0.360357
0.000000 0.283085 0.364385
0.185275 0.244968 0.369451
0.494697 0.277684 0.353155
0.688655 0.292699 0.314244
0.816434 0.325353 0.288334
0.918578 0.352209 0.265202
1.000000 0.366155 0.226078
0.000000 0.304356 0.373388
0.000000 0.302342 0.376867
0.169863 0.269047 0.378363
0.488930 0.296941 0.361669
0.682246 0.308721 0.322972
0.810636 0.335790 0.295476
0.914519 0.358831 0.270268
1.000000 0.370520 0.228611
0.000000 0.342718 0.393286
0.000000 0.343664 0.396277
0.125124 0.332891 0.397498
0.461555 0.346624 0.382025
0.666224 0.359930 0.353521
0.807553 0.381018 0.330785
0.920317 0.397223 0.304601
1.000000 0.398108 0.256107
0.000000 0.402594 0.431067
0.000000 0.405951 0.430518
0.000000 0.413092 0.435126
0.422980 0.422980 0.422980
0.638849 0.431159 0.399115
0.789059 0.436347 0.370214
0.906828 0.439765 0.337102
1.000000 0.439490 0.296452
0.000000 0.470466 0.471351
0.000000 0.474739 0.470253
0.000000 0.494789 0.479805
0.288121 0.520623 0.470771
0.608728 0.517418 0.458961
0.772885 0.513878 0.429572
0.896513 0.508629 0.396490
0.993225 0.501091 0.358221
0.000000 0.557824 0.531090
0.000000 0.567346 0.535790
0.000000 0.584253 0.538018
0.000000 0.608270 0.525475
0.554192 0.605005 0.501823
0.746365 0.598962 0.497536
0.879301 0.590753 0.470924
0.982757 0.581628 0.441382
0.000000 0.655695 0.600366
0.000000 0.660151 0.600702
0.000000 0.672877 0.599115
0.000000 0.695583 0.585992
0.399847 0.702022 0.541772
0.726955 0.694453 0.544610
0.859586 0.676509 0.546929
0.963745 0.665248 0.527611
0.000000 0.771725 0.683436
0.000000 0.774319 0.682033
0.000000 0.780209 0.673732
0.000000 0.794095 0.659205
0.000000 0.808499 0.615930
0.670130 0.795163 0.627466
0.867460 0.782406 0.615290
0.959106 0.763424 0.627161
0.000000 0.367651 0.484901
0.000000 0.373846 0.486244
0.000000 0.353704 0.492958
0.392370 0.339544 0.497597
0.645960 0.374487 0.467811
0.790616 0.392767 0.430640
0.901183 0.419745 0.410986
0.993133 0.438514 0.390417
0.000000 0.386511 0.492714
0.000000 0.388647 0.496345
0.000000 0.370611 0.501732
0.379461 0.348913 0.502983
0.639796 0.386572 0.472023
0.787381 0.404242 0.437385
0.899687 0.428382 0.417090
0.992370 0.443641 0.393530
0.000000 0.423499 0.510185
0.000000 0.423316 0.513085
0.000000 0.415015 0.520409
0.306676 0.376349 0.518059
0.619013 0.423163 0.486091
0.771817 0.435096 0.453651
0.891600 0.452430 0.432197
0.988281 0.456489 0.398932
0.000000 0.470344 0.536828
0.000000 0.473823 0.537926
0.000000 0.475074 0.545159
0.231479 0.463691 0.544213
0.593072 0.485176 0.517296
0.757565 0.492470 0.490547
0.885466 0.496223 0.461769
0.988678 0.483009 0.411170
0.000000 0.533745 0.575219
0.000000 0.538079 0.574456
0.000000 0.543664 0.577325
0.000000 0.548211 0.575525
0.553155 0.553155 0.553155
0.736446 0.554467 0.528985
0.874266 0.550164 0.496986
0.981476 0.537346 0.453071
0.000000 0.594354 0.607324
0.000000 0.597650 0.606348
0.000000 0.605463 0.604883
0.000000 0.619562 0.604608
0.407355 0.631495 0.580621
0.708614 0.628290 0.579492
0.859220 0.629297 0.560327
0.971099 0.619013 0.527947
0.000000 0.679408 0.665003
0.000000 0.681422 0.663478
0.000000 0.690578 0.659968
0.000000 0.710903 0.659602
0.170504 0.723690 0.630762
0.673091 0.711940 0.619165
0.836820 0.702419 0.615106
0.950927 0.692561 0.592676
0.000000 0.778592 0.734951
0.000000 0.780606 0.733577
0.000000 0.788540 0.729061
0.000000 0.805783 0.721736
0.000000 0.819181 0.689357
0.562554 0.811215 0.661311
0.839994 0.801999 0.670558
0.945220 0.782437 0.674922
0.000000 0.463478 0.618280
0.000000 0.469978 0.618708
0.000000 0.460456 0.625055
0.000000 0.417151 0.629236
0.577844 0.458137 0.614923
0.755032 0.490425 0.577234
0.874876 0.523888 0.564477
0.971130 0.556237 0.563165
0.000000 0.472053 0.616693
0.000000 0.476722 0.615930
0.000000 0.465278 0.622065
0.000000 0.425788 0.625330
0.567681 0.463020 0.612451
0.748836 0.494545 0.577325
0.871519 0.527184 0.565515
0.969451 0.557977 0.563378
0.000000 0.506798 0.633600
0.000000 0.507652 0.632807
0.000000 0.497444 0.635798
0.000000 0.469062 0.637263
0.547387 0.488930 0.623529
0.739803 0.522393 0.591211
0.866819 0.548913 0.578912
0.967803 0.572045 0.571893
0.000000 0.543725 0.650690
0.000000 0.546868 0.648707
0.000000 0.542382 0.652094
0.000000 0.531151 0.657679
0.486458 0.522789 0.649042
0.730800 0.571283 0.619593
0.863432 0.587549 0.604242
0.967987 0.596490 0.586511
0.000000 0.585138 0.667384
0.000000 0.588952 0.666743
0.000000 0.592187 0.668208
0.000000 0.588678 0.670253
0.370550 0.580896 0.663142
0.701991 0.610498 0.637018
0.849607 0.618097 0.617853
0.964019 0.613764 0.588006
0.000000 0.635554 0.690455
0.000000 0.640131 0.691463
0.000000 0.648341 0.690486
0.000000 0.651942 0.691707
0.221775 0.656519 0.686427
0.668574 0.668513 0.668544
0.837797 0.672328 0.650355
0.959777 0.663233 0.618585
0.000000 0.706050 0.735317
0.000000 0.709773 0.735958
0.000000 0.718471 0.733730
0.000000 0.730129 0.732815
0.000000 0.744503 0.729030
0.544762 0.750576 0.701656
0.813138 0.739528 0.696040
0.941863 0.734981 0.675837
0.000000 0.786221 0.790219
0.000000 0.787961 0.789120
0.000000 0.794949 0.786130
0.000000 0.810880 0.782864
0.000000 0.833921 0.776333
0.266392 0.838529 0.735653
0.789670 0.820340 0.737179
0.929168 0.809384 0.735012
0.000000 0.538659 0.726711
0.000000 0.542992 0.726223
0.000000 0.542473 0.727291
0.000000 0.516228 0.731167
0.380835 0.491249 0.727260
0.721004 0.569665 0.711269
0.842832 0.601099 0.677302
0.941802 0.650874 0.688319
0.000000 0.546349 0.728695
0.000000 0.550317 0.728145
0.000000 0.548760 0.729213
0.000000 0.523247 0.731868
0.368170 0.497108 0.728847
0.718379 0.575219 0.713771
0.841489 0.605829 0.679835
0.941344 0.654017 0.690272
0.000000 0.567193 0.735042
0.000000 0.570642 0.734493
0.000000 0.569482 0.735348
0.000000 0.548760 0.737697
0.327306 0.521813 0.735195
0.706325 0.595300 0.719753
0.836912 0.621820 0.688472
0.939849 0.664637 0.696712
0.000000 0.596155 0.746212
0.000000 0.598749 0.745174
0.000000 0.602289 0.744961
0.000000 0.587671 0.747189
0.263005 0.568597 0.745052
0.683589 0.624475 0.730037
0.829404 0.647272 0.702510
0.938109 0.681483 0.706538
0.000000 0.632380 0.760311
0.000000 0.635126 0.759854
0.000000 0.644465 0.758175
0.000000 0.635645 0.759945
0.000000 0.621912 0.758633
0.619867 0.640131 0.746151
0.818967 0.680171 0.721126
0.936217 0.704219 0.719112
0.000000 0.676204 0.778317
0.000000 0.678706 0.777890
0.000000 0.687007 0.776486
0.000000 0.690364 0.776608
0.000000 0.685084 0.776272
0.502220 0.688808 0.767819
0.802823 0.722255 0.745205
0.933623 0.733822 0.734371
0.000000 0.724575 0.798611
0.000000 0.726802 0.798337
0.000000 0.734432 0.797238
0.000000 0.746639 0.795804
0.000000 0.750942 0.796750
0.358648 0.761288 0.792264
0.774960 0.774929 0.774960
0.926757 0.775937 0.756558
0.000000 0.788327 0.838804
0.000000 0.790341 0.838773
0.000000 0.797604 0.838407
0.000000 0.810758 0.837522
0.000000 0.830076 0.835752
0.000000 0.848631 0.832456
0.656336 0.851896 0.804318
0.908385 0.841520 0.802701
0.000000 0.614466 0.840665
0.000000 0.617792 0.840299
0.000000 0.629236 0.839109
0.000000 0.610346 0.841093
0.183993 0.596338 0.840146
0.655909 0.654231 0.829618
0.846036 0.706996 0.812589
0.927764 0.731807 0.790951
0.000000 0.618738 0.841672
0.000000 0.621912 0.841367
0.000000 0.633265 0.840146
0.000000 0.615320 0.842008
0.166934 0.601495 0.841093
0.650813 0.656489 0.830777
0.844877 0.709712 0.814176
0.927306 0.734218 0.792416
0.000000 0.630915 0.845304
0.000000 0.633875 0.844999
0.000000 0.644495 0.843778
0.000000 0.631922 0.845121
0.017700 0.618158 0.844388
0.629816 0.663416 0.834714
0.840696 0.718837 0.819944
0.925628 0.742428 0.797330
0.000000 0.646967 0.851713
0.000000 0.649744 0.851408
0.000000 0.659724 0.850217
0.000000 0.658991 0.850309
0.000000 0.644465 0.850217
0.571466 0.668910 0.842557
0.831327 0.733364 0.829862
0.922972 0.756100 0.805661
0.000000 0.676692 0.861051
0.000000 0.678279 0.860746
0.000000 0.683619 0.859617
0.000000 0.691951 0.857420
0.000000 0.678706 0.858335
0.477760 0.690852 0.852537
0.808835 0.755642 0.838529
0.919066 0.775387 0.817533
0.000000 0.713863 0.872831
0.000000 0.715389 0.872587
0.000000 0.720455 0.871702
0.000000 0.728939 0.869932
0.000000 0.726772 0.868864
0.238376 0.721798 0.865782
0.758175 0.769100 0.852110
0.913024 0.801083 0.833341
0.000000 0.755917 0.886656
0.000000 0.757382 0.886503
0.000000 0.762356 0.885863
0.000000 0.771298 0.884611
0.000000 0.784512 0.882597
0.000000 0.779141 0.881682
0.635584 0.798489 0.871672
0.902647 0.834928 0.854002
0.000000 0.801053 0.902098
0.000000 0.802457 0.902007
0.000000 0.807584 0.901640
0.000000 0.817258 0.900908
0.000000 0.832670 0.899687
0.000000 0.845823 0.898894
0.475898 0.862181 0.893889
0.880949 0.880919 0.880919
