其他预设/【212】创意蓝橙调色预设24款/1.3D LUT预设（视频调色-PR-AE-PS-FCPX-达芬奇用）/8.蓝橙色调__.cube
# Created by Adobe Lightroom plugin Export LUT (1.17.0)
# www.johnrellis.com/lightroom/exportlut.htm
# Preset: 8.蓝橙色调[素锦印象]
# Color profile: /Library/Application Support/Adobe/Color/Profiles/Recommended/AdobeRGB1998.icc
LUT_3D_SIZE 5
DOMAIN_MIN 0.000000 0.000000 0.000000
DOMAIN_MAX 0.903226 0.903226 0.903226
0.078279 0.078279 0.078279
0.254398 0.085298 0.064851
0.530327 0.145602 0.000000
0.798154 0.226658 0.000000
0.950500 0.283299 0.000000
0.070161 0.104463 0.091249
0.236332 0.159182 0.049134
0.523339 0.214115 0.000000
0.795499 0.274205 0.000000
0.949706 0.313329 0.000000
0.000000 0.263676 0.196170
0.143557 0.294347 0.147585
0.498817 0.334447 0.098787
0.787503 0.391669 0.000000
0.946899 0.399603 0.015747
0.000000 0.406897 0.296757
0.000000 0.433692 0.275639
0.460365 0.484321 0.243534
0.777859 0.525200 0.177249
0.941955 0.516625 0.114778
0.000000 0.622034 0.442756
0.000000 0.644404 0.433875
0.347631 0.720516 0.358556
0.811887 0.734798 0.353460
0.941131 0.659907 0.328862
0.000000 0.125246 0.174197
0.216983 0.119753 0.167910
0.510948 0.192569 0.068238
0.788022 0.293278 0.000000
0.948852 0.316350 0.000000
0.000000 0.184695 0.203372
0.199039 0.199039 0.199039
0.503838 0.239261 0.123537
0.786435 0.322728 0.000000
0.948150 0.341772 0.000000
0.000000 0.293095 0.261204
0.000000 0.323461 0.251286
0.482918 0.355901 0.225132
0.780087 0.406134 0.107881
0.945739 0.418952 0.042359
0.000000 0.424445 0.342168
0.000000 0.448310 0.332830
0.445808 0.507073 0.311040
0.770596 0.538659 0.262699
0.940093 0.528832 0.174777
0.000000 0.628595 0.475227
0.000000 0.646906 0.469886
0.269993 0.724117 0.406622
0.803128 0.748409 0.406714
0.936706 0.671870 0.380499
0.000000 0.251621 0.365179
0.000000 0.244511 0.371069
0.455940 0.279576 0.364508
0.771695 0.311467 0.267460
0.944427 0.375921 0.186465
0.000000 0.292607 0.376135
0.000000 0.284794 0.384985
0.447974 0.319341 0.378454
0.767208 0.347875 0.290837
0.944152 0.392493 0.196567
0.000000 0.370153 0.411383
0.000000 0.378332 0.418311
0.421973 0.421973 0.421973
0.756283 0.446967 0.353277
0.941253 0.454627 0.249729
0.000000 0.475868 0.462593
0.000000 0.494514 0.470069
0.245274 0.551598 0.455970
0.742641 0.586206 0.445838
0.931029 0.567102 0.364660
0.000000 0.673121 0.593500
0.000000 0.680446 0.586481
0.000000 0.723201 0.544549
0.741543 0.773037 0.559838
0.919615 0.715419 0.527306
0.000000 0.389807 0.569482
0.000000 0.398688 0.567590
0.000000 0.347509 0.592950
0.718044 0.451789 0.579217
0.916594 0.510613 0.519005
0.000000 0.418402 0.577234
0.000000 0.420722 0.578180
0.000000 0.384375 0.600336
0.713680 0.479927 0.589593
0.915099 0.528344 0.529320
0.000000 0.481086 0.603143
0.000000 0.484993 0.604486
0.000000 0.479500 0.622126
0.700313 0.560113 0.622248
0.912810 0.575402 0.552239
0.000000 0.573663 0.645930
0.000000 0.580407 0.644617
0.000000 0.598138 0.656580
0.674434 0.674372 0.674403
0.907683 0.654871 0.593347
0.000000 0.722683 0.742916
0.000000 0.730343 0.740444
0.000000 0.757687 0.734066
0.403265 0.798734 0.670466
0.886748 0.787961 0.713191
0.000000 0.543786 0.810971
0.000000 0.554253 0.809262
0.000000 0.538689 0.811032
0.555383 0.582330 0.817197
0.865446 0.731411 0.789731
0.000000 0.556695 0.813657
0.000000 0.566247 0.812039
0.000000 0.553979 0.813260
0.534752 0.587152 0.818540
0.864469 0.739101 0.793484
0.000000 0.590509 0.823209
0.000000 0.595422 0.821897
0.000000 0.600366 0.820279
0.388464 0.583978 0.823148
0.861875 0.762051 0.804837
0.000000 0.655177 0.838224
0.000000 0.659846 0.837217
0.000000 0.674952 0.833555
0.000000 0.653773 0.834134
0.857694 0.798123 0.823209
0.000000 0.734615 0.856840
0.000000 0.739437 0.856291
0.000000 0.757717 0.854063
0.000000 0.776761 0.852049
0.848875 0.848875 0.848875
