其他预设/【212】创意蓝橙调色预设24款/1.3D LUT预设（视频调色-PR-AE-PS-FCPX-达芬奇用）/8.蓝橙色调__.cube
# Created by Adobe Lightroom plugin Export LUT (1.17.0)
# www.johnrellis.com/lightroom/exportlut.htm
# Preset: 8.蓝橙色调[素锦印象]
# Color profile: /Library/Application Support/Adobe/Color/Profiles/Recommended/AdobeRGB1998.icc
LUT_3D_SIZE 8
DOMAIN_MIN 0.000000 0.000000 0.000000
DOMAIN_MAX 0.903226 0.903226 0.903226
0.078279 0.078279 0.078279
0.117983 0.077119 0.076997
0.294682 0.090730 0.057191
0.450080 0.123690 0.000000
0.614984 0.168124 0.000000
0.765866 0.216159 0.000000
0.878050 0.252689 0.000000
0.950500 0.283299 0.000000
0.078279 0.078279 0.078279
0.111543 0.091920 0.075929
0.291203 0.123110 0.048707
0.447486 0.151583 0.000000
0.613062 0.189914 0.000000
0.764889 0.232609 0.000000
0.877592 0.265080 0.000000
0.950286 0.292485 0.000000
0.059236 0.126497 0.104005
0.071260 0.145785 0.073335
0.275364 0.182284 0.019959
0.439460 0.217502 0.000000
0.606958 0.249363 0.000000
0.761532 0.281926 0.000000
0.876005 0.304326 0.000000
0.949432 0.322759 0.000000
0.000000 0.219852 0.165866
0.000000 0.233951 0.150332
0.242161 0.255406 0.120089
0.423041 0.282475 0.075013
0.597803 0.320714 0.000000
0.756252 0.350072 0.000000
0.873442 0.363165 0.000000
0.947906 0.370855 0.000000
0.000000 0.304723 0.224643
0.000000 0.315129 0.215518
0.168246 0.340002 0.173159
0.394079 0.355993 0.162783
0.578820 0.389105 0.121004
0.749416 0.422065 0.000000
0.869902 0.433295 0.000000
0.945708 0.430945 0.060182
0.000000 0.385138 0.281285
0.000000 0.393927 0.275181
0.000000 0.419623 0.246921
0.363104 0.447608 0.238895
0.562615 0.471168 0.201724
0.741787 0.500084 0.163912
0.864652 0.506615 0.086336
0.942809 0.498787 0.104036
0.000000 0.480537 0.349035
0.000000 0.489052 0.345220
0.000000 0.517601 0.327611
0.275608 0.562799 0.283940
0.561791 0.591852 0.286503
0.753140 0.602899 0.245029
0.865476 0.589960 0.227939
0.937957 0.571923 0.193545
0.000000 0.622034 0.442756
0.000000 0.626307 0.441718
0.000000 0.653498 0.428534
0.000000 0.698268 0.384009
0.540917 0.734096 0.385290
0.772580 0.741634 0.361425
0.883482 0.698543 0.339330
0.941131 0.659907 0.328862
0.076539 0.080446 0.085023
0.104707 0.072389 0.087678
0.282963 0.112520 0.054780
0.437751 0.170535 0.000000
0.605615 0.207462 0.000000
0.760891 0.245823 0.000000
0.876097 0.273014 0.000000
0.949859 0.295232 0.000000
0.068269 0.096925 0.103487
0.098634 0.098634 0.098634
0.278477 0.129397 0.059846
0.436866 0.181064 0.000000
0.604303 0.222843 0.000000
0.760006 0.259129 0.000000
0.875731 0.283757 0.000000
0.949645 0.303716 0.000000
0.007752 0.148226 0.135622
0.034333 0.169986 0.135897
0.266148 0.192630 0.113558
0.432105 0.221958 0.022278
0.599817 0.269169 0.000000
0.757504 0.300694 0.000000
0.874388 0.319005 0.000000
0.948882 0.332250 0.000000
0.000000 0.235050 0.192905
0.000000 0.248631 0.186343
0.237034 0.269657 0.164950
0.417578 0.290196 0.135653
0.592706 0.324102 0.016602
0.753079 0.362158 0.000000
0.872099 0.373541 0.000000
0.947448 0.378027 0.000000
0.000000 0.314855 0.245121
0.000000 0.324071 0.238193
0.146212 0.348425 0.204410
0.391608 0.364752 0.196780
0.575097 0.394507 0.163912
0.746548 0.425757 0.072297
0.868833 0.440833 0.000000
0.945342 0.436378 0.064515
0.000000 0.391363 0.296605
0.000000 0.399634 0.291875
0.000000 0.424933 0.269200
0.357641 0.454994 0.261692
0.560632 0.477058 0.227573
0.739467 0.504173 0.195712
0.863188 0.510399 0.136843
0.942504 0.503044 0.106691
0.000000 0.484199 0.360815
0.000000 0.492683 0.358068
0.000000 0.520928 0.343694
0.254765 0.566705 0.301061
0.557702 0.597345 0.305303
0.751400 0.607111 0.265293
0.863920 0.593591 0.250431
0.937011 0.575463 0.217807
0.000000 0.623865 0.452552
0.000000 0.628046 0.451545
0.000000 0.654505 0.440528
0.000000 0.699123 0.400153
0.529595 0.735958 0.396063
0.767758 0.744137 0.377935
0.881926 0.701900 0.354620
0.939849 0.663416 0.344732
0.000000 0.143374 0.203586
0.000000 0.142306 0.203433
0.252110 0.143404 0.196841
0.425788 0.162203 0.135470
0.593530 0.224521 0.081697
0.751369 0.285649 0.000000
0.871885 0.317784 0.000000
0.948516 0.324559 0.000000
0.000000 0.167819 0.211307
0.000000 0.163088 0.214542
0.246464 0.171359 0.206027
0.421576 0.185580 0.152316
0.590967 0.238315 0.103029
0.750698 0.294285 0.000000
0.871611 0.326421 0.000000
0.948302 0.331884 0.000000
0.000000 0.213382 0.235142
0.000000 0.215976 0.237736
0.231815 0.231815 0.231815
0.410986 0.244968 0.195224
0.585107 0.279026 0.145754
0.748623 0.322942 0.027710
0.870573 0.355505 0.000000
0.947631 0.357031 0.000000
0.000000 0.268711 0.261448
0.000000 0.278508 0.265232
0.147829 0.303288 0.253422
0.397620 0.316747 0.245151
0.576318 0.340490 0.200961
0.744259 0.372595 0.133242
0.868437 0.397070 0.000000
0.946319 0.398688 0.008759
0.000000 0.335576 0.298466
0.000000 0.345769 0.300084
0.000000 0.370062 0.287785
0.374426 0.390723 0.280522
0.561059 0.412848 0.259525
0.736934 0.439612 0.210636
0.864561 0.453346 0.137758
0.944396 0.452979 0.074678
0.000000 0.408820 0.342473
0.000000 0.417121 0.342046
0.000000 0.440101 0.331945
0.309850 0.474067 0.309636
0.550927 0.497261 0.300542
0.730648 0.518669 0.278233
0.858183 0.523461 0.235813
0.940673 0.515496 0.172732
0.000000 0.499153 0.401495
0.000000 0.506310 0.400092
0.000000 0.530419 0.391730
0.180545 0.576013 0.364630
0.537926 0.615259 0.364599
0.743893 0.621851 0.328099
0.858335 0.606500 0.317144
0.933623 0.588128 0.286442
0.000000 0.632746 0.487343
0.000000 0.635401 0.485115
0.000000 0.656336 0.477913
0.000000 0.700923 0.450019
0.479286 0.741787 0.428687
0.749416 0.752407 0.431952
0.876005 0.713832 0.404334
0.935180 0.675959 0.396490
0.000000 0.216037 0.313512
0.000000 0.222995 0.312016
0.000000 0.184024 0.323369
0.387182 0.236423 0.309361
0.574273 0.232456 0.241276
0.742184 0.291020 0.202304
0.867033 0.338018 0.150942
0.947265 0.360906 0.000000
0.000000 0.236606 0.317845
0.000000 0.235843 0.319585
0.000000 0.207187 0.328313
0.384161 0.252201 0.314580
0.571252 0.249210 0.250736
0.740505 0.302495 0.212039
0.866423 0.345830 0.160586
0.947234 0.366186 0.000000
0.000000 0.271000 0.331395
0.000000 0.270878 0.334905
0.000000 0.264042 0.341924
0.374731 0.296361 0.331060
0.561944 0.300420 0.279667
0.735409 0.340032 0.241459
0.864622 0.372198 0.187533
0.946563 0.385626 0.071412
0.000000 0.319402 0.354009
0.000000 0.321996 0.356542
0.000000 0.331029 0.362646
0.358282 0.358282 0.358282
0.548272 0.369879 0.323583
0.728695 0.395178 0.281071
0.861814 0.415229 0.226200
0.944671 0.421393 0.143435
0.000000 0.372381 0.376410
0.000000 0.377783 0.379309
0.000000 0.397772 0.386175
0.272282 0.426551 0.372473
0.534203 0.444282 0.369848
0.720302 0.464576 0.330632
0.856992 0.474464 0.278477
0.941405 0.471748 0.213169
0.000000 0.436408 0.409644
0.000000 0.443519 0.412390
0.000000 0.466346 0.417670
0.168276 0.497292 0.402106
0.522911 0.531334 0.401312
0.713985 0.544732 0.382910
0.849424 0.547326 0.344823
0.936065 0.535424 0.289494
0.000000 0.525689 0.465614
0.000000 0.530632 0.465827
0.000000 0.552575 0.466987
0.000000 0.586572 0.450355
0.469062 0.637507 0.437568
0.726070 0.649012 0.422675
0.847593 0.630579 0.411994
0.927520 0.611231 0.379156
0.000000 0.657221 0.552667
0.000000 0.659571 0.550713
0.000000 0.669245 0.542168
0.000000 0.700038 0.519585
0.336248 0.748135 0.480049
0.712642 0.765225 0.517937
0.863951 0.735592 0.483497
0.926024 0.699611 0.478920
0.000000 0.286717 0.416358
0.000000 0.292668 0.414557
0.000000 0.279484 0.423743
0.236332 0.260472 0.437873
0.529229 0.320531 0.421576
0.724056 0.299046 0.343908
0.857145 0.363653 0.318791
0.939910 0.398505 0.285252
0.000000 0.301457 0.419318
0.000000 0.305547 0.417914
0.000000 0.290990 0.427802
0.221286 0.268162 0.441169
0.526970 0.331701 0.425208
0.722316 0.312749 0.350256
0.856413 0.372259 0.324132
0.939757 0.403754 0.288151
0.000000 0.331945 0.428779
0.000000 0.332341 0.430915
0.000000 0.324987 0.439216
0.172824 0.304234 0.449195
0.519768 0.366796 0.437690
0.716579 0.356237 0.371069
0.854063 0.400824 0.341375
0.939361 0.420508 0.296391
0.000000 0.370611 0.445838
0.000000 0.372229 0.447425
0.000000 0.373846 0.455787
0.137392 0.376684 0.465339
0.507652 0.420600 0.458625
0.707942 0.421088 0.405158
0.851164 0.444770 0.365759
0.939818 0.444984 0.300969
0.000000 0.422156 0.469978
0.000000 0.424537 0.471077
0.000000 0.432685 0.478126
0.000000 0.449958 0.487037
0.489082 0.489082 0.489082
0.698207 0.497688 0.448371
0.847074 0.503136 0.399573
0.936706 0.494545 0.336980
0.000000 0.482795 0.499916
0.000000 0.486122 0.500877
0.000000 0.499947 0.508354
0.000000 0.528069 0.517693
0.381018 0.566522 0.500206
0.686305 0.584802 0.503777
0.836698 0.583154 0.461891
0.929412 0.564508 0.401953
0.000000 0.568872 0.554345
0.000000 0.571374 0.553216
0.000000 0.586389 0.556909
0.000000 0.616144 0.560449
0.234379 0.650233 0.528099
0.682643 0.684810 0.543969
0.829557 0.668330 0.528283
0.917510 0.647822 0.489784
0.000000 0.690822 0.638087
0.000000 0.693050 0.636469
0.000000 0.700008 0.629572
0.000000 0.718990 0.616449
0.000000 0.746548 0.572717
0.643091 0.777768 0.601984
0.841947 0.767453 0.587488
0.911772 0.734096 0.579644
0.000000 0.366705 0.534630
0.000000 0.371130 0.533227
0.000000 0.369635 0.537163
0.000000 0.343175 0.551904
0.423407 0.366735 0.573053
0.683314 0.418189 0.546075
0.839139 0.409308 0.472847
0.923217 0.480049 0.470314
0.000000 0.377661 0.537163
0.000000 0.381415 0.535698
0.000000 0.377203 0.540764
0.000000 0.353948 0.554742
0.417273 0.372656 0.575189
0.681819 0.427222 0.549157
0.838071 0.419471 0.477699
0.922789 0.485542 0.473579
0.000000 0.405249 0.545586
0.000000 0.408423 0.544182
0.000000 0.402319 0.551293
0.000000 0.387243 0.563592
0.387243 0.389868 0.582574
0.676905 0.457771 0.560235
0.834653 0.452430 0.494423
0.921569 0.503532 0.483619
0.000000 0.440131 0.560388
0.000000 0.443549 0.558923
0.000000 0.441718 0.566552
0.000000 0.436835 0.577661
0.306798 0.421180 0.592370
0.668452 0.506126 0.579522
0.829526 0.502892 0.520836
0.920562 0.529931 0.495796
0.000000 0.486213 0.581659
0.000000 0.489082 0.580316
0.000000 0.491554 0.586114
0.000000 0.495674 0.595819
0.234653 0.499794 0.607782
0.657038 0.565789 0.605280
0.824002 0.563439 0.552880
0.920592 0.561334 0.505486
0.000000 0.542229 0.608545
0.000000 0.544640 0.607233
0.000000 0.550530 0.610681
0.000000 0.561639 0.618738
0.100771 0.582910 0.629084
0.638727 0.638727 0.638727
0.814939 0.637232 0.597040
0.916197 0.616175 0.537804
0.000000 0.616785 0.653559
0.000000 0.619196 0.652735
0.000000 0.627436 0.652247
0.000000 0.643000 0.657832
0.000000 0.672999 0.662867
0.511620 0.711604 0.638605
0.801511 0.718715 0.656733
0.900664 0.702571 0.618921
0.000000 0.718379 0.723842
0.000000 0.720638 0.723018
0.000000 0.728664 0.719661
0.000000 0.743709 0.714595
0.000000 0.772580 0.707149
0.309483 0.790433 0.646052
0.801724 0.799893 0.699763
0.892119 0.777127 0.687953
0.000000 0.461830 0.679896
0.000000 0.465583 0.678920
0.000000 0.474281 0.676631
0.000000 0.453132 0.685878
0.000000 0.412207 0.698695
0.620081 0.515862 0.717189
0.800656 0.571313 0.676844
0.893980 0.603937 0.649531
0.000000 0.469490 0.681575
0.000000 0.472847 0.680537
0.000000 0.479774 0.678828
0.000000 0.459785 0.687709
0.000000 0.421241 0.699947
0.616602 0.519982 0.718196
0.799710 0.577356 0.679316
0.893400 0.608698 0.652308
0.000000 0.490425 0.687404
0.000000 0.493385 0.686458
0.000000 0.497871 0.685542
0.000000 0.481758 0.693416
0.000000 0.451698 0.704494
0.602350 0.532677 0.721370
0.796719 0.597406 0.687739
0.891691 0.624323 0.661128
0.000000 0.519799 0.697871
0.000000 0.522576 0.696956
0.000000 0.527825 0.695399
0.000000 0.516594 0.702235
0.000000 0.497383 0.711818
0.566369 0.548333 0.726680
0.792020 0.628412 0.701137
0.889433 0.648432 0.674525
0.000000 0.558556 0.712459
0.000000 0.560998 0.711635
0.000000 0.568322 0.709102
0.000000 0.561456 0.713893
0.000000 0.550805 0.721126
0.461158 0.555657 0.732815
0.785977 0.667140 0.718837
0.887053 0.679225 0.691249
0.000000 0.605615 0.730526
0.000000 0.607782 0.729793
0.000000 0.615351 0.727199
0.000000 0.615839 0.729946
0.000000 0.614282 0.734829
0.337102 0.619287 0.742367
0.777584 0.713497 0.740658
0.884489 0.715816 0.710628
0.000000 0.658473 0.750790
0.000000 0.660548 0.750149
0.000000 0.667720 0.748165
0.000000 0.674952 0.748562
0.000000 0.683070 0.752102
0.203830 0.703517 0.756832
0.765255 0.765225 0.765255
0.879911 0.761105 0.736477
0.000000 0.729091 0.792203
0.000000 0.731197 0.791928
0.000000 0.738460 0.790982
0.000000 0.751888 0.788785
0.000000 0.767361 0.788388
0.000000 0.795804 0.786099
0.662257 0.815366 0.756954
0.870817 0.817594 0.779843
0.000000 0.543786 0.810971
0.000000 0.546838 0.810483
0.000000 0.557733 0.808652
0.000000 0.551019 0.809415
0.000000 0.524376 0.812741
0.416236 0.536034 0.817288
0.780117 0.699062 0.817288
0.865446 0.731411 0.789731
0.000000 0.548089 0.811734
0.000000 0.551049 0.811276
0.000000 0.561517 0.809445
0.000000 0.555322 0.810147
0.000000 0.529534 0.813352
0.405676 0.537377 0.817624
0.779324 0.702235 0.817838
0.865141 0.733730 0.790860
0.000000 0.560327 0.814572
0.000000 0.563104 0.814115
0.000000 0.572961 0.812375
0.000000 0.569757 0.812558
0.000000 0.546502 0.815427
0.364050 0.542382 0.818814
0.775906 0.711849 0.819608
0.864164 0.741543 0.794675
0.000000 0.576837 0.819883
0.000000 0.579400 0.819425
0.000000 0.588617 0.817777
0.000000 0.593896 0.816587
0.000000 0.574090 0.819028
0.284154 0.559442 0.821225
0.763485 0.716976 0.821530
0.862730 0.754147 0.800870
0.000000 0.606867 0.826993
0.000000 0.608331 0.826658
0.000000 0.613184 0.825345
0.000000 0.620630 0.822904
0.000000 0.609430 0.824125
0.122560 0.594965 0.825772
0.736568 0.719814 0.824308
0.860868 0.771054 0.809384
0.000000 0.644831 0.835782
0.000000 0.646235 0.835477
0.000000 0.651026 0.834409
0.000000 0.658839 0.832395
0.000000 0.655390 0.831540
0.000000 0.640833 0.832212
0.658808 0.709346 0.828550
0.858427 0.792203 0.820157
0.000000 0.688014 0.845884
0.000000 0.689418 0.845609
0.000000 0.694209 0.844846
0.000000 0.702846 0.843229
0.000000 0.710994 0.841459
0.000000 0.704860 0.841428
0.502281 0.725948 0.837400
0.854948 0.817685 0.833249
0.000000 0.734615 0.856840
0.000000 0.736049 0.856687
0.000000 0.741115 0.856077
0.000000 0.750790 0.854917
0.000000 0.766384 0.852903
0.000000 0.773892 0.852415
0.362463 0.795468 0.848692
0.848875 0.848875 0.848875
