其他预设/【212】创意蓝橙调色预设24款/1.3D LUT预设（视频调色-PR-AE-PS-FCPX-达芬奇用）/8.蓝橙色调__.cube
# Created by Adobe Lightroom plugin Export LUT (1.17.0)
# www.johnrellis.com/lightroom/exportlut.htm
# Preset: 8.蓝橙色调[素锦印象]
# Color profile: /Library/Application Support/Adobe/Color/Profiles/Recommended/AdobeRGB1998.icc
LUT_3D_SIZE 32
0.078279 0.078279 0.078279
0.078279 0.078279 0.078279
0.078279 0.078279 0.078279
0.078279 0.078279 0.078279
0.117983 0.077119 0.076997
0.166201 0.078248 0.074220
0.211765 0.080751 0.070222
0.254398 0.085298 0.064851
0.294682 0.090730 0.057191
0.333806 0.098024 0.040162
0.372625 0.105318 0.016938
0.411200 0.114168 0.000000
0.450080 0.123690 0.000000
0.489693 0.134249 0.000000
0.530327 0.145602 0.000000
0.572747 0.156741 0.000000
0.614984 0.168124 0.000000
0.655634 0.180880 0.000000
0.694179 0.193149 0.000000
0.731258 0.204898 0.000000
0.765866 0.216159 0.000000
0.798154 0.226658 0.000000
0.827665 0.235935 0.000000
0.854276 0.244907 0.000000
0.878050 0.252689 0.000000
0.899138 0.260258 0.000000
0.917998 0.267704 0.000000
0.935058 0.275334 0.000000
0.950500 0.283299 0.000000
0.964599 0.292027 0.019745
0.977417 0.302007 0.095705
0.989044 0.313359 0.135195
0.078279 0.078279 0.078279
0.078279 0.078279 0.078279
0.078279 0.078279 0.078279
0.078279 0.078279 0.078279
0.117586 0.079011 0.076844
0.165896 0.080842 0.074006
0.211490 0.084565 0.069856
0.253941 0.089570 0.064393
0.294316 0.094453 0.056397
0.333532 0.101930 0.038880
0.372381 0.109133 0.015564
0.410925 0.117678 0.000000
0.449866 0.126680 0.000000
0.489509 0.137514 0.000000
0.530297 0.147951 0.000000
0.572503 0.159213 0.000000
0.614710 0.171145 0.000000
0.655482 0.182956 0.000000
0.694087 0.194980 0.000000
0.731106 0.206821 0.000000
0.765805 0.217899 0.000000
0.798062 0.227909 0.000000
0.827604 0.237369 0.000000
0.854276 0.245823 0.000000
0.877989 0.253880 0.000000
0.899077 0.261540 0.000000
0.917998 0.268864 0.000000
0.935027 0.276310 0.000000
0.950469 0.284215 0.000000
0.964599 0.292973 0.021759
0.977386 0.302708 0.095491
0.989014 0.314153 0.135348
0.078279 0.078279 0.078279
0.078279 0.078279 0.078279
0.078279 0.078279 0.078279
0.078279 0.078279 0.078279
0.117159 0.081209 0.076692
0.165469 0.084993 0.073640
0.210788 0.088960 0.069459
0.253330 0.094301 0.063844
0.293797 0.099702 0.055177
0.333013 0.106783 0.037263
0.371862 0.113466 0.014069
0.410529 0.121584 0.000000
0.449378 0.131136 0.000000
0.489174 0.141115 0.000000
0.529870 0.151705 0.000000
0.572351 0.162478 0.000000
0.614557 0.173617 0.000000
0.655207 0.185550 0.000000
0.693935 0.197910 0.000000
0.730831 0.209415 0.000000
0.765652 0.220279 0.000000
0.797940 0.230045 0.000000
0.827543 0.239292 0.000000
0.854185 0.247837 0.000000
0.877928 0.255802 0.000000
0.899046 0.263066 0.000000
0.917937 0.270268 0.000000
0.934997 0.277714 0.000000
0.950469 0.285496 0.000000
0.964538 0.294102 0.023621
0.977386 0.303838 0.095918
0.988983 0.315099 0.135317
0.078279 0.078279 0.078279
0.078279 0.078279 0.078279
0.078279 0.078279 0.078279
0.078279 0.078279 0.078279
0.116182 0.086336 0.076265
0.163973 0.093111 0.072908
0.209293 0.098726 0.068421
0.252232 0.103944 0.062623
0.292729 0.109560 0.052644
0.332097 0.115938 0.033936
0.371069 0.122866 0.010376
0.409674 0.130770 0.000000
0.448646 0.139559 0.000000
0.488289 0.149020 0.000000
0.529229 0.158999 0.000000
0.571649 0.169741 0.000000
0.613886 0.180484 0.000000
0.654780 0.191897 0.000000
0.693416 0.203799 0.000000
0.730465 0.214725 0.000000
0.765316 0.225040 0.000000
0.797665 0.234653 0.000000
0.827329 0.243748 0.000000
0.854063 0.251713 0.000000
0.877806 0.259281 0.000000
0.898955 0.266331 0.000000
0.917845 0.273503 0.000000
0.934905 0.280766 0.000000
0.950378 0.288151 0.000000
0.964477 0.296574 0.025818
0.977325 0.306126 0.096956
0.988952 0.317174 0.136019
0.078279 0.078279 0.078279
0.078279 0.078279 0.078279
0.078279 0.078279 0.078279
0.078279 0.078279 0.078279
0.111543 0.091920 0.075929
0.161807 0.103975 0.071778
0.207431 0.111147 0.066896
0.250462 0.117372 0.060639
0.291203 0.123110 0.048707
0.330694 0.129519 0.028321
0.369543 0.135958 0.004730
0.408484 0.143435 0.000000
0.447486 0.151583 0.000000
0.487221 0.160525 0.000000
0.528130 0.169650 0.000000
0.570703 0.179873 0.000000
0.613062 0.189914 0.000000
0.653895 0.201450 0.000000
0.692744 0.212375 0.000000
0.729915 0.222843 0.000000
0.764889 0.232609 0.000000
0.797330 0.241703 0.000000
0.827024 0.250187 0.000000
0.853788 0.257816 0.000000
0.877592 0.265080 0.000000
0.898772 0.271763 0.000000
0.917693 0.278447 0.000000
0.934783 0.285252 0.000000
0.950286 0.292485 0.000000
0.964385 0.300542 0.028229
0.977234 0.309758 0.098085
0.988830 0.320592 0.137301
0.078279 0.078279 0.078279
0.078279 0.078279 0.078279
0.078279 0.078279 0.078279
0.078279 0.078279 0.078279
0.101411 0.093324 0.076173
0.154452 0.113283 0.071046
0.204501 0.125887 0.064820
0.247929 0.132876 0.057557
0.288884 0.139010 0.042267
0.328649 0.145113 0.021027
0.367864 0.151522 0.000000
0.406806 0.158389 0.000000
0.445869 0.165866 0.000000
0.485817 0.174044 0.000000
0.526848 0.182895 0.000000
0.569482 0.192172 0.000000
0.611902 0.202182 0.000000
0.652766 0.212863 0.000000
0.691768 0.223392 0.000000
0.729122 0.233097 0.000000
0.764279 0.242161 0.000000
0.796841 0.250889 0.000000
0.826658 0.258701 0.000000
0.853452 0.266026 0.000000
0.877287 0.272526 0.000000
0.898528 0.278721 0.000000
0.917510 0.284886 0.000000
0.934600 0.291203 0.000000
0.950103 0.298131 0.000000
0.964233 0.305791 0.036439
0.977081 0.314611 0.099763
0.988739 0.325017 0.138308
0.077058 0.083162 0.080507
0.076631 0.085176 0.080964
0.075929 0.088380 0.081605
0.076326 0.095735 0.076692
0.099825 0.103059 0.075135
0.142428 0.118379 0.071046
0.196139 0.136202 0.063630
0.244724 0.149447 0.051514
0.286137 0.156252 0.033417
0.326238 0.162509 0.011597
0.365606 0.168612 0.000000
0.404700 0.175021 0.000000
0.443915 0.182223 0.000000
0.484138 0.189517 0.000000
0.525261 0.197696 0.000000
0.567926 0.206821 0.000000
0.610498 0.216403 0.000000
0.651606 0.226596 0.000000
0.690700 0.236118 0.000000
0.728206 0.245335 0.000000
0.763516 0.253849 0.000000
0.796231 0.261784 0.000000
0.826108 0.269047 0.000000
0.853025 0.275639 0.000000
0.876982 0.281590 0.000000
0.898192 0.287266 0.000000
0.917266 0.292943 0.000000
0.934386 0.298680 0.000000
0.949920 0.305119 0.000000
0.964050 0.312291 0.041657
0.976959 0.320684 0.101228
0.988586 0.330602 0.140352
0.070161 0.104463 0.091249
0.069856 0.105715 0.091127
0.069154 0.108705 0.090852
0.068971 0.115572 0.084413
0.094362 0.122957 0.072602
0.134249 0.129335 0.069764
0.184237 0.143954 0.063142
0.236332 0.159182 0.049134
0.283268 0.171359 0.024659
0.323278 0.180423 0.000549
0.363043 0.186709 0.000000
0.402258 0.192935 0.000000
0.441901 0.199344 0.000000
0.482094 0.206577 0.000000
0.523339 0.214115 0.000000
0.566155 0.222568 0.000000
0.608759 0.232364 0.000000
0.650050 0.241550 0.000000
0.689387 0.250492 0.000000
0.727138 0.259281 0.000000
0.762600 0.267002 0.000000
0.795499 0.274205 0.000000
0.825528 0.280980 0.000000
0.852537 0.287022 0.000000
0.876524 0.292210 0.000000
0.897856 0.297398 0.000000
0.916930 0.302342 0.000000
0.934112 0.307561 0.000000
0.949706 0.313329 0.000000
0.963867 0.320012 0.050263
0.976745 0.327794 0.103975
0.988403 0.337346 0.142397
0.059236 0.126497 0.104005
0.058686 0.127901 0.104097
0.057374 0.130892 0.103090
0.056947 0.136995 0.097047
0.071260 0.145785 0.073335
0.128847 0.150729 0.071260
0.175357 0.157534 0.062928
0.225650 0.169680 0.046357
0.275364 0.182284 0.019959
0.321019 0.193484 0.000000
0.360479 0.202365 0.000000
0.399695 0.211093 0.000000
0.439460 0.217502 0.000000
0.479866 0.224369 0.000000
0.521263 0.231449 0.000000
0.564080 0.240146 0.000000
0.606958 0.249363 0.000000
0.648371 0.258152 0.000000
0.687892 0.266636 0.000000
0.725917 0.274327 0.000000
0.761532 0.281926 0.000000
0.794644 0.288426 0.000000
0.824826 0.294194 0.000000
0.851987 0.299596 0.000000
0.876005 0.304326 0.000000
0.897459 0.308659 0.000000
0.916594 0.313146 0.000000
0.933806 0.317693 0.000000
0.949432 0.322759 0.000000
0.963622 0.328832 0.056184
0.976532 0.336095 0.106844
0.988190 0.345068 0.144442
0.025971 0.149447 0.119051
0.024567 0.151247 0.118471
0.022980 0.153872 0.117189
0.022370 0.159396 0.111574
0.039612 0.167453 0.093294
0.117739 0.173373 0.085847
0.169131 0.178592 0.081025
0.216953 0.186160 0.070314
0.265507 0.196384 0.055329
0.312840 0.206760 0.019989
0.358007 0.216770 0.000000
0.397681 0.224430 0.000000
0.437140 0.233707 0.000000
0.477333 0.242466 0.000000
0.518914 0.249760 0.000000
0.561822 0.258427 0.000000
0.604913 0.267216 0.000000
0.646479 0.275425 0.000000
0.686183 0.283482 0.000000
0.724422 0.290898 0.000000
0.760372 0.297704 0.000000
0.793637 0.303593 0.000000
0.824002 0.308873 0.000000
0.851286 0.313390 0.000000
0.875486 0.317540 0.000000
0.896941 0.321263 0.000000
0.916197 0.324865 0.000000
0.933440 0.328923 0.000000
0.949096 0.333471 0.000000
0.963348 0.338720 0.062684
0.976257 0.345434 0.109895
0.987945 0.353674 0.147280
0.000000 0.173037 0.134615
0.000000 0.174716 0.133913
0.000000 0.177188 0.132448
0.000000 0.182284 0.127749
0.000000 0.189914 0.113436
0.095216 0.196445 0.097566
0.161044 0.201541 0.098451
0.209628 0.206485 0.091218
0.257572 0.213962 0.078676
0.303960 0.222538 0.066316
0.349706 0.231937 0.041199
0.394537 0.241947 0.000000
0.434546 0.249454 0.000000
0.475074 0.258122 0.000000
0.516472 0.268437 0.000000
0.559411 0.277195 0.000000
0.602594 0.285618 0.000000
0.644343 0.293736 0.000000
0.684352 0.301244 0.000000
0.722957 0.307988 0.000000
0.759091 0.314519 0.000000
0.792630 0.319890 0.000000
0.823148 0.324468 0.000000
0.850553 0.328435 0.000000
0.874876 0.331792 0.000000
0.896422 0.334905 0.000000
0.915709 0.337957 0.000000
0.933043 0.341192 0.000000
0.948730 0.344915 0.000000
0.963012 0.349706 0.068055
0.975952 0.355627 0.113527
0.987671 0.363317 0.150393
0.000000 0.196689 0.150179
0.000000 0.198245 0.149538
0.000000 0.200595 0.148226
0.000000 0.205112 0.143984
0.000000 0.212192 0.132113
0.067201 0.218784 0.117891
0.145815 0.224338 0.111910
0.202182 0.229038 0.109316
0.249668 0.233768 0.101564
0.296788 0.240421 0.086885
0.341375 0.248173 0.077363
0.386236 0.257115 0.061616
0.431617 0.267124 0.013581
0.472328 0.274815 0.000000
0.513970 0.283818 0.000000
0.556939 0.294347 0.000000
0.600244 0.304479 0.000000
0.642115 0.312230 0.000000
0.682368 0.319432 0.000000
0.721248 0.326207 0.000000
0.757748 0.331853 0.000000
0.791409 0.337011 0.000000
0.822141 0.341039 0.000000
0.849760 0.344274 0.000000
0.874205 0.347112 0.000000
0.895842 0.349432 0.000000
0.915190 0.351781 0.000000
0.932586 0.354345 0.000000
0.948333 0.357488 0.000000
0.962646 0.361486 0.074464
0.975616 0.366796 0.117433
0.987335 0.373816 0.154299
0.000000 0.219852 0.165866
0.000000 0.221134 0.165194
0.000000 0.223209 0.163760
0.000000 0.227481 0.160098
0.000000 0.233951 0.150332
0.000000 0.240513 0.138216
0.119661 0.246708 0.122560
0.191257 0.251377 0.127443
0.242161 0.255406 0.120089
0.288884 0.260166 0.110201
0.334691 0.266148 0.095705
0.378393 0.273533 0.088808
0.423041 0.282475 0.075013
0.469245 0.292882 0.041352
0.511162 0.300908 0.000000
0.554345 0.310399 0.000000
0.597803 0.320714 0.000000
0.639765 0.330968 0.000000
0.680293 0.338201 0.000000
0.719570 0.344610 0.000000
0.756252 0.350072 0.000000
0.790219 0.354559 0.000000
0.821073 0.358221 0.000000
0.848875 0.360937 0.000000
0.873442 0.363165 0.000000
0.895232 0.364752 0.000000
0.914641 0.366430 0.000000
0.932128 0.368353 0.000000
0.947906 0.370855 0.000000
0.962249 0.374212 0.080507
0.975250 0.378759 0.122164
0.986999 0.385077 0.158267
0.000000 0.242222 0.181216
0.000000 0.243626 0.180575
0.000000 0.245365 0.179171
0.000000 0.249302 0.175753
0.000000 0.255100 0.167880
0.000000 0.261418 0.157107
0.087617 0.268193 0.141238
0.172183 0.272984 0.138338
0.232456 0.277287 0.138369
0.281285 0.281163 0.130892
0.327153 0.285771 0.119753
0.371740 0.291356 0.108064
0.415198 0.298924 0.101045
0.460334 0.308080 0.087098
0.507469 0.318883 0.063600
0.551446 0.328008 0.000000
0.595148 0.337163 0.000000
0.637415 0.346715 0.000000
0.678187 0.356023 0.000000
0.717678 0.363684 0.000000
0.754696 0.368780 0.000000
0.788876 0.372869 0.000000
0.820005 0.376013 0.000000
0.847898 0.378332 0.000000
0.872648 0.379797 0.000000
0.894530 0.380835 0.000000
0.914031 0.381872 0.000000
0.931548 0.383154 0.000000
0.947387 0.384924 0.000000
0.961791 0.387488 0.086671
0.974823 0.391516 0.126833
0.986603 0.397192 0.162509
0.000000 0.263676 0.196170
0.000000 0.264958 0.195499
0.000000 0.266636 0.194186
0.000000 0.270207 0.191104
0.000000 0.275547 0.184360
0.000000 0.281834 0.175021
0.023468 0.288548 0.161349
0.143557 0.294347 0.147585
0.219120 0.298680 0.154543
0.272221 0.302434 0.149783
0.319615 0.306371 0.141451
0.364599 0.310826 0.129091
0.408453 0.316655 0.120607
0.452583 0.324681 0.112886
0.498817 0.334447 0.098787
0.547387 0.345922 0.076356
0.592126 0.355291 0.015595
0.634760 0.363836 0.000000
0.675959 0.372229 0.000000
0.715755 0.380926 0.000000
0.753017 0.388098 0.000000
0.787503 0.391669 0.000000
0.818814 0.394446 0.000000
0.846952 0.396185 0.000000
0.871824 0.397070 0.000000
0.893767 0.397620 0.000000
0.913390 0.397925 0.000000
0.930968 0.398444 0.000000
0.946899 0.399603 0.015747
0.961334 0.401617 0.093111
0.974395 0.404913 0.132235
0.986175 0.409918 0.167727
0.000000 0.284489 0.210452
0.000000 0.285801 0.209903
0.000000 0.287083 0.208835
0.000000 0.290593 0.205875
0.000000 0.295567 0.200046
0.000000 0.301610 0.191867
0.000000 0.308110 0.180117
0.110231 0.314641 0.164920
0.198489 0.319249 0.164248
0.261112 0.323766 0.167758
0.310857 0.327367 0.160403
0.357092 0.331273 0.152041
0.401556 0.335790 0.140139
0.445686 0.342382 0.132723
0.490761 0.351080 0.124666
0.538445 0.361608 0.109804
0.587549 0.373175 0.088289
0.631556 0.382086 0.052461
0.673457 0.389899 0.000000
0.713680 0.397650 0.000000
0.751339 0.404822 0.000000
0.786038 0.411048 0.000000
0.817655 0.413306 0.000000
0.845914 0.414557 0.000000
0.870878 0.414984 0.000000
0.892973 0.414893 0.000000
0.912688 0.414496 0.000000
0.930358 0.414496 0.000000
0.946349 0.414984 0.038514
0.960815 0.416266 0.100008
0.973907 0.418921 0.137514
0.985687 0.423255 0.172732
0.000000 0.304723 0.224643
0.000000 0.305852 0.223941
0.000000 0.307347 0.223026
0.000000 0.310369 0.220432
0.000000 0.315129 0.215518
0.000000 0.320867 0.208377
0.000000 0.327214 0.198032
0.068605 0.333989 0.184054
0.168246 0.340002 0.173159
0.245670 0.344244 0.181460
0.300786 0.348241 0.179568
0.348760 0.351843 0.172305
0.394079 0.355993 0.162783
0.438911 0.361120 0.150759
0.483650 0.368505 0.144411
0.530175 0.378088 0.135683
0.578820 0.389105 0.121004
0.626978 0.399939 0.100221
0.670497 0.408637 0.072450
0.711330 0.415747 0.000000
0.749416 0.422065 0.000000
0.784482 0.427649 0.000000
0.816312 0.432410 0.000000
0.844785 0.433478 0.000000
0.869902 0.433295 0.000000
0.892119 0.432654 0.000000
0.911925 0.431708 0.000000
0.929686 0.431037 0.000000
0.945708 0.430945 0.060182
0.960204 0.431617 0.107607
0.973358 0.433417 0.143679
0.985168 0.437201 0.178531
0.000000 0.324407 0.238499
0.000000 0.325322 0.238041
0.000000 0.326848 0.236912
0.000000 0.329747 0.234653
0.000000 0.334203 0.230106
0.000000 0.339605 0.224002
0.000000 0.345953 0.215213
0.000000 0.352636 0.202914
0.136385 0.359533 0.189151
0.223911 0.364446 0.191196
0.289311 0.369543 0.197574
0.339635 0.372839 0.191135
0.386542 0.376684 0.183810
0.431861 0.381323 0.173617
0.477760 0.387579 0.160891
0.523827 0.396124 0.155276
0.572076 0.406592 0.145663
0.620050 0.417090 0.131136
0.666438 0.426764 0.112154
0.708736 0.434699 0.087160
0.747219 0.440467 0.017578
0.782620 0.445289 0.000000
0.814817 0.449317 0.000000
0.843595 0.452399 0.000000
0.868864 0.451972 0.000000
0.891234 0.450752 0.000000
0.911101 0.449348 0.000000
0.928954 0.448127 0.000000
0.945037 0.447272 0.072419
0.959625 0.447272 0.114870
0.972778 0.448493 0.150393
0.984619 0.451637 0.184939
0.000000 0.344213 0.252323
0.000000 0.345068 0.251835
0.000000 0.346349 0.250950
0.000000 0.349157 0.248997
0.000000 0.353521 0.244755
0.000000 0.358770 0.239475
0.000000 0.364874 0.231937
0.000000 0.371771 0.221103
0.101045 0.378851 0.208621
0.194430 0.385290 0.200168
0.272709 0.390234 0.208743
0.330114 0.394934 0.209140
0.379187 0.398749 0.202396
0.425696 0.402960 0.194919
0.471962 0.408576 0.183566
0.519585 0.416175 0.170596
0.567315 0.425910 0.165988
0.615106 0.435950 0.155276
0.661769 0.445380 0.141299
0.705592 0.453590 0.123598
0.744869 0.459663 0.102846
0.780514 0.464118 0.067414
0.813077 0.467292 0.000000
0.842130 0.469551 0.000000
0.867765 0.470893 0.000000
0.890257 0.469429 0.000000
0.910277 0.467292 0.000000
0.928191 0.465461 0.000000
0.944335 0.464088 0.082765
0.958984 0.463447 0.122713
0.972168 0.464057 0.157321
0.984039 0.466590 0.191409
0.000000 0.364355 0.266728
0.000000 0.365270 0.265995
0.000000 0.366461 0.265415
0.000000 0.369085 0.263523
0.000000 0.373419 0.259831
0.000000 0.378393 0.255314
0.000000 0.384527 0.248722
0.000000 0.391455 0.239292
0.021912 0.398779 0.227909
0.164004 0.406226 0.215915
0.250858 0.412116 0.218204
0.319188 0.418372 0.226291
0.371527 0.422278 0.220890
0.420142 0.426551 0.213779
0.467079 0.431342 0.205417
0.515373 0.438483 0.192752
0.564752 0.447364 0.181643
0.612390 0.456764 0.175418
0.658869 0.465705 0.165316
0.702876 0.473335 0.152102
0.742763 0.479133 0.136507
0.778408 0.483345 0.118715
0.811093 0.486183 0.092378
0.840452 0.487678 0.041199
0.866300 0.488350 0.000000
0.889220 0.488228 0.000000
0.909331 0.485695 0.000000
0.927367 0.483284 0.024201
0.943603 0.481239 0.094057
0.958251 0.480079 0.130648
0.971527 0.480049 0.164797
0.983368 0.481941 0.198459
0.000000 0.385138 0.281285
0.000000 0.386023 0.280827
0.000000 0.387304 0.280125
0.000000 0.389868 0.278386
0.000000 0.393927 0.275181
0.000000 0.398993 0.271366
0.000000 0.404944 0.265385
0.000000 0.411963 0.257359
0.000000 0.419623 0.246921
0.130373 0.427558 0.235355
0.221408 0.435279 0.227329
0.301762 0.441474 0.236057
0.363104 0.447608 0.238895
0.414466 0.451850 0.232029
0.463539 0.456641 0.224521
0.512016 0.462684 0.214725
0.562615 0.471168 0.201724
0.611444 0.479591 0.192081
0.657923 0.487892 0.185794
0.701869 0.494942 0.175998
0.741787 0.500084 0.163912
0.777310 0.503410 0.150484
0.809110 0.505425 0.135134
0.838560 0.506767 0.115084
0.864652 0.506615 0.086336
0.887785 0.505882 0.027741
0.908385 0.504417 0.000000
0.926482 0.501366 0.058961
0.942809 0.498787 0.104036
0.957519 0.496986 0.139467
0.970825 0.496498 0.172488
0.982666 0.497780 0.206027
0.000000 0.406897 0.296757
0.000000 0.407782 0.296361
0.000000 0.408911 0.295720
0.000000 0.411536 0.294133
0.000000 0.415503 0.291386
0.000000 0.420478 0.287938
0.000000 0.426581 0.282811
0.000000 0.433692 0.275639
0.000000 0.441627 0.266331
0.081331 0.450050 0.255192
0.190311 0.458930 0.243290
0.279301 0.466346 0.245762
0.351507 0.474098 0.254002
0.408423 0.479438 0.250767
0.460365 0.484321 0.243534
0.510399 0.489815 0.235416
0.561120 0.497261 0.223941
0.611566 0.504936 0.210788
0.658747 0.512169 0.202792
0.702632 0.518456 0.196292
0.742397 0.522789 0.187930
0.777859 0.525200 0.177249
0.809049 0.526207 0.165438
0.836637 0.525994 0.153262
0.862821 0.525689 0.137270
0.886137 0.524224 0.115969
0.906920 0.522393 0.090059
0.925566 0.519921 0.074861
0.941955 0.516625 0.114778
0.956725 0.514275 0.148226
0.970031 0.513207 0.180758
0.981903 0.513909 0.214359
0.000000 0.429847 0.312993
0.000000 0.430701 0.312657
0.000000 0.431830 0.312016
0.000000 0.434394 0.310613
0.000000 0.438300 0.308110
0.000000 0.443305 0.305180
0.000000 0.449531 0.300694
0.000000 0.456672 0.294347
0.000000 0.464942 0.285801
0.000000 0.473945 0.275669
0.155947 0.483650 0.263828
0.248142 0.493294 0.255100
0.333593 0.501183 0.263981
0.401434 0.509728 0.269261
0.456947 0.514824 0.262272
0.509758 0.520165 0.254307
0.560845 0.525872 0.245792
0.612024 0.532891 0.233036
0.660975 0.539178 0.220340
0.705074 0.544091 0.214694
0.744564 0.547326 0.208774
0.779843 0.548760 0.201266
0.810727 0.548699 0.192447
0.837491 0.547295 0.182284
0.860960 0.544884 0.172061
0.884276 0.543389 0.159884
0.905241 0.540826 0.142275
0.924163 0.538018 0.123659
0.941039 0.534905 0.125429
0.955871 0.531884 0.157900
0.969238 0.530205 0.189548
0.981109 0.530480 0.222904
0.000000 0.454231 0.330388
0.000000 0.455024 0.330053
0.000000 0.456214 0.329503
0.000000 0.458717 0.328161
0.000000 0.462654 0.326116
0.000000 0.467720 0.323308
0.000000 0.474067 0.319432
0.000000 0.481544 0.313756
0.000000 0.490150 0.306310
0.000000 0.499702 0.296818
0.108034 0.510124 0.285283
0.214298 0.521447 0.271946
0.309422 0.530907 0.274083
0.388678 0.540429 0.282475
0.452155 0.547448 0.281407
0.508232 0.552514 0.274083
0.561883 0.557855 0.265873
0.613611 0.563561 0.256107
0.663416 0.568902 0.243381
0.708949 0.572168 0.231296
0.748135 0.573968 0.227848
0.782956 0.574151 0.223209
0.813474 0.572869 0.216861
0.839902 0.570245 0.209140
0.862577 0.566552 0.200839
0.882444 0.562432 0.191989
0.903349 0.559960 0.182528
0.922454 0.556634 0.167971
0.939757 0.553185 0.152956
0.954986 0.549767 0.167666
0.968353 0.547570 0.199039
0.980255 0.547295 0.232334
0.000000 0.480537 0.349035
0.000000 0.481361 0.348760
0.000000 0.482521 0.348302
0.000000 0.485115 0.347234
0.000000 0.489052 0.345220
0.000000 0.494301 0.342901
0.000000 0.500877 0.339391
0.000000 0.508568 0.334508
0.000000 0.517601 0.327611
0.000000 0.527764 0.319005
0.000000 0.538933 0.308049
0.177218 0.550927 0.294591
0.275608 0.562799 0.283940
0.369604 0.571984 0.293309
0.445411 0.582208 0.301671
0.505303 0.586816 0.294469
0.561791 0.591852 0.286503
0.615900 0.597070 0.277775
0.666957 0.601495 0.267185
0.712734 0.603265 0.255680
0.753140 0.602899 0.245029
0.787350 0.601434 0.243931
0.817350 0.598718 0.239841
0.843198 0.594751 0.234684
0.865476 0.589960 0.227939
0.884764 0.584619 0.220951
0.901671 0.578973 0.212833
0.920531 0.575799 0.205814
0.937957 0.571923 0.193545
0.953918 0.567987 0.181460
0.967437 0.565209 0.208896
0.979339 0.564416 0.242130
0.000000 0.509941 0.369482
0.000000 0.510277 0.369299
0.000000 0.511437 0.368811
0.000000 0.514061 0.367895
0.000000 0.518120 0.366217
0.000000 0.523583 0.364202
0.000000 0.530236 0.361242
0.000000 0.538445 0.356817
0.000000 0.547875 0.350652
0.000000 0.558343 0.342535
0.000000 0.569848 0.332097
0.125521 0.582147 0.318791
0.238621 0.595117 0.302892
0.343328 0.605432 0.304845
0.430213 0.615320 0.314244
0.500511 0.622980 0.316228
0.560418 0.627436 0.308598
0.616968 0.631891 0.300481
0.670802 0.636469 0.291539
0.717739 0.637140 0.280674
0.758267 0.634791 0.270451
0.793118 0.630854 0.263218
0.822232 0.626398 0.262486
0.847379 0.620935 0.259556
0.869078 0.614771 0.254765
0.887968 0.608331 0.249088
0.904479 0.601740 0.242863
0.919127 0.595056 0.235142
0.935973 0.591150 0.229465
0.951995 0.587030 0.220005
0.966430 0.583124 0.219120
0.978332 0.581872 0.252628
0.000000 0.543755 0.391730
0.000000 0.544244 0.391730
0.000000 0.544793 0.391516
0.000000 0.546319 0.391180
0.000000 0.550561 0.389593
0.000000 0.556115 0.387671
0.000000 0.562921 0.384802
0.000000 0.571191 0.380835
0.000000 0.580682 0.375158
0.000000 0.591272 0.367376
0.000000 0.602808 0.357488
0.000000 0.615167 0.344305
0.198886 0.628229 0.328466
0.307012 0.640620 0.316655
0.409583 0.649775 0.327428
0.491981 0.659449 0.337591
0.556939 0.663844 0.332952
0.615778 0.667445 0.325109
0.671382 0.670985 0.316808
0.723812 0.674128 0.307836
0.764187 0.669459 0.297948
0.798978 0.663142 0.288731
0.828092 0.655940 0.284520
0.852354 0.648646 0.284367
0.873350 0.641138 0.281895
0.891691 0.633417 0.277592
0.907836 0.625788 0.272618
0.922118 0.618250 0.266453
0.934874 0.610834 0.259586
0.949889 0.606409 0.255131
0.964660 0.602075 0.248295
0.977264 0.599542 0.264012
0.000000 0.581323 0.416358
0.000000 0.581750 0.416175
0.000000 0.582361 0.416114
0.000000 0.583581 0.415747
0.000000 0.585992 0.415076
0.000000 0.591547 0.413214
0.000000 0.598291 0.410559
0.000000 0.606470 0.406500
0.000000 0.615808 0.401068
0.000000 0.626337 0.393591
0.000000 0.637751 0.383856
0.000000 0.649989 0.371374
0.144411 0.662867 0.355566
0.268193 0.675715 0.338415
0.382300 0.685115 0.342046
0.475746 0.693446 0.353674
