其他预设/【212】创意蓝橙调色预设24款/1.3D LUT预设（视频调色-PR-AE-PS-FCPX-达芬奇用）/9.蓝橙色调__.cube
# Created by Adobe Lightroom plugin Export LUT (1.17.0)
# www.johnrellis.com/lightroom/exportlut.htm
# Preset: 9.蓝橙色调[素锦印象]
# Color profile: /Library/Application Support/Adobe/Color/Profiles/Recommended/AdobeRGB1998.icc
LUT_3D_SIZE 8
DOMAIN_MIN 0.000000 0.000000 0.000000
DOMAIN_MAX 0.903226 0.903226 0.903226
0.081453 0.081453 0.081453
0.141238 0.088533 0.083497
0.260197 0.113924 0.080995
0.409827 0.156649 0.063172
0.591882 0.217594 0.000000
0.760861 0.276432 0.000000
0.879576 0.318456 0.000000
0.952239 0.348180 0.000000
0.079561 0.098451 0.090791
0.137881 0.110292 0.084810
0.258305 0.133272 0.081056
0.408270 0.173983 0.062837
0.590692 0.232212 0.000000
0.760372 0.287907 0.000000
0.879332 0.327398 0.000000
0.952117 0.354955 0.000000
0.067140 0.141268 0.120607
0.114992 0.150698 0.113008
0.248325 0.178592 0.096040
0.403693 0.222110 0.061524
0.587427 0.275456 0.000000
0.758663 0.324895 0.000000
0.878599 0.356664 0.000000
0.951629 0.377752 0.000000
0.000610 0.199954 0.162905
0.076814 0.209628 0.156771
0.228489 0.230472 0.137728
0.394507 0.272557 0.107332
0.583246 0.334936 0.000000
0.756405 0.380499 0.000000
0.877409 0.403540 0.000000
0.950774 0.415412 0.012726
0.000000 0.267124 0.211124
0.000000 0.276280 0.206912
0.178042 0.303288 0.170871
0.375952 0.330632 0.152682
0.573602 0.389044 0.109682
0.754513 0.443397 0.000000
0.875975 0.462470 0.000000
0.949523 0.464942 0.067262
0.000000 0.343328 0.267155
0.000000 0.352270 0.264622
0.038178 0.383948 0.238773
0.357153 0.422034 0.210239
0.569512 0.463508 0.162417
0.755337 0.509087 0.117189
0.874113 0.526879 0.000000
0.947784 0.523278 0.104036
0.000000 0.443183 0.341314
0.000000 0.452705 0.339910
0.000000 0.489418 0.326146
0.273991 0.548333 0.255680
0.582055 0.588281 0.243870
0.775631 0.605737 0.193118
0.879423 0.598047 0.181033
0.945373 0.587579 0.151583
0.000000 0.588586 0.449561
0.000000 0.598322 0.448524
0.000000 0.636713 0.439094
0.000000 0.696803 0.375982
0.568933 0.738582 0.363409
0.806821 0.746792 0.325841
0.899199 0.698360 0.306889
0.949523 0.665705 0.303105
0.069978 0.098482 0.119966
0.131075 0.106416 0.116091
0.252171 0.135378 0.093904
0.399695 0.189273 0.063447
0.584009 0.246281 0.000000
0.756802 0.299596 0.000000
0.878019 0.334691 0.000000
0.951720 0.358038 0.000000
0.063508 0.118044 0.130587
0.126925 0.126925 0.126925
0.248905 0.150210 0.107729
0.399268 0.199741 0.068055
0.583337 0.257389 0.000000
0.756405 0.309148 0.000000
0.877897 0.342565 0.000000
0.951629 0.364294 0.000000
0.053529 0.156588 0.148898
0.106416 0.168917 0.149844
0.242893 0.188479 0.135378
0.398352 0.229648 0.097230
0.581598 0.292790 0.000000
0.755489 0.341375 0.000000
0.877348 0.369329 0.000000
0.951202 0.385870 0.000000
0.000000 0.212833 0.186191
0.058900 0.223026 0.184085
0.225834 0.243595 0.165805
0.391852 0.278691 0.141146
0.580499 0.337072 0.072023
0.753933 0.391882 0.000000
0.876402 0.413275 0.000000
0.950408 0.422034 0.020447
0.000000 0.278477 0.231174
0.000000 0.286381 0.227695
0.156771 0.313542 0.195254
0.375769 0.339849 0.177829
0.572076 0.393133 0.143587
0.753170 0.445716 0.010376
0.875151 0.469917 0.000000
0.949218 0.470344 0.070344
0.000000 0.352453 0.283726
0.000000 0.360235 0.281193
0.000000 0.390967 0.261265
0.351141 0.431434 0.231479
0.569329 0.469886 0.186221
0.754269 0.512474 0.151980
0.873381 0.529381 0.085603
0.947570 0.527581 0.106264
0.000000 0.450446 0.355566
0.000000 0.458869 0.354040
0.000000 0.494209 0.343145
0.239567 0.554772 0.269108
0.578302 0.595056 0.264775
0.774746 0.610071 0.215183
0.878355 0.601373 0.207248
0.944640 0.590600 0.179934
0.000000 0.593622 0.461402
0.000000 0.601709 0.460060
0.000000 0.638239 0.452308
0.000000 0.698116 0.397040
0.558587 0.741695 0.381018
0.804227 0.751827 0.346075
0.897734 0.701961 0.325109
0.948241 0.669337 0.321782
0.000000 0.143496 0.195590
0.009400 0.145815 0.197147
0.231266 0.161318 0.190158
0.393103 0.192233 0.147951
0.577020 0.262821 0.100557
0.750057 0.336919 0.000000
0.874937 0.372625 0.000000
0.950744 0.383337 0.000000
0.000000 0.162325 0.202518
0.023499 0.163088 0.205722
0.228031 0.177615 0.197604
0.390387 0.205661 0.159030
0.575708 0.271580 0.113069
0.750057 0.342718 0.000000
0.874876 0.379309 0.000000
0.950622 0.388800 0.000000
0.000000 0.197543 0.222293
0.000000 0.201694 0.224857
0.218723 0.218723 0.218723
0.384375 0.244694 0.189364
0.573541 0.299290 0.141787
0.750118 0.362951 0.008453
0.874571 0.402106 0.000000
0.950286 0.408240 0.000000
0.000000 0.243259 0.246220
0.000000 0.251469 0.249577
0.152773 0.277226 0.240818
0.378668 0.300023 0.225467
0.570550 0.346807 0.183627
0.749813 0.400122 0.108553
0.874083 0.438483 0.000000
0.949615 0.441505 0.041535
0.000000 0.301579 0.281773
0.000000 0.311742 0.285527
0.040894 0.339727 0.277470
0.363073 0.369299 0.253300
0.564019 0.408728 0.230625
0.747951 0.454932 0.179538
0.873198 0.481392 0.093080
0.948547 0.486641 0.080018
0.000000 0.374029 0.330358
0.000000 0.383856 0.332830
0.000000 0.411872 0.326696
0.298955 0.457252 0.285435
0.564324 0.492378 0.261204
0.749050 0.525689 0.241306
0.870329 0.539971 0.201083
0.946807 0.540459 0.132052
0.000000 0.471107 0.399725
0.000000 0.480171 0.401038
0.000000 0.508995 0.395972
0.147860 0.568261 0.355016
0.557733 0.616907 0.333776
0.770199 0.625574 0.284031
0.873960 0.614038 0.284642
0.941680 0.602564 0.259922
0.000000 0.610071 0.501122
0.000000 0.614435 0.499458
0.000000 0.643000 0.493599
0.000000 0.700923 0.459724
0.505119 0.748898 0.422583
0.784390 0.760861 0.412543
0.892149 0.714839 0.384039
0.943359 0.682918 0.383154
0.000000 0.205356 0.289250
0.000000 0.209934 0.290745
0.000000 0.191562 0.302922
0.365148 0.229282 0.287541
0.566461 0.258335 0.225803
0.747616 0.332464 0.178744
0.873320 0.389685 0.117311
0.949950 0.416114 0.008392
0.000000 0.222477 0.294652
0.000000 0.222385 0.299046
0.000000 0.207889 0.308568
0.362890 0.242374 0.293370
0.564508 0.270848 0.234257
0.746670 0.340826 0.187686
0.873075 0.395209 0.126650
0.949981 0.420203 0.014099
0.000000 0.251225 0.311376
0.000000 0.253178 0.315831
0.000000 0.252323 0.324163
0.355657 0.281346 0.310674
0.558404 0.310582 0.261601
0.743893 0.369116 0.216434
0.872404 0.414496 0.154086
0.949828 0.436561 0.036652
0.000000 0.295659 0.336889
0.000000 0.299474 0.340398
0.000000 0.310582 0.348180
0.341436 0.341436 0.341436
0.549310 0.371344 0.305913
0.740658 0.415167 0.256779
0.871244 0.448249 0.194003
0.949096 0.464820 0.101259
0.000000 0.346807 0.364050
0.000000 0.352697 0.367742
0.000000 0.373724 0.376959
0.245945 0.413336 0.363226
0.542199 0.441688 0.351263
0.736416 0.478218 0.310582
0.868650 0.498054 0.251072
0.947173 0.503960 0.179385
0.000000 0.412421 0.404578
0.000000 0.419898 0.408545
0.000000 0.447089 0.418585
0.121248 0.489479 0.403418
0.537926 0.533776 0.381598
0.736141 0.553857 0.363256
0.863279 0.563958 0.327703
0.943145 0.558007 0.265904
0.000000 0.504723 0.469276
0.000000 0.512474 0.472267
0.000000 0.541283 0.480323
0.000000 0.584253 0.463325
0.484169 0.645747 0.431922
0.755001 0.656733 0.398962
0.863981 0.640558 0.398749
0.935088 0.627924 0.372259
0.000000 0.642023 0.571344
0.000000 0.645045 0.569482
0.000000 0.664210 0.566217
0.000000 0.701198 0.543389
0.339269 0.758450 0.483925
0.743893 0.774472 0.516503
0.880522 0.738521 0.475410
0.933349 0.709316 0.480110
0.000000 0.281102 0.399298
0.000000 0.286137 0.398596
0.000000 0.280888 0.413672
0.175448 0.241154 0.432288
0.530602 0.315160 0.409674
0.735775 0.338476 0.332219
0.867277 0.407965 0.300237
0.945251 0.445747 0.261784
0.000000 0.294682 0.402991
0.000000 0.295995 0.405921
0.000000 0.290898 0.419013
0.164218 0.254337 0.435706
0.528832 0.326299 0.413947
0.734524 0.349950 0.339300
0.866728 0.415106 0.306462
0.945129 0.449866 0.265263
0.000000 0.321416 0.418250
0.000000 0.322850 0.422675
0.000000 0.321538 0.433875
0.119905 0.297948 0.447028
0.522942 0.362585 0.429236
0.730312 0.387732 0.363256
0.864988 0.439582 0.326421
0.944945 0.463600 0.274418
0.000000 0.359106 0.439765
0.000000 0.361517 0.443732
0.000000 0.367254 0.455177
0.037995 0.368841 0.468177
0.512108 0.420508 0.456458
0.723873 0.446845 0.402716
0.862852 0.478187 0.355383
0.945556 0.483711 0.280034
0.000000 0.410956 0.470344
0.000000 0.414466 0.473915
0.000000 0.425208 0.484047
0.000000 0.444129 0.496223
0.494759 0.494759 0.494759
0.716854 0.519615 0.452583
0.859648 0.531273 0.395453
0.942840 0.526513 0.322362
0.000000 0.473671 0.508202
0.000000 0.478279 0.511528
0.000000 0.494240 0.521691
0.000000 0.525872 0.534508
0.365942 0.578637 0.513695
0.710170 0.601862 0.509941
0.850095 0.607324 0.470405
0.935637 0.591089 0.400580
0.000000 0.561578 0.569207
0.000000 0.566705 0.571832
0.000000 0.584558 0.579644
0.000000 0.620478 0.587915
0.182040 0.665766 0.550072
0.713436 0.701839 0.550072
0.845487 0.684321 0.537530
0.923095 0.670649 0.504387
0.000000 0.684871 0.663966
0.000000 0.687587 0.662348
0.000000 0.699489 0.659358
0.000000 0.727230 0.653407
0.000000 0.759274 0.601038
0.676844 0.788296 0.625238
0.858946 0.773800 0.593866
0.917540 0.747829 0.595148
0.000000 0.374792 0.536248
0.000000 0.379583 0.534752
0.000000 0.378576 0.546166
0.000000 0.356909 0.565576
0.389044 0.352270 0.590387
0.700954 0.442145 0.553277
0.848234 0.475990 0.491676
0.926207 0.537530 0.487434
0.000000 0.385290 0.539483
0.000000 0.388861 0.538537
0.000000 0.386236 0.550927
0.000000 0.366430 0.569116
0.380224 0.358190 0.593164
0.699733 0.451667 0.557519
0.847257 0.484627 0.497261
0.925750 0.542443 0.491218
0.000000 0.411688 0.550225
0.000000 0.411872 0.553429
0.000000 0.410437 0.563958
0.000000 0.397040 0.580194
0.336980 0.375494 0.602228
0.695399 0.483009 0.571191
0.844022 0.512963 0.516289
0.924437 0.558099 0.502800
0.000000 0.445014 0.569177
0.000000 0.446113 0.572564
0.000000 0.448310 0.582879
0.000000 0.444434 0.597436
0.245945 0.420111 0.614221
0.688167 0.531762 0.594354
0.839322 0.556512 0.545312
0.923369 0.580407 0.516320
0.000000 0.490272 0.594720
0.000000 0.491951 0.597467
0.000000 0.496925 0.606287
0.000000 0.502281 0.619226
0.152987 0.505211 0.633509
0.678187 0.591974 0.625116
0.834470 0.608667 0.579644
0.923491 0.606195 0.526635
0.000000 0.545708 0.626246
0.000000 0.547936 0.628382
0.000000 0.555230 0.635554
0.000000 0.567712 0.645991
0.000000 0.590600 0.658045
0.662806 0.662684 0.662745
0.826719 0.672328 0.625696
0.919036 0.653834 0.562066
0.000000 0.619013 0.676356
0.000000 0.621912 0.675471
0.000000 0.630884 0.680934
0.000000 0.647639 0.688167
0.000000 0.680476 0.694636
0.531823 0.733364 0.668421
0.817380 0.740291 0.680446
0.903593 0.731685 0.648066
0.000000 0.713802 0.748867
0.000000 0.716518 0.748074
0.000000 0.725795 0.745022
0.000000 0.742519 0.744656
0.000000 0.777493 0.741787
0.315343 0.806485 0.677790
0.822599 0.811887 0.719722
0.897124 0.792905 0.709438
0.000000 0.482216 0.697230
0.000000 0.486305 0.696315
0.000000 0.489143 0.699031
0.000000 0.472847 0.710445
0.000000 0.428260 0.725154
0.620447 0.535943 0.740749
0.811978 0.623804 0.699306
0.892607 0.672084 0.687739
0.000000 0.489387 0.699214
0.000000 0.493111 0.698268
0.000000 0.494392 0.701503
0.000000 0.478920 0.712367
0.000000 0.437140 0.726589
0.616724 0.539727 0.741756
0.811154 0.628992 0.701930
0.892149 0.675685 0.690211
0.000000 0.508751 0.705867
0.000000 0.512200 0.704982
0.000000 0.511467 0.708888
0.000000 0.498695 0.718715
0.000000 0.465827 0.731472
0.600824 0.551263 0.745174
0.808682 0.646082 0.710414
0.890745 0.687526 0.698299
0.000000 0.535790 0.717311
0.000000 0.538842 0.716426
0.000000 0.539178 0.719631
0.000000 0.530541 0.728084
0.000000 0.509209 0.739223
0.559533 0.564446 0.751003
0.804837 0.672602 0.724117
0.889067 0.705562 0.710170
0.000000 0.571221 0.733059
0.000000 0.573999 0.732265
0.000000 0.576593 0.733974
0.000000 0.571710 0.740078
0.000000 0.560204 0.748684
0.441138 0.568841 0.758145
0.800229 0.705135 0.741390
0.887419 0.728389 0.724727
0.000000 0.614008 0.751888
0.000000 0.616571 0.751278
0.000000 0.621668 0.751461
0.000000 0.621820 0.756191
0.000000 0.620264 0.762142
0.316014 0.631037 0.768856
0.794095 0.743343 0.762234
0.885985 0.755184 0.741024
0.000000 0.661616 0.772457
0.000000 0.664057 0.771878
0.000000 0.671473 0.770718
0.000000 0.675990 0.774258
0.000000 0.684504 0.778653
0.167758 0.709133 0.782925
0.785397 0.785367 0.785397
0.883207 0.788632 0.762356
0.000000 0.723079 0.811948
0.000000 0.725399 0.811734
0.000000 0.733608 0.810819
0.000000 0.746456 0.809995
0.000000 0.760525 0.811460
0.000000 0.791623 0.809903
0.699947 0.827298 0.783810
0.877501 0.831357 0.797330
0.000000 0.564294 0.826017
0.000000 0.567742 0.825589
0.000000 0.579767 0.823941
0.000000 0.565240 0.827298
0.000000 0.538872 0.831571
0.380468 0.550896 0.834470
0.793820 0.739315 0.831388
0.869352 0.771756 0.808927
0.000000 0.567987 0.826810
0.000000 0.571313 0.826352
0.000000 0.583001 0.824704
0.000000 0.568933 0.828000
0.000000 0.543450 0.832120
0.369482 0.552331 0.834836
0.792569 0.740352 0.831724
0.869169 0.773434 0.809812
0.000000 0.578454 0.829618
0.000000 0.581567 0.829191
0.000000 0.592676 0.827573
0.000000 0.581537 0.830289
0.000000 0.558709 0.834073
0.323949 0.557000 0.836271
0.787625 0.743282 0.832822
0.868559 0.779019 0.812955
0.000000 0.591760 0.834745
0.000000 0.594690 0.834348
0.000000 0.605280 0.832792
0.000000 0.602533 0.833982
0.000000 0.583551 0.837308
0.256443 0.577752 0.839200
0.776120 0.746395 0.834836
0.867704 0.788144 0.818173
0.000000 0.617395 0.841703
0.000000 0.619165 0.841367
0.000000 0.625238 0.840146
0.000000 0.630549 0.838682
0.000000 0.615656 0.841733
0.000000 0.606073 0.843626
0.751003 0.746944 0.837766
0.866667 0.800534 0.825315
0.000000 0.649683 0.850217
0.000000 0.651392 0.849912
0.000000 0.657221 0.848936
0.000000 0.667109 0.846983
0.000000 0.656855 0.848234
0.000000 0.644312 0.849638
0.674739 0.732357 0.842618
0.865293 0.816251 0.834501
0.000000 0.686427 0.859831
0.000000 0.688075 0.859617
0.000000 0.693721 0.858824
0.000000 0.704036 0.857298
0.000000 0.706142 0.857298
0.000000 0.701503 0.857847
0.536950 0.742184 0.851987
0.863188 0.835447 0.845670
0.000000 0.726040 0.870085
0.000000 0.727565 0.869932
0.000000 0.733272 0.869352
0.000000 0.744289 0.868223
0.000000 0.756588 0.867277
0.000000 0.763455 0.867491
0.418067 0.796231 0.862638
0.859190 0.859190 0.859190
