其他预设/【212】创意蓝橙调色预设24款/1.3D LUT预设（视频调色-PR-AE-PS-FCPX-达芬奇用）/9.蓝橙色调__.cube
# Created by Adobe Lightroom plugin Export LUT (1.17.0)
# www.johnrellis.com/lightroom/exportlut.htm
# Preset: 9.蓝橙色调[素锦印象]
# Color profile: /Library/Application Support/Adobe/Color/Profiles/Recommended/AdobeRGB1998.icc
LUT_3D_SIZE 5
DOMAIN_MIN 0.000000 0.000000 0.000000
DOMAIN_MAX 0.903226 0.903226 0.903226
0.081453 0.081453 0.081453
0.228336 0.106172 0.082795
0.497658 0.186069 0.025422
0.795834 0.288731 0.000000
0.952239 0.348180 0.000000
0.070954 0.128939 0.111788
0.217929 0.158907 0.092775
0.493599 0.234134 0.017395
0.794583 0.323766 0.000000
0.951781 0.370459 0.000000
0.000000 0.232700 0.186374
0.161837 0.260136 0.156252
0.480964 0.328679 0.109712
0.791287 0.419562 0.000000
0.950195 0.438880 0.042908
0.000000 0.365423 0.283604
0.000000 0.396826 0.269352
0.462806 0.467536 0.208682
0.792935 0.534813 0.126833
0.947234 0.539025 0.113588
0.000000 0.588586 0.449561
0.000000 0.624567 0.443885
0.361517 0.723110 0.337438
0.836637 0.733272 0.315557
0.949523 0.665705 0.303105
0.000000 0.130617 0.175174
0.203616 0.146304 0.169986
0.483528 0.225711 0.102876
0.787930 0.343114 0.000000
0.950988 0.376074 0.000000
0.000000 0.176059 0.197024
0.193240 0.193240 0.193240
0.480537 0.255955 0.133852
0.787564 0.368963 0.000000
0.950622 0.395392 0.000000
0.000000 0.262242 0.245457
0.078981 0.292332 0.241123
0.472297 0.345403 0.203403
0.787442 0.433051 0.073457
0.949340 0.457404 0.061524
0.000000 0.389471 0.331823
0.000000 0.417670 0.327977
0.449653 0.495888 0.277958
0.788754 0.546838 0.222477
0.946502 0.551629 0.134249
0.000000 0.604547 0.488106
0.000000 0.630396 0.483223
0.260044 0.729641 0.393927
0.828794 0.748592 0.380529
0.945006 0.678401 0.363867
0.000000 0.241825 0.342199
0.000000 0.242252 0.353429
0.444221 0.270085 0.345861
0.781613 0.351354 0.243778
0.948669 0.428687 0.152071
0.000000 0.276921 0.358526
0.000000 0.276555 0.370489
0.438056 0.308019 0.361791
0.778775 0.380682 0.268559
0.948669 0.441047 0.163180
0.000000 0.351293 0.401312
0.000000 0.362646 0.411933
0.414710 0.414710 0.414710
0.772122 0.467994 0.338445
0.947021 0.490059 0.220798
0.000000 0.460517 0.466651
0.000000 0.481758 0.477760
0.202182 0.556054 0.465309
0.765499 0.599664 0.439887
0.938048 0.589349 0.354955
0.000000 0.663172 0.616114
0.000000 0.675441 0.612207
0.000000 0.730739 0.571008
0.771450 0.783169 0.565911
0.926299 0.726925 0.535485
0.000000 0.401526 0.575952
0.000000 0.407355 0.580194
0.000000 0.359930 0.612696
0.735927 0.484901 0.591424
0.918181 0.572534 0.545220
0.000000 0.429023 0.585595
0.000000 0.429694 0.593439
0.000000 0.395178 0.622095
0.732082 0.512902 0.603815
0.916625 0.587762 0.556603
0.000000 0.489448 0.616907
0.000000 0.492531 0.625269
0.000000 0.487861 0.648096
0.720424 0.592279 0.642359
0.914275 0.627222 0.581323
0.000000 0.579095 0.666560
0.000000 0.585412 0.671046
0.000000 0.604852 0.686305
0.699306 0.699306 0.699306
0.909514 0.693080 0.623499
0.000000 0.717800 0.766720
0.000000 0.726619 0.764553
0.000000 0.755428 0.762966
0.428565 0.813687 0.702937
0.891936 0.803525 0.734432
0.000000 0.564294 0.826017
0.000000 0.575860 0.824460
0.000000 0.553521 0.829404
0.552789 0.608820 0.833066
0.869352 0.771756 0.808927
0.000000 0.575372 0.828733
0.000000 0.586175 0.827176
0.000000 0.566918 0.831479
0.522759 0.606317 0.834684
0.868742 0.777279 0.811978
0.000000 0.603357 0.838010
0.000000 0.609461 0.836820
0.000000 0.608240 0.837797
0.385962 0.606470 0.840330
0.867247 0.793912 0.821500
0.000000 0.658503 0.852506
0.000000 0.664179 0.851591
0.000000 0.674311 0.849729
0.000000 0.658289 0.851255
0.864836 0.820706 0.837095
0.000000 0.726040 0.870085
0.000000 0.731441 0.869535
0.000000 0.752102 0.867399
0.000000 0.767178 0.867155
0.859190 0.859190 0.859190
