其他预设/【212】创意蓝橙调色预设24款/1.3D LUT预设（视频调色-PR-AE-PS-FCPX-达芬奇用）/9.蓝橙色调__.cube
# Created by Adobe Lightroom plugin Export LUT (1.17.0)
# www.johnrellis.com/lightroom/exportlut.htm
# Preset: 9.蓝橙色调[素锦印象]
# Color profile: /Library/Application Support/Adobe/Color/Profiles/Recommended/AdobeRGB1998.icc
LUT_3D_SIZE 32
0.081453 0.081453 0.081453
0.084810 0.081209 0.081697
0.093660 0.080934 0.081758
0.113863 0.083803 0.082979
0.141238 0.088533 0.083497
0.169467 0.093538 0.083925
0.198489 0.099367 0.083497
0.228336 0.106172 0.082795
0.260197 0.113924 0.080995
0.293980 0.122621 0.078431
0.330480 0.132418 0.074830
0.369055 0.143679 0.069734
0.409827 0.156649 0.063172
0.452705 0.170748 0.051575
0.497658 0.186069 0.025422
0.544579 0.201541 0.000000
0.591882 0.217594 0.000000
0.637476 0.233402 0.000000
0.680751 0.248631 0.000000
0.722408 0.263249 0.000000
0.760861 0.276432 0.000000
0.795834 0.288731 0.000000
0.827298 0.299840 0.000000
0.855131 0.309819 0.000000
0.879576 0.318456 0.000000
0.901030 0.326452 0.000000
0.920043 0.333837 0.000000
0.937011 0.341039 0.000000
0.952239 0.348180 0.000000
0.965972 0.355840 0.060975
0.978302 0.364172 0.104250
0.989258 0.373999 0.140810
0.081453 0.081453 0.081453
0.084382 0.081636 0.081666
0.093690 0.082918 0.081910
0.113863 0.086366 0.082765
0.141207 0.090913 0.083589
0.169284 0.095827 0.084016
0.198184 0.101839 0.083589
0.228214 0.108400 0.082551
0.259983 0.115785 0.081086
0.293889 0.124727 0.078157
0.330236 0.134401 0.074556
0.368902 0.145815 0.069337
0.409674 0.158419 0.063203
0.452522 0.172366 0.051637
0.497566 0.187320 0.026642
0.544488 0.203159 0.000000
0.591669 0.219272 0.000000
0.637415 0.234867 0.000000
0.680629 0.250126 0.000000
0.722347 0.264530 0.000000
0.760769 0.277745 0.000000
0.795804 0.289860 0.000000
0.827298 0.300847 0.000000
0.855100 0.310796 0.000000
0.879515 0.319341 0.000000
0.900999 0.327367 0.000000
0.920043 0.334661 0.000000
0.937011 0.341772 0.000000
0.952239 0.348852 0.000000
0.965972 0.356359 0.061524
0.978271 0.364752 0.104036
0.989258 0.374548 0.141146
0.081483 0.083101 0.081941
0.084260 0.084627 0.081727
0.093507 0.086152 0.082246
0.113680 0.089784 0.083070
0.140841 0.094484 0.083894
0.168978 0.099458 0.084291
0.197818 0.105013 0.083864
0.227787 0.111147 0.082887
0.259739 0.118746 0.081056
0.293584 0.127260 0.078157
0.330053 0.137057 0.074464
0.368627 0.148409 0.069642
0.409400 0.160800 0.063081
0.452369 0.174777 0.051270
0.497322 0.189670 0.026093
0.544366 0.205478 0.000000
0.591577 0.221469 0.000000
0.637171 0.236790 0.000000
0.680659 0.251835 0.000000
0.722286 0.266209 0.000000
0.760739 0.279149 0.000000
0.795773 0.291417 0.000000
0.827207 0.302434 0.000000
0.855070 0.311955 0.000000
0.879515 0.320592 0.000000
0.900999 0.328313 0.000000
0.920012 0.335790 0.000000
0.936980 0.342687 0.000000
0.952239 0.349767 0.000000
0.965942 0.357275 0.061769
0.978271 0.365545 0.104463
0.989227 0.375311 0.141268
0.080781 0.089693 0.085603
0.083711 0.091341 0.084504
0.093812 0.092988 0.084077
0.113619 0.096407 0.083375
0.140352 0.101350 0.084138
0.168246 0.106050 0.084535
0.197208 0.111452 0.084108
0.227359 0.117586 0.083070
0.259190 0.124575 0.080964
0.293187 0.132815 0.078340
0.329534 0.142397 0.074311
0.368322 0.153567 0.069368
0.408911 0.166171 0.063111
0.451850 0.179934 0.051179
0.496986 0.194461 0.024750
0.543938 0.210086 0.000000
0.591272 0.225650 0.000000
0.636896 0.241032 0.000000
0.680354 0.255650 0.000000
0.722011 0.269841 0.000000
0.760616 0.282658 0.000000
0.795590 0.294804 0.000000
0.827085 0.305425 0.000000
0.854978 0.314733 0.000000
0.879454 0.323308 0.000000
0.900908 0.330938 0.000000
0.919951 0.337957 0.000000
0.936950 0.344854 0.000000
0.952178 0.351873 0.000000
0.965911 0.359075 0.062776
0.978241 0.367346 0.104952
0.989197 0.376867 0.142000
0.079561 0.098451 0.090791
0.081361 0.099855 0.090089
0.090822 0.101198 0.089448
0.110109 0.104280 0.087709
0.137881 0.110292 0.084810
0.167300 0.115602 0.085023
0.196445 0.120699 0.084260
0.226474 0.126406 0.083223
0.258305 0.133272 0.081056
0.292424 0.141421 0.078035
0.328862 0.150881 0.073884
0.367468 0.161868 0.069215
0.408270 0.173983 0.062837
0.451240 0.187350 0.049744
0.496315 0.201633 0.023682
0.543297 0.217014 0.000000
0.590692 0.232212 0.000000
0.636408 0.247257 0.000000
0.679927 0.261601 0.000000
0.721767 0.275425 0.000000
0.760372 0.287907 0.000000
0.795438 0.299657 0.000000
0.826963 0.310063 0.000000
0.854917 0.319158 0.000000
0.879332 0.327398 0.000000
0.900847 0.334722 0.000000
0.919860 0.341650 0.000000
0.936858 0.348180 0.000000
0.952117 0.354955 0.000000
0.965850 0.361975 0.063874
0.978180 0.370001 0.105837
0.989105 0.379431 0.142763
0.077729 0.107393 0.096864
0.079164 0.108949 0.096162
0.087556 0.110353 0.095338
0.106111 0.113344 0.093751
0.131655 0.117678 0.091035
0.163027 0.125032 0.087282
0.194980 0.131868 0.084962
0.225132 0.137423 0.083589
0.257237 0.144137 0.081361
0.291295 0.151827 0.078004
0.327764 0.161196 0.074098
0.366369 0.172030 0.068940
0.407233 0.184024 0.062348
0.450324 0.197055 0.048493
0.495521 0.210849 0.021729
0.542626 0.225864 0.000000
0.590082 0.240665 0.000000
0.635767 0.255344 0.000000
0.679469 0.269383 0.000000
0.721309 0.282811 0.000000
0.759976 0.295048 0.000000
0.795193 0.306157 0.000000
0.826780 0.316075 0.000000
0.854704 0.325017 0.000000
0.879210 0.332799 0.000000
0.900725 0.339757 0.000000
0.919799 0.346197 0.000000
0.936767 0.352544 0.000000
0.952026 0.359014 0.000000
0.965759 0.365881 0.065522
0.978088 0.373571 0.107027
0.989044 0.382849 0.143954
0.074556 0.117800 0.103700
0.076875 0.118898 0.103334
0.084077 0.120516 0.102296
0.100374 0.123445 0.099702
0.126314 0.126925 0.098024
0.155703 0.132662 0.093843
0.189761 0.141238 0.089448
0.223667 0.149783 0.083894
0.255650 0.156283 0.081605
0.290043 0.164126 0.078431
0.326513 0.173465 0.074067
0.365179 0.183871 0.068788
0.406073 0.195499 0.062043
0.449439 0.208164 0.047578
0.494667 0.222019 0.019745
0.541741 0.236332 0.000000
0.589227 0.250950 0.000000
0.635096 0.265049 0.000000
0.678828 0.278813 0.000000
0.720912 0.291661 0.000000
0.759609 0.303807 0.000000
0.794888 0.314427 0.000000
0.826535 0.323857 0.000000
0.854520 0.332219 0.000000
0.879026 0.339544 0.000000
0.900572 0.345983 0.000000
0.919646 0.352148 0.000000
0.936645 0.358221 0.000000
0.951904 0.364263 0.000000
0.965637 0.370855 0.067140
0.977966 0.378088 0.108980
0.988922 0.387121 0.145510
0.070954 0.128939 0.111788
0.074281 0.130037 0.111208
0.080903 0.131563 0.110536
0.095094 0.134524 0.107515
0.121401 0.138186 0.105745
0.149569 0.142397 0.102846
0.182010 0.149508 0.097963
0.217929 0.158907 0.092775
0.254246 0.168704 0.085542
0.288457 0.177401 0.078828
0.325139 0.186557 0.074311
0.363958 0.196719 0.069306
0.404913 0.208103 0.061555
0.448219 0.220584 0.047059
0.493599 0.234134 0.017395
0.540764 0.248234 0.000000
0.588434 0.262455 0.000000
0.634333 0.276341 0.000000
0.678187 0.289433 0.000000
0.720272 0.302251 0.000000
0.759121 0.313664 0.000000
0.794583 0.323766 0.000000
0.826230 0.332677 0.000000
0.854307 0.340642 0.000000
0.878813 0.347539 0.000000
0.900389 0.353643 0.000000
0.919493 0.359258 0.000000
0.936522 0.364813 0.000000
0.951781 0.370459 0.000000
0.965515 0.376593 0.069398
0.977844 0.383642 0.110689
0.988769 0.392279 0.147555
0.067140 0.141268 0.120607
0.071504 0.142367 0.120241
0.077150 0.143832 0.119631
0.090547 0.146975 0.117067
0.114992 0.150698 0.113008
0.145510 0.154818 0.111788
0.176242 0.160250 0.107637
0.210697 0.168276 0.102358
0.248325 0.178592 0.096040
0.287297 0.189700 0.087861
0.323735 0.199863 0.077607
0.362554 0.210758 0.069154
0.403693 0.222110 0.061524
0.447120 0.234195 0.045472
0.492287 0.247410 0.015381
0.539727 0.261448 0.000000
0.587427 0.275456 0.000000
0.633478 0.288945 0.000000
0.677363 0.301732 0.000000
0.719661 0.313909 0.000000
0.758663 0.324895 0.000000
0.794217 0.334447 0.000000
0.825925 0.343114 0.000000
0.854032 0.350347 0.000000
0.878599 0.356664 0.000000
0.900175 0.362310 0.000000
0.919310 0.367468 0.000000
0.936339 0.372442 0.000000
0.951629 0.377752 0.000000
0.965393 0.383276 0.072724
0.977691 0.389960 0.113161
0.988647 0.398199 0.149813
0.062776 0.154757 0.130434
0.067018 0.155917 0.129915
0.072572 0.157443 0.129335
0.084962 0.160403 0.127199
0.107149 0.164462 0.122591
0.140169 0.168551 0.120638
0.171969 0.173190 0.117525
0.205478 0.179599 0.111757
0.241825 0.188357 0.106416
0.281407 0.199466 0.099428
0.322881 0.212039 0.090120
0.361486 0.223392 0.078523
0.402289 0.236484 0.061830
0.445563 0.248661 0.043336
0.491218 0.261723 0.013245
0.538598 0.275608 0.000000
0.586358 0.289403 0.000000
0.632471 0.302495 0.000000
0.676509 0.315007 0.000000
0.718929 0.326818 0.000000
0.758175 0.337346 0.000000
0.793698 0.346624 0.000000
0.825589 0.354437 0.000000
0.853727 0.361212 0.000000
0.878355 0.366949 0.000000
0.899962 0.371954 0.000000
0.919097 0.376471 0.000000
0.936156 0.380957 0.000000
0.951446 0.385718 0.000000
0.965209 0.390997 0.075929
0.977539 0.397162 0.115785
0.988464 0.405066 0.152499
0.053132 0.169314 0.140841
0.059754 0.170108 0.140383
0.065187 0.171664 0.139528
0.078309 0.174624 0.137728
0.099489 0.178927 0.133211
0.130404 0.183474 0.127718
0.167300 0.187961 0.127260
0.201083 0.193149 0.122896
0.237217 0.200351 0.114931
0.275395 0.210208 0.109743
0.316838 0.222293 0.102327
0.360784 0.236271 0.091432
0.401465 0.248631 0.078798
0.444800 0.262608 0.055604
0.490089 0.276585 0.011597
0.537469 0.290318 0.000000
0.585290 0.304173 0.000000
0.631373 0.317052 0.000000
0.675654 0.329198 0.000000
0.718318 0.340734 0.000000
0.757626 0.350713 0.000000
0.793271 0.359533 0.000000
0.825223 0.366888 0.000000
0.853391 0.372992 0.000000
0.878050 0.378241 0.000000
0.899718 0.382605 0.000000
0.918853 0.386664 0.000000
0.935943 0.390661 0.000000
0.951263 0.394781 0.000000
0.964996 0.399603 0.079316
0.977325 0.405249 0.118990
0.988220 0.412787 0.155428
0.031647 0.184329 0.151705
0.038972 0.185367 0.151125
0.051026 0.186770 0.150484
0.068177 0.189792 0.148836
0.089662 0.193973 0.144869
0.118563 0.199069 0.137789
0.160037 0.203708 0.135927
0.196719 0.208743 0.133028
0.232578 0.214511 0.126925
0.271305 0.222690 0.117220
0.311131 0.233616 0.113069
0.354681 0.246708 0.104860
0.401007 0.261662 0.093080
0.444129 0.275151 0.077455
0.489296 0.290074 0.044892
0.536370 0.305913 0.000000
0.584161 0.319585 0.000000
0.630396 0.332341 0.000000
0.674739 0.344305 0.000000
0.717586 0.355566 0.000000
0.757046 0.365057 0.000000
0.792813 0.373388 0.000000
0.824796 0.380194 0.000000
0.853056 0.385901 0.000000
0.877775 0.390478 0.000000
0.899443 0.394354 0.000000
0.918578 0.397803 0.000000
0.935698 0.401160 0.000000
0.951019 0.404730 0.000916
0.964782 0.408850 0.083589
0.977111 0.414221 0.122286
0.987976 0.421149 0.159243
0.000610 0.199954 0.162905
0.007752 0.201022 0.162356
0.019593 0.202304 0.161929
0.050660 0.205325 0.160098
0.076814 0.209628 0.156771
0.106477 0.214939 0.149722
0.146151 0.220096 0.142123
0.190463 0.225254 0.143008
0.228489 0.230472 0.137728
0.266484 0.237125 0.129976
0.307164 0.246494 0.120577
0.349096 0.258427 0.116030
0.394507 0.272557 0.107332
0.443671 0.288914 0.093141
0.488746 0.303197 0.074739
0.535882 0.318853 0.023957
0.583246 0.334936 0.000000
0.629236 0.348394 0.000000
0.673762 0.360143 0.000000
0.716854 0.370977 0.000000
0.756405 0.380499 0.000000
0.792294 0.387976 0.000000
0.824369 0.394507 0.000000
0.852689 0.399420 0.000000
0.877409 0.403540 0.000000
0.899138 0.406653 0.000000
0.918334 0.409552 0.000000
0.935424 0.412268 0.000000
0.950774 0.415412 0.012726
0.964538 0.418982 0.087892
0.976837 0.423804 0.126497
0.987701 0.430274 0.163088
0.000000 0.216220 0.174563
0.000000 0.217166 0.173953
0.000000 0.218570 0.173526
0.007996 0.221378 0.172122
0.059205 0.225711 0.168765
0.091676 0.231083 0.162448
0.129122 0.237064 0.152132
0.179782 0.242313 0.150637
0.222782 0.247745 0.148226
0.262364 0.253452 0.142275
0.302739 0.261265 0.132265
0.345037 0.271672 0.124544
0.388922 0.284672 0.119295
0.436683 0.299931 0.108736
0.487709 0.317113 0.092409
0.535424 0.332555 0.070069
0.582757 0.348089 0.000855
0.628565 0.363073 0.000000
0.672908 0.376440 0.000000
0.716152 0.387152 0.000000
0.755825 0.396155 0.000000
0.791775 0.403632 0.000000
0.823972 0.409369 0.000000
0.852323 0.413855 0.000000
0.877104 0.417334 0.000000
0.898833 0.419837 0.000000
0.918029 0.422126 0.000000
0.935149 0.424262 0.000000
0.950500 0.426764 0.026764
0.964263 0.429908 0.092775
0.976532 0.434180 0.130892
0.987427 0.440253 0.167330
0.000000 0.232700 0.186374
0.000000 0.233677 0.185885
0.000000 0.234897 0.185275
0.000000 0.237797 0.184085
0.008789 0.242313 0.181064
0.071717 0.247684 0.175540
0.112154 0.254124 0.165743
0.161837 0.260136 0.156252
0.214664 0.265904 0.158877
0.257359 0.271397 0.153048
0.298100 0.277897 0.145937
0.340764 0.286809 0.134615
0.384558 0.298192 0.128847
0.431006 0.312505 0.121950
0.480964 0.328679 0.109712
0.533959 0.346532 0.091096
0.582238 0.362249 0.063264
0.628016 0.376715 0.000000
0.672389 0.390784 0.000000
0.715358 0.403937 0.000000
0.755215 0.412726 0.000000
0.791287 0.419562 0.000000
0.823514 0.425055 0.000000
0.851926 0.428931 0.000000
0.876738 0.431708 0.000000
0.898466 0.433722 0.000000
0.917693 0.435431 0.000000
0.934874 0.436957 0.000000
0.950195 0.438880 0.042908
0.963958 0.441444 0.098116
0.976226 0.445167 0.135836
0.987060 0.450752 0.172427
0.000000 0.249729 0.198642
0.000000 0.250614 0.198337
0.000000 0.251835 0.197635
0.000000 0.254704 0.196506
0.000000 0.259098 0.193820
0.027375 0.264683 0.188693
0.091707 0.271305 0.179965
0.138918 0.278386 0.166506
0.200320 0.284306 0.165530
0.249943 0.290318 0.164034
0.293584 0.296391 0.157565
0.336187 0.303746 0.148898
0.380774 0.313664 0.137697
0.426520 0.326390 0.132509
0.475196 0.341466 0.124331
0.527031 0.358587 0.109560
0.580316 0.376501 0.088289
0.627436 0.391089 0.055421
0.672084 0.404791 0.000000
0.715145 0.417945 0.000000
0.754635 0.429633 0.000000
0.790829 0.436316 0.000000
0.823087 0.441199 0.000000
0.851560 0.444587 0.000000
0.876371 0.446784 0.000000
0.898131 0.448310 0.000000
0.917357 0.449256 0.000000
0.934508 0.450324 0.000000
0.949859 0.451606 0.058442
0.963622 0.453681 0.103822
0.975891 0.456855 0.141054
0.986664 0.461952 0.177798
0.000000 0.267124 0.211124
0.000000 0.267796 0.210727
0.000000 0.269108 0.210269
0.000000 0.271916 0.209201
0.000000 0.276280 0.206912
0.000000 0.282109 0.202426
0.063111 0.288853 0.194644
0.118105 0.296330 0.181827
0.178042 0.303288 0.170871
0.239811 0.309972 0.175174
0.287236 0.315862 0.169619
0.331487 0.322362 0.162570
0.375952 0.330632 0.152682
0.422736 0.341894 0.140414
0.470314 0.355779 0.135836
0.521080 0.371832 0.125673
0.573602 0.389044 0.109682
0.625269 0.405798 0.086519
0.671839 0.419867 0.044373
0.714900 0.432410 0.000000
0.754513 0.443397 0.000000
0.790341 0.453040 0.000000
0.822660 0.457954 0.000000
0.851102 0.460822 0.000000
0.875975 0.462470 0.000000
0.897734 0.463355 0.000000
0.916991 0.463813 0.000000
0.934142 0.464210 0.000000
0.949523 0.464942 0.067262
0.963256 0.466438 0.110536
0.975494 0.469123 0.146670
0.986267 0.473762 0.183841
0.000000 0.284703 0.223911
0.000000 0.285496 0.223728
0.000000 0.286717 0.223301
0.000000 0.289586 0.222293
0.000000 0.293889 0.220310
0.000000 0.299565 0.216434
0.000000 0.306493 0.209537
0.092592 0.314183 0.198184
0.150912 0.322576 0.181582
0.222446 0.329351 0.181613
0.278508 0.336217 0.181857
0.326085 0.342443 0.175509
0.371313 0.349584 0.168093
0.418280 0.359594 0.156161
0.467475 0.372107 0.143526
0.517144 0.387152 0.138338
0.569299 0.403601 0.126833
0.620630 0.419654 0.109438
0.670069 0.434821 0.085420
0.714687 0.447700 0.038666
0.754208 0.458350 0.000000
0.790127 0.467170 0.000000
0.822232 0.474586 0.000000
0.850675 0.477668 0.000000
0.875517 0.478767 0.000000
0.897337 0.479011 0.000000
0.916594 0.478798 0.000000
0.933776 0.478584 0.000000
0.949126 0.478828 0.075898
0.962890 0.479744 0.117128
0.975097 0.481910 0.153231
0.985809 0.486030 0.190219
0.000000 0.303166 0.237583
0.000000 0.303960 0.237125
0.000000 0.305089 0.236728
0.000000 0.307927 0.235966
0.000000 0.312139 0.234104
0.000000 0.318029 0.230900
0.000000 0.324956 0.225040
0.050721 0.333074 0.215183
0.127382 0.341894 0.200107
0.196780 0.350042 0.187961
0.266392 0.357855 0.193179
0.319341 0.364446 0.188602
0.367834 0.371496 0.181735
0.414893 0.379644 0.172244
0.464546 0.391211 0.158663
0.515923 0.405188 0.146975
0.567346 0.420661 0.140291
0.618250 0.435981 0.128023
0.667750 0.450721 0.109834
0.713802 0.463630 0.085573
0.754116 0.473793 0.042878
0.789883 0.482246 0.000000
0.821988 0.489021 0.000000
0.850248 0.494331 0.000000
0.875090 0.495338 0.000000
0.896880 0.495064 0.000000
0.916197 0.494270 0.000000
0.933349 0.493568 0.002045
0.948699 0.493172 0.085206
0.962432 0.493599 0.124269
0.974640 0.495277 0.160128
0.985290 0.498970 0.197543
0.000000 0.322576 0.251896
0.000000 0.323430 0.251560
0.000000 0.324529 0.251194
0.000000 0.327306 0.250370
0.000000 0.331579 0.248936
0.000000 0.337438 0.246098
0.000000 0.344518 0.240848
0.000000 0.352880 0.232547
0.097749 0.362127 0.219211
0.166415 0.372168 0.199619
0.246952 0.380102 0.200595
0.310887 0.388739 0.202487
0.363256 0.395453 0.195682
0.412909 0.403357 0.187655
0.462715 0.413153 0.175967
0.515343 0.426215 0.160555
0.567834 0.440558 0.150240
0.618372 0.454994 0.142519
0.667628 0.468788 0.129152
0.713497 0.481025 0.111482
0.754055 0.490486 0.089815
0.789700 0.497932 0.059693
0.821683 0.504143 0.000000
0.849851 0.508843 0.000000
0.874632 0.512169 0.000000
0.896452 0.511589 0.000000
0.915740 0.510369 0.000000
0.932921 0.508965 0.030060
0.948272 0.507988 0.094423
0.961944 0.507958 0.131930
0.974151 0.509056 0.167758
0.984741 0.512352 0.205142
0.000000 0.343328 0.267155
0.000000 0.344091 0.266911
0.000000 0.345190 0.266484
0.000000 0.347875 0.265782
0.000000 0.352270 0.264622
0.000000 0.358251 0.262150
0.000000 0.365545 0.257816
0.000000 0.374121 0.250553
0.038178 0.383948 0.238773
0.138796 0.394507 0.221103
0.218845 0.404578 0.207736
0.297307 0.414008 0.213443
0.357153 0.422034 0.210239
0.410803 0.429694 0.202090
0.462226 0.438392 0.193027
0.515312 0.450202 0.178683
0.569512 0.463508 0.162417
0.620661 0.476692 0.153841
0.669520 0.489509 0.145357
0.715023 0.500481 0.133089
0.755337 0.509087 0.117189
0.790463 0.515343 0.098848
0.821378 0.520012 0.075044
0.849516 0.523980 0.025086
0.874113 0.526879 0.000000
0.895964 0.528588 0.000000
0.915251 0.526696 0.000000
0.932433 0.524773 0.058350
0.947784 0.523278 0.104036
0.961456 0.522637 0.140414
0.973571 0.523369 0.176211
0.984100 0.526177 0.213535
0.000000 0.365423 0.283604
0.000000 0.366155 0.283360
0.000000 0.367254 0.282963
0.000000 0.369970 0.282414
0.000000 0.374395 0.281468
0.000000 0.380499 0.279271
0.000000 0.388037 0.275731
0.000000 0.396826 0.269352
0.000000 0.407202 0.259068
0.102296 0.418433 0.243198
0.182803 0.430640 0.220157
0.275853 0.440620 0.221805
0.348882 0.451331 0.225925
0.407446 0.459113 0.217960
0.462806 0.467536 0.208682
0.516472 0.477424 0.198215
0.571557 0.489631 0.181827
0.624750 0.501427 0.164065
0.673579 0.512871 0.158236
0.718471 0.522454 0.150637
0.758236 0.529747 0.140261
0.792935 0.534813 0.126833
0.822904 0.538018 0.112398
0.849027 0.539971 0.095491
0.873625 0.542138 0.073976
0.895354 0.543420 0.030610
0.914733 0.543481 0.000000
0.931914 0.540978 0.072267
0.947234 0.539025 0.113588
0.960906 0.537804 0.149630
0.972992 0.538079 0.185000
0.983459 0.540459 0.222812
0.000000 0.389197 0.301183
0.000000 0.389990 0.301030
0.000000 0.391089 0.300755
0.000000 0.393835 0.300175
0.000000 0.398535 0.299290
0.000000 0.404578 0.297673
0.000000 0.412360 0.294438
0.000000 0.421576 0.289006
0.000000 0.432380 0.280186
0.000824 0.444343 0.265873
0.150118 0.457465 0.244877
0.244175 0.469856 0.229801
0.332982 0.481209 0.236667
0.402472 0.491463 0.234440
0.462379 0.499916 0.225711
0.519341 0.509148 0.215457
0.574792 0.519249 0.202274
0.628717 0.529686 0.185397
0.679713 0.539208 0.167819
0.723568 0.546960 0.166415
0.762631 0.552636 0.160433
0.796719 0.556329 0.151339
0.826108 0.558129 0.141238
0.851194 0.558495 0.129641
0.873045 0.558129 0.116945
0.894713 0.558740 0.102480
0.914061 0.558740 0.086854
0.931365 0.557580 0.086091
0.946685 0.555077 0.123995
0.960296 0.553338 0.159182
0.972320 0.553155 0.194522
0.982696 0.555230 0.232792
0.000000 0.415045 0.320439
0.000000 0.415839 0.320287
0.000000 0.416907 0.319799
0.000000 0.419654 0.319310
0.000000 0.424475 0.318853
0.000000 0.430701 0.317479
0.000000 0.438727 0.314763
0.000000 0.448402 0.310063
0.000000 0.459663 0.302312
0.000000 0.472358 0.290013
0.102968 0.486397 0.270909
0.200748 0.501396 0.243442
0.309361 0.513512 0.245884
0.394171 0.526726 0.252384
0.459907 0.534874 0.243809
0.520989 0.543389 0.233829
0.578851 0.552575 0.223178
0.633967 0.561334 0.208042
0.685359 0.569055 0.191165
0.730465 0.574273 0.178012
0.768429 0.577874 0.178073
0.801663 0.579767 0.173922
0.830320 0.580133 0.167239
0.854765 0.579065 0.159274
0.875669 0.577111 0.150271
0.893980 0.574762 0.140261
0.913237 0.574212 0.130861
0.930602 0.573449 0.120180
0.946044 0.571496 0.134890
0.959655 0.569268 0.169314
0.971618 0.568627 0.204715
0.981872 0.570336 0.243473
0.000000 0.443183 0.341314
0.000000 0.444007 0.341161
0.000000 0.445136 0.340917
0.000000 0.447913 0.340368
0.000000 0.452705 0.339910
0.000000 0.459297 0.338994
0.000000 0.467659 0.336736
0.000000 0.477668 0.332860
0.000000 0.489418 0.326146
0.000000 0.502892 0.315068
0.000000 0.517845 0.297856
0.161501 0.533837 0.272190
0.273991 0.548333 0.255680
0.375860 0.561028 0.263859
0.454566 0.572045 0.264195
0.520378 0.579980 0.254429
0.582055 0.588281 0.243870
0.640345 0.596979 0.232212
0.692103 0.602411 0.216190
0.737270 0.605035 0.200961
0.775631 0.605737 0.193118
0.807767 0.605463 0.194278
0.835447 0.603937 0.191989
0.859098 0.601343 0.187198
0.879423 0.598047 0.181033
0.897032 0.594385 0.173617
0.912383 0.590478 0.165621
0.929656 0.589044 0.158724
0.945373 0.587579 0.151583
0.958923 0.585565 0.180209
0.970825 0.584466 0.215763
0.980987 0.585840 0.254978
0.000000 0.474189 0.364385
0.000000 0.475074 0.364172
0.000000 0.476265 0.363989
0.000000 0.478889 0.363439
0.000000 0.483925 0.363256
0.000000 0.490822 0.362432
0.000000 0.499519 0.360815
0.000000 0.509941 0.357427
0.000000 0.522332 0.351690
0.000000 0.536156 0.342077
0.000000 0.551507 0.326513
0.100710 0.567987 0.302861
0.223453 0.584802 0.270451
0.349523 0.597284 0.275975
0.444221 0.610498 0.284489
0.517357 0.618524 0.277714
0.583093 0.625971 0.267460
0.644282 0.633631 0.256413
0.699916 0.639429 0.243381
0.744778 0.638972 0.228946
0.783200 0.636652 0.215885
0.814969 0.633417 0.213230
0.841459 0.629694 0.215702
0.864164 0.625360 0.214267
0.883757 0.620661 0.210788
0.900816 0.615656 0.206119
0.915770 0.610712 0.199771
0.928954 0.605707 0.192782
0.944182 0.603449 0.187655
0.958343 0.601587 0.187503
0.969940 0.600641 0.227420
0.979980 0.601709 0.267430
0.000000 0.508659 0.389990
0.000000 0.509514 0.389837
0.000000 0.510704 0.389715
0.000000 0.513420 0.389258
0.000000 0.518669 0.389075
0.000000 0.525902 0.388678
0.000000 0.534783 0.387213
0.000000 0.545525 0.384436
0.000000 0.558038 0.379126
0.000000 0.572015 0.370336
0.000000 0.587457 0.356085
0.000000 0.603815 0.334844
0.178134 0.620935 0.305028
0.310643 0.635615 0.289158
0.424628 0.647822 0.299718
0.511284 0.658442 0.303899
0.581231 0.664454 0.294499
0.645014 0.670344 0.284123
0.704189 0.676265 0.273289
0.753048 0.676295 0.260533
0.790799 0.670680 0.248020
0.822599 0.663905 0.236698
0.848173 0.657435 0.239170
0.869810 0.651148 0.242039
0.888579 0.644862 0.241306
0.904997 0.638605 0.238682
0.919402 0.632410 0.234257
0.932189 0.626490 0.228702
0.943572 0.620661 0.222324
0.957000 0.617731 0.218967
0.969207 0.616449 0.236454
0.978882 0.617884 0.280735
0.000000 0.546960 0.418555
0.000000 0.547906 0.418402
0.000000 0.549157 0.418219
0.000000 0.551812 0.417884
0.000000 0.557000 0.417609
0.000000 0.564111 0.417273
0.000000 0.573083 0.415900
0.000000 0.583673 0.413214
0.000000 0.596063 0.408331
0.000000 0.609979 0.400000
0.000000 0.625299 0.386938
0.000000 0.641688 0.367407
0.108949 0.658564 0.340215
0.257542 0.675135 0.306920
0.397436 0.685725 0.317174
0.498970 0.696223 0.329564
