其他预设/【233】日式怀旧街道调色预设208款/3.XMP格式(PS 19LR用)预设/2.富士胶片风-日式城市街拍预设/胶片风街拍预设-46.xmp
<x:xmpmeta xmlns:x="adobe:ns:meta/" x:xmptk="Adobe XMP Core 5.6-c140 79.160451, 2017/05/06-01:08:21        ">
 <rdf:RDF xmlns:rdf="http://www.w3.org/1999/02/22-rdf-syntax-ns#">
  <rdf:Description rdf:about=""
    xmlns:crs="http://ns.adobe.com/camera-raw-settings/1.0/"
   crs:PresetType="Normal"
   crs:Cluster=""
   crs:UUID="80F0AB8FD75BAD5EAD82EE99A90B8CAA"
   crs:SupportsAmount="False"
   crs:SupportsColor="True"
   crs:SupportsMonochrome="True"
   crs:SupportsHighDynamicRange="True"
   crs:SupportsNormalDynamicRange="True"
   crs:SupportsSceneReferred="True"
   crs:SupportsOutputReferred="True"
   crs:CameraModelRestriction=""
   crs:Copyright=""
   crs:ContactInfo=""
   crs:Version="10.5"
   crs:ProcessVersion="6.7"
   crs:Saturation="+7"
   crs:ShadowTint="0"
   crs:RedHue="+16"
   crs:RedSaturation="+8"
   crs:GreenHue="0"
   crs:GreenSaturation="+19"
   crs:BlueHue="-13"
   crs:BlueSaturation="+11"
   crs:Vibrance="+8"
   crs:HueAdjustmentRed="+5"
   crs:HueAdjustmentOrange="-6"
   crs:HueAdjustmentYellow="-3"
   crs:HueAdjustmentGreen="0"
   crs:HueAdjustmentAqua="+5"
   crs:HueAdjustmentBlue="-6"
   crs:HueAdjustmentPurple="+8"
   crs:HueAdjustmentMagenta="+9"
   crs:SaturationAdjustmentRed="+3"
   crs:SaturationAdjustmentOrange="-2"
   crs:SaturationAdjustmentYellow="-41"
   crs:SaturationAdjustmentGreen="-8"
   crs:SaturationAdjustmentAqua="0"
   crs:SaturationAdjustmentBlue="+11"
   crs:SaturationAdjustmentPurple="+24"
   crs:SaturationAdjustmentMagenta="+12"
   crs:LuminanceAdjustmentRed="+16"
   crs:LuminanceAdjustmentOrange="+18"
   crs:LuminanceAdjustmentYellow="-3"
   crs:LuminanceAdjustmentGreen="+1"
   crs:LuminanceAdjustmentAqua="+5"
   crs:LuminanceAdjustmentBlue="-17"
   crs:LuminanceAdjustmentPurple="+15"
   crs:LuminanceAdjustmentMagenta="-8"
   crs:SplitToningShadowHue="13"
   crs:SplitToningShadowSaturation="0"
   crs:SplitToningHighlightHue="320"
   crs:SplitToningHighlightSaturation="3"
   crs:SplitToningBalance="0"
   crs:ParametricShadows="0"
   crs:ParametricDarks="0"
   crs:ParametricLights="0"
   crs:ParametricHighlights="0"
   crs:ParametricShadowSplit="25"
   crs:ParametricMidtoneSplit="50"
   crs:ParametricHighlightSplit="75"
   crs:GrainAmount="13"
   crs:GrainSize="14"
   crs:GrainFrequency="33"
   crs:Exposure2012="-0.20"
   crs:Contrast2012="+10"
   crs:Highlights2012="-49"
   crs:Shadows2012="+39"
   crs:Whites2012="+9"
   crs:Blacks2012="-37"
   crs:Clarity2012="+8"
   crs:ConvertToGrayscale="False"
   crs:ToneCurveName2012="Custom"
   crs:CameraProfile="Camera CLASSIC CHROME"
   crs:HasSettings="True">
   <crs:Name>
    <rdf:Alt>
     <rdf:li xml:lang="x-default">JA – Neon 2 (Classic Chrome)</rdf:li>
    </rdf:Alt>
   </crs:Name>
   <crs:ShortName>
    <rdf:Alt>
     <rdf:li xml:lang="x-default"/>
    </rdf:Alt>
   </crs:ShortName>
   <crs:SortName>
    <rdf:Alt>
     <rdf:li xml:lang="x-default"/>
    </rdf:Alt>
   </crs:SortName>
   <crs:Group>
    <rdf:Alt>
     <rdf:li xml:lang="x-default">富士胶片风-日式城市街拍预设</rdf:li>
    </rdf:Alt>
   </crs:Group>
   <crs:Description>
    <rdf:Alt>
     <rdf:li xml:lang="x-default"/>
    </rdf:Alt>
   </crs:Description>
   <crs:ToneCurvePV2012>
    <rdf:Seq>
     <rdf:li>0, 24</rdf:li>
     <rdf:li>52, 41</rdf:li>
     <rdf:li>111, 100</rdf:li>
     <rdf:li>160, 166</rdf:li>
     <rdf:li>200, 209</rdf:li>
     <rdf:li>255, 243</rdf:li>
    </rdf:Seq>
   </crs:ToneCurvePV2012>
   <crs:ToneCurvePV2012Red>
    <rdf:Seq>
     <rdf:li>0, 0</rdf:li>
     <rdf:li>255, 255</rdf:li>
    </rdf:Seq>
   </crs:ToneCurvePV2012Red>
   <crs:ToneCurvePV2012Green>
    <rdf:Seq>
     <rdf:li>0, 0</rdf:li>
     <rdf:li>255, 255</rdf:li>
    </rdf:Seq>
   </crs:ToneCurvePV2012Green>
   <crs:ToneCurvePV2012Blue>
    <rdf:Seq>
     <rdf:li>0, 0</rdf:li>
     <rdf:li>255, 255</rdf:li>
    </rdf:Seq>
   </crs:ToneCurvePV2012Blue>
   <crs:Look
    crs:Name=""/>
  </rdf:Description>
 </rdf:RDF>
</x:xmpmeta>
