其他预设/【233】日式怀旧街道调色预设208款/3.XMP格式(PS 19LR用)预设/2.富士胶片风-日式城市街拍预设/胶片风街拍预设-24.xmp
<x:xmpmeta xmlns:x="adobe:ns:meta/" x:xmptk="Adobe XMP Core 5.6-c140 79.160451, 2017/05/06-01:08:21        ">
 <rdf:RDF xmlns:rdf="http://www.w3.org/1999/02/22-rdf-syntax-ns#">
  <rdf:Description rdf:about=""
    xmlns:crs="http://ns.adobe.com/camera-raw-settings/1.0/"
   crs:PresetType="Normal"
   crs:Cluster=""
   crs:UUID="E8F0F157ED01287DEBDE06B9BBFBEEA9"
   crs:SupportsAmount="False"
   crs:SupportsColor="True"
   crs:SupportsMonochrome="True"
   crs:SupportsHighDynamicRange="True"
   crs:SupportsNormalDynamicRange="True"
   crs:SupportsSceneReferred="True"
   crs:SupportsOutputReferred="True"
   crs:CameraModelRestriction=""
   crs:Copyright=""
   crs:ContactInfo=""
   crs:Version="10.5"
   crs:ProcessVersion="10.0"
   crs:Saturation="-14"
   crs:ShadowTint="-6"
   crs:RedHue="-6"
   crs:RedSaturation="+6"
   crs:GreenHue="+8"
   crs:GreenSaturation="+16"
   crs:BlueHue="+17"
   crs:BlueSaturation="-24"
   crs:Vibrance="+33"
   crs:HueAdjustmentRed="+6"
   crs:HueAdjustmentOrange="+7"
   crs:HueAdjustmentYellow="-5"
   crs:HueAdjustmentGreen="-3"
   crs:HueAdjustmentAqua="+17"
   crs:HueAdjustmentBlue="+3"
   crs:HueAdjustmentPurple="-11"
   crs:HueAdjustmentMagenta="-14"
   crs:SaturationAdjustmentRed="+16"
   crs:SaturationAdjustmentOrange="0"
   crs:SaturationAdjustmentYellow="+5"
   crs:SaturationAdjustmentGreen="+2"
   crs:SaturationAdjustmentAqua="-37"
   crs:SaturationAdjustmentBlue="-1"
   crs:SaturationAdjustmentPurple="-29"
   crs:SaturationAdjustmentMagenta="-37"
   crs:LuminanceAdjustmentRed="-13"
   crs:LuminanceAdjustmentOrange="+15"
   crs:LuminanceAdjustmentYellow="-4"
   crs:LuminanceAdjustmentGreen="-3"
   crs:LuminanceAdjustmentAqua="+16"
   crs:LuminanceAdjustmentBlue="+20"
   crs:LuminanceAdjustmentPurple="-23"
   crs:LuminanceAdjustmentMagenta="-37"
   crs:SplitToningShadowHue="226"
   crs:SplitToningShadowSaturation="27"
   crs:SplitToningHighlightHue="210"
   crs:SplitToningHighlightSaturation="9"
   crs:SplitToningBalance="+28"
   crs:ParametricShadows="0"
   crs:ParametricDarks="0"
   crs:ParametricLights="0"
   crs:ParametricHighlights="0"
   crs:ParametricShadowSplit="25"
   crs:ParametricMidtoneSplit="50"
   crs:ParametricHighlightSplit="75"
   crs:PostCropVignetteAmount="0"
   crs:GrainAmount="14"
   crs:GrainSize="24"
   crs:GrainFrequency="35"
   crs:Exposure2012="+0.85"
   crs:Contrast2012="-1"
   crs:Highlights2012="-89"
   crs:Shadows2012="+49"
   crs:Whites2012="+47"
   crs:Blacks2012="-29"
   crs:Clarity2012="+17"
   crs:Dehaze="0"
   crs:ConvertToGrayscale="False"
   crs:OverrideLookVignette="False"
   crs:ToneCurveName2012="Custom"
   crs:CameraProfile="Camera CLASSIC CHROME"
   crs:HasSettings="True">
   <crs:Name>
    <rdf:Alt>
     <rdf:li xml:lang="x-default">JA – Shaded Light 5 (Classic Chrome)</rdf:li>
    </rdf:Alt>
   </crs:Name>
   <crs:ShortName>
    <rdf:Alt>
     <rdf:li xml:lang="x-default"/>
    </rdf:Alt>
   </crs:ShortName>
   <crs:SortName>
    <rdf:Alt>
     <rdf:li xml:lang="x-default"/>
    </rdf:Alt>
   </crs:SortName>
   <crs:Group>
    <rdf:Alt>
     <rdf:li xml:lang="x-default">富士胶片风-日式城市街拍预设</rdf:li>
    </rdf:Alt>
   </crs:Group>
   <crs:Description>
    <rdf:Alt>
     <rdf:li xml:lang="x-default"/>
    </rdf:Alt>
   </crs:Description>
   <crs:ToneCurvePV2012>
    <rdf:Seq>
     <rdf:li>0, 10</rdf:li>
     <rdf:li>26, 18</rdf:li>
     <rdf:li>54, 36</rdf:li>
     <rdf:li>87, 61</rdf:li>
     <rdf:li>121, 108</rdf:li>
     <rdf:li>157, 171</rdf:li>
     <rdf:li>216, 223</rdf:li>
     <rdf:li>255, 254</rdf:li>
    </rdf:Seq>
   </crs:ToneCurvePV2012>
   <crs:ToneCurvePV2012Red>
    <rdf:Seq>
     <rdf:li>0, 0</rdf:li>
     <rdf:li>255, 255</rdf:li>
    </rdf:Seq>
   </crs:ToneCurvePV2012Red>
   <crs:ToneCurvePV2012Green>
    <rdf:Seq>
     <rdf:li>0, 0</rdf:li>
     <rdf:li>255, 255</rdf:li>
    </rdf:Seq>
   </crs:ToneCurvePV2012Green>
   <crs:ToneCurvePV2012Blue>
    <rdf:Seq>
     <rdf:li>0, 0</rdf:li>
     <rdf:li>255, 255</rdf:li>
    </rdf:Seq>
   </crs:ToneCurvePV2012Blue>
   <crs:Look
    crs:Name=""/>
  </rdf:Description>
 </rdf:RDF>
</x:xmpmeta>
