其他预设/【232】美食博客调色预设124款/2.LR预设文件/Food Art #16.lrtemplate
s = {
	id = "D198EBB4-4D58-4215-8D82-F9D1948C757C",
	internalName = "Food Art #16",
	title = "Food Art #16",
	type = "Develop",
	value = {
		settings = {
			Blacks2012 = 30,
			Clarity2012 = 15,
			ColorNoiseReduction = 0,
			ColorNoiseReductionDetail = 50,
			ColorNoiseReductionSmoothness = 50,
			Contrast2012 = -70,
			ConvertToGrayscale = false,
			EnableColorAdjustments = true,
			EnableDetail = true,
			EnableEffects = true,
			EnableSplitToning = true,
			Exposure2012 = 0.36,
			GrainAmount = 15,
			GrainFrequency = 50,
			GrainSize = 25,
			Highlights2012 = -10,
			HueAdjustmentAqua = 0,
			HueAdjustmentBlue = 0,
			HueAdjustmentGreen = 0,
			HueAdjustmentMagenta = 0,
			HueAdjustmentOrange = 0,
			HueAdjustmentPurple = 0,
			HueAdjustmentRed = 0,
			HueAdjustmentYellow = 0,
			LuminanceAdjustmentAqua = 0,
			LuminanceAdjustmentBlue = 0,
			LuminanceAdjustmentGreen = 0,
			LuminanceAdjustmentMagenta = 0,
			LuminanceAdjustmentOrange = 0,
			LuminanceAdjustmentPurple = 0,
			LuminanceAdjustmentRed = 0,
			LuminanceAdjustmentYellow = 0,
			LuminanceNoiseReductionContrast = 0,
			LuminanceNoiseReductionDetail = 50,
			LuminanceSmoothing = 25,
			ParametricDarks = 0,
			ParametricHighlightSplit = 75,
			ParametricHighlights = 0,
			ParametricLights = 13,
			ParametricMidtoneSplit = 50,
			ParametricShadowSplit = 25,
			ParametricShadows = 0,
			PostCropVignetteAmount = -12,
			PostCropVignetteFeather = 50,
			PostCropVignetteHighlightContrast = 0,
			PostCropVignetteMidpoint = 50,
			PostCropVignetteRoundness = 0,
			PostCropVignetteStyle = 1,
			ProcessVersion = "6.7",
			Saturation = -20,
			SaturationAdjustmentAqua = 0,
			SaturationAdjustmentBlue = 0,
			SaturationAdjustmentGreen = 0,
			SaturationAdjustmentMagenta = 0,
			SaturationAdjustmentOrange = 0,
			SaturationAdjustmentPurple = 0,
			SaturationAdjustmentRed = 0,
			SaturationAdjustmentYellow = 0,
			Shadows2012 = 30,
			SharpenDetail = 25,
			SharpenEdgeMasking = 0,
			SharpenRadius = 1,
			Sharpness = 50,
			SplitToningBalance = 0,
			SplitToningHighlightHue = 0,
			SplitToningHighlightSaturation = 0,
			SplitToningShadowHue = 50,
			SplitToningShadowSaturation = 50,
			ToneCurveName2012 = "Custom",
			ToneCurvePV2012 = {
				0,
				79,
				75,
				81,
				255,
				241,
			},
			ToneCurvePV2012Blue = {
				2,
				26,
				64,
				84,
				191,
				174,
				255,
				255,
			},
			ToneCurvePV2012Green = {
				0,
				0,
				65,
				45,
				186,
				206,
				255,
				255,
			},
			ToneCurvePV2012Red = {
				0,
				0,
				69,
				56,
				186,
				203,
				255,
				255,
			},
			Vibrance = -10,
			WhiteBalance = "As Shot",
			Whites2012 = -10,
		},
		uuid = "B5192994-9104-4842-A36F-4D44A9C8FDD9",
	},
	version = 0,
}
