其他预设/【232】美食博客调色预设124款/2.LR预设文件/Yummy #19 ().lrtemplate
s = {
	id = "4278F818-6073-4C6E-97FE-460866BAE5F9",
	internalName = "Yummy #19 (素锦印象)",
	title = "Yummy #19 (素锦印象)",
	type = "Develop",
	value = {
		settings = {
			AutoLateralCA = 0,
			Blacks2012 = -86,
			BlueHue = -46,
			BlueSaturation = 13,
			CameraProfile = "Adobe Standard",
			ChromaticAberrationB = 0,
			ChromaticAberrationR = 0,
			Clarity2012 = 6,
			ColorNoiseReduction = 49,
			ColorNoiseReductionDetail = 50,
			ColorNoiseReductionSmoothness = 50,
			Contrast2012 = 33,
			ConvertToGrayscale = false,
			CropConstrainToWarp = 0,
			Defringe = 0,
			DefringeGreenAmount = 0,
			DefringeGreenHueHi = 60,
			DefringeGreenHueLo = 40,
			DefringePurpleAmount = 0,
			DefringePurpleHueHi = 70,
			DefringePurpleHueLo = 30,
			Dehaze = 0,
			EnableCalibration = true,
			EnableColorAdjustments = true,
			EnableDetail = true,
			EnableEffects = true,
			EnableLensCorrections = true,
			EnableSplitToning = true,
			Exposure2012 = -0.45,
			GrainAmount = 0,
			GrainFrequency = 45,
			GrainSize = 40,
			GreenHue = 15,
			GreenSaturation = 9,
			Highlights2012 = -67,
			HueAdjustmentAqua = 23,
			HueAdjustmentBlue = -20,
			HueAdjustmentGreen = -1,
			HueAdjustmentMagenta = 48,
			HueAdjustmentOrange = 14,
			HueAdjustmentPurple = -100,
			HueAdjustmentRed = 20,
			HueAdjustmentYellow = 0,
			IncrementalTemperature = -3,
			IncrementalTint = -2,
			LensManualDistortionAmount = 0,
			LuminanceAdjustmentAqua = -10,
			LuminanceAdjustmentBlue = -17,
			LuminanceAdjustmentGreen = 7,
			LuminanceAdjustmentMagenta = 1,
			LuminanceAdjustmentOrange = -19,
			LuminanceAdjustmentPurple = 20,
			LuminanceAdjustmentRed = -1,
			LuminanceAdjustmentYellow = 7,
			LuminanceNoiseReductionContrast = 0,
			LuminanceNoiseReductionDetail = 50,
			LuminanceSmoothing = 0,
			ParametricDarks = 0,
			ParametricHighlightSplit = 75,
			ParametricHighlights = 0,
			ParametricLights = 0,
			ParametricMidtoneSplit = 60,
			ParametricShadowSplit = 14,
			ParametricShadows = 0,
			PostCropVignetteAmount = 0,
			PostCropVignetteFeather = 50,
			PostCropVignetteHighlightContrast = 0,
			PostCropVignetteMidpoint = 50,
			PostCropVignetteRoundness = 0,
			PostCropVignetteStyle = 1,
			ProcessVersion = "6.7",
			RedHue = 2,
			RedSaturation = 29,
			Saturation = -15,
			SaturationAdjustmentAqua = -14,
			SaturationAdjustmentBlue = -35,
			SaturationAdjustmentGreen = -6,
			SaturationAdjustmentMagenta = -100,
			SaturationAdjustmentOrange = 6,
			SaturationAdjustmentPurple = -100,
			SaturationAdjustmentRed = -100,
			SaturationAdjustmentYellow = -1,
			ShadowTint = 1,
			Shadows2012 = 100,
			SharpenDetail = 25,
			SharpenEdgeMasking = 0,
			SharpenRadius = 1,
			Sharpness = 66,
			SplitToningBalance = 0,
			SplitToningHighlightHue = 201,
			SplitToningHighlightSaturation = 22,
			SplitToningShadowHue = 9,
			SplitToningShadowSaturation = 8,
			ToneCurveName2012 = "Custom",
			ToneCurvePV2012 = {
				0,
				55,
				35,
				58,
				77,
				74,
				131,
				127,
				185,
				188,
				255,
				250,
			},
			ToneCurvePV2012Blue = {
				0,
				0,
				21,
				13,
				80,
				70,
				119,
				122,
				183,
				197,
				255,
				255,
			},
			ToneCurvePV2012Green = {
				0,
				0,
				27,
				11,
				120,
				122,
				181,
				196,
				255,
				255,
			},
			ToneCurvePV2012Red = {
				0,
				0,
				31,
				7,
				72,
				51,
				117,
				123,
				179,
				197,
				255,
				255,
			},
			Vibrance = 30,
			VignetteAmount = 0,
			VignetteMidpoint = 50,
			WhiteBalance = "Custom",
			Whites2012 = -100,
		},
		uuid = "AAC6DBC3-A88A-485C-83C6-D08139C31258",
	},
	version = 0,
}
