其他预设/【232】美食博客调色预设124款/2.LR预设文件/Yummy #13.lrtemplate
s = {
	id = "CCB82276-58F9-4645-B79F-1002CC88977F",
	internalName = "Yummy #13",
	title = "Yummy #13",
	type = "Develop",
	value = {
		settings = {
			AutoLateralCA = 1,
			Blacks2012 = 75,
			BlueHue = 0,
			BlueSaturation = 0,
			CameraProfile = "Adobe Standard",
			ChromaticAberrationB = 0,
			ChromaticAberrationR = 0,
			CircularGradientBasedCorrections = {
				{
					CorrectionActive = true,
					CorrectionAmount = 1,
					CorrectionID = "00FE963D-E6FE-45C4-837F-261193DA3155",
					CorrectionMasks = {
						{
							Angle = 0,
							Bottom = 0.891137,
							Feather = 50,
							Flipped = false,
							Left = 0.170035,
							MaskID = "BB2E5169-D431-4E87-B3B9-BBB2FE1D4F77",
							MaskValue = 1,
							Midpoint = 50,
							Right = 0.831326,
							Roundness = 0,
							Top = 0.164339,
							Version = 2,
							What = "Mask/CircularGradient",
						},
					},
					CorrectionReferenceX = 0.50068,
					CorrectionReferenceY = 0.527738,
					LocalBrightness = 0,
					LocalClarity = 0,
					LocalClarity2012 = -0.275254,
					LocalContrast = 0,
					LocalContrast2012 = 0.15198,
					LocalDefringe = 0,
					LocalExposure = 0,
					LocalExposure2012 = 0,
					LocalHighlights2012 = 0,
					LocalLuminanceNoise = 0,
					LocalMoire = 0,
					LocalSaturation = 0,
					LocalShadows2012 = 0.003072,
					LocalSharpness = 0,
					LocalTemperature = 0.049908,
					LocalTint = 0,
					LocalToningHue = 333.547,
					LocalToningSaturation = 0,
					What = "Correction",
				},
			},
			Clarity2012 = 57,
			ColorNoiseReduction = 24,
			ColorNoiseReductionDetail = 50,
			ColorNoiseReductionSmoothness = 50,
			Contrast2012 = 18,
			ConvertToGrayscale = false,
			CropConstrainToWarp = 0,
			Defringe = 0,
			DefringeGreenAmount = 0,
			DefringeGreenHueHi = 60,
			DefringeGreenHueLo = 40,
			DefringePurpleAmount = 0,
			DefringePurpleHueHi = 70,
			DefringePurpleHueLo = 30,
			EnableCalibration = true,
			EnableCircularGradientBasedCorrections = true,
			EnableColorAdjustments = true,
			EnableDetail = true,
			EnableEffects = true,
			EnableGradientBasedCorrections = true,
			EnableLensCorrections = true,
			EnableSplitToning = true,
			Exposure2012 = 0.5,
			GradientBasedCorrections = {
				{
					CorrectionActive = true,
					CorrectionAmount = 1,
					CorrectionID = "8F7908EF-39F8-4F98-AC2C-B4D98E8CF5ED",
					CorrectionMasks = {
						{
							FullX = 1.11664,
							FullY = 1.01911,
							MaskID = "EC2D02C0-277F-4737-B774-FD28465C5A11",
							MaskValue = 1,
							What = "Mask/Gradient",
							ZeroX = 1.11664,
							ZeroY = 1.02293,
						},
					},
					CorrectionReferenceX = 1.11664,
					CorrectionReferenceY = 1.02102,
					LocalBrightness = 0,
					LocalClarity = 0,
					LocalClarity2012 = 0,
					LocalContrast = 0,
					LocalContrast2012 = 0,
					LocalDefringe = 0,
					LocalExposure = 0,
					LocalExposure2012 = 0.008224,
					LocalHighlights2012 = 0,
					LocalLuminanceNoise = 0,
					LocalMoire = 0,
					LocalSaturation = 0,
					LocalShadows2012 = 0,
					LocalSharpness = 0,
					LocalTemperature = 0,
					LocalTint = 0,
					LocalToningHue = 240,
					LocalToningSaturation = 0,
					What = "Correction",
				},
				{
					CorrectionActive = true,
					CorrectionAmount = 1,
					CorrectionID = "711C3F0C-B4D1-489E-B750-417ACE5FE3A8",
					CorrectionMasks = {
						{
							FullX = 0.502997,
							FullY = -0.028824,
							MaskID = "D50F9B66-85FD-4C9B-B027-EA5C67471F25",
							MaskValue = 1,
							What = "Mask/Gradient",
							ZeroX = 0.502997,
							ZeroY = 0.731662,
						},
					},
					CorrectionReferenceX = 0.502997,
					CorrectionReferenceY = 0.351419,
					LocalBrightness = 0,
					LocalClarity = 0,
					LocalClarity2012 = 0.155432,
					LocalContrast = 0,
					LocalContrast2012 = 0,
					LocalDefringe = 0,
					LocalExposure = 0,
					LocalExposure2012 = -0.127998,
					LocalHighlights2012 = 0,
					LocalLuminanceNoise = 0,
					LocalMoire = 0,
					LocalSaturation = 0,
					LocalShadows2012 = 0,
					LocalSharpness = 0,
					LocalTemperature = -0.437227,
					LocalTint = 0,
					LocalToningHue = 240,
					LocalToningSaturation = 0,
					What = "Correction",
				},
			},
			GrainAmount = 0,
			GrainFrequency = 50,
			GrainSize = 25,
			GreenHue = 0,
			GreenSaturation = 0,
			Highlights2012 = -75,
			HueAdjustmentAqua = 0,
			HueAdjustmentBlue = 0,
			HueAdjustmentGreen = 0,
			HueAdjustmentMagenta = 0,
			HueAdjustmentOrange = 0,
			HueAdjustmentPurple = 0,
			HueAdjustmentRed = 0,
			HueAdjustmentYellow = 0,
			LensManualDistortionAmount = 0,
			LensProfileEnable = 0,
			LensProfileSetup = "LensDefaults",
			LuminanceAdjustmentAqua = -5,
			LuminanceAdjustmentBlue = -16,
			LuminanceAdjustmentGreen = 0,
			LuminanceAdjustmentMagenta = 0,
			LuminanceAdjustmentOrange = 0,
			LuminanceAdjustmentPurple = 0,
			LuminanceAdjustmentRed = 0,
			LuminanceAdjustmentYellow = 0,
			LuminanceNoiseReductionContrast = 0,
			LuminanceNoiseReductionDetail = 53,
			LuminanceSmoothing = 67,
			ParametricDarks = 0,
			ParametricHighlightSplit = 75,
			ParametricHighlights = 0,
			ParametricLights = 0,
			ParametricMidtoneSplit = 50,
			ParametricShadowSplit = 25,
			ParametricShadows = 0,
			PerspectiveAspect = 0,
			PerspectiveHorizontal = 0,
			PerspectiveRotate = 0,
			PerspectiveScale = 100,
			PerspectiveUpright = 0,
			PerspectiveVertical = 0,
			PostCropVignetteAmount = 0,
			PostCropVignetteFeather = 50,
			PostCropVignetteHighlightContrast = 0,
			PostCropVignetteMidpoint = 50,
			PostCropVignetteRoundness = 0,
			PostCropVignetteStyle = 1,
			ProcessVersion = "6.7",
			RedHue = 0,
			RedSaturation = 0,
			Saturation = 0,
			SaturationAdjustmentAqua = 0,
			SaturationAdjustmentBlue = 0,
			SaturationAdjustmentGreen = 0,
			SaturationAdjustmentMagenta = 0,
			SaturationAdjustmentOrange = 14,
			SaturationAdjustmentPurple = 0,
			SaturationAdjustmentRed = 18,
			SaturationAdjustmentYellow = 0,
			ShadowTint = 0,
			Shadows2012 = 70,
			SharpenDetail = 10,
			SharpenEdgeMasking = 30,
			SharpenRadius = 1.5,
			Sharpness = 70,
			SplitToningBalance = 0,
			SplitToningHighlightHue = 55,
			SplitToningHighlightSaturation = 28,
			SplitToningShadowHue = 215,
			SplitToningShadowSaturation = 12,
			Temperature = 5178,
			Tint = 3,
			ToneCurveName2012 = "Custom",
			ToneCurvePV2012 = {
				0,
				0,
				35,
				28,
				125,
				129,
				222,
				231,
				255,
				255,
			},
			ToneCurvePV2012Blue = {
				0,
				0,
				255,
				255,
			},
			ToneCurvePV2012Green = {
				0,
				0,
				255,
				255,
			},
			ToneCurvePV2012Red = {
				0,
				0,
				255,
				255,
			},
			Vibrance = -4,
			VignetteAmount = -74,
			VignetteMidpoint = 9,
			WhiteBalance = "Custom",
			Whites2012 = -70,
			orientation = "AB",
		},
		uuid = "AB320E0E-9C51-4862-A794-13D356AF8524",
	},
	version = 0,
}
