其他预设/【231】淡彩糖果色预设10款/3.XMP格式(PS)预设/淡彩糖果色-10.xmp
<x:xmpmeta xmlns:x="adobe:ns:meta/" x:xmptk="Adobe XMP Core 5.6-c140 79.160451, 2017/05/06-01:08:21        ">
 <rdf:RDF xmlns:rdf="http://www.w3.org/1999/02/22-rdf-syntax-ns#">
  <rdf:Description rdf:about=""
    xmlns:crs="http://ns.adobe.com/camera-raw-settings/1.0/"
   crs:PresetType="Normal"
   crs:Cluster=""
   crs:UUID="7122964C8D3941C4A69394A20A82F968"
   crs:SupportsAmount="False"
   crs:SupportsColor="True"
   crs:SupportsMonochrome="True"
   crs:SupportsHighDynamicRange="True"
   crs:SupportsNormalDynamicRange="True"
   crs:SupportsSceneReferred="True"
   crs:SupportsOutputReferred="True"
   crs:CameraModelRestriction=""
   crs:Copyright=""
   crs:ContactInfo=""
   crs:Version="10.5"
   crs:ProcessVersion="10.0"
   crs:WhiteBalance="As Shot"
   crs:IncrementalTemperature="0"
   crs:IncrementalTint="0"
   crs:Saturation="0"
   crs:Sharpness="0"
   crs:LuminanceSmoothing="0"
   crs:ColorNoiseReduction="0"
   crs:ShadowTint="0"
   crs:RedHue="+82"
   crs:RedSaturation="0"
   crs:GreenHue="+25"
   crs:GreenSaturation="+75"
   crs:BlueHue="-100"
   crs:BlueSaturation="0"
   crs:Vibrance="0"
   crs:HueAdjustmentRed="+27"
   crs:HueAdjustmentOrange="+27"
   crs:HueAdjustmentYellow="-1"
   crs:HueAdjustmentGreen="+1"
   crs:HueAdjustmentAqua="-26"
   crs:HueAdjustmentBlue="-27"
   crs:HueAdjustmentPurple="0"
   crs:HueAdjustmentMagenta="+1"
   crs:SaturationAdjustmentRed="-22"
   crs:SaturationAdjustmentOrange="-29"
   crs:SaturationAdjustmentYellow="-12"
   crs:SaturationAdjustmentGreen="+1"
   crs:SaturationAdjustmentAqua="-69"
   crs:SaturationAdjustmentBlue="-70"
   crs:SaturationAdjustmentPurple="+1"
   crs:SaturationAdjustmentMagenta="+1"
   crs:LuminanceAdjustmentRed="+26"
   crs:LuminanceAdjustmentOrange="+26"
   crs:LuminanceAdjustmentYellow="+13"
   crs:LuminanceAdjustmentGreen="+13"
   crs:LuminanceAdjustmentAqua="-1"
   crs:LuminanceAdjustmentBlue="-3"
   crs:LuminanceAdjustmentPurple="+12"
   crs:LuminanceAdjustmentMagenta="+13"
   crs:SplitToningShadowHue="0"
   crs:SplitToningShadowSaturation="0"
   crs:SplitToningHighlightHue="0"
   crs:SplitToningHighlightSaturation="0"
   crs:SplitToningBalance="0"
   crs:ParametricShadows="0"
   crs:ParametricDarks="0"
   crs:ParametricLights="0"
   crs:ParametricHighlights="0"
   crs:ParametricShadowSplit="25"
   crs:ParametricMidtoneSplit="50"
   crs:ParametricHighlightSplit="75"
   crs:SharpenRadius="+1.0"
   crs:SharpenDetail="25"
   crs:SharpenEdgeMasking="0"
   crs:PostCropVignetteAmount="0"
   crs:GrainAmount="0"
   crs:Exposure2012="+0.15"
   crs:Contrast2012="0"
   crs:Highlights2012="-7"
   crs:Shadows2012="+48"
   crs:Whites2012="-70"
   crs:Blacks2012="+70"
   crs:Clarity2012="0"
   crs:Dehaze="0"
   crs:OverrideLookVignette="False"
   crs:ToneCurveName2012="Custom"
   crs:HasSettings="True">
   <crs:Name>
    <rdf:Alt>
     <rdf:li xml:lang="x-default">淡彩糖果色[素锦印象]-10</rdf:li>
    </rdf:Alt>
   </crs:Name>
   <crs:ShortName>
    <rdf:Alt>
     <rdf:li xml:lang="x-default"/>
    </rdf:Alt>
   </crs:ShortName>
   <crs:SortName>
    <rdf:Alt>
     <rdf:li xml:lang="x-default"/>
    </rdf:Alt>
   </crs:SortName>
   <crs:Group>
    <rdf:Alt>
     <rdf:li xml:lang="x-default">淡彩糖果色[sujinyinxiang.taobao.com]</rdf:li>
    </rdf:Alt>
   </crs:Group>
   <crs:Description>
    <rdf:Alt>
     <rdf:li xml:lang="x-default"/>
    </rdf:Alt>
   </crs:Description>
   <crs:ToneCurvePV2012>
    <rdf:Seq>
     <rdf:li>0, 1</rdf:li>
     <rdf:li>51, 46</rdf:li>
     <rdf:li>102, 113</rdf:li>
     <rdf:li>153, 166</rdf:li>
     <rdf:li>204, 206</rdf:li>
     <rdf:li>255, 235</rdf:li>
    </rdf:Seq>
   </crs:ToneCurvePV2012>
   <crs:ToneCurvePV2012Red>
    <rdf:Seq>
     <rdf:li>0, 0</rdf:li>
     <rdf:li>51, 51</rdf:li>
     <rdf:li>102, 102</rdf:li>
     <rdf:li>153, 154</rdf:li>
     <rdf:li>204, 205</rdf:li>
     <rdf:li>255, 253</rdf:li>
    </rdf:Seq>
   </crs:ToneCurvePV2012Red>
   <crs:ToneCurvePV2012Green>
    <rdf:Seq>
     <rdf:li>0, 0</rdf:li>
     <rdf:li>51, 52</rdf:li>
     <rdf:li>102, 103</rdf:li>
     <rdf:li>153, 154</rdf:li>
     <rdf:li>204, 204</rdf:li>
     <rdf:li>255, 253</rdf:li>
    </rdf:Seq>
   </crs:ToneCurvePV2012Green>
   <crs:ToneCurvePV2012Blue>
    <rdf:Seq>
     <rdf:li>0, 0</rdf:li>
     <rdf:li>51, 49</rdf:li>
     <rdf:li>102, 98</rdf:li>
     <rdf:li>153, 150</rdf:li>
     <rdf:li>204, 202</rdf:li>
     <rdf:li>255, 253</rdf:li>
    </rdf:Seq>
   </crs:ToneCurvePV2012Blue>
  </rdf:Description>
 </rdf:RDF>
</x:xmpmeta>
