其他预设/【237】莫兰迪灰色调LR预设合集/Sparkling morning/Camera Raw/Sparkling morning no.2.xmp
<x:xmpmeta xmlns:x="adobe:ns:meta/" x:xmptk="Adobe XMP Core 5.6-c140 79.160451, 2017/05/06-01:08:21        ">
 <rdf:RDF xmlns:rdf="http://www.w3.org/1999/02/22-rdf-syntax-ns#">
  <rdf:Description rdf:about=""
    xmlns:crs="http://ns.adobe.com/camera-raw-settings/1.0/"
   crs:Version="10.3"
   crs:ProcessVersion="10.0"
   crs:WhiteBalance="As Shot"
   crs:IncrementalTemperature="0"
   crs:IncrementalTint="0"
   crs:Saturation="-15"
   crs:Sharpness="52"
   crs:LuminanceSmoothing="14"
   crs:ColorNoiseReduction="73"
   crs:VignetteAmount="0"
   crs:ShadowTint="+21"
   crs:RedHue="+39"
   crs:RedSaturation="-62"
   crs:GreenHue="+38"
   crs:GreenSaturation="+67"
   crs:BlueHue="-56"
   crs:BlueSaturation="-95"
   crs:Vibrance="+86"
   crs:HueAdjustmentRed="+9"
   crs:HueAdjustmentOrange="+9"
   crs:HueAdjustmentYellow="+39"
   crs:HueAdjustmentGreen="+18"
   crs:HueAdjustmentAqua="+16"
   crs:HueAdjustmentBlue="+37"
   crs:HueAdjustmentPurple="-42"
   crs:HueAdjustmentMagenta="0"
   crs:SaturationAdjustmentRed="0"
   crs:SaturationAdjustmentOrange="-7"
   crs:SaturationAdjustmentYellow="-28"
   crs:SaturationAdjustmentGreen="-14"
   crs:SaturationAdjustmentAqua="0"
   crs:SaturationAdjustmentBlue="+6"
   crs:SaturationAdjustmentPurple="0"
   crs:SaturationAdjustmentMagenta="0"
   crs:LuminanceAdjustmentRed="0"
   crs:LuminanceAdjustmentOrange="+5"
   crs:LuminanceAdjustmentYellow="0"
   crs:LuminanceAdjustmentGreen="0"
   crs:LuminanceAdjustmentAqua="0"
   crs:LuminanceAdjustmentBlue="+4"
   crs:LuminanceAdjustmentPurple="0"
   crs:LuminanceAdjustmentMagenta="0"
   crs:SplitToningShadowHue="241"
   crs:SplitToningShadowSaturation="35"
   crs:SplitToningHighlightHue="23"
   crs:SplitToningHighlightSaturation="6"
   crs:SplitToningBalance="+94"
   crs:ParametricShadows="0"
   crs:ParametricDarks="+4"
   crs:ParametricLights="-9"
   crs:ParametricHighlights="0"
   crs:ParametricShadowSplit="25"
   crs:ParametricMidtoneSplit="50"
   crs:ParametricHighlightSplit="75"
   crs:SharpenRadius="+0.8"
   crs:SharpenDetail="10"
   crs:SharpenEdgeMasking="40"
   crs:PostCropVignetteAmount="0"
   crs:GrainAmount="0"
   crs:LuminanceNoiseReductionDetail="95"
   crs:ColorNoiseReductionDetail="50"
   crs:LuminanceNoiseReductionContrast="73"
   crs:ColorNoiseReductionSmoothness="50"
   crs:LensProfileEnable="0"
   crs:LensManualDistortionAmount="0"
   crs:PerspectiveVertical="0"
   crs:PerspectiveHorizontal="0"
   crs:PerspectiveRotate="0.0"
   crs:PerspectiveScale="100"
   crs:PerspectiveAspect="0"
   crs:PerspectiveUpright="0"
   crs:PerspectiveX="0.00"
   crs:PerspectiveY="0.00"
   crs:AutoLateralCA="1"
   crs:Exposure2012="+0.35"
   crs:Contrast2012="+28"
   crs:Highlights2012="-50"
   crs:Shadows2012="+92"
   crs:Whites2012="-7"
   crs:Blacks2012="+47"
   crs:Clarity2012="+23"
   crs:DefringePurpleAmount="8"
   crs:DefringePurpleHueLo="30"
   crs:DefringePurpleHueHi="70"
   crs:DefringeGreenAmount="0"
   crs:DefringeGreenHueLo="40"
   crs:DefringeGreenHueHi="60"
   crs:Dehaze="0"
   crs:ConvertToGrayscale="False"
   crs:OverrideLookVignette="False"
   crs:ToneCurveName2012="Custom"
   crs:CameraProfile="Embedded"
   crs:CameraProfileDigest="54650A341B5B5CCAE8442D0B43A92BCE"
   crs:LensProfileSetup="LensDefaults"
   crs:HasSettings="True">
   <crs:ToneCurvePV2012>
    <rdf:Seq>
     <rdf:li>0, 40</rdf:li>
     <rdf:li>63, 63</rdf:li>
     <rdf:li>190, 190</rdf:li>
     <rdf:li>255, 255</rdf:li>
    </rdf:Seq>
   </crs:ToneCurvePV2012>
   <crs:ToneCurvePV2012Red>
    <rdf:Seq>
     <rdf:li>0, 0</rdf:li>
     <rdf:li>57, 60</rdf:li>
     <rdf:li>200, 193</rdf:li>
     <rdf:li>255, 255</rdf:li>
    </rdf:Seq>
   </crs:ToneCurvePV2012Red>
   <crs:ToneCurvePV2012Green>
    <rdf:Seq>
     <rdf:li>0, 0</rdf:li>
     <rdf:li>255, 255</rdf:li>
    </rdf:Seq>
   </crs:ToneCurvePV2012Green>
   <crs:ToneCurvePV2012Blue>
    <rdf:Seq>
     <rdf:li>0, 0</rdf:li>
     <rdf:li>190, 186</rdf:li>
     <rdf:li>255, 242</rdf:li>
    </rdf:Seq>
   </crs:ToneCurvePV2012Blue>
   <crs:Look
    crs:Name=""/>
  </rdf:Description>
 </rdf:RDF>
</x:xmpmeta>
