其他预设/【216】唯美清新婚礼预设10款/3.XMP格式(PS)预设/唯美婚礼胶片-4  室内(1).xmp
<x:xmpmeta xmlns:x="adobe:ns:meta/" x:xmptk="Adobe XMP Core 5.6-c140 79.160451, 2017/05/06-01:08:21        ">
 <rdf:RDF xmlns:rdf="http://www.w3.org/1999/02/22-rdf-syntax-ns#">
  <rdf:Description rdf:about=""
    xmlns:crs="http://ns.adobe.com/camera-raw-settings/1.0/"
   crs:PresetType="Normal"
   crs:Cluster=""
   crs:UUID="F307395A4B2DFB4388FBF7170EA4717E"
   crs:SupportsAmount="False"
   crs:SupportsColor="True"
   crs:SupportsMonochrome="True"
   crs:SupportsHighDynamicRange="True"
   crs:SupportsNormalDynamicRange="True"
   crs:SupportsSceneReferred="True"
   crs:SupportsOutputReferred="True"
   crs:CameraModelRestriction=""
   crs:Copyright=""
   crs:ContactInfo=""
   crs:Version="10.5"
   crs:ProcessVersion="6.7"
   crs:WhiteBalance="As Shot"
   crs:Saturation="-6"
   crs:Sharpness="35"
   crs:LuminanceSmoothing="17"
   crs:ColorNoiseReduction="25"
   crs:VignetteAmount="0"
   crs:ShadowTint="-3"
   crs:RedHue="+14"
   crs:RedSaturation="-10"
   crs:GreenHue="+75"
   crs:GreenSaturation="-25"
   crs:BlueHue="0"
   crs:BlueSaturation="0"
   crs:Vibrance="-6"
   crs:HueAdjustmentRed="+20"
   crs:HueAdjustmentOrange="+10"
   crs:HueAdjustmentYellow="+5"
   crs:HueAdjustmentGreen="+20"
   crs:HueAdjustmentAqua="-10"
   crs:HueAdjustmentBlue="-10"
   crs:HueAdjustmentPurple="0"
   crs:HueAdjustmentMagenta="0"
   crs:SaturationAdjustmentRed="0"
   crs:SaturationAdjustmentOrange="+10"
   crs:SaturationAdjustmentYellow="-9"
   crs:SaturationAdjustmentGreen="-50"
   crs:SaturationAdjustmentAqua="+2"
   crs:SaturationAdjustmentBlue="+8"
   crs:SaturationAdjustmentPurple="0"
   crs:SaturationAdjustmentMagenta="0"
   crs:LuminanceAdjustmentRed="+4"
   crs:LuminanceAdjustmentOrange="+10"
   crs:LuminanceAdjustmentYellow="+5"
   crs:LuminanceAdjustmentGreen="-5"
   crs:LuminanceAdjustmentAqua="+2"
   crs:LuminanceAdjustmentBlue="+10"
   crs:LuminanceAdjustmentPurple="+12"
   crs:LuminanceAdjustmentMagenta="+12"
   crs:SplitToningShadowHue="20"
   crs:SplitToningShadowSaturation="2"
   crs:SplitToningHighlightHue="23"
   crs:SplitToningHighlightSaturation="2"
   crs:SplitToningBalance="0"
   crs:ParametricShadows="-55"
   crs:ParametricDarks="+25"
   crs:ParametricLights="-14"
   crs:ParametricHighlights="-25"
   crs:ParametricShadowSplit="25"
   crs:ParametricMidtoneSplit="50"
   crs:ParametricHighlightSplit="75"
   crs:SharpenRadius="+1.0"
   crs:SharpenDetail="25"
   crs:SharpenEdgeMasking="0"
   crs:PostCropVignetteAmount="0"
   crs:GrainAmount="8"
   crs:GrainSize="25"
   crs:GrainFrequency="50"
   crs:LuminanceNoiseReductionDetail="50"
   crs:ColorNoiseReductionDetail="50"
   crs:LuminanceNoiseReductionContrast="0"
   crs:ColorNoiseReductionSmoothness="50"
   crs:LensProfileEnable="1"
   crs:LensManualDistortionAmount="0"
   crs:PerspectiveVertical="0"
   crs:PerspectiveHorizontal="0"
   crs:PerspectiveRotate="0.0"
   crs:PerspectiveScale="100"
   crs:PerspectiveAspect="0"
   crs:PerspectiveUpright="0"
   crs:PerspectiveX="0.00"
   crs:PerspectiveY="0.00"
   crs:AutoLateralCA="1"
   crs:Exposure2012="+1.00"
   crs:Contrast2012="+72"
   crs:Highlights2012="-65"
   crs:Shadows2012="+30"
   crs:Whites2012="-63"
   crs:Blacks2012="-25"
   crs:Clarity2012="0"
   crs:DefringePurpleAmount="0"
   crs:DefringePurpleHueLo="30"
   crs:DefringePurpleHueHi="70"
   crs:DefringeGreenAmount="0"
   crs:DefringeGreenHueLo="40"
   crs:DefringeGreenHueHi="60"
   crs:Dehaze="0"
   crs:ConvertToGrayscale="False"
   crs:OverrideLookVignette="False"
   crs:ToneCurveName2012="Linear"
   crs:CameraProfile="Adobe Standard"
   crs:LensProfileSetup="Custom"
   crs:LensProfileName="Adobe (SIGMA 35mm F1.4 DG HSM A012, Canon)"
   crs:LensProfileFilename="Canon (SIGMA 35mm F1.4 DG HSM A012) - RAW.lcp"
   crs:LensProfileDigest="C7D070A489662E2416331398D0E7E2E1"
   crs:LensProfileDistortionScale="100"
   crs:LensProfileChromaticAberrationScale="100"
   crs:LensProfileVignettingScale="100"
   crs:HasSettings="True">
   <crs:Name>
    <rdf:Alt>
     <rdf:li xml:lang="x-default">唯美婚礼胶片[素锦印象]-4  室内</rdf:li>
    </rdf:Alt>
   </crs:Name>
   <crs:ShortName>
    <rdf:Alt>
     <rdf:li xml:lang="x-default"/>
    </rdf:Alt>
   </crs:ShortName>
   <crs:SortName>
    <rdf:Alt>
     <rdf:li xml:lang="x-default"/>
    </rdf:Alt>
   </crs:SortName>
   <crs:Group>
    <rdf:Alt>
     <rdf:li xml:lang="x-default">唯美清新婚礼预设[sujinyinxiang.taobao.com]</rdf:li>
    </rdf:Alt>
   </crs:Group>
   <crs:Description>
    <rdf:Alt>
     <rdf:li xml:lang="x-default"/>
    </rdf:Alt>
   </crs:Description>
   <crs:ToneCurvePV2012>
    <rdf:Seq>
     <rdf:li>0, 0</rdf:li>
     <rdf:li>255, 255</rdf:li>
    </rdf:Seq>
   </crs:ToneCurvePV2012>
   <crs:ToneCurvePV2012Red>
    <rdf:Seq>
     <rdf:li>0, 0</rdf:li>
     <rdf:li>255, 255</rdf:li>
    </rdf:Seq>
   </crs:ToneCurvePV2012Red>
   <crs:ToneCurvePV2012Green>
    <rdf:Seq>
     <rdf:li>0, 0</rdf:li>
     <rdf:li>255, 255</rdf:li>
    </rdf:Seq>
   </crs:ToneCurvePV2012Green>
   <crs:ToneCurvePV2012Blue>
    <rdf:Seq>
     <rdf:li>0, 0</rdf:li>
     <rdf:li>255, 255</rdf:li>
    </rdf:Seq>
   </crs:ToneCurvePV2012Blue>
   <crs:Look
    crs:Name=""/>
  </rdf:Description>
 </rdf:RDF>
</x:xmpmeta>
