其他预设/【236】赛博朋克风调色预设/【后期菌】视频调色预设/CUBE/Abandoned 06_S.cube
# LUT by SparkleStock. Enhanced with VOXCOLOR algorithms.
LUT_3D_SIZE 8
DOMAIN_MIN 0.000000 0.000000 0.000000
DOMAIN_MAX 0.903226 0.903226 0.903226
0.050831 0.105572 0.003910
0.070886 0.113392 0.023965
0.101283 0.122221 0.049443
0.195630 0.140636 0.081229
0.414972 0.172169 0.127266
0.541608 0.219973 0.182007
0.635323 0.285813 0.262984
0.715795 0.382682 0.357834
0.062561 0.113644 0.019803
0.095941 0.125912 0.052629
0.165802 0.148237 0.084886
0.385563 0.184803 0.122193
0.518521 0.219729 0.163409
0.630917 0.287425 0.235585
0.721288 0.385709 0.336673
0.783666 0.495155 0.432948
0.063066 0.122726 0.029389
0.108379 0.138903 0.076342
0.278270 0.201574 0.119711
0.453527 0.265547 0.156305
0.561048 0.325170 0.199422
0.665053 0.398664 0.263883
0.744541 0.473163 0.352260
0.779235 0.555531 0.413633
0.075048 0.146186 0.065588
0.102699 0.158344 0.083295
0.249182 0.242424 0.139908
0.462291 0.366183 0.190755
0.567534 0.432756 0.223549
0.658665 0.481207 0.267667
0.732570 0.538125 0.344973
0.775972 0.614023 0.432569
0.097878 0.195882 0.118689
0.134025 0.228436 0.138061
0.211917 0.322391 0.202571
0.399742 0.451399 0.248845
0.520930 0.516760 0.275479
0.616131 0.562472 0.313204
0.698983 0.619280 0.387715
0.748792 0.674094 0.470567
0.136726 0.315959 0.246839
0.214399 0.364141 0.256559
0.360174 0.460196 0.331762
0.501726 0.554339 0.381734
0.599660 0.611012 0.408751
0.676539 0.658055 0.446769
0.741969 0.694308 0.493320
0.788133 0.726577 0.538393
0.182638 0.423296 0.406773
0.336884 0.482733 0.384338
0.506669 0.582726 0.443282
0.604763 0.640791 0.489812
0.680832 0.683493 0.529108
0.744410 0.719074 0.562924
0.795636 0.746860 0.586889
0.835261 0.774246 0.602151
0.263614 0.529877 0.509570
0.476699 0.602553 0.490512
0.598973 0.662417 0.518249
0.676877 0.706119 0.554294
0.738323 0.737363 0.584871
0.792356 0.765299 0.607192
0.843480 0.794069 0.633598
0.874549 0.819637 0.666636
0.054993 0.105824 0.015893
0.070902 0.113408 0.028396
0.099107 0.118059 0.058492
0.214045 0.138114 0.101157
0.428720 0.152236 0.151988
0.552410 0.184278 0.207820
0.648498 0.260559 0.293914
0.732204 0.374508 0.394449
0.059139 0.110711 0.021048
0.098999 0.125500 0.064723
0.188786 0.147527 0.111406
0.389648 0.172363 0.152808
0.524939 0.197595 0.198303
0.642089 0.247178 0.261464
0.731254 0.336444 0.333357
0.792680 0.459483 0.431488
0.064042 0.130074 0.042128
0.084384 0.138928 0.073718
0.333080 0.205517 0.163739
0.466667 0.254517 0.207426
0.572233 0.300864 0.242934
0.671411 0.352243 0.286852
0.764229 0.423015 0.356628
0.824731 0.516704 0.444559
0.079007 0.148050 0.083393
0.093631 0.166431 0.113162
0.226747 0.252871 0.180355
0.475653 0.385600 0.239351
0.573848 0.431263 0.269859
0.668251 0.462883 0.295409
0.755624 0.510988 0.349407
0.819221 0.592140 0.439748
0.105446 0.218085 0.163405
0.120089 0.257262 0.221763
0.208067 0.339693 0.224073
0.398488 0.460626 0.276589
0.534127 0.525193 0.285922
0.633016 0.560040 0.318739
0.720151 0.605087 0.377165
0.775440 0.661156 0.451652
0.141898 0.345185 0.321391
0.162656 0.372492 0.367132
0.333587 0.466867 0.366341
0.504293 0.573494 0.380360
0.594636 0.623513 0.396867
0.683902 0.659052 0.429316
0.753030 0.695254 0.481440
0.811374 0.725779 0.510701
0.194214 0.443099 0.450891
0.249421 0.474800 0.467574
0.481152 0.576446 0.475912
0.623161 0.656669 0.514029
0.683886 0.692802 0.526538
0.755191 0.730102 0.565313
0.805698 0.760030 0.592039
0.844971 0.777777 0.571592
0.273164 0.536273 0.539956
0.431502 0.604602 0.555715
0.606718 0.672766 0.563344
0.688287 0.716365 0.576821
0.754280 0.749574 0.607356
0.802113 0.777546 0.629921
0.852440 0.803739 0.657922
0.880831 0.831464 0.682079
0.059156 0.106076 0.021064
0.074763 0.113140 0.040614
0.105259 0.116928 0.077514
0.230145 0.129577 0.136836
0.430234 0.145551 0.196521
0.570691 0.175701 0.263704
0.671649 0.247665 0.347504
0.745309 0.373702 0.433969
0.062594 0.117335 0.040175
0.083954 0.122062 0.069942
0.193491 0.147586 0.150987
0.397415 0.167256 0.219025
0.527679 0.189436 0.268715
0.644752 0.234272 0.321234
0.741762 0.322705 0.383395
0.798574 0.432271 0.452528
0.064954 0.131929 0.060600
0.085545 0.144892 0.099831
0.291664 0.200622 0.216070
0.459614 0.250335 0.281352
0.569390 0.293976 0.319833
0.673355 0.345067 0.350958
0.760937 0.397576 0.388644
0.827817 0.497937 0.465328
0.080374 0.157131 0.112257
0.096124 0.188294 0.161781
0.179584 0.255408 0.240159
0.489881 0.371847 0.331891
0.595580 0.422532 0.354096
0.684919 0.454162 0.371793
0.775880 0.490345 0.402665
0.836898 0.560882 0.460167
0.097874 0.233066 0.216909
0.125196 0.287614 0.300186
0.169439 0.358095 0.339427
0.392604 0.461006 0.355467
0.583435 0.538234 0.367387
0.674048 0.563203 0.385647
0.760006 0.591674 0.411958
0.818834 0.629193 0.446207
0.142907 0.361492 0.370700
0.168137 0.396330 0.419305
0.221873 0.442723 0.457334
0.469454 0.574630 0.437852
0.602095 0.635065 0.431092
0.686019 0.662639 0.450166
0.761389 0.685519 0.466285
0.830411 0.700618 0.466908
0.194918 0.454382 0.488734
0.240399 0.491531 0.520907
0.370525 0.557735 0.556516
0.617593 0.662735 0.561953
0.699699 0.705673 0.552596
0.759088 0.738649 0.575329
0.800421 0.759503 0.544180
0.859111 0.777914 0.526989
0.291086 0.551096 0.572534
0.402231 0.607402 0.605262
0.588574 0.682258 0.622384
0.696914 0.723327 0.617724
0.773539 0.763562 0.634620
0.815019 0.790034 0.653319
0.846634 0.818916 0.637451
0.885703 0.841557 0.633538
0.062561 0.110239 0.041371
0.074796 0.113595 0.055022
0.103651 0.115060 0.086876
0.227374 0.128149 0.175892
0.431186 0.145877 0.251575
0.574495 0.177190 0.322745
0.676397 0.254447 0.398615
0.750282 0.368319 0.463622
0.067228 0.122221 0.069295
0.082704 0.130372 0.098271
0.179388 0.145713 0.195232
0.402737 0.168627 0.284159
0.534336 0.189489 0.349216
0.649652 0.233917 0.395819
0.746682 0.335865 0.450859
0.800641 0.449902 0.503659
0.072049 0.135872 0.097023
0.081620 0.150249 0.157877
0.179679 0.194695 0.268188
0.454695 0.246085 0.354932
0.575726 0.294013 0.404092
0.676918 0.348771 0.431879
0.766439 0.408772 0.465415
0.828662 0.497030 0.514586
0.083161 0.175237 0.185075
0.096062 0.203719 0.239903
0.177705 0.277792 0.341558
0.466225 0.358963 0.413878
0.593416 0.418581 0.435637
0.688263 0.450880 0.450388
0.777135 0.482636 0.469904
0.849691 0.539374 0.509754
0.111878 0.268200 0.313216
0.133184 0.315391 0.373088
0.180189 0.383384 0.420796
0.321517 0.449632 0.450072
0.612586 0.541101 0.473402
0.700901 0.561331 0.469888
0.781228 0.578954 0.478358
0.859879 0.604692 0.499516
0.152240 0.383834 0.432756
0.179004 0.418011 0.477124
0.228067 0.465738 0.508866
0.335711 0.531974 0.527028
0.612451 0.646376 0.527595
0.708602 0.671669 0.507065
0.771149 0.679208 0.492747
0.852663 0.693389 0.499403
0.200968 0.466771 0.520120
0.253729 0.504766 0.554900
0.349767 0.556662 0.592218
0.514128 0.646523 0.633464
0.696319 0.716603 0.609068
0.757670 0.751308 0.586354
0.803308 0.765677 0.552775
0.868817 0.777085 0.539181
0.301885 0.555156 0.594672
0.407669 0.614664 0.642056
0.541782 0.675292 0.669439
0.693782 0.734697 0.689508
0.782414 0.769293 0.665517
0.822196 0.803931 0.663710
0.845702 0.830924 0.639764
0.891662 0.856259 0.634065
0.067480 0.118311 0.076436
0.079902 0.116541 0.096047
0.116041 0.122351 0.134444
0.224078 0.134248 0.199930
0.433245 0.154376 0.288841
0.586193 0.198173 0.377657
0.687668 0.272822 0.443693
0.758069 0.379452 0.503312
0.069502 0.129415 0.106837
0.079393 0.138769 0.157236
0.168408 0.146927 0.234556
0.413595 0.174775 0.345215
0.550939 0.199483 0.414181
0.659240 0.256805 0.466382
0.746209 0.359142 0.505982
0.803592 0.484166 0.558385
0.078332 0.149343 0.174057
0.084040 0.166114 0.236016
0.143779 0.208378 0.343623
0.423270 0.243398 0.425498
0.598127 0.306943 0.481038
0.688389 0.365449 0.509699
0.775532 0.443393 0.548253
0.831889 0.528779 0.582191
0.089553 0.205354 0.285126
0.114421 0.249410 0.349703
0.161644 0.310402 0.420850
0.346027 0.381926 0.498531
0.605783 0.424155 0.520725
0.708589 0.472429 0.539632
0.785682 0.507929 0.560683
0.853788 0.543241 0.577646
0.122962 0.312521 0.395641
0.147672 0.357900 0.441973
0.193567 0.409088 0.489502
0.328878 0.472434 0.538455
0.610938 0.555624 0.580030
0.716512 0.576535 0.567972
0.787476 0.586753 0.567031
0.865013 0.606305 0.584290
0.164308 0.409886 0.488140
0.194428 0.439850 0.522868
0.243610 0.479527 0.561058
0.341506 0.541654 0.594424
0.551483 0.636057 0.635996
0.722517 0.686100 0.600640
0.785029 0.685776 0.570882
0.862990 0.697310 0.577141
0.218069 0.486248 0.563050
0.272947 0.520963 0.588792
0.373775 0.579618 0.629854
0.500427 0.640998 0.664738
0.641011 0.701757 0.693666
0.750317 0.756401 0.645458
0.807986 0.772209 0.607525
0.875661 0.783505 0.599626
0.311137 0.574646 0.622450
0.411093 0.622272 0.656163
0.525213 0.676570 0.691169
0.660621 0.728507 0.714609
0.765069 0.777714 0.728694
0.812718 0.812775 0.693567
0.845922 0.839843 0.672962
0.896127 0.865052 0.675221
0.070381 0.123735 0.140258
0.080390 0.132906 0.174195
0.124402 0.131555 0.213809
0.273070 0.142158 0.265083
0.459032 0.167901 0.343244
0.594107 0.206534 0.412787
0.692554 0.277692 0.477374
0.762589 0.377071 0.537824
0.071813 0.137483 0.192269
0.083723 0.155000 0.272455
0.158019 0.160151 0.315297
0.407069 0.179465 0.381189
0.579804 0.215337 0.451559
0.668606 0.280704 0.500771
0.746013 0.395596 0.545775
0.798069 0.499808 0.591457
0.080293 0.171180 0.288409
0.096337 0.197480 0.341943
0.140695 0.245993 0.408597
0.442501 0.283079 0.497080
0.624846 0.313043 0.526255
0.714994 0.410289 0.570229
0.782278 0.498815 0.603619
0.832825 0.551606 0.633411
0.103806 0.253398 0.387097
0.129682 0.300578 0.431212
0.168606 0.355264 0.483030
0.298139 0.419797 0.557187
0.629692 0.469645 0.605159
0.742030 0.516258 0.611718
0.799255 0.553012 0.635172
0.854304 0.570581 0.648397
0.141719 0.366611 0.473338
0.168973 0.399749 0.509680
0.221277 0.444390 0.554542
0.321929 0.502440 0.605523
0.554704 0.595299 0.663525
0.743601 0.609780 0.653842
0.803880 0.615114 0.653189
0.868125 0.623632 0.667165
0.184656 0.445565 0.549790
0.221010 0.471553 0.572668
0.291572 0.518154 0.608911
0.405245 0.583036 0.652389
0.581429 0.655882 0.698950
0.717962 0.690576 0.708278
0.803175 0.691628 0.675989
0.879350 0.701384 0.678037
0.240280 0.510799 0.600100
0.303897 0.550318 0.624256
0.409289 0.604044 0.663310
0.524825 0.658257 0.697891
0.636153 0.705969 0.727713
0.731473 0.749382 0.722810
0.813787 0.780882 0.685792
0.882690 0.792299 0.682582
0.321435 0.579130 0.645218
0.438094 0.635152 0.684685
0.533896 0.677365 0.707973
0.637990 0.720260 0.737738
0.740639 0.764121 0.760964
0.817803 0.817821 0.760256
0.850136 0.847507 0.738244
0.900420 0.872167 0.740209
0.075805 0.138366 0.247091
0.087071 0.146031 0.301494
0.163161 0.146117 0.327001
0.366664 0.159011 0.370159
0.491318 0.173809 0.402371
0.613803 0.210891 0.456896
0.703694 0.285561 0.520507
0.774373 0.388085 0.573572
0.078397 0.154328 0.306963
0.099552 0.179186 0.374707
0.150380 0.214478 0.420681
0.423319 0.224545 0.475333
0.610073 0.234198 0.485241
0.683009 0.300097 0.526737
0.752998 0.411359 0.576824
0.805161 0.506161 0.627053
0.096490 0.212808 0.390010
0.121423 0.254031 0.430228
0.176245 0.323840 0.490324
0.453142 0.402422 0.578992
0.633436 0.350874 0.569943
0.737341 0.440170 0.597999
0.791757 0.528955 0.637188
0.831458 0.580589 0.667436
0.126803 0.316626 0.467186
0.158257 0.362646 0.509484
0.205644 0.409315 0.550478
0.319148 0.479676 0.602175
0.662412 0.553768 0.671584
0.769286 0.560659 0.657146
0.811419 0.588913 0.680840
0.857107 0.607113 0.703469
0.166493 0.410167 0.539829
0.205919 0.443687 0.572373
0.268372 0.489643 0.611169
0.370604 0.550140 0.655959
0.539212 0.628766 0.704511
0.759203 0.650703 0.717593
0.818927 0.646870 0.715189
0.866473 0.649036 0.726592
0.211803 0.479470 0.599783
0.262663 0.514651 0.621888
0.353160 0.566171 0.657689
0.476065 0.626508 0.696966
0.585334 0.672499 0.727028
0.695026 0.706765 0.749464
0.818732 0.712877 0.745618
0.883057 0.722563 0.754096
0.271976 0.536688 0.637720
0.352374 0.581649 0.662839
0.464118 0.634031 0.698667
0.567024 0.680023 0.727175
0.659869 0.719415 0.752367
0.739454 0.754328 0.768090
0.823909 0.790142 0.773816
0.891129 0.809608 0.769514
0.365833 0.608941 0.678134
0.461429 0.648976 0.705105
0.560828 0.691890 0.730956
0.653865 0.729751 0.756004
0.738550 0.766943 0.780691
0.810684 0.806133 0.798411
0.867750 0.854653 0.812744
0.911314 0.878101 0.812933
0.081733 0.152114 0.357834
0.105572 0.167376 0.395698
0.174557 0.175827 0.421327
0.421449 0.183126 0.463569
0.556609 0.196561 0.485227
0.637020 0.222935 0.507670
0.715888 0.296144 0.556048
0.785586 0.401093 0.614930
0.093956 0.190788 0.410521
0.128417 0.233383 0.452714
0.188240 0.290170 0.501063
0.459463 0.306674 0.563962
0.628349 0.257012 0.549209
0.702242 0.327746 0.573377
0.763902 0.421337 0.617260
0.809447 0.506892 0.656156
0.121265 0.279812 0.475315
0.157833 0.334787 0.520552
0.229692 0.397049 0.567560
0.364046 0.476576 0.624522
0.659667 0.481752 0.668101
0.751352 0.460418 0.637143
0.793283 0.529441 0.665666
0.834666 0.590142 0.699303
0.155194 0.376612 0.536420
0.198785 0.419325 0.572357
0.271622 0.471982 0.613746
0.397811 0.549025 0.667876
0.661334 0.637228 0.733940
0.776288 0.598591 0.709317
0.824732 0.619652 0.707362
0.860570 0.656294 0.729971
0.201200 0.451318 0.590974
0.250014 0.487812 0.618323
0.345637 0.548903 0.667536
0.461434 0.611918 0.708932
0.570709 0.659630 0.737928
0.771798 0.697683 0.759476
0.835028 0.677606 0.747534
0.869681 0.692745 0.763858
0.249492 0.513855 0.638220
0.323636 0.556109 0.669338
0.428759 0.611174 0.706050
0.530703 0.657523 0.732506
0.622968 0.699243 0.759029
0.714083 0.733845 0.777143
0.831727 0.749591 0.794617
0.885667 0.753252 0.798117
0.329109 0.577482 0.677882
0.422091 0.622565 0.707056
0.520728 0.666271 0.731370
0.612699 0.704534 0.758063
0.690391 0.736101 0.776691
0.761016 0.769325 0.793029
0.831123 0.803176 0.815739
0.902790 0.827310 0.831245
0.415318 0.638354 0.714997
0.510497 0.678111 0.737732
0.598320 0.714587 0.762123
0.677398 0.745094 0.779585
0.752923 0.778182 0.796312
0.818588 0.814925 0.819834
0.875990 0.854699 0.846459
0.923565 0.888582 0.867893
