其他预设/【236】赛博朋克风调色预设/【后期菌】视频调色预设/CUBE/Abandoned 05_S.cube
# LUT by SparkleStock. Enhanced with VOXCOLOR algorithms.
LUT_3D_SIZE 8
DOMAIN_MIN 0.000000 0.000000 0.000000
DOMAIN_MAX 0.903226 0.903226 0.903226
0.062561 0.070381 0.011730
0.075048 0.082364 0.016397
0.106707 0.099770 0.041623
0.226910 0.131176 0.082742
0.450541 0.192855 0.163592
0.641756 0.264119 0.260083
0.740895 0.349888 0.353798
0.810015 0.432126 0.425062
0.070633 0.086274 0.020055
0.096478 0.103224 0.044825
0.190393 0.139501 0.087002
0.407615 0.204634 0.157664
0.587759 0.263993 0.229498
0.708146 0.333589 0.304831
0.796238 0.424838 0.385807
0.849734 0.527847 0.469867
0.070886 0.100274 0.037713
0.108444 0.128686 0.070003
0.299838 0.220616 0.147077
0.496790 0.309022 0.216189
0.613246 0.362123 0.248723
0.712353 0.423927 0.299110
0.791335 0.498377 0.377613
0.819597 0.584036 0.431593
0.074291 0.150727 0.078832
0.102398 0.167551 0.093736
0.273274 0.279661 0.161000
0.491448 0.386865 0.212511
0.608217 0.442973 0.236118
0.699390 0.492180 0.273461
0.773897 0.554013 0.345099
0.808786 0.632365 0.424354
0.080219 0.241920 0.173557
0.123739 0.274030 0.179424
0.190971 0.352289 0.214041
0.381169 0.463728 0.245061
0.518517 0.526598 0.261242
0.634241 0.574255 0.296954
0.723326 0.624968 0.358087
0.775426 0.678558 0.431845
0.089932 0.369438 0.314697
0.179350 0.400259 0.292108
0.281452 0.480361 0.316284
0.445337 0.564034 0.350336
0.574487 0.620460 0.374968
0.674871 0.664207 0.410122
0.745895 0.695158 0.447611
0.797845 0.724119 0.483966
0.108599 0.475010 0.431999
0.268590 0.523306 0.399193
0.380676 0.585237 0.387980
0.506763 0.638350 0.428553
0.625827 0.684880 0.468313
0.716535 0.718049 0.499573
0.782978 0.744760 0.524283
0.826864 0.765059 0.534796
0.147069 0.561915 0.500363
0.361240 0.613262 0.466433
0.453572 0.651016 0.436996
0.573214 0.700443 0.474632
0.669757 0.729999 0.507125
0.752816 0.761076 0.533535
0.817225 0.785114 0.556491
0.860675 0.803997 0.585456
0.070381 0.078454 0.016145
0.078486 0.085802 0.027672
0.108221 0.095136 0.051209
0.248324 0.131050 0.113392
0.474819 0.168764 0.185722
0.638053 0.225848 0.272020
0.749500 0.324633 0.374988
0.820231 0.424305 0.449532
0.067195 0.087031 0.028884
0.103256 0.103521 0.056983
0.216360 0.138730 0.120793
0.415149 0.185888 0.189860
0.580949 0.235809 0.252259
0.702035 0.292812 0.311882
0.790839 0.372335 0.376671
0.852240 0.489820 0.462026
0.074072 0.111533 0.057296
0.088007 0.128802 0.071822
0.354446 0.227065 0.207356
0.500725 0.288011 0.255483
0.615533 0.332776 0.284272
0.706390 0.374303 0.309702
0.800234 0.437959 0.370944
0.863063 0.539491 0.462615
0.077998 0.164117 0.106776
0.087921 0.191451 0.142222
0.221503 0.288230 0.210344
0.495666 0.407060 0.273703
0.602155 0.444019 0.284911
0.692445 0.471605 0.301527
0.779311 0.526647 0.356878
0.841610 0.616379 0.448853
0.086022 0.266389 0.230690
0.097804 0.304801 0.278929
0.194980 0.372011 0.268496
0.372632 0.468766 0.286463
0.538789 0.531865 0.280176
0.646142 0.565921 0.302853
0.735614 0.610421 0.353005
0.792942 0.663502 0.420342
0.093671 0.395845 0.374655
0.113766 0.421546 0.406426
0.282430 0.496209 0.398405
0.449928 0.584484 0.362914
0.570843 0.631448 0.372725
0.673467 0.666709 0.401443
0.752614 0.697534 0.441957
0.815398 0.721515 0.460615
0.110686 0.489865 0.467792
0.173200 0.515667 0.476869
0.377248 0.591053 0.460686
0.537910 0.657418 0.456447
0.631665 0.696589 0.475559
0.724663 0.728846 0.511555
0.785510 0.755429 0.524455
0.836638 0.769264 0.505913
0.154625 0.568083 0.526964
0.315355 0.620467 0.533788
0.474579 0.670680 0.501264
0.591758 0.710163 0.504953
0.685844 0.743304 0.535129
0.761288 0.769783 0.552264
0.822979 0.791202 0.577746
0.868488 0.815313 0.598636
0.070381 0.082616 0.028884
0.079210 0.086493 0.037461
0.122787 0.095355 0.075117
0.265840 0.122921 0.158095
0.474754 0.157278 0.239902
0.652676 0.217739 0.326985
0.757166 0.307060 0.412116
0.823840 0.424078 0.485406
0.073567 0.097817 0.052157
0.091478 0.103537 0.063902
0.221870 0.140990 0.163800
0.424240 0.184357 0.256555
0.579219 0.222882 0.315261
0.698083 0.273100 0.365253
0.789194 0.353548 0.418661
0.852155 0.460684 0.478776
0.071260 0.118746 0.076810
0.088646 0.144201 0.110735
0.315959 0.217962 0.250861
0.488446 0.283475 0.319667
0.608200 0.325748 0.355210
0.703580 0.367641 0.373553
0.791543 0.413435 0.402451
0.863385 0.515385 0.478062
0.074641 0.177719 0.147517
0.088580 0.219535 0.206911
0.178308 0.285225 0.266363
0.510401 0.399593 0.365231
0.617007 0.437595 0.373632
0.705151 0.463463 0.382735
0.792996 0.504151 0.410644
0.853807 0.585731 0.473096
0.084374 0.284646 0.275939
0.097610 0.328151 0.337635
0.150593 0.388480 0.366653
0.357907 0.470266 0.375446
0.596245 0.545635 0.369103
0.685211 0.570298 0.378416
0.768657 0.596832 0.398875
0.833718 0.632749 0.425024
0.091356 0.407314 0.409853
0.112269 0.436863 0.442741
0.165670 0.476879 0.465841
0.408310 0.587645 0.442570
0.569971 0.640096 0.411151
0.676604 0.665753 0.425413
0.758303 0.688884 0.431821
0.831689 0.699064 0.430213
0.106247 0.502312 0.494996
0.152155 0.527745 0.515956
0.273750 0.580430 0.541559
0.513645 0.666951 0.531562
0.647787 0.710766 0.506333
0.723629 0.736132 0.518106
0.781482 0.754100 0.485592
0.850689 0.768181 0.472678
0.160642 0.575260 0.555962
0.269021 0.617077 0.574434
0.477682 0.685530 0.597189
0.591069 0.720210 0.560824
0.705536 0.756877 0.559028
0.771862 0.780187 0.570239
0.822751 0.805079 0.561973
0.871479 0.829724 0.561182
0.070381 0.090688 0.053858
0.086982 0.088194 0.062687
0.126762 0.096771 0.097023
0.266348 0.123775 0.202673
0.479942 0.155337 0.298199
0.657254 0.216795 0.387837
0.766162 0.312386 0.458023
0.822087 0.413511 0.515804
0.074039 0.107793 0.082791
0.087041 0.120938 0.111735
0.208831 0.143907 0.217370
0.436506 0.182384 0.326316
0.583434 0.222161 0.395161
0.701627 0.276519 0.438427
0.795126 0.367881 0.483082
0.850709 0.473604 0.535217
0.069722 0.134834 0.121114
0.087615 0.164906 0.188918
0.193931 0.214411 0.291477
0.481181 0.282670 0.395738
0.613902 0.329550 0.436160
0.704776 0.367102 0.448594
0.796715 0.422427 0.478051
0.864386 0.517497 0.534177
0.076415 0.208076 0.233070
0.089298 0.244998 0.284131
0.175794 0.315401 0.365920
0.465223 0.388311 0.441981
0.611662 0.435376 0.454189
0.705335 0.461673 0.458771
0.791262 0.494150 0.473562
0.865716 0.555609 0.515831
0.083682 0.317631 0.353086
0.098428 0.350296 0.398974
0.155202 0.410965 0.435369
0.292147 0.465961 0.458743
0.604296 0.556608 0.494987
0.700549 0.575284 0.480310
0.780626 0.588786 0.480266
0.858994 0.617133 0.496961
0.095852 0.424708 0.455082
0.119636 0.455860 0.491281
0.163328 0.496484 0.513797
0.270136 0.553261 0.520698
0.561341 0.650697 0.527831
0.700640 0.672016 0.481698
0.770724 0.682455 0.464358
0.854400 0.691907 0.465998
0.108599 0.507804 0.524328
0.152016 0.535885 0.549594
0.243253 0.573343 0.572655
0.412272 0.653586 0.613055
0.628256 0.722100 0.582274
0.722873 0.746720 0.535939
0.783172 0.760280 0.505354
0.857491 0.770212 0.490364
0.161916 0.576473 0.576924
0.255917 0.619092 0.611272
0.410805 0.677017 0.636584
0.594791 0.742002 0.663825
0.707149 0.764982 0.595024
0.779031 0.794321 0.587409
0.822939 0.821562 0.573824
0.876534 0.846292 0.571956
0.074291 0.100779 0.094094
0.089866 0.100901 0.114901
0.138504 0.109234 0.158051
0.273579 0.135957 0.240646
0.499093 0.168385 0.348334
0.671942 0.232932 0.436382
0.774181 0.329809 0.509660
0.830875 0.426218 0.559518
0.069250 0.120402 0.136730
0.082221 0.141840 0.187927
0.186789 0.153692 0.270910
0.456414 0.195375 0.387462
0.611251 0.240706 0.463920
0.718640 0.307626 0.508620
0.798844 0.392455 0.552609
0.856012 0.510620 0.596861
0.072269 0.166623 0.220343
0.086957 0.201431 0.278086
0.148246 0.252638 0.366904
0.438925 0.282545 0.460373
0.638694 0.348878 0.520041
0.722139 0.391085 0.540015
0.806568 0.461367 0.568329
0.863810 0.548883 0.597779
0.082868 0.249935 0.323217
0.095502 0.299231 0.384243
0.145180 0.342695 0.439681
0.317369 0.405715 0.504939
0.621276 0.450115 0.554341
0.726707 0.491043 0.559746
0.799218 0.524732 0.569699
0.868137 0.562318 0.587049
0.088040 0.352110 0.429823
0.105528 0.389490 0.469457
0.149409 0.437111 0.509739
0.282220 0.489363 0.542804
0.562785 0.567354 0.598300
0.707897 0.594116 0.586906
0.786777 0.601263 0.575995
0.865968 0.622389 0.585660
0.101210 0.449597 0.508500
0.123780 0.476490 0.534807
0.167605 0.506498 0.559791
0.263948 0.557482 0.583504
0.469012 0.641824 0.623518
0.692360 0.691274 0.588013
0.778380 0.689303 0.548838
0.857518 0.696529 0.546589
0.116659 0.517793 0.556340
0.161831 0.542567 0.579477
0.249862 0.585309 0.609499
0.388331 0.646707 0.638607
0.542204 0.710261 0.670842
0.703446 0.757931 0.617478
0.790648 0.766399 0.559442
0.863549 0.775634 0.554109
0.174130 0.587609 0.600678
0.258436 0.625208 0.626311
0.396690 0.679540 0.654296
0.551781 0.735146 0.686855
0.681905 0.779650 0.701793
0.762404 0.806096 0.635949
0.823105 0.831353 0.611883
0.882003 0.853126 0.615989
0.071643 0.117176 0.176584
0.085814 0.128870 0.213467
0.150511 0.132112 0.259253
0.332738 0.149616 0.322591
0.524779 0.184298 0.399258
0.681389 0.247624 0.472659
0.777945 0.339639 0.549236
0.838142 0.426202 0.599311
0.069336 0.145006 0.236496
0.087464 0.177836 0.303165
0.179800 0.192582 0.361841
0.449218 0.208053 0.426133
0.642857 0.262495 0.500697
0.737823 0.339352 0.555789
0.807059 0.435457 0.600720
0.853619 0.524929 0.635607
0.078527 0.212604 0.327347
0.092049 0.248115 0.375188
0.130073 0.300192 0.441792
0.431126 0.345403 0.538899
0.675715 0.374873 0.574857
0.756052 0.445274 0.611000
0.820504 0.525451 0.635891
0.863048 0.576470 0.649671
0.084130 0.301454 0.424330
0.099025 0.344348 0.463768
0.133805 0.386020 0.507413
0.255022 0.447654 0.571866
0.617409 0.491503 0.640852
0.764168 0.544835 0.642598
0.815254 0.576189 0.651821
0.867564 0.595385 0.658775
0.090941 0.401801 0.508130
0.113257 0.432323 0.535626
0.157169 0.472658 0.569718
0.248641 0.519382 0.603959
0.474962 0.602686 0.655732
0.719517 0.633304 0.679707
0.802659 0.636866 0.671662
0.867066 0.641696 0.672861
0.108094 0.480475 0.560470
0.139181 0.501737 0.576562
0.193060 0.537285 0.604941
0.296075 0.584255 0.636012
0.482771 0.666236 0.679750
0.638912 0.701321 0.698853
0.771270 0.706211 0.685859
0.862161 0.712630 0.669427
0.130277 0.535789 0.592076
0.185990 0.560445 0.612786
0.280113 0.603149 0.638022
0.406621 0.660331 0.669505
0.530756 0.709033 0.697677
0.654761 0.753020 0.706068
0.785762 0.775978 0.653659
0.871594 0.784588 0.638240
0.177845 0.584492 0.621510
0.276508 0.627906 0.648131
0.403111 0.679099 0.671717
0.525021 0.723844 0.701311
0.646073 0.768653 0.728703
0.753923 0.813800 0.720875
0.821710 0.836603 0.682822
0.887807 0.858757 0.681184
0.079715 0.145303 0.283165
0.092495 0.164068 0.326383
0.195691 0.162388 0.385457
0.415098 0.173939 0.415521
0.558635 0.193408 0.451460
0.699573 0.254236 0.512300
0.785761 0.346906 0.587519
0.843818 0.428773 0.633683
0.079715 0.182821 0.344241
0.101043 0.232956 0.403661
0.151902 0.278438 0.455271
0.434588 0.291059 0.528368
0.678220 0.296524 0.539524
0.755101 0.367986 0.593961
0.812516 0.450981 0.635699
0.857493 0.531997 0.671814
0.086022 0.273900 0.432870
0.102912 0.307592 0.469524
0.150376 0.370287 0.522085
0.406991 0.444477 0.612240
0.666047 0.419558 0.631534
0.785712 0.480369 0.647727
0.834137 0.555485 0.674505
0.865097 0.608739 0.692418
0.086778 0.359763 0.509147
0.116814 0.402485 0.543038
0.154023 0.439767 0.574681
0.247305 0.497701 0.616248
0.604501 0.579569 0.696695
0.782932 0.591216 0.693699
0.826211 0.615677 0.705525
0.866754 0.633395 0.717274
0.098496 0.444348 0.569356
0.137482 0.475369 0.591802
0.186650 0.513759 0.618197
0.263873 0.556098 0.648151
0.430484 0.631736 0.689667
0.694878 0.676128 0.728729
0.809939 0.670080 0.735402
0.862156 0.670061 0.736691
0.116859 0.505689 0.606390
0.164753 0.534432 0.622646
0.242293 0.568873 0.646822
0.348434 0.619500 0.674470
0.480580 0.677556 0.702880
0.612841 0.713236 0.731368
0.768150 0.728739 0.753797
0.860792 0.735815 0.751563
0.149799 0.551653 0.626286
0.218760 0.582260 0.643232
0.325914 0.628379 0.671252
0.445686 0.680798 0.696415
0.557071 0.720494 0.717997
0.656475 0.759292 0.743197
0.760764 0.788628 0.751850
0.865712 0.804494 0.731321
0.204658 0.604043 0.649576
0.296142 0.635499 0.664925
0.427640 0.691860 0.695489
0.545343 0.732074 0.716672
0.644981 0.770060 0.746991
0.728768 0.801593 0.765012
0.814381 0.842182 0.755945
0.887783 0.864558 0.742653
0.086022 0.184404 0.393025
0.113278 0.216099 0.424822
0.183537 0.230515 0.481801
0.464928 0.222805 0.515791
0.616241 0.230210 0.530626
0.719196 0.270421 0.569548
0.794488 0.356130 0.628626
0.849494 0.440532 0.675726
0.089667 0.254647 0.457315
0.118321 0.299789 0.497615
0.167318 0.352591 0.541706
0.439730 0.378341 0.624559
0.690736 0.323265 0.601355
0.770121 0.394486 0.640108
0.820318 0.461345 0.673356
0.857101 0.531426 0.699673
0.090664 0.332812 0.525361
0.128283 0.380818 0.558914
0.175687 0.431260 0.597766
0.295734 0.493379 0.643888
0.629554 0.524161 0.713129
0.792707 0.501129 0.684255
0.832531 0.558435 0.706119
0.865378 0.619105 0.725840
0.101068 0.412885 0.574007
0.138805 0.452743 0.598585
0.191787 0.493312 0.630483
0.298928 0.555150 0.670401
0.573890 0.652414 0.731634
0.751073 0.629349 0.738194
0.835923 0.649961 0.732198
0.866494 0.687684 0.746161
0.118486 0.478969 0.614105
0.159306 0.512920 0.630846
0.230193 0.554581 0.662480
0.331507 0.604382 0.693792
0.462811 0.662303 0.719851
0.685255 0.721576 0.757014
0.800478 0.710216 0.766996
0.857562 0.722350 0.778616
0.139880 0.533027 0.639038
0.198665 0.563396 0.659988
0.291911 0.604860 0.684827
0.396786 0.651073 0.706295
0.517519 0.701664 0.731582
0.626410 0.740966 0.753654
0.750866 0.763924 0.783801
0.850485 0.772529 0.792397
0.176909 0.576599 0.656765
0.263627 0.612446 0.677498
0.373937 0.655124 0.700424
0.486533 0.703474 0.725133
0.590269 0.738124 0.741661
0.671725 0.771618 0.763576
0.753590 0.798485 0.782543
0.848117 0.823998 0.784237
0.237045 0.622124 0.678419
0.346500 0.665734 0.698916
0.470993 0.713517 0.723102
0.572484 0.746765 0.739931
0.661386 0.777923 0.763392
0.737002 0.807352 0.779441
0.810768 0.839381 0.785494
0.878048 0.867130 0.783214
