其他预设/【236】赛博朋克风调色预设/【后期菌】视频调色预设/CUBE/Abandoned 01_S.cube
# LUT by SparkleStock. Enhanced with VOXCOLOR algorithms.
LUT_3D_SIZE 8
DOMAIN_MIN 0.000000 0.000000 0.000000
DOMAIN_MAX 0.903226 0.903226 0.903226
0.097752 0.039101 0.078201
0.098256 0.051083 0.094094
0.124744 0.071895 0.123735
0.230063 0.106203 0.159430
0.463406 0.161574 0.199666
0.675685 0.228928 0.274462
0.771545 0.304481 0.370069
0.820358 0.392647 0.470470
0.098004 0.051335 0.094094
0.123092 0.076374 0.124003
0.200829 0.123421 0.171128
0.409121 0.179505 0.196891
0.616395 0.236557 0.239328
0.730011 0.298435 0.310498
0.804884 0.388370 0.415769
0.850263 0.510303 0.555787
0.106581 0.073408 0.112005
0.143350 0.110178 0.156749
0.308476 0.212291 0.208877
0.501136 0.286375 0.221332
0.634314 0.330977 0.246965
0.732660 0.384285 0.304534
0.812399 0.468346 0.401118
0.851284 0.570667 0.456465
0.118059 0.141267 0.155394
0.139025 0.162660 0.173634
0.268102 0.281427 0.210948
0.482598 0.376966 0.207384
0.622551 0.421783 0.218895
0.717451 0.472394 0.259586
0.802654 0.548927 0.339509
0.849779 0.636291 0.420310
0.128149 0.267524 0.237001
0.136043 0.292824 0.224013
0.202213 0.399970 0.246326
0.386340 0.500534 0.214171
0.551934 0.547552 0.186833
0.691358 0.590905 0.205867
0.792950 0.651028 0.274588
0.849844 0.714932 0.363404
0.156150 0.438054 0.348753
0.169325 0.475568 0.294280
0.317240 0.576005 0.289056
0.527196 0.642622 0.260034
0.675087 0.677557 0.252356
0.779825 0.713118 0.297137
0.836962 0.744366 0.356435
0.868727 0.772558 0.429359
0.231703 0.620944 0.471479
0.243486 0.631051 0.337922
0.508423 0.694649 0.296718
0.687423 0.735052 0.299305
0.787718 0.761064 0.331827
0.841344 0.784394 0.388769
0.873162 0.800384 0.450903
0.892578 0.812611 0.517317
0.337149 0.729669 0.589916
0.373540 0.729568 0.361618
0.671852 0.774344 0.320955
0.783458 0.790591 0.356321
0.833699 0.805173 0.403620
0.866391 0.815438 0.459553
0.891264 0.826843 0.536550
0.906757 0.841084 0.612526
0.097752 0.047173 0.090184
0.102183 0.051335 0.098777
0.125720 0.071927 0.129411
0.233217 0.108396 0.181503
0.458613 0.150100 0.225079
0.654279 0.202359 0.291237
0.768265 0.289007 0.394762
0.820496 0.392760 0.505029
0.098492 0.052344 0.099501
0.129805 0.080109 0.146375
0.210306 0.126365 0.188232
0.392924 0.170878 0.222719
0.577254 0.211466 0.263822
0.707424 0.267775 0.322227
0.794065 0.340566 0.398649
0.848548 0.471299 0.539068
0.111215 0.086652 0.132596
0.126670 0.107977 0.156926
0.330834 0.215351 0.244561
0.490786 0.269828 0.266901
0.606968 0.303622 0.287945
0.705475 0.341039 0.321595
0.798700 0.417995 0.399705
0.861331 0.541683 0.540581
0.129683 0.163893 0.191536
0.141617 0.204651 0.227809
0.244947 0.291210 0.250382
0.493085 0.381929 0.260775
0.603286 0.415272 0.275358
0.700810 0.449260 0.303152
0.797090 0.516151 0.367876
0.865755 0.620041 0.495461
0.144042 0.309843 0.293255
0.161045 0.358159 0.334435
0.198086 0.402347 0.270243
0.375889 0.493444 0.242364
0.564172 0.534245 0.216828
0.689001 0.570707 0.246683
0.788350 0.626505 0.302682
0.857375 0.693372 0.389409
0.186719 0.492290 0.418333
0.211627 0.534012 0.454135
0.278340 0.583718 0.336116
0.522862 0.647281 0.273195
0.658707 0.672688 0.277427
0.760845 0.703637 0.323389
0.830147 0.736616 0.385103
0.875599 0.760055 0.447310
0.266178 0.647151 0.547479
0.288858 0.659773 0.534857
0.422961 0.696276 0.368752
0.706270 0.746691 0.342338
0.782111 0.762608 0.368270
0.837714 0.783972 0.439128
0.868029 0.801135 0.501610
0.892295 0.808286 0.521071
0.361858 0.736090 0.630884
0.388451 0.738512 0.537488
0.642553 0.774827 0.406410
0.795497 0.794261 0.405871
0.843788 0.809792 0.471334
0.873219 0.820065 0.534402
0.895253 0.835353 0.598683
0.907844 0.844275 0.655972
0.098256 0.051335 0.099265
0.107053 0.055498 0.111752
0.132564 0.075870 0.149718
0.234490 0.105389 0.214842
0.431739 0.140889 0.270552
0.649576 0.198116 0.334301
0.768965 0.276858 0.422975
0.822958 0.395723 0.542816
0.105889 0.067798 0.123328
0.122817 0.078118 0.149842
0.210864 0.126794 0.221014
0.384519 0.172326 0.277985
0.561336 0.203356 0.313895
0.688538 0.248285 0.358985
0.786517 0.326208 0.427755
0.849977 0.441790 0.548485
0.118816 0.104245 0.156085
0.133162 0.136441 0.199194
0.288068 0.209365 0.288253
0.462813 0.267468 0.321846
0.591921 0.298687 0.344599
0.695665 0.336258 0.374364
0.788906 0.386615 0.422884
0.861680 0.515355 0.550889
0.135717 0.193428 0.232431
0.148381 0.245150 0.279905
0.208585 0.304857 0.316966
0.490961 0.372990 0.351827
0.610876 0.406321 0.370975
0.701024 0.440029 0.390311
0.794116 0.490184 0.430739
0.865379 0.583739 0.524998
0.154747 0.342670 0.340522
0.181044 0.406605 0.404744
0.212926 0.452405 0.404875
0.366200 0.489449 0.346344
0.612808 0.543054 0.350930
0.704895 0.567997 0.369102
0.795502 0.597596 0.403030
0.865334 0.645230 0.440917
0.205972 0.520743 0.473859
0.237212 0.566709 0.523272
0.280844 0.611767 0.547576
0.437498 0.646445 0.379132
0.658759 0.671942 0.333708
0.748505 0.692993 0.367814
0.817654 0.716023 0.408464
0.873199 0.723130 0.431453
0.288129 0.658885 0.594477
0.329166 0.686105 0.621588
0.380999 0.708339 0.609160
0.659005 0.753453 0.456476
0.785094 0.769783 0.430155
0.832148 0.789913 0.486745
0.849027 0.791530 0.494606
0.888865 0.795793 0.496930
0.396508 0.749903 0.679721
0.439529 0.762729 0.673211
0.573374 0.777145 0.587403
0.785578 0.801607 0.513935
0.854336 0.816533 0.542344
0.877438 0.827177 0.593064
0.879075 0.837212 0.600558
0.899692 0.847655 0.617125
0.103175 0.057011 0.124996
0.114604 0.065442 0.133980
0.134232 0.081635 0.171229
0.230946 0.112700 0.251843
0.427780 0.151427 0.320524
0.648148 0.203181 0.384289
0.764986 0.291786 0.474970
0.820358 0.390881 0.572978
0.115361 0.086245 0.162050
0.132027 0.111470 0.200187
0.201855 0.138722 0.273863
0.379573 0.176512 0.343531
0.560620 0.210955 0.384826
0.689803 0.255026 0.427389
0.789503 0.344338 0.508345
0.846599 0.461370 0.602833
0.129215 0.132409 0.206225
0.148087 0.182948 0.273380
0.217089 0.233705 0.347582
0.446335 0.270592 0.391057
0.590934 0.299083 0.418468
0.691226 0.337627 0.448168
0.789584 0.399485 0.505617
0.858014 0.519528 0.600103
0.150434 0.255456 0.317725
0.166580 0.301662 0.360631
0.224397 0.354283 0.414296
0.448105 0.373308 0.426947
0.601187 0.405085 0.444159
0.700715 0.438867 0.467483
0.786505 0.479593 0.496954
0.866951 0.554345 0.561344
0.181067 0.403103 0.431987
0.206777 0.449446 0.488295
0.240502 0.502255 0.504724
0.330919 0.509763 0.482473
0.627963 0.544959 0.487748
0.713596 0.566315 0.487383
0.792912 0.582165 0.493203
0.875548 0.614686 0.526731
0.241676 0.562073 0.557769
0.281583 0.612598 0.612512
0.314987 0.646301 0.626003
0.368067 0.662132 0.593585
0.647088 0.686644 0.494487
0.758846 0.694981 0.482295
0.804151 0.691617 0.471026
0.879716 0.701314 0.491131
0.318140 0.678794 0.647220
0.362282 0.708981 0.674045
0.406545 0.729651 0.685130
0.514772 0.757154 0.678686
0.771754 0.781294 0.561993
0.816402 0.789363 0.533944
0.833041 0.787750 0.523696
0.887704 0.785401 0.518479
0.421799 0.757776 0.714497
0.478103 0.777021 0.732427
0.558680 0.789963 0.723430
0.745883 0.809982 0.685850
0.860916 0.821795 0.618999
0.868369 0.833459 0.634544
0.866947 0.842884 0.619886
0.897297 0.854718 0.622107
0.118311 0.083247 0.170403
0.124744 0.089484 0.188180
0.151231 0.104180 0.229050
0.231508 0.130155 0.287270
0.427341 0.177475 0.366033
0.650898 0.237558 0.439441
0.769653 0.321130 0.533360
0.824288 0.406541 0.608807
0.128971 0.122604 0.221621
0.149091 0.158555 0.278916
0.202775 0.170762 0.335254
0.390655 0.198610 0.405673
0.581747 0.232268 0.457888
0.709578 0.288819 0.516342
0.792330 0.371011 0.580581
0.846072 0.504884 0.658946
0.150597 0.203584 0.306365
0.168609 0.255261 0.366713
0.214098 0.303499 0.442218
0.398562 0.288862 0.477184
0.616063 0.320073 0.512752
0.712066 0.365344 0.547265
0.799316 0.444785 0.601829
0.857988 0.554785 0.668968
0.177593 0.331278 0.419285
0.202308 0.385263 0.483331
0.235028 0.420918 0.527426
0.346304 0.434609 0.551270
0.611764 0.423467 0.548742
0.721078 0.471580 0.577943
0.796448 0.512772 0.599391
0.866496 0.561842 0.628667
0.216047 0.460306 0.529812
0.252372 0.525324 0.584512
0.285095 0.563303 0.616383
0.356327 0.570209 0.607705
0.613063 0.573706 0.604651
0.729792 0.589086 0.602604
0.798236 0.596428 0.594405
0.874073 0.619782 0.613569
0.281610 0.608555 0.632613
0.318641 0.645596 0.673034
0.354133 0.675933 0.695103
0.400749 0.693335 0.694119
0.564216 0.708443 0.675143
0.764968 0.713264 0.614493
0.810958 0.700086 0.580301
0.880315 0.702478 0.582690
0.360320 0.706449 0.702653
0.395539 0.725248 0.717582
0.444002 0.745648 0.739233
0.525657 0.766298 0.743118
0.679995 0.788067 0.731563
0.801552 0.795001 0.643790
0.831694 0.784683 0.596005
0.887804 0.786763 0.588950
0.450638 0.774613 0.746465
0.492252 0.785233 0.755067
0.562863 0.798622 0.764675
0.709033 0.812890 0.752057
0.823153 0.832456 0.746382
0.852968 0.842469 0.691905
0.860475 0.849913 0.663986
0.895829 0.858951 0.663418
0.135339 0.123482 0.259956
0.151573 0.145979 0.304408
0.176348 0.146418 0.326570
0.267598 0.164524 0.363347
0.432345 0.209923 0.418093
0.646565 0.264526 0.484584
0.766467 0.336311 0.563253
0.820044 0.414785 0.632796
0.155565 0.179692 0.324959
0.175318 0.233524 0.397591
0.226323 0.244441 0.446361
0.369313 0.235918 0.471418
0.605584 0.273532 0.520603
0.723839 0.333023 0.575939
0.800164 0.423666 0.628296
0.843386 0.523273 0.683008
0.182170 0.283165 0.421730
0.202114 0.334792 0.482300
0.237180 0.383992 0.554726
0.412958 0.364842 0.583568
0.656612 0.353067 0.582759
0.747252 0.421655 0.632315
0.817603 0.522524 0.677471
0.856152 0.585991 0.714205
0.212389 0.402098 0.535720
0.241242 0.456972 0.587789
0.278687 0.509673 0.632520
0.356834 0.543668 0.669883
0.636719 0.492868 0.651571
0.766672 0.538071 0.671161
0.817228 0.576786 0.692638
0.866212 0.598912 0.703320
0.271382 0.552349 0.635815
0.301901 0.590319 0.673765
0.342910 0.636054 0.706598
0.395399 0.663297 0.725714
0.561795 0.665583 0.723668
0.764391 0.643258 0.700066
0.819333 0.640145 0.698027
0.878623 0.640586 0.701425
0.334781 0.660492 0.706685
0.362664 0.685146 0.723229
0.407291 0.712920 0.748372
0.466070 0.734328 0.764484
0.613502 0.751444 0.764288
0.750577 0.738172 0.734244
0.818401 0.715156 0.706426
0.883747 0.711838 0.702482
0.404629 0.734320 0.750481
0.436235 0.747013 0.758883
0.482688 0.761611 0.768579
0.565092 0.779150 0.778874
0.690264 0.795120 0.780321
0.773833 0.798196 0.747791
0.835741 0.794533 0.695758
0.891162 0.793981 0.689913
0.479665 0.779109 0.774694
0.527456 0.794126 0.781293
0.583873 0.799838 0.785570
0.699754 0.817925 0.799823
0.803585 0.833695 0.799564
0.850217 0.848197 0.772483
0.865085 0.854858 0.742864
0.899547 0.862991 0.737647
0.167250 0.185665 0.377006
0.184949 0.224807 0.433273
0.225661 0.212267 0.458865
0.317306 0.217829 0.459537
0.447135 0.234376 0.477948
0.652273 0.291632 0.540631
0.763769 0.352915 0.603115
0.819076 0.432052 0.659793
0.183016 0.257617 0.440507
0.210743 0.317479 0.520092
0.252523 0.364949 0.583151
0.384499 0.336438 0.591516
0.629098 0.320924 0.569142
0.734673 0.371981 0.612622
0.799592 0.447804 0.656942
0.844485 0.543087 0.708084
0.219102 0.374256 0.561410
0.244100 0.414934 0.600516
0.288862 0.485057 0.655259
0.438542 0.507881 0.687515
0.638840 0.418233 0.643369
0.777367 0.480263 0.672310
0.826013 0.564858 0.713979
0.854448 0.623686 0.744306
0.258227 0.489593 0.642211
0.296667 0.547660 0.681426
0.337130 0.597745 0.717271
0.403609 0.646999 0.745080
0.673996 0.617711 0.733140
0.793968 0.599948 0.718479
0.827156 0.623986 0.742420
0.866353 0.644570 0.760197
0.322404 0.619040 0.716665
0.356410 0.654766 0.741913
0.402403 0.691733 0.764757
0.454988 0.722351 0.783490
0.574725 0.743150 0.793172
0.782685 0.704296 0.762589
0.832777 0.680812 0.761399
0.875717 0.677029 0.769464
0.385140 0.707218 0.762398
0.426163 0.731468 0.780017
0.469996 0.748489 0.790182
0.529188 0.762043 0.799631
0.633104 0.778790 0.801726
0.749574 0.775515 0.798239
0.833113 0.744312 0.781899
0.887600 0.737242 0.786124
0.458235 0.758887 0.792950
0.492400 0.769765 0.791776
0.538542 0.780728 0.797968
0.620157 0.794595 0.805769
0.730094 0.811032 0.811330
0.798009 0.816586 0.807172
0.843160 0.811144 0.794531
0.894714 0.809274 0.789760
0.530170 0.797780 0.805873
0.557461 0.799378 0.800841
0.624044 0.810210 0.809818
0.730247 0.826135 0.818877
0.812641 0.841911 0.825856
0.856213 0.849225 0.826457
0.878125 0.858640 0.817285
0.904208 0.866849 0.810175
0.200423 0.271813 0.520922
0.222622 0.309400 0.571033
0.256852 0.320097 0.599502
0.367306 0.284987 0.575020
0.515055 0.292616 0.570610
0.656505 0.322387 0.592430
0.761043 0.376363 0.635994
0.818592 0.455623 0.687244
0.226772 0.356435 0.589550
0.253626 0.405382 0.636007
0.300709 0.457047 0.679672
0.430946 0.434150 0.680364
0.634055 0.360239 0.625870
0.737880 0.399531 0.649462
0.798436 0.470052 0.686538
0.838556 0.555314 0.728131
0.261071 0.456070 0.662897
0.299239 0.518102 0.703634
0.347212 0.578013 0.735601
0.421016 0.621196 0.757434
0.662506 0.564225 0.738255
0.781071 0.506967 0.701828
0.823508 0.575583 0.735512
0.854028 0.643375 0.764571
0.314303 0.579162 0.720120
0.355522 0.625018 0.751259
0.401489 0.672955 0.777838
0.473180 0.709073 0.795301
0.701034 0.724252 0.798337
0.789980 0.657400 0.761218
0.838893 0.670910 0.766780
0.867702 0.710017 0.787483
0.381112 0.683196 0.775146
0.416579 0.708130 0.791983
0.474177 0.740738 0.807663
0.531984 0.763036 0.818581
0.623986 0.778153 0.825579
0.812176 0.770791 0.810178
0.847586 0.733365 0.795213
0.878180 0.737221 0.809948
0.449792 0.746127 0.806479
0.491623 0.761657 0.813185
0.532370 0.777912 0.816874
0.587381 0.786286 0.821892
0.689231 0.803118 0.829630
0.787683 0.815728 0.833742
0.854505 0.794164 0.827296
0.887011 0.781318 0.834543
0.523929 0.786229 0.819853
0.553590 0.792744 0.820260
0.594873 0.801944 0.821666
0.683220 0.813044 0.829996
0.773257 0.827386 0.835542
0.830949 0.837478 0.842890
0.862644 0.835636 0.842130
0.899873 0.834076 0.847567
0.570500 0.811740 0.824439
0.601769 0.816030 0.824950
0.671678 0.825052 0.828442
0.762515 0.837918 0.838374
0.827082 0.847025 0.843115
0.863279 0.855196 0.847431
0.892556 0.863145 0.851590
0.912018 0.872918 0.856575
