其他预设/【236】赛博朋克风调色预设/【后期菌】视频调色预设/CUBE/Abandoned 09_S.cube
# LUT by SparkleStock. Enhanced with VOXCOLOR algorithms.
LUT_3D_SIZE 32
0.015640 0.003910 0.003910
0.019676 0.009964 0.011982
0.023460 0.015766 0.019929
0.023460 0.017785 0.025983
0.023965 0.020055 0.031785
0.028001 0.024091 0.035821
0.032794 0.028506 0.040614
0.040867 0.034560 0.048687
0.052471 0.041119 0.056759
0.074670 0.049191 0.064831
0.105698 0.057894 0.072273
0.156150 0.067985 0.078327
0.217198 0.080346 0.085895
0.295904 0.096490 0.095986
0.386088 0.112635 0.107842
0.491029 0.128780 0.121969
0.581843 0.145934 0.138114
0.658531 0.164097 0.156277
0.714786 0.182260 0.183521
0.755148 0.200423 0.217829
0.787942 0.221108 0.258443
0.816195 0.243307 0.302841
0.830574 0.262731 0.331977
0.838647 0.280894 0.354177
0.849746 0.306625 0.391511
0.861855 0.334878 0.433891
0.869044 0.363132 0.474632
0.875099 0.391385 0.514994
0.882919 0.421404 0.544761
0.890991 0.451676 0.573014
0.895280 0.485731 0.603160
0.899316 0.520039 0.633431
0.017658 0.009964 0.009964
0.020653 0.013935 0.018037
0.023591 0.017850 0.025918
0.025674 0.020909 0.030931
0.028262 0.024221 0.036212
0.034381 0.029299 0.043373
0.041843 0.034755 0.050509
0.055123 0.041851 0.057540
0.073498 0.049452 0.064571
0.107155 0.058566 0.071602
0.150942 0.069287 0.078653
0.217019 0.083544 0.085749
0.289003 0.097727 0.093968
0.370834 0.111789 0.104058
0.457307 0.127673 0.117737
0.549749 0.145901 0.136031
0.627023 0.163576 0.156342
0.689128 0.180697 0.178671
0.733730 0.197233 0.205980
0.764717 0.213312 0.237163
0.792043 0.233868 0.273351
0.817172 0.257108 0.312541
0.833439 0.281155 0.347211
0.845677 0.305567 0.379826
0.857037 0.334423 0.419765
0.868104 0.364759 0.462145
0.875945 0.398481 0.502885
0.883041 0.432984 0.543247
0.889168 0.461050 0.573014
0.895157 0.488197 0.601268
0.898339 0.519128 0.626530
0.901334 0.550311 0.651594
0.019676 0.015766 0.015893
0.021695 0.017850 0.023835
0.023843 0.020059 0.031553
0.027944 0.024160 0.035915
0.032591 0.028522 0.040985
0.041054 0.034706 0.051010
0.051421 0.041245 0.060291
0.070039 0.049317 0.066345
0.095363 0.057959 0.072448
0.140803 0.068310 0.078698
0.197249 0.081082 0.085497
0.277908 0.099180 0.093504
0.360105 0.115154 0.102390
0.444865 0.127588 0.112741
0.527404 0.143297 0.128219
0.607086 0.163218 0.150287
0.670754 0.181218 0.174440
0.718407 0.197298 0.200675
0.751742 0.212352 0.228082
0.773941 0.226609 0.256400
0.796100 0.247172 0.288503
0.818234 0.271520 0.322876
0.836205 0.299851 0.362440
0.852285 0.329992 0.404365
0.863873 0.361940 0.446875
0.873963 0.394490 0.489580
0.882520 0.433440 0.530488
0.890723 0.473867 0.570980
0.895280 0.500395 0.600877
0.899316 0.524938 0.629261
0.901460 0.552654 0.649710
0.903478 0.580582 0.669631
0.021695 0.017785 0.019929
0.023713 0.020909 0.025788
0.025926 0.024160 0.031879
0.031069 0.029303 0.041448
0.037408 0.034837 0.050945
0.052121 0.043104 0.059929
0.068933 0.051335 0.068363
0.094843 0.059408 0.074417
0.129801 0.069091 0.081302
0.191907 0.083609 0.090676
0.259485 0.098919 0.099298
0.339102 0.115976 0.106264
0.420648 0.133252 0.116061
0.505408 0.150894 0.130578
0.580655 0.167710 0.147488
0.643672 0.183464 0.167474
0.692758 0.198860 0.190584
0.727912 0.213898 0.216820
0.755778 0.229669 0.244813
0.777977 0.246009 0.274173
0.799485 0.268655 0.307317
0.820577 0.295086 0.342731
0.837507 0.322636 0.377608
0.852545 0.350694 0.412242
0.863873 0.385245 0.456835
0.873963 0.421962 0.504749
0.884213 0.462540 0.548325
0.894498 0.504008 0.590900
0.899316 0.535224 0.622881
0.903352 0.564974 0.653348
0.905496 0.588134 0.670021
0.907514 0.610854 0.685776
0.023460 0.020055 0.023965
0.025479 0.023961 0.028001
0.027757 0.028017 0.032660
0.033942 0.034332 0.046656
0.042055 0.041168 0.059977
0.063668 0.051649 0.068571
0.087600 0.061776 0.076712
0.121582 0.070369 0.082897
0.166241 0.081355 0.090367
0.242929 0.099518 0.101694
0.320247 0.117131 0.111659
0.398953 0.133536 0.118624
0.479295 0.151968 0.129789
0.562362 0.173776 0.147952
0.629594 0.191341 0.166001
0.676466 0.203450 0.183903
0.711881 0.216632 0.205842
0.735837 0.230889 0.231817
0.758806 0.247636 0.260282
0.781005 0.266320 0.290684
0.801861 0.290741 0.324462
0.821912 0.318603 0.360267
0.838158 0.345437 0.391060
0.852676 0.371802 0.419574
0.863971 0.408861 0.466153
0.874191 0.449483 0.518753
0.885734 0.491110 0.563632
0.897582 0.532970 0.606728
0.902823 0.568677 0.641166
0.907120 0.603505 0.674367
0.909524 0.622832 0.687916
0.911803 0.641125 0.700155
0.023460 0.024091 0.028001
0.025479 0.026955 0.032037
0.027822 0.030166 0.036631
0.035048 0.038564 0.049586
0.045505 0.047613 0.062516
0.078576 0.061218 0.075276
0.114356 0.074666 0.086998
0.161879 0.087425 0.094224
0.216693 0.101536 0.100913
0.293381 0.119699 0.105991
0.370700 0.137963 0.113937
0.449406 0.156452 0.128194
0.524669 0.175013 0.143916
0.594196 0.193697 0.162079
0.648343 0.209504 0.179216
0.682716 0.221613 0.195036
0.710839 0.235316 0.214891
0.732713 0.250615 0.238783
0.754769 0.270161 0.266922
0.776968 0.293011 0.298365
0.797174 0.317041 0.329931
0.816183 0.341779 0.361569
0.834252 0.368352 0.392492
0.851894 0.395759 0.423089
0.864752 0.434640 0.470970
0.876014 0.477346 0.524612
0.886060 0.515978 0.561223
0.895825 0.553671 0.593903
0.902628 0.592504 0.633419
0.909007 0.631498 0.673911
0.913495 0.652062 0.688892
0.917857 0.671397 0.702173
0.023082 0.027749 0.031659
0.025295 0.030158 0.035890
0.027899 0.033034 0.040639
0.036362 0.042929 0.053138
0.048992 0.053630 0.066093
0.090786 0.069970 0.082238
0.136230 0.086493 0.096759
0.197489 0.103810 0.104245
0.262508 0.121485 0.110104
0.338805 0.140234 0.111081
0.415672 0.159491 0.117693
0.493792 0.179867 0.136702
0.563831 0.198657 0.155101
0.620403 0.214802 0.172482
0.662905 0.229180 0.188611
0.687318 0.241289 0.203128
0.709517 0.255416 0.221291
0.729502 0.271561 0.243100
0.750733 0.293162 0.270474
0.772932 0.319006 0.302178
0.792609 0.342572 0.331725
0.810772 0.364772 0.359979
0.830188 0.391133 0.390604
0.850173 0.419386 0.422308
0.864398 0.459455 0.470514
0.876702 0.503463 0.524222
0.885885 0.539431 0.552064
0.894348 0.573543 0.573938
0.902127 0.614035 0.613014
0.909809 0.655439 0.654548
0.915782 0.676946 0.672951
0.921641 0.697127 0.689812
0.021064 0.029767 0.033677
0.024319 0.034259 0.038950
0.028030 0.039023 0.044805
0.038576 0.047877 0.059387
0.052637 0.057797 0.074165
0.091307 0.075178 0.090310
0.136946 0.093720 0.104245
0.212787 0.117286 0.108607
0.288222 0.140429 0.113425
0.362436 0.162302 0.119609
0.436894 0.184034 0.127848
0.511889 0.205452 0.140608
0.576070 0.224892 0.153538
0.622226 0.241037 0.166754
0.659325 0.255416 0.181450
0.684779 0.267524 0.198050
0.706978 0.281651 0.216213
0.725922 0.297796 0.235939
0.746697 0.318225 0.260644
0.768896 0.341987 0.289223
0.788573 0.364772 0.317598
0.806735 0.386971 0.345852
0.825435 0.413332 0.374329
0.844379 0.441585 0.402908
0.859125 0.480092 0.447208
0.872470 0.522017 0.496750
0.883541 0.556747 0.513655
0.894087 0.589818 0.523030
0.900304 0.625623 0.537759
0.905903 0.661819 0.553252
0.910769 0.683001 0.583699
0.915587 0.703182 0.615142
0.019550 0.034308 0.036704
0.023326 0.039841 0.042758
0.027623 0.045550 0.049427
0.039731 0.053882 0.065312
0.054835 0.063411 0.081196
0.090900 0.081314 0.097080
0.136279 0.101304 0.110462
0.222015 0.130338 0.113001
0.305588 0.158559 0.117298
0.382666 0.184339 0.126868
0.458035 0.209162 0.136132
0.529645 0.231882 0.144725
0.588390 0.252136 0.153782
0.625692 0.268281 0.163613
0.657811 0.282546 0.176860
0.683265 0.294394 0.194503
0.705074 0.308912 0.212405
0.723237 0.326098 0.230568
0.743377 0.345372 0.252539
0.765055 0.366269 0.277472
0.784536 0.387980 0.303993
0.802699 0.410179 0.331465
0.821220 0.437256 0.358982
0.839904 0.466551 0.386519
0.855170 0.502975 0.426263
0.869297 0.541774 0.470075
0.881783 0.574438 0.477443
0.893892 0.605686 0.476402
0.898709 0.637390 0.469550
0.902485 0.669159 0.461868
0.906261 0.689820 0.493307
0.910037 0.709740 0.527355
0.019550 0.046416 0.042758
0.022285 0.049867 0.048813
0.025605 0.053687 0.055416
0.037713 0.063062 0.070259
0.052686 0.073372 0.085102
0.087710 0.090233 0.099945
0.131461 0.109962 0.112871
0.213032 0.142121 0.117493
0.297906 0.174248 0.122831
0.392691 0.206277 0.130318
0.478933 0.236049 0.138801
0.546376 0.260852 0.149478
0.600954 0.282408 0.159446
0.634090 0.298553 0.168235
0.662498 0.312362 0.179985
0.684828 0.323169 0.195544
0.705074 0.339248 0.212405
0.723237 0.360601 0.230568
0.742205 0.378768 0.249610
0.761800 0.394457 0.269335
0.780500 0.414215 0.291949
0.798663 0.436414 0.316296
0.818616 0.466356 0.346417
0.839383 0.499817 0.379163
0.855170 0.532595 0.412396
0.869297 0.565145 0.445793
0.881783 0.593252 0.447823
0.893892 0.620334 0.442615
0.897798 0.649694 0.422483
0.900532 0.679379 0.400218
0.903266 0.698934 0.399498
0.906001 0.717813 0.400214
0.018920 0.059156 0.050074
0.021263 0.061825 0.055477
0.024136 0.064897 0.061345
0.034942 0.074011 0.074169
0.048524 0.083963 0.087035
0.081530 0.099782 0.100185
0.122677 0.119190 0.112005
0.199104 0.154149 0.118059
0.282758 0.189693 0.123869
0.388090 0.226996 0.128947
0.481195 0.260839 0.135611
0.547401 0.287075 0.145767
0.600987 0.309770 0.155386
0.633537 0.326566 0.164109
0.661103 0.340713 0.174769
0.682260 0.351455 0.187919
0.702409 0.368283 0.203413
0.721548 0.391198 0.221250
0.740138 0.408950 0.238136
0.758301 0.422686 0.254281
0.776871 0.442118 0.274413
0.795685 0.464969 0.296937
0.816378 0.495741 0.328055
0.837926 0.530113 0.363079
0.854153 0.559652 0.391023
0.868605 0.587580 0.416607
0.881417 0.613816 0.420399
0.893851 0.639660 0.419163
0.897172 0.666758 0.389900
0.899190 0.694035 0.356634
0.900903 0.711547 0.330387
0.902595 0.728408 0.304607
0.016902 0.073282 0.060165
0.020287 0.078035 0.063485
0.023875 0.082864 0.067138
0.030516 0.088853 0.075797
0.039931 0.095941 0.084626
0.068770 0.110719 0.094651
0.105165 0.129671 0.103932
0.174301 0.166713 0.109986
0.251184 0.204601 0.115015
0.351308 0.245028 0.116968
0.442460 0.281020 0.119532
0.513875 0.307256 0.123438
0.573450 0.330732 0.129931
0.613291 0.349611 0.140738
0.646325 0.365842 0.151203
0.670607 0.378666 0.161228
0.693880 0.394453 0.174639
0.716145 0.413202 0.191435
0.736102 0.432061 0.207864
0.754265 0.451005 0.224009
0.774137 0.473692 0.244792
0.795034 0.498625 0.268358
0.814946 0.525752 0.296937
0.834411 0.553875 0.327795
0.850898 0.581070 0.353135
0.866391 0.607957 0.376636
0.880246 0.638228 0.397810
0.893721 0.669281 0.418446
0.897172 0.694296 0.389184
0.899190 0.718448 0.352793
0.899926 0.731858 0.315609
0.900577 0.744553 0.278372
0.014883 0.087409 0.070255
0.018529 0.093463 0.071492
0.022224 0.099440 0.072957
0.026650 0.104258 0.077839
0.033608 0.110385 0.083218
0.058281 0.125684 0.092072
0.089557 0.145010 0.100108
0.149449 0.181792 0.104599
0.217414 0.219875 0.107871
0.309595 0.261865 0.107480
0.396304 0.299175 0.106723
0.470974 0.326192 0.105161
0.535024 0.350791 0.107846
0.581376 0.371363 0.117611
0.620977 0.390311 0.126294
0.651899 0.407172 0.133585
0.680250 0.424065 0.144913
0.706030 0.440991 0.160276
0.728184 0.460664 0.175420
0.747519 0.482472 0.190393
0.769132 0.505827 0.210167
0.792112 0.530109 0.232822
0.812049 0.554347 0.258789
0.830603 0.578564 0.286261
0.847643 0.603416 0.309485
0.864178 0.628479 0.331294
0.878756 0.659784 0.363575
0.892883 0.692530 0.398274
0.897440 0.717414 0.381706
0.900630 0.741176 0.357814
0.900097 0.751754 0.313233
0.899316 0.761454 0.267272
0.012865 0.101536 0.080346
0.015469 0.107590 0.079499
0.018252 0.113697 0.078816
0.023721 0.120598 0.080573
0.031069 0.128939 0.083479
0.051575 0.147362 0.094415
0.077123 0.168446 0.103363
0.124516 0.201061 0.103688
0.179981 0.235760 0.103574
0.259664 0.276708 0.102142
0.337779 0.313953 0.099367
0.412449 0.343053 0.093638
0.478452 0.369345 0.091376
0.530012 0.390958 0.094891
0.578011 0.413682 0.099147
0.621432 0.437834 0.104355
0.658116 0.459415 0.113599
0.688062 0.478424 0.126880
0.713797 0.498422 0.139355
0.736257 0.519189 0.151203
0.760344 0.538898 0.167201
0.785407 0.557972 0.185690
0.806711 0.580582 0.208922
0.826306 0.604799 0.234311
0.844388 0.627308 0.256234
0.861965 0.649246 0.277000
0.876738 0.676580 0.309933
0.890865 0.705159 0.345673
0.898156 0.733168 0.362957
0.904471 0.761096 0.377604
0.902180 0.770959 0.331526
0.899316 0.779617 0.281399
0.009964 0.123609 0.093085
0.012438 0.128752 0.090155
0.015136 0.134078 0.087409
0.021190 0.142150 0.087409
0.028416 0.151793 0.088638
0.043845 0.172430 0.098468
0.063265 0.194787 0.106247
0.099981 0.224603 0.105141
0.144770 0.256942 0.103692
0.213776 0.296848 0.101218
0.284267 0.333886 0.097137
0.358026 0.364613 0.089521
0.424729 0.393167 0.084418
0.479673 0.418101 0.083507
0.532652 0.443490 0.083963
0.583105 0.469465 0.086176
0.627210 0.493226 0.092198
0.664968 0.514774 0.102028
0.696135 0.535041 0.111492
0.722175 0.554310 0.120671
0.749476 0.573051 0.133919
0.777534 0.591474 0.149608
0.800490 0.612941 0.170220
0.821127 0.635791 0.193070
0.840933 0.656981 0.214260
0.860463 0.677618 0.234897
0.875603 0.702063 0.266060
0.889730 0.727387 0.299651
0.897363 0.754249 0.333243
0.904068 0.781330 0.366834
0.902412 0.788027 0.332132
0.900199 0.793365 0.292877
0.005928 0.155898 0.109230
0.009444 0.158958 0.104217
0.013118 0.162331 0.099518
0.019172 0.170403 0.099518
0.025617 0.180176 0.100095
0.034796 0.201855 0.104717
0.047576 0.224864 0.108656
0.075959 0.253638 0.109632
0.112415 0.284935 0.109486
0.173089 0.323799 0.105971
0.237200 0.360446 0.101499
0.308875 0.392215 0.094924
0.374667 0.423764 0.089692
0.430653 0.454947 0.086697
0.484218 0.481573 0.084158
0.534670 0.502340 0.082205
0.585025 0.525060 0.083540
0.635282 0.549733 0.088162
0.674261 0.570195 0.094175
0.704467 0.587381 0.101271
0.735935 0.608595 0.113087
0.768160 0.632227 0.127734
0.793134 0.653173 0.145873
0.814812 0.672898 0.165598
0.837223 0.694088 0.186788
0.859877 0.715766 0.208466
0.875603 0.738714 0.234747
0.889730 0.761955 0.262089
0.894629 0.782176 0.289431
0.898209 0.801967 0.316773
0.900264 0.802349 0.309998
0.902217 0.801438 0.300949
0.003910 0.194242 0.129411
0.007946 0.192615 0.119711
0.012109 0.191756 0.110617
0.018163 0.202433 0.110617
0.024608 0.214940 0.111000
0.033787 0.240264 0.114059
0.045883 0.266039 0.116924
0.070621 0.293772 0.118942
0.104213 0.324157 0.119186
0.164365 0.362501 0.114108
0.228281 0.399441 0.108562
0.300477 0.433293 0.101987
0.366985 0.466144 0.096364
0.424013 0.497327 0.092328
0.477480 0.522358 0.088064
0.526370 0.539480 0.083507
0.578287 0.561158 0.083019
0.633232 0.587393 0.086599
0.674261 0.607953 0.091571
0.704467 0.624097 0.097626
0.736261 0.644596 0.108400
0.769006 0.667706 0.122006
0.794501 0.688131 0.139819
0.816700 0.707336 0.159544
0.839631 0.726833 0.181515
0.862807 0.746428 0.204235
0.877784 0.766447 0.227748
0.890869 0.786563 0.251445
0.894270 0.801837 0.274230
0.896289 0.816419 0.296884
0.900687 0.815499 0.307394
0.905244 0.813546 0.317094
0.003910 0.238640 0.153628
0.007946 0.229722 0.136637
0.012109 0.222353 0.120708
0.018163 0.238237 0.120708
0.025389 0.256083 0.121350
0.040818 0.287657 0.126493
0.058187 0.318315 0.131050
0.083967 0.345006 0.133068
0.120162 0.374610 0.132792
0.187606 0.412954 0.125631
0.257511 0.450870 0.118327
0.332832 0.487847 0.110711
0.401683 0.520308 0.104437
0.459752 0.545241 0.100400
0.512439 0.565845 0.095681
0.558204 0.580883 0.090082
0.606996 0.601520 0.090635
0.658816 0.627755 0.097341
0.696135 0.648315 0.103680
0.722175 0.664459 0.109734
0.750452 0.681052 0.119857
0.780073 0.697913 0.132422
0.804591 0.717817 0.152057
0.826790 0.739105 0.174907
0.848159 0.755217 0.198441
0.869252 0.769604 0.222203
0.882146 0.785261 0.245065
0.893148 0.801210 0.267720
0.896289 0.813229 0.287640
0.898307 0.824687 0.307170
0.903682 0.827478 0.324320
0.909280 0.829691 0.341311
0.002775 0.283039 0.182386
0.006225 0.272688 0.159275
0.009985 0.264119 0.137463
0.018383 0.282282 0.135119
0.028660 0.302170 0.133606
0.052096 0.334134 0.137902
0.077485 0.365793 0.141881
0.111337 0.396129 0.144485
0.154385 0.428175 0.144420
0.225018 0.465347 0.136348
0.296445 0.502153 0.128275
0.369617 0.538153 0.120203
0.436198 0.567879 0.112985
0.491794 0.587149 0.107191
0.543003 0.605194 0.102309
0.588573 0.621664 0.098598
0.635120 0.642138 0.100779
0.682643 0.666616 0.108851
0.717386 0.686077 0.117107
0.742189 0.701636 0.125505
0.767317 0.715567 0.136954
0.792641 0.728522 0.150235
0.815414 0.745415 0.169423
0.837027 0.764099 0.191296
0.855809 0.777412 0.214488
0.873646 0.788935 0.238120
0.884713 0.802573 0.262015
0.894218 0.816700 0.285972
0.897684 0.825244 0.304347
0.900288 0.832991 0.321924
0.905578 0.836710 0.340843
0.911046 0.840160 0.359852
0.000757 0.327437 0.214675
0.003165 0.320211 0.186357
0.006209 0.314571 0.159401
0.018773 0.332734 0.152891
0.033868 0.352101 0.147342
0.066679 0.379899 0.148513
0.102223 0.409540 0.150149
0.149616 0.447168 0.153795
0.202819 0.484161 0.154511
0.273453 0.519250 0.146438
0.342926 0.553321 0.138366
0.409849 0.585155 0.130294
0.470571 0.610325 0.121904
0.520959 0.624386 0.112985
0.570150 0.641324 0.108168
0.617803 0.661961 0.108623
0.662787 0.682956 0.112887
0.705102 0.704309 0.120960
0.738153 0.721817 0.131559
0.763997 0.736334 0.144123
0.786261 0.748573 0.158437
0.806377 0.759444 0.173801
0.826807 0.771390 0.190776
0.847378 0.783824 0.208483
0.862774 0.794794 0.229852
0.876445 0.805275 0.252442
0.885885 0.818718 0.278681
0.894348 0.832845 0.305762
0.898596 0.837743 0.323616
0.902241 0.841324 0.340152
0.906619 0.843806 0.357053
0.911046 0.846214 0.373979
0.000000 0.385709 0.245704
0.002018 0.372494 0.212177
0.005037 0.361565 0.180242
0.023070 0.384936 0.172169
0.044773 0.408584 0.164373
0.092165 0.434168 0.158514
0.140510 0.461547 0.154023
0.192981 0.496701 0.155455
0.249016 0.531155 0.154674
0.315743 0.563510 0.147252
0.382613 0.595417 0.140441
0.449796 0.626339 0.134973
0.511413 0.650939 0.128747
0.563754 0.665001 0.121261
0.612676 0.682053 0.119072
0.657205 0.702950 0.123694
0.698348 0.722838 0.130692
0.736106 0.741717 0.140067
0.765918 0.756092 0.152847
0.789549 0.766963 0.168275
0.808949 0.776533 0.183745
0.825810 0.785322 0.199239
0.842715 0.795005 0.216523
0.859641 0.805096 0.234620
0.871490 0.813233 0.253353
0.881645 0.820720 0.272297
0.889050 0.830428 0.295102
0.895821 0.840648 0.318799
0.900768 0.844831 0.336457
0.905455 0.848151 0.353253
0.908922 0.850861 0.369438
0.912307 0.853530 0.385583
0.000000 0.452307 0.275975
0.002018 0.427634 0.237241
0.005428 0.406484 0.200423
0.029710 0.438188 0.192350
0.059095 0.468997 0.183383
0.124195 0.493539 0.168149
0.186926 0.518509 0.155259
0.239397 0.545330 0.152525
0.293870 0.572754 0.148880
0.354347 0.601984 0.142500
0.418223 0.632068 0.137707
0.489572 0.664032 0.136405
0.556137 0.690455 0.134346
0.614727 0.707641 0.131026
0.664431 0.725539 0.133003
0.702710 0.744353 0.141792
0.738645 0.762158 0.151915
0.772236 0.778954 0.163373
0.797882 0.789488 0.178236
0.817347 0.795152 0.195748
0.833882 0.801466 0.211347
0.848660 0.808172 0.225799
0.861334 0.817204 0.244906
0.873052 0.827295 0.266129
0.881255 0.832307 0.281737
0.888285 0.835628 0.295473
0.893412 0.839477 0.311377
0.898099 0.843448 0.327783
0.903698 0.848672 0.345441
0.909427 0.854075 0.363278
0.911982 0.857892 0.379529
0.914325 0.861602 0.395674
0.000000 0.506417 0.314571
0.002018 0.482460 0.269913
0.005863 0.461787 0.227183
0.037111 0.490366 0.213382
0.074893 0.518668 0.198588
0.158417 0.545033 0.176844
0.236386 0.571130 0.158555
0.290289 0.596064 0.155235
0.345705 0.620932 0.151231
0.405662 0.645605 0.145177
0.467796 0.670868 0.140791
0.534719 0.697428 0.140075
0.597101 0.720571 0.140213
0.651915 0.738018 0.141776
0.697701 0.754839 0.146756
0.731879 0.770853 0.156130
0.764396 0.786217 0.168304
0.795253 0.800929 0.183277
0.818165 0.809636 0.199641
0.834895 0.813673 0.217088
0.848656 0.818970 0.232460
0.860634 0.825024 0.246587
0.871315 0.832869 0.266263
0.881405 0.841527 0.288462
0.887931 0.845205 0.303093
0.893270 0.847224 0.315202
0.897550 0.849242 0.331859
0.901586 0.851260 0.349567
0.906762 0.855556 0.365793
0.912100 0.860178 0.381807
0.913654 0.863580 0.395259
0.914956 0.866900 0.408539
0.000000 0.554851 0.356951
0.002018 0.537144 0.306043
0.006319 0.521809 0.256933
0.044858 0.542055 0.234799
0.091364 0.563457 0.212063
0.193636 0.592947 0.185112
0.287229 0.621778 0.162787
0.343215 0.647753 0.160508
0.400715 0.672100 0.157286
0.462755 0.691565 0.151231
0.523717 0.710644 0.146520
0.582307 0.728872 0.144762
0.636357 0.746416 0.146202
0.682838 0.762821 0.152973
0.722569 0.777689 0.160427
0.753622 0.790578 0.168760
0.783535 0.803338 0.182496
0.812310 0.815967 0.201635
0.833138 0.823763 0.219236
0.847785 0.827799 0.235642
0.858811 0.833097 0.250623
0.867665 0.839151 0.264749
0.877369 0.845563 0.284426
0.887459 0.852139 0.306625
0.893204 0.855296 0.321256
0.897501 0.857314 0.333365
0.901586 0.859332 0.354254
0.905622 0.861350 0.377169
0.909886 0.863824 0.391312
0.914183 0.866363 0.404202
0.914696 0.868658 0.413552
0.914956 0.870936 0.422666
0.001514 0.592691 0.390250
0.005094 0.578108 0.335436
0.011510 0.565524 0.282192
0.060466 0.582905 0.252507
0.117257 0.601801 0.222609
0.228904 0.631291 0.191231
0.331090 0.659878 0.165212
0.392284 0.684551 0.162412
0.452648 0.707206 0.159385
0.510522 0.723806 0.155674
0.567481 0.740020 0.153469
0.622425 0.755384 0.154576
0.671364 0.769868 0.158295
0.710294 0.782888 0.166367
0.744752 0.795510 0.175807
0.773461 0.807618 0.187004
0.799989 0.818165 0.202302
0.824337 0.827148 0.221702
0.842496 0.832910 0.237953
0.855841 0.836165 0.251754
0.865403 0.841169 0.267223
0.872694 0.847224 0.283694
0.881910 0.852741 0.303028
0.892000 0.858014 0.323665
0.896964 0.860846 0.340249
0.900219 0.862864 0.355483
0.904109 0.864882 0.375476
0.908145 0.866900 0.396569
0.911498 0.868918 0.409800
0.914753 0.870936 0.421909
0.916421 0.872954 0.433163
0.917983 0.874972 0.444360
0.003532 0.626998 0.420522
0.009195 0.614499 0.362583
0.018281 0.603802 0.305954
0.078694 0.620143 0.268977
0.146292 0.637996 0.232179
0.264188 0.666445 0.196635
0.372624 0.693795 0.167034
0.440068 0.716385 0.163193
0.503557 0.736956 0.160166
0.555181 0.751474 0.159580
0.607192 0.765930 0.160825
0.660053 0.780252 0.166099
0.704956 0.792523 0.172421
0.736594 0.801377 0.180494
0.766040 0.811655 0.191756
0.792666 0.823763 0.207120
0.815548 0.832226 0.223981
0.834688 0.837044 0.242339
0.849982 0.840396 0.256376
0.862286 0.842610 0.267052
0.870806 0.847224 0.283303
0.877056 0.853278 0.302898
0.885946 0.858079 0.321777
0.896036 0.862310 0.340331
0.900219 0.864882 0.359519
0.902432 0.866900 0.378919
0.906127 0.868918 0.396308
0.910163 0.870936 0.413234
0.912604 0.872954 0.425945
0.914818 0.874972 0.438054
0.918374 0.876991 0.453214
0.922019 0.879009 0.468578
0.013748 0.662946 0.462271
0.021495 0.648298 0.391898
0.033250 0.635575 0.323156
0.105120 0.651720 0.278888
0.182890 0.669167 0.235613
0.301958 0.695728 0.199287
0.411566 0.720995 0.169175
0.480182 0.740655 0.165985
0.544045 0.758720 0.164227
0.593651 0.772000 0.166766
0.642036 0.785281 0.170668
0.687737 0.798561 0.177568
0.727334 0.809571 0.185860
0.756759 0.816797 0.196472
0.783308 0.824679 0.208763
0.806158 0.833402 0.223216
0.824548 0.839359 0.237831
0.838480 0.842549 0.252608
0.851862 0.846031 0.267606
0.864817 0.849742 0.282774
0.874517 0.854389 0.302133
0.882264 0.859597 0.324007
0.889876 0.863417 0.341002
0.897428 0.866607 0.355780
0.900829 0.868918 0.375879
0.902847 0.870936 0.397753
0.907193 0.873642 0.421848
0.912075 0.876506 0.446456
0.915192 0.877890 0.460867
0.918056 0.879062 0.473822
0.922019 0.881820 0.492148
0.926056 0.884685 0.510832
0.025857 0.699272 0.506669
0.035687 0.681499 0.421714
0.050111 0.665847 0.338845
0.133439 0.681992 0.287286
0.221234 0.699178 0.237631
0.340302 0.723656 0.201305
0.449910 0.746644 0.171388
0.518526 0.763179 0.169240
0.582128 0.778641 0.169044
0.630693 0.790879 0.174708
0.675758 0.803118 0.181084
0.713126 0.815357 0.189026
0.747124 0.825326 0.199141
0.775508 0.831510 0.212877
0.799648 0.836982 0.226015
0.818331 0.841539 0.238384
0.832035 0.844892 0.249874
0.840758 0.847040 0.260485
0.852448 0.851239 0.277175
0.866444 0.857033 0.298593
0.877837 0.861810 0.321598
0.887667 0.865976 0.345555
