其他预设/【236】赛博朋克风调色预设/【后期菌】视频调色预设/CUBE/Abandoned 08.cube
# LUT by SparkleStock. Enhanced with VOXCOLOR algorithms.
LUT_3D_SIZE 8
DOMAIN_MIN 0.000000 0.000000 0.000000
DOMAIN_MAX 0.903226 0.903226 0.903226
0.019550 0.019550 0.019550
0.077571 0.044524 0.036452
0.218333 0.094977 0.091571
0.372592 0.181124 0.177971
0.494056 0.276984 0.282786
0.592565 0.368429 0.376123
0.654243 0.440703 0.455460
0.706587 0.512471 0.532022
0.035443 0.039857 0.035695
0.187358 0.102154 0.086245
0.356569 0.190613 0.177719
0.483188 0.294089 0.287705
0.584179 0.383061 0.378459
0.648359 0.454756 0.458837
0.701920 0.527957 0.537669
0.740504 0.588793 0.591934
0.047425 0.088670 0.062687
0.236053 0.160248 0.130924
0.446521 0.297743 0.246342
0.555315 0.388289 0.338536
0.623601 0.460643 0.413706
0.666404 0.525011 0.487371
0.709911 0.583402 0.551112
0.740439 0.619955 0.550176
0.077318 0.195125 0.141267
0.227773 0.235874 0.146980
0.452042 0.327579 0.204516
0.577807 0.409109 0.279088
0.640678 0.481065 0.356573
0.682866 0.539463 0.420135
0.717935 0.588610 0.479380
0.748117 0.625371 0.509916
0.108599 0.333869 0.243812
0.279137 0.362066 0.208060
0.474498 0.416380 0.171547
0.575455 0.446171 0.195939
0.623577 0.484210 0.246578
0.669464 0.534650 0.309705
0.707950 0.590156 0.386808
0.747328 0.635673 0.453141
0.118437 0.476272 0.353924
0.441919 0.466649 0.211367
0.588239 0.506921 0.213308
0.640108 0.530256 0.252120
0.671702 0.560454 0.305722
0.703841 0.606817 0.386340
0.738783 0.648237 0.456786
0.767826 0.684136 0.526537
0.166115 0.603160 0.457604
0.538133 0.560499 0.278091
0.665399 0.589721 0.274474
0.691704 0.605601 0.321134
0.714257 0.635954 0.388712
0.743418 0.672044 0.467837
0.768176 0.705704 0.539419
0.787942 0.730552 0.594888
0.313310 0.673541 0.555482
0.608608 0.632788 0.357432
0.710347 0.658482 0.349636
0.732355 0.681450 0.415366
0.751441 0.700862 0.484141
0.771545 0.724937 0.545261
0.789940 0.747380 0.609381
0.809803 0.773058 0.659707
0.027875 0.023965 0.024469
0.081513 0.047962 0.048231
0.210733 0.091286 0.100433
0.378695 0.179359 0.208747
0.497901 0.274523 0.305803
0.588943 0.361484 0.397602
0.661278 0.437269 0.477224
0.712642 0.512711 0.550917
0.032762 0.044541 0.044541
0.199938 0.108835 0.109137
0.360477 0.193577 0.206603
0.481715 0.290406 0.310740
0.584602 0.380254 0.406749
0.649817 0.452746 0.481813
0.692829 0.514851 0.542184
0.735133 0.577175 0.595461
0.048434 0.105287 0.090375
0.149702 0.139705 0.122632
0.466133 0.305636 0.315926
0.563902 0.390122 0.400402
0.634005 0.462263 0.475445
0.675644 0.516856 0.530098
0.709528 0.575064 0.585660
0.749577 0.627854 0.633533
0.072351 0.234771 0.181320
0.135984 0.266387 0.215348
0.409288 0.343031 0.289458
0.589055 0.453203 0.389823
0.644144 0.523659 0.463377
0.681348 0.565936 0.508759
0.712709 0.610283 0.554053
0.751720 0.656585 0.603944
0.082803 0.380538 0.291994
0.151031 0.413385 0.330924
0.410083 0.427997 0.280073
0.560464 0.464882 0.276389
0.633380 0.507546 0.310498
0.665807 0.556934 0.375832
0.708815 0.606122 0.440882
0.744640 0.649323 0.502705
0.091697 0.528327 0.407070
0.182202 0.545997 0.434180
0.525718 0.531325 0.318882
0.637597 0.547209 0.300740
0.669602 0.581597 0.362210
0.705388 0.626196 0.434032
0.740317 0.660841 0.499558
0.766125 0.695280 0.564372
0.153961 0.633753 0.510075
0.358853 0.603879 0.504076
0.611732 0.606511 0.368608
0.693302 0.631756 0.384863
0.713603 0.652144 0.435913
0.746143 0.687660 0.517606
0.768341 0.716430 0.574133
0.786702 0.734867 0.620051
0.297495 0.691667 0.583988
0.514106 0.642301 0.541956
0.675070 0.675622 0.439761
0.730690 0.693424 0.461370
0.756464 0.719208 0.532828
0.773111 0.736891 0.582446
0.791792 0.757443 0.636550
0.809513 0.778928 0.682089
0.040110 0.036704 0.048434
0.098602 0.053069 0.062655
0.225144 0.101348 0.124365
0.384265 0.179652 0.228786
0.499350 0.266263 0.324540
0.598871 0.361313 0.418756
0.666604 0.438432 0.504594
0.718370 0.509924 0.568323
0.047051 0.060986 0.073034
0.160457 0.101928 0.115233
0.362966 0.193624 0.231089
0.496586 0.293048 0.342930
0.591047 0.380684 0.428320
0.651986 0.449704 0.501515
0.696744 0.514378 0.557988
0.733214 0.571097 0.606734
0.055176 0.119882 0.115467
0.144164 0.174468 0.176669
0.443423 0.289571 0.323900
0.564903 0.388762 0.421589
0.632643 0.456507 0.494777
0.673919 0.515551 0.548033
0.701853 0.561891 0.584801
0.741337 0.617435 0.637197
0.074698 0.249992 0.213036
0.132565 0.296461 0.263040
0.324141 0.346681 0.334124
0.597862 0.461494 0.478254
0.659176 0.533299 0.546666
0.685234 0.575306 0.578877
0.716697 0.618552 0.619475
0.747109 0.659667 0.646766
0.073897 0.399946 0.329809
0.137964 0.442536 0.374721
0.243397 0.471542 0.408411
0.514059 0.487856 0.412084
0.654117 0.564815 0.478269
0.688115 0.604874 0.523966
0.719496 0.643508 0.574146
0.744392 0.668668 0.585975
0.087572 0.533446 0.444381
0.159559 0.555434 0.471214
0.301539 0.578339 0.502861
0.586849 0.576691 0.418265
0.668692 0.599045 0.415943
0.705960 0.639134 0.480714
0.733881 0.670937 0.541044
0.757015 0.694682 0.585233
0.151231 0.632845 0.539899
0.281793 0.644906 0.560840
0.457504 0.635285 0.564294
0.664187 0.656011 0.477316
0.719639 0.672620 0.491977
0.745008 0.699003 0.552628
0.759082 0.716495 0.593101
0.779018 0.736243 0.636822
0.309099 0.700761 0.609417
0.446884 0.689173 0.613417
0.608669 0.674547 0.576328
0.714466 0.706220 0.533221
0.759957 0.729646 0.574724
0.776533 0.750168 0.614918
0.788616 0.761390 0.656027
0.800886 0.776306 0.694105
0.053858 0.053101 0.078832
0.129915 0.070613 0.097003
0.238124 0.105531 0.145108
0.392606 0.183374 0.250476
0.511657 0.263362 0.347744
0.605414 0.351353 0.436996
0.677113 0.436247 0.522269
0.719038 0.502434 0.580798
0.076610 0.091978 0.126607
0.161326 0.134308 0.170959
0.362742 0.202307 0.253924
0.502969 0.290136 0.361663
0.598327 0.376130 0.448729
0.652376 0.442393 0.517432
0.702980 0.516662 0.578376
0.733990 0.570121 0.617276
0.083499 0.147085 0.167588
0.159424 0.214903 0.234194
0.362568 0.291469 0.329915
0.559921 0.384168 0.435997
0.638607 0.461720 0.519230
0.675654 0.514805 0.563990
0.708312 0.570267 0.603076
0.742518 0.617455 0.645200
0.094472 0.282367 0.270783
0.148839 0.321596 0.310909
0.329935 0.383406 0.389081
0.563872 0.444199 0.480794
0.648328 0.521514 0.554718
0.682786 0.570020 0.592740
0.714953 0.613876 0.630546
0.741626 0.653747 0.663080
0.098622 0.402965 0.369369
0.163505 0.439489 0.408343
0.259633 0.477777 0.448908
0.429261 0.512652 0.490658
0.655552 0.582867 0.581981
0.697577 0.624840 0.614528
0.720576 0.656147 0.641928
0.747775 0.687388 0.669293
0.117941 0.522586 0.469855
0.205618 0.554643 0.508071
0.304236 0.585612 0.539881
0.422022 0.602714 0.557398
0.648770 0.622065 0.533786
0.711467 0.656426 0.561681
0.735063 0.680943 0.592565
0.759871 0.703811 0.630334
0.169358 0.616949 0.555901
0.299401 0.641411 0.585881
0.414939 0.656392 0.602611
0.545043 0.665574 0.616069
0.701800 0.687559 0.567488
0.745720 0.709023 0.584971
0.759378 0.721363 0.619090
0.773367 0.736820 0.651221
0.317419 0.690117 0.620350
0.428304 0.703437 0.645026
0.545439 0.698993 0.648957
0.664950 0.710180 0.641466
0.756395 0.739899 0.613768
0.779365 0.755538 0.642907
0.787083 0.764654 0.678218
0.801381 0.777106 0.711368
0.091067 0.093085 0.145051
0.169199 0.101145 0.157021
0.293743 0.136844 0.211392
0.406704 0.186719 0.277224
0.521915 0.261084 0.368673
0.617054 0.351821 0.460599
0.685523 0.436906 0.541205
0.729136 0.505127 0.599046
0.105759 0.134147 0.189958
0.172412 0.185868 0.247810
0.365777 0.222472 0.302585
0.512913 0.292647 0.386190
0.604265 0.371192 0.464686
0.658171 0.446832 0.538523
0.703913 0.510582 0.586506
0.746074 0.577455 0.638483
0.126762 0.212775 0.254399
0.190260 0.263858 0.309437
0.316684 0.336919 0.382892
0.522287 0.372611 0.441140
0.643055 0.461737 0.537235
0.678983 0.517573 0.582283
0.718780 0.574259 0.621968
0.749653 0.620853 0.661929
0.139135 0.304973 0.329019
0.203101 0.360474 0.376793
0.298496 0.409450 0.428864
0.472017 0.467631 0.501232
0.642969 0.518340 0.563781
0.694965 0.584217 0.616545
0.718776 0.616019 0.643534
0.743068 0.655576 0.676299
0.147338 0.402940 0.405093
0.217159 0.444877 0.448371
0.307902 0.495095 0.491592
0.441077 0.531614 0.538711
0.628016 0.576546 0.597256
0.693950 0.620175 0.631870
0.724012 0.656852 0.662912
0.748199 0.685048 0.692001
0.160305 0.511979 0.496843
0.244678 0.546707 0.529822
0.342564 0.574935 0.562876
0.431462 0.606463 0.591024
0.568433 0.635161 0.620027
0.702320 0.669726 0.624306
0.737197 0.690764 0.639538
0.757660 0.713347 0.661173
0.212519 0.603538 0.570365
0.329780 0.628157 0.600477
0.427198 0.653681 0.624600
0.518814 0.672176 0.643407
0.618072 0.689653 0.658596
0.727859 0.714574 0.641739
0.760606 0.727238 0.650036
0.776095 0.740738 0.670175
0.348086 0.681459 0.636479
0.433627 0.697886 0.655892
0.520409 0.709861 0.672987
0.627624 0.713267 0.678646
0.706872 0.737311 0.688794
0.769680 0.758966 0.678661
0.787391 0.768335 0.698391
0.800554 0.778992 0.727103
0.133951 0.143033 0.236622
0.204683 0.173439 0.263704
0.337596 0.183049 0.285919
0.445040 0.214346 0.330387
0.542511 0.266536 0.399026
0.620875 0.349778 0.474367
0.689637 0.432801 0.553163
0.730235 0.504781 0.610475
0.149006 0.192224 0.282371
0.219075 0.249561 0.335982
0.393547 0.286133 0.379839
0.509002 0.294922 0.408215
0.610470 0.367839 0.481150
0.663019 0.442939 0.550374
0.709083 0.513633 0.601467
0.744964 0.572415 0.644856
0.171180 0.263435 0.332014
0.228798 0.313718 0.377516
0.324268 0.377543 0.438948
0.535431 0.409760 0.490359
0.641890 0.452853 0.545257
0.687440 0.522550 0.599158
0.723416 0.578271 0.637905
0.750840 0.622902 0.673778
0.190080 0.340571 0.390510
0.248286 0.387657 0.426716
0.331258 0.435321 0.473964
0.453830 0.501316 0.544900
0.634928 0.531468 0.586406
0.700667 0.588821 0.634508
0.727540 0.625356 0.663968
0.748447 0.657025 0.689498
0.201114 0.433460 0.454850
0.274972 0.468991 0.494652
0.362897 0.514159 0.538181
0.452254 0.557895 0.581483
0.585220 0.604313 0.627705
0.695660 0.628763 0.655166
0.732318 0.664879 0.684148
0.754521 0.690524 0.709495
0.215404 0.522505 0.531179
0.310043 0.554603 0.561359
0.396356 0.584258 0.592747
0.483452 0.617224 0.624971
0.583856 0.651912 0.656180
0.671991 0.673571 0.682531
0.732453 0.694809 0.698321
0.764020 0.719604 0.721440
0.268314 0.600857 0.592532
0.378734 0.627233 0.616683
0.463540 0.651378 0.641697
0.539164 0.672505 0.664617
0.604991 0.696522 0.684486
0.677764 0.709142 0.696294
0.749992 0.733009 0.689900
0.780635 0.750614 0.706537
0.370187 0.663890 0.640303
0.460774 0.691740 0.666884
0.529376 0.705907 0.680690
0.603523 0.719096 0.699265
0.673417 0.735561 0.717306
0.740149 0.757051 0.723128
0.777681 0.771507 0.723228
0.802088 0.784541 0.743200
0.188945 0.204585 0.330338
0.256213 0.241932 0.363929
0.416611 0.250586 0.388265
0.497714 0.248523 0.392313
0.553842 0.278119 0.425201
0.632328 0.354099 0.500538
0.691289 0.434783 0.570166
0.733884 0.509371 0.626998
0.197212 0.255627 0.363160
0.276545 0.317444 0.416876
0.378198 0.372525 0.469075
0.537280 0.363418 0.486762
0.621457 0.381973 0.510896
0.670203 0.442050 0.564191
0.712615 0.512961 0.613547
0.750253 0.577111 0.659926
0.220730 0.324296 0.407026
0.289051 0.373059 0.445798
0.380209 0.434839 0.511507
0.557388 0.477954 0.571485
0.632830 0.459950 0.564474
0.693364 0.527202 0.616155
0.726787 0.584036 0.653679
0.754640 0.626776 0.686951
0.232960 0.391043 0.445784
0.314440 0.441210 0.495726
0.387412 0.485040 0.540241
0.470502 0.539776 0.588202
0.646133 0.573490 0.637081
0.702455 0.593833 0.648966
0.732959 0.632418 0.679435
0.752574 0.662675 0.703556
0.255542 0.468781 0.507804
0.336763 0.511044 0.549089
0.413513 0.547791 0.582152
0.484332 0.586083 0.619465
0.576311 0.627384 0.660144
0.696659 0.647220 0.682312
0.735013 0.670479 0.699499
0.756191 0.690666 0.717402
0.273448 0.542031 0.565255
0.368755 0.576909 0.596593
0.455379 0.605908 0.628701
0.528890 0.633818 0.652516
0.594456 0.662831 0.678427
0.661196 0.687169 0.702657
0.735603 0.704618 0.719843
0.768851 0.725640 0.738522
0.330041 0.607367 0.615187
0.422215 0.633102 0.636280
0.509077 0.655818 0.661590
0.568587 0.681185 0.682947
0.625721 0.700395 0.699018
0.679503 0.720651 0.720825
0.735506 0.741077 0.727457
0.785053 0.766272 0.746477
0.410431 0.670912 0.658783
0.484834 0.683600 0.676123
0.557013 0.704824 0.694824
0.619374 0.722610 0.710141
0.673618 0.740997 0.732469
0.719215 0.756376 0.747638
0.768656 0.776155 0.755786
0.800943 0.794174 0.768906
0.245199 0.264371 0.406899
0.322693 0.310169 0.446745
0.434420 0.333593 0.473700
0.538003 0.300375 0.463231
0.591779 0.322839 0.480727
0.646484 0.369560 0.527664
0.697852 0.440816 0.585111
0.737656 0.517386 0.641292
0.255139 0.326529 0.437513
0.336049 0.379069 0.488135
0.414909 0.429575 0.541436
0.579293 0.427573 0.565665
0.632120 0.399523 0.543414
0.679266 0.456872 0.589717
0.715065 0.522099 0.632763
0.747779 0.575359 0.667677
0.272220 0.384224 0.468126
0.353718 0.437532 0.521032
0.431562 0.489119 0.571249
0.522519 0.546672 0.620530
0.655034 0.536798 0.637496
0.698190 0.536580 0.632801
0.728383 0.583471 0.663600
0.756071 0.628031 0.696615
0.290212 0.442216 0.506759
0.373572 0.494893 0.553967
0.441960 0.540603 0.595784
0.523044 0.586736 0.638117
0.656199 0.631110 0.691717
0.704128 0.611439 0.676478
0.737789 0.636243 0.691403
0.761947 0.670807 0.719067
0.316105 0.510522 0.555327
0.390134 0.548920 0.590617
0.474294 0.588813 0.629938
0.538947 0.620730 0.658962
0.600303 0.651969 0.688595
0.706457 0.679379 0.719098
0.737948 0.678513 0.716845
0.767989 0.702828 0.734899
0.341494 0.569670 0.602907
0.429868 0.600263 0.632752
0.504252 0.627502 0.656190
0.564291 0.652404 0.680190
0.623443 0.680090 0.701277
0.676359 0.704179 0.722457
0.740486 0.724464 0.745081
0.776822 0.734396 0.756995
0.395548 0.626262 0.644152
0.481709 0.647494 0.665485
0.549423 0.667995 0.686089
0.607963 0.692005 0.703786
0.654150 0.711821 0.720665
0.694289 0.733133 0.740960
0.736872 0.749859 0.756027
0.788176 0.772060 0.774538
0.457527 0.670392 0.674892
0.534768 0.687989 0.694816
0.595831 0.708130 0.712629
0.642312 0.724803 0.724428
0.686514 0.744092 0.743788
0.727652 0.761753 0.765547
0.765667 0.783297 0.781030
0.802158 0.802803 0.796655
