其他预设/【236】赛博朋克风调色预设/【后期菌】视频调色预设/CUBE/Abandoned 04_S.cube
# LUT by SparkleStock. Enhanced with VOXCOLOR algorithms.
LUT_3D_SIZE 5
DOMAIN_MIN 0.000000 0.000000 0.000000
DOMAIN_MAX 0.903226 0.903226 0.903226
0.035191 0.050831 0.062561
0.094346 0.073661 0.091697
0.373979 0.139123 0.189575
0.695740 0.302084 0.370447
0.846971 0.488254 0.541608
0.036704 0.083877 0.086904
0.270149 0.168369 0.176413
0.556402 0.318176 0.268102
0.739003 0.433639 0.373845
0.866196 0.628744 0.572701
0.017785 0.192224 0.148709
0.208511 0.286424 0.174260
0.483095 0.442481 0.193656
0.695943 0.547678 0.285956
0.842536 0.701839 0.501921
0.077823 0.454703 0.326806
0.358135 0.523880 0.279901
0.575586 0.638965 0.357171
0.747100 0.734210 0.451448
0.847285 0.799135 0.566769
0.324031 0.704065 0.554347
0.562358 0.717361 0.441984
0.714639 0.787836 0.541860
0.823356 0.846593 0.632866
0.902888 0.891158 0.719786
0.038218 0.062561 0.080598
0.097373 0.071264 0.118437
0.380916 0.099570 0.240317
0.691964 0.228936 0.394925
0.865008 0.458109 0.592512
0.032794 0.101914 0.114572
0.256306 0.157165 0.230800
0.533303 0.268537 0.330978
0.717937 0.346854 0.386547
0.880010 0.525925 0.569869
0.018126 0.226926 0.212206
0.129036 0.330954 0.285882
0.533441 0.462950 0.348049
0.709592 0.526199 0.390663
0.861965 0.644531 0.525805
0.100022 0.489532 0.414585
0.263545 0.578913 0.486013
0.572989 0.658846 0.394239
0.731830 0.723679 0.460573
0.864846 0.764958 0.513804
0.328193 0.712768 0.615626
0.517792 0.742319 0.601748
0.731557 0.796104 0.600286
0.833412 0.849999 0.680386
0.902589 0.894622 0.689529
0.039101 0.080850 0.126510
0.102907 0.076057 0.162693
0.396178 0.092580 0.330065
0.716364 0.234779 0.495981
0.867803 0.444002 0.648966
0.035191 0.138691 0.192712
0.153848 0.204044 0.315301
0.552231 0.264404 0.463321
0.731386 0.358176 0.531111
0.880361 0.541863 0.667832
0.047637 0.288328 0.333882
0.174451 0.386332 0.424615
0.510102 0.444817 0.498091
0.721773 0.512741 0.542609
0.873897 0.572481 0.590489
0.192366 0.535757 0.521695
0.281033 0.595213 0.579855
0.419102 0.646072 0.601387
0.738393 0.722354 0.570328
0.867531 0.737897 0.565464
0.343789 0.713671 0.668894
0.438489 0.752274 0.700549
0.696809 0.806469 0.714365
0.817601 0.860902 0.695518
0.899722 0.895394 0.681131
0.034560 0.129789 0.261596
0.125460 0.134582 0.312537
0.432065 0.117746 0.420713
0.729547 0.256527 0.574833
0.871660 0.449027 0.701859
0.061804 0.222764 0.341454
0.182370 0.298455 0.427413
0.589848 0.287855 0.564464
0.783075 0.438197 0.673253
0.878819 0.590498 0.749599
0.154844 0.394067 0.479600
0.257656 0.475361 0.564527
0.412850 0.550529 0.641568
0.773979 0.597354 0.712506
0.870627 0.608515 0.734462
0.277664 0.589737 0.628309
0.350435 0.640112 0.676555
0.470427 0.687898 0.721773
0.699022 0.718250 0.732950
0.883557 0.745573 0.747208
0.373731 0.720620 0.717565
0.461124 0.746579 0.736443
0.626933 0.790645 0.784985
0.792006 0.858239 0.798890
0.907837 0.905738 0.796397
0.090941 0.208243 0.409044
0.194441 0.234718 0.462259
0.534902 0.186760 0.553549
0.740301 0.276610 0.644441
0.871608 0.456213 0.749598
0.171099 0.331863 0.492018
0.282403 0.420480 0.580073
0.539439 0.470980 0.683513
0.798650 0.474707 0.728854
0.873798 0.605775 0.788081
0.265360 0.508793 0.627755
0.345770 0.580566 0.686545
0.477871 0.644910 0.744364
0.764479 0.655421 0.777994
0.866727 0.695599 0.822722
0.341942 0.659670 0.731972
0.416072 0.693056 0.758359
0.547611 0.728689 0.785257
0.696125 0.768926 0.819407
0.880952 0.789347 0.864898
0.413507 0.747625 0.778698
0.522138 0.772831 0.797686
0.659930 0.803621 0.823776
0.778620 0.850649 0.861947
0.903500 0.909117 0.903767
