其他预设/【236】赛博朋克风调色预设/【后期菌】视频调色预设/CUBE/Abandoned 01.cube
# LUT by SparkleStock. Enhanced with VOXCOLOR algorithms.
LUT_3D_SIZE 32
0.097752 0.039101 0.078201
0.097752 0.043137 0.084256
0.097752 0.047047 0.090058
0.097752 0.049065 0.092076
0.098256 0.051083 0.094094
0.102292 0.053101 0.096112
0.107085 0.056255 0.100022
0.115158 0.064327 0.112131
0.124744 0.071895 0.123735
0.138870 0.077949 0.133825
0.158042 0.085895 0.143916
0.188314 0.098004 0.154006
0.226910 0.110113 0.163340
0.279381 0.122221 0.171412
0.336266 0.136096 0.181251
0.398827 0.152240 0.193359
0.463406 0.168385 0.207486
0.530003 0.184530 0.223631
0.587519 0.199540 0.240911
0.637972 0.213666 0.259074
0.678334 0.232838 0.282282
0.712642 0.255037 0.308517
0.737237 0.274462 0.330590
0.757418 0.292624 0.350771
0.771545 0.309274 0.372466
0.783653 0.325419 0.394665
0.797402 0.346483 0.418503
0.811528 0.368682 0.442721
0.820358 0.392647 0.470470
0.828430 0.416864 0.498723
0.838394 0.439189 0.519408
0.848485 0.461388 0.539589
0.097752 0.043137 0.084256
0.097752 0.046131 0.088227
0.097882 0.049130 0.092141
0.099965 0.052190 0.095201
0.102553 0.055510 0.098781
0.108672 0.060653 0.106007
0.115548 0.066150 0.113953
0.125704 0.073181 0.125020
0.138154 0.080748 0.136104
0.157489 0.089928 0.147236
0.184473 0.100673 0.158042
0.228285 0.114865 0.168133
0.275344 0.128666 0.178248
0.327815 0.141816 0.188403
0.388346 0.157644 0.200325
0.459240 0.176913 0.214517
0.524340 0.194621 0.230727
0.583646 0.210765 0.248955
0.632699 0.226361 0.267732
0.673777 0.241529 0.286936
0.706717 0.260441 0.309884
0.734776 0.281598 0.335078
0.754554 0.300697 0.356825
0.770568 0.318860 0.377006
0.783653 0.337853 0.399482
0.795762 0.357122 0.422723
0.806971 0.378772 0.446757
0.817973 0.400971 0.470974
0.827323 0.424025 0.495989
0.836437 0.447200 0.521117
0.843537 0.466531 0.539655
0.850503 0.485605 0.557752
0.097752 0.047047 0.090058
0.097817 0.049065 0.092141
0.098142 0.051221 0.094358
0.102374 0.055453 0.098590
0.107102 0.060181 0.103814
0.115304 0.068383 0.115988
0.124288 0.076208 0.127771
0.136657 0.082392 0.137861
0.152200 0.090074 0.148456
0.177263 0.102248 0.160565
0.212173 0.115703 0.172084
0.268745 0.131978 0.182304
0.323974 0.147472 0.193306
0.376966 0.161664 0.205610
0.440894 0.179330 0.219594
0.518884 0.201464 0.235739
0.583886 0.220669 0.253967
0.635901 0.236944 0.274278
0.676637 0.253182 0.294516
0.708601 0.269392 0.314697
0.734340 0.288084 0.337360
0.756344 0.308265 0.361512
0.771545 0.327103 0.383069
0.783653 0.345331 0.403445
0.795664 0.366537 0.426702
0.807643 0.388736 0.450919
0.816500 0.410988 0.475083
0.824638 0.433253 0.499236
0.834370 0.455517 0.521565
0.844331 0.477781 0.543634
0.848798 0.494247 0.560088
0.852899 0.510327 0.576168
0.097752 0.049065 0.092076
0.098858 0.051083 0.095201
0.100356 0.053435 0.098590
0.107712 0.060791 0.105946
0.115434 0.068514 0.114035
0.125720 0.078799 0.127250
0.137178 0.088707 0.139880
0.153713 0.096975 0.149970
0.175766 0.106479 0.160565
0.214370 0.119694 0.172674
0.258915 0.134517 0.184843
0.316528 0.152875 0.197147
0.375533 0.170062 0.210623
0.436858 0.185295 0.226052
0.500460 0.203092 0.241794
0.566992 0.224184 0.257938
0.622620 0.243909 0.277208
0.667344 0.262268 0.299602
0.701961 0.280003 0.320752
0.728717 0.297255 0.340933
0.750550 0.316337 0.362945
0.769429 0.336518 0.386055
0.783653 0.356073 0.409434
0.795762 0.375342 0.432935
0.806211 0.396809 0.456973
0.816106 0.419008 0.481191
0.825419 0.442106 0.504509
0.834598 0.465412 0.527619
0.842638 0.488718 0.547995
0.850515 0.512024 0.567981
0.855829 0.527578 0.583329
0.860972 0.542617 0.598367
0.098004 0.051335 0.094094
0.100022 0.053354 0.098130
0.102545 0.055876 0.102569
0.112635 0.065967 0.113050
0.123092 0.076374 0.124003
0.136112 0.089004 0.138260
0.150743 0.101255 0.151834
0.172356 0.111866 0.162445
0.201147 0.123421 0.173430
0.251469 0.137809 0.185539
0.304477 0.153966 0.198319
0.363392 0.174016 0.212576
0.425848 0.192798 0.228298
0.494203 0.209463 0.246460
0.556975 0.227610 0.263797
0.612571 0.247661 0.280072
0.659150 0.267777 0.300123
0.696712 0.287958 0.323950
0.725706 0.307150 0.346019
0.748036 0.325573 0.366720
0.766174 0.344932 0.388358
0.781798 0.364853 0.410557
0.795005 0.385221 0.435442
0.807114 0.405793 0.461547
0.816391 0.427585 0.486236
0.824723 0.449784 0.510453
0.834167 0.473517 0.532079
0.843867 0.497604 0.553106
0.850263 0.521577 0.571627
0.856187 0.545534 0.589790
0.862233 0.560275 0.604169
0.868287 0.574402 0.618295
0.100022 0.055372 0.096112
0.102040 0.057390 0.100148
0.104563 0.059912 0.104783
0.114653 0.070003 0.118388
0.126021 0.080931 0.132206
0.146333 0.097727 0.147504
0.169036 0.114145 0.162705
0.202107 0.128922 0.177483
0.239230 0.144123 0.191593
0.288511 0.160594 0.203702
0.341779 0.177857 0.216807
0.403819 0.196866 0.232106
0.467446 0.216559 0.248479
0.533718 0.237391 0.266641
0.592129 0.257426 0.284434
0.640433 0.276435 0.301751
0.680242 0.296030 0.320760
0.711555 0.316211 0.341462
0.738401 0.336575 0.364507
0.761772 0.357082 0.389375
0.777697 0.375920 0.412575
0.789154 0.393757 0.434774
0.801060 0.415623 0.458943
0.813168 0.439319 0.484006
0.824007 0.461893 0.508435
0.834423 0.484092 0.532652
0.841719 0.506978 0.546661
0.848294 0.530024 0.558314
0.853388 0.552044 0.575663
0.858270 0.573917 0.593826
0.864251 0.588528 0.608205
0.870306 0.602655 0.622332
0.102040 0.059786 0.098887
0.104254 0.061804 0.103118
0.106984 0.064364 0.108094
0.117465 0.075040 0.124239
0.129842 0.086904 0.140408
0.155491 0.107085 0.156749
0.184681 0.127108 0.173430
0.229209 0.146442 0.191593
0.274860 0.165533 0.208243
0.323881 0.183891 0.220351
0.377763 0.202371 0.233721
0.442342 0.221120 0.249866
0.506482 0.241846 0.266621
0.569889 0.265868 0.284393
0.623670 0.287242 0.302422
0.665074 0.305209 0.320780
0.698796 0.324088 0.338845
0.724836 0.343879 0.356618
0.749521 0.364914 0.379956
0.773152 0.386918 0.407624
0.787303 0.405748 0.431995
0.795766 0.422674 0.454390
0.806467 0.445732 0.477903
0.818185 0.471576 0.501925
0.830196 0.494687 0.525947
0.842304 0.516886 0.549969
0.847696 0.538609 0.556800
0.851536 0.560222 0.559665
0.855377 0.579386 0.572327
0.859218 0.598200 0.586388
0.864951 0.612619 0.601060
0.870810 0.626746 0.615773
0.104058 0.065841 0.104941
0.107313 0.067859 0.110214
0.111150 0.070613 0.116167
0.123714 0.084414 0.132312
0.137524 0.099013 0.148611
0.160048 0.119194 0.165993
0.188847 0.140388 0.183521
0.244833 0.165972 0.201684
0.299859 0.190011 0.218333
0.352004 0.209410 0.230442
0.408035 0.229583 0.243812
0.472614 0.251457 0.259956
0.534410 0.273745 0.275930
0.591568 0.296726 0.291619
0.639555 0.317057 0.308932
0.675750 0.333983 0.328332
0.706347 0.351300 0.345876
0.731346 0.369007 0.361565
0.753817 0.388545 0.382235
0.774324 0.409507 0.406777
0.788605 0.430551 0.430628
0.799151 0.451643 0.454064
0.809071 0.474571 0.477187
0.818706 0.498332 0.500167
0.830196 0.520922 0.523148
0.842304 0.543121 0.546128
0.846849 0.562305 0.547686
0.849649 0.580794 0.544301
0.852448 0.593187 0.537042
0.855247 0.604710 0.529230
0.859938 0.618674 0.545465
0.864756 0.632800 0.563302
0.106581 0.073408 0.112005
0.110617 0.075426 0.117798
0.115251 0.078295 0.124239
0.128857 0.093919 0.140384
0.143350 0.110178 0.156781
0.164052 0.130879 0.174944
0.192785 0.153424 0.193107
0.256323 0.183956 0.211270
0.318445 0.212421 0.228049
0.376319 0.234685 0.240679
0.436288 0.257560 0.254325
0.500867 0.281777 0.270210
0.560515 0.304945 0.285533
0.611944 0.326363 0.299920
0.654658 0.345587 0.316500
0.686166 0.361993 0.335900
0.713899 0.378788 0.352793
0.737856 0.395975 0.367180
0.758114 0.414699 0.385376
0.775496 0.434620 0.406533
0.789582 0.456900 0.429278
0.801690 0.480597 0.452974
0.811203 0.503085 0.475641
0.819536 0.525023 0.497840
0.830310 0.546181 0.518867
0.841898 0.567078 0.539504
0.845710 0.583479 0.536391
0.847728 0.598843 0.527798
0.849518 0.605605 0.503711
0.851276 0.611138 0.477411
0.854926 0.624240 0.490537
0.858701 0.637846 0.506291
0.110617 0.085517 0.122095
0.114653 0.087535 0.126847
0.119157 0.090273 0.132312
0.130680 0.103814 0.148456
0.143611 0.118510 0.164854
0.166396 0.141295 0.183016
0.196040 0.165728 0.201179
0.255412 0.197302 0.219342
0.317794 0.228631 0.236643
0.389208 0.259228 0.251355
0.458487 0.287831 0.266108
0.523066 0.312049 0.280951
0.581152 0.334044 0.296014
0.628414 0.352337 0.311442
0.667417 0.370260 0.327241
0.695801 0.387707 0.343516
0.721450 0.407107 0.359368
0.744366 0.428460 0.374797
0.762410 0.448421 0.391104
0.776667 0.467300 0.408096
0.789582 0.487888 0.427976
0.801690 0.509501 0.449589
0.811919 0.530622 0.471605
0.821293 0.551519 0.493804
0.830765 0.568510 0.510144
0.840270 0.584199 0.524531
0.843692 0.597085 0.518554
0.845710 0.609324 0.507878
0.846589 0.613873 0.476239
0.847305 0.617323 0.441606
0.849913 0.628341 0.437610
0.852647 0.639864 0.435657
0.114653 0.099518 0.132816
0.118364 0.102512 0.136852
0.122433 0.105954 0.141523
0.131872 0.116110 0.155715
0.143037 0.127983 0.170363
0.166278 0.151874 0.188200
0.195451 0.177524 0.206037
0.250330 0.210790 0.223875
0.311345 0.244739 0.241045
0.390767 0.280740 0.256213
0.465754 0.313058 0.270751
0.530984 0.337275 0.283901
0.588402 0.358831 0.297930
0.632800 0.375952 0.313424
0.670107 0.393387 0.328320
0.698295 0.411224 0.342446
0.723326 0.432252 0.357257
0.745200 0.456469 0.372750
0.761947 0.477098 0.387658
0.774706 0.494935 0.402110
0.787466 0.514441 0.419736
0.800225 0.534947 0.439266
0.811150 0.554558 0.459736
0.821241 0.573763 0.480633
0.829573 0.587645 0.494158
0.837320 0.599754 0.505225
0.841470 0.611016 0.501164
0.844790 0.622083 0.493613
0.845205 0.624948 0.457352
0.845205 0.626640 0.416990
0.846487 0.635596 0.398477
0.847854 0.645035 0.381421
0.118689 0.117680 0.144925
0.121359 0.123800 0.148961
0.124321 0.129781 0.153241
0.131677 0.133687 0.161184
0.140628 0.139961 0.170232
0.160744 0.162811 0.187028
0.186402 0.188200 0.203824
0.236073 0.224591 0.220620
0.292140 0.260624 0.236228
0.367396 0.295582 0.248271
0.440170 0.327184 0.259684
0.507483 0.351402 0.269709
0.566203 0.374130 0.281004
0.610601 0.394376 0.294415
0.650642 0.413112 0.308139
0.685080 0.429908 0.322265
0.712715 0.450415 0.336034
0.733547 0.474632 0.349445
0.751010 0.494675 0.364027
0.765853 0.511470 0.379521
0.780695 0.531236 0.396235
0.795538 0.552784 0.413682
0.807114 0.570573 0.430636
0.817204 0.586653 0.447367
0.824756 0.599754 0.462194
0.831461 0.611863 0.476385
0.838801 0.625664 0.484759
0.846288 0.639856 0.491790
0.847224 0.642199 0.457352
0.847224 0.642850 0.416990
0.846552 0.649787 0.389689
0.845836 0.657144 0.363258
0.121212 0.138114 0.158547
0.123230 0.145405 0.161411
0.125501 0.152387 0.164349
0.131555 0.154730 0.168385
0.139025 0.159507 0.173837
0.156407 0.181316 0.189201
0.178573 0.205785 0.204418
0.221474 0.241785 0.219000
0.270641 0.277363 0.232265
0.338605 0.311670 0.241574
0.406651 0.342947 0.250008
0.474876 0.367555 0.256518
0.534459 0.390820 0.264249
0.579638 0.411847 0.274014
0.622852 0.431422 0.285345
0.663540 0.449129 0.298691
0.695341 0.469505 0.311418
0.718256 0.492551 0.323527
0.738022 0.511714 0.337246
0.755339 0.527859 0.352219
0.771923 0.546811 0.367681
0.788068 0.567448 0.383435
0.800319 0.583878 0.398070
0.810800 0.598395 0.412197
0.818840 0.610520 0.426958
0.826066 0.621847 0.441931
0.835937 0.637089 0.458491
0.846418 0.653234 0.475417
0.849779 0.658328 0.453153
0.852122 0.661843 0.425290
0.849278 0.666640 0.391446
0.846088 0.671523 0.357204
0.121212 0.162331 0.174692
0.123230 0.167539 0.174431
0.125501 0.172958 0.174440
0.131555 0.181552 0.178476
0.138765 0.191667 0.183667
0.154063 0.212433 0.196948
0.172779 0.234885 0.209691
0.206306 0.264636 0.220107
0.245317 0.295525 0.229726
0.300782 0.329833 0.236952
0.359909 0.361435 0.242652
0.427093 0.387085 0.244996
0.486806 0.409829 0.247779
0.534068 0.427731 0.251294
0.581188 0.447371 0.258199
0.628125 0.469245 0.269461
0.666697 0.490142 0.281147
0.696904 0.510063 0.293255
0.721617 0.527859 0.305217
0.742059 0.544004 0.317065
0.759815 0.560352 0.330704
0.775959 0.576823 0.345417
0.788926 0.592666 0.359726
0.800449 0.608225 0.373853
0.811093 0.619048 0.386271
0.821444 0.628292 0.398119
0.832747 0.643143 0.415786
0.844270 0.659288 0.434795
0.853229 0.672585 0.441956
0.861822 0.685474 0.447424
0.856439 0.687928 0.410781
0.850125 0.689686 0.371330
0.122095 0.191846 0.192602
0.123657 0.195882 0.190129
0.125472 0.200366 0.188005
0.131071 0.211563 0.191130
0.137507 0.223883 0.195206
0.149811 0.244064 0.205948
0.164764 0.265551 0.216274
0.191195 0.292698 0.224802
0.222784 0.321407 0.232712
0.269852 0.354803 0.238766
0.321883 0.386104 0.242786
0.384835 0.412795 0.242331
0.442855 0.436386 0.241875
0.492656 0.454809 0.241419
0.541746 0.474770 0.244182
0.589920 0.496709 0.251083
0.632528 0.516304 0.258992
0.669570 0.533555 0.267911
0.699032 0.549415 0.277232
0.722598 0.564193 0.286867
0.743519 0.579703 0.298740
0.762854 0.595653 0.311955
0.777847 0.610170 0.325484
0.790867 0.624036 0.339155
0.804571 0.634924 0.351507
0.818502 0.644820 0.363421
0.830582 0.657941 0.380570
0.842235 0.671808 0.398929
0.853489 0.687838 0.420021
0.864687 0.704179 0.441504
0.860809 0.706054 0.413796
0.855927 0.706966 0.382808
0.124113 0.228171 0.212783
0.124634 0.232208 0.209268
0.125407 0.236561 0.206037
0.129964 0.245675 0.207079
0.134969 0.256173 0.208943
0.143106 0.276354 0.216559
0.153892 0.298231 0.224542
0.176157 0.327461 0.234112
0.203840 0.357212 0.242803
0.247783 0.388525 0.248857
0.295062 0.418719 0.252551
0.349681 0.446452 0.251054
0.403665 0.472646 0.249557
0.456591 0.496278 0.248059
0.505160 0.516890 0.247046
0.548126 0.533621 0.246656
0.591254 0.549570 0.247274
0.634546 0.564738 0.248902
0.668500 0.577929 0.254447
0.695191 0.589582 0.263041
0.721841 0.606524 0.273221
0.748467 0.626640 0.284353
0.767171 0.638879 0.296514
0.782274 0.647537 0.309144
0.799623 0.660248 0.324361
0.817721 0.674310 0.340440
0.829736 0.683981 0.354986
0.840347 0.692640 0.369178
0.849649 0.704374 0.384281
0.858763 0.716548 0.399515
0.861590 0.720116 0.395828
0.863999 0.723110 0.390881
0.128149 0.267524 0.237001
0.127629 0.269477 0.228798
0.127393 0.271910 0.221173
0.131429 0.281545 0.222215
0.136043 0.292824 0.224013
0.144701 0.315609 0.231109
0.155520 0.339505 0.238669
0.175701 0.368214 0.248238
0.202343 0.397444 0.256409
0.248369 0.428236 0.260380
0.295941 0.457909 0.262154
0.346914 0.485121 0.259094
0.399010 0.510990 0.256425
0.452978 0.534621 0.254407
0.500993 0.553183 0.251050
0.541355 0.565227 0.245972
0.584224 0.578572 0.243466
0.629598 0.593220 0.243531
0.664756 0.605597 0.247807
0.691968 0.616208 0.255359
0.720116 0.632434 0.264823
0.748825 0.652029 0.275434
0.769254 0.663747 0.288149
0.785920 0.671885 0.301820
0.804050 0.684075 0.318079
0.822669 0.697616 0.335200
0.833512 0.705920 0.348672
0.842561 0.713016 0.361301
0.849844 0.721365 0.373019
0.856875 0.729893 0.384607
0.863966 0.735186 0.394852
0.871062 0.740264 0.405007
0.134204 0.309904 0.265254
0.132641 0.307691 0.248719
0.131429 0.306413 0.233412
0.135465 0.319173 0.236537
0.140730 0.333837 0.240418
0.154596 0.361830 0.249597
0.169647 0.389371 0.258654
0.189828 0.414956 0.267183
0.218292 0.442102 0.273530
0.271609 0.473936 0.273335
0.324519 0.503675 0.271593
0.376534 0.528803 0.266450
0.428891 0.551417 0.262479
0.481817 0.569841 0.260461
0.529247 0.583650 0.256193
0.569609 0.591527 0.249032
0.611435 0.603310 0.247567
0.654727 0.618999 0.251799
0.687802 0.632418 0.257312
0.712930 0.644071 0.263822
0.738344 0.657433 0.273546
0.763928 0.671820 0.285199
0.784097 0.684775 0.300388
0.801804 0.697079 0.317183
0.817851 0.706404 0.332661
0.833345 0.714737 0.347699
0.841910 0.723757 0.361626
0.848875 0.732936 0.375297
0.854075 0.738812 0.386234
0.859023 0.744215 0.396780
0.867938 0.751266 0.410866
0.877117 0.758427 0.425188
0.140258 0.350014 0.293507
0.138240 0.349493 0.273912
0.136637 0.349851 0.255611
0.141259 0.363392 0.256718
0.147687 0.379024 0.258728
0.166762 0.409296 0.267061
0.187252 0.438652 0.274905
0.213878 0.464041 0.280634
0.247535 0.490130 0.284279
0.302284 0.518318 0.281675
0.356687 0.544716 0.277810
0.410329 0.567176 0.271170
0.462214 0.586168 0.266043
0.511169 0.599384 0.263439
0.556878 0.610235 0.259468
0.598411 0.618047 0.253739
0.638904 0.629733 0.254195
0.678354 0.645291 0.260835
0.709566 0.658910 0.268794
0.734369 0.671018 0.277778
0.757707 0.681662 0.288348
0.780166 0.691427 0.299871
0.797658 0.702982 0.314348
0.812891 0.715351 0.330167
0.826855 0.723424 0.345156
0.840396 0.730064 0.359869
0.847854 0.739031 0.375057
0.853908 0.748536 0.390356
0.858710 0.752230 0.401097
0.863332 0.755095 0.411188
0.871433 0.762842 0.426405
0.879765 0.770914 0.441964
0.146312 0.388358 0.321761
0.144294 0.394087 0.303207
0.142756 0.400239 0.285557
0.148420 0.412738 0.281456
0.156411 0.427459 0.278518
0.180693 0.457730 0.283726
0.207563 0.487477 0.288251
0.245647 0.514949 0.289813
0.287115 0.540778 0.290073
0.338740 0.561675 0.286428
0.391646 0.582083 0.281521
0.447371 0.601418 0.273839
0.498214 0.616505 0.267671
0.540920 0.624512 0.264025
0.584024 0.633801 0.261291
0.627641 0.644738 0.259729
0.666571 0.657465 0.262788
0.700814 0.671982 0.270470
0.730332 0.685145 0.281814
0.756177 0.697253 0.296006
0.777953 0.705293 0.307878
0.797288 0.710892 0.318359
0.810222 0.718997 0.329646
0.820248 0.728241 0.341299
0.832128 0.736313 0.356028
0.844628 0.743995 0.371782
0.851890 0.752312 0.388859
0.857945 0.760775 0.406240
0.863657 0.762516 0.417242
0.869321 0.763297 0.427333
0.874557 0.770914 0.441573
0.879765 0.778987 0.456091
0.157412 0.436792 0.351276
0.152139 0.438355 0.327254
0.147777 0.440861 0.304477
0.157086 0.457527 0.300375
0.169406 0.475568 0.296803
0.202803 0.503235 0.296933
0.237273 0.530158 0.296673
0.276398 0.553854 0.294720
0.318843 0.576005 0.291921
0.371249 0.593517 0.286582
0.425750 0.611639 0.281407
0.484861 0.631104 0.276590
0.537429 0.645784 0.272553
0.579093 0.652489 0.269819
0.619959 0.661274 0.268851
0.659801 0.672731 0.270153
0.695541 0.684547 0.275816
0.727179 0.696720 0.285842
0.754314 0.708125 0.298577
0.777945 0.718932 0.313420
0.796124 0.725507 0.324886
0.811032 0.729543 0.334325
0.822136 0.736802 0.346450
0.831510 0.745525 0.359795
0.840982 0.752296 0.372311
0.850487 0.758415 0.384550
0.857188 0.765063 0.401602
0.863242 0.771834 0.419765
0.868727 0.773819 0.433143
0.874130 0.775121 0.445837
0.877642 0.780329 0.459264
0.881027 0.785798 0.472740
0.171538 0.491281 0.381547
0.161057 0.482428 0.348151
0.152139 0.475625 0.316781
0.166656 0.499581 0.315804
0.184965 0.523481 0.314185
0.229819 0.546982 0.308065
0.272623 0.569153 0.302141
0.306540 0.585558 0.297063
0.345860 0.601980 0.291400
0.401390 0.618450 0.283978
0.459341 0.636507 0.278998
0.522619 0.658055 0.279389
0.578572 0.674428 0.279389
0.622319 0.682175 0.278738
0.661168 0.691089 0.279853
0.693718 0.701505 0.283238
0.725291 0.711238 0.291506
0.755888 0.720287 0.304656
0.780223 0.729152 0.317586
0.799688 0.737876 0.330346
0.813050 0.743670 0.340379
0.822750 0.747706 0.348777
0.833658 0.755681 0.364157
0.845116 0.765446 0.382711
0.851984 0.770133 0.391841
0.857322 0.773128 0.397830
0.863242 0.777497 0.413710
0.869297 0.782185 0.431873
0.873870 0.785733 0.448897
0.878231 0.789118 0.465758
0.880701 0.790550 0.478469
0.883045 0.791852 0.490903
0.189828 0.540220 0.410431
0.177003 0.528828 0.372673
0.165944 0.519518 0.336872
0.181373 0.541457 0.330427
0.201643 0.563428 0.323600
0.255806 0.585627 0.314095
0.307882 0.606179 0.304969
0.350913 0.619589 0.297483
0.396239 0.633325 0.290566
0.448449 0.648038 0.285358
0.503182 0.663971 0.282184
0.563465 0.682590 0.283486
0.616448 0.696985 0.284837
0.657266 0.704341 0.286269
0.692216 0.712580 0.289154
0.719623 0.721955 0.293906
0.748105 0.730678 0.304420
0.777660 0.738751 0.320695
0.798793 0.746823 0.334223
0.813376 0.754895 0.345616
0.824337 0.759998 0.356724
0.833125 0.763318 0.367660
0.843704 0.770308 0.383476
0.855097 0.778966 0.401508
0.860435 0.782107 0.410655
0.863755 0.783409 0.416839
0.869297 0.787515 0.434502
0.875351 0.792267 0.454813
0.879639 0.795766 0.470738
0.883675 0.799086 0.486037
0.886491 0.799965 0.498345
0.889225 0.800681 0.510453
0.210009 0.586636 0.438684
0.196142 0.576285 0.398843
0.184042 0.567562 0.360503
0.198429 0.583251 0.344684
0.218830 0.599754 0.329394
0.281326 0.621953 0.317806
0.343101 0.642309 0.306597
0.401756 0.654678 0.297027
0.457238 0.667112 0.289589
0.503199 0.679742 0.288548
0.551682 0.692615 0.287913
0.605715 0.706026 0.288173
0.652839 0.716775 0.289654
0.688449 0.723090 0.293170
0.718647 0.730288 0.297682
0.741888 0.738620 0.303476
0.767765 0.746823 0.316073
0.796279 0.754895 0.335472
0.814027 0.762968 0.349782
0.823401 0.771040 0.360133
0.833060 0.775491 0.373454
0.842890 0.777770 0.388557
0.853078 0.783002 0.403526
0.863429 0.789577 0.418434
0.867726 0.791417 0.429143
0.870004 0.791677 0.438453
0.875351 0.796433 0.459240
0.881405 0.802227 0.482676
0.885694 0.804945 0.495346
0.889730 0.807224 0.506478
0.893522 0.809014 0.518526
0.897298 0.810772 0.530634
0.231703 0.620944 0.471479
0.217576 0.611635 0.424867
0.205313 0.603741 0.379838
0.221002 0.617087 0.358550
0.243486 0.631051 0.337922
0.313534 0.649344 0.321907
0.382764 0.666917 0.307736
0.448449 0.681369 0.301551
0.508423 0.694649 0.296718
0.551259 0.704414 0.295936
0.596129 0.714668 0.295643
0.645475 0.725995 0.296425
0.687423 0.735052 0.299305
0.717044 0.740325 0.305685
0.743418 0.746481 0.312264
0.765617 0.753772 0.319100
0.787718 0.761064 0.331827
0.809722 0.768355 0.350445
0.824329 0.774767 0.364706
0.833182 0.780496 0.375578
0.841344 0.784394 0.388769
0.849091 0.787193 0.403351
0.858449 0.792230 0.419232
0.868540 0.798285 0.435702
0.873162 0.800384 0.450903
0.875961 0.801165 0.465681
0.882040 0.805596 0.484954
0.888875 0.810869 0.505265
0.892578 0.812611 0.517317
0.895833 0.813848 0.528189
0.899088 0.815817 0.538023
0.902343 0.817835 0.547788
0.253902 0.651216 0.505786
0.239775 0.642948 0.450842
0.227642 0.635966 0.397741
0.245415 0.648270 0.372287
0.270633 0.660671 0.347361
0.347972 0.673756 0.326139
0.423907 0.687684 0.308712
0.493759 0.705261 0.307736
0.556336 0.720104 0.306548
0.597089 0.726744 0.304725
0.639225 0.734523 0.304041
0.684404 0.744809 0.305864
0.721406 0.752824 0.310568
0.744776 0.757056 0.320072
0.767635 0.762170 0.328865
0.789834 0.768420 0.336742
0.807769 0.774670 0.348948
0.821440 0.780919 0.365484
0.832987 0.785118 0.379419
0.842882 0.787722 0.391332
0.849482 0.791099 0.403612
0.854104 0.794940 0.416111
0.862485 0.800303 0.433489
0.872576 0.806357 0.453084
0.877979 0.809238 0.473753
0.881820 0.811060 0.494780
0.888940 0.814840 0.510994
0.896818 0.819072 0.526097
0.899739 0.819772 0.538410
0.901952 0.819967 0.550323
0.904166 0.821871 0.557293
0.906379 0.823889 0.563933
0.282660 0.679847 0.540094
0.266841 0.670929 0.476817
0.253304 0.663166 0.415484
0.274006 0.672735 0.383325
0.303439 0.683045 0.352305
0.393993 0.698539 0.329259
0.479860 0.713899 0.310535
0.545416 0.728676 0.310535
0.603404 0.741273 0.310877
0.638688 0.747328 0.312244
0.674969 0.753850 0.314608
0.713443 0.761401 0.319165
0.745814 0.767635 0.325797
0.768013 0.771671 0.335887
0.787991 0.776220 0.345465
0.805112 0.781428 0.354384
0.819304 0.785789 0.366493
0.830566 0.789305 0.381791
0.840217 0.792930 0.395295
0.848615 0.796641 0.407404
0.855874 0.800555 0.423215
0.862449 0.804591 0.441248
0.869695 0.808851 0.459012
0.877247 0.813213 0.476654
0.883431 0.815817 0.497079
0.889160 0.817835 0.518432
0.894730 0.822180 0.537352
0.900264 0.827063 0.555710
0.902721 0.827673 0.566378
0.904739 0.827673 0.575948
0.905964 0.829565 0.583015
0.907136 0.831583 0.589916
0.312932 0.708101 0.574402
0.295029 0.698140 0.502792
0.279735 0.689206 0.433192
0.303561 0.695650 0.393741
0.337552 0.703747 0.356211
0.442688 0.723407 0.332124
0.539231 0.741371 0.312553
0.598537 0.751982 0.312553
0.650276 0.761454 0.313937
0.679310 0.767509 0.319470
0.709016 0.773054 0.325675
0.740199 0.777481 0.333357
0.768013 0.781761 0.341942
0.790212 0.785798 0.352032
0.807456 0.789891 0.362066
0.818327 0.794057 0.372026
0.828873 0.796336 0.384135
0.839094 0.796726 0.398392
0.847118 0.800156 0.411440
0.853432 0.805950 0.423549
0.861863 0.810645 0.443917
0.871563 0.814682 0.469241
