其他预设/【236】赛博朋克风调色预设/【后期菌】视频调色预设/CUBE/Abandoned 04.cube
# LUT by SparkleStock. Enhanced with VOXCOLOR algorithms.
LUT_3D_SIZE 8
DOMAIN_MIN 0.000000 0.000000 0.000000
DOMAIN_MAX 0.903226 0.903226 0.903226
0.035191 0.050831 0.062561
0.055750 0.062813 0.078454
0.116545 0.080219 0.100274
0.260461 0.108473 0.151484
0.477911 0.179232 0.242803
0.657396 0.278246 0.348753
0.769779 0.380286 0.442847
0.846971 0.488254 0.541608
0.039101 0.066976 0.074796
0.097821 0.087584 0.103509
0.233217 0.120708 0.154987
0.447367 0.198754 0.249138
0.635010 0.311927 0.356642
0.742417 0.406944 0.452018
0.823763 0.511967 0.548195
0.880522 0.594078 0.617274
0.034686 0.092454 0.091445
0.126510 0.121810 0.129630
0.350539 0.217406 0.215501
0.553745 0.335285 0.320947
0.682004 0.435678 0.416754
0.757076 0.534292 0.501445
0.826331 0.612298 0.581131
0.858042 0.674648 0.606276
0.022704 0.148330 0.124996
0.100002 0.172674 0.140840
0.304119 0.274295 0.202624
0.531285 0.399376 0.281574
0.663910 0.501233 0.369174
0.748068 0.586392 0.456603
0.803708 0.655000 0.538495
0.851309 0.706888 0.575411
0.011730 0.251758 0.188062
0.125065 0.299631 0.187561
0.238522 0.364019 0.211148
0.400650 0.461604 0.249406
0.530988 0.539825 0.283039
0.657827 0.612798 0.339724
0.751832 0.679672 0.407367
0.818913 0.736200 0.483860
0.051588 0.407026 0.299057
0.237884 0.443567 0.257027
0.363400 0.511137 0.281651
0.493796 0.584224 0.327152
0.616456 0.642818 0.373043
0.719676 0.702649 0.431019
0.787470 0.751051 0.489328
0.841426 0.789394 0.556621
0.204080 0.584871 0.430864
0.357147 0.588178 0.349917
0.485996 0.638281 0.368946
0.598330 0.686239 0.414760
0.692412 0.736191 0.469436
0.766642 0.777741 0.527591
0.825106 0.813717 0.589367
0.873585 0.843061 0.641272
0.328320 0.701920 0.560779
0.461994 0.689295 0.439303
0.592036 0.725633 0.458463
0.678696 0.770141 0.521337
0.747250 0.801767 0.571501
0.810072 0.838520 0.623084
0.863116 0.867278 0.676641
0.902888 0.891158 0.729539
0.039353 0.055245 0.070886
0.059676 0.062813 0.086559
0.112383 0.072839 0.109828
0.273473 0.105193 0.178223
0.495191 0.161826 0.280516
0.661514 0.251795 0.382178
0.781033 0.367266 0.478416
0.857302 0.472248 0.571891
0.035427 0.068221 0.083609
0.104251 0.087391 0.122964
0.241967 0.118238 0.184739
0.457348 0.181760 0.287825
0.650435 0.292153 0.395865
0.757429 0.395997 0.490203
0.815213 0.486068 0.557107
0.875410 0.576804 0.636287
0.034466 0.101251 0.108127
0.071960 0.121176 0.133410
0.413468 0.204511 0.289203
0.608691 0.314925 0.394029
0.719420 0.411238 0.477329
0.773797 0.502017 0.550008
0.832780 0.586371 0.620736
0.879919 0.650514 0.672829
0.025653 0.164117 0.150824
0.049165 0.195055 0.184477
0.285044 0.272859 0.268873
0.593397 0.438847 0.391770
0.693217 0.534369 0.475032
0.759320 0.604934 0.542727
0.812555 0.663467 0.610215
0.865332 0.723571 0.669120
0.012048 0.282420 0.232342
0.050094 0.333242 0.281802
0.237256 0.389367 0.279809
0.417953 0.475139 0.306631
0.571406 0.558440 0.333935
0.680121 0.625319 0.391791
0.758681 0.694041 0.461664
0.814207 0.740828 0.534459
0.067057 0.442424 0.359185
0.137521 0.490598 0.400570
0.366646 0.542452 0.355925
0.510114 0.594756 0.356991
0.629509 0.656437 0.403943
0.722185 0.711006 0.469551
0.790986 0.758462 0.534577
0.848762 0.798423 0.604006
0.211689 0.602850 0.485296
0.290791 0.629814 0.495214
0.468678 0.649716 0.428263
0.624634 0.704645 0.455703
0.700085 0.740860 0.506473
0.773433 0.782517 0.566569
0.830189 0.820960 0.625993
0.875307 0.845045 0.669075
0.328434 0.704179 0.589904
0.432347 0.716082 0.559831
0.591744 0.734675 0.523637
0.695756 0.772958 0.555573
0.761971 0.810976 0.609472
0.816086 0.838728 0.649027
0.868450 0.871457 0.707128
0.905862 0.897074 0.758510
0.036200 0.063066 0.083625
0.060165 0.063066 0.096112
0.111691 0.074422 0.129223
0.273156 0.096966 0.210049
0.487994 0.142398 0.309530
0.673236 0.247290 0.419313
0.790269 0.357651 0.520096
0.866749 0.460102 0.605910
0.038376 0.082933 0.106679
0.083716 0.088336 0.129205
0.242312 0.113970 0.214668
0.479588 0.180562 0.334139
0.658443 0.279986 0.436615
0.759368 0.379343 0.518896
0.819348 0.477716 0.591796
0.871922 0.559277 0.653145
0.031655 0.114901 0.127706
0.066284 0.137324 0.169727
0.372343 0.189301 0.308755
0.602807 0.301199 0.427850
0.719052 0.397360 0.515058
0.777122 0.491521 0.580572
0.821218 0.558173 0.626854
0.874997 0.636088 0.684974
0.022704 0.179289 0.185384
0.053367 0.219398 0.231430
0.191339 0.273149 0.314057
0.638666 0.418533 0.488738
0.738798 0.520799 0.572892
0.783930 0.582931 0.616559
0.827291 0.646121 0.670317
0.866959 0.707235 0.698992
0.018029 0.294236 0.273546
0.075387 0.361083 0.343749
0.151054 0.408420 0.391908
0.430928 0.488208 0.421266
0.684032 0.609094 0.511593
0.745741 0.661641 0.566408
0.798790 0.714570 0.629607
0.837378 0.755128 0.644658
0.081086 0.454129 0.401622
0.159928 0.502181 0.450663
0.244141 0.554234 0.496465
0.483367 0.610292 0.447994
0.647125 0.666330 0.452604
0.728573 0.716549 0.516266
0.793056 0.762309 0.582724
0.841800 0.794415 0.634318
0.222471 0.610646 0.528661
0.284028 0.639202 0.561920
0.375235 0.672179 0.578089
0.608506 0.710722 0.539407
0.717111 0.752022 0.552182
0.781224 0.790857 0.611326
0.829835 0.818019 0.654210
0.874616 0.846484 0.697913
0.334956 0.711734 0.629875
0.398707 0.732352 0.640933
0.555850 0.745253 0.617792
0.691759 0.776703 0.610969
0.776560 0.818429 0.644616
0.826762 0.845754 0.689213
0.867676 0.870122 0.730404
0.903047 0.895249 0.780641
0.039101 0.071895 0.105446
0.061125 0.071341 0.124288
0.113490 0.075300 0.152436
0.274169 0.095209 0.243751
0.500603 0.130936 0.359039
0.682053 0.229644 0.457185
0.798956 0.344086 0.559482
0.866522 0.450468 0.633447
0.035899 0.097072 0.137784
0.071646 0.113995 0.180212
0.218352 0.118783 0.247164
0.475068 0.162267 0.365642
0.659475 0.261527 0.476521
0.761966 0.364716 0.553728
0.825416 0.469372 0.625332
0.873041 0.551865 0.677932
0.034784 0.133447 0.171510
0.065988 0.171676 0.230459
0.211997 0.211037 0.318114
0.578464 0.285429 0.457238
0.720778 0.392647 0.550741
0.776084 0.475844 0.609123
0.823179 0.553914 0.659912
0.873413 0.627226 0.706123
0.030817 0.215432 0.248519
0.061871 0.255312 0.298460
0.208828 0.321787 0.379941
0.565470 0.388100 0.500874
0.716250 0.492452 0.588569
0.781664 0.571888 0.642747
0.827214 0.635954 0.689682
0.864720 0.686153 0.724701
0.043995 0.331322 0.349302
0.117098 0.380643 0.399214
0.195651 0.434540 0.456095
0.331805 0.487110 0.507807
0.709010 0.594599 0.620184
0.782620 0.660014 0.668868
0.822583 0.708535 0.709902
0.860596 0.755151 0.742948
0.135371 0.476178 0.462287
0.212347 0.533622 0.518512
0.269333 0.576584 0.557314
0.349349 0.609891 0.579452
0.636578 0.672560 0.578667
0.763916 0.732213 0.610375
0.806181 0.770047 0.648452
0.849604 0.806230 0.695174
0.244947 0.616403 0.570532
0.302865 0.649573 0.602299
0.357576 0.666769 0.621809
0.470487 0.704246 0.651545
0.699877 0.752850 0.627803
0.789243 0.797079 0.650025
0.832746 0.825749 0.684734
0.876543 0.852759 0.726245
0.343293 0.708243 0.657990
0.398177 0.737879 0.685486
0.481829 0.755891 0.693992
0.656010 0.787408 0.697439
0.777413 0.820528 0.682482
0.835342 0.854465 0.724741
0.873339 0.876390 0.763407
0.902460 0.897126 0.803492
0.039101 0.092959 0.153754
0.065271 0.084248 0.170269
0.134969 0.083755 0.209874
0.284105 0.088349 0.288015
0.508838 0.122734 0.398449
0.696590 0.230735 0.507898
0.803456 0.344945 0.594017
0.870733 0.448039 0.665664
0.037904 0.121599 0.192606
0.064635 0.147715 0.247184
0.203756 0.139957 0.299704
0.481018 0.166417 0.411753
0.664757 0.253655 0.514121
0.765705 0.362233 0.590430
0.828386 0.454571 0.649575
0.879977 0.553349 0.712581
0.037974 0.179363 0.251384
0.076646 0.218146 0.304505
0.175509 0.276017 0.374712
0.477333 0.273468 0.465567
0.723093 0.382459 0.583925
0.776929 0.473971 0.630154
0.826641 0.555192 0.688122
0.875369 0.626405 0.732668
0.051083 0.263810 0.332803
0.118875 0.314701 0.384216
0.194269 0.365882 0.436570
0.375413 0.427649 0.512726
0.698149 0.482686 0.613043
0.786162 0.576930 0.675854
0.822513 0.630605 0.711319
0.865309 0.683158 0.746186
0.104404 0.372046 0.418479
0.171748 0.430151 0.473102
0.239358 0.478550 0.527754
0.352424 0.525323 0.568574
0.636972 0.583668 0.640055
0.766418 0.640682 0.688945
0.819683 0.699607 0.729073
0.861554 0.741078 0.761907
0.193603 0.512549 0.526285
0.247081 0.554370 0.566541
0.299249 0.590598 0.600811
0.360581 0.621471 0.633600
0.514288 0.662930 0.662865
0.752979 0.735792 0.682731
0.817848 0.776908 0.704183
0.857242 0.810340 0.736498
0.272557 0.624224 0.613124
0.321147 0.654296 0.638082
0.377410 0.679449 0.664690
0.452106 0.700889 0.686883
0.588502 0.742430 0.711927
0.767671 0.793861 0.710196
0.842111 0.831894 0.723882
0.876384 0.855900 0.750542
0.357623 0.712788 0.689047
0.403330 0.736106 0.703830
0.467615 0.749834 0.722667
0.607020 0.782281 0.735596
0.736384 0.821937 0.758790
0.824403 0.853319 0.764166
0.873795 0.878241 0.784394
0.904948 0.901009 0.824655
0.032542 0.119699 0.235361
0.068119 0.130041 0.263875
0.146292 0.113066 0.289540
0.329426 0.101930 0.360674
0.524767 0.137503 0.450561
0.693612 0.229742 0.541567
0.804685 0.340017 0.625294
0.868731 0.442973 0.693592
0.040488 0.160610 0.277363
0.088663 0.202330 0.336702
0.203740 0.195451 0.377905
0.439646 0.175977 0.446244
0.669165 0.253075 0.549569
0.763872 0.347723 0.615158
0.827949 0.453251 0.678431
0.874711 0.546616 0.729237
0.060763 0.229290 0.339582
0.116869 0.267509 0.384010
0.195222 0.319239 0.434222
0.457024 0.323180 0.522936
0.714417 0.369586 0.609219
0.783097 0.470740 0.664242
0.830711 0.556633 0.710188
0.874855 0.623297 0.751723
0.106825 0.316976 0.408539
0.166622 0.366196 0.452017
0.227866 0.414912 0.509097
0.343399 0.479250 0.574125
0.658568 0.499805 0.650021
0.788638 0.577631 0.701053
0.825972 0.634296 0.733247
0.862901 0.684782 0.766218
0.179452 0.435047 0.505607
0.227537 0.479008 0.550212
0.288052 0.530733 0.597001
0.352742 0.573329 0.639953
0.524202 0.616057 0.673780
0.755061 0.646790 0.720319
0.826054 0.700554 0.758168
0.860685 0.739818 0.785026
0.250916 0.558424 0.596670
0.292475 0.588430 0.625551
0.340601 0.619392 0.655343
0.402260 0.650002 0.686146
0.533909 0.684272 0.714241
0.692710 0.717472 0.742026
0.813716 0.754412 0.775216
0.868046 0.799590 0.809733
0.311670 0.645507 0.664476
0.350076 0.668549 0.680327
0.400635 0.689663 0.697536
0.474655 0.709986 0.722801
0.580387 0.744101 0.748471
0.702361 0.776077 0.760904
0.829201 0.828576 0.767517
0.888596 0.866108 0.799324
0.368173 0.712572 0.708536
0.415171 0.735776 0.725080
0.476197 0.749643 0.736846
0.578427 0.775705 0.767608
0.684252 0.809650 0.791328
0.796494 0.848226 0.807669
0.863812 0.880265 0.817817
0.911105 0.909456 0.847626
0.047551 0.156150 0.327941
0.095815 0.184571 0.364503
0.185311 0.151390 0.383048
0.387776 0.132226 0.441671
0.538405 0.150877 0.496615
0.701070 0.235898 0.582429
0.805311 0.343284 0.657701
0.870611 0.446916 0.720063
0.072595 0.212279 0.362404
0.138536 0.255672 0.414432
0.225802 0.299384 0.468842
0.426059 0.256733 0.523569
0.678198 0.270813 0.593330
0.764285 0.352488 0.649532
0.825927 0.452197 0.702915
0.875706 0.547329 0.752166
0.116798 0.289345 0.421669
0.171640 0.326244 0.455997
0.252591 0.391232 0.523989
0.452639 0.423545 0.600420
0.661028 0.385636 0.641152
0.784935 0.467831 0.693665
0.833178 0.554000 0.736393
0.872285 0.625982 0.771755
0.171323 0.380949 0.488372
0.230184 0.432264 0.546192
0.285811 0.481471 0.592999
0.363928 0.536631 0.637503
0.637471 0.554067 0.696536
0.783293 0.582031 0.730142
0.826031 0.639654 0.758402
0.860638 0.690892 0.785875
0.234454 0.494386 0.588390
0.284760 0.538672 0.627253
0.331695 0.580130 0.661458
0.389834 0.617742 0.695032
0.502445 0.653299 0.725725
0.731882 0.668918 0.749679
0.825519 0.702888 0.778957
0.858285 0.736669 0.802118
0.292291 0.594216 0.660216
0.333702 0.627481 0.686518
0.381006 0.652961 0.707375
0.446102 0.679098 0.731618
0.536537 0.705276 0.750460
0.653975 0.733038 0.770068
0.811203 0.759778 0.802116
0.876289 0.797551 0.833164
0.345392 0.672910 0.707560
0.378837 0.689943 0.719435
0.433045 0.709242 0.735723
0.511646 0.730381 0.758246
0.603305 0.754172 0.777127
0.696977 0.780477 0.794790
0.804204 0.821258 0.815019
0.894506 0.867331 0.846690
0.395495 0.730931 0.744931
0.431283 0.738358 0.748156
0.505288 0.760182 0.768458
0.596994 0.781106 0.788265
0.681448 0.807256 0.813593
0.759160 0.836659 0.832768
0.848025 0.879273 0.850563
0.911357 0.911000 0.874702
0.090941 0.208243 0.409044
0.148355 0.241289 0.442733
0.221832 0.228045 0.471373
0.423252 0.183415 0.520633
0.601988 0.202839 0.582193
0.712568 0.254020 0.630835
0.806882 0.350633 0.691366
0.871608 0.456213 0.749598
0.132816 0.276341 0.452673
0.201294 0.318890 0.495500
0.276594 0.367162 0.549038
0.455547 0.335848 0.603769
0.680419 0.295957 0.642259
0.768339 0.374508 0.687843
0.825703 0.462042 0.733766
0.870403 0.546462 0.772879
0.183802 0.352590 0.505135
0.247245 0.404506 0.558394
0.309844 0.459150 0.605594
0.407869 0.517155 0.658267
0.650580 0.489620 0.710614
0.785302 0.486148 0.725618
0.828058 0.551693 0.756674
0.872364 0.626919 0.791696
0.233506 0.448144 0.581664
0.289070 0.496709 0.625420
0.338807 0.548163 0.666417
0.416115 0.596542 0.708819
0.627280 0.634168 0.755827
0.754239 0.606955 0.760985
0.827323 0.644337 0.783432
0.866584 0.694414 0.806444
0.287852 0.554038 0.661249
0.326925 0.590877 0.687485
0.380138 0.627641 0.723853
0.449315 0.662547 0.754992
0.532752 0.688144 0.770886
0.728872 0.707399 0.793387
0.817514 0.707267 0.802199
0.863583 0.746935 0.829485
0.333235 0.639099 0.718065
0.372990 0.665672 0.738515
0.423292 0.686116 0.755212
0.490892 0.707192 0.773173
0.576481 0.731153 0.789302
0.668892 0.756138 0.807188
0.798486 0.776763 0.832157
0.874440 0.801160 0.854766
0.378951 0.701237 0.754716
0.416257 0.714735 0.763311
0.474257 0.731496 0.776754
0.562242 0.753803 0.794352
0.635133 0.772935 0.810894
0.709885 0.794548 0.827275
0.786693 0.824455 0.847521
0.888430 0.859535 0.879178
0.418422 0.743507 0.776932
0.471415 0.759081 0.785547
0.549558 0.775391 0.799849
0.624818 0.792625 0.813184
0.699588 0.815958 0.833562
0.766391 0.842382 0.855393
0.834710 0.877585 0.879097
0.903500 0.911168 0.905380
