其他预设/【236】赛博朋克风调色预设/【后期菌】视频调色预设/CUBE/Abandoned 02.cube
# LUT by SparkleStock. Enhanced with VOXCOLOR algorithms.
LUT_3D_SIZE 5
DOMAIN_MIN 0.000000 0.000000 0.000000
DOMAIN_MAX 0.903226 0.903226 0.903226
0.007820 0.035191 0.058651
0.088923 0.116041 0.175575
0.352285 0.213036 0.303850
0.691199 0.353420 0.472109
0.849116 0.465550 0.610601
0.018667 0.117554 0.142528
0.238030 0.222858 0.280426
0.591755 0.377368 0.426035
0.778869 0.507544 0.558249
0.846141 0.627662 0.618824
0.000883 0.230442 0.223000
0.134094 0.289382 0.251217
0.464008 0.474823 0.347703
0.694080 0.609857 0.450854
0.822502 0.712959 0.560718
0.000000 0.435027 0.363889
0.248670 0.474412 0.312207
0.518823 0.620912 0.418564
0.731582 0.727220 0.531944
0.823922 0.795571 0.605174
0.007442 0.633683 0.539842
0.488413 0.665354 0.461115
0.690296 0.751954 0.572595
0.797369 0.813579 0.645287
0.856517 0.862990 0.716043
0.023460 0.090814 0.146438
0.092877 0.125419 0.215900
0.324715 0.199540 0.351853
0.670135 0.332877 0.525825
0.853026 0.448344 0.675990
0.027326 0.156411 0.202017
0.227861 0.220167 0.335649
0.607422 0.357252 0.524818
0.786726 0.471794 0.643333
0.861236 0.594835 0.721796
0.010847 0.281415 0.306047
0.035093 0.341309 0.369279
0.618198 0.513952 0.531302
0.760451 0.628999 0.606764
0.828453 0.713361 0.656582
0.000631 0.473623 0.461750
0.025125 0.533180 0.510063
0.557385 0.641790 0.498275
0.741532 0.736048 0.590979
0.822091 0.795045 0.654189
0.011604 0.650658 0.613934
0.343106 0.670974 0.586962
0.710693 0.763497 0.625343
0.809023 0.823764 0.699366
0.855603 0.862918 0.766114
0.036074 0.145177 0.238640
0.097426 0.154368 0.290753
0.317578 0.189177 0.402790
0.671747 0.313863 0.592076
0.849620 0.421571 0.716194
0.036615 0.219289 0.301995
0.097286 0.282522 0.394742
0.594364 0.343480 0.586604
0.782492 0.456860 0.692339
0.858962 0.587800 0.758932
0.031081 0.349217 0.417169
0.043031 0.419427 0.501726
0.513812 0.472255 0.624427
0.783197 0.613475 0.719934
0.834634 0.699873 0.769285
0.007820 0.523790 0.569120
0.013893 0.567595 0.612164
0.177985 0.625079 0.652256
0.768656 0.743944 0.664543
0.823901 0.795649 0.700303
0.013516 0.663703 0.669273
0.150628 0.702990 0.710509
0.648304 0.762161 0.719208
0.814761 0.831904 0.748936
0.850064 0.863682 0.808426
0.046290 0.228928 0.382808
0.103790 0.251860 0.435263
0.351214 0.203861 0.496660
0.678415 0.309555 0.656944
0.850568 0.416233 0.766658
0.054993 0.312309 0.447270
0.090947 0.371891 0.533432
0.526486 0.322471 0.628272
0.775329 0.442215 0.735928
0.850214 0.579444 0.793659
0.048292 0.445906 0.562041
0.067893 0.509621 0.630148
0.240556 0.579416 0.693157
0.789525 0.621865 0.767763
0.833487 0.699513 0.813614
0.015742 0.586661 0.667084
0.047961 0.627309 0.708772
0.256491 0.675547 0.740253
0.689577 0.726684 0.785367
0.839056 0.798724 0.843696
0.019961 0.679408 0.722484
0.176652 0.709276 0.750501
0.555366 0.761081 0.794816
0.785923 0.828569 0.826910
0.855758 0.872452 0.859060
0.070003 0.315580 0.549428
0.116578 0.349656 0.600910
0.428155 0.243917 0.618255
0.687578 0.312586 0.716364
0.850291 0.413161 0.805136
0.079821 0.410895 0.610614
0.117375 0.477597 0.669598
0.448692 0.497087 0.744721
0.772584 0.440055 0.779449
0.848243 0.567956 0.829307
0.079084 0.552561 0.694015
0.111167 0.608811 0.740830
0.312900 0.665721 0.787176
0.752880 0.642839 0.817919
0.842165 0.706245 0.856908
0.041810 0.654117 0.759090
0.123427 0.684992 0.786857
0.425190 0.725569 0.814476
0.675370 0.771572 0.857951
0.842479 0.802386 0.893105
0.068872 0.712226 0.785928
0.328331 0.742685 0.809132
0.621764 0.786044 0.845179
0.768550 0.827581 0.886205
0.852191 0.884536 0.927683
