其他预设/【236】赛博朋克风调色预设/【后期菌】视频调色预设/CUBE/Abandoned 09.cube
# LUT by SparkleStock. Enhanced with VOXCOLOR algorithms.
LUT_3D_SIZE 32
0.015640 0.003910 0.003910
0.019676 0.009964 0.011982
0.023460 0.015766 0.019929
0.023460 0.017785 0.025983
0.023965 0.020055 0.031785
0.028001 0.024091 0.035821
0.032794 0.028506 0.040614
0.040867 0.034560 0.048687
0.052471 0.041119 0.056759
0.074670 0.049191 0.064831
0.105698 0.057894 0.072273
0.156150 0.067985 0.078327
0.217198 0.081102 0.086652
0.295904 0.099265 0.098761
0.386971 0.117428 0.111752
0.493930 0.135591 0.125879
0.586763 0.153754 0.143033
0.665468 0.171917 0.163214
0.722606 0.188945 0.191341
0.762968 0.205089 0.225649
0.794501 0.225018 0.265002
0.820736 0.247217 0.307382
0.834484 0.266641 0.337275
0.842557 0.284804 0.361492
0.852143 0.309022 0.396304
0.862233 0.335257 0.434648
0.869044 0.363132 0.474632
0.875099 0.391385 0.514994
0.882919 0.421404 0.544761
0.890991 0.451676 0.573014
0.895280 0.485731 0.603160
0.899316 0.520039 0.633431
0.017658 0.009964 0.009964
0.020653 0.013935 0.018037
0.023591 0.017850 0.025918
0.025674 0.020909 0.030931
0.028262 0.024221 0.036212
0.034381 0.029299 0.043373
0.041843 0.034755 0.050509
0.055123 0.041851 0.057540
0.073237 0.049452 0.064831
0.105853 0.058566 0.072904
0.149250 0.069287 0.080997
0.216368 0.083544 0.089134
0.290175 0.098875 0.099151
0.375131 0.115996 0.112302
0.466523 0.134940 0.128613
0.566191 0.156228 0.148989
0.647566 0.176474 0.172393
0.710648 0.195678 0.198824
0.755677 0.213162 0.228513
0.786664 0.229307 0.260738
0.811427 0.250537 0.297356
0.832454 0.274820 0.336612
0.844575 0.297043 0.369825
0.852647 0.318331 0.400292
0.861452 0.344892 0.436666
0.870501 0.373210 0.475010
0.877117 0.403168 0.509916
0.883171 0.433505 0.544028
0.889168 0.461050 0.573014
0.895157 0.488197 0.601268
0.898339 0.519128 0.626530
0.901334 0.550311 0.651594
0.019676 0.015766 0.015893
0.021695 0.017850 0.023835
0.023843 0.020059 0.031553
0.027944 0.024160 0.035915
0.032591 0.028522 0.040985
0.041054 0.034706 0.051010
0.051421 0.041245 0.060303
0.070039 0.049317 0.066422
0.094875 0.057959 0.073063
0.138362 0.068310 0.081265
0.194197 0.081102 0.090078
0.277200 0.099265 0.100234
0.363229 0.116793 0.112025
0.454304 0.133264 0.126542
0.545607 0.153038 0.146186
0.637203 0.177060 0.172421
0.706860 0.199129 0.201749
0.754578 0.219245 0.234169
0.787832 0.237310 0.265490
0.809836 0.253780 0.295957
0.828056 0.276354 0.330167
0.844005 0.302589 0.366623
0.854494 0.327481 0.402810
0.862502 0.351764 0.438876
0.870460 0.380733 0.476699
0.878402 0.411265 0.515108
0.884864 0.443225 0.545212
0.890983 0.475515 0.573401
0.895280 0.500741 0.601361
0.899316 0.524958 0.629289
0.901460 0.552654 0.649710
0.903478 0.580582 0.669631
0.021695 0.017785 0.019929
0.023713 0.020909 0.025788
0.025926 0.024160 0.031879
0.031069 0.029303 0.041448
0.037408 0.034837 0.050945
0.052121 0.043104 0.059929
0.068933 0.051335 0.068571
0.094843 0.059408 0.075732
0.129573 0.069091 0.083674
0.190767 0.083609 0.093960
0.260079 0.099265 0.104530
0.347247 0.117428 0.115727
0.437443 0.136909 0.130513
0.532685 0.158588 0.151280
0.617673 0.179924 0.174440
0.689478 0.200821 0.200675
0.743511 0.220807 0.231044
0.779772 0.239881 0.265547
0.806255 0.260420 0.299537
0.825134 0.282099 0.333129
0.840229 0.306625 0.369813
0.853054 0.332860 0.408352
0.861851 0.358469 0.442326
0.868816 0.383793 0.474225
0.874952 0.416148 0.511788
0.880811 0.450846 0.551238
0.887728 0.483587 0.580692
0.894889 0.515877 0.607839
0.899316 0.541103 0.631112
0.903352 0.565320 0.653832
0.905496 0.588134 0.670021
0.907514 0.610854 0.685776
0.023460 0.020055 0.023965
0.025479 0.023961 0.028001
0.027757 0.028017 0.032660
0.033942 0.034332 0.046656
0.042055 0.041168 0.059977
0.063668 0.051649 0.068571
0.087600 0.061751 0.077115
0.121582 0.070214 0.085448
0.166371 0.081135 0.094627
0.243580 0.099428 0.106345
0.325203 0.117762 0.118470
0.416538 0.136185 0.131490
0.509973 0.157489 0.149466
0.606907 0.183594 0.175701
0.684701 0.206225 0.202050
0.737888 0.224387 0.228546
0.777404 0.242681 0.259826
0.803248 0.261104 0.295892
0.823564 0.284214 0.332250
0.839578 0.310970 0.368836
0.851646 0.337320 0.407538
0.861346 0.363425 0.447510
0.868629 0.390067 0.479783
0.874814 0.416953 0.508557
0.879485 0.452237 0.545729
0.883651 0.490321 0.585701
0.890674 0.523168 0.613242
0.898356 0.554807 0.637915
0.902961 0.579951 0.657005
0.907128 0.604169 0.675299
0.909524 0.622832 0.687916
0.911803 0.641125 0.700155
0.023460 0.024091 0.028001
0.025479 0.026955 0.032037
0.027822 0.030166 0.036631
0.035048 0.038564 0.049586
0.045505 0.047613 0.062516
0.078576 0.061218 0.075276
0.114356 0.074446 0.087596
0.161879 0.086034 0.098012
0.217865 0.099558 0.107972
0.299240 0.118893 0.116566
0.385030 0.138594 0.128821
0.480532 0.159100 0.149132
0.570711 0.181316 0.171665
0.652021 0.206379 0.197900
0.716470 0.228424 0.225161
0.759241 0.246587 0.253739
0.791986 0.265921 0.285020
0.814706 0.286428 0.319002
0.833068 0.312793 0.355621
0.848041 0.343716 0.394290
0.857766 0.370976 0.431820
0.864341 0.396040 0.468667
0.871363 0.425937 0.502828
0.878590 0.458031 0.535769
0.884302 0.493055 0.571639
0.889510 0.529055 0.608486
0.894189 0.557280 0.625285
0.898746 0.583711 0.637459
0.903873 0.608205 0.655899
0.909081 0.632422 0.675233
0.913495 0.652062 0.688892
0.917857 0.671397 0.702173
0.023082 0.027749 0.031659
0.025295 0.030158 0.035890
0.027899 0.033034 0.040639
0.036362 0.042929 0.053138
0.048992 0.053630 0.066093
0.090786 0.069970 0.082238
0.136266 0.086115 0.097552
0.197721 0.101414 0.109270
0.265099 0.118030 0.119768
0.350250 0.138602 0.126603
0.439449 0.159743 0.139257
0.537555 0.182138 0.164711
0.624016 0.205289 0.190312
0.691069 0.229701 0.216156
0.743625 0.251465 0.243938
0.777542 0.269823 0.274209
0.804396 0.290200 0.305295
0.824186 0.312594 0.337194
0.840791 0.341360 0.373523
0.854918 0.375082 0.413300
0.862738 0.403351 0.449658
0.866774 0.428350 0.483966
0.873451 0.460867 0.519258
0.881328 0.496802 0.554998
0.887838 0.531517 0.589517
0.893892 0.565825 0.623629
0.896826 0.590136 0.629761
0.899039 0.612139 0.629436
0.904271 0.635225 0.642952
0.909935 0.658466 0.658446
0.915782 0.677923 0.674123
0.921641 0.697127 0.689812
0.021064 0.029767 0.033677
0.024319 0.034259 0.038950
0.028030 0.039023 0.044805
0.038576 0.047877 0.059387
0.052637 0.057797 0.074165
0.091307 0.075178 0.090310
0.137178 0.093341 0.105234
0.214256 0.114889 0.114869
0.293874 0.136714 0.124846
0.381108 0.159369 0.135847
0.470437 0.182268 0.150064
0.564376 0.205704 0.171351
0.645108 0.229897 0.193567
0.703829 0.255351 0.217328
0.750786 0.278156 0.243938
0.782620 0.297556 0.274209
0.807390 0.318974 0.304253
0.825098 0.342410 0.334069
0.840791 0.369874 0.367730
0.854918 0.400471 0.404381
0.862738 0.430173 0.439567
0.866774 0.459337 0.473875
0.872735 0.491725 0.507019
0.879570 0.525577 0.539634
0.885820 0.559770 0.572591
0.891874 0.594078 0.605662
0.895654 0.617543 0.601443
0.898909 0.638505 0.588618
0.902449 0.656904 0.578698
0.906029 0.674936 0.569194
0.910769 0.689185 0.591120
0.915587 0.703182 0.615142
0.019550 0.034308 0.036704
0.023326 0.039841 0.042758
0.027623 0.045550 0.049427
0.039731 0.053882 0.065312
0.054835 0.063411 0.081229
0.090900 0.081314 0.097373
0.136657 0.100828 0.112053
0.224412 0.127323 0.120386
0.313794 0.153770 0.130167
0.408059 0.180071 0.144294
0.501001 0.206046 0.159845
0.591035 0.231304 0.178529
0.666396 0.256832 0.198335
0.717304 0.282807 0.220014
0.758728 0.306133 0.245224
0.787958 0.326053 0.274974
0.810645 0.348903 0.304106
0.826790 0.374683 0.332620
0.841068 0.401561 0.363514
0.853892 0.429294 0.396260
0.861550 0.459549 0.429168
0.866107 0.491318 0.462173
0.871872 0.523445 0.493657
0.878187 0.555734 0.524450
0.884306 0.588170 0.555584
0.890360 0.620655 0.586832
0.894775 0.642720 0.573384
0.898811 0.662380 0.549623
0.900854 0.676287 0.518058
0.902611 0.689372 0.485377
0.906261 0.700138 0.504879
0.910037 0.710750 0.527859
0.019550 0.046416 0.042758
0.022285 0.049867 0.048813
0.025605 0.053687 0.055416
0.037713 0.063062 0.070259
0.052686 0.073372 0.085265
0.087710 0.090233 0.101410
0.131840 0.109095 0.116285
0.215428 0.136633 0.125659
0.307154 0.165944 0.136222
0.423292 0.200577 0.150348
0.530296 0.233583 0.166550
0.617205 0.263008 0.187317
0.688270 0.290749 0.207645
0.732928 0.315682 0.227240
0.769014 0.337967 0.250366
0.794078 0.356846 0.278034
0.814682 0.382300 0.306645
0.830826 0.414329 0.336201
0.842174 0.442769 0.364035
0.849791 0.468419 0.390531
0.856797 0.496591 0.417840
0.863438 0.526276 0.445638
0.870570 0.557752 0.476927
0.877926 0.590042 0.509802
0.884306 0.617010 0.538332
0.890360 0.642203 0.565414
0.894775 0.661208 0.546108
0.898811 0.678785 0.516096
0.899942 0.688786 0.468256
0.900658 0.697705 0.417869
0.903266 0.710164 0.408922
0.906001 0.722858 0.402737
0.018920 0.059156 0.050074
0.021263 0.061499 0.055477
0.024136 0.064266 0.061345
0.034942 0.073380 0.074169
0.048524 0.083332 0.087287
0.081530 0.099151 0.102455
0.122994 0.117485 0.116671
0.201114 0.146715 0.126762
0.291603 0.178891 0.137455
0.419199 0.219904 0.149954
0.534019 0.258191 0.164670
0.620733 0.290480 0.184266
0.690918 0.319987 0.203324
0.733559 0.344855 0.221486
0.768111 0.367074 0.242611
0.792263 0.385888 0.267545
0.812737 0.413133 0.294822
0.829533 0.448808 0.324442
0.839884 0.478770 0.349888
0.845222 0.504289 0.372087
0.852472 0.531720 0.395751
0.860870 0.560299 0.420294
0.868820 0.589863 0.450207
0.876567 0.619874 0.482562
0.882801 0.642024 0.507349
0.888529 0.661554 0.529613
0.893676 0.678863 0.513846
0.898689 0.695659 0.489304
0.899316 0.703340 0.431780
0.899316 0.709720 0.369544
0.900903 0.722752 0.338007
0.902595 0.736228 0.308517
0.016902 0.073282 0.060165
0.020287 0.076667 0.063485
0.023875 0.080215 0.067138
0.030516 0.086205 0.075797
0.039931 0.093292 0.084878
0.068770 0.108070 0.096922
0.105287 0.126143 0.108599
0.175074 0.158498 0.118689
0.256449 0.193538 0.128080
0.372588 0.236634 0.135371
0.481484 0.276354 0.143904
0.574446 0.308643 0.155166
0.651273 0.338931 0.169016
0.701204 0.365882 0.187179
0.742592 0.390185 0.206481
0.772993 0.411082 0.227248
0.797634 0.438326 0.251400
0.816513 0.471918 0.278937
0.830119 0.503312 0.303472
0.839623 0.532998 0.325671
0.849087 0.562643 0.349986
0.858527 0.592263 0.375570
0.866086 0.617140 0.401512
0.872792 0.639860 0.427617
0.877983 0.658625 0.446155
0.882670 0.676072 0.462169
0.890161 0.694682 0.470620
0.898299 0.713561 0.477325
0.899316 0.722415 0.424619
0.899316 0.729836 0.363425
0.899926 0.740980 0.322188
0.900577 0.752373 0.282282
0.014883 0.087409 0.070255
0.018529 0.091836 0.071492
0.022224 0.096287 0.072957
0.026650 0.101104 0.077839
0.033608 0.107232 0.083422
0.058281 0.122530 0.093903
0.089411 0.141027 0.104018
0.148522 0.173382 0.112546
0.218537 0.208552 0.119853
0.321264 0.252169 0.123499
0.421917 0.292490 0.127409
0.518005 0.325561 0.131901
0.599372 0.356825 0.140201
0.656204 0.385079 0.154848
0.705232 0.412392 0.170350
0.744227 0.438497 0.186951
0.775182 0.467695 0.207392
0.798097 0.499984 0.231675
0.815593 0.531834 0.253906
0.828873 0.563343 0.274543
0.840893 0.592369 0.297702
0.852155 0.619907 0.322375
0.860642 0.641267 0.345347
0.867868 0.659821 0.367546
0.873288 0.676275 0.382764
0.878105 0.692029 0.395653
0.887207 0.710745 0.419704
0.897298 0.730145 0.446330
0.899584 0.741342 0.411379
0.900756 0.751368 0.367632
0.900097 0.760356 0.319551
0.899316 0.769274 0.271182
0.012865 0.101536 0.080346
0.015469 0.107004 0.079499
0.018252 0.112562 0.078816
0.023721 0.119463 0.080573
0.031069 0.127803 0.083552
0.051575 0.146227 0.095074
0.076586 0.166286 0.105254
0.121114 0.193432 0.109616
0.176026 0.224176 0.113538
0.262089 0.265710 0.116142
0.350633 0.305250 0.118034
0.444637 0.340404 0.118360
0.527045 0.372970 0.120541
0.590127 0.401223 0.125814
0.648140 0.433094 0.134220
0.699634 0.469615 0.146654
0.740484 0.504020 0.162408
0.770690 0.536310 0.181483
0.793134 0.566988 0.199092
0.809539 0.596414 0.215562
0.824683 0.620102 0.234555
0.839070 0.640348 0.255062
0.850682 0.660146 0.276732
0.861033 0.679742 0.298931
0.868796 0.695675 0.315711
0.875697 0.710387 0.330684
0.885189 0.727216 0.355971
0.895280 0.744532 0.383638
0.900300 0.760026 0.388008
0.904597 0.775260 0.389050
0.902180 0.781643 0.338886
0.899316 0.787437 0.285309
0.009964 0.123609 0.093085
0.012438 0.128752 0.090155
0.015136 0.134078 0.087409
0.021190 0.142150 0.087409
0.028416 0.151793 0.088638
0.043845 0.172430 0.098468
0.062679 0.193823 0.106919
0.096271 0.218496 0.109392
0.139269 0.246749 0.111638
0.210489 0.285744 0.113201
0.287180 0.324047 0.113644
0.375912 0.360829 0.111626
0.456343 0.395438 0.110194
0.522940 0.426425 0.109738
0.585806 0.461002 0.112700
0.643876 0.500192 0.120057
0.693710 0.536615 0.130212
0.735309 0.570272 0.143167
0.765263 0.599608 0.156012
0.786160 0.625582 0.168772
0.805796 0.647407 0.184624
0.824675 0.666742 0.202331
0.839525 0.685092 0.222186
0.852545 0.702994 0.243018
0.863222 0.718407 0.261018
0.873117 0.732989 0.278075
0.883171 0.748101 0.302377
0.893261 0.763334 0.328352
0.899023 0.778738 0.352561
0.904166 0.794167 0.376518
0.902412 0.798061 0.339138
0.900199 0.801186 0.297670
0.005928 0.155898 0.109230
0.009444 0.158958 0.104217
0.013118 0.162331 0.099518
0.019172 0.170403 0.099518
0.025617 0.180176 0.100095
0.034796 0.201855 0.104717
0.047381 0.224290 0.109132
0.074723 0.250004 0.112647
0.109909 0.278258 0.115414
0.168629 0.314128 0.115935
0.233798 0.350608 0.115662
0.313155 0.388431 0.113644
0.387727 0.426035 0.111821
0.454325 0.463272 0.110324
0.516735 0.498174 0.109966
0.573763 0.530073 0.111073
0.631409 0.564413 0.114458
0.689673 0.601194 0.120122
0.730434 0.628968 0.128019
0.757581 0.649735 0.137654
0.783466 0.674163 0.151683
0.808595 0.700789 0.168349
0.826831 0.717837 0.185730
0.841934 0.730532 0.203437
0.856256 0.745423 0.222219
0.870318 0.761047 0.241358
0.881153 0.774661 0.261820
0.891243 0.787812 0.282587
0.895182 0.797487 0.301588
0.898242 0.806666 0.320337
0.900264 0.808216 0.314856
0.902217 0.809258 0.307760
0.003910 0.194242 0.129411
0.007946 0.192615 0.119711
0.012109 0.191756 0.110617
0.018163 0.202433 0.110617
0.024608 0.214940 0.111000
0.033787 0.240264 0.114059
0.045883 0.265661 0.117302
0.070621 0.291375 0.121338
0.103464 0.319499 0.123975
0.160622 0.354848 0.122412
0.223903 0.391458 0.120545
0.300656 0.430844 0.118006
0.373601 0.469424 0.115467
0.440198 0.506661 0.112928
0.501469 0.539056 0.110617
0.555893 0.565227 0.108599
0.614841 0.596442 0.109380
0.678313 0.632703 0.112961
0.721939 0.659076 0.119068
0.750127 0.677760 0.127140
0.777054 0.701082 0.139607
0.803224 0.727187 0.154710
0.823218 0.743715 0.171604
0.840404 0.755888 0.189311
0.856028 0.769087 0.208873
0.871132 0.782628 0.229054
0.881739 0.794582 0.248019
0.891308 0.806170 0.266702
0.894270 0.812004 0.282253
0.896289 0.817017 0.297356
0.900687 0.818795 0.311178
0.905244 0.820358 0.324914
0.003910 0.238640 0.153628
0.007946 0.229722 0.136637
0.012109 0.222353 0.120708
0.018163 0.238237 0.120708
0.025389 0.256083 0.121350
0.040818 0.287657 0.126493
0.058187 0.317936 0.131429
0.083967 0.342609 0.135465
0.119935 0.370472 0.137320
0.186467 0.407904 0.132633
0.257495 0.446598 0.128292
0.338414 0.488067 0.124711
0.413963 0.525605 0.121131
0.480560 0.556593 0.117550
0.540009 0.583650 0.114653
0.590266 0.605654 0.112635
0.644006 0.632703 0.114979
0.701229 0.664797 0.121684
0.739776 0.689934 0.129158
0.763798 0.709659 0.137231
0.786558 0.728164 0.148395
0.808562 0.745936 0.161415
0.828686 0.762724 0.179806
0.847956 0.779064 0.200638
0.862538 0.789398 0.220982
0.875558 0.797731 0.241163
0.884929 0.807862 0.260974
0.893457 0.818409 0.280699
0.896289 0.822290 0.294557
0.898307 0.825220 0.307577
0.903682 0.829797 0.328104
0.909280 0.834484 0.349131
0.002775 0.283039 0.182386
0.006225 0.272688 0.159275
0.009985 0.264119 0.137463
0.018383 0.282282 0.135119
0.028660 0.302170 0.133606
0.052096 0.334134 0.137902
0.077485 0.365524 0.142150
0.111337 0.394429 0.146186
0.154385 0.425400 0.147700
0.225018 0.462572 0.141645
0.298154 0.500456 0.135856
0.376795 0.539907 0.130648
0.449601 0.573840 0.125879
0.512683 0.598578 0.121843
0.569869 0.621579 0.119458
0.619475 0.642346 0.119198
0.669765 0.666986 0.122811
0.720738 0.695500 0.130298
0.755856 0.718338 0.139432
0.778641 0.736761 0.149848
0.799066 0.752133 0.162420
0.818075 0.765674 0.176287
0.836279 0.779975 0.194271
0.854116 0.794623 0.214126
0.867217 0.803265 0.233347
0.878740 0.809905 0.252356
0.886983 0.818872 0.273269
0.894470 0.828377 0.294622
0.897684 0.831331 0.308912
0.900288 0.833349 0.322192
0.905578 0.838053 0.343529
0.911046 0.842935 0.365402
0.000757 0.327437 0.214675
0.003165 0.320211 0.186357
0.006209 0.314571 0.159401
0.018773 0.332734 0.152891
0.033868 0.352101 0.147342
0.066679 0.379899 0.148513
0.102223 0.409467 0.150222
0.149616 0.446704 0.154259
0.202819 0.483404 0.155772
0.273453 0.518493 0.149718
0.344310 0.553317 0.143277
0.415659 0.587560 0.135986
0.481565 0.615895 0.129915
0.538397 0.634383 0.125879
0.592980 0.654324 0.124862
0.644669 0.676133 0.127726
0.692876 0.699731 0.132381
0.737599 0.725120 0.138826
0.770568 0.744833 0.149848
0.794395 0.760132 0.164430
0.813909 0.773681 0.180518
0.830835 0.786180 0.197509
0.845523 0.795860 0.213605
0.859194 0.804258 0.229294
0.870472 0.812118 0.245911
0.880953 0.819800 0.262837
0.888155 0.828117 0.285053
0.894600 0.836580 0.308489
0.898596 0.839403 0.324861
0.902241 0.841421 0.340225
0.906619 0.844172 0.357786
0.911046 0.846971 0.375493
0.000000 0.384448 0.246965
0.002018 0.371233 0.213438
0.005037 0.360263 0.181503
0.023070 0.382983 0.173430
0.044773 0.406143 0.165635
0.092165 0.432378 0.159776
0.140510 0.460408 0.155284
0.192981 0.496213 0.156716
0.249178 0.531155 0.156277
0.316557 0.563510 0.150222
0.384932 0.595844 0.144351
0.455501 0.628134 0.138883
0.520527 0.654613 0.134196
0.576318 0.671409 0.130810
0.628378 0.690284 0.131526
0.675640 0.711832 0.137516
0.719160 0.733412 0.144839
0.758936 0.755026 0.153498
0.788495 0.770597 0.166367
0.810108 0.781468 0.182512
0.827897 0.792299 0.198697
0.843391 0.803106 0.214907
0.856110 0.811093 0.232370
0.867567 0.817798 0.250403
0.876535 0.824064 0.266043
0.884672 0.830184 0.280886
0.890588 0.836303 0.300701
0.895992 0.842422 0.321663
0.900768 0.846092 0.338980
0.905455 0.849413 0.355776
0.908922 0.851512 0.370740
0.912307 0.853530 0.385583
0.000000 0.449027 0.279255
0.002018 0.424354 0.240520
0.005428 0.403099 0.203702
0.029710 0.433110 0.195630
0.059095 0.462649 0.186662
0.124195 0.488885 0.171429
0.186926 0.515547 0.158539
0.239397 0.544061 0.155805
0.294293 0.572754 0.152240
0.356463 0.601984 0.146186
0.422234 0.632170 0.141617
0.495928 0.664459 0.140315
0.563689 0.691329 0.138622
0.621563 0.709167 0.136279
0.671148 0.728172 0.138948
0.710078 0.748678 0.148062
0.747348 0.767655 0.159031
0.782958 0.785102 0.171856
0.808351 0.795921 0.186548
0.825798 0.801584 0.202693
0.841373 0.809160 0.216925
0.855825 0.817884 0.230010
0.867502 0.825936 0.250794
0.877918 0.833683 0.275076
0.884282 0.837865 0.290716
0.889294 0.840860 0.303476
0.893778 0.843855 0.318669
0.898140 0.846849 0.334423
0.903698 0.851951 0.352000
0.909427 0.857355 0.369837
0.911982 0.859584 0.382914
0.914325 0.861602 0.395674
0.000000 0.503894 0.317094
0.002018 0.479938 0.272435
0.005863 0.459183 0.229705
0.037111 0.486460 0.215904
0.074893 0.513785 0.201110
0.158417 0.541453 0.179367
0.236386 0.568852 0.161078
0.290289 0.595087 0.157758
0.346031 0.620932 0.153754
0.407290 0.645605 0.147700
0.470726 0.670868 0.143314
0.538951 0.697428 0.142597
0.601658 0.720571 0.142736
0.655170 0.738018 0.144298
0.700224 0.755408 0.149278
0.734401 0.772725 0.158653
0.767570 0.788739 0.171477
0.799729 0.803452 0.187752
0.822477 0.812159 0.203954
0.837906 0.816195 0.220099
0.851178 0.822307 0.234169
0.863157 0.829663 0.246993
0.873837 0.837019 0.268053
0.883928 0.844375 0.292856
0.889478 0.847728 0.308139
0.893514 0.849746 0.320247
0.897550 0.851764 0.336905
0.901586 0.853782 0.354612
0.906762 0.858079 0.370838
0.912100 0.862701 0.386853
0.913654 0.864882 0.397863
0.914956 0.866900 0.408539
0.000000 0.554347 0.357456
0.002018 0.536640 0.306548
0.006319 0.521288 0.257438
0.044858 0.541274 0.235304
0.091364 0.562480 0.212568
0.193636 0.592231 0.185616
0.287229 0.621322 0.163291
0.343215 0.647558 0.161013
0.400780 0.672100 0.157790
0.463081 0.691565 0.151736
0.524303 0.710644 0.147024
0.583154 0.728872 0.145267
0.637268 0.746416 0.146707
0.683489 0.762821 0.153477
0.723074 0.777803 0.160931
0.754126 0.790953 0.169264
0.784170 0.803843 0.183130
0.813205 0.816472 0.202530
0.834000 0.824268 0.220099
0.848387 0.828304 0.236244
0.859316 0.833764 0.250965
0.868169 0.840079 0.264831
0.877873 0.846394 0.284784
0.887964 0.852708 0.307504
0.893514 0.855800 0.322265
0.897550 0.857819 0.334374
0.901586 0.859837 0.355263
0.905622 0.861855 0.378178
0.909886 0.864329 0.392321
0.914183 0.866867 0.405211
0.914696 0.868918 0.414073
0.914956 0.870936 0.422666
0.001514 0.592691 0.390250
0.005094 0.578108 0.335436
0.011510 0.565524 0.282192
0.060466 0.582905 0.252507
0.117257 0.601801 0.222609
0.228904 0.631291 0.191231
0.331090 0.659878 0.165212
0.392284 0.684551 0.162412
0.452648 0.707206 0.159385
0.510522 0.723806 0.155674
0.567481 0.740020 0.153469
0.622425 0.755384 0.154576
0.671364 0.769868 0.158295
0.710294 0.782888 0.166367
0.744752 0.795510 0.175807
0.773461 0.807618 0.187004
0.799989 0.818165 0.202302
0.824337 0.827148 0.221702
0.842496 0.832910 0.237953
0.855841 0.836165 0.251754
0.865403 0.841169 0.267223
0.872694 0.847224 0.283694
0.881910 0.852741 0.303028
0.892000 0.858014 0.323665
0.896964 0.860846 0.340249
0.900219 0.862864 0.355483
0.904109 0.864882 0.375476
0.908145 0.866900 0.396569
0.911498 0.868918 0.409800
0.914753 0.870936 0.421909
0.916421 0.872954 0.433163
0.917983 0.874972 0.444360
0.003532 0.626998 0.420522
0.009195 0.614499 0.362583
0.018281 0.603802 0.305954
0.078694 0.620143 0.268977
0.146292 0.637996 0.232179
0.264188 0.666445 0.196635
0.372624 0.693795 0.167034
0.440068 0.716385 0.163193
0.503557 0.736956 0.160166
0.555181 0.751474 0.159580
0.607192 0.765930 0.160825
0.660053 0.780252 0.166099
0.704956 0.792523 0.172421
0.736594 0.801377 0.180494
0.766040 0.811655 0.191756
0.792666 0.823763 0.207120
0.815548 0.832226 0.223981
0.834688 0.837044 0.242339
0.849982 0.840396 0.256376
0.862286 0.842610 0.267052
0.870806 0.847224 0.283303
0.877056 0.853278 0.302898
0.885946 0.858079 0.321777
0.896036 0.862310 0.340331
0.900219 0.864882 0.359519
0.902432 0.866900 0.378919
0.906127 0.868918 0.396308
0.910163 0.870936 0.413234
0.912604 0.872954 0.425945
0.914818 0.874972 0.438054
0.918374 0.876991 0.453214
0.922019 0.879009 0.468578
0.013748 0.661306 0.468830
0.021495 0.646659 0.396764
0.033303 0.633936 0.326383
0.106019 0.650080 0.281269
0.184742 0.667633 0.237253
0.305502 0.695040 0.200927
0.416485 0.720995 0.170814
0.485101 0.740655 0.167624
0.548752 0.758720 0.165867
0.597512 0.772000 0.168406
0.645316 0.785281 0.172307
0.691016 0.798561 0.179208
0.730613 0.809571 0.187500
0.760038 0.816797 0.198111
0.786587 0.824679 0.210403
0.809437 0.833402 0.224855
0.828251 0.839359 0.239893
0.843029 0.842549 0.255517
0.855829 0.846031 0.270885
0.867091 0.849742 0.286053
0.876156 0.854389 0.305413
0.883903 0.859597 0.327286
0.891516 0.863417 0.344281
0.899068 0.866607 0.359059
0.902469 0.868918 0.379793
0.904487 0.870936 0.402513
0.908145 0.873642 0.426767
0.912181 0.876506 0.451375
0.915192 0.877890 0.465786
0.918056 0.879062 0.478741
0.921226 0.881820 0.495480
0.924416 0.884685 0.512471
0.025857 0.695614 0.521300
0.035687 0.677841 0.432569
0.050229 0.662189 0.346043
0.135445 0.678334 0.292596
0.225364 0.695756 0.241289
0.348208 0.722122 0.204963
0.460884 0.746644 0.175046
0.529499 0.763179 0.172897
0.592630 0.778641 0.172702
0.639306 0.790879 0.178366
0.683074 0.803118 0.184742
0.720441 0.815357 0.192684
0.754440 0.825326 0.202799
0.782823 0.831510 0.216535
0.806963 0.836982 0.229673
0.825647 0.841539 0.242042
0.840294 0.844892 0.254476
0.850906 0.847040 0.266975
0.861297 0.851239 0.284491
0.871518 0.857033 0.305909
0.881495 0.861810 0.328914
0.891325 0.865976 0.352870
