其他预设/【236】赛博朋克风调色预设/【后期菌】视频调色预设/CUBE/Abandoned 10.cube
# LUT by SparkleStock. Enhanced with VOXCOLOR algorithms.
LUT_3D_SIZE 8
DOMAIN_MIN 0.000000 0.000000 0.000000
DOMAIN_MAX 0.903226 0.903226 0.903226
0.015640 0.007820 0.007820
0.023965 0.019803 0.028127
0.052975 0.033299 0.056759
0.224135 0.068615 0.091319
0.610980 0.133195 0.149844
0.785419 0.194999 0.258569
0.842809 0.285561 0.380033
0.875477 0.407530 0.521300
0.023460 0.019803 0.023713
0.045476 0.036769 0.060498
0.171982 0.072810 0.109453
0.539256 0.147342 0.167551
0.776460 0.225026 0.272879
0.845205 0.325463 0.404259
0.875575 0.452323 0.533425
0.899165 0.584264 0.637846
0.023460 0.033803 0.037713
0.055119 0.058338 0.086652
0.334789 0.154779 0.154637
0.686984 0.257841 0.233314
0.806101 0.359376 0.331591
0.850881 0.481191 0.442558
0.882219 0.606472 0.558908
0.900349 0.683884 0.530215
0.018037 0.085769 0.083499
0.040923 0.106048 0.096820
0.251091 0.227317 0.144689
0.641015 0.379570 0.175811
0.787840 0.502344 0.247925
0.840294 0.613417 0.335281
0.873288 0.682875 0.416607
0.899511 0.745216 0.442318
0.007820 0.213792 0.171665
0.029584 0.248247 0.142223
0.107761 0.368075 0.154372
0.411729 0.542466 0.140087
0.669724 0.654092 0.131303
0.795078 0.718814 0.171864
0.860785 0.772379 0.242172
0.894270 0.807639 0.310079
0.005171 0.431369 0.344591
0.057007 0.463125 0.204483
0.266084 0.604238 0.189197
0.580163 0.703308 0.163828
0.758187 0.760877 0.179399
0.845287 0.799924 0.238205
0.882068 0.823576 0.300636
0.903482 0.841043 0.374235
0.043389 0.644405 0.532274
0.149295 0.645247 0.253890
0.492966 0.737856 0.192488
0.718830 0.792653 0.195756
0.822441 0.822111 0.242249
0.875335 0.842557 0.309510
0.899605 0.856936 0.383846
0.916722 0.865008 0.457710
0.166115 0.750985 0.666730
0.313778 0.734462 0.287555
0.666652 0.806634 0.216722
0.805836 0.839656 0.264697
0.861273 0.853782 0.319743
0.891874 0.863812 0.388041
0.909931 0.871315 0.484722
0.922398 0.884892 0.605751
0.019803 0.015893 0.023965
0.024233 0.023241 0.040142
0.052975 0.033014 0.074702
0.230946 0.072477 0.136348
0.608453 0.132877 0.209687
0.780329 0.192505 0.312456
0.845934 0.292596 0.442538
0.881153 0.415969 0.572017
0.020039 0.020543 0.033046
0.048737 0.040441 0.081451
0.182988 0.076216 0.147370
0.534895 0.140673 0.226756
0.778865 0.228091 0.339851
0.847025 0.334107 0.470008
0.870646 0.443532 0.570203
0.895579 0.589378 0.669787
0.023460 0.045566 0.065938
0.032273 0.059349 0.100995
0.427806 0.153465 0.245326
0.736881 0.253174 0.348055
0.834284 0.365586 0.468202
0.854517 0.473195 0.564181
0.880209 0.610985 0.655391
0.902529 0.701612 0.719371
0.018794 0.108290 0.126628
0.023460 0.140526 0.174465
0.202891 0.225835 0.257317
0.716871 0.402267 0.324304
0.812272 0.533038 0.423759
0.846158 0.632312 0.506868
0.879186 0.707160 0.579180
0.906716 0.773342 0.646942
0.014631 0.265067 0.261535
0.024140 0.324580 0.332971
0.100829 0.373011 0.254791
0.417190 0.537290 0.222165
0.717453 0.661743 0.195725
0.813515 0.726036 0.258228
0.867287 0.778791 0.316054
0.893501 0.806063 0.383685
0.017028 0.497632 0.452819
0.042789 0.556265 0.516140
0.218047 0.600735 0.291190
0.598886 0.709154 0.206214
0.776733 0.761144 0.240839
0.854388 0.803497 0.307977
0.885284 0.825770 0.372704
0.904939 0.843163 0.455704
0.072188 0.678529 0.633122
0.144351 0.696413 0.604462
0.395770 0.720166 0.296470
0.746996 0.799304 0.257010
0.833181 0.820954 0.301116
0.878294 0.843472 0.383524
0.901280 0.859317 0.466258
0.910517 0.866562 0.545023
0.208597 0.771280 0.721975
0.316072 0.761961 0.565173
0.641241 0.804916 0.330490
0.818171 0.837983 0.322984
0.870906 0.854984 0.386818
0.894499 0.865830 0.471483
0.914272 0.877431 0.576540
0.923435 0.893681 0.686271
0.020055 0.020055 0.041623
0.028127 0.023965 0.058273
0.060291 0.039670 0.104441
0.229681 0.074360 0.184514
0.591551 0.128275 0.263378
0.793528 0.203092 0.374972
0.851833 0.301258 0.505603
0.883147 0.431646 0.619028
0.023460 0.028884 0.065718
0.036295 0.041149 0.103918
0.179271 0.080261 0.204541
0.553119 0.149475 0.295014
0.782326 0.229602 0.390675
0.846094 0.337006 0.520981
0.871315 0.461167 0.615975
0.893853 0.589042 0.696349
0.023395 0.056820 0.105185
0.029608 0.082018 0.170151
0.362685 0.145768 0.298291
0.727282 0.260604 0.412139
0.826242 0.366811 0.523851
0.854034 0.486837 0.615031
0.871483 0.597960 0.671818
0.898089 0.702334 0.736052
0.018794 0.136950 0.198376
0.024636 0.189464 0.271055
0.110658 0.244234 0.370791
0.754817 0.392473 0.502879
0.844638 0.545383 0.610548
0.865697 0.641173 0.668015
0.888698 0.723080 0.719361
0.903295 0.776813 0.736112
0.016519 0.301653 0.349864
0.031212 0.390277 0.460239
0.060707 0.453370 0.526599
0.394789 0.518381 0.423040
0.812480 0.678421 0.469605
0.848088 0.734036 0.520241
0.877056 0.780240 0.597993
0.893333 0.806930 0.588894
0.030166 0.547052 0.563973
0.064283 0.604251 0.630588
0.138538 0.653584 0.662869
0.470885 0.691488 0.381977
0.786925 0.764209 0.312511
0.852421 0.798641 0.379076
0.880183 0.824821 0.465382
0.894266 0.839557 0.533992
0.104551 0.706311 0.706815
0.179100 0.732010 0.722124
0.316600 0.754400 0.687526
0.688808 0.792818 0.406677
0.847274 0.824741 0.382245
0.880095 0.844459 0.459932
0.894637 0.855555 0.547045
0.906120 0.867411 0.619496
0.256453 0.791197 0.765820
0.378580 0.800039 0.743093
0.572207 0.808241 0.587161
0.801029 0.836257 0.447376
0.879034 0.860303 0.485519
0.899320 0.870668 0.567257
0.909101 0.881348 0.654563
0.920309 0.894010 0.741153
0.023460 0.024974 0.085012
0.032037 0.029543 0.100282
0.065251 0.041973 0.151174
0.231809 0.079442 0.247177
0.594778 0.133756 0.324479
0.796250 0.208605 0.428728
0.853656 0.311923 0.554855
0.886829 0.435132 0.659304
0.023460 0.046241 0.128353
0.039464 0.066157 0.190704
0.162098 0.088271 0.274844
0.556906 0.149993 0.349798
0.780370 0.233902 0.457615
0.843956 0.336930 0.566027
0.877134 0.474630 0.660978
0.895668 0.595546 0.720287
0.020812 0.083625 0.187195
0.036603 0.120744 0.276131
0.142040 0.173958 0.383735
0.693587 0.256614 0.461643
0.826696 0.374076 0.574619
0.856209 0.498716 0.655626
0.880906 0.615658 0.709217
0.900900 0.703671 0.757490
0.023460 0.193380 0.321822
0.031328 0.253050 0.402038
0.120690 0.330151 0.520147
0.662892 0.379559 0.554481
0.828884 0.524134 0.638848
0.866526 0.640428 0.703518
0.888115 0.721826 0.745075
0.898327 0.775696 0.775310
0.024034 0.376697 0.501221
0.049553 0.453791 0.588975
0.093119 0.539187 0.656506
0.287757 0.582947 0.663669
0.830646 0.682639 0.687354
0.871622 0.748678 0.718789
0.889736 0.791468 0.750185
0.900953 0.822742 0.773147
0.059770 0.605951 0.673179
0.113438 0.666252 0.726124
0.192353 0.704954 0.752673
0.317167 0.727706 0.732451
0.759622 0.768959 0.569660
0.866113 0.805874 0.565637
0.880261 0.825606 0.603340
0.897422 0.848024 0.668318
0.137609 0.729966 0.755652
0.232274 0.758221 0.775793
0.343133 0.773945 0.767648
0.547809 0.802113 0.745550
0.819153 0.828100 0.561246
0.882069 0.848511 0.557340
0.895968 0.861675 0.626365
0.901511 0.869817 0.683119
0.293560 0.799762 0.793545
0.430454 0.821938 0.800770
0.584160 0.829328 0.776691
0.763930 0.848376 0.707345
0.878682 0.862902 0.592774
0.902074 0.880724 0.653620
0.911209 0.887748 0.725363
0.922076 0.896793 0.786359
0.024469 0.046038 0.170529
0.038340 0.048243 0.193982
0.093602 0.062183 0.258309
0.254073 0.084955 0.304871
0.613352 0.140132 0.383817
0.801479 0.222085 0.493824
0.858449 0.331713 0.604132
0.892883 0.465241 0.696594
0.025731 0.069128 0.238648
0.038991 0.099420 0.307610
0.157874 0.114905 0.367859
0.572801 0.166836 0.424168
0.779740 0.247209 0.519859
0.846195 0.355512 0.610275
0.879286 0.485457 0.689304
0.905196 0.623551 0.753306
0.032290 0.139001 0.331986
0.043897 0.193668 0.413514
0.099262 0.262155 0.524449
0.549560 0.262686 0.525686
0.827202 0.388810 0.619737
0.854420 0.508976 0.676915
0.887986 0.631477 0.741758
0.906435 0.717631 0.781973
0.030341 0.282982 0.483290
0.056246 0.357587 0.577678
0.103164 0.436193 0.650365
0.361153 0.491143 0.670818
0.814699 0.533358 0.678615
0.874150 0.664270 0.740065
0.891295 0.729806 0.770891
0.899295 0.784825 0.797518
0.050688 0.468110 0.640035
0.090000 0.559494 0.712161
0.155218 0.625595 0.747715
0.345210 0.664446 0.744186
0.777813 0.689572 0.733305
0.868214 0.745725 0.753912
0.890466 0.795389 0.782244
0.900930 0.826599 0.811736
0.098846 0.663959 0.752259
0.163252 0.703225 0.779429
0.255727 0.733274 0.793687
0.379676 0.760773 0.789687
0.657681 0.786735 0.778184
0.864395 0.816677 0.715451
0.892411 0.837186 0.711840
0.899735 0.852504 0.738588
0.190597 0.759676 0.803948
0.288889 0.776684 0.806980
0.416689 0.800518 0.808936
0.572078 0.815076 0.799626
0.738809 0.838658 0.788416
0.873223 0.854750 0.711945
0.899979 0.867815 0.707867
0.909394 0.878206 0.737609
0.349241 0.813140 0.822270
0.473038 0.830265 0.820430
0.620141 0.845525 0.820267
0.760359 0.859487 0.801118
0.851536 0.874086 0.785350
0.900392 0.884466 0.743255
0.914420 0.891136 0.770469
0.920935 0.898684 0.813511
0.035064 0.071390 0.301580
0.046758 0.089805 0.343085
0.114202 0.096796 0.381616
0.327486 0.116081 0.391536
0.643815 0.164443 0.463805
0.802406 0.241431 0.555091
0.860451 0.348452 0.639201
0.896289 0.484787 0.718448
0.037884 0.120618 0.374862
0.059438 0.173924 0.476365
0.169228 0.184606 0.518651
0.517337 0.184004 0.498427
0.791943 0.265760 0.573911
0.849018 0.363516 0.643625
0.881707 0.500062 0.711596
0.902949 0.626087 0.765909
0.044419 0.225059 0.499663
0.065646 0.286584 0.583052
0.122791 0.367162 0.657037
0.536172 0.349750 0.629888
0.825297 0.389693 0.648670
0.865362 0.530149 0.716534
0.894680 0.648474 0.764697
0.910037 0.728824 0.800665
0.058147 0.388334 0.650609
0.090562 0.466622 0.705375
0.150044 0.554820 0.743182
0.340677 0.625618 0.763319
0.796692 0.582738 0.729439
0.879435 0.674683 0.764609
0.895524 0.742619 0.791025
0.901542 0.790815 0.811094
0.090497 0.592459 0.757345
0.152434 0.651031 0.786048
0.251296 0.701074 0.802020
0.387967 0.736856 0.805553
0.681908 0.762594 0.801959
0.868880 0.761278 0.788353
0.897237 0.807432 0.813051
0.907261 0.836766 0.836318
0.169858 0.726642 0.812635
0.247653 0.748151 0.817756
0.357719 0.776335 0.824779
0.500323 0.800070 0.822328
0.709054 0.819509 0.825367
0.839518 0.831710 0.822001
0.892617 0.843308 0.824978
0.913258 0.865988 0.842601
0.269274 0.785924 0.832324
0.366660 0.804182 0.832059
0.502177 0.821145 0.826774
0.638480 0.834289 0.828564
0.755706 0.849763 0.831002
0.843167 0.862304 0.827111
0.899850 0.874799 0.787180
0.917193 0.885592 0.806857
0.393847 0.824768 0.839277
0.530772 0.840185 0.838996
0.651255 0.851503 0.836310
0.759089 0.866047 0.842496
0.838380 0.880970 0.845319
0.891928 0.892112 0.827515
0.914293 0.896691 0.823222
0.924571 0.904699 0.837071
0.051462 0.129411 0.463406
0.074556 0.163604 0.523807
0.179281 0.153616 0.522228
0.436923 0.159934 0.506966
0.668837 0.188086 0.529019
0.809779 0.263411 0.599693
0.867197 0.376510 0.676910
0.896341 0.518684 0.741505
0.055567 0.197941 0.535610
0.092365 0.272494 0.624409
0.165096 0.334325 0.676075
0.513070 0.290164 0.625783
0.800902 0.301734 0.622798
0.851218 0.391900 0.679309
0.883553 0.524728 0.735410
0.905236 0.649729 0.786855
0.069820 0.338744 0.653669
0.107987 0.401686 0.702881
0.194459 0.507097 0.749749
0.554318 0.520007 0.737313
0.800427 0.436942 0.698275
0.870399 0.555419 0.747159
0.898893 0.666759 0.788786
0.912384 0.742288 0.818016
0.096816 0.520495 0.754554
0.161830 0.596797 0.780928
0.250570 0.657144 0.799133
0.412650 0.714475 0.814466
0.796464 0.688492 0.789053
0.881207 0.692514 0.790528
0.901206 0.756454 0.815823
0.907651 0.802097 0.829903
0.165220 0.683619 0.817847
0.250918 0.725133 0.828551
0.358164 0.758886 0.836033
0.496898 0.788947 0.838970
0.678425 0.810491 0.841266
0.867937 0.797755 0.826098
0.900590 0.817906 0.830986
0.907161 0.838446 0.844062
0.255001 0.766292 0.841356
0.353018 0.791135 0.844905
0.479924 0.810397 0.844180
0.612393 0.825191 0.845133
0.726901 0.837661 0.846743
0.824489 0.850348 0.850759
0.897068 0.853707 0.845506
0.919358 0.873036 0.862323
0.357448 0.812114 0.851854
0.465027 0.826092 0.849642
0.602228 0.839794 0.849133
0.703416 0.849043 0.848459
0.789325 0.863641 0.856509
0.853863 0.874355 0.857749
0.899500 0.885924 0.852429
0.925701 0.894047 0.858913
0.484165 0.842483 0.853131
0.595152 0.848299 0.852941
0.703645 0.861666 0.853225
0.787864 0.874289 0.859436
0.851363 0.887857 0.866534
0.887389 0.895878 0.865413
0.915143 0.903795 0.864906
0.928528 0.909786 0.865929
0.079589 0.213162 0.615142
0.113380 0.254179 0.651342
0.209117 0.264090 0.649625
0.522676 0.229689 0.600352
0.741188 0.255611 0.615919
0.823320 0.304920 0.647806
0.869264 0.412278 0.708089
0.900113 0.560059 0.767041
0.091295 0.312504 0.674525
0.143222 0.386018 0.724654
0.237457 0.461336 0.749846
0.580723 0.420637 0.715572
0.810109 0.354385 0.676812
0.858286 0.438546 0.717211
0.884921 0.561071 0.759901
0.905142 0.667062 0.801587
0.115186 0.470295 0.755400
0.190656 0.561989 0.784218
0.306191 0.634743 0.804295
0.490268 0.690276 0.815410
0.803688 0.624352 0.783602
0.872703 0.598686 0.772782
0.898190 0.679776 0.804355
0.914318 0.752711 0.830867
0.171827 0.635002 0.811060
0.265529 0.693080 0.824684
0.385912 0.737562 0.833543
0.548193 0.778515 0.842483
0.805213 0.794251 0.848585
0.876583 0.738588 0.821468
0.906044 0.766138 0.831099
0.917552 0.813449 0.846467
0.270523 0.749114 0.847069
0.362312 0.775598 0.847110
0.499285 0.804158 0.854684
0.630789 0.824687 0.861265
0.740087 0.841613 0.866054
0.872977 0.838762 0.858165
0.904231 0.827197 0.848596
0.918447 0.851391 0.862113
0.363319 0.801873 0.858571
0.479689 0.820601 0.858303
0.601765 0.837109 0.863596
0.699936 0.845036 0.863584
0.781717 0.861778 0.871380
0.845439 0.872562 0.873812
0.902926 0.871141 0.866272
0.921445 0.878272 0.872464
0.476186 0.835693 0.863494
0.586845 0.847383 0.863955
0.687447 0.854643 0.864879
0.768678 0.869260 0.870230
0.826124 0.878629 0.874579
0.869010 0.885392 0.873089
0.900358 0.893893 0.875742
0.925510 0.899682 0.881746
0.581933 0.855548 0.866481
0.681977 0.865157 0.866987
0.763404 0.875442 0.870257
0.817183 0.883863 0.873865
0.865301 0.892126 0.874220
0.895926 0.902173 0.879509
0.916669 0.909965 0.886060
0.932214 0.914960 0.888902
