其他预设/【236】赛博朋克风调色预设/【后期菌】视频调色预设/CUBE/Abandoned 01_S.cube
# LUT by SparkleStock. Enhanced with VOXCOLOR algorithms.
LUT_3D_SIZE 5
DOMAIN_MIN 0.000000 0.000000 0.000000
DOMAIN_MAX 0.903226 0.903226 0.903226
0.097752 0.039101 0.078201
0.115158 0.064327 0.112131
0.336266 0.131303 0.176458
0.712011 0.251127 0.300697
0.820358 0.392647 0.470470
0.104058 0.065841 0.104941
0.240968 0.165972 0.193026
0.575464 0.285813 0.230804
0.756014 0.382170 0.333373
0.853530 0.564303 0.497185
0.122095 0.191846 0.192602
0.191195 0.296950 0.216299
0.500017 0.450520 0.181820
0.725535 0.539052 0.231972
0.853489 0.670664 0.394457
0.168259 0.494561 0.374988
0.303260 0.585558 0.290505
0.654450 0.689828 0.269477
0.816216 0.745082 0.339191
0.873870 0.782453 0.439059
0.337149 0.729669 0.589916
0.628284 0.767688 0.318807
0.812769 0.798663 0.380054
0.874659 0.819475 0.483054
0.906757 0.841084 0.612526
0.097752 0.050831 0.096238
0.124833 0.069165 0.135005
0.325887 0.122547 0.232191
0.686406 0.212405 0.342438
0.822502 0.395495 0.535248
0.112761 0.087743 0.138915
0.230529 0.167573 0.239920
0.523239 0.256124 0.306790
0.720428 0.324663 0.365616
0.859112 0.500219 0.546583
0.143501 0.250261 0.271451
0.182552 0.351145 0.324277
0.548141 0.455114 0.328706
0.724135 0.515462 0.365701
0.864324 0.623992 0.471715
0.217056 0.551958 0.487758
0.282084 0.624108 0.542992
0.642901 0.691802 0.328197
0.789492 0.733730 0.391998
0.877198 0.749985 0.448243
0.386466 0.746192 0.667320
0.520830 0.770483 0.579172
0.828702 0.803419 0.481789
0.880251 0.828272 0.595341
0.902503 0.847689 0.625127
0.111248 0.069120 0.145177
0.130709 0.084471 0.178044
0.319438 0.140889 0.311186
0.686833 0.237851 0.432313
0.821554 0.394726 0.586803
0.134419 0.143594 0.230751
0.185370 0.223016 0.354034
0.532702 0.268131 0.437053
0.726066 0.339623 0.505916
0.857013 0.530766 0.642303
0.175880 0.356764 0.414553
0.223208 0.445638 0.503480
0.507338 0.459006 0.505210
0.728763 0.516758 0.534318
0.872131 0.577872 0.577075
0.278323 0.620533 0.621449
0.338931 0.672591 0.669123
0.451260 0.703112 0.653815
0.782180 0.724737 0.540036
0.881470 0.720698 0.525680
0.432671 0.767907 0.726642
0.526488 0.792832 0.743738
0.790025 0.822233 0.706891
0.855262 0.837559 0.643897
0.897357 0.857952 0.637542
0.145429 0.139627 0.294264
0.177064 0.167494 0.358795
0.349701 0.193518 0.403510
0.688555 0.289068 0.522212
0.822974 0.421750 0.641064
0.183016 0.278868 0.428207
0.231142 0.365665 0.543079
0.547818 0.328889 0.569469
0.773127 0.435170 0.645731
0.853920 0.593200 0.722452
0.246383 0.494280 0.609027
0.312906 0.584463 0.684797
0.446951 0.642992 0.724977
0.796195 0.621581 0.708568
0.873237 0.621018 0.718951
0.365378 0.694149 0.734613
0.429694 0.732699 0.768283
0.555835 0.770645 0.784203
0.772768 0.750774 0.742799
0.888141 0.738283 0.728717
0.494377 0.785358 0.782962
0.573218 0.799497 0.787967
0.761803 0.828536 0.809147
0.853959 0.848018 0.782410
0.902065 0.863598 0.756328
0.200423 0.271813 0.520922
0.243002 0.318469 0.592227
0.438432 0.280117 0.562147
0.691203 0.332673 0.600893
0.818592 0.455623 0.687244
0.252022 0.428858 0.644164
0.321671 0.532029 0.712210
0.547095 0.568920 0.740643
0.787245 0.495735 0.697997
0.851973 0.623049 0.755914
0.351296 0.642997 0.752458
0.421942 0.699911 0.789484
0.546401 0.745493 0.812502
0.813044 0.708823 0.778117
0.874481 0.723121 0.798710
0.465546 0.759343 0.812729
0.534270 0.780795 0.819512
0.655694 0.799449 0.829737
0.815792 0.822125 0.837195
0.890459 0.794533 0.838473
0.570500 0.811740 0.824439
0.650017 0.823105 0.828039
0.796734 0.842803 0.838732
0.871547 0.857126 0.849449
0.912018 0.872918 0.856575
