其他预设/【236】赛博朋克风调色预设/【后期菌】视频调色预设/CUBE/Abandoned 03_S.cube
# LUT by SparkleStock. Enhanced with VOXCOLOR algorithms.
LUT_3D_SIZE 32
0.011730 0.011730 0.011730
0.013748 0.013748 0.013748
0.015640 0.015640 0.015766
0.015640 0.015640 0.017785
0.015893 0.015640 0.019803
0.017911 0.015640 0.021821
0.021064 0.016019 0.023839
0.029136 0.018037 0.025857
0.040236 0.020055 0.028884
0.060417 0.022073 0.034938
0.087535 0.023460 0.040362
0.129915 0.023460 0.044398
0.186674 0.023460 0.049191
0.267398 0.023460 0.055245
0.363132 0.025226 0.059534
0.478164 0.029262 0.061552
0.575032 0.033299 0.067606
0.653738 0.037335 0.077697
0.713146 0.048182 0.095734
0.757544 0.064327 0.119951
0.791852 0.091824 0.158042
0.820105 0.126131 0.204459
0.837259 0.163214 0.246713
0.849368 0.201558 0.287075
0.861476 0.239902 0.331977
0.873585 0.278246 0.378394
0.885694 0.324788 0.433009
0.897802 0.373222 0.489515
0.908145 0.432252 0.537193
0.918235 0.492795 0.583609
0.924542 0.536310 0.622458
0.930596 0.578690 0.660802
0.013748 0.013748 0.013748
0.015766 0.014725 0.015766
0.017658 0.015705 0.017785
0.017658 0.016747 0.019803
0.018301 0.017789 0.021951
0.023444 0.018830 0.025011
0.029722 0.019860 0.027875
0.040919 0.020836 0.029893
0.056446 0.021813 0.032660
0.084960 0.022789 0.037673
0.123666 0.023786 0.042706
0.184794 0.024828 0.047783
0.256006 0.026260 0.053227
0.344021 0.028343 0.059282
0.437932 0.032192 0.065393
0.539423 0.038311 0.071577
0.621709 0.047035 0.082319
0.684791 0.058362 0.097617
0.732676 0.075329 0.120276
0.768741 0.096682 0.148660
0.798622 0.128735 0.187663
0.824793 0.167209 0.233038
0.842011 0.205594 0.277831
0.855162 0.243938 0.322359
0.869874 0.287750 0.371428
0.885108 0.333385 0.422011
0.896956 0.388065 0.478253
0.908023 0.444832 0.535801
0.916413 0.493967 0.579052
0.924420 0.542010 0.620261
0.929620 0.580838 0.653901
0.934632 0.619052 0.687037
0.015640 0.015640 0.015640
0.017658 0.015705 0.017658
0.019567 0.015893 0.019681
0.019827 0.017911 0.021764
0.021088 0.019929 0.024099
0.029356 0.021947 0.028201
0.038820 0.023587 0.031936
0.053467 0.023587 0.034084
0.073811 0.023619 0.036704
0.111244 0.023749 0.040740
0.161737 0.024510 0.045407
0.240964 0.026658 0.051462
0.325854 0.029564 0.057516
0.420184 0.033730 0.063570
0.511552 0.039805 0.071561
0.599111 0.048333 0.082042
0.666848 0.061776 0.097536
0.714761 0.080134 0.118043
0.751433 0.103070 0.145250
0.779361 0.129565 0.177670
0.804970 0.165948 0.217576
0.829187 0.208263 0.261975
0.846556 0.247848 0.308879
0.860813 0.286192 0.356923
0.877951 0.335375 0.409996
0.896049 0.388171 0.464745
0.907746 0.450329 0.522456
0.917967 0.514648 0.580851
0.924599 0.554644 0.619992
0.930718 0.591165 0.656383
0.934885 0.625184 0.684718
0.938921 0.659036 0.712515
0.015640 0.015640 0.015640
0.017658 0.016747 0.017658
0.019827 0.017911 0.019746
0.024254 0.019929 0.022870
0.029551 0.021947 0.026248
0.040944 0.023965 0.031390
0.054509 0.025605 0.036362
0.077489 0.025605 0.040594
0.108509 0.026158 0.044777
0.163649 0.028371 0.048813
0.228920 0.031215 0.053480
0.316480 0.035447 0.059534
0.403453 0.040435 0.065588
0.489450 0.046685 0.071643
0.567473 0.057121 0.082368
0.635242 0.072940 0.099098
0.688917 0.091592 0.120321
0.728497 0.113075 0.146036
0.758594 0.139721 0.176694
0.781314 0.170383 0.211197
0.804970 0.207677 0.251884
0.829187 0.248951 0.296282
0.847988 0.288210 0.338890
0.864329 0.326554 0.380684
0.881206 0.379643 0.435320
0.898262 0.437647 0.494235
0.911457 0.497397 0.551035
0.923761 0.557549 0.607346
0.931565 0.599758 0.647139
0.938726 0.639404 0.684571
0.942957 0.666783 0.706136
0.946993 0.693343 0.726642
0.015893 0.015893 0.015893
0.017780 0.017780 0.017780
0.020063 0.019676 0.019811
0.028266 0.021695 0.023977
0.037371 0.023745 0.028412
0.052800 0.026024 0.034727
0.071354 0.027924 0.041017
0.103448 0.028184 0.047202
0.145340 0.029519 0.052816
0.216624 0.034076 0.056722
0.295070 0.039141 0.061340
0.389269 0.045326 0.067525
0.477220 0.052609 0.073954
0.554754 0.061723 0.080789
0.619699 0.076505 0.094403
0.668459 0.098574 0.116732
0.708723 0.122042 0.142903
0.740492 0.146910 0.172914
0.764901 0.177381 0.206623
0.783584 0.212210 0.243210
0.805482 0.249927 0.284109
0.829309 0.289378 0.327595
0.849242 0.328515 0.366338
0.867405 0.367510 0.402924
0.884444 0.423886 0.459089
0.901110 0.486057 0.521781
0.915501 0.542568 0.576326
0.929368 0.597773 0.628992
0.938278 0.642211 0.670038
0.946481 0.685112 0.709423
0.950655 0.706713 0.725373
0.954561 0.726894 0.739760
0.017911 0.017911 0.017911
0.018757 0.018757 0.018757
0.020128 0.019676 0.019876
0.029372 0.021695 0.025084
0.040692 0.024006 0.030691
0.066536 0.028367 0.039088
0.096287 0.032351 0.047267
0.142964 0.034694 0.054493
0.197094 0.038633 0.060628
0.273587 0.047356 0.063493
0.353985 0.055612 0.067720
0.442977 0.062838 0.074946
0.524157 0.073897 0.084370
0.592316 0.091343 0.097455
0.646065 0.110357 0.115040
0.681284 0.131384 0.138411
0.712694 0.156936 0.164060
0.740297 0.187012 0.191988
0.765226 0.222105 0.225958
0.788076 0.261100 0.264627
0.809584 0.295823 0.301751
0.830285 0.327982 0.337946
0.849242 0.368421 0.375843
0.867405 0.412624 0.414512
0.887569 0.467959 0.471979
0.908401 0.527005 0.535712
0.921881 0.574467 0.578605
0.933664 0.619256 0.616688
0.943226 0.666038 0.663202
0.952470 0.713105 0.710920
0.955733 0.734967 0.729344
0.958597 0.755148 0.745814
0.019550 0.019172 0.019550
0.019746 0.019367 0.019550
0.020584 0.019701 0.019941
0.031065 0.022110 0.026191
0.044524 0.024950 0.032920
0.078832 0.030809 0.043011
0.118266 0.036546 0.052796
0.179916 0.041754 0.061259
0.246530 0.048784 0.068111
0.328035 0.061284 0.070129
0.409886 0.072827 0.074100
0.492498 0.082266 0.082368
0.566101 0.097394 0.094126
0.624691 0.122001 0.111703
0.668243 0.145014 0.132271
0.692461 0.165977 0.156683
0.716287 0.193221 0.181714
0.739723 0.226747 0.207364
0.764844 0.264705 0.240850
0.791274 0.306108 0.280430
0.812660 0.338764 0.314437
0.831018 0.366171 0.345099
0.849242 0.407363 0.381624
0.867405 0.454821 0.420815
0.890108 0.508187 0.478461
0.914325 0.563522 0.542259
0.927541 0.603571 0.573950
0.938217 0.640092 0.598232
0.948723 0.688119 0.645357
0.959204 0.737790 0.695744
0.961751 0.760181 0.718484
0.963769 0.780752 0.739381
0.019550 0.017154 0.019550
0.020787 0.018391 0.019550
0.022732 0.019831 0.020006
0.035296 0.024323 0.027297
0.050579 0.028856 0.034938
0.084886 0.033673 0.045029
0.127445 0.039735 0.055205
0.205761 0.051193 0.065751
0.285915 0.063432 0.074165
0.371587 0.078014 0.076183
0.452722 0.093268 0.080480
0.523876 0.109999 0.089789
0.586413 0.130464 0.101027
0.634587 0.157155 0.115479
0.672280 0.183163 0.134745
0.696497 0.208292 0.160199
0.718240 0.235536 0.184188
0.737510 0.264896 0.206713
0.761393 0.298101 0.236488
0.788865 0.334297 0.271902
0.811292 0.368905 0.305649
0.830692 0.402562 0.338394
0.849242 0.442127 0.371273
0.867405 0.484377 0.404214
0.890108 0.531753 0.457173
0.914325 0.580838 0.516804
0.930080 0.620562 0.539252
0.943881 0.658124 0.553118
0.956600 0.702636 0.579801
0.969164 0.748141 0.608315
0.971841 0.772224 0.643359
0.973859 0.794879 0.678838
0.019550 0.016145 0.019550
0.021568 0.018163 0.019811
0.024343 0.020433 0.020559
0.038470 0.026488 0.028632
0.055152 0.032387 0.036989
0.089720 0.037205 0.047340
0.134639 0.044292 0.057972
0.224412 0.061218 0.069820
0.315047 0.078405 0.079341
0.408271 0.096372 0.081880
0.491668 0.116069 0.086941
0.553448 0.139570 0.097552
0.606610 0.165146 0.109018
0.645409 0.194181 0.121908
0.677601 0.222760 0.140067
0.701298 0.250753 0.165000
0.721349 0.277997 0.187818
0.737754 0.304493 0.208519
0.760384 0.333955 0.234860
0.787856 0.365724 0.265588
0.810446 0.401114 0.298064
0.830106 0.438676 0.331591
0.849632 0.477134 0.362387
0.869097 0.515999 0.391943
0.891540 0.557256 0.439759
0.914976 0.599311 0.493661
0.932700 0.637927 0.508687
0.949105 0.675750 0.514742
0.963517 0.717105 0.520625
0.977643 0.758964 0.526484
0.980174 0.783308 0.562798
0.981932 0.806483 0.601141
0.019550 0.018163 0.019550
0.021568 0.020181 0.020852
0.024343 0.022451 0.022577
0.038470 0.028506 0.030650
0.055282 0.034796 0.039137
0.090892 0.042738 0.050530
0.135876 0.052951 0.061812
0.221482 0.073002 0.072619
0.313420 0.094354 0.081880
0.424350 0.119613 0.086502
0.518945 0.145950 0.093646
0.577600 0.174659 0.106341
0.626465 0.204662 0.120280
0.659015 0.236822 0.136295
0.686781 0.266702 0.153933
0.708394 0.293654 0.173658
0.727924 0.320898 0.194913
0.745371 0.348436 0.217698
0.766699 0.377181 0.241436
0.791046 0.406867 0.265913
0.811162 0.439523 0.294093
0.828739 0.473961 0.324495
0.851195 0.512874 0.357895
0.875868 0.553822 0.392659
0.897269 0.588569 0.433965
0.917580 0.621249 0.477451
0.935564 0.656415 0.490524
0.953011 0.692155 0.496579
0.967553 0.731427 0.480589
0.981679 0.771203 0.461449
0.983234 0.791510 0.465929
0.983950 0.810519 0.471983
0.020812 0.022704 0.020181
0.023155 0.025047 0.022525
0.026154 0.027582 0.025165
0.038979 0.032985 0.032261
0.054619 0.038975 0.039902
0.089968 0.049065 0.051360
0.134021 0.061792 0.062561
0.215786 0.085944 0.072652
0.306828 0.111870 0.081489
0.425701 0.143118 0.086567
0.526407 0.174793 0.094065
0.587145 0.207409 0.106890
0.636312 0.240780 0.121228
0.666193 0.275414 0.138089
0.692257 0.306373 0.154779
0.713415 0.332608 0.171250
0.733075 0.360178 0.191431
0.751238 0.389082 0.215322
0.771854 0.417987 0.237493
0.794379 0.446891 0.258325
0.813933 0.478115 0.283795
0.831705 0.510730 0.312049
0.856012 0.548268 0.346792
0.883289 0.588044 0.384485
0.903730 0.618885 0.420908
0.921893 0.646748 0.456908
0.939792 0.679847 0.474925
0.957629 0.714155 0.488791
0.971365 0.750570 0.457885
0.984515 0.787287 0.420583
0.985032 0.802886 0.399148
0.984707 0.817078 0.378772
0.024848 0.032794 0.022199
0.028233 0.036179 0.025584
0.031948 0.039560 0.029006
0.040606 0.042881 0.032977
0.052210 0.047047 0.037624
0.084435 0.057137 0.046998
0.125362 0.071036 0.056507
0.204003 0.101438 0.066597
0.289317 0.132832 0.074653
0.394648 0.167205 0.076606
0.490276 0.201354 0.080655
0.564555 0.235011 0.089313
0.624138 0.269424 0.099485
0.659227 0.305099 0.112179
0.689588 0.336644 0.126982
0.713870 0.362880 0.144494
0.735093 0.391491 0.164675
0.753256 0.422479 0.187525
0.774458 0.453466 0.210411
0.798024 0.484454 0.233327
0.821224 0.517110 0.259578
0.844205 0.550766 0.287831
0.867990 0.582901 0.321142
0.892143 0.614345 0.356752
0.911803 0.647009 0.391873
0.929966 0.680079 0.426832
0.947018 0.714155 0.464965
0.963814 0.748463 0.503829
0.974685 0.780321 0.473314
0.984711 0.811829 0.432886
0.984056 0.821245 0.398563
0.982688 0.829187 0.364645
0.028884 0.042128 0.024974
0.032920 0.046945 0.028229
0.037107 0.051637 0.031407
0.043552 0.054436 0.033425
0.052975 0.058391 0.036151
0.083247 0.070434 0.043833
0.121269 0.086725 0.051746
0.192879 0.121424 0.060665
0.269730 0.156822 0.067256
0.362302 0.194319 0.066866
0.452168 0.231186 0.068123
0.536082 0.266666 0.073006
0.603347 0.301877 0.079255
0.642862 0.336640 0.087783
0.678448 0.368698 0.100014
0.708980 0.397277 0.117005
0.733913 0.427320 0.136014
0.753248 0.458829 0.157042
0.775768 0.490118 0.179424
0.800767 0.521235 0.202860
0.826294 0.552882 0.228818
0.852139 0.584846 0.256291
0.875745 0.613677 0.288462
0.898335 0.641084 0.322770
0.917312 0.673423 0.355906
0.935084 0.707405 0.388651
0.951534 0.741334 0.437476
0.967679 0.775251 0.490012
0.976760 0.804555 0.476243
0.984833 0.833199 0.453002
0.983445 0.839139 0.409255
0.981427 0.843566 0.364141
0.032920 0.050200 0.029010
0.036956 0.057101 0.030182
0.041208 0.063875 0.031407
0.048695 0.068758 0.033425
0.059029 0.075186 0.036021
0.089301 0.092438 0.042661
0.124784 0.113156 0.049142
0.182854 0.148896 0.054936
0.246684 0.185856 0.058924
0.327799 0.226479 0.057491
0.410765 0.266471 0.057056
0.497803 0.305075 0.058814
0.568193 0.340676 0.061548
0.610833 0.371273 0.065910
0.653189 0.403722 0.074430
0.695178 0.438550 0.088296
0.727403 0.470677 0.104180
0.749862 0.500102 0.122083
0.774922 0.528722 0.141926
0.802003 0.556715 0.163279
0.827661 0.583284 0.187154
0.852464 0.608998 0.212543
0.876462 0.638025 0.244064
0.900093 0.668557 0.278372
0.918549 0.696989 0.308383
0.935279 0.724722 0.336962
0.951534 0.756633 0.380774
0.967679 0.789508 0.428102
0.976760 0.819593 0.458341
0.984833 0.849278 0.486138
0.983445 0.856260 0.438745
0.981427 0.861729 0.386340
0.039605 0.068868 0.033929
0.043641 0.076940 0.033018
0.047987 0.085000 0.032261
0.056971 0.092877 0.033824
0.068331 0.102634 0.035720
0.096324 0.125549 0.039951
0.128271 0.151492 0.044060
0.177357 0.190552 0.047641
0.232496 0.230214 0.049936
0.305799 0.271683 0.048373
0.382947 0.312805 0.047442
0.468553 0.353167 0.047897
0.540586 0.390356 0.049622
0.589997 0.422255 0.053463
0.637785 0.453983 0.059925
0.683485 0.485491 0.069755
0.720038 0.515372 0.082514
0.747446 0.543626 0.098203
0.775585 0.569462 0.115650
0.804294 0.593419 0.134464
0.830765 0.616562 0.156655
0.855894 0.639217 0.180872
0.880083 0.667242 0.211087
0.903844 0.697709 0.244027
0.922577 0.723831 0.273306
0.939633 0.748503 0.301364
0.955208 0.778624 0.341588
0.970442 0.810003 0.384619
0.978213 0.838419 0.435853
0.984918 0.866412 0.488258
0.983445 0.872556 0.453084
0.981427 0.877243 0.412071
0.049696 0.101157 0.039984
0.053732 0.109230 0.036989
0.058208 0.117550 0.034214
0.069275 0.129594 0.034735
0.081806 0.143777 0.035199
0.104591 0.172942 0.035264
0.131722 0.205134 0.035793
0.177682 0.250444 0.038332
0.229697 0.294272 0.040106
0.299875 0.333658 0.039585
0.372596 0.373348 0.039695
0.450911 0.413710 0.041192
0.522684 0.454024 0.045131
0.583552 0.494255 0.053138
0.635050 0.523835 0.059664
0.674501 0.539720 0.064286
0.711575 0.561789 0.073921
0.746274 0.590042 0.088569
0.778189 0.612949 0.103802
0.807940 0.631698 0.119491
0.836104 0.653539 0.140510
0.863315 0.677235 0.164727
0.887439 0.702722 0.192794
0.910159 0.729022 0.222609
0.930193 0.754883 0.254232
0.949333 0.780598 0.286456
0.963606 0.809221 0.324922
0.976756 0.838516 0.364829
0.981533 0.862115 0.407469
0.985113 0.884900 0.450500
0.983445 0.887789 0.447941
0.981427 0.889351 0.442342
0.060795 0.143537 0.050074
0.066915 0.151610 0.042392
0.073506 0.160353 0.035126
0.087177 0.179167 0.034084
0.102378 0.200382 0.033116
0.128288 0.238400 0.032660
0.157566 0.278372 0.032863
0.201444 0.326806 0.035923
0.252677 0.372718 0.038608
0.325980 0.411062 0.040171
0.399873 0.448572 0.042201
0.475063 0.484246 0.045261
0.545078 0.521239 0.050957
0.606467 0.560430 0.061048
0.655297 0.585550 0.068062
0.687977 0.592581 0.071122
0.723489 0.610223 0.080236
0.761833 0.638476 0.095404
0.793878 0.659040 0.110279
0.821025 0.673622 0.124927
0.848538 0.693250 0.145881
0.876270 0.715905 0.170619
0.899841 0.739276 0.198132
0.921519 0.762972 0.226906
0.940902 0.787401 0.260612
0.959521 0.812074 0.295961
0.970735 0.836694 0.332474
0.980239 0.861301 0.369255
0.982737 0.879757 0.406948
0.984235 0.897334 0.444771
0.984389 0.899898 0.462393
0.984454 0.901460 0.478668
0.072904 0.196008 0.064201
0.083190 0.204080 0.049228
0.093882 0.213410 0.034995
0.110678 0.241598 0.031871
0.130045 0.272448 0.029470
0.167413 0.321924 0.032139
0.205805 0.371204 0.035272
0.248641 0.419639 0.040415
0.301437 0.465550 0.045444
0.384114 0.503894 0.050131
0.464777 0.538475 0.054961
0.541009 0.564775 0.060104
0.607769 0.592003 0.067102
0.658743 0.620777 0.077192
0.698523 0.639127 0.085118
0.723912 0.644075 0.090261
0.755778 0.660675 0.101458
0.794122 0.688929 0.118710
0.822652 0.707735 0.135082
0.843549 0.719192 0.150772
0.868068 0.735695 0.172767
0.894759 0.755225 0.198547
0.917287 0.776903 0.227101
0.937924 0.799558 0.256917
0.954704 0.821383 0.292445
0.970197 0.842931 0.329878
0.976594 0.861041 0.364243
0.980890 0.878358 0.397899
0.981826 0.891345 0.434290
0.982282 0.903714 0.471072
0.986277 0.908881 0.496440
0.990509 0.913569 0.521048
0.089553 0.266641 0.086274
0.103419 0.277643 0.063424
0.117847 0.290122 0.041603
0.140697 0.324755 0.035223
0.166648 0.361651 0.030219
0.214301 0.414382 0.034841
0.262943 0.465758 0.040500
0.315869 0.511263 0.050656
0.376819 0.553513 0.059933
0.461840 0.585998 0.066573
0.541327 0.614536 0.073213
0.608640 0.634391 0.079853
0.665700 0.653466 0.087348
0.705672 0.671238 0.096267
0.738637 0.685308 0.105214
0.762594 0.694617 0.114198
0.791693 0.711348 0.128357
0.825936 0.735500 0.147692
0.850804 0.751742 0.166550
0.868381 0.761833 0.185039
0.889905 0.776236 0.208369
0.913796 0.793227 0.234604
0.933526 0.811785 0.262809
0.951363 0.831054 0.291908
0.964220 0.849250 0.326623
0.975418 0.867087 0.363209
0.979633 0.881910 0.400113
0.982237 0.896036 0.437090
0.982562 0.905093 0.470421
0.982562 0.913426 0.503231
0.986590 0.918524 0.530671
0.990887 0.923407 0.557752
0.109734 0.351402 0.114527
0.126725 0.367612 0.083344
0.144603 0.385233 0.053451
0.175786 0.424033 0.042905
0.210200 0.464183 0.034385
0.267227 0.513790 0.040049
0.327001 0.561650 0.047922
0.398676 0.601947 0.065369
0.472907 0.637687 0.080374
0.554802 0.659756 0.088056
0.626933 0.679831 0.095738
0.677581 0.695520 0.103419
0.719929 0.707694 0.110784
0.748442 0.714009 0.117619
0.776330 0.725735 0.127673
0.803411 0.744418 0.141865
0.830428 0.762191 0.159670
0.857379 0.779052 0.181088
0.878472 0.792104 0.203201
0.895007 0.802195 0.225856
0.913536 0.815296 0.250749
0.933261 0.830204 0.276984
0.948824 0.844530 0.303757
0.962495 0.858592 0.330773
0.970405 0.872360 0.362623
0.976394 0.886031 0.396085
0.980479 0.900073 0.439173
0.984125 0.914199 0.484482
0.984580 0.920522 0.513387
0.984580 0.925730 0.539947
0.985679 0.928680 0.565044
0.986851 0.931479 0.590042
0.123609 0.453820 0.159178
0.144376 0.464822 0.113803
0.166396 0.477740 0.070629
0.207213 0.519404 0.060474
0.252043 0.560369 0.052019
0.324955 0.596434 0.055469
0.398221 0.631828 0.061690
0.473021 0.664313 0.079918
0.547837 0.692729 0.096096
0.622702 0.708939 0.106121
0.688453 0.725108 0.116960
0.734153 0.741188 0.129590
0.772529 0.753215 0.140730
0.798700 0.758488 0.149388
0.824642 0.770312 0.162461
0.850291 0.790558 0.181210
0.873272 0.806768 0.201684
0.893583 0.818942 0.223883
0.910818 0.829577 0.247583
0.925661 0.839017 0.272452
0.939324 0.850165 0.296954
0.952279 0.862339 0.321236
0.962861 0.874020 0.349994
0.972366 0.885478 0.380786
0.976305 0.894983 0.410260
0.978388 0.903836 0.439295
0.981000 0.914329 0.476687
0.983734 0.925201 0.516007
0.985785 0.929522 0.541542
0.987738 0.932907 0.565109
0.987860 0.936232 0.588675
0.987860 0.939552 0.612241
0.133699 0.566834 0.213666
0.158632 0.566378 0.150584
0.185209 0.568685 0.091006
0.236443 0.612432 0.083975
0.292860 0.652745 0.077733
0.385563 0.669020 0.077017
0.473737 0.686577 0.079267
0.542287 0.709688 0.094371
0.610072 0.730292 0.108986
0.675563 0.743377 0.122136
0.735520 0.758374 0.137402
0.783303 0.777579 0.157322
0.824154 0.793512 0.174582
0.853449 0.803993 0.187407
0.879326 0.817379 0.204646
0.900809 0.834501 0.227561
0.918581 0.847586 0.250118
0.932643 0.856635 0.272317
0.945972 0.865317 0.296604
0.958732 0.873715 0.322514
0.966405 0.882520 0.345453
0.971027 0.891569 0.366611
0.976142 0.901558 0.399405
0.981480 0.911974 0.437488
0.982033 0.917312 0.464879
0.980992 0.920957 0.488706
0.981325 0.926243 0.513273
0.981976 0.931906 0.538011
0.986501 0.934665 0.560812
0.991579 0.937009 0.583337
0.991896 0.942221 0.605861
0.991896 0.947624 0.628386
0.147952 0.656261 0.279255
0.178484 0.652941 0.204910
0.210871 0.651887 0.134208
0.271089 0.684828 0.118128
0.337661 0.714733 0.103985
0.448722 0.723391 0.103399
0.551714 0.734210 0.105975
0.619744 0.754391 0.122250
0.683721 0.772017 0.137809
0.735540 0.781977 0.151219
0.784288 0.794012 0.166705
0.826278 0.810613 0.186756
0.862262 0.825260 0.205122
0.888237 0.836653 0.220681
0.910737 0.848558 0.240028
0.928769 0.861122 0.264245
0.943840 0.872157 0.288527
0.955949 0.881661 0.312875
0.966043 0.889958 0.339090
0.974571 0.897314 0.366757
0.978583 0.904223 0.391088
0.979885 0.910863 0.413418
0.983067 0.918398 0.446175
0.987103 0.926340 0.483673
0.987136 0.930914 0.509159
0.985834 0.934364 0.530642
0.986608 0.937708 0.552231
0.987861 0.941029 0.573844
0.990339 0.943209 0.594090
0.992992 0.945228 0.614141
0.991815 0.949016 0.632849
0.990382 0.952922 0.651468
0.164097 0.734967 0.349888
0.200878 0.732688 0.267211
0.239645 0.731569 0.187785
0.308196 0.747844 0.157123
0.384273 0.762907 0.130481
0.513041 0.769482 0.131978
0.630811 0.778608 0.136832
0.700924 0.798789 0.156232
0.762557 0.815634 0.173874
0.798753 0.822469 0.186243
0.833829 0.830729 0.200036
0.866444 0.842121 0.216962
0.894226 0.853123 0.234157
0.913951 0.863474 0.251799
0.931569 0.872515 0.272317
0.946477 0.879871 0.296535
0.959985 0.889343 0.322379
0.972093 0.900931 0.349851
0.979259 0.909553 0.378605
0.982579 0.915867 0.408356
0.983986 0.921084 0.435421
0.984247 0.925641 0.460875
0.987103 0.930377 0.491745
0.991139 0.935194 0.525076
0.991953 0.940548 0.548740
0.991693 0.946082 0.569181
0.994143 0.948971 0.592268
0.997219 0.951249 0.615964
0.995596 0.953300 0.633736
0.993301 0.955318 0.650662
0.989862 0.956177 0.664293
0.986346 0.956958 0.677703
0.181755 0.780374 0.426576
0.225567 0.782262 0.334785
0.271837 0.784544 0.246049
0.354970 0.792747 0.203149
0.444067 0.800583 0.165374
0.574918 0.805857 0.163486
0.692574 0.813046 0.165736
0.753052 0.828540 0.185917
0.805897 0.841869 0.204080
0.835843 0.848705 0.216189
0.864914 0.856557 0.230535
0.892061 0.866648 0.249805
0.915253 0.876152 0.269538
0.931854 0.884680 0.290045
0.946688 0.892126 0.311149
0.959252 0.898181 0.333023
0.970027 0.906090 0.358868
0.979010 0.915855 0.388684
0.983637 0.922654 0.418316
0.984873 0.927146 0.447807
0.986314 0.931841 0.474286
0.987876 0.936659 0.498959
0.990065 0.940402 0.528331
0.992539 0.943657 0.559840
0.994183 0.947840 0.582267
0.995550 0.952332 0.601666
0.996454 0.954813 0.623076
0.997252 0.956832 0.644950
0.994090 0.959533 0.661811
0.990363 0.962333 0.677955
0.987811 0.962507 0.689584
0.985337 0.962507 0.700911
0.199918 0.814682 0.505282
0.251022 0.821778 0.404116
0.305168 0.828617 0.305876
0.404967 0.831612 0.251518
0.508256 0.834761 0.203067
0.635982 0.838992 0.195971
0.748560 0.844164 0.193990
0.795498 0.853408 0.214171
0.837406 0.862310 0.232334
0.864227 0.870188 0.244442
0.889848 0.878756 0.260091
0.912828 0.888847 0.283527
0.932635 0.897570 0.307036
0.947152 0.904015 0.330667
0.959903 0.910289 0.352162
0.970385 0.916343 0.370911
0.978034 0.922691 0.396235
0.982851 0.929331 0.428134
0.985069 0.933591 0.458092
0.985264 0.936000 0.486541
0.987616 0.940565 0.511328
0.991261 0.946424 0.533918
0.992669 0.949776 0.561923
0.993060 0.951990 0.592390
0.995550 0.954350 0.613775
0.998740 0.956758 0.632133
0.997024 0.958850 0.650809
0.994176 0.960868 0.669558
0.990331 0.964481 0.686028
0.986343 0.968322 0.702173
0.985728 0.968562 0.712825
0.985337 0.968562 0.723110
0.241037 0.847350 0.572510
0.289276 0.852883 0.458585
0.341409 0.858091 0.348090
0.451949 0.858417 0.289044
0.563611 0.859100 0.236264
0.683135 0.862290 0.227345
0.787462 0.866395 0.223883
0.825936 0.874468 0.244064
0.860292 0.882117 0.262438
0.882296 0.888497 0.275393
0.903303 0.895772 0.291868
0.922117 0.905016 0.316085
0.938538 0.912747 0.339667
0.950973 0.917955 0.362192
0.962011 0.923533 0.384289
0.971255 0.929587 0.405837
0.977472 0.934795 0.430217
0.980662 0.939157 0.457429
0.982534 0.942200 0.484275
0.983380 0.944218 0.510836
0.985162 0.948230 0.537315
0.987506 0.953438 0.563746
0.989984 0.955871 0.588744
0.992523 0.957043 0.613091
0.993426 0.959484 0.634705
0.993784 0.962349 0.655406
0.991497 0.963838 0.674733
0.988600 0.965010 0.693742
0.986928 0.967207 0.706542
0.985431 0.969550 0.718456
0.986924 0.970490 0.729454
0.988617 0.971337 0.740390
0.287453 0.879639 0.637089
0.330484 0.882048 0.509623
0.378320 0.884196 0.386238
0.498235 0.882439 0.324068
0.616928 0.881169 0.268424
0.727077 0.883317 0.258463
0.822420 0.886576 0.254154
0.853603 0.894649 0.274335
0.881189 0.901777 0.292970
0.897985 0.906074 0.306967
0.914110 0.911591 0.324157
0.928757 0.919794 0.348374
0.941793 0.926483 0.371176
0.952144 0.930649 0.391617
0.961555 0.935642 0.414366
0.969758 0.941696 0.440080
0.974933 0.945862 0.463418
0.977082 0.948141 0.484381
0.979084 0.950273 0.507320
0.980971 0.952291 0.531798
0.981842 0.955652 0.560751
0.982103 0.959818 0.592390
