其他预设/【236】赛博朋克风调色预设/【后期菌】视频调色预设/CUBE/Abandoned 03.cube
# LUT by SparkleStock. Enhanced with VOXCOLOR algorithms.
LUT_3D_SIZE 5
DOMAIN_MIN 0.000000 0.000000 0.000000
DOMAIN_MAX 0.903226 0.903226 0.903226
0.011730 0.011730 0.011730
0.029136 0.018037 0.025857
0.364015 0.025226 0.060417
0.824646 0.130041 0.205089
0.908145 0.432252 0.537193
0.019550 0.017154 0.019550
0.208698 0.046400 0.069616
0.779633 0.182011 0.180136
0.903983 0.500558 0.476121
0.962202 0.741432 0.628740
0.039605 0.068868 0.033929
0.177357 0.184445 0.047641
0.739141 0.487440 0.078498
0.936663 0.740232 0.241525
0.982017 0.868080 0.469424
0.136979 0.566834 0.216946
0.550856 0.709688 0.097650
0.897049 0.824585 0.210733
0.983669 0.901053 0.375566
0.988299 0.939425 0.573930
0.339924 0.896036 0.696497
0.886967 0.909134 0.310263
0.978506 0.945187 0.464773
0.993157 0.964147 0.632711
0.990264 0.975373 0.764351
0.015640 0.015640 0.015640
0.036371 0.019550 0.035488
0.348932 0.020722 0.090546
0.794635 0.116545 0.293625
0.890108 0.459138 0.653254
0.021019 0.019550 0.026740
0.214885 0.037752 0.105962
0.759894 0.179068 0.339232
0.865882 0.489377 0.628807
0.930987 0.731415 0.776952
0.057101 0.110129 0.099607
0.100494 0.230128 0.222683
0.821459 0.556926 0.449789
0.917747 0.770580 0.642551
0.964188 0.862998 0.723906
0.125492 0.626921 0.457397
0.262053 0.757455 0.593646
0.908080 0.853831 0.338104
0.975137 0.912253 0.537269
0.983316 0.943168 0.701571
0.398217 0.888847 0.804119
0.737126 0.911018 0.676088
0.973359 0.946347 0.592479
0.982469 0.958000 0.739761
0.993604 0.970381 0.830117
0.020433 0.019550 0.033929
0.050363 0.019550 0.056128
0.359181 0.018667 0.146186
0.766076 0.131429 0.408429
0.875916 0.471792 0.717727
0.035101 0.032074 0.089248
0.088282 0.063066 0.241531
0.727012 0.187627 0.457463
0.851154 0.507671 0.709986
0.923419 0.739422 0.818108
0.057874 0.201590 0.329780
0.105760 0.386796 0.557256
0.693796 0.490709 0.671423
0.900649 0.761065 0.792434
0.944307 0.848869 0.853959
0.153042 0.713716 0.724233
0.294946 0.784791 0.804843
0.587361 0.831728 0.814290
0.954723 0.899468 0.737730
0.978089 0.937279 0.786046
0.464309 0.890275 0.868751
0.689135 0.903010 0.873784
0.902275 0.928668 0.819006
0.982545 0.957083 0.805104
0.987863 0.963264 0.875227
0.038470 0.022830 0.154132
0.088646 0.020820 0.242408
0.429733 0.016523 0.284507
0.751518 0.169374 0.549326
0.880933 0.530252 0.778388
0.040757 0.077664 0.368328
0.096626 0.197494 0.590882
0.661013 0.204271 0.583120
0.847954 0.536136 0.764587
0.921824 0.754246 0.847603
0.076403 0.436764 0.700570
0.218792 0.636990 0.807580
0.521613 0.740936 0.852555
0.901209 0.777828 0.837062
0.942780 0.851971 0.877195
0.280894 0.809152 0.867779
0.482687 0.844287 0.894778
0.710269 0.871344 0.898081
0.883780 0.877398 0.876441
0.958481 0.917083 0.901895
0.556817 0.892537 0.906159
0.728223 0.900435 0.902738
0.857634 0.917440 0.906856
0.942432 0.939954 0.897185
0.982129 0.960785 0.908498
0.048687 0.055372 0.484596
0.139753 0.107313 0.578015
0.555840 0.075174 0.508061
0.759029 0.251131 0.661847
0.886658 0.589578 0.816069
0.078938 0.301026 0.717292
0.246602 0.522535 0.819690
0.666577 0.581643 0.825826
0.852426 0.590393 0.808975
0.917505 0.761177 0.865616
0.250411 0.711657 0.870537
0.462824 0.800449 0.903910
0.698514 0.841928 0.907816
0.885840 0.807696 0.876315
0.937250 0.860096 0.894868
0.495859 0.863466 0.923220
0.672425 0.877895 0.924839
0.798184 0.886890 0.919876
0.890602 0.906562 0.925235
0.953437 0.913559 0.914190
0.692343 0.906550 0.929420
0.804637 0.912433 0.924778
0.879620 0.923898 0.927628
0.935319 0.938697 0.931250
0.971369 0.956697 0.935877
