其他预设/【236】赛博朋克风调色预设/【后期菌】视频调色预设/CUBE/Abandoned 10.cube
# LUT by SparkleStock. Enhanced with VOXCOLOR algorithms.
LUT_3D_SIZE 32
0.015640 0.007820 0.007820
0.019676 0.011856 0.015893
0.023460 0.015766 0.023587
0.023460 0.017785 0.025605
0.023965 0.019803 0.028127
0.028001 0.021821 0.034182
0.032794 0.024217 0.040614
0.040867 0.028253 0.048687
0.052975 0.033299 0.056759
0.077192 0.041371 0.064831
0.109608 0.049443 0.072904
0.160061 0.057516 0.080976
0.224135 0.068615 0.091319
0.310914 0.084760 0.105446
0.409170 0.100905 0.119572
0.522183 0.117050 0.133699
0.610980 0.133195 0.149844
0.675559 0.149339 0.168007
0.723110 0.163214 0.192981
0.757418 0.175322 0.223252
0.785419 0.194999 0.258569
0.809636 0.219216 0.296913
0.824142 0.240658 0.325545
0.834232 0.260839 0.349762
0.842809 0.285561 0.380033
0.850881 0.311796 0.412323
0.860593 0.342951 0.451171
0.870684 0.375240 0.491533
0.875477 0.407530 0.521300
0.879513 0.439820 0.549554
0.887333 0.472109 0.575915
0.895406 0.504399 0.602151
0.019676 0.011856 0.013874
0.021629 0.014851 0.019864
0.023526 0.017785 0.025735
0.024567 0.019803 0.029836
0.026374 0.022081 0.034442
0.033535 0.026182 0.042579
0.041648 0.030271 0.050509
0.053887 0.034308 0.057540
0.071724 0.039613 0.065092
0.106357 0.048727 0.074206
0.151793 0.059143 0.083971
0.220994 0.072424 0.095168
0.299130 0.086388 0.107854
0.392158 0.101491 0.123023
0.489373 0.118873 0.140014
0.591971 0.139184 0.159349
0.667747 0.157412 0.180701
0.716702 0.173557 0.204072
0.753903 0.189775 0.231325
0.781961 0.206050 0.261596
0.803712 0.227288 0.295611
0.821680 0.251506 0.331872
0.833516 0.275096 0.361285
0.842565 0.298402 0.387585
0.851663 0.325467 0.419159
0.860777 0.353786 0.452490
0.869838 0.387024 0.488995
0.878887 0.421396 0.526232
0.883549 0.452124 0.551963
0.887586 0.482330 0.576050
0.892476 0.513513 0.602151
0.897424 0.544761 0.628386
0.023460 0.015766 0.019676
0.023460 0.017785 0.023778
0.023603 0.019811 0.028013
0.025881 0.021959 0.034263
0.029169 0.024604 0.040993
0.039520 0.030723 0.051083
0.051067 0.036476 0.060466
0.067798 0.040643 0.066780
0.091754 0.046339 0.074023
0.137389 0.056625 0.084048
0.196024 0.069393 0.095396
0.283258 0.087621 0.109653
0.374691 0.104384 0.124691
0.473122 0.118706 0.141031
0.568506 0.137271 0.160874
0.659972 0.161293 0.185222
0.722695 0.181442 0.211555
0.756678 0.197717 0.239873
0.783922 0.216299 0.269363
0.805926 0.236675 0.299765
0.821623 0.259574 0.332608
0.833536 0.283987 0.366916
0.842854 0.309697 0.397106
0.850991 0.335997 0.425424
0.860447 0.365569 0.458235
0.870342 0.396231 0.492542
0.878756 0.431336 0.526639
0.886829 0.467467 0.560686
0.891369 0.496705 0.582543
0.895406 0.524958 0.602659
0.897611 0.554798 0.628207
0.899694 0.584744 0.654117
0.023460 0.017785 0.021695
0.023460 0.019803 0.026837
0.023863 0.021959 0.032245
0.030308 0.026191 0.041619
0.037762 0.030788 0.051083
0.052279 0.037949 0.061174
0.068969 0.044939 0.071337
0.095074 0.051189 0.081818
0.131010 0.059229 0.091925
0.196435 0.072639 0.100909
0.270954 0.087881 0.112192
0.365480 0.107151 0.128532
0.458735 0.125737 0.146044
0.549875 0.143183 0.165509
0.631588 0.162140 0.188021
0.701180 0.183037 0.214452
0.750363 0.202664 0.242347
0.779137 0.221023 0.271707
0.802345 0.242274 0.302825
0.821224 0.265775 0.335310
0.833797 0.291799 0.368934
0.842585 0.319336 0.403242
0.851642 0.346739 0.434148
0.860821 0.374081 0.463508
0.868194 0.408600 0.496579
0.874964 0.445512 0.530886
0.882793 0.479250 0.561597
0.890865 0.512256 0.591478
0.895406 0.541103 0.611903
0.899442 0.569356 0.630978
0.902624 0.594314 0.651578
0.905748 0.619052 0.672280
0.023460 0.019803 0.023713
0.023460 0.021821 0.029767
0.024091 0.024099 0.036208
0.034182 0.030284 0.048447
0.045476 0.036769 0.060498
0.065202 0.045362 0.071240
0.088003 0.053931 0.082616
0.124133 0.062394 0.096743
0.171982 0.072810 0.109453
0.254984 0.089085 0.117916
0.343663 0.106622 0.129451
0.444828 0.126933 0.147744
0.539256 0.147342 0.167551
0.622454 0.167913 0.189880
0.690756 0.187431 0.214972
0.739906 0.205594 0.243616
0.776460 0.225026 0.272879
0.800417 0.245728 0.302760
0.819759 0.269835 0.335350
0.835514 0.296592 0.370049
0.845205 0.325463 0.404259
0.851260 0.355605 0.438176
0.859999 0.384896 0.469855
0.869960 0.413800 0.500517
0.875575 0.452323 0.533425
0.879741 0.494052 0.567082
0.886764 0.526154 0.593757
0.894445 0.556035 0.618820
0.899165 0.584264 0.637846
0.903462 0.612257 0.656009
0.907514 0.632682 0.672157
0.911550 0.652603 0.688172
0.023460 0.021821 0.025731
0.023460 0.023839 0.031785
0.024091 0.026182 0.038291
0.034182 0.033409 0.051571
0.047039 0.041326 0.065185
0.079263 0.054086 0.081135
0.114954 0.066626 0.096743
0.165667 0.078214 0.110869
0.224973 0.091234 0.124361
0.310059 0.108550 0.135949
0.400821 0.127128 0.149958
0.504069 0.148481 0.169293
0.595112 0.170713 0.190141
0.665810 0.194409 0.213512
0.722524 0.215684 0.240557
0.761259 0.233847 0.272325
0.791563 0.255363 0.301588
0.813437 0.280231 0.328344
0.830110 0.308505 0.361325
0.842740 0.339427 0.399148
0.851260 0.369211 0.432577
0.857314 0.398310 0.463370
0.865338 0.430856 0.496221
0.874256 0.464969 0.530008
0.880392 0.500887 0.559791
0.885600 0.537409 0.588239
0.890279 0.565996 0.606321
0.894836 0.592752 0.622010
0.900988 0.618767 0.639864
0.907368 0.644677 0.658027
0.911550 0.663019 0.673199
0.915587 0.680856 0.688172
0.023460 0.024217 0.028127
0.023656 0.026235 0.034377
0.024482 0.028644 0.041131
0.034767 0.036912 0.055453
0.049016 0.046164 0.070507
0.091006 0.062309 0.090688
0.137438 0.078368 0.109734
0.203124 0.094057 0.123861
0.274571 0.110511 0.138036
0.363303 0.129260 0.152358
0.456245 0.149148 0.168572
0.558452 0.171543 0.188949
0.644522 0.195377 0.210546
0.703698 0.221613 0.234177
0.749887 0.244573 0.262308
0.779377 0.263321 0.296225
0.803920 0.286725 0.325292
0.823515 0.314783 0.349510
0.837764 0.346247 0.382259
0.847854 0.380359 0.421645
0.855666 0.411176 0.454439
0.862111 0.440015 0.483278
0.869541 0.474986 0.516593
0.877418 0.512744 0.551942
0.884074 0.546108 0.579382
0.890324 0.578007 0.604185
0.893294 0.603347 0.613331
0.895507 0.627173 0.618865
0.902335 0.650146 0.631690
0.909821 0.672996 0.645556
0.914073 0.689193 0.660765
0.918109 0.704947 0.676063
0.023460 0.028253 0.032163
0.024697 0.030271 0.039455
0.026565 0.032745 0.047250
0.037892 0.042055 0.062614
0.052792 0.052218 0.078580
0.092698 0.068363 0.098761
0.140563 0.085985 0.117807
0.222915 0.110007 0.131933
0.309465 0.133492 0.146369
0.408612 0.155365 0.161733
0.504159 0.177727 0.178988
0.591783 0.201163 0.200406
0.666005 0.225649 0.221482
0.717890 0.251884 0.241989
0.758155 0.276211 0.267451
0.783478 0.298085 0.299285
0.804376 0.322530 0.327311
0.820846 0.349546 0.351528
0.833727 0.379968 0.381348
0.843818 0.413039 0.415525
0.852932 0.445418 0.448319
0.861460 0.477382 0.480283
0.868825 0.511181 0.510994
0.875660 0.545815 0.541136
0.882837 0.576835 0.569617
0.890129 0.606651 0.597545
0.894140 0.629908 0.596275
0.897395 0.651651 0.588268
0.901619 0.667983 0.579349
0.905980 0.683542 0.570300
0.910037 0.697331 0.589936
0.914073 0.711002 0.611484
0.023460 0.033803 0.037713
0.025218 0.035821 0.045265
0.027623 0.038311 0.053370
0.039731 0.047881 0.069775
0.055119 0.058338 0.086652
0.093463 0.075003 0.106833
0.142256 0.094318 0.125879
0.236325 0.125110 0.140006
0.334789 0.154779 0.154637
0.446435 0.181080 0.170782
0.546913 0.207055 0.189063
0.622820 0.232313 0.212043
0.686984 0.257841 0.233314
0.731577 0.283816 0.251738
0.766259 0.309022 0.275117
0.788198 0.333239 0.304867
0.806101 0.359376 0.331591
0.819967 0.387434 0.355287
0.831416 0.417140 0.381803
0.840986 0.448128 0.410512
0.850881 0.481191 0.442558
0.860972 0.515498 0.476605
0.868466 0.547524 0.505103
0.874781 0.578511 0.531078
0.882219 0.606472 0.558908
0.890031 0.633423 0.587357
0.894563 0.653816 0.577933
0.898339 0.672695 0.559770
0.900349 0.683884 0.530215
0.902107 0.693974 0.499032
0.905757 0.705957 0.515576
0.909532 0.718065 0.535301
0.023460 0.043894 0.047804
0.024177 0.045912 0.053272
0.025605 0.048272 0.059489
0.037713 0.055758 0.076936
0.053101 0.064652 0.094725
0.091445 0.083401 0.114906
0.139652 0.104799 0.133951
0.230596 0.137674 0.148078
0.331404 0.170989 0.162709
0.461799 0.205622 0.178854
0.574190 0.238628 0.198111
0.646972 0.268053 0.224217
0.706449 0.295794 0.247832
0.743751 0.320727 0.267297
0.773876 0.345347 0.290350
0.794773 0.369565 0.318018
0.811634 0.399348 0.342658
0.824459 0.434697 0.364271
0.834281 0.464663 0.386360
0.841767 0.490443 0.408820
0.850881 0.521553 0.437871
0.860972 0.555860 0.470876
0.869183 0.584305 0.498332
0.876539 0.610085 0.523266
0.883456 0.632837 0.545367
0.890226 0.654580 0.566525
0.893717 0.669765 0.555734
0.896451 0.683436 0.537571
0.897420 0.693974 0.490699
0.898136 0.704065 0.439726
0.900744 0.716047 0.430620
0.903478 0.728156 0.424305
0.022830 0.055245 0.058525
0.023155 0.057915 0.061910
0.024177 0.060755 0.066117
0.035634 0.066158 0.082653
0.050249 0.073368 0.099603
0.086965 0.093223 0.119458
0.133081 0.115972 0.138057
0.219924 0.151256 0.151207
0.319739 0.187972 0.164780
0.458467 0.228985 0.179623
0.577136 0.267272 0.197741
0.651675 0.299562 0.223065
0.711104 0.329312 0.246216
0.745346 0.354832 0.265746
0.774006 0.379924 0.287783
0.795489 0.404466 0.313041
0.812448 0.436756 0.336575
0.824882 0.476792 0.358384
0.834094 0.506978 0.378141
0.840799 0.529503 0.396304
0.849823 0.558375 0.422279
0.860239 0.591055 0.452941
0.868820 0.615634 0.478949
0.876567 0.636531 0.502840
0.882801 0.654890 0.520678
0.888529 0.672402 0.536497
0.892301 0.685470 0.530260
0.895621 0.697514 0.518932
0.896036 0.706994 0.461579
0.896036 0.716108 0.397651
0.897623 0.727419 0.367900
0.899316 0.738877 0.340428
0.020812 0.069372 0.070633
0.022179 0.074124 0.071935
0.024046 0.078787 0.073864
0.033421 0.082107 0.085191
0.045562 0.087364 0.097455
0.077070 0.106178 0.116269
0.117782 0.128666 0.133435
0.198376 0.167075 0.143460
0.289858 0.206656 0.153648
0.414003 0.249752 0.164325
0.526553 0.289471 0.176649
0.613592 0.321761 0.192598
0.683176 0.353074 0.209109
0.723668 0.382759 0.226556
0.757666 0.410651 0.246054
0.783316 0.436235 0.268188
0.802878 0.468525 0.292763
0.816354 0.507520 0.319779
0.827193 0.537836 0.341816
0.835982 0.561402 0.359979
0.846438 0.587409 0.382698
0.857896 0.614882 0.408153
0.866086 0.634969 0.431816
0.872792 0.651700 0.454666
0.877983 0.667454 0.471462
0.882670 0.682883 0.486240
0.889632 0.700639 0.497580
0.897119 0.718932 0.508126
0.898054 0.726459 0.455330
0.898054 0.732448 0.393485
0.898665 0.741611 0.354099
0.899316 0.750985 0.316211
0.018037 0.085769 0.083499
0.020445 0.092214 0.082718
0.023184 0.098431 0.082392
0.030866 0.101230 0.088902
0.040923 0.106048 0.096820
0.067614 0.124992 0.114592
0.102288 0.147732 0.130399
0.171555 0.186922 0.137691
0.251091 0.227317 0.144689
0.361435 0.271325 0.150808
0.467304 0.312159 0.157558
0.563327 0.346011 0.165696
0.641015 0.379570 0.175811
0.688148 0.412640 0.189221
0.729413 0.443233 0.205252
0.763135 0.470640 0.224652
0.787840 0.502344 0.247925
0.803529 0.538344 0.275072
0.816948 0.567277 0.297165
0.828601 0.590713 0.315328
0.840294 0.613417 0.335281
0.852012 0.635681 0.356309
0.860642 0.653156 0.377873
0.867868 0.668455 0.399681
0.873288 0.682875 0.416607
0.878105 0.697001 0.431906
0.886890 0.716417 0.454133
0.896590 0.737054 0.477960
0.899511 0.745216 0.442318
0.901464 0.751596 0.398180
0.900488 0.758098 0.351235
0.899316 0.764608 0.304102
0.014001 0.105950 0.097626
0.017451 0.113437 0.094761
0.021101 0.120760 0.092222
0.027741 0.125643 0.094566
0.036366 0.132544 0.098708
0.058891 0.153571 0.115439
0.086469 0.177418 0.130009
0.135945 0.213483 0.135217
0.197513 0.251274 0.139351
0.295359 0.294240 0.140262
0.393611 0.335660 0.141804
0.492758 0.373678 0.144734
0.575134 0.410622 0.148859
0.629558 0.445776 0.154979
0.681304 0.478908 0.165997
0.729608 0.509440 0.183313
0.763688 0.539581 0.201379
0.783544 0.569332 0.220193
0.801129 0.594359 0.238640
0.816948 0.615712 0.256803
0.829553 0.634379 0.274803
0.840229 0.651435 0.292706
0.850682 0.669431 0.312578
0.861033 0.687855 0.333345
0.868796 0.703056 0.352354
0.875697 0.717182 0.370777
0.884025 0.733213 0.392744
0.892684 0.749683 0.415529
0.900032 0.762793 0.418036
0.907193 0.775422 0.417645
0.903612 0.778409 0.366598
0.899316 0.780752 0.312175
0.010847 0.134078 0.116167
0.014883 0.140783 0.111219
0.019046 0.147561 0.106581
0.025100 0.155438 0.106581
0.032578 0.165049 0.108143
0.050025 0.186792 0.120642
0.070621 0.210891 0.131555
0.104864 0.245199 0.135591
0.151541 0.281297 0.138228
0.235520 0.322766 0.136665
0.323649 0.364743 0.135449
0.420908 0.407839 0.134993
0.505180 0.448397 0.134781
0.567806 0.484722 0.134977
0.628353 0.518684 0.140156
0.686227 0.549607 0.151744
0.729454 0.578186 0.164146
0.758032 0.604421 0.177361
0.781521 0.625713 0.192078
0.801051 0.643159 0.207962
0.816106 0.659670 0.224009
0.828475 0.675620 0.240154
0.840978 0.692599 0.258447
0.853542 0.710046 0.277717
0.864105 0.725344 0.297670
0.874000 0.739927 0.317851
0.882414 0.753028 0.338561
0.890487 0.765788 0.359393
0.898730 0.779515 0.381592
0.906998 0.793382 0.403986
0.903974 0.794676 0.365471
0.900199 0.795131 0.322896
0.008829 0.172421 0.140384
0.012865 0.176002 0.133353
0.017028 0.180111 0.126762
0.023082 0.192155 0.126762
0.029779 0.205281 0.127283
0.040976 0.225982 0.131449
0.054737 0.249235 0.135591
0.079605 0.283543 0.139627
0.115345 0.319120 0.142524
0.183700 0.358506 0.142003
0.258484 0.401004 0.141177
0.347410 0.450350 0.139680
0.429990 0.494813 0.137255
0.501990 0.531139 0.133284
0.569177 0.563733 0.131563
0.630176 0.591531 0.132735
0.682256 0.618548 0.138887
0.725417 0.644783 0.150019
0.757044 0.662559 0.160895
0.779699 0.673756 0.171571
0.799180 0.690528 0.185665
0.816757 0.710644 0.201810
0.831604 0.724628 0.218671
0.845210 0.735825 0.235857
0.859157 0.750343 0.255290
0.873219 0.765967 0.275471
0.882414 0.776724 0.293642
0.890487 0.786359 0.311349
0.895084 0.795139 0.329512
0.899186 0.803798 0.347740
0.900785 0.805743 0.343142
0.902217 0.807240 0.337023
0.007820 0.213792 0.171665
0.012377 0.214769 0.156822
0.017028 0.216632 0.142874
0.023082 0.231801 0.142353
0.029584 0.248247 0.142223
0.039219 0.273636 0.144827
0.051319 0.300404 0.147700
0.074104 0.333149 0.151736
0.107761 0.368075 0.154372
0.174033 0.409544 0.152810
0.245757 0.452823 0.150129
0.329475 0.500086 0.144986
0.411729 0.542466 0.140087
0.491542 0.576709 0.135595
0.561072 0.606309 0.131530
0.617384 0.629940 0.128015
0.669724 0.654092 0.131303
0.718094 0.678765 0.141393
0.751706 0.694686 0.150348
0.773840 0.703800 0.158421
0.795078 0.718814 0.171864
0.815780 0.737367 0.188530
0.832320 0.749789 0.205553
0.846967 0.759424 0.222740
0.860785 0.772379 0.242172
0.874325 0.786440 0.262353
0.883423 0.795213 0.278831
0.891496 0.802764 0.294455
0.894270 0.807639 0.310079
0.896289 0.812131 0.325703
0.901175 0.815768 0.339985
0.906253 0.819349 0.354177
0.007820 0.258191 0.210009
0.013419 0.257084 0.181625
0.019046 0.257125 0.154918
0.025100 0.274376 0.153355
0.031993 0.293947 0.152965
0.044752 0.329752 0.160777
0.060368 0.364397 0.167881
0.088361 0.394018 0.171917
0.128788 0.428163 0.173772
0.206518 0.475881 0.169085
0.285468 0.520202 0.162302
0.367103 0.557048 0.150910
0.450398 0.591356 0.143277
0.536461 0.621432 0.141910
0.604038 0.646410 0.140059
0.647851 0.664834 0.137585
0.691858 0.684819 0.141393
0.736061 0.706367 0.151484
0.765507 0.722093 0.160439
0.783474 0.733290 0.168511
0.803802 0.744528 0.182605
0.825545 0.755791 0.200313
0.843126 0.768082 0.219094
0.858815 0.780842 0.238364
0.868987 0.791453 0.258317
0.877320 0.801348 0.278498
0.885441 0.808493 0.294130
0.893514 0.815003 0.308712
0.896289 0.817013 0.323295
0.898307 0.818380 0.337877
0.905146 0.824752 0.355999
0.912307 0.831457 0.374358
0.006685 0.310535 0.254028
0.013325 0.307931 0.216205
0.020039 0.306625 0.180290
0.027851 0.324788 0.172999
0.037038 0.345652 0.167441
0.055852 0.385429 0.174016
0.078572 0.423813 0.180115
0.118218 0.456168 0.184152
0.167759 0.491582 0.185372
0.246985 0.536176 0.178146
0.327778 0.576192 0.169313
0.412018 0.606138 0.156944
0.493132 0.633911 0.148994
0.569039 0.658063 0.148408
0.630306 0.678712 0.147964
0.672751 0.694857 0.147704
0.713699 0.712141 0.152619
0.753150 0.730564 0.162709
0.779821 0.745436 0.172983
0.796551 0.757544 0.183399
0.815967 0.766398 0.198657
0.836995 0.773298 0.216820
0.852651 0.783556 0.234356
0.865867 0.795339 0.251607
0.874151 0.804339 0.271056
0.880791 0.812411 0.291237
0.888119 0.818844 0.308403
0.895605 0.824898 0.324873
0.898307 0.826168 0.339293
0.900325 0.826754 0.353420
0.907470 0.832710 0.371574
0.914956 0.839025 0.389998
0.004667 0.369060 0.302463
0.012349 0.365414 0.258390
0.020234 0.363132 0.216030
0.031171 0.381295 0.199365
0.044134 0.402029 0.184823
0.071280 0.440764 0.185148
0.103896 0.479669 0.186170
0.160207 0.519315 0.190206
0.220685 0.557594 0.190906
0.293662 0.591771 0.181596
0.372112 0.623324 0.172307
0.462601 0.649104 0.163063
0.539028 0.671539 0.156675
0.592019 0.688400 0.155048
0.643587 0.704947 0.155386
0.693323 0.721092 0.158250
0.735313 0.736814 0.164727
0.769555 0.752112 0.174818
0.794533 0.765617 0.187435
0.812306 0.777725 0.202017
0.830810 0.785277 0.218838
0.849754 0.790094 0.237001
0.861179 0.796836 0.250956
0.869187 0.804453 0.263000
0.876950 0.812411 0.281147
0.884632 0.820484 0.301328
0.891308 0.826916 0.321879
0.897753 0.832971 0.342515
0.900325 0.835152 0.357456
0.902343 0.836779 0.371583
0.908511 0.839871 0.386808
0.914956 0.843061 0.402106
0.005171 0.431369 0.344591
0.013244 0.422125 0.293617
0.021813 0.414919 0.244528
0.037827 0.438290 0.223696
0.057007 0.463125 0.204483
0.098346 0.498214 0.196606
0.143175 0.533572 0.190352
0.203132 0.570093 0.191134
0.266084 0.604238 0.189197
0.338020 0.631254 0.179106
0.415672 0.657599 0.170867
0.505900 0.682468 0.166701
0.580163 0.703308 0.163828
0.627816 0.717434 0.163112
0.674729 0.731874 0.165045
0.720689 0.746717 0.170383
0.758187 0.760877 0.179399
0.787222 0.774352 0.192094
0.810507 0.785228 0.206363
0.829321 0.794082 0.221857
0.845287 0.799924 0.238205
0.859544 0.803961 0.255066
0.868609 0.810279 0.269957
0.875314 0.817636 0.283954
0.882068 0.823576 0.300636
0.888839 0.829044 0.318213
0.894498 0.833931 0.337958
0.899902 0.838683 0.358205
0.903482 0.841043 0.374235
0.906802 0.843061 0.389664
0.911465 0.845079 0.402652
0.916217 0.847097 0.415476
0.007189 0.495948 0.382934
0.015262 0.478371 0.324670
0.024221 0.463874 0.268680
0.046485 0.495578 0.246806
0.073347 0.527054 0.225510
0.132393 0.556935 0.208259
0.190828 0.586303 0.193412
0.246619 0.613449 0.188985
0.306967 0.639262 0.183143
0.380986 0.661070 0.173052
0.458768 0.684160 0.166766
0.544830 0.710070 0.168849
0.618442 0.731561 0.170664
0.671303 0.745688 0.172031
0.716588 0.759216 0.176047
0.752133 0.771976 0.183468
0.781818 0.784573 0.195609
0.805645 0.797007 0.212470
0.827238 0.804498 0.227976
0.847093 0.808143 0.242428
0.859544 0.812033 0.257084
0.867551 0.816069 0.271862
0.875379 0.823820 0.290399
0.883126 0.833260 0.310645
0.888578 0.836596 0.325764
0.893266 0.837898 0.339175
0.897688 0.840311 0.355601
0.902050 0.842980 0.372722
0.907323 0.845079 0.390185
0.912726 0.847097 0.407697
0.915566 0.849116 0.418862
0.918235 0.851134 0.429603
0.016145 0.553590 0.432378
0.024217 0.534841 0.364674
0.033522 0.518961 0.299232
0.061320 0.546108 0.267724
0.094790 0.573393 0.237273
0.167962 0.601646 0.214228
0.239108 0.629008 0.194637
0.301474 0.652509 0.190015
0.365842 0.675002 0.184563
0.436215 0.694466 0.176620
0.509070 0.714704 0.171750
0.587385 0.736643 0.173638
0.654349 0.754847 0.176649
0.702392 0.766825 0.181531
0.741977 0.778234 0.187809
0.770686 0.788910 0.195882
0.796856 0.799587 0.210074
0.820488 0.810263 0.230385
0.840164 0.816875 0.247217
0.856765 0.820325 0.261344
0.866774 0.823694 0.275023
0.872828 0.827014 0.288434
0.880270 0.834004 0.308379
0.888342 0.842662 0.331294
0.892850 0.844827 0.345567
0.896171 0.844827 0.356960
0.901236 0.847049 0.373959
0.906705 0.849783 0.392252
0.911432 0.851890 0.410431
0.916055 0.853908 0.428594
0.917564 0.855927 0.441874
0.918866 0.857945 0.454829
0.028253 0.608079 0.486867
0.036326 0.591413 0.408747
0.045957 0.576835 0.332694
0.078962 0.593565 0.287644
0.118551 0.611737 0.244825
0.204223 0.639990 0.217613
0.287673 0.667157 0.195027
0.361496 0.689616 0.192488
0.432895 0.711067 0.189380
0.497018 0.729490 0.184563
0.562647 0.747059 0.180864
0.631588 0.762748 0.179627
0.689177 0.775874 0.182247
0.727846 0.784728 0.191296
0.759880 0.793467 0.199918
0.783381 0.802060 0.207990
0.807989 0.810654 0.223745
0.833703 0.819247 0.247181
0.851361 0.826119 0.265380
0.862754 0.831652 0.279507
0.870810 0.835152 0.292535
0.876864 0.837430 0.304904
0.884306 0.842662 0.325240
0.892379 0.849238 0.349196
0.896105 0.850881 0.362949
0.898384 0.850881 0.373300
0.904947 0.853949 0.392642
0.912498 0.857725 0.414060
0.915664 0.859963 0.432630
0.918203 0.861981 0.450793
0.918606 0.863999 0.467979
0.918866 0.866017 0.485101
0.043389 0.644405 0.532274
0.054586 0.630603 0.446863
0.067423 0.618450 0.363274
0.104856 0.631014 0.307028
0.149295 0.645247 0.253890
0.242778 0.671157 0.222512
0.334138 0.696224 0.196639
0.416294 0.717642 0.194621
0.492966 0.737856 0.192488
0.553183 0.754456 0.190015
0.612709 0.769795 0.188904
0.670713 0.782360 0.190792
0.718830 0.792653 0.195756
0.750469 0.799163 0.205846
0.777977 0.806357 0.216079
0.800177 0.814429 0.226495
0.822441 0.822111 0.242249
0.844770 0.829402 0.263342
0.859336 0.835119 0.280955
0.867864 0.839611 0.295863
0.875335 0.842557 0.309510
0.882170 0.844575 0.322400
0.888782 0.849368 0.343077
0.895292 0.855422 0.367294
0.899605 0.856936 0.383846
0.903185 0.856936 0.397842
0.908511 0.859580 0.417234
0.914240 0.862835 0.437871
0.916722 0.865008 0.457710
0.918740 0.867026 0.477435
0.919598 0.869044 0.494231
0.920380 0.871062 0.510832
0.059534 0.674676 0.574654
0.074898 0.664000 0.482993
0.091901 0.654646 0.392895
0.133500 0.665127 0.326232
0.182365 0.677146 0.263460
0.282099 0.699931 0.227915
0.379903 0.722264 0.198657
0.469351 0.742640 0.196639
0.550709 0.761552 0.195027
0.607802 0.776069 0.194637
0.661599 0.789325 0.196586
0.708146 0.799806 0.203682
0.746758 0.808017 0.211900
0.772147 0.812444 0.221991
0.796140 0.818466 0.233591
0.818339 0.826538 0.247132
0.838000 0.833699 0.262365
0.855121 0.839949 0.279291
0.866237 0.844038 0.295668
0.872682 0.846446 0.311617
0.880022 0.848611 0.326306
0.887899 0.850629 0.340237
0.893404 0.855422 0.361240
0.897831 0.861476 0.385457
0.903185 0.862990 0.405915
0.908849 0.862990 0.425119
0.912027 0.864788 0.443795
0.914631 0.867002 0.462348
0.916722 0.869044 0.483750
0.918740 0.871062 0.505558
0.920575 0.873080 0.520531
0.922398 0.875099 0.535049
0.090436 0.703308 0.610475
0.104888 0.690678 0.510872
0.121350 0.679363 0.412994
0.167962 0.687761 0.340994
0.222418 0.697990 0.273029
0.331786 0.721035 0.233318
0.436247 0.743226 0.200992
0.519445 0.761715 0.200667
0.594701 0.778690 0.201057
0.646130 0.791124 0.203596
0.694304 0.802825 0.208393
0.735317 0.812916 0.218158
0.769079 0.820736 0.228680
0.790757 0.824772 0.240463
0.811553 0.829834 0.252901
0.831213 0.836213 0.266182
0.847423 0.841161 0.280471
0.860183 0.844676 0.295770
0.870122 0.848302 0.311068
0.877869 0.852012 0.326367
0.884762 0.854665 0.344635
0.891142 0.856683 0.364686
0.895910 0.860313 0.386438
0.899946 0.864674 0.408962
0.905496 0.866400 0.430999
0.911550 0.867246 0.452872
0.914325 0.869732 0.479295
0.916343 0.872596 0.506767
0.918362 0.873980 0.525923
0.920380 0.875151 0.543890
0.921604 0.877910 0.559050
0.922776 0.880774 0.574023
0.124744 0.731561 0.644783
0.137113 0.715807 0.536847
0.151947 0.701432 0.430897
0.203767 0.707747 0.354730
0.264082 0.716283 0.282599
0.383866 0.740370 0.238722
0.495033 0.763017 0.203401
0.568856 0.779422 0.205159
0.635518 0.794314 0.207893
0.680698 0.804664 0.213556
0.723273 0.814934 0.221153
0.760120 0.825024 0.233001
0.790106 0.832845 0.245606
0.808660 0.836881 0.259472
0.826331 0.841031 0.272627
0.842866 0.845327 0.284865
0.855430 0.847671 0.298113
0.864023 0.848062 0.312370
0.873312 0.851492 0.326627
0.883142 0.857286 0.340884
0.889514 0.860720 0.363319
0.893811 0.862738 0.390661
