其他预设/【236】赛博朋克风调色预设/【后期菌】视频调色预设/CUBE/Abandoned 02_S.cube
# LUT by SparkleStock. Enhanced with VOXCOLOR algorithms.
LUT_3D_SIZE 8
DOMAIN_MIN 0.000000 0.000000 0.000000
DOMAIN_MAX 0.903226 0.903226 0.903226
0.007820 0.035191 0.058651
0.044272 0.090688 0.138114
0.112635 0.128149 0.192224
0.249614 0.174187 0.253902
0.461262 0.248605 0.338536
0.650837 0.326680 0.428216
0.775203 0.396809 0.523192
0.849116 0.465550 0.610601
0.023460 0.087283 0.118311
0.089700 0.139188 0.194181
0.208430 0.184973 0.251567
0.405589 0.247140 0.301706
0.591934 0.305624 0.353416
0.719668 0.355149 0.410899
0.815593 0.440015 0.526134
0.870924 0.553037 0.652758
0.015136 0.129158 0.150601
0.101064 0.176551 0.222935
0.297120 0.258138 0.283234
0.474437 0.328067 0.309400
0.606325 0.373239 0.324027
0.713524 0.425351 0.368210
0.801678 0.506897 0.464895
0.840636 0.611712 0.542413
0.006307 0.193738 0.196134
0.060978 0.218207 0.223476
0.243995 0.299590 0.256006
0.443058 0.404609 0.283755
0.578588 0.455265 0.299171
0.690182 0.510099 0.338418
0.784744 0.579744 0.426791
0.830119 0.668007 0.536086
0.003910 0.283921 0.258317
0.037160 0.291754 0.239653
0.138508 0.350645 0.245968
0.342515 0.457226 0.259704
0.469737 0.521939 0.275353
0.614019 0.585912 0.323852
0.736191 0.660639 0.413975
0.810190 0.735821 0.534060
0.000000 0.401980 0.337149
0.070044 0.386169 0.264668
0.264408 0.471605 0.316195
0.419850 0.563672 0.359930
0.547222 0.625989 0.385689
0.681821 0.691773 0.447864
0.770869 0.743767 0.524096
0.822815 0.784414 0.589102
0.000000 0.532778 0.436540
0.149002 0.497868 0.339700
0.404011 0.589423 0.397244
0.541530 0.654963 0.454959
0.658320 0.708316 0.517114
0.748353 0.760099 0.573393
0.804339 0.798960 0.618214
0.840107 0.825476 0.644815
0.007442 0.635828 0.531265
0.317684 0.616025 0.430108
0.518151 0.682195 0.470876
0.641508 0.732102 0.536672
0.725458 0.770410 0.586510
0.784223 0.804400 0.624728
0.825423 0.835998 0.662820
0.856517 0.862990 0.707466
0.016145 0.075048 0.114906
0.048198 0.098777 0.154291
0.108945 0.123417 0.205370
0.254862 0.165940 0.283466
0.458609 0.217450 0.343390
0.627295 0.277912 0.423980
0.771671 0.367433 0.541103
0.853026 0.453214 0.641113
0.020275 0.100982 0.136930
0.099346 0.146784 0.217986
0.214449 0.180020 0.270645
0.391715 0.221174 0.309008
0.560450 0.257511 0.345225
0.701438 0.307536 0.405146
0.800557 0.377301 0.487947
0.867585 0.507357 0.628339
0.023493 0.156089 0.183460
0.056016 0.174252 0.216217
0.330745 0.256428 0.319442
0.475678 0.303767 0.334191
0.599221 0.334757 0.348106
0.704038 0.370774 0.374616
0.800018 0.441260 0.457550
0.868107 0.552141 0.597966
0.011226 0.218760 0.241163
0.027118 0.251083 0.270513
0.207277 0.311593 0.291845
0.459861 0.403080 0.314786
0.581118 0.437325 0.324450
0.684909 0.470405 0.348391
0.781814 0.529701 0.414273
0.848965 0.630593 0.542202
0.006811 0.316211 0.315019
0.008642 0.355300 0.346874
0.121362 0.379533 0.289123
0.340552 0.461939 0.293110
0.505259 0.525575 0.293542
0.632740 0.571121 0.333320
0.745345 0.632988 0.406501
0.818379 0.705125 0.513608
0.000171 0.440117 0.403583
0.001558 0.467987 0.432043
0.193901 0.486453 0.368634
0.428743 0.579331 0.374364
0.560922 0.634977 0.389973
0.681955 0.687440 0.443813
0.773121 0.733170 0.515433
0.831746 0.769640 0.558000
0.000000 0.555453 0.502450
0.017017 0.567819 0.491533
0.342647 0.585811 0.444270
0.562510 0.670794 0.492793
0.664193 0.717945 0.533088
0.755294 0.767962 0.591042
0.807705 0.800060 0.625406
0.843234 0.819496 0.615948
0.009208 0.645666 0.576408
0.158873 0.631969 0.519225
0.495655 0.685792 0.531234
0.659667 0.741425 0.574167
0.737517 0.779690 0.621003
0.792450 0.808786 0.656013
0.830529 0.841889 0.697473
0.858723 0.866234 0.730279
0.023965 0.096364 0.156529
0.048939 0.111435 0.181185
0.115536 0.127140 0.236309
0.252063 0.154104 0.308432
0.435279 0.193868 0.374231
0.627198 0.262137 0.460001
0.770340 0.339224 0.568417
0.852977 0.440475 0.678765
0.030621 0.134773 0.193270
0.078596 0.152600 0.234445
0.211014 0.173687 0.301495
0.387309 0.208481 0.354668
0.549613 0.241407 0.392886
0.686475 0.281134 0.437113
0.797169 0.354607 0.518191
0.865347 0.466302 0.638281
0.031215 0.172539 0.223500
0.051116 0.208556 0.266768
0.283805 0.243799 0.347787
0.451200 0.291030 0.383903
0.584801 0.323078 0.403985
0.694740 0.357655 0.431694
0.790364 0.410707 0.480125
0.864893 0.520430 0.611726
0.021288 0.247189 0.286289
0.033705 0.283589 0.318666
0.145561 0.323922 0.341381
0.476475 0.385587 0.400396
0.601969 0.424824 0.413668
0.696237 0.452645 0.434029
0.786832 0.495721 0.468406
0.857654 0.584616 0.560312
0.008194 0.337369 0.357179
0.012448 0.381882 0.404919
0.057587 0.422307 0.404944
0.319772 0.464175 0.375070
0.574899 0.542144 0.399764
0.677446 0.569123 0.415319
0.773295 0.603398 0.448498
0.842327 0.650829 0.496265
0.003153 0.455480 0.451749
0.004315 0.489562 0.484649
0.027639 0.524452 0.507473
0.360281 0.572599 0.429897
0.568013 0.640562 0.433978
0.684164 0.682353 0.466333
0.773703 0.710587 0.496746
0.840555 0.728826 0.500838
0.000195 0.566891 0.541205
0.009532 0.593704 0.570903
0.098252 0.617947 0.577575
0.520516 0.668801 0.559173
0.679490 0.734018 0.571977
0.755552 0.770593 0.606337
0.794047 0.790777 0.579571
0.849395 0.806352 0.564930
0.013345 0.655455 0.620615
0.082765 0.674156 0.624307
0.410500 0.682273 0.597202
0.641977 0.742820 0.619780
0.756371 0.792229 0.659671
0.797560 0.819654 0.687129
0.824608 0.847137 0.676609
0.861378 0.866854 0.675122
0.032037 0.128149 0.211774
0.056914 0.129818 0.232887
0.112790 0.137695 0.271056
0.239987 0.155984 0.344171
0.431198 0.194885 0.422678
0.622417 0.256913 0.514095
0.769991 0.340054 0.618592
0.850466 0.424521 0.700659
0.035191 0.166066 0.245325
0.058648 0.195401 0.286836
0.191853 0.194517 0.352422
0.379175 0.206783 0.413345
0.546111 0.239482 0.464309
0.683102 0.280239 0.517475
0.799588 0.361612 0.599348
0.859436 0.472974 0.692181
0.032135 0.208999 0.282729
0.048644 0.248970 0.328229
0.177511 0.274390 0.391426
0.436488 0.285934 0.447530
0.581720 0.319704 0.483117
0.693299 0.354452 0.510185
0.790556 0.415177 0.565542
0.861488 0.516537 0.658757
0.028127 0.287600 0.348374
0.035561 0.317517 0.378544
0.133408 0.360680 0.425348
0.424571 0.378020 0.472102
0.585610 0.416379 0.496575
0.692726 0.448989 0.512780
0.784955 0.481618 0.537523
0.859231 0.550339 0.602427
0.015949 0.374207 0.424501
0.023303 0.410150 0.468045
0.061121 0.448092 0.483935
0.217381 0.477449 0.481439
0.591027 0.534658 0.517360
0.696741 0.563772 0.516206
0.780144 0.581975 0.521776
0.857261 0.616384 0.553197
0.006803 0.480348 0.517138
0.008349 0.518016 0.554191
0.026098 0.552119 0.574293
0.129609 0.583506 0.560998
0.540844 0.639353 0.541359
0.709967 0.688850 0.543487
0.776543 0.693091 0.522563
0.855068 0.708024 0.534831
0.001977 0.577303 0.587348
0.011002 0.606073 0.619380
0.046220 0.629015 0.634395
0.260680 0.667808 0.647396
0.651861 0.726413 0.625262
0.746997 0.774005 0.616501
0.792063 0.787375 0.583981
0.859110 0.798248 0.568728
0.011694 0.658999 0.649124
0.060365 0.690085 0.681792
0.259396 0.704678 0.685913
0.575224 0.742273 0.687579
0.754996 0.795042 0.694994
0.796063 0.831135 0.704213
0.820091 0.853729 0.677066
0.862709 0.870492 0.668747
0.040110 0.166367 0.275975
0.060352 0.172230 0.298675
0.121334 0.175444 0.338911
0.231300 0.165977 0.381478
0.420892 0.207746 0.473000
0.629204 0.279906 0.583788
0.778722 0.354417 0.669090
0.851182 0.421376 0.731329
0.039231 0.205915 0.310352
0.048886 0.237537 0.352422
0.168469 0.233595 0.410659
0.380305 0.221945 0.481592
0.560294 0.257712 0.555591
0.698724 0.307917 0.613384
0.800888 0.380866 0.672454
0.859032 0.495671 0.746303
0.044394 0.261848 0.356565
0.052792 0.293683 0.397876
0.111555 0.327423 0.460667
0.380410 0.295061 0.522580
0.606400 0.332506 0.582927
0.705810 0.373662 0.614521
0.794932 0.444954 0.662520
0.859857 0.540857 0.725623
0.045603 0.334500 0.424147
0.051579 0.375665 0.474361
0.092156 0.404860 0.512434
0.277198 0.422761 0.551966
0.587404 0.421172 0.595212
0.709828 0.469686 0.620775
0.789936 0.508002 0.643905
0.858193 0.554798 0.670500
0.027598 0.416074 0.501701
0.032384 0.455212 0.546179
0.052655 0.490593 0.570623
0.190651 0.520689 0.584980
0.545739 0.540147 0.617716
0.703008 0.573233 0.629793
0.783579 0.589373 0.625061
0.856870 0.612612 0.642876
0.008504 0.512463 0.574361
0.012723 0.546834 0.608443
0.031515 0.573281 0.632288
0.096152 0.603365 0.645662
0.389112 0.641689 0.661266
0.705227 0.689913 0.634448
0.782909 0.697449 0.608729
0.857387 0.709807 0.614367
0.007820 0.597862 0.635059
0.015766 0.616538 0.656536
0.058642 0.647096 0.683233
0.216263 0.671523 0.695223
0.480166 0.709898 0.708370
0.721531 0.767781 0.673443
0.796174 0.789753 0.638750
0.860876 0.796912 0.628615
0.014883 0.671844 0.683623
0.062589 0.692734 0.703069
0.211425 0.716423 0.726266
0.502546 0.742814 0.728214
0.696226 0.787548 0.754561
0.779241 0.832195 0.733962
0.818216 0.858676 0.710614
0.864927 0.872418 0.706151
0.044272 0.210765 0.356573
0.056137 0.230739 0.387483
0.124996 0.226080 0.414593
0.259501 0.192130 0.444771
0.423768 0.217922 0.521593
0.631738 0.288519 0.623678
0.778828 0.357045 0.701872
0.848355 0.414215 0.757479
0.044524 0.251721 0.385465
0.061368 0.292939 0.438882
0.148662 0.301817 0.487969
0.348152 0.247043 0.529036
0.584217 0.282842 0.622135
0.714412 0.337173 0.677359
0.804838 0.417001 0.732173
0.854075 0.505765 0.772936
0.055660 0.315906 0.443949
0.065748 0.346444 0.479254
0.097237 0.381490 0.537599
0.363576 0.355171 0.608545
0.629478 0.351792 0.658585
0.741078 0.412941 0.703573
0.805928 0.499830 0.743521
0.850553 0.559755 0.772025
0.054489 0.390132 0.515775
0.061026 0.424336 0.553062
0.081843 0.457692 0.589091
0.194585 0.489639 0.638172
0.575301 0.456180 0.679597
0.742292 0.514736 0.716054
0.800302 0.555107 0.738963
0.851960 0.578980 0.749810
0.035012 0.473444 0.579846
0.044480 0.507180 0.614508
0.059400 0.548078 0.645700
0.128288 0.575053 0.674069
0.428995 0.604990 0.708161
0.715443 0.606960 0.728312
0.791856 0.620436 0.733779
0.854878 0.629600 0.737540
0.017435 0.560751 0.638505
0.025714 0.580817 0.662548
0.051661 0.609644 0.689994
0.126201 0.636728 0.709772
0.408732 0.675625 0.738678
0.650589 0.688203 0.742271
0.783457 0.697417 0.731789
0.857959 0.707474 0.733354
0.010217 0.622189 0.687383
0.029112 0.639024 0.699345
0.085700 0.661857 0.716781
0.245600 0.691049 0.738940
0.473607 0.721121 0.760214
0.658899 0.751988 0.750216
0.793139 0.790433 0.722660
0.863973 0.802313 0.721092
0.016836 0.676063 0.712568
0.077615 0.699207 0.731057
0.219213 0.716339 0.747925
0.464617 0.747557 0.775180
0.637027 0.777450 0.794855
0.763843 0.826826 0.796161
0.815152 0.856850 0.781055
0.865730 0.876371 0.780930
0.052344 0.263236 0.450667
0.072749 0.291473 0.491041
0.153848 0.283828 0.522297
0.302764 0.224851 0.529796
0.444259 0.225661 0.574540
0.638021 0.291127 0.663389
0.779113 0.358005 0.731948
0.848664 0.411619 0.779922
0.054110 0.304298 0.471352
0.073821 0.339948 0.528789
0.113021 0.378774 0.587149
0.342567 0.334912 0.627208
0.607331 0.305777 0.665473
0.722748 0.358274 0.715136
0.802873 0.424246 0.760434
0.849865 0.504787 0.799619
0.065588 0.370952 0.539280
0.078417 0.397358 0.572236
0.108129 0.446368 0.618813
0.352422 0.463110 0.681608
0.591133 0.376413 0.691768
0.756539 0.441163 0.750017
0.813817 0.519854 0.781741
0.846861 0.582430 0.806988
0.062854 0.445784 0.591507
0.078433 0.484480 0.629393
0.095426 0.524091 0.660190
0.177900 0.566401 0.696505
0.574628 0.544859 0.744847
0.757687 0.546263 0.772458
0.805363 0.587232 0.792587
0.849720 0.615273 0.810279
0.050831 0.532009 0.652868
0.061122 0.565475 0.681210
0.084594 0.597857 0.708627
0.140006 0.625104 0.734014
0.364229 0.660400 0.763048
0.705363 0.647326 0.785647
0.800385 0.650794 0.802610
0.849218 0.655422 0.814302
0.027985 0.600698 0.698702
0.044624 0.624066 0.724400
0.084783 0.644580 0.738788
0.202117 0.670889 0.758182
0.412652 0.700557 0.782091
0.610357 0.715766 0.801663
0.786953 0.713066 0.808662
0.855213 0.726710 0.824841
0.017740 0.648522 0.732444
0.048073 0.662657 0.736761
0.141048 0.685070 0.759090
0.331763 0.712393 0.777249
0.524748 0.738782 0.803040
0.662799 0.763344 0.816201
0.781484 0.792374 0.820345
0.862082 0.815117 0.830297
0.038197 0.695720 0.750786
0.101348 0.704398 0.760491
0.281667 0.729835 0.780762
0.504574 0.757121 0.804184
0.644455 0.784199 0.829716
0.738148 0.812454 0.848138
0.814519 0.856154 0.857480
0.861287 0.879381 0.865454
0.070003 0.315580 0.549428
0.088154 0.345095 0.587117
0.141869 0.351707 0.613197
0.330960 0.270759 0.617075
0.507902 0.257784 0.648461
0.653791 0.299370 0.702042
0.776000 0.360072 0.758720
0.850291 0.413161 0.805136
0.075931 0.366008 0.580053
0.090312 0.394796 0.619700
0.127775 0.431206 0.656573
0.361890 0.401464 0.703275
0.610120 0.314186 0.705322
0.732497 0.368425 0.746355
0.800559 0.426917 0.784133
0.846947 0.497122 0.818843
0.080195 0.427740 0.620566
0.094360 0.462975 0.657486
0.132536 0.506072 0.688183
0.251413 0.552988 0.726508
0.578596 0.475669 0.762790
0.759483 0.448198 0.779081
0.812257 0.515825 0.808592
0.847270 0.588226 0.831616
0.081733 0.505986 0.664695
0.095653 0.543671 0.693345
0.124669 0.583263 0.723485
0.223623 0.624478 0.754976
0.570687 0.646335 0.807712
0.737752 0.579726 0.802023
0.815892 0.617852 0.819979
0.846793 0.665115 0.846041
0.067529 0.588528 0.716572
0.080781 0.614645 0.739548
0.121075 0.644671 0.765065
0.224534 0.674163 0.791156
0.414879 0.701034 0.812228
0.710576 0.704440 0.837799
0.800223 0.683274 0.840623
0.841845 0.702558 0.867423
0.046042 0.642008 0.753313
0.073754 0.658747 0.767387
0.138926 0.682158 0.786363
0.287148 0.703801 0.800039
0.488290 0.732940 0.824060
0.635627 0.755027 0.846004
0.785883 0.754538 0.868358
0.847260 0.760920 0.882849
0.043914 0.679974 0.774067
0.094194 0.693977 0.782732
0.220446 0.713163 0.796784
0.435962 0.738090 0.816205
0.587604 0.761997 0.837451
0.686128 0.786787 0.859635
0.774023 0.806789 0.876543
0.853732 0.830366 0.905993
0.068074 0.715168 0.788491
0.168805 0.730920 0.800795
0.380491 0.752262 0.814869
0.552011 0.771898 0.833210
0.670643 0.798366 0.858917
0.748658 0.821115 0.879651
0.811578 0.853361 0.905082
0.854773 0.884536 0.925101
