其他预设/【236】赛博朋克风调色预设/【后期菌】视频调色预设/CUBE/Abandoned 01.cube
# LUT by SparkleStock. Enhanced with VOXCOLOR algorithms.
LUT_3D_SIZE 5
DOMAIN_MIN 0.000000 0.000000 0.000000
DOMAIN_MAX 0.903226 0.903226 0.903226
0.097752 0.039101 0.078201
0.115158 0.064327 0.112131
0.336266 0.136096 0.181251
0.712642 0.255037 0.308517
0.820358 0.392647 0.470470
0.104058 0.065841 0.104941
0.244833 0.165972 0.201684
0.639555 0.317057 0.308932
0.799151 0.451643 0.454064
0.852448 0.593187 0.537042
0.122095 0.191846 0.192602
0.191195 0.292698 0.224802
0.541746 0.474770 0.244182
0.762854 0.595653 0.311955
0.853489 0.687838 0.420021
0.171538 0.491281 0.381547
0.306540 0.585558 0.297063
0.661168 0.691089 0.279853
0.822750 0.747706 0.348777
0.873870 0.785733 0.448897
0.341437 0.727525 0.596349
0.633887 0.766858 0.320951
0.818718 0.798663 0.382198
0.876803 0.819475 0.489487
0.906757 0.841084 0.620134
0.097752 0.050831 0.096238
0.122437 0.069165 0.135005
0.316463 0.147431 0.239670
0.696623 0.251758 0.367909
0.822502 0.399783 0.540851
0.112761 0.087743 0.138915
0.241993 0.162945 0.251770
0.649096 0.308551 0.401069
0.795321 0.442771 0.542381
0.851516 0.591722 0.649771
0.144384 0.249720 0.272334
0.178720 0.343201 0.353104
0.696121 0.522867 0.454016
0.806700 0.641069 0.552063
0.856532 0.714753 0.603695
0.219452 0.551958 0.492164
0.284244 0.624108 0.549481
0.699487 0.706459 0.356963
0.827269 0.756466 0.446841
0.874097 0.790575 0.562208
0.390755 0.744048 0.672438
0.525924 0.770483 0.583460
0.833178 0.803419 0.485060
0.884599 0.828272 0.604039
0.904256 0.843152 0.701220
0.111248 0.069120 0.145177
0.130709 0.084471 0.178044
0.310840 0.155845 0.301022
0.695821 0.262715 0.438619
0.821554 0.398046 0.588463
0.134419 0.143594 0.230751
0.183901 0.227632 0.348653
0.635930 0.316671 0.477033
0.786436 0.444001 0.592549
0.851536 0.602329 0.691736
0.176563 0.356764 0.414553
0.228302 0.454694 0.522643
0.592253 0.509737 0.588510
0.815556 0.640522 0.674355
0.861977 0.727662 0.731723
0.283889 0.620533 0.624476
0.342046 0.672591 0.672536
0.461205 0.715072 0.691924
0.847048 0.765959 0.611165
0.871619 0.792203 0.646282
0.442656 0.766141 0.734946
0.536017 0.791066 0.752336
0.798638 0.822233 0.714578
0.886771 0.832168 0.683700
0.902496 0.843686 0.754425
0.145429 0.139627 0.294264
0.177064 0.167494 0.358795
0.349701 0.193518 0.403510
0.688555 0.289272 0.522212
0.822974 0.421750 0.641064
0.183016 0.278868 0.428207
0.231142 0.366139 0.543079
0.566785 0.340178 0.565402
0.786843 0.466066 0.648963
0.852488 0.612640 0.726142
0.249410 0.499358 0.609027
0.315634 0.589046 0.684797
0.451405 0.662847 0.732976
0.824328 0.664143 0.723680
0.865967 0.737325 0.760078
0.366436 0.694149 0.734613
0.430223 0.733433 0.768607
0.556489 0.771322 0.784857
0.808402 0.783027 0.774250
0.884501 0.812991 0.797638
0.495761 0.785358 0.783308
0.573910 0.799497 0.788446
0.762840 0.828536 0.809492
0.875518 0.845962 0.800551
0.906283 0.855586 0.800377
0.200423 0.271813 0.520922
0.243002 0.318469 0.592227
0.438432 0.280117 0.562147
0.691203 0.332673 0.600893
0.818592 0.455623 0.687244
0.254187 0.429941 0.642000
0.322753 0.534194 0.711127
0.548421 0.571084 0.739561
0.788327 0.497899 0.696915
0.851973 0.625703 0.754343
0.351296 0.642997 0.752458
0.421942 0.699911 0.789484
0.546401 0.745493 0.812502
0.813044 0.708823 0.778117
0.872364 0.753118 0.792417
0.472740 0.759343 0.812729
0.538563 0.782593 0.819512
0.657493 0.801247 0.829737
0.819969 0.826011 0.837195
0.890369 0.823220 0.832037
0.580501 0.811740 0.824439
0.658155 0.823105 0.828039
0.803528 0.842803 0.838732
0.874488 0.857126 0.849449
0.912663 0.872480 0.855170
