其他预设/【236】赛博朋克风调色预设/【后期菌】视频调色预设/CUBE/Abandoned 09.cube
# LUT by SparkleStock. Enhanced with VOXCOLOR algorithms.
LUT_3D_SIZE 5
DOMAIN_MIN 0.000000 0.000000 0.000000
DOMAIN_MAX 0.903226 0.903226 0.903226
0.015640 0.003910 0.003910
0.040867 0.034560 0.048687
0.386971 0.117428 0.111752
0.820736 0.247217 0.307382
0.882919 0.421404 0.544761
0.021064 0.029767 0.033677
0.214256 0.114889 0.114869
0.750786 0.278156 0.243938
0.866774 0.459337 0.473875
0.902449 0.656904 0.578698
0.009964 0.123609 0.093085
0.096271 0.218496 0.109392
0.585806 0.461002 0.112700
0.824675 0.666742 0.202331
0.899023 0.778738 0.352561
0.000000 0.449027 0.279255
0.239397 0.544061 0.155805
0.671148 0.728172 0.138948
0.855825 0.817884 0.230010
0.903698 0.851951 0.352000
0.041497 0.715795 0.557878
0.566606 0.782172 0.178854
0.818909 0.844217 0.247006
0.894303 0.870306 0.367518
0.922019 0.888802 0.550254
0.021064 0.019550 0.031281
0.045660 0.037001 0.077282
0.370879 0.112635 0.187289
0.819609 0.247461 0.394421
0.890055 0.437960 0.635177
0.022533 0.051083 0.069120
0.219935 0.110680 0.191264
0.771903 0.283091 0.401105
0.864121 0.463896 0.610049
0.901773 0.653632 0.733335
0.010847 0.180799 0.184709
0.029445 0.269583 0.286582
0.762457 0.501204 0.414085
0.858703 0.689558 0.563287
0.898949 0.786660 0.620173
0.002641 0.525564 0.447969
0.047684 0.610044 0.535536
0.705796 0.743611 0.229567
0.861878 0.818287 0.356090
0.902083 0.854584 0.497672
0.094672 0.754517 0.717626
0.369455 0.768946 0.509220
0.831257 0.846385 0.359449
0.898014 0.875644 0.520348
0.919428 0.894337 0.699513
0.024343 0.033929 0.094851
0.058814 0.049228 0.152440
0.374842 0.113717 0.282176
0.820187 0.260620 0.507869
0.897192 0.451757 0.691093
0.022146 0.095681 0.185108
0.081347 0.163716 0.329255
0.771724 0.294257 0.515275
0.867345 0.469621 0.673620
0.906791 0.666580 0.772111
0.020234 0.283177 0.384680
0.049118 0.403722 0.544265
0.651821 0.468021 0.618198
0.876068 0.694192 0.740791
0.901300 0.795519 0.801952
0.032778 0.618564 0.676820
0.086630 0.687979 0.744238
0.311103 0.737823 0.746721
0.868818 0.821906 0.585391
0.897858 0.860084 0.649778
0.157326 0.788426 0.813127
0.353772 0.816915 0.807158
0.764191 0.853611 0.699750
0.897210 0.879520 0.667750
0.920910 0.900352 0.792929
0.037839 0.097247 0.307382
0.100881 0.124483 0.377486
0.458621 0.149278 0.426641
0.828129 0.293939 0.602102
0.898592 0.499447 0.742535
0.042246 0.215953 0.445740
0.108367 0.325454 0.599265
0.717715 0.305409 0.602185
0.873031 0.507342 0.724408
0.909708 0.679091 0.799510
0.061804 0.474965 0.688774
0.144187 0.598220 0.768316
0.391913 0.682075 0.793326
0.889401 0.716692 0.793504
0.905123 0.805480 0.829953
0.112912 0.727875 0.825399
0.232132 0.768632 0.838759
0.482670 0.809420 0.837641
0.830753 0.833057 0.827490
0.919516 0.875105 0.856352
0.237509 0.816985 0.859776
0.433592 0.831636 0.842761
0.722084 0.867619 0.849782
0.886875 0.894519 0.836520
0.926991 0.910175 0.847919
0.087031 0.234100 0.595213
0.178024 0.294850 0.655240
0.624879 0.240260 0.600470
0.837670 0.346926 0.677833
0.901879 0.540297 0.774063
0.106341 0.412514 0.715681
0.223781 0.543995 0.777094
0.637780 0.575663 0.780042
0.879052 0.552424 0.765860
0.910216 0.695879 0.823039
0.182492 0.677032 0.828788
0.320182 0.747744 0.849665
0.542000 0.793761 0.855048
0.876937 0.753163 0.831425
0.917976 0.817976 0.856697
0.275947 0.799391 0.870936
0.430827 0.824806 0.868862
0.660079 0.849678 0.869647
0.831881 0.876651 0.881139
0.923279 0.882281 0.879302
0.381303 0.842052 0.876445
0.604577 0.862722 0.871913
0.790947 0.882493 0.876228
0.892712 0.903670 0.884451
0.931853 0.919745 0.894140
