其他预设/【236】赛博朋克风调色预设/【后期菌】视频调色预设/CUBE/Abandoned 03_S.cube
# LUT by SparkleStock. Enhanced with VOXCOLOR algorithms.
LUT_3D_SIZE 8
DOMAIN_MIN 0.000000 0.000000 0.000000
DOMAIN_MAX 0.903226 0.903226 0.903226
0.011730 0.011730 0.011730
0.015893 0.015640 0.019803
0.040236 0.020055 0.028884
0.186674 0.023460 0.049191
0.575032 0.033299 0.067606
0.791852 0.091824 0.158042
0.861476 0.239902 0.331977
0.908145 0.432252 0.537193
0.015893 0.015893 0.015893
0.037371 0.023745 0.028412
0.145340 0.029519 0.052816
0.477220 0.052609 0.073954
0.708723 0.122042 0.142903
0.805482 0.249927 0.284109
0.884444 0.423886 0.459089
0.938278 0.642211 0.670038
0.019550 0.016145 0.019550
0.055152 0.032387 0.036989
0.315047 0.078405 0.079341
0.606610 0.165146 0.109018
0.721349 0.277997 0.187818
0.810446 0.401114 0.298064
0.891540 0.557256 0.439759
0.963517 0.717105 0.520625
0.028884 0.042128 0.024974
0.052975 0.058391 0.036151
0.269730 0.156822 0.067256
0.603347 0.301877 0.079255
0.733913 0.427320 0.136014
0.826294 0.552882 0.228818
0.917312 0.673423 0.355906
0.976760 0.804555 0.476243
0.060795 0.143537 0.050074
0.102378 0.200382 0.033116
0.252677 0.372718 0.038608
0.545078 0.521239 0.050957
0.723489 0.610223 0.080236
0.848538 0.693250 0.145881
0.940902 0.787401 0.260612
0.982737 0.879757 0.406948
0.123609 0.453820 0.159178
0.252043 0.560369 0.052019
0.547837 0.692729 0.096096
0.772529 0.753215 0.140730
0.873272 0.806768 0.201684
0.939324 0.850165 0.296954
0.976305 0.894983 0.410260
0.985785 0.929522 0.541542
0.181755 0.780374 0.426576
0.444067 0.800583 0.165374
0.805897 0.841869 0.204080
0.915253 0.876152 0.269538
0.970027 0.906090 0.358868
0.986314 0.931841 0.474286
0.994183 0.947840 0.582267
0.994090 0.959533 0.661811
0.335635 0.896036 0.685776
0.676511 0.894751 0.300811
0.903226 0.914830 0.323958
0.957068 0.937029 0.411456
0.979458 0.952087 0.506417
0.986725 0.960111 0.599111
0.987966 0.967752 0.684270
0.989089 0.973229 0.754806
0.011982 0.011982 0.011982
0.019803 0.019314 0.020055
0.041684 0.020022 0.033583
0.190991 0.023208 0.063192
0.547349 0.022512 0.095542
0.754094 0.075976 0.193359
0.847378 0.228045 0.378687
0.896162 0.440222 0.597911
0.016129 0.012707 0.016129
0.041373 0.023778 0.036564
0.159904 0.037776 0.070874
0.435626 0.057474 0.110592
0.644592 0.116029 0.187570
0.763439 0.228294 0.314377
0.850992 0.363256 0.442128
0.917790 0.582879 0.650900
0.020592 0.020592 0.020844
0.034562 0.030453 0.037656
0.362387 0.087388 0.128809
0.557517 0.172376 0.199651
0.651774 0.267240 0.274140
0.744081 0.348400 0.338852
0.849917 0.480457 0.453411
0.931011 0.654490 0.638279
0.036802 0.048910 0.039984
0.051665 0.078110 0.068843
0.224511 0.173827 0.134834
0.579045 0.334838 0.196306
0.664255 0.425229 0.257951
0.758005 0.499144 0.314821
0.860568 0.595085 0.403603
0.953143 0.739286 0.580454
0.075426 0.186996 0.101483
0.095037 0.270099 0.165563
0.216986 0.380732 0.109231
0.497844 0.511620 0.123936
0.687825 0.594628 0.147013
0.804186 0.664586 0.217806
0.906151 0.743510 0.315300
0.967101 0.834688 0.438156
0.123104 0.524958 0.290578
0.153304 0.616622 0.386325
0.440027 0.719110 0.188561
0.740969 0.747279 0.184864
0.819442 0.787306 0.248736
0.891607 0.825812 0.343891
0.947934 0.872704 0.448607
0.974433 0.894242 0.550993
0.195613 0.796897 0.581282
0.292128 0.825210 0.566084
0.703917 0.853842 0.304084
0.914732 0.889100 0.334653
0.947176 0.905706 0.416093
0.970406 0.932385 0.536986
0.978595 0.941080 0.630423
0.977955 0.936792 0.650546
0.363563 0.890108 0.757418
0.563681 0.906260 0.612006
0.873140 0.919229 0.436173
0.957019 0.939729 0.481973
0.977662 0.953655 0.585297
0.980402 0.958203 0.661375
0.984098 0.967368 0.738592
0.989401 0.967752 0.783015
0.016145 0.016145 0.016145
0.020307 0.019550 0.024689
0.051527 0.019550 0.045159
0.207763 0.019550 0.091050
0.520670 0.021064 0.142919
0.733111 0.074885 0.258874
0.829130 0.224217 0.439718
0.887813 0.455863 0.661888
0.019583 0.019550 0.023778
0.032938 0.020655 0.038362
0.162877 0.041432 0.100478
0.425040 0.060561 0.176510
0.617400 0.115975 0.259932
0.730782 0.214217 0.359944
0.829732 0.349310 0.489066
0.910037 0.547730 0.655108
0.025853 0.022887 0.035187
0.043324 0.040423 0.069372
0.299084 0.091005 0.170594
0.512402 0.171954 0.269216
0.626659 0.265249 0.342706
0.725626 0.342798 0.394596
0.825516 0.431476 0.475289
0.920354 0.617450 0.645837
0.042128 0.060921 0.073449
0.059104 0.105756 0.123167
0.154925 0.190752 0.227362
0.536921 0.327998 0.338018
0.641348 0.413365 0.388519
0.734882 0.475911 0.419939
0.833589 0.546546 0.479634
0.925474 0.669623 0.604685
0.075671 0.218541 0.186255
0.093517 0.329020 0.296953
0.145848 0.426448 0.364379
0.415750 0.485295 0.298501
0.684514 0.597214 0.350588
0.771402 0.637900 0.386459
0.854701 0.673928 0.447257
0.940402 0.740819 0.510364
0.109555 0.559412 0.424037
0.147991 0.650010 0.536157
0.232853 0.717319 0.609475
0.607752 0.752609 0.343824
0.793749 0.778649 0.331226
0.856631 0.805022 0.402507
0.909231 0.819377 0.474616
0.952324 0.823217 0.513435
0.206465 0.795668 0.688123
0.296868 0.824996 0.731542
0.474886 0.852210 0.715550
0.865178 0.891499 0.494637
0.933014 0.903964 0.497198
0.950004 0.918870 0.588455
0.932827 0.904421 0.597742
0.959083 0.896542 0.595336
0.408820 0.890312 0.810743
0.557682 0.895162 0.802172
0.770622 0.913379 0.679411
0.932567 0.937729 0.609942
0.974706 0.953522 0.661076
0.975047 0.955660 0.721633
0.960997 0.953752 0.720569
0.974062 0.953543 0.716712
0.019550 0.016397 0.024974
0.021975 0.019550 0.032591
0.056828 0.019550 0.057557
0.207107 0.018794 0.117807
0.518273 0.018667 0.190344
0.721202 0.074495 0.321207
0.818677 0.242005 0.522354
0.878179 0.453438 0.697721
0.024469 0.019803 0.044874
0.037989 0.025272 0.070123
0.152810 0.040346 0.147872
0.432264 0.054756 0.233743
0.611315 0.112717 0.338752
0.727390 0.217199 0.443858
0.831058 0.372385 0.587690
0.903384 0.574309 0.721010
0.033046 0.031000 0.066793
0.053439 0.054577 0.138210
0.158838 0.101607 0.252049
0.491504 0.164783 0.341676
0.624276 0.270949 0.430620
0.720556 0.350282 0.490576
0.827871 0.449736 0.571097
0.914670 0.616872 0.692745
0.052808 0.089866 0.166322
0.063268 0.145479 0.256020
0.155333 0.240722 0.384653
0.488195 0.304430 0.424889
0.631668 0.405712 0.478036
0.731420 0.475765 0.511382
0.826473 0.531937 0.548826
0.916555 0.625732 0.631513
0.072595 0.288519 0.342849
0.092357 0.378689 0.463748
0.149753 0.488283 0.535741
0.317646 0.524085 0.532872
0.673732 0.587188 0.535235
0.751934 0.617006 0.533956
0.831187 0.633753 0.544253
0.921473 0.672714 0.582479
0.113376 0.607749 0.598668
0.172146 0.696359 0.703690
0.264221 0.752314 0.743198
0.398868 0.753220 0.685375
0.751490 0.772063 0.551694
0.836700 0.789812 0.550731
0.867996 0.767259 0.535536
0.936142 0.771935 0.555177
0.225433 0.806015 0.768180
0.333720 0.837286 0.810192
0.477402 0.852141 0.818581
0.674970 0.871315 0.796065
0.889329 0.896337 0.649519
0.912553 0.900980 0.636906
0.905558 0.880580 0.611065
0.944725 0.868664 0.593718
0.442826 0.890360 0.850666
0.594875 0.901606 0.860364
0.719659 0.908417 0.845675
0.870310 0.925988 0.794340
0.964833 0.948992 0.732155
0.959333 0.952054 0.749897
0.938274 0.945195 0.714444
0.961299 0.941024 0.701944
0.025479 0.019550 0.050074
0.037966 0.019550 0.064449
0.080976 0.019550 0.086514
0.220477 0.015445 0.134525
0.524918 0.019937 0.235361
0.724087 0.096983 0.404153
0.818315 0.277831 0.613340
0.878097 0.497734 0.743865
0.032542 0.023843 0.085842
0.044564 0.033291 0.147500
0.152528 0.035053 0.211870
0.451297 0.053095 0.305152
0.632462 0.119593 0.427568
0.746674 0.250937 0.567482
0.838764 0.412457 0.674892
0.910808 0.633902 0.789130
0.043385 0.049830 0.169647
0.052206 0.073204 0.276237
0.114435 0.140836 0.417827
0.428194 0.156956 0.436925
0.658228 0.289032 0.551733
0.747177 0.379812 0.611857
0.848140 0.519666 0.692494
0.916228 0.662014 0.769291
0.050579 0.150682 0.337897
0.067805 0.236907 0.460684
0.125056 0.336483 0.573723
0.342730 0.387757 0.609170
0.655396 0.421605 0.597177
0.760075 0.524232 0.639355
0.842734 0.579831 0.666424
0.918949 0.630561 0.700843
0.070894 0.380387 0.545815
0.107388 0.502262 0.661075
0.191071 0.606975 0.713678
0.363883 0.622132 0.703165
0.678981 0.618879 0.670535
0.779001 0.651572 0.663654
0.839404 0.651475 0.651493
0.917642 0.672541 0.667932
0.140608 0.678497 0.742885
0.220817 0.745816 0.793041
0.326932 0.784367 0.823573
0.461687 0.793486 0.812074
0.676797 0.794432 0.775528
0.831736 0.793637 0.692165
0.864451 0.769043 0.644498
0.932870 0.769658 0.646278
0.276984 0.829061 0.834549
0.392671 0.846161 0.856732
0.546216 0.864627 0.870650
0.679914 0.876055 0.861061
0.800618 0.886647 0.836020
0.877214 0.884956 0.732908
0.891001 0.868112 0.671007
0.941925 0.857471 0.655079
0.488897 0.891186 0.875225
0.604862 0.897101 0.876497
0.720672 0.903967 0.877806
0.831172 0.915458 0.858124
0.911206 0.932767 0.846487
0.933821 0.943205 0.791259
0.923917 0.939678 0.746555
0.953515 0.935979 0.734839
0.036452 0.020812 0.121843
0.047893 0.021992 0.169313
0.105230 0.019046 0.196545
0.285793 0.015640 0.219171
0.551633 0.025247 0.308464
0.720169 0.117192 0.480812
0.813388 0.310454 0.663780
0.875790 0.510461 0.767191
0.036704 0.033461 0.203865
0.052352 0.049636 0.332213
0.151721 0.051894 0.382147
0.426462 0.045259 0.375097
0.677961 0.139456 0.514815
0.775476 0.294403 0.649383
0.854910 0.488554 0.748822
0.905724 0.666411 0.820109
0.041570 0.085883 0.361248
0.053501 0.143107 0.480251
0.108630 0.242375 0.612611
0.458029 0.231554 0.608955
0.712728 0.312137 0.647760
0.800873 0.467203 0.725265
0.878714 0.630341 0.790815
0.918411 0.705197 0.819715
0.048292 0.258174 0.569397
0.083928 0.361380 0.660130
0.157567 0.479427 0.736686
0.340031 0.561509 0.773739
0.707940 0.512226 0.733400
0.824182 0.620751 0.762130
0.874526 0.668761 0.779198
0.922385 0.676564 0.786335
0.101271 0.543984 0.738458
0.174518 0.638990 0.787774
0.292281 0.723982 0.840031
0.437647 0.754552 0.848307
0.675100 0.743318 0.819126
0.827972 0.722584 0.786761
0.866973 0.709774 0.768999
0.921467 0.701080 0.762232
0.215461 0.761816 0.834244
0.312275 0.791945 0.858289
0.441226 0.824819 0.881290
0.584720 0.842209 0.883058
0.740848 0.845354 0.865771
0.814784 0.809380 0.813299
0.863154 0.775590 0.769614
0.922255 0.765307 0.752862
0.363022 0.851211 0.882557
0.476767 0.862381 0.890569
0.608831 0.870051 0.890580
0.717619 0.883351 0.890912
0.805898 0.889161 0.884046
0.838824 0.875461 0.830834
0.889168 0.869188 0.768909
0.941088 0.859063 0.754207
0.533885 0.891431 0.901582
0.654686 0.898689 0.900170
0.738989 0.901134 0.896267
0.823264 0.911156 0.899751
0.884760 0.923571 0.898669
0.912880 0.935606 0.864863
0.920478 0.937972 0.821538
0.953158 0.936656 0.809127
0.041497 0.023460 0.286570
0.056043 0.031854 0.370093
0.158791 0.025019 0.364564
0.372844 0.018204 0.347284
0.559278 0.037030 0.390637
0.723631 0.150666 0.558656
0.814600 0.349221 0.710676
0.878663 0.549228 0.795436
0.038946 0.056519 0.407672
0.062933 0.117837 0.544177
0.140532 0.186835 0.633151
0.433092 0.151795 0.584286
0.712046 0.194152 0.599054
0.792805 0.345230 0.701132
0.857019 0.534609 0.784611
0.905326 0.684532 0.835413
0.046933 0.191113 0.600120
0.082423 0.282196 0.676107
0.179781 0.419606 0.764138
0.505902 0.454287 0.772796
0.732601 0.377283 0.722535
0.842675 0.553316 0.783649
0.893685 0.690669 0.830939
0.920980 0.754257 0.856286
0.082563 0.415464 0.740683
0.161975 0.544755 0.795122
0.271617 0.651287 0.840078
0.438081 0.727333 0.867319
0.772834 0.672004 0.830052
0.868054 0.699298 0.825703
0.892892 0.736551 0.841830
0.925004 0.735052 0.848878
0.186837 0.683342 0.833866
0.292320 0.749348 0.865848
0.414836 0.791366 0.888792
0.560223 0.821987 0.899351
0.716638 0.838081 0.894829
0.854608 0.786876 0.860199
0.889571 0.764148 0.844198
0.924887 0.748732 0.842928
0.317041 0.812204 0.884872
0.434062 0.835562 0.900272
0.562489 0.850391 0.908342
0.678677 0.865454 0.905093
0.772171 0.872645 0.901456
0.830073 0.850123 0.882260
0.884387 0.813565 0.853060
0.928817 0.798244 0.845010
0.466657 0.868755 0.912604
0.576665 0.876195 0.911778
0.687991 0.885366 0.910717
0.770815 0.890816 0.907889
0.836384 0.898776 0.908352
0.869046 0.894642 0.894341
0.895487 0.884640 0.865690
0.944495 0.879659 0.856289
0.613848 0.902217 0.918435
0.690957 0.900504 0.912285
0.774316 0.905411 0.911643
0.838427 0.913223 0.913023
0.886115 0.926587 0.918714
0.918589 0.932371 0.914362
0.930205 0.940044 0.894770
0.959143 0.942316 0.884915
0.048687 0.055372 0.484596
0.080333 0.097662 0.566089
0.181596 0.108143 0.579675
0.428692 0.068961 0.504676
0.628882 0.106552 0.544647
0.735528 0.206343 0.630078
0.818864 0.390869 0.740683
0.886658 0.589578 0.816069
0.058110 0.157025 0.620252
0.114572 0.262455 0.701885
0.216287 0.361077 0.766882
0.505485 0.326606 0.730261
0.720232 0.262035 0.672707
0.806268 0.410179 0.748528
0.862436 0.575065 0.805842
0.901641 0.696935 0.844776
0.090013 0.354189 0.749248
0.179020 0.481128 0.806454
0.307649 0.609306 0.847303
0.494630 0.684132 0.868918
0.767674 0.601159 0.823531
0.847436 0.597332 0.809825
0.889655 0.695623 0.843274
0.922050 0.775325 0.871473
0.176999 0.603868 0.835766
0.287079 0.696412 0.867438
0.423155 0.759680 0.891856
0.589639 0.804028 0.902600
0.806720 0.804210 0.889937
0.868078 0.753703 0.859201
0.909752 0.790475 0.871050
0.933900 0.821964 0.887753
0.314990 0.779231 0.894039
0.420255 0.807639 0.905902
0.567127 0.838194 0.916889
0.685531 0.858225 0.917995
0.770217 0.867689 0.915897
0.886498 0.858009 0.901171
0.911940 0.828482 0.889023
0.934889 0.827641 0.897383
0.449214 0.849364 0.918988
0.568755 0.862591 0.923342
0.672161 0.874402 0.922850
0.749824 0.881256 0.920396
0.816288 0.887329 0.919966
0.871831 0.894696 0.919461
0.911503 0.871698 0.908847
0.939803 0.857081 0.904936
0.594802 0.888037 0.929282
0.679248 0.889576 0.927493
0.751290 0.895114 0.924372
0.818077 0.901674 0.922658
0.862403 0.907680 0.922940
0.899858 0.916722 0.926982
0.921947 0.915396 0.919477
0.954487 0.910630 0.921270
0.678602 0.906550 0.929420
0.747384 0.908224 0.926686
0.807897 0.913036 0.923926
0.851613 0.917670 0.924257
0.892271 0.927826 0.929930
0.923620 0.937590 0.931339
0.946783 0.945041 0.931186
0.966322 0.952409 0.932120
