其他预设/【236】赛博朋克风调色预设/【后期菌】视频调色预设/CUBE/Abandoned 03.cube
# LUT by SparkleStock. Enhanced with VOXCOLOR algorithms.
LUT_3D_SIZE 32
0.011730 0.011730 0.011730
0.013748 0.013748 0.013748
0.015640 0.015640 0.015766
0.015640 0.015640 0.017785
0.015893 0.015640 0.019803
0.017911 0.015640 0.021821
0.021064 0.016019 0.023839
0.029136 0.018037 0.025857
0.040236 0.020055 0.028884
0.060417 0.022073 0.034938
0.086904 0.023460 0.040362
0.127266 0.023460 0.044398
0.183521 0.023460 0.049191
0.266263 0.023460 0.055245
0.364015 0.025226 0.060417
0.481065 0.029262 0.064453
0.580960 0.033299 0.071516
0.663703 0.037335 0.081607
0.723741 0.049317 0.099644
0.766121 0.067480 0.123861
0.798411 0.095734 0.160691
0.824646 0.130041 0.205089
0.841169 0.167124 0.248100
0.853278 0.205468 0.290480
0.863873 0.242298 0.334374
0.873963 0.278624 0.378772
0.885694 0.324788 0.433009
0.897802 0.373222 0.489515
0.908145 0.432252 0.537193
0.918235 0.492795 0.583609
0.924542 0.536310 0.622458
0.930596 0.578690 0.660802
0.013748 0.013748 0.013748
0.015766 0.014725 0.015766
0.017658 0.015705 0.017785
0.017658 0.016747 0.019803
0.018301 0.017789 0.021951
0.023444 0.018830 0.025011
0.029722 0.019860 0.027875
0.040919 0.020836 0.029893
0.056185 0.021813 0.032920
0.083658 0.022789 0.038975
0.121668 0.023786 0.044724
0.182862 0.024828 0.049801
0.256433 0.025869 0.055245
0.350633 0.026911 0.061300
0.450728 0.030630 0.068750
0.558403 0.037791 0.077994
0.645279 0.048076 0.091307
0.711356 0.061487 0.108689
0.759416 0.081086 0.134016
0.793463 0.105499 0.165525
0.820024 0.139351 0.206391
0.842093 0.178866 0.252873
0.855882 0.217576 0.296535
0.865907 0.255920 0.338915
0.876763 0.298219 0.385933
0.887895 0.341836 0.434498
0.898128 0.392752 0.485284
0.908153 0.445353 0.536583
0.916413 0.493967 0.579052
0.924420 0.542010 0.620261
0.929620 0.580838 0.653901
0.934632 0.619052 0.687037
0.015640 0.015640 0.015640
0.017658 0.015705 0.017658
0.019567 0.015893 0.019681
0.019827 0.017911 0.021764
0.021088 0.019929 0.024099
0.029356 0.021947 0.028201
0.038820 0.023587 0.031936
0.053467 0.023587 0.034084
0.073323 0.023603 0.037209
0.108802 0.023668 0.043263
0.158685 0.024364 0.049338
0.240256 0.026447 0.055457
0.330492 0.028579 0.061625
0.435173 0.030792 0.067875
0.536721 0.036680 0.077742
0.634241 0.047291 0.092259
0.707934 0.063859 0.111887
0.757801 0.086384 0.136625
0.794191 0.113486 0.169162
0.820101 0.144148 0.207767
0.841047 0.183395 0.252555
0.859015 0.227793 0.301055
0.870224 0.268163 0.345437
0.878362 0.306702 0.387947
0.889429 0.354469 0.437830
0.901472 0.405313 0.490170
0.910289 0.460387 0.537380
0.918362 0.516438 0.583406
0.924668 0.555059 0.620545
0.930722 0.591189 0.656415
0.934885 0.625184 0.684718
0.938921 0.659036 0.712515
0.015640 0.015640 0.015640
0.017658 0.016747 0.017658
0.019827 0.017911 0.019746
0.024254 0.019929 0.022870
0.029551 0.021947 0.026248
0.040944 0.023965 0.031390
0.054509 0.025605 0.036362
0.077489 0.025605 0.040594
0.108282 0.025881 0.045281
0.162510 0.026988 0.051335
0.229514 0.028725 0.057736
0.324625 0.031850 0.064897
0.421763 0.035805 0.072888
0.522277 0.041143 0.082262
0.611911 0.052434 0.096621
0.687558 0.071378 0.117387
0.745627 0.094716 0.144306
0.786119 0.122449 0.177377
0.815479 0.155345 0.215904
0.836181 0.192257 0.258675
0.853221 0.233847 0.305677
0.868064 0.278246 0.355218
0.879013 0.320764 0.401358
0.888192 0.362428 0.445951
0.898738 0.415663 0.494793
0.909740 0.472756 0.545050
0.918362 0.523078 0.586791
0.926434 0.571838 0.626567
0.932741 0.606813 0.656546
0.938795 0.639819 0.685125
0.942957 0.666783 0.706136
0.946993 0.693343 0.726642
0.015893 0.015893 0.015893
0.017780 0.017780 0.017780
0.020063 0.019676 0.019811
0.028266 0.021695 0.023977
0.037371 0.023745 0.028412
0.052800 0.026024 0.034727
0.071354 0.027875 0.041041
0.103448 0.027875 0.047356
0.145470 0.028510 0.053606
0.217275 0.031049 0.059660
0.300107 0.034096 0.066426
0.407196 0.038263 0.074759
0.509818 0.044382 0.084801
0.604995 0.053756 0.097691
0.682683 0.070507 0.116704
0.737888 0.096743 0.143590
0.781375 0.126591 0.177214
0.813144 0.160052 0.217576
0.836051 0.198897 0.261564
0.852065 0.241928 0.308371
0.865476 0.285569 0.357212
0.877324 0.329577 0.407274
0.887785 0.374569 0.454919
0.897615 0.420009 0.501465
0.907738 0.477313 0.549037
0.917959 0.538572 0.596951
0.926328 0.583434 0.632223
0.934270 0.624512 0.664577
0.940561 0.655907 0.688160
0.946615 0.685918 0.710489
0.950655 0.706713 0.725373
0.954561 0.726894 0.739760
0.017911 0.017911 0.017911
0.018757 0.018757 0.018757
0.020128 0.019676 0.019876
0.029372 0.021695 0.025084
0.040692 0.024006 0.030691
0.066536 0.028367 0.039088
0.096287 0.031911 0.047486
0.142964 0.031911 0.055884
0.198266 0.033588 0.063696
0.279446 0.040293 0.069751
0.369048 0.046530 0.077168
0.477179 0.051738 0.087584
0.575374 0.062415 0.101271
0.657009 0.082205 0.120411
0.722524 0.104815 0.145218
0.767313 0.131050 0.177312
0.803509 0.165586 0.213540
0.831111 0.208422 0.253902
0.851610 0.254297 0.299647
0.866583 0.302536 0.349579
0.878301 0.346177 0.397639
0.888066 0.387060 0.444576
0.896443 0.436805 0.491961
0.904190 0.490577 0.539549
0.914574 0.542153 0.584256
0.925836 0.592996 0.628003
0.933554 0.627442 0.649800
0.940455 0.658104 0.666530
0.946615 0.686374 0.689071
0.952669 0.714302 0.712442
0.955733 0.734967 0.729344
0.958597 0.755148 0.745814
0.019550 0.019172 0.019550
0.019746 0.019367 0.019550
0.020584 0.019701 0.019941
0.031065 0.022110 0.026191
0.044524 0.024950 0.032920
0.078832 0.030809 0.043011
0.118340 0.035789 0.053211
0.180380 0.036961 0.063888
0.249597 0.040411 0.073360
0.340347 0.050697 0.079219
0.436060 0.060148 0.087214
0.542694 0.067765 0.099908
0.635242 0.083340 0.116777
0.704313 0.112179 0.140604
0.758801 0.140478 0.170241
0.794541 0.168080 0.207348
0.823934 0.206619 0.245594
0.846979 0.256095 0.284979
0.865118 0.307366 0.331176
0.879440 0.360031 0.382670
0.889856 0.404601 0.430095
0.897928 0.444312 0.475079
0.904613 0.496868 0.521630
0.910668 0.555262 0.568893
0.920970 0.600767 0.610833
0.932688 0.641975 0.651000
0.940280 0.668056 0.660224
0.946920 0.690646 0.662307
0.953219 0.715913 0.680169
0.959468 0.741562 0.700285
0.961751 0.761353 0.719851
0.963769 0.780752 0.739381
0.019550 0.017154 0.019550
0.020787 0.018391 0.019550
0.022732 0.019831 0.020006
0.035296 0.024323 0.027297
0.050579 0.028856 0.034938
0.084886 0.033673 0.045029
0.127909 0.038979 0.055815
0.208698 0.046400 0.069616
0.294582 0.054798 0.081172
0.395747 0.066125 0.085989
0.494715 0.078897 0.094244
0.588850 0.094847 0.110064
0.670461 0.116802 0.128105
0.731199 0.148766 0.149848
0.779633 0.182011 0.180136
0.812249 0.216905 0.221409
0.836954 0.256486 0.259135
0.853750 0.300754 0.293312
0.869740 0.350332 0.334301
0.885104 0.404039 0.380587
0.895910 0.453556 0.428012
0.903983 0.500558 0.476121
0.910668 0.547515 0.519351
0.916722 0.594452 0.560364
0.925462 0.632406 0.599962
0.935096 0.667364 0.639087
0.944837 0.693966 0.639652
0.954602 0.718639 0.631319
0.962202 0.741432 0.628740
0.969494 0.763957 0.626982
0.971841 0.779646 0.652017
0.973859 0.794879 0.678838
0.019550 0.016145 0.019550
0.021568 0.018163 0.019811
0.024343 0.020433 0.020559
0.038470 0.026488 0.028632
0.055152 0.032355 0.036989
0.089720 0.036912 0.047340
0.135396 0.042933 0.058728
0.229205 0.055302 0.074613
0.328238 0.068257 0.087730
0.442944 0.082970 0.092548
0.547967 0.100592 0.101780
0.631686 0.124614 0.120724
0.703955 0.152981 0.140718
0.757141 0.188591 0.162461
0.799733 0.226052 0.193091
0.828703 0.265893 0.235145
0.849632 0.307427 0.272089
0.862522 0.350653 0.303923
0.876657 0.399189 0.340371
0.891760 0.451855 0.380408
0.902306 0.503260 0.426791
0.910118 0.553907 0.476984
0.916901 0.595738 0.518001
0.923216 0.633561 0.554847
0.930653 0.664354 0.591254
0.938465 0.692802 0.627515
0.949768 0.719029 0.620985
0.961877 0.744744 0.604580
0.970226 0.764705 0.580484
0.978038 0.783845 0.555291
0.980174 0.796393 0.576908
0.981932 0.808501 0.601646
0.019550 0.018163 0.019550
0.021568 0.020181 0.020852
0.024343 0.022451 0.022577
0.038470 0.028506 0.030650
0.055282 0.034633 0.039137
0.090892 0.041273 0.050530
0.136633 0.049183 0.062569
0.226275 0.062594 0.077412
0.327913 0.078934 0.090530
0.465534 0.104062 0.098472
0.585009 0.131124 0.110829
0.664561 0.162437 0.132898
0.732273 0.197314 0.157188
0.780252 0.238132 0.185181
0.817636 0.277611 0.215225
0.841397 0.315369 0.247905
0.861285 0.361590 0.283287
0.877300 0.416274 0.321370
0.890458 0.465721 0.355279
0.901395 0.511096 0.385941
0.909728 0.555209 0.428159
0.916498 0.598566 0.477309
0.923671 0.636686 0.519433
0.931028 0.672426 0.558363
0.937944 0.697229 0.589041
0.944715 0.718387 0.616969
0.955823 0.741554 0.608030
0.967931 0.765185 0.590583
0.975369 0.781241 0.541750
0.982139 0.796214 0.488433
0.983234 0.808501 0.479974
0.983950 0.820610 0.474506
0.020812 0.022073 0.020181
0.023155 0.024091 0.022525
0.026154 0.026321 0.025165
0.038979 0.031724 0.032261
0.054619 0.037542 0.039902
0.089968 0.046266 0.051360
0.134716 0.056429 0.063318
0.220193 0.072835 0.077445
0.321260 0.093292 0.090318
0.469102 0.125907 0.099432
0.596133 0.159987 0.112452
0.677378 0.197290 0.134065
0.745415 0.237253 0.158950
0.791441 0.281651 0.189286
0.827014 0.323230 0.217829
0.849148 0.361183 0.244064
0.869297 0.410626 0.277721
0.887459 0.471560 0.318799
0.900679 0.521471 0.351491
0.910053 0.562810 0.377661
0.917963 0.602277 0.415916
0.924994 0.640621 0.461421
0.932293 0.674623 0.503614
0.939714 0.706652 0.544301
0.946110 0.727256 0.572099
0.952165 0.744052 0.595600
0.962080 0.764709 0.591596
0.972887 0.786257 0.581245
0.979250 0.798691 0.516666
0.984979 0.809824 0.444340
0.985032 0.820956 0.412478
0.984707 0.832088 0.383313
0.024848 0.030145 0.022199
0.028233 0.032163 0.025584
0.031948 0.034263 0.029006
0.040606 0.037583 0.032977
0.052210 0.041839 0.037624
0.084435 0.052646 0.046998
0.125863 0.065869 0.057264
0.207173 0.089565 0.071390
0.300689 0.115752 0.083483
0.430824 0.149409 0.089472
0.550237 0.185181 0.097740
0.646065 0.225608 0.111020
0.725169 0.267524 0.128353
0.776403 0.311923 0.152440
0.817640 0.355780 0.177467
0.846023 0.398941 0.203702
0.869297 0.448384 0.235275
0.887459 0.504110 0.272187
0.903022 0.553500 0.306572
0.916563 0.597964 0.338992
0.927988 0.638602 0.373731
0.938144 0.676946 0.409861
0.944987 0.705936 0.449841
0.950326 0.730674 0.491570
0.956201 0.751018 0.522753
0.962255 0.769897 0.550420
0.968786 0.789252 0.567509
0.975426 0.808717 0.582157
0.980357 0.818156 0.521614
0.985044 0.826164 0.450329
0.984056 0.834171 0.409743
0.982688 0.842178 0.371204
0.028884 0.038975 0.024974
0.032920 0.042164 0.028229
0.037107 0.045330 0.031407
0.043552 0.048129 0.033425
0.052975 0.052288 0.036151
0.083247 0.065959 0.043833
0.121574 0.082437 0.052357
0.194812 0.111081 0.064530
0.277749 0.141531 0.074572
0.389786 0.177402 0.078218
0.500460 0.215550 0.082880
0.608136 0.258711 0.089781
0.696305 0.302044 0.100490
0.751966 0.345661 0.117546
0.799281 0.391357 0.138106
0.835868 0.439726 0.163169
0.863828 0.488974 0.191878
0.883163 0.539101 0.224233
0.901582 0.586262 0.257723
0.919289 0.631116 0.292096
0.933009 0.669948 0.323661
0.944336 0.705167 0.353542
0.951725 0.731122 0.391210
0.957324 0.752865 0.432419
0.963264 0.772265 0.463960
0.969319 0.790884 0.492278
0.973416 0.809132 0.523770
0.977061 0.827295 0.555995
0.981049 0.836572 0.517700
0.985085 0.844579 0.469330
0.983445 0.849657 0.421022
0.981427 0.854539 0.372718
0.032920 0.049065 0.029010
0.036956 0.055380 0.030182
0.041208 0.061605 0.031407
0.048695 0.066487 0.033425
0.059029 0.072989 0.036021
0.089301 0.090827 0.042661
0.124894 0.110886 0.049362
0.183549 0.140571 0.056328
0.250863 0.172845 0.062203
0.344151 0.212881 0.064807
0.444214 0.254545 0.067777
0.559180 0.299790 0.071553
0.653079 0.343643 0.077184
0.711864 0.385176 0.085908
0.765950 0.431979 0.100413
0.813994 0.485556 0.122351
0.849246 0.534284 0.146894
0.871705 0.578161 0.174041
0.893835 0.620244 0.202323
0.915709 0.660932 0.231487
0.929689 0.692994 0.260449
0.938933 0.719880 0.289288
0.948535 0.746095 0.324483
0.958300 0.772005 0.362566
0.965282 0.789321 0.389420
0.971337 0.803773 0.412531
0.974588 0.821241 0.447278
0.977192 0.839403 0.484710
0.981049 0.853237 0.499016
0.985085 0.866452 0.510018
0.983445 0.868926 0.455655
0.981427 0.870684 0.396935
0.039605 0.068868 0.033929
0.043641 0.076940 0.033018
0.047987 0.085000 0.032261
0.056971 0.092877 0.033824
0.068331 0.102634 0.035720
0.096324 0.125549 0.039951
0.128271 0.150527 0.044060
0.177357 0.184445 0.047641
0.234287 0.220250 0.050717
0.314750 0.261718 0.052279
0.405569 0.305018 0.054411
0.519168 0.352346 0.057797
0.614581 0.398257 0.062109
0.679681 0.441809 0.067968
0.739141 0.487440 0.078498
0.791351 0.535744 0.095034
0.831616 0.579850 0.114954
0.859934 0.619756 0.138260
0.885689 0.656220 0.161932
0.909451 0.690007 0.185889
0.925400 0.717121 0.212816
0.936663 0.740232 0.241525
0.947880 0.764998 0.273904
0.959078 0.790517 0.307951
0.967101 0.807004 0.333308
0.974067 0.820480 0.355767
0.977013 0.836653 0.390921
0.979031 0.853449 0.429005
0.982017 0.868080 0.469424
0.985142 0.882402 0.510176
0.983445 0.884152 0.469696
0.981427 0.885063 0.423801
0.049696 0.101157 0.039984
0.053732 0.109230 0.036989
0.058208 0.117550 0.034214
0.069275 0.129594 0.034735
0.081806 0.143777 0.035199
0.104591 0.172942 0.035264
0.131722 0.204560 0.035793
0.177682 0.246810 0.038332
0.230967 0.288344 0.040366
0.306222 0.327730 0.040887
0.389554 0.370248 0.043279
0.490655 0.419659 0.049789
0.582161 0.469607 0.057618
0.657677 0.520450 0.067643
0.720718 0.561980 0.076871
0.767720 0.591535 0.085073
0.810068 0.625745 0.099786
0.847761 0.664610 0.121009
0.877031 0.694759 0.140840
0.899751 0.718130 0.159589
0.919867 0.742640 0.185214
0.938420 0.767834 0.214964
0.950484 0.788955 0.244088
0.959598 0.808225 0.272928
0.968664 0.825492 0.300888
0.977712 0.842093 0.328556
0.981049 0.856313 0.360455
0.983067 0.869984 0.393330
0.984231 0.880579 0.425807
0.985272 0.890735 0.458227
0.983445 0.894177 0.457262
0.981427 0.897172 0.454072
0.060795 0.143537 0.050074
0.066915 0.151610 0.042392
0.073506 0.160353 0.035126
0.087177 0.179167 0.034084
0.102378 0.200382 0.033116
0.128288 0.238400 0.032660
0.157664 0.278091 0.032863
0.202062 0.325028 0.035923
0.255086 0.370077 0.038739
0.333987 0.409463 0.040822
0.417547 0.450516 0.044939
0.511356 0.495240 0.053533
0.597915 0.541282 0.063444
0.672389 0.589521 0.075553
0.731883 0.624573 0.084585
0.772114 0.642671 0.089663
0.812900 0.670111 0.103074
0.854238 0.706892 0.124817
0.883639 0.732908 0.143997
0.903755 0.750550 0.161184
0.923871 0.771284 0.185572
0.943987 0.793874 0.214281
0.956181 0.812033 0.242005
0.964774 0.828178 0.269282
0.973709 0.844664 0.299196
0.982758 0.861265 0.329988
0.984825 0.873369 0.360357
0.985280 0.884436 0.390628
0.984882 0.891516 0.418223
0.984361 0.898026 0.445435
0.984389 0.903682 0.468557
0.984454 0.909280 0.491407
0.072904 0.196008 0.064201
0.083190 0.204080 0.049228
0.093882 0.213410 0.034995
0.110678 0.241598 0.031871
0.130045 0.272448 0.029470
0.167413 0.321924 0.032139
0.206098 0.371119 0.035272
0.250497 0.419097 0.040415
0.306645 0.465449 0.045834
0.398046 0.506917 0.052084
0.489548 0.545823 0.059392
0.581274 0.579089 0.069026
0.661843 0.613283 0.079589
0.723818 0.649023 0.091697
0.772635 0.675221 0.101641
0.804534 0.689153 0.108802
0.840111 0.712947 0.124817
0.879367 0.746603 0.149685
0.905512 0.770666 0.171404
0.921462 0.787266 0.190674
0.937411 0.803053 0.213890
0.953361 0.818352 0.239474
0.964969 0.834232 0.267655
0.974604 0.850377 0.297015
0.982237 0.864520 0.328230
0.989203 0.877995 0.360064
0.988340 0.887822 0.390628
0.985671 0.896805 0.420900
0.983970 0.900890 0.446671
0.982408 0.904276 0.471800
0.986277 0.912665 0.503581
0.990509 0.921389 0.535806
0.089553 0.266641 0.086274
0.103419 0.277643 0.063424
0.117847 0.290122 0.041603
0.140697 0.324755 0.035223
0.166648 0.361651 0.030219
0.214301 0.414382 0.034841
0.263211 0.465758 0.040500
0.317570 0.511263 0.050656
0.381824 0.554375 0.060437
0.475763 0.590310 0.069096
0.565247 0.622747 0.078018
0.644929 0.647485 0.087523
0.713724 0.672100 0.098004
0.764372 0.696513 0.110113
0.805991 0.717081 0.121993
0.836002 0.732705 0.133581
0.867543 0.754318 0.152200
0.900614 0.781920 0.177849
0.923028 0.802418 0.201741
0.937155 0.817391 0.224265
0.950549 0.830940 0.248214
0.963504 0.843635 0.273017
0.972879 0.856687 0.299969
0.980626 0.869903 0.327896
0.985785 0.880970 0.358656
0.990081 0.891321 0.390360
0.988560 0.899820 0.422328
0.985695 0.907893 0.454357
0.984084 0.911180 0.479551
0.982652 0.913784 0.503768
0.986590 0.921210 0.536041
0.990887 0.928957 0.568852
0.109734 0.351402 0.114527
0.126725 0.367612 0.083344
0.144603 0.385233 0.053451
0.175786 0.424033 0.042905
0.210200 0.464183 0.034385
0.267227 0.513790 0.040049
0.327075 0.561650 0.047922
0.399140 0.601947 0.065369
0.475372 0.638289 0.080879
0.564104 0.662767 0.090579
0.643823 0.685373 0.099892
0.703715 0.703861 0.108355
0.756234 0.720665 0.118185
0.796466 0.734662 0.130294
0.833593 0.752104 0.144909
0.866729 0.773978 0.162746
0.895145 0.794550 0.183969
0.918842 0.813819 0.208576
0.937155 0.829500 0.234356
0.951282 0.842390 0.261047
0.963374 0.855809 0.287209
0.974246 0.869545 0.313054
0.980105 0.879342 0.337466
0.983685 0.887350 0.361228
0.985459 0.894771 0.390165
0.986631 0.901997 0.420827
0.986216 0.909911 0.455138
0.985435 0.917983 0.490292
0.984995 0.922182 0.515877
0.984605 0.925828 0.540094
0.985679 0.929412 0.566508
0.986851 0.932993 0.593069
0.124870 0.453820 0.160439
0.144986 0.464822 0.115064
0.166436 0.477740 0.071850
0.207905 0.519404 0.061043
0.253385 0.560369 0.052100
0.326948 0.596434 0.056202
0.400865 0.631828 0.062952
0.476316 0.664313 0.081180
0.552483 0.693234 0.097536
0.630799 0.711462 0.108278
0.700631 0.729445 0.119812
0.751799 0.746892 0.133093
0.796913 0.761825 0.146178
0.831937 0.772566 0.158938
0.864369 0.788064 0.175514
0.893469 0.809677 0.196997
0.917784 0.827580 0.219847
0.937314 0.841771 0.244064
0.952340 0.854059 0.269819
0.963862 0.864866 0.296771
0.972862 0.876120 0.322054
0.980349 0.887642 0.346336
0.984523 0.896301 0.374557
0.987193 0.903657 0.404568
0.986883 0.909060 0.432333
0.985581 0.913813 0.459350
0.985337 0.920205 0.490227
0.985337 0.926975 0.521996
0.986476 0.931353 0.546588
0.987778 0.935389 0.570154
0.987860 0.937534 0.591279
0.987860 0.939552 0.612241
0.136979 0.566834 0.216946
0.160219 0.566378 0.153864
0.185315 0.568685 0.094179
0.238242 0.612432 0.085456
0.296351 0.652745 0.077945
0.390746 0.669020 0.078922
0.480613 0.686577 0.082547
0.550856 0.709688 0.097650
0.619732 0.730796 0.111923
0.684506 0.745899 0.123706
0.744378 0.762386 0.138561
0.793463 0.781916 0.160174
0.836494 0.798541 0.178858
0.869435 0.810324 0.192659
0.897049 0.824585 0.210733
0.917816 0.842032 0.234299
0.937444 0.856289 0.258191
0.955932 0.867356 0.282408
0.968159 0.877104 0.306991
0.975515 0.885828 0.331859
0.980349 0.893697 0.354408
0.983669 0.901053 0.375566
0.987258 0.909842 0.411403
0.990968 0.919281 0.453914
0.989357 0.923643 0.480898
0.985972 0.926312 0.502706
0.985337 0.930621 0.526683
0.985337 0.935308 0.551161
0.988299 0.939425 0.573930
0.991684 0.943462 0.596454
0.991896 0.945606 0.612632
0.991896 0.947624 0.628386
0.150475 0.656261 0.281777
0.179704 0.652941 0.207433
0.210952 0.651887 0.136649
0.272472 0.684828 0.119267
0.340347 0.714733 0.104148
0.452709 0.723391 0.104864
0.557004 0.734210 0.108497
0.626335 0.754391 0.124772
0.690963 0.772342 0.140006
0.741481 0.783605 0.152114
0.789333 0.796535 0.167112
0.831323 0.813136 0.188464
0.867795 0.827783 0.207645
0.895072 0.839176 0.223203
0.917735 0.851081 0.242550
0.934466 0.863645 0.266768
0.950838 0.875330 0.291701
0.966853 0.886137 0.317350
0.976459 0.895003 0.343402
0.981081 0.902359 0.369768
0.983628 0.908454 0.393611
0.984930 0.913792 0.415940
0.988112 0.920921 0.451383
0.992148 0.928863 0.492787
0.991204 0.933436 0.518273
0.988600 0.936887 0.538454
0.989130 0.940231 0.560857
0.990384 0.943551 0.583772
0.991722 0.946871 0.604181
0.993073 0.950191 0.624232
0.991815 0.951620 0.638057
0.990382 0.952922 0.651468
0.164601 0.734967 0.350393
0.201122 0.732688 0.267716
0.239662 0.731569 0.188273
0.308472 0.747844 0.157351
0.384810 0.762907 0.130513
0.513838 0.769482 0.132271
0.631869 0.778608 0.137337
0.702242 0.798789 0.156736
0.764005 0.815699 0.174313
0.799941 0.822795 0.186422
0.834838 0.831233 0.200117
0.867453 0.842626 0.217304
0.895332 0.853628 0.234661
0.915318 0.863979 0.252303
0.932968 0.873019 0.272822
0.947616 0.880376 0.297039
0.961385 0.889978 0.323014
0.974274 0.901826 0.350747
0.981342 0.910562 0.379468
0.983881 0.916876 0.408958
0.984995 0.921930 0.435926
0.985256 0.926226 0.461380
0.988112 0.930881 0.492787
0.992148 0.935698 0.526899
0.992767 0.941053 0.550563
0.992246 0.946586 0.570744
0.994648 0.949475 0.593993
0.997724 0.951754 0.617949
0.995872 0.954032 0.635754
0.993317 0.956311 0.652680
0.989862 0.956697 0.665334
0.986346 0.956958 0.677703
0.181755 0.780374 0.426576
0.225567 0.782262 0.334785
0.271837 0.784544 0.246049
0.354970 0.792747 0.203149
0.444067 0.800583 0.165374
0.574918 0.805857 0.163486
0.692574 0.813046 0.165736
0.753052 0.828540 0.185917
0.805897 0.841869 0.204080
0.835843 0.848705 0.216189
0.864914 0.856557 0.230535
0.892061 0.866648 0.249805
0.915253 0.876152 0.269538
0.931854 0.884680 0.290045
0.946688 0.892126 0.311149
0.959252 0.898181 0.333023
0.970027 0.906090 0.358868
0.979010 0.915855 0.388684
0.983637 0.922654 0.418316
0.984873 0.927146 0.447807
0.986314 0.931841 0.474286
0.987876 0.936659 0.498959
0.990065 0.940402 0.528331
0.992539 0.943657 0.559840
0.994183 0.947840 0.582267
0.995550 0.952332 0.601666
0.996454 0.954813 0.623076
0.997252 0.956832 0.644950
0.994090 0.959533 0.661811
0.990363 0.962333 0.677955
0.987811 0.962507 0.689584
0.985337 0.962507 0.700911
0.199918 0.814682 0.505282
0.251022 0.821778 0.404116
0.305168 0.828617 0.305876
0.404967 0.831612 0.251518
0.508256 0.834761 0.203067
0.635982 0.838992 0.195971
0.748560 0.844164 0.193990
0.795498 0.853408 0.214171
0.837406 0.862310 0.232334
0.864227 0.870188 0.244442
0.889848 0.878756 0.260091
0.912828 0.888847 0.283527
0.932635 0.897570 0.307036
0.947152 0.904015 0.330667
0.959903 0.910289 0.352162
0.970385 0.916343 0.370911
0.978034 0.922691 0.396235
0.982851 0.929331 0.428134
0.985069 0.933591 0.458092
0.985264 0.936000 0.486541
0.987616 0.940565 0.511328
0.991261 0.946424 0.533918
0.992669 0.949776 0.561923
0.993060 0.951990 0.592390
0.995550 0.954350 0.613775
0.998740 0.956758 0.632133
0.997024 0.958850 0.650809
0.994176 0.960868 0.669558
0.990331 0.964481 0.686028
0.986343 0.968322 0.702173
0.985728 0.968562 0.712825
0.985337 0.968562 0.723110
0.244316 0.847350 0.580708
0.292555 0.852883 0.464244
0.344794 0.858091 0.351369
0.457026 0.858417 0.292323
0.570064 0.859100 0.239544
0.688742 0.862290 0.230625
0.792540 0.866395 0.227162
0.831860 0.874468 0.247343
0.866851 0.882117 0.265718
0.888855 0.888497 0.278673
0.909862 0.895772 0.295147
0.928676 0.905016 0.319364
0.945097 0.912747 0.343264
0.957531 0.917955 0.366635
0.967829 0.923533 0.389208
0.975381 0.929587 0.410757
0.980752 0.934795 0.435560
0.983942 0.939157 0.463618
0.986289 0.942200 0.490834
0.987982 0.944218 0.517394
0.990081 0.948230 0.543345
0.992425 0.953438 0.568929
0.994176 0.955871 0.594827
0.995657 0.957043 0.620867
0.996454 0.959484 0.642903
0.997024 0.962349 0.663605
0.994089 0.964526 0.682244
0.990346 0.966544 0.700407
0.987827 0.968847 0.713842
0.985484 0.971190 0.726601
0.986924 0.971337 0.735272
0.988617 0.971337 0.743670
0.294769 0.879639 0.655378
0.337800 0.882048 0.522248
0.385872 0.884196 0.393554
0.509562 0.882439 0.331383
0.631323 0.881169 0.275739
0.739585 0.883317 0.265779
0.833748 0.886576 0.261470
0.866819 0.894649 0.281651
0.895821 0.901777 0.300286
0.912616 0.906074 0.314282
0.928741 0.911591 0.331473
0.943388 0.919794 0.355690
0.956425 0.926483 0.379199
0.966776 0.930649 0.401529
0.974535 0.935642 0.425339
0.978962 0.941696 0.451053
0.982249 0.945862 0.475336
0.984397 0.948141 0.498186
0.987461 0.950273 0.521951
0.991237 0.952291 0.546429
0.992816 0.955652 0.574202
0.993076 0.959818 0.603953
