其他预设/【236】赛博朋克风调色预设/【后期菌】视频调色预设/CUBE/Abandoned 01.cube
# LUT by SparkleStock. Enhanced with VOXCOLOR algorithms.
LUT_3D_SIZE 8
DOMAIN_MIN 0.000000 0.000000 0.000000
DOMAIN_MAX 0.903226 0.903226 0.903226
0.097752 0.039101 0.078201
0.098256 0.051083 0.094094
0.124744 0.071895 0.123735
0.226910 0.110113 0.163340
0.463406 0.168385 0.207486
0.678334 0.232838 0.282282
0.771545 0.309274 0.372466
0.820358 0.392647 0.470470
0.098004 0.051335 0.094094
0.123092 0.076374 0.124003
0.201147 0.123421 0.173430
0.425848 0.192798 0.228298
0.659150 0.267777 0.300123
0.766174 0.344932 0.388358
0.816391 0.427585 0.486236
0.850263 0.521577 0.571627
0.106581 0.073408 0.112005
0.143350 0.110178 0.156781
0.318445 0.212421 0.228049
0.560515 0.304945 0.285533
0.713899 0.378788 0.352793
0.789582 0.456900 0.429278
0.830310 0.546181 0.518867
0.849518 0.605605 0.503711
0.121212 0.138114 0.158547
0.139025 0.159507 0.173837
0.270641 0.277363 0.232265
0.534459 0.390820 0.264249
0.695341 0.469505 0.311418
0.771923 0.546811 0.367681
0.818840 0.610520 0.426958
0.849779 0.658328 0.453153
0.128149 0.267524 0.237001
0.136043 0.292824 0.224013
0.202343 0.397444 0.256409
0.399010 0.510990 0.256425
0.584224 0.578572 0.243466
0.720116 0.632434 0.264823
0.804050 0.684075 0.318079
0.849844 0.721365 0.373019
0.157412 0.436792 0.351276
0.169406 0.475568 0.296803
0.318843 0.576005 0.291921
0.537429 0.645784 0.272553
0.695541 0.684547 0.275816
0.796124 0.725507 0.324886
0.840982 0.752296 0.372311
0.868727 0.773819 0.433143
0.231703 0.620944 0.471479
0.243486 0.631051 0.337922
0.508423 0.694649 0.296718
0.687423 0.735052 0.299305
0.787718 0.761064 0.331827
0.841344 0.784394 0.388769
0.873162 0.800384 0.450903
0.892578 0.812611 0.517317
0.341437 0.727525 0.596349
0.375822 0.725417 0.363762
0.678008 0.774344 0.323376
0.788162 0.790591 0.360194
0.837987 0.805173 0.405764
0.868536 0.815438 0.465986
0.892578 0.826843 0.542983
0.906757 0.841084 0.620134
0.097752 0.047173 0.090184
0.102183 0.051335 0.098777
0.124964 0.072432 0.129411
0.228298 0.118030 0.186723
0.461323 0.172043 0.245264
0.663279 0.232541 0.318355
0.770662 0.305937 0.411635
0.820496 0.397049 0.509318
0.098492 0.052344 0.099501
0.129821 0.080093 0.146627
0.208198 0.127138 0.198783
0.417459 0.190492 0.266219
0.648787 0.268620 0.345673
0.765523 0.348906 0.437077
0.812269 0.420082 0.514076
0.846629 0.519530 0.595961
0.111215 0.086652 0.132596
0.126670 0.103560 0.157404
0.362664 0.213019 0.279634
0.607225 0.301598 0.360797
0.738453 0.374919 0.440120
0.794724 0.446161 0.513596
0.830709 0.547635 0.588525
0.859139 0.619415 0.647281
0.129887 0.163690 0.191536
0.141617 0.200708 0.231614
0.254363 0.281319 0.291407
0.612872 0.416576 0.355807
0.740552 0.506314 0.423403
0.791423 0.573643 0.481277
0.829294 0.636458 0.543477
0.862179 0.692822 0.604109
0.144294 0.309778 0.293442
0.161045 0.357748 0.335314
0.192675 0.393270 0.296153
0.398158 0.510440 0.296907
0.635871 0.587625 0.280799
0.743612 0.644660 0.324810
0.808422 0.693564 0.376058
0.850799 0.732427 0.436366
0.186719 0.492290 0.418333
0.211627 0.534012 0.454135
0.280108 0.584060 0.343266
0.558704 0.655792 0.295859
0.713697 0.693025 0.319784
0.803939 0.732366 0.375596
0.845079 0.759027 0.430573
0.872568 0.783230 0.504964
0.266178 0.647151 0.547479
0.288858 0.659773 0.534857
0.422961 0.696276 0.368752
0.714013 0.746691 0.343979
0.798502 0.763381 0.380332
0.846045 0.787887 0.453051
0.874127 0.802470 0.520832
0.890701 0.815425 0.571151
0.366147 0.733945 0.639323
0.392610 0.736118 0.543653
0.648588 0.774827 0.410440
0.801515 0.794261 0.410048
0.849668 0.809792 0.475622
0.876722 0.820065 0.539338
0.896718 0.835309 0.605893
0.907857 0.844099 0.673375
0.098256 0.051335 0.099265
0.107053 0.055498 0.111752
0.128589 0.076374 0.148774
0.225604 0.122543 0.215094
0.433253 0.174187 0.280634
0.661306 0.238478 0.358013
0.771362 0.307199 0.444922
0.822958 0.400011 0.548695
0.105889 0.067798 0.123328
0.122817 0.077853 0.149746
0.208696 0.131905 0.222024
0.416749 0.200235 0.308871
0.644619 0.271267 0.383222
0.758447 0.342566 0.464170
0.804485 0.420801 0.546803
0.844187 0.512401 0.618075
0.118816 0.103806 0.155646
0.133634 0.132690 0.199222
0.313106 0.206586 0.311287
0.589108 0.299636 0.400981
0.730487 0.373608 0.477337
0.786101 0.450241 0.549093
0.819634 0.529451 0.599979
0.852700 0.616438 0.663791
0.135717 0.193428 0.232431
0.151337 0.241508 0.284342
0.206631 0.294137 0.353683
0.647048 0.408291 0.471733
0.770668 0.497589 0.551808
0.806000 0.571292 0.601227
0.835222 0.644007 0.651491
0.859512 0.696560 0.671496
0.157648 0.340143 0.343423
0.181296 0.406605 0.408484
0.210303 0.452844 0.448794
0.392463 0.513051 0.423166
0.744247 0.617265 0.466936
0.794810 0.665833 0.511658
0.834660 0.707936 0.573383
0.854435 0.737546 0.576347
0.209541 0.520743 0.478688
0.240650 0.566709 0.530453
0.282789 0.612153 0.569025
0.461310 0.657891 0.415112
0.736487 0.699067 0.374911
0.806812 0.732780 0.428158
0.846847 0.766355 0.503354
0.867112 0.782697 0.558342
0.290216 0.658885 0.598651
0.331254 0.686105 0.625763
0.383086 0.708339 0.615152
0.665653 0.753513 0.460608
0.808421 0.772259 0.445328
0.851994 0.793455 0.516561
0.871662 0.802485 0.572360
0.884906 0.814988 0.618407
0.400243 0.748036 0.683456
0.441517 0.762729 0.676946
0.578735 0.777145 0.591138
0.789313 0.801607 0.517309
0.858072 0.816533 0.546079
0.881642 0.827014 0.600942
0.893078 0.832283 0.650304
0.902395 0.841600 0.709163
0.103175 0.057011 0.124996
0.114604 0.065442 0.133980
0.133321 0.082140 0.167571
0.220437 0.127730 0.244487
0.424362 0.176344 0.320215
0.655699 0.238994 0.392614
0.767382 0.315328 0.490736
0.820358 0.395169 0.575122
0.118311 0.086245 0.159100
0.132027 0.111470 0.199728
0.201055 0.143983 0.265752
0.406375 0.206055 0.349234
0.633402 0.273394 0.420295
0.748198 0.340286 0.502098
0.806714 0.430164 0.585250
0.842122 0.514030 0.638849
0.129215 0.132409 0.206225
0.148184 0.182745 0.270726
0.216587 0.238730 0.353026
0.542954 0.301855 0.437527
0.725235 0.373852 0.518637
0.780805 0.449885 0.580149
0.818153 0.538470 0.636376
0.848876 0.617141 0.682217
0.153587 0.252913 0.317725
0.167413 0.301711 0.361591
0.226355 0.360832 0.442585
0.544770 0.403112 0.514397
0.739104 0.485407 0.576212
0.800197 0.567543 0.626846
0.828682 0.640564 0.674029
0.856363 0.694870 0.708382
0.181881 0.403103 0.432801
0.207889 0.449633 0.490759
0.244552 0.512574 0.545789
0.333567 0.542094 0.572065
0.755750 0.614002 0.622601
0.819613 0.673626 0.655712
0.843398 0.715308 0.684929
0.865806 0.749561 0.712064
0.243694 0.562073 0.559543
0.283357 0.612598 0.615369
0.321033 0.649319 0.644371
0.375965 0.675502 0.649995
0.709529 0.716920 0.557675
0.829442 0.742634 0.564368
0.850417 0.765790 0.595578
0.868738 0.783865 0.640677
0.320581 0.678794 0.649661
0.364645 0.708981 0.676486
0.407766 0.729651 0.687571
0.520822 0.757154 0.689675
0.796774 0.785967 0.578709
0.857363 0.797530 0.576255
0.871729 0.805647 0.622237
0.883714 0.814106 0.658869
0.423654 0.757434 0.716352
0.480027 0.776679 0.734675
0.560491 0.789621 0.725305
0.747731 0.809982 0.687765
0.862991 0.821795 0.619756
0.886161 0.831575 0.655605
0.894397 0.834065 0.695805
0.902359 0.843142 0.741993
0.118311 0.083247 0.170403
0.124744 0.089484 0.188180
0.150857 0.104555 0.228676
0.228607 0.133813 0.281273
0.425188 0.191097 0.359970
0.653799 0.253145 0.439694
0.769653 0.328169 0.536261
0.824288 0.406541 0.608807
0.128971 0.122604 0.221621
0.149091 0.158555 0.278904
0.203101 0.174428 0.328597
0.406856 0.220556 0.397473
0.627651 0.276044 0.463238
0.748139 0.351275 0.540179
0.802728 0.428754 0.609693
0.845988 0.527457 0.670735
0.150597 0.203584 0.306365
0.168633 0.255513 0.366550
0.211784 0.315864 0.441726
0.428342 0.315130 0.492953
0.713074 0.376214 0.551139
0.776758 0.455974 0.606516
0.821692 0.549390 0.660308
0.852088 0.626198 0.708414
0.178350 0.331278 0.419285
0.202655 0.385328 0.483482
0.238229 0.434844 0.538129
0.355526 0.483718 0.594619
0.712692 0.489568 0.609311
0.802017 0.584828 0.664124
0.831633 0.643687 0.696353
0.855927 0.702061 0.727891
0.216047 0.460306 0.529812
0.252511 0.525602 0.584651
0.291107 0.575162 0.631128
0.363329 0.603710 0.653570
0.683601 0.626101 0.671300
0.806665 0.668226 0.690470
0.845384 0.718220 0.716658
0.864923 0.754188 0.745887
0.281610 0.608555 0.632613
0.318641 0.645596 0.673034
0.355933 0.676275 0.697663
0.404041 0.702521 0.715282
0.582915 0.728331 0.714628
0.827442 0.757865 0.675113
0.856956 0.773937 0.673341
0.872429 0.790087 0.693234
0.361102 0.706449 0.703043
0.396321 0.725248 0.717972
0.444732 0.745648 0.739624
0.526048 0.766298 0.743899
0.688597 0.788686 0.741374
0.849364 0.805376 0.689470
0.877012 0.807306 0.675844
0.883535 0.818577 0.694947
0.460721 0.773302 0.749919
0.501354 0.782697 0.758522
0.569843 0.797481 0.768298
0.716998 0.812890 0.755819
0.832349 0.832456 0.751282
0.881426 0.837811 0.719433
0.894040 0.838538 0.729220
0.898603 0.844621 0.767263
0.135339 0.123482 0.259956
0.151573 0.145979 0.304408
0.176348 0.146418 0.326570
0.267598 0.164524 0.363347
0.432345 0.210607 0.417409
0.646565 0.268114 0.484584
0.766467 0.336311 0.563253
0.820044 0.414785 0.632796
0.155565 0.179692 0.324959
0.175318 0.233524 0.397591
0.226323 0.244782 0.446019
0.371981 0.242021 0.464689
0.623478 0.289330 0.513591
0.737229 0.356469 0.575366
0.802218 0.437991 0.632180
0.843386 0.523460 0.683102
0.182170 0.283165 0.421730
0.202114 0.334792 0.482300
0.237180 0.390017 0.554770
0.422424 0.382034 0.583527
0.699380 0.379167 0.582653
0.778968 0.465752 0.640010
0.825802 0.558330 0.685566
0.851692 0.630300 0.727714
0.213146 0.402587 0.535720
0.241999 0.457729 0.587789
0.279241 0.516378 0.632927
0.360615 0.574774 0.680313
0.677477 0.532393 0.663635
0.802725 0.590429 0.688558
0.834890 0.651432 0.718368
0.858458 0.706140 0.743894
0.272033 0.552349 0.635815
0.302205 0.590949 0.673765
0.343206 0.636887 0.707147
0.398929 0.676826 0.735542
0.578299 0.692834 0.741576
0.802973 0.685500 0.725841
0.852176 0.728946 0.745668
0.869786 0.763352 0.770895
0.336490 0.660492 0.706685
0.364317 0.686056 0.723229
0.408145 0.713774 0.749227
0.467272 0.735530 0.765686
0.620868 0.759457 0.771190
0.786043 0.770582 0.766682
0.856953 0.780094 0.768361
0.877210 0.800851 0.784553
0.406867 0.734320 0.751742
0.438757 0.747013 0.760194
0.484800 0.761611 0.770513
0.566353 0.779150 0.780136
0.694227 0.795738 0.783931
0.808368 0.810807 0.777227
0.876927 0.817772 0.743506
0.890286 0.827056 0.756133
0.485475 0.779109 0.776147
0.530361 0.794126 0.782840
0.586779 0.799838 0.787022
0.704112 0.817925 0.801275
0.807568 0.833695 0.801017
0.870881 0.845962 0.790265
0.894319 0.846270 0.781393
0.904765 0.853157 0.794430
0.167250 0.185665 0.377006
0.184949 0.224807 0.433273
0.225661 0.212267 0.458865
0.317306 0.217829 0.459537
0.447135 0.234376 0.477948
0.652273 0.291632 0.540631
0.763769 0.352915 0.603115
0.819076 0.432052 0.659793
0.183016 0.257617 0.440507
0.210743 0.317479 0.520092
0.252523 0.364949 0.583151
0.384499 0.336438 0.591516
0.629098 0.320924 0.569142
0.734673 0.371981 0.612622
0.799592 0.447804 0.656942
0.844485 0.543087 0.708084
0.219102 0.374256 0.561410
0.244100 0.414934 0.600516
0.288862 0.485057 0.655259
0.438542 0.507881 0.687515
0.641546 0.420939 0.643369
0.779300 0.482296 0.672310
0.826322 0.566725 0.713979
0.853138 0.639317 0.744784
0.259277 0.490349 0.642211
0.296990 0.548851 0.681426
0.337886 0.598562 0.717271
0.403845 0.648106 0.745080
0.679072 0.623693 0.733140
0.799139 0.607462 0.718629
0.836927 0.661484 0.742932
0.862402 0.713376 0.764394
0.324031 0.620049 0.716665
0.358363 0.656379 0.741913
0.403412 0.693281 0.764757
0.456116 0.723675 0.783490
0.575734 0.744159 0.793172
0.796974 0.722008 0.765604
0.854325 0.737397 0.766601
0.869891 0.764715 0.781713
0.389933 0.708841 0.762398
0.429437 0.733091 0.780017
0.472392 0.751836 0.790182
0.531735 0.765063 0.799631
0.636705 0.781606 0.802345
0.766166 0.794910 0.804294
0.860516 0.790918 0.794922
0.883209 0.806722 0.808459
0.458235 0.758887 0.792950
0.492400 0.769765 0.791776
0.538542 0.780728 0.797968
0.620157 0.794595 0.805769
0.730094 0.811032 0.811330
0.813453 0.822675 0.814366
0.869673 0.830168 0.809032
0.897525 0.839338 0.811186
0.534113 0.797780 0.805873
0.560089 0.799378 0.800841
0.626673 0.810210 0.809818
0.733935 0.826135 0.818877
0.814930 0.841911 0.825856
0.860033 0.848875 0.827654
0.894518 0.855129 0.827229
0.906621 0.862016 0.827362
0.200423 0.271813 0.520922
0.222622 0.309400 0.571033
0.256852 0.320097 0.599502
0.367306 0.284987 0.575020
0.515055 0.292616 0.570610
0.656505 0.322387 0.592430
0.761043 0.376363 0.635994
0.818592 0.455623 0.687244
0.226772 0.356435 0.589550
0.253626 0.405382 0.636007
0.300709 0.457047 0.679672
0.430946 0.434150 0.680364
0.634055 0.360239 0.625870
0.737880 0.399531 0.649462
0.798436 0.470052 0.686538
0.838556 0.555314 0.728131
0.264147 0.457608 0.659821
0.300777 0.521178 0.702096
0.348750 0.581089 0.734063
0.422554 0.624272 0.754655
0.665185 0.567301 0.736717
0.782609 0.510043 0.700290
0.823508 0.579602 0.733974
0.854028 0.647146 0.762338
0.314303 0.579162 0.720120
0.355522 0.625018 0.751259
0.401489 0.672955 0.777838
0.473180 0.709073 0.795301
0.701034 0.724252 0.798337
0.789980 0.657400 0.761218
0.839308 0.673307 0.766620
0.866547 0.723017 0.784623
0.381112 0.683196 0.775146
0.416579 0.708130 0.791983
0.474177 0.740738 0.807663
0.531984 0.763036 0.818581
0.623986 0.778153 0.825579
0.812711 0.771327 0.810178
0.852669 0.750088 0.791061
0.875750 0.774677 0.801619
0.452559 0.746127 0.806479
0.493051 0.762349 0.813185
0.533754 0.778604 0.816874
0.588073 0.786978 0.821892
0.690102 0.803809 0.829630
0.790004 0.817580 0.833742
0.863957 0.811864 0.823232
0.885421 0.815560 0.825679
0.523929 0.786229 0.819853
0.553590 0.792744 0.820260
0.594873 0.801944 0.821666
0.683220 0.813044 0.829996
0.773257 0.827386 0.835542
0.832488 0.838326 0.842890
0.870424 0.842707 0.839302
0.900779 0.848520 0.841546
0.580501 0.811740 0.824439
0.611619 0.816030 0.824950
0.679794 0.825052 0.828442
0.768626 0.837918 0.838374
0.832412 0.847025 0.843115
0.866221 0.855196 0.847431
0.897271 0.863145 0.851590
0.912663 0.872480 0.855170
