其他预设/【236】赛博朋克风调色预设/【后期菌】视频调色预设/CUBE/Abandoned 05_S.cube
# LUT by SparkleStock. Enhanced with VOXCOLOR algorithms.
LUT_3D_SIZE 5
DOMAIN_MIN 0.000000 0.000000 0.000000
DOMAIN_MAX 0.903226 0.903226 0.903226
0.062561 0.070381 0.011730
0.095607 0.093211 0.034560
0.334500 0.162583 0.113140
0.680100 0.286318 0.288336
0.810015 0.432126 0.425062
0.071895 0.094725 0.032163
0.226796 0.177747 0.114348
0.552345 0.311329 0.226947
0.736993 0.419403 0.318852
0.831185 0.576127 0.450797
0.075174 0.187431 0.110995
0.179318 0.280695 0.164548
0.494919 0.453621 0.224851
0.688013 0.539069 0.281069
0.797170 0.654015 0.419704
0.089932 0.403746 0.349005
0.271963 0.489035 0.313713
0.529340 0.615805 0.393228
0.706510 0.688424 0.449833
0.802793 0.732192 0.485984
0.147069 0.561915 0.500363
0.424749 0.639770 0.430193
0.624708 0.717434 0.491175
0.769873 0.769148 0.541608
0.860675 0.803997 0.585456
0.070381 0.082111 0.025857
0.105779 0.092328 0.059786
0.369097 0.137015 0.182890
0.679107 0.236504 0.332860
0.823889 0.424305 0.476145
0.070381 0.108851 0.063741
0.240816 0.176880 0.182294
0.543752 0.278500 0.308235
0.723156 0.351921 0.358613
0.862371 0.502926 0.469786
0.079426 0.223647 0.194726
0.138050 0.313949 0.276591
0.546742 0.474778 0.342442
0.711372 0.529369 0.364291
0.837246 0.617816 0.440687
0.093211 0.427333 0.425575
0.174155 0.487653 0.472894
0.537301 0.641544 0.418377
0.707131 0.695172 0.448829
0.832068 0.722428 0.441138
0.158673 0.572982 0.546832
0.439189 0.671093 0.583744
0.646610 0.730995 0.536912
0.784557 0.783588 0.572352
0.871295 0.826714 0.567408
0.071264 0.094725 0.070886
0.113897 0.101031 0.109519
0.384647 0.147228 0.276301
0.693913 0.242534 0.434949
0.825277 0.414467 0.534292
0.068184 0.136043 0.147610
0.136187 0.192039 0.276641
0.561586 0.287027 0.448710
0.737041 0.368460 0.497440
0.865036 0.525814 0.569324
0.083678 0.275031 0.330675
0.132491 0.367913 0.428944
0.508252 0.469336 0.517354
0.729199 0.529593 0.515861
0.867741 0.579024 0.546599
0.101536 0.464147 0.500363
0.155170 0.506702 0.540230
0.359096 0.607443 0.581017
0.721636 0.699860 0.522960
0.852416 0.710218 0.497951
0.163063 0.583670 0.586193
0.347983 0.659926 0.636384
0.639955 0.764242 0.676320
0.783753 0.808069 0.594539
0.879128 0.849242 0.589140
0.073661 0.123230 0.208873
0.132153 0.140250 0.279466
0.452811 0.169553 0.380444
0.716023 0.270149 0.500847
0.842178 0.432061 0.612526
0.076688 0.207478 0.332490
0.121934 0.280703 0.425354
0.600495 0.327839 0.545796
0.779374 0.450528 0.622779
0.863119 0.581711 0.663093
0.089443 0.368730 0.490683
0.138673 0.433662 0.550618
0.332088 0.525487 0.624648
0.779354 0.613017 0.679683
0.867483 0.618778 0.683368
0.112131 0.499679 0.577982
0.197727 0.549934 0.618264
0.400857 0.644555 0.672779
0.664498 0.719238 0.711075
0.863461 0.740575 0.689999
0.183899 0.586510 0.628671
0.373877 0.666082 0.668402
0.584919 0.743945 0.718819
0.764889 0.819900 0.731986
0.889914 0.860668 0.698329
0.086022 0.184404 0.393025
0.149425 0.227065 0.461148
0.558171 0.217450 0.516109
0.741591 0.290798 0.584586
0.849494 0.440532 0.675726
0.090469 0.312565 0.508826
0.158363 0.398379 0.572908
0.501424 0.500120 0.685519
0.801762 0.490143 0.682861
0.864012 0.597541 0.720129
0.110869 0.452539 0.598578
0.193217 0.515112 0.640087
0.381064 0.611250 0.697489
0.754118 0.677788 0.750850
0.861622 0.704414 0.765816
0.145934 0.545330 0.646394
0.274711 0.604142 0.682457
0.479399 0.689559 0.725496
0.656425 0.755664 0.760638
0.851680 0.785745 0.792397
0.237045 0.622124 0.678419
0.442685 0.703313 0.718155
0.620393 0.763360 0.750653
0.756144 0.814601 0.783066
0.878048 0.867130 0.783214
