其他预设/【236】赛博朋克风调色预设/【后期菌】视频调色预设/CUBE/Abandoned 09_S.cube
# LUT by SparkleStock. Enhanced with VOXCOLOR algorithms.
LUT_3D_SIZE 8
DOMAIN_MIN 0.000000 0.000000 0.000000
DOMAIN_MAX 0.903226 0.903226 0.903226
0.015640 0.003910 0.003910
0.023965 0.020055 0.031785
0.052471 0.041119 0.056759
0.217198 0.080346 0.085895
0.581843 0.145934 0.138114
0.787942 0.221108 0.258443
0.849746 0.306625 0.391511
0.882919 0.421404 0.544761
0.023460 0.020055 0.023965
0.042055 0.041168 0.059977
0.166241 0.081355 0.090367
0.479295 0.151968 0.129789
0.711881 0.216632 0.205842
0.801861 0.290741 0.324462
0.863971 0.408861 0.466153
0.902823 0.568677 0.641166
0.019550 0.034308 0.036704
0.054835 0.063411 0.081196
0.305588 0.158559 0.117298
0.588390 0.252136 0.153782
0.705074 0.308912 0.212405
0.784536 0.387980 0.303993
0.855170 0.502975 0.426263
0.898709 0.637390 0.469550
0.014883 0.087409 0.070255
0.033608 0.110385 0.083218
0.217414 0.219875 0.107871
0.535024 0.350791 0.107846
0.680250 0.424065 0.144913
0.769132 0.505827 0.210167
0.847643 0.603416 0.309485
0.897440 0.717414 0.381706
0.003910 0.194242 0.129411
0.024608 0.214940 0.111000
0.104213 0.324157 0.119186
0.366985 0.466144 0.096364
0.578287 0.561158 0.083019
0.736261 0.644596 0.108400
0.839631 0.726833 0.181515
0.894270 0.801837 0.274230
0.000000 0.385709 0.245704
0.044773 0.408584 0.164373
0.249016 0.531155 0.154674
0.511413 0.650939 0.128747
0.698348 0.722838 0.130692
0.808949 0.776533 0.183745
0.871490 0.813233 0.253353
0.900768 0.844831 0.336457
0.001514 0.592691 0.390250
0.117257 0.601801 0.222609
0.452648 0.707206 0.159385
0.671364 0.769868 0.158295
0.799989 0.818165 0.202302
0.865403 0.841169 0.267223
0.896964 0.860846 0.340249
0.911498 0.868918 0.409800
0.041497 0.717939 0.549302
0.265445 0.717398 0.241643
0.616680 0.795030 0.177166
0.770845 0.834016 0.219542
0.842256 0.852647 0.272171
0.882980 0.866269 0.341746
0.903279 0.876991 0.419333
0.922019 0.888802 0.543821
0.016145 0.012235 0.020307
0.027387 0.023729 0.036468
0.053919 0.037396 0.070190
0.223505 0.077823 0.123861
0.575976 0.136348 0.182512
0.770446 0.195918 0.292706
0.847195 0.301368 0.439694
0.886967 0.427207 0.593069
0.020039 0.024469 0.033030
0.049179 0.045108 0.079939
0.183129 0.088212 0.129824
0.454258 0.141634 0.175992
0.659752 0.196264 0.251636
0.766215 0.265592 0.347017
0.842366 0.359926 0.448918
0.897228 0.523608 0.622072
0.023241 0.049728 0.060986
0.033236 0.071158 0.090225
0.370106 0.173194 0.193043
0.572465 0.247368 0.245803
0.662633 0.301144 0.298631
0.745298 0.354244 0.349435
0.833532 0.447252 0.446955
0.900339 0.598775 0.609454
0.014680 0.106223 0.101255
0.023299 0.141533 0.140522
0.188604 0.229173 0.186177
0.546995 0.356812 0.213291
0.645564 0.415704 0.256104
0.735439 0.467900 0.299234
0.829322 0.552397 0.376745
0.902514 0.679025 0.522163
0.006811 0.236053 0.200113
0.008540 0.291188 0.251771
0.099310 0.337649 0.180052
0.355631 0.461630 0.159361
0.589985 0.553220 0.137371
0.725293 0.614188 0.174308
0.826558 0.685976 0.234647
0.887807 0.761037 0.320767
0.002649 0.444108 0.345779
0.007225 0.495180 0.388780
0.164299 0.542079 0.232176
0.507580 0.649650 0.156884
0.678057 0.709661 0.174956
0.791381 0.755977 0.234739
0.858598 0.793529 0.309588
0.901887 0.816484 0.376965
0.011140 0.635559 0.504732
0.035830 0.647493 0.473495
0.339121 0.687118 0.244381
0.694090 0.784407 0.204996
0.794327 0.812122 0.250664
0.858770 0.841825 0.333279
0.890746 0.856676 0.406203
0.906750 0.854833 0.449454
0.067684 0.740114 0.649010
0.170087 0.727139 0.458123
0.564777 0.787720 0.277239
0.782008 0.835913 0.272789
0.850607 0.856018 0.344721
0.886861 0.867734 0.411860
0.905793 0.878512 0.516018
0.924797 0.894081 0.628752
0.020055 0.020559 0.033803
0.027875 0.027875 0.053825
0.063761 0.040549 0.095107
0.227313 0.073604 0.169223
0.543361 0.120960 0.244556
0.764481 0.194189 0.354555
0.844070 0.293324 0.490089
0.890967 0.433086 0.638248
0.026646 0.032355 0.060515
0.037022 0.046258 0.095591
0.178461 0.088557 0.173036
0.445434 0.146619 0.250565
0.642313 0.194103 0.321133
0.747761 0.251249 0.393756
0.834193 0.344790 0.485329
0.898432 0.492113 0.629870
0.022891 0.064136 0.086583
0.033490 0.091071 0.142780
0.301171 0.169068 0.248839
0.540574 0.244153 0.317366
0.645852 0.297660 0.362467
0.735434 0.347426 0.406794
0.818823 0.412320 0.464393
0.898731 0.565983 0.621063
0.014883 0.126510 0.153416
0.026422 0.180237 0.208606
0.126562 0.249613 0.280189
0.544814 0.354697 0.355709
0.648531 0.413649 0.395245
0.732809 0.458529 0.420473
0.821326 0.523992 0.468104
0.897277 0.635836 0.573741
0.007185 0.271520 0.273538
0.015348 0.346118 0.356803
0.063158 0.402080 0.379492
0.326500 0.447282 0.305370
0.644394 0.558752 0.322780
0.731850 0.597405 0.355868
0.818492 0.637246 0.404328
0.890275 0.694079 0.429359
0.004236 0.483408 0.435067
0.014404 0.543330 0.506743
0.054069 0.597577 0.551217
0.374534 0.632530 0.297078
0.676038 0.705198 0.250632
0.774198 0.737619 0.305189
0.839717 0.759937 0.369835
0.895572 0.769359 0.400580
0.025112 0.662417 0.611435
0.058703 0.691932 0.656310
0.162142 0.715072 0.618790
0.620813 0.773944 0.349449
0.801746 0.815122 0.329594
0.851416 0.838530 0.404483
0.865185 0.837164 0.434737
0.903374 0.835351 0.468250
0.104795 0.763953 0.731130
0.197788 0.771523 0.702987
0.442182 0.781328 0.505405
0.757304 0.830574 0.392957
0.862323 0.861542 0.431305
0.887277 0.873585 0.509587
0.890922 0.880229 0.568841
0.914592 0.892080 0.625747
0.023460 0.028127 0.070255
0.032086 0.033502 0.089126
0.065462 0.045281 0.129411
0.222137 0.074922 0.222788
0.545713 0.127336 0.312085
0.769242 0.200012 0.425408
0.850841 0.305197 0.558639
0.895369 0.438412 0.673252
0.023460 0.050200 0.105775
0.036462 0.071233 0.157052
0.162458 0.095866 0.243764
0.452724 0.145001 0.328504
0.648392 0.199035 0.402464
0.752287 0.255249 0.470586
0.846445 0.363926 0.574469
0.897333 0.510335 0.683747
0.019648 0.089932 0.150096
0.034050 0.128174 0.225854
0.152873 0.179601 0.327101
0.520429 0.243230 0.393349
0.650598 0.300125 0.449008
0.737771 0.350579 0.490322
0.825440 0.427363 0.556478
0.898112 0.571541 0.665974
0.018330 0.181019 0.258484
0.026639 0.231776 0.320635
0.126917 0.303195 0.403452
0.491622 0.343604 0.434458
0.650803 0.405724 0.474909
0.737617 0.459186 0.508031
0.820089 0.515313 0.538696
0.896770 0.600661 0.613109
0.009895 0.335175 0.393806
0.022187 0.395343 0.475333
0.071206 0.462164 0.525834
0.240023 0.492691 0.505749
0.664623 0.557206 0.513166
0.744117 0.598234 0.519115
0.816413 0.617630 0.530413
0.893318 0.653626 0.564751
0.016011 0.537730 0.570736
0.036236 0.607958 0.650564
0.081919 0.655600 0.683456
0.192517 0.671153 0.635414
0.640244 0.702679 0.458290
0.779936 0.735604 0.448860
0.821036 0.728882 0.457622
0.892561 0.738339 0.498393
0.045952 0.693303 0.712218
0.090773 0.723301 0.740711
0.176800 0.748470 0.748168
0.370301 0.773380 0.706293
0.762154 0.812253 0.490509
0.834802 0.830735 0.477444
0.849034 0.824047 0.504414
0.898056 0.821328 0.520330
0.133931 0.780516 0.789618
0.239606 0.801397 0.793842
0.392686 0.809040 0.757184
0.673726 0.835863 0.656396
0.863238 0.861204 0.538533
0.878109 0.880195 0.591421
0.876368 0.886164 0.627672
0.914069 0.894059 0.646639
0.028380 0.047047 0.139249
0.041119 0.055998 0.168629
0.083633 0.063192 0.211892
0.225706 0.085322 0.270942
0.561182 0.142805 0.376091
0.786721 0.232155 0.503915
0.863873 0.344416 0.622372
0.898103 0.463378 0.709712
0.024535 0.075939 0.183842
0.037941 0.105942 0.254613
0.149878 0.119816 0.326378
0.478459 0.162287 0.406117
0.689274 0.223631 0.501611
0.786899 0.297261 0.579258
0.858122 0.399340 0.653632
0.903547 0.563163 0.740555
0.028380 0.140014 0.272325
0.038657 0.185482 0.348440
0.110738 0.246051 0.451055
0.441725 0.243448 0.481777
0.691283 0.319649 0.556011
0.764415 0.379919 0.595740
0.849299 0.480185 0.663301
0.903299 0.608667 0.732550
0.025479 0.259338 0.401122
0.042689 0.321483 0.481990
0.099805 0.378128 0.555949
0.305447 0.407040 0.581485
0.674301 0.419049 0.582246
0.763979 0.499119 0.623161
0.835325 0.553892 0.650516
0.897677 0.606952 0.680551
0.024335 0.411163 0.553517
0.044176 0.487240 0.629399
0.096780 0.560077 0.685614
0.255649 0.573110 0.662269
0.648351 0.579006 0.633452
0.771710 0.621777 0.642966
0.825770 0.633721 0.635697
0.895064 0.658589 0.654411
0.040036 0.609775 0.695764
0.070757 0.658031 0.744151
0.124722 0.702087 0.774734
0.231300 0.718063 0.762858
0.499860 0.731577 0.717055
0.783384 0.749957 0.629123
0.830439 0.737599 0.595486
0.895789 0.742140 0.605541
0.084370 0.730540 0.788296
0.136468 0.751075 0.801130
0.234303 0.772950 0.806279
0.380975 0.791486 0.795229
0.613876 0.815707 0.758983
0.808859 0.827673 0.641524
0.843175 0.823463 0.598841
0.901939 0.821912 0.610852
0.180107 0.800217 0.823735
0.270035 0.811927 0.812792
0.418725 0.826078 0.813620
0.637086 0.842893 0.778794
0.812876 0.870631 0.759865
0.862404 0.883609 0.691554
0.875210 0.892330 0.685819
0.913613 0.896211 0.694502
0.033803 0.083120 0.265002
0.049317 0.096832 0.300795
0.111590 0.102561 0.332893
0.294464 0.116830 0.367872
0.599172 0.170696 0.451737
0.799672 0.260896 0.567143
0.866758 0.370887 0.663971
0.897485 0.486427 0.732444
0.034983 0.124528 0.318437
0.059113 0.178677 0.417229
0.157293 0.190443 0.467682
0.447682 0.186124 0.484416
0.745204 0.261886 0.579492
0.827049 0.345436 0.646874
0.878250 0.465851 0.714570
0.905366 0.595481 0.768533
0.039137 0.221958 0.434705
0.061413 0.276735 0.521354
0.114090 0.347268 0.610229
0.455816 0.319836 0.609672
0.758434 0.351805 0.640622
0.823830 0.447122 0.693759
0.878553 0.568311 0.746807
0.906481 0.648256 0.779447
0.048813 0.355674 0.581489
0.071554 0.421316 0.641477
0.124684 0.491482 0.700273
0.277453 0.537512 0.721540
0.712994 0.483133 0.692541
0.824926 0.571174 0.729442
0.865878 0.623062 0.746957
0.900662 0.646346 0.757386
0.060763 0.537266 0.713219
0.095453 0.596368 0.758058
0.160822 0.661234 0.791703
0.275761 0.689065 0.791146
0.556382 0.693928 0.768269
0.812334 0.676740 0.749424
0.850206 0.685614 0.746384
0.902360 0.683951 0.745440
0.084130 0.685942 0.793882
0.131365 0.714151 0.813892
0.212882 0.746212 0.826032
0.338480 0.771032 0.828008
0.576141 0.790366 0.811527
0.767187 0.773163 0.775649
0.839772 0.752472 0.743598
0.900566 0.750124 0.738064
0.142528 0.769258 0.841169
0.199088 0.780259 0.836338
0.311155 0.796333 0.832596
0.463697 0.816408 0.833420
0.638148 0.835628 0.825061
0.774699 0.836197 0.783581
0.849052 0.833426 0.722756
0.907714 0.831557 0.721895
0.219521 0.811842 0.850055
0.325467 0.822225 0.842284
0.457305 0.832299 0.836494
0.636276 0.854837 0.838700
0.785089 0.874035 0.838345
0.858874 0.889543 0.806518
0.877713 0.894948 0.773995
0.914562 0.904854 0.768680
0.053858 0.145051 0.418251
0.076476 0.178081 0.480039
0.175371 0.171079 0.499329
0.387101 0.165065 0.490907
0.627946 0.198706 0.529877
0.810804 0.289520 0.614308
0.872035 0.396601 0.696460
0.899568 0.513155 0.754916
0.055567 0.210639 0.491676
0.092218 0.277090 0.591575
0.160022 0.335004 0.656683
0.461951 0.296546 0.622878
0.792772 0.310314 0.630239
0.852429 0.392665 0.687248
0.886030 0.506734 0.742544
0.906949 0.615021 0.785172
0.069120 0.329019 0.620383
0.099197 0.388132 0.669682
0.171727 0.469809 0.728566
0.477808 0.482234 0.727830
0.771680 0.399722 0.686256
0.867590 0.517956 0.741983
0.897385 0.619789 0.780776
0.910429 0.688149 0.812101
0.084378 0.471548 0.719994
0.133903 0.552727 0.760664
0.200225 0.617379 0.788443
0.323635 0.674671 0.804620
0.751873 0.626247 0.777899
0.870601 0.633372 0.782031
0.886322 0.680194 0.805008
0.906658 0.698342 0.817516
0.115561 0.645112 0.805083
0.175872 0.692074 0.823742
0.260753 0.728563 0.836874
0.368596 0.763177 0.840296
0.564646 0.787124 0.840289
0.831945 0.743665 0.814913
0.871751 0.731871 0.815520
0.905118 0.726430 0.816830
0.155137 0.746270 0.843769
0.226297 0.765614 0.848030
0.325323 0.786469 0.848200
0.455481 0.806962 0.849605
0.611678 0.823584 0.846495
0.758643 0.814207 0.837978
0.858840 0.788855 0.821131
0.911232 0.784494 0.823925
0.215469 0.798329 0.865639
0.290178 0.805539 0.857810
0.411762 0.820578 0.854659
0.564918 0.838533 0.852606
0.707511 0.852748 0.853898
0.801814 0.858317 0.849289
0.861566 0.854950 0.827762
0.915046 0.850886 0.824321
0.295672 0.830753 0.867152
0.385626 0.832627 0.855796
0.542395 0.849379 0.855977
0.688825 0.864095 0.857542
0.801743 0.883768 0.867539
0.865402 0.892095 0.865382
0.889933 0.904137 0.851243
0.921375 0.908106 0.846691
0.087031 0.234100 0.595213
0.125224 0.285675 0.647306
0.213862 0.295322 0.654214
0.474258 0.244141 0.608787
0.718330 0.268904 0.623157
0.822437 0.326550 0.665334
0.873858 0.426311 0.723529
0.901879 0.540297 0.774063
0.096820 0.328674 0.664170
0.143894 0.391277 0.712650
0.225451 0.450662 0.744231
0.521732 0.418368 0.715035
0.796863 0.356528 0.683203
0.861586 0.435084 0.723892
0.887548 0.535321 0.765735
0.906150 0.629258 0.798766
0.110646 0.444015 0.734991
0.171359 0.519114 0.773704
0.259319 0.595475 0.795378
0.415576 0.650866 0.813489
0.770584 0.571620 0.778804
0.871669 0.553991 0.767022
0.895514 0.631751 0.800971
0.911756 0.710621 0.830173
0.147789 0.604099 0.798358
0.217067 0.663978 0.821049
0.308283 0.712755 0.836205
0.438775 0.753422 0.842068
0.758532 0.763693 0.844678
0.868506 0.690693 0.810779
0.903230 0.725721 0.827897
0.915690 0.772799 0.850240
0.205895 0.723481 0.849262
0.276394 0.752991 0.854579
0.382289 0.787106 0.860569
0.505096 0.810363 0.863942
0.637757 0.826245 0.867234
0.856372 0.819338 0.860162
0.894726 0.788673 0.852016
0.916478 0.798064 0.866241
0.257116 0.787307 0.868918
0.341836 0.804754 0.867388
0.446107 0.819787 0.867230
0.570810 0.834514 0.868117
0.699799 0.850759 0.870826
0.799519 0.862955 0.875311
0.885777 0.843053 0.870744
0.916797 0.833553 0.875144
0.318103 0.823962 0.874395
0.406157 0.830169 0.871523
0.534259 0.844995 0.866909
0.669114 0.860313 0.871959
0.767929 0.871878 0.874171
0.838453 0.882024 0.879533
0.883200 0.883794 0.877508
0.921470 0.880474 0.884903
0.377393 0.842052 0.876445
0.491779 0.853073 0.871858
0.630876 0.865526 0.872716
0.741175 0.874740 0.872291
0.823017 0.890535 0.879690
0.879116 0.900653 0.883040
0.908048 0.910364 0.888783
0.930033 0.918132 0.892527
