其他预设/【236】赛博朋克风调色预设/【后期菌】视频调色预设/CUBE/Abandoned 03_S.cube
# LUT by SparkleStock. Enhanced with VOXCOLOR algorithms.
LUT_3D_SIZE 5
DOMAIN_MIN 0.000000 0.000000 0.000000
DOMAIN_MAX 0.903226 0.903226 0.903226
0.011730 0.011730 0.011730
0.029136 0.018037 0.025857
0.363132 0.025226 0.059534
0.820105 0.126131 0.204459
0.908145 0.432252 0.537193
0.019550 0.017154 0.019550
0.205761 0.051193 0.065751
0.672280 0.183163 0.134745
0.830692 0.402562 0.338394
0.956600 0.702636 0.579801
0.039605 0.068868 0.033929
0.177357 0.190552 0.047641
0.637785 0.453983 0.059925
0.855894 0.639217 0.180872
0.978213 0.838419 0.435853
0.133699 0.566834 0.213666
0.542287 0.709688 0.094371
0.879326 0.817379 0.204646
0.971027 0.891569 0.366611
0.986501 0.934665 0.560812
0.335635 0.896036 0.685776
0.879220 0.909134 0.305974
0.970897 0.945187 0.458341
0.986725 0.964147 0.625932
0.989089 0.973229 0.754806
0.015640 0.015640 0.015640
0.038767 0.019550 0.036956
0.351654 0.019550 0.103159
0.767273 0.099770 0.276354
0.890108 0.453535 0.648136
0.021019 0.019550 0.026740
0.203898 0.064761 0.117825
0.573486 0.179009 0.267195
0.751267 0.331370 0.384898
0.920258 0.605511 0.643236
0.057101 0.110670 0.099607
0.116476 0.253900 0.214169
0.605937 0.461135 0.312126
0.776197 0.573985 0.389458
0.942180 0.725593 0.551018
0.123096 0.626921 0.452990
0.261903 0.753677 0.585360
0.810751 0.811335 0.310235
0.903627 0.851148 0.448457
0.959447 0.858437 0.540377
0.394758 0.888847 0.796372
0.730209 0.911018 0.669037
0.965751 0.946347 0.586689
0.975570 0.956897 0.727605
0.978250 0.957423 0.731081
0.020433 0.019550 0.033929
0.050363 0.019550 0.056128
0.359759 0.015640 0.165053
0.751917 0.118043 0.403730
0.875916 0.466812 0.716067
0.035101 0.032074 0.089248
0.100762 0.078629 0.255129
0.579272 0.184266 0.415892
0.757200 0.358414 0.566671
0.916502 0.642616 0.746834
0.057874 0.202274 0.329780
0.115801 0.382723 0.531082
0.560736 0.440583 0.548058
0.769926 0.568699 0.583735
0.918626 0.633117 0.636827
0.150015 0.713716 0.715640
0.293876 0.781677 0.797332
0.558689 0.806093 0.755518
0.852916 0.814157 0.617551
0.937885 0.798286 0.595516
0.455501 0.890275 0.859080
0.678467 0.903010 0.864296
0.892030 0.928668 0.809416
0.936125 0.945840 0.743789
0.955979 0.937434 0.711927
0.038470 0.022830 0.154132
0.088646 0.020820 0.242408
0.429733 0.016523 0.284507
0.751417 0.169272 0.549428
0.880933 0.530252 0.778388
0.040757 0.077664 0.368328
0.096863 0.197494 0.590882
0.633573 0.200654 0.583811
0.827381 0.494833 0.749971
0.919196 0.727890 0.837688
0.076403 0.436764 0.700570
0.218792 0.633774 0.803570
0.509346 0.713655 0.835556
0.859799 0.713663 0.803061
0.922793 0.690659 0.791964
0.280365 0.808623 0.867250
0.481834 0.843554 0.893925
0.709412 0.870510 0.896916
0.828306 0.822486 0.821529
0.927641 0.794277 0.782777
0.555433 0.892537 0.905814
0.726839 0.900435 0.902047
0.856942 0.917440 0.906164
0.912473 0.935427 0.869388
0.956695 0.939085 0.830239
0.048687 0.055372 0.484596
0.139753 0.107313 0.578015
0.555840 0.075174 0.508061
0.759029 0.251131 0.661847
0.886658 0.589578 0.816069
0.077856 0.299944 0.718374
0.246183 0.520370 0.819690
0.664412 0.577558 0.825826
0.851344 0.588228 0.808975
0.917505 0.757442 0.865616
0.250411 0.711657 0.870537
0.462824 0.800449 0.903910
0.698514 0.841928 0.907816
0.885840 0.807696 0.876315
0.933492 0.819053 0.892239
0.488665 0.861668 0.923220
0.666334 0.876097 0.924839
0.794182 0.884685 0.919876
0.884916 0.900587 0.923727
0.943232 0.867671 0.908277
0.678602 0.906550 0.929420
0.794123 0.912433 0.924778
0.873119 0.923898 0.927628
0.930888 0.938697 0.931250
0.966322 0.952409 0.932120
