其他预设/【236】赛博朋克风调色预设/【后期菌】视频调色预设/CUBE/Abandoned 02_S.cube
# LUT by SparkleStock. Enhanced with VOXCOLOR algorithms.
LUT_3D_SIZE 32
0.007820 0.035191 0.058651
0.015893 0.055372 0.084886
0.024091 0.074796 0.110365
0.034182 0.082868 0.124492
0.044272 0.090688 0.138114
0.054363 0.096743 0.148204
0.066723 0.103932 0.159430
0.088923 0.116041 0.175575
0.112635 0.128149 0.192224
0.140889 0.140258 0.210387
0.171665 0.151736 0.226658
0.207990 0.161826 0.238766
0.249614 0.174187 0.253902
0.300066 0.190332 0.274083
0.352285 0.208243 0.295147
0.406773 0.228424 0.317346
0.461262 0.248605 0.338536
0.515751 0.268786 0.358717
0.564563 0.287831 0.380033
0.608962 0.305994 0.402233
0.650837 0.326680 0.428216
0.691199 0.348879 0.456469
0.723237 0.365528 0.477785
0.751490 0.379655 0.495948
0.775203 0.396809 0.523192
0.797402 0.414972 0.553464
0.816321 0.431495 0.575537
0.834484 0.447640 0.595718
0.849116 0.465550 0.610601
0.863242 0.483713 0.624728
0.873585 0.499984 0.640747
0.883675 0.516129 0.656891
0.011856 0.053354 0.080850
0.022012 0.069368 0.102919
0.032163 0.084821 0.124361
0.042254 0.091852 0.136405
0.052995 0.099282 0.148855
0.068294 0.109502 0.164154
0.085082 0.119686 0.179025
0.108322 0.129712 0.192045
0.133077 0.139998 0.205570
0.162372 0.151065 0.220608
0.197444 0.162803 0.235707
0.245228 0.176018 0.250940
0.292840 0.189551 0.266857
0.340168 0.203612 0.283913
0.391540 0.220807 0.301852
0.448112 0.242030 0.320927
0.500517 0.261169 0.340034
0.548756 0.278225 0.359173
0.593663 0.294146 0.378862
0.635978 0.309184 0.398978
0.673817 0.328047 0.422226
0.708971 0.349205 0.447355
0.738665 0.369109 0.473423
0.765877 0.388444 0.499919
0.788548 0.409243 0.530028
0.809706 0.430531 0.561341
0.826737 0.452718 0.586148
0.842817 0.475112 0.609454
0.855365 0.491981 0.623817
0.867409 0.508061 0.636902
0.875668 0.521272 0.652855
0.883675 0.534292 0.669000
0.015893 0.070886 0.102166
0.028001 0.082929 0.120199
0.040004 0.094619 0.137764
0.050420 0.100999 0.148310
0.062081 0.108339 0.160044
0.082457 0.122400 0.180095
0.103578 0.135351 0.198291
0.127926 0.143489 0.208446
0.153917 0.152131 0.219106
0.184839 0.162286 0.231280
0.224286 0.174334 0.245264
0.282485 0.190544 0.263232
0.335582 0.205264 0.279710
0.380176 0.217503 0.293707
0.430722 0.234014 0.308643
0.488921 0.256018 0.324788
0.539048 0.273953 0.341844
0.581103 0.287819 0.359812
0.622059 0.300733 0.377779
0.662161 0.312907 0.395747
0.696118 0.330085 0.416441
0.726390 0.350266 0.438770
0.753797 0.373133 0.469245
0.779902 0.397220 0.503422
0.801515 0.421453 0.536135
0.821631 0.445736 0.568360
0.836934 0.473297 0.595982
0.851125 0.501616 0.622543
0.861558 0.517858 0.636800
0.871453 0.532376 0.649299
0.877747 0.542804 0.664972
0.883802 0.552959 0.680856
0.019929 0.078958 0.110239
0.032037 0.089960 0.126188
0.044366 0.100999 0.142256
0.059990 0.112586 0.160093
0.076598 0.124353 0.177947
0.100099 0.137373 0.195914
0.124150 0.149673 0.212613
0.150580 0.158852 0.223810
0.180738 0.168536 0.235511
0.222076 0.179733 0.248727
0.267056 0.192822 0.262451
0.320048 0.210074 0.277293
0.371062 0.226227 0.291038
0.418780 0.240549 0.302951
0.468805 0.256864 0.316716
0.521797 0.275743 0.332860
0.566716 0.290033 0.348354
0.603562 0.299733 0.363197
0.639896 0.311410 0.378040
0.675832 0.324625 0.392883
0.708227 0.342194 0.413706
0.738498 0.362375 0.438119
0.764473 0.383809 0.467813
0.788495 0.405813 0.499907
0.808806 0.430307 0.531318
0.827881 0.455631 0.562501
0.843834 0.484234 0.594160
0.859068 0.513594 0.625928
0.866896 0.535435 0.646305
0.873666 0.556202 0.665053
0.879765 0.567997 0.677211
0.885820 0.579195 0.688929
0.023460 0.087283 0.118311
0.035569 0.096983 0.132308
0.048190 0.107094 0.146935
0.068501 0.123369 0.171022
0.089700 0.139188 0.194181
0.117107 0.151817 0.210847
0.144843 0.163995 0.226682
0.174008 0.174216 0.238921
0.208430 0.184973 0.251567
0.258622 0.197342 0.265433
0.308224 0.211522 0.278669
0.356528 0.229685 0.290517
0.405589 0.247140 0.301706
0.455912 0.263415 0.311796
0.504895 0.279291 0.324251
0.552158 0.294655 0.339745
0.591934 0.305624 0.353416
0.624224 0.312199 0.365264
0.656513 0.323095 0.377478
0.688803 0.337352 0.389977
0.719668 0.355149 0.410899
0.749679 0.375070 0.436874
0.774320 0.395080 0.465624
0.796519 0.415130 0.495635
0.815593 0.440015 0.526134
0.833626 0.466511 0.556796
0.849701 0.495863 0.591108
0.865325 0.525874 0.626262
0.870924 0.553037 0.652758
0.875090 0.579793 0.678016
0.881149 0.592695 0.687163
0.887333 0.604673 0.695235
0.023460 0.097373 0.126384
0.035569 0.103948 0.139338
0.048255 0.111195 0.152924
0.069608 0.128511 0.175969
0.092890 0.145763 0.198738
0.129671 0.162559 0.219570
0.166392 0.178317 0.238986
0.202848 0.189579 0.252267
0.242217 0.201639 0.265173
0.290326 0.216091 0.276956
0.338170 0.231703 0.288108
0.385433 0.249866 0.297873
0.433452 0.267712 0.307760
0.482733 0.285028 0.317851
0.527029 0.298756 0.328027
0.564917 0.307870 0.338312
0.600006 0.317798 0.348338
0.632296 0.328539 0.358103
0.664586 0.341844 0.371164
0.696875 0.357143 0.386788
0.726439 0.374028 0.407579
0.754367 0.391865 0.431471
0.778356 0.410508 0.458137
0.800555 0.429518 0.486065
0.818848 0.455704 0.518387
0.835839 0.484283 0.552174
0.848334 0.512333 0.579455
0.859792 0.540261 0.605235
0.865781 0.570809 0.637850
0.870989 0.601731 0.671441
0.878089 0.613917 0.681109
0.885315 0.624854 0.689181
0.022704 0.107464 0.134456
0.035203 0.111695 0.146565
0.048333 0.116798 0.159316
0.070922 0.134960 0.181710
0.096165 0.153327 0.204284
0.139977 0.173117 0.228110
0.183814 0.191687 0.250082
0.227756 0.204967 0.264013
0.272415 0.219061 0.276984
0.319222 0.235597 0.287075
0.365663 0.252519 0.296412
0.411298 0.270291 0.304094
0.457543 0.288063 0.312313
0.504806 0.305836 0.321427
0.544806 0.317855 0.329203
0.575468 0.322477 0.335257
0.606553 0.331558 0.342320
0.638061 0.345099 0.350393
0.669899 0.360105 0.363701
0.701994 0.376249 0.381083
0.730304 0.392394 0.401476
0.756344 0.408539 0.423675
0.779609 0.426206 0.448246
0.801613 0.444564 0.473895
0.819662 0.471710 0.507699
0.836393 0.501787 0.544220
0.845771 0.528742 0.565190
0.853453 0.554977 0.582572
0.859711 0.587593 0.618011
0.865765 0.621119 0.656029
0.873162 0.633590 0.667804
0.880648 0.644657 0.677829
0.018667 0.117554 0.142528
0.033250 0.122827 0.154637
0.048463 0.128906 0.167453
0.073136 0.147069 0.190889
0.099810 0.165175 0.214114
0.140498 0.182882 0.235857
0.183358 0.200931 0.255941
0.235633 0.220461 0.268830
0.287062 0.239763 0.281020
0.335953 0.258382 0.291111
0.382523 0.276085 0.299798
0.423992 0.291774 0.305396
0.465290 0.307463 0.310360
0.506303 0.323152 0.314266
0.543699 0.335367 0.319112
0.576444 0.343114 0.325166
0.606488 0.352195 0.332230
0.633830 0.362611 0.340302
0.663259 0.376249 0.351267
0.694312 0.392394 0.364483
0.721581 0.408539 0.383313
0.746579 0.424684 0.405512
0.768802 0.443066 0.427935
0.789765 0.462466 0.450459
0.809897 0.489092 0.484263
0.829752 0.518127 0.521825
0.838024 0.544887 0.539606
0.843623 0.571122 0.552821
0.849620 0.600092 0.576802
0.855674 0.629452 0.602321
0.860142 0.646545 0.623080
0.864504 0.662820 0.643522
0.015136 0.129158 0.150601
0.030760 0.134692 0.162449
0.047047 0.140998 0.175070
0.073282 0.158901 0.199287
0.101064 0.176551 0.222935
0.139668 0.192436 0.242595
0.181959 0.209931 0.260693
0.240223 0.234409 0.272020
0.297120 0.258138 0.283234
0.349917 0.279621 0.294106
0.398278 0.298968 0.302841
0.436882 0.313615 0.306877
0.474437 0.328067 0.309400
0.510242 0.342194 0.309400
0.544708 0.354327 0.311821
0.577453 0.363897 0.317354
0.606325 0.373239 0.324027
0.631323 0.382353 0.331839
0.658556 0.394689 0.341079
0.687525 0.409532 0.351430
0.713524 0.425351 0.368210
0.737742 0.441756 0.388846
0.759542 0.460936 0.410065
0.780244 0.481378 0.431548
0.801678 0.506897 0.464895
0.823356 0.534109 0.502198
0.831123 0.559893 0.517390
0.835680 0.585347 0.527481
0.840636 0.611712 0.542413
0.845649 0.638208 0.558037
0.847854 0.657563 0.581107
0.849872 0.676442 0.604673
0.013118 0.145303 0.158673
0.026658 0.148753 0.169480
0.040993 0.153042 0.181124
0.067228 0.169903 0.205342
0.095140 0.186511 0.228729
0.134785 0.201354 0.246306
0.177727 0.218199 0.262125
0.234950 0.243718 0.270328
0.293410 0.269530 0.279979
0.355580 0.296221 0.293975
0.410712 0.319800 0.304859
0.450358 0.336530 0.308895
0.487782 0.352285 0.311418
0.521504 0.366411 0.311418
0.552064 0.377633 0.312928
0.578560 0.385119 0.316378
0.605869 0.395503 0.321488
0.633993 0.408783 0.328259
0.659662 0.420013 0.337629
0.683424 0.429648 0.349021
0.707470 0.444165 0.362286
0.731687 0.461612 0.376673
0.754920 0.481834 0.399519
0.777705 0.503317 0.426210
0.798097 0.525971 0.457734
0.817693 0.549017 0.490870
0.826762 0.571480 0.505282
0.833402 0.593810 0.515372
0.834973 0.620696 0.528482
0.835819 0.648233 0.542023
0.837764 0.662771 0.547385
0.839782 0.676442 0.552203
0.011100 0.161448 0.168637
0.022557 0.164117 0.177751
0.034857 0.167527 0.187687
0.059790 0.182044 0.209952
0.086611 0.196512 0.231329
0.126648 0.210639 0.246497
0.169773 0.227036 0.260018
0.226279 0.253272 0.266397
0.285407 0.280597 0.274893
0.352394 0.311194 0.289736
0.411265 0.338109 0.301405
0.452278 0.356923 0.306092
0.490386 0.373979 0.309266
0.523652 0.388106 0.309917
0.552646 0.398986 0.311166
0.576147 0.405691 0.313184
0.602545 0.416791 0.317220
0.631840 0.432284 0.323274
0.656924 0.443201 0.332551
0.678733 0.450557 0.344334
0.702250 0.464667 0.355670
0.726793 0.482830 0.366737
0.751112 0.503097 0.390335
0.775329 0.524319 0.419630
0.794761 0.544761 0.449414
0.812598 0.564942 0.479360
0.823031 0.585916 0.496611
0.831754 0.607074 0.510933
0.830794 0.632731 0.522179
0.828450 0.659032 0.532986
0.829891 0.669830 0.524568
0.831583 0.679595 0.514868
0.009081 0.177593 0.182764
0.018456 0.182345 0.188753
0.028542 0.187382 0.195369
0.049309 0.196691 0.211384
0.072355 0.206603 0.226902
0.111349 0.220730 0.238945
0.153628 0.237127 0.250122
0.210135 0.263362 0.257544
0.267960 0.290948 0.265779
0.329740 0.322587 0.276455
0.385681 0.350869 0.285911
0.428777 0.371766 0.292681
0.469359 0.390124 0.297938
0.505750 0.404251 0.300672
0.538324 0.416042 0.303093
0.565992 0.424830 0.305111
0.592910 0.435930 0.309148
0.619081 0.449341 0.315202
0.645727 0.461689 0.323893
0.672743 0.473212 0.334634
0.698865 0.488885 0.347532
0.724449 0.507048 0.361724
0.749093 0.525166 0.384151
0.773311 0.543264 0.410321
0.791962 0.562924 0.438542
0.808758 0.583105 0.467446
0.820687 0.606618 0.495505
0.831494 0.630900 0.523367
0.829883 0.651480 0.532660
0.826497 0.671531 0.539301
0.826896 0.680962 0.525739
0.827547 0.689686 0.510832
0.006307 0.193738 0.196134
0.013598 0.199792 0.198998
0.021593 0.205822 0.202343
0.040146 0.211485 0.212889
0.060978 0.218207 0.223476
0.097760 0.232334 0.234348
0.137507 0.248438 0.244255
0.190108 0.273111 0.249984
0.243995 0.299590 0.256006
0.301738 0.331489 0.262906
0.355556 0.360845 0.270051
0.400735 0.384607 0.277733
0.443058 0.404609 0.283755
0.480621 0.418345 0.287010
0.516190 0.431340 0.290578
0.549196 0.443384 0.294549
0.578588 0.455265 0.299171
0.604368 0.466983 0.304444
0.632455 0.480055 0.313086
0.662335 0.494182 0.324349
0.690182 0.510099 0.338418
0.716808 0.527090 0.354172
0.741778 0.544037 0.376014
0.765995 0.560963 0.400621
0.784744 0.579744 0.426791
0.801670 0.599144 0.453482
0.815634 0.623780 0.487684
0.828914 0.649625 0.523620
0.830119 0.668007 0.536086
0.829598 0.685324 0.545200
0.827734 0.693608 0.530207
0.825781 0.701290 0.513606
0.002270 0.209882 0.208243
0.007478 0.215937 0.207982
0.013586 0.221901 0.208137
0.033181 0.226524 0.214517
0.054403 0.232334 0.221718
0.087018 0.246460 0.234673
0.121428 0.261783 0.245101
0.163613 0.282290 0.244581
0.209166 0.305384 0.245134
0.264827 0.336241 0.248910
0.317863 0.366183 0.253581
0.365126 0.394111 0.260221
0.407969 0.416327 0.264811
0.443449 0.429021 0.265982
0.481036 0.443709 0.270657
0.521333 0.460961 0.279836
0.556454 0.474925 0.286021
0.586400 0.485601 0.289211
0.615724 0.498218 0.298699
0.644563 0.512345 0.313086
0.672670 0.526309 0.327677
0.700338 0.540175 0.342389
0.725633 0.557577 0.364621
0.749850 0.576587 0.390270
0.770161 0.594326 0.413576
0.789171 0.611643 0.436101
0.806064 0.635042 0.468675
0.822469 0.659845 0.503569
0.832267 0.680832 0.527753
0.841120 0.701273 0.550408
0.834960 0.708776 0.540167
0.827799 0.715416 0.527733
0.000883 0.230442 0.223000
0.004463 0.235585 0.220071
0.008996 0.240658 0.217519
0.027810 0.244695 0.220644
0.047543 0.249764 0.224746
0.073714 0.262068 0.235682
0.101532 0.275471 0.243983
0.136490 0.293634 0.240858
0.176331 0.314710 0.238905
0.230820 0.344525 0.240467
0.283559 0.374199 0.243291
0.332449 0.403559 0.248889
0.376042 0.427475 0.252901
0.410805 0.442318 0.254268
0.448189 0.458499 0.259338
0.488942 0.476402 0.269168
0.525918 0.491310 0.275776
0.559119 0.503223 0.279161
0.590306 0.516125 0.289211
0.619927 0.529796 0.304444
0.650117 0.543630 0.319556
0.680649 0.557561 0.334594
0.707466 0.575163 0.356703
0.732595 0.594432 0.382027
0.755038 0.612725 0.404861
0.776586 0.630693 0.426865
0.795754 0.652998 0.459236
0.814372 0.676304 0.493999
0.827864 0.697445 0.524035
0.840624 0.718277 0.553395
0.835807 0.724400 0.547906
0.829817 0.729543 0.540094
0.002901 0.256677 0.241163
0.005440 0.259737 0.236150
0.008801 0.262858 0.231516
0.024490 0.266894 0.232558
0.040317 0.271443 0.233925
0.057113 0.279580 0.237570
0.076728 0.289597 0.240337
0.108562 0.307760 0.239295
0.146060 0.328576 0.238644
0.200549 0.357350 0.239165
0.253613 0.385656 0.240947
0.303545 0.412933 0.245504
0.348179 0.437891 0.250037
0.383984 0.458983 0.254529
0.418308 0.476402 0.259078
0.450728 0.489096 0.263700
0.484580 0.503483 0.269266
0.519864 0.519563 0.275776
0.553720 0.533702 0.286021
0.586466 0.546331 0.299171
0.621082 0.562379 0.314803
0.656822 0.580476 0.331925
0.686699 0.597948 0.353253
0.713911 0.615134 0.376494
0.739219 0.636031 0.401931
0.763891 0.658165 0.428102
0.784492 0.679558 0.462100
0.804152 0.700781 0.497905
0.815040 0.718928 0.526248
0.824675 0.736635 0.553525
0.828450 0.740610 0.552788
0.831836 0.743670 0.550184
0.003910 0.283921 0.258317
0.006970 0.283856 0.248617
0.010656 0.284015 0.239523
0.023741 0.287530 0.239523
0.037160 0.291754 0.239653
0.052914 0.300933 0.240695
0.071390 0.311796 0.241932
0.101662 0.329959 0.244015
0.138508 0.350645 0.245968
0.195080 0.378898 0.247531
0.249252 0.406358 0.250029
0.298142 0.432073 0.254586
0.342515 0.457226 0.259704
0.379362 0.481443 0.265759
0.411538 0.499024 0.269591
0.437708 0.508073 0.270568
0.469737 0.521939 0.275353
0.507625 0.540623 0.283946
0.543792 0.556194 0.294809
0.578621 0.569344 0.307439
0.614019 0.585912 0.323852
0.649759 0.604531 0.342536
0.681068 0.622165 0.363994
0.710363 0.639351 0.386714
0.736191 0.660639 0.413975
0.760864 0.683294 0.442749
0.781464 0.702246 0.475120
0.801125 0.720344 0.508321
0.810190 0.735821 0.534060
0.817741 0.750924 0.558733
0.827734 0.754737 0.561251
0.837890 0.757796 0.562293
0.003910 0.312175 0.274462
0.009053 0.307943 0.257470
0.014562 0.304131 0.241541
0.025564 0.306605 0.241541
0.038071 0.310698 0.241932
0.061117 0.326127 0.245057
0.085517 0.342068 0.248767
0.115788 0.360231 0.255017
0.153677 0.380916 0.260876
0.214415 0.409170 0.265563
0.270474 0.436304 0.270535
0.316239 0.460977 0.276134
0.359051 0.485479 0.281903
0.396939 0.509696 0.287958
0.427878 0.526366 0.290879
0.449882 0.533332 0.289772
0.481390 0.546677 0.294036
0.522403 0.566403 0.303671
0.560523 0.583601 0.315576
0.596393 0.598835 0.329247
0.628927 0.614231 0.346702
0.659459 0.629724 0.366428
0.690573 0.647814 0.388928
0.721951 0.667084 0.412689
0.745956 0.686549 0.440991
0.767505 0.706079 0.470807
0.786672 0.721060 0.498296
0.805291 0.734991 0.525247
0.813315 0.748125 0.547471
0.819825 0.761145 0.569019
0.833658 0.766780 0.573295
0.847980 0.771923 0.576420
0.002775 0.340428 0.294012
0.008243 0.332616 0.272073
0.014294 0.325455 0.251323
0.029071 0.328059 0.248393
0.045794 0.332608 0.246334
0.076130 0.350771 0.250371
0.107663 0.369373 0.256042
0.144380 0.389880 0.268802
0.186092 0.411884 0.280325
0.242794 0.438379 0.288137
0.295102 0.464346 0.295399
0.337743 0.489149 0.301454
0.377454 0.512854 0.306629
0.412282 0.534727 0.310340
0.441728 0.550449 0.312313
0.464252 0.558261 0.312053
0.496998 0.572257 0.317847
0.539964 0.592438 0.329695
0.578206 0.610349 0.342825
0.612774 0.626494 0.356951
0.644494 0.641011 0.374130
0.674505 0.654552 0.393139
0.703263 0.671449 0.415729
0.731451 0.689873 0.439946
0.753634 0.707661 0.467825
0.773815 0.725238 0.496925
0.791404 0.738372 0.522057
0.808395 0.750481 0.546274
0.816842 0.761051 0.562859
0.824068 0.771402 0.578352
0.837459 0.778275 0.584753
0.851260 0.784915 0.590546
0.000757 0.368682 0.316211
0.005184 0.357745 0.291148
0.010778 0.347719 0.267142
0.033889 0.351365 0.259004
0.058814 0.356825 0.252389
0.096442 0.374988 0.256425
0.136047 0.394372 0.263659
0.184221 0.419045 0.284751
0.231923 0.443392 0.303305
0.278209 0.466763 0.314242
0.322379 0.490907 0.323653
0.361895 0.516752 0.329707
0.397309 0.539545 0.333320
0.425888 0.557252 0.332864
0.453641 0.571997 0.333861
0.480332 0.582934 0.336726
0.515681 0.598493 0.345644
0.559689 0.618674 0.360617
0.596629 0.636584 0.375114
0.628073 0.652729 0.389241
0.660574 0.666595 0.405117
0.693710 0.679095 0.422043
0.718431 0.693518 0.443982
0.739328 0.708817 0.468199
0.759688 0.725043 0.494516
0.779869 0.741578 0.521532
0.795766 0.754517 0.546274
0.810674 0.766626 0.570492
0.820683 0.774462 0.579785
0.829992 0.781688 0.586946
0.839607 0.789342 0.595754
0.849242 0.797023 0.604673
0.000000 0.401980 0.337149
0.004036 0.385315 0.307008
0.009623 0.370146 0.278282
0.038462 0.377438 0.270796
0.070044 0.386169 0.264668
0.120822 0.404983 0.268053
0.170940 0.424700 0.274856
0.218203 0.448331 0.296469
0.264408 0.471605 0.316195
0.307439 0.493804 0.330256
0.348598 0.516857 0.343036
0.385640 0.541791 0.352997
0.419850 0.563672 0.359930
0.449341 0.580468 0.361818
0.479714 0.595783 0.366354
0.511222 0.609194 0.374296
0.547222 0.625989 0.385689
0.587715 0.646170 0.400532
0.622091 0.663715 0.416070
0.651712 0.679209 0.432150
0.681821 0.691773 0.447864
0.712222 0.702579 0.463357
0.734658 0.716116 0.482611
0.753471 0.730894 0.503573
0.770869 0.743767 0.524096
0.787795 0.756006 0.544472
0.800860 0.766552 0.563209
0.813034 0.776708 0.581567
0.822815 0.784414 0.589102
0.832255 0.791771 0.595091
0.840412 0.798578 0.605536
0.848485 0.805348 0.616277
0.000000 0.438306 0.357330
0.004036 0.414349 0.320939
0.009883 0.392671 0.286615
0.042889 0.405170 0.283295
0.080199 0.418589 0.280683
0.147643 0.438444 0.283026
0.209740 0.458227 0.288202
0.248670 0.477692 0.305649
0.288885 0.497840 0.323030
0.332958 0.520039 0.340217
0.374183 0.542442 0.357098
0.409141 0.565292 0.373308
0.444002 0.586262 0.386491
0.478701 0.604099 0.394628
0.514282 0.620912 0.405414
0.550998 0.636405 0.419606
0.586478 0.654243 0.433082
0.620720 0.674424 0.445841
0.651777 0.691382 0.462226
0.680356 0.705834 0.481431
0.706168 0.716706 0.497665
0.730320 0.725430 0.512117
0.751518 0.739031 0.527465
0.771374 0.754851 0.543219
0.785126 0.763297 0.555409
0.796844 0.769287 0.566411
0.806394 0.776122 0.575773
0.815443 0.783153 0.584757
0.823922 0.792291 0.593854
0.832320 0.801731 0.602968
0.840412 0.806715 0.614585
0.848485 0.811402 0.626368
0.000000 0.473244 0.383061
0.004752 0.446293 0.344001
0.011755 0.421685 0.307077
0.052507 0.432231 0.302194
0.097963 0.444161 0.298443
0.176344 0.465774 0.302609
0.247510 0.487412 0.309424
0.287416 0.509155 0.327717
0.327014 0.530117 0.345441
0.365683 0.548736 0.361456
0.403437 0.568250 0.377694
0.439177 0.589733 0.394425
0.474868 0.609702 0.409471
0.510478 0.627149 0.421710
0.545404 0.643086 0.435657
0.579451 0.657083 0.451802
0.613336 0.674171 0.467361
0.647057 0.694352 0.482334
0.676092 0.710322 0.498625
0.701481 0.723017 0.515942
0.723534 0.733718 0.530817
0.743584 0.743222 0.544228
0.762740 0.755815 0.557638
0.781489 0.769812 0.571049
0.793207 0.777412 0.580456
0.802581 0.782880 0.588528
0.811480 0.788825 0.595543
0.820268 0.794879 0.602313
0.829057 0.803212 0.609482
0.837845 0.811870 0.616709
0.844620 0.816867 0.627169
0.851260 0.821619 0.637846
0.000000 0.507552 0.411314
0.005794 0.479559 0.371212
0.014359 0.453649 0.333052
0.064486 0.458988 0.324003
0.119186 0.466620 0.316996
0.205899 0.490317 0.324287
0.284812 0.514624 0.334227
0.329927 0.541575 0.355645
0.371347 0.565141 0.374931
0.401683 0.578552 0.387821
0.434359 0.594160 0.401260
0.472182 0.614601 0.415908
0.508785 0.633529 0.430824
0.543353 0.649934 0.446187
0.574959 0.663918 0.461893
0.602757 0.674790 0.478037
0.634558 0.690316 0.495679
0.670363 0.710497 0.514819
0.697966 0.725295 0.530589
0.719188 0.735907 0.543740
0.737725 0.747128 0.556402
0.754651 0.758716 0.568771
0.771398 0.769812 0.581140
0.788064 0.780683 0.593509
0.798480 0.789065 0.602655
0.806813 0.796616 0.610727
0.816362 0.802951 0.618588
0.826192 0.809006 0.626400
0.836022 0.815516 0.630054
0.845852 0.822091 0.633114
0.850739 0.827934 0.641361
0.855296 0.833727 0.649954
0.000000 0.532778 0.436540
0.006054 0.508431 0.396959
0.015791 0.485906 0.359173
0.080761 0.490724 0.348301
0.149002 0.497868 0.339700
0.240142 0.521304 0.346991
0.322164 0.544765 0.356931
0.364674 0.568331 0.378349
0.404011 0.589423 0.397244
0.433826 0.603094 0.408572
0.466551 0.618556 0.421750
0.505676 0.637956 0.439002
0.541530 0.654963 0.454959
0.571932 0.667983 0.468761
0.601194 0.680747 0.483587
0.628992 0.693181 0.499732
0.658320 0.708316 0.517114
0.689177 0.726154 0.535732
0.713150 0.739634 0.550250
0.731769 0.749724 0.561577
0.748353 0.760099 0.573393
0.763717 0.770646 0.585501
0.779080 0.780879 0.597610
0.794444 0.790969 0.609718
0.804339 0.798960 0.618214
0.812411 0.806251 0.625505
0.821489 0.813172 0.632796
0.830798 0.820008 0.640088
0.840107 0.825476 0.644815
0.849417 0.830749 0.649177
0.853782 0.836755 0.654821
0.857819 0.842809 0.660549
0.000000 0.554977 0.460757
0.006054 0.535838 0.422218
0.016832 0.518261 0.385343
0.098468 0.524120 0.373430
0.181682 0.532046 0.363787
0.275947 0.554440 0.370037
0.359531 0.575883 0.378935
0.396833 0.593199 0.399311
0.432785 0.610125 0.417165
0.464684 0.625879 0.427451
0.499166 0.642447 0.441215
0.539333 0.660806 0.462633
0.573885 0.675600 0.480023
0.599079 0.684453 0.490699
0.626323 0.696240 0.503768
0.656204 0.711799 0.519913
0.682927 0.726935 0.536253
0.706494 0.741648 0.552788
0.726105 0.753760 0.565808
0.742640 0.763851 0.576094
0.757792 0.772924 0.587519
0.772114 0.781387 0.599628
0.786436 0.790969 0.611737
0.800758 0.801060 0.623845
0.810393 0.808269 0.631559
0.818466 0.814519 0.637809
0.826697 0.822091 0.644059
0.834964 0.829968 0.650308
0.843232 0.834655 0.657640
0.851500 0.838887 0.665127
0.855800 0.844827 0.668036
0.859837 0.850881 0.670640
0.001640 0.585375 0.483335
0.013618 0.562134 0.441606
0.030992 0.540989 0.401887
0.129293 0.551275 0.392317
0.226316 0.562838 0.384594
0.314396 0.583345 0.389802
0.392614 0.603351 0.397501
0.428093 0.621188 0.415989
0.462352 0.637968 0.432589
0.492949 0.651574 0.443526
0.525540 0.666075 0.457454
0.562517 0.682545 0.477960
0.595661 0.696501 0.495830
0.622417 0.706266 0.509306
0.648860 0.717711 0.523209
0.674900 0.731317 0.537661
0.697327 0.743491 0.551267
0.716141 0.754232 0.564026
0.734405 0.764608 0.575285
0.752243 0.774698 0.585375
0.766703 0.784056 0.597256
0.779137 0.792975 0.610211
0.792735 0.801536 0.620838
0.806862 0.809933 0.630408
0.816448 0.817208 0.637976
0.824520 0.824109 0.644876
0.832592 0.831962 0.653840
0.840665 0.840034 0.663279
0.847997 0.844575 0.670042
0.855223 0.848611 0.676421
0.859458 0.853746 0.680299
0.863494 0.858954 0.684010
0.003658 0.617665 0.505534
0.022927 0.588174 0.459639
0.048178 0.561496 0.416209
0.163145 0.576989 0.409764
0.273709 0.592849 0.404645
0.353456 0.611273 0.408812
0.424708 0.629977 0.415273
0.459146 0.649897 0.431678
0.492103 0.667458 0.446977
0.520617 0.677939 0.458955
0.550473 0.689641 0.472947
0.583284 0.704028 0.491371
0.614996 0.717463 0.509501
0.644876 0.729311 0.527143
0.670798 0.740561 0.542478
0.691630 0.751042 0.554847
0.709370 0.759570 0.565328
0.724018 0.766146 0.573922
0.741631 0.774698 0.583357
0.761552 0.784789 0.593447
0.775491 0.794798 0.605979
0.785842 0.804758 0.619976
