其他预设/【236】赛博朋克风调色预设/【后期菌】视频调色预设/CUBE/Abandoned 08.cube
# LUT by SparkleStock. Enhanced with VOXCOLOR algorithms.
LUT_3D_SIZE 5
DOMAIN_MIN 0.000000 0.000000 0.000000
DOMAIN_MAX 0.903226 0.903226 0.903226
0.019550 0.019550 0.019550
0.175449 0.080850 0.073913
0.438558 0.229559 0.231325
0.614764 0.388610 0.402359
0.706587 0.512471 0.532022
0.043894 0.070003 0.052597
0.392081 0.245940 0.209414
0.581465 0.408450 0.371294
0.678334 0.528103 0.504004
0.741074 0.618002 0.572733
0.093463 0.259200 0.188314
0.410163 0.347276 0.168275
0.598936 0.439128 0.246220
0.684339 0.537287 0.362469
0.751429 0.630237 0.486114
0.126510 0.512597 0.382178
0.590469 0.510990 0.205138
0.667991 0.561756 0.295208
0.724347 0.633053 0.422666
0.770755 0.694226 0.541575
0.313310 0.673541 0.555482
0.702909 0.652835 0.336193
0.742555 0.693701 0.452014
0.777599 0.732098 0.563619
0.809803 0.773058 0.659707
0.037587 0.033677 0.043894
0.185710 0.087157 0.101239
0.443152 0.217829 0.268912
0.614267 0.377409 0.429367
0.716352 0.510705 0.565247
0.048390 0.097129 0.091950
0.372281 0.234661 0.259578
0.591029 0.405732 0.436337
0.679189 0.513804 0.544936
0.740907 0.607928 0.627389
0.074092 0.324446 0.261975
0.227745 0.392799 0.332945
0.627714 0.519925 0.472631
0.690865 0.599405 0.551608
0.747148 0.666339 0.602064
0.089167 0.559014 0.455090
0.318370 0.588569 0.499570
0.666667 0.599369 0.393629
0.724136 0.658151 0.502583
0.766128 0.705745 0.595311
0.305470 0.699019 0.603233
0.584610 0.668756 0.566254
0.742815 0.712556 0.528242
0.779923 0.750725 0.621175
0.802444 0.777186 0.691470
0.070886 0.067859 0.105698
0.229864 0.108526 0.156692
0.458214 0.221340 0.311776
0.628545 0.370765 0.471275
0.722626 0.500570 0.588337
0.100022 0.156350 0.192765
0.292598 0.270710 0.315631
0.601280 0.406481 0.474840
0.683892 0.514111 0.574208
0.746982 0.610622 0.648799
0.120256 0.344709 0.338170
0.247510 0.428289 0.423326
0.587585 0.509282 0.537922
0.698719 0.609170 0.626178
0.744918 0.672018 0.680346
0.149954 0.543325 0.508040
0.309356 0.588351 0.555678
0.487852 0.631865 0.596112
0.722414 0.676839 0.594577
0.761215 0.713712 0.634864
0.331029 0.685690 0.630066
0.494002 0.708251 0.660943
0.688824 0.720974 0.658131
0.780374 0.758522 0.662958
0.800467 0.777234 0.719650
0.148078 0.159178 0.264876
0.321972 0.200642 0.310283
0.506087 0.244727 0.377055
0.641707 0.373605 0.501905
0.733360 0.510640 0.616529
0.176079 0.260848 0.338915
0.317961 0.359952 0.429742
0.592669 0.400262 0.498939
0.695493 0.523514 0.606726
0.753288 0.615049 0.674090
0.202221 0.399901 0.433041
0.339846 0.475867 0.509148
0.512200 0.560077 0.595252
0.716870 0.626374 0.660094
0.751543 0.676285 0.700968
0.239295 0.548089 0.556438
0.406609 0.599159 0.608442
0.546201 0.650658 0.659237
0.682779 0.688315 0.692241
0.770106 0.732641 0.731350
0.378650 0.664996 0.643428
0.515885 0.699879 0.680051
0.635565 0.728765 0.710500
0.743436 0.758319 0.729896
0.802588 0.786971 0.748236
0.245199 0.264371 0.406899
0.395002 0.328613 0.463805
0.565153 0.303179 0.462922
0.661717 0.385901 0.541075
0.737656 0.517386 0.641292
0.268851 0.369251 0.461095
0.406667 0.459907 0.551096
0.606611 0.524015 0.625938
0.703043 0.530689 0.631575
0.754298 0.615083 0.690708
0.304355 0.480414 0.534756
0.438351 0.554810 0.604030
0.562325 0.621120 0.663999
0.717447 0.643892 0.695278
0.763281 0.686456 0.725861
0.352887 0.584903 0.615016
0.495511 0.630191 0.657662
0.604930 0.674348 0.696299
0.689772 0.718501 0.733492
0.779751 0.742968 0.763245
0.457527 0.670392 0.674892
0.581857 0.703900 0.709396
0.665800 0.735629 0.734129
0.736331 0.766808 0.770083
0.802158 0.802803 0.796655
