其他预设/【236】赛博朋克风调色预设/【后期菌】视频调色预设/CUBE/Abandoned 02.cube
# LUT by SparkleStock. Enhanced with VOXCOLOR algorithms.
LUT_3D_SIZE 32
0.007820 0.035191 0.058651
0.015893 0.055372 0.084886
0.024091 0.074796 0.110365
0.034182 0.082868 0.124492
0.044272 0.090688 0.138114
0.054363 0.096743 0.148204
0.066723 0.103932 0.159430
0.088923 0.116041 0.175575
0.112635 0.128149 0.192224
0.140889 0.140258 0.210387
0.171034 0.152367 0.227288
0.205342 0.164475 0.241415
0.246460 0.178097 0.258569
0.298931 0.194242 0.280768
0.352285 0.213036 0.303850
0.406773 0.235235 0.328067
0.461262 0.256425 0.351276
0.515751 0.276606 0.373475
0.564563 0.295652 0.395674
0.608962 0.313815 0.417873
0.650837 0.333239 0.443856
0.691199 0.353420 0.472109
0.723237 0.370826 0.492038
0.751490 0.386971 0.508183
0.775203 0.401602 0.530382
0.797402 0.415729 0.554599
0.816321 0.431495 0.575537
0.834484 0.447640 0.595718
0.849116 0.465550 0.610601
0.863242 0.483713 0.624728
0.873585 0.499984 0.640747
0.883675 0.516129 0.656891
0.011856 0.053354 0.080850
0.022012 0.069368 0.102919
0.032163 0.084821 0.124361
0.042254 0.091852 0.136405
0.052995 0.099282 0.148855
0.068294 0.109502 0.164154
0.085082 0.119686 0.179025
0.108322 0.129712 0.192045
0.132816 0.140258 0.206351
0.161070 0.152367 0.224514
0.195121 0.165452 0.242717
0.241928 0.180685 0.261010
0.289687 0.196651 0.280768
0.339033 0.213837 0.302967
0.392907 0.234584 0.326505
0.452604 0.259908 0.351764
0.506572 0.282139 0.374972
0.554811 0.301279 0.396129
0.599717 0.318697 0.417873
0.642032 0.334777 0.440072
0.679872 0.352769 0.464753
0.715026 0.371908 0.490923
0.743287 0.389705 0.512349
0.768416 0.406891 0.531619
0.789785 0.423345 0.553037
0.809901 0.439555 0.575171
0.826737 0.457405 0.593179
0.842817 0.475633 0.610235
0.855365 0.491981 0.623817
0.867409 0.508061 0.636902
0.875668 0.521272 0.652855
0.883675 0.534292 0.669000
0.015893 0.070886 0.102166
0.028001 0.082929 0.120199
0.040004 0.094619 0.137764
0.050420 0.100999 0.148310
0.062081 0.108339 0.160044
0.082457 0.122400 0.180095
0.103578 0.135351 0.198303
0.127926 0.143489 0.208523
0.153428 0.152651 0.220762
0.182398 0.164890 0.239055
0.220543 0.179021 0.258589
0.278872 0.197314 0.280854
0.332832 0.215632 0.303093
0.379509 0.233990 0.325292
0.433875 0.256592 0.349229
0.498129 0.284650 0.375399
0.551316 0.307630 0.398575
0.593435 0.325533 0.418756
0.634420 0.341384 0.440072
0.674521 0.355641 0.462271
0.708357 0.372339 0.485691
0.738433 0.390502 0.509843
0.763004 0.408665 0.532652
0.785073 0.426828 0.554851
0.804115 0.445040 0.575390
0.822148 0.463268 0.595376
0.837007 0.483030 0.610654
0.851134 0.503146 0.624846
0.861558 0.518135 0.637215
0.871453 0.532392 0.649324
0.877747 0.542804 0.664972
0.883802 0.552959 0.680856
0.019929 0.078958 0.110239
0.032037 0.089960 0.126188
0.044366 0.100999 0.142256
0.059990 0.112586 0.160093
0.076598 0.124353 0.177947
0.100099 0.137373 0.195914
0.124150 0.149673 0.212820
0.150580 0.158852 0.225124
0.180510 0.169317 0.239446
0.220937 0.183639 0.259822
0.265982 0.199853 0.281114
0.321187 0.220229 0.304420
0.374756 0.241021 0.327311
0.425599 0.262504 0.349510
0.480031 0.285496 0.372990
0.539077 0.310429 0.398119
0.587576 0.329764 0.420774
0.625530 0.343500 0.440955
0.662348 0.358701 0.462271
0.698283 0.375041 0.484470
0.728603 0.392520 0.507239
0.755555 0.410683 0.530349
0.777717 0.428846 0.552833
0.797703 0.447009 0.575032
0.814661 0.466002 0.593228
0.830611 0.485272 0.610089
0.845079 0.504383 0.625627
0.859206 0.523457 0.640861
0.866896 0.540139 0.653360
0.873666 0.556479 0.665468
0.879765 0.567997 0.677211
0.885820 0.579195 0.688929
0.023460 0.087283 0.118311
0.035569 0.096983 0.132308
0.048190 0.107094 0.146935
0.068501 0.123369 0.171022
0.089700 0.139188 0.194181
0.117107 0.151817 0.210847
0.144868 0.164019 0.227109
0.174163 0.174370 0.241627
0.208715 0.186235 0.258097
0.259037 0.202640 0.280426
0.310071 0.220937 0.303264
0.362672 0.243397 0.327221
0.416030 0.266466 0.350519
0.470649 0.290553 0.372718
0.524641 0.313587 0.395743
0.577828 0.335265 0.419830
0.621575 0.351475 0.441964
0.655882 0.362216 0.462145
0.688908 0.377132 0.483534
0.720938 0.395295 0.505864
0.747840 0.413458 0.527949
0.771667 0.431621 0.549887
0.791510 0.449963 0.572005
0.809543 0.468386 0.594204
0.824646 0.487933 0.610251
0.838773 0.507853 0.624248
0.852265 0.526240 0.639038
0.865610 0.544273 0.654011
0.870924 0.562305 0.666591
0.875090 0.580338 0.678830
0.881149 0.592695 0.687163
0.887333 0.604673 0.695235
0.023460 0.097373 0.126384
0.035569 0.103948 0.139338
0.048255 0.111195 0.152924
0.069608 0.128511 0.175969
0.092890 0.145763 0.198738
0.129671 0.162559 0.219570
0.166611 0.178537 0.239804
0.204239 0.190971 0.257446
0.244780 0.204919 0.276520
0.294061 0.223407 0.299891
0.344704 0.243787 0.322794
0.398347 0.268330 0.344668
0.452746 0.292311 0.366664
0.508407 0.315357 0.388863
0.558428 0.335981 0.411432
0.601198 0.353493 0.434477
0.639738 0.370224 0.456091
0.674045 0.386173 0.476272
0.705900 0.403368 0.498247
0.735846 0.421531 0.521618
0.760014 0.439694 0.542792
0.780716 0.457856 0.562647
0.798866 0.477631 0.584114
0.815858 0.498137 0.606313
0.830700 0.516642 0.621579
0.844827 0.534479 0.634534
0.853241 0.551629 0.641512
0.860337 0.568620 0.647110
0.865781 0.585611 0.659430
0.870989 0.602602 0.672711
0.878089 0.613917 0.681109
0.885315 0.624854 0.689181
0.022704 0.107464 0.134456
0.035203 0.111695 0.146565
0.048333 0.116798 0.159316
0.070922 0.134960 0.181710
0.096165 0.153327 0.204284
0.139977 0.173117 0.228110
0.184192 0.192065 0.251327
0.230153 0.207364 0.271898
0.276878 0.223981 0.293332
0.325899 0.244552 0.317354
0.376567 0.266772 0.340237
0.430860 0.292616 0.360613
0.485471 0.317021 0.381380
0.540611 0.339024 0.402798
0.586807 0.357838 0.424472
0.621506 0.372551 0.446476
0.655423 0.389705 0.467569
0.688559 0.409300 0.487750
0.718838 0.428309 0.509432
0.746896 0.446863 0.532282
0.768648 0.465294 0.552325
0.786615 0.483652 0.570683
0.803196 0.504248 0.591413
0.819145 0.525861 0.613222
0.833727 0.543520 0.628195
0.847854 0.559860 0.640889
0.851984 0.576200 0.640836
0.853807 0.592540 0.637842
0.859161 0.608197 0.648119
0.865020 0.623756 0.660293
0.872771 0.634371 0.669171
0.880648 0.644657 0.677829
0.018667 0.117554 0.142528
0.033250 0.122827 0.154637
0.048463 0.128906 0.167453
0.073136 0.147069 0.190889
0.099810 0.165175 0.214114
0.140498 0.182882 0.235857
0.183737 0.201310 0.257772
0.238030 0.222858 0.280426
0.291786 0.244682 0.303163
0.343931 0.267337 0.326143
0.396422 0.290338 0.348635
0.449674 0.314099 0.370053
0.500900 0.336811 0.389908
0.548748 0.357773 0.407160
0.591755 0.377368 0.426035
0.628536 0.395206 0.446997
0.660370 0.412360 0.467569
0.687257 0.428830 0.487750
0.714216 0.447644 0.505331
0.741233 0.468281 0.520889
0.761943 0.488144 0.538849
0.778869 0.507544 0.558249
0.794407 0.526317 0.577872
0.809315 0.544806 0.597598
0.823637 0.562464 0.614393
0.837764 0.579846 0.630213
0.841047 0.597227 0.626514
0.841828 0.614609 0.618312
0.846141 0.627662 0.618824
0.850959 0.640096 0.620582
0.857668 0.651492 0.631738
0.864504 0.662820 0.643522
0.015136 0.129158 0.150601
0.030760 0.134692 0.162449
0.047047 0.140998 0.175070
0.073282 0.158901 0.199287
0.101064 0.176551 0.222967
0.139668 0.192436 0.242888
0.182337 0.210261 0.263517
0.242620 0.236496 0.287213
0.302235 0.262617 0.310730
0.359848 0.288397 0.333711
0.415855 0.313220 0.356366
0.468325 0.335940 0.378304
0.516817 0.357806 0.397509
0.558676 0.378247 0.412156
0.598200 0.398119 0.428769
0.634721 0.417258 0.447908
0.664732 0.434933 0.467569
0.688233 0.451143 0.487750
0.711954 0.469696 0.502255
0.735846 0.490073 0.512345
0.755221 0.510490 0.528254
0.771887 0.530931 0.547654
0.786986 0.548240 0.566024
0.801373 0.564124 0.583927
0.815174 0.581327 0.601829
0.828780 0.598969 0.619732
0.831754 0.616399 0.613885
0.832275 0.633781 0.602557
0.835188 0.644783 0.594021
0.838443 0.654873 0.585884
0.843834 0.666123 0.595689
0.849368 0.677451 0.606691
0.013118 0.145303 0.158673
0.026658 0.148753 0.169480
0.040993 0.153042 0.181124
0.067228 0.169903 0.205342
0.095140 0.186511 0.228892
0.134785 0.201354 0.247771
0.178105 0.218333 0.267162
0.237346 0.244568 0.288775
0.299305 0.272252 0.311512
0.369418 0.304281 0.337617
0.434018 0.334052 0.362094
0.486488 0.358856 0.382991
0.534198 0.382414 0.402326
0.573974 0.403897 0.419057
0.609137 0.422532 0.435019
0.638366 0.437505 0.449992
0.667336 0.457262 0.467569
0.696045 0.481805 0.487750
0.716771 0.499903 0.502255
0.731289 0.512988 0.512345
0.748451 0.531322 0.526301
0.767199 0.552805 0.542576
0.783666 0.569723 0.559254
0.799094 0.584565 0.576115
0.811593 0.599945 0.592976
0.823116 0.615504 0.609836
0.827392 0.630005 0.606333
0.829996 0.644262 0.598131
0.830436 0.654873 0.582694
0.830566 0.664964 0.566223
0.833809 0.673284 0.563790
0.837259 0.681487 0.562293
0.011100 0.160817 0.169268
0.022557 0.163486 0.178057
0.034857 0.166896 0.187708
0.059790 0.181413 0.210297
0.086611 0.195882 0.232171
0.126648 0.210009 0.249032
0.170151 0.226406 0.266454
0.228676 0.252641 0.286310
0.291676 0.281399 0.307939
0.368104 0.317725 0.334891
0.437146 0.350897 0.359930
0.489943 0.377132 0.380762
0.537685 0.401854 0.400471
0.577006 0.424053 0.418308
0.610288 0.442550 0.433782
0.635807 0.456286 0.446216
0.663898 0.477476 0.462035
0.694560 0.506120 0.481240
0.714163 0.524291 0.496050
0.725165 0.534316 0.507442
0.741904 0.551543 0.520544
0.762085 0.573092 0.534670
0.779491 0.589314 0.549961
0.795636 0.603115 0.565780
0.807240 0.616672 0.581599
0.817330 0.630148 0.597419
0.823295 0.643041 0.597846
0.828308 0.655801 0.594721
0.827169 0.665371 0.575191
0.825151 0.674485 0.553317
0.826306 0.681035 0.541575
0.827673 0.687415 0.530508
0.009081 0.174944 0.185413
0.018456 0.179696 0.190035
0.028542 0.184733 0.195455
0.049309 0.194043 0.212836
0.072355 0.203954 0.229632
0.111349 0.218081 0.242327
0.154006 0.234478 0.256168
0.212531 0.260713 0.274982
0.273709 0.289471 0.294789
0.342845 0.325797 0.317574
0.407200 0.358970 0.340400
0.461038 0.385205 0.363315
0.510604 0.409927 0.383935
0.553049 0.432126 0.400731
0.589912 0.452901 0.416074
0.619597 0.471845 0.429550
0.647167 0.493035 0.444328
0.672621 0.516471 0.460408
0.695219 0.535879 0.476194
0.715595 0.552154 0.491753
0.735850 0.570422 0.506417
0.756031 0.589887 0.520544
0.773437 0.604742 0.535118
0.789582 0.617502 0.549896
0.801186 0.629236 0.564673
0.811276 0.640629 0.579451
0.819780 0.654825 0.587300
0.827917 0.669667 0.593549
0.827169 0.676763 0.576102
0.825151 0.682752 0.555270
0.824353 0.690084 0.540664
0.823637 0.697506 0.526472
0.006307 0.190584 0.199287
0.013598 0.196639 0.200524
0.021593 0.202668 0.202445
0.040146 0.208332 0.214618
0.060978 0.215054 0.226629
0.097760 0.229180 0.237501
0.137739 0.245138 0.249300
0.191577 0.269030 0.265120
0.247710 0.295835 0.281639
0.310726 0.331379 0.300257
0.371078 0.364503 0.320381
0.425567 0.392301 0.343817
0.475832 0.417706 0.364226
0.519059 0.439124 0.379590
0.558867 0.461396 0.394925
0.594282 0.484767 0.410224
0.624065 0.506348 0.424546
0.648217 0.526138 0.437891
0.673761 0.546148 0.453946
0.700386 0.566329 0.472109
0.723228 0.584272 0.487505
0.743800 0.600873 0.501241
0.761597 0.615191 0.516052
0.778132 0.628471 0.531350
0.791006 0.639652 0.544891
0.802659 0.650133 0.557846
0.813994 0.664899 0.571065
0.825256 0.680653 0.584346
0.827291 0.688205 0.574499
0.828007 0.694584 0.561349
0.825061 0.701819 0.545025
0.821871 0.709110 0.528490
0.002270 0.208747 0.209378
0.007478 0.214802 0.208532
0.013586 0.220766 0.208174
0.033181 0.225388 0.215139
0.054403 0.231199 0.222854
0.087018 0.245325 0.235808
0.121269 0.260111 0.248129
0.162608 0.277753 0.257698
0.208324 0.299350 0.268489
0.267174 0.332812 0.282941
0.324662 0.365805 0.299549
0.379151 0.397769 0.320902
0.428244 0.424997 0.339228
0.468346 0.444332 0.352508
0.510042 0.466800 0.368039
0.553789 0.493295 0.386462
0.590343 0.515917 0.401305
0.619703 0.534666 0.412567
0.648111 0.554221 0.427711
0.675779 0.574402 0.445874
0.699662 0.589741 0.460619
0.721275 0.602175 0.473314
0.740114 0.617339 0.489947
0.757691 0.633744 0.508370
0.773949 0.646488 0.520348
0.789769 0.658010 0.530178
0.804424 0.672125 0.545351
0.818811 0.686837 0.561756
0.827616 0.699727 0.568705
0.835624 0.712357 0.574304
0.830204 0.718029 0.558175
0.823889 0.723237 0.540598
0.000883 0.230442 0.223000
0.004463 0.235585 0.220071
0.008996 0.240658 0.217519
0.027810 0.244695 0.220644
0.047543 0.249764 0.224746
0.073714 0.262068 0.235682
0.101153 0.274799 0.245618
0.134094 0.289382 0.251217
0.172698 0.308049 0.258443
0.228293 0.338972 0.270552
0.283401 0.370667 0.284898
0.337434 0.404063 0.304168
0.385412 0.432431 0.320752
0.423301 0.452416 0.332860
0.464008 0.474823 0.347703
0.508341 0.500342 0.366061
0.547108 0.522867 0.380514
0.580309 0.542397 0.391060
0.611240 0.561780 0.405121
0.640405 0.581050 0.421917
0.667779 0.596576 0.436923
0.694080 0.609857 0.450854
0.715726 0.625867 0.467829
0.735256 0.643119 0.486187
0.755469 0.657538 0.499565
0.775911 0.671014 0.511283
0.793231 0.684649 0.527867
0.809832 0.698320 0.545575
0.822502 0.712959 0.560718
0.834610 0.727737 0.575496
0.830790 0.732871 0.564946
0.825907 0.737363 0.552707
0.002901 0.256677 0.241163
0.005440 0.259737 0.236150
0.008801 0.262858 0.231516
0.024490 0.266894 0.232558
0.040317 0.271443 0.233925
0.057113 0.279580 0.237570
0.076350 0.289121 0.241387
0.106166 0.304745 0.245944
0.141906 0.323413 0.252389
0.195418 0.351210 0.264497
0.248767 0.380107 0.278193
0.301759 0.411420 0.295379
0.348696 0.440047 0.310661
0.385543 0.464200 0.322770
0.421563 0.486216 0.335790
0.456522 0.505485 0.349982
0.491643 0.526447 0.362871
0.526927 0.549102 0.374459
0.559941 0.568681 0.387219
0.591189 0.585867 0.400890
0.625204 0.605170 0.417328
0.660879 0.625741 0.435425
0.687602 0.642598 0.450838
0.710257 0.657766 0.465030
0.735158 0.674009 0.483616
0.760807 0.690609 0.503666
0.779951 0.703983 0.520967
0.797593 0.716613 0.537632
0.810393 0.728388 0.549912
0.822502 0.740040 0.561565
0.825517 0.745956 0.563514
0.827925 0.751490 0.564816
0.003910 0.283921 0.258317
0.006970 0.283856 0.248617
0.010656 0.284015 0.239523
0.023741 0.287530 0.239523
0.037160 0.291754 0.239653
0.052914 0.300933 0.240695
0.071110 0.311418 0.242689
0.099884 0.327563 0.248808
0.135233 0.346360 0.256555
0.190308 0.373117 0.269184
0.243917 0.400483 0.282750
0.294305 0.429192 0.298374
0.340005 0.456973 0.312875
0.377893 0.483209 0.325504
0.411082 0.504346 0.337222
0.438229 0.518928 0.347768
0.471007 0.538328 0.359356
0.509416 0.562545 0.371985
0.544675 0.582515 0.384908
0.577486 0.599180 0.398058
0.612737 0.619264 0.414626
0.649454 0.641398 0.433245
0.679009 0.658743 0.449178
0.705310 0.673911 0.463890
0.731512 0.690544 0.484560
0.757683 0.707665 0.507214
0.777347 0.720291 0.523734
0.795510 0.731879 0.538837
0.807008 0.741701 0.549554
0.817554 0.751270 0.559644
0.825842 0.758032 0.568331
0.833980 0.764608 0.576924
0.003910 0.312175 0.274462
0.009053 0.307943 0.257470
0.014562 0.304131 0.241541
0.025564 0.306605 0.241541
0.038071 0.310698 0.241932
0.061117 0.326127 0.245057
0.085432 0.341690 0.249524
0.115247 0.357834 0.259810
0.152680 0.376892 0.270942
0.212962 0.404690 0.284613
0.268851 0.431796 0.298569
0.315072 0.457380 0.313151
0.359340 0.483209 0.327392
0.400353 0.509444 0.341063
0.432565 0.529214 0.352000
0.453462 0.540672 0.359421
0.485198 0.558509 0.369967
0.527774 0.582726 0.383638
0.565442 0.603282 0.398188
0.599294 0.620989 0.413422
0.630380 0.638859 0.428818
0.659805 0.656826 0.444312
0.689946 0.674302 0.462849
0.720413 0.691553 0.482769
0.744532 0.707145 0.502397
0.766536 0.722183 0.521927
0.785419 0.733571 0.536168
0.803582 0.744117 0.549188
0.812346 0.752898 0.559644
0.819768 0.761426 0.569735
0.831766 0.769099 0.579398
0.844070 0.776716 0.589033
0.002775 0.340428 0.294012
0.008243 0.332616 0.272073
0.014294 0.325455 0.251323
0.029071 0.328059 0.248393
0.045794 0.332608 0.246334
0.076130 0.350771 0.250371
0.107663 0.369105 0.256579
0.144380 0.388179 0.272203
0.186092 0.409109 0.287600
0.242794 0.435604 0.302312
0.295285 0.461388 0.316475
0.338512 0.485605 0.329430
0.379883 0.509700 0.342385
0.418162 0.533592 0.355340
0.448921 0.551702 0.365532
0.470014 0.562379 0.372173
0.502759 0.579532 0.383435
0.547157 0.603164 0.399319
0.585220 0.623719 0.415350
0.618356 0.641882 0.431495
0.648278 0.658417 0.447111
0.676271 0.673976 0.462409
0.703995 0.690117 0.480841
0.731598 0.706522 0.500696
0.753634 0.721658 0.518403
0.773815 0.736370 0.535395
0.791404 0.746852 0.548895
0.808395 0.756356 0.561589
0.816842 0.764095 0.570467
0.824068 0.771581 0.578800
0.836116 0.779617 0.588781
0.848485 0.787690 0.598871
0.000757 0.368682 0.316211
0.005184 0.357745 0.291148
0.010778 0.347719 0.267142
0.033889 0.351365 0.259004
0.058814 0.356825 0.252389
0.096442 0.374988 0.256425
0.136047 0.394298 0.263806
0.184221 0.418581 0.285679
0.231923 0.442635 0.306023
0.278209 0.466006 0.321777
0.322888 0.489641 0.336005
0.364031 0.513859 0.346877
0.401366 0.536391 0.357749
0.432353 0.556117 0.368621
0.461290 0.572339 0.378097
0.487591 0.584057 0.385778
0.522940 0.601211 0.399124
0.567338 0.623800 0.418133
0.604230 0.643900 0.435531
0.635282 0.662063 0.451676
0.666376 0.677947 0.468594
0.697494 0.692465 0.485976
0.720466 0.706132 0.502194
0.739735 0.719412 0.517883
0.759688 0.734548 0.532986
0.779869 0.750302 0.547894
0.795766 0.760132 0.561850
0.810674 0.768595 0.575586
0.820683 0.775292 0.581860
0.829992 0.781737 0.587068
0.839241 0.789708 0.596853
0.848485 0.797780 0.606944
0.000000 0.400719 0.339671
0.004036 0.384053 0.309530
0.009623 0.368885 0.280805
0.038462 0.376176 0.273318
0.070044 0.384908 0.267191
0.120822 0.403722 0.270576
0.170940 0.423439 0.277379
0.218203 0.447070 0.298992
0.264408 0.470343 0.319238
0.307439 0.492542 0.335383
0.349229 0.515372 0.350450
0.388289 0.539589 0.363144
0.424273 0.561536 0.375106
0.455130 0.579699 0.385848
0.486273 0.595783 0.396561
0.517781 0.609194 0.407237
0.553781 0.626673 0.422666
0.594273 0.648221 0.442847
0.628650 0.667133 0.460391
0.658271 0.683993 0.475885
0.687118 0.697925 0.492233
0.715502 0.710099 0.509094
0.736366 0.723570 0.524523
0.753813 0.737632 0.539301
0.770869 0.750326 0.551637
0.787795 0.762565 0.563160
0.800860 0.770890 0.574682
0.813034 0.778311 0.586205
0.822815 0.785676 0.593456
0.832255 0.793032 0.600096
0.840412 0.799229 0.608140
0.848485 0.805348 0.616277
0.000000 0.435027 0.363889
0.004036 0.411070 0.327498
0.009883 0.389392 0.293174
0.042889 0.401891 0.289854
0.080199 0.415309 0.287242
0.147643 0.435165 0.289585
0.209740 0.454947 0.294761
0.248670 0.474412 0.312207
0.288885 0.494561 0.329329
0.332958 0.516760 0.345473
0.374813 0.539589 0.361842
0.411790 0.563807 0.378703
0.448034 0.585753 0.393660
0.483058 0.603916 0.405443
0.518823 0.620912 0.418564
0.555539 0.636405 0.433407
0.591018 0.654405 0.450919
0.625261 0.674912 0.471100
0.656318 0.692196 0.488059
0.684897 0.706974 0.502511
0.709448 0.718171 0.517167
0.731582 0.727220 0.531944
0.751925 0.741863 0.547438
0.771455 0.759050 0.563257
0.785126 0.767838 0.572729
0.796844 0.773827 0.580086
0.806394 0.780134 0.587442
0.815443 0.786514 0.594798
0.823922 0.795571 0.605174
0.832320 0.805010 0.615980
0.840412 0.808408 0.621355
0.848485 0.811402 0.626368
0.000000 0.470722 0.388106
0.004752 0.443770 0.349046
0.011755 0.419163 0.312122
0.052507 0.429709 0.307239
0.097963 0.441638 0.303488
0.176344 0.463252 0.307654
0.247510 0.484889 0.314470
0.287416 0.506633 0.332763
0.327014 0.527595 0.350161
0.365683 0.546213 0.364873
0.403844 0.566134 0.380217
0.440886 0.588919 0.396947
0.477390 0.609702 0.412482
0.513000 0.627149 0.426023
0.547926 0.643086 0.440703
0.581974 0.657083 0.456847
0.615858 0.674171 0.475010
0.649580 0.694352 0.495191
0.678615 0.710322 0.511564
0.704004 0.723017 0.524974
0.725242 0.733718 0.538385
0.743991 0.743222 0.551796
0.762740 0.756710 0.566101
0.781489 0.772009 0.580814
0.793207 0.779935 0.589570
0.802581 0.785403 0.596340
0.811480 0.791347 0.603111
0.820268 0.797402 0.609881
0.829057 0.805734 0.618190
0.837845 0.814393 0.626718
0.844620 0.818169 0.632377
0.851260 0.821619 0.637846
0.000000 0.507048 0.412323
0.005794 0.479055 0.372221
0.014359 0.453145 0.334061
0.064486 0.458483 0.325012
0.119186 0.466116 0.318005
0.205899 0.489812 0.325297
0.284812 0.514119 0.335236
0.329927 0.541070 0.356654
0.371347 0.564637 0.375875
0.401683 0.578047 0.388505
0.434441 0.593736 0.401765
0.472524 0.614438 0.416412
0.509289 0.633529 0.431426
0.543858 0.649934 0.447050
0.575464 0.663918 0.462902
0.603261 0.674790 0.479046
0.635063 0.690316 0.497209
0.670868 0.710497 0.517390
0.698470 0.725295 0.533177
0.719693 0.735907 0.545546
0.738067 0.747128 0.557915
0.754733 0.758716 0.570284
0.771398 0.769991 0.582832
0.788064 0.781123 0.595462
0.798480 0.789569 0.604478
0.806813 0.797121 0.612290
0.816362 0.803456 0.620102
0.826192 0.809510 0.627914
0.836022 0.816020 0.631795
0.845852 0.822595 0.635116
0.850739 0.828194 0.642403
0.855296 0.833727 0.649954
0.000000 0.532778 0.436540
0.006054 0.508431 0.396959
0.015791 0.485906 0.359173
0.080761 0.490724 0.348301
0.149002 0.497868 0.339700
0.240142 0.521304 0.346991
0.322164 0.544765 0.356931
0.364674 0.568331 0.378349
0.404011 0.589423 0.397244
0.433826 0.603094 0.408572
0.466551 0.618556 0.421750
0.505676 0.637956 0.439002
0.541530 0.654963 0.454959
0.571932 0.667983 0.468761
0.601194 0.680747 0.483587
0.628992 0.693181 0.499732
0.658320 0.708316 0.517114
0.689177 0.726154 0.535732
0.713150 0.739634 0.550250
0.731769 0.749724 0.561577
0.748353 0.760099 0.573393
0.763717 0.770646 0.585501
0.779080 0.780879 0.597610
0.794444 0.790969 0.609718
0.804339 0.798960 0.618214
0.812411 0.806251 0.625505
0.821489 0.813172 0.632796
0.830798 0.820008 0.640088
0.840107 0.825476 0.644815
0.849417 0.830749 0.649177
0.853782 0.836755 0.654821
0.857819 0.842809 0.660549
0.000000 0.554977 0.460757
0.006054 0.535838 0.422218
0.016832 0.518261 0.385343
0.098468 0.524120 0.373430
0.181682 0.532046 0.363787
0.275947 0.554440 0.370037
0.359531 0.575883 0.378935
0.396833 0.593199 0.399311
0.432785 0.610125 0.417165
0.464684 0.625879 0.427451
0.499166 0.642447 0.441215
0.539333 0.660806 0.462633
0.573885 0.675600 0.480023
0.599079 0.684453 0.490699
0.626323 0.696240 0.503768
0.656204 0.711799 0.519913
0.682927 0.726935 0.536253
0.706494 0.741648 0.552788
0.726105 0.753760 0.565808
0.742640 0.763851 0.576094
0.757792 0.772924 0.587519
0.772114 0.781387 0.599628
0.786436 0.790969 0.611737
0.800758 0.801060 0.623845
0.810393 0.808269 0.631559
0.818466 0.814519 0.637809
0.826697 0.822091 0.644059
0.834964 0.829968 0.650308
0.843232 0.834655 0.657640
0.851500 0.838887 0.665127
0.855800 0.844827 0.668036
0.859837 0.850881 0.670640
0.001640 0.583735 0.489894
0.013618 0.560495 0.446472
0.031045 0.539349 0.405166
0.130192 0.549635 0.395596
0.227956 0.561199 0.387874
0.316036 0.581705 0.393082
0.394254 0.601711 0.400939
0.429733 0.619549 0.420273
0.463992 0.636328 0.437720
0.494589 0.649934 0.449503
0.527180 0.664435 0.463748
0.564157 0.680905 0.483408
0.597301 0.694861 0.500749
0.624057 0.704626 0.514225
0.650870 0.716442 0.528498
0.677756 0.730894 0.543797
0.700183 0.743491 0.557402
0.718151 0.754232 0.569316
0.736045 0.764608 0.580204
0.753882 0.774698 0.590294
0.768343 0.784056 0.602175
0.780777 0.792975 0.615130
0.793793 0.801536 0.625757
0.807073 0.809933 0.635327
0.816448 0.817208 0.644164
0.824520 0.824109 0.652758
0.832592 0.831962 0.661351
0.840665 0.840034 0.669944
0.847997 0.844575 0.676601
0.855223 0.848611 0.682980
0.859458 0.853746 0.687651
0.863494 0.858954 0.692208
0.003658 0.614007 0.520165
0.022927 0.584517 0.470494
0.048296 0.557838 0.423524
0.165151 0.573332 0.417079
0.277367 0.589192 0.411961
0.357114 0.607615 0.416127
0.428366 0.626319 0.422942
0.462804 0.646240 0.441236
0.495761 0.663800 0.458422
0.524275 0.674281 0.472288
0.554131 0.685983 0.486989
0.586942 0.700370 0.503524
0.618653 0.713805 0.520474
0.648534 0.725653 0.538117
0.675282 0.737729 0.554278
0.698002 0.750098 0.568535
0.715742 0.759570 0.579016
0.728501 0.766146 0.585721
0.745289 0.774698 0.594330
0.765210 0.784789 0.604421
0.779149 0.794798 0.616953
0.789500 0.804758 0.630949
