其他预设/【236】赛博朋克风调色预设/【后期菌】视频调色预设/CUBE/Abandoned 04_S.cube
# LUT by SparkleStock. Enhanced with VOXCOLOR algorithms.
LUT_3D_SIZE 32
0.035191 0.050831 0.062561
0.041245 0.054867 0.066597
0.047173 0.058777 0.070633
0.051209 0.060795 0.074670
0.055750 0.062813 0.078454
0.063822 0.064831 0.080472
0.074165 0.067606 0.083625
0.094346 0.073661 0.091697
0.116545 0.080219 0.100274
0.144799 0.088292 0.110365
0.176836 0.094472 0.121086
0.217198 0.096490 0.133195
0.263614 0.104563 0.148330
0.320121 0.122726 0.168511
0.373979 0.139123 0.189575
0.424432 0.153249 0.211774
0.477911 0.172421 0.233973
0.534418 0.196639 0.256173
0.580708 0.218585 0.282912
0.619052 0.238766 0.313184
0.657396 0.267777 0.342194
0.695740 0.302084 0.370447
0.724372 0.328067 0.393151
0.748589 0.350266 0.413332
0.769779 0.375493 0.438054
0.789960 0.401728 0.464289
0.810141 0.431243 0.492164
0.830322 0.461514 0.520417
0.846971 0.488254 0.541608
0.863116 0.514489 0.561789
0.879261 0.535049 0.580078
0.895406 0.555230 0.598240
0.037209 0.056885 0.066597
0.044305 0.058838 0.070633
0.051274 0.060860 0.074670
0.056352 0.063920 0.078706
0.062455 0.067240 0.082880
0.075736 0.072383 0.088023
0.090701 0.077502 0.093520
0.112965 0.082514 0.100551
0.138549 0.088031 0.108868
0.174094 0.095062 0.121041
0.213422 0.102480 0.133520
0.261075 0.110747 0.146670
0.310486 0.121554 0.162457
0.362827 0.136592 0.182638
0.415253 0.153966 0.203246
0.467788 0.174342 0.224404
0.517622 0.196639 0.246603
0.564755 0.220856 0.269844
0.605772 0.242217 0.294110
0.642032 0.261356 0.319173
0.676991 0.287372 0.344928
0.711169 0.317513 0.371098
0.738498 0.345775 0.396732
0.762716 0.373182 0.422121
0.783906 0.402053 0.451269
0.804087 0.431414 0.481671
0.822575 0.463207 0.512866
0.840673 0.495562 0.544244
0.856150 0.518005 0.564002
0.871254 0.539032 0.582100
0.884404 0.556336 0.597329
0.897424 0.573393 0.612367
0.039101 0.062687 0.070507
0.047173 0.062752 0.074609
0.055148 0.063074 0.078714
0.061658 0.067240 0.082880
0.069665 0.071895 0.087543
0.088154 0.079967 0.095681
0.107777 0.087295 0.103464
0.132320 0.091396 0.109714
0.161387 0.096067 0.117916
0.204027 0.102447 0.131978
0.250330 0.111268 0.146121
0.304688 0.125460 0.160443
0.356801 0.138968 0.176913
0.405170 0.151337 0.196964
0.456074 0.169744 0.217072
0.510237 0.195914 0.237253
0.556328 0.220978 0.259289
0.594347 0.244935 0.283181
0.630205 0.265632 0.304985
0.664382 0.283795 0.325166
0.695996 0.307003 0.347829
0.726072 0.333239 0.371981
0.752121 0.363457 0.400296
0.776338 0.395487 0.430502
0.797577 0.427809 0.463882
0.817823 0.460228 0.498320
0.834789 0.494129 0.532599
0.850999 0.528372 0.566842
0.865273 0.547007 0.585534
0.879269 0.563412 0.602004
0.889543 0.577681 0.614385
0.899568 0.591808 0.626494
0.039101 0.064705 0.072525
0.047173 0.065812 0.077668
0.055604 0.067240 0.082880
0.069405 0.073490 0.089130
0.084443 0.079967 0.095746
0.108139 0.088040 0.104925
0.132971 0.095563 0.114141
0.162722 0.100706 0.123515
0.196736 0.107460 0.133801
0.243543 0.119048 0.146821
0.292059 0.131775 0.161224
0.344334 0.147008 0.178671
0.394754 0.162730 0.196313
0.442082 0.179265 0.214281
0.490122 0.199560 0.233217
0.539077 0.224689 0.253398
0.579960 0.247148 0.272830
0.612770 0.266938 0.291514
0.645178 0.285813 0.311040
0.677272 0.303976 0.331221
0.706152 0.327184 0.353233
0.733103 0.353420 0.376343
0.758175 0.380774 0.403616
0.782392 0.408637 0.432781
0.804412 0.441480 0.467463
0.825700 0.475983 0.503984
0.843708 0.509428 0.537807
0.860960 0.542629 0.571008
0.873540 0.564779 0.594127
0.885454 0.585351 0.615805
0.894620 0.599880 0.628512
0.903604 0.614007 0.640621
0.039101 0.066976 0.074796
0.047173 0.068864 0.080720
0.056010 0.071146 0.086786
0.076322 0.079349 0.094989
0.097821 0.087584 0.103509
0.127637 0.096047 0.114250
0.158441 0.104205 0.125273
0.193530 0.111040 0.137512
0.232395 0.120203 0.149718
0.282587 0.136348 0.161826
0.332698 0.152655 0.176417
0.382629 0.169321 0.196468
0.431145 0.187403 0.215054
0.477301 0.207844 0.231199
0.522232 0.229539 0.248767
0.565589 0.252844 0.268167
0.601394 0.272635 0.284930
0.629647 0.288910 0.299057
0.658962 0.306393 0.316663
0.689104 0.324816 0.336974
0.715461 0.347878 0.358302
0.739548 0.373723 0.380241
0.763814 0.398270 0.406342
0.788162 0.422226 0.434335
0.810995 0.455558 0.470384
0.833325 0.492014 0.509119
0.851846 0.524873 0.542088
0.869488 0.556902 0.573726
0.880522 0.582665 0.601434
0.890613 0.607533 0.628581
0.899055 0.622332 0.641874
0.907388 0.636458 0.654243
0.039101 0.071012 0.078832
0.047173 0.071858 0.083715
0.056076 0.073229 0.088870
0.077428 0.082474 0.098114
0.101401 0.092011 0.108196
0.143716 0.103599 0.124146
0.185848 0.115467 0.139595
0.227187 0.128552 0.152875
0.270218 0.142402 0.165863
0.318327 0.158547 0.177971
0.365703 0.176157 0.192236
0.411469 0.196989 0.211245
0.456599 0.218455 0.229180
0.500672 0.240980 0.245325
0.540786 0.260656 0.260160
0.575809 0.276671 0.273310
0.607448 0.293337 0.286949
0.635701 0.310653 0.301075
0.664431 0.329764 0.319267
0.693531 0.350271 0.340619
0.718846 0.372160 0.361036
0.741892 0.394880 0.380892
0.766548 0.417018 0.404910
0.791937 0.438892 0.430820
0.815813 0.472484 0.468691
0.839184 0.509981 0.510551
0.854515 0.541343 0.539874
0.867990 0.571289 0.566305
0.878504 0.601349 0.599742
0.888595 0.631425 0.634180
0.898990 0.646549 0.649881
0.909406 0.660675 0.664333
0.038722 0.075805 0.082868
0.047185 0.076000 0.086709
0.056568 0.076826 0.090977
0.079743 0.087112 0.101654
0.106459 0.097902 0.113518
0.157953 0.112224 0.133699
0.208825 0.127486 0.152782
0.256999 0.146821 0.167104
0.304733 0.165505 0.180921
0.351149 0.182235 0.193225
0.396121 0.201244 0.207116
0.437915 0.225266 0.224497
0.479417 0.249215 0.241195
0.520430 0.273042 0.256754
0.555946 0.291030 0.269209
0.584395 0.301511 0.277672
0.612355 0.315442 0.288674
0.639827 0.332824 0.302215
0.667849 0.352695 0.320406
0.696297 0.374504 0.342214
0.720840 0.395295 0.361866
0.743039 0.415476 0.380225
0.767879 0.435792 0.402342
0.793919 0.456168 0.426169
0.818592 0.489434 0.465131
0.842809 0.526997 0.509139
0.855390 0.556996 0.535268
0.865285 0.585249 0.557272
0.875180 0.618458 0.594314
0.885075 0.652375 0.633504
0.896679 0.668105 0.651822
0.908397 0.682622 0.668748
0.036704 0.083877 0.086904
0.047250 0.085114 0.089704
0.058911 0.086982 0.093191
0.087295 0.098309 0.106992
0.117916 0.110141 0.121591
0.164203 0.125505 0.141772
0.212600 0.142785 0.161049
0.270149 0.168369 0.176413
0.324914 0.192521 0.191272
0.371330 0.212377 0.204617
0.415326 0.233209 0.217922
0.453995 0.256189 0.231138
0.490809 0.278705 0.244060
0.524531 0.300449 0.256494
0.556402 0.318176 0.268102
0.585892 0.330741 0.278648
0.612290 0.343630 0.289129
0.635596 0.356846 0.299545
0.662380 0.373723 0.315198
0.691871 0.393448 0.334923
0.716804 0.413458 0.354445
0.739003 0.433639 0.373845
0.763127 0.454671 0.394856
0.788125 0.476088 0.416599
0.812537 0.506490 0.453478
0.836755 0.539886 0.495403
0.848489 0.569104 0.520295
0.857343 0.597358 0.541258
0.866196 0.628744 0.572701
0.875050 0.660578 0.605642
0.884636 0.678130 0.627474
0.894270 0.694731 0.648567
0.034686 0.092454 0.091445
0.046795 0.094472 0.093724
0.060181 0.097121 0.096869
0.092731 0.109230 0.113014
0.126510 0.121843 0.129598
0.168890 0.137988 0.149258
0.215383 0.156879 0.168161
0.279702 0.187671 0.183785
0.340001 0.216836 0.199230
0.388240 0.241118 0.214138
0.432675 0.264749 0.227704
0.468740 0.286949 0.238315
0.501876 0.308196 0.248731
0.530130 0.327856 0.258821
0.558810 0.344981 0.269339
0.588040 0.358847 0.280406
0.613006 0.371086 0.290106
0.633708 0.381698 0.298439
0.659060 0.396117 0.311862
0.688030 0.413499 0.329243
0.713093 0.432305 0.348212
0.735813 0.451965 0.368132
0.759562 0.473729 0.389127
0.783780 0.496448 0.410610
0.807606 0.524246 0.445276
0.831303 0.553736 0.484336
0.842516 0.581376 0.507845
0.850849 0.608587 0.527766
0.858270 0.637565 0.552243
0.865561 0.666795 0.577372
0.872853 0.684429 0.597252
0.880144 0.701290 0.616782
0.032668 0.102545 0.097499
0.044777 0.104563 0.100820
0.058228 0.107212 0.104941
0.091819 0.119320 0.121086
0.126510 0.131933 0.137410
0.168890 0.148078 0.154987
0.215188 0.167360 0.171807
0.278465 0.200235 0.185348
0.339806 0.233046 0.200012
0.395336 0.265661 0.218044
0.444458 0.295021 0.234409
0.479482 0.317220 0.247103
0.511967 0.337686 0.258821
0.540220 0.355263 0.268912
0.567078 0.370761 0.277607
0.592141 0.383585 0.284507
0.616066 0.396345 0.292645
0.638851 0.409040 0.302019
0.662185 0.422613 0.314140
0.685946 0.436870 0.328397
0.710359 0.453202 0.345543
0.735162 0.470779 0.364422
0.759562 0.493324 0.388671
0.783780 0.518127 0.415362
0.806044 0.544102 0.447424
0.827657 0.570467 0.481276
0.839326 0.594135 0.502963
0.848700 0.617180 0.521842
0.853518 0.641992 0.535252
0.857684 0.667055 0.547882
0.861851 0.679546 0.549403
0.866017 0.691199 0.550184
0.030019 0.115158 0.104184
0.042128 0.118152 0.107895
0.055522 0.121615 0.112281
0.088202 0.132096 0.126799
0.122136 0.143244 0.141479
0.164841 0.159064 0.157298
0.211148 0.178472 0.172421
0.273058 0.213430 0.184530
0.334382 0.248910 0.198087
0.393949 0.285952 0.215990
0.446232 0.318559 0.232712
0.482493 0.341409 0.246839
0.515751 0.361866 0.259696
0.544004 0.378337 0.270438
0.570178 0.392899 0.278530
0.593679 0.405007 0.283218
0.617213 0.418125 0.290769
0.640779 0.432252 0.301185
0.662991 0.445426 0.312736
0.684148 0.457860 0.325170
0.708683 0.473021 0.341388
0.735243 0.489816 0.359877
0.759522 0.512431 0.386019
0.782762 0.537689 0.415639
0.803708 0.562167 0.445992
0.823889 0.586384 0.476589
0.836930 0.608380 0.500257
0.848322 0.629863 0.522326
0.850658 0.650548 0.526622
0.851699 0.671120 0.528380
0.852130 0.678753 0.513171
0.852521 0.685523 0.496831
0.025983 0.133321 0.112257
0.038092 0.139440 0.114926
0.051160 0.145507 0.118010
0.078633 0.150780 0.127319
0.108139 0.157241 0.137312
0.151886 0.172019 0.152090
0.198649 0.190971 0.166367
0.258475 0.228013 0.178476
0.317456 0.264013 0.190210
0.373898 0.296889 0.200821
0.425986 0.327282 0.212531
0.468496 0.352215 0.226658
0.505660 0.374366 0.240296
0.533914 0.391878 0.253121
0.561911 0.407026 0.263297
0.589578 0.419134 0.270067
0.614153 0.432252 0.279181
0.635636 0.446378 0.290639
0.658694 0.460139 0.303232
0.682976 0.473615 0.316707
0.709334 0.490467 0.333967
0.736936 0.509346 0.353497
0.759391 0.530463 0.378532
0.779507 0.552597 0.406069
0.799672 0.576294 0.436683
0.819853 0.600511 0.468321
0.836279 0.625892 0.502340
0.851837 0.651541 0.536908
0.851960 0.668190 0.536387
0.849876 0.683554 0.530854
0.845230 0.686955 0.502495
0.840412 0.689559 0.472614
0.022704 0.151484 0.121843
0.034812 0.159947 0.123861
0.047726 0.168080 0.126082
0.072725 0.171270 0.131356
0.100002 0.175827 0.137686
0.143228 0.189954 0.151423
0.188444 0.208182 0.164341
0.242282 0.244182 0.173715
0.295892 0.278555 0.182162
0.348818 0.308045 0.187826
0.399588 0.336518 0.195524
0.445614 0.362753 0.207697
0.485268 0.385669 0.219578
0.514302 0.403050 0.230971
0.544561 0.418638 0.241423
0.576395 0.431918 0.250668
0.602989 0.445622 0.261149
0.624341 0.459748 0.272867
0.648880 0.473655 0.285720
0.675897 0.487391 0.299456
0.703442 0.504911 0.317464
0.731305 0.524702 0.338036
0.753573 0.545029 0.362770
0.773298 0.565601 0.389396
0.793365 0.587735 0.419097
0.813546 0.610390 0.449825
0.832088 0.637593 0.489703
0.850251 0.665847 0.531692
0.852065 0.682366 0.536998
0.851545 0.697209 0.537063
0.843944 0.698136 0.501852
0.835872 0.698136 0.464289
0.020686 0.169647 0.133951
0.032794 0.179151 0.135969
0.045839 0.188456 0.138061
0.072920 0.194771 0.141251
0.101629 0.202062 0.145629
0.141731 0.216189 0.158323
0.182064 0.233245 0.169028
0.223403 0.262996 0.171111
0.266597 0.292161 0.173829
0.315357 0.319568 0.178451
0.362937 0.346609 0.183806
0.407921 0.372844 0.190771
0.447705 0.394978 0.196663
0.478823 0.410276 0.200764
0.512077 0.426059 0.208483
0.548077 0.442464 0.220852
0.578316 0.457730 0.232374
0.602793 0.471857 0.243051
0.629871 0.485178 0.254862
0.658971 0.497873 0.267557
0.686646 0.514351 0.285826
0.713467 0.533100 0.307439
0.738275 0.553818 0.333214
0.762166 0.575431 0.360882
0.783275 0.594701 0.387719
0.803456 0.613189 0.414280
0.821997 0.639612 0.452530
0.840160 0.667865 0.493478
0.850177 0.690764 0.522350
0.859031 0.712898 0.549497
0.852017 0.714281 0.517931
0.843944 0.714281 0.482452
0.017785 0.192224 0.148709
0.031260 0.202770 0.150727
0.045716 0.213219 0.152716
0.074881 0.222203 0.154279
0.104852 0.231829 0.156932
0.140461 0.245956 0.167217
0.175571 0.262011 0.175367
0.208511 0.286424 0.174260
0.244479 0.311178 0.174098
0.289528 0.336958 0.176767
0.333947 0.362595 0.179863
0.376978 0.387919 0.183899
0.416152 0.409898 0.186935
0.448897 0.426303 0.188302
0.483095 0.442481 0.193656
0.519160 0.458365 0.204137
0.551678 0.473826 0.214195
0.580647 0.488864 0.223830
0.610093 0.502255 0.234600
0.639909 0.514363 0.246253
0.668341 0.529971 0.264212
0.695943 0.547678 0.285956
0.722293 0.567534 0.310922
0.748072 0.588366 0.337352
0.770678 0.607049 0.363148
0.792226 0.625017 0.388732
0.810654 0.650231 0.424102
0.828361 0.677117 0.461730
0.842536 0.701839 0.501921
0.856207 0.726251 0.542478
0.853339 0.728632 0.520967
0.849368 0.729543 0.495317
0.013748 0.220477 0.166872
0.030349 0.232065 0.168890
0.047865 0.243620 0.170814
0.079113 0.254687 0.171335
0.110125 0.266137 0.172556
0.139485 0.280264 0.178675
0.168930 0.295538 0.183830
0.198746 0.315784 0.184807
0.231589 0.337153 0.185425
0.273514 0.361891 0.184969
0.314807 0.386161 0.185917
0.354714 0.409402 0.189954
0.392325 0.432032 0.194161
0.426112 0.453645 0.198653
0.458617 0.470474 0.202119
0.489475 0.481150 0.204268
0.522513 0.495049 0.209638
0.557732 0.512170 0.218231
0.589326 0.526472 0.227960
0.618100 0.538580 0.238571
0.648095 0.553537 0.255489
0.678822 0.570203 0.276191
0.705432 0.587584 0.297967
0.730170 0.605292 0.320231
0.754859 0.626319 0.347329
0.779532 0.648453 0.376038
0.797699 0.671909 0.406916
0.814364 0.695671 0.438294
0.827498 0.716356 0.474058
0.840128 0.736602 0.510449
0.845983 0.740675 0.507231
0.851386 0.743670 0.501372
0.011730 0.251758 0.188062
0.037705 0.263867 0.187476
0.063977 0.275943 0.186926
0.094704 0.287530 0.186926
0.125065 0.299631 0.187561
0.152863 0.315320 0.192639
0.180551 0.331278 0.197338
0.207763 0.348399 0.200398
0.238262 0.367424 0.202319
0.278624 0.392162 0.200821
0.318030 0.416107 0.200890
0.355332 0.438306 0.204406
0.391121 0.460285 0.208483
0.424387 0.481899 0.213495
0.455460 0.498043 0.215660
0.483713 0.507157 0.214163
0.516752 0.520535 0.217971
0.554575 0.538178 0.227085
0.586722 0.552414 0.236748
0.614454 0.564002 0.246839
0.644710 0.578763 0.263236
0.676478 0.595429 0.283417
0.702697 0.612453 0.304314
0.726394 0.629639 0.325537
0.751213 0.650536 0.352765
0.776407 0.672670 0.381995
0.794248 0.693164 0.410431
0.810393 0.713280 0.438684
0.822095 0.730320 0.469957
0.833162 0.746921 0.501661
0.845266 0.753695 0.510844
0.857440 0.759815 0.518526
0.011730 0.286066 0.212279
0.053329 0.298174 0.206485
0.094053 0.310185 0.201053
0.121656 0.320731 0.201053
0.149673 0.332311 0.201948
0.180596 0.351125 0.209109
0.210432 0.369231 0.215892
0.235560 0.384269 0.221035
0.264497 0.401992 0.224778
0.304859 0.427772 0.224322
0.343614 0.452433 0.224782
0.378833 0.474632 0.227256
0.412539 0.494658 0.229901
0.443722 0.511063 0.232830
0.473623 0.525190 0.234279
0.501876 0.536387 0.233823
0.534394 0.550286 0.239194
0.571175 0.566887 0.250391
0.602281 0.580082 0.260966
0.628972 0.590628 0.271056
0.658185 0.605650 0.287453
0.688913 0.623357 0.307634
0.714090 0.642138 0.329963
0.736745 0.661408 0.353269
0.759741 0.679701 0.379456
0.782852 0.697669 0.406602
0.800303 0.713996 0.434648
0.816448 0.729946 0.462902
0.826326 0.743731 0.489617
0.835310 0.757207 0.516113
0.851191 0.767692 0.531806
0.867531 0.777977 0.546779
0.018541 0.323779 0.238766
0.069319 0.335302 0.230108
0.118710 0.346698 0.221808
0.147289 0.356203 0.218878
0.176331 0.366749 0.217031
0.208621 0.384586 0.222760
0.239946 0.402387 0.229099
0.267093 0.420029 0.238083
0.296958 0.439380 0.245553
0.334976 0.463858 0.248483
0.371286 0.487257 0.251127
0.403836 0.508284 0.253145
0.434652 0.526065 0.254285
0.462580 0.538434 0.253959
0.491420 0.551202 0.255314
0.521431 0.564482 0.258829
0.554013 0.579195 0.266641
0.589167 0.595339 0.278750
0.619634 0.608738 0.290383
0.646455 0.620000 0.301645
0.673602 0.634477 0.317749
0.700944 0.650882 0.336758
0.724347 0.668675 0.358139
0.745960 0.687098 0.380599
0.767134 0.703812 0.405451
0.788162 0.719957 0.431100
0.805222 0.733986 0.459818
0.821367 0.747527 0.489243
0.830961 0.758789 0.511548
0.839619 0.769726 0.532835
0.856639 0.781212 0.551743
0.874216 0.792735 0.570492
0.030650 0.364141 0.267020
0.085594 0.374622 0.257320
0.139151 0.384977 0.247718
0.171897 0.393440 0.239580
0.204585 0.402554 0.232655
0.236874 0.416225 0.234218
0.269176 0.431812 0.238148
0.301531 0.455704 0.252340
0.334260 0.478961 0.265018
0.368112 0.500314 0.273156
0.400581 0.520914 0.279381
0.430006 0.539858 0.281399
0.457307 0.555165 0.280976
0.481069 0.564409 0.276484
0.508931 0.576330 0.278229
0.542067 0.591694 0.287994
0.575171 0.607448 0.298931
0.608241 0.623593 0.311040
0.638383 0.638163 0.323844
0.666246 0.651509 0.337189
0.690528 0.664813 0.352773
0.712662 0.678094 0.369699
0.733722 0.692762 0.388281
0.754293 0.708060 0.407615
0.773644 0.723993 0.430905
0.792588 0.740138 0.455513
0.809258 0.753321 0.485727
0.825403 0.765820 0.517236
0.835908 0.775129 0.535244
0.845608 0.783983 0.551324
0.861716 0.794362 0.570882
0.878252 0.804843 0.590673
0.051588 0.408287 0.296535
0.106141 0.414471 0.282538
0.159715 0.421018 0.268989
0.198579 0.432996 0.262154
0.236622 0.444828 0.255684
0.268912 0.455635 0.251778
0.300847 0.468480 0.251388
0.331249 0.490158 0.266230
0.361797 0.511137 0.279885
0.392785 0.530016 0.289976
0.424139 0.549078 0.298968
0.456298 0.568543 0.305543
0.485699 0.584224 0.309335
0.510502 0.593598 0.308489
0.538609 0.606219 0.313880
0.570964 0.623015 0.327290
0.602635 0.639485 0.340050
0.633622 0.655630 0.352158
0.661607 0.669541 0.365036
0.687257 0.681715 0.378512
0.709081 0.693848 0.393249
0.728611 0.705957 0.408743
0.748141 0.719005 0.426071
0.767671 0.732481 0.444234
0.784223 0.745517 0.464008
0.799782 0.758407 0.484320
0.814759 0.769075 0.509603
0.829602 0.779231 0.536033
0.841426 0.788133 0.552837
0.852818 0.796856 0.568266
0.866225 0.805641 0.586319
0.879765 0.814429 0.604547
0.077823 0.454703 0.326806
0.129252 0.454638 0.306560
0.180351 0.455716 0.287478
0.226507 0.473944 0.285850
0.270930 0.490984 0.283156
0.303219 0.499708 0.273001
0.333983 0.509493 0.267142
0.358135 0.523880 0.279901
0.383476 0.538869 0.291994
0.412380 0.555665 0.302084
0.444255 0.573946 0.313355
0.482664 0.595494 0.327221
0.517533 0.613258 0.338695
0.546502 0.624716 0.346181
0.575586 0.638965 0.357171
0.604816 0.656802 0.372665
0.633883 0.673793 0.386466
0.662787 0.689938 0.398575
0.687517 0.702091 0.410866
0.709000 0.711140 0.423301
0.728611 0.722101 0.436996
0.747100 0.734210 0.451448
0.765588 0.746542 0.468451
0.784077 0.758976 0.486614
0.797243 0.767846 0.501701
0.808636 0.775528 0.515763
0.821139 0.782681 0.532258
0.833898 0.789712 0.549314
0.847285 0.799135 0.566769
0.860760 0.808900 0.584281
0.870391 0.815797 0.599534
0.879765 0.822502 0.614638
0.119320 0.501119 0.361240
0.167624 0.499101 0.339757
0.215668 0.498113 0.319214
0.259806 0.512565 0.312769
0.302463 0.526220 0.305974
0.334752 0.534292 0.296730
0.365821 0.543658 0.291624
0.391601 0.558631 0.304448
0.417641 0.573360 0.316231
0.444462 0.587357 0.324890
0.474396 0.602797 0.335664
0.511177 0.621416 0.351092
0.544981 0.637593 0.364519
0.573820 0.649702 0.374610
0.601776 0.663833 0.387036
0.628597 0.680563 0.402464
0.656135 0.697359 0.418023
0.684388 0.714220 0.433712
0.707295 0.725735 0.447388
0.726044 0.733091 0.459496
0.743531 0.743418 0.472418
0.760262 0.755526 0.485829
0.777485 0.766650 0.502507
0.794932 0.777326 0.520670
0.806862 0.785073 0.534292
0.816952 0.791844 0.546401
0.829846 0.798614 0.560149
0.843387 0.805385 0.574276
0.856187 0.813180 0.590054
0.868881 0.821123 0.606069
0.877243 0.827966 0.619642
0.885315 0.834737 0.633053
0.167755 0.547536 0.397566
0.212934 0.545518 0.377124
0.257658 0.544008 0.356972
0.295546 0.550128 0.341152
0.332734 0.556491 0.326676
0.365024 0.564563 0.321598
0.397069 0.574711 0.320072
0.428057 0.593850 0.333939
0.457482 0.610923 0.345982
0.482220 0.621794 0.352557
0.509094 0.633460 0.361574
0.540668 0.646870 0.375961
0.570435 0.659793 0.388736
0.597191 0.671901 0.398827
0.623064 0.685120 0.410797
0.647802 0.699768 0.425184
0.674298 0.716043 0.442826
0.702551 0.733945 0.463724
0.724286 0.745330 0.479677
0.740952 0.751645 0.491786
0.756356 0.761580 0.504057
0.771004 0.773689 0.516426
0.786860 0.783381 0.532778
0.803265 0.791974 0.550941
0.814934 0.799981 0.564563
0.825024 0.807793 0.576672
0.839611 0.815605 0.590420
0.855235 0.823417 0.604547
0.866473 0.828609 0.617591
0.877084 0.833426 0.630481
0.885315 0.841051 0.642883
0.893388 0.848863 0.655252
0.204080 0.584871 0.430864
0.246916 0.582071 0.409121
0.289199 0.579699 0.387504
0.323181 0.583735 0.367778
0.357147 0.588178 0.349917
0.390999 0.595470 0.345099
0.424411 0.604738 0.343687
0.455920 0.622576 0.357033
0.485996 0.638281 0.368946
0.511775 0.647590 0.376563
0.539203 0.658507 0.386458
0.570256 0.672959 0.401366
0.598330 0.686239 0.414760
0.621440 0.697567 0.425632
0.644693 0.709435 0.437928
0.668129 0.722000 0.452054
0.692412 0.736191 0.469436
0.717540 0.752011 0.490073
0.737176 0.762337 0.505034
0.752540 0.768392 0.515580
0.766642 0.777741 0.527591
0.779987 0.789069 0.540480
0.795795 0.798158 0.556996
0.812721 0.806231 0.575158
0.825106 0.813717 0.589367
0.835978 0.821009 0.602256
0.849229 0.829569 0.616151
0.863031 0.838423 0.630278
0.873585 0.843061 0.641272
0.883675 0.847097 0.651818
0.891874 0.853453 0.661632
0.899946 0.859963 0.671397
0.236370 0.619178 0.463154
0.277123 0.615337 0.439327
0.317257 0.611989 0.415627
0.348114 0.616025 0.393818
0.379606 0.620338 0.374004
0.415541 0.626587 0.368145
0.450451 0.634424 0.365691
0.480918 0.649136 0.377995
0.510734 0.662238 0.389648
0.538597 0.670506 0.399348
0.567782 0.681682 0.411001
0.599876 0.699259 0.426950
0.627039 0.714102 0.441386
0.645983 0.724388 0.453299
0.666437 0.734759 0.466181
0.688831 0.745240 0.480308
0.710509 0.756828 0.496648
0.731472 0.769523 0.515201
0.748699 0.778482 0.528079
0.763021 0.784536 0.536542
0.776081 0.793235 0.548423
0.788385 0.803521 0.562354
0.804583 0.812285 0.579195
0.822551 0.820358 0.597358
0.835978 0.827063 0.612347
0.847891 0.833312 0.626278
0.858799 0.842524 0.640368
0.869476 0.852419 0.654495
0.879639 0.857188 0.663666
0.889730 0.861224 0.672129
0.897928 0.865626 0.678883
0.906001 0.870053 0.685523
0.267020 0.651846 0.493804
0.303997 0.646117 0.464509
0.340607 0.640946 0.435657
0.371725 0.644136 0.413458
0.403600 0.647684 0.393383
0.440772 0.653738 0.388175
0.476809 0.661147 0.386055
0.507926 0.674428 0.397317
0.537482 0.686406 0.408287
0.562350 0.694479 0.418377
0.588215 0.704911 0.430624
0.616273 0.720535 0.447615
0.641573 0.734401 0.463093
0.662274 0.745338 0.476048
0.682521 0.755164 0.489145
0.702181 0.763562 0.502425
0.721255 0.772546 0.516455
0.739743 0.782115 0.531232
0.756254 0.791136 0.543190
0.771227 0.799729 0.552955
0.785997 0.808729 0.567033
0.800644 0.817973 0.583699
0.815963 0.826412 0.599648
0.831587 0.834484 0.615272
0.844575 0.841678 0.629139
0.856683 0.848578 0.642419
0.867840 0.856696 0.656387
0.878777 0.865093 0.670514
0.887492 0.869675 0.679343
0.895890 0.873711 0.687415
0.903983 0.877747 0.693596
0.912055 0.881783 0.699650
0.297291 0.684136 0.524075
0.330102 0.676324 0.488531
0.362871 0.669134 0.453820
0.395031 0.671283 0.431621
0.427947 0.673919 0.411676
0.466161 0.679974 0.407510
0.503239 0.687187 0.406041
0.535399 0.699426 0.416262
0.564694 0.710623 0.426450
0.585395 0.718696 0.436540
0.606769 0.728152 0.449113
0.629619 0.740651 0.467145
0.652835 0.752955 0.483664
0.676662 0.764933 0.497661
0.697298 0.774434 0.510888
0.713834 0.780748 0.523127
0.730304 0.787128 0.534552
0.746709 0.793573 0.545164
0.762895 0.802984 0.556471
0.778909 0.814702 0.568319
0.796022 0.824223 0.585131
0.813795 0.832425 0.604921
