其他预设/【236】赛博朋克风调色预设/【后期菌】视频调色预设/CUBE/Abandoned 02_S.cube
# LUT by SparkleStock. Enhanced with VOXCOLOR algorithms.
LUT_3D_SIZE 5
DOMAIN_MIN 0.000000 0.000000 0.000000
DOMAIN_MAX 0.903226 0.903226 0.903226
0.007820 0.035191 0.058651
0.088923 0.116041 0.175575
0.352285 0.208243 0.295147
0.691199 0.348879 0.456469
0.849116 0.465550 0.610601
0.018667 0.117554 0.142528
0.235633 0.220461 0.268830
0.543699 0.335367 0.319112
0.746579 0.424684 0.405512
0.849620 0.600092 0.576802
0.000883 0.230442 0.223000
0.136490 0.293634 0.240858
0.448189 0.458499 0.259338
0.680649 0.557561 0.334594
0.827864 0.697445 0.524035
0.000000 0.438306 0.357330
0.248670 0.477692 0.305649
0.514282 0.620912 0.405414
0.730320 0.725430 0.512117
0.823922 0.792291 0.593854
0.007442 0.635828 0.531265
0.486268 0.667499 0.455513
0.687668 0.753614 0.565678
0.795225 0.813579 0.638855
0.856517 0.862990 0.707466
0.023460 0.090814 0.146438
0.095274 0.123950 0.215900
0.337417 0.168690 0.329654
0.666469 0.281163 0.471328
0.853026 0.444885 0.670872
0.027326 0.156411 0.202017
0.220876 0.215556 0.309916
0.513696 0.288544 0.374533
0.723470 0.345332 0.423583
0.866237 0.510799 0.611777
0.010847 0.281757 0.305164
0.066162 0.352278 0.340652
0.520287 0.461249 0.373650
0.708739 0.521506 0.404320
0.845119 0.631527 0.521045
0.000631 0.476019 0.459740
0.028207 0.534494 0.504347
0.531299 0.642345 0.440107
0.723197 0.718665 0.506767
0.842076 0.757137 0.524911
0.011604 0.652802 0.609645
0.342598 0.673118 0.582673
0.708548 0.765157 0.620867
0.804674 0.824866 0.689705
0.860734 0.866112 0.686007
0.036074 0.145177 0.238640
0.097426 0.154368 0.290753
0.325976 0.172853 0.402790
0.669208 0.282803 0.575032
0.849620 0.418251 0.714533
0.036615 0.219289 0.301995
0.111832 0.271719 0.395328
0.518640 0.289370 0.512781
0.728660 0.354712 0.579048
0.863311 0.522483 0.705821
0.031081 0.349217 0.417169
0.065454 0.417328 0.489841
0.470980 0.448768 0.540195
0.720150 0.513501 0.568092
0.859877 0.572614 0.610699
0.007820 0.526818 0.563554
0.017007 0.567595 0.607493
0.204837 0.627443 0.620902
0.732217 0.714203 0.585177
0.853897 0.730345 0.568784
0.013516 0.667613 0.665363
0.152476 0.706900 0.705232
0.644019 0.765677 0.713181
0.793174 0.839834 0.703802
0.865544 0.872937 0.681749
0.046290 0.228928 0.382808
0.103790 0.251860 0.435263
0.351214 0.203861 0.496660
0.678415 0.309351 0.656944
0.850568 0.416233 0.766658
0.054993 0.312309 0.447270
0.091184 0.371654 0.533669
0.515208 0.312651 0.628584
0.764742 0.417911 0.726752
0.851471 0.562206 0.786877
0.048292 0.445906 0.562041
0.070920 0.507082 0.630148
0.251111 0.567681 0.689431
0.766610 0.586461 0.749683
0.853338 0.603615 0.761135
0.015742 0.586661 0.667084
0.048490 0.627309 0.708772
0.257178 0.675524 0.740128
0.680035 0.710157 0.756837
0.861294 0.735532 0.762485
0.019961 0.680100 0.722138
0.176786 0.709622 0.750155
0.555288 0.761505 0.794470
0.774371 0.833059 0.810353
0.865406 0.877066 0.801199
0.070003 0.315580 0.549428
0.116578 0.349656 0.600910
0.428155 0.243917 0.618255
0.687578 0.312586 0.716364
0.850291 0.413161 0.805136
0.079821 0.410895 0.611696
0.117375 0.475188 0.670680
0.448692 0.494923 0.745803
0.771501 0.438973 0.780531
0.848243 0.565791 0.829307
0.079084 0.552561 0.694015
0.111167 0.608811 0.740830
0.312900 0.665721 0.787176
0.752880 0.642839 0.817919
0.845782 0.683364 0.858940
0.041810 0.654117 0.762687
0.124529 0.684992 0.786857
0.425190 0.725569 0.814476
0.675079 0.769773 0.857951
0.851492 0.777760 0.891421
0.068074 0.715168 0.788491
0.326940 0.745626 0.810409
0.618822 0.786841 0.845179
0.767407 0.827581 0.886205
0.854773 0.884536 0.925101
