其他预设/【236】赛博朋克风调色预设/【后期菌】视频调色预设/CUBE/Abandoned 10.cube
# LUT by SparkleStock. Enhanced with VOXCOLOR algorithms.
LUT_3D_SIZE 5
DOMAIN_MIN 0.000000 0.000000 0.000000
DOMAIN_MAX 0.903226 0.903226 0.903226
0.015640 0.007820 0.007820
0.040867 0.028253 0.048687
0.409170 0.100905 0.119572
0.809636 0.219216 0.296913
0.875477 0.407530 0.521300
0.023460 0.028253 0.032163
0.222915 0.110007 0.131933
0.758155 0.276211 0.267451
0.861460 0.477382 0.480283
0.901619 0.667983 0.579349
0.010847 0.134078 0.116167
0.104864 0.245199 0.135591
0.628353 0.518684 0.140156
0.828475 0.675620 0.240154
0.898730 0.779515 0.381592
0.007189 0.495948 0.382934
0.246619 0.613449 0.188985
0.716588 0.759216 0.176047
0.867551 0.816069 0.271862
0.907323 0.845079 0.390185
0.166115 0.750985 0.666730
0.610406 0.794281 0.212783
0.836209 0.847728 0.290415
0.895910 0.866741 0.415383
0.922398 0.884892 0.605751
0.021064 0.019550 0.036074
0.046831 0.034560 0.084130
0.395080 0.098167 0.201956
0.809282 0.218862 0.383598
0.882235 0.429497 0.609035
0.023460 0.044191 0.080219
0.234214 0.105256 0.225839
0.779271 0.273943 0.413564
0.855113 0.471883 0.601240
0.898282 0.675314 0.723481
0.015640 0.201285 0.244548
0.047647 0.306216 0.366228
0.780047 0.553190 0.463818
0.858900 0.705549 0.586813
0.898331 0.789603 0.637416
0.033551 0.579488 0.574341
0.144794 0.664967 0.628262
0.751829 0.763326 0.282964
0.869701 0.818649 0.395409
0.898127 0.850283 0.539197
0.243075 0.785094 0.756136
0.509547 0.798582 0.583873
0.853814 0.847627 0.403788
0.904097 0.872836 0.575827
0.920836 0.893912 0.729006
0.023460 0.033929 0.123104
0.058724 0.044345 0.179342
0.411314 0.105499 0.309148
0.815345 0.236765 0.491155
0.888196 0.441642 0.673223
0.024884 0.088402 0.235019
0.084197 0.165702 0.389131
0.780142 0.289826 0.526786
0.864243 0.497293 0.668054
0.906457 0.694313 0.767045
0.026992 0.317306 0.477252
0.079467 0.467130 0.635909
0.706615 0.530500 0.646466
0.876505 0.723802 0.748055
0.900304 0.806124 0.796628
0.096600 0.675970 0.740834
0.217236 0.729862 0.779546
0.480545 0.770528 0.755983
0.874881 0.824887 0.624461
0.896149 0.855291 0.676171
0.319067 0.805621 0.811170
0.555571 0.834158 0.810629
0.819785 0.860599 0.737542
0.905766 0.882828 0.699406
0.921382 0.897200 0.802217
0.041119 0.085517 0.339924
0.097601 0.112013 0.417470
0.510555 0.146345 0.447595
0.827600 0.273330 0.586665
0.898307 0.499826 0.728343
0.044777 0.216449 0.506677
0.116763 0.335388 0.644709
0.743825 0.315023 0.610736
0.871660 0.533253 0.722918
0.912426 0.715270 0.801015
0.079951 0.527391 0.736545
0.193557 0.641679 0.785940
0.493037 0.722153 0.799008
0.892980 0.750467 0.793155
0.903869 0.818671 0.825784
0.215233 0.756914 0.822400
0.387332 0.795380 0.834250
0.641871 0.828046 0.834171
0.851628 0.844974 0.829076
0.919214 0.876713 0.855604
0.412921 0.829000 0.843313
0.633188 0.851016 0.839481
0.807485 0.877380 0.851381
0.895897 0.893103 0.838842
0.925894 0.906717 0.843430
0.079589 0.213162 0.615142
0.168007 0.264400 0.653221
0.667364 0.235951 0.600849
0.836535 0.328226 0.660110
0.900113 0.560059 0.767041
0.108253 0.427345 0.735642
0.255313 0.576422 0.787733
0.696056 0.615975 0.784069
0.875639 0.586047 0.768720
0.913532 0.733884 0.825107
0.224660 0.704781 0.834928
0.407990 0.769694 0.843521
0.652040 0.814042 0.856290
0.885899 0.788288 0.837253
0.918089 0.835021 0.854810
0.388643 0.813266 0.862803
0.593366 0.839079 0.863573
0.757167 0.857830 0.867987
0.865653 0.879317 0.874902
0.923963 0.885238 0.876393
0.581933 0.855548 0.866481
0.745290 0.873370 0.869426
0.843784 0.888547 0.874328
0.901069 0.904798 0.881527
0.932214 0.914960 0.888902
