其他预设/【236】赛博朋克风调色预设/【后期菌】视频调色预设/CUBE/Abandoned 08.cube
# LUT by SparkleStock. Enhanced with VOXCOLOR algorithms.
LUT_3D_SIZE 32
0.019550 0.019550 0.019550
0.029641 0.023587 0.023587
0.040236 0.027875 0.027623
0.058399 0.035947 0.031659
0.077571 0.044524 0.036452
0.103806 0.056633 0.046542
0.133068 0.068742 0.057768
0.175449 0.080850 0.073913
0.218333 0.094977 0.091571
0.262731 0.115158 0.113770
0.303976 0.135969 0.135339
0.338284 0.158169 0.155520
0.372592 0.181124 0.177971
0.406899 0.205342 0.204206
0.438558 0.229559 0.231325
0.466812 0.253776 0.259578
0.494056 0.276984 0.282786
0.520291 0.299183 0.300949
0.545391 0.322518 0.323653
0.569609 0.346735 0.349888
0.592565 0.368429 0.376123
0.614764 0.388610 0.402359
0.630026 0.407404 0.421657
0.642134 0.425567 0.437802
0.654243 0.440703 0.455460
0.666351 0.454829 0.473623
0.680100 0.473875 0.493425
0.694226 0.494056 0.513606
0.706587 0.512471 0.532022
0.718696 0.530634 0.550184
0.728912 0.545013 0.566455
0.739003 0.559140 0.582600
0.023587 0.023587 0.023587
0.038885 0.029706 0.028664
0.054623 0.036013 0.033742
0.076952 0.045127 0.038820
0.100811 0.055005 0.045045
0.135380 0.070239 0.059302
0.171217 0.085472 0.074304
0.212556 0.100706 0.092532
0.253878 0.117176 0.111752
0.295151 0.137357 0.133951
0.334573 0.159145 0.156496
0.369923 0.184469 0.179802
0.402928 0.208987 0.204597
0.432028 0.232163 0.231874
0.461669 0.256706 0.258211
0.492005 0.283006 0.283340
0.519250 0.306735 0.306548
0.543402 0.327892 0.327835
0.565833 0.349599 0.350148
0.586925 0.371733 0.373259
0.607407 0.391345 0.396369
0.627523 0.409442 0.419480
0.642850 0.429017 0.439950
0.656000 0.449263 0.459219
0.668369 0.465701 0.476878
0.680478 0.480869 0.493999
0.693380 0.499264 0.513606
0.706465 0.518403 0.533787
0.716873 0.533043 0.549468
0.726898 0.547039 0.564506
0.735032 0.560181 0.576676
0.743039 0.573266 0.588654
0.027623 0.027749 0.027623
0.047804 0.035756 0.033612
0.068420 0.043922 0.039634
0.095567 0.054468 0.046144
0.124650 0.065991 0.054135
0.167291 0.084349 0.072493
0.209467 0.102671 0.091193
0.249634 0.120834 0.111374
0.289329 0.139566 0.132092
0.327608 0.160008 0.154421
0.365195 0.182850 0.178012
0.401260 0.210973 0.204377
0.432956 0.236899 0.231353
0.457368 0.259163 0.259346
0.485113 0.283962 0.284861
0.517142 0.312020 0.307191
0.544159 0.336107 0.330366
0.566162 0.356223 0.354388
0.585969 0.376302 0.376249
0.604067 0.396353 0.396430
0.622165 0.414085 0.416693
0.640263 0.430425 0.437004
0.655585 0.450659 0.458524
0.669647 0.472663 0.480593
0.682244 0.490321 0.498218
0.694352 0.506531 0.514363
0.706408 0.524222 0.533629
0.718452 0.542254 0.553614
0.726964 0.553452 0.566651
0.734971 0.563672 0.578694
0.741208 0.575541 0.587076
0.747328 0.587519 0.595213
0.031659 0.033803 0.031659
0.051840 0.040769 0.036607
0.073368 0.048414 0.042107
0.115097 0.066251 0.055909
0.157461 0.084545 0.070670
0.204268 0.106028 0.092153
0.249243 0.126888 0.113392
0.286285 0.145051 0.133573
0.323376 0.164825 0.154812
0.360613 0.189433 0.179224
0.396182 0.214488 0.204898
0.428081 0.240528 0.233347
0.458345 0.265543 0.260062
0.485882 0.288849 0.283889
0.513562 0.312867 0.307972
0.541424 0.337800 0.332384
0.564795 0.359804 0.355039
0.583674 0.378878 0.375936
0.601528 0.397330 0.396430
0.618584 0.415297 0.416611
0.635640 0.434201 0.438176
0.652697 0.453666 0.460570
0.666978 0.472728 0.481309
0.679998 0.491607 0.501294
0.692334 0.509265 0.518399
0.704443 0.526517 0.534544
0.715652 0.542710 0.551271
0.726654 0.558660 0.568132
0.734125 0.571419 0.579866
0.741090 0.583723 0.590868
0.748239 0.593769 0.600161
0.755400 0.603664 0.609340
0.035443 0.039857 0.035695
0.055624 0.045912 0.039601
0.077974 0.053118 0.044549
0.132853 0.077595 0.065120
0.187358 0.102154 0.086245
0.239242 0.127283 0.111244
0.287807 0.151178 0.135388
0.321985 0.169732 0.155829
0.356569 0.190613 0.177719
0.392374 0.218476 0.203954
0.425860 0.245281 0.231369
0.454243 0.269758 0.261381
0.483188 0.294089 0.287705
0.513069 0.318176 0.307886
0.540301 0.341266 0.330545
0.564128 0.363075 0.356390
0.584179 0.383061 0.378459
0.600454 0.401223 0.396752
0.616509 0.418471 0.416180
0.632394 0.435006 0.436491
0.648359 0.454756 0.458837
0.664374 0.476434 0.482403
0.677703 0.494219 0.502434
0.689812 0.510233 0.520857
0.701920 0.527957 0.537669
0.714029 0.546250 0.553944
0.724180 0.560946 0.567945
0.733880 0.574813 0.581420
0.740504 0.588793 0.591934
0.746689 0.602789 0.602024
0.754765 0.611232 0.612359
0.762968 0.619304 0.622710
0.037461 0.045912 0.039731
0.057642 0.051966 0.042596
0.080187 0.059302 0.046762
0.138191 0.085863 0.070459
0.196862 0.113156 0.095099
0.260205 0.145576 0.126347
0.317883 0.175982 0.155959
0.351019 0.197660 0.178484
0.383781 0.220103 0.201936
0.415419 0.244841 0.228171
0.446366 0.270149 0.254936
0.475791 0.296710 0.282864
0.504216 0.321952 0.307886
0.530972 0.344997 0.328067
0.555079 0.366135 0.349359
0.575781 0.384818 0.372079
0.594790 0.403242 0.393106
0.612107 0.421404 0.412441
0.627446 0.440410 0.432911
0.641247 0.460070 0.454264
0.655781 0.478387 0.473745
0.670754 0.495899 0.492103
0.683757 0.511666 0.511938
0.695866 0.526639 0.532445
0.707975 0.544883 0.550559
0.720083 0.564218 0.567875
0.727696 0.577417 0.577840
0.734271 0.589200 0.586107
0.741416 0.602008 0.595970
0.748642 0.614963 0.606061
0.757760 0.623341 0.618348
0.767004 0.631413 0.630782
0.039857 0.053858 0.044524
0.060234 0.059717 0.046738
0.083182 0.067000 0.050477
0.144701 0.095644 0.077103
0.207490 0.125452 0.104868
0.279165 0.163405 0.140608
0.343712 0.199003 0.174260
0.377368 0.224392 0.198868
0.409772 0.249032 0.223883
0.438416 0.271426 0.250118
0.467324 0.295408 0.276170
0.496815 0.322880 0.301820
0.524181 0.348301 0.325419
0.548008 0.370305 0.345600
0.569356 0.389831 0.365695
0.587519 0.406171 0.385681
0.605194 0.423227 0.405667
0.622380 0.441000 0.425652
0.636710 0.461042 0.446773
0.648819 0.482851 0.468777
0.662189 0.499980 0.486102
0.676316 0.514302 0.500619
0.688786 0.528490 0.519880
0.700504 0.542617 0.541298
0.712515 0.560845 0.560128
0.724624 0.580440 0.578096
0.730332 0.592312 0.584110
0.734564 0.602403 0.587365
0.741985 0.613576 0.595063
0.749862 0.624903 0.603396
0.759448 0.632996 0.617160
0.769148 0.640873 0.631287
0.043894 0.070003 0.052597
0.065312 0.074820 0.055852
0.089561 0.081257 0.060698
0.156289 0.111984 0.089407
0.222984 0.143354 0.118604
0.289451 0.179224 0.151219
0.351133 0.214301 0.182723
0.392081 0.245940 0.209414
0.430474 0.275528 0.235992
0.461201 0.298964 0.262227
0.490240 0.322359 0.287303
0.515563 0.345665 0.309827
0.539545 0.368092 0.331473
0.561288 0.389054 0.351654
0.581465 0.408450 0.371294
0.599628 0.425831 0.390238
0.614699 0.442367 0.409182
0.626677 0.458056 0.428126
0.638729 0.476015 0.448205
0.650837 0.495741 0.469168
0.664207 0.512740 0.487404
0.678334 0.528103 0.504004
0.689372 0.542617 0.521052
0.699007 0.556743 0.538304
0.710497 0.572628 0.555311
0.722606 0.589098 0.572237
0.729161 0.600385 0.574670
0.734434 0.610475 0.573759
0.741074 0.618002 0.572733
0.747909 0.625163 0.571692
0.755477 0.632019 0.584871
0.763094 0.638855 0.598997
0.047425 0.088670 0.062687
0.070145 0.091925 0.065942
0.095860 0.096946 0.070869
0.166493 0.128454 0.100881
0.236053 0.160248 0.130924
0.298093 0.194035 0.161196
0.357155 0.228249 0.190991
0.403311 0.264314 0.218724
0.446521 0.297743 0.246342
0.480894 0.323262 0.273619
0.511544 0.347276 0.298597
0.534003 0.367978 0.318518
0.555315 0.388289 0.338536
0.574715 0.407949 0.358717
0.593232 0.426726 0.377901
0.610614 0.444368 0.395804
0.623601 0.460643 0.413706
0.632194 0.475551 0.431609
0.642325 0.491704 0.450061
0.653653 0.508826 0.468940
0.666404 0.525011 0.487371
0.680010 0.540635 0.505534
0.690349 0.555409 0.521280
0.699202 0.569796 0.535928
0.709911 0.583402 0.551112
0.721239 0.596747 0.566476
0.728493 0.607025 0.565231
0.734808 0.616595 0.560153
0.740439 0.619955 0.550176
0.745973 0.622429 0.539500
0.751506 0.627771 0.549147
0.757040 0.633305 0.560149
0.049443 0.114906 0.078832
0.074247 0.115036 0.078962
0.101914 0.116932 0.080895
0.172548 0.145315 0.109864
0.241846 0.174114 0.138997
0.301804 0.205818 0.169268
0.358978 0.238144 0.198673
0.404092 0.273168 0.224322
0.448604 0.307117 0.251420
0.491310 0.337845 0.282864
0.528014 0.366090 0.310380
0.551515 0.388875 0.329259
0.572306 0.409707 0.348627
0.588581 0.427284 0.368808
0.603973 0.443978 0.387536
0.618230 0.459537 0.404397
0.630697 0.476333 0.421258
0.641373 0.494365 0.438119
0.650658 0.509542 0.453185
0.658861 0.522497 0.466856
0.669138 0.535818 0.483335
0.680661 0.549359 0.501498
0.692497 0.564197 0.518676
0.704476 0.579626 0.535407
0.713622 0.591149 0.548769
0.721825 0.601369 0.561007
0.729340 0.609368 0.555791
0.736696 0.616855 0.546547
0.740635 0.614487 0.526936
0.744085 0.610711 0.505843
0.747535 0.613710 0.503121
0.750985 0.617160 0.501624
0.054615 0.141141 0.096869
0.081501 0.141727 0.096153
0.110837 0.143692 0.096942
0.176913 0.166347 0.120313
0.242209 0.189791 0.144262
0.302035 0.218760 0.172255
0.359153 0.248548 0.199357
0.404527 0.281879 0.222597
0.450423 0.315047 0.248035
0.497881 0.347728 0.280064
0.538178 0.377560 0.307862
0.562720 0.401126 0.326350
0.583601 0.422153 0.345473
0.598379 0.438949 0.365654
0.612131 0.454862 0.384354
0.624565 0.469639 0.401150
0.636674 0.486631 0.417621
0.648457 0.505835 0.433765
0.657567 0.520462 0.447054
0.664598 0.531529 0.458121
0.673134 0.543247 0.473216
0.682573 0.555356 0.490728
0.695012 0.570016 0.508464
0.708813 0.585835 0.526301
0.716804 0.595600 0.538328
0.722858 0.603347 0.548419
0.730817 0.611041 0.544175
0.739215 0.618723 0.536623
0.741745 0.612904 0.511242
0.743438 0.605157 0.483315
0.744825 0.605345 0.469668
0.746192 0.606061 0.456973
0.066723 0.167376 0.119068
0.095693 0.176295 0.122518
0.126070 0.185356 0.126237
0.177564 0.196553 0.133984
0.230621 0.209451 0.143350
0.294614 0.234254 0.164052
0.355702 0.260070 0.184644
0.404202 0.290277 0.204760
0.451660 0.319800 0.226031
0.495993 0.347272 0.250769
0.534467 0.372872 0.273880
0.560051 0.394355 0.293410
0.582364 0.414862 0.313184
0.599225 0.433741 0.333365
0.614605 0.451737 0.352976
0.628081 0.468598 0.371855
0.640189 0.485068 0.389367
0.650931 0.501148 0.405512
0.661343 0.516166 0.420558
0.671498 0.530357 0.434750
0.679904 0.543247 0.449715
0.687261 0.555356 0.465144
0.698332 0.569299 0.481512
0.711091 0.584077 0.498308
0.718822 0.592801 0.510075
0.724876 0.599506 0.520165
0.733681 0.611236 0.527770
0.743121 0.624126 0.534801
0.744870 0.619870 0.512154
0.745521 0.613165 0.485268
0.744890 0.609511 0.463874
0.744174 0.606061 0.442847
0.077318 0.195125 0.141267
0.108371 0.209252 0.146540
0.140132 0.222845 0.151284
0.182512 0.228444 0.148094
0.227773 0.235874 0.146980
0.293198 0.256120 0.160390
0.355597 0.277354 0.174033
0.404877 0.302874 0.188680
0.452042 0.327579 0.204516
0.492860 0.349843 0.223916
0.528998 0.371090 0.242827
0.554843 0.390100 0.260664
0.577807 0.409109 0.279088
0.595970 0.428118 0.298488
0.612880 0.446757 0.318229
0.628178 0.464920 0.338410
0.640678 0.481065 0.356573
0.650377 0.495191 0.372718
0.661652 0.510233 0.388863
0.674151 0.525988 0.405007
0.682866 0.539463 0.420135
0.689311 0.551572 0.434652
0.698844 0.565336 0.450557
0.709781 0.579854 0.467092
0.717935 0.588610 0.479380
0.725161 0.595445 0.490252
0.734714 0.609527 0.505725
0.744805 0.625281 0.522261
0.748117 0.625371 0.509916
0.750461 0.623223 0.493446
0.748349 0.617046 0.465990
0.745940 0.610601 0.437802
0.085391 0.225397 0.163466
0.118527 0.239523 0.166656
0.152240 0.253377 0.169252
0.194621 0.263142 0.162937
0.239491 0.273566 0.158177
0.301791 0.288605 0.164296
0.361065 0.304241 0.170257
0.407221 0.322469 0.175530
0.451001 0.340404 0.183814
0.487652 0.357460 0.201131
0.520601 0.374150 0.216657
0.545404 0.390034 0.228245
0.567717 0.405919 0.241981
0.585880 0.421803 0.259297
0.604156 0.438684 0.277867
0.622580 0.456847 0.298048
0.636121 0.472992 0.316211
0.644779 0.487119 0.332356
0.656184 0.501575 0.348501
0.669724 0.516288 0.364645
0.679481 0.529373 0.380424
0.686968 0.541481 0.395983
0.694678 0.555962 0.412929
0.702490 0.571521 0.430506
0.712206 0.582100 0.444617
0.722557 0.591018 0.457572
0.732696 0.604645 0.474282
0.742787 0.619357 0.491859
0.751567 0.628431 0.502430
0.760160 0.636698 0.511999
0.757463 0.630196 0.481288
0.754013 0.622710 0.447892
0.093463 0.259200 0.188314
0.127771 0.270592 0.189421
0.162583 0.282058 0.189954
0.204963 0.294622 0.181881
0.249386 0.307187 0.174501
0.308106 0.319751 0.171962
0.364397 0.332694 0.169642
0.410163 0.347276 0.168275
0.453177 0.360947 0.170375
0.487941 0.371884 0.182874
0.518981 0.383675 0.194132
0.541831 0.397346 0.202660
0.562924 0.411017 0.213874
0.581087 0.424688 0.229563
0.598936 0.439128 0.246220
0.616383 0.454557 0.264123
0.630054 0.469790 0.281602
0.639949 0.484828 0.298658
0.651456 0.498585 0.314433
0.664215 0.511344 0.329211
0.674900 0.524267 0.345412
0.684339 0.537287 0.362469
0.691138 0.551828 0.379972
0.696737 0.567062 0.397680
0.707560 0.579121 0.414410
0.720124 0.590123 0.430815
0.730678 0.603294 0.447908
0.740769 0.616965 0.465160
0.751429 0.630237 0.486114
0.762170 0.643452 0.507597
0.761194 0.639274 0.485137
0.759436 0.633936 0.459748
0.101536 0.297544 0.216567
0.135843 0.302686 0.215591
0.170656 0.308358 0.214171
0.213036 0.321964 0.206098
0.256937 0.335570 0.197416
0.311491 0.349176 0.184461
0.364983 0.363160 0.173093
0.413873 0.378784 0.168601
0.459492 0.391414 0.166274
0.495297 0.395059 0.170440
0.526077 0.401512 0.176295
0.545802 0.414142 0.185865
0.564942 0.426771 0.197338
0.583105 0.439401 0.211986
0.598220 0.450520 0.225779
0.609417 0.459700 0.238473
0.622047 0.472850 0.254390
0.636108 0.489971 0.273530
0.647680 0.502881 0.288458
0.657315 0.512516 0.300111
0.668780 0.525569 0.316443
0.681345 0.540672 0.335582
0.688404 0.554432 0.353021
0.692961 0.567582 0.369687
0.704305 0.580684 0.390063
0.717911 0.593769 0.411676
0.728660 0.606484 0.428053
0.738751 0.619113 0.443221
0.746677 0.630432 0.458446
0.754293 0.641565 0.473680
0.758004 0.643115 0.474266
0.761454 0.644026 0.473875
0.108599 0.333869 0.243812
0.149677 0.334325 0.238148
0.190902 0.335570 0.232106
0.234323 0.348655 0.220388
0.279137 0.362066 0.208060
0.333690 0.377755 0.191459
0.386499 0.392944 0.177324
0.431743 0.405964 0.173874
0.474498 0.416380 0.171547
0.509782 0.418984 0.172588
0.539716 0.424232 0.176132
0.557878 0.435299 0.185181
0.575455 0.446171 0.195939
0.592056 0.456717 0.209545
0.604698 0.465526 0.221613
0.612249 0.472101 0.231703
0.623577 0.484210 0.246578
0.638680 0.501852 0.266239
0.650121 0.514111 0.281395
0.658714 0.522183 0.293048
0.669464 0.534650 0.309705
0.681507 0.549753 0.329365
0.689836 0.563514 0.347683
0.696476 0.576664 0.365390
0.707950 0.590156 0.386808
0.721035 0.603762 0.409463
0.731264 0.615305 0.425612
0.740834 0.626372 0.440259
0.747328 0.635673 0.453141
0.753382 0.644722 0.465770
0.759924 0.651024 0.479864
0.766500 0.657144 0.494056
0.114653 0.368177 0.270047
0.169272 0.365508 0.257092
0.223321 0.363693 0.243759
0.268826 0.374695 0.224750
0.315983 0.386674 0.206432
0.374703 0.405488 0.192956
0.428944 0.422043 0.182337
0.463772 0.428814 0.184095
0.498194 0.435844 0.186194
0.531395 0.443656 0.189319
0.559897 0.451835 0.193644
0.578059 0.460818 0.200610
0.594465 0.469216 0.209675
0.607940 0.476638 0.222239
0.618369 0.484145 0.233721
0.624879 0.491761 0.243812
0.634644 0.503870 0.258166
0.647664 0.520470 0.276785
0.658779 0.532274 0.293243
0.668414 0.540346 0.308021
0.676950 0.551511 0.325199
0.684828 0.564531 0.343817
0.695435 0.579073 0.363958
0.707283 0.594306 0.384790
0.718496 0.607538 0.404645
0.729498 0.620102 0.424175
0.738490 0.629757 0.440585
0.747018 0.638741 0.456274
0.753382 0.645959 0.470197
0.759436 0.652924 0.483868
0.766955 0.663003 0.501933
0.774572 0.673289 0.520291
0.116167 0.403620 0.297417
0.181983 0.396654 0.280101
0.247172 0.390791 0.261966
0.302963 0.401468 0.231565
0.359201 0.412819 0.203450
0.418573 0.428899 0.191341
0.472158 0.443490 0.183029
0.500672 0.451627 0.191166
0.528811 0.459960 0.198425
0.555828 0.468879 0.203047
0.579711 0.477167 0.208300
0.596702 0.484067 0.214940
0.610984 0.490431 0.223191
0.620749 0.495899 0.234128
0.629403 0.502507 0.244951
0.636629 0.510579 0.255627
0.646004 0.522102 0.270633
0.657526 0.537075 0.289968
0.667914 0.549155 0.308497
0.677418 0.558985 0.326399
0.684766 0.569507 0.344098
0.690821 0.580444 0.361675
0.701619 0.594155 0.381221
0.714574 0.609128 0.401663
0.725381 0.621514 0.420395
0.735471 0.633036 0.438558
0.744398 0.642708 0.456986
0.753056 0.651952 0.475474
0.758924 0.658405 0.489121
0.764392 0.664459 0.502076
0.771203 0.674542 0.520157
0.778104 0.684893 0.538580
0.114149 0.439946 0.325671
0.189339 0.427772 0.306271
0.264359 0.417092 0.285272
0.336815 0.428810 0.240288
0.407375 0.440161 0.199413
0.464663 0.448950 0.187305
0.515970 0.458983 0.180360
0.541359 0.474412 0.195788
0.564812 0.487693 0.208776
0.582454 0.494528 0.214439
0.599241 0.500733 0.220734
0.614149 0.505550 0.228416
0.625566 0.510221 0.236537
0.631165 0.514648 0.245390
0.638387 0.520670 0.255497
0.647696 0.528742 0.267215
0.657591 0.539223 0.283783
0.668072 0.552113 0.305201
0.677418 0.565039 0.326399
0.685881 0.577994 0.347426
0.692839 0.588386 0.365646
0.698893 0.597240 0.382182
0.708259 0.608868 0.399254
0.719131 0.621758 0.416571
0.729417 0.632841 0.434522
0.739507 0.643322 0.452685
0.749281 0.654491 0.474498
0.758980 0.665818 0.497152
0.764066 0.672532 0.509497
0.768493 0.678586 0.520369
0.773286 0.685739 0.535390
0.778104 0.692965 0.550689
0.118437 0.476272 0.353924
0.201049 0.456286 0.330488
0.283539 0.438469 0.305445
0.364198 0.453181 0.256295
0.441919 0.466649 0.211367
0.499077 0.471401 0.196004
0.549326 0.478180 0.186194
0.569637 0.493739 0.200451
0.588239 0.506921 0.213308
0.601715 0.512976 0.221967
0.615394 0.519010 0.231256
0.629521 0.524999 0.241932
0.640108 0.530256 0.252120
0.644795 0.534292 0.261494
0.651846 0.540664 0.273204
0.661937 0.550038 0.287917
0.671702 0.560454 0.305722
0.681141 0.571912 0.326619
0.689446 0.584138 0.347516
0.696867 0.596963 0.368413
0.703841 0.606817 0.386340
0.710546 0.614890 0.402485
0.719579 0.626185 0.420867
0.729669 0.638944 0.440267
0.738783 0.648237 0.456786
0.747572 0.656375 0.472345
0.755302 0.666681 0.492823
0.762789 0.677488 0.514436
0.767826 0.684136 0.526537
0.772513 0.690190 0.537278
0.776590 0.696244 0.550583
0.780626 0.702299 0.564059
0.126510 0.512597 0.382178
0.215371 0.483237 0.353534
0.303915 0.456892 0.323738
0.387699 0.475771 0.276671
0.468285 0.492624 0.232916
0.526484 0.495293 0.212344
0.576408 0.499598 0.197131
0.590469 0.510990 0.205138
0.604124 0.521048 0.214350
0.616558 0.527102 0.227175
0.629521 0.534113 0.240630
0.643648 0.543227 0.255473
0.654625 0.550437 0.269046
0.660354 0.554473 0.280504
0.667991 0.561756 0.295208
0.678082 0.573214 0.314087
0.687326 0.584150 0.332934
0.695724 0.594566 0.351747
0.702986 0.605165 0.370561
0.709366 0.615907 0.389375
0.716600 0.624980 0.406521
0.724347 0.633053 0.422666
0.733705 0.645064 0.444629
0.743796 0.658865 0.469237
0.751348 0.666075 0.483933
0.758053 0.671087 0.495326
0.762008 0.679115 0.511637
0.765328 0.687838 0.529084
0.770755 0.694226 0.541575
0.776484 0.700281 0.553358
0.780626 0.706335 0.565752
0.784662 0.712389 0.578186
0.137357 0.546148 0.407656
0.234616 0.513859 0.378817
0.330960 0.484625 0.348521
0.413572 0.501225 0.296376
0.493084 0.516003 0.247885
0.550892 0.518021 0.224969
0.600267 0.521821 0.208560
0.613091 0.533344 0.220343
0.625379 0.543500 0.231996
0.636055 0.549554 0.243258
0.646915 0.555751 0.255375
0.658177 0.562261 0.269372
0.667487 0.568380 0.283734
0.673541 0.573848 0.298707
0.680421 0.581595 0.315019
0.688363 0.592272 0.333052
0.697087 0.603013 0.352582
0.706591 0.613820 0.373609
0.714155 0.623821 0.392622
0.720209 0.633195 0.410069
0.727077 0.641756 0.427150
0.734434 0.649828 0.444010
0.743177 0.661078 0.465839
0.752552 0.673773 0.489926
0.758362 0.680511 0.504590
0.762984 0.685263 0.516113
0.766654 0.692713 0.531391
0.770104 0.700785 0.547536
0.775833 0.706465 0.559522
0.781888 0.711803 0.570915
0.786721 0.717142 0.582979
0.791474 0.722480 0.595087
0.149466 0.578438 0.431873
0.256099 0.546148 0.405117
0.361036 0.516589 0.376254
0.440524 0.527981 0.315776
0.517171 0.538202 0.259863
0.573938 0.540220 0.235906
0.622661 0.544411 0.220213
0.636527 0.558017 0.240329
0.649075 0.569735 0.257190
0.657669 0.575789 0.264286
0.665794 0.580358 0.272561
0.672890 0.581660 0.283433
0.679595 0.585306 0.297405
0.685649 0.592858 0.316545
0.691163 0.600865 0.333833
0.695980 0.609458 0.348741
0.704183 0.619679 0.368791
0.715770 0.631527 0.393985
0.724246 0.641398 0.414235
0.730300 0.649730 0.430641
0.736517 0.657901 0.447982
0.742832 0.665973 0.465884
0.750534 0.675791 0.485890
0.758867 0.686402 0.506852
0.762854 0.693400 0.522297
0.765393 0.699194 0.535903
0.770365 0.706839 0.551572
0.775898 0.714912 0.567717
0.781888 0.719680 0.578792
0.787942 0.723977 0.589143
0.793752 0.728274 0.601141
0.799546 0.732570 0.613250
0.166115 0.603160 0.457604
0.276655 0.570089 0.430588
0.385156 0.539764 0.401252
0.463081 0.550636 0.337128
0.538133 0.560499 0.278091
0.593077 0.563298 0.254655
0.640222 0.567782 0.239190
0.653567 0.579565 0.258264
0.665399 0.589721 0.274474
0.672690 0.594994 0.282090
0.679595 0.599351 0.291701
0.685649 0.601695 0.305697
0.691704 0.605601 0.321134
0.697758 0.612111 0.338972
0.702929 0.618963 0.355186
0.706966 0.626254 0.369312
0.714257 0.635954 0.388712
0.724803 0.648062 0.413385
0.732383 0.657461 0.433700
0.737656 0.664752 0.450626
0.743418 0.672044 0.467837
0.749472 0.679335 0.485219
0.756376 0.688550 0.503988
0.763668 0.698641 0.523388
0.768176 0.705704 0.539419
0.771756 0.711759 0.554326
0.776712 0.718818 0.568970
0.781985 0.726109 0.583552
0.787942 0.730552 0.594888
0.793996 0.734588 0.605760
0.799318 0.739357 0.616326
0.804591 0.744174 0.626872
0.184278 0.625359 0.483839
0.296901 0.591246 0.455781
0.407290 0.560010 0.425339
0.484173 0.571924 0.359132
0.558053 0.582828 0.298402
0.610915 0.586669 0.276008
0.656171 0.591413 0.260607
0.668475 0.600071 0.275515
0.679266 0.607623 0.289121
0.685515 0.611855 0.298821
0.691704 0.616473 0.311491
0.697758 0.621941 0.330696
0.703812 0.627019 0.348216
0.709867 0.631446 0.362928
0.715038 0.636670 0.377385
0.719074 0.642919 0.391511
0.725324 0.652099 0.409870
0.733787 0.664207 0.432459
0.739870 0.673020 0.452449
0.744101 0.679270 0.470417
0.749472 0.685519 0.487367
0.755526 0.691769 0.503707
0.761715 0.700659 0.521435
0.767964 0.710750 0.539793
0.773774 0.717813 0.556345
0.779438 0.723867 0.572294
0.783938 0.730080 0.585440
0.788170 0.736330 0.597939
0.793996 0.740643 0.609926
0.800050 0.744679 0.621839
0.804396 0.750424 0.630518
0.808627 0.756283 0.638981
0.227036 0.644278 0.510075
0.329048 0.609971 0.480129
0.429371 0.578511 0.447839
0.504366 0.589773 0.380396
0.576334 0.600238 0.318608
0.627112 0.605121 0.296408
0.670481 0.610601 0.281020
0.681743 0.618674 0.295147
0.691492 0.625526 0.308688
0.696700 0.628715 0.320471
0.702173 0.633065 0.334350
0.708227 0.639965 0.352838
0.714281 0.646109 0.370008
0.720336 0.650992 0.384981
0.725507 0.656017 0.400324
0.729543 0.661225 0.416144
0.734328 0.668190 0.433883
0.739861 0.676914 0.453544
0.745505 0.685088 0.471885
0.751234 0.692835 0.489202
0.757166 0.700053 0.506844
0.763220 0.706953 0.524682
0.768693 0.714302 0.541579
0.773901 0.721853 0.558049
0.779109 0.728282 0.574910
0.784317 0.734336 0.591901
0.789948 0.741078 0.604925
0.795677 0.747979 0.617034
0.800209 0.752373 0.626921
0.804571 0.756409 0.636491
0.807834 0.760750 0.644657
0.811024 0.765112 0.652729
0.275471 0.662441 0.536310
0.363942 0.628134 0.504281
0.451440 0.596609 0.469973
0.524352 0.606830 0.401488
0.594237 0.616513 0.338789
0.642932 0.622437 0.316589
0.684413 0.628764 0.301201
0.694633 0.636837 0.315328
0.703340 0.643428 0.329390
0.707507 0.645576 0.343256
0.712263 0.649535 0.357916
0.718317 0.657477 0.374321
0.724372 0.664663 0.390580
0.730426 0.670587 0.406594
0.735597 0.675742 0.423435
0.739634 0.679908 0.441337
0.742856 0.684270 0.458556
0.745265 0.688827 0.475092
0.750713 0.696350 0.491481
0.758525 0.706180 0.507756
0.765238 0.714830 0.526309
0.771293 0.722773 0.546230
