其他预设/【236】赛博朋克风调色预设/【后期菌】视频调色预设/CUBE/Abandoned 04.cube
# LUT by SparkleStock. Enhanced with VOXCOLOR algorithms.
LUT_3D_SIZE 32
0.035191 0.050831 0.062561
0.041245 0.054867 0.066597
0.047173 0.058777 0.070633
0.051209 0.060795 0.074670
0.055750 0.062813 0.078454
0.063822 0.064831 0.080472
0.074165 0.067606 0.083625
0.094346 0.073661 0.091697
0.116545 0.080219 0.100274
0.144799 0.088292 0.110365
0.176205 0.095103 0.121717
0.214549 0.099139 0.135843
0.260461 0.108473 0.151484
0.318986 0.126636 0.169647
0.373979 0.143916 0.191341
0.424432 0.160061 0.217576
0.477911 0.179232 0.242803
0.534418 0.201432 0.267020
0.580708 0.224766 0.293507
0.619052 0.248983 0.321761
0.657396 0.278246 0.348753
0.695740 0.310535 0.374988
0.724372 0.335887 0.398449
0.748589 0.358087 0.420648
0.769779 0.380286 0.442847
0.789960 0.402485 0.465046
0.810141 0.431243 0.492164
0.830322 0.461514 0.520417
0.846971 0.488254 0.541608
0.863116 0.514489 0.561789
0.879261 0.535049 0.580078
0.895406 0.555230 0.598240
0.037209 0.056885 0.066597
0.044305 0.058838 0.070633
0.051274 0.060860 0.074670
0.056352 0.063920 0.078706
0.062455 0.067240 0.082880
0.075736 0.072383 0.088023
0.090701 0.077502 0.093520
0.112965 0.082514 0.100551
0.138549 0.088292 0.109128
0.174094 0.096364 0.122343
0.213117 0.105128 0.136494
0.259794 0.115414 0.152704
0.309351 0.128263 0.171600
0.363710 0.145385 0.194970
0.418638 0.165724 0.220050
0.474298 0.190202 0.247327
0.526215 0.214582 0.273595
0.574389 0.238864 0.298854
0.614690 0.261938 0.324039
0.648868 0.284072 0.349168
0.683045 0.311251 0.374988
0.717223 0.341458 0.401223
0.743121 0.367591 0.425400
0.765255 0.391873 0.448641
0.785143 0.416937 0.471881
0.804282 0.442261 0.495122
0.822575 0.469066 0.519897
0.840673 0.496213 0.545025
0.856150 0.518005 0.564002
0.871254 0.539032 0.582100
0.884404 0.556336 0.597329
0.897424 0.573393 0.612367
0.039101 0.062687 0.070507
0.047173 0.062752 0.074609
0.055148 0.063074 0.078714
0.061658 0.067240 0.082880
0.069665 0.071895 0.087543
0.088154 0.079967 0.095681
0.107777 0.087295 0.103476
0.132320 0.091396 0.109791
0.161403 0.096572 0.118563
0.204109 0.104970 0.134708
0.250497 0.115809 0.151585
0.304985 0.132019 0.170074
0.358009 0.148351 0.192248
0.408592 0.164886 0.220567
0.463333 0.188285 0.248828
0.523420 0.220510 0.277017
0.573482 0.249675 0.304131
0.613519 0.275780 0.330171
0.647989 0.298626 0.354124
0.678130 0.318937 0.376453
0.708190 0.344131 0.401183
0.738201 0.372254 0.427353
0.761454 0.399124 0.452180
0.781635 0.425424 0.476398
0.800303 0.453141 0.500615
0.818466 0.481329 0.524832
0.834936 0.506185 0.547251
0.851016 0.530272 0.569255
0.865273 0.547353 0.586018
0.879269 0.563432 0.602033
0.889543 0.577681 0.614385
0.899568 0.591808 0.626494
0.039101 0.064705 0.072525
0.047173 0.065812 0.077668
0.055604 0.067240 0.082880
0.069405 0.073490 0.089130
0.084443 0.079967 0.095746
0.108139 0.088040 0.104925
0.132971 0.095563 0.114348
0.162722 0.100706 0.124829
0.197013 0.107964 0.136726
0.244927 0.121570 0.152871
0.294895 0.136315 0.171376
0.349384 0.153567 0.195072
0.403189 0.172893 0.220892
0.455855 0.195678 0.250253
0.508577 0.222137 0.278644
0.561374 0.253320 0.305791
0.605186 0.280923 0.330822
0.640014 0.304945 0.353737
0.671034 0.328051 0.377495
0.699093 0.350445 0.401907
0.725767 0.375118 0.426767
0.751612 0.401158 0.451896
0.773563 0.428093 0.476398
0.793744 0.455435 0.500615
0.812411 0.482631 0.524832
0.830574 0.509778 0.549049
0.846198 0.532746 0.568929
0.861236 0.554750 0.587808
0.873540 0.570658 0.602358
0.885454 0.585697 0.616289
0.894620 0.599880 0.628512
0.903604 0.614007 0.640621
0.039101 0.066976 0.074796
0.047173 0.068864 0.080720
0.056010 0.071146 0.086786
0.076322 0.079349 0.094989
0.097821 0.087584 0.103509
0.127637 0.096047 0.114250
0.158466 0.104205 0.125676
0.193685 0.111040 0.140063
0.233217 0.120708 0.154987
0.285687 0.138870 0.171522
0.338748 0.157278 0.191760
0.393106 0.176222 0.220144
0.447367 0.198754 0.249138
0.501465 0.227268 0.279149
0.551747 0.256266 0.307394
0.597122 0.285887 0.333369
0.635010 0.311927 0.356642
0.665411 0.334386 0.377214
0.693250 0.358054 0.400971
0.719095 0.382662 0.427207
0.742417 0.406944 0.452018
0.764225 0.431031 0.475975
0.784915 0.457624 0.500021
0.805096 0.485357 0.524108
0.823763 0.511967 0.548195
0.841926 0.538202 0.572282
0.856386 0.559307 0.589281
0.869992 0.579227 0.604645
0.880522 0.594078 0.617274
0.890613 0.608205 0.629513
0.899055 0.622332 0.641874
0.907388 0.636458 0.654243
0.039101 0.071012 0.078832
0.047173 0.071858 0.083715
0.056076 0.073229 0.088870
0.077428 0.082474 0.098114
0.101401 0.092011 0.108196
0.143716 0.103599 0.124146
0.186068 0.115467 0.140193
0.228578 0.128552 0.156663
0.273579 0.142907 0.173931
0.326049 0.161070 0.193591
0.378784 0.181430 0.216303
0.432101 0.206623 0.245728
0.484539 0.233843 0.274592
0.535513 0.264440 0.302520
0.580391 0.292332 0.328682
0.617433 0.316744 0.352573
0.651675 0.341222 0.376367
0.683119 0.365764 0.400064
0.709655 0.392101 0.425188
0.732375 0.419834 0.451424
0.752572 0.444637 0.474933
0.771256 0.467682 0.496807
0.790969 0.491086 0.519486
0.811150 0.514652 0.542531
0.829817 0.540220 0.565577
0.847980 0.566455 0.588622
0.859055 0.585867 0.600348
0.868495 0.603705 0.609462
0.878504 0.618295 0.622222
0.888595 0.632422 0.635502
0.898990 0.646549 0.649881
0.909406 0.660675 0.664333
0.038722 0.075805 0.082868
0.047185 0.076000 0.086709
0.056568 0.076826 0.090977
0.079743 0.087112 0.101654
0.106459 0.097902 0.113518
0.157953 0.112224 0.133699
0.209240 0.127486 0.153575
0.259627 0.146821 0.172128
0.310633 0.166058 0.191691
0.363494 0.185002 0.214281
0.416050 0.207486 0.239149
0.467935 0.237757 0.269030
0.518086 0.268639 0.297397
0.565349 0.300538 0.323242
0.605349 0.327481 0.347748
0.636011 0.348053 0.370533
0.666705 0.371164 0.394555
0.697433 0.396813 0.419814
0.722337 0.425062 0.445622
0.742714 0.455334 0.471857
0.760445 0.480438 0.494186
0.776590 0.502442 0.514172
0.795375 0.523192 0.535545
0.815361 0.543373 0.557549
0.833980 0.567509 0.579699
0.852143 0.592963 0.601898
0.860150 0.611012 0.609181
0.865814 0.627352 0.613022
0.875180 0.641414 0.624667
0.885075 0.655150 0.637427
0.896679 0.668886 0.652994
0.908397 0.682622 0.668748
0.036704 0.083877 0.086904
0.047250 0.085114 0.089704
0.058911 0.086982 0.093191
0.087295 0.098309 0.106992
0.117916 0.110141 0.121591
0.164203 0.125505 0.141772
0.213211 0.142785 0.162038
0.274014 0.168369 0.182675
0.333353 0.193335 0.204320
0.388297 0.216445 0.228993
0.441309 0.241794 0.254643
0.490069 0.272065 0.282440
0.535923 0.302166 0.308725
0.576936 0.331981 0.332486
0.614332 0.358664 0.357187
0.647078 0.381319 0.383097
0.674648 0.403909 0.406077
0.697042 0.426433 0.426128
0.718887 0.453316 0.449658
0.740305 0.483587 0.475893
0.758427 0.508040 0.497571
0.774572 0.529003 0.516516
0.792641 0.549428 0.536847
0.811585 0.569609 0.557809
0.829944 0.590620 0.579699
0.848106 0.611907 0.601898
0.854421 0.630021 0.608335
0.858002 0.647403 0.611134
0.866196 0.659772 0.616269
0.875050 0.671425 0.621737
0.884636 0.683078 0.634896
0.894270 0.694731 0.648567
0.034686 0.092454 0.091445
0.046795 0.094472 0.093724
0.060181 0.097121 0.096869
0.092731 0.109230 0.113014
0.126510 0.121810 0.129630
0.168890 0.137695 0.149551
0.216140 0.156374 0.169899
0.284495 0.187167 0.192098
0.350539 0.217406 0.215501
0.409650 0.245984 0.242518
0.464794 0.275174 0.269372
0.511210 0.305706 0.295867
0.553745 0.335285 0.320947
0.589810 0.363278 0.343667
0.624423 0.389392 0.368124
0.657168 0.413088 0.394815
0.682004 0.435678 0.416754
0.698930 0.457161 0.433940
0.718090 0.482562 0.455484
0.738987 0.511011 0.480418
0.757076 0.534292 0.501445
0.773482 0.554473 0.520129
0.790916 0.574296 0.539842
0.808819 0.593956 0.560023
0.826331 0.612298 0.581131
0.843712 0.630200 0.602549
0.849034 0.647468 0.607782
0.851573 0.664590 0.609279
0.858042 0.674648 0.606276
0.865073 0.683696 0.602631
0.872348 0.692989 0.610337
0.879639 0.702299 0.618800
0.032668 0.102545 0.097499
0.044777 0.104563 0.100820
0.058228 0.107212 0.104941
0.091819 0.119320 0.121086
0.126510 0.131771 0.137573
0.168890 0.146613 0.156452
0.215945 0.164837 0.175953
0.283258 0.197713 0.198152
0.351125 0.231858 0.222337
0.420652 0.269811 0.252478
0.482957 0.305771 0.281806
0.529373 0.337344 0.309343
0.571517 0.367184 0.335855
0.606541 0.394136 0.360658
0.637833 0.418752 0.383553
0.664329 0.440365 0.403994
0.687602 0.464517 0.424891
0.707653 0.491208 0.446244
0.725251 0.514786 0.466682
0.740940 0.535944 0.486407
0.757727 0.556491 0.506783
0.775174 0.576672 0.527550
0.792218 0.595063 0.547914
0.809079 0.612640 0.568095
0.823987 0.629680 0.586860
0.838244 0.646541 0.605153
0.844672 0.660228 0.608107
0.849295 0.673183 0.607521
0.852379 0.679074 0.591499
0.855243 0.683957 0.573271
0.859328 0.690060 0.566394
0.863494 0.696244 0.560275
0.030019 0.114527 0.104815
0.042128 0.117522 0.108526
0.055522 0.120984 0.112912
0.088202 0.131465 0.127429
0.122136 0.142402 0.142321
0.164841 0.156529 0.159833
0.211905 0.174562 0.178162
0.277851 0.209520 0.200036
0.345913 0.246351 0.223863
0.420322 0.288796 0.253548
0.486594 0.328067 0.282583
0.534963 0.360357 0.310185
0.578182 0.390498 0.337397
0.612815 0.417059 0.363958
0.642720 0.441113 0.386246
0.666547 0.461945 0.403042
0.689234 0.487009 0.423223
0.710782 0.516304 0.446789
0.727936 0.538568 0.466913
0.741672 0.555364 0.484360
0.758175 0.574276 0.504981
0.776338 0.594457 0.527505
0.792218 0.611863 0.548195
0.807061 0.628007 0.568050
0.820097 0.643908 0.585367
0.832531 0.659727 0.601837
0.841104 0.671685 0.605666
0.848786 0.682752 0.606577
0.849177 0.685617 0.581115
0.848526 0.687309 0.551885
0.848546 0.690589 0.531566
0.848611 0.693974 0.511841
0.025983 0.130672 0.114906
0.038092 0.136791 0.117575
0.051160 0.142858 0.120659
0.078633 0.148131 0.129968
0.108139 0.154511 0.140042
0.151886 0.168637 0.155471
0.199405 0.187061 0.171913
0.263268 0.224103 0.192745
0.327945 0.260933 0.213707
0.395063 0.297129 0.235060
0.458275 0.332104 0.257715
0.512894 0.364393 0.283234
0.560409 0.394925 0.309534
0.596084 0.422527 0.337137
0.628854 0.448079 0.360923
0.657888 0.470994 0.379802
0.682138 0.495537 0.399983
0.701603 0.521707 0.421466
0.720775 0.543776 0.443022
0.739719 0.562655 0.464635
0.758175 0.582348 0.487469
0.776338 0.602529 0.511035
0.789354 0.619935 0.531334
0.800030 0.636080 0.550148
0.812806 0.651199 0.567985
0.826282 0.665977 0.585497
0.839281 0.680279 0.597138
0.852171 0.694470 0.607424
0.851390 0.696814 0.580399
0.848656 0.697465 0.548044
0.842687 0.698726 0.516788
0.836502 0.700028 0.485605
0.022704 0.148330 0.124996
0.034812 0.156793 0.127014
0.047726 0.164927 0.129236
0.072725 0.168117 0.134509
0.100002 0.172674 0.140840
0.143228 0.186800 0.154576
0.189054 0.204882 0.168934
0.246147 0.240101 0.185991
0.304119 0.274295 0.202624
0.364727 0.305413 0.217987
0.424318 0.336897 0.235629
0.481671 0.369186 0.258284
0.531285 0.399376 0.281574
0.568002 0.426067 0.305921
0.603465 0.452018 0.328617
0.637317 0.477016 0.349188
0.663910 0.501233 0.369174
0.683245 0.524669 0.388574
0.704630 0.546274 0.410024
0.727610 0.566455 0.433070
0.748068 0.586392 0.456603
0.767012 0.606183 0.480430
0.780093 0.623735 0.500900
0.790509 0.640271 0.519844
0.803708 0.655000 0.538495
0.817835 0.669126 0.557048
0.833601 0.685210 0.574914
0.849746 0.701745 0.592622
0.851309 0.706888 0.575411
0.850788 0.710404 0.553212
0.841662 0.710257 0.515144
0.831962 0.709867 0.476019
0.020686 0.168511 0.135087
0.032794 0.178016 0.137105
0.045839 0.187321 0.139196
0.072920 0.193636 0.142386
0.101629 0.200927 0.146764
0.141731 0.215054 0.159458
0.182284 0.231573 0.171408
0.224794 0.258459 0.180132
0.270527 0.285622 0.189994
0.325927 0.313615 0.203275
0.380961 0.342951 0.218183
0.435189 0.375240 0.236671
0.483241 0.403868 0.253451
0.520999 0.426393 0.267382
0.558871 0.450911 0.284674
0.596890 0.477993 0.306287
0.627129 0.502210 0.325752
0.649588 0.523563 0.343069
0.673512 0.544256 0.361850
0.698576 0.564437 0.381771
0.721117 0.583723 0.403482
0.742144 0.602472 0.426267
0.760173 0.620415 0.447843
0.776838 0.637992 0.468871
0.791600 0.652981 0.488824
0.805726 0.667108 0.508419
0.821493 0.684038 0.529865
0.837638 0.701615 0.551739
0.847403 0.715091 0.563302
0.856256 0.727981 0.573393
0.848692 0.727444 0.535390
0.840034 0.726011 0.494182
0.017785 0.192224 0.148709
0.031260 0.202770 0.150727
0.045716 0.213219 0.152716
0.074881 0.222203 0.154279
0.104852 0.231829 0.156932
0.140461 0.245956 0.167217
0.175571 0.261340 0.176417
0.208511 0.282172 0.180909
0.245651 0.304127 0.186963
0.295387 0.329451 0.197705
0.345266 0.356524 0.209850
0.395458 0.387447 0.225083
0.441207 0.415025 0.238144
0.479551 0.437028 0.247583
0.517382 0.460371 0.260612
0.554554 0.485434 0.278254
0.587072 0.508512 0.295147
0.614935 0.529605 0.311292
0.642138 0.549415 0.327803
0.668829 0.568229 0.344599
0.693567 0.586921 0.364202
0.717133 0.605540 0.385490
0.738372 0.622905 0.405837
0.758553 0.639701 0.425758
0.776244 0.655520 0.446557
0.793105 0.671014 0.467650
0.808644 0.687936 0.489800
0.823877 0.705188 0.512195
0.838541 0.722040 0.538121
0.853123 0.738836 0.564551
0.849884 0.739703 0.538007
0.845458 0.739507 0.507931
0.013748 0.220477 0.166872
0.030349 0.232065 0.168890
0.047865 0.243620 0.170814
0.079113 0.254687 0.171335
0.110125 0.266137 0.172556
0.139485 0.280264 0.178675
0.168930 0.295062 0.184685
0.198746 0.312769 0.190218
0.231980 0.331859 0.196272
0.275467 0.355100 0.203889
0.319421 0.379765 0.213235
0.364405 0.407563 0.226385
0.406899 0.434750 0.239316
0.445243 0.460920 0.251880
0.479885 0.483416 0.262109
0.509766 0.501189 0.269335
0.542804 0.521663 0.281020
0.578999 0.544838 0.297165
0.610435 0.563803 0.311918
0.638167 0.579492 0.325589
0.665249 0.597663 0.342719
0.691940 0.617323 0.361923
0.714155 0.632866 0.378040
0.734336 0.646537 0.392752
0.756714 0.663918 0.413812
0.779825 0.682537 0.436988
0.794842 0.698352 0.456143
0.807993 0.713520 0.474371
0.823307 0.727379 0.496131
0.838931 0.741050 0.518395
0.843570 0.745627 0.517956
0.847476 0.749598 0.516003
0.011730 0.251758 0.188062
0.037705 0.263867 0.187476
0.063977 0.275943 0.186926
0.094704 0.287530 0.186926
0.125065 0.299631 0.187561
0.152863 0.315320 0.192639
0.180551 0.330997 0.197998
0.207763 0.346621 0.204573
0.238522 0.364019 0.211148
0.279926 0.386739 0.217723
0.320984 0.410394 0.225864
0.361281 0.436109 0.237452
0.400650 0.461604 0.249406
0.438473 0.486732 0.261971
0.471454 0.507048 0.270377
0.498210 0.521174 0.273436
0.530988 0.539825 0.283039
0.569788 0.563001 0.299183
0.602362 0.581087 0.312765
0.630095 0.595213 0.324353
0.657827 0.612798 0.339724
0.685560 0.632459 0.357366
0.708101 0.648359 0.372636
0.728282 0.662551 0.386828
0.751832 0.679672 0.407367
0.776505 0.697770 0.430022
0.791815 0.711795 0.448234
0.804966 0.724880 0.465420
0.818913 0.736200 0.483860
0.832975 0.747267 0.502478
0.843374 0.755587 0.517923
0.853530 0.763725 0.533157
0.011730 0.286066 0.212279
0.053329 0.298174 0.206485
0.094053 0.310185 0.201053
0.121656 0.320731 0.201053
0.149673 0.332311 0.201948
0.180596 0.351125 0.209109
0.210432 0.369145 0.216356
0.235560 0.383728 0.223972
0.265278 0.400605 0.231589
0.308765 0.424367 0.239206
0.349953 0.448413 0.247738
0.386084 0.473086 0.258284
0.422458 0.495586 0.268415
0.459240 0.514465 0.277855
0.492091 0.531265 0.285415
0.519889 0.545391 0.290558
0.551625 0.563001 0.301201
0.587300 0.584093 0.317346
0.617921 0.601268 0.330342
0.644612 0.615394 0.340888
0.671303 0.632328 0.355218
0.697994 0.650947 0.371819
0.720209 0.669387 0.389628
0.740390 0.687745 0.407986
0.761597 0.702783 0.427223
0.783145 0.716714 0.446753
0.799562 0.728266 0.466071
0.814796 0.739267 0.485341
0.825358 0.748503 0.501307
0.835253 0.757487 0.516800
0.849299 0.769584 0.537909
0.863621 0.781888 0.559392
0.018541 0.323779 0.238766
0.069319 0.335302 0.230108
0.118710 0.346698 0.221808
0.147289 0.356203 0.218878
0.176331 0.366749 0.217031
0.208621 0.384586 0.222760
0.239946 0.402387 0.229368
0.267093 0.420029 0.239784
0.297820 0.439022 0.249907
0.339289 0.462068 0.259151
0.378154 0.484930 0.268660
0.411290 0.507389 0.278750
0.444743 0.526602 0.287425
0.478725 0.540403 0.293739
0.510970 0.554859 0.301222
0.540981 0.570158 0.310206
0.572554 0.587605 0.322477
0.605690 0.607200 0.338036
0.635274 0.624049 0.351507
0.662095 0.638761 0.363356
0.687086 0.654898 0.377523
0.710977 0.671889 0.393082
0.731915 0.689059 0.410207
0.751510 0.706311 0.428045
0.770227 0.720144 0.446126
0.788650 0.732839 0.464289
0.805222 0.743418 0.484092
0.821367 0.753508 0.504273
0.830961 0.761833 0.519156
0.839619 0.769905 0.533283
0.855296 0.782555 0.555771
0.871441 0.795510 0.578816
0.030650 0.364141 0.267020
0.085594 0.374622 0.257320
0.139151 0.384977 0.247718
0.171897 0.393440 0.239580
0.204585 0.402554 0.232655
0.236874 0.416225 0.234218
0.269176 0.431812 0.238221
0.301531 0.455704 0.252804
0.334862 0.478863 0.266572
0.371123 0.499826 0.277900
0.405756 0.520279 0.288841
0.436809 0.539614 0.298931
0.467398 0.555311 0.306434
0.497213 0.564946 0.309624
0.528482 0.577970 0.317627
0.561618 0.595352 0.331819
0.593712 0.613319 0.346173
0.624765 0.631873 0.360691
0.654023 0.648852 0.375464
0.681886 0.664606 0.390437
0.704663 0.679831 0.405125
0.724388 0.694739 0.419643
0.743308 0.707678 0.433578
0.761861 0.719721 0.447249
0.777973 0.733034 0.464289
0.793272 0.746770 0.482452
0.809258 0.757544 0.502255
0.825403 0.767635 0.522436
0.835908 0.775959 0.537319
0.845608 0.784032 0.551446
0.861350 0.794729 0.571981
0.877495 0.805600 0.592943
0.051588 0.407026 0.299057
0.106792 0.413210 0.284410
0.160976 0.419757 0.270250
0.199841 0.431735 0.263415
0.237884 0.443567 0.257027
0.270173 0.454374 0.253772
0.302109 0.467341 0.253788
0.332510 0.489670 0.267980
0.363400 0.511137 0.281651
0.395755 0.530016 0.293760
0.428476 0.549078 0.305848
0.462002 0.568543 0.317891
0.493796 0.584224 0.327152
0.522700 0.593598 0.331774
0.553114 0.606817 0.341437
0.585469 0.624980 0.357582
0.616456 0.642818 0.373043
0.646077 0.660330 0.387821
0.673464 0.675608 0.402269
0.699113 0.689149 0.416461
0.719676 0.702649 0.431019
0.737188 0.716124 0.445797
0.755148 0.728168 0.460082
0.773311 0.739560 0.474144
0.787470 0.751051 0.489328
0.800295 0.762573 0.504887
0.814759 0.771874 0.522615
0.829602 0.780663 0.540843
0.841426 0.789394 0.556621
0.852818 0.798118 0.572050
0.866225 0.806292 0.588272
0.879765 0.814429 0.604547
0.077823 0.451424 0.333365
0.130945 0.451359 0.311426
0.183631 0.452437 0.290757
0.229787 0.470665 0.289129
0.274209 0.487705 0.286647
0.306499 0.496428 0.278184
0.337263 0.506531 0.273383
0.361415 0.522611 0.284450
0.386836 0.538869 0.295778
0.416066 0.555665 0.307886
0.448266 0.573946 0.320951
0.487001 0.595494 0.336119
0.522440 0.613258 0.348895
0.552386 0.624716 0.357684
0.582018 0.639107 0.369691
0.611248 0.657270 0.385835
0.640153 0.674586 0.401818
0.668732 0.691057 0.417637
0.693319 0.703536 0.430783
0.714802 0.712910 0.441850
0.733152 0.724197 0.455887
0.749622 0.736631 0.471706
0.767256 0.749781 0.488466
0.785419 0.763257 0.505652
0.798016 0.772143 0.518493
0.808758 0.779499 0.529885
0.821139 0.786327 0.544293
0.833898 0.793032 0.559396
0.847285 0.802414 0.576607
0.860760 0.812179 0.594119
0.870391 0.817489 0.604612
0.879765 0.822502 0.614638
0.119320 0.498597 0.366285
0.168926 0.496579 0.343500
0.218191 0.495590 0.321736
0.262329 0.510042 0.315291
0.304985 0.523697 0.308659
0.337275 0.531769 0.300717
0.368344 0.541380 0.296425
0.394124 0.557655 0.307947
0.420164 0.573360 0.319079
0.446985 0.587357 0.329040
0.476918 0.602797 0.340709
0.513700 0.621416 0.356138
0.547503 0.637593 0.369565
0.576342 0.649702 0.379655
0.604299 0.663833 0.392081
0.631120 0.680563 0.407510
0.658657 0.697359 0.424371
0.686911 0.714220 0.442664
0.709818 0.725735 0.456746
0.728567 0.733091 0.467552
0.745240 0.743418 0.480800
0.760669 0.755526 0.495513
0.777485 0.767545 0.512597
0.794932 0.779524 0.530760
0.806862 0.787596 0.543406
0.816952 0.794366 0.554213
0.829846 0.801137 0.567717
0.843387 0.807907 0.581843
0.856187 0.815703 0.597622
0.868881 0.823645 0.613637
0.877243 0.829268 0.623548
0.885315 0.834737 0.633053
0.167755 0.547031 0.398575
0.213194 0.545013 0.377873
0.258162 0.543504 0.357476
0.296050 0.549623 0.341657
0.333239 0.555987 0.327213
0.365528 0.564059 0.322396
0.397574 0.574255 0.321032
0.428561 0.593655 0.334638
0.457987 0.610923 0.346552
0.482725 0.621794 0.353387
0.509599 0.633460 0.362583
0.541172 0.646870 0.376970
0.570939 0.659793 0.389746
0.597695 0.671901 0.399836
0.623568 0.685120 0.411806
0.648306 0.699768 0.426193
0.674802 0.716043 0.444096
0.703056 0.733945 0.465514
0.724791 0.745330 0.481549
0.741456 0.751645 0.493397
0.756698 0.761580 0.505733
0.771085 0.773689 0.518363
0.786860 0.783560 0.534796
0.803265 0.792413 0.552959
0.814934 0.800486 0.566386
0.825024 0.808298 0.578234
0.839611 0.816110 0.591934
0.855235 0.823922 0.606061
0.866473 0.829114 0.619105
0.877084 0.833931 0.631995
0.885315 0.841312 0.643664
0.893388 0.848863 0.655252
0.204080 0.584871 0.430864
0.246916 0.582071 0.409121
0.289199 0.579699 0.387504
0.323181 0.583735 0.367778
0.357147 0.588178 0.349917
0.390999 0.595470 0.345099
0.424411 0.604738 0.343687
0.455920 0.622576 0.357033
0.485996 0.638281 0.368946
0.511775 0.647590 0.376563
0.539203 0.658507 0.386458
0.570256 0.672959 0.401366
0.598330 0.686239 0.414760
0.621440 0.697567 0.425632
0.644693 0.709435 0.437928
0.668129 0.722000 0.452054
0.692412 0.736191 0.469436
0.717540 0.752011 0.490073
0.737176 0.762337 0.505034
0.752540 0.768392 0.515580
0.766642 0.777741 0.527591
0.779987 0.789069 0.540480
0.795795 0.798158 0.556996
0.812721 0.806231 0.575158
0.825106 0.813717 0.589367
0.835978 0.821009 0.602256
0.849229 0.829569 0.616151
0.863031 0.838423 0.630278
0.873585 0.843061 0.641272
0.883675 0.847097 0.651818
0.891874 0.853453 0.661632
0.899946 0.859963 0.671397
0.236370 0.619178 0.463154
0.277123 0.615337 0.439327
0.317257 0.611989 0.415627
0.348114 0.616025 0.393818
0.379606 0.620338 0.374004
0.415541 0.626587 0.368145
0.450451 0.634424 0.365691
0.480918 0.649136 0.377995
0.510734 0.662238 0.389648
0.538597 0.670506 0.399348
0.567782 0.681682 0.411001
0.599876 0.699259 0.426950
0.627039 0.714102 0.441386
0.645983 0.724388 0.453299
0.666437 0.734759 0.466181
0.688831 0.745240 0.480308
0.710509 0.756828 0.496648
0.731472 0.769523 0.515201
0.748699 0.778482 0.528079
0.763021 0.784536 0.536542
0.776081 0.793235 0.548423
0.788385 0.803521 0.562354
0.804583 0.812285 0.579195
0.822551 0.820358 0.597358
0.835978 0.827063 0.612347
0.847891 0.833312 0.626278
0.858799 0.842524 0.640368
0.869476 0.852419 0.654495
0.879639 0.857188 0.663666
0.889730 0.861224 0.672129
0.897928 0.865626 0.678883
0.906001 0.870053 0.685523
0.270299 0.650207 0.498723
0.307276 0.644478 0.469428
0.343887 0.639306 0.440524
0.375004 0.642496 0.417478
0.406879 0.646044 0.396557
0.444051 0.652099 0.390502
0.480088 0.659508 0.387854
0.511206 0.672788 0.399962
0.540761 0.684766 0.411778
0.565629 0.692839 0.422715
0.591494 0.703536 0.435543
0.619553 0.720006 0.452534
0.644852 0.734401 0.468329
0.665554 0.745338 0.482131
0.685430 0.755164 0.495334
0.704244 0.763562 0.507768
0.722895 0.772546 0.521374
0.741383 0.782115 0.536151
0.757894 0.791136 0.548585
0.772867 0.799729 0.559197
0.787637 0.808729 0.573592
0.802284 0.817973 0.590258
0.817603 0.826412 0.605625
0.833227 0.834484 0.620403
0.845580 0.841678 0.634692
0.856842 0.848578 0.648819
0.867840 0.856696 0.663633
0.878777 0.865093 0.678606
0.887492 0.869675 0.686801
0.895890 0.873711 0.694027
0.903983 0.877747 0.700948
0.912055 0.881783 0.707849
0.304607 0.680478 0.535049
0.337417 0.672666 0.499504
0.370187 0.665477 0.464676
0.402346 0.667625 0.440589
0.435263 0.670261 0.418756
0.473476 0.676316 0.412701
0.510555 0.683530 0.410053
0.542714 0.695768 0.422161
0.572009 0.706966 0.434237
0.592711 0.715038 0.446216
0.614084 0.725084 0.460086
0.636934 0.739471 0.478119
0.660151 0.752955 0.495346
0.683977 0.764933 0.511230
0.703788 0.774434 0.524694
0.718435 0.780748 0.535045
0.733962 0.787128 0.545526
0.750367 0.793573 0.556137
0.766552 0.802984 0.568506
0.782567 0.814702 0.582242
0.799680 0.824223 0.599762
0.817452 0.832425 0.619553
