其他预设/【236】赛博朋克风调色预设/【后期菌】视频调色预设/CUBE/Abandoned 04.cube
# LUT by SparkleStock. Enhanced with VOXCOLOR algorithms.
LUT_3D_SIZE 5
DOMAIN_MIN 0.000000 0.000000 0.000000
DOMAIN_MAX 0.903226 0.903226 0.903226
0.035191 0.050831 0.062561
0.094346 0.073661 0.091697
0.373979 0.143916 0.191341
0.695740 0.310535 0.374988
0.846971 0.488254 0.541608
0.036704 0.083877 0.086904
0.274014 0.168369 0.182675
0.614332 0.358664 0.357187
0.774572 0.529003 0.516516
0.866196 0.659772 0.616269
0.017785 0.192224 0.148709
0.208511 0.282172 0.180909
0.517382 0.460371 0.260612
0.717133 0.605540 0.385490
0.838541 0.722040 0.538121
0.077823 0.451424 0.333365
0.361415 0.522611 0.284450
0.582018 0.639107 0.369691
0.749622 0.736631 0.471706
0.847285 0.802414 0.576607
0.328320 0.701920 0.560779
0.566647 0.715217 0.445443
0.718444 0.787836 0.549953
0.825500 0.846593 0.641442
0.902888 0.891158 0.729539
0.038218 0.062561 0.080598
0.094977 0.071264 0.116968
0.378772 0.117807 0.248678
0.700171 0.270189 0.429729
0.865008 0.463227 0.598114
0.032794 0.101914 0.114572
0.274004 0.149344 0.240209
0.655284 0.326065 0.444584
0.786085 0.485715 0.574920
0.877161 0.618677 0.674639
0.018126 0.226043 0.212206
0.113396 0.316406 0.305266
0.656423 0.526829 0.485863
0.774273 0.645460 0.595253
0.851101 0.739022 0.667769
0.102032 0.487135 0.416595
0.263694 0.578527 0.491815
0.612367 0.663796 0.439681
0.753139 0.743925 0.539385
0.853957 0.810727 0.646513
0.332482 0.709309 0.620745
0.522081 0.740175 0.606036
0.735361 0.796104 0.604762
0.836659 0.849999 0.691790
0.903390 0.895195 0.774756
0.039101 0.080850 0.126510
0.102907 0.076057 0.162693
0.395401 0.101283 0.323128
0.725983 0.258272 0.505457
0.867803 0.447322 0.650626
0.035191 0.138691 0.192712
0.146823 0.205335 0.304953
0.660188 0.306813 0.516414
0.789152 0.469184 0.625167
0.878749 0.611766 0.717520
0.047637 0.287644 0.333882
0.169834 0.385425 0.429253
0.587929 0.479996 0.567236
0.793161 0.626212 0.683023
0.861736 0.711623 0.745051
0.195394 0.535268 0.524234
0.282015 0.595213 0.583056
0.421365 0.647695 0.631461
0.780524 0.759814 0.650513
0.847599 0.815078 0.701335
0.349550 0.709761 0.672804
0.443082 0.747038 0.705826
0.704055 0.805102 0.721302
0.842686 0.858600 0.741435
0.902244 0.898296 0.812772
0.034560 0.129789 0.261596
0.125460 0.134582 0.312537
0.432065 0.117746 0.420713
0.729547 0.256628 0.574833
0.871660 0.449027 0.701859
0.061804 0.222764 0.341454
0.182370 0.298692 0.427176
0.610637 0.296603 0.560595
0.796768 0.469132 0.677116
0.877737 0.608661 0.754196
0.157872 0.394067 0.474034
0.257656 0.475361 0.564527
0.415869 0.562674 0.643057
0.798794 0.634657 0.729725
0.857567 0.712044 0.778427
0.278193 0.589737 0.628309
0.350964 0.640112 0.676555
0.470450 0.688000 0.721898
0.713634 0.740738 0.757041
0.877387 0.820210 0.824086
0.374423 0.719929 0.717911
0.461336 0.746021 0.736789
0.627546 0.790645 0.785331
0.805946 0.855124 0.817236
0.913016 0.911886 0.854592
0.090941 0.208243 0.409044
0.194441 0.234718 0.462259
0.534902 0.186760 0.553549
0.740301 0.276610 0.644441
0.871608 0.456213 0.749598
0.172181 0.332946 0.489853
0.283486 0.421562 0.578327
0.540521 0.473982 0.682431
0.799732 0.476697 0.727772
0.873798 0.607939 0.786999
0.265360 0.508793 0.627755
0.345770 0.580566 0.686545
0.477871 0.644910 0.744364
0.764479 0.655421 0.777994
0.863642 0.722330 0.817901
0.345539 0.659670 0.730174
0.417871 0.693056 0.758359
0.549410 0.728689 0.785257
0.696415 0.771014 0.817898
0.880190 0.815787 0.861320
0.418422 0.743507 0.776932
0.528742 0.772034 0.795611
0.662872 0.803003 0.823027
0.782231 0.850649 0.861947
0.903500 0.911168 0.905380
