其他预设/【236】赛博朋克风调色预设/【后期菌】视频调色预设/CUBE/Abandoned 09_S.cube
# LUT by SparkleStock. Enhanced with VOXCOLOR algorithms.
LUT_3D_SIZE 5
DOMAIN_MIN 0.000000 0.000000 0.000000
DOMAIN_MAX 0.903226 0.903226 0.903226
0.015640 0.003910 0.003910
0.040867 0.034560 0.048687
0.386088 0.112635 0.107842
0.816195 0.243307 0.302841
0.882919 0.421404 0.544761
0.021064 0.029767 0.033677
0.212787 0.117286 0.108607
0.659325 0.255416 0.181450
0.806735 0.386971 0.345852
0.900304 0.625623 0.537759
0.009964 0.123609 0.093085
0.099981 0.224603 0.105141
0.532652 0.443490 0.083963
0.777534 0.591474 0.149608
0.897363 0.754249 0.333243
0.000000 0.452307 0.275975
0.239397 0.545330 0.152525
0.664431 0.725539 0.133003
0.848660 0.808172 0.225799
0.903698 0.848672 0.345441
0.041497 0.717939 0.549302
0.560173 0.782172 0.176710
0.814621 0.844217 0.244861
0.892159 0.870306 0.363229
0.922019 0.888802 0.543821
0.021064 0.019550 0.031281
0.048056 0.037001 0.078751
0.374085 0.093716 0.186064
0.792491 0.208251 0.364401
0.890055 0.433672 0.629574
0.022533 0.051083 0.069120
0.211194 0.125480 0.190740
0.594717 0.244636 0.307162
0.758885 0.336545 0.398076
0.898001 0.551527 0.616842
0.010847 0.181682 0.184709
0.061288 0.290405 0.270116
0.587701 0.445767 0.309339
0.755394 0.543070 0.371999
0.894038 0.678045 0.488025
0.002641 0.525951 0.443563
0.050766 0.610493 0.529346
0.650483 0.723800 0.224715
0.817157 0.780856 0.324575
0.897318 0.797260 0.407628
0.094672 0.756661 0.711193
0.368946 0.769267 0.505118
0.826672 0.846385 0.357492
0.892563 0.875644 0.513232
0.915514 0.891713 0.624995
0.024343 0.033929 0.094851
0.058814 0.049228 0.152440
0.377763 0.102671 0.291656
0.801629 0.236354 0.495712
0.897192 0.448437 0.689433
0.022146 0.095681 0.185108
0.094843 0.168599 0.336359
0.618548 0.254387 0.461336
0.775382 0.357159 0.557640
0.903332 0.586867 0.711505
0.020234 0.283177 0.384680
0.068912 0.403006 0.523189
0.546008 0.436365 0.526261
0.764653 0.546215 0.572486
0.894201 0.618184 0.620328
0.032778 0.618564 0.673793
0.089745 0.687979 0.738285
0.319123 0.724254 0.700177
0.799427 0.764408 0.522828
0.892763 0.761476 0.532767
0.154783 0.790192 0.804823
0.349617 0.816915 0.799338
0.757238 0.853611 0.694555
0.860547 0.880919 0.628985
0.912864 0.894291 0.665948
0.037839 0.097247 0.307382
0.100881 0.124483 0.377486
0.458621 0.149278 0.426641
0.827925 0.293837 0.602102
0.898592 0.499447 0.742535
0.042246 0.215953 0.445740
0.108604 0.325217 0.599265
0.689014 0.297133 0.603316
0.851943 0.472070 0.714878
0.908394 0.658357 0.792167
0.061804 0.474965 0.688774
0.144486 0.595004 0.765289
0.390810 0.661533 0.779126
0.851121 0.665119 0.767503
0.902196 0.668687 0.766075
0.112383 0.727346 0.824870
0.232132 0.767779 0.838230
0.482624 0.808687 0.836807
0.788628 0.789432 0.787861
0.907009 0.777121 0.765209
0.237163 0.816985 0.859430
0.433246 0.831636 0.842415
0.721739 0.867619 0.849436
0.865252 0.891105 0.818108
0.916081 0.906177 0.789791
0.087031 0.234100 0.595213
0.178024 0.294850 0.655240
0.624879 0.240260 0.600470
0.837670 0.346926 0.677833
0.901879 0.540297 0.774063
0.105259 0.411432 0.716763
0.223781 0.541167 0.778177
0.635860 0.572661 0.780286
0.877970 0.549352 0.766942
0.910216 0.692144 0.823039
0.182492 0.677032 0.828788
0.320182 0.747744 0.849665
0.542000 0.793761 0.855048
0.876937 0.753163 0.831425
0.916316 0.783471 0.858462
0.272350 0.797593 0.870936
0.429029 0.821905 0.868862
0.658280 0.847473 0.869647
0.826196 0.871256 0.881139
0.917797 0.845856 0.879592
0.377393 0.842052 0.876445
0.597598 0.862722 0.871913
0.784153 0.882493 0.876228
0.887971 0.903670 0.884451
0.930033 0.918132 0.892527
