其他预设/【236】赛博朋克风调色预设/【后期菌】视频调色预设/CUBE/Abandoned 09.cube
# LUT by SparkleStock. Enhanced with VOXCOLOR algorithms.
LUT_3D_SIZE 8
DOMAIN_MIN 0.000000 0.000000 0.000000
DOMAIN_MAX 0.903226 0.903226 0.903226
0.015640 0.003910 0.003910
0.023965 0.020055 0.031785
0.052471 0.041119 0.056759
0.217198 0.081102 0.086652
0.586763 0.153754 0.143033
0.794501 0.225018 0.265002
0.852143 0.309022 0.396304
0.882919 0.421404 0.544761
0.023460 0.020055 0.023965
0.042055 0.041168 0.059977
0.166371 0.081135 0.094627
0.509973 0.157489 0.149466
0.777404 0.242681 0.259826
0.851646 0.337320 0.407538
0.879485 0.452237 0.545729
0.902961 0.579951 0.657005
0.019550 0.034308 0.036704
0.054835 0.063411 0.081229
0.313794 0.153770 0.130167
0.666396 0.256832 0.198335
0.810645 0.348903 0.304106
0.861550 0.459549 0.429168
0.884306 0.588170 0.555584
0.900854 0.676287 0.518058
0.014883 0.087409 0.070255
0.033608 0.107232 0.083422
0.218537 0.208552 0.119853
0.599372 0.356825 0.140201
0.775182 0.467695 0.207392
0.840893 0.592369 0.297702
0.873288 0.676275 0.382764
0.899584 0.741342 0.411379
0.003910 0.194242 0.129411
0.024608 0.214940 0.111000
0.103464 0.319499 0.123975
0.373601 0.469424 0.115467
0.614841 0.596442 0.109380
0.777054 0.701082 0.139607
0.856028 0.769087 0.208873
0.894270 0.812004 0.282253
0.000000 0.384448 0.246965
0.044773 0.406143 0.165635
0.249178 0.531155 0.156277
0.520527 0.654613 0.134196
0.719160 0.733412 0.144839
0.827897 0.792299 0.198697
0.876535 0.824064 0.266043
0.900768 0.846092 0.338980
0.001514 0.592691 0.390250
0.117257 0.601801 0.222609
0.452648 0.707206 0.159385
0.671364 0.769868 0.158295
0.799989 0.818165 0.202302
0.865403 0.841169 0.267223
0.896964 0.860846 0.340249
0.911498 0.868918 0.409800
0.041497 0.715795 0.557878
0.267866 0.715392 0.243787
0.622836 0.795030 0.179310
0.775133 0.834016 0.221686
0.847097 0.852647 0.274868
0.885124 0.866269 0.346035
0.905423 0.876991 0.424452
0.922019 0.888802 0.550254
0.016145 0.012235 0.020307
0.027387 0.023729 0.036468
0.052658 0.037900 0.070157
0.216946 0.083499 0.124365
0.594579 0.154259 0.193294
0.793068 0.223793 0.319987
0.853656 0.318453 0.462259
0.886967 0.431495 0.599363
0.020039 0.024469 0.033030
0.048957 0.045060 0.079938
0.178138 0.087726 0.134098
0.507788 0.156395 0.200676
0.776399 0.247718 0.333190
0.850998 0.344318 0.482214
0.874701 0.445484 0.586450
0.899382 0.575994 0.683436
0.023241 0.049728 0.060986
0.032477 0.066457 0.090255
0.414883 0.164312 0.213110
0.734750 0.260758 0.326654
0.836881 0.362681 0.457170
0.861893 0.464041 0.571119
0.882304 0.590656 0.664232
0.904514 0.684614 0.726669
0.014680 0.106019 0.101255
0.019295 0.137027 0.140823
0.184674 0.203184 0.207092
0.701307 0.373575 0.279010
0.810828 0.499801 0.381525
0.846740 0.603960 0.472907
0.878527 0.687784 0.555906
0.906396 0.761685 0.634940
0.006811 0.235800 0.200178
0.007665 0.290281 0.252458
0.080183 0.321428 0.192523
0.365620 0.466077 0.177830
0.673136 0.614047 0.152281
0.796589 0.711392 0.208957
0.857627 0.773932 0.280265
0.888142 0.809960 0.355515
0.002649 0.444108 0.345779
0.007225 0.495180 0.388780
0.165072 0.539452 0.235485
0.539041 0.660299 0.164428
0.738962 0.740325 0.191397
0.838773 0.795009 0.265232
0.877260 0.824296 0.337602
0.902937 0.845840 0.413616
0.011140 0.635559 0.504732
0.035830 0.647493 0.473495
0.339121 0.687118 0.244381
0.699592 0.784901 0.205150
0.809055 0.815331 0.256116
0.868774 0.845895 0.342255
0.896844 0.862522 0.420546
0.908963 0.868313 0.491919
0.067684 0.737969 0.655443
0.170087 0.724995 0.462420
0.568945 0.787720 0.279383
0.787914 0.835913 0.274545
0.854895 0.856018 0.346245
0.889006 0.867734 0.415961
0.908035 0.878512 0.521932
0.925011 0.894282 0.646193
0.020055 0.020559 0.033803
0.027875 0.027875 0.053825
0.058842 0.041054 0.091197
0.213032 0.083597 0.162315
0.564047 0.147447 0.249606
0.797149 0.231902 0.380701
0.855170 0.325488 0.525658
0.890967 0.437374 0.644405
0.026646 0.032355 0.060515
0.036515 0.045769 0.095040
0.170182 0.084708 0.165005
0.515062 0.164473 0.266724
0.778774 0.249938 0.391318
0.849444 0.347115 0.533175
0.875404 0.450553 0.625602
0.899183 0.571018 0.709435
0.022891 0.063696 0.086144
0.029234 0.088516 0.139253
0.335224 0.148882 0.256533
0.714432 0.258419 0.389984
0.829843 0.366308 0.516824
0.859793 0.469172 0.618348
0.873950 0.571585 0.674342
0.901771 0.679330 0.747007
0.014883 0.126510 0.153416
0.021503 0.175167 0.208661
0.093532 0.217177 0.299069
0.738067 0.374004 0.476693
0.844819 0.508428 0.603166
0.866721 0.607294 0.661871
0.885299 0.699960 0.717382
0.904044 0.764804 0.735307
0.007185 0.268619 0.273538
0.011934 0.343022 0.360249
0.027514 0.393332 0.414876
0.326932 0.445472 0.354862
0.794228 0.642654 0.407275
0.839741 0.715737 0.482575
0.875317 0.773279 0.567963
0.892949 0.809071 0.554903
0.004236 0.481101 0.439897
0.010966 0.543330 0.512793
0.044657 0.597389 0.571159
0.384915 0.642058 0.315680
0.757798 0.746658 0.259531
0.841034 0.793559 0.335705
0.877485 0.827692 0.431103
0.899246 0.846332 0.498259
0.025112 0.662417 0.615610
0.058568 0.691932 0.660620
0.162142 0.715072 0.622695
0.625159 0.774407 0.352344
0.825073 0.820992 0.336490
0.872922 0.845484 0.420618
0.890343 0.857315 0.494531
0.907259 0.869177 0.574862
0.104795 0.762085 0.736733
0.197788 0.771523 0.706722
0.442905 0.781328 0.508899
0.761040 0.830574 0.394824
0.867443 0.861542 0.432690
0.892384 0.873585 0.515361
0.905803 0.879671 0.613877
0.918907 0.894699 0.715554
0.023460 0.028127 0.070255
0.032086 0.033502 0.089126
0.064046 0.045688 0.125655
0.211164 0.083499 0.209126
0.564633 0.149156 0.310193
0.794594 0.234706 0.442057
0.859080 0.332820 0.577095
0.895369 0.442700 0.677125
0.023460 0.050200 0.102825
0.036039 0.071014 0.156153
0.152477 0.092132 0.228643
0.513377 0.163124 0.326190
0.767603 0.254911 0.450797
0.848493 0.342505 0.572948
0.883864 0.464680 0.672667
0.899497 0.569524 0.727908
0.019648 0.089932 0.150096
0.032811 0.124962 0.221521
0.132901 0.168021 0.323425
0.660280 0.257488 0.439508
0.833369 0.369646 0.578070
0.859979 0.470357 0.654485
0.880001 0.588505 0.715022
0.902769 0.682592 0.763561
0.018330 0.177865 0.258484
0.022556 0.228206 0.320915
0.100210 0.291919 0.425111
0.622251 0.351221 0.523048
0.828976 0.477935 0.626231
0.866053 0.604548 0.699885
0.887175 0.698060 0.745604
0.901895 0.762578 0.782520
0.009895 0.335175 0.394620
0.020799 0.395192 0.477698
0.040381 0.463831 0.565722
0.197507 0.508293 0.604235
0.815312 0.630966 0.663043
0.871119 0.726608 0.708867
0.890791 0.780757 0.748677
0.900508 0.817877 0.770440
0.016011 0.537730 0.572510
0.036187 0.607958 0.653599
0.072646 0.658275 0.703558
0.166615 0.683599 0.700894
0.700720 0.737290 0.506112
0.860659 0.800662 0.515419
0.875436 0.823489 0.568111
0.897427 0.848691 0.645799
0.045952 0.693303 0.714660
0.090773 0.723301 0.743152
0.176800 0.748470 0.750609
0.371286 0.773754 0.718978
0.785045 0.817895 0.502323
0.876142 0.848542 0.509662
0.892919 0.861228 0.589894
0.902093 0.872116 0.658297
0.134346 0.780175 0.791132
0.240362 0.801077 0.795355
0.393487 0.809040 0.758751
0.675100 0.835863 0.657843
0.865148 0.861204 0.539290
0.897350 0.879186 0.609682
0.906719 0.886863 0.701937
0.921678 0.899735 0.773811
0.028380 0.047047 0.139249
0.041119 0.055998 0.168629
0.083259 0.063192 0.211518
0.222805 0.088418 0.264945
0.568742 0.155023 0.370028
0.801047 0.248771 0.508781
0.866269 0.352614 0.625892
0.898103 0.463378 0.709712
0.024535 0.075939 0.183842
0.037928 0.105942 0.254613
0.147425 0.120199 0.316984
0.520561 0.172637 0.397076
0.774307 0.261271 0.522585
0.851648 0.361297 0.622258
0.882787 0.466905 0.694940
0.905173 0.590192 0.755005
0.028380 0.140014 0.272325
0.038218 0.185482 0.348253
0.093498 0.248361 0.450953
0.489971 0.250978 0.493192
0.830753 0.376101 0.617076
0.861456 0.479669 0.681198
0.887413 0.598683 0.743092
0.907083 0.689103 0.785255
0.025479 0.259338 0.401122
0.042285 0.321483 0.482555
0.080725 0.384583 0.570525
0.298058 0.435575 0.631548
0.807727 0.479847 0.661559
0.873465 0.622960 0.735526
0.891719 0.703246 0.771346
0.902496 0.767351 0.803377
0.024335 0.411163 0.553517
0.044037 0.487240 0.629677
0.086433 0.570424 0.705555
0.237044 0.605885 0.720667
0.732248 0.629283 0.711377
0.867331 0.719764 0.750961
0.893068 0.782054 0.783816
0.901574 0.820537 0.812132
0.040036 0.609775 0.695764
0.070757 0.658031 0.744151
0.122415 0.702429 0.777548
0.223073 0.727025 0.787942
0.509670 0.754135 0.761666
0.852431 0.806915 0.692727
0.889274 0.835839 0.695687
0.902086 0.856745 0.727979
0.084760 0.730540 0.788686
0.136834 0.751075 0.801546
0.234354 0.772950 0.807010
0.381366 0.791486 0.795620
0.619362 0.818654 0.769034
0.856761 0.850027 0.682972
0.894626 0.865386 0.680030
0.908054 0.881777 0.726521
0.183562 0.798907 0.831681
0.272001 0.811927 0.819147
0.423489 0.826078 0.820144
0.642104 0.842893 0.783412
0.821250 0.870631 0.764283
0.891298 0.881956 0.716898
0.913455 0.895046 0.758015
0.923560 0.903272 0.809455
0.033803 0.083120 0.265002
0.049317 0.096832 0.300795
0.111590 0.102561 0.332893
0.294464 0.116830 0.367872
0.599856 0.171380 0.451737
0.803261 0.262691 0.567143
0.866758 0.370887 0.663971
0.897485 0.486427 0.732444
0.034983 0.124528 0.318437
0.059113 0.178677 0.417229
0.157293 0.190465 0.467362
0.454912 0.190141 0.480873
0.777998 0.276777 0.578552
0.850015 0.367665 0.650998
0.884587 0.482630 0.719405
0.905366 0.595668 0.768627
0.039137 0.221958 0.434705
0.061413 0.276735 0.521354
0.111651 0.350600 0.610615
0.470381 0.330577 0.610728
0.820241 0.378212 0.648504
0.866583 0.497896 0.712103
0.891896 0.606105 0.760771
0.908674 0.696531 0.800381
0.048813 0.355674 0.581489
0.071554 0.421626 0.641526
0.121286 0.497392 0.703850
0.270704 0.564656 0.738947
0.768439 0.520256 0.713298
0.874255 0.628275 0.759357
0.897187 0.706520 0.789076
0.904711 0.769210 0.817103
0.060763 0.537592 0.713545
0.095453 0.596694 0.758384
0.160569 0.662067 0.793072
0.269182 0.704123 0.805380
0.571935 0.723690 0.791486
0.859591 0.726957 0.784452
0.898108 0.791828 0.814186
0.906904 0.830233 0.838285
0.084984 0.686797 0.794737
0.131365 0.715005 0.815546
0.212882 0.747810 0.826886
0.338480 0.772581 0.829904
0.581969 0.797731 0.820549
0.805813 0.813773 0.815604
0.887938 0.836097 0.823024
0.909168 0.864824 0.844313
0.143301 0.769258 0.842431
0.199842 0.780259 0.837599
0.311991 0.796333 0.833858
0.465582 0.816557 0.834681
0.641521 0.838313 0.829118
0.808868 0.854100 0.822634
0.895594 0.874844 0.780184
0.915425 0.888404 0.804556
0.220974 0.811842 0.851508
0.326920 0.822225 0.843737
0.458945 0.832299 0.837946
0.637728 0.854837 0.840153
0.786542 0.874035 0.840172
0.881506 0.891524 0.825241
0.911070 0.899910 0.820383
0.926080 0.909264 0.839652
0.053858 0.145051 0.418251
0.076476 0.178081 0.480039
0.175371 0.171079 0.499329
0.387101 0.165065 0.490907
0.627946 0.198706 0.529877
0.810804 0.289520 0.614308
0.872035 0.396601 0.696460
0.899568 0.513155 0.754916
0.055567 0.210639 0.491676
0.092218 0.277090 0.591575
0.160022 0.335004 0.656683
0.461951 0.296546 0.622878
0.792772 0.310314 0.630239
0.852429 0.392665 0.687248
0.886030 0.506734 0.742544
0.906949 0.615021 0.785172
0.069120 0.329019 0.620383
0.099197 0.388132 0.669682
0.171727 0.469809 0.728566
0.477808 0.482234 0.727830
0.776243 0.402428 0.686256
0.869522 0.520198 0.741983
0.897890 0.621347 0.781275
0.910598 0.703084 0.815086
0.084671 0.472305 0.719994
0.133903 0.553483 0.760664
0.200225 0.618615 0.788443
0.323635 0.675867 0.804620
0.756874 0.633319 0.777899
0.877342 0.642130 0.783582
0.900913 0.720105 0.812356
0.909062 0.779001 0.832806
0.116570 0.646122 0.805083
0.175897 0.693108 0.824360
0.261144 0.729622 0.837492
0.368987 0.764501 0.840914
0.565785 0.788234 0.840908
0.850926 0.766922 0.821472
0.902780 0.801265 0.835552
0.908697 0.830231 0.846893
0.157534 0.747893 0.846166
0.228589 0.769579 0.850477
0.325423 0.789748 0.850597
0.456254 0.809508 0.852625
0.615279 0.826818 0.848891
0.776497 0.839513 0.849453
0.892173 0.847004 0.847444
0.919173 0.872740 0.866276
0.215469 0.798329 0.865639
0.290178 0.805539 0.857810
0.411762 0.820578 0.854659
0.564918 0.838533 0.852606
0.707511 0.852748 0.853898
0.818368 0.868381 0.860435
0.890929 0.883877 0.852998
0.925421 0.895703 0.861761
0.296986 0.830753 0.868466
0.386941 0.832627 0.858339
0.543709 0.849379 0.857291
0.691199 0.864095 0.859111
0.803057 0.883768 0.868853
0.869222 0.892519 0.868585
0.910423 0.906029 0.867083
0.928747 0.911417 0.870779
0.087031 0.234100 0.595213
0.125224 0.285675 0.647306
0.213862 0.295322 0.654214
0.474258 0.244141 0.608787
0.718330 0.268904 0.623157
0.822437 0.326550 0.665334
0.873858 0.426311 0.723529
0.901879 0.540297 0.774063
0.096820 0.328674 0.664170
0.143894 0.391277 0.712650
0.225451 0.450662 0.744231
0.521732 0.418368 0.715035
0.796863 0.356528 0.683203
0.861586 0.435084 0.723892
0.887548 0.535321 0.765735
0.906150 0.629258 0.798766
0.112184 0.445553 0.733453
0.171359 0.522190 0.770728
0.259319 0.599890 0.793840
0.416171 0.654239 0.813489
0.772122 0.574696 0.777267
0.873207 0.557563 0.765484
0.897995 0.635422 0.799433
0.911756 0.715929 0.830173
0.147789 0.604099 0.798358
0.217067 0.663978 0.821049
0.308283 0.712755 0.836205
0.438775 0.753422 0.842068
0.758532 0.763693 0.844678
0.868506 0.690693 0.810779
0.904314 0.728371 0.827897
0.915917 0.788138 0.849898
0.205895 0.723481 0.849262
0.276394 0.752991 0.854579
0.382289 0.787106 0.860569
0.505096 0.810363 0.863942
0.637757 0.826245 0.867234
0.856729 0.820052 0.860162
0.903990 0.807411 0.851839
0.919298 0.843581 0.864475
0.258500 0.787999 0.868918
0.342528 0.805446 0.867388
0.446799 0.821082 0.867230
0.571501 0.835205 0.868117
0.700491 0.852142 0.870826
0.802063 0.865030 0.875311
0.898118 0.867050 0.869840
0.921673 0.875816 0.875265
0.318103 0.823962 0.874395
0.406157 0.830169 0.871523
0.534259 0.844995 0.866909
0.669114 0.860313 0.871959
0.767929 0.871878 0.874171
0.839569 0.882447 0.879533
0.891488 0.892823 0.877508
0.926934 0.901761 0.885656
0.381303 0.842052 0.876445
0.498471 0.853073 0.871858
0.637935 0.865526 0.872716
0.747286 0.874740 0.872291
0.828348 0.890535 0.879690
0.882749 0.900653 0.883040
0.912583 0.910819 0.888783
0.931853 0.919745 0.894140
