其他预设/【236】赛博朋克风调色预设/【后期菌】视频调色预设/CUBE/Abandoned 04_S.cube
# LUT by SparkleStock. Enhanced with VOXCOLOR algorithms.
LUT_3D_SIZE 8
DOMAIN_MIN 0.000000 0.000000 0.000000
DOMAIN_MAX 0.903226 0.903226 0.903226
0.035191 0.050831 0.062561
0.055750 0.062813 0.078454
0.116545 0.080219 0.100274
0.263614 0.104563 0.148330
0.477911 0.172421 0.233973
0.657396 0.267777 0.342194
0.769779 0.375493 0.438054
0.846971 0.488254 0.541608
0.039101 0.066976 0.074796
0.097821 0.087584 0.103509
0.232395 0.120203 0.149718
0.431145 0.187403 0.215054
0.601394 0.272635 0.284930
0.715461 0.347878 0.358302
0.810995 0.455558 0.470384
0.880522 0.582665 0.601434
0.034686 0.092454 0.091445
0.126510 0.121843 0.129598
0.340001 0.216836 0.199230
0.501876 0.308196 0.248731
0.613006 0.371086 0.290106
0.713093 0.432305 0.348212
0.807606 0.524246 0.445276
0.858270 0.637565 0.552243
0.022704 0.151484 0.121843
0.100002 0.175827 0.137686
0.295892 0.278555 0.182162
0.485268 0.385669 0.219578
0.602989 0.445622 0.261149
0.703442 0.504911 0.317464
0.793365 0.587735 0.419097
0.852065 0.682366 0.536998
0.011730 0.251758 0.188062
0.125065 0.299631 0.187561
0.238262 0.367424 0.202319
0.391121 0.460285 0.208483
0.516752 0.520535 0.217971
0.644710 0.578763 0.263236
0.751213 0.650536 0.352765
0.822095 0.730320 0.469957
0.051588 0.408287 0.296535
0.236622 0.444828 0.255684
0.361797 0.511137 0.279885
0.485699 0.584224 0.309335
0.602635 0.639485 0.340050
0.709081 0.693848 0.393249
0.784223 0.745517 0.464008
0.841426 0.788133 0.552837
0.204080 0.584871 0.430864
0.357147 0.588178 0.349917
0.485996 0.638281 0.368946
0.598330 0.686239 0.414760
0.692412 0.736191 0.469436
0.766642 0.777741 0.527591
0.825106 0.813717 0.589367
0.873585 0.843061 0.641272
0.324031 0.704065 0.554347
0.457706 0.691439 0.435153
0.587747 0.727777 0.453898
0.674407 0.770141 0.514489
0.745106 0.801767 0.565068
0.807928 0.838520 0.614507
0.861802 0.867278 0.669378
0.902888 0.891158 0.719786
0.039353 0.055245 0.070886
0.059676 0.062813 0.086559
0.113140 0.072334 0.109828
0.277586 0.096519 0.173508
0.490272 0.142907 0.259135
0.654873 0.220180 0.348167
0.778482 0.346271 0.454927
0.857302 0.465815 0.565597
0.035427 0.068221 0.083609
0.104250 0.087394 0.122964
0.239867 0.117984 0.175056
0.425186 0.161450 0.241793
0.580631 0.226504 0.296315
0.703663 0.298748 0.354117
0.799003 0.387809 0.431502
0.877176 0.524420 0.579263
0.034466 0.101251 0.108127
0.072214 0.125415 0.132934
0.373438 0.207965 0.251091
0.497034 0.280280 0.287512
0.601781 0.326315 0.305808
0.697742 0.370208 0.342560
0.803032 0.446878 0.424281
0.881522 0.571273 0.565735
0.025653 0.164321 0.150824
0.049909 0.199024 0.183832
0.270226 0.286568 0.235357
0.486072 0.398957 0.282320
0.585314 0.433700 0.301357
0.687333 0.472450 0.333426
0.788141 0.537034 0.410510
0.869712 0.647523 0.553469
0.012048 0.282607 0.232277
0.050293 0.333665 0.280927
0.234432 0.399210 0.255128
0.395541 0.471184 0.248867
0.527312 0.520082 0.250718
0.650975 0.561887 0.287387
0.754964 0.629151 0.363671
0.825743 0.703315 0.465738
0.067057 0.442424 0.359185
0.137521 0.490598 0.400570
0.362635 0.542975 0.348733
0.483175 0.594210 0.323363
0.593756 0.643031 0.343105
0.697013 0.690194 0.392558
0.786609 0.737082 0.469929
0.854551 0.774649 0.537249
0.211689 0.602850 0.485296
0.290791 0.629814 0.495214
0.468678 0.649716 0.428263
0.621435 0.704645 0.449768
0.690884 0.740820 0.486448
0.767708 0.780121 0.548449
0.827341 0.818907 0.604970
0.877142 0.835483 0.611917
0.324145 0.706323 0.585477
0.428188 0.718226 0.553536
0.587179 0.736820 0.519349
0.691467 0.772958 0.551284
0.759309 0.810976 0.604528
0.813942 0.838728 0.642644
0.867038 0.871457 0.699056
0.905849 0.896936 0.738596
0.036200 0.063066 0.083625
0.060165 0.063066 0.096112
0.116106 0.073917 0.132759
0.280219 0.087128 0.212950
0.482065 0.116041 0.295408
0.662262 0.204621 0.387276
0.785785 0.321004 0.486041
0.866749 0.455814 0.599754
0.038376 0.082933 0.106679
0.083969 0.088575 0.129742
0.240159 0.113583 0.216462
0.428704 0.155039 0.298655
0.574787 0.208787 0.345924
0.694311 0.271810 0.390647
0.795286 0.362384 0.464826
0.873670 0.482975 0.583072
0.031655 0.114901 0.128145
0.067008 0.141543 0.173198
0.332039 0.196934 0.286813
0.477012 0.270093 0.339559
0.591808 0.312810 0.364328
0.691584 0.358270 0.394099
0.790499 0.408602 0.442887
0.878252 0.535523 0.572073
0.022704 0.179289 0.185384
0.057684 0.224347 0.231155
0.200349 0.290429 0.289924
0.491765 0.382011 0.364601
0.600257 0.424031 0.385876
0.693562 0.452629 0.406195
0.791155 0.498123 0.446681
0.871991 0.597613 0.548701
0.018029 0.297137 0.273546
0.075631 0.363862 0.343155
0.164676 0.417936 0.362860
0.396789 0.477321 0.350136
0.583402 0.541526 0.378265
0.681239 0.571977 0.398847
0.776456 0.607114 0.439135
0.852694 0.660026 0.491786
0.079825 0.457698 0.400361
0.158748 0.502181 0.447002
0.243680 0.556838 0.478874
0.453787 0.608130 0.404435
0.596935 0.650120 0.390086
0.694193 0.685632 0.426064
0.778999 0.716611 0.463604
0.857176 0.732602 0.487748
0.220384 0.612733 0.524486
0.281941 0.639202 0.557745
0.373147 0.672179 0.573914
0.602536 0.710722 0.531385
0.701978 0.751174 0.527812
0.768395 0.787099 0.577284
0.814587 0.804358 0.564795
0.878539 0.821171 0.560201
0.331221 0.715469 0.626140
0.396719 0.734220 0.635451
0.552115 0.746879 0.614057
0.686518 0.776703 0.607234
0.774692 0.818429 0.640881
0.823413 0.845754 0.679191
0.857671 0.870946 0.674096
0.901719 0.895543 0.678384
0.039101 0.071895 0.105446
0.061125 0.071341 0.124288
0.117147 0.074796 0.156094
0.280011 0.084235 0.250960
0.493299 0.110125 0.356768
0.669716 0.195463 0.437627
0.796559 0.316927 0.538629
0.866522 0.446179 0.631303
0.035899 0.097072 0.140734
0.071911 0.113995 0.181094
0.217284 0.118140 0.259126
0.431363 0.149163 0.357198
0.582889 0.205142 0.420807
0.701223 0.269400 0.463398
0.803056 0.370604 0.543402
0.874807 0.495220 0.639084
0.034784 0.133447 0.171510
0.066857 0.174438 0.234792
0.215527 0.216549 0.324194
0.472973 0.261975 0.406870
0.594372 0.311993 0.440283
0.692957 0.353480 0.468851
0.793195 0.413385 0.524997
0.876647 0.530081 0.623107
0.030817 0.218585 0.249130
0.062490 0.258639 0.298624
0.210257 0.327006 0.369978
0.462743 0.367803 0.426174
0.593014 0.414973 0.458206
0.693959 0.448082 0.481306
0.789907 0.483030 0.512777
0.873688 0.553259 0.579336
0.043995 0.332136 0.349302
0.117249 0.380944 0.398049
0.199741 0.437596 0.435057
0.332306 0.478526 0.446105
0.603411 0.537281 0.493247
0.696873 0.563609 0.500306
0.786693 0.584142 0.512174
0.873315 0.622815 0.550151
0.134615 0.476691 0.461026
0.211558 0.533622 0.516738
0.267341 0.576584 0.545301
0.349242 0.607865 0.536760
0.591801 0.655624 0.514544
0.714987 0.691199 0.516761
0.783138 0.697789 0.506486
0.868588 0.716275 0.528132
0.243726 0.617624 0.569312
0.302787 0.650715 0.601000
0.357419 0.666769 0.619368
0.466122 0.704246 0.640410
0.682416 0.752112 0.606845
0.761786 0.789132 0.596386
0.809217 0.801218 0.573734
0.881647 0.811569 0.564002
0.342194 0.709000 0.657233
0.397010 0.738685 0.684707
0.481072 0.756594 0.692796
0.654831 0.787750 0.695926
0.776095 0.820528 0.680881
0.822842 0.856288 0.699430
0.850076 0.877871 0.677660
0.901499 0.895374 0.670630
0.039101 0.092959 0.153754
0.065271 0.084248 0.170269
0.135343 0.083755 0.210249
0.286444 0.085253 0.294012
0.505416 0.113022 0.401350
0.691041 0.218048 0.504997
0.801678 0.337251 0.591116
0.870733 0.448039 0.665664
0.037904 0.121599 0.192606
0.064647 0.147715 0.247196
0.204939 0.139257 0.308789
0.451150 0.156775 0.418739
0.611455 0.218777 0.498571
0.723538 0.298070 0.556757
0.810867 0.392323 0.616919
0.879977 0.530775 0.700594
0.037974 0.179363 0.251384
0.076833 0.218146 0.304920
0.181002 0.269062 0.385010
0.435037 0.259517 0.462482
0.626342 0.326267 0.538500
0.712384 0.378014 0.565148
0.803906 0.452704 0.626107
0.877363 0.556607 0.691238
0.051083 0.264371 0.332999
0.119026 0.314701 0.384367
0.198383 0.361478 0.439204
0.362592 0.401780 0.496619
0.606777 0.424800 0.552950
0.715081 0.472764 0.587647
0.795360 0.511856 0.615056
0.874287 0.553988 0.645151
0.104404 0.372046 0.418479
0.171748 0.430151 0.473102
0.239636 0.477637 0.522003
0.347339 0.510631 0.545233
0.583253 0.546459 0.585861
0.708491 0.574745 0.605777
0.788729 0.591395 0.608505
0.874419 0.615550 0.628712
0.193603 0.512549 0.526285
0.247081 0.554370 0.566541
0.299249 0.590598 0.596792
0.360581 0.619373 0.621406
0.505385 0.654589 0.632855
0.712332 0.698604 0.623512
0.790396 0.704911 0.602887
0.872455 0.718261 0.613767
0.271776 0.625005 0.612733
0.320757 0.654296 0.637692
0.377019 0.679449 0.664299
0.451715 0.700889 0.686417
0.584315 0.741971 0.703016
0.736419 0.785553 0.662400
0.809417 0.801255 0.630438
0.882802 0.809400 0.626685
0.352024 0.716242 0.685592
0.396560 0.740163 0.700375
0.464161 0.753289 0.719142
0.603312 0.783591 0.732142
0.731823 0.821937 0.754229
0.802698 0.855932 0.731911
0.844667 0.879321 0.706697
0.902675 0.897973 0.706292
0.032542 0.119699 0.235361
0.068119 0.130041 0.263875
0.146292 0.113066 0.289540
0.329426 0.101930 0.360674
0.524767 0.136820 0.450561
0.693612 0.227948 0.541567
0.804685 0.340017 0.625294
0.868731 0.442973 0.693592
0.040488 0.160610 0.277363
0.088663 0.202330 0.336702
0.203740 0.195429 0.378247
0.434573 0.173246 0.453086
0.648702 0.239849 0.552604
0.748687 0.326560 0.613962
0.826000 0.438877 0.673987
0.874711 0.546428 0.729144
0.060763 0.229290 0.339582
0.116869 0.267509 0.384010
0.195266 0.315907 0.437213
0.443252 0.313015 0.528706
0.671927 0.345996 0.606139
0.753570 0.427379 0.654350
0.822303 0.524584 0.701758
0.876849 0.581479 0.737376
0.106068 0.316976 0.409540
0.166394 0.366196 0.452245
0.227866 0.412271 0.511233
0.342464 0.460634 0.576155
0.622043 0.468154 0.642051
0.754825 0.529696 0.683249
0.808473 0.567785 0.701650
0.870098 0.587378 0.723131
0.179127 0.435047 0.505607
0.227516 0.479008 0.550212
0.287769 0.530479 0.597001
0.352742 0.566069 0.637172
0.516398 0.598403 0.665332
0.729067 0.611699 0.696801
0.801471 0.623732 0.707471
0.873818 0.631355 0.714250
0.250061 0.558424 0.596670
0.291621 0.588430 0.625551
0.339746 0.619392 0.655343
0.402260 0.649655 0.685799
0.531000 0.681249 0.709317
0.674522 0.695141 0.715917
0.791013 0.700957 0.715621
0.878089 0.715774 0.721250
0.309148 0.645507 0.664476
0.348815 0.668549 0.680327
0.399374 0.689663 0.697536
0.473394 0.709986 0.722801
0.578442 0.744101 0.746262
0.685430 0.770873 0.734229
0.803169 0.801395 0.715649
0.889364 0.819553 0.721313
0.365268 0.715477 0.707084
0.412453 0.737229 0.723627
0.474744 0.752360 0.735393
0.576694 0.775705 0.766155
0.682800 0.809650 0.789876
0.781462 0.851242 0.790104
0.841242 0.881201 0.774289
0.906837 0.904220 0.777716
0.047551 0.156150 0.327941
0.095815 0.184571 0.364503
0.185311 0.151390 0.383048
0.387776 0.132226 0.441671
0.538405 0.150877 0.496615
0.701070 0.235898 0.582429
0.805311 0.343284 0.657701
0.870611 0.446916 0.720063
0.072595 0.212279 0.362404
0.138536 0.255672 0.414432
0.225802 0.299384 0.468842
0.426059 0.256733 0.523569
0.678198 0.270813 0.593330
0.764285 0.352488 0.649532
0.825927 0.452197 0.702915
0.875706 0.547329 0.752166
0.116798 0.289345 0.421669
0.171640 0.326244 0.455997
0.252591 0.391232 0.523989
0.452639 0.423545 0.600420
0.658013 0.383469 0.641611
0.782793 0.465898 0.693665
0.832749 0.552372 0.736273
0.872602 0.612020 0.771306
0.170566 0.380949 0.489129
0.229427 0.431941 0.546948
0.285555 0.480715 0.593696
0.363928 0.535874 0.637503
0.632969 0.548131 0.696536
0.777963 0.576008 0.729992
0.818675 0.608188 0.756005
0.867547 0.626921 0.778476
0.233445 0.494386 0.589399
0.284329 0.538672 0.627618
0.330686 0.579920 0.661458
0.389834 0.616234 0.695032
0.502445 0.652290 0.725725
0.723757 0.653709 0.748487
0.809008 0.654439 0.772316
0.869004 0.659493 0.787601
0.288271 0.594216 0.660216
0.331305 0.627481 0.686518
0.378610 0.652961 0.707375
0.444020 0.679098 0.731618
0.536337 0.704658 0.750460
0.648690 0.720022 0.766125
0.797119 0.722272 0.788672
0.881628 0.733070 0.803559
0.345392 0.672910 0.707560
0.378837 0.689943 0.719435
0.433045 0.709242 0.735723
0.511646 0.730381 0.758246
0.603305 0.754172 0.777127
0.690324 0.777936 0.791146
0.792700 0.805994 0.800341
0.894140 0.830912 0.815524
0.394180 0.732245 0.744931
0.428654 0.739757 0.748156
0.503974 0.761496 0.768458
0.595679 0.781106 0.788265
0.680133 0.807256 0.813593
0.756804 0.837083 0.831571
0.836372 0.879789 0.837177
0.907898 0.906792 0.850240
0.090941 0.208243 0.409044
0.148355 0.241289 0.442733
0.221832 0.228045 0.471373
0.423252 0.183415 0.520633
0.601988 0.202839 0.582193
0.712568 0.254020 0.630835
0.806882 0.350633 0.691366
0.871608 0.456213 0.749598
0.132816 0.276341 0.452673
0.201294 0.318890 0.495500
0.276594 0.367162 0.549038
0.455547 0.335848 0.603769
0.680419 0.295957 0.642259
0.768339 0.374508 0.687843
0.825703 0.462042 0.733766
0.870403 0.546462 0.772879
0.182264 0.351052 0.508211
0.245707 0.404407 0.562810
0.308505 0.457612 0.608472
0.407571 0.513781 0.659805
0.649042 0.486941 0.712152
0.783764 0.484114 0.727156
0.828058 0.548617 0.758211
0.872364 0.623843 0.793234
0.233506 0.448144 0.581664
0.289070 0.496709 0.625420
0.338807 0.548163 0.666417
0.416115 0.596542 0.708819
0.627280 0.634168 0.755827
0.754239 0.606955 0.760985
0.827163 0.642102 0.783592
0.867927 0.681976 0.808991
0.287852 0.554038 0.661249
0.326925 0.590877 0.687485
0.380138 0.627641 0.723853
0.449315 0.662547 0.754992
0.532752 0.688144 0.770886
0.728515 0.707042 0.793387
0.813716 0.693878 0.805520
0.867492 0.714380 0.834350
0.331851 0.639099 0.718757
0.371652 0.665672 0.739162
0.422600 0.686116 0.755212
0.490200 0.707192 0.773173
0.575968 0.731153 0.789302
0.668424 0.754977 0.807411
0.794807 0.762710 0.836221
0.876416 0.772595 0.859039
0.378951 0.701237 0.754716
0.416257 0.714735 0.763311
0.474257 0.731496 0.776754
0.562242 0.753803 0.794352
0.635133 0.772935 0.810894
0.709461 0.794124 0.827275
0.784549 0.819992 0.848746
0.888940 0.844596 0.879382
0.413507 0.747625 0.778698
0.465532 0.760978 0.787364
0.542678 0.776189 0.801512
0.621233 0.794066 0.814152
0.696646 0.815958 0.833562
0.763192 0.842382 0.855393
0.833880 0.877585 0.879097
0.903500 0.909117 0.903767
