其他预设/【236】赛博朋克风调色预设/【后期菌】视频调色预设/CUBE/Abandoned 06_S.cube
# LUT by SparkleStock. Enhanced with VOXCOLOR algorithms.
LUT_3D_SIZE 32
0.050831 0.105572 0.003910
0.054867 0.107590 0.009964
0.059029 0.109608 0.015893
0.065084 0.111626 0.019929
0.070886 0.113392 0.023965
0.074922 0.113392 0.028001
0.080093 0.114149 0.032794
0.090184 0.118185 0.040867
0.101283 0.122221 0.049443
0.115410 0.126257 0.059534
0.133321 0.130294 0.068363
0.159556 0.134330 0.074417
0.195630 0.140636 0.081229
0.248100 0.150727 0.089301
0.304985 0.159051 0.100022
0.367546 0.165106 0.114149
0.414972 0.172169 0.127266
0.447261 0.180242 0.139375
0.479551 0.191719 0.151484
0.511841 0.205846 0.163592
0.541608 0.219973 0.182007
0.569861 0.234100 0.204206
0.593952 0.251001 0.223631
0.616151 0.269164 0.241794
0.635323 0.285813 0.262984
0.653486 0.301958 0.285183
0.674928 0.327941 0.310661
0.697127 0.356195 0.336897
0.715795 0.382682 0.357834
0.733958 0.408917 0.378015
0.752121 0.427585 0.392520
0.770283 0.445748 0.406647
0.054867 0.107590 0.009964
0.058903 0.109608 0.014977
0.063066 0.111626 0.019994
0.069120 0.113644 0.025072
0.075313 0.115670 0.030410
0.082474 0.117754 0.037571
0.090379 0.120008 0.044707
0.101511 0.123002 0.051738
0.114173 0.126257 0.058753
0.131425 0.130294 0.065718
0.156692 0.134981 0.072725
0.199593 0.141100 0.079821
0.246473 0.148318 0.088064
0.299985 0.157367 0.098220
0.352899 0.165561 0.110113
0.405044 0.172657 0.124239
0.446741 0.181804 0.136836
0.477989 0.193001 0.147903
0.508651 0.204088 0.160142
0.538857 0.215090 0.173292
0.567192 0.229998 0.192749
0.594404 0.247250 0.215990
0.616737 0.266560 0.237888
0.636853 0.286806 0.259175
0.657066 0.310226 0.284271
0.677313 0.334703 0.310637
0.695760 0.363095 0.336897
0.713793 0.392390 0.363132
0.731940 0.415362 0.381335
0.750102 0.437431 0.398392
0.765336 0.452909 0.411725
0.780374 0.467947 0.424810
0.058777 0.109608 0.015766
0.062878 0.111626 0.019868
0.067110 0.113648 0.024099
0.073294 0.115732 0.030284
0.079983 0.118059 0.036956
0.090204 0.122095 0.047047
0.100791 0.125777 0.056381
0.112965 0.127926 0.062435
0.127384 0.130578 0.068001
0.148542 0.134745 0.072102
0.181417 0.140152 0.077485
0.240073 0.148290 0.085688
0.296994 0.156403 0.095331
0.351027 0.164475 0.107374
0.399763 0.172548 0.120272
0.441687 0.180620 0.134269
0.477818 0.191687 0.146345
0.508154 0.205749 0.156500
0.537246 0.216588 0.168963
0.565369 0.224920 0.183220
0.592394 0.240821 0.203824
0.618759 0.261263 0.228237
0.639530 0.282868 0.252425
0.657758 0.305002 0.276512
0.678818 0.334703 0.305238
0.700822 0.366928 0.335509
0.716531 0.397513 0.362395
0.730788 0.427719 0.388500
0.748235 0.447501 0.404295
0.766137 0.465795 0.418617
0.778486 0.478168 0.430742
0.790464 0.490146 0.442721
0.060795 0.111626 0.017785
0.065938 0.113644 0.022927
0.071276 0.115732 0.028266
0.079544 0.118856 0.036533
0.088316 0.122095 0.045029
0.100620 0.126131 0.055119
0.113095 0.130204 0.064453
0.126310 0.134436 0.070507
0.145417 0.139172 0.076334
0.182199 0.145421 0.081477
0.226467 0.152586 0.088227
0.287205 0.161765 0.098513
0.342695 0.170529 0.109067
0.389436 0.178602 0.120069
0.430881 0.186674 0.131469
0.465514 0.194747 0.143383
0.498519 0.205293 0.154938
0.529898 0.218313 0.166135
0.558273 0.231040 0.180225
0.584313 0.243539 0.196565
0.611859 0.263606 0.219904
0.640307 0.288214 0.247441
0.662445 0.310405 0.271174
0.681715 0.331497 0.293178
0.700692 0.360158 0.321382
0.719571 0.391340 0.351654
0.736387 0.420884 0.376848
0.752727 0.450048 0.400869
0.766788 0.471523 0.419138
0.780525 0.491900 0.436585
0.790660 0.502450 0.446952
0.800555 0.512345 0.456847
0.062561 0.113644 0.019803
0.068615 0.115532 0.025727
0.074930 0.117562 0.031927
0.085151 0.121729 0.042278
0.095941 0.125912 0.052629
0.110719 0.130208 0.062980
0.125667 0.134908 0.072550
0.141357 0.141352 0.078734
0.165802 0.148237 0.084886
0.216514 0.156439 0.090941
0.270604 0.165232 0.098846
0.332124 0.175322 0.110825
0.385563 0.184803 0.122193
0.425534 0.193266 0.132544
0.460322 0.201501 0.142610
0.488445 0.209443 0.152310
0.518521 0.219729 0.163409
0.550551 0.232358 0.175908
0.578405 0.247258 0.191740
0.603013 0.263924 0.210163
0.630917 0.287425 0.235585
0.660797 0.315027 0.265205
0.683920 0.337617 0.288515
0.703971 0.357928 0.308956
0.721288 0.385709 0.336673
0.737693 0.415981 0.366814
0.755103 0.444189 0.390185
0.772745 0.471922 0.411993
0.783666 0.495155 0.432948
0.793626 0.517744 0.453780
0.801938 0.526968 0.462649
0.810141 0.535301 0.470722
0.062561 0.115662 0.021821
0.068615 0.116509 0.026703
0.074995 0.117628 0.032058
0.086257 0.122836 0.044492
0.098610 0.128190 0.056926
0.118596 0.134570 0.069360
0.140120 0.141548 0.080818
0.168308 0.151117 0.088044
0.202648 0.160606 0.094977
0.255444 0.169850 0.101031
0.308362 0.179359 0.108611
0.361549 0.189449 0.119548
0.408608 0.200101 0.131046
0.445455 0.211689 0.143480
0.478029 0.221226 0.153351
0.505111 0.228127 0.159926
0.533625 0.239975 0.171026
0.563571 0.256771 0.186650
0.592272 0.275837 0.205020
0.620004 0.296669 0.225527
0.647126 0.318477 0.248474
0.673883 0.340872 0.272887
0.695313 0.362550 0.296002
0.714322 0.383903 0.318526
0.732940 0.411945 0.345982
0.751429 0.442216 0.375082
0.765844 0.467040 0.395718
0.779320 0.490606 0.414402
0.788808 0.516052 0.439523
0.797727 0.541766 0.465563
0.806951 0.553138 0.474758
0.816195 0.563554 0.482830
0.062561 0.117680 0.023839
0.068615 0.117876 0.028070
0.075073 0.118437 0.032945
0.087572 0.124492 0.047462
0.101511 0.130798 0.061906
0.125533 0.138870 0.075837
0.152643 0.147883 0.088707
0.193135 0.160968 0.096975
0.237078 0.173402 0.104689
0.291371 0.183883 0.110743
0.342898 0.194425 0.118059
0.388338 0.205102 0.128149
0.429457 0.216999 0.139607
0.463374 0.230930 0.153343
0.493930 0.241842 0.163177
0.520165 0.248873 0.167995
0.547117 0.262284 0.179094
0.574784 0.282074 0.196476
0.603916 0.304245 0.216457
0.634188 0.328267 0.238461
0.660675 0.348505 0.259326
0.684893 0.366472 0.279507
0.704813 0.387215 0.302328
0.722781 0.409219 0.326350
0.742555 0.436691 0.353399
0.762931 0.465986 0.381457
0.774474 0.487876 0.399360
0.783979 0.508057 0.414919
0.791718 0.534959 0.441984
0.799204 0.562822 0.470693
0.808766 0.575915 0.480971
0.818466 0.588024 0.490020
0.062561 0.119699 0.025857
0.068615 0.120935 0.031130
0.075203 0.122473 0.037111
0.089785 0.128528 0.053712
0.105417 0.134834 0.069848
0.128398 0.142907 0.082738
0.156810 0.152895 0.094956
0.208759 0.171189 0.104266
0.261035 0.188049 0.112761
0.314286 0.200614 0.118816
0.363470 0.213565 0.126131
0.403701 0.227366 0.136222
0.440784 0.240825 0.146898
0.472618 0.253715 0.158551
0.502002 0.266320 0.169036
0.528238 0.278559 0.178020
0.553627 0.293532 0.189120
0.578169 0.311239 0.202335
0.605934 0.331912 0.219908
0.636206 0.354893 0.240870
0.662694 0.374089 0.261344
0.686911 0.391015 0.281525
0.706115 0.410716 0.303630
0.723041 0.431678 0.326611
0.743336 0.454984 0.352618
0.764754 0.479071 0.379635
0.773953 0.499984 0.394803
0.780333 0.520165 0.407237
0.784947 0.545245 0.426621
0.789309 0.571025 0.446997
0.796722 0.583988 0.461636
0.804339 0.596096 0.475893
0.063066 0.122726 0.029389
0.069120 0.124483 0.035443
0.075789 0.126510 0.042205
0.091673 0.132564 0.059587
0.108379 0.138903 0.076342
0.130839 0.147236 0.088711
0.160244 0.158217 0.100604
0.219745 0.180677 0.110434
0.278270 0.201574 0.119711
0.333865 0.217784 0.127327
0.383439 0.234055 0.135799
0.419765 0.250460 0.146149
0.453527 0.265547 0.156305
0.483018 0.278437 0.166135
0.510856 0.292751 0.176734
0.536570 0.308895 0.188322
0.561048 0.325170 0.199422
0.584289 0.341576 0.210033
0.610605 0.360361 0.225441
0.639314 0.380998 0.244581
0.665053 0.398664 0.263883
0.689010 0.414549 0.283283
0.707775 0.433387 0.304965
0.724180 0.453568 0.327685
0.744541 0.473163 0.352260
0.766219 0.492563 0.377454
0.773774 0.512386 0.390376
0.778071 0.532306 0.400467
0.779235 0.555531 0.413633
0.779951 0.579227 0.427239
0.784207 0.592060 0.443652
0.788699 0.604169 0.460253
0.065084 0.128780 0.037461
0.071138 0.129496 0.043515
0.077742 0.130546 0.050082
0.092584 0.136600 0.064339
0.108509 0.143069 0.078490
0.132011 0.152444 0.091901
0.161481 0.164467 0.104445
0.216816 0.187968 0.113233
0.275340 0.211730 0.123291
0.343435 0.236272 0.137158
0.401602 0.258598 0.150251
0.437928 0.276044 0.161643
0.470518 0.292954 0.172059
0.496884 0.308969 0.180848
0.522053 0.325040 0.189950
0.545684 0.341185 0.199454
0.571204 0.357981 0.210554
0.598611 0.375428 0.223248
0.623235 0.391153 0.237224
0.645694 0.405540 0.252197
0.668439 0.420212 0.267984
0.691354 0.435055 0.284259
0.710509 0.453568 0.306397
0.727956 0.473749 0.331200
0.747014 0.491000 0.353172
0.766609 0.507275 0.374199
0.774621 0.525666 0.386340
0.779959 0.544545 0.396430
0.776696 0.565817 0.407774
0.772204 0.587430 0.419297
0.770275 0.600132 0.429721
0.768518 0.612241 0.440072
0.067732 0.134834 0.046164
0.073787 0.135485 0.052218
0.080264 0.136413 0.058549
0.093089 0.141491 0.069030
0.107297 0.147195 0.080008
0.131189 0.157286 0.094460
0.160378 0.170147 0.107838
0.212523 0.195015 0.116562
0.270641 0.221560 0.127563
0.346678 0.253133 0.145401
0.410610 0.280821 0.161346
0.447912 0.299960 0.173129
0.480430 0.318978 0.183643
0.504973 0.337792 0.192041
0.528775 0.355295 0.200154
0.551625 0.371115 0.207901
0.577535 0.387618 0.218675
0.606504 0.404804 0.232476
0.629761 0.418182 0.245142
0.648575 0.428598 0.256925
0.669708 0.441333 0.270377
0.692233 0.455460 0.284829
0.711535 0.472854 0.306710
0.729372 0.491733 0.331969
0.746965 0.507780 0.352394
0.764477 0.522883 0.371208
0.774002 0.540737 0.385315
0.781684 0.559225 0.398335
0.775296 0.578625 0.408222
0.766898 0.598155 0.417661
0.759782 0.609812 0.422706
0.752751 0.620944 0.427459
0.071769 0.140889 0.056255
0.077823 0.143623 0.062309
0.084040 0.146308 0.068314
0.092698 0.148261 0.073587
0.103131 0.151231 0.080138
0.125981 0.161322 0.095632
0.154128 0.174574 0.110247
0.205232 0.201525 0.121053
0.262048 0.230674 0.133357
0.336001 0.266414 0.150153
0.399478 0.297942 0.165057
0.439905 0.320207 0.175798
0.474766 0.341958 0.186052
0.500350 0.362855 0.195491
0.525650 0.381075 0.203735
0.550583 0.395853 0.210440
0.575451 0.410272 0.220172
0.600255 0.424334 0.232932
0.622860 0.436931 0.244556
0.643758 0.448388 0.255298
0.666323 0.461514 0.269009
0.689889 0.475641 0.284503
0.708801 0.490170 0.304562
0.725596 0.504883 0.326696
0.741367 0.522232 0.347903
0.756796 0.540460 0.368800
0.770161 0.559746 0.390913
0.783051 0.579276 0.413308
0.776403 0.596983 0.422544
0.766963 0.614430 0.429900
0.756853 0.623027 0.430909
0.746697 0.631035 0.431495
0.075048 0.146186 0.065588
0.081102 0.150613 0.070861
0.087206 0.154836 0.075980
0.094041 0.156008 0.078779
0.102699 0.158344 0.083295
0.124117 0.168825 0.099831
0.150247 0.182711 0.115463
0.196793 0.211355 0.127181
0.249182 0.242424 0.139908
0.319100 0.280768 0.155662
0.380900 0.315430 0.169891
0.424843 0.341991 0.180762
0.462291 0.366183 0.190755
0.488917 0.386429 0.199283
0.515714 0.404340 0.207242
0.542731 0.419248 0.214468
0.567534 0.432756 0.223549
0.590123 0.444865 0.234486
0.612713 0.456754 0.244727
0.635303 0.468472 0.254427
0.658665 0.481207 0.267667
0.682492 0.494552 0.283030
0.701306 0.507853 0.302512
0.717841 0.521134 0.323864
0.732570 0.538125 0.344973
0.746697 0.556353 0.366000
0.762781 0.576168 0.392264
0.779316 0.596349 0.419736
0.775972 0.614023 0.432569
0.769787 0.631340 0.443311
0.758415 0.637366 0.441724
0.746697 0.642639 0.439315
0.077066 0.150222 0.073661
0.083120 0.155691 0.076851
0.089354 0.161086 0.080146
0.098273 0.165382 0.085029
0.108493 0.170582 0.091498
0.127828 0.182105 0.109075
0.150312 0.197033 0.125358
0.186442 0.226719 0.136035
0.229197 0.258569 0.147720
0.291823 0.296913 0.162433
0.349912 0.333528 0.176596
0.398021 0.366338 0.189551
0.438465 0.392484 0.199283
0.466132 0.407522 0.203645
0.494426 0.423414 0.210627
0.523526 0.440406 0.220978
0.549892 0.454955 0.230059
0.573523 0.467064 0.237871
0.597154 0.478367 0.246159
0.620785 0.489043 0.254818
0.643888 0.500086 0.266365
0.666673 0.511348 0.279645
0.685877 0.526146 0.300624
0.703454 0.542551 0.325101
0.718444 0.556418 0.344648
0.732570 0.569438 0.362550
0.749500 0.588276 0.386535
0.767077 0.608457 0.411924
0.772977 0.628866 0.435434
0.777208 0.649307 0.458674
0.767464 0.653575 0.456892
0.756787 0.656765 0.453442
0.081733 0.159556 0.084382
0.087787 0.165610 0.086400
0.094094 0.171693 0.088699
0.104184 0.178203 0.095209
0.115113 0.185470 0.103004
0.131909 0.198034 0.119800
0.150804 0.213919 0.135681
0.178797 0.244190 0.147594
0.213740 0.276366 0.160061
0.269530 0.314254 0.174187
0.323510 0.351227 0.187887
0.373507 0.386185 0.200646
0.416375 0.413771 0.210403
0.447363 0.429070 0.215155
0.477639 0.444824 0.222129
0.506999 0.461164 0.231959
0.534243 0.475616 0.240129
0.559372 0.488181 0.246639
0.583475 0.499097 0.254028
0.606781 0.508732 0.262101
0.629965 0.519506 0.273265
0.653075 0.530964 0.286285
0.672471 0.546091 0.307138
0.690178 0.562887 0.331550
0.706567 0.576021 0.351129
0.722516 0.587934 0.369097
0.738783 0.605454 0.391772
0.755123 0.624268 0.415533
0.765198 0.644051 0.442997
0.774377 0.663971 0.470990
0.770190 0.667963 0.469810
0.765112 0.670892 0.466686
0.089805 0.175701 0.098508
0.095860 0.181755 0.100527
0.102166 0.187903 0.102891
0.112257 0.195455 0.110442
0.122795 0.203763 0.118759
0.136466 0.217369 0.132430
0.151846 0.234100 0.146552
0.174631 0.264371 0.162632
0.204105 0.296286 0.178223
0.253646 0.333133 0.192350
0.303004 0.368413 0.205073
0.351959 0.400247 0.214708
0.396520 0.428614 0.224855
0.433757 0.451204 0.235857
0.466637 0.469237 0.244068
0.493914 0.481410 0.248690
0.521158 0.494300 0.254777
0.548370 0.507906 0.262329
0.572213 0.518692 0.270173
0.593435 0.527286 0.278246
0.617140 0.539622 0.290712
0.642334 0.554204 0.305815
0.661664 0.568160 0.324454
0.678330 0.581831 0.344700
0.697583 0.597309 0.366362
0.717699 0.613388 0.388496
0.731362 0.629151 0.411106
0.743536 0.644840 0.433826
0.751266 0.659675 0.456603
0.758362 0.674387 0.479388
0.764787 0.680006 0.479836
0.771166 0.685019 0.478794
0.097878 0.195882 0.118689
0.105495 0.201415 0.118624
0.113266 0.207238 0.119133
0.123356 0.217393 0.128247
0.134025 0.228436 0.138061
0.148737 0.245687 0.152773
0.164475 0.264892 0.168035
0.184656 0.292559 0.185677
0.211917 0.322391 0.202571
0.260416 0.358717 0.217218
0.308570 0.393151 0.229974
0.355963 0.423423 0.238567
0.399742 0.451399 0.248845
0.437500 0.475551 0.261930
0.469534 0.493779 0.269717
0.494207 0.504391 0.270694
0.520930 0.516760 0.275479
0.549704 0.530886 0.284072
0.573352 0.541608 0.292079
0.593012 0.549680 0.299631
0.616131 0.562472 0.313204
0.641324 0.578096 0.330391
0.661371 0.591303 0.347890
0.679078 0.603412 0.365532
0.698983 0.619280 0.387715
0.719619 0.636401 0.411412
0.731687 0.649820 0.431776
0.741778 0.662384 0.451371
0.748792 0.674094 0.470567
0.755367 0.685682 0.489707
0.768107 0.692082 0.491391
0.781257 0.698136 0.491912
0.105950 0.220099 0.144925
0.116692 0.224591 0.140693
0.127393 0.229697 0.137426
0.137483 0.244019 0.148623
0.148802 0.259489 0.160911
0.168723 0.282990 0.180832
0.188692 0.306295 0.200130
0.208873 0.328755 0.216730
0.237176 0.354681 0.233103
0.289841 0.391007 0.248792
0.340209 0.425441 0.262589
0.385518 0.455712 0.272224
0.426043 0.482126 0.282371
0.458593 0.502112 0.293373
0.486330 0.518452 0.299078
0.507878 0.530105 0.297971
0.533560 0.542995 0.302235
0.563375 0.557122 0.311870
0.586893 0.567843 0.319747
0.605511 0.575915 0.326257
0.626937 0.588056 0.340742
0.650048 0.602639 0.360011
0.671592 0.615520 0.377446
0.692424 0.627629 0.394046
0.710766 0.641935 0.415187
0.728278 0.656973 0.437842
0.739760 0.667462 0.453780
0.749850 0.676902 0.468167
0.757776 0.687309 0.484889
0.765393 0.697856 0.501945
0.780150 0.704191 0.504476
0.795384 0.710245 0.506039
0.116293 0.248857 0.175701
0.127816 0.254065 0.169647
0.139469 0.259956 0.164727
0.153074 0.276101 0.176836
0.167828 0.293288 0.189986
0.190613 0.317765 0.210428
0.214228 0.341877 0.230613
0.241440 0.364401 0.249687
0.274738 0.390083 0.267882
0.326297 0.425237 0.283441
0.374520 0.457950 0.297291
0.415403 0.485292 0.307382
0.451208 0.508533 0.315934
0.478550 0.524938 0.321924
0.503784 0.539720 0.325691
0.526309 0.552414 0.326603
0.551828 0.566411 0.332689
0.580342 0.581709 0.343952
0.603033 0.593273 0.352285
0.621196 0.601931 0.358339
0.640783 0.612908 0.372124
0.661225 0.625277 0.390547
0.682069 0.636662 0.406598
0.703096 0.647598 0.421571
0.720022 0.660488 0.441085
0.735581 0.674029 0.462112
0.747649 0.683603 0.477321
0.758911 0.692261 0.491188
0.767382 0.701147 0.503972
0.775455 0.710066 0.516601
0.789447 0.715750 0.519832
0.803834 0.721218 0.522436
0.128402 0.281147 0.210009
0.138883 0.288438 0.203954
0.149950 0.296282 0.199035
0.169805 0.312427 0.211144
0.190157 0.329223 0.223903
0.213984 0.350576 0.241220
0.240789 0.372929 0.259843
0.280500 0.399620 0.284125
0.321871 0.427906 0.305966
0.368222 0.460977 0.320483
0.410911 0.490630 0.333617
0.445544 0.512764 0.343708
0.475490 0.531578 0.349526
0.497624 0.544858 0.348224
0.521752 0.558338 0.350169
0.548443 0.572074 0.356288
0.574483 0.587633 0.366021
0.599872 0.605015 0.379366
0.621196 0.618076 0.388610
0.639359 0.627776 0.394665
0.656993 0.637191 0.406497
0.674310 0.646435 0.421795
0.692745 0.655410 0.435438
0.711689 0.664264 0.448327
0.727313 0.675852 0.465758
0.741831 0.688351 0.484702
0.755396 0.698576 0.502059
0.768741 0.708276 0.519050
0.777473 0.715469 0.526757
0.785545 0.722305 0.533136
0.796608 0.726882 0.536953
0.807871 0.731309 0.540598
0.136726 0.315959 0.246839
0.147468 0.320125 0.236228
0.159251 0.325244 0.227199
0.186658 0.344643 0.241912
0.214399 0.364141 0.256559
0.244475 0.384322 0.270751
0.276748 0.405772 0.286713
0.318542 0.432724 0.310344
0.360174 0.460196 0.331762
0.401317 0.489231 0.346539
0.439897 0.515702 0.360666
0.472838 0.536534 0.373361
0.501726 0.554339 0.381734
0.523860 0.567098 0.382906
0.548101 0.580741 0.387951
0.575053 0.595518 0.397977
0.599660 0.611012 0.408751
0.621925 0.627222 0.420273
0.641882 0.639624 0.429452
0.660045 0.649063 0.436809
0.676539 0.658055 0.446769
0.692033 0.666779 0.458292
0.709810 0.675950 0.469770
0.728624 0.685324 0.481227
0.741969 0.694308 0.493320
0.753492 0.703161 0.505624
0.766072 0.711962 0.518985
0.778897 0.720751 0.532591
0.788133 0.726577 0.538393
0.796856 0.731980 0.543080
0.805031 0.736102 0.548378
0.813168 0.740138 0.553716
0.142781 0.352285 0.285183
0.154564 0.350201 0.267280
0.167844 0.349786 0.251677
0.203584 0.374394 0.270556
0.239788 0.398449 0.288458
0.279238 0.418630 0.299525
0.318347 0.439689 0.312167
0.355975 0.464558 0.331632
0.393180 0.489165 0.350185
0.429115 0.512992 0.366004
0.464440 0.536208 0.382149
0.498422 0.558082 0.399010
0.529133 0.576928 0.413112
0.554392 0.590730 0.422617
0.579479 0.605414 0.433717
0.604348 0.621233 0.446867
0.626351 0.635685 0.457120
0.645491 0.648770 0.464476
0.664081 0.659219 0.473004
0.682244 0.667617 0.482444
0.698088 0.676869 0.490581
0.712540 0.686634 0.497938
0.730707 0.697563 0.507397
0.750562 0.709020 0.517813
0.761043 0.714619 0.522615
0.768400 0.718265 0.525544
0.778506 0.724396 0.531224
0.789248 0.731101 0.537539
0.799135 0.735756 0.543341
0.808900 0.740118 0.549070
0.814210 0.744174 0.556385
0.819222 0.748211 0.563807
0.154385 0.378898 0.329076
0.169358 0.377010 0.307463
0.185926 0.376791 0.288194
0.226418 0.401594 0.304078
0.267683 0.426177 0.319417
0.314360 0.449223 0.330940
0.359364 0.472756 0.343842
0.397122 0.498406 0.362721
0.433122 0.522297 0.380558
0.463850 0.540916 0.395271
0.494801 0.560206 0.410390
0.526244 0.580973 0.426405
0.555466 0.598981 0.440955
0.580985 0.612392 0.453063
0.604681 0.626059 0.465115
0.626034 0.640055 0.477093
0.646508 0.653466 0.487184
0.666103 0.666290 0.495387
0.684087 0.676442 0.504651
0.700818 0.684514 0.514742
0.715473 0.692953 0.521862
0.728884 0.701611 0.527200
0.745965 0.711657 0.535313
0.764713 0.722333 0.544688
0.774478 0.727053 0.548105
0.781249 0.729787 0.549538
0.790717 0.736383 0.552504
0.800807 0.743869 0.555824
0.810898 0.748337 0.560910
0.820988 0.752373 0.566248
0.826074 0.756409 0.572135
0.830826 0.760445 0.578059
0.168511 0.401097 0.375493
0.187651 0.402334 0.351796
0.208320 0.404914 0.330183
0.251937 0.427634 0.339818
0.296718 0.450915 0.349949
0.349644 0.478127 0.363555
0.400117 0.505436 0.378345
0.439958 0.533169 0.398265
0.476219 0.557321 0.416363
0.501738 0.570732 0.428993
0.527806 0.585790 0.441703
0.555083 0.604474 0.454593
0.581310 0.620789 0.467190
0.605788 0.633158 0.479299
0.627076 0.644872 0.489983
0.644262 0.655744 0.498837
0.663694 0.668113 0.508927
0.685373 0.681979 0.520255
0.703096 0.692587 0.530886
0.717744 0.700659 0.540977
0.730967 0.707796 0.547446
0.743336 0.714371 0.551743
0.758659 0.722333 0.558814
0.775325 0.730926 0.567147
0.785350 0.735907 0.571867
0.793162 0.739682 0.575382
0.802825 0.748166 0.577893
0.812916 0.757735 0.580171
0.823006 0.762463 0.584215
0.833097 0.766500 0.588512
0.839159 0.770536 0.591405
0.844953 0.774572 0.594204
0.182638 0.423296 0.406773
0.206725 0.427658 0.385681
0.232570 0.433281 0.366460
0.284780 0.457824 0.375314
0.336884 0.482733 0.384338
0.388248 0.510205 0.394559
0.436817 0.537091 0.406501
0.473273 0.561439 0.425900
0.506669 0.582726 0.443282
0.530886 0.594835 0.454610
0.555490 0.608591 0.466181
0.580944 0.625973 0.478290
0.604763 0.640791 0.489812
0.625855 0.651338 0.500359
0.645125 0.661684 0.510164
0.662051 0.671775 0.519018
0.680832 0.683493 0.529108
0.701469 0.696838 0.540436
0.718004 0.706339 0.549749
0.731350 0.712849 0.557496
0.744410 0.719074 0.562924
0.757300 0.725128 0.566960
0.771354 0.732570 0.573771
0.785936 0.740643 0.581843
0.795636 0.746860 0.586889
0.803708 0.752458 0.590925
0.814690 0.760437 0.594591
0.826343 0.768965 0.598171
0.835261 0.774246 0.602151
0.843790 0.779064 0.606187
0.849266 0.782416 0.607599
0.854539 0.785671 0.608835
0.196765 0.445496 0.433009
0.226060 0.452982 0.416083
0.257438 0.461730 0.400833
0.320064 0.489397 0.410728
0.380762 0.516910 0.420013
0.427959 0.543341 0.425026
0.472166 0.568404 0.432541
0.503414 0.587544 0.450899
0.532904 0.604925 0.467239
0.557122 0.617034 0.477525
0.581400 0.630465 0.488380
0.605812 0.646805 0.500489
0.627417 0.660191 0.511230
0.644343 0.668654 0.519693
0.661725 0.677829 0.528783
0.679693 0.687920 0.538678
0.697953 0.699117 0.548769
0.716507 0.711421 0.559054
0.731545 0.719294 0.566154
0.743849 0.723721 0.570776
0.757170 0.729165 0.575032
0.771101 0.735219 0.579069
0.784048 0.742661 0.585880
0.796547 0.750733 0.593952
0.805726 0.758513 0.598997
0.813799 0.766194 0.603033
0.826473 0.772871 0.608392
0.840209 0.779316 0.614056
0.847565 0.785248 0.618295
0.854010 0.791107 0.622332
0.858380 0.793549 0.622767
0.862612 0.795762 0.622962
0.217450 0.475893 0.457604
0.250261 0.483966 0.443152
0.285109 0.493299 0.430075
0.350535 0.521553 0.437627
0.413373 0.549236 0.444527
0.458096 0.572933 0.446871
0.499793 0.595274 0.451863
0.528372 0.611745 0.468333
0.555226 0.626913 0.482997
0.576904 0.638175 0.492241
0.598847 0.650434 0.502116
0.621371 0.664887 0.513379
0.642456 0.677264 0.523762
0.661139 0.686182 0.532681
0.678855 0.695244 0.541742
0.695325 0.704488 0.550986
0.711372 0.713895 0.559384
0.726996 0.723464 0.566936
0.741595 0.730398 0.572510
0.755396 0.735280 0.576546
0.768872 0.741953 0.582169
0.782152 0.749700 0.588744
0.795209 0.756507 0.594603
0.808164 0.762886 0.600137
0.819361 0.770536 0.607086
0.829972 0.778608 0.614507
0.840689 0.785728 0.621506
0.851431 0.792629 0.628406
0.857330 0.797308 0.631319
0.862538 0.801670 0.633663
0.868235 0.804628 0.636190
0.873963 0.807492 0.638729
0.239649 0.508183 0.481821
0.275585 0.516255 0.469452
0.313428 0.525589 0.458133
0.379895 0.553842 0.462560
0.443384 0.581135 0.466466
0.486024 0.601707 0.466726
0.525638 0.621119 0.469635
0.552133 0.635506 0.484023
0.576644 0.648852 0.496864
0.595197 0.659072 0.505066
0.614341 0.669964 0.513899
0.634782 0.682333 0.524120
0.655736 0.693799 0.534243
0.677544 0.703759 0.544203
0.696106 0.712951 0.553395
0.710493 0.721153 0.561597
0.723936 0.728477 0.567912
0.736436 0.734922 0.572339
0.750839 0.741074 0.576546
0.766723 0.746998 0.580582
0.780329 0.755363 0.588158
0.792568 0.765193 0.597858
