其他预设/【236】赛博朋克风调色预设/【后期菌】视频调色预设/CUBE/Abandoned 01_S.cube
# LUT by SparkleStock. Enhanced with VOXCOLOR algorithms.
LUT_3D_SIZE 32
0.097752 0.039101 0.078201
0.097752 0.043137 0.084256
0.097752 0.047047 0.090058
0.097752 0.049065 0.092076
0.098256 0.051083 0.094094
0.102292 0.053101 0.096112
0.107085 0.056255 0.100022
0.115158 0.064327 0.112131
0.124744 0.071895 0.123735
0.138870 0.077949 0.133825
0.158673 0.085265 0.143285
0.190963 0.095355 0.151357
0.230063 0.106203 0.159430
0.280516 0.118311 0.167502
0.336266 0.131303 0.176458
0.398827 0.145429 0.186548
0.463406 0.161574 0.199666
0.530003 0.179737 0.215811
0.586384 0.195630 0.233091
0.634819 0.209756 0.251253
0.675685 0.228928 0.274462
0.712011 0.251127 0.300697
0.737237 0.269164 0.324157
0.757418 0.285309 0.346356
0.771545 0.304481 0.370069
0.783653 0.324662 0.394286
0.797402 0.346483 0.418503
0.811528 0.368682 0.442721
0.820358 0.392647 0.470470
0.828430 0.416864 0.498723
0.838394 0.439189 0.519408
0.848485 0.461388 0.539589
0.097752 0.043137 0.084256
0.097752 0.046131 0.088227
0.097882 0.049130 0.092141
0.099965 0.052190 0.095201
0.102553 0.055510 0.098781
0.108672 0.060653 0.106007
0.115548 0.066150 0.113953
0.125704 0.073181 0.125020
0.138415 0.080488 0.135583
0.158791 0.088626 0.144632
0.186471 0.098024 0.153050
0.230218 0.110198 0.160081
0.276480 0.121957 0.167502
0.326932 0.133024 0.175575
0.384505 0.146796 0.184986
0.451232 0.164048 0.196118
0.513728 0.180193 0.209235
0.571993 0.195231 0.224339
0.620041 0.209756 0.241749
0.660142 0.223883 0.260953
0.695280 0.243055 0.283901
0.727440 0.265254 0.309095
0.749932 0.285439 0.334378
0.768029 0.304709 0.359702
0.782416 0.327005 0.385758
0.795567 0.350311 0.412059
0.806971 0.375257 0.440898
0.817973 0.400581 0.470323
0.827323 0.424025 0.495989
0.836437 0.447200 0.521117
0.843537 0.466531 0.539655
0.850503 0.485605 0.557752
0.097752 0.047047 0.090058
0.097817 0.049065 0.092141
0.098142 0.051221 0.094358
0.102374 0.055453 0.098590
0.107102 0.060181 0.103814
0.115304 0.068383 0.115988
0.124288 0.076208 0.127771
0.136657 0.082392 0.137861
0.152688 0.089586 0.147431
0.179704 0.099806 0.155438
0.215286 0.111248 0.162835
0.269709 0.125374 0.168890
0.322741 0.138012 0.175725
0.373454 0.148168 0.183863
0.432626 0.162652 0.193709
0.502674 0.182703 0.205753
0.562663 0.198815 0.218870
0.612595 0.210989 0.233062
0.652493 0.224261 0.250550
0.684587 0.238388 0.270600
0.714159 0.257560 0.293296
0.742217 0.279759 0.317578
0.762130 0.301958 0.344501
0.778340 0.324157 0.372624
0.792987 0.349335 0.400943
0.807114 0.375505 0.429326
0.816427 0.403473 0.462629
0.824630 0.431857 0.497067
0.834370 0.455171 0.521081
0.844331 0.477761 0.543605
0.848798 0.494247 0.560088
0.852899 0.510327 0.576168
0.097752 0.049065 0.092076
0.098858 0.051083 0.095201
0.100356 0.053435 0.098590
0.107712 0.060791 0.105946
0.115434 0.068514 0.114035
0.125720 0.078799 0.127250
0.137178 0.088707 0.139880
0.153713 0.096975 0.149970
0.175994 0.106251 0.159279
0.215509 0.118555 0.166245
0.259358 0.131429 0.172926
0.312740 0.145555 0.178980
0.366684 0.158584 0.186206
0.421563 0.169781 0.195385
0.478977 0.183940 0.205362
0.539650 0.201908 0.216364
0.590787 0.217499 0.229482
0.632385 0.230714 0.244715
0.666880 0.244442 0.261486
0.695850 0.258569 0.279454
0.722297 0.277741 0.302019
0.747230 0.299940 0.327343
0.766882 0.322139 0.353159
0.784134 0.344338 0.379199
0.799041 0.368735 0.408559
0.813168 0.393863 0.439026
0.824174 0.423329 0.474412
0.834460 0.453796 0.510933
0.842638 0.482839 0.539764
0.850515 0.511678 0.567497
0.855829 0.527578 0.583329
0.860972 0.542617 0.598367
0.098004 0.051335 0.094094
0.100022 0.053354 0.098130
0.102545 0.055876 0.102569
0.112635 0.065967 0.113050
0.123092 0.076374 0.124003
0.136112 0.089004 0.138260
0.150719 0.101255 0.151760
0.172202 0.111866 0.161981
0.200829 0.123421 0.171128
0.250891 0.137809 0.177052
0.301747 0.152074 0.183057
0.354347 0.166070 0.189242
0.409121 0.179505 0.196891
0.467516 0.192004 0.206981
0.522749 0.205928 0.216901
0.573917 0.221682 0.226601
0.616395 0.236557 0.239328
0.650182 0.250554 0.255082
0.679868 0.264843 0.271349
0.706363 0.279360 0.288015
0.730011 0.298435 0.310498
0.751950 0.320243 0.336473
0.771293 0.342231 0.361150
0.789455 0.364300 0.385237
0.804884 0.388370 0.415769
0.819401 0.413108 0.448449
0.831750 0.443876 0.484885
0.843598 0.476036 0.522187
0.850263 0.510303 0.555787
0.856187 0.544871 0.588858
0.862233 0.560275 0.604169
0.868287 0.574402 0.618295
0.100022 0.055372 0.096112
0.102040 0.057390 0.100148
0.104563 0.059912 0.104783
0.114653 0.070003 0.118388
0.126021 0.080931 0.132206
0.146333 0.097727 0.147504
0.168816 0.114145 0.162046
0.200715 0.128922 0.173308
0.236374 0.144123 0.182976
0.283311 0.160594 0.187858
0.332344 0.175965 0.193473
0.385986 0.188920 0.200699
0.441020 0.202876 0.208999
0.498373 0.218500 0.219090
0.548463 0.232814 0.227642
0.589216 0.245443 0.234218
0.624403 0.258235 0.243820
0.654023 0.271190 0.256449
0.683058 0.286782 0.273693
0.711637 0.304424 0.294525
0.734763 0.322717 0.317269
0.754619 0.341401 0.341161
0.773311 0.361696 0.364470
0.791474 0.382723 0.387516
0.809246 0.409658 0.420131
0.826888 0.438562 0.455936
0.838130 0.469265 0.486187
0.847895 0.500383 0.515157
0.853388 0.536343 0.553183
0.858270 0.572994 0.592504
0.864251 0.588528 0.608205
0.870306 0.602655 0.622332
0.102040 0.059786 0.098887
0.104254 0.061804 0.103118
0.106984 0.064364 0.108094
0.117465 0.075040 0.124239
0.129842 0.086904 0.140408
0.155491 0.107085 0.156749
0.184266 0.127108 0.172259
0.226581 0.146442 0.184172
0.269514 0.165484 0.194116
0.314303 0.183647 0.198152
0.361879 0.200101 0.203267
0.415586 0.212796 0.210753
0.469904 0.227394 0.218923
0.525239 0.245167 0.228232
0.570321 0.259578 0.235491
0.602220 0.269669 0.240113
0.631189 0.280573 0.247372
0.657229 0.292291 0.257267
0.685430 0.308550 0.274889
0.715311 0.328340 0.298520
0.738112 0.345974 0.321134
0.756665 0.362314 0.343138
0.774950 0.381160 0.365410
0.793113 0.401146 0.387805
0.812790 0.430360 0.421722
0.832971 0.462649 0.459480
0.843155 0.492823 0.483644
0.851032 0.522509 0.504671
0.855548 0.558574 0.542560
0.859584 0.595551 0.582857
0.865146 0.611838 0.600084
0.870810 0.626746 0.615773
0.104058 0.065841 0.104941
0.107313 0.067859 0.110214
0.111150 0.070613 0.116167
0.123714 0.084414 0.132312
0.137524 0.099013 0.148611
0.160048 0.119194 0.165993
0.188237 0.140388 0.182154
0.240968 0.165972 0.193026
0.292234 0.189701 0.202188
0.339106 0.207864 0.206225
0.386812 0.225295 0.210362
0.436353 0.241114 0.214724
0.485723 0.256885 0.219379
0.534809 0.272574 0.224522
0.575464 0.285813 0.230804
0.605279 0.295904 0.238551
0.632687 0.305767 0.246851
0.657685 0.315401 0.255705
0.684258 0.329577 0.271113
0.712056 0.347284 0.291619
0.735378 0.364788 0.312411
0.756014 0.382170 0.333373
0.774950 0.400625 0.356036
0.793113 0.419569 0.379472
0.812790 0.448523 0.411306
0.832971 0.480812 0.445939
0.842308 0.508447 0.464440
0.849144 0.535008 0.479217
0.853530 0.564303 0.497185
0.857566 0.593989 0.515608
0.861175 0.613726 0.539280
0.864756 0.632800 0.563302
0.106581 0.073408 0.112005
0.110617 0.075426 0.117798
0.115251 0.078295 0.124239
0.128857 0.093919 0.140384
0.143350 0.110178 0.156749
0.164052 0.130879 0.174651
0.191980 0.153473 0.190991
0.251221 0.184266 0.200561
0.308476 0.212291 0.208877
0.359775 0.232016 0.213434
0.409548 0.251335 0.217198
0.455964 0.269758 0.219216
0.501136 0.286375 0.221332
0.544232 0.299981 0.223610
0.580607 0.311935 0.228965
0.608339 0.321765 0.238274
0.634314 0.330977 0.246965
0.658531 0.339570 0.255037
0.683591 0.351971 0.268346
0.709305 0.367335 0.285728
0.732660 0.384285 0.304534
0.754598 0.402188 0.324194
0.774299 0.421164 0.347345
0.792983 0.440629 0.372083
0.812399 0.468346 0.401118
0.832059 0.498812 0.431584
0.840876 0.523567 0.445072
0.847191 0.547003 0.454642
0.851284 0.570667 0.456465
0.855060 0.594363 0.457181
0.857188 0.615679 0.480479
0.859206 0.636837 0.505282
0.110617 0.085517 0.122095
0.114653 0.087535 0.126847
0.119157 0.090273 0.132312
0.130680 0.103814 0.148456
0.143611 0.118510 0.164691
0.166396 0.141295 0.181552
0.195040 0.165972 0.196655
0.249073 0.198848 0.204141
0.305286 0.229998 0.211416
0.368043 0.255973 0.218057
0.425693 0.279914 0.223252
0.472109 0.299379 0.225270
0.515327 0.315865 0.227777
0.553216 0.327388 0.231097
0.585749 0.337714 0.235670
0.611399 0.346503 0.241855
0.636332 0.356235 0.248983
0.660549 0.366912 0.257055
0.684437 0.378467 0.268607
0.708068 0.390706 0.282864
0.729991 0.405833 0.299196
0.750888 0.422694 0.316773
0.771695 0.444926 0.340705
0.792462 0.469599 0.367526
0.810837 0.493149 0.391613
0.828414 0.516324 0.414789
0.837686 0.537173 0.425217
0.845043 0.557484 0.432703
0.848355 0.578934 0.429709
0.851089 0.600547 0.425217
0.853152 0.617827 0.427683
0.855170 0.634819 0.430612
0.114023 0.100148 0.132186
0.118059 0.102817 0.136222
0.122433 0.105975 0.140913
0.131872 0.116456 0.155430
0.143037 0.128613 0.170110
0.166278 0.152505 0.185930
0.194498 0.178472 0.199979
0.244300 0.213430 0.206359
0.298903 0.247299 0.212836
0.367909 0.277896 0.219607
0.430160 0.305136 0.224790
0.477553 0.324991 0.226483
0.520283 0.341429 0.228932
0.555242 0.352171 0.232643
0.586071 0.361744 0.236496
0.611590 0.369817 0.240532
0.636458 0.379907 0.246424
0.660675 0.392016 0.254171
0.683574 0.402989 0.264371
0.705448 0.413080 0.276480
0.726874 0.427565 0.291111
0.748031 0.444686 0.307256
0.769681 0.468342 0.331054
0.791555 0.494967 0.358331
0.808888 0.515490 0.379504
0.824707 0.533979 0.398644
0.835025 0.553525 0.410325
0.844074 0.573315 0.420286
0.846686 0.592023 0.413328
0.848379 0.610577 0.403954
0.850072 0.624065 0.388964
0.851764 0.637215 0.373601
0.116041 0.120329 0.142276
0.120077 0.125082 0.146312
0.124321 0.129866 0.150678
0.131677 0.135139 0.159987
0.140628 0.142610 0.169980
0.160744 0.165460 0.184758
0.186035 0.190971 0.198156
0.233754 0.228013 0.205578
0.285492 0.263704 0.211795
0.349290 0.295342 0.214399
0.408938 0.322973 0.216392
0.459455 0.341787 0.217043
0.504920 0.358355 0.218451
0.541962 0.371180 0.221120
0.575785 0.381925 0.224387
0.605471 0.389998 0.228424
0.632422 0.400088 0.233794
0.656639 0.412197 0.240500
0.678952 0.423170 0.250244
0.699784 0.433261 0.262353
0.722773 0.449699 0.276984
0.747055 0.469945 0.293129
0.768965 0.490996 0.314779
0.789797 0.512414 0.338931
0.806088 0.532416 0.361667
0.820866 0.551946 0.383931
0.833528 0.575919 0.406354
0.845702 0.600918 0.428814
0.847793 0.615720 0.419773
0.848444 0.629065 0.406232
0.849095 0.639298 0.381217
0.849746 0.649324 0.355438
0.118059 0.141267 0.155394
0.121704 0.146931 0.158258
0.125501 0.152489 0.161297
0.131555 0.156460 0.166961
0.139025 0.162660 0.173634
0.156407 0.184469 0.187370
0.178573 0.209085 0.199751
0.221474 0.245866 0.206261
0.268102 0.281427 0.210948
0.325911 0.313326 0.210167
0.382174 0.341177 0.209264
0.435035 0.360121 0.208092
0.482598 0.376966 0.207384
0.521333 0.390311 0.207449
0.558102 0.401862 0.209423
0.592345 0.411106 0.213849
0.622551 0.421783 0.218895
0.648721 0.433891 0.224558
0.672182 0.445085 0.233628
0.693535 0.455566 0.245346
0.717451 0.472394 0.259586
0.742905 0.493031 0.275340
0.765271 0.511967 0.295257
0.786233 0.530130 0.317065
0.802654 0.548927 0.339509
0.817562 0.567936 0.362163
0.831836 0.593822 0.391642
0.845962 0.621294 0.422694
0.849779 0.636291 0.420310
0.852122 0.649507 0.413149
0.851170 0.656802 0.382430
0.849998 0.663703 0.350140
0.120077 0.163466 0.173557
0.122681 0.168088 0.173296
0.125501 0.172995 0.173341
0.131555 0.182174 0.177963
0.138765 0.192802 0.183594
0.154063 0.213569 0.196289
0.172779 0.236557 0.207042
0.206306 0.269172 0.209386
0.244080 0.301348 0.210428
0.294598 0.332205 0.207563
0.346173 0.359991 0.204251
0.400076 0.381018 0.199955
0.448681 0.398383 0.195341
0.488457 0.409646 0.190198
0.528091 0.421392 0.189697
0.567542 0.433761 0.195166
0.602956 0.446000 0.200211
0.634334 0.458109 0.204833
0.661831 0.469888 0.212861
0.686309 0.481410 0.223537
0.710094 0.496025 0.236736
0.733465 0.512496 0.251449
0.756612 0.530130 0.270324
0.779658 0.548292 0.291091
0.798163 0.564747 0.310149
0.815154 0.580631 0.328637
0.829817 0.604238 0.359026
0.843944 0.629627 0.392162
0.853229 0.651655 0.411001
0.861822 0.673203 0.427796
0.858331 0.678090 0.398575
0.854035 0.681865 0.366285
0.122095 0.191846 0.192602
0.123657 0.195882 0.190129
0.125472 0.200366 0.188005
0.131071 0.211563 0.191130
0.137507 0.223883 0.195206
0.149811 0.244064 0.205948
0.164764 0.266222 0.214932
0.191195 0.296950 0.216299
0.222394 0.327449 0.216315
0.267899 0.357265 0.212279
0.315641 0.384843 0.207327
0.368307 0.407497 0.200362
0.416872 0.426124 0.192981
0.458601 0.438038 0.184908
0.500017 0.450520 0.181820
0.541030 0.463736 0.185140
0.579829 0.475942 0.187907
0.616416 0.487139 0.190120
0.647692 0.498593 0.196508
0.674839 0.510246 0.206143
0.700602 0.524014 0.218301
0.725535 0.539052 0.231972
0.749350 0.555299 0.249492
0.772656 0.572095 0.268761
0.793471 0.587914 0.287054
0.813457 0.603408 0.305022
0.828312 0.624508 0.334044
0.841983 0.646903 0.365618
0.853489 0.670664 0.394457
0.864687 0.694621 0.422906
0.862701 0.698010 0.402102
0.859837 0.700028 0.378015
0.124113 0.228171 0.212783
0.124634 0.232208 0.209268
0.125407 0.236561 0.206037
0.129964 0.245675 0.207079
0.134969 0.256173 0.208943
0.143106 0.276354 0.216559
0.153892 0.298707 0.223590
0.176157 0.330476 0.228082
0.203710 0.361496 0.230442
0.247132 0.390270 0.226406
0.292140 0.417458 0.220803
0.340640 0.441154 0.211754
0.387772 0.461994 0.203071
0.432626 0.478074 0.194999
0.474432 0.491989 0.189177
0.512321 0.503121 0.186247
0.552162 0.513244 0.183806
0.593956 0.522358 0.181853
0.628683 0.532315 0.185832
0.657913 0.542926 0.194425
0.688363 0.557606 0.205541
0.719546 0.574727 0.218170
0.743881 0.589476 0.233933
0.765104 0.603147 0.251119
0.788524 0.620529 0.272016
0.812676 0.639148 0.294150
0.827466 0.657449 0.318876
0.840095 0.675677 0.344200
0.849649 0.694361 0.368612
0.858763 0.713109 0.392895
0.863482 0.716173 0.389408
0.867909 0.718191 0.384070
0.128149 0.267524 0.237001
0.127629 0.269477 0.228798
0.127393 0.271910 0.221173
0.131429 0.281545 0.222215
0.136043 0.292824 0.224013
0.144701 0.315609 0.231109
0.155520 0.339785 0.237912
0.175701 0.369992 0.243445
0.202213 0.399970 0.246326
0.247718 0.429265 0.241248
0.293507 0.456648 0.234441
0.339924 0.479824 0.223830
0.386340 0.500534 0.214171
0.432756 0.517134 0.206098
0.474986 0.530203 0.198453
0.511832 0.538731 0.191357
0.551934 0.547552 0.186833
0.595291 0.556666 0.184880
0.630701 0.566329 0.187980
0.659931 0.576420 0.195011
0.691358 0.590905 0.205867
0.724103 0.608026 0.219017
0.748569 0.622059 0.234942
0.769270 0.634688 0.252128
0.792950 0.651028 0.274588
0.817623 0.668605 0.298805
0.831241 0.684596 0.320959
0.842308 0.700220 0.342638
0.849844 0.714932 0.363404
0.856875 0.729515 0.384041
0.865858 0.733294 0.390580
0.874972 0.736354 0.396178
0.134204 0.309904 0.265254
0.132641 0.307691 0.248719
0.131429 0.306413 0.233412
0.135465 0.319173 0.236537
0.140730 0.333837 0.240418
0.154596 0.361830 0.249597
0.169647 0.389457 0.257898
0.189828 0.415497 0.262390
0.217902 0.442871 0.263968
0.269656 0.474249 0.256807
0.319743 0.502413 0.248243
0.366159 0.523506 0.236590
0.412575 0.541742 0.226279
0.458992 0.555218 0.218207
0.501677 0.565162 0.209650
0.539565 0.570565 0.200471
0.579146 0.578865 0.196989
0.620419 0.590062 0.199202
0.653746 0.600637 0.202953
0.680893 0.610727 0.207901
0.709586 0.623910 0.219277
0.739206 0.638948 0.234511
0.763411 0.653047 0.252519
0.785155 0.666718 0.271788
0.806752 0.679412 0.294769
0.828300 0.691781 0.318986
0.839639 0.705948 0.340294
0.848623 0.720531 0.360931
0.854075 0.732379 0.378833
0.859023 0.743837 0.396345
0.869830 0.749374 0.405618
0.881027 0.754517 0.414341
0.140258 0.350014 0.293507
0.138240 0.349493 0.273912
0.136637 0.349851 0.255611
0.141259 0.363392 0.256718
0.147687 0.379024 0.258728
0.166762 0.409296 0.267061
0.187252 0.438652 0.274368
0.213878 0.464041 0.277232
0.247030 0.490130 0.277509
0.299761 0.518318 0.270023
0.351068 0.543638 0.261092
0.399242 0.562647 0.248983
0.445658 0.578190 0.237949
0.489145 0.587955 0.228704
0.530638 0.596239 0.220115
0.569568 0.602618 0.212368
0.608042 0.611570 0.210806
0.646060 0.623092 0.215428
0.677780 0.633809 0.221368
0.704602 0.643900 0.228334
0.730853 0.655048 0.240304
0.756763 0.666831 0.255277
0.778510 0.679420 0.273025
0.798366 0.692375 0.292035
0.817587 0.703621 0.314071
0.836596 0.714297 0.337116
0.846243 0.726825 0.359262
0.853729 0.739780 0.381201
0.858710 0.747665 0.396532
0.863332 0.754826 0.410919
0.872775 0.761499 0.422377
0.882540 0.768139 0.433639
0.146312 0.388358 0.321761
0.144294 0.394087 0.303207
0.142756 0.400239 0.285557
0.148420 0.412738 0.281456
0.156411 0.427459 0.278518
0.180693 0.457730 0.283726
0.207563 0.487477 0.288104
0.245647 0.514949 0.288885
0.286611 0.540778 0.287860
0.336217 0.561675 0.281415
0.386352 0.581331 0.273200
0.437651 0.598257 0.261092
0.484067 0.610935 0.249276
0.522346 0.616534 0.237949
0.561365 0.624297 0.230010
0.601337 0.634843 0.226430
0.638248 0.645357 0.227472
0.672100 0.655838 0.233135
0.702584 0.666099 0.242461
0.730446 0.676190 0.254635
0.754485 0.684734 0.267256
0.776228 0.692351 0.280146
0.793809 0.702205 0.295810
0.809498 0.713077 0.312736
0.826115 0.724583 0.332689
0.843041 0.736301 0.353652
0.851451 0.747332 0.377946
0.857896 0.758203 0.403010
0.863657 0.761271 0.415997
0.869321 0.763224 0.427259
0.874924 0.770548 0.440475
0.880522 0.778230 0.453820
0.156150 0.438054 0.348753
0.150877 0.440267 0.324731
0.146556 0.443302 0.301954
0.156517 0.458666 0.297853
0.169325 0.475568 0.294280
0.202070 0.503235 0.294411
0.236012 0.530158 0.294150
0.275137 0.553854 0.292197
0.317240 0.576005 0.289056
0.368279 0.593517 0.282351
0.420985 0.611212 0.275381
0.477362 0.629309 0.267830
0.527196 0.642622 0.260034
0.566126 0.647961 0.251831
0.604258 0.655976 0.247474
0.641365 0.667434 0.248059
0.675087 0.677557 0.252356
0.705424 0.686345 0.260363
0.733490 0.695866 0.271447
0.759790 0.705957 0.284922
0.779825 0.713118 0.297137
0.796100 0.718521 0.308594
0.810450 0.726251 0.323722
0.823926 0.735040 0.340518
0.836962 0.744366 0.356435
0.849852 0.753870 0.372059
0.857188 0.762264 0.393131
0.863242 0.770401 0.415460
0.868727 0.772558 0.429359
0.874130 0.773860 0.442053
0.877642 0.779678 0.457311
0.881027 0.785798 0.472740
0.168259 0.494561 0.374988
0.157778 0.487400 0.341592
0.148965 0.481972 0.310222
0.165175 0.502543 0.309245
0.184754 0.523481 0.307626
0.227915 0.546982 0.301507
0.269343 0.569153 0.295582
0.303260 0.585558 0.290505
0.342499 0.601980 0.284760
0.397704 0.618450 0.277013
0.455228 0.636405 0.271605
0.517854 0.657628 0.271345
0.573157 0.673675 0.270450
0.616253 0.681096 0.268497
0.654450 0.689828 0.269477
0.686349 0.700244 0.274230
0.715905 0.708805 0.282172
0.743116 0.715510 0.293304
0.768058 0.724119 0.305168
0.791233 0.734210 0.317603
0.806190 0.740720 0.328775
0.816216 0.745082 0.339191
0.827897 0.751055 0.354710
0.840331 0.757760 0.372547
0.849201 0.763440 0.383256
0.856883 0.768778 0.391589
0.863242 0.773852 0.406216
0.869297 0.778864 0.422296
0.873870 0.782453 0.439059
0.878231 0.785838 0.455920
0.880701 0.788857 0.473391
0.883045 0.791852 0.490903
0.187305 0.542743 0.405386
0.174480 0.532652 0.367628
0.163503 0.524401 0.331827
0.180233 0.543735 0.325382
0.201480 0.563428 0.318555
0.254342 0.585627 0.309050
0.305360 0.606179 0.299924
0.348391 0.619589 0.292437
0.393717 0.633325 0.285520
0.445927 0.648038 0.280312
0.500660 0.663971 0.277139
0.560942 0.682590 0.278441
0.613925 0.696985 0.279792
0.654743 0.704341 0.281224
0.689694 0.712580 0.284678
0.717101 0.721955 0.290733
0.744280 0.730027 0.301246
0.771231 0.736798 0.316219
0.792690 0.745033 0.329178
0.809876 0.754407 0.340571
0.821814 0.759998 0.352492
0.830603 0.763318 0.364731
0.841181 0.768518 0.380058
0.852574 0.774572 0.396789
0.858889 0.778039 0.406586
0.863511 0.780643 0.414073
0.869297 0.784992 0.429863
0.875351 0.789744 0.447571
0.879639 0.793243 0.463170
0.883675 0.796564 0.478469
0.886491 0.798663 0.494439
0.889225 0.800681 0.510453
0.209504 0.587141 0.437675
0.195638 0.577050 0.397834
0.183554 0.568539 0.359494
0.198201 0.583707 0.343675
0.218797 0.599754 0.328385
0.281033 0.621953 0.316797
0.342597 0.642309 0.305588
0.401252 0.654678 0.296018
0.456733 0.667112 0.288580
0.502694 0.679742 0.287539
0.551177 0.692615 0.286904
0.605210 0.706026 0.287164
0.652334 0.716775 0.288645
0.687944 0.723090 0.292161
0.718142 0.730288 0.296787
0.741383 0.738620 0.302841
0.767000 0.746693 0.315438
0.794993 0.754505 0.334577
0.812806 0.762610 0.348773
0.822701 0.770943 0.359124
0.832556 0.775491 0.372608
0.842386 0.777770 0.387972
0.852574 0.782644 0.402843
0.862925 0.788699 0.417490
0.867417 0.790603 0.428329
0.869956 0.791124 0.437899
0.875351 0.795929 0.458312
0.881405 0.801723 0.481227
0.885694 0.804441 0.493832
0.889730 0.806719 0.504964
0.893522 0.808754 0.517744
0.897298 0.810772 0.530634
0.231703 0.620944 0.471479
0.217576 0.611635 0.424867
0.205313 0.603741 0.379838
0.221002 0.617087 0.358550
0.243486 0.631051 0.337922
0.313534 0.649344 0.321907
0.382764 0.666917 0.307736
0.448449 0.681369 0.301551
0.508423 0.694649 0.296718
0.551259 0.704414 0.295936
0.596129 0.714668 0.295643
0.645475 0.725995 0.296425
0.687423 0.735052 0.299305
0.717044 0.740325 0.305685
0.743418 0.746481 0.312264
0.765617 0.753772 0.319100
0.787718 0.761064 0.331827
0.809722 0.768355 0.350445
0.824329 0.774767 0.364706
0.833182 0.780496 0.375578
0.841344 0.784394 0.388769
0.849091 0.787193 0.403351
0.858449 0.792230 0.419232
0.868540 0.798285 0.435702
0.873162 0.800384 0.450903
0.875961 0.801165 0.465681
0.882040 0.805596 0.484954
0.888875 0.810869 0.505265
0.892578 0.812611 0.517317
0.895833 0.813848 0.528189
0.899088 0.815817 0.538023
0.902343 0.817835 0.547788
0.253902 0.651216 0.505786
0.239775 0.642948 0.450842
0.227642 0.635966 0.397741
0.245415 0.648270 0.372287
0.270633 0.660671 0.347361
0.347972 0.673756 0.326139
0.423907 0.687684 0.308712
0.493759 0.705261 0.307736
0.556336 0.720104 0.306548
0.597089 0.726744 0.304725
0.639225 0.734523 0.304041
0.684404 0.744809 0.305864
0.721406 0.752824 0.310568
0.744776 0.757056 0.320072
0.767635 0.762170 0.328865
0.789834 0.768420 0.336742
0.807769 0.774670 0.348948
0.821440 0.780919 0.365484
0.832987 0.785118 0.379419
0.842882 0.787722 0.391332
0.849482 0.791099 0.403612
0.854104 0.794940 0.416111
0.862485 0.800303 0.433489
0.872576 0.806357 0.453084
0.877979 0.809238 0.473753
0.881820 0.811060 0.494780
0.888940 0.814840 0.510994
0.896818 0.819072 0.526097
0.899739 0.819772 0.538410
0.901952 0.819967 0.550323
0.904166 0.821871 0.557293
0.906379 0.823889 0.563933
0.279381 0.681487 0.535175
0.264408 0.672568 0.471898
0.251664 0.664858 0.410671
0.272366 0.675274 0.380204
0.301694 0.686219 0.350665
0.391402 0.700867 0.327620
0.476422 0.715380 0.308895
0.541131 0.729311 0.308895
0.598696 0.741273 0.309026
0.634827 0.747328 0.309546
0.671690 0.753850 0.311329
0.710164 0.761401 0.315886
0.742217 0.767635 0.322835
0.763570 0.771671 0.333772
0.783442 0.776220 0.343826
0.801409 0.781428 0.352744
0.816024 0.785789 0.364853
0.827287 0.789305 0.380151
0.837414 0.792930 0.392704
0.846658 0.796641 0.403120
0.854234 0.800555 0.418296
0.860809 0.804591 0.436329
0.868056 0.808851 0.454093
0.875607 0.813213 0.471735
0.882426 0.815817 0.492160
0.889001 0.817835 0.513513
0.894730 0.822180 0.531745
0.900264 0.827063 0.549257
0.902721 0.827673 0.560560
0.904739 0.827673 0.570976
0.905964 0.829565 0.578096
0.907136 0.831583 0.584997
0.305616 0.711759 0.563428
0.289601 0.701798 0.491818
0.276077 0.692981 0.422454
0.299903 0.701314 0.386779
0.333658 0.710827 0.352553
0.436906 0.728599 0.328466
0.531562 0.744675 0.308895
0.588980 0.753398 0.308895
0.639774 0.761454 0.309807
0.670697 0.767509 0.313452
0.701701 0.773054 0.318359
0.732884 0.777481 0.326041
0.759990 0.781761 0.335334
0.780301 0.785798 0.347313
0.797308 0.789891 0.358408
0.810068 0.794057 0.368368
0.821558 0.796336 0.380477
0.831779 0.796726 0.394734
0.840864 0.800156 0.405658
0.849067 0.805950 0.413991
0.858205 0.810645 0.432943
0.867905 0.814682 0.458267
