其他预设/【236】赛博朋克风调色预设/【后期菌】视频调色预设/CUBE/Abandoned 06_S.cube
# LUT by SparkleStock. Enhanced with VOXCOLOR algorithms.
LUT_3D_SIZE 5
DOMAIN_MIN 0.000000 0.000000 0.000000
DOMAIN_MAX 0.903226 0.903226 0.903226
0.050831 0.105572 0.003910
0.090184 0.118185 0.040867
0.304985 0.159051 0.100022
0.569861 0.234100 0.204206
0.715795 0.382682 0.357834
0.062561 0.119699 0.025857
0.208759 0.171189 0.104266
0.502002 0.266320 0.169036
0.686911 0.391015 0.281525
0.784947 0.545245 0.426621
0.081733 0.159556 0.084382
0.178797 0.244190 0.147594
0.477639 0.444824 0.222129
0.653075 0.530964 0.286285
0.765198 0.644051 0.442997
0.142781 0.352285 0.285183
0.355975 0.464558 0.331632
0.579479 0.605414 0.433717
0.712540 0.686634 0.497938
0.799135 0.735756 0.543341
0.263614 0.529877 0.509570
0.575895 0.650438 0.506775
0.710623 0.723595 0.570744
0.804465 0.774478 0.615459
0.874549 0.819637 0.666636
0.058651 0.107085 0.019550
0.093166 0.116374 0.063696
0.333023 0.137935 0.157900
0.591067 0.189079 0.260074
0.742429 0.374630 0.425766
0.062561 0.126933 0.048687
0.218969 0.171608 0.161349
0.502255 0.244383 0.264528
0.693602 0.328912 0.334488
0.822156 0.482903 0.454918
0.089443 0.182728 0.143248
0.145704 0.278371 0.237830
0.530727 0.464272 0.327339
0.698633 0.515000 0.362357
0.822830 0.603633 0.445655
0.149970 0.381152 0.386096
0.236513 0.452248 0.460407
0.581790 0.636175 0.447664
0.718759 0.692611 0.480136
0.831733 0.724254 0.484166
0.285309 0.547336 0.563713
0.552966 0.666564 0.610516
0.732200 0.737388 0.608448
0.823646 0.792930 0.653370
0.885113 0.838753 0.643044
0.063444 0.114275 0.055245
0.095860 0.116671 0.093626
0.330875 0.143212 0.229665
0.609010 0.203608 0.367957
0.754326 0.369817 0.482871
0.073319 0.137105 0.114312
0.129936 0.173166 0.252783
0.519824 0.248593 0.406997
0.703287 0.344127 0.473241
0.824907 0.506094 0.550570
0.098940 0.230169 0.290114
0.153693 0.334077 0.406631
0.525996 0.454506 0.491251
0.722168 0.516349 0.507935
0.859518 0.562692 0.542111
0.167596 0.421278 0.486252
0.230635 0.472671 0.539150
0.439288 0.596968 0.593053
0.733737 0.699519 0.554211
0.857172 0.716531 0.537552
0.303260 0.566476 0.605849
0.486715 0.660049 0.672469
0.730007 0.756762 0.704891
0.821917 0.817168 0.661807
0.892870 0.860840 0.650362
0.070381 0.127771 0.164475
0.111854 0.135835 0.235715
0.391198 0.157680 0.329443
0.626722 0.221312 0.433944
0.768644 0.384037 0.549932
0.078698 0.166493 0.293145
0.128592 0.222542 0.390934
0.557315 0.255995 0.493216
0.732474 0.413650 0.574846
0.826970 0.557583 0.637761
0.124760 0.330024 0.453775
0.187026 0.402054 0.528244
0.406099 0.516581 0.624237
0.775789 0.589795 0.653737
0.862266 0.596742 0.672302
0.204837 0.473167 0.576416
0.303231 0.535476 0.625080
0.516851 0.645401 0.696713
0.735747 0.710344 0.717598
0.886186 0.731282 0.705201
0.331005 0.582254 0.650556
0.512644 0.666604 0.706849
0.689537 0.739736 0.756729
0.827402 0.826233 0.772054
0.903937 0.874274 0.758284
0.081733 0.152114 0.357834
0.144221 0.171937 0.412490
0.505766 0.186926 0.476211
0.656485 0.236150 0.518151
0.785586 0.401093 0.614930
0.114234 0.254797 0.458373
0.197172 0.357451 0.538795
0.552217 0.464443 0.647571
0.756363 0.445700 0.631728
0.828049 0.570963 0.690164
0.181377 0.420395 0.568579
0.283583 0.496477 0.630282
0.492785 0.611277 0.710649
0.794084 0.644832 0.726849
0.865134 0.671739 0.747271
0.265441 0.530195 0.650524
0.420106 0.612951 0.706695
0.593573 0.687509 0.751430
0.739766 0.748852 0.786518
0.891615 0.771610 0.807600
0.415318 0.638354 0.714997
0.577125 0.705961 0.756274
0.714983 0.761700 0.787437
0.832910 0.824604 0.827406
0.923565 0.888582 0.867893
