其他预设/【236】赛博朋克风调色预设/【后期菌】视频调色预设/CUBE/Abandoned 02.cube
# LUT by SparkleStock. Enhanced with VOXCOLOR algorithms.
LUT_3D_SIZE 8
DOMAIN_MIN 0.000000 0.000000 0.000000
DOMAIN_MAX 0.903226 0.903226 0.903226
0.007820 0.035191 0.058651
0.044272 0.090688 0.138114
0.112635 0.128149 0.192224
0.246460 0.178097 0.258569
0.461262 0.256425 0.351276
0.650837 0.333239 0.443856
0.775203 0.401602 0.530382
0.849116 0.465550 0.610601
0.023460 0.087283 0.118311
0.089700 0.139188 0.194181
0.208715 0.186235 0.258097
0.416030 0.266466 0.350519
0.621575 0.351475 0.441964
0.747840 0.413458 0.527949
0.824646 0.487933 0.610251
0.870924 0.562305 0.666591
0.015136 0.129158 0.150601
0.101064 0.176551 0.222967
0.302235 0.262617 0.310730
0.516817 0.357806 0.397509
0.664732 0.434933 0.467569
0.755221 0.510490 0.528254
0.815174 0.581327 0.601829
0.835188 0.644783 0.594021
0.006307 0.190584 0.199287
0.060978 0.215054 0.226629
0.247710 0.295835 0.281639
0.475832 0.417706 0.364226
0.624065 0.506348 0.424546
0.723228 0.584272 0.487505
0.791006 0.639652 0.544891
0.827291 0.688205 0.574499
0.003910 0.283921 0.258317
0.037160 0.291754 0.239653
0.135233 0.346360 0.256555
0.340005 0.456973 0.312875
0.471007 0.538328 0.359356
0.612737 0.619264 0.414626
0.731512 0.690544 0.484560
0.807008 0.741701 0.549554
0.000000 0.400719 0.339671
0.070044 0.384908 0.267191
0.264408 0.470343 0.319238
0.424273 0.561536 0.375106
0.553781 0.626673 0.422666
0.687118 0.697925 0.492233
0.770869 0.750326 0.551637
0.822815 0.785676 0.593456
0.000000 0.532778 0.436540
0.149002 0.497868 0.339700
0.404011 0.589423 0.397244
0.541530 0.654963 0.454959
0.658320 0.708316 0.517114
0.748353 0.760099 0.573393
0.804339 0.798960 0.618214
0.840107 0.825476 0.644815
0.007442 0.633683 0.539842
0.319828 0.613881 0.434396
0.520295 0.680051 0.477586
0.643652 0.729958 0.543105
0.729193 0.770410 0.594534
0.786367 0.804400 0.631161
0.825423 0.835998 0.670912
0.856517 0.862990 0.716043
0.016145 0.075048 0.114906
0.048198 0.098777 0.154291
0.108188 0.123954 0.205403
0.246790 0.177088 0.293760
0.455521 0.248287 0.377633
0.631035 0.318815 0.471234
0.771826 0.388582 0.570898
0.853026 0.457364 0.647546
0.020275 0.100982 0.136930
0.099346 0.146784 0.218255
0.214846 0.189132 0.291001
0.409345 0.257232 0.379688
0.607916 0.336820 0.477578
0.746509 0.408214 0.573022
0.818616 0.466486 0.632746
0.865812 0.551670 0.689199
0.023493 0.156089 0.183460
0.055276 0.173953 0.220915
0.358693 0.264757 0.371152
0.565227 0.347921 0.470878
0.705839 0.419765 0.555986
0.778453 0.485730 0.610879
0.828846 0.565528 0.664081
0.865981 0.623927 0.708132
0.011226 0.218557 0.241163
0.026106 0.247330 0.274816
0.204243 0.300391 0.341081
0.542471 0.435730 0.442647
0.676229 0.521867 0.516127
0.744518 0.588485 0.562602
0.796988 0.641220 0.604709
0.838877 0.695692 0.651956
0.006811 0.315959 0.315271
0.007828 0.354624 0.347997
0.104253 0.367551 0.320762
0.336721 0.461174 0.368341
0.523879 0.561557 0.405273
0.646916 0.630586 0.461636
0.741779 0.694460 0.525902
0.808192 0.740678 0.584654
0.000171 0.440117 0.403583
0.001558 0.467987 0.432043
0.192055 0.482798 0.374181
0.442556 0.573732 0.414867
0.580981 0.641520 0.466183
0.700622 0.705338 0.537271
0.775673 0.751990 0.587488
0.823198 0.790749 0.626636
0.000000 0.555453 0.502450
0.017017 0.567819 0.491533
0.342647 0.585811 0.444270
0.565554 0.670515 0.500566
0.671617 0.717830 0.554352
0.759500 0.768117 0.612313
0.808053 0.802202 0.648070
0.836984 0.825934 0.671256
0.009208 0.643522 0.582702
0.159002 0.629825 0.525520
0.497799 0.683647 0.535522
0.661812 0.739281 0.578956
0.741149 0.779690 0.627918
0.794594 0.808786 0.663186
0.830668 0.841845 0.704724
0.857641 0.866183 0.749940
0.023965 0.096364 0.156529
0.048939 0.111435 0.181185
0.111122 0.131555 0.236748
0.239267 0.172210 0.320666
0.428093 0.236874 0.406147
0.631108 0.316537 0.513733
0.772737 0.377958 0.612184
0.852977 0.444763 0.683054
0.030621 0.134773 0.193270
0.078311 0.152853 0.234665
0.210237 0.186838 0.318873
0.408788 0.255167 0.412239
0.603618 0.329158 0.517422
0.737113 0.394537 0.600219
0.817379 0.459022 0.663275
0.861249 0.533226 0.712937
0.031215 0.172539 0.223500
0.050074 0.208084 0.267931
0.302271 0.248335 0.386835
0.539598 0.334998 0.507027
0.693308 0.407025 0.591616
0.770427 0.474311 0.645035
0.816767 0.544809 0.681109
0.857451 0.611050 0.728658
0.021288 0.247189 0.286289
0.028835 0.279411 0.323451
0.114496 0.314097 0.381394
0.595145 0.417503 0.557125
0.730840 0.508489 0.622887
0.776037 0.570573 0.659952
0.814896 0.627654 0.695037
0.843446 0.685171 0.706044
0.008194 0.336994 0.360080
0.008903 0.381630 0.408732
0.019709 0.410690 0.440982
0.306778 0.464434 0.458466
0.657740 0.595812 0.547950
0.727217 0.649786 0.585838
0.788164 0.698404 0.635024
0.819216 0.735297 0.641714
0.003153 0.451912 0.453011
0.000724 0.486142 0.489360
0.018239 0.520406 0.523211
0.363333 0.565919 0.479945
0.601678 0.651078 0.513716
0.711827 0.709837 0.569713
0.781412 0.752574 0.620653
0.816126 0.782013 0.644306
0.000195 0.564803 0.547467
0.007445 0.591617 0.575213
0.096434 0.615860 0.581749
0.523935 0.668492 0.565323
0.695237 0.734018 0.599527
0.766068 0.774503 0.641819
0.802447 0.798825 0.668247
0.833703 0.824718 0.694594
0.013345 0.653588 0.624350
0.082765 0.672289 0.629789
0.410741 0.680405 0.600937
0.643844 0.740953 0.623516
0.758238 0.792229 0.663406
0.801626 0.818889 0.695210
0.831160 0.842892 0.731419
0.854229 0.861919 0.771701
0.032037 0.128149 0.211774
0.056914 0.129818 0.232887
0.109132 0.141450 0.270552
0.225714 0.171624 0.344171
0.422609 0.230832 0.439075
0.623678 0.300546 0.546258
0.771923 0.369902 0.644531
0.850466 0.428810 0.704532
0.035191 0.166066 0.242375
0.058379 0.195860 0.286597
0.184810 0.204192 0.353210
0.395968 0.248154 0.444229
0.590310 0.317004 0.549293
0.727990 0.378389 0.628858
0.819315 0.451310 0.696094
0.857467 0.523506 0.734385
0.032135 0.208999 0.282729
0.047363 0.249196 0.328213
0.160083 0.286653 0.404532
0.502129 0.325282 0.528333
0.684185 0.400126 0.623311
0.766697 0.464006 0.673197
0.813417 0.542218 0.710829
0.853563 0.605803 0.745904
0.028127 0.287600 0.348374
0.033865 0.317478 0.379456
0.107481 0.362898 0.450696
0.490347 0.398360 0.575055
0.691433 0.479639 0.646556
0.770273 0.559586 0.687070
0.812794 0.617388 0.723257
0.840822 0.670646 0.752418
0.015949 0.373393 0.425315
0.021752 0.409999 0.469548
0.028685 0.444303 0.514843
0.155492 0.480956 0.557421
0.678476 0.580474 0.653015
0.771927 0.645412 0.684274
0.806615 0.691039 0.713314
0.829206 0.732735 0.733464
0.006803 0.477557 0.519156
0.007820 0.517064 0.556917
0.013953 0.549786 0.588786
0.086300 0.576758 0.606745
0.565721 0.649415 0.606164
0.753619 0.724597 0.637098
0.790551 0.753376 0.660603
0.825887 0.784007 0.692949
0.001977 0.576082 0.588569
0.009781 0.604852 0.620679
0.045000 0.627795 0.636837
0.257709 0.664712 0.658385
0.662825 0.725133 0.649150
0.769668 0.777638 0.669557
0.806637 0.801948 0.693258
0.835327 0.827460 0.722181
0.011694 0.658242 0.649881
0.060338 0.689329 0.682570
0.259079 0.703922 0.687065
0.575980 0.741516 0.688953
0.755753 0.794788 0.696815
0.806841 0.827277 0.729293
0.833803 0.846491 0.758604
0.849176 0.862880 0.796563
0.040110 0.166367 0.275975
0.060352 0.172230 0.298675
0.120960 0.175819 0.338536
0.228204 0.170196 0.378577
0.420143 0.221857 0.473749
0.629204 0.297133 0.591881
0.778722 0.365012 0.674387
0.851182 0.421376 0.731329
0.039231 0.205915 0.310352
0.048874 0.237549 0.352410
0.165560 0.240129 0.407514
0.390126 0.245172 0.485683
0.590066 0.308143 0.584329
0.728548 0.371212 0.662621
0.813414 0.435616 0.714872
0.858845 0.516545 0.758632
0.044394 0.261848 0.356565
0.052353 0.293927 0.397713
0.097055 0.339446 0.461155
0.390862 0.319448 0.542071
0.684462 0.388929 0.646615
0.760803 0.455300 0.697053
0.813467 0.532955 0.735312
0.852967 0.606182 0.771183
0.045603 0.334500 0.424147
0.051176 0.375816 0.474361
0.071131 0.411222 0.519854
0.248171 0.452054 0.585928
0.657603 0.465821 0.669075
0.774521 0.560552 0.721692
0.811981 0.616403 0.751284
0.837376 0.672346 0.777370
0.027598 0.416074 0.501701
0.032245 0.455212 0.546318
0.036801 0.495187 0.579961
0.150026 0.532541 0.618562
0.579771 0.570182 0.680841
0.752312 0.632207 0.721237
0.804000 0.686380 0.751207
0.830179 0.726634 0.779797
0.008504 0.512463 0.574361
0.012723 0.546834 0.608443
0.028701 0.573281 0.634683
0.075037 0.603497 0.660045
0.377733 0.646917 0.692039
0.738380 0.720506 0.694108
0.800010 0.758460 0.705241
0.829338 0.789620 0.730621
0.007820 0.597471 0.635449
0.015740 0.616148 0.656927
0.058251 0.646705 0.683964
0.216263 0.671523 0.695614
0.481435 0.709348 0.717571
0.746632 0.772029 0.719460
0.816941 0.809817 0.727824
0.837813 0.830360 0.746537
0.014883 0.667836 0.687078
0.062486 0.689280 0.707041
0.211595 0.712487 0.729720
0.505862 0.739359 0.732951
0.700377 0.784229 0.758568
0.796895 0.827537 0.763369
0.835934 0.849575 0.782312
0.848741 0.862869 0.819604
0.044272 0.210765 0.356573
0.056137 0.230739 0.387483
0.124996 0.226080 0.414593
0.259501 0.192130 0.444771
0.423768 0.218606 0.521593
0.631738 0.292108 0.623678
0.778828 0.357045 0.701872
0.848355 0.414215 0.757479
0.044524 0.251721 0.385465
0.061368 0.292939 0.438882
0.148640 0.302181 0.487947
0.349430 0.253830 0.526404
0.596876 0.299572 0.623844
0.724159 0.360943 0.685613
0.806682 0.428961 0.736903
0.854075 0.505953 0.773030
0.055660 0.315906 0.443949
0.065748 0.346444 0.479254
0.094114 0.384569 0.535590
0.366360 0.367612 0.609400
0.661819 0.373708 0.668517
0.764441 0.447612 0.724637
0.811976 0.527965 0.757225
0.846671 0.599186 0.789090
0.054489 0.390132 0.515775
0.060977 0.424352 0.553062
0.075790 0.460887 0.589091
0.177686 0.510781 0.642556
0.599903 0.480136 0.696462
0.770498 0.556015 0.740233
0.813687 0.616554 0.774328
0.836845 0.668541 0.801226
0.035012 0.473444 0.579846
0.044459 0.507180 0.614508
0.058567 0.548332 0.645700
0.113105 0.581691 0.677231
0.425797 0.620585 0.720850
0.735746 0.637486 0.754767
0.810597 0.689975 0.789603
0.830657 0.728840 0.816925
0.017435 0.560751 0.638505
0.025659 0.580817 0.662548
0.050806 0.609644 0.689994
0.124652 0.636728 0.710119
0.407899 0.678649 0.744158
0.661364 0.704395 0.773145
0.797287 0.742985 0.796587
0.831587 0.780756 0.824607
0.010217 0.621701 0.687383
0.029030 0.638079 0.699345
0.084439 0.661857 0.716781
0.244977 0.691049 0.739035
0.473998 0.721121 0.763261
0.668066 0.752351 0.779129
0.809725 0.807740 0.774951
0.842168 0.835672 0.794204
0.016836 0.673158 0.714021
0.077521 0.697754 0.732509
0.219213 0.714887 0.749377
0.464617 0.746104 0.776632
0.638479 0.775295 0.796308
0.775444 0.821979 0.813207
0.831329 0.848867 0.824933
0.854670 0.870846 0.849988
0.052344 0.263236 0.450667
0.072749 0.291473 0.491041
0.153848 0.283828 0.522297
0.302764 0.224851 0.529796
0.444259 0.225661 0.574540
0.638021 0.291127 0.663389
0.779113 0.358005 0.731948
0.848664 0.411619 0.779922
0.054110 0.304298 0.471352
0.073821 0.339948 0.528789
0.113021 0.378774 0.587149
0.342567 0.334912 0.627208
0.607331 0.305777 0.665473
0.722748 0.358274 0.715136
0.802873 0.424246 0.760434
0.849865 0.504787 0.799619
0.065588 0.370952 0.539280
0.078417 0.397358 0.572236
0.108129 0.446368 0.618813
0.352422 0.463110 0.681608
0.593530 0.378809 0.691768
0.758262 0.443095 0.750017
0.814007 0.521412 0.781861
0.845293 0.594744 0.811147
0.062854 0.445784 0.590750
0.078403 0.485236 0.629100
0.094669 0.525103 0.660190
0.177143 0.567158 0.696505
0.576636 0.549080 0.744847
0.760990 0.554313 0.772608
0.812854 0.616125 0.797237
0.840258 0.671975 0.823312
0.050831 0.532009 0.652477
0.061056 0.565475 0.681210
0.083585 0.597907 0.708627
0.138997 0.625615 0.734014
0.363481 0.661409 0.763048
0.713008 0.659499 0.789980
0.812265 0.694732 0.816334
0.831375 0.725992 0.837360
0.027985 0.600698 0.698702
0.044469 0.624066 0.724400
0.082386 0.644580 0.738788
0.199720 0.670889 0.758182
0.411028 0.700976 0.782091
0.611663 0.728289 0.808856
0.794729 0.744709 0.828168
0.836160 0.782483 0.860617
0.017740 0.648522 0.732444
0.048073 0.662657 0.736761
0.141048 0.685070 0.759090
0.331763 0.712393 0.777249
0.524748 0.738782 0.803040
0.666931 0.765112 0.821627
0.787791 0.803159 0.838365
0.847342 0.841222 0.861431
0.038197 0.694405 0.750786
0.101348 0.703084 0.760491
0.281667 0.728520 0.780762
0.504828 0.755807 0.804184
0.645769 0.784199 0.829716
0.740503 0.811331 0.849335
0.822050 0.851992 0.872921
0.853936 0.876704 0.891544
0.070003 0.315580 0.549428
0.088154 0.345095 0.587117
0.141869 0.351707 0.613197
0.330960 0.270759 0.617075
0.507902 0.257784 0.648461
0.653791 0.299370 0.702042
0.776000 0.360072 0.758720
0.850291 0.413161 0.805136
0.075931 0.366008 0.580053
0.090312 0.394796 0.619700
0.127775 0.431206 0.656573
0.361890 0.401464 0.703275
0.610120 0.314186 0.705322
0.732497 0.368425 0.746355
0.800559 0.426917 0.784133
0.846947 0.497122 0.818843
0.080195 0.427740 0.619028
0.094360 0.465951 0.655948
0.132338 0.510488 0.686645
0.251413 0.557305 0.724970
0.578993 0.478348 0.761252
0.761021 0.449736 0.777543
0.812257 0.517959 0.807054
0.847270 0.591302 0.831616
0.081733 0.505986 0.664695
0.095653 0.543671 0.693345
0.124669 0.583263 0.723485
0.223623 0.624478 0.754976
0.570687 0.646335 0.807712
0.737752 0.579726 0.802023
0.815892 0.619418 0.819979
0.845483 0.675161 0.845699
0.067529 0.588528 0.716572
0.080781 0.614645 0.739548
0.121075 0.644671 0.765065
0.224534 0.674163 0.791156
0.414879 0.701034 0.812228
0.710933 0.704976 0.837799
0.802367 0.696178 0.838427
0.834495 0.732315 0.864784
0.046042 0.642008 0.751929
0.073754 0.658747 0.767387
0.138323 0.682158 0.786363
0.287148 0.703801 0.800039
0.488290 0.732940 0.824060
0.636095 0.755719 0.846004
0.787197 0.767273 0.867112
0.837532 0.788064 0.882515
0.043914 0.679974 0.774067
0.094194 0.693977 0.782732
0.220446 0.713163 0.796784
0.435962 0.738090 0.816205
0.587604 0.761997 0.837451
0.686128 0.786787 0.859635
0.774023 0.810369 0.876543
0.847601 0.842043 0.909106
0.068872 0.712226 0.785928
0.169602 0.727978 0.799029
0.382408 0.749445 0.814025
0.554953 0.771101 0.833210
0.673585 0.797569 0.858917
0.750908 0.821115 0.879651
0.812033 0.853361 0.905537
0.852191 0.884536 0.927683
