其他预设/【236】赛博朋克风调色预设/【后期菌】视频调色预设/CUBE/Abandoned 05_S.cube
# LUT by SparkleStock. Enhanced with VOXCOLOR algorithms.
LUT_3D_SIZE 32
0.062561 0.070381 0.011730
0.066597 0.076436 0.013748
0.070507 0.082111 0.015640
0.072525 0.082111 0.015640
0.075048 0.082364 0.016397
0.081102 0.084382 0.022451
0.087535 0.087157 0.028506
0.095607 0.093211 0.034560
0.106707 0.099770 0.041623
0.126888 0.107842 0.051714
0.151484 0.115284 0.061804
0.185791 0.121338 0.071895
0.226910 0.131176 0.082742
0.279381 0.147321 0.094851
0.334500 0.162583 0.113140
0.393025 0.176710 0.139375
0.450541 0.192855 0.163592
0.507048 0.211018 0.185791
0.556743 0.228045 0.209126
0.601141 0.244190 0.233343
0.641756 0.264119 0.260083
0.680100 0.286318 0.288336
0.704569 0.308517 0.312427
0.722732 0.330716 0.334626
0.740895 0.349888 0.353798
0.759058 0.368051 0.371961
0.777221 0.389493 0.391764
0.795384 0.411692 0.411945
0.810015 0.432126 0.425062
0.824142 0.452307 0.437171
0.836376 0.470596 0.447388
0.848485 0.488759 0.457478
0.066597 0.076436 0.013748
0.069592 0.080407 0.015766
0.072591 0.084130 0.017789
0.075650 0.084130 0.019872
0.079345 0.084772 0.022582
0.087482 0.089915 0.029677
0.096389 0.095229 0.036773
0.108627 0.101283 0.043869
0.124154 0.107582 0.051453
0.149543 0.114613 0.060502
0.181299 0.123291 0.070853
0.227065 0.135595 0.084069
0.275344 0.148168 0.098041
0.327815 0.161188 0.113274
0.382479 0.175603 0.132865
0.439962 0.191813 0.158059
0.493832 0.208999 0.181755
0.544089 0.227162 0.203954
0.589293 0.244190 0.225531
0.630567 0.260335 0.246623
0.664801 0.279613 0.270889
0.694812 0.300770 0.297059
0.718826 0.324076 0.322648
0.740114 0.348358 0.347972
0.758277 0.371176 0.367925
0.775398 0.393505 0.386088
0.790827 0.417421 0.405890
0.805865 0.441703 0.426071
0.820105 0.458752 0.438278
0.834232 0.474766 0.449345
0.843537 0.492795 0.458520
0.852521 0.510958 0.467569
0.070381 0.082238 0.015766
0.072464 0.084191 0.017850
0.074678 0.086038 0.020063
0.078844 0.086298 0.024229
0.083784 0.087535 0.028892
0.094135 0.095607 0.037030
0.105608 0.103314 0.045167
0.121949 0.109433 0.053305
0.141967 0.115618 0.061458
0.173020 0.121997 0.069661
0.212006 0.132039 0.080407
0.268448 0.150137 0.096747
0.323425 0.165305 0.113770
0.375961 0.175591 0.131933
0.430006 0.189266 0.152688
0.485992 0.207299 0.176775
0.536086 0.225331 0.199755
0.580289 0.243364 0.221629
0.620977 0.260335 0.241488
0.658930 0.276480 0.259782
0.687078 0.295310 0.281777
0.709342 0.315751 0.305994
0.732904 0.339997 0.332718
0.757056 0.365972 0.360581
0.775251 0.392142 0.381315
0.791461 0.418377 0.399673
0.804392 0.444560 0.419513
0.816566 0.470730 0.439694
0.830220 0.485052 0.451273
0.844087 0.497681 0.461624
0.850629 0.515254 0.469839
0.856683 0.533157 0.477911
0.070381 0.084256 0.017785
0.073506 0.085167 0.020909
0.076826 0.086298 0.024229
0.083076 0.090725 0.030479
0.090359 0.095607 0.037095
0.104876 0.103680 0.046274
0.120321 0.111581 0.055453
0.139786 0.118742 0.064632
0.165273 0.127010 0.074088
0.208825 0.138598 0.084374
0.256079 0.151895 0.097528
0.311479 0.168951 0.116993
0.366196 0.184640 0.135969
0.419773 0.198050 0.154132
0.470758 0.212572 0.173976
0.518412 0.228521 0.195979
0.562777 0.244471 0.215314
0.603855 0.260420 0.231980
0.639660 0.276480 0.250733
0.671364 0.292624 0.271109
0.697819 0.314059 0.293886
0.721125 0.338666 0.318103
0.744296 0.361350 0.340530
0.767407 0.383158 0.362143
0.786123 0.408287 0.383659
0.803375 0.434522 0.405142
0.817347 0.459858 0.425567
0.830562 0.484987 0.445748
0.840701 0.506470 0.460973
0.850401 0.527432 0.475490
0.856683 0.541620 0.483966
0.862738 0.555356 0.492038
0.070633 0.086274 0.020055
0.074539 0.086274 0.024091
0.078714 0.086786 0.028380
0.086917 0.094989 0.036452
0.096478 0.103224 0.044825
0.115552 0.111687 0.055307
0.135481 0.120199 0.065763
0.159113 0.128922 0.076114
0.190393 0.139501 0.087002
0.244621 0.155646 0.099501
0.298931 0.171872 0.114991
0.353420 0.188277 0.137060
0.407615 0.204634 0.157664
0.461323 0.220909 0.175827
0.509021 0.236130 0.194474
0.548992 0.249996 0.213744
0.587759 0.263993 0.229498
0.625322 0.278119 0.241737
0.656660 0.293601 0.259578
0.683155 0.310136 0.281777
0.708146 0.333589 0.304831
0.732233 0.361191 0.328397
0.754932 0.382393 0.347040
0.777001 0.400686 0.363445
0.796238 0.424838 0.385807
0.814531 0.450944 0.410154
0.829016 0.475621 0.430799
0.842622 0.499968 0.450590
0.849734 0.527847 0.469867
0.855918 0.556231 0.489072
0.861981 0.567709 0.497718
0.868035 0.578059 0.505660
0.072652 0.088292 0.024091
0.075516 0.088292 0.028127
0.078779 0.088870 0.032416
0.088023 0.098114 0.040488
0.099408 0.107651 0.049252
0.125773 0.119239 0.062858
0.153774 0.131266 0.076244
0.188863 0.145197 0.088678
0.228216 0.159682 0.101910
0.280361 0.175827 0.117534
0.333239 0.192704 0.134847
0.387727 0.211193 0.155874
0.439580 0.229241 0.175827
0.487037 0.246558 0.193990
0.529853 0.261454 0.209447
0.566700 0.273237 0.221425
0.600779 0.286192 0.234055
0.632092 0.300318 0.247335
0.661868 0.317558 0.265632
0.690446 0.337218 0.287831
0.715567 0.358587 0.307630
0.738612 0.380981 0.325988
0.760270 0.401272 0.344436
0.781298 0.420607 0.362924
0.801055 0.444238 0.386588
0.820390 0.469302 0.411977
0.831685 0.494630 0.430278
0.841124 0.520019 0.446944
0.848627 0.548939 0.473122
0.855853 0.578365 0.500660
0.861981 0.591861 0.508850
0.868035 0.604295 0.515751
0.073913 0.090688 0.028127
0.076126 0.090884 0.032163
0.078856 0.091710 0.036476
0.089338 0.101995 0.044939
0.102471 0.112786 0.054363
0.134175 0.127108 0.070507
0.168662 0.142333 0.086420
0.215208 0.161472 0.101328
0.262927 0.180058 0.117050
0.314160 0.196984 0.135213
0.366045 0.214928 0.153945
0.419362 0.235109 0.173931
0.468211 0.254386 0.192867
0.509615 0.272159 0.210053
0.547658 0.286656 0.222455
0.581380 0.296941 0.228704
0.611358 0.309148 0.238697
0.637593 0.323274 0.252433
0.665879 0.341722 0.270490
0.695760 0.363531 0.291908
0.720718 0.382816 0.308891
0.742722 0.400589 0.323213
0.763472 0.419883 0.341563
0.783653 0.439868 0.361744
0.803688 0.463321 0.386320
0.823674 0.487929 0.412360
0.832023 0.513224 0.428403
0.837686 0.538678 0.442139
0.845116 0.567664 0.471824
0.852798 0.597154 0.503789
0.858771 0.612424 0.512378
0.864630 0.626746 0.519408
0.071895 0.094725 0.032163
0.075150 0.095961 0.036200
0.078987 0.097829 0.040643
0.091551 0.109156 0.051189
0.106117 0.120988 0.062435
0.134696 0.136352 0.078580
0.168792 0.153400 0.095274
0.226796 0.177747 0.114348
0.284149 0.201281 0.133195
0.339549 0.222373 0.151357
0.392345 0.243181 0.169765
0.439413 0.263362 0.188709
0.482403 0.281859 0.205041
0.518599 0.297548 0.217019
0.552345 0.311329 0.226947
0.582942 0.322656 0.234238
0.611358 0.335383 0.243710
0.637593 0.349510 0.255363
0.664708 0.366786 0.270165
0.692505 0.386511 0.287416
0.716031 0.403714 0.303488
0.736993 0.419403 0.318852
0.757418 0.437330 0.337527
0.777599 0.456274 0.357708
0.796852 0.481028 0.381502
0.815797 0.507719 0.406501
0.822258 0.530020 0.420656
0.825838 0.551307 0.432309
0.831185 0.576127 0.450797
0.836783 0.601451 0.470262
0.841649 0.617437 0.482952
0.846467 0.632800 0.495191
0.070886 0.100274 0.037713
0.074922 0.102032 0.041489
0.079556 0.104420 0.045769
0.093162 0.116269 0.057618
0.108444 0.128686 0.070003
0.135461 0.145092 0.086148
0.169703 0.163816 0.103428
0.235259 0.192590 0.125627
0.299838 0.220616 0.147077
0.361488 0.246395 0.166282
0.416953 0.270507 0.184917
0.458813 0.290948 0.202298
0.496790 0.309022 0.216189
0.528299 0.323148 0.224261
0.558269 0.336506 0.232220
0.586262 0.348875 0.240032
0.613246 0.362123 0.248723
0.639221 0.376249 0.258292
0.664903 0.391914 0.270279
0.690357 0.408775 0.284145
0.712353 0.423927 0.299110
0.732273 0.438054 0.314734
0.752552 0.455134 0.334028
0.772993 0.473558 0.354990
0.791335 0.498377 0.377613
0.808977 0.525328 0.400788
0.814348 0.544928 0.412909
0.816887 0.562830 0.422479
0.819597 0.584036 0.431593
0.822331 0.605715 0.440642
0.825553 0.620985 0.454146
0.828808 0.635828 0.467947
0.072904 0.110365 0.047804
0.076940 0.111081 0.050538
0.081444 0.112428 0.053777
0.092967 0.123234 0.064583
0.106817 0.134871 0.076057
0.136958 0.152318 0.092202
0.172958 0.172279 0.109482
0.234348 0.203136 0.131681
0.298927 0.234287 0.154173
0.373076 0.266316 0.177544
0.436483 0.295049 0.198067
0.476259 0.316532 0.212324
0.511763 0.335257 0.224261
0.540147 0.349384 0.232334
0.567904 0.363197 0.239837
0.594855 0.376608 0.246607
0.620798 0.390376 0.253735
0.645731 0.404503 0.261222
0.669199 0.417238 0.271711
0.691529 0.428891 0.284536
0.711702 0.442090 0.297808
0.730581 0.456217 0.311349
0.751250 0.474013 0.332140
0.772733 0.493478 0.356227
0.789773 0.514652 0.376506
0.805332 0.536395 0.395515
0.812004 0.554172 0.405162
0.816627 0.571033 0.412649
0.815040 0.590286 0.417857
0.812566 0.609881 0.422739
0.812533 0.620138 0.427194
0.812664 0.629773 0.431621
0.074291 0.121717 0.057894
0.078653 0.122693 0.060238
0.083332 0.124138 0.062984
0.092772 0.132601 0.071773
0.104945 0.142235 0.081399
0.136258 0.160073 0.096893
0.172735 0.180864 0.113705
0.231585 0.214456 0.136230
0.296083 0.248649 0.159275
0.377523 0.284650 0.183883
0.445699 0.316337 0.204585
0.484694 0.338536 0.216693
0.519026 0.357708 0.227288
0.545587 0.371835 0.235361
0.572290 0.385962 0.242408
0.599176 0.400088 0.248137
0.624403 0.414052 0.254028
0.647969 0.427853 0.260083
0.669997 0.438798 0.269359
0.690829 0.447522 0.281142
0.710400 0.459622 0.293536
0.729214 0.473749 0.306295
0.749907 0.491590 0.327424
0.771455 0.511120 0.352358
0.787193 0.529625 0.371432
0.800994 0.547788 0.388553
0.809030 0.565369 0.399063
0.815735 0.582816 0.408047
0.811561 0.600035 0.411220
0.805832 0.617221 0.413564
0.802362 0.623361 0.410598
0.799041 0.628764 0.407278
0.074291 0.135843 0.067985
0.079695 0.139945 0.071370
0.085220 0.143993 0.074832
0.092576 0.147248 0.079455
0.102537 0.152196 0.085175
0.130725 0.168991 0.098586
0.164858 0.189718 0.113901
0.224750 0.227476 0.137467
0.288987 0.264534 0.159991
0.366261 0.299493 0.179391
0.432223 0.330464 0.196512
0.473301 0.352663 0.208621
0.509326 0.371835 0.219216
0.536928 0.385962 0.227288
0.565129 0.400088 0.233880
0.594098 0.414215 0.238567
0.619325 0.427658 0.243938
0.640808 0.440418 0.249992
0.663096 0.452079 0.258683
0.686012 0.462885 0.269424
0.707665 0.475767 0.282729
0.728563 0.489894 0.297572
0.748475 0.506303 0.316488
0.767940 0.523750 0.337255
0.782376 0.541734 0.357631
0.795135 0.559897 0.377877
0.804668 0.580863 0.396589
0.813457 0.602476 0.414947
0.810454 0.617482 0.420204
0.805767 0.631543 0.423589
0.798456 0.635535 0.416782
0.790969 0.638855 0.409296
0.074291 0.150727 0.078832
0.080346 0.157172 0.082868
0.086449 0.163287 0.086827
0.093284 0.164459 0.089626
0.102398 0.167551 0.093736
0.127462 0.184087 0.107016
0.158226 0.204650 0.121615
0.213691 0.242668 0.141926
0.273274 0.279661 0.161000
0.345209 0.313579 0.176364
0.408519 0.344078 0.190588
0.452852 0.367058 0.202306
0.491448 0.386865 0.212511
0.520483 0.401382 0.220193
0.550571 0.415729 0.226450
0.582014 0.429855 0.230877
0.608217 0.442973 0.236118
0.629179 0.455082 0.242172
0.651972 0.467190 0.250277
0.676190 0.479299 0.259977
0.699390 0.492180 0.273461
0.721979 0.505526 0.289215
0.741526 0.520796 0.306625
0.759688 0.536941 0.324788
0.773897 0.554013 0.345099
0.786786 0.571395 0.366126
0.798036 0.593696 0.390063
0.808908 0.617132 0.414671
0.808786 0.632365 0.424354
0.807093 0.646427 0.431906
0.797528 0.648465 0.423284
0.787437 0.649702 0.413584
0.074291 0.166872 0.090941
0.080346 0.174358 0.094977
0.086579 0.181645 0.099066
0.095498 0.185942 0.103948
0.106044 0.191899 0.110271
0.127983 0.209476 0.126676
0.153669 0.229713 0.141861
0.195593 0.261482 0.151756
0.243197 0.293528 0.162498
0.307842 0.326403 0.175778
0.367766 0.356837 0.188245
0.417307 0.381901 0.198921
0.459940 0.403400 0.208084
0.491057 0.418959 0.214724
0.523685 0.433891 0.220852
0.558253 0.448018 0.226320
0.587060 0.461136 0.232081
0.610105 0.473244 0.238136
0.633809 0.485353 0.245655
0.658027 0.497462 0.254313
0.681878 0.509041 0.266755
0.705509 0.520304 0.281468
0.725381 0.534923 0.298553
0.743544 0.551067 0.316716
0.759314 0.566577 0.334683
0.774287 0.581876 0.352586
0.787620 0.602094 0.376782
0.800575 0.623446 0.402432
0.806182 0.642976 0.420448
0.810739 0.662246 0.437374
0.801564 0.662657 0.430315
0.791474 0.661811 0.421657
0.075174 0.187431 0.110995
0.081684 0.195048 0.113665
0.088446 0.202624 0.116545
0.098993 0.209589 0.122600
0.110458 0.217784 0.129883
0.128361 0.234580 0.145767
0.148656 0.253353 0.159601
0.179318 0.280695 0.164548
0.216653 0.309160 0.170944
0.274006 0.340994 0.181686
0.329691 0.371221 0.192224
0.381706 0.397912 0.202315
0.426836 0.420989 0.211404
0.460493 0.438046 0.218825
0.494919 0.453621 0.224851
0.530333 0.467292 0.229083
0.561060 0.480865 0.234226
0.587100 0.494341 0.240280
0.612628 0.506535 0.247982
0.637756 0.517732 0.256966
0.662885 0.528522 0.268310
0.688013 0.539069 0.281069
0.708353 0.552837 0.297544
0.726516 0.568071 0.315706
0.744191 0.582816 0.332698
0.761702 0.597398 0.349298
0.775353 0.615419 0.372986
0.788113 0.634233 0.398310
0.797170 0.654015 0.419704
0.805698 0.673935 0.440536
0.801043 0.674570 0.436406
0.795510 0.673919 0.430612
0.077192 0.213666 0.141267
0.084744 0.220241 0.140811
0.092548 0.226971 0.140762
0.104136 0.236020 0.146817
0.115862 0.245647 0.153449
0.128556 0.259318 0.164125
0.143057 0.275161 0.174118
0.165387 0.300420 0.181149
0.194649 0.327062 0.188326
0.244711 0.357855 0.195943
0.295058 0.387691 0.204333
0.346031 0.415423 0.214423
0.391682 0.439934 0.224684
0.428464 0.459073 0.235231
0.463736 0.475364 0.241191
0.497067 0.487994 0.241257
0.528836 0.502609 0.244316
0.559042 0.519209 0.250371
0.587564 0.531598 0.259244
0.614776 0.540712 0.270311
0.641988 0.551373 0.280483
0.669199 0.562960 0.290118
0.690190 0.575622 0.305616
0.708353 0.588772 0.323779
0.728371 0.603778 0.341551
0.749008 0.619402 0.359193
0.760706 0.635079 0.381384
0.770340 0.650768 0.404625
0.779918 0.665603 0.423024
0.789488 0.680315 0.440731
0.794663 0.683554 0.441288
0.799546 0.686028 0.440703
0.080219 0.241920 0.173557
0.089333 0.247453 0.168934
0.098667 0.253272 0.165045
0.111297 0.263362 0.172141
0.123739 0.274030 0.179424
0.134871 0.288743 0.188017
0.147321 0.304945 0.196708
0.165484 0.327599 0.205822
0.190971 0.352289 0.214041
0.238429 0.383081 0.219574
0.286497 0.412592 0.226206
0.335908 0.439283 0.235255
0.381169 0.463728 0.245061
0.419513 0.484429 0.256128
0.454980 0.500916 0.261242
0.486749 0.511983 0.258703
0.518517 0.526598 0.261242
0.550286 0.544761 0.268859
0.579492 0.556955 0.277538
0.606703 0.564506 0.287042
0.634241 0.574255 0.296954
0.661973 0.585322 0.307109
0.683843 0.597463 0.322412
0.703047 0.610093 0.340054
0.723326 0.624968 0.358087
0.743963 0.640592 0.376249
0.756084 0.654153 0.395999
0.766239 0.667238 0.416115
0.775426 0.678558 0.431845
0.784475 0.689625 0.446948
0.795965 0.694100 0.449296
0.807618 0.698136 0.450793
0.084256 0.272191 0.207864
0.095453 0.276683 0.198034
0.106805 0.281525 0.189392
0.120476 0.291615 0.198571
0.134090 0.302935 0.207807
0.147305 0.322855 0.217442
0.161448 0.342703 0.227370
0.179611 0.362233 0.238567
0.205618 0.384839 0.248088
0.255159 0.416673 0.252580
0.304009 0.445923 0.257845
0.351337 0.469489 0.264811
0.395295 0.492372 0.272533
0.433639 0.514115 0.281517
0.468651 0.530276 0.285004
0.499378 0.539260 0.281423
0.530105 0.552833 0.285004
0.560832 0.570996 0.295745
0.588410 0.582604 0.302861
0.613539 0.589114 0.307158
0.639644 0.597170 0.317721
0.666335 0.606154 0.332043
0.689311 0.618360 0.347931
0.710599 0.632031 0.364531
0.729055 0.646386 0.382304
0.746567 0.660968 0.400467
0.761487 0.672642 0.416831
0.775809 0.683644 0.432781
0.783694 0.692880 0.446167
0.790660 0.701863 0.459187
0.804949 0.706209 0.460428
0.819727 0.710245 0.460884
0.087157 0.303598 0.243307
0.101023 0.307634 0.231784
0.115015 0.312049 0.221393
0.130900 0.322139 0.227968
0.146711 0.333597 0.234763
0.162009 0.354624 0.243096
0.178504 0.375444 0.252356
0.200182 0.395364 0.265636
0.228615 0.417645 0.276899
0.277310 0.447005 0.282107
0.324926 0.474310 0.287579
0.370171 0.497095 0.293634
0.411729 0.518562 0.299126
0.447143 0.537832 0.303683
0.480564 0.553228 0.306019
0.511421 0.563644 0.305498
0.542572 0.576762 0.310999
0.574015 0.592581 0.322522
0.601064 0.604226 0.330016
0.624695 0.612623 0.334378
0.648490 0.620452 0.344639
0.672381 0.627938 0.358441
0.694304 0.638781 0.373047
0.715331 0.651150 0.388020
0.733136 0.663959 0.404507
0.749866 0.676914 0.421498
0.765645 0.687541 0.436638
0.781204 0.697632 0.451350
0.789472 0.704931 0.461221
0.796698 0.711832 0.470400
0.810637 0.716047 0.471523
0.825024 0.720083 0.472109
0.089175 0.335887 0.279633
0.106166 0.339924 0.269152
0.123283 0.344338 0.259346
0.142292 0.354429 0.259672
0.161098 0.365626 0.260607
0.178480 0.384570 0.265815
0.197839 0.404283 0.272928
0.225767 0.427329 0.288291
0.258105 0.450651 0.301637
0.303675 0.474803 0.308928
0.348492 0.498853 0.315833
0.391654 0.522680 0.321887
0.429957 0.542844 0.325036
0.460163 0.556906 0.323344
0.491110 0.571195 0.324898
0.523009 0.585778 0.330627
0.555722 0.598896 0.338732
0.589249 0.610548 0.349213
0.616623 0.622714 0.358595
0.639213 0.635278 0.367123
0.660012 0.644018 0.376343
0.679738 0.650463 0.385978
0.698926 0.658832 0.397850
0.717870 0.668076 0.410740
0.735935 0.678541 0.425144
0.753707 0.689413 0.440052
0.768835 0.699650 0.455647
0.783352 0.709740 0.471401
0.793313 0.715217 0.476845
0.802622 0.720034 0.480816
0.813762 0.724119 0.482590
0.825024 0.728156 0.484218
0.089932 0.369438 0.314697
0.109396 0.370871 0.300050
0.129232 0.373047 0.286517
0.154621 0.386393 0.289707
0.179350 0.400259 0.292108
0.199466 0.417771 0.288983
0.221120 0.436174 0.289105
0.249439 0.458438 0.303297
0.281452 0.480361 0.316284
0.324548 0.501258 0.325659
0.367013 0.522582 0.335013
0.408092 0.544846 0.344322
0.445337 0.564034 0.350336
0.476194 0.578096 0.350856
0.508248 0.592499 0.355535
0.541839 0.607342 0.365561
0.574487 0.620460 0.374968
0.606191 0.631852 0.383756
0.632914 0.643684 0.392911
0.655764 0.655858 0.402351
0.674871 0.664207 0.410122
0.691732 0.670261 0.416892
0.710383 0.678151 0.426438
0.729848 0.686874 0.437244
0.745895 0.695158 0.447611
0.760803 0.703296 0.457832
0.774019 0.711433 0.469163
0.786843 0.719571 0.480751
0.797845 0.724119 0.483966
0.808587 0.728156 0.485984
0.818108 0.732802 0.489833
0.827547 0.737489 0.493804
0.089932 0.403746 0.349005
0.111480 0.401012 0.327066
0.133789 0.399608 0.307219
0.167510 0.418162 0.318742
0.199922 0.436455 0.327001
0.223163 0.452925 0.312419
0.246770 0.469896 0.302646
0.271963 0.489035 0.313713
0.301112 0.508093 0.324877
0.342125 0.526907 0.336335
0.382507 0.545823 0.348749
0.421502 0.564962 0.363266
0.459008 0.583369 0.375269
0.494032 0.600556 0.383081
0.529340 0.615805 0.393228
0.565015 0.628565 0.406379
0.596621 0.641683 0.416306
0.624158 0.655158 0.423012
0.649645 0.666144 0.430669
0.673537 0.675193 0.439067
0.691732 0.682370 0.445146
0.706510 0.688424 0.449833
0.725942 0.697030 0.457295
0.747490 0.706795 0.466018
0.760152 0.712995 0.471177
0.769852 0.718008 0.475149
0.780398 0.723021 0.479384
0.791140 0.728034 0.483681
0.802793 0.732192 0.485984
0.814576 0.736228 0.488002
0.823185 0.741851 0.494780
0.831583 0.747580 0.501876
0.095481 0.431117 0.380538
0.119113 0.429229 0.359185
0.143761 0.428675 0.339692
0.183667 0.448140 0.348090
0.221523 0.467190 0.353346
0.245024 0.483335 0.336616
0.269599 0.499858 0.324914
0.298829 0.518021 0.335005
0.329947 0.535826 0.345242
0.366729 0.552557 0.355918
0.402879 0.569287 0.367856
0.437643 0.586018 0.382568
0.473529 0.602480 0.395548
0.511287 0.618495 0.405638
0.546226 0.632800 0.416868
0.577539 0.644909 0.429562
0.608103 0.657669 0.440011
0.637919 0.671079 0.448213
0.662974 0.681487 0.455940
0.684327 0.689559 0.463296
0.701611 0.696371 0.469025
0.716454 0.702425 0.473777
0.735862 0.710762 0.480812
0.757345 0.720136 0.488885
0.769307 0.724970 0.492416
0.778095 0.728290 0.494434
0.787942 0.733356 0.496453
0.798032 0.738824 0.498471
0.809889 0.743039 0.500489
0.821997 0.747075 0.502507
0.830322 0.752332 0.508187
0.838394 0.757670 0.514111
0.103554 0.455334 0.410809
0.129268 0.456571 0.393623
0.156195 0.458882 0.377515
0.201310 0.477305 0.377580
0.243592 0.495444 0.375806
0.266051 0.511588 0.361158
0.291148 0.528112 0.351149
0.327669 0.546274 0.361240
0.362953 0.563558 0.370956
0.394526 0.578206 0.379549
0.425469 0.592853 0.389404
0.455025 0.607501 0.402033
0.488437 0.621489 0.413710
0.528278 0.634379 0.423801
0.561199 0.646927 0.434119
0.585220 0.659036 0.444731
0.614743 0.671275 0.455700
0.649767 0.683644 0.467027
0.674757 0.693596 0.475535
0.691944 0.701668 0.481850
0.708316 0.708479 0.487839
0.724201 0.714533 0.493633
0.743218 0.722154 0.500993
0.763660 0.730487 0.509066
0.776142 0.734279 0.512597
0.785973 0.736558 0.514615
0.796014 0.743121 0.516634
0.806105 0.750672 0.518652
0.817961 0.755148 0.520670
0.830070 0.759184 0.522688
0.838394 0.763464 0.525438
0.846467 0.767761 0.528238
0.108599 0.475010 0.431999
0.138740 0.480934 0.418979
0.170192 0.487623 0.406598
0.221295 0.505786 0.403799
0.268590 0.523306 0.399193
0.289227 0.536326 0.381942
0.312451 0.550311 0.369670
0.346889 0.568473 0.378980
0.380676 0.585237 0.387980
0.412510 0.597801 0.396052
0.443958 0.610854 0.405386
0.474555 0.624980 0.417494
0.506763 0.638350 0.428553
0.541656 0.650459 0.437863
0.572021 0.662226 0.447514
0.596564 0.673553 0.457604
0.625827 0.684880 0.468313
0.659809 0.696208 0.479640
0.683757 0.704825 0.487562
0.699902 0.711335 0.492835
0.716535 0.718049 0.499573
0.733461 0.724884 0.507190
0.751551 0.732570 0.514046
0.770170 0.740643 0.520556
0.782978 0.744760 0.524283
0.793850 0.747560 0.527082
0.804721 0.754008 0.529881
0.815593 0.761300 0.532681
0.826864 0.765059 0.534796
0.838191 0.768314 0.536815
0.846467 0.771569 0.538833
0.854539 0.774824 0.540851
0.112635 0.493173 0.450162
0.147984 0.504305 0.441309
0.184709 0.515877 0.432768
0.242062 0.534040 0.428928
0.294565 0.551039 0.422890
0.313119 0.559893 0.401472
0.333674 0.570492 0.385620
0.362904 0.588654 0.393888
0.393306 0.604897 0.402106
0.427223 0.615378 0.410179
0.461079 0.626998 0.419513
0.494801 0.641125 0.431621
0.526228 0.654495 0.442289
0.553830 0.666604 0.450557
0.581461 0.677915 0.459622
0.609128 0.688201 0.469713
0.638391 0.698486 0.479901
0.669248 0.708772 0.490187
0.691830 0.715762 0.497067
0.707975 0.720189 0.501298
0.725259 0.726772 0.508948
0.743226 0.734649 0.518648
0.760209 0.742661 0.524722
0.776745 0.750733 0.529149
0.789813 0.755632 0.533136
0.801727 0.759473 0.536977
0.813640 0.765271 0.540818
0.825553 0.771520 0.544659
0.836043 0.774238 0.546905
0.846328 0.776452 0.548923
0.854539 0.778665 0.550941
0.862612 0.780879 0.552959
0.121591 0.519535 0.465046
0.162994 0.529104 0.456127
0.205415 0.539211 0.447514
0.263093 0.557374 0.443477
0.315727 0.574276 0.437065
0.333043 0.582348 0.414020
0.352887 0.591995 0.396968
0.383679 0.608465 0.405886
0.414292 0.623129 0.414382
0.444368 0.632373 0.421608
0.475767 0.643408 0.430095
0.510075 0.658381 0.441358
0.541673 0.671962 0.451424
0.568754 0.683224 0.459496
0.595608 0.693234 0.468081
0.622169 0.701631 0.477325
0.648469 0.710029 0.485723
0.674509 0.718427 0.493275
0.696887 0.725800 0.500277
0.716417 0.732375 0.506852
0.734564 0.739886 0.515096
0.751881 0.747958 0.524340
0.768392 0.754867 0.530003
0.784536 0.761247 0.534040
0.798923 0.766504 0.538711
0.812725 0.771386 0.543593
0.824463 0.776533 0.547788
0.835725 0.781741 0.551824
0.844481 0.784158 0.555576
0.852879 0.786176 0.559286
0.860972 0.788194 0.560617
0.869044 0.790212 0.561789
0.131681 0.547788 0.479173
0.179334 0.554233 0.469212
0.227549 0.561410 0.459622
0.284186 0.579573 0.455586
0.335778 0.596475 0.449043
0.352053 0.604547 0.424956
0.371636 0.613803 0.407253
0.405553 0.628191 0.417214
0.437207 0.641032 0.426230
0.462076 0.649234 0.432415
0.489894 0.659878 0.439860
0.524201 0.675893 0.450081
0.556190 0.689734 0.459496
0.584313 0.699955 0.467569
0.610841 0.708467 0.475698
0.635319 0.714782 0.483900
0.657974 0.721096 0.490215
0.678806 0.727411 0.494642
0.701249 0.735630 0.502035
0.724945 0.745330 0.511735
0.744003 0.754013 0.520499
0.760278 0.762085 0.528701
