其他预设/【236】赛博朋克风调色预设/【后期菌】视频调色预设/CUBE/Abandoned 03.cube
# LUT by SparkleStock. Enhanced with VOXCOLOR algorithms.
LUT_3D_SIZE 8
DOMAIN_MIN 0.000000 0.000000 0.000000
DOMAIN_MAX 0.903226 0.903226 0.903226
0.011730 0.011730 0.011730
0.015893 0.015640 0.019803
0.040236 0.020055 0.028884
0.183521 0.023460 0.049191
0.580960 0.033299 0.071516
0.798411 0.095734 0.160691
0.863873 0.242298 0.334374
0.908145 0.432252 0.537193
0.015893 0.015893 0.015893
0.037371 0.023745 0.028412
0.145470 0.028510 0.053606
0.509818 0.044382 0.084801
0.781375 0.126591 0.177214
0.865476 0.285569 0.357212
0.907738 0.477313 0.549037
0.940561 0.655907 0.688160
0.019550 0.016145 0.019550
0.055152 0.032355 0.036989
0.328238 0.068257 0.087730
0.703955 0.152981 0.140718
0.849632 0.307427 0.272089
0.902306 0.503260 0.426791
0.930653 0.664354 0.591254
0.970226 0.764705 0.580484
0.028884 0.038975 0.024974
0.052975 0.052288 0.036151
0.277749 0.141531 0.074572
0.696305 0.302044 0.100490
0.863828 0.488974 0.191878
0.933009 0.669948 0.323661
0.963264 0.772265 0.463960
0.981049 0.836572 0.517700
0.060795 0.143537 0.050074
0.102378 0.200382 0.033116
0.255086 0.370077 0.038739
0.597915 0.541282 0.063444
0.812900 0.670111 0.103074
0.923871 0.771284 0.185572
0.973709 0.844664 0.299196
0.984882 0.891516 0.418223
0.124870 0.453820 0.160439
0.253385 0.560369 0.052100
0.552483 0.693234 0.097536
0.796913 0.761825 0.146178
0.917784 0.827580 0.219847
0.972862 0.876120 0.322054
0.986883 0.909060 0.432333
0.986476 0.931353 0.546588
0.181755 0.780374 0.426576
0.444067 0.800583 0.165374
0.805897 0.841869 0.204080
0.915253 0.876152 0.269538
0.970027 0.906090 0.358868
0.986314 0.931841 0.474286
0.994183 0.947840 0.582267
0.994090 0.959533 0.661811
0.339924 0.896036 0.696497
0.684950 0.894751 0.305099
0.911803 0.914830 0.328246
0.965644 0.937029 0.416160
0.983746 0.952087 0.513403
0.993157 0.960111 0.606996
0.991926 0.967752 0.694991
0.990264 0.975373 0.764351
0.011982 0.011982 0.011982
0.019803 0.019314 0.020055
0.040423 0.020022 0.033046
0.183472 0.024168 0.059029
0.566203 0.026300 0.096047
0.778185 0.087616 0.203783
0.853839 0.241163 0.398644
0.896162 0.442505 0.604344
0.016129 0.012707 0.016129
0.041121 0.023493 0.036295
0.157471 0.031565 0.066494
0.493565 0.041004 0.113513
0.769299 0.123137 0.238320
0.858455 0.290097 0.434329
0.890186 0.465141 0.594921
0.924232 0.646381 0.722837
0.020592 0.020592 0.020844
0.033819 0.025705 0.037138
0.409455 0.057845 0.135042
0.735425 0.149147 0.258164
0.840071 0.319718 0.424243
0.873543 0.490353 0.580637
0.913300 0.668393 0.707639
0.941609 0.759113 0.771853
0.036802 0.048504 0.039780
0.051147 0.070198 0.068449
0.236546 0.139035 0.141761
0.771948 0.350167 0.256457
0.872938 0.555529 0.399724
0.911618 0.691268 0.539965
0.935849 0.775010 0.634417
0.967845 0.842242 0.719141
0.075492 0.186931 0.101483
0.094850 0.269302 0.165648
0.218943 0.372196 0.110020
0.589779 0.546612 0.132088
0.852665 0.700692 0.175293
0.940483 0.805975 0.285361
0.973707 0.861856 0.397199
0.979461 0.897993 0.513610
0.123104 0.524958 0.290578
0.153304 0.616622 0.386325
0.449867 0.723171 0.191542
0.818220 0.775211 0.195768
0.924736 0.845481 0.287705
0.973532 0.889660 0.409293
0.980704 0.917360 0.522302
0.986208 0.937009 0.630106
0.195613 0.796897 0.581282
0.292128 0.825210 0.566084
0.703917 0.853842 0.304084
0.923403 0.892020 0.338161
0.969134 0.914908 0.430360
0.984511 0.939142 0.558308
0.985277 0.950872 0.658052
0.985076 0.958407 0.717276
0.365707 0.890108 0.763851
0.569975 0.906260 0.620454
0.881458 0.919229 0.440462
0.965596 0.939729 0.486373
0.981951 0.953655 0.590795
0.984646 0.958203 0.669814
0.986566 0.967560 0.746859
0.992111 0.972369 0.805345
0.016145 0.016145 0.016145
0.020307 0.019550 0.024689
0.046673 0.019550 0.041119
0.193734 0.022394 0.074808
0.538829 0.023456 0.127279
0.765275 0.089138 0.267667
0.840229 0.247986 0.470803
0.887813 0.462019 0.666176
0.019583 0.019550 0.023778
0.032418 0.019882 0.037288
0.157157 0.028758 0.079671
0.501225 0.040882 0.160392
0.755001 0.124259 0.301050
0.839614 0.289393 0.493007
0.876587 0.478296 0.652230
0.914602 0.645402 0.744278
0.025853 0.022447 0.034747
0.039321 0.034658 0.061401
0.339987 0.050448 0.160003
0.695244 0.146090 0.317747
0.819218 0.321673 0.502006
0.860920 0.499526 0.640301
0.892584 0.644732 0.719767
0.931580 0.756852 0.791365
0.042128 0.060921 0.073449
0.058016 0.094626 0.118642
0.138604 0.146512 0.234945
0.756523 0.342323 0.465083
0.854285 0.548616 0.639626
0.888644 0.676521 0.708468
0.918034 0.769765 0.771900
0.944835 0.827536 0.795772
0.075671 0.215640 0.186255
0.093265 0.326282 0.297898
0.130808 0.424373 0.402609
0.485307 0.518594 0.356148
0.887963 0.733347 0.492211
0.926871 0.807453 0.586593
0.945428 0.853547 0.686168
0.968844 0.888320 0.699826
0.113123 0.559412 0.428867
0.148144 0.650395 0.546605
0.233641 0.724697 0.635255
0.684184 0.794330 0.376781
0.925966 0.852556 0.376965
0.964292 0.892601 0.499237
0.978001 0.921485 0.619722
0.982273 0.934872 0.695044
0.208552 0.795668 0.694385
0.298955 0.825130 0.739756
0.477243 0.854297 0.723630
0.874806 0.894668 0.499198
0.967380 0.918307 0.523585
0.980365 0.937401 0.629247
0.978412 0.945176 0.709691
0.981655 0.954659 0.760151
0.412555 0.890312 0.818213
0.561417 0.895162 0.809522
0.778092 0.913379 0.686399
0.940038 0.937729 0.614039
0.978441 0.953522 0.666678
0.982086 0.956628 0.734051
0.983571 0.961653 0.787558
0.993126 0.969447 0.836614
0.019550 0.016397 0.024974
0.021975 0.019550 0.032591
0.053170 0.019550 0.050550
0.194958 0.018940 0.095103
0.533088 0.023587 0.168902
0.744268 0.087486 0.320569
0.825277 0.261218 0.542324
0.878179 0.459870 0.703324
0.024469 0.019803 0.038975
0.037720 0.024597 0.068959
0.146546 0.030599 0.117313
0.499113 0.035835 0.203177
0.727998 0.119181 0.360843
0.817250 0.284782 0.550520
0.869033 0.495171 0.700813
0.909125 0.647270 0.775644
0.033046 0.031000 0.066793
0.050248 0.046817 0.130810
0.146616 0.069550 0.233392
0.638219 0.139563 0.367560
0.807643 0.328426 0.575446
0.847919 0.508678 0.687886
0.890309 0.657545 0.763976
0.925253 0.752324 0.806181
0.052808 0.086713 0.163169
0.062599 0.141326 0.253709
0.142448 0.221816 0.409692
0.638446 0.299578 0.530595
0.820404 0.515992 0.667396
0.878481 0.674110 0.743401
0.910895 0.764576 0.796420
0.936007 0.820866 0.831014
0.073408 0.287705 0.343663
0.092019 0.378599 0.465686
0.136049 0.498141 0.588093
0.327636 0.571798 0.662263
0.850116 0.703699 0.725687
0.905211 0.791225 0.770509
0.931228 0.840459 0.812255
0.950381 0.874349 0.834650
0.115150 0.607749 0.603477
0.173179 0.698198 0.707482
0.267879 0.761653 0.769354
0.418736 0.786680 0.767086
0.852775 0.835426 0.640301
0.952196 0.885906 0.675419
0.964061 0.907500 0.730578
0.973781 0.921546 0.774595
0.226654 0.806015 0.771842
0.335020 0.837286 0.812712
0.479843 0.852141 0.821180
0.686423 0.875070 0.811709
0.923558 0.909382 0.678196
0.973696 0.933529 0.703977
0.979428 0.945512 0.759346
0.982990 0.954647 0.800905
0.444267 0.890360 0.852521
0.597507 0.901606 0.862613
0.721812 0.908417 0.847530
0.872507 0.925988 0.796544
0.966601 0.948992 0.733669
0.983575 0.957718 0.780998
0.985626 0.960691 0.819855
0.990350 0.965607 0.864092
0.025479 0.019550 0.050074
0.037966 0.019550 0.064449
0.080976 0.019550 0.085765
0.220477 0.015445 0.127966
0.533226 0.020686 0.219847
0.735154 0.103468 0.402440
0.820093 0.286647 0.616859
0.878097 0.497734 0.743865
0.032542 0.023843 0.085842
0.044552 0.033278 0.147476
0.150458 0.028649 0.198663
0.495495 0.039640 0.278949
0.707858 0.125671 0.431672
0.802829 0.300415 0.613415
0.860414 0.495200 0.727510
0.912537 0.667704 0.807447
0.043385 0.049830 0.169647
0.051790 0.072936 0.276074
0.101270 0.128206 0.417707
0.487317 0.136639 0.443913
0.792192 0.340168 0.626172
0.843393 0.509027 0.720913
0.892302 0.668374 0.792425
0.924528 0.761521 0.832375
0.050579 0.150121 0.337897
0.067503 0.236756 0.462153
0.112681 0.337950 0.593912
0.358418 0.421027 0.683270
0.793903 0.508877 0.702836
0.880333 0.690519 0.778315
0.911007 0.766641 0.818557
0.937693 0.822960 0.849025
0.070894 0.380387 0.545815
0.107388 0.502540 0.661353
0.188771 0.623590 0.738507
0.380543 0.675984 0.780717
0.785818 0.699200 0.775897
0.892465 0.782335 0.801558
0.925324 0.834504 0.836994
0.945756 0.867828 0.861697
0.140608 0.678497 0.742885
0.220817 0.745816 0.793041
0.328986 0.786674 0.828695
0.472672 0.810489 0.845175
0.719282 0.831758 0.834523
0.922677 0.872823 0.788939
0.956221 0.904109 0.800783
0.969290 0.922235 0.823224
0.277375 0.829061 0.835721
0.393452 0.846161 0.857513
0.547338 0.864627 0.871431
0.680695 0.876055 0.861843
0.814726 0.892138 0.851036
0.945028 0.921091 0.803736
0.975419 0.941787 0.803091
0.984158 0.953024 0.825922
0.500570 0.891186 0.883724
0.617872 0.897101 0.884026
0.730585 0.903967 0.885197
0.839138 0.915458 0.868233
0.919632 0.933321 0.856021
0.972756 0.951037 0.832367
0.982043 0.956653 0.844954
0.986059 0.962647 0.883896
0.036452 0.020812 0.121843
0.047893 0.021992 0.169313
0.105230 0.019046 0.196545
0.285793 0.015640 0.219171
0.552316 0.025247 0.307781
0.721963 0.118987 0.479018
0.813388 0.310454 0.663780
0.875790 0.510461 0.767191
0.036704 0.033461 0.203865
0.052352 0.049636 0.332213
0.151721 0.051894 0.382125
0.433398 0.044471 0.366224
0.702897 0.141917 0.510631
0.794797 0.312857 0.658527
0.859679 0.509150 0.758888
0.905724 0.666786 0.820202
0.041570 0.085883 0.361248
0.053501 0.143107 0.480251
0.106235 0.242805 0.613681
0.479710 0.232823 0.611002
0.771962 0.334523 0.663476
0.842766 0.532535 0.753844
0.893412 0.677423 0.812226
0.923163 0.765805 0.846521
0.048292 0.258174 0.569397
0.083928 0.361690 0.661382
0.155156 0.483961 0.741011
0.345998 0.597020 0.799838
0.767350 0.562471 0.766779
0.878873 0.696364 0.802077
0.912837 0.775071 0.836187
0.935991 0.823813 0.862876
0.101597 0.544635 0.738783
0.174823 0.639315 0.788099
0.292323 0.725069 0.841147
0.446476 0.775591 0.865130
0.708322 0.784263 0.851821
0.882158 0.789495 0.834836
0.927867 0.839502 0.859121
0.947337 0.874522 0.882151
0.216315 0.762671 0.835099
0.313129 0.792855 0.859143
0.442824 0.825673 0.882999
0.586617 0.844106 0.884773
0.753219 0.855605 0.876380
0.870134 0.861445 0.869198
0.931691 0.882193 0.873532
0.950652 0.905901 0.887848
0.366033 0.852757 0.884591
0.480976 0.863154 0.891830
0.612127 0.871597 0.892004
0.720237 0.884124 0.892173
0.812253 0.893335 0.889340
0.890257 0.906130 0.881779
0.960274 0.932903 0.857953
0.977449 0.946602 0.872311
0.539695 0.891431 0.903035
0.659137 0.898689 0.901716
0.744612 0.901134 0.899173
0.827340 0.911156 0.902656
0.887665 0.923571 0.901200
0.942302 0.940280 0.890984
0.968851 0.952258 0.883638
0.980610 0.959051 0.901425
0.041497 0.023460 0.286570
0.056043 0.031854 0.370093
0.158791 0.025019 0.364564
0.372844 0.018204 0.347284
0.559278 0.037030 0.390637
0.723631 0.150666 0.558656
0.814600 0.349221 0.710676
0.878663 0.549228 0.795436
0.038946 0.056519 0.407672
0.062933 0.117837 0.544177
0.140532 0.186835 0.633151
0.433092 0.151795 0.584286
0.712046 0.194152 0.599054
0.792805 0.345230 0.701132
0.857019 0.534609 0.784611
0.905326 0.684532 0.835413
0.046933 0.191113 0.600120
0.082423 0.282196 0.676107
0.179781 0.419606 0.764138
0.505902 0.454287 0.772796
0.735846 0.379759 0.722535
0.844817 0.556972 0.784068
0.894189 0.692895 0.831487
0.921596 0.773635 0.860052
0.083320 0.416221 0.740683
0.162732 0.546098 0.795152
0.271910 0.653460 0.840945
0.438837 0.728847 0.868076
0.782107 0.680510 0.832329
0.875109 0.711669 0.829952
0.911296 0.786107 0.855993
0.934169 0.828872 0.874132
0.188237 0.684970 0.834484
0.293720 0.750723 0.867070
0.416235 0.792475 0.890339
0.561623 0.823387 0.900979
0.717647 0.840818 0.895998
0.876604 0.815173 0.870000
0.927018 0.845512 0.874420
0.940324 0.871077 0.886733
0.320211 0.814600 0.887268
0.438109 0.838681 0.904187
0.569678 0.852787 0.910739
0.683470 0.867851 0.907490
0.775759 0.876079 0.904271
0.857642 0.882143 0.900313
0.929528 0.886975 0.892016
0.950606 0.906713 0.901755
0.466657 0.868755 0.912604
0.576665 0.876195 0.911778
0.687991 0.885366 0.910717
0.770815 0.890816 0.907889
0.836384 0.898776 0.908352
0.890427 0.908962 0.909354
0.939319 0.924561 0.901702
0.968611 0.941663 0.911986
0.617791 0.902217 0.921063
0.696129 0.900504 0.913599
0.778428 0.905411 0.912957
0.841055 0.913223 0.914338
0.889719 0.926587 0.921343
0.923606 0.933063 0.918338
0.956241 0.947848 0.916245
0.974292 0.957574 0.922484
0.048687 0.055372 0.484596
0.080333 0.097662 0.566089
0.181596 0.108143 0.579675
0.428692 0.068961 0.504676
0.628882 0.106552 0.544647
0.735528 0.206343 0.630078
0.818864 0.390869 0.740683
0.886658 0.589578 0.816069
0.058110 0.157025 0.620252
0.114572 0.262455 0.701885
0.216287 0.361077 0.766882
0.505485 0.326606 0.730261
0.720232 0.262035 0.672707
0.806268 0.410179 0.748528
0.862436 0.575065 0.805842
0.901641 0.696935 0.844776
0.091551 0.355727 0.747710
0.180558 0.485643 0.806454
0.307848 0.612382 0.847303
0.497706 0.689043 0.868918
0.770353 0.605376 0.823531
0.848974 0.600408 0.809825
0.891193 0.699890 0.843274
0.922050 0.780633 0.871473
0.176999 0.603868 0.835766
0.287079 0.696412 0.867438
0.423155 0.759680 0.891856
0.589639 0.804028 0.902600
0.806720 0.804210 0.889937
0.868078 0.753703 0.859201
0.911666 0.793955 0.871050
0.935491 0.839644 0.888168
0.314990 0.779231 0.894039
0.420255 0.807639 0.905902
0.567127 0.838194 0.916889
0.685531 0.858225 0.917995
0.770217 0.867689 0.915897
0.886855 0.858545 0.901171
0.921112 0.851651 0.890746
0.940699 0.878705 0.901769
0.451981 0.850055 0.918988
0.571521 0.863930 0.923342
0.674236 0.875094 0.922850
0.751207 0.881947 0.920396
0.818185 0.888713 0.919966
0.874375 0.897709 0.919685
0.927591 0.898456 0.912107
0.948901 0.907200 0.909849
0.594802 0.888037 0.929282
0.679248 0.889576 0.927493
0.751290 0.895114 0.924372
0.818077 0.901674 0.922658
0.862403 0.907680 0.922940
0.900974 0.917837 0.927406
0.934344 0.926247 0.923257
0.965973 0.937606 0.927841
0.692343 0.906550 0.929420
0.759024 0.908224 0.926686
0.818741 0.913036 0.923926
0.861447 0.917670 0.924257
0.898610 0.927826 0.929930
0.930264 0.937590 0.931339
0.952106 0.945497 0.932016
0.971369 0.956697 0.935877
