其他预设/【236】赛博朋克风调色预设/【后期菌】视频调色预设/CUBE/Glitch 10.cube
# LUT by SparkleStock. Enhanced with VOXCOLOR algorithms.
LUT_3D_SIZE 5
DOMAIN_MIN 0.000000 0.000000 0.000000
DOMAIN_MAX 0.903226 0.903226 0.903226
0.003910 0.007820 0.015640
0.001514 0.071643 0.211522
0.003910 0.200927 0.282660
0.003910 0.407656 0.471479
0.003910 0.590673 0.629773
0.294895 0.034560 0.154132
0.417560 0.086103 0.414756
0.003910 0.368970 0.442180
0.004154 0.546433 0.589444
0.004992 0.703275 0.730560
0.920001 0.098256 0.447514
0.979283 0.130493 0.574621
0.009187 0.521467 0.652798
0.003910 0.665436 0.691529
0.014106 0.837324 0.872706
0.985337 0.249866 0.713777
0.986110 0.290867 0.744459
0.833284 0.411249 0.849726
0.007189 0.812859 0.848802
0.112131 0.919249 0.959769
0.989626 0.411818 0.795131
0.985337 0.470376 0.814556
0.984939 0.532909 0.840754
0.338105 0.849046 0.971939
0.333833 0.908690 0.961913
0.066093 0.019550 0.058020
0.054196 0.076879 0.301881
0.003910 0.232891 0.320967
0.005920 0.435027 0.502019
0.003910 0.609897 0.646549
0.397102 0.042677 0.178276
0.826029 0.091244 0.466840
0.003910 0.493069 0.558038
0.003910 0.633747 0.663299
0.009289 0.805572 0.840364
0.952181 0.109840 0.498467
0.990374 0.225547 0.691732
0.234018 0.516659 0.804783
0.004364 0.769200 0.807721
0.090801 0.915779 0.949058
0.986599 0.263244 0.722858
0.992669 0.375555 0.783669
0.968294 0.453342 0.840363
0.063272 0.898045 0.941197
0.291047 0.913829 0.963843
0.987966 0.431589 0.799778
0.982257 0.561333 0.845331
0.981672 0.612783 0.861152
0.566343 0.824881 0.973753
0.496854 0.902542 0.968250
0.318481 0.033929 0.164349
0.565878 0.059534 0.327677
0.004109 0.266613 0.360634
0.006449 0.476573 0.524425
0.004309 0.632044 0.670347
0.759001 0.075768 0.317961
0.982414 0.141363 0.586377
0.079468 0.485782 0.724035
0.003910 0.666608 0.697173
0.019513 0.842581 0.881236
0.976646 0.120553 0.551283
0.990554 0.247051 0.715380
0.893927 0.399179 0.843237
0.037720 0.886042 0.920357
0.257505 0.912807 0.964840
0.992873 0.283889 0.742234
0.988186 0.393475 0.785587
0.980854 0.530192 0.837486
0.323684 0.859690 0.966452
0.450407 0.892852 0.959332
0.985337 0.450854 0.805914
0.982753 0.585904 0.854497
0.983653 0.683293 0.882024
0.911802 0.754230 0.952994
0.650259 0.897884 0.958765
0.765112 0.078958 0.320373
0.882162 0.093077 0.405671
0.003910 0.415399 0.565902
0.006661 0.499598 0.550835
0.003910 0.651972 0.685336
0.964416 0.114889 0.529072
0.990394 0.206397 0.577814
0.755381 0.321709 0.706032
0.003910 0.706663 0.734579
0.027993 0.867758 0.901803
0.993157 0.216995 0.692684
0.987371 0.316084 0.755246
0.986061 0.433143 0.803849
0.164615 0.861794 0.954697
0.296923 0.912479 0.962911
0.987656 0.307353 0.755522
0.988728 0.417444 0.799187
0.984307 0.563468 0.849621
0.649153 0.776378 0.956480
0.620013 0.892697 0.954963
0.985337 0.473403 0.815438
0.981427 0.598472 0.856529
0.983966 0.702221 0.888949
0.964944 0.800871 0.931640
0.774415 0.916407 0.965418
0.948255 0.106959 0.467064
0.472366 0.228037 0.050831
0.347589 0.302398 0.059933
0.118026 0.371001 0.151431
0.003910 0.676487 0.694723
0.874594 0.208564 0.188416
0.530130 0.420545 0.102597
0.578073 0.477004 0.115223
0.426376 0.536692 0.117414
0.037843 0.869846 0.868454
0.993157 0.278099 0.684701
0.845708 0.447638 0.215038
0.772470 0.604205 0.150279
0.625624 0.696248 0.193543
0.348733 0.862177 0.789783
0.990195 0.376787 0.781037
0.982420 0.502209 0.700274
0.921574 0.669108 0.215558
0.882457 0.780501 0.219393
0.631070 0.882598 0.736113
0.984540 0.502267 0.824821
0.984060 0.622278 0.861820
0.980279 0.716066 0.793514
0.967731 0.823688 0.688991
0.919261 0.903289 0.567565
