其他预设/【236】赛博朋克风调色预设/【后期菌】视频调色预设/CUBE/Glitch 06_S.cube
# LUT by SparkleStock. Enhanced with VOXCOLOR algorithms.
LUT_3D_SIZE 8
DOMAIN_MIN 0.000000 0.000000 0.000000
DOMAIN_MAX 0.903226 0.903226 0.903226
0.003910 0.003910 0.011730
0.066976 0.030271 0.086526
0.032794 0.099391 0.134582
0.069498 0.191341 0.246082
0.104689 0.293634 0.364015
0.122473 0.381295 0.472235
0.125122 0.477785 0.595970
0.136474 0.594204 0.696244
0.126131 0.040867 0.110617
0.192741 0.060299 0.177780
0.080207 0.184445 0.288710
0.124113 0.267012 0.310283
0.175953 0.325919 0.368612
0.202522 0.390295 0.443315
0.195280 0.505184 0.577791
0.165822 0.643611 0.728449
0.454703 0.084130 0.232334
0.565068 0.098574 0.264282
0.521581 0.136861 0.408649
0.163775 0.336925 0.360935
0.214557 0.377393 0.373226
0.249435 0.442574 0.433419
0.249500 0.546502 0.561386
0.213943 0.664333 0.723920
0.736102 0.107085 0.335131
0.783702 0.116545 0.364462
0.737615 0.140042 0.410712
0.207348 0.405036 0.484726
0.221360 0.464472 0.416176
0.265270 0.530532 0.466938
0.261592 0.615272 0.601650
0.216657 0.725023 0.776053
0.862359 0.113392 0.464037
0.879578 0.113392 0.514115
0.863258 0.126892 0.543475
0.579764 0.324894 0.584146
0.215147 0.572343 0.526472
0.245431 0.628606 0.567684
0.249223 0.700281 0.690178
0.224135 0.787409 0.839648
0.904613 0.124744 0.616025
0.912857 0.135681 0.649377
0.920437 0.155357 0.676299
0.838997 0.247404 0.685120
0.342125 0.624569 0.725771
0.207807 0.720767 0.735565
0.222902 0.777111 0.813677
0.251514 0.824333 0.869927
0.930596 0.170025 0.708984
0.932110 0.200199 0.726487
0.934002 0.232025 0.744679
0.919635 0.269290 0.778531
0.561394 0.644217 0.859999
0.230747 0.798362 0.865529
0.243478 0.822762 0.875900
0.313395 0.848505 0.888269
0.919875 0.283165 0.750985
0.918109 0.313448 0.768530
0.919977 0.349790 0.775455
0.918183 0.381836 0.787763
0.899674 0.428423 0.827063
0.548492 0.783588 0.880709
0.370329 0.857440 0.877316
0.429058 0.866481 0.880604
0.053101 0.016397 0.053101
0.090579 0.036806 0.108762
0.038657 0.110837 0.155858
0.088719 0.197648 0.256425
0.143786 0.275153 0.355877
0.167881 0.354978 0.451892
0.152452 0.469937 0.585444
0.145165 0.599754 0.695878
0.152232 0.042315 0.122262
0.401049 0.083877 0.220667
0.488894 0.129679 0.344418
0.166615 0.287213 0.348067
0.235414 0.323161 0.381873
0.274645 0.379718 0.436764
0.272249 0.477679 0.548015
0.223295 0.636826 0.714248
0.494561 0.088764 0.243690
0.684054 0.107730 0.308027
0.592550 0.154504 0.362112
0.214752 0.345024 0.398271
0.271097 0.377117 0.372998
0.324686 0.418452 0.409334
0.334945 0.507877 0.513801
0.281255 0.648874 0.692435
0.777009 0.113392 0.356972
0.829797 0.118156 0.428548
0.716682 0.166397 0.414453
0.311081 0.390166 0.457567
0.280796 0.461920 0.394679
0.337450 0.503037 0.421084
0.353102 0.577863 0.524587
0.308039 0.700174 0.704942
0.873203 0.113644 0.493364
0.907255 0.119625 0.608690
0.808885 0.175054 0.555437
0.665455 0.304990 0.508479
0.281916 0.572646 0.480873
0.313391 0.619544 0.512333
0.326879 0.688552 0.625652
0.315996 0.773003 0.758284
0.923696 0.127600 0.648567
0.928195 0.161928 0.696482
0.906698 0.198381 0.692601
0.828197 0.281662 0.651299
0.468723 0.618354 0.662973
0.272153 0.733666 0.681429
0.292881 0.782720 0.757240
0.363792 0.816818 0.783856
0.930596 0.183464 0.712739
0.932832 0.253324 0.752532
0.930401 0.282404 0.766576
0.917817 0.323974 0.775097
0.718706 0.559087 0.819990
0.308094 0.816715 0.847225
0.310410 0.838640 0.853335
0.433188 0.847066 0.812425
0.915965 0.293357 0.755262
0.914199 0.370677 0.785523
0.915718 0.408145 0.795470
0.913975 0.449025 0.805028
0.904752 0.491520 0.834543
0.670844 0.772310 0.892167
0.465004 0.867143 0.883362
0.534071 0.878217 0.876223
0.131807 0.041119 0.112131
0.230104 0.060856 0.174244
0.117465 0.153587 0.408348
0.108318 0.200016 0.281090
0.162587 0.273453 0.376624
0.191593 0.350645 0.471857
0.181824 0.460770 0.587072
0.147045 0.608612 0.708101
0.319303 0.072147 0.202791
0.574658 0.096065 0.264275
0.516954 0.125619 0.368071
0.189694 0.283057 0.388871
0.257527 0.309774 0.408966
0.304279 0.360162 0.458674
0.305074 0.453866 0.557251
0.255510 0.609828 0.701370
0.543276 0.093642 0.256474
0.704904 0.112640 0.328975
0.644513 0.150823 0.393199
0.249231 0.357268 0.461273
0.287413 0.393604 0.435719
0.345731 0.426245 0.466772
0.376077 0.492991 0.541245
0.323412 0.642597 0.696716
0.792511 0.113392 0.366102
0.810217 0.122656 0.441871
0.698482 0.175684 0.465010
0.527680 0.300975 0.462509
0.305235 0.479490 0.464870
0.360830 0.514384 0.487839
0.408988 0.561822 0.538580
0.391117 0.668454 0.669547
0.860834 0.116667 0.495305
0.900963 0.129721 0.626363
0.794509 0.204731 0.594894
0.692903 0.292927 0.531640
0.399155 0.552606 0.527741
0.354828 0.621876 0.537075
0.412429 0.656207 0.569138
0.458467 0.714630 0.651041
0.902790 0.140331 0.644331
0.910557 0.171133 0.691250
0.893504 0.250972 0.712772
0.817454 0.322834 0.650793
0.650216 0.520250 0.659570
0.336438 0.738813 0.667724
0.397977 0.766058 0.672430
0.530676 0.771869 0.657680
0.918268 0.196272 0.710233
0.919880 0.269612 0.748198
0.919041 0.348985 0.778726
0.913082 0.385228 0.789245
0.871603 0.446008 0.794595
0.574229 0.779491 0.834185
0.434757 0.829029 0.749346
0.586225 0.832800 0.698634
0.919391 0.302894 0.767179
0.915579 0.383935 0.790631
0.910993 0.474607 0.812130
0.907364 0.520706 0.822539
0.908843 0.561344 0.843894
0.759320 0.760873 0.898905
0.573733 0.877945 0.821456
0.657755 0.881744 0.777360
0.324914 0.075805 0.199287
0.430042 0.083169 0.224416
0.403852 0.117847 0.402656
0.112973 0.226576 0.324519
0.155658 0.288702 0.409630
0.179216 0.369809 0.514111
0.172588 0.487546 0.620403
0.153213 0.622222 0.717902
0.513545 0.092609 0.250924
0.717028 0.103896 0.322627
0.668469 0.117722 0.384266
0.224249 0.291097 0.545253
0.244942 0.331728 0.484576
0.291810 0.374231 0.530532
0.290317 0.485914 0.626564
0.236425 0.643875 0.748558
0.685918 0.103021 0.306906
0.784689 0.118381 0.386025
0.713751 0.142501 0.458393
0.533192 0.232071 0.526418
0.287934 0.400810 0.524035
0.345902 0.434895 0.545714
0.365811 0.515172 0.619233
0.325853 0.654164 0.737731
0.791478 0.114002 0.376400
0.840270 0.117102 0.473006
0.740038 0.169128 0.535246
0.615446 0.278299 0.547377
0.344975 0.487743 0.565503
0.366629 0.533462 0.574672
0.435510 0.568612 0.599564
0.472031 0.648362 0.675463
0.878081 0.115833 0.517195
0.907236 0.125060 0.635511
0.807201 0.207592 0.634822
0.732719 0.291883 0.601564
0.533632 0.495919 0.615521
0.377027 0.632713 0.601404
0.484593 0.644370 0.596411
0.591986 0.671893 0.621592
0.916791 0.142166 0.663560
0.923725 0.178599 0.706330
0.892298 0.265164 0.725206
0.827083 0.363862 0.702984
0.778739 0.438980 0.708125
0.443979 0.739063 0.701625
0.503066 0.742140 0.641844
0.648410 0.744838 0.631751
0.923273 0.204040 0.714656
0.926333 0.279593 0.760475
0.921953 0.362729 0.787708
0.902381 0.456211 0.803297
0.871820 0.509158 0.808032
0.658866 0.781394 0.806902
0.544229 0.822061 0.708812
0.697194 0.819648 0.660649
0.924290 0.308265 0.770463
0.922124 0.397290 0.800056
0.915654 0.492777 0.824481
0.909961 0.592914 0.850520
0.906332 0.635330 0.863462
0.860314 0.713938 0.867940
0.674290 0.884231 0.790532
0.739783 0.886739 0.738998
0.502381 0.090058 0.244568
0.614699 0.098826 0.278250
0.617518 0.126632 0.376848
0.111764 0.310535 0.440328
0.128023 0.335200 0.445296
0.142947 0.416990 0.560727
0.141759 0.535932 0.649576
0.147826 0.643998 0.735898
0.689177 0.102044 0.309717
0.809971 0.113392 0.383179
0.801984 0.113783 0.431470
0.473894 0.228446 0.636215
0.209072 0.380444 0.575010
0.242713 0.443151 0.625663
0.243151 0.553634 0.697981
0.203950 0.695513 0.792560
0.795620 0.113392 0.368055
0.860230 0.113457 0.466429
0.808331 0.129028 0.573310
0.652055 0.225137 0.613835
0.268906 0.447653 0.644905
0.302228 0.494517 0.654091
0.314553 0.589161 0.724275
0.301652 0.698014 0.801324
0.847085 0.114149 0.441712
0.895038 0.116563 0.570155
0.825531 0.163298 0.633331
0.728503 0.253225 0.651045
0.398182 0.500905 0.679660
0.336913 0.583896 0.687818
0.397374 0.619100 0.708138
0.482325 0.655861 0.731511
0.890177 0.112249 0.549061
0.917817 0.129954 0.649331
0.866601 0.191940 0.679667
0.800759 0.277839 0.680887
0.704101 0.441325 0.718983
0.406964 0.677716 0.719443
0.500534 0.668676 0.686094
0.641810 0.677806 0.692462
0.926918 0.142130 0.671555
0.929233 0.187097 0.714116
0.924092 0.262075 0.750948
0.880083 0.353251 0.757251
0.840844 0.446027 0.777934
0.588865 0.727876 0.768370
0.561908 0.747844 0.704671
0.711735 0.747829 0.695346
0.931154 0.213829 0.732786
0.928481 0.288152 0.768456
0.925647 0.372835 0.794299
0.917508 0.468476 0.820450
0.895807 0.566254 0.830935
0.814123 0.665297 0.806055
0.648588 0.820370 0.737359
0.760459 0.820832 0.706191
0.907823 0.331465 0.774523
0.905885 0.413142 0.795960
0.904695 0.510677 0.822046
0.900488 0.611731 0.849963
0.904040 0.701472 0.874371
0.869395 0.746880 0.851945
0.770976 0.876518 0.803947
0.794097 0.893800 0.759269
0.674171 0.102923 0.296661
0.740769 0.105617 0.331733
0.752198 0.118519 0.427027
0.204471 0.332258 0.588158
0.114076 0.418186 0.531790
0.116854 0.462210 0.584895
0.131807 0.566944 0.670261
0.151923 0.652660 0.742156
0.792527 0.113392 0.362753
0.862498 0.113778 0.403668
0.875172 0.114573 0.463866
0.697055 0.228725 0.550600
0.174835 0.508987 0.682369
0.178913 0.551497 0.691717
0.178550 0.652142 0.756414
0.179114 0.735471 0.819312
0.846682 0.113392 0.434974
0.895314 0.113842 0.561059
0.893844 0.149038 0.574962
0.820371 0.201994 0.639658
0.333425 0.523501 0.749774
0.228584 0.617051 0.757075
0.228222 0.704307 0.813146
0.274063 0.742685 0.840893
0.880388 0.114637 0.535789
0.913265 0.124588 0.641796
0.906842 0.164374 0.687358
0.865304 0.233271 0.713284
0.735674 0.401702 0.748920
0.302128 0.680310 0.804616
0.330837 0.707713 0.810242
0.450324 0.701356 0.806740
0.913886 0.122136 0.628479
0.925292 0.151688 0.689790
0.929750 0.208446 0.731194
0.893414 0.295524 0.752613
0.835509 0.402968 0.795700
0.461353 0.733134 0.825903
0.469037 0.724120 0.793151
0.638534 0.703976 0.773291
0.923675 0.153864 0.687301
0.927530 0.199682 0.721139
0.928446 0.273924 0.756154
0.921453 0.359108 0.788307
0.902380 0.452381 0.808746
0.772204 0.626208 0.828536
0.606233 0.772511 0.786693
0.749675 0.757379 0.766669
0.924652 0.228643 0.740012
0.923581 0.301822 0.771043
0.920125 0.387056 0.794348
0.911432 0.480909 0.820513
0.902457 0.586409 0.845181
0.841908 0.684437 0.838175
0.730605 0.829866 0.804509
0.794524 0.834556 0.778852
0.918663 0.339301 0.780118
0.915579 0.424643 0.808721
0.907969 0.522456 0.830565
0.905130 0.622271 0.857961
0.907941 0.714481 0.884615
0.887941 0.786828 0.879465
0.812556 0.876823 0.851786
0.820589 0.900950 0.821765
0.776968 0.110995 0.354050
0.819377 0.113392 0.374964
0.821090 0.129858 0.233139
0.708601 0.196472 0.194661
0.139106 0.450431 0.382812
0.123796 0.544476 0.636865
0.138366 0.589175 0.688396
0.154259 0.664492 0.751112
0.839936 0.113392 0.421002
0.700558 0.231852 0.076135
0.733095 0.255761 0.087305
0.640428 0.325320 0.082382
0.193285 0.556441 0.491683
0.133295 0.668038 0.679646
0.162666 0.692764 0.778294
0.184688 0.747214 0.829145
0.885624 0.113392 0.498646
0.900267 0.142936 0.509179
0.824062 0.314640 0.166442
0.825934 0.350508 0.164664
0.761970 0.436459 0.258435
0.237251 0.701666 0.604693
0.196576 0.766280 0.841724
0.243984 0.790018 0.866018
0.908312 0.119694 0.625310
0.916030 0.161502 0.614804
0.897504 0.276689 0.424396
0.887177 0.388721 0.309980
0.841536 0.489137 0.328071
0.375222 0.754952 0.711754
0.298195 0.775096 0.859557
0.414188 0.756946 0.861289
0.921023 0.145039 0.678549
0.925666 0.191997 0.716773
0.927131 0.265938 0.720513
0.915906 0.390795 0.532677
0.887078 0.549425 0.457921
0.560665 0.763896 0.682877
0.444083 0.775075 0.830048
0.604581 0.751594 0.845803
0.914907 0.182715 0.709028
0.919541 0.249848 0.750951
0.919112 0.332362 0.777861
0.916807 0.422905 0.794556
0.913585 0.538124 0.774429
0.861398 0.676251 0.652516
0.625771 0.800376 0.811916
0.736972 0.792706 0.847240
0.932993 0.241765 0.747840
0.928000 0.317975 0.778464
0.923904 0.404596 0.803695
0.914028 0.502894 0.825489
0.909349 0.609632 0.851625
0.884116 0.715598 0.806713
0.758028 0.844967 0.863780
0.793592 0.859271 0.859333
0.920115 0.353399 0.789077
0.912475 0.434401 0.810822
0.909078 0.540654 0.835868
0.904459 0.638238 0.862132
0.908873 0.728873 0.886892
0.913069 0.797717 0.893795
0.891398 0.865468 0.865941
0.834622 0.911643 0.879877
0.841295 0.113392 0.404503
0.819934 0.142711 0.200528
0.459435 0.291005 0.058651
0.433957 0.324357 0.060417
0.407607 0.350307 0.068164
0.238681 0.497360 0.288169
0.140457 0.630685 0.578755
0.156993 0.679770 0.761328
0.868243 0.128861 0.344261
0.481606 0.347880 0.058879
0.499437 0.384291 0.062804
0.513522 0.408328 0.068159
0.505545 0.434022 0.073672
0.423572 0.506304 0.143806
0.196517 0.711410 0.636361
0.188680 0.757331 0.833482
0.804607 0.228749 0.176006
0.746743 0.326350 0.086595
0.597736 0.469042 0.070780
0.614905 0.499739 0.071996
0.641644 0.524010 0.070947
0.560350 0.573351 0.124333
0.267496 0.770922 0.641419
0.250745 0.810278 0.851679
0.915802 0.153628 0.598257
0.829217 0.342030 0.178828
0.740257 0.497313 0.057837
0.714945 0.577111 0.065737
0.729958 0.601168 0.067590
0.640637 0.644725 0.126403
0.407134 0.791900 0.576994
0.376056 0.838042 0.837835
0.929567 0.181348 0.666917
0.926488 0.256237 0.625879
0.890151 0.441288 0.277046
0.788316 0.609317 0.072526
0.796872 0.670976 0.082906
0.740392 0.711235 0.105881
0.639175 0.758739 0.375711
0.562610 0.817933 0.818996
0.927138 0.231260 0.741648
0.924587 0.309442 0.739443
0.915459 0.443058 0.567006
0.906005 0.589847 0.346188
0.880178 0.700851 0.159309
0.853706 0.764488 0.127136
0.773561 0.774884 0.257102
0.678393 0.840450 0.806087
0.929913 0.294032 0.769706
0.925724 0.375569 0.795790
0.919726 0.477683 0.801799
0.921897 0.630845 0.610078
0.921129 0.723285 0.561853
0.898592 0.795738 0.286691
0.831095 0.831536 0.305402
0.787617 0.856466 0.597400
0.909036 0.370329 0.794716
0.904605 0.463892 0.817233
0.903245 0.568564 0.844578
0.902693 0.673870 0.849215
0.914047 0.766829 0.787318
0.915795 0.825705 0.775136
0.900044 0.859887 0.448649
0.872765 0.877782 0.516755
