其他预设/【236】赛博朋克风调色预设/【后期菌】视频调色预设/CUBE/Glitch 01_S.cube
# LUT by SparkleStock. Enhanced with VOXCOLOR algorithms.
LUT_3D_SIZE 8
DOMAIN_MIN 0.000000 0.000000 0.000000
DOMAIN_MAX 0.903226 0.903226 0.903226
0.082111 0.082111 0.082111
0.089427 0.082364 0.097499
0.082111 0.091445 0.103680
0.086778 0.111752 0.139753
0.098761 0.145934 0.240911
0.109482 0.223631 0.383691
0.106455 0.321382 0.536184
0.111248 0.458739 0.675937
0.099770 0.086022 0.094346
0.113917 0.085533 0.110137
0.089016 0.101129 0.177426
0.127470 0.142752 0.199560
0.175009 0.200740 0.301454
0.203576 0.272793 0.406908
0.182093 0.394091 0.559840
0.136800 0.540664 0.724298
0.243938 0.082111 0.120329
0.335456 0.086306 0.139762
0.313261 0.104506 0.316512
0.153404 0.211522 0.291843
0.217963 0.278514 0.339675
0.249976 0.358050 0.431548
0.237025 0.466559 0.566374
0.194267 0.611810 0.731740
0.573897 0.089932 0.227036
0.652526 0.094143 0.283991
0.633407 0.121745 0.348761
0.167307 0.267740 0.456042
0.217816 0.374219 0.412254
0.254659 0.459354 0.473985
0.244483 0.563139 0.613425
0.195573 0.684156 0.786990
0.785419 0.105698 0.418251
0.822437 0.115475 0.476145
0.817721 0.132320 0.515860
0.480438 0.215115 0.545046
0.198010 0.477224 0.536017
0.230401 0.565878 0.576155
0.228700 0.661180 0.701164
0.199316 0.747852 0.851252
0.864125 0.130041 0.586006
0.874765 0.139123 0.620700
0.880128 0.149518 0.649145
0.786168 0.192285 0.672837
0.264025 0.494577 0.722435
0.188790 0.672865 0.744325
0.199206 0.740297 0.821623
0.206985 0.785545 0.886263
0.893009 0.160061 0.687037
0.896919 0.173024 0.706209
0.899007 0.195699 0.716678
0.885494 0.219989 0.744561
0.436581 0.509387 0.837939
0.188094 0.756124 0.874561
0.201017 0.782392 0.890072
0.228708 0.816142 0.898685
0.884306 0.236622 0.725381
0.886564 0.266857 0.733213
0.890967 0.304456 0.745940
0.893335 0.337816 0.762048
0.884550 0.386853 0.797239
0.445194 0.704187 0.880278
0.262626 0.825529 0.889046
0.300363 0.842813 0.893302
0.086274 0.082111 0.089932
0.090721 0.085786 0.103110
0.083373 0.091445 0.109445
0.105950 0.114857 0.152086
0.138866 0.145177 0.251066
0.162368 0.215729 0.383105
0.139741 0.329146 0.542743
0.123735 0.470079 0.679229
0.102716 0.082347 0.091413
0.210165 0.086055 0.116188
0.295704 0.098283 0.242635
0.169014 0.175507 0.271859
0.236903 0.230275 0.348941
0.274734 0.305567 0.433850
0.259418 0.411912 0.554200
0.200515 0.575003 0.720249
0.269921 0.086526 0.130200
0.491923 0.091384 0.199649
0.468523 0.123894 0.294954
0.204179 0.245036 0.376118
0.277241 0.316651 0.372539
0.325887 0.375982 0.421863
0.327926 0.467703 0.527818
0.264478 0.613438 0.703149
0.627194 0.090941 0.264721
0.749620 0.106074 0.377788
0.664379 0.164471 0.389476
0.245173 0.279259 0.439944
0.278240 0.417185 0.405246
0.336726 0.471257 0.438898
0.345908 0.554410 0.545109
0.291388 0.670581 0.719402
0.806105 0.112070 0.444043
0.864756 0.127962 0.573576
0.780725 0.178715 0.530420
0.614668 0.250356 0.503827
0.257959 0.511072 0.503032
0.307680 0.592951 0.528845
0.316235 0.661285 0.636603
0.284962 0.739528 0.775712
0.878378 0.132816 0.617294
0.887877 0.150212 0.669333
0.872161 0.179737 0.675091
0.796523 0.244039 0.636135
0.381161 0.508879 0.662411
0.251018 0.701179 0.691748
0.261104 0.748741 0.772617
0.296527 0.790102 0.797889
0.895251 0.164068 0.689531
0.897594 0.210730 0.720693
0.896919 0.237555 0.733631
0.888916 0.274885 0.743305
0.678695 0.457885 0.805672
0.227932 0.774039 0.858852
0.240160 0.807409 0.866712
0.323386 0.827911 0.827332
0.884546 0.245301 0.724221
0.888847 0.322274 0.757826
0.896034 0.367086 0.770021
0.895147 0.409315 0.782281
0.894364 0.462066 0.812208
0.578977 0.696728 0.887468
0.326681 0.840440 0.899696
0.389085 0.854261 0.887697
0.100274 0.082616 0.090941
0.124435 0.085517 0.098980
0.096478 0.091006 0.302796
0.121086 0.112257 0.178264
0.160439 0.147956 0.284812
0.183773 0.221775 0.409800
0.166872 0.331416 0.551124
0.123686 0.485003 0.694125
0.162461 0.085330 0.107370
0.341725 0.083578 0.141021
0.334212 0.095461 0.280459
0.183082 0.180410 0.336827
0.262479 0.228065 0.387724
0.307695 0.299069 0.462810
0.297691 0.399116 0.568311
0.236690 0.560203 0.712241
0.312777 0.086965 0.137284
0.536755 0.093655 0.225983
0.568263 0.135356 0.346174
0.227748 0.267287 0.461726
0.289614 0.350215 0.440929
0.345412 0.404022 0.484905
0.370914 0.477661 0.558678
0.311174 0.617436 0.713514
0.652798 0.091445 0.277656
0.739963 0.118050 0.399466
0.672764 0.181418 0.450485
0.477135 0.249144 0.455449
0.296609 0.438340 0.484921
0.358092 0.495706 0.503610
0.406375 0.548272 0.554392
0.369769 0.648796 0.687416
0.797255 0.117038 0.452555
0.857504 0.133370 0.586519
0.767660 0.202044 0.574509
0.673158 0.271896 0.528416
0.346167 0.475458 0.540909
0.349374 0.604776 0.551124
0.405754 0.642495 0.591555
0.413578 0.697816 0.669807
0.864447 0.141719 0.613917
0.872818 0.163174 0.671189
0.858345 0.217323 0.688156
0.792903 0.292715 0.631948
0.620576 0.433897 0.651972
0.297407 0.705617 0.679215
0.357366 0.742655 0.688017
0.441538 0.761002 0.677531
0.881104 0.172755 0.689983
0.886357 0.225567 0.719823
0.890893 0.302869 0.748106
0.893134 0.344020 0.760714
0.860311 0.411257 0.772775
0.475637 0.695550 0.832356
0.342810 0.812115 0.765845
0.471565 0.818099 0.720452
0.887834 0.257613 0.733754
0.891864 0.339239 0.764909
0.895973 0.438208 0.788640
0.899804 0.494033 0.798541
0.903316 0.545537 0.814957
0.720540 0.697227 0.887813
0.444316 0.853725 0.838163
0.541797 0.859324 0.791033
0.159304 0.082111 0.103175
0.221771 0.083226 0.116574
0.208784 0.088446 0.245061
0.117449 0.118250 0.213060
0.151610 0.155829 0.319364
0.171396 0.237346 0.448995
0.155809 0.356618 0.589708
0.125842 0.504920 0.707796
0.286220 0.085867 0.132507
0.532924 0.090069 0.214051
0.535367 0.096401 0.308049
0.182206 0.161862 0.500785
0.249036 0.245106 0.459308
0.293450 0.315519 0.535460
0.277284 0.428467 0.635943
0.216401 0.593275 0.760543
0.482273 0.090029 0.188607
0.673877 0.100628 0.311258
0.668457 0.141413 0.434758
0.469550 0.182402 0.503670
0.284131 0.357379 0.537728
0.342909 0.411922 0.558898
0.363068 0.495344 0.633486
0.312135 0.625944 0.751901
0.667515 0.097752 0.295428
0.777743 0.114238 0.435083
0.711795 0.178328 0.514350
0.581154 0.243177 0.543157
0.321489 0.443428 0.581488
0.363980 0.522403 0.589453
0.427312 0.556849 0.618220
0.431709 0.634577 0.691254
0.822136 0.115455 0.477944
0.867591 0.132681 0.598608
0.778745 0.205089 0.616692
0.708619 0.275721 0.592098
0.519045 0.426380 0.613062
0.371520 0.619636 0.616304
0.456632 0.633614 0.613377
0.521370 0.668707 0.643233
0.873931 0.142797 0.629875
0.886023 0.163006 0.684172
0.858652 0.226859 0.698660
0.808507 0.328511 0.683487
0.770918 0.397260 0.693654
0.355616 0.697011 0.714643
0.441209 0.733901 0.658232
0.560327 0.740126 0.651517
0.888082 0.176039 0.698136
0.891101 0.235838 0.727643
0.893358 0.314459 0.759448
0.885104 0.419099 0.779304
0.864154 0.481938 0.789298
0.582116 0.710618 0.806784
0.444436 0.813666 0.730672
0.615121 0.811038 0.681847
0.891207 0.262731 0.738462
0.899374 0.353213 0.772407
0.902998 0.460982 0.800218
0.904932 0.576338 0.817901
0.904602 0.618232 0.826370
0.846572 0.684979 0.848350
0.582322 0.855905 0.796482
0.663856 0.867014 0.746627
0.273453 0.086022 0.129158
0.381042 0.084317 0.151423
0.402159 0.089049 0.258382
0.092373 0.157904 0.332246
0.121574 0.189653 0.354710
0.131217 0.269616 0.487790
0.122978 0.392659 0.621082
0.120455 0.528714 0.729747
0.484584 0.089932 0.191223
0.690496 0.093862 0.305367
0.717987 0.099680 0.379056
0.341997 0.142554 0.577132
0.202777 0.279380 0.542949
0.234523 0.366262 0.615971
0.227462 0.485993 0.702063
0.182414 0.647426 0.801942
0.660399 0.094346 0.280268
0.786059 0.105714 0.417107
0.770858 0.135431 0.543983
0.589214 0.170171 0.598315
0.248107 0.381523 0.658960
0.296463 0.461332 0.662711
0.303036 0.559184 0.735556
0.277970 0.665690 0.809960
0.765938 0.102797 0.386983
0.847325 0.123548 0.535887
0.791416 0.166518 0.606301
0.700759 0.221645 0.642704
0.348226 0.429065 0.684568
0.329868 0.565562 0.696792
0.383322 0.603603 0.724421
0.432134 0.642720 0.744528
0.837808 0.117916 0.509961
0.875849 0.132955 0.612892
0.832440 0.179693 0.659824
0.777907 0.254165 0.666274
0.675487 0.378912 0.712113
0.351090 0.651962 0.733784
0.448701 0.660523 0.702542
0.557485 0.676578 0.711822
0.884233 0.138671 0.639823
0.893916 0.164557 0.693041
0.887724 0.222428 0.720147
0.853825 0.310006 0.729789
0.831054 0.414697 0.762578
0.511059 0.667346 0.773226
0.477754 0.743511 0.723936
0.629607 0.738810 0.711519
0.895963 0.186056 0.709085
0.896744 0.244849 0.733592
0.898992 0.325830 0.764257
0.901924 0.434513 0.798022
0.889891 0.548468 0.801921
0.805059 0.637155 0.798272
0.562459 0.802547 0.752895
0.697249 0.807206 0.717148
0.878309 0.285756 0.743515
0.884532 0.374479 0.770494
0.894246 0.480446 0.796462
0.897441 0.596638 0.814935
0.903218 0.684354 0.834163
0.872303 0.724846 0.821797
0.731042 0.836949 0.799322
0.741208 0.870241 0.758911
0.455838 0.087283 0.177971
0.568689 0.091193 0.225856
0.591079 0.091193 0.339415
0.133166 0.170224 0.482863
0.095534 0.255908 0.442489
0.105657 0.305807 0.516418
0.109197 0.424163 0.644295
0.123291 0.541608 0.736415
0.652233 0.091193 0.273697
0.784132 0.104957 0.340650
0.811871 0.112373 0.419920
0.591851 0.131177 0.498166
0.144394 0.378206 0.672070
0.157800 0.442599 0.678687
0.154136 0.565613 0.756223
0.151989 0.685747 0.827409
0.761275 0.100942 0.378825
0.842498 0.119732 0.529992
0.853007 0.137232 0.541946
0.771214 0.157106 0.616671
0.261996 0.397835 0.740429
0.208980 0.562987 0.762693
0.204300 0.664865 0.820624
0.247656 0.709077 0.853269
0.828572 0.118454 0.497974
0.873238 0.129898 0.605101
0.868968 0.155437 0.663375
0.830567 0.204360 0.688275
0.679466 0.304364 0.730989
0.253043 0.635277 0.806463
0.303630 0.681707 0.825061
0.386472 0.683863 0.819553
0.871274 0.128369 0.593879
0.886377 0.146949 0.659390
0.894035 0.180711 0.709197
0.861126 0.250368 0.724569
0.823437 0.354165 0.771819
0.361536 0.677487 0.832511
0.396186 0.712382 0.806186
0.542728 0.698920 0.789729
0.884042 0.149225 0.656749
0.890280 0.173803 0.699944
0.893069 0.228850 0.726601
0.893637 0.309700 0.758468
0.886698 0.415785 0.786078
0.741576 0.597914 0.823862
0.508175 0.763233 0.801000
0.682626 0.746492 0.775931
0.889949 0.192822 0.713524
0.891015 0.256231 0.738934
0.894942 0.340200 0.769921
0.900040 0.448956 0.796760
0.898364 0.569182 0.812489
0.844748 0.664683 0.816167
0.676456 0.793558 0.807726
0.745222 0.817793 0.783937
0.889148 0.291497 0.748646
0.896333 0.383362 0.783238
0.900650 0.495695 0.804981
0.902888 0.606573 0.824037
0.907120 0.695325 0.845199
0.886443 0.762293 0.846465
0.787105 0.840654 0.842845
0.786938 0.877544 0.818853
0.625737 0.089932 0.259326
0.714940 0.095453 0.294423
0.749309 0.106329 0.187549
0.584175 0.134012 0.158470
0.122343 0.312264 0.277094
0.104547 0.390376 0.594924
0.110995 0.449817 0.665025
0.126058 0.561894 0.745509
0.747930 0.096055 0.355751
0.599677 0.164374 0.106817
0.633029 0.187650 0.109036
0.524052 0.248492 0.108009
0.155417 0.447800 0.419941
0.124643 0.543365 0.604731
0.135472 0.616366 0.780091
0.156557 0.698653 0.837133
0.830001 0.115719 0.462527
0.855699 0.132769 0.478164
0.758256 0.246375 0.171368
0.765641 0.285808 0.172458
0.679687 0.354276 0.244998
0.205553 0.624068 0.521621
0.168778 0.722749 0.845123
0.211106 0.752427 0.878091
0.868035 0.126465 0.586718
0.877807 0.150568 0.587052
0.863203 0.222549 0.394628
0.854142 0.341748 0.313437
0.792623 0.443072 0.329172
0.296145 0.702230 0.656602
0.252672 0.739779 0.868239
0.337486 0.735665 0.870100
0.879639 0.143525 0.646663
0.890548 0.168063 0.696504
0.895195 0.222835 0.689228
0.891874 0.356586 0.514964
0.858094 0.509945 0.462399
0.496444 0.719455 0.651374
0.363256 0.759350 0.826209
0.492785 0.742147 0.861115
0.879228 0.165720 0.688990
0.884994 0.209456 0.721710
0.889119 0.284864 0.749442
0.894425 0.378813 0.765998
0.899169 0.502239 0.747077
0.846844 0.649824 0.655311
0.536083 0.787020 0.797212
0.660058 0.775577 0.851986
0.898730 0.202034 0.718029
0.897017 0.270370 0.745587
0.901258 0.363702 0.778033
0.905203 0.471771 0.800686
0.905829 0.590926 0.817158
0.879248 0.690787 0.781660
0.713906 0.816671 0.852344
0.745036 0.842007 0.854125
0.893196 0.306584 0.760246
0.893552 0.397633 0.786232
0.901326 0.518223 0.810603
0.902060 0.624675 0.826255
0.908873 0.707062 0.849018
0.910082 0.771411 0.852104
0.877698 0.833166 0.839283
0.810146 0.889498 0.862637
0.746319 0.099518 0.332356
0.748357 0.116183 0.167047
0.296648 0.200166 0.088341
0.296120 0.248519 0.090273
0.298488 0.289085 0.093260
0.203735 0.403685 0.162962
0.126611 0.507943 0.448921
0.129622 0.591783 0.756661
0.802313 0.114430 0.283515
0.345527 0.277942 0.092845
0.387153 0.338926 0.104398
0.422165 0.376894 0.108733
0.437769 0.427855 0.114331
0.396969 0.499659 0.129871
0.170099 0.640544 0.560665
0.159957 0.711756 0.840964
0.734487 0.165659 0.158698
0.668359 0.263761 0.124447
0.544758 0.463541 0.129765
0.576442 0.504445 0.136551
0.621556 0.535453 0.142754
0.561367 0.598141 0.156831
0.247440 0.706929 0.527086
0.202193 0.767685 0.844991
0.876738 0.140889 0.570166
0.775714 0.282961 0.189409
0.700052 0.493302 0.137129
0.707706 0.608833 0.158382
0.726943 0.641575 0.168403
0.661891 0.697802 0.186326
0.395699 0.767909 0.499185
0.301707 0.801413 0.796348
0.889884 0.163438 0.640836
0.893414 0.215671 0.597388
0.859557 0.412246 0.295051
0.777252 0.645202 0.178976
0.798486 0.707327 0.201138
0.770523 0.755932 0.214069
0.654299 0.775216 0.372450
0.461479 0.805010 0.785782
0.891825 0.191846 0.715160
0.894714 0.261984 0.707153
0.895205 0.400144 0.541002
0.882243 0.574392 0.381762
0.865445 0.714952 0.260343
0.855840 0.779528 0.265252
0.790420 0.802653 0.345513
0.611284 0.834378 0.776267
0.899316 0.245146 0.735199
0.901220 0.328674 0.766675
0.903928 0.435650 0.775738
0.903026 0.600510 0.597215
0.906585 0.695687 0.583771
0.891859 0.790485 0.386984
0.845760 0.850931 0.396989
0.797368 0.864221 0.596177
0.881458 0.326143 0.767553
0.887928 0.423893 0.795208
0.896648 0.550397 0.814472
0.897008 0.652327 0.811259
0.903528 0.738525 0.763322
0.910409 0.801397 0.747935
0.905691 0.866258 0.521714
0.890070 0.898750 0.553977
