其他预设/【236】赛博朋克风调色预设/【后期菌】视频调色预设/CUBE/Glitch 10.cube
# LUT by SparkleStock. Enhanced with VOXCOLOR algorithms.
LUT_3D_SIZE 8
DOMAIN_MIN 0.000000 0.000000 0.000000
DOMAIN_MAX 0.903226 0.903226 0.903226
0.003910 0.007820 0.015640
0.036830 0.020181 0.064705
0.000000 0.067606 0.111626
0.000757 0.149844 0.228045
0.003910 0.260461 0.351276
0.003910 0.373348 0.441207
0.003910 0.491281 0.536688
0.003910 0.590673 0.629773
0.081102 0.023713 0.069498
0.126135 0.026593 0.127690
0.000724 0.146288 0.299000
0.004618 0.246054 0.335790
0.003910 0.352167 0.430051
0.005261 0.464720 0.526256
0.003910 0.567115 0.602598
0.003910 0.654861 0.685914
0.396809 0.042128 0.186422
0.546657 0.057011 0.221690
0.553895 0.100799 0.531090
0.004317 0.340640 0.439657
0.004040 0.442224 0.502397
0.003910 0.545212 0.587377
0.003910 0.629716 0.663003
0.005676 0.722756 0.750025
0.818087 0.081229 0.355312
0.882540 0.090359 0.408726
0.889425 0.112444 0.549969
0.035793 0.428256 0.632414
0.003910 0.521597 0.569609
0.003910 0.610349 0.644909
0.003910 0.694108 0.722065
0.008430 0.795241 0.833207
0.979535 0.126510 0.569609
0.985467 0.159808 0.615203
0.985598 0.186186 0.672890
0.646903 0.318274 0.791233
0.006811 0.602094 0.674997
0.003910 0.675591 0.708194
0.006823 0.774421 0.810820
0.029242 0.874138 0.910464
0.985337 0.223631 0.695614
0.987697 0.246387 0.714200
0.990635 0.280174 0.736533
0.931125 0.330793 0.790827
0.176360 0.645446 0.846992
0.005171 0.762992 0.794509
0.020055 0.855044 0.888973
0.085895 0.914822 0.954236
0.985337 0.311418 0.755274
0.988364 0.343358 0.770031
0.993157 0.372466 0.783344
0.983637 0.409214 0.819072
0.469831 0.644384 0.915904
0.059477 0.873251 0.921124
0.074011 0.913621 0.951550
0.186918 0.924005 0.963158
0.989626 0.411818 0.795131
0.989349 0.444096 0.805197
0.985337 0.476853 0.816801
0.985337 0.514742 0.829044
0.968631 0.561422 0.876820
0.482432 0.774963 0.966601
0.256799 0.913097 0.964420
0.333833 0.908690 0.961913
0.032290 0.015893 0.032542
0.050806 0.023342 0.085220
0.000000 0.079776 0.144689
0.003910 0.160846 0.240610
0.004854 0.282408 0.368617
0.003910 0.391890 0.462560
0.005481 0.509094 0.558159
0.003910 0.600486 0.641011
0.097967 0.020527 0.075581
0.330240 0.037650 0.171463
0.515553 0.092354 0.411251
0.004291 0.317660 0.402025
0.003910 0.434225 0.490894
0.003910 0.538571 0.579897
0.003916 0.615056 0.653851
0.004017 0.710467 0.736340
0.448616 0.045786 0.200300
0.748499 0.072969 0.305872
0.742736 0.112936 0.495371
0.004041 0.418583 0.572374
0.003910 0.516491 0.559731
0.003910 0.594431 0.627558
0.005411 0.684865 0.715004
0.004626 0.780100 0.813355
0.853803 0.089049 0.387496
0.970876 0.114479 0.528129
0.983606 0.146517 0.623082
0.097365 0.437044 0.726156
0.003910 0.582487 0.623571
0.003910 0.655357 0.684959
0.004222 0.752668 0.784534
0.020893 0.860140 0.893709
0.987355 0.142654 0.599376
0.992775 0.214582 0.691207
0.987974 0.241106 0.708149
0.866859 0.305097 0.791587
0.010743 0.651073 0.756785
0.003931 0.735470 0.769448
0.016247 0.843315 0.876774
0.076894 0.913295 0.950729
0.992995 0.237001 0.706254
0.987860 0.295503 0.740390
0.992511 0.329522 0.764811
0.981297 0.370670 0.803622
0.354783 0.623973 0.884793
0.016803 0.825601 0.865081
0.059011 0.900709 0.935339
0.173231 0.925218 0.964297
0.989821 0.324129 0.762882
0.990110 0.390738 0.788290
0.989821 0.417197 0.796019
0.988953 0.459344 0.814802
0.761450 0.586878 0.923948
0.154463 0.885006 0.961500
0.160841 0.922485 0.962273
0.301220 0.906868 0.961655
0.989349 0.417885 0.792747
0.983785 0.501499 0.822907
0.983405 0.534835 0.835661
0.983239 0.564415 0.847901
0.981591 0.601244 0.880700
0.634410 0.754610 0.971150
0.362310 0.900451 0.967489
0.428646 0.906695 0.968087
0.085769 0.020055 0.065588
0.154397 0.024185 0.105344
0.007031 0.115321 0.476593
0.003910 0.186141 0.263614
0.003910 0.294639 0.379785
0.005171 0.408271 0.478794
0.005997 0.522757 0.567843
0.003910 0.614210 0.651089
0.241615 0.032102 0.132186
0.563542 0.056838 0.226772
0.581863 0.095590 0.442837
0.009022 0.345766 0.449915
0.003910 0.446199 0.505343
0.003910 0.545837 0.589096
0.003910 0.629199 0.666062
0.005694 0.722114 0.752099
0.518155 0.054607 0.216929
0.792138 0.078950 0.342556
0.909989 0.118044 0.541532
0.048895 0.471978 0.657630
0.003910 0.569387 0.608341
0.003910 0.649488 0.678483
0.003960 0.740998 0.773261
0.016316 0.840831 0.875383
0.876555 0.089805 0.404234
0.977189 0.124769 0.554622
0.988915 0.199334 0.674018
0.733219 0.297497 0.782782
0.008140 0.645177 0.716535
0.003942 0.723554 0.756181
0.010152 0.829844 0.872180
0.065063 0.904194 0.937138
0.984829 0.145922 0.601634
0.992996 0.228042 0.700319
0.987781 0.284624 0.735279
0.974719 0.328733 0.783306
0.184225 0.632580 0.855826
0.007211 0.807247 0.842791
0.047412 0.892696 0.929630
0.164596 0.924154 0.962911
0.990960 0.244821 0.709724
0.986102 0.304119 0.750927
0.993193 0.371759 0.782961
0.990340 0.405733 0.796752
0.744830 0.533291 0.896649
0.074443 0.868154 0.935819
0.140755 0.923808 0.959639
0.284268 0.911067 0.965108
0.986346 0.329650 0.762716
0.990130 0.400952 0.790330
0.985102 0.481973 0.817448
0.985120 0.521657 0.832665
0.965967 0.564043 0.882943
0.497094 0.763238 0.961789
0.273227 0.908804 0.965346
0.393737 0.903338 0.960908
0.989072 0.436666 0.802626
0.985223 0.518638 0.826941
0.981704 0.581290 0.850666
0.982949 0.610725 0.859095
0.983470 0.638301 0.876185
0.777857 0.750711 0.976736
0.461217 0.897835 0.966705
0.519171 0.900367 0.966713
0.242046 0.028127 0.134330
0.362876 0.040460 0.173479
0.360878 0.073921 0.425172
0.003910 0.209004 0.301059
0.003910 0.308574 0.390136
0.004154 0.429579 0.490113
0.005843 0.534801 0.579235
0.003910 0.625159 0.661070
0.484206 0.050811 0.207128
0.771285 0.077554 0.322746
0.822396 0.092532 0.435443
0.019873 0.366558 0.632332
0.003910 0.467615 0.522999
0.003910 0.554124 0.595814
0.003910 0.643992 0.675274
0.004393 0.738288 0.766757
0.730414 0.070564 0.297922
0.912566 0.098578 0.436589
0.988270 0.153221 0.612183
0.716502 0.252152 0.748159
0.004472 0.584923 0.654543
0.003910 0.662766 0.693989
0.004496 0.758939 0.790506
0.024807 0.862494 0.898526
0.893815 0.094790 0.420863
0.982421 0.134605 0.584385
0.992842 0.216876 0.684774
0.887509 0.312687 0.790078
0.087208 0.664808 0.817379
0.006316 0.787322 0.827971
0.039547 0.888278 0.924668
0.147297 0.922221 0.958993
0.986139 0.159910 0.617136
0.986826 0.231845 0.701133
0.989803 0.299296 0.750883
0.994302 0.359369 0.783611
0.593871 0.552037 0.890365
0.032042 0.873161 0.910663
0.130841 0.919728 0.957540
0.271734 0.911244 0.963426
0.993157 0.257055 0.720344
0.991675 0.318148 0.758268
0.992407 0.386459 0.788081
0.983074 0.454404 0.805922
0.943197 0.522860 0.877727
0.255736 0.823218 0.957324
0.250476 0.914369 0.965878
0.376732 0.897598 0.957772
0.985923 0.340721 0.764901
0.990070 0.411989 0.794454
0.985299 0.494171 0.818920
0.983042 0.570903 0.850629
0.971745 0.600447 0.884183
0.622954 0.759657 0.969227
0.370993 0.898154 0.959895
0.486694 0.896612 0.963456
0.985337 0.442774 0.803293
0.984814 0.531092 0.834321
0.983384 0.598467 0.857233
0.984647 0.652738 0.873256
0.983520 0.677120 0.881062
0.920397 0.733739 0.950189
0.574790 0.885781 0.966686
0.610583 0.897477 0.958088
0.456721 0.048056 0.200675
0.618165 0.064579 0.244512
0.628178 0.090684 0.403421
0.001571 0.291892 0.426157
0.006062 0.332787 0.409231
0.004236 0.446431 0.514172
0.005688 0.555458 0.595706
0.005220 0.636633 0.677150
0.732627 0.072904 0.299501
0.908657 0.095791 0.427502
0.960490 0.110348 0.516288
0.480518 0.244104 0.718123
0.004902 0.490576 0.550186
0.003910 0.574247 0.611174
0.004008 0.661501 0.688362
0.006421 0.755010 0.783435
0.882528 0.090806 0.407424
0.979966 0.131598 0.571803
0.992279 0.205951 0.680813
0.841882 0.261752 0.776711
0.013087 0.605390 0.718299
0.004194 0.683397 0.712079
0.007773 0.780475 0.818146
0.030406 0.877827 0.910539
0.967585 0.114792 0.534621
0.991130 0.191406 0.667360
0.991789 0.258653 0.718052
0.972656 0.330817 0.799072
0.211855 0.635086 0.852981
0.010870 0.815461 0.855432
0.054892 0.895035 0.932662
0.171164 0.922434 0.961166
0.988332 0.172568 0.642390
0.985337 0.242496 0.709503
0.985791 0.308761 0.752339
0.990024 0.370150 0.783456
0.842145 0.513509 0.896435
0.176798 0.859890 0.955696
0.225851 0.918747 0.966074
0.362879 0.896077 0.954237
0.988576 0.265140 0.722996
0.989360 0.328056 0.761969
0.990635 0.395054 0.788286
0.984643 0.472703 0.812792
0.968664 0.560115 0.875633
0.515806 0.753361 0.958531
0.350080 0.897676 0.957324
0.477204 0.894511 0.959065
0.991920 0.358213 0.773587
0.990025 0.423652 0.798176
0.984309 0.505878 0.823034
0.983154 0.582860 0.852045
0.982418 0.634252 0.867221
0.908629 0.694796 0.945109
0.501360 0.872463 0.958607
0.586502 0.892369 0.953934
0.985337 0.460196 0.809657
0.984779 0.537171 0.839813
0.982137 0.603597 0.859428
0.983712 0.663095 0.876612
0.983429 0.717334 0.897546
0.966700 0.747275 0.922376
0.737630 0.851739 0.955057
0.692013 0.900716 0.959290
0.698515 0.068868 0.282029
0.803167 0.078498 0.343211
0.828910 0.093223 0.492058
0.101458 0.320617 0.572896
0.004236 0.407424 0.481012
0.004317 0.470563 0.528571
0.003910 0.567574 0.604799
0.003910 0.647936 0.681105
0.877340 0.089130 0.394107
0.977632 0.119440 0.475306
0.984258 0.143538 0.558939
0.752834 0.214545 0.623978
0.009862 0.563470 0.646309
0.003910 0.597495 0.635365
0.003910 0.676410 0.708022
0.004447 0.768896 0.805290
0.965099 0.113717 0.524450
0.992511 0.184888 0.654590
0.990402 0.233952 0.638000
0.958730 0.272852 0.719555
0.163260 0.593700 0.791840
0.004020 0.714203 0.741328
0.008437 0.802654 0.836683
0.040764 0.887590 0.921339
0.988885 0.165122 0.640014
0.986136 0.234099 0.703114
0.986214 0.296122 0.740806
0.991029 0.358046 0.765223
0.826575 0.458112 0.837211
0.059549 0.817680 0.901210
0.068935 0.906293 0.942656
0.198457 0.919807 0.963909
0.991790 0.223114 0.697925
0.986825 0.283322 0.739236
0.993157 0.351784 0.772331
0.991119 0.416377 0.795074
0.948605 0.521344 0.860760
0.320706 0.803490 0.954342
0.256835 0.914314 0.965295
0.389931 0.899353 0.958637
0.992344 0.284438 0.738987
0.988091 0.338820 0.766025
0.990414 0.408074 0.793559
0.985172 0.487350 0.820419
0.983563 0.566557 0.850053
0.832995 0.686886 0.951195
0.440106 0.895072 0.963550
0.565640 0.890141 0.952962
0.993157 0.367278 0.778197
0.989821 0.436067 0.800091
0.983628 0.516334 0.829736
0.982404 0.588419 0.854003
0.982144 0.646496 0.867901
0.956842 0.709644 0.923996
0.659675 0.846582 0.956174
0.671541 0.893196 0.954945
0.985337 0.470278 0.813420
0.983905 0.552662 0.844115
0.981655 0.611158 0.860967
0.983095 0.668703 0.877266
0.980971 0.730175 0.900106
0.969621 0.782284 0.927115
0.811246 0.865725 0.955997
0.757468 0.910960 0.961684
0.853404 0.087535 0.380538
0.922398 0.099461 0.414248
0.901826 0.131303 0.226743
0.724144 0.177414 0.183488
0.043291 0.352480 0.247978
0.002885 0.536656 0.558062
0.003910 0.584338 0.621538
0.003910 0.661485 0.691146
0.953780 0.107757 0.495326
0.700110 0.222902 0.074118
0.744528 0.243730 0.074670
0.596306 0.307307 0.077352
0.067130 0.485628 0.367715
0.003190 0.577233 0.521158
0.003910 0.699967 0.725862
0.007100 0.784390 0.821319
0.990521 0.162962 0.602395
0.980906 0.213177 0.581300
0.866376 0.319683 0.167653
0.867559 0.345746 0.174584
0.756371 0.413701 0.253504
0.076976 0.634635 0.439272
0.011634 0.819137 0.842892
0.050903 0.898403 0.931380
0.989203 0.220518 0.693718
0.991883 0.266948 0.674814
0.972672 0.324568 0.446182
0.937886 0.411040 0.324704
0.874933 0.492179 0.329927
0.225351 0.768852 0.662531
0.087890 0.914144 0.935729
0.219603 0.919578 0.966782
0.992376 0.272684 0.728876
0.990861 0.331977 0.762839
0.988693 0.386341 0.751092
0.985871 0.468502 0.530318
0.932123 0.561813 0.462946
0.486972 0.761030 0.649780
0.278895 0.900493 0.884086
0.406124 0.896946 0.957440
0.989561 0.322595 0.758708
0.992962 0.384996 0.787844
0.985105 0.462553 0.805017
0.985023 0.540668 0.822053
0.983543 0.600439 0.787317
0.940802 0.678590 0.663375
0.495276 0.865601 0.841525
0.585715 0.899315 0.960886
0.991986 0.380042 0.781131
0.985277 0.455101 0.807983
0.984529 0.536429 0.837247
0.982004 0.601562 0.853601
0.982550 0.658999 0.868377
0.973405 0.714658 0.820151
0.735289 0.865477 0.927695
0.711298 0.917475 0.954858
0.985337 0.488559 0.818897
0.982204 0.558574 0.845829
0.982705 0.624473 0.864612
0.983472 0.677811 0.879483
0.981879 0.741229 0.900926
0.971797 0.790946 0.907592
0.934421 0.854534 0.887788
0.805106 0.919695 0.937356
0.948255 0.106959 0.467064
0.888123 0.151207 0.192541
0.359336 0.246737 0.050831
0.345075 0.286790 0.057264
0.328840 0.312911 0.057524
0.145368 0.352187 0.146418
0.004077 0.496546 0.386543
0.003910 0.676487 0.694723
0.971174 0.138736 0.393920
0.398710 0.314881 0.065866
0.427745 0.359230 0.081127
0.460918 0.386913 0.089873
0.467503 0.416923 0.097324
0.388212 0.454293 0.114764
0.033330 0.628057 0.465552
0.006544 0.799521 0.828500
0.853453 0.225392 0.166786
0.758544 0.323229 0.090223
0.568117 0.456405 0.110292
0.593863 0.489307 0.116925
0.629528 0.513985 0.124368
0.556700 0.551866 0.128711
0.137100 0.708754 0.453588
0.060929 0.877487 0.859800
0.989699 0.249634 0.659630
0.872831 0.352788 0.187304
0.721102 0.486823 0.122834
0.709773 0.567771 0.141346
0.727821 0.593390 0.147198
0.656803 0.640523 0.157572
0.360029 0.750632 0.446690
0.258451 0.867183 0.814407
0.992246 0.306613 0.714875
0.985661 0.359122 0.664178
0.935280 0.466473 0.292190
0.786051 0.605952 0.147214
0.803206 0.664715 0.160939
0.770266 0.703732 0.173284
0.623827 0.751289 0.323100
0.420853 0.875277 0.786392
0.992018 0.365589 0.777912
0.984218 0.426172 0.762658
0.979721 0.499720 0.567367
0.947227 0.596861 0.360079
0.908090 0.692169 0.208797
0.879924 0.747858 0.212981
0.801138 0.797204 0.260773
0.585598 0.890815 0.777732
0.987966 0.430433 0.800933
0.985240 0.510630 0.828145
0.982660 0.573955 0.826583
0.981842 0.636986 0.596260
0.980822 0.699319 0.569203
0.940796 0.776810 0.349108
0.871521 0.848974 0.347210
0.795009 0.874116 0.570973
0.984540 0.502267 0.824821
0.983571 0.573321 0.850270
0.984342 0.635219 0.864438
0.982188 0.689540 0.853836
0.979411 0.742758 0.786622
0.970984 0.805416 0.768963
0.952652 0.865587 0.512823
0.919261 0.903289 0.567565
