其他预设/【236】赛博朋克风调色预设/【后期菌】视频调色预设/CUBE/Glitch 08.cube
# LUT by SparkleStock. Enhanced with VOXCOLOR algorithms.
LUT_3D_SIZE 5
DOMAIN_MIN 0.000000 0.000000 0.000000
DOMAIN_MAX 0.903226 0.903226 0.903226
0.031281 0.031281 0.046921
0.046669 0.109482 0.203702
0.073913 0.216946 0.291363
0.107590 0.375619 0.539337
0.134330 0.586006 0.731435
0.277236 0.059534 0.203197
0.355422 0.089277 0.377446
0.107138 0.352826 0.497820
0.126257 0.540110 0.695622
0.173199 0.710339 0.817888
0.830826 0.071264 0.377385
0.875298 0.075121 0.475230
0.143786 0.478107 0.726715
0.154132 0.679107 0.791111
0.212657 0.803078 0.871274
0.933245 0.097878 0.691073
0.938172 0.121094 0.730971
0.756393 0.292478 0.812721
0.197115 0.783975 0.864801
0.285244 0.848896 0.892631
0.936651 0.229811 0.797276
0.933424 0.291396 0.807260
0.932256 0.347134 0.825492
0.431096 0.832560 0.901082
0.423931 0.876653 0.899316
0.094094 0.046921 0.112761
0.102724 0.096409 0.275304
0.085733 0.241090 0.334553
0.111248 0.403242 0.575411
0.141951 0.608437 0.746046
0.355641 0.062903 0.218728
0.722328 0.075501 0.399218
0.117931 0.475307 0.653699
0.146893 0.654415 0.770531
0.200956 0.783503 0.860781
0.854808 0.077119 0.416392
0.927919 0.084860 0.651164
0.336456 0.475661 0.808224
0.187920 0.760622 0.848494
0.271827 0.842068 0.886340
0.933876 0.106085 0.708361
0.937594 0.191138 0.784305
0.914336 0.273553 0.827288
0.256548 0.830852 0.882218
0.388702 0.868253 0.894152
0.933823 0.248930 0.797906
0.927870 0.396610 0.826688
0.919887 0.477598 0.840063
0.622603 0.841281 0.906814
0.579663 0.885938 0.901225
0.292751 0.062561 0.216441
0.456367 0.064815 0.322811
0.089154 0.265531 0.373751
0.112761 0.435454 0.610146
0.148709 0.636837 0.767509
0.686366 0.072778 0.291005
0.880178 0.075055 0.493531
0.212685 0.442465 0.758081
0.156895 0.682056 0.795385
0.216824 0.801959 0.869309
0.870013 0.073893 0.455297
0.933876 0.095282 0.687339
0.832299 0.263673 0.809833
0.240367 0.824412 0.877410
0.367173 0.861004 0.890394
0.941065 0.114149 0.729384
0.934649 0.212244 0.788587
0.931605 0.355321 0.823118
0.416683 0.838996 0.892544
0.531917 0.870149 0.889957
0.934506 0.272338 0.798073
0.925945 0.427971 0.832054
0.911112 0.628023 0.871294
0.867536 0.751300 0.907688
0.711120 0.896282 0.905278
0.698641 0.073661 0.294138
0.801918 0.075915 0.353220
0.115727 0.374231 0.621888
0.116570 0.472659 0.639730
0.156814 0.660928 0.781668
0.861367 0.076057 0.432842
0.914824 0.106838 0.502825
0.695843 0.269494 0.664080
0.167961 0.712559 0.816019
0.230462 0.817513 0.877308
0.928155 0.082962 0.651614
0.936860 0.137389 0.749511
0.934821 0.256821 0.799745
0.319256 0.819524 0.888314
0.395569 0.868174 0.892888
0.938945 0.129057 0.745912
0.935935 0.237753 0.796356
0.929935 0.389768 0.828218
0.697554 0.797281 0.896879
0.686119 0.889557 0.899245
0.932741 0.295399 0.804119
0.921442 0.457941 0.835115
0.911302 0.661245 0.879659
0.915241 0.793768 0.909117
0.800585 0.909673 0.918590
0.854791 0.076057 0.388863
0.474160 0.228440 0.069189
0.313554 0.311878 0.084361
0.151272 0.511002 0.330606
0.164813 0.687004 0.796519
0.835701 0.174826 0.174883
0.490038 0.431275 0.079373
0.527011 0.490662 0.080037
0.405164 0.625107 0.214469
0.249165 0.824519 0.870317
0.935283 0.130566 0.668850
0.832115 0.432285 0.166673
0.781545 0.644933 0.075276
0.588479 0.743298 0.252073
0.449941 0.869891 0.829092
0.936651 0.198404 0.788955
0.930666 0.372971 0.698194
0.893863 0.686239 0.178313
0.850834 0.801769 0.130211
0.660863 0.888501 0.781578
0.932741 0.321435 0.810564
0.920335 0.502231 0.842394
0.918015 0.722923 0.803445
0.922327 0.845576 0.680180
0.871266 0.879375 0.508978
