其他预设/【236】赛博朋克风调色预设/【后期菌】视频调色预设/CUBE/Glitch 07_S.cube
# LUT by SparkleStock. Enhanced with VOXCOLOR algorithms.
LUT_3D_SIZE 8
DOMAIN_MIN 0.000000 0.000000 0.000000
DOMAIN_MAX 0.903226 0.903226 0.903226
0.023460 0.054741 0.062561
0.041749 0.062813 0.089049
0.035191 0.071390 0.095860
0.040614 0.087535 0.142150
0.054741 0.127266 0.248731
0.041876 0.193611 0.400467
0.029136 0.300949 0.569609
0.030902 0.457983 0.728912
0.067102 0.066723 0.090941
0.095888 0.066959 0.112765
0.038283 0.088390 0.189970
0.086449 0.124988 0.201480
0.121721 0.171730 0.308700
0.134745 0.254614 0.423431
0.105812 0.382332 0.594554
0.074478 0.578930 0.784968
0.337527 0.069877 0.126257
0.464790 0.069690 0.150735
0.364601 0.093406 0.321053
0.103301 0.186743 0.303264
0.154018 0.253162 0.349009
0.180083 0.347923 0.449943
0.172572 0.481292 0.605292
0.152314 0.654975 0.791828
0.636963 0.071138 0.230190
0.664537 0.077823 0.277208
0.614227 0.113758 0.331733
0.105763 0.268497 0.471715
0.150165 0.357078 0.426954
0.198026 0.464029 0.504635
0.203909 0.596100 0.657237
0.194604 0.752361 0.843281
0.725507 0.102923 0.385835
0.742282 0.125692 0.436292
0.719973 0.154389 0.461514
0.454723 0.249915 0.507861
0.137206 0.490443 0.566936
0.186023 0.595897 0.621794
0.221877 0.718924 0.756421
0.235186 0.833951 0.911066
0.750859 0.166493 0.531391
0.754769 0.185161 0.559319
0.754249 0.210513 0.593667
0.684624 0.250623 0.605670
0.264273 0.575276 0.767627
0.173007 0.729384 0.801182
0.227569 0.818026 0.881946
0.266259 0.875721 0.935450
0.758553 0.229559 0.624476
0.760067 0.250554 0.647362
0.767004 0.282111 0.666408
0.758578 0.312899 0.700077
0.472935 0.619093 0.869707
0.233314 0.841356 0.936256
0.259802 0.873593 0.943254
0.304135 0.893693 0.942326
0.764860 0.328320 0.687668
0.769514 0.360459 0.705830
0.779845 0.399108 0.729921
0.787690 0.443945 0.746140
0.787258 0.502747 0.785761
0.506563 0.796380 0.911013
0.336685 0.897603 0.931605
0.372889 0.905789 0.932781
0.040110 0.058903 0.071138
0.054619 0.063049 0.100075
0.035760 0.071390 0.105755
0.054692 0.092104 0.152086
0.093463 0.120577 0.258886
0.099762 0.188440 0.395926
0.058037 0.308615 0.572257
0.043011 0.474241 0.733705
0.078844 0.063538 0.095323
0.272490 0.073614 0.121041
0.360961 0.082144 0.250463
0.122149 0.154810 0.278684
0.182272 0.208206 0.357964
0.211592 0.294593 0.451844
0.199058 0.417746 0.589662
0.159717 0.617870 0.776609
0.391731 0.069657 0.134867
0.587226 0.068858 0.199759
0.486795 0.115728 0.291012
0.145389 0.233408 0.383702
0.221734 0.303293 0.380237
0.273356 0.373008 0.431416
0.285831 0.485935 0.560135
0.256780 0.669099 0.756869
0.667653 0.072749 0.260054
0.706232 0.103621 0.357544
0.603228 0.162617 0.356780
0.208127 0.296658 0.438916
0.228520 0.408941 0.416247
0.294372 0.479887 0.456785
0.330888 0.591063 0.577183
0.317550 0.741868 0.767798
0.732505 0.117302 0.413649
0.752369 0.161647 0.520422
0.672948 0.214936 0.476810
0.552449 0.280662 0.446988
0.224205 0.542353 0.533272
0.285942 0.624767 0.559324
0.327814 0.722552 0.679118
0.332157 0.818063 0.818876
0.758553 0.179611 0.557211
0.759809 0.216906 0.610372
0.744245 0.252327 0.615335
0.686636 0.310163 0.579357
0.393569 0.585826 0.680433
0.267068 0.764401 0.736538
0.307060 0.828295 0.819604
0.358786 0.858473 0.834899
0.760795 0.238990 0.634383
0.767219 0.296390 0.679285
0.771289 0.326896 0.697985
0.775730 0.377837 0.718488
0.651874 0.562429 0.799443
0.297788 0.853393 0.905755
0.309724 0.885593 0.911849
0.389505 0.888112 0.861956
0.763208 0.336380 0.692082
0.783421 0.425200 0.740169
0.790028 0.468616 0.758174
0.802207 0.520218 0.768740
0.809660 0.574629 0.799423
0.633909 0.780626 0.899889
0.395741 0.901122 0.930535
0.450588 0.912029 0.913640
0.070507 0.063066 0.090941
0.115959 0.067195 0.103867
0.030442 0.080354 0.337686
0.076086 0.091950 0.180254
0.116045 0.122608 0.288592
0.119951 0.195666 0.421514
0.088475 0.318229 0.589033
0.050505 0.502259 0.748385
0.184095 0.070381 0.111313
0.476223 0.066520 0.152137
0.393386 0.083803 0.285654
0.136471 0.157015 0.341596
0.211237 0.210976 0.394314
0.246967 0.285677 0.477029
0.240012 0.407409 0.597037
0.202928 0.598272 0.762067
0.444006 0.066845 0.145983
0.606375 0.074894 0.225409
0.543316 0.127248 0.326310
0.178813 0.270163 0.467300
0.237657 0.341560 0.455543
0.305063 0.408804 0.503365
0.351380 0.501020 0.590698
0.329216 0.684737 0.760011
0.676287 0.073856 0.277627
0.687315 0.117232 0.372426
0.594018 0.195634 0.411429
0.440935 0.265299 0.423929
0.258024 0.453123 0.502085
0.336925 0.515876 0.524235
0.410344 0.590804 0.584038
0.406758 0.712665 0.722270
0.723350 0.123222 0.417726
0.744817 0.171857 0.531526
0.654203 0.247495 0.517241
0.588588 0.310604 0.471881
0.344620 0.517463 0.551597
0.350786 0.643871 0.579519
0.425945 0.691840 0.615475
0.461454 0.753538 0.694486
0.744280 0.187594 0.549896
0.748165 0.231598 0.609851
0.731967 0.293922 0.642784
0.685738 0.362181 0.592929
0.588618 0.508334 0.636713
0.333167 0.767108 0.718701
0.401232 0.804522 0.720722
0.496197 0.803565 0.700320
0.750709 0.245899 0.629944
0.762683 0.314127 0.682927
0.779504 0.401587 0.732541
0.787313 0.444184 0.748326
0.767111 0.518503 0.757714
0.538612 0.783584 0.857021
0.403353 0.866067 0.795291
0.526765 0.863728 0.737808
0.766471 0.349209 0.707999
0.786961 0.446382 0.748972
0.807708 0.548889 0.776681
0.818858 0.591356 0.791218
0.830426 0.635356 0.809322
0.732532 0.777423 0.889136
0.504244 0.902908 0.854779
0.600478 0.903140 0.799577
0.187305 0.070381 0.110995
0.310848 0.069624 0.123784
0.246757 0.073237 0.272960
0.075658 0.098700 0.213670
0.100754 0.133125 0.323974
0.102402 0.212523 0.466913
0.075211 0.342117 0.627971
0.051209 0.523713 0.765238
0.410399 0.069421 0.144392
0.616633 0.065038 0.212619
0.557706 0.082472 0.298027
0.124243 0.167831 0.513888
0.189791 0.225767 0.466905
0.233108 0.305995 0.553166
0.223261 0.444512 0.673890
0.188970 0.641267 0.814739
0.595356 0.063163 0.191760
0.669730 0.084931 0.303849
0.605245 0.141575 0.400698
0.441154 0.195422 0.470899
0.237022 0.357848 0.552142
0.304221 0.418937 0.583247
0.349354 0.527816 0.665945
0.338530 0.694207 0.797491
0.673228 0.082449 0.288637
0.712192 0.117332 0.401293
0.622513 0.197067 0.469601
0.520953 0.267683 0.494800
0.304946 0.471269 0.601503
0.360080 0.553379 0.614936
0.447501 0.598571 0.643209
0.475361 0.684052 0.716880
0.740346 0.128768 0.438363
0.750709 0.174444 0.542624
0.666268 0.253739 0.564031
0.615414 0.327926 0.547343
0.501141 0.473480 0.604180
0.387274 0.662258 0.642653
0.489860 0.673702 0.628535
0.568853 0.699088 0.657816
0.751457 0.191972 0.573889
0.755449 0.237376 0.622857
0.734084 0.309157 0.657803
0.702983 0.404150 0.657167
0.690080 0.479178 0.669244
0.412250 0.754767 0.740234
0.485422 0.769291 0.676319
0.604717 0.770324 0.663700
0.753964 0.253357 0.642590
0.768981 0.325982 0.694717
0.784561 0.416769 0.742362
0.796096 0.528476 0.764022
0.783985 0.588185 0.773955
0.629843 0.778673 0.817523
0.494066 0.856271 0.749508
0.650457 0.841377 0.684500
0.774625 0.354050 0.712263
0.793572 0.459170 0.758945
0.817100 0.569255 0.790852
0.840141 0.658074 0.815168
0.843966 0.687392 0.822846
0.814977 0.751853 0.835448
0.641539 0.892515 0.803883
0.718258 0.897477 0.747555
0.397818 0.069372 0.135087
0.521923 0.065462 0.163849
0.494166 0.071512 0.270857
0.037941 0.131669 0.355674
0.063318 0.160524 0.362395
0.056295 0.245830 0.513448
0.040867 0.381673 0.668219
0.048105 0.553533 0.787535
0.596593 0.062691 0.194946
0.690057 0.077526 0.297019
0.678855 0.096429 0.357475
0.344577 0.150561 0.542684
0.136944 0.265162 0.565061
0.165252 0.359349 0.651536
0.171456 0.508360 0.749735
0.158632 0.701670 0.862674
0.677703 0.074922 0.281525
0.724736 0.107309 0.390779
0.675589 0.159947 0.498013
0.529450 0.193959 0.547987
0.202772 0.402508 0.686592
0.255946 0.476548 0.698637
0.293573 0.604530 0.778073
0.312206 0.744439 0.863045
0.717813 0.100653 0.364475
0.748264 0.145835 0.481469
0.682719 0.206360 0.553874
0.607089 0.261117 0.584429
0.348780 0.476205 0.703386
0.333920 0.608978 0.734737
0.411820 0.654811 0.756096
0.480846 0.688195 0.771366
0.746034 0.135795 0.463923
0.755845 0.175919 0.552344
0.710055 0.242513 0.603501
0.665188 0.312564 0.620511
0.619064 0.447065 0.685527
0.395988 0.701074 0.761759
0.489425 0.695604 0.722193
0.600211 0.704973 0.723124
0.759489 0.193192 0.577946
0.759791 0.240771 0.631765
0.761793 0.307996 0.681083
0.747226 0.401915 0.711860
0.742315 0.514639 0.744382
0.561671 0.733462 0.787681
0.522680 0.775142 0.739646
0.668362 0.766688 0.714567
0.762528 0.266930 0.654357
0.774612 0.334906 0.701774
0.790232 0.428735 0.750784
0.811056 0.540559 0.785100
0.820257 0.634371 0.796338
0.768026 0.709050 0.786668
0.610748 0.837060 0.760044
0.737560 0.833104 0.716869
0.766402 0.377910 0.723033
0.786204 0.478148 0.761820
0.810363 0.584298 0.788097
0.834123 0.671485 0.812193
0.853233 0.739985 0.829524
0.832534 0.775763 0.812519
0.768593 0.869108 0.791971
0.790142 0.896340 0.759156
0.583105 0.063822 0.187179
0.638729 0.065255 0.226117
0.608754 0.080057 0.329992
0.074365 0.169325 0.501225
0.025531 0.227256 0.466275
0.023224 0.283694 0.544838
0.026976 0.413332 0.689592
0.054363 0.576420 0.798285
0.676360 0.071012 0.269290
0.740465 0.098003 0.330460
0.747435 0.114793 0.389813
0.557169 0.145241 0.474116
0.069991 0.383199 0.716090
0.083822 0.448392 0.727622
0.097893 0.608601 0.819567
0.139156 0.748125 0.894389
0.717093 0.098960 0.356951
0.747456 0.138421 0.477540
0.752894 0.169557 0.499249
0.681300 0.191358 0.562550
0.241382 0.456159 0.782345
0.173880 0.601949 0.816919
0.208948 0.730862 0.880083
0.289182 0.791502 0.905358
0.740769 0.131555 0.451155
0.756283 0.173679 0.546456
0.743813 0.217458 0.603789
0.714576 0.273894 0.644446
0.623392 0.372278 0.709571
0.279527 0.702942 0.857644
0.346299 0.753283 0.869182
0.439698 0.738573 0.853339
0.755286 0.166461 0.534638
0.757681 0.208050 0.601085
0.759063 0.260090 0.652180
0.745350 0.336154 0.692116
0.733488 0.447621 0.752269
0.423429 0.743310 0.863054
0.445055 0.756382 0.833134
0.589435 0.732164 0.805504
0.755136 0.208479 0.598953
0.757385 0.252164 0.644551
0.767947 0.316498 0.691706
0.784883 0.411652 0.742973
0.794545 0.522694 0.772271
0.720537 0.669571 0.812749
0.553564 0.797784 0.814669
0.723352 0.770674 0.777261
0.757906 0.275674 0.661416
0.772559 0.348622 0.711021
0.789618 0.445744 0.755829
0.812314 0.558735 0.787359
0.829899 0.650862 0.808314
0.797554 0.722298 0.807769
0.724355 0.824729 0.803964
0.788652 0.835959 0.781775
0.776830 0.388301 0.730048
0.800193 0.498084 0.769844
0.819206 0.593992 0.794536
0.841108 0.677658 0.817978
0.859182 0.749737 0.838643
0.849590 0.804201 0.836508
0.807455 0.869471 0.832779
0.823948 0.897580 0.813289
0.666856 0.070381 0.255416
0.701933 0.082897 0.291929
0.761772 0.086721 0.169708
0.627320 0.110804 0.142325
0.092556 0.280439 0.278974
0.023888 0.374720 0.637602
0.030784 0.449178 0.719766
0.060722 0.600385 0.808754
0.713663 0.090155 0.341006
0.637811 0.130320 0.068569
0.674688 0.150251 0.066138
0.573073 0.204930 0.070845
0.129473 0.454075 0.437961
0.073321 0.582315 0.662950
0.084575 0.659870 0.843010
0.150658 0.766492 0.901741
0.750904 0.123621 0.423516
0.768403 0.151063 0.439190
0.783340 0.219502 0.126242
0.793828 0.263093 0.128346
0.730628 0.346628 0.245564
0.207041 0.684587 0.568041
0.177599 0.801208 0.911253
0.259391 0.841142 0.933082
0.754306 0.164390 0.531639
0.765678 0.192421 0.541394
0.805179 0.243272 0.373039
0.838322 0.345286 0.289592
0.820079 0.458648 0.322050
0.343230 0.769609 0.711257
0.302457 0.821224 0.916772
0.399354 0.796165 0.907445
0.754517 0.198392 0.587849
0.757717 0.246626 0.639293
0.770835 0.302169 0.658565
0.829595 0.407004 0.504378
0.851618 0.560550 0.464648
0.555836 0.778166 0.695281
0.418885 0.816816 0.865796
0.545304 0.782974 0.879046
0.751079 0.239080 0.630339
0.759931 0.296758 0.678281
0.775272 0.378355 0.727016
0.798960 0.484884 0.758013
0.830816 0.593171 0.748126
0.841228 0.698375 0.651993
0.598607 0.829511 0.828709
0.709529 0.805458 0.855966
0.767346 0.285317 0.672324
0.780144 0.365949 0.722581
0.799578 0.468588 0.764388
0.821997 0.577350 0.789748
0.843600 0.665546 0.813201
0.850442 0.743603 0.780478
0.748056 0.848461 0.855538
0.784011 0.866215 0.856069
0.780740 0.406301 0.741399
0.802099 0.509412 0.772894
0.825707 0.612249 0.802252
0.843157 0.691067 0.823478
0.863239 0.762888 0.841438
0.873928 0.810653 0.849884
0.869591 0.861009 0.835244
0.844262 0.908946 0.859806
0.717939 0.089553 0.324536
0.768326 0.095046 0.142797
0.300237 0.162933 0.066520
0.286009 0.205057 0.065047
0.290261 0.245988 0.062008
0.224322 0.407672 0.129191
0.111732 0.543471 0.477932
0.069246 0.629952 0.820988
0.771036 0.104514 0.269107
0.355781 0.236193 0.062569
0.399648 0.286486 0.062017
0.444001 0.325355 0.058391
0.472382 0.379265 0.053961
0.445096 0.478458 0.062877
0.175657 0.696427 0.598473
0.161608 0.784233 0.902931
0.758427 0.139196 0.122494
0.716840 0.223200 0.075764
0.616785 0.419403 0.065175
0.654927 0.468615 0.063586
0.707964 0.503911 0.065552
0.658105 0.598086 0.078653
0.279334 0.784798 0.581574
0.235150 0.854900 0.909093
0.767382 0.181214 0.522090
0.791150 0.257944 0.145059
0.776686 0.456155 0.062978
0.802557 0.592152 0.069214
0.827477 0.627696 0.075992
0.783257 0.704490 0.110473
0.462658 0.837114 0.545034
0.349571 0.880272 0.852370
0.766394 0.224066 0.597382
0.785592 0.276933 0.576585
0.861681 0.414211 0.257444
0.865994 0.630160 0.086853
0.897761 0.701653 0.113343
0.888465 0.760901 0.143289
0.781248 0.819604 0.375891
0.530463 0.863854 0.835064
0.759383 0.277297 0.665904
0.779854 0.349352 0.685215
0.844444 0.468542 0.548384
0.893980 0.604014 0.358141
0.935162 0.722962 0.201718
0.946970 0.788847 0.208514
0.904562 0.825517 0.340215
0.671387 0.882033 0.826829
0.777473 0.343581 0.707796
0.791771 0.433999 0.754993
0.816806 0.543556 0.767347
0.881340 0.656654 0.599751
0.910512 0.739285 0.580242
0.956964 0.815400 0.372848
0.939900 0.875084 0.417236
0.878243 0.900255 0.649436
0.777274 0.426421 0.753471
0.797300 0.536497 0.783824
0.824947 0.635841 0.808718
0.850154 0.713150 0.812766
0.882493 0.783588 0.771605
0.902233 0.831732 0.763528
0.952796 0.888550 0.551601
0.946232 0.924072 0.628808
