其他预设/【236】赛博朋克风调色预设/【后期菌】视频调色预设/CUBE/Glitch 08.cube
# LUT by SparkleStock. Enhanced with VOXCOLOR algorithms.
LUT_3D_SIZE 32
0.031281 0.031281 0.046921
0.043389 0.035317 0.059029
0.055245 0.039227 0.071138
0.063318 0.041245 0.083247
0.069624 0.047299 0.106959
0.063570 0.081607 0.211900
0.056759 0.109482 0.282408
0.046669 0.109482 0.203702
0.040614 0.113518 0.149213
0.046669 0.129663 0.167376
0.052092 0.145808 0.188692
0.056128 0.161953 0.216946
0.060921 0.178854 0.242172
0.066976 0.197017 0.262353
0.073913 0.216946 0.291363
0.081985 0.239145 0.331725
0.087031 0.261344 0.365024
0.089049 0.283543 0.391259
0.092202 0.305742 0.424305
0.096238 0.327941 0.462649
0.101536 0.351402 0.500993
0.107590 0.375619 0.539337
0.110869 0.402611 0.573519
0.112887 0.430864 0.605808
0.114906 0.460631 0.632044
0.116924 0.490903 0.656261
0.122221 0.524454 0.683757
0.128275 0.558761 0.712011
0.134330 0.586006 0.731435
0.140384 0.612241 0.749598
0.144546 0.632800 0.760193
0.148583 0.652981 0.770283
0.047425 0.037335 0.065084
0.055368 0.039288 0.071984
0.063513 0.041245 0.079406
0.074710 0.043263 0.094639
0.083881 0.048146 0.120695
0.078869 0.073079 0.222512
0.072123 0.096267 0.291847
0.057866 0.111891 0.220433
0.048166 0.127384 0.171152
0.052137 0.142488 0.188273
0.056779 0.159218 0.209524
0.062899 0.179530 0.239861
0.068994 0.199035 0.268342
0.075048 0.217198 0.293731
0.081074 0.237127 0.323848
0.087063 0.259326 0.360044
0.091588 0.283087 0.394905
0.094647 0.308411 0.428431
0.098256 0.329634 0.460566
0.102292 0.347667 0.491619
0.106288 0.371518 0.526578
0.110259 0.398860 0.563880
0.113604 0.428976 0.597736
0.116663 0.460355 0.630026
0.118942 0.488559 0.653917
0.120960 0.515706 0.675010
0.127104 0.546132 0.699381
0.134200 0.577315 0.724510
0.140384 0.605080 0.742632
0.146438 0.632357 0.759754
0.150601 0.651028 0.772236
0.154637 0.669126 0.784410
0.063822 0.043263 0.083247
0.067924 0.043263 0.085395
0.072643 0.043389 0.088532
0.086640 0.045407 0.106500
0.098342 0.049199 0.134672
0.093980 0.065409 0.234275
0.087006 0.084304 0.303130
0.068713 0.114836 0.238746
0.055514 0.141267 0.194315
0.057597 0.155394 0.209744
0.061552 0.172674 0.230462
0.069624 0.196891 0.262817
0.076916 0.218862 0.294341
0.082905 0.237090 0.324483
0.088011 0.257112 0.355649
0.091982 0.279442 0.388134
0.095986 0.304570 0.424460
0.100022 0.332498 0.464627
0.104058 0.352809 0.495968
0.108094 0.367197 0.520446
0.110869 0.391674 0.552288
0.112887 0.422206 0.588549
0.116293 0.455200 0.621855
0.120329 0.489312 0.653820
0.122901 0.516052 0.675384
0.124984 0.540334 0.693482
0.131933 0.567896 0.714912
0.140006 0.596214 0.737111
0.146369 0.624248 0.754013
0.152489 0.652241 0.770157
0.156594 0.669004 0.784288
0.160565 0.685019 0.798285
0.084003 0.047299 0.101410
0.089146 0.047299 0.105641
0.094712 0.047425 0.110536
0.106626 0.049443 0.125379
0.115854 0.053366 0.152249
0.106284 0.070617 0.263309
0.094688 0.091140 0.342060
0.074312 0.125838 0.280801
0.059811 0.155394 0.235849
0.062935 0.169520 0.239820
0.067606 0.186800 0.252987
0.075679 0.211018 0.286383
0.082579 0.233379 0.317777
0.087527 0.252649 0.345836
0.091592 0.274169 0.377198
0.094521 0.298581 0.412807
0.098004 0.322147 0.449133
0.102040 0.344867 0.486175
0.106076 0.365244 0.518493
0.110113 0.383797 0.547137
0.112887 0.412441 0.579890
0.114906 0.447139 0.615110
0.118311 0.479287 0.644510
0.122347 0.510274 0.671266
0.125700 0.537014 0.690748
0.128825 0.562338 0.707804
0.135969 0.590941 0.729039
0.144042 0.620301 0.751238
0.151317 0.644820 0.768139
0.158478 0.668646 0.784284
0.161672 0.683196 0.796462
0.164601 0.697127 0.808375
0.106959 0.051083 0.120834
0.113795 0.051213 0.127148
0.120874 0.051453 0.133809
0.131616 0.053341 0.145657
0.139542 0.057150 0.170346
0.127759 0.074401 0.284922
0.113119 0.095681 0.369190
0.086103 0.134415 0.322123
0.066557 0.167421 0.284235
0.069421 0.183240 0.273884
0.073832 0.201684 0.277326
0.081644 0.225901 0.311113
0.088040 0.248751 0.342166
0.092076 0.269323 0.368661
0.095286 0.292087 0.400284
0.097434 0.317672 0.438497
0.100461 0.339741 0.474758
0.104367 0.358294 0.509066
0.108273 0.379118 0.542018
0.112179 0.401708 0.573917
0.114987 0.433818 0.606996
0.117135 0.471641 0.640783
0.120581 0.503154 0.666604
0.124618 0.531798 0.688803
0.128752 0.558342 0.706363
0.132918 0.584187 0.722378
0.140258 0.613523 0.743206
0.148330 0.643664 0.765145
0.156175 0.664748 0.781900
0.163987 0.684539 0.797914
0.166733 0.697494 0.808375
0.169142 0.709993 0.818466
0.149339 0.053101 0.149087
0.162424 0.054273 0.157485
0.175689 0.055425 0.165968
0.191638 0.056271 0.175733
0.206465 0.058256 0.192090
0.213430 0.068217 0.254586
0.206798 0.084158 0.313725
0.141243 0.126017 0.358319
0.090448 0.164752 0.380583
0.083938 0.194112 0.335859
0.081253 0.221865 0.314368
0.086982 0.246082 0.343988
0.092076 0.270104 0.373218
0.096112 0.293800 0.401797
0.099778 0.316044 0.434136
0.102968 0.336420 0.471308
0.105995 0.357448 0.507048
0.108859 0.379126 0.541355
0.111724 0.403075 0.572550
0.114588 0.428789 0.601325
0.117656 0.459468 0.630628
0.120846 0.493124 0.660248
0.124618 0.525483 0.684766
0.128654 0.557252 0.706966
0.133569 0.582234 0.723745
0.138777 0.604954 0.738718
0.146312 0.632857 0.757658
0.154385 0.661957 0.777514
0.160406 0.680177 0.793097
0.166135 0.696843 0.808070
0.171681 0.712532 0.818466
0.177214 0.728156 0.828556
0.198531 0.055498 0.176962
0.216693 0.057321 0.186662
0.235105 0.059054 0.196224
0.257239 0.059444 0.203710
0.279356 0.060242 0.212588
0.301360 0.063888 0.231207
0.302430 0.074369 0.268403
0.212787 0.114470 0.386104
0.138460 0.155565 0.459683
0.110076 0.199637 0.400898
0.091213 0.238115 0.365813
0.093296 0.264286 0.382869
0.096112 0.290407 0.404808
0.100148 0.316447 0.434884
0.104014 0.338243 0.467353
0.107659 0.354583 0.502897
0.110491 0.374960 0.537531
0.112509 0.399372 0.571252
0.114637 0.426494 0.600763
0.116850 0.455724 0.626998
0.120203 0.485361 0.653112
0.124239 0.515242 0.679152
0.128410 0.547898 0.702417
0.132641 0.581815 0.724421
0.138240 0.605137 0.740517
0.144294 0.624927 0.754643
0.152147 0.651277 0.772049
0.160415 0.679139 0.790212
0.165321 0.695496 0.804673
0.169748 0.710208 0.818604
0.177044 0.727423 0.828568
0.184530 0.744805 0.838268
0.277236 0.059534 0.203197
0.295399 0.060315 0.210814
0.314461 0.061202 0.218227
0.347011 0.063676 0.222589
0.378113 0.066036 0.227691
0.399075 0.067598 0.237977
0.406525 0.072090 0.267036
0.355422 0.089277 0.377446
0.290989 0.118132 0.464045
0.186568 0.181995 0.479213
0.112175 0.237334 0.479673
0.103843 0.273920 0.447774
0.100148 0.306161 0.438725
0.104184 0.331160 0.467760
0.107138 0.352826 0.497820
0.108701 0.370207 0.529198
0.110491 0.391625 0.560185
0.112509 0.417079 0.590782
0.115223 0.447587 0.618926
0.118478 0.482025 0.645161
0.122221 0.512313 0.670624
0.126257 0.540110 0.695622
0.131144 0.570683 0.717845
0.136417 0.602517 0.738808
0.142276 0.623756 0.754643
0.148330 0.641463 0.768770
0.157029 0.665729 0.786176
0.166339 0.691508 0.804339
0.173199 0.710339 0.817888
0.179709 0.728176 0.830778
0.184205 0.741680 0.838724
0.188566 0.754895 0.846341
0.359474 0.063570 0.225901
0.380241 0.063570 0.231955
0.402070 0.063790 0.237806
0.439828 0.067305 0.240606
0.475551 0.070414 0.243852
0.497034 0.070674 0.250232
0.509985 0.070788 0.274799
0.485963 0.070267 0.378178
0.424851 0.090204 0.473240
0.252466 0.171514 0.543353
0.128988 0.241208 0.571171
0.113103 0.285345 0.505941
0.104494 0.322111 0.474791
0.108009 0.346588 0.500440
0.109986 0.368531 0.527115
0.109986 0.387215 0.555108
0.111126 0.410586 0.583361
0.113404 0.438644 0.611875
0.116378 0.471169 0.638375
0.119894 0.507170 0.663308
0.124060 0.537067 0.687305
0.128617 0.563302 0.710741
0.134383 0.592133 0.732298
0.140697 0.622144 0.752999
0.146817 0.641756 0.768379
0.152871 0.657901 0.781985
0.161570 0.680181 0.798871
0.170879 0.703877 0.816513
0.179334 0.724270 0.829313
0.187667 0.744191 0.841421
0.190568 0.755628 0.848098
0.193107 0.766500 0.854413
0.452307 0.067606 0.238010
0.483490 0.067606 0.244064
0.514432 0.067696 0.250110
0.541774 0.069128 0.256034
0.569035 0.070544 0.263187
0.595726 0.071846 0.278941
0.611541 0.072416 0.309953
0.580228 0.069812 0.407082
0.502710 0.090790 0.496937
0.286578 0.182516 0.564966
0.133349 0.259045 0.595584
0.118506 0.302141 0.543894
0.109767 0.338646 0.517301
0.111199 0.364165 0.532534
0.112005 0.387605 0.552894
0.112005 0.408372 0.579846
0.113665 0.436430 0.608099
0.116985 0.471780 0.637654
0.119243 0.502222 0.661680
0.120675 0.528848 0.681406
0.125362 0.555230 0.701497
0.132002 0.581465 0.721808
0.139135 0.609580 0.743820
0.146491 0.638550 0.766605
0.152871 0.657901 0.780944
0.158925 0.674045 0.792466
0.165085 0.694633 0.807268
0.171270 0.716246 0.822827
0.180246 0.735467 0.835367
0.189620 0.754346 0.847476
0.194539 0.768648 0.855129
0.199161 0.782644 0.862485
0.549554 0.070381 0.255163
0.584968 0.070707 0.262520
0.619349 0.070992 0.269901
0.638228 0.070666 0.277647
0.658165 0.070593 0.286957
0.685507 0.072285 0.307203
0.702315 0.073087 0.339045
0.673476 0.070027 0.421136
0.589318 0.090094 0.501795
0.339204 0.179542 0.578157
0.158970 0.258146 0.620362
0.132474 0.312895 0.587422
0.115426 0.356951 0.567298
0.114124 0.383187 0.568535
0.113534 0.407941 0.579996
0.113860 0.430791 0.604604
0.115878 0.461909 0.631555
0.119589 0.501294 0.660850
0.121944 0.530427 0.683115
0.123246 0.551584 0.699910
0.128373 0.575508 0.717154
0.135795 0.601093 0.734666
0.143663 0.627841 0.755892
0.151736 0.655118 0.778808
0.158051 0.674045 0.792592
0.163779 0.690190 0.803334
0.168926 0.709350 0.816297
0.173939 0.729205 0.829773
0.182825 0.747580 0.841767
0.192265 0.765743 0.853550
0.199141 0.781098 0.861550
0.205846 0.796267 0.869297
0.656513 0.070381 0.283417
0.682553 0.071748 0.294940
0.707885 0.072945 0.306161
0.722598 0.071577 0.312867
0.737717 0.070463 0.320483
0.755685 0.071114 0.334480
0.769368 0.071655 0.354799
0.764486 0.071720 0.402517
0.695170 0.086579 0.465209
0.432557 0.145820 0.572819
0.231361 0.216026 0.645947
0.165285 0.310356 0.643212
0.121936 0.379151 0.633765
0.116468 0.405386 0.613128
0.113990 0.431051 0.610007
0.115357 0.455985 0.629407
0.117375 0.486582 0.652192
0.120044 0.522842 0.678362
0.124288 0.552365 0.700431
0.129756 0.576648 0.719310
0.135144 0.600442 0.736033
0.140482 0.623943 0.751461
0.147700 0.647891 0.769173
0.155772 0.672044 0.787922
0.161306 0.690190 0.802227
0.165993 0.706335 0.815052
0.173483 0.724648 0.826713
0.181621 0.743462 0.838105
0.189075 0.761707 0.848928
0.196431 0.779869 0.859670
0.205130 0.792295 0.866627
0.213919 0.804339 0.873333
0.742282 0.070381 0.312427
0.760510 0.072399 0.325773
0.778283 0.074190 0.338760
0.789219 0.072562 0.346377
0.800205 0.071187 0.354449
0.811532 0.071577 0.365711
0.822262 0.072127 0.379195
0.830399 0.073364 0.402306
0.781981 0.082429 0.447908
0.563896 0.114979 0.560987
0.372400 0.173711 0.647924
0.239401 0.290045 0.677349
0.148562 0.377572 0.685072
0.127991 0.417088 0.656623
0.116789 0.451818 0.644950
0.117636 0.480397 0.654845
0.119458 0.511255 0.671706
0.122258 0.544391 0.695532
0.127584 0.573205 0.716649
0.134875 0.598660 0.735658
0.140376 0.622323 0.751860
0.144803 0.644913 0.766377
0.151736 0.666697 0.782014
0.159808 0.688115 0.798158
0.165146 0.705285 0.811911
0.169573 0.721039 0.824866
0.178602 0.739703 0.836128
0.188692 0.759037 0.847000
0.195935 0.775980 0.856504
0.202770 0.792580 0.865814
0.212657 0.802711 0.871339
0.222748 0.812411 0.876612
0.792735 0.070381 0.342699
0.805755 0.072399 0.353961
0.818449 0.074255 0.365256
0.826261 0.073669 0.377039
0.834252 0.073335 0.389147
0.843497 0.074767 0.403535
0.851557 0.075772 0.417995
0.854486 0.074926 0.432773
0.837056 0.077221 0.462751
0.758545 0.088939 0.538332
0.627853 0.131071 0.610557
0.382361 0.240113 0.675396
0.208715 0.336364 0.711112
0.154812 0.411294 0.698287
0.123495 0.468679 0.688111
0.121216 0.503508 0.681341
0.122518 0.535928 0.689348
0.127401 0.565939 0.712133
0.132466 0.592215 0.731036
0.137674 0.615586 0.746921
0.143045 0.639119 0.762602
0.148513 0.662750 0.778161
0.155772 0.683428 0.794122
0.163844 0.702763 0.810267
0.169964 0.718631 0.821676
0.175432 0.733343 0.831506
0.184656 0.754350 0.843875
0.194747 0.776810 0.856830
0.203812 0.790497 0.864772
0.212731 0.802931 0.871998
0.222748 0.811825 0.875440
0.232838 0.820484 0.878630
0.830826 0.071264 0.377385
0.839550 0.072827 0.388387
0.848135 0.074291 0.399698
0.854645 0.074291 0.415647
0.861236 0.074430 0.431564
0.868397 0.075536 0.447253
0.874387 0.076228 0.462405
0.875298 0.075121 0.475230
0.875640 0.074633 0.496876
0.874273 0.076000 0.544985
0.789089 0.105320 0.602553
0.519510 0.196134 0.680934
0.311988 0.292734 0.730629
0.207893 0.398978 0.732517
0.143786 0.478107 0.726715
0.131091 0.522375 0.711026
0.127315 0.558180 0.711775
0.132458 0.585522 0.728961
0.137491 0.609971 0.744939
0.142439 0.632170 0.759977
0.148078 0.655345 0.775422
0.154132 0.679107 0.791111
0.161261 0.699019 0.806174
0.168878 0.717182 0.820952
0.175322 0.732660 0.831042
0.181377 0.747242 0.839570
0.191451 0.768542 0.851907
0.202453 0.791392 0.865122
0.212657 0.803078 0.871274
0.222748 0.813168 0.876417
0.232411 0.820512 0.879057
0.242046 0.827673 0.881531
0.853026 0.073282 0.417747
0.858624 0.073803 0.430832
0.864345 0.074291 0.444356
0.871896 0.074291 0.464472
0.879139 0.074169 0.483905
0.884217 0.073193 0.498552
0.888904 0.072582 0.514030
0.891898 0.073559 0.533104
0.893021 0.075414 0.555791
0.888529 0.079906 0.589318
0.829191 0.101283 0.632304
0.649189 0.159808 0.696102
0.470701 0.245993 0.741762
0.294736 0.378276 0.757190
0.181544 0.477976 0.759461
0.149059 0.535785 0.744813
0.134346 0.577319 0.740354
0.137406 0.602578 0.746083
0.142699 0.626115 0.758220
0.149730 0.648315 0.775341
0.156150 0.670839 0.790916
0.162205 0.693559 0.805564
0.168617 0.713146 0.818152
0.175192 0.731309 0.829805
0.181377 0.747568 0.839896
0.187431 0.763192 0.849465
0.199198 0.782148 0.860305
0.212283 0.801873 0.871437
0.222748 0.813168 0.875505
0.232838 0.823259 0.878565
0.241525 0.828650 0.882052
0.250118 0.833727 0.885567
0.873207 0.073282 0.467190
0.877764 0.074324 0.483400
0.882508 0.075268 0.499821
0.890059 0.074747 0.519417
0.897172 0.074234 0.538393
0.901208 0.073779 0.553041
0.905049 0.073689 0.568323
0.908043 0.075186 0.586356
0.908645 0.078344 0.605918
0.902070 0.086481 0.630070
0.856761 0.105482 0.663357
0.726235 0.148383 0.716739
0.563632 0.231833 0.757451
0.347565 0.382865 0.777046
0.206802 0.496074 0.783027
0.162860 0.560653 0.771504
0.141898 0.603229 0.764180
0.143916 0.623800 0.761056
0.148753 0.644702 0.769612
0.155784 0.665859 0.787254
0.161879 0.687017 0.802699
0.167413 0.708174 0.816826
0.174020 0.726915 0.828536
0.181116 0.744557 0.839147
0.188212 0.761466 0.848977
0.195308 0.778132 0.858547
0.207693 0.794745 0.867270
0.221299 0.811345 0.875798
0.231829 0.821338 0.879086
0.241920 0.830387 0.881625
0.251095 0.835713 0.885567
0.260209 0.840791 0.889604
0.891369 0.071264 0.525715
0.896968 0.074389 0.546091
0.902624 0.077221 0.566093
0.909134 0.075658 0.580480
0.915334 0.074625 0.595030
0.919371 0.077294 0.610719
0.922821 0.079548 0.625285
0.923732 0.080004 0.634985
0.922512 0.083422 0.647257
0.914895 0.095725 0.667242
0.871799 0.117916 0.695711
0.750648 0.161859 0.742844
0.590778 0.250257 0.777697
0.366379 0.412746 0.792084
0.219562 0.532400 0.797414
0.172495 0.596979 0.791099
0.149970 0.635909 0.783255
0.151988 0.649189 0.773880
0.155654 0.665729 0.779117
0.160602 0.684803 0.795717
0.165264 0.703877 0.810772
0.169756 0.722952 0.824898
0.177471 0.740325 0.837324
0.186650 0.756926 0.848977
0.195829 0.774356 0.858286
0.205008 0.792063 0.866815
0.216938 0.806333 0.872804
0.229502 0.819808 0.878207
0.239902 0.827588 0.882015
0.249992 0.834553 0.885596
0.261120 0.841702 0.889604
0.272317 0.848863 0.893640
0.907262 0.072652 0.578564
0.912145 0.076688 0.597834
0.916990 0.080382 0.616473
0.921287 0.078950 0.625652
0.925478 0.078201 0.635408
0.928928 0.082238 0.649210
0.931841 0.085956 0.661998
0.932427 0.088300 0.670396
0.931288 0.092711 0.680356
0.924973 0.103322 0.695003
0.893758 0.121745 0.716019
0.807761 0.157355 0.751042
0.667397 0.238909 0.780329
0.436422 0.397037 0.800055
0.276337 0.520645 0.810409
0.207396 0.599872 0.808717
0.169541 0.649804 0.802988
0.162770 0.670440 0.793223
0.161749 0.687708 0.795396
0.165199 0.702356 0.806853
0.170114 0.719567 0.820345
0.175908 0.738315 0.835058
0.184656 0.755274 0.846772
0.194747 0.771419 0.857123
0.204398 0.787319 0.864886
0.213902 0.803139 0.871787
0.225523 0.815467 0.876836
0.237631 0.826990 0.881458
0.248999 0.834240 0.885055
0.260262 0.840880 0.888505
0.273416 0.847215 0.891955
0.286696 0.853530 0.895406
0.921389 0.076688 0.626998
0.924188 0.080724 0.641060
0.926886 0.084484 0.654491
0.928057 0.084093 0.658462
0.929384 0.084256 0.663141
0.931792 0.088292 0.672776
0.934055 0.092792 0.682960
0.935682 0.099302 0.695524
0.936105 0.105275 0.707047
0.932915 0.109637 0.715445
0.921100 0.118881 0.726955
0.890308 0.138866 0.745314
0.782494 0.204406 0.769262
0.546311 0.345868 0.802528
0.367347 0.471495 0.822323
0.261950 0.576762 0.824797
0.198055 0.649088 0.823234
0.175660 0.688473 0.817636
0.167217 0.710428 0.816944
0.169626 0.718826 0.820069
0.176104 0.734344 0.831087
0.185022 0.754135 0.846841
0.194747 0.771419 0.856732
0.204837 0.787563 0.863958
0.213707 0.800339 0.869378
0.222170 0.811992 0.874195
0.233595 0.822693 0.879700
0.245704 0.833174 0.885364
0.258895 0.841206 0.888180
0.272240 0.848888 0.890588
0.287478 0.852358 0.892997
0.302841 0.855548 0.895406
0.929209 0.085769 0.662820
0.930576 0.089154 0.672324
0.931898 0.092409 0.681564
0.932549 0.093711 0.686837
0.933290 0.095274 0.692135
0.934657 0.098659 0.697603
0.936024 0.102801 0.704085
0.937391 0.110222 0.714957
0.937912 0.116619 0.724624
0.935894 0.119939 0.730678
0.932574 0.125619 0.737811
0.926389 0.136490 0.747315
0.859833 0.181051 0.765438
0.692656 0.281761 0.797922
0.537982 0.391300 0.821379
0.399384 0.512190 0.833227
0.294476 0.610491 0.838435
0.223256 0.686203 0.837003
0.188473 0.726760 0.836742
0.182028 0.739975 0.837393
0.184290 0.754289 0.844880
0.191776 0.769262 0.856468
0.201501 0.784593 0.864251
0.212242 0.800087 0.870306
0.221958 0.810552 0.873870
0.231333 0.819340 0.876604
0.243458 0.828658 0.882036
0.256217 0.838097 0.888090
0.271312 0.845771 0.890613
0.286741 0.853192 0.892631
0.303451 0.856159 0.894039
0.320247 0.858828 0.895406
0.933245 0.097878 0.691073
0.933571 0.100221 0.696411
0.933981 0.102630 0.702071
0.935674 0.106015 0.712552
0.937196 0.109270 0.721886
0.937521 0.111614 0.723188
0.937847 0.114714 0.725308
0.938172 0.121094 0.730971
0.937912 0.127230 0.736733
0.935894 0.132633 0.742787
0.934527 0.138118 0.748617
0.934592 0.143781 0.753956
0.914517 0.164386 0.765958
0.860874 0.209891 0.789069
0.756393 0.292478 0.812721
0.586547 0.422743 0.837068
0.431641 0.549167 0.850609
0.291676 0.671751 0.853343
0.219200 0.739259 0.855491
0.199214 0.763932 0.857184
0.193795 0.777335 0.860504
0.197115 0.783975 0.864801
0.206253 0.795986 0.870306
0.218036 0.810438 0.876360
0.229575 0.819080 0.878362
0.241033 0.825785 0.879013
0.254395 0.833866 0.884054
0.268196 0.842264 0.890108
0.285244 0.848896 0.892631
0.302756 0.855276 0.894649
0.320573 0.859153 0.895080
0.338410 0.862864 0.895406
0.935894 0.108599 0.715164
0.935894 0.113481 0.719200
0.935975 0.118222 0.723517
0.937277 0.120826 0.732045
0.938416 0.123625 0.739597
0.938416 0.127791 0.740313
0.938416 0.132446 0.741920
0.938416 0.139216 0.747389
0.937912 0.145629 0.752824
0.935894 0.150967 0.758163
0.934913 0.156122 0.763989
0.936215 0.160874 0.770890
0.927264 0.178199 0.782233
0.901224 0.216478 0.800982
0.803297 0.304741 0.821696
0.612945 0.457270 0.844937
0.447070 0.589261 0.858933
0.305673 0.700712 0.863686
0.232606 0.762545 0.866497
0.212686 0.785785 0.867799
0.207372 0.797023 0.869549
0.210822 0.801060 0.871567
0.218748 0.809571 0.875868
0.228708 0.820118 0.881206
0.239743 0.826758 0.883077
0.251135 0.832096 0.883793
0.265913 0.839656 0.887683
0.281472 0.847728 0.892305
0.299309 0.853408 0.894649
0.317472 0.858746 0.896667
0.336978 0.862864 0.896793
0.356573 0.866900 0.896793
0.937912 0.118689 0.737363
0.937912 0.127738 0.741399
0.937928 0.136254 0.745391
0.938189 0.136775 0.748711
0.938416 0.138142 0.751836
0.938416 0.145433 0.753593
0.938416 0.152822 0.756438
0.938416 0.160634 0.763989
0.937912 0.167567 0.770727
0.935894 0.171864 0.775024
0.934588 0.176628 0.781436
0.934848 0.182422 0.792503
0.920949 0.205867 0.805669
0.883452 0.258728 0.822335
0.772245 0.367498 0.838687
0.566268 0.548150 0.854637
0.407164 0.675453 0.865508
0.294931 0.749407 0.871302
0.238140 0.790733 0.873984
0.224469 0.806683 0.874244
0.222801 0.815186 0.875603
0.228334 0.819222 0.877621
0.234763 0.824154 0.881206
0.241598 0.829492 0.885502
0.251070 0.834049 0.887895
0.261421 0.838346 0.889652
0.277696 0.845710 0.892045
0.295338 0.853782 0.894584
0.313436 0.858551 0.896667
0.331599 0.862848 0.898685
0.353058 0.866900 0.898811
0.374736 0.870936 0.898811
0.936903 0.136348 0.748967
0.937684 0.144095 0.754566
0.938416 0.151602 0.760038
0.938416 0.155508 0.763619
0.938416 0.159641 0.767004
0.938416 0.165370 0.769022
0.938416 0.171831 0.771882
0.938416 0.181466 0.778392
0.937912 0.189701 0.783893
0.935894 0.193738 0.786367
0.934506 0.198893 0.790631
0.934506 0.206509 0.798834
0.925230 0.225136 0.810015
0.900492 0.262113 0.826160
0.815943 0.346568 0.842447
0.654495 0.492066 0.858917
0.511926 0.618979 0.870570
0.388236 0.727305 0.877406
0.310173 0.787917 0.880835
0.267598 0.811419 0.881617
0.251022 0.823242 0.882683
0.250045 0.828060 0.883920
0.252828 0.833414 0.886544
0.257320 0.839013 0.889799
0.265425 0.842854 0.891540
0.274734 0.846109 0.892777
0.291237 0.852008 0.894649
0.309400 0.858518 0.896667
0.330297 0.862864 0.898002
0.351585 0.866900 0.899238
0.372262 0.870204 0.899316
0.392899 0.873459 0.899316
0.934885 0.156529 0.757040
0.936708 0.161151 0.764721
0.938416 0.166054 0.772277
0.938416 0.175168 0.777941
0.938416 0.183468 0.783149
0.938416 0.186072 0.785167
0.938416 0.190385 0.787637
0.938416 0.202103 0.792063
0.937912 0.211900 0.795481
0.935894 0.215937 0.795872
0.934506 0.221743 0.797076
0.934506 0.231443 0.800071
0.933042 0.241606 0.807997
0.929136 0.252543 0.824142
0.884558 0.297743 0.841796
0.787690 0.386995 0.861391
0.664911 0.514949 0.875127
0.516223 0.681605 0.883004
0.404373 0.774767 0.887476
0.321175 0.810768 0.889298
0.283506 0.827930 0.890104
0.273156 0.833789 0.890299
0.271577 0.840901 0.891882
0.273986 0.848582 0.894096
0.280788 0.852163 0.894795
0.289056 0.854376 0.894991
0.305364 0.858388 0.896667
0.323527 0.862815 0.898685
0.348069 0.866900 0.899108
0.373523 0.870936 0.899304
0.392508 0.873264 0.899316
0.411062 0.875477 0.899316
0.936146 0.178350 0.773311
0.937318 0.185771 0.777998
0.938364 0.193201 0.782665
0.937517 0.200752 0.787026
0.936777 0.207929 0.791095
0.936777 0.212486 0.793113
0.936777 0.218459 0.795192
0.936777 0.230568 0.797536
0.936484 0.240870 0.799294
0.935312 0.245752 0.799294
0.934506 0.252262 0.799924
0.934506 0.262353 0.801942
0.934506 0.270930 0.807671
0.934506 0.276984 0.819585
0.912604 0.301124 0.834745
0.862542 0.348517 0.854079
0.776057 0.442391 0.869052
0.653148 0.582747 0.879664
0.529251 0.694759 0.887345
0.404584 0.784728 0.892749
0.338101 0.827010 0.894775
0.306527 0.840681 0.894775
0.297466 0.849339 0.895581
0.298638 0.855719 0.896752
0.307524 0.858828 0.897045
0.318982 0.860846 0.897045
0.335200 0.864504 0.897997
0.352516 0.868540 0.899169
0.372453 0.871095 0.899316
0.392765 0.873438 0.899316
0.416616 0.874684 0.899316
0.440703 0.875855 0.899316
0.938164 0.200549 0.791474
0.938294 0.212136 0.791994
0.938298 0.223277 0.792625
0.936411 0.227704 0.794903
0.934759 0.232537 0.797149
0.934759 0.240219 0.799168
0.934759 0.248731 0.800856
0.934759 0.260839 0.801116
0.934726 0.271402 0.801312
0.934596 0.277326 0.801312
0.934506 0.284552 0.801942
0.934506 0.294643 0.803961
0.934506 0.303219 0.807736
0.934506 0.309274 0.814442
0.931288 0.316553 0.826217
0.923932 0.325406 0.844510
0.877548 0.377096 0.860524
0.792137 0.471621 0.874260
0.661208 0.599323 0.885653
0.494878 0.752829 0.895223
0.397798 0.824797 0.898811
0.342267 0.847842 0.898811
