其他预设/【236】赛博朋克风调色预设/【后期菌】视频调色预设/CUBE/Glitch 10_S.cube
# LUT by SparkleStock. Enhanced with VOXCOLOR algorithms.
LUT_3D_SIZE 32
0.003910 0.007820 0.015640
0.011982 0.011856 0.021695
0.020181 0.015640 0.027875
0.030271 0.015640 0.035947
0.036830 0.020181 0.064705
0.018667 0.056507 0.238262
0.003532 0.083751 0.352789
0.001514 0.071643 0.211522
0.000000 0.067606 0.111626
0.000000 0.087787 0.135843
0.000631 0.107338 0.162583
0.002649 0.125501 0.194873
0.004667 0.145934 0.223378
0.006685 0.170151 0.245578
0.009586 0.196134 0.273074
0.013622 0.224387 0.307382
0.017658 0.251632 0.335635
0.021695 0.277867 0.357834
0.023460 0.304102 0.378898
0.023460 0.330338 0.399079
0.020938 0.361618 0.426828
0.016902 0.395926 0.459118
0.017028 0.426071 0.481695
0.019046 0.454325 0.499858
0.013496 0.484092 0.527102
0.005424 0.514363 0.557374
0.003910 0.542995 0.584366
0.003910 0.571248 0.610601
0.003910 0.590673 0.629773
0.003910 0.608835 0.647936
0.003910 0.626998 0.662315
0.003910 0.645161 0.676442
0.016019 0.011856 0.023713
0.023049 0.013809 0.028725
0.030467 0.015705 0.034125
0.043682 0.016747 0.045322
0.052975 0.021027 0.077465
0.034812 0.047979 0.256230
0.018114 0.071122 0.375965
0.007763 0.077762 0.239906
0.000521 0.086746 0.142353
0.002604 0.102760 0.160321
0.005969 0.121399 0.182764
0.012153 0.145812 0.215054
0.017947 0.168979 0.243169
0.023090 0.190072 0.264326
0.029116 0.212474 0.288047
0.036277 0.236561 0.315064
0.041876 0.262764 0.339151
0.045912 0.291082 0.360308
0.048849 0.314714 0.377987
0.050933 0.334699 0.392960
0.050493 0.362985 0.416803
0.048540 0.396251 0.445968
0.043589 0.428936 0.475446
0.037274 0.461356 0.505066
0.028078 0.492164 0.532831
0.017923 0.522436 0.559978
0.010941 0.553606 0.591462
0.004691 0.584984 0.623947
0.003910 0.605711 0.642989
0.003910 0.624915 0.660110
0.003910 0.642167 0.675400
0.003910 0.659288 0.690569
0.028884 0.015893 0.032416
0.035003 0.015893 0.036452
0.041749 0.016015 0.041115
0.057894 0.017968 0.055176
0.069637 0.021963 0.090615
0.050562 0.040256 0.275694
0.031683 0.059746 0.401464
0.013651 0.084418 0.270222
0.001184 0.105950 0.174525
0.005416 0.118059 0.185462
0.011478 0.135823 0.203010
0.021568 0.166029 0.235105
0.030975 0.191671 0.262609
0.039243 0.209703 0.282465
0.048280 0.228704 0.302406
0.058305 0.248951 0.322457
0.065401 0.274047 0.342410
0.069567 0.303993 0.362265
0.073697 0.325150 0.376738
0.077799 0.339472 0.387024
0.079255 0.364861 0.407156
0.079125 0.396890 0.433196
0.069506 0.431739 0.468814
0.055575 0.467870 0.508785
0.042962 0.499655 0.537282
0.030788 0.529991 0.561955
0.018562 0.563713 0.597895
0.006323 0.598216 0.636434
0.004394 0.620472 0.655834
0.003939 0.640979 0.672499
0.003910 0.657396 0.688616
0.003910 0.673541 0.704695
0.053101 0.019929 0.050579
0.060262 0.019929 0.054615
0.067985 0.019986 0.059213
0.084130 0.020897 0.072233
0.094049 0.024242 0.109624
0.060392 0.044618 0.317619
0.030056 0.067167 0.461811
0.014106 0.099131 0.329528
0.003983 0.126131 0.228363
0.011340 0.138240 0.220551
0.019550 0.155678 0.224233
0.029641 0.184843 0.253202
0.040220 0.209052 0.276801
0.051612 0.225002 0.291449
0.061951 0.243287 0.307549
0.070935 0.264575 0.325516
0.078551 0.287587 0.341824
0.084801 0.312325 0.356471
0.090428 0.332962 0.370423
0.095571 0.350409 0.383834
0.096116 0.374366 0.403185
0.093903 0.402228 0.426100
0.085781 0.433627 0.456445
0.074975 0.466633 0.490166
0.062362 0.498418 0.522570
0.049146 0.529796 0.554534
0.035032 0.566252 0.594379
0.020710 0.603880 0.636043
0.012141 0.631083 0.663125
0.004394 0.656798 0.688123
0.003910 0.673541 0.703784
0.003910 0.689686 0.718822
0.081102 0.023713 0.069498
0.090347 0.023713 0.073795
0.100055 0.023721 0.078563
0.116720 0.023851 0.090412
0.126135 0.026593 0.127690
0.084797 0.047621 0.342975
0.046681 0.072237 0.496729
0.022529 0.112403 0.383846
0.006970 0.145751 0.291371
0.017190 0.158641 0.260123
0.027411 0.176209 0.246391
0.037632 0.204072 0.271194
0.049268 0.226930 0.290480
0.063265 0.241448 0.300571
0.074841 0.259041 0.312854
0.083304 0.280589 0.327957
0.091767 0.301389 0.340685
0.100230 0.321439 0.351035
0.107264 0.341417 0.364352
0.113189 0.361338 0.379976
0.112806 0.383781 0.398611
0.108640 0.407738 0.419053
0.101967 0.436125 0.444954
0.094155 0.466527 0.473338
0.081314 0.498345 0.509582
0.066797 0.530634 0.548447
0.051063 0.569165 0.591385
0.035048 0.609137 0.635262
0.019888 0.641304 0.669798
0.004850 0.672357 0.702999
0.004032 0.689922 0.719172
0.004162 0.706587 0.734210
0.135591 0.025731 0.093716
0.154210 0.025731 0.100095
0.172967 0.025804 0.106687
0.193799 0.026976 0.116452
0.211937 0.029458 0.139147
0.211221 0.041111 0.252356
0.191073 0.060844 0.353639
0.086717 0.115593 0.403246
0.011266 0.161440 0.418577
0.022529 0.180579 0.331082
0.033791 0.201468 0.275100
0.045053 0.226206 0.288446
0.056950 0.248283 0.300571
0.069905 0.265925 0.310661
0.082262 0.282998 0.319299
0.093850 0.299338 0.326070
0.105438 0.317013 0.335672
0.117025 0.336022 0.348106
0.124841 0.354372 0.359991
0.129724 0.372209 0.371448
0.128300 0.392569 0.389823
0.123092 0.414443 0.412347
0.117526 0.442896 0.439616
0.111797 0.474339 0.469041
0.097133 0.506417 0.508671
0.079491 0.538707 0.551702
0.064018 0.574699 0.592036
0.049045 0.611545 0.631747
0.027635 0.648791 0.672141
0.005306 0.686093 0.712633
0.005009 0.707954 0.736098
0.006180 0.728786 0.758427
0.198026 0.028506 0.119825
0.224261 0.028701 0.127702
0.250541 0.029035 0.135603
0.277493 0.031443 0.143871
0.304989 0.034031 0.154621
0.336303 0.037872 0.182744
0.333218 0.052491 0.238551
0.181080 0.113815 0.414321
0.062972 0.167718 0.516707
0.046957 0.199357 0.398941
0.039792 0.227801 0.316370
0.052096 0.249219 0.311227
0.064400 0.269953 0.311211
0.076704 0.289549 0.319739
0.089805 0.305954 0.324621
0.103932 0.318258 0.324816
0.117961 0.333198 0.331684
0.131893 0.350775 0.345225
0.140258 0.367546 0.356020
0.144294 0.383691 0.364678
0.142268 0.402237 0.382694
0.136604 0.422222 0.406326
0.132059 0.450398 0.434656
0.128023 0.482297 0.465123
0.112025 0.514343 0.507113
0.092039 0.546437 0.552943
0.076973 0.580647 0.591210
0.063041 0.615345 0.627731
0.036749 0.656936 0.674448
0.008691 0.699512 0.722622
0.007364 0.725059 0.752304
0.007820 0.749472 0.780752
0.294895 0.034560 0.154132
0.321130 0.035797 0.160968
0.348322 0.037237 0.167958
0.389855 0.041729 0.177267
0.429461 0.046009 0.187496
0.455566 0.048809 0.204162
0.465632 0.057308 0.244800
0.406195 0.090509 0.389322
0.320117 0.133215 0.488844
0.154112 0.204434 0.453364
0.044154 0.258789 0.412067
0.057500 0.276040 0.357969
0.070845 0.292999 0.324231
0.084191 0.309469 0.324426
0.097878 0.324572 0.325077
0.112005 0.337918 0.326314
0.125513 0.351817 0.332140
0.138403 0.366269 0.342556
0.146312 0.381673 0.353741
0.150348 0.397818 0.365524
0.149624 0.415712 0.382759
0.146044 0.434656 0.403266
0.142150 0.461075 0.431336
0.138114 0.490891 0.462845
0.122897 0.521634 0.502751
0.103952 0.552687 0.545457
0.089928 0.588394 0.583984
0.077038 0.625176 0.621546
0.051787 0.667938 0.676596
0.024771 0.711555 0.734145
0.015697 0.738144 0.765389
0.007820 0.763599 0.794879
0.396809 0.042128 0.186422
0.424086 0.043886 0.193518
0.452693 0.045895 0.200817
0.501258 0.051689 0.211168
0.546559 0.057044 0.221625
0.569019 0.059322 0.232822
0.588134 0.063493 0.263940
0.592756 0.075862 0.381380
0.524840 0.110755 0.474847
0.239312 0.213223 0.496396
0.047588 0.288002 0.483726
0.062236 0.301869 0.395775
0.076688 0.315735 0.337853
0.090814 0.329601 0.329976
0.104941 0.343354 0.326428
0.119068 0.356960 0.328446
0.132316 0.369947 0.333491
0.144685 0.382316 0.341563
0.152220 0.396662 0.352895
0.155996 0.412547 0.366761
0.156639 0.429693 0.383150
0.155402 0.447595 0.401053
0.151345 0.472972 0.429920
0.146007 0.501746 0.463772
0.131832 0.531448 0.501530
0.114710 0.561459 0.540590
0.101239 0.598029 0.579915
0.088609 0.636112 0.619300
0.063619 0.679949 0.680958
0.036863 0.724608 0.745798
0.022923 0.752483 0.778962
0.009838 0.779239 0.810015
0.513859 0.054236 0.212657
0.545302 0.054953 0.223920
0.576839 0.055921 0.235190
0.609779 0.060673 0.246583
0.641540 0.065246 0.259513
0.665041 0.068567 0.283209
0.680901 0.073779 0.321749
0.663650 0.087189 0.424607
0.572298 0.124426 0.502450
0.258646 0.233143 0.505249
0.048239 0.311894 0.483270
0.064970 0.324719 0.406777
0.080724 0.337543 0.353281
0.094851 0.350368 0.338113
0.108977 0.362623 0.330464
0.123104 0.374146 0.332482
0.136873 0.386613 0.337527
0.150283 0.400023 0.345600
0.157688 0.414239 0.356345
0.160423 0.429082 0.369170
0.162628 0.445186 0.384517
0.164516 0.462047 0.401378
0.157855 0.488531 0.434217
0.147309 0.519388 0.474319
0.134956 0.548830 0.509733
0.122001 0.577799 0.543585
0.107618 0.613327 0.585318
0.092906 0.650369 0.628870
0.065832 0.694987 0.691960
0.036993 0.740687 0.757841
0.026829 0.770580 0.794000
0.017911 0.799420 0.828178
0.623971 0.065714 0.247091
0.656000 0.066365 0.261869
0.687334 0.067187 0.276439
0.708231 0.070572 0.287897
0.729340 0.074039 0.301551
0.751929 0.078075 0.330586
0.765023 0.083942 0.369630
0.736964 0.097744 0.452046
0.637231 0.133174 0.514103
0.322473 0.233493 0.515079
0.101377 0.311333 0.494613
0.086339 0.339716 0.426975
0.082360 0.361753 0.375790
0.096812 0.373210 0.352028
0.110979 0.383785 0.339260
0.124780 0.393224 0.340628
0.138419 0.405333 0.345022
0.151895 0.420111 0.352443
0.159658 0.434339 0.362135
0.162978 0.448140 0.373593
0.166339 0.463813 0.388590
0.169724 0.480609 0.405711
0.161517 0.507385 0.440690
0.148041 0.538698 0.483787
0.136128 0.568449 0.519950
0.124736 0.597679 0.553802
0.108953 0.632939 0.599184
0.092157 0.669590 0.647228
0.064425 0.714501 0.711222
0.035130 0.760592 0.777493
0.029454 0.789716 0.812029
0.025352 0.817709 0.844449
0.718822 0.075805 0.299562
0.743560 0.078539 0.316423
0.767797 0.081184 0.332816
0.784528 0.082486 0.342190
0.801340 0.084130 0.352720
0.818722 0.088166 0.371339
0.830123 0.093838 0.395670
0.815605 0.106597 0.444755
0.740610 0.131091 0.490667
0.484181 0.190788 0.527058
0.269986 0.256974 0.531916
0.148705 0.337438 0.467402
0.078714 0.391243 0.413873
0.094208 0.400617 0.378654
0.108505 0.409109 0.358530
0.121265 0.416465 0.357814
0.133341 0.428574 0.360125
0.144734 0.445435 0.365463
0.153929 0.459988 0.373072
0.161415 0.472748 0.382446
0.165037 0.489332 0.398615
0.166339 0.508211 0.418862
0.158913 0.533490 0.451953
0.147521 0.561679 0.490882
0.133003 0.592992 0.534597
0.117444 0.625346 0.579907
0.099188 0.662038 0.631669
0.080309 0.699731 0.684921
0.055050 0.743861 0.748654
0.028880 0.788910 0.813884
0.029258 0.811134 0.836637
0.031407 0.831836 0.856557
0.802321 0.084382 0.349005
0.821330 0.088418 0.367168
0.839985 0.092226 0.384822
0.853331 0.092617 0.394848
0.866774 0.093512 0.405573
0.880901 0.097939 0.421197
0.890364 0.103733 0.437431
0.879623 0.115451 0.456310
0.826046 0.131937 0.483538
0.643961 0.162730 0.535814
0.451338 0.217873 0.556963
0.235532 0.326590 0.509635
0.100848 0.401667 0.461087
0.101369 0.420676 0.410504
0.106618 0.434359 0.379631
0.117945 0.441195 0.374097
0.128849 0.453108 0.373348
0.139330 0.470099 0.377385
0.149372 0.484564 0.383911
0.159072 0.497063 0.392374
0.162221 0.514607 0.410154
0.161440 0.535179 0.433525
0.154527 0.559644 0.466608
0.144827 0.585880 0.504106
0.129659 0.616412 0.550490
0.112668 0.648376 0.599835
0.092767 0.687110 0.656904
0.072196 0.727407 0.715754
0.050485 0.769242 0.777567
0.028611 0.811296 0.839802
0.032188 0.829793 0.856508
0.037461 0.846719 0.870179
0.866900 0.090436 0.393403
0.882784 0.094472 0.411566
0.898380 0.098346 0.429546
0.909642 0.099778 0.444779
0.921263 0.101715 0.461233
0.935389 0.107183 0.486232
0.942510 0.113628 0.505396
0.919269 0.124304 0.499276
0.881576 0.137666 0.503589
0.800526 0.159084 0.539199
0.653929 0.204202 0.561585
0.363128 0.301462 0.554880
0.165948 0.380314 0.523518
0.124805 0.428488 0.451062
0.105706 0.459488 0.403783
0.114950 0.468407 0.388875
0.125334 0.479799 0.383439
0.136856 0.493665 0.387475
0.146768 0.507349 0.394587
0.155426 0.520889 0.404092
0.156883 0.539476 0.424216
0.154018 0.561089 0.450712
0.147171 0.585880 0.486919
0.138512 0.612115 0.527542
0.125948 0.637960 0.568457
0.112082 0.663674 0.609470
0.091921 0.705468 0.670054
0.070308 0.750973 0.735154
0.053935 0.787991 0.792279
0.038311 0.823796 0.848265
0.040325 0.843855 0.868487
0.043515 0.862864 0.886324
0.920001 0.098256 0.447514
0.931394 0.102748 0.463854
0.942591 0.107199 0.480251
0.950859 0.111040 0.497502
0.959460 0.115215 0.515926
0.970397 0.121725 0.542551
0.974205 0.128992 0.561426
0.947124 0.139538 0.546714
0.920644 0.151370 0.540415
0.895971 0.167059 0.559359
0.791042 0.202380 0.576290
0.509550 0.280890 0.588789
0.288210 0.358620 0.570797
0.167124 0.435047 0.501986
0.102545 0.482851 0.450065
0.110617 0.493853 0.419858
0.120480 0.505636 0.404950
0.132133 0.518200 0.405341
0.141003 0.531900 0.412213
0.147708 0.546482 0.424126
0.148554 0.565825 0.445968
0.145885 0.588024 0.473765
0.139188 0.612998 0.512215
0.130660 0.639233 0.555506
0.119446 0.664150 0.594941
0.107338 0.688628 0.633089
0.087771 0.731089 0.695992
0.066483 0.777701 0.764608
0.053227 0.810983 0.817103
0.041119 0.842361 0.867295
0.046099 0.860679 0.885079
0.052218 0.878126 0.900703
0.958345 0.108347 0.514111
0.963488 0.113880 0.526285
0.968566 0.119568 0.538645
0.972667 0.127576 0.553814
0.976711 0.135526 0.569373
0.980357 0.143078 0.587666
0.979608 0.151386 0.602114
0.959818 0.162974 0.599901
0.938547 0.175326 0.598810
0.912832 0.189974 0.601089
0.843969 0.215790 0.603957
0.680177 0.266178 0.608123
0.483966 0.336486 0.598594
0.233721 0.439995 0.566240
0.096490 0.503943 0.524800
0.104563 0.517028 0.471678
0.113905 0.530374 0.441146
0.124516 0.543980 0.433204
0.131172 0.558721 0.438774
0.134753 0.574345 0.454854
0.136380 0.594078 0.477606
0.136836 0.616277 0.504362
0.130399 0.641251 0.543919
0.120830 0.667487 0.589293
0.109356 0.696310 0.632373
0.097247 0.725995 0.674688
0.079373 0.766048 0.738372
0.060169 0.808493 0.806988
0.047173 0.839432 0.854926
0.035064 0.868727 0.899910
0.048833 0.881055 0.907604
0.064327 0.892252 0.912812
0.979535 0.126510 0.569609
0.982074 0.134126 0.581262
0.984483 0.141833 0.592874
0.984939 0.150881 0.603876
0.985467 0.159808 0.615203
0.986509 0.167881 0.628809
0.984523 0.176417 0.640035
0.969420 0.186963 0.640946
0.952185 0.198665 0.640116
0.928554 0.213833 0.634062
0.880327 0.235288 0.631201
0.777990 0.270572 0.635368
0.593431 0.336909 0.632674
0.271837 0.455000 0.618548
0.093105 0.529202 0.582804
0.098053 0.546974 0.519266
0.104791 0.561361 0.480922
0.113319 0.572363 0.467772
0.118771 0.586844 0.471942
0.121831 0.604030 0.489585
0.122937 0.624024 0.514876
0.122872 0.645702 0.544757
0.116989 0.670872 0.584215
0.108461 0.697628 0.628028
0.097247 0.728143 0.674233
0.085139 0.759912 0.721235
0.071496 0.796547 0.779874
0.057500 0.834305 0.841198
0.047433 0.862380 0.883212
0.037929 0.889071 0.922467
0.058696 0.897330 0.924920
0.081481 0.904361 0.924920
0.983571 0.152745 0.614007
0.987152 0.163486 0.628785
0.990342 0.173992 0.642936
0.987673 0.180958 0.647688
0.985728 0.188062 0.653417
0.988853 0.196134 0.665981
0.988950 0.204084 0.675189
0.975930 0.211506 0.669850
0.961559 0.221385 0.664333
0.943136 0.238636 0.658279
0.900117 0.260872 0.658023
0.802988 0.294073 0.670522
0.616607 0.359889 0.673036
0.281472 0.480064 0.658910
0.092389 0.558627 0.624077
0.091087 0.583691 0.562623
0.093138 0.598599 0.524279
0.098541 0.603351 0.509045
0.103798 0.616269 0.511719
0.108941 0.635539 0.528319
0.108225 0.655663 0.557777
0.103993 0.676299 0.594949
0.098956 0.701859 0.633106
0.093553 0.729657 0.671710
0.083120 0.759652 0.720519
0.071012 0.790379 0.772729
0.064140 0.822587 0.820496
0.058476 0.855137 0.867238
0.054009 0.879826 0.901960
0.049712 0.903393 0.934966
0.075687 0.909504 0.937029
0.103680 0.914451 0.937029
0.985337 0.176710 0.648188
0.988202 0.188233 0.661990
0.990708 0.199304 0.675018
0.987844 0.203600 0.676450
0.985695 0.208369 0.678924
0.988560 0.216441 0.688689
0.989496 0.224465 0.696098
0.982074 0.232277 0.693299
0.973058 0.241944 0.689979
0.959257 0.257178 0.685096
0.927634 0.276093 0.685686
0.856805 0.303110 0.698315
0.696285 0.359909 0.702669
0.386279 0.466348 0.693229
0.183220 0.548834 0.668609
0.117664 0.600523 0.624472
0.084854 0.630306 0.590229
0.084789 0.638183 0.565882
0.087507 0.650015 0.561345
0.092389 0.664923 0.572217
0.091168 0.684225 0.600788
0.086286 0.706164 0.639978
0.081985 0.732847 0.679213
0.077949 0.761686 0.718468
0.069177 0.789842 0.764754
0.058826 0.817770 0.813384
0.055722 0.846174 0.854820
0.054289 0.874688 0.894596
0.060547 0.894600 0.921954
0.067903 0.913284 0.947539
0.095644 0.917137 0.949138
0.124744 0.920001 0.949138
0.985337 0.198909 0.674424
0.986118 0.209390 0.684059
0.986802 0.219289 0.693116
0.986021 0.220461 0.693506
0.985435 0.222496 0.694548
0.986216 0.230568 0.700146
0.987022 0.239177 0.705928
0.987933 0.250114 0.712503
0.986208 0.260823 0.716735
0.976573 0.270849 0.713935
0.961161 0.283254 0.714005
0.933038 0.300896 0.720384
0.819910 0.342072 0.723957
0.565109 0.422470 0.722850
0.345254 0.508537 0.715677
0.170330 0.601890 0.700704
0.079190 0.657713 0.673752
0.071834 0.676006 0.634823
0.070190 0.687122 0.618633
0.072989 0.692656 0.620130
0.072289 0.710396 0.643884
0.069490 0.735459 0.680991
0.065841 0.763835 0.723155
0.061804 0.793715 0.767618
0.055376 0.819007 0.807395
0.048150 0.842768 0.845608
0.046477 0.867852 0.884245
0.046087 0.893241 0.922980
0.067057 0.907295 0.942916
0.091079 0.919729 0.960168
0.117908 0.921238 0.961246
0.144925 0.922019 0.961246
0.979031 0.226153 0.689307
0.979031 0.233640 0.694776
0.979112 0.240862 0.700146
0.980414 0.244117 0.704052
0.981472 0.247730 0.707893
0.980821 0.253849 0.711278
0.980805 0.260970 0.715433
0.983539 0.272427 0.722919
0.984385 0.282876 0.728681
0.979568 0.290297 0.729266
0.973896 0.299000 0.730931
0.966344 0.310523 0.734967
0.902156 0.337621 0.742640
0.743572 0.390677 0.756376
0.565878 0.462503 0.765470
0.363612 0.558460 0.768595
0.210887 0.636743 0.756096
0.107704 0.697351 0.727973
0.059302 0.726833 0.710872
0.053508 0.732106 0.702343
0.050481 0.747226 0.715746
0.049114 0.768253 0.742307
0.048597 0.793846 0.775805
0.048467 0.821513 0.812456
0.046823 0.843615 0.842955
0.044675 0.863861 0.871404
0.052206 0.884160 0.902603
0.061971 0.904471 0.934437
0.089679 0.913560 0.947360
0.119951 0.921047 0.957580
0.145218 0.922125 0.961881
0.170151 0.922776 0.965787
0.968940 0.256425 0.697380
0.968940 0.259745 0.698682
0.969152 0.263386 0.700537
0.972537 0.271849 0.710693
0.975287 0.279629 0.719872
0.973595 0.282623 0.722215
0.972342 0.287010 0.724742
0.972993 0.297426 0.728062
0.973579 0.306833 0.731740
0.973969 0.313212 0.736493
0.974156 0.319897 0.741021
0.973896 0.327254 0.745057
0.959574 0.341201 0.759762
0.921816 0.366135 0.792247
0.821656 0.413027 0.816899
0.641263 0.488152 0.831482
0.425001 0.586746 0.837731
0.172869 0.708809 0.835648
0.052271 0.768107 0.824080
0.033978 0.778588 0.805136
0.026915 0.790452 0.804868
0.026589 0.803147 0.815805
0.030695 0.823271 0.833679
0.036814 0.846772 0.854706
0.041420 0.865488 0.874269
0.045521 0.882609 0.893343
0.066919 0.897245 0.914321
0.092308 0.911306 0.935739
0.121969 0.915969 0.941891
0.152240 0.919289 0.945862
0.175554 0.921084 0.955631
0.198404 0.922776 0.965787
0.972724 0.275597 0.717939
0.974156 0.281911 0.719371
0.975572 0.288283 0.721247
0.976744 0.295509 0.729775
0.977607 0.302263 0.737400
0.976305 0.305714 0.738702
0.975515 0.310409 0.740541
0.976947 0.320499 0.744707
0.978347 0.329581 0.748988
0.979649 0.335635 0.753610
0.980951 0.342137 0.758944
0.982253 0.349624 0.765844
0.979307 0.361968 0.785610
0.969282 0.382410 0.826819
0.869854 0.428627 0.855752
0.655480 0.507983 0.868902
0.421152 0.612208 0.879936
0.166872 0.741302 0.888855
0.045554 0.804188 0.880673
0.027651 0.815581 0.859190
0.021833 0.826607 0.856708
0.023265 0.837414 0.865626
0.028278 0.852606 0.878036
0.034918 0.869793 0.892033
0.044341 0.884050 0.905492
0.054692 0.897330 0.918772
0.082392 0.907331 0.931365
0.114096 0.916575 0.943799
0.143920 0.919497 0.947746
0.173475 0.921515 0.950480
0.203519 0.920176 0.957975
0.233595 0.918614 0.965787
0.982815 0.289723 0.744174
0.986330 0.302288 0.747690
0.989439 0.314258 0.751193
0.986444 0.317318 0.754513
0.983791 0.320687 0.757451
0.983531 0.326220 0.757711
0.983978 0.332608 0.759290
0.987494 0.342699 0.766581
0.990195 0.351780 0.772684
0.990456 0.357834 0.775223
0.990716 0.364987 0.780427
0.990977 0.374557 0.791494
0.981911 0.390547 0.815426
0.957304 0.417238 0.860801
0.823698 0.473806 0.888888
0.549953 0.568787 0.894747
0.318229 0.671970 0.904219
0.128528 0.783356 0.917304
0.038979 0.837910 0.911530
0.027326 0.848261 0.891089
0.025153 0.859548 0.891601
0.028668 0.871396 0.904686
0.032900 0.881901 0.916250
0.037457 0.891797 0.927122
0.051047 0.901106 0.936675
0.067647 0.910220 0.945789
0.098211 0.916055 0.950830
0.131998 0.921132 0.954931
0.161171 0.923533 0.958748
0.189685 0.925551 0.962524
0.230405 0.919330 0.964225
0.271939 0.912560 0.965787
0.985337 0.311418 0.755274
0.989373 0.323201 0.760872
0.993003 0.334520 0.766247
0.990529 0.338882 0.768265
0.988364 0.343358 0.770031
0.988364 0.348631 0.770031
0.988828 0.354661 0.771252
0.991302 0.363970 0.777762
0.993157 0.372466 0.783344
0.993157 0.378520 0.786143
0.992669 0.385347 0.790875
0.991107 0.393875 0.799859
0.983637 0.409214 0.819072
0.966320 0.435905 0.855333
0.869968 0.483587 0.883647
0.671999 0.558257 0.901745
0.469831 0.644384 0.915904
0.263464 0.741969 0.926125
0.141137 0.807476 0.926275
0.084174 0.848033 0.918593
0.059477 0.873251 0.921124
0.054139 0.889266 0.929783
0.056320 0.899820 0.938351
0.061918 0.907893 0.946879
0.074011 0.913621 0.951550
0.088267 0.918569 0.954936
0.118816 0.921507 0.957845
0.153123 0.923980 0.960644
0.186918 0.924005 0.963158
0.220640 0.923679 0.965632
0.259244 0.917556 0.964322
0.298174 0.911046 0.962760
0.985337 0.335635 0.761328
0.989373 0.344294 0.769010
0.993133 0.352879 0.776338
0.992742 0.360365 0.778356
0.992401 0.367445 0.780122
0.992401 0.371676 0.780122
0.992474 0.376665 0.780952
0.992864 0.384932 0.785379
0.993157 0.392647 0.789659
0.993157 0.398701 0.793500
0.992018 0.404877 0.797646
0.988373 0.411322 0.802463
0.985069 0.424578 0.813994
0.982335 0.449186 0.836714
0.947046 0.481569 0.865614
0.869903 0.523949 0.902461
0.706274 0.587682 0.923391
0.456160 0.672768 0.928403
0.279539 0.755656 0.935650
0.160081 0.836836 0.944633
0.104136 0.880543 0.948857
0.086298 0.901765 0.950224
0.086005 0.913947 0.955082
0.093687 0.922019 0.961527
0.102394 0.924623 0.960990
0.111443 0.925405 0.958125
0.141015 0.925868 0.960709
0.175322 0.926259 0.964550
0.215497 0.923289 0.965372
0.256510 0.919839 0.965762
0.288735 0.915473 0.962369
0.320373 0.911046 0.958724
0.978778 0.363132 0.767382
0.981122 0.371204 0.772916
0.983372 0.379224 0.778177
0.984218 0.386450 0.779349
0.984853 0.393595 0.780480
0.984007 0.400170 0.781326
0.983319 0.407184 0.782612
0.983319 0.416103 0.785802
0.983531 0.424305 0.788992
0.984377 0.430360 0.792181
0.984226 0.437207 0.795900
0.981883 0.445801 0.800783
0.980418 0.457714 0.808863
0.980418 0.475161 0.822274
0.966946 0.497535 0.844514
0.936154 0.526244 0.878105
0.833915 0.569698 0.903266
0.660228 0.627898 0.919997
0.479034 0.704736 0.933176
0.292002 0.796071 0.943592
0.193913 0.856362 0.949085
0.149189 0.898026 0.951624
0.137271 0.916596 0.953670
0.140266 0.924668 0.955493
0.152782 0.926051 0.954191
0.168471 0.925205 0.951847
0.197225 0.923671 0.953312
0.228993 0.921979 0.955656
0.261161 0.918976 0.955208
0.293385 0.915786 0.954362
0.322985 0.911803 0.952112
0.352411 0.907767 0.949768
0.970706 0.391385 0.773437
0.970966 0.399458 0.775845
0.971329 0.407412 0.778112
0.973216 0.413597 0.778242
0.974632 0.420220 0.778592
0.972744 0.429920 0.780480
0.971211 0.439669 0.782416
0.971211 0.449629 0.784565
0.971683 0.458613 0.786713
0.973570 0.464667 0.788861
0.974787 0.472492 0.792190
0.974527 0.484210 0.798114
0.974364 0.494951 0.803720
0.974364 0.504065 0.808798
0.973652 0.517651 0.822705
0.972024 0.536985 0.847964
0.936447 0.560649 0.876771
0.866920 0.588642 0.909125
0.692627 0.654023 0.927968
0.436849 0.748483 0.936301
0.294101 0.824919 0.942965
0.219171 0.890539 0.948629
