其他预设/【236】赛博朋克风调色预设/【后期菌】视频调色预设/CUBE/Glitch 01.cube
# LUT by SparkleStock. Enhanced with VOXCOLOR algorithms.
LUT_3D_SIZE 8
DOMAIN_MIN 0.000000 0.000000 0.000000
DOMAIN_MAX 0.903226 0.903226 0.903226
0.082111 0.082111 0.082111
0.089427 0.082364 0.097499
0.082111 0.091445 0.103680
0.082868 0.115662 0.143663
0.087031 0.149844 0.249740
0.092454 0.227541 0.394160
0.099265 0.326175 0.543373
0.111248 0.458739 0.675937
0.099770 0.086022 0.094346
0.113917 0.085533 0.110137
0.083780 0.100877 0.183574
0.090941 0.147923 0.232025
0.099013 0.223382 0.375940
0.107004 0.313489 0.518119
0.111248 0.431328 0.646858
0.123242 0.549794 0.742559
0.243938 0.082111 0.120329
0.335521 0.086306 0.139794
0.315706 0.094163 0.349054
0.097430 0.204963 0.376184
0.107085 0.298695 0.491045
0.112293 0.408738 0.629305
0.121143 0.530772 0.727846
0.142654 0.644604 0.800250
0.586510 0.089932 0.230190
0.661986 0.090989 0.287347
0.672625 0.096673 0.387723
0.115597 0.244674 0.604913
0.111052 0.383174 0.607184
0.115898 0.508545 0.708471
0.133109 0.617250 0.784414
0.157575 0.703454 0.838756
0.785419 0.105698 0.418251
0.822437 0.115475 0.476145
0.840038 0.119450 0.542088
0.503683 0.167746 0.667267
0.116419 0.478847 0.725173
0.128979 0.594363 0.767529
0.152013 0.692827 0.829199
0.181678 0.753732 0.874769
0.869170 0.126257 0.589790
0.881071 0.135339 0.624484
0.886198 0.145051 0.655557
0.806434 0.174468 0.712296
0.235520 0.485528 0.806174
0.150039 0.680812 0.822233
0.174659 0.744569 0.865118
0.203324 0.786807 0.893831
0.893009 0.160061 0.687037
0.896919 0.173024 0.706209
0.899007 0.195699 0.716678
0.885494 0.219989 0.744561
0.436581 0.509387 0.837939
0.188094 0.756124 0.874561
0.201017 0.782392 0.890072
0.228708 0.816142 0.898685
0.897172 0.232334 0.733958
0.897285 0.260563 0.741790
0.899544 0.298024 0.756661
0.901082 0.331383 0.770625
0.888285 0.382564 0.807960
0.442359 0.702734 0.893143
0.257023 0.825529 0.901912
0.294899 0.842813 0.906168
0.086274 0.082111 0.089932
0.090721 0.085786 0.103110
0.082144 0.092202 0.109445
0.089932 0.123686 0.153551
0.090941 0.166428 0.270865
0.097752 0.246163 0.423549
0.105572 0.350966 0.571712
0.115158 0.474367 0.685662
0.102716 0.082347 0.091413
0.210501 0.086038 0.116188
0.297826 0.098352 0.263364
0.099072 0.195278 0.328913
0.109799 0.294313 0.483372
0.113392 0.401593 0.625572
0.118265 0.517744 0.719084
0.136648 0.629816 0.789936
0.269921 0.086526 0.130200
0.503393 0.089997 0.200740
0.534579 0.094847 0.344646
0.111734 0.253121 0.552958
0.117604 0.388223 0.608596
0.116306 0.495484 0.703661
0.131172 0.604195 0.775869
0.153724 0.695622 0.831166
0.627804 0.090737 0.264721
0.766801 0.101015 0.383059
0.793777 0.111044 0.465218
0.175817 0.237811 0.676320
0.116289 0.474468 0.689731
0.127653 0.585712 0.760149
0.145561 0.678582 0.820516
0.175763 0.747478 0.868335
0.807366 0.111565 0.444360
0.868552 0.126278 0.576237
0.875404 0.130200 0.608853
0.720765 0.161400 0.690282
0.127044 0.532250 0.785513
0.142158 0.662722 0.811718
0.168653 0.734078 0.857406
0.200602 0.778949 0.888534
0.878378 0.132816 0.617294
0.887877 0.150212 0.669333
0.896504 0.165576 0.694599
0.870503 0.189353 0.732473
0.348556 0.486272 0.827022
0.166957 0.725358 0.851264
0.192507 0.770736 0.883822
0.224208 0.812916 0.897924
0.895251 0.164068 0.689531
0.897594 0.210730 0.720693
0.896919 0.237555 0.733631
0.899335 0.270633 0.752440
0.686004 0.447793 0.840155
0.215591 0.774139 0.890177
0.222920 0.808684 0.898847
0.275731 0.834991 0.903147
0.897412 0.238868 0.730654
0.899568 0.317856 0.764258
0.902846 0.362797 0.776454
0.902894 0.405026 0.788740
0.898689 0.457778 0.819159
0.577594 0.695276 0.898189
0.321823 0.840396 0.909500
0.376527 0.854085 0.911328
0.100274 0.082616 0.090941
0.124435 0.085517 0.098980
0.092064 0.092015 0.305193
0.089932 0.128752 0.171005
0.093467 0.181255 0.295660
0.101662 0.264607 0.445280
0.107085 0.369886 0.590982
0.115109 0.491436 0.698413
0.162461 0.085330 0.107370
0.343686 0.083324 0.140516
0.353176 0.094060 0.295212
0.101013 0.209942 0.386765
0.114303 0.310929 0.509069
0.115791 0.423868 0.646624
0.121388 0.535336 0.732583
0.137778 0.643357 0.798925
0.313656 0.086526 0.136844
0.557717 0.090469 0.226739
0.692000 0.098726 0.390755
0.131103 0.290594 0.665219
0.114730 0.464071 0.675931
0.126676 0.579206 0.752887
0.141001 0.669653 0.813664
0.169049 0.736170 0.857673
0.652798 0.091445 0.277656
0.780675 0.104758 0.409202
0.847538 0.121477 0.541796
0.585423 0.168740 0.667717
0.123083 0.538392 0.771265
0.134997 0.654849 0.805786
0.161880 0.722670 0.847414
0.192794 0.772628 0.881535
0.811386 0.111236 0.455456
0.872154 0.128825 0.594234
0.888120 0.144423 0.653276
0.859908 0.164571 0.713097
0.245554 0.480790 0.813712
0.156523 0.713780 0.841123
0.187132 0.764111 0.876497
0.218845 0.804880 0.894199
0.879045 0.133321 0.621054
0.888612 0.155993 0.679568
0.897053 0.195046 0.715687
0.901005 0.225379 0.732795
0.667205 0.380352 0.820755
0.185815 0.742028 0.866915
0.212731 0.797007 0.893363
0.263158 0.828458 0.901034
0.893628 0.166493 0.694157
0.896794 0.219440 0.724132
0.899242 0.298694 0.756455
0.903046 0.337931 0.770592
0.886495 0.390534 0.815173
0.456493 0.695007 0.886585
0.258875 0.824029 0.899664
0.343397 0.842355 0.903847
0.899039 0.252010 0.739357
0.901202 0.333756 0.770511
0.903202 0.434473 0.794483
0.905045 0.490298 0.806011
0.907051 0.541802 0.820560
0.720276 0.694822 0.901712
0.412266 0.849715 0.910630
0.473986 0.853420 0.910465
0.159304 0.082111 0.103175
0.221771 0.083226 0.116574
0.207872 0.089358 0.241598
0.089932 0.132670 0.194877
0.091950 0.184713 0.316154
0.101393 0.278331 0.466149
0.109018 0.386173 0.610097
0.117265 0.511352 0.711669
0.289170 0.085867 0.132507
0.535454 0.090039 0.213418
0.588658 0.091718 0.302671
0.109510 0.181263 0.566535
0.111675 0.326326 0.536419
0.114986 0.437038 0.655411
0.124329 0.554275 0.744960
0.143501 0.659315 0.810944
0.482273 0.090029 0.188607
0.696458 0.095437 0.308957
0.813121 0.114771 0.461270
0.554777 0.148425 0.620697
0.115338 0.473284 0.723941
0.126801 0.591450 0.765033
0.147671 0.685874 0.821531
0.173591 0.743049 0.865267
0.680738 0.094598 0.295428
0.797012 0.107450 0.437092
0.862805 0.125652 0.565828
0.745951 0.167413 0.693777
0.181626 0.537895 0.809490
0.150954 0.701112 0.834121
0.180633 0.757935 0.872503
0.215450 0.799511 0.892279
0.825391 0.114641 0.478758
0.874460 0.129276 0.600851
0.894166 0.152813 0.671764
0.896151 0.181533 0.718441
0.547385 0.398954 0.813556
0.178059 0.748288 0.867028
0.209967 0.792177 0.885069
0.254854 0.824526 0.897332
0.883549 0.137988 0.632666
0.894893 0.159458 0.687012
0.896765 0.206466 0.721182
0.901795 0.276048 0.753968
0.865069 0.337995 0.807919
0.247589 0.738140 0.886546
0.246667 0.821349 0.898172
0.326879 0.836973 0.899335
0.895406 0.172377 0.700578
0.897204 0.232334 0.730084
0.898083 0.312017 0.762047
0.903193 0.409094 0.792080
0.892391 0.465325 0.823015
0.568760 0.706695 0.895435
0.326073 0.838474 0.904179
0.438096 0.849384 0.906623
0.895747 0.261218 0.739975
0.903136 0.351407 0.773920
0.905268 0.459468 0.802093
0.907056 0.575501 0.819415
0.906116 0.617475 0.828225
0.857435 0.672314 0.884386
0.539553 0.847999 0.906513
0.573943 0.858588 0.903897
0.273453 0.086022 0.129158
0.381042 0.084317 0.151423
0.401785 0.089423 0.258382
0.085253 0.161562 0.329150
0.091429 0.201122 0.344342
0.100620 0.288788 0.488726
0.107085 0.401476 0.623983
0.120455 0.528714 0.729747
0.484584 0.089932 0.191223
0.690569 0.093850 0.305367
0.750274 0.098858 0.373775
0.334706 0.149781 0.601006
0.107052 0.339511 0.567135
0.112961 0.453304 0.666994
0.126403 0.573899 0.751103
0.149480 0.675231 0.818931
0.660399 0.094346 0.280268
0.788092 0.105250 0.417131
0.859068 0.123034 0.554179
0.682924 0.145136 0.649371
0.119100 0.469778 0.766044
0.130737 0.609409 0.774138
0.153704 0.695169 0.832374
0.180354 0.753441 0.870523
0.768965 0.101283 0.386983
0.852524 0.122469 0.536750
0.881522 0.136464 0.627498
0.851235 0.170261 0.715819
0.264674 0.488984 0.810936
0.160775 0.716684 0.845376
0.188473 0.767663 0.877278
0.221141 0.807860 0.891932
0.837808 0.117916 0.509961
0.876682 0.132538 0.613031
0.892097 0.154876 0.677111
0.899721 0.193606 0.719237
0.754578 0.346183 0.817465
0.216448 0.755925 0.880307
0.234478 0.814473 0.892731
0.317414 0.837061 0.900302
0.884233 0.138671 0.639823
0.893916 0.164557 0.693041
0.897206 0.217560 0.722708
0.897637 0.288098 0.749500
0.890734 0.385641 0.812400
0.468992 0.692845 0.884687
0.305906 0.836396 0.902315
0.424153 0.840455 0.901589
0.898307 0.184884 0.709476
0.898697 0.243703 0.733983
0.900504 0.325100 0.764648
0.903020 0.433732 0.798412
0.904385 0.541595 0.813079
0.841321 0.612319 0.873760
0.463349 0.828808 0.902302
0.547034 0.848982 0.897794
0.899035 0.276984 0.747523
0.901719 0.365827 0.775259
0.904609 0.473538 0.804203
0.907136 0.593183 0.821291
0.910681 0.680489 0.842740
0.900634 0.706590 0.863686
0.719845 0.823046 0.900493
0.665783 0.862305 0.899285
0.455838 0.087283 0.177971
0.568689 0.091193 0.225856
0.591079 0.091193 0.339415
0.133166 0.170224 0.482863
0.094167 0.256592 0.441805
0.100274 0.309396 0.514624
0.109197 0.424163 0.644295
0.123291 0.541608 0.736415
0.652233 0.091193 0.273697
0.784132 0.104957 0.340650
0.812962 0.112373 0.419920
0.597642 0.132227 0.496916
0.109168 0.403448 0.679047
0.112756 0.477577 0.687137
0.130331 0.587623 0.765264
0.151801 0.686028 0.827502
0.761275 0.100942 0.378825
0.842498 0.119732 0.529992
0.870740 0.134197 0.541990
0.818678 0.147599 0.624495
0.214674 0.436966 0.767647
0.136543 0.633971 0.792882
0.158846 0.707747 0.840864
0.187048 0.763061 0.878479
0.832112 0.117184 0.497974
0.876281 0.129142 0.605101
0.888148 0.150067 0.663993
0.896628 0.185893 0.701566
0.721222 0.298094 0.759763
0.179620 0.701182 0.849059
0.195242 0.774917 0.882459
0.228610 0.811032 0.895592
0.872576 0.127718 0.593879
0.888005 0.146319 0.659390
0.896858 0.179299 0.709450
0.897794 0.236708 0.732536
0.869273 0.338821 0.795376
0.305534 0.724326 0.882226
0.250577 0.822270 0.897347
0.340892 0.842272 0.904170
0.889168 0.147517 0.656749
0.894553 0.172893 0.699944
0.896486 0.227141 0.726601
0.898460 0.308151 0.758981
0.903838 0.408130 0.793223
0.761407 0.597971 0.873581
0.387377 0.842217 0.903403
0.523649 0.847789 0.898678
0.897517 0.189038 0.713524
0.897322 0.253740 0.738934
0.899562 0.337678 0.770509
0.903580 0.447695 0.798645
0.905537 0.565736 0.816155
0.887811 0.648386 0.857693
0.637290 0.814577 0.898083
0.642591 0.860357 0.898070
0.897863 0.287140 0.750098
0.903596 0.380456 0.784691
0.905007 0.492790 0.806434
0.906965 0.605120 0.825489
0.910025 0.693498 0.846651
0.908656 0.751348 0.868230
0.789720 0.830182 0.903410
0.741546 0.870510 0.903709
0.625737 0.089932 0.259326
0.714940 0.095453 0.294423
0.749309 0.106329 0.187549
0.584175 0.134012 0.158470
0.122343 0.312264 0.277094
0.104547 0.390376 0.594924
0.110995 0.449817 0.665025
0.126058 0.561894 0.745509
0.747930 0.096055 0.355751
0.599677 0.164374 0.106817
0.633029 0.187650 0.109036
0.524052 0.248492 0.108009
0.155417 0.447800 0.419941
0.124643 0.543365 0.604731
0.135472 0.616366 0.780091
0.156557 0.698653 0.837133
0.830001 0.115719 0.462527
0.855699 0.132769 0.478164
0.758256 0.246375 0.171368
0.765641 0.285808 0.172458
0.681844 0.354665 0.239896
0.201897 0.627934 0.519788
0.166406 0.725044 0.845671
0.191607 0.770030 0.883109
0.871062 0.126172 0.585497
0.881591 0.149811 0.586759
0.865937 0.221792 0.393421
0.856697 0.341284 0.312559
0.798622 0.443647 0.321777
0.286882 0.714357 0.659067
0.202509 0.784243 0.881938
0.237106 0.817892 0.897629
0.884457 0.141507 0.646272
0.895593 0.166623 0.696504
0.899231 0.221287 0.689178
0.895520 0.355652 0.514259
0.860112 0.509486 0.461907
0.484156 0.739514 0.648763
0.278280 0.828516 0.848422
0.355372 0.843479 0.904212
0.893607 0.160154 0.688990
0.896976 0.205436 0.721710
0.898705 0.280280 0.749442
0.902460 0.376417 0.765998
0.904581 0.499843 0.747476
0.870984 0.653783 0.651510
0.468614 0.840922 0.818146
0.546371 0.856045 0.902769
0.898730 0.202034 0.718029
0.897017 0.270370 0.745587
0.901258 0.363702 0.778033
0.905203 0.471771 0.800686
0.905829 0.590926 0.817158
0.899677 0.687331 0.784393
0.699256 0.835239 0.880884
0.684356 0.877811 0.898609
0.901082 0.302642 0.760246
0.900123 0.395005 0.786232
0.905268 0.515595 0.810603
0.905748 0.623361 0.826255
0.911502 0.705748 0.850332
0.914325 0.768166 0.854615
0.894124 0.825900 0.852018
0.789839 0.888449 0.890132
0.746319 0.099518 0.332356
0.748357 0.116183 0.167047
0.296648 0.200166 0.088341
0.296120 0.248519 0.090273
0.298488 0.289085 0.093260
0.203735 0.403685 0.162962
0.126611 0.507943 0.448921
0.129622 0.591783 0.756661
0.802313 0.114430 0.283515
0.345527 0.277942 0.092845
0.387153 0.338926 0.104398
0.422165 0.376894 0.108733
0.437769 0.427855 0.114331
0.396969 0.499659 0.129871
0.170099 0.640544 0.560665
0.159957 0.711756 0.840964
0.739101 0.165659 0.152546
0.671435 0.265299 0.118395
0.547635 0.465079 0.125151
0.577980 0.507521 0.130399
0.622697 0.539670 0.136602
0.561367 0.601217 0.150679
0.243769 0.710600 0.522720
0.197579 0.772299 0.844148
0.876738 0.140889 0.570166
0.775714 0.282961 0.189409
0.700052 0.493302 0.137129
0.707706 0.608833 0.158382
0.726943 0.641575 0.168403
0.661891 0.697802 0.186326
0.392058 0.771484 0.498770
0.282519 0.815932 0.795819
0.889884 0.163438 0.640836
0.893414 0.215671 0.597388
0.859557 0.412246 0.295051
0.777252 0.645202 0.178976
0.798486 0.707327 0.201138
0.770701 0.756289 0.212998
0.643551 0.795200 0.350752
0.407604 0.848849 0.780362
0.895975 0.190462 0.714468
0.898173 0.260600 0.706506
0.897883 0.399453 0.540400
0.884184 0.573834 0.380802
0.866828 0.714952 0.258960
0.857692 0.780911 0.260410
0.790112 0.820350 0.302519
0.558578 0.872793 0.765623
0.899316 0.245146 0.735199
0.901220 0.328674 0.766675
0.903928 0.435650 0.775738
0.903026 0.600510 0.597215
0.906585 0.695687 0.583771
0.892975 0.790909 0.384597
0.849601 0.858324 0.371866
0.778255 0.881716 0.566261
0.899108 0.317318 0.764612
0.902510 0.418010 0.792537
0.905473 0.544893 0.812810
0.905264 0.648437 0.809493
0.909411 0.734961 0.761043
0.913891 0.800857 0.745343
0.909463 0.866258 0.512026
0.888684 0.900364 0.538417
