其他预设/【236】赛博朋克风调色预设/【后期菌】视频调色预设/CUBE/Glitch 07.cube
# LUT by SparkleStock. Enhanced with VOXCOLOR algorithms.
LUT_3D_SIZE 32
0.023460 0.054741 0.062561
0.029515 0.056759 0.066597
0.035443 0.058777 0.070633
0.039479 0.060795 0.074670
0.041749 0.062813 0.089049
0.031659 0.064831 0.175827
0.024596 0.066850 0.231577
0.030650 0.068868 0.152871
0.035191 0.071390 0.095860
0.035191 0.075426 0.103932
0.035191 0.079463 0.114527
0.035191 0.083499 0.130672
0.035947 0.088292 0.146060
0.037966 0.094346 0.160187
0.039101 0.103932 0.184025
0.039101 0.118059 0.220351
0.038092 0.131176 0.253650
0.036074 0.143285 0.283921
0.034055 0.157664 0.322139
0.032037 0.173809 0.366537
0.027497 0.197522 0.413458
0.021442 0.225775 0.461893
0.019550 0.251253 0.500615
0.019550 0.275471 0.534923
0.019550 0.305742 0.576798
0.019550 0.338032 0.621196
0.022830 0.378520 0.662315
0.026866 0.420900 0.702677
0.030902 0.457983 0.728912
0.034938 0.494308 0.753130
0.044650 0.532526 0.773563
0.054741 0.570870 0.793744
0.029515 0.058777 0.068615
0.034527 0.059754 0.070568
0.039674 0.060730 0.072782
0.046835 0.061707 0.078901
0.051970 0.062813 0.095363
0.042921 0.064831 0.184225
0.035532 0.067240 0.242058
0.035337 0.071341 0.165435
0.035191 0.075166 0.109466
0.035191 0.078161 0.115455
0.035842 0.082457 0.125594
0.037925 0.089618 0.144864
0.039593 0.097145 0.165330
0.040570 0.105283 0.187789
0.040663 0.116041 0.216315
0.039621 0.130167 0.252641
0.038092 0.144847 0.289585
0.036074 0.160081 0.327148
0.034055 0.176413 0.364454
0.032037 0.193599 0.401561
0.028148 0.219005 0.445097
0.023135 0.249341 0.492490
0.020852 0.278335 0.535899
0.019811 0.306719 0.577498
0.020332 0.337251 0.614166
0.021373 0.368499 0.649189
0.025694 0.407945 0.685165
0.030772 0.449284 0.721361
0.037673 0.490793 0.747075
0.044834 0.532327 0.771293
0.052788 0.565987 0.790749
0.060795 0.599123 0.809889
0.036074 0.062687 0.074796
0.040175 0.062687 0.074861
0.044646 0.062687 0.075414
0.054672 0.062687 0.083291
0.062378 0.062939 0.101650
0.053850 0.064958 0.193375
0.045786 0.067745 0.253902
0.039731 0.073864 0.179232
0.035207 0.078991 0.124125
0.035272 0.081139 0.127706
0.036578 0.085790 0.137166
0.040614 0.095945 0.159560
0.043112 0.106052 0.184884
0.043047 0.116077 0.215090
0.042128 0.127983 0.248088
0.040110 0.142305 0.284674
0.038092 0.158580 0.325134
0.036074 0.176808 0.369467
0.034019 0.195145 0.406037
0.031936 0.213569 0.436569
0.028713 0.240618 0.476988
0.024807 0.272842 0.523339
0.022199 0.305111 0.570809
0.020181 0.337401 0.618788
0.021288 0.368324 0.650508
0.023436 0.398790 0.676808
0.028811 0.437561 0.707922
0.034930 0.478249 0.740146
0.044524 0.523664 0.765307
0.054615 0.569755 0.789459
0.061043 0.598940 0.807936
0.067228 0.626998 0.826033
0.050200 0.064705 0.082868
0.055343 0.064705 0.083975
0.060726 0.064705 0.085309
0.069710 0.064705 0.090062
0.075593 0.064958 0.107509
0.059774 0.066976 0.213817
0.045786 0.069958 0.286192
0.039731 0.077119 0.211522
0.035467 0.083548 0.154592
0.036574 0.087779 0.150881
0.038596 0.094187 0.156305
0.042632 0.105385 0.181824
0.044740 0.115752 0.208711
0.043633 0.124736 0.237875
0.042128 0.137422 0.272110
0.040110 0.154869 0.312862
0.038092 0.173227 0.354884
0.036074 0.192497 0.398176
0.033433 0.213634 0.436634
0.030308 0.236223 0.471332
0.027997 0.264184 0.512662
0.026174 0.295367 0.557972
0.024217 0.327311 0.600104
0.022199 0.359600 0.640791
0.024868 0.392866 0.671470
0.029100 0.426458 0.698812
0.035711 0.470046 0.729275
0.042872 0.515942 0.760457
0.052597 0.557451 0.784577
0.062687 0.598334 0.807687
0.071069 0.624264 0.825122
0.079337 0.649197 0.842178
0.067102 0.066723 0.090941
0.074198 0.066723 0.092959
0.081412 0.066723 0.094977
0.090395 0.066723 0.096995
0.095888 0.066959 0.112765
0.076944 0.068847 0.224802
0.058928 0.071944 0.304639
0.044931 0.080276 0.244943
0.035036 0.088137 0.196118
0.037445 0.094582 0.179908
0.040281 0.102756 0.177633
0.044056 0.114735 0.206017
0.045708 0.125492 0.234401
0.043820 0.134216 0.262784
0.041819 0.147895 0.298003
0.039670 0.167946 0.342011
0.037587 0.188387 0.385335
0.035569 0.209219 0.427976
0.032562 0.232944 0.468126
0.028786 0.258919 0.506340
0.027370 0.287823 0.548175
0.027370 0.318485 0.592182
0.026252 0.350714 0.629521
0.024624 0.383655 0.663829
0.028563 0.418939 0.693303
0.034357 0.455004 0.721166
0.042213 0.502442 0.750668
0.050546 0.552504 0.780549
0.060645 0.590205 0.803366
0.070996 0.626140 0.825175
0.081469 0.649442 0.841674
0.091950 0.671901 0.857819
0.103428 0.068742 0.099013
0.118856 0.068742 0.101031
0.134338 0.068742 0.103049
0.150613 0.068742 0.105067
0.165741 0.068847 0.113807
0.172836 0.069694 0.169598
0.164064 0.072334 0.226194
0.086530 0.082750 0.286281
0.029763 0.092955 0.315055
0.035296 0.102524 0.249890
0.039630 0.112521 0.214285
0.041322 0.123458 0.243710
0.042063 0.135518 0.273135
0.041216 0.149449 0.302560
0.039345 0.165602 0.336998
0.036155 0.184611 0.377881
0.033551 0.207136 0.420684
0.031533 0.233176 0.465408
0.029698 0.258008 0.505884
0.028005 0.281899 0.543056
0.027370 0.311975 0.582547
0.027370 0.345762 0.623430
0.028400 0.382548 0.659793
0.029897 0.420697 0.694100
0.033055 0.455720 0.721231
0.036765 0.489703 0.745969
0.045924 0.534211 0.772346
0.056340 0.581148 0.799102
0.068522 0.615724 0.818795
0.080956 0.648534 0.837479
0.094489 0.673594 0.853782
0.108094 0.698136 0.869927
0.150348 0.070381 0.107085
0.173133 0.070381 0.109299
0.195992 0.070381 0.111537
0.219948 0.070381 0.114141
0.244296 0.070357 0.117632
0.271377 0.070162 0.127332
0.270885 0.072090 0.163373
0.150906 0.083222 0.313558
0.057862 0.095136 0.405528
0.045623 0.109392 0.322851
0.037453 0.122408 0.271626
0.038234 0.132694 0.289593
0.038796 0.146154 0.311955
0.038991 0.164902 0.341641
0.037249 0.183566 0.375029
0.033018 0.202119 0.413177
0.029893 0.226141 0.455167
0.027875 0.255631 0.500997
0.027102 0.282009 0.541811
0.027297 0.305966 0.578723
0.027370 0.337409 0.616163
0.027370 0.373344 0.653921
0.030280 0.414113 0.689039
0.034511 0.457079 0.722956
0.037522 0.491891 0.747498
0.040126 0.523986 0.768916
0.050611 0.565601 0.792609
0.062915 0.609413 0.816826
0.077327 0.641548 0.834322
0.092039 0.672015 0.850857
0.107545 0.697782 0.866111
0.123104 0.723237 0.881279
0.243181 0.070381 0.115158
0.269091 0.070381 0.118413
0.295464 0.070381 0.121822
0.328796 0.070381 0.127551
0.360564 0.070227 0.133516
0.381396 0.068990 0.141133
0.385005 0.069096 0.168255
0.313981 0.075020 0.279901
0.230572 0.085891 0.372653
0.110007 0.111606 0.408718
0.028664 0.132824 0.418621
0.033612 0.144152 0.370968
0.037168 0.159434 0.351145
0.038405 0.181308 0.377706
0.036794 0.202640 0.408881
0.031521 0.223277 0.445988
0.027875 0.246257 0.485894
0.025857 0.271581 0.528600
0.025670 0.301409 0.569804
0.026907 0.334740 0.609840
0.027370 0.368397 0.646500
0.027370 0.402249 0.681133
0.030996 0.444515 0.713842
0.036269 0.490606 0.745676
0.041884 0.525418 0.766573
0.047613 0.556471 0.783824
0.059530 0.595352 0.806735
0.072875 0.636039 0.830953
0.090151 0.668695 0.850271
0.107989 0.700203 0.868890
0.120760 0.722130 0.879391
0.133195 0.743418 0.889351
0.337527 0.069877 0.126257
0.365781 0.069616 0.130554
0.394547 0.069388 0.135070
0.431003 0.069649 0.142882
0.464855 0.069657 0.150768
0.480479 0.067899 0.159165
0.486643 0.066996 0.181356
0.451814 0.069795 0.263317
0.373222 0.080667 0.355678
0.163340 0.115756 0.479238
0.021406 0.143908 0.534971
0.028957 0.156797 0.441488
0.034434 0.173837 0.391556
0.036452 0.197794 0.414211
0.035166 0.221210 0.442847
0.029633 0.243930 0.479173
0.026117 0.267431 0.517907
0.024620 0.291713 0.559050
0.024807 0.324015 0.599571
0.026304 0.362554 0.639607
0.027354 0.397838 0.674314
0.028135 0.431169 0.705822
0.032900 0.474884 0.736301
0.039475 0.523319 0.766312
0.047173 0.557545 0.784605
0.055245 0.587035 0.798993
0.068660 0.623296 0.820943
0.083308 0.661119 0.844640
0.102569 0.693872 0.864577
0.122490 0.725902 0.883977
0.134415 0.745419 0.891597
0.145808 0.764103 0.898433
0.436414 0.067859 0.146438
0.464667 0.066557 0.151777
0.492457 0.065417 0.157204
0.513289 0.066719 0.163975
0.533210 0.067769 0.172120
0.546750 0.067053 0.189893
0.550831 0.067582 0.219114
0.513920 0.073506 0.297950
0.425693 0.087503 0.386405
0.183521 0.125716 0.503715
0.018737 0.156993 0.559384
0.024205 0.173007 0.479441
0.028380 0.191610 0.435629
0.030398 0.214525 0.452034
0.030023 0.238266 0.477154
0.026573 0.263069 0.513480
0.025141 0.291778 0.553777
0.025727 0.324393 0.598045
0.025653 0.356239 0.634660
0.025068 0.387487 0.665322
0.027289 0.422641 0.694560
0.031195 0.460139 0.722944
0.038368 0.505156 0.751730
0.047027 0.553590 0.780699
0.055245 0.585473 0.799513
0.063318 0.611838 0.814942
0.078425 0.645820 0.835396
0.095156 0.681560 0.857009
0.113766 0.713142 0.873951
0.132645 0.744130 0.890226
0.149388 0.765535 0.900581
0.165989 0.786302 0.910541
0.525841 0.065841 0.169773
0.551491 0.064799 0.177129
0.576106 0.063928 0.184445
0.585220 0.065621 0.191150
0.594587 0.067183 0.199841
0.605719 0.067834 0.222430
0.608795 0.069755 0.253638
0.576961 0.077176 0.322188
0.490085 0.091856 0.400715
0.238083 0.128312 0.509171
0.057854 0.161493 0.568681
0.035524 0.187468 0.520507
0.022569 0.212149 0.491887
0.025238 0.234673 0.495859
0.025857 0.258394 0.513273
0.023839 0.283653 0.547971
0.023839 0.315780 0.587877
0.025857 0.354775 0.632992
0.026337 0.387691 0.666718
0.025621 0.415879 0.691586
0.029136 0.451473 0.716495
0.035191 0.491509 0.741428
0.044244 0.535976 0.768196
0.054660 0.582458 0.795799
0.064294 0.612729 0.815052
0.073669 0.637597 0.831522
0.089655 0.669342 0.849950
0.107167 0.702673 0.868829
0.126388 0.733327 0.883265
0.145852 0.763599 0.897066
0.165073 0.785082 0.908975
0.184278 0.805979 0.920758
0.594457 0.063822 0.200044
0.611773 0.065906 0.211567
0.628382 0.067899 0.222919
0.634371 0.068550 0.231707
0.640612 0.069462 0.241570
0.648620 0.072196 0.258952
0.653063 0.075418 0.281045
0.642061 0.080757 0.323555
0.580704 0.090749 0.378906
0.368283 0.114706 0.472781
0.188900 0.147106 0.544724
0.082201 0.198079 0.568421
0.017296 0.238775 0.574955
0.022049 0.262341 0.552886
0.023839 0.285280 0.553374
0.021821 0.307414 0.582865
0.021821 0.339020 0.618084
0.023839 0.380099 0.659032
0.026663 0.417442 0.692107
0.030113 0.451879 0.719058
0.035191 0.489165 0.742144
0.041245 0.528160 0.762911
0.051014 0.568006 0.786945
0.062472 0.608237 0.812464
0.075492 0.638509 0.831978
0.089032 0.665460 0.849490
0.104107 0.695056 0.864727
0.119536 0.725263 0.879440
0.142142 0.755526 0.892444
0.165773 0.785798 0.905203
0.182325 0.803375 0.916071
0.198404 0.820105 0.926812
0.646423 0.064831 0.233343
0.658141 0.069258 0.247079
0.669354 0.073433 0.260563
0.673000 0.073823 0.270263
0.676946 0.074670 0.280565
0.683001 0.078706 0.295082
0.688298 0.082669 0.311137
0.690316 0.086314 0.333857
0.653502 0.092597 0.369744
0.500192 0.106788 0.445129
0.338011 0.135526 0.520230
0.156317 0.196264 0.594705
0.038730 0.247262 0.632145
0.027989 0.282025 0.607863
0.021577 0.311093 0.602094
0.020730 0.332836 0.620126
0.021707 0.364702 0.647729
0.024506 0.406692 0.684901
0.029136 0.447070 0.716397
0.035191 0.486195 0.743479
0.041489 0.524100 0.764986
0.047934 0.561272 0.783149
0.058810 0.597594 0.804937
0.071700 0.633529 0.828373
0.086738 0.663117 0.847268
0.102492 0.690589 0.864650
0.119145 0.719965 0.878065
0.136006 0.749781 0.890564
0.159019 0.777603 0.902380
0.182911 0.805140 0.914098
0.197648 0.819739 0.923191
0.211774 0.833475 0.932110
0.670640 0.070886 0.271687
0.681316 0.076354 0.284381
0.691488 0.081570 0.296823
0.694092 0.083002 0.305482
0.697127 0.084760 0.315003
0.703182 0.088796 0.330561
0.708479 0.092564 0.345705
0.710497 0.095168 0.359051
0.696598 0.099367 0.381657
0.634949 0.108351 0.432044
0.517232 0.128625 0.494841
0.276166 0.173740 0.584940
0.104677 0.225519 0.646207
0.049146 0.288405 0.659422
0.018907 0.335114 0.665175
0.021186 0.361024 0.661335
0.024766 0.394453 0.676438
0.029649 0.435401 0.710485
0.035191 0.476495 0.738856
0.041245 0.517704 0.762813
0.048194 0.554436 0.783149
0.055681 0.588484 0.801312
0.068314 0.623113 0.821668
0.083287 0.658006 0.843021
0.098065 0.685771 0.859833
0.112778 0.711160 0.875131
0.135160 0.743531 0.889001
0.159312 0.777514 0.902542
0.177768 0.799477 0.913577
0.195410 0.819723 0.924253
0.209756 0.832889 0.930352
0.223883 0.845584 0.936146
0.692208 0.078706 0.309148
0.700476 0.084760 0.320801
0.708438 0.090619 0.332344
0.711824 0.093549 0.342239
0.715429 0.096560 0.352801
0.720571 0.100140 0.368035
0.725043 0.103599 0.382096
0.726605 0.106528 0.391080
0.725027 0.109897 0.405988
0.714025 0.114584 0.438668
0.634363 0.127450 0.488193
0.403648 0.158307 0.574776
0.215339 0.209842 0.647566
0.097703 0.295839 0.697367
0.030308 0.357969 0.718517
0.027509 0.389412 0.702828
0.028681 0.425315 0.708394
0.033824 0.465677 0.735215
0.040248 0.506148 0.759180
0.047669 0.546706 0.780923
0.056352 0.582950 0.800714
0.065792 0.616607 0.819332
0.080154 0.649771 0.838712
0.096755 0.682712 0.858437
0.112184 0.709793 0.873280
0.127222 0.734922 0.886495
0.151886 0.766927 0.900451
0.178773 0.800518 0.914578
0.194494 0.818047 0.923578
0.208621 0.833280 0.931845
0.221893 0.844729 0.935719
0.235109 0.855927 0.939299
0.710371 0.088796 0.345473
0.714472 0.094851 0.356085
0.718724 0.100840 0.366912
0.725234 0.105853 0.380973
0.731313 0.110556 0.394921
0.734373 0.113095 0.408071
0.736956 0.116098 0.420831
0.737477 0.121110 0.431898
0.734596 0.125261 0.446285
0.721511 0.126823 0.470632
0.671665 0.133634 0.505640
0.540944 0.151992 0.564100
0.383492 0.201965 0.632593
0.181487 0.304627 0.717809
0.059798 0.379321 0.759334
0.041375 0.418056 0.744687
0.033693 0.457604 0.744524
0.036753 0.497966 0.758846
0.044024 0.536094 0.776757
0.054570 0.572485 0.797459
0.066378 0.609120 0.817509
0.078942 0.645902 0.837170
0.094997 0.677894 0.856159
0.112639 0.707710 0.874842
0.129891 0.735573 0.887862
0.147012 0.762785 0.898994
0.169529 0.790102 0.912560
0.193290 0.817444 0.926686
0.208621 0.832369 0.932041
0.222748 0.845519 0.936142
0.234067 0.854885 0.938779
0.245199 0.863999 0.941317
0.725507 0.102923 0.385835
0.728046 0.109498 0.397488
0.730800 0.115976 0.409259
0.736790 0.120988 0.422800
0.742282 0.125692 0.436292
0.744300 0.128231 0.449442
0.746038 0.131331 0.462007
0.746559 0.136865 0.472032
0.743808 0.141275 0.484336
0.731244 0.142317 0.503475
0.697705 0.146817 0.529857
0.618023 0.158925 0.572172
0.476650 0.209093 0.636629
0.232460 0.322693 0.737990
0.082714 0.408551 0.790420
0.054395 0.458743 0.779939
0.041245 0.500635 0.776391
0.043263 0.534227 0.779776
0.050957 0.567342 0.792902
0.063066 0.600088 0.813603
0.077087 0.635356 0.833654
0.092255 0.672137 0.853314
0.109124 0.703056 0.870513
0.126766 0.731309 0.886593
0.145189 0.758781 0.898962
0.163873 0.785993 0.910094
0.184990 0.809079 0.921966
0.206668 0.831213 0.934010
0.221283 0.844119 0.937281
0.234889 0.855707 0.939299
0.246176 0.864487 0.941317
0.257308 0.873080 0.943336
0.737615 0.121086 0.430234
0.741196 0.128703 0.445011
0.744667 0.136026 0.459386
0.746489 0.138956 0.467719
0.748337 0.141967 0.476914
0.750355 0.145547 0.492148
0.752287 0.149299 0.505624
0.753850 0.153791 0.511483
0.752662 0.157941 0.520141
0.743222 0.161066 0.537197
0.712483 0.166998 0.560845
0.634884 0.179106 0.598993
0.494813 0.231227 0.659675
0.250623 0.350035 0.757910
0.099054 0.445658 0.811773
0.066569 0.511474 0.808583
0.051335 0.554408 0.803993
0.053354 0.574459 0.798004
0.061048 0.599892 0.807614
0.073156 0.629513 0.829358
0.088479 0.661656 0.849148
0.105731 0.695313 0.867767
0.122534 0.725255 0.881775
0.139135 0.753508 0.893689
0.158079 0.779418 0.906578
0.177804 0.804546 0.919794
0.198270 0.823857 0.928672
0.218907 0.841824 0.936549
0.232480 0.853298 0.939299
0.245045 0.863844 0.941317
0.258219 0.873536 0.943336
0.271434 0.883171 0.945354
0.746319 0.136979 0.470091
0.749769 0.144465 0.484478
0.753004 0.151610 0.498271
0.753004 0.153628 0.503154
0.753183 0.155898 0.509151
0.754615 0.159934 0.522952
0.756047 0.164300 0.535582
0.757479 0.170094 0.543133
0.757121 0.175156 0.551808
0.751392 0.178020 0.563851
0.729348 0.183041 0.581103
0.671409 0.192806 0.609812
0.553073 0.238604 0.661225
0.334077 0.344456 0.750477
0.181527 0.442961 0.808627
0.114409 0.532017 0.826790
0.078344 0.588589 0.831705
0.073331 0.612676 0.823373
0.076301 0.635811 0.828589
0.085480 0.658206 0.844343
0.101007 0.686418 0.861236
0.120341 0.718122 0.878813
0.138289 0.747454 0.892049
0.155605 0.775707 0.903311
0.173312 0.798297 0.914964
0.191150 0.818999 0.926747
0.209939 0.835522 0.933400
0.228949 0.851081 0.938868
0.242432 0.861855 0.940805
0.255127 0.871945 0.942237
0.268066 0.879839 0.943120
0.281020 0.887586 0.943966
0.752373 0.151105 0.506417
0.754782 0.157550 0.517679
0.757040 0.163718 0.528413
0.757040 0.165736 0.531212
0.757089 0.168007 0.534866
0.757479 0.172043 0.544500
0.757870 0.176995 0.554916
0.758260 0.185913 0.568718
0.758163 0.192798 0.580257
0.756600 0.193579 0.585009
0.747836 0.195866 0.593016
0.723228 0.201464 0.608184
0.642521 0.234502 0.646056
0.468313 0.313273 0.721768
0.315438 0.409304 0.786428
0.189990 0.527526 0.836881
0.118510 0.607533 0.859503
0.100999 0.649328 0.854295
0.095571 0.674351 0.854433
0.099542 0.686329 0.858730
0.114417 0.709985 0.870676
0.135835 0.740647 0.887211
0.155866 0.769653 0.901554
0.175265 0.797906 0.914899
0.190369 0.815809 0.923948
0.204040 0.830261 0.931565
0.220355 0.844766 0.936590
0.237281 0.859283 0.941016
0.251416 0.869927 0.941911
0.265152 0.880018 0.942302
0.276203 0.884005 0.941167
0.287075 0.887586 0.939930
0.755905 0.163971 0.535175
0.757272 0.170025 0.543312
0.758553 0.175949 0.551312
0.758553 0.179920 0.557236
0.758553 0.183818 0.563103
0.758553 0.187203 0.568571
0.758553 0.191601 0.575431
0.758553 0.200390 0.588321
0.758553 0.207470 0.598981
0.758553 0.209423 0.602952
0.755990 0.212027 0.608429
0.747787 0.216063 0.617217
0.700476 0.237237 0.642850
0.587983 0.286973 0.696558
0.468512 0.364621 0.754139
0.340070 0.478155 0.816700
0.237407 0.576717 0.855727
0.160524 0.660305 0.871221
0.126192 0.705444 0.878000
0.124955 0.720677 0.878000
0.135518 0.741241 0.885242
0.153160 0.765002 0.896830
0.171205 0.789614 0.909715
0.189433 0.814613 0.923191
0.204048 0.829455 0.930124
0.217458 0.840913 0.934877
0.233091 0.854539 0.938518
0.249235 0.868666 0.941903
0.263045 0.876982 0.941757
0.276520 0.884469 0.941106
0.285602 0.886829 0.939784
0.294390 0.888847 0.938416
0.757923 0.176079 0.559392
0.758248 0.182134 0.564405
0.758553 0.188253 0.569865
0.758553 0.195349 0.582039
0.758553 0.201851 0.592853
0.758553 0.204194 0.594155
0.758553 0.207356 0.596654
0.758553 0.214061 0.604335
0.758553 0.220359 0.611871
0.758553 0.225437 0.618967
0.757943 0.230190 0.625941
0.755990 0.234226 0.632646
0.739536 0.244072 0.646821
0.698914 0.263602 0.673447
0.633085 0.313322 0.715795
0.534849 0.401858 0.778356
0.403543 0.516044 0.833007
0.239165 0.655878 0.879749
0.163625 0.732070 0.900199
0.157180 0.758761 0.900199
0.161232 0.777111 0.902884
0.171583 0.790456 0.907181
0.185201 0.808233 0.917072
0.200305 0.828023 0.929506
0.215701 0.840783 0.934616
0.231194 0.851199 0.937285
0.247217 0.864630 0.939690
0.263362 0.878756 0.942034
0.276260 0.883427 0.940845
0.288694 0.886747 0.939153
0.295757 0.888847 0.938742
0.302463 0.890865 0.938416
0.758553 0.193738 0.583609
0.759269 0.200508 0.589078
0.759896 0.207181 0.594819
0.759180 0.212389 0.604649
0.758553 0.217467 0.613429
0.758553 0.221633 0.614861
0.758688 0.226288 0.617160
0.759404 0.233058 0.623214
0.759941 0.239291 0.629594
0.759941 0.243913 0.636951
0.759717 0.248800 0.644124
0.759001 0.254268 0.650894
0.750668 0.264155 0.663279
0.729641 0.281407 0.685023
0.669879 0.337080 0.726504
0.560316 0.442151 0.793361
0.423996 0.560145 0.849315
0.260921 0.691061 0.894364
0.186646 0.763350 0.914879
0.181438 0.790041 0.916311
0.184978 0.805909 0.918109
0.193766 0.815284 0.920127
0.204255 0.827746 0.926621
0.215518 0.841613 0.935149
0.229368 0.851573 0.938258
0.244080 0.860231 0.939560
0.258793 0.872169 0.940862
0.273505 0.884864 0.942164
0.285940 0.887590 0.941187
0.298048 0.888892 0.939885
0.307166 0.890865 0.939804
0.316085 0.892883 0.939804
0.758553 0.213919 0.607826
0.760311 0.221731 0.615378
0.761849 0.229119 0.622681
0.760091 0.230161 0.626262
0.758553 0.231984 0.629834
0.758553 0.239275 0.633350
0.758883 0.246664 0.637341
0.760641 0.254476 0.643395
0.761959 0.260970 0.649515
0.761959 0.263509 0.655830
0.761410 0.267614 0.662612
0.759652 0.275165 0.670424
0.749106 0.290261 0.685413
0.723912 0.317928 0.712365
0.648591 0.394954 0.759509
0.508822 0.535439 0.832617
0.378231 0.651871 0.883362
0.256819 0.744248 0.911746
0.203116 0.796747 0.926141
0.202074 0.818230 0.929656
0.207828 0.831494 0.932236
0.217658 0.839827 0.934254
0.225608 0.847667 0.937167
0.232704 0.855284 0.940487
0.243950 0.862119 0.941513
0.256579 0.868694 0.941773
0.269209 0.878549 0.942034
0.281838 0.889160 0.942294
0.294012 0.890714 0.942099
0.306121 0.890975 0.941838
0.319145 0.892883 0.941822
0.332230 0.894901 0.941822
0.758553 0.229559 0.624476
0.760571 0.237631 0.631767
0.762386 0.245346 0.638875
0.761149 0.247689 0.643237
0.760067 0.250554 0.647362
0.760067 0.257064 0.649836
0.760738 0.264160 0.653128
0.764319 0.273794 0.659963
0.767004 0.282111 0.666408
0.767004 0.286473 0.671681
0.766618 0.291750 0.677829
0.765381 0.299041 0.685902
0.758578 0.312899 0.700077
0.742498 0.337702 0.724425
0.688481 0.400585 0.763953
0.585688 0.512426 0.822998
0.472935 0.619093 0.869707
0.350222 0.720584 0.904080
0.277200 0.785126 0.923586
0.242827 0.820931 0.931528
0.233314 0.841356 0.936256
0.238718 0.852554 0.939055
0.245106 0.861289 0.941317
0.251941 0.868906 0.943336
0.259802 0.873593 0.943254
0.268004 0.877304 0.942473
0.278746 0.884294 0.942326
0.290073 0.892041 0.942326
0.304135 0.893693 0.942326
0.318587 0.894474 0.942326
0.332002 0.896415 0.942326
0.345347 0.898433 0.942326
0.758553 0.243686 0.638602
0.760571 0.251758 0.644852
0.762451 0.259668 0.651179
0.762256 0.265136 0.658665
0.762085 0.270474 0.665265
0.762085 0.274901 0.665656
0.763147 0.280695 0.667450
0.768811 0.292413 0.675327
0.773058 0.303073 0.682293
0.773058 0.310560 0.686524
0.772997 0.317659 0.691956
0.772802 0.323909 0.700028
0.771728 0.334382 0.712251
0.769189 0.351894 0.731390
0.748764 0.388802 0.758875
0.705342 0.450647 0.797088
0.614463 0.544814 0.840152
0.476125 0.671303 0.888066
0.370488 0.758500 0.916425
0.290285 0.815137 0.929575
0.259680 0.845978 0.936907
0.258834 0.861342 0.940748
0.263985 0.872812 0.943336
0.271862 0.882512 0.945354
0.276077 0.885376 0.944491
0.279071 0.885962 0.942668
0.287990 0.889827 0.942326
0.298276 0.894450 0.942326
0.314942 0.896622 0.942326
0.332519 0.898445 0.942326
0.345152 0.900451 0.942326
0.357456 0.902469 0.942326
0.763472 0.267650 0.657648
0.765490 0.276569 0.663703
0.767382 0.285256 0.669777
0.767382 0.290464 0.676157
0.767488 0.295843 0.682057
0.768335 0.302418 0.684596
0.769840 0.309872 0.688013
0.774202 0.321134 0.695239
0.777473 0.331599 0.701880
0.777473 0.339671 0.706762
0.777737 0.348171 0.712113
0.778584 0.357611 0.718492
0.779430 0.367978 0.727069
0.780276 0.379891 0.739308
0.772920 0.402884 0.758240
0.755018 0.440121 0.785777
0.699552 0.509517 0.820964
0.606524 0.611073 0.863800
0.496359 0.705745 0.898103
0.372864 0.795062 0.925771
0.311540 0.843407 0.938140
0.287518 0.867169 0.941330
0.282652 0.880368 0.943132
0.286493 0.888765 0.944304
0.292140 0.891500 0.943718
0.298390 0.892346 0.942546
0.307073 0.895096 0.943014
0.316317 0.898286 0.943860
0.330403 0.899710 0.943226
0.345181 0.900882 0.942379
0.362216 0.902847 0.942326
0.379403 0.904866 0.942326
0.769527 0.293886 0.677829
0.771545 0.303846 0.683884
0.773437 0.313444 0.689828
0.773437 0.317611 0.694125
0.773673 0.322469 0.698592
0.775561 0.332169 0.704256
0.777522 0.341966 0.710017
0.779800 0.352187 0.716202
0.781509 0.361871 0.722321
0.781509 0.369943 0.728245
0.782099 0.379745 0.733661
0.783987 0.393350 0.737957
0.785875 0.404369 0.742498
0.787763 0.411074 0.747446
0.788739 0.422934 0.758631
0.788544 0.441423 0.777835
0.771618 0.483217 0.804168
0.737961 0.548317 0.837629
0.629749 0.646960 0.877206
0.463549 0.771691 0.921539
0.369284 0.839176 0.939507
0.318180 0.872311 0.941655
