其他预设/【236】赛博朋克风调色预设/【后期菌】视频调色预设/CUBE/Glitch 02.cube
# LUT by SparkleStock. Enhanced with VOXCOLOR algorithms.
LUT_3D_SIZE 5
DOMAIN_MIN 0.000000 0.000000 0.000000
DOMAIN_MAX 0.903226 0.903226 0.903226
0.000000 0.000000 0.000000
0.033173 0.080976 0.184908
0.059156 0.198783 0.296661
0.095860 0.456721 0.642386
0.149592 0.692334 0.779113
0.307382 0.035443 0.146691
0.477484 0.086534 0.381006
0.089500 0.398091 0.583316
0.129789 0.650752 0.752003
0.235454 0.787437 0.845836
0.869423 0.070381 0.390502
0.893424 0.080761 0.506022
0.146833 0.613173 0.772554
0.208226 0.759688 0.822628
0.339859 0.844701 0.883004
0.936524 0.153376 0.707344
0.937928 0.207250 0.747352
0.791738 0.440202 0.819991
0.316256 0.833622 0.874085
0.448645 0.869170 0.893261
0.928830 0.360231 0.794753
0.923838 0.430234 0.809112
0.921010 0.507743 0.829907
0.588744 0.860475 0.900797
0.606907 0.889351 0.904821
0.072147 0.007820 0.072147
0.085094 0.079817 0.281627
0.069803 0.238079 0.348212
0.096246 0.503500 0.670900
0.162656 0.708479 0.795005
0.455509 0.047515 0.168141
0.802358 0.073578 0.415476
0.113089 0.583746 0.721999
0.191586 0.743039 0.812456
0.319026 0.832726 0.871742
0.878557 0.074344 0.434445
0.932659 0.131697 0.680337
0.371924 0.608018 0.819559
0.297214 0.820729 0.862396
0.427099 0.861334 0.884664
0.937155 0.170033 0.725649
0.931384 0.311725 0.783709
0.908999 0.418054 0.820732
0.405661 0.855617 0.884454
0.566676 0.872909 0.892704
0.926235 0.385099 0.799294
0.915786 0.557061 0.834594
0.912417 0.627926 0.853070
0.720502 0.865314 0.912217
0.701142 0.893779 0.904631
0.334374 0.044777 0.162079
0.632101 0.058850 0.292319
0.076057 0.273656 0.402322
0.101283 0.552646 0.695805
0.177572 0.730572 0.803476
0.798390 0.065499 0.266104
0.896459 0.085246 0.525998
0.218621 0.574171 0.786099
0.211129 0.763034 0.826448
0.345558 0.842589 0.877584
0.888481 0.078307 0.482879
0.935971 0.152468 0.711014
0.845611 0.406035 0.806477
0.379397 0.843868 0.872365
0.538372 0.865782 0.883937
0.941696 0.196354 0.745025
0.929062 0.336101 0.785222
0.916050 0.510572 0.824941
0.572229 0.855090 0.888909
0.668361 0.876047 0.891228
0.924920 0.406960 0.801206
0.914516 0.588394 0.843902
0.914179 0.725702 0.880594
0.882710 0.799875 0.909558
0.768500 0.897117 0.906863
0.805222 0.069120 0.274083
0.857542 0.072005 0.356606
0.109816 0.481020 0.705240
0.114678 0.593464 0.721719
0.194527 0.749757 0.820862
0.882137 0.076057 0.455891
0.918550 0.119021 0.518209
0.745912 0.344539 0.707837
0.238170 0.788873 0.847390
0.366175 0.852733 0.886699
0.929620 0.122819 0.679615
0.938703 0.239203 0.761727
0.926139 0.390308 0.797614
0.463663 0.847803 0.886452
0.568991 0.870900 0.891228
0.939474 0.224510 0.758374
0.928319 0.369806 0.794061
0.917914 0.550994 0.836181
0.752550 0.834032 0.901709
0.752424 0.891457 0.899977
0.923155 0.435088 0.809795
0.912771 0.611093 0.848366
0.916234 0.744699 0.884549
0.917939 0.827018 0.906477
0.832114 0.908637 0.917918
0.880774 0.073913 0.398827
0.512129 0.214818 0.037750
0.268310 0.316292 0.085143
0.116081 0.569544 0.384094
0.212535 0.771467 0.831709
0.869785 0.159027 0.130639
0.495157 0.469843 0.066698
0.539746 0.537213 0.066653
0.370761 0.656114 0.224463
0.379780 0.855579 0.878319
0.934885 0.188188 0.687452
0.862971 0.459180 0.148029
0.806268 0.695861 0.057761
0.591451 0.763170 0.218140
0.587819 0.872398 0.834625
0.929115 0.321948 0.784947
0.923736 0.485530 0.723849
0.911378 0.738910 0.156776
0.873387 0.823088 0.118847
0.741232 0.886129 0.783540
0.920042 0.468049 0.815821
0.913052 0.644619 0.856806
0.921069 0.774765 0.824488
0.928282 0.853328 0.710223
0.892580 0.880112 0.543789
