其他预设/【236】赛博朋克风调色预设/【后期菌】视频调色预设/CUBE/Glitch 04.cube
# LUT by SparkleStock. Enhanced with VOXCOLOR algorithms.
LUT_3D_SIZE 5
DOMAIN_MIN 0.000000 0.000000 0.000000
DOMAIN_MAX 0.903226 0.903226 0.903226
0.000000 0.000000 0.003910
0.037966 0.109482 0.231451
0.063444 0.242172 0.346483
0.084760 0.390628 0.574528
0.095607 0.572888 0.733579
0.387223 0.041497 0.245325
0.463325 0.088975 0.427227
0.084850 0.365638 0.531444
0.088276 0.532038 0.699768
0.116891 0.681056 0.811496
0.849494 0.080850 0.443477
0.890108 0.092239 0.551755
0.116008 0.492734 0.732676
0.106076 0.649482 0.784756
0.149905 0.780207 0.876258
0.937786 0.138997 0.727525
0.938803 0.172430 0.763765
0.773628 0.364271 0.823194
0.144595 0.761047 0.864170
0.214952 0.838077 0.891150
0.936651 0.306625 0.808627
0.932342 0.362607 0.819076
0.924920 0.419195 0.832828
0.421742 0.840632 0.902530
0.389619 0.878004 0.900911
0.127140 0.018037 0.133447
0.128410 0.098382 0.333703
0.068778 0.267830 0.379566
0.086408 0.416729 0.606329
0.098688 0.593175 0.750786
0.486492 0.045362 0.267117
0.776038 0.079962 0.463844
0.086375 0.473907 0.666981
0.096191 0.626328 0.771501
0.142956 0.759155 0.862656
0.869476 0.090615 0.495566
0.938435 0.122787 0.697371
0.336291 0.526148 0.809953
0.128405 0.732258 0.845520
0.205267 0.830094 0.888721
0.938803 0.148078 0.740903
0.938416 0.266530 0.797294
0.916517 0.340485 0.834081
0.190773 0.818572 0.885756
0.343347 0.864922 0.894926
0.934506 0.325366 0.811024
0.921035 0.470743 0.837516
0.916262 0.554087 0.853922
0.637069 0.851127 0.909678
0.604505 0.888209 0.904020
0.417116 0.040867 0.259452
0.589126 0.056507 0.373609
0.069803 0.295338 0.415196
0.088813 0.444535 0.631730
0.103049 0.614658 0.766626
0.764677 0.066923 0.356304
0.897385 0.096348 0.568197
0.202407 0.478697 0.760848
0.105281 0.655272 0.789953
0.153998 0.780362 0.875920
0.885852 0.092182 0.531448
0.942127 0.135627 0.725857
0.846498 0.335260 0.817543
0.174843 0.808274 0.883354
0.318071 0.859762 0.892729
0.942184 0.163340 0.760462
0.936175 0.286926 0.800222
0.923643 0.422102 0.832509
0.387564 0.842006 0.892384
0.550719 0.874689 0.889604
0.934506 0.345156 0.811276
0.919440 0.502503 0.844334
0.911554 0.677255 0.883203
0.871316 0.773299 0.912555
0.733979 0.895313 0.905629
0.769401 0.069120 0.359348
0.831905 0.080960 0.418455
0.095437 0.388073 0.643595
0.084964 0.470742 0.652924
0.108473 0.634851 0.783812
0.871929 0.088174 0.507031
0.925180 0.140215 0.576271
0.723665 0.342107 0.703545
0.114071 0.683462 0.812597
0.166184 0.798027 0.884233
0.937692 0.117664 0.696468
0.939157 0.195921 0.777601
0.934377 0.333382 0.809919
0.274243 0.816976 0.887474
0.351406 0.865195 0.894441
0.939047 0.183492 0.772322
0.936139 0.312636 0.806116
0.922824 0.463156 0.837079
0.719964 0.813447 0.898925
0.707358 0.887754 0.896973
0.930975 0.367607 0.820044
0.917784 0.534897 0.849941
0.912591 0.700020 0.890175
0.916194 0.808133 0.912498
0.813186 0.909178 0.917344
0.868666 0.089932 0.469208
0.527534 0.273745 0.055953
0.330663 0.350580 0.073115
0.136930 0.533979 0.357228
0.111248 0.664891 0.793577
0.858718 0.211941 0.199584
0.504742 0.467996 0.074128
0.542838 0.526813 0.079936
0.397004 0.641142 0.224096
0.184910 0.809397 0.872479
0.940561 0.178077 0.714151
0.856118 0.480139 0.186188
0.809186 0.690428 0.081921
0.601311 0.752730 0.277498
0.413629 0.867358 0.837603
0.936935 0.271748 0.798158
0.928450 0.446065 0.739526
0.913016 0.726853 0.217127
0.876447 0.824387 0.180110
0.685159 0.886938 0.802940
0.928240 0.389253 0.823641
0.916254 0.577094 0.857665
0.918830 0.752731 0.825527
0.924657 0.852282 0.729088
0.879155 0.879127 0.570686
