其他预设/【236】赛博朋克风调色预设/【后期菌】视频调色预设/CUBE/Glitch 04_S.cube
# LUT by SparkleStock. Enhanced with VOXCOLOR algorithms.
LUT_3D_SIZE 8
DOMAIN_MIN 0.000000 0.000000 0.000000
DOMAIN_MAX 0.903226 0.903226 0.903226
0.000000 0.000000 0.003910
0.080346 0.018037 0.109986
0.028884 0.115032 0.167881
0.057011 0.198404 0.289850
0.083120 0.278876 0.393277
0.093842 0.353924 0.515246
0.088418 0.453442 0.642891
0.095607 0.572888 0.733579
0.141772 0.024469 0.149466
0.205736 0.032408 0.217267
0.068379 0.181885 0.328942
0.107920 0.258793 0.338886
0.155207 0.305490 0.391129
0.177385 0.369573 0.472829
0.156334 0.483449 0.604392
0.122799 0.624036 0.765141
0.485605 0.044524 0.268029
0.620435 0.059693 0.299790
0.511987 0.098391 0.448938
0.138590 0.314067 0.382979
0.189714 0.358721 0.391263
0.217812 0.422450 0.456213
0.210778 0.529739 0.586738
0.168837 0.652831 0.749146
0.783906 0.071895 0.374988
0.820785 0.083828 0.415110
0.746681 0.117493 0.466694
0.174846 0.385136 0.512492
0.188509 0.440955 0.433948
0.230442 0.509696 0.482065
0.217825 0.601609 0.621200
0.172637 0.723330 0.802667
0.889856 0.092959 0.543373
0.907323 0.098130 0.604543
0.892016 0.119703 0.629391
0.565190 0.314620 0.612147
0.178199 0.548260 0.551824
0.206330 0.613954 0.585941
0.206981 0.691854 0.711242
0.182715 0.793638 0.860333
0.928200 0.123356 0.697001
0.933290 0.140681 0.722317
0.934653 0.167124 0.747889
0.846804 0.262422 0.739695
0.299956 0.622486 0.747820
0.164349 0.712373 0.759432
0.180917 0.781684 0.835672
0.206302 0.830387 0.882475
0.938416 0.191719 0.777221
0.939832 0.226939 0.788068
0.940308 0.262341 0.798594
0.928554 0.298207 0.820939
0.529161 0.662567 0.875400
0.189897 0.807744 0.888074
0.194999 0.829610 0.892423
0.267557 0.855727 0.894775
0.923785 0.313058 0.797906
0.923785 0.341010 0.804213
0.922398 0.373247 0.810243
0.921641 0.405833 0.817835
0.902469 0.453755 0.842809
0.533299 0.797341 0.892004
0.326257 0.864483 0.887280
0.392732 0.878004 0.890190
0.068994 0.004667 0.069246
0.107989 0.020897 0.139937
0.031342 0.124268 0.194450
0.077347 0.200752 0.298329
0.122030 0.268721 0.382117
0.141637 0.335257 0.487046
0.120134 0.445650 0.623662
0.105950 0.577705 0.734841
0.174212 0.028599 0.165240
0.421196 0.044792 0.259530
0.487148 0.090028 0.384718
0.146593 0.270613 0.368421
0.211575 0.306804 0.396301
0.242252 0.362727 0.453344
0.235308 0.456817 0.575943
0.175341 0.623290 0.740872
0.543215 0.048971 0.282977
0.738085 0.069799 0.344904
0.612264 0.122206 0.402385
0.189747 0.325604 0.411361
0.245480 0.358543 0.380649
0.293242 0.399853 0.416365
0.296633 0.486130 0.525396
0.238607 0.638745 0.710147
0.823096 0.074369 0.400865
0.859799 0.095530 0.510150
0.730842 0.146220 0.466463
0.273543 0.385129 0.464089
0.249333 0.442733 0.398353
0.305242 0.487576 0.426052
0.315628 0.568273 0.535886
0.270664 0.703424 0.722266
0.898559 0.097560 0.579756
0.932151 0.117053 0.691094
0.828561 0.172933 0.614374
0.671813 0.308924 0.540287
0.244573 0.558723 0.500231
0.280226 0.611265 0.520458
0.288486 0.687193 0.635693
0.272520 0.777393 0.770794
0.940894 0.131474 0.721515
0.939672 0.178818 0.766802
0.916754 0.219055 0.758539
0.835330 0.303055 0.693365
0.434224 0.622921 0.673133
0.233796 0.734565 0.697156
0.250004 0.789526 0.769789
0.319059 0.822571 0.791509
0.940658 0.207360 0.782335
0.939081 0.284265 0.800839
0.934506 0.312419 0.809376
0.922808 0.351664 0.807750
0.722464 0.569843 0.831173
0.267205 0.824151 0.858981
0.264552 0.843211 0.862863
0.396938 0.856980 0.819606
0.921641 0.320866 0.798183
0.918471 0.390890 0.814364
0.917977 0.435524 0.818738
0.916164 0.479439 0.829197
0.910287 0.525464 0.853205
0.667059 0.781403 0.900309
0.439113 0.877721 0.893059
0.533466 0.886201 0.883836
0.150853 0.021064 0.155646
0.243604 0.032729 0.221792
0.097231 0.137503 0.428793
0.094008 0.201655 0.317920
0.141898 0.259330 0.398961
0.164223 0.332356 0.505029
0.144925 0.436105 0.624280
0.106178 0.590323 0.745334
0.321989 0.039198 0.242078
0.628638 0.053972 0.296441
0.523981 0.090801 0.406477
0.165757 0.266617 0.405285
0.231796 0.292368 0.419541
0.273755 0.341802 0.474439
0.269681 0.434059 0.576945
0.210865 0.593130 0.723666
0.592084 0.054542 0.288259
0.750918 0.074946 0.362681
0.650789 0.125918 0.430108
0.219052 0.342412 0.478026
0.259147 0.374380 0.440133
0.312892 0.407812 0.474122
0.339398 0.479979 0.550179
0.288127 0.649306 0.717784
0.832185 0.080065 0.416750
0.838506 0.105242 0.518829
0.717548 0.170627 0.524356
0.523526 0.289374 0.480856
0.271355 0.460865 0.470736
0.328039 0.498245 0.490533
0.374226 0.556638 0.543808
0.352362 0.671525 0.675496
0.886312 0.099001 0.579679
0.921755 0.130616 0.699809
0.801272 0.211146 0.652468
0.698434 0.300780 0.562946
0.366038 0.547446 0.532612
0.323963 0.617621 0.540573
0.378107 0.656207 0.572858
0.418543 0.718910 0.655158
0.919818 0.142097 0.713614
0.920617 0.192345 0.759559
0.896192 0.276650 0.763841
0.815558 0.344855 0.682802
0.643956 0.521185 0.667877
0.299150 0.741733 0.676908
0.357183 0.770100 0.677443
0.490416 0.776483 0.658778
0.926397 0.219928 0.772713
0.926132 0.298243 0.794350
0.922855 0.376234 0.814400
0.916511 0.413148 0.816512
0.875315 0.469582 0.813608
0.565241 0.793704 0.839767
0.394687 0.837626 0.752763
0.573341 0.839370 0.701411
0.923301 0.333719 0.806658
0.919080 0.408595 0.819573
0.913312 0.511679 0.838527
0.911517 0.554683 0.844579
0.911982 0.599795 0.863243
0.768262 0.772428 0.900755
0.581762 0.881016 0.827327
0.670511 0.888318 0.777290
0.330338 0.039101 0.241541
0.450309 0.044272 0.265099
0.359641 0.074808 0.464948
0.093423 0.222520 0.357440
0.132816 0.273636 0.434730
0.149197 0.347097 0.551690
0.133614 0.463036 0.659797
0.108058 0.600527 0.755689
0.558729 0.049850 0.287075
0.768788 0.068135 0.359210
0.684411 0.085605 0.423825
0.197506 0.277584 0.565493
0.219695 0.315905 0.506572
0.259953 0.358460 0.552438
0.250036 0.463195 0.649219
0.191168 0.630119 0.773715
0.739707 0.064425 0.345543
0.814055 0.089899 0.436902
0.727250 0.126779 0.522589
0.533397 0.221133 0.551012
0.259167 0.381774 0.536100
0.312603 0.417125 0.553668
0.330959 0.502287 0.627907
0.288615 0.654108 0.753985
0.824691 0.084846 0.430913
0.868891 0.097987 0.555250
0.756345 0.166292 0.597419
0.618603 0.280212 0.576159
0.315712 0.479001 0.575966
0.334982 0.524626 0.580718
0.400497 0.565866 0.604767
0.429254 0.648945 0.678646
0.906208 0.102451 0.605727
0.930077 0.129269 0.709317
0.813765 0.219473 0.692054
0.731443 0.306570 0.635324
0.521836 0.490407 0.616481
0.349243 0.630534 0.603912
0.445066 0.641378 0.591658
0.558707 0.673636 0.622680
0.931683 0.147842 0.731655
0.931683 0.198584 0.775259
0.895261 0.293267 0.775763
0.831301 0.381107 0.731593
0.782427 0.450997 0.718258
0.409988 0.744275 0.705882
0.467348 0.745207 0.639448
0.636050 0.748390 0.631166
0.931093 0.228888 0.779739
0.930645 0.309793 0.804396
0.926966 0.387135 0.820972
0.903027 0.486372 0.825399
0.873473 0.539266 0.821955
0.654150 0.787416 0.810464
0.526066 0.831502 0.713338
0.706437 0.823128 0.658120
0.927118 0.337023 0.808843
0.924898 0.424176 0.827846
0.917235 0.526944 0.846251
0.911624 0.626980 0.870243
0.909459 0.666882 0.879515
0.860628 0.733891 0.872399
0.690017 0.887303 0.787879
0.756351 0.890739 0.736130
0.549302 0.049948 0.283669
0.666408 0.058142 0.310914
0.645422 0.087673 0.426405
0.087295 0.291351 0.478697
0.105446 0.315296 0.485011
0.115251 0.392952 0.600132
0.104551 0.517036 0.693974
0.103603 0.620712 0.773689
0.743723 0.066666 0.346047
0.843982 0.083470 0.434721
0.827399 0.090762 0.500706
0.412036 0.206972 0.663170
0.177133 0.363698 0.600928
0.204460 0.419431 0.649509
0.198488 0.535092 0.727859
0.157884 0.684877 0.817590
0.834610 0.082351 0.421160
0.887956 0.092446 0.552904
0.829221 0.125199 0.644395
0.657432 0.221321 0.655262
0.231454 0.427153 0.664800
0.268215 0.477074 0.670636
0.274019 0.576688 0.740388
0.261672 0.704316 0.814755
0.872519 0.091274 0.521313
0.922675 0.112937 0.662573
0.838063 0.167197 0.697318
0.733689 0.261765 0.687987
0.369295 0.496546 0.691316
0.304933 0.577461 0.698047
0.360924 0.618216 0.715197
0.440613 0.654397 0.734553
0.921104 0.102891 0.635706
0.937306 0.134587 0.720617
0.874325 0.205716 0.745147
0.799562 0.299345 0.721852
0.705712 0.446042 0.728789
0.375196 0.681447 0.726322
0.468320 0.669187 0.689513
0.628014 0.679624 0.691668
0.940036 0.148562 0.744479
0.938831 0.207437 0.780027
0.926994 0.294696 0.796032
0.883619 0.377594 0.789750
0.841253 0.466969 0.793452
0.578166 0.733758 0.769176
0.539852 0.753316 0.705130
0.715913 0.746955 0.690526
0.937851 0.247506 0.791233
0.934161 0.317990 0.809352
0.928125 0.397500 0.825444
0.918911 0.500572 0.842213
0.897619 0.603731 0.850910
0.813952 0.686697 0.812728
0.655846 0.823323 0.736555
0.770590 0.819521 0.702437
0.912869 0.356138 0.809055
0.910340 0.442599 0.824951
0.907236 0.546189 0.843560
0.898558 0.647452 0.868749
0.906165 0.728712 0.886606
0.873531 0.766570 0.859316
0.780538 0.879976 0.803055
0.804530 0.896211 0.757551
0.729039 0.065084 0.333113
0.791356 0.070426 0.372006
0.764852 0.081416 0.483278
0.152098 0.310991 0.622511
0.085769 0.392402 0.580350
0.087901 0.438835 0.629293
0.091445 0.546856 0.713272
0.106455 0.631726 0.780687
0.829024 0.078417 0.406305
0.891017 0.092092 0.471003
0.901738 0.098808 0.542216
0.712513 0.219573 0.604709
0.131217 0.481842 0.723796
0.135991 0.528783 0.727036
0.132673 0.634360 0.789219
0.131494 0.729388 0.848611
0.873117 0.090094 0.509049
0.926069 0.108512 0.654422
0.912831 0.148378 0.648249
0.833003 0.208079 0.699890
0.298892 0.518452 0.773337
0.184572 0.600609 0.779961
0.185175 0.699512 0.835831
0.232956 0.748035 0.859653
0.911693 0.102183 0.626518
0.934770 0.126962 0.712783
0.917717 0.179657 0.757696
0.869771 0.258499 0.764557
0.732632 0.410919 0.770565
0.262135 0.684277 0.820795
0.290651 0.710710 0.822731
0.407337 0.704395 0.810479
0.937725 0.121505 0.704410
0.937489 0.166371 0.759503
0.936841 0.238434 0.789150
0.894642 0.323575 0.792759
0.841290 0.418491 0.815277
0.430156 0.742919 0.834672
0.432662 0.727644 0.796768
0.624270 0.705261 0.774799
0.935939 0.166322 0.757276
0.934888 0.227054 0.781618
0.931833 0.304180 0.801733
0.925384 0.383073 0.821148
0.902875 0.479520 0.831509
0.775247 0.645652 0.835064
0.604130 0.771433 0.785436
0.761265 0.757707 0.764348
0.933245 0.256754 0.792861
0.928036 0.330556 0.810675
0.921767 0.409609 0.825002
0.915617 0.518360 0.843879
0.904280 0.623732 0.865013
0.841830 0.704473 0.845004
0.740919 0.830983 0.806210
0.804585 0.831615 0.779796
0.922259 0.365219 0.816378
0.917446 0.452083 0.832808
0.912051 0.558232 0.851443
0.905627 0.654576 0.875509
0.909529 0.740534 0.894986
0.889595 0.802900 0.882125
0.818207 0.880170 0.853367
0.828010 0.899982 0.820913
0.823259 0.073408 0.396178
0.856850 0.087283 0.426918
0.868206 0.117257 0.254500
0.742311 0.195817 0.204536
0.100185 0.428610 0.400890
0.086257 0.522688 0.677935
0.093886 0.567570 0.727838
0.107338 0.643648 0.787616
0.869492 0.087787 0.489072
0.727826 0.246865 0.066263
0.756966 0.275466 0.084089
0.635910 0.347063 0.079383
0.136358 0.562764 0.526664
0.103547 0.646085 0.705851
0.115254 0.678022 0.807839
0.139460 0.738898 0.857200
0.915391 0.100034 0.585985
0.926437 0.142603 0.586740
0.852842 0.341214 0.181861
0.851570 0.385485 0.189926
0.780851 0.465957 0.282076
0.193467 0.713039 0.641413
0.150829 0.765609 0.867537
0.200886 0.798869 0.885166
0.933876 0.118226 0.699943
0.934139 0.171413 0.691411
0.920987 0.294758 0.487900
0.910601 0.420769 0.347429
0.865302 0.535144 0.359736
0.321701 0.768992 0.747344
0.251274 0.780579 0.873220
0.372376 0.760348 0.868149
0.935263 0.153099 0.748666
0.933533 0.215486 0.782279
0.934071 0.296732 0.774766
0.930971 0.423223 0.578952
0.901556 0.591803 0.503824
0.540604 0.774355 0.709317
0.403611 0.780951 0.837284
0.595258 0.754197 0.850743
0.926149 0.205529 0.779568
0.925775 0.282509 0.800794
0.925195 0.357290 0.816205
0.917161 0.451448 0.822196
0.914444 0.573563 0.798830
0.866430 0.706008 0.686732
0.633294 0.804274 0.823861
0.751768 0.792446 0.847560
0.938372 0.271577 0.799168
0.934132 0.345171 0.817075
0.923980 0.432088 0.831697
0.916897 0.538414 0.846108
0.912136 0.643367 0.870408
0.888106 0.738771 0.827668
0.771813 0.846309 0.868000
0.804873 0.855870 0.859532
0.923089 0.379708 0.824646
0.915470 0.464605 0.832483
0.911888 0.573936 0.856603
0.906385 0.669712 0.878978
0.912783 0.752565 0.898401
0.914248 0.813529 0.901662
0.891386 0.868747 0.872534
0.842725 0.907799 0.880126
0.868666 0.089932 0.469208
0.861135 0.138927 0.218581
0.414341 0.307353 0.052747
0.355592 0.339619 0.065230
0.303549 0.361940 0.086754
0.167852 0.507548 0.302414
0.114552 0.625330 0.593228
0.111248 0.664891 0.793577
0.898502 0.114873 0.396793
0.405667 0.367658 0.064534
0.406318 0.400158 0.074181
0.415473 0.424844 0.079183
0.392777 0.455294 0.093806
0.317106 0.538328 0.180870
0.159589 0.715882 0.670073
0.140776 0.753047 0.860625
0.839928 0.235914 0.184457
0.766260 0.353375 0.089083
0.541838 0.502733 0.081048
0.563522 0.534782 0.083493
0.620401 0.564644 0.080266
0.504394 0.611466 0.154737
0.226292 0.777393 0.668644
0.205684 0.816241 0.868048
0.934559 0.156565 0.673610
0.861568 0.377729 0.202033
0.759491 0.552030 0.058540
0.728636 0.630639 0.077786
0.751674 0.661277 0.082406
0.617269 0.693496 0.165552
0.364721 0.806475 0.608743
0.330385 0.840443 0.846702
0.940561 0.199462 0.743121
0.936819 0.286726 0.694352
0.914406 0.484861 0.312952
0.813622 0.683677 0.087020
0.822892 0.738102 0.107233
0.762198 0.759363 0.139052
0.649209 0.782383 0.422196
0.550384 0.823643 0.836736
0.933697 0.259200 0.794122
0.930974 0.336767 0.786202
0.929312 0.479666 0.614432
0.920502 0.649541 0.388756
0.901336 0.755562 0.201693
0.882124 0.807975 0.182342
0.790792 0.799301 0.322610
0.697171 0.842234 0.828841
0.935821 0.321435 0.810121
0.928933 0.400961 0.826175
0.919874 0.511226 0.826276
0.926234 0.669165 0.647901
0.927882 0.754177 0.611014
0.912890 0.825350 0.358264
0.845396 0.842867 0.383211
0.803827 0.855196 0.644063
0.911559 0.394168 0.823641
0.906458 0.494474 0.840651
0.903472 0.605898 0.862942
0.902347 0.702038 0.865350
0.915844 0.784064 0.817604
0.918332 0.837091 0.807611
0.904499 0.870206 0.530980
0.881092 0.878065 0.583742
