其他预设/【236】赛博朋克风调色预设/【后期菌】视频调色预设/CUBE/Glitch 10_S.cube
# LUT by SparkleStock. Enhanced with VOXCOLOR algorithms.
LUT_3D_SIZE 8
DOMAIN_MIN 0.000000 0.000000 0.000000
DOMAIN_MAX 0.903226 0.903226 0.903226
0.003910 0.007820 0.015640
0.036830 0.020181 0.064705
0.000000 0.067606 0.111626
0.004667 0.145934 0.223378
0.017658 0.251632 0.335635
0.020938 0.361618 0.426828
0.013496 0.484092 0.527102
0.003910 0.590673 0.629773
0.081102 0.023713 0.069498
0.126135 0.026593 0.127690
0.006970 0.145751 0.291371
0.049268 0.226930 0.290480
0.091767 0.301389 0.340685
0.112806 0.383781 0.398611
0.081314 0.498345 0.509582
0.019888 0.641304 0.669798
0.396809 0.042128 0.186422
0.546559 0.057044 0.221625
0.524840 0.110755 0.474847
0.076688 0.315735 0.337853
0.132316 0.369947 0.333491
0.156639 0.429693 0.383150
0.131832 0.531448 0.501530
0.063619 0.679949 0.680958
0.802321 0.084382 0.349005
0.866774 0.093512 0.405573
0.826046 0.131937 0.483538
0.100848 0.401667 0.461087
0.128849 0.453108 0.373348
0.162221 0.514607 0.410154
0.129659 0.616412 0.550490
0.050485 0.769242 0.777567
0.979535 0.126510 0.569609
0.985467 0.159808 0.615203
0.952185 0.198665 0.640116
0.593431 0.336909 0.632674
0.104791 0.561361 0.480922
0.122937 0.624024 0.514876
0.097247 0.728143 0.674233
0.047433 0.862380 0.883212
0.979031 0.226153 0.689307
0.981472 0.247730 0.707893
0.984385 0.282876 0.728681
0.902156 0.337621 0.742640
0.210887 0.636743 0.756096
0.050481 0.747226 0.715746
0.046823 0.843615 0.842955
0.089679 0.913560 0.947360
0.985337 0.311418 0.755274
0.988364 0.343358 0.770031
0.993157 0.372466 0.783344
0.983637 0.409214 0.819072
0.469831 0.644384 0.915904
0.059477 0.873251 0.921124
0.074011 0.913621 0.951550
0.186918 0.924005 0.963158
0.976760 0.416107 0.786554
0.978766 0.448384 0.794476
0.977037 0.483009 0.806080
0.978905 0.519030 0.820052
0.963789 0.565157 0.867136
0.484576 0.774963 0.955188
0.262402 0.913097 0.951554
0.340265 0.908690 0.950016
0.032290 0.015893 0.032542
0.050806 0.023342 0.085220
0.001261 0.079019 0.144217
0.024799 0.152647 0.230519
0.059656 0.247408 0.335131
0.071508 0.340392 0.407656
0.042242 0.471507 0.524551
0.012487 0.591909 0.634717
0.097967 0.020527 0.075581
0.329081 0.037920 0.171178
0.478066 0.088928 0.374436
0.091429 0.259845 0.321261
0.154979 0.313489 0.340827
0.187704 0.369111 0.388157
0.161083 0.462527 0.491208
0.074336 0.644455 0.664632
0.448616 0.045786 0.200300
0.730627 0.077463 0.300296
0.628816 0.129569 0.400609
0.126371 0.338303 0.369470
0.197850 0.365797 0.330094
0.242429 0.399533 0.364317
0.223741 0.497587 0.464865
0.128496 0.673459 0.676499
0.852989 0.089049 0.387292
0.948688 0.118939 0.517454
0.803618 0.182893 0.486958
0.187516 0.384565 0.445410
0.200882 0.444239 0.353608
0.248344 0.487303 0.381838
0.234558 0.587812 0.498526
0.152800 0.756685 0.729347
0.986029 0.143159 0.598741
0.987975 0.215529 0.687379
0.868345 0.267996 0.604616
0.708017 0.342476 0.555935
0.172045 0.568244 0.462938
0.201233 0.625774 0.479396
0.189183 0.733561 0.635582
0.167124 0.848727 0.820289
0.992995 0.237001 0.706254
0.987860 0.295503 0.740390
0.962333 0.336371 0.739323
0.883770 0.394730 0.687346
0.382828 0.613091 0.694806
0.123357 0.776937 0.689225
0.138348 0.858080 0.810008
0.243340 0.886377 0.848667
0.989821 0.324129 0.762882
0.990110 0.390738 0.788290
0.989821 0.417197 0.796019
0.978350 0.462419 0.800999
0.749772 0.590858 0.882120
0.170459 0.878700 0.926074
0.178614 0.916603 0.927670
0.343169 0.891792 0.875272
0.976622 0.422173 0.786314
0.975208 0.507784 0.814339
0.975105 0.536980 0.825096
0.976807 0.566559 0.837429
0.976785 0.603388 0.870185
0.635101 0.754610 0.960429
0.367074 0.900397 0.956348
0.440807 0.905651 0.940964
0.085769 0.020055 0.065588
0.154397 0.024185 0.105344
0.011510 0.111345 0.469782
0.042982 0.162905 0.258036
0.082238 0.239771 0.352923
0.095103 0.337690 0.423801
0.073604 0.452754 0.525084
0.012210 0.607778 0.644657
0.241615 0.032102 0.132186
0.559516 0.057357 0.226281
0.512999 0.093378 0.398797
0.113945 0.268645 0.366047
0.182414 0.298101 0.368897
0.222235 0.346438 0.408085
0.201151 0.435531 0.503833
0.113213 0.616828 0.662108
0.516837 0.055046 0.216929
0.758437 0.084756 0.336572
0.714082 0.141087 0.434851
0.166371 0.350639 0.435323
0.212813 0.374266 0.389663
0.260572 0.407413 0.419371
0.262988 0.495427 0.514472
0.177313 0.689873 0.716761
0.876555 0.089805 0.404234
0.923219 0.136141 0.529311
0.759498 0.230578 0.530358
0.541016 0.303205 0.493432
0.218367 0.467157 0.431549
0.267642 0.510960 0.452140
0.296024 0.587113 0.540737
0.261372 0.730941 0.711617
0.967797 0.151349 0.593305
0.974721 0.231643 0.692156
0.837732 0.311391 0.628063
0.729527 0.364014 0.553539
0.297802 0.543396 0.541997
0.245675 0.641393 0.529021
0.300549 0.703566 0.597104
0.355300 0.767559 0.699046
0.970649 0.251795 0.701326
0.971358 0.307489 0.738031
0.946384 0.381834 0.749230
0.856639 0.434754 0.671375
0.669331 0.542650 0.694792
0.204047 0.786961 0.713803
0.287675 0.825210 0.721386
0.443104 0.808745 0.704238
0.975910 0.333825 0.756454
0.979694 0.404992 0.783934
0.977022 0.484060 0.811186
0.974434 0.524982 0.819678
0.932622 0.575062 0.834465
0.511870 0.757747 0.896345
0.343965 0.877277 0.809109
0.513576 0.861824 0.747344
0.977867 0.440401 0.795156
0.977753 0.522253 0.821338
0.974475 0.583158 0.844822
0.977346 0.612593 0.851625
0.979735 0.640169 0.868715
0.775976 0.753503 0.960351
0.488982 0.896407 0.882966
0.580349 0.897692 0.830479
0.242046 0.028127 0.134330
0.362876 0.040460 0.173479
0.362294 0.072814 0.419077
0.039857 0.186865 0.303602
0.071195 0.262227 0.380607
0.081725 0.364511 0.461616
0.057764 0.480947 0.555401
0.012072 0.616582 0.657197
0.475356 0.050811 0.210078
0.767187 0.077581 0.322480
0.727901 0.092826 0.417407
0.107683 0.291167 0.533489
0.166317 0.320913 0.431987
0.205858 0.361443 0.476010
0.174702 0.471307 0.570500
0.085862 0.658736 0.715951
0.730414 0.070564 0.297922
0.878040 0.102677 0.433135
0.792839 0.168207 0.535744
0.553436 0.231864 0.563242
0.207448 0.384518 0.478653
0.257014 0.417701 0.501062
0.251795 0.518101 0.597324
0.180155 0.707555 0.768214
0.879981 0.097943 0.420863
0.954220 0.140007 0.575602
0.799831 0.242221 0.595370
0.645301 0.314335 0.580521
0.251543 0.484515 0.566179
0.266097 0.544875 0.565131
0.326210 0.605020 0.624008
0.364837 0.696703 0.718908
0.981256 0.161537 0.615508
0.979044 0.233511 0.696728
0.850250 0.320761 0.674908
0.760490 0.383214 0.617273
0.531406 0.501796 0.639859
0.272094 0.668843 0.616759
0.388942 0.681019 0.626521
0.516030 0.699560 0.659462
0.982514 0.260091 0.715022
0.983546 0.319922 0.753061
0.945638 0.393351 0.761374
0.868170 0.477489 0.718727
0.825755 0.534327 0.734885
0.348522 0.745538 0.749535
0.425397 0.776165 0.681899
0.587521 0.762740 0.665424
0.979820 0.341942 0.761239
0.985188 0.413288 0.792013
0.980574 0.495392 0.816479
0.962321 0.574894 0.834575
0.936012 0.608545 0.841504
0.624257 0.752794 0.862232
0.471902 0.849219 0.757211
0.644579 0.834480 0.698169
0.981553 0.445044 0.801365
0.981787 0.532190 0.832397
0.980455 0.599224 0.855358
0.982376 0.653495 0.871742
0.982006 0.677877 0.879133
0.904582 0.740501 0.907011
0.607737 0.886113 0.837318
0.686311 0.894136 0.775804
0.456721 0.048056 0.200675
0.618165 0.064579 0.244512
0.628553 0.090310 0.402672
0.009252 0.282237 0.426718
0.036208 0.310857 0.411383
0.039699 0.414919 0.509306
0.023322 0.539602 0.592805
0.005220 0.636633 0.677150
0.732627 0.072904 0.299501
0.908560 0.095791 0.427477
0.908805 0.110503 0.510010
0.452073 0.213968 0.665159
0.119421 0.374263 0.519411
0.138644 0.429086 0.564614
0.113574 0.545424 0.645523
0.041338 0.720226 0.767699
0.882528 0.090806 0.407424
0.977413 0.131622 0.571129
0.878490 0.208917 0.646648
0.689941 0.244790 0.678423
0.165649 0.434995 0.617147
0.197725 0.484684 0.610222
0.182323 0.607878 0.714344
0.141927 0.764483 0.836053
0.963240 0.115548 0.533303
0.984770 0.192464 0.665409
0.879817 0.265172 0.681377
0.774528 0.328461 0.693517
0.305141 0.501923 0.696407
0.221401 0.606895 0.691144
0.279593 0.666516 0.743945
0.378224 0.703842 0.776309
0.988332 0.172568 0.642390
0.984226 0.242774 0.709087
0.916977 0.318195 0.723936
0.837762 0.384802 0.707273
0.727112 0.488421 0.760409
0.310950 0.704970 0.766906
0.420663 0.703555 0.728266
0.582595 0.694659 0.727027
0.988576 0.265140 0.722996
0.989360 0.328056 0.761969
0.978934 0.397361 0.783672
0.934181 0.481866 0.782050
0.894581 0.564293 0.810645
0.540337 0.704720 0.819065
0.496259 0.769315 0.742717
0.661560 0.758721 0.727714
0.989577 0.358994 0.773197
0.988463 0.424043 0.797785
0.982797 0.506268 0.822253
0.981982 0.583251 0.851264
0.966523 0.637888 0.853626
0.852724 0.701062 0.848195
0.586751 0.823621 0.777893
0.716168 0.826154 0.735626
0.968065 0.468696 0.800400
0.970961 0.543161 0.830672
0.968765 0.607220 0.850652
0.973349 0.668052 0.868232
0.975413 0.720788 0.889335
0.929686 0.759462 0.874331
0.741417 0.855920 0.834277
0.756844 0.896005 0.789511
0.698515 0.068868 0.282029
0.803167 0.078498 0.343211
0.828910 0.093223 0.492058
0.101458 0.320617 0.572896
0.005603 0.406057 0.481012
0.009700 0.463386 0.528571
0.003910 0.567574 0.604799
0.003910 0.647936 0.681105
0.877340 0.089130 0.394107
0.977632 0.119440 0.475306
0.982825 0.143538 0.558917
0.738335 0.206642 0.618132
0.051393 0.508275 0.639961
0.051612 0.541551 0.630352
0.029625 0.649632 0.701630
0.004822 0.768615 0.805197
0.965099 0.113717 0.524450
0.992511 0.184888 0.654590
0.964975 0.233611 0.634624
0.892027 0.265508 0.700978
0.215845 0.516777 0.756372
0.091677 0.623042 0.718194
0.064201 0.745167 0.814541
0.108883 0.818226 0.888102
0.984344 0.165879 0.640014
0.982847 0.234840 0.702601
0.962420 0.296122 0.736744
0.910266 0.353623 0.744004
0.762118 0.431010 0.789796
0.148029 0.722406 0.842178
0.191138 0.774150 0.867358
0.347462 0.752289 0.862711
0.989837 0.223114 0.697925
0.985523 0.283627 0.738890
0.989797 0.352067 0.771457
0.946735 0.417962 0.781810
0.889977 0.511412 0.825814
0.364012 0.735634 0.886904
0.382108 0.765613 0.843122
0.573068 0.721047 0.815208
0.987217 0.285293 0.738987
0.984619 0.339675 0.765171
0.986363 0.408184 0.791961
0.980872 0.487350 0.818523
0.963642 0.566557 0.839884
0.794777 0.665576 0.881695
0.542422 0.785900 0.831104
0.703586 0.759618 0.796368
0.985590 0.369801 0.776936
0.984053 0.437410 0.798107
0.978746 0.517596 0.827313
0.978620 0.590154 0.852118
0.973542 0.647505 0.862319
0.898584 0.712143 0.866833
0.688182 0.810425 0.839501
0.757749 0.830993 0.808798
0.978075 0.473183 0.811968
0.978095 0.554115 0.842662
0.976032 0.612611 0.859514
0.978738 0.670156 0.875813
0.978066 0.731627 0.898653
0.937785 0.792248 0.898086
0.800723 0.868280 0.880448
0.796406 0.902887 0.852884
0.853404 0.087535 0.380538
0.922398 0.099461 0.414248
0.901826 0.131303 0.226743
0.724144 0.177414 0.183488
0.043291 0.352480 0.247978
0.002885 0.536656 0.558062
0.003910 0.584338 0.621538
0.003910 0.661485 0.691146
0.953780 0.107757 0.495326
0.700110 0.222902 0.074118
0.744528 0.243730 0.074670
0.596306 0.307307 0.077352
0.067130 0.485628 0.367715
0.003190 0.577233 0.521158
0.003910 0.699967 0.725862
0.007100 0.784390 0.821319
0.990521 0.162962 0.602395
0.980906 0.213177 0.581300
0.866376 0.319683 0.167653
0.867559 0.345746 0.174584
0.750658 0.410068 0.256749
0.082465 0.629046 0.441315
0.014435 0.816217 0.842079
0.072431 0.875785 0.922531
0.985419 0.220518 0.693718
0.988533 0.266948 0.674814
0.969742 0.324568 0.446768
0.935559 0.410983 0.325110
0.866502 0.488021 0.335389
0.235143 0.754299 0.659878
0.142505 0.854542 0.913859
0.311052 0.812587 0.925492
0.986712 0.273693 0.728876
0.985841 0.332382 0.762839
0.984169 0.386341 0.751143
0.982844 0.468502 0.531023
0.930105 0.561712 0.463337
0.494679 0.736239 0.649186
0.352189 0.810039 0.850346
0.531415 0.771417 0.896025
0.975955 0.324991 0.758708
0.980980 0.385924 0.787844
0.975828 0.464740 0.805017
0.977834 0.540668 0.819656
0.977513 0.600439 0.784135
0.908276 0.668983 0.661238
0.555021 0.798345 0.809869
0.683631 0.798264 0.886941
0.991986 0.380042 0.781131
0.985277 0.455101 0.807983
0.984529 0.536429 0.837247
0.982004 0.601562 0.853601
0.982550 0.658999 0.868377
0.945815 0.716281 0.812291
0.740710 0.836693 0.885896
0.762002 0.863922 0.889334
0.978766 0.491188 0.818897
0.976947 0.559888 0.844515
0.977618 0.625787 0.863298
0.979529 0.680185 0.877914
0.979250 0.742204 0.899611
0.964931 0.791987 0.904308
0.913190 0.857196 0.866782
0.820829 0.912858 0.895904
0.948255 0.106959 0.467064
0.888123 0.151207 0.192541
0.359336 0.246737 0.050831
0.345075 0.286790 0.057264
0.328840 0.312911 0.057524
0.145368 0.352187 0.146418
0.004077 0.496546 0.386543
0.003910 0.676487 0.694723
0.971174 0.138736 0.393920
0.398710 0.314881 0.065866
0.427745 0.359230 0.081127
0.460918 0.386913 0.089873
0.467503 0.416923 0.097324
0.388212 0.454293 0.114764
0.033330 0.628057 0.465552
0.006544 0.799521 0.828500
0.847301 0.225392 0.172938
0.753930 0.321691 0.094837
0.565041 0.453329 0.114906
0.592325 0.486231 0.121539
0.627990 0.509768 0.130520
0.556700 0.547748 0.133325
0.141367 0.704140 0.458550
0.066387 0.872873 0.860644
0.989699 0.249634 0.659630
0.872831 0.352788 0.187304
0.721102 0.486823 0.122834
0.709773 0.567771 0.141346
0.727821 0.593390 0.147198
0.656803 0.640523 0.157572
0.362840 0.747312 0.447265
0.275153 0.847961 0.813968
0.992246 0.306613 0.714875
0.985661 0.359122 0.664178
0.935280 0.466473 0.292190
0.786051 0.605952 0.147214
0.803206 0.664715 0.160939
0.770088 0.703197 0.174177
0.635699 0.733611 0.344246
0.469830 0.825837 0.788769
0.987868 0.366281 0.777912
0.981451 0.426864 0.762658
0.977044 0.500322 0.567367
0.945152 0.596861 0.361039
0.906707 0.692169 0.209667
0.877158 0.746943 0.217600
0.799905 0.777837 0.302983
0.633831 0.845076 0.786181
0.987966 0.430433 0.800933
0.985240 0.510630 0.828145
0.982660 0.573955 0.826583
0.981842 0.636986 0.596260
0.980822 0.699319 0.569203
0.939680 0.776386 0.351496
0.867791 0.841096 0.371239
0.811749 0.854624 0.596840
0.969034 0.508150 0.824821
0.971805 0.576314 0.850270
0.972955 0.639004 0.864438
0.973363 0.693263 0.854023
0.973528 0.746472 0.788309
0.965509 0.805416 0.771016
0.947249 0.865587 0.519877
0.918940 0.901238 0.581569
