其他预设/【236】赛博朋克风调色预设/【后期菌】视频调色预设/CUBE/Glitch 04_S.cube
# LUT by SparkleStock. Enhanced with VOXCOLOR algorithms.
LUT_3D_SIZE 5
DOMAIN_MIN 0.000000 0.000000 0.000000
DOMAIN_MAX 0.903226 0.903226 0.903226
0.000000 0.000000 0.003910
0.037966 0.109482 0.231451
0.070003 0.236496 0.337779
0.093842 0.382178 0.557626
0.095607 0.572888 0.733579
0.387223 0.041497 0.245325
0.452502 0.091913 0.400324
0.156871 0.321924 0.375330
0.209740 0.427333 0.487363
0.154857 0.645719 0.752645
0.849494 0.080850 0.443477
0.860345 0.102598 0.523847
0.183570 0.459887 0.511853
0.224103 0.576326 0.544179
0.185222 0.755717 0.820655
0.918109 0.145555 0.711128
0.924416 0.178988 0.747368
0.763826 0.367848 0.789940
0.158295 0.755144 0.833190
0.224790 0.833317 0.871473
0.923785 0.313058 0.797906
0.922935 0.364751 0.809185
0.918972 0.421824 0.822107
0.423541 0.840632 0.891809
0.392732 0.878004 0.890190
0.127140 0.018037 0.133447
0.130806 0.096914 0.331306
0.114979 0.227252 0.350771
0.159682 0.354555 0.528758
0.105950 0.586742 0.742209
0.486492 0.045362 0.267117
0.653328 0.098688 0.402121
0.219045 0.338579 0.416096
0.314934 0.395183 0.464470
0.261633 0.633760 0.716998
0.864520 0.091840 0.493259
0.790530 0.167409 0.592487
0.358803 0.450513 0.491626
0.336522 0.560932 0.498849
0.353459 0.705815 0.682408
0.924424 0.152871 0.733714
0.924000 0.270684 0.786347
0.818542 0.381690 0.703454
0.266625 0.780390 0.731763
0.466824 0.803167 0.692657
0.921641 0.330968 0.804591
0.913772 0.476346 0.831083
0.911974 0.557517 0.845987
0.639624 0.851127 0.893252
0.641385 0.887456 0.798451
0.417116 0.040867 0.259452
0.589126 0.056507 0.373609
0.102744 0.267968 0.410602
0.134033 0.395295 0.603160
0.108029 0.608018 0.763306
0.764677 0.066923 0.356304
0.792092 0.109026 0.538709
0.271795 0.357253 0.605857
0.288362 0.440028 0.623723
0.245226 0.680053 0.799153
0.881751 0.092865 0.530764
0.835832 0.165719 0.679880
0.666309 0.348137 0.644482
0.360176 0.602492 0.640422
0.540492 0.648690 0.667935
0.924021 0.169394 0.754407
0.922545 0.292966 0.793694
0.856725 0.446728 0.773701
0.452572 0.772575 0.730891
0.698759 0.767207 0.661757
0.911046 0.350832 0.802089
0.904959 0.511946 0.835830
0.900332 0.681165 0.873723
0.841285 0.786821 0.839779
0.783242 0.894291 0.738752
0.769401 0.069120 0.359348
0.831905 0.080960 0.418455
0.095437 0.388073 0.643595
0.085167 0.470539 0.652924
0.108473 0.634851 0.783812
0.871929 0.088174 0.507031
0.923522 0.140215 0.576034
0.700792 0.324466 0.693311
0.157533 0.628451 0.793235
0.190937 0.769275 0.874107
0.920018 0.120691 0.696468
0.925877 0.198948 0.774385
0.890594 0.335517 0.795593
0.321813 0.749425 0.845803
0.505967 0.705820 0.809033
0.935873 0.184550 0.771793
0.933819 0.313370 0.805587
0.920723 0.463713 0.836324
0.704111 0.769875 0.839762
0.781786 0.782510 0.787102
0.928900 0.367953 0.819698
0.916479 0.535723 0.849595
0.911554 0.700366 0.889561
0.889217 0.814717 0.885819
0.833653 0.901589 0.838076
0.868666 0.089932 0.469208
0.527534 0.273745 0.055953
0.330663 0.350580 0.073115
0.136930 0.533979 0.357228
0.111248 0.664891 0.793577
0.853306 0.211941 0.202831
0.502578 0.465831 0.077375
0.541755 0.523811 0.083183
0.397004 0.638977 0.227343
0.187564 0.805661 0.872479
0.940561 0.178077 0.714151
0.856118 0.480139 0.186188
0.809186 0.690428 0.081921
0.601311 0.752730 0.277498
0.445733 0.827444 0.838619
0.926145 0.275344 0.798158
0.921662 0.447863 0.739526
0.906635 0.726853 0.222116
0.869254 0.820500 0.194497
0.718295 0.848268 0.809370
0.911559 0.394168 0.823641
0.904525 0.580490 0.857665
0.912728 0.754439 0.826495
0.921241 0.852282 0.731394
0.881092 0.878065 0.583742
