其他预设/【236】赛博朋克风调色预设/【后期菌】视频调色预设/CUBE/Glitch 10.cube
# LUT by SparkleStock. Enhanced with VOXCOLOR algorithms.
LUT_3D_SIZE 32
0.003910 0.007820 0.015640
0.011982 0.011856 0.021695
0.020181 0.015640 0.027875
0.030271 0.015640 0.035947
0.036830 0.020181 0.064705
0.018667 0.056507 0.238262
0.003532 0.083751 0.352789
0.001514 0.071643 0.211522
0.000000 0.067606 0.111626
0.000000 0.087787 0.135843
0.000000 0.107968 0.163214
0.000000 0.128149 0.197522
0.000757 0.149844 0.228045
0.002775 0.174061 0.252262
0.003910 0.200927 0.282660
0.003910 0.231199 0.321004
0.003910 0.260461 0.351276
0.003910 0.288714 0.373475
0.003910 0.315833 0.394539
0.003910 0.342068 0.414720
0.003910 0.373348 0.441207
0.003910 0.407656 0.471479
0.003910 0.437802 0.494813
0.003910 0.466055 0.514994
0.003910 0.491281 0.536688
0.003910 0.515498 0.558888
0.003910 0.542995 0.584366
0.003910 0.571248 0.610601
0.003910 0.590673 0.629773
0.003910 0.608835 0.647936
0.003910 0.626998 0.662315
0.003910 0.645161 0.676442
0.016019 0.011856 0.023713
0.023049 0.013809 0.028725
0.030467 0.015705 0.034125
0.043682 0.016747 0.045322
0.052975 0.021027 0.077465
0.034812 0.047979 0.256230
0.018114 0.071122 0.375965
0.007763 0.077762 0.239906
0.000000 0.086746 0.142874
0.000000 0.102760 0.162925
0.000325 0.122355 0.188082
0.001367 0.149828 0.224473
0.002384 0.176079 0.257080
0.003361 0.200296 0.283380
0.004366 0.226251 0.313127
0.005407 0.254439 0.347304
0.005928 0.284743 0.376534
0.005928 0.317163 0.400817
0.005342 0.343175 0.421620
0.004301 0.364202 0.439718
0.004561 0.395482 0.464773
0.005603 0.432915 0.494003
0.005928 0.464037 0.517728
0.005928 0.492290 0.538951
0.005147 0.515173 0.557781
0.004105 0.536265 0.575814
0.003910 0.560637 0.599665
0.003910 0.585766 0.624858
0.003910 0.605711 0.642989
0.003910 0.624915 0.660110
0.003910 0.642167 0.675400
0.003910 0.659288 0.690569
0.028884 0.015893 0.032416
0.035003 0.015893 0.036452
0.041749 0.016015 0.041115
0.057894 0.017968 0.055176
0.069637 0.021963 0.090615
0.050562 0.040256 0.275694
0.031671 0.059746 0.401476
0.013573 0.084418 0.270299
0.000016 0.105967 0.175676
0.000081 0.118140 0.190715
0.000736 0.137231 0.213036
0.002689 0.171538 0.251380
0.003934 0.202038 0.285866
0.004000 0.226190 0.313924
0.004862 0.251310 0.342865
0.006750 0.277676 0.372942
0.007694 0.308859 0.401097
0.007694 0.344859 0.427333
0.006595 0.369910 0.448039
0.004642 0.386446 0.464444
0.005171 0.417710 0.488091
0.007189 0.457812 0.516084
0.007775 0.489678 0.540004
0.007710 0.517801 0.562073
0.006229 0.538454 0.578283
0.004276 0.556617 0.592540
0.003910 0.578165 0.614890
0.003910 0.600495 0.639107
0.003910 0.620887 0.656318
0.003910 0.641003 0.672528
0.003910 0.657396 0.688616
0.003910 0.673541 0.704695
0.053101 0.019929 0.050579
0.060262 0.019929 0.054615
0.067985 0.019986 0.059213
0.084130 0.020897 0.072233
0.094049 0.024242 0.109624
0.060392 0.044618 0.317619
0.029848 0.067167 0.462019
0.012792 0.099131 0.330842
0.000277 0.126408 0.231793
0.001383 0.139623 0.229123
0.002429 0.159430 0.239271
0.003340 0.193738 0.277615
0.004325 0.223846 0.310930
0.005432 0.246957 0.335863
0.005969 0.272403 0.361679
0.005774 0.300851 0.388631
0.005676 0.330472 0.415224
0.005676 0.361264 0.441459
0.005163 0.387552 0.464509
0.004252 0.410337 0.485080
0.005171 0.441341 0.507686
0.007189 0.477277 0.531513
0.007059 0.506409 0.552699
0.005953 0.532449 0.572685
0.004992 0.552581 0.589936
0.004081 0.570744 0.606276
0.003910 0.593985 0.629016
0.003910 0.618397 0.653234
0.003910 0.638139 0.671356
0.003910 0.657213 0.688607
0.003910 0.673541 0.703784
0.003910 0.689686 0.718822
0.081102 0.023713 0.069498
0.090347 0.023713 0.073795
0.100055 0.023721 0.078563
0.116720 0.023851 0.090412
0.126135 0.026593 0.127690
0.084797 0.047621 0.342975
0.046278 0.072237 0.497327
0.019978 0.112403 0.387634
0.000724 0.146288 0.299000
0.002612 0.161326 0.273546
0.003910 0.182304 0.267581
0.003910 0.216352 0.304493
0.004618 0.246054 0.335790
0.006506 0.268513 0.357729
0.006742 0.294162 0.380607
0.004854 0.323913 0.404694
0.003910 0.352167 0.430051
0.003910 0.378923 0.456676
0.003983 0.406375 0.481435
0.004114 0.434368 0.504741
0.005261 0.464720 0.526256
0.007019 0.496489 0.546698
0.006270 0.523156 0.565752
0.004382 0.547503 0.584175
0.003910 0.567115 0.602598
0.003910 0.585147 0.621021
0.003910 0.609633 0.643623
0.003910 0.635608 0.667190
0.003910 0.654861 0.685914
0.003910 0.673154 0.703947
0.004032 0.689922 0.719172
0.004162 0.706587 0.734210
0.135591 0.025731 0.093716
0.154210 0.025731 0.100095
0.172967 0.025804 0.106687
0.193799 0.026976 0.116452
0.211937 0.029458 0.139147
0.211221 0.041111 0.252356
0.190474 0.060844 0.355995
0.082929 0.115593 0.418166
0.002482 0.162237 0.443848
0.003328 0.184567 0.360064
0.003910 0.209907 0.310417
0.003910 0.241871 0.335871
0.004227 0.271052 0.359226
0.005074 0.295595 0.379081
0.005180 0.320593 0.400332
0.004333 0.346177 0.423378
0.003910 0.374431 0.449776
0.003910 0.405353 0.479527
0.004569 0.433456 0.501551
0.005741 0.459366 0.517565
0.005977 0.486334 0.537649
0.005651 0.513936 0.560173
0.004968 0.540017 0.581310
0.004122 0.565406 0.601817
0.003910 0.584496 0.622323
0.003910 0.601487 0.642830
0.003910 0.624085 0.661591
0.003910 0.647977 0.679949
0.003910 0.667881 0.697111
0.003910 0.687216 0.714102
0.005009 0.707954 0.736098
0.006180 0.728786 0.758427
0.198026 0.028506 0.119825
0.224261 0.028701 0.127702
0.250541 0.029035 0.135603
0.277493 0.031443 0.143871
0.304989 0.034031 0.154621
0.336303 0.037872 0.182744
0.332864 0.052381 0.242371
0.178838 0.113119 0.438518
0.055652 0.167738 0.557472
0.024990 0.203999 0.444849
0.003910 0.238083 0.368926
0.003910 0.267378 0.373743
0.003910 0.295525 0.383345
0.003910 0.321761 0.400922
0.003910 0.346316 0.420436
0.003910 0.368710 0.442440
0.003910 0.396768 0.469001
0.003910 0.430490 0.500119
0.004935 0.459085 0.520177
0.006758 0.483693 0.531635
0.006302 0.507568 0.550579
0.004480 0.531004 0.574015
0.003910 0.556365 0.596601
0.003910 0.582600 0.618800
0.003910 0.601268 0.640413
0.003910 0.617412 0.661831
0.003910 0.638794 0.677959
0.003910 0.661383 0.692867
0.004081 0.682378 0.710054
0.004276 0.703145 0.727566
0.005997 0.726231 0.753866
0.007820 0.749472 0.780752
0.294895 0.034560 0.154132
0.321130 0.035797 0.160968
0.348322 0.037237 0.167958
0.389855 0.041729 0.177267
0.429461 0.046009 0.187496
0.455566 0.048809 0.204162
0.467426 0.056613 0.248816
0.417560 0.086103 0.414756
0.331611 0.127962 0.535793
0.137418 0.206928 0.522122
0.003910 0.268745 0.495350
0.003910 0.292832 0.439755
0.003910 0.317725 0.410427
0.003910 0.343960 0.424879
0.003910 0.368970 0.442180
0.003910 0.392406 0.463142
0.003910 0.419423 0.486057
0.003910 0.450020 0.510925
0.004349 0.478420 0.532351
0.005131 0.505111 0.551100
0.004935 0.527163 0.570174
0.004154 0.546433 0.589444
0.003910 0.570492 0.610727
0.003910 0.596727 0.632927
0.003910 0.615394 0.651415
0.003910 0.631539 0.668666
0.003910 0.654613 0.687399
0.003910 0.679286 0.706473
0.004992 0.703275 0.730560
0.006229 0.727167 0.755363
0.007039 0.745566 0.775284
0.007820 0.763599 0.794879
0.396809 0.042128 0.186422
0.424086 0.043886 0.193518
0.452693 0.045895 0.200817
0.501258 0.051689 0.211168
0.546657 0.057011 0.221690
0.569898 0.059029 0.233408
0.593297 0.061804 0.269502
0.617384 0.067859 0.411224
0.553895 0.100799 0.531090
0.227679 0.214399 0.585383
0.003568 0.298724 0.592642
0.004089 0.318644 0.496424
0.004317 0.340640 0.439657
0.004057 0.366094 0.448641
0.003910 0.391121 0.462295
0.003910 0.415598 0.481956
0.004040 0.442224 0.502397
0.004301 0.470998 0.523620
0.004268 0.498454 0.545648
0.004008 0.524885 0.568303
0.003910 0.545212 0.587377
0.003910 0.561878 0.604303
0.003910 0.584944 0.624854
0.003910 0.610919 0.647053
0.003910 0.629716 0.663003
0.003910 0.646122 0.676869
0.003910 0.670514 0.698140
0.003910 0.696749 0.721121
0.005676 0.722756 0.750025
0.007694 0.748731 0.779776
0.007820 0.765307 0.796588
0.007820 0.781257 0.812537
0.513859 0.054236 0.212657
0.545302 0.054953 0.223920
0.576839 0.055921 0.235190
0.609779 0.060673 0.246583
0.642028 0.065084 0.259838
0.669435 0.067102 0.286139
0.693095 0.069877 0.332909
0.700517 0.075931 0.468382
0.615154 0.111476 0.577311
0.251441 0.235491 0.606606
0.002201 0.326651 0.602537
0.004805 0.345530 0.525068
0.005944 0.365703 0.475332
0.004642 0.388033 0.471816
0.003910 0.411757 0.477529
0.003910 0.437277 0.495106
0.004561 0.465465 0.516589
0.005863 0.496322 0.541978
0.005700 0.520588 0.562313
0.004398 0.539728 0.578719
0.003910 0.558623 0.597402
0.003910 0.577372 0.617453
0.003910 0.600372 0.638981
0.003910 0.625306 0.661180
0.003910 0.644624 0.676348
0.003910 0.662071 0.689173
0.003910 0.686658 0.712788
0.003910 0.712894 0.738893
0.005676 0.737990 0.766365
0.007694 0.762923 0.794033
0.007820 0.786270 0.817550
0.007820 0.809510 0.840791
0.627125 0.065084 0.248352
0.659154 0.065735 0.262805
0.690487 0.066557 0.277070
0.711384 0.069942 0.288527
0.733128 0.073197 0.302605
0.760795 0.075540 0.335025
0.783190 0.078519 0.383703
0.782734 0.084248 0.502836
0.691285 0.117351 0.598631
0.326855 0.232578 0.624411
0.065161 0.323575 0.622869
0.029486 0.361268 0.561219
0.006677 0.392394 0.516316
0.005310 0.412575 0.499325
0.004398 0.434551 0.496404
0.004073 0.458833 0.511572
0.004756 0.486793 0.532469
0.006449 0.518432 0.559095
0.006237 0.540586 0.578287
0.004545 0.555364 0.591698
0.003910 0.573722 0.609991
0.003910 0.594229 0.631214
0.003910 0.616615 0.652660
0.003910 0.639856 0.674208
0.003910 0.660264 0.690385
0.003910 0.679729 0.704773
0.004175 0.704166 0.730162
0.004500 0.729751 0.758089
0.006022 0.754708 0.785391
0.007714 0.779577 0.812603
0.008736 0.806398 0.838655
0.009712 0.833349 0.864630
0.732066 0.073156 0.304859
0.756804 0.075890 0.320353
0.781041 0.078535 0.335464
0.797772 0.079837 0.344839
0.814828 0.081399 0.355531
0.834163 0.084785 0.375452
0.851935 0.088414 0.406749
0.862937 0.093101 0.487343
0.800132 0.112664 0.565170
0.515905 0.176852 0.634696
0.269640 0.252291 0.666160
0.106890 0.352480 0.613885
0.005440 0.422666 0.568982
0.006156 0.442847 0.536367
0.005961 0.462088 0.523290
0.004594 0.480121 0.535334
0.004236 0.503915 0.552064
0.004887 0.533470 0.573482
0.004805 0.555885 0.592740
0.004154 0.572746 0.610317
0.003910 0.592536 0.628219
0.003910 0.614084 0.646317
0.003910 0.634648 0.665354
0.003910 0.654764 0.684819
0.003910 0.677516 0.705944
0.003910 0.701147 0.727623
0.005021 0.724673 0.753532
0.006388 0.748174 0.780419
0.007128 0.774694 0.810324
0.007779 0.801645 0.840661
0.011665 0.824691 0.860073
0.015766 0.847476 0.878756
0.818087 0.081229 0.355312
0.837096 0.085265 0.371847
0.855752 0.089073 0.387976
0.869097 0.089464 0.398001
0.882540 0.090359 0.408726
0.896667 0.094786 0.424350
0.910891 0.099066 0.445809
0.925539 0.102712 0.492551
0.889425 0.112444 0.549969
0.701025 0.140437 0.639416
0.486179 0.201000 0.692876
0.213150 0.333218 0.667161
0.035793 0.428256 0.632414
0.017890 0.461327 0.582612
0.006937 0.486281 0.555938
0.004919 0.500798 0.558997
0.003910 0.521597 0.569609
0.003910 0.548679 0.587772
0.003910 0.570964 0.607070
0.003910 0.589517 0.627251
0.003910 0.610349 0.644909
0.003910 0.632548 0.661054
0.003910 0.652509 0.679392
0.003910 0.671454 0.698726
0.003910 0.694108 0.722065
0.003910 0.718000 0.746738
0.005232 0.743055 0.774267
0.006860 0.768379 0.802455
0.008430 0.795241 0.833207
0.009993 0.822323 0.864324
0.015766 0.842203 0.879513
0.021821 0.861602 0.893640
0.872576 0.089301 0.395674
0.888460 0.093337 0.413251
0.904056 0.097211 0.430681
0.915318 0.098643 0.445915
0.926938 0.100579 0.462369
0.941065 0.106048 0.487367
0.953532 0.110979 0.511560
0.958805 0.113583 0.532262
0.946127 0.119670 0.565202
0.879595 0.136205 0.634859
0.722817 0.183033 0.691964
0.367502 0.296502 0.721454
0.118795 0.392712 0.713789
0.047771 0.460155 0.644197
0.006937 0.504899 0.598188
0.004919 0.520458 0.582498
0.003910 0.540216 0.583735
0.003910 0.564173 0.601898
0.003910 0.585676 0.621196
0.003910 0.605271 0.641377
0.003910 0.626494 0.659036
0.003910 0.648693 0.675181
0.003910 0.670086 0.695667
0.003910 0.691114 0.718126
0.003910 0.709602 0.739121
0.003910 0.727244 0.759627
0.004386 0.757898 0.790607
0.004972 0.791555 0.824003
0.010058 0.816724 0.852672
0.015787 0.840681 0.880665
0.021821 0.858413 0.895658
0.027875 0.875729 0.909785
0.920001 0.098256 0.447514
0.931394 0.102748 0.463854
0.942591 0.107199 0.480251
0.950859 0.111040 0.497502
0.959460 0.115215 0.515926
0.970397 0.121725 0.542551
0.979283 0.127563 0.565833
0.979283 0.130493 0.574621
0.979674 0.134985 0.594021
0.981236 0.144164 0.645255
0.877886 0.177796 0.697831
0.543727 0.265226 0.753362
0.272089 0.357366 0.764803
0.104652 0.457360 0.702763
0.009187 0.521467 0.652798
0.006258 0.539435 0.618360
0.004565 0.559062 0.607717
0.004109 0.580350 0.620867
0.003910 0.600759 0.637203
0.003910 0.620484 0.656017
0.003910 0.642325 0.674017
0.003910 0.665436 0.691529
0.003910 0.687920 0.714277
0.003910 0.710119 0.739406
0.004252 0.728656 0.760335
0.004708 0.745973 0.779865
0.005904 0.778523 0.812301
0.007271 0.814588 0.847716
0.014106 0.837324 0.872706
0.021723 0.858156 0.896207
0.029157 0.874167 0.910493
0.036578 0.889856 0.924164
0.958345 0.108347 0.514111
0.963488 0.113880 0.526285
0.968566 0.119568 0.538645
0.972667 0.127576 0.553814
0.976711 0.135526 0.569373
0.980357 0.143078 0.587666
0.983319 0.150153 0.605349
0.983319 0.155166 0.620387
0.983449 0.160699 0.640307
0.983970 0.167795 0.674875
0.928078 0.188928 0.712414
0.748076 0.240943 0.756486
0.515759 0.322278 0.776781
0.196248 0.452478 0.757447
0.014330 0.535399 0.723302
0.009317 0.557533 0.670115
0.006062 0.578202 0.644368
0.004565 0.597406 0.646060
0.003910 0.616318 0.655626
0.003910 0.635002 0.671315
0.003910 0.657754 0.690097
0.003910 0.682948 0.710733
0.003910 0.706083 0.735890
0.003910 0.728282 0.763102
0.005033 0.752287 0.786896
0.006530 0.776895 0.809551
0.010461 0.806581 0.840880
0.014953 0.837438 0.874212
0.021267 0.856789 0.893473
0.027842 0.874496 0.910725
0.038140 0.889335 0.923643
0.048687 0.903983 0.936272
0.979535 0.126510 0.569609
0.982074 0.134126 0.581262
0.984483 0.141833 0.592874
0.984939 0.150881 0.603876
0.985467 0.159808 0.615203
0.986509 0.167881 0.628809
0.987160 0.175379 0.642488
0.986118 0.180392 0.656485
0.985598 0.186186 0.672890
0.986639 0.194323 0.696521
0.956494 0.210314 0.725238
0.857737 0.243580 0.765145
0.646903 0.318274 0.791233
0.249272 0.462015 0.794293
0.021589 0.554603 0.769555
0.012410 0.581424 0.709077
0.006811 0.602094 0.674997
0.004793 0.616611 0.667316
0.003910 0.633765 0.672487
0.003910 0.652969 0.687655
0.003910 0.675591 0.708194
0.003910 0.700264 0.731956
0.004268 0.724311 0.757731
0.004789 0.748072 0.784422
0.006823 0.774421 0.810820
0.009362 0.801633 0.837121
0.015181 0.829268 0.865749
0.021756 0.857001 0.894913
0.029242 0.874138 0.910464
0.036859 0.889762 0.924070
0.051616 0.902518 0.936272
0.066850 0.915082 0.948381
0.983571 0.152745 0.614007
0.987152 0.163486 0.628785
0.990342 0.173992 0.642936
0.987673 0.180958 0.647688
0.985728 0.188062 0.653417
0.988853 0.196134 0.665981
0.990806 0.203242 0.677252
0.987681 0.206172 0.682915
0.986118 0.211445 0.691769
0.989243 0.223749 0.710192
0.963134 0.241952 0.736305
0.872710 0.273135 0.779336
0.665521 0.345355 0.808159
0.263724 0.485971 0.813302
0.030963 0.579081 0.791559
0.015534 0.611110 0.735247
0.006811 0.630738 0.699605
0.004793 0.637964 0.684632
0.003910 0.653099 0.687786
0.003910 0.674387 0.705037
0.003910 0.695838 0.728310
0.003910 0.717386 0.755197
0.004984 0.742604 0.779800
0.006547 0.769490 0.803366
0.009623 0.795058 0.832108
0.013203 0.820187 0.862575
0.020063 0.846585 0.886906
0.027680 0.873276 0.909821
0.038031 0.889372 0.923679
0.048772 0.903954 0.936244
0.069584 0.913715 0.948381
0.091067 0.923155 0.960489
0.985337 0.176710 0.648188
0.988202 0.188233 0.661990
0.990708 0.199304 0.675018
0.987844 0.203600 0.676450
0.985695 0.208369 0.678924
0.988560 0.216441 0.688689
0.990570 0.223928 0.697441
0.988877 0.228875 0.701802
0.988324 0.235532 0.708524
0.991188 0.247315 0.722325
0.973912 0.263228 0.743491
0.912328 0.288226 0.780858
0.739837 0.348379 0.809339
0.382503 0.467121 0.823010
0.144078 0.559945 0.814295
0.058537 0.619447 0.776798
0.012707 0.654438 0.743987
0.006587 0.664919 0.715864
0.003910 0.678696 0.710481
0.003910 0.695036 0.722785
0.003910 0.715241 0.746156
0.003910 0.737766 0.776167
0.005700 0.764229 0.802016
0.008304 0.792483 0.825972
0.012422 0.815951 0.852663
0.017044 0.837825 0.880266
0.024946 0.861814 0.901838
0.033604 0.886292 0.922019
0.049895 0.900687 0.935650
0.067277 0.913642 0.948344
0.091616 0.919822 0.957194
0.116419 0.925551 0.965787
0.985337 0.198909 0.674424
0.986118 0.209390 0.684059
0.986802 0.219289 0.693116
0.986021 0.220461 0.693506
0.985435 0.222496 0.694548
0.986216 0.230568 0.700146
0.987315 0.239031 0.706294
0.989788 0.249187 0.714822
0.991839 0.258707 0.723627
0.992620 0.266324 0.733262
0.987909 0.276443 0.747657
0.971113 0.292067 0.772525
0.857473 0.332689 0.798272
0.582425 0.414976 0.825484
0.337881 0.506889 0.837601
0.132556 0.611179 0.830310
0.023188 0.674294 0.803749
0.009777 0.696232 0.757919
0.003910 0.709163 0.738930
0.003910 0.715087 0.740818
0.003910 0.733990 0.762235
0.003910 0.760681 0.795371
0.006416 0.788446 0.824345
0.010062 0.816700 0.851427
0.015221 0.837044 0.872649
0.020885 0.854751 0.891919
0.029828 0.875420 0.911929
0.039528 0.896773 0.932110
0.064152 0.908955 0.946652
0.090908 0.919826 0.960388
0.116810 0.921971 0.963443
0.142654 0.923533 0.965787
0.985337 0.223631 0.695614
0.985337 0.231768 0.701082
0.985419 0.239601 0.706453
0.986721 0.242856 0.710359
0.987697 0.246387 0.714200
0.986395 0.251856 0.717585
0.985850 0.258447 0.721739
0.988584 0.269905 0.729226
0.990635 0.280174 0.736533
0.990635 0.286879 0.743304
0.991042 0.294663 0.752841
0.992344 0.304819 0.768465
0.931125 0.330793 0.790827
0.765706 0.383134 0.824418
0.573144 0.457860 0.847643
0.345685 0.561369 0.857538
0.176360 0.645446 0.846992
0.065169 0.710090 0.816004
0.013228 0.741338 0.795453
0.007369 0.746611 0.783019
0.005171 0.762992 0.794509
0.005171 0.786038 0.820354
0.008841 0.810873 0.845616
0.014180 0.836523 0.870615
0.020055 0.855044 0.888973
0.026109 0.871188 0.905118
0.040732 0.888497 0.923484
0.057333 0.906074 0.942363
0.085895 0.914822 0.954236
0.116167 0.922308 0.965107
0.143265 0.922776 0.965787
0.170151 0.922776 0.965787
0.985337 0.249866 0.713777
0.985337 0.254879 0.715079
0.985549 0.260107 0.716934
0.988934 0.268570 0.727090
0.991473 0.276138 0.736269
0.988088 0.277440 0.738612
0.985459 0.280451 0.741139
0.986110 0.290867 0.744459
0.986599 0.300616 0.748121
0.986599 0.308362 0.752808
0.987656 0.315886 0.758635
0.991042 0.322916 0.766967
0.978388 0.337173 0.785553
0.939002 0.363474 0.821228
0.833284 0.411249 0.849726
0.642281 0.486635 0.868995
0.415147 0.587377 0.880323
0.151882 0.713476 0.883708
0.028135 0.774539 0.868820
0.012902 0.785020 0.839721
0.007189 0.798146 0.836498
0.007189 0.812859 0.848802
0.012292 0.832226 0.866253
0.019713 0.853709 0.886043
0.026109 0.871188 0.903100
0.032163 0.887333 0.919244
0.055250 0.901257 0.935918
0.082266 0.914667 0.952714
0.112131 0.919249 0.959769
0.142402 0.922569 0.965433
0.170477 0.922776 0.965787
0.198404 0.922776 0.965787
0.985337 0.270552 0.730552
0.986769 0.278168 0.731984
0.988185 0.285760 0.733860
0.989357 0.292987 0.742388
0.990057 0.299578 0.750013
0.987453 0.301726 0.751315
0.985606 0.305364 0.753154
0.987038 0.315454 0.757320
0.988112 0.324861 0.761275
0.988112 0.332217 0.764595
0.988926 0.339614 0.769441
0.991530 0.347101 0.777644
0.989398 0.359934 0.797735
0.979372 0.381677 0.837642
0.878236 0.428057 0.866981
0.659955 0.506112 0.882736
0.419769 0.610988 0.897676
0.157676 0.742685 0.911803
0.034405 0.806711 0.901505
0.019107 0.818103 0.872210
0.014265 0.829944 0.867612
0.015697 0.842052 0.877833
0.020710 0.856757 0.891544
0.027350 0.872641 0.906843
0.036773 0.886572 0.920628
0.047124 0.899853 0.933908
0.074824 0.909854 0.945443
0.106528 0.919098 0.956575
0.136352 0.922019 0.961498
0.165907 0.924037 0.965535
0.199613 0.921478 0.965787
0.233595 0.918614 0.965787
0.985337 0.288714 0.746697
0.988853 0.301539 0.750212
0.991961 0.313753 0.753716
0.988967 0.316813 0.757036
0.986281 0.320150 0.759973
0.985760 0.325423 0.760234
0.985996 0.331599 0.761812
0.989512 0.341690 0.769104
0.992148 0.350836 0.775142
0.992148 0.357151 0.777420
0.992311 0.364483 0.782526
0.992832 0.374052 0.793854
0.983929 0.390140 0.817851
0.959322 0.417092 0.862966
0.825374 0.473692 0.891133
0.550848 0.568412 0.897513
0.317952 0.671726 0.907767
0.126689 0.783633 0.921893
0.036749 0.838415 0.915697
0.025617 0.848766 0.893693
0.023639 0.860215 0.893782
0.027155 0.872324 0.907128
0.031386 0.882732 0.918952
0.035943 0.892366 0.930084
0.049533 0.901611 0.939702
0.066133 0.910725 0.948816
0.096698 0.916559 0.953646
0.130485 0.921637 0.957487
0.159658 0.924037 0.961498
0.188172 0.926056 0.965535
0.229624 0.919590 0.965787
0.271939 0.912560 0.965787
0.985337 0.311418 0.755274
0.989373 0.323201 0.760872
0.993003 0.334520 0.766247
0.990529 0.338882 0.768265
0.988364 0.343358 0.770031
0.988364 0.348631 0.770031
0.988828 0.354661 0.771252
0.991302 0.363970 0.777762
0.993157 0.372466 0.783344
0.993157 0.378520 0.786143
0.992669 0.385347 0.790875
0.991107 0.393875 0.799859
0.983637 0.409214 0.819072
0.966320 0.435905 0.855333
0.869968 0.483587 0.883647
0.671999 0.558257 0.901745
0.469831 0.644384 0.915904
0.263464 0.741969 0.926125
0.141137 0.807476 0.926275
0.084174 0.848033 0.918593
0.059477 0.873251 0.921124
0.054139 0.889266 0.929783
0.056320 0.899820 0.938351
0.061918 0.907893 0.946879
0.074011 0.913621 0.951550
0.088267 0.918569 0.954936
0.118816 0.921507 0.957845
0.153123 0.923980 0.960644
0.186918 0.924005 0.963158
0.220640 0.923679 0.965632
0.259244 0.917556 0.964322
0.298174 0.911046 0.962760
0.985337 0.335635 0.761328
0.989373 0.344294 0.769010
0.993133 0.352879 0.776338
0.992742 0.360365 0.778356
0.992401 0.367445 0.780122
0.992401 0.371676 0.780122
0.992474 0.376665 0.780952
0.992864 0.384932 0.785379
0.993157 0.392647 0.789659
0.993157 0.398701 0.793500
0.992018 0.404877 0.797646
0.988373 0.411322 0.802463
0.985069 0.424578 0.813994
0.982335 0.449186 0.836714
0.947046 0.481569 0.865614
0.869903 0.523949 0.902461
0.706274 0.587682 0.923391
0.456160 0.672768 0.928403
0.279539 0.755656 0.935650
0.160081 0.836836 0.944633
0.104136 0.880543 0.948857
0.086298 0.901765 0.950224
0.086005 0.913947 0.955082
0.093687 0.922019 0.961527
0.102394 0.924623 0.960990
0.111443 0.925405 0.958125
0.141015 0.925868 0.960709
0.175322 0.926259 0.964550
0.215497 0.923289 0.965372
0.256510 0.919839 0.965762
0.288735 0.915473 0.962369
0.320373 0.911046 0.958724
0.988617 0.359852 0.773941
0.990960 0.368771 0.780321
0.993157 0.377531 0.786375
0.993157 0.383911 0.787547
0.992946 0.390315 0.788678
0.991253 0.396890 0.789525
0.989878 0.403746 0.790810
0.989878 0.411818 0.794000
0.989878 0.419598 0.797190
0.989878 0.426499 0.800380
0.989146 0.433928 0.803834
0.986802 0.442521 0.807871
0.985337 0.454435 0.815740
0.985337 0.471881 0.829996
0.971495 0.494255 0.852342
0.939857 0.522965 0.885087
0.837617 0.566842 0.910672
0.664777 0.625888 0.929095
0.482049 0.703572 0.942538
0.291632 0.795754 0.952108
0.192273 0.856362 0.957812
0.147549 0.898026 0.961197
0.134468 0.916596 0.963508
0.135770 0.924668 0.965331
0.148497 0.926051 0.964029
0.165033 0.925205 0.961686
0.193257 0.923671 0.963150
0.224180 0.921979 0.965494
0.256242 0.918976 0.964306
0.288466 0.915786 0.962613
0.319653 0.911803 0.960310
0.350771 0.907767 0.957967
0.992653 0.384070 0.788068
0.992913 0.394030 0.792365
0.993157 0.403636 0.796401
0.993157 0.407933 0.796531
0.992685 0.412905 0.796881
0.988910 0.422605 0.798769
0.985842 0.431999 0.800706
0.985842 0.440072 0.802854
0.985842 0.448112 0.805002
0.985842 0.456054 0.807150
0.985760 0.465176 0.809889
0.985500 0.476894 0.813925
0.985337 0.487636 0.819060
0.985337 0.496750 0.826025
0.983799 0.510335 0.840168
0.980284 0.529670 0.863539
0.944707 0.554278 0.893290
0.877068 0.584159 0.929420
0.699353 0.651427 0.948853
0.436023 0.747775 0.955298
0.290444 0.824919 0.962434
0.215514 0.890539 0.969986
