其他预设/【236】赛博朋克风调色预设/【后期菌】视频调色预设/CUBE/Glitch 04.cube
# LUT by SparkleStock. Enhanced with VOXCOLOR algorithms.
LUT_3D_SIZE 8
DOMAIN_MIN 0.000000 0.000000 0.000000
DOMAIN_MAX 0.903226 0.903226 0.903226
0.000000 0.000000 0.003910
0.080346 0.018037 0.109986
0.028884 0.115032 0.167881
0.049948 0.202315 0.294516
0.067480 0.290606 0.408035
0.080724 0.364393 0.536184
0.083625 0.463028 0.650080
0.095607 0.572888 0.733579
0.141772 0.024469 0.149466
0.205736 0.032408 0.217267
0.063363 0.182487 0.337548
0.072351 0.280915 0.393066
0.083308 0.356073 0.517012
0.087372 0.441170 0.629863
0.088040 0.548561 0.709602
0.109242 0.637593 0.783678
0.485605 0.044524 0.268029
0.620566 0.059660 0.299855
0.539785 0.091710 0.507267
0.086526 0.340147 0.518277
0.084899 0.426474 0.609482
0.087625 0.527139 0.696008
0.101593 0.620187 0.768644
0.121237 0.695362 0.821896
0.799672 0.068742 0.378141
0.836144 0.080675 0.421620
0.806569 0.097552 0.532620
0.130709 0.401972 0.697526
0.087031 0.503561 0.681109
0.096104 0.602134 0.751885
0.112045 0.675937 0.809933
0.138024 0.747258 0.856883
0.889856 0.092959 0.543373
0.907323 0.098130 0.604543
0.921519 0.109116 0.662165
0.616184 0.288922 0.764962
0.097617 0.582181 0.767342
0.109429 0.663576 0.796214
0.133585 0.732709 0.850881
0.167222 0.802699 0.887586
0.935768 0.120834 0.703308
0.939596 0.138158 0.728624
0.941065 0.163918 0.755742
0.871258 0.251078 0.785476
0.278640 0.631083 0.836246
0.129101 0.726024 0.842231
0.159019 0.790355 0.883313
0.202518 0.832218 0.890043
0.938416 0.191719 0.777221
0.939832 0.226939 0.788068
0.940308 0.262341 0.798594
0.928554 0.298207 0.820939
0.529161 0.662567 0.875400
0.189897 0.807744 0.888074
0.194999 0.829610 0.892423
0.267557 0.855727 0.894775
0.936651 0.306625 0.808627
0.934506 0.334854 0.812790
0.930975 0.370826 0.820964
0.929803 0.401960 0.828556
0.906204 0.450020 0.854083
0.532607 0.797341 0.902725
0.322798 0.864483 0.898002
0.389619 0.878004 0.900911
0.068994 0.004667 0.069246
0.107989 0.020897 0.139937
0.030552 0.125277 0.195174
0.060368 0.215965 0.313135
0.075300 0.307443 0.428281
0.084842 0.381673 0.560356
0.087535 0.480743 0.662413
0.099379 0.586144 0.741412
0.174212 0.028599 0.165240
0.422432 0.044508 0.260099
0.523889 0.090807 0.429903
0.081259 0.331958 0.475338
0.088426 0.420575 0.606444
0.087207 0.523080 0.692184
0.098655 0.607177 0.760192
0.115522 0.688589 0.815579
0.543215 0.048971 0.282977
0.756034 0.068048 0.350891
0.723618 0.099821 0.494812
0.102615 0.393919 0.656272
0.085452 0.499240 0.674741
0.092991 0.588342 0.745621
0.111634 0.667728 0.803371
0.134030 0.736884 0.851099
0.824113 0.074165 0.400865
0.881184 0.090805 0.520438
0.890522 0.097495 0.595622
0.237183 0.433118 0.755536
0.090985 0.572130 0.731860
0.102350 0.648158 0.785783
0.128135 0.721647 0.840156
0.162905 0.794845 0.883620
0.899820 0.097121 0.580326
0.936883 0.115255 0.694572
0.939776 0.130305 0.718581
0.818783 0.260296 0.767157
0.126847 0.631994 0.816815
0.120923 0.707989 0.830145
0.151462 0.780324 0.875495
0.196338 0.829415 0.891393
0.940894 0.131474 0.721515
0.939672 0.178818 0.766802
0.942264 0.208553 0.784252
0.923898 0.263287 0.807503
0.423752 0.640290 0.854472
0.155470 0.771653 0.873344
0.188250 0.820533 0.888092
0.258003 0.851935 0.895751
0.940658 0.207360 0.782335
0.939081 0.284265 0.800839
0.934506 0.312419 0.809376
0.933721 0.346222 0.819745
0.733905 0.563040 0.869871
0.256073 0.829739 0.891825
0.248899 0.848610 0.893202
0.358151 0.869969 0.896963
0.934506 0.316577 0.808627
0.929184 0.388478 0.824937
0.924409 0.431115 0.829183
0.922182 0.473118 0.839253
0.914575 0.519790 0.863306
0.666461 0.781403 0.910338
0.435383 0.877721 0.902917
0.522879 0.886288 0.908625
0.150853 0.021064 0.155646
0.243604 0.032729 0.221792
0.092751 0.141983 0.432264
0.063513 0.228900 0.333755
0.079210 0.314197 0.442973
0.088670 0.399152 0.579069
0.087535 0.498918 0.677955
0.099469 0.596755 0.753357
0.321989 0.039198 0.242078
0.633309 0.053702 0.296992
0.596268 0.089827 0.452481
0.087687 0.342029 0.525477
0.087628 0.429984 0.617457
0.089225 0.533869 0.703380
0.099246 0.619105 0.765984
0.118197 0.694385 0.820400
0.593842 0.054102 0.288259
0.784651 0.069742 0.372067
0.819117 0.098566 0.526598
0.137555 0.442920 0.729695
0.090322 0.562332 0.725579
0.100611 0.644564 0.781732
0.121685 0.709853 0.834697
0.155949 0.786972 0.876029
0.832185 0.080065 0.416750
0.887772 0.091939 0.538707
0.929736 0.113124 0.666004
0.702398 0.268562 0.756325
0.109942 0.628029 0.797008
0.116572 0.698420 0.823293
0.148862 0.769921 0.870831
0.190286 0.821352 0.886659
0.903344 0.095725 0.588008
0.939882 0.123788 0.710775
0.942783 0.165255 0.758966
0.920292 0.224625 0.797778
0.306600 0.635377 0.834854
0.142173 0.761051 0.864013
0.179508 0.814810 0.884341
0.251514 0.849747 0.893516
0.941228 0.134960 0.724319
0.938569 0.185235 0.772722
0.938737 0.262164 0.796451
0.939462 0.299904 0.809659
0.712141 0.506666 0.858663
0.204840 0.801739 0.882280
0.233548 0.843877 0.892789
0.338025 0.863282 0.893563
0.938921 0.213666 0.778974
0.936568 0.294069 0.802565
0.931204 0.372059 0.822749
0.928322 0.407961 0.829096
0.903508 0.454497 0.861189
0.557158 0.801575 0.899847
0.330558 0.860127 0.892510
0.466761 0.876074 0.895129
0.934506 0.328116 0.812261
0.928297 0.404860 0.826923
0.918915 0.506076 0.844129
0.916758 0.551310 0.850543
0.915717 0.597928 0.870713
0.768958 0.772241 0.915608
0.561274 0.881915 0.902968
0.627317 0.888821 0.903390
0.330338 0.039101 0.241541
0.450309 0.044272 0.265099
0.360971 0.076322 0.467988
0.067081 0.250501 0.361350
0.076700 0.324410 0.462295
0.084736 0.408649 0.593683
0.088756 0.516133 0.692041
0.101625 0.609104 0.759977
0.567578 0.049850 0.287075
0.772856 0.067741 0.359472
0.769920 0.082326 0.444749
0.140049 0.348211 0.676220
0.088075 0.455259 0.637385
0.085895 0.542882 0.709675
0.102892 0.634414 0.780139
0.121967 0.705739 0.830936
0.739707 0.064425 0.345543
0.847123 0.084799 0.442674
0.905189 0.098282 0.595081
0.681831 0.231430 0.726137
0.095731 0.571606 0.760924
0.106560 0.655945 0.789329
0.128414 0.727957 0.842267
0.160150 0.791811 0.880530
0.840457 0.082303 0.433456
0.895823 0.094286 0.563307
0.938556 0.118848 0.687672
0.837848 0.255591 0.775825
0.207230 0.648377 0.833203
0.135164 0.745444 0.854770
0.175215 0.811540 0.884196
0.240601 0.844672 0.890646
0.911091 0.100824 0.607354
0.938599 0.126379 0.712909
0.944861 0.178374 0.771974
0.944975 0.244128 0.803029
0.576123 0.528446 0.846206
0.173101 0.800419 0.881250
0.226487 0.839106 0.888755
0.326020 0.859473 0.891629
0.942326 0.144294 0.736220
0.940553 0.195777 0.779759
0.938251 0.278334 0.802129
0.937022 0.349319 0.820825
0.885211 0.417312 0.855619
0.340155 0.815957 0.889525
0.311193 0.857590 0.892322
0.444517 0.868856 0.891203
0.938416 0.226446 0.783401
0.936748 0.307352 0.807979
0.930628 0.384693 0.823413
0.921116 0.479521 0.840143
0.905735 0.524414 0.861956
0.660054 0.799005 0.905058
0.439822 0.870332 0.894373
0.587078 0.879183 0.893770
0.931658 0.335924 0.810698
0.927925 0.422613 0.829381
0.919847 0.525484 0.847765
0.914504 0.626223 0.872113
0.911388 0.666125 0.881028
0.876084 0.727787 0.909934
0.676719 0.888511 0.904990
0.704013 0.891479 0.903970
0.549302 0.049948 0.283669
0.666408 0.058142 0.310914
0.645047 0.088422 0.426779
0.077640 0.298667 0.478697
0.079210 0.340127 0.488661
0.086599 0.423117 0.611810
0.089932 0.532274 0.699890
0.103603 0.620712 0.773689
0.743723 0.066666 0.346047
0.844067 0.083458 0.434734
0.869877 0.090298 0.505829
0.430370 0.235067 0.715510
0.085253 0.468016 0.660852
0.089159 0.559574 0.722723
0.106007 0.644560 0.787237
0.127148 0.717462 0.839022
0.834610 0.082351 0.421160
0.890543 0.092063 0.553555
0.931619 0.112052 0.675512
0.794768 0.228794 0.741992
0.114333 0.584928 0.794270
0.109535 0.668978 0.802094
0.134658 0.737995 0.851609
0.167710 0.805716 0.885200
0.877060 0.090322 0.521874
0.929136 0.111524 0.664149
0.943663 0.144761 0.736299
0.911828 0.235767 0.790037
0.316577 0.619915 0.839755
0.149010 0.763861 0.867541
0.183565 0.815272 0.883074
0.256360 0.848184 0.892284
0.921104 0.102891 0.635706
0.938416 0.134170 0.721034
0.939081 0.184157 0.772083
0.941267 0.261079 0.801330
0.809591 0.454936 0.849034
0.275459 0.819328 0.887969
0.290582 0.852174 0.890459
0.428118 0.866631 0.888815
0.940036 0.148562 0.744479
0.938831 0.207437 0.780027
0.936729 0.290423 0.800811
0.931740 0.364536 0.818152
0.907256 0.449323 0.855304
0.563146 0.791804 0.890378
0.409099 0.867010 0.891256
0.576365 0.871141 0.889076
0.940194 0.247116 0.791624
0.936089 0.317234 0.809743
0.929297 0.396429 0.825834
0.920007 0.500182 0.843309
0.913883 0.598727 0.864505
0.861085 0.679142 0.897033
0.605686 0.872307 0.894209
0.682332 0.883882 0.895101
0.933595 0.350820 0.815963
0.924242 0.434862 0.831391
0.918909 0.538340 0.850951
0.911599 0.642941 0.875965
0.914591 0.725258 0.894816
0.903107 0.753405 0.904422
0.788860 0.878099 0.913274
0.761516 0.901128 0.910470
0.729039 0.065084 0.333113
0.791356 0.070426 0.372006
0.764852 0.081416 0.483278
0.152098 0.310991 0.622511
0.085086 0.393770 0.580350
0.084313 0.442424 0.629293
0.091445 0.546856 0.713272
0.106455 0.631726 0.780687
0.829024 0.078417 0.406305
0.891017 0.092092 0.471003
0.903171 0.098808 0.542238
0.727363 0.226641 0.610416
0.099587 0.531686 0.739208
0.095300 0.583786 0.740628
0.111622 0.661306 0.798469
0.131213 0.729763 0.848705
0.873117 0.090094 0.509049
0.926069 0.108512 0.654422
0.933556 0.147440 0.651967
0.893050 0.207639 0.716192
0.264093 0.597722 0.813950
0.116173 0.687599 0.817283
0.142419 0.750646 0.863181
0.177357 0.812513 0.888310
0.915721 0.101426 0.626518
0.938554 0.126685 0.713345
0.939099 0.174155 0.763343
0.942544 0.251258 0.788357
0.793055 0.433073 0.810512
0.197748 0.769519 0.873005
0.192921 0.823140 0.886774
0.271687 0.850821 0.892147
0.939678 0.120854 0.704410
0.939116 0.165741 0.759849
0.939918 0.237602 0.790236
0.935812 0.313466 0.807394
0.894551 0.416740 0.848317
0.399622 0.810062 0.891321
0.317610 0.858788 0.892057
0.461357 0.872209 0.891634
0.941065 0.164613 0.758130
0.939161 0.225345 0.782473
0.935251 0.303326 0.802588
0.930031 0.381871 0.822697
0.921787 0.473591 0.840647
0.810684 0.664582 0.893354
0.531603 0.870141 0.891905
0.666104 0.882775 0.894484
0.940813 0.255005 0.794122
0.934311 0.328491 0.812393
0.926224 0.408348 0.826263
0.919252 0.517004 0.845140
0.912206 0.621461 0.869622
0.888554 0.699688 0.896725
0.737676 0.873049 0.905603
0.746217 0.891834 0.903936
0.930975 0.363767 0.817831
0.923350 0.449084 0.834261
0.916596 0.555514 0.852895
0.911156 0.651952 0.877243
0.913512 0.739081 0.896438
0.914393 0.795991 0.910285
0.835460 0.879819 0.921673
0.803400 0.906965 0.916238
0.823259 0.073408 0.396178
0.856850 0.087283 0.426918
0.868206 0.117257 0.254500
0.742311 0.195817 0.204536
0.100185 0.428610 0.400890
0.086257 0.522688 0.677935
0.093886 0.567570 0.727838
0.107338 0.643648 0.787616
0.869492 0.087787 0.489072
0.727826 0.246865 0.066263
0.756966 0.275466 0.084089
0.635910 0.347063 0.079383
0.136358 0.562764 0.526664
0.103547 0.646085 0.705851
0.115254 0.678022 0.807839
0.139460 0.738898 0.857200
0.915391 0.100034 0.585985
0.926437 0.142603 0.586740
0.852842 0.341214 0.181861
0.851570 0.385485 0.189926
0.784556 0.470209 0.278052
0.191225 0.718527 0.641613
0.148458 0.768485 0.868085
0.184431 0.818310 0.888825
0.938416 0.117469 0.699943
0.937923 0.170656 0.691411
0.924125 0.294354 0.487276
0.913628 0.420826 0.347136
0.874370 0.540300 0.355708
0.313391 0.781512 0.751449
0.207357 0.833148 0.887830
0.289738 0.858606 0.894925
0.941317 0.151081 0.748666
0.938578 0.214477 0.782279
0.938107 0.296262 0.774766
0.933954 0.422724 0.578486
0.903574 0.591904 0.503723
0.535534 0.800872 0.710433
0.338465 0.862925 0.864129
0.487204 0.874374 0.893035
0.940528 0.200736 0.779568
0.937757 0.277870 0.800794
0.934681 0.355103 0.816205
0.923887 0.450675 0.823284
0.920055 0.573563 0.801226
0.895008 0.719624 0.688620
0.595695 0.869742 0.853863
0.686626 0.891019 0.902406
0.938372 0.271577 0.799168
0.934132 0.345171 0.817075
0.923980 0.432088 0.831697
0.916897 0.538414 0.846108
0.912136 0.643367 0.870408
0.909971 0.738519 0.834630
0.777935 0.875076 0.903056
0.770783 0.906729 0.911726
0.930975 0.377080 0.824646
0.920812 0.460747 0.833797
0.916000 0.572622 0.859062
0.911388 0.668398 0.880292
0.915412 0.750615 0.899716
0.919806 0.812332 0.906105
0.909756 0.867368 0.892482
0.831643 0.914952 0.914080
0.868666 0.089932 0.469208
0.861135 0.138927 0.218581
0.414341 0.307353 0.052747
0.355592 0.339619 0.065230
0.303549 0.361940 0.086754
0.167852 0.507548 0.302414
0.114552 0.625330 0.593228
0.111248 0.664891 0.793577
0.898502 0.114873 0.396793
0.405667 0.367658 0.064534
0.406318 0.400158 0.074181
0.415473 0.424844 0.079183
0.392777 0.455294 0.093806
0.317106 0.538328 0.180870
0.159589 0.715882 0.670073
0.140776 0.753047 0.860625
0.847618 0.235914 0.179843
0.770775 0.355012 0.083030
0.544715 0.506008 0.076434
0.565060 0.538156 0.078880
0.621542 0.567720 0.075652
0.504394 0.614542 0.150123
0.223563 0.782602 0.666511
0.201914 0.821550 0.868048
0.934559 0.156565 0.673610
0.861568 0.377729 0.202033
0.759491 0.552030 0.058540
0.728636 0.630639 0.077786
0.751674 0.661277 0.082406
0.617269 0.693496 0.165552
0.361240 0.809447 0.608743
0.315460 0.858676 0.846361
0.940561 0.199462 0.743121
0.936819 0.286726 0.694352
0.914406 0.484861 0.312952
0.813622 0.683677 0.087020
0.822892 0.738102 0.107233
0.762376 0.759720 0.137981
0.641123 0.803203 0.406591
0.507525 0.873489 0.837487
0.937847 0.257816 0.794122
0.934433 0.336076 0.786202
0.931387 0.478974 0.614432
0.922711 0.649541 0.387239
0.902720 0.755741 0.200131
0.884891 0.809827 0.176808
0.792829 0.820225 0.284081
0.659854 0.887066 0.824323
0.935821 0.321435 0.810121
0.928933 0.400961 0.826175
0.919874 0.511226 0.826276
0.926234 0.669165 0.647901
0.927882 0.754177 0.611014
0.914429 0.825774 0.355877
0.852155 0.850866 0.361973
0.787755 0.874337 0.625202
0.928240 0.389253 0.823641
0.919990 0.487958 0.840651
0.914214 0.602957 0.862942
0.912975 0.698641 0.865163
0.922446 0.783473 0.816386
0.923267 0.837091 0.806128
0.907896 0.870206 0.524447
0.879155 0.879127 0.570686
