其他预设/【236】赛博朋克风调色预设/【后期菌】视频调色预设/CUBE/Glitch 02_S.cube
# LUT by SparkleStock. Enhanced with VOXCOLOR algorithms.
LUT_3D_SIZE 32
0.000000 0.000000 0.000000
0.012109 0.002018 0.012109
0.024217 0.003910 0.024343
0.036326 0.003910 0.038470
0.047425 0.009964 0.067985
0.051462 0.058399 0.205216
0.051335 0.095103 0.295904
0.033173 0.080976 0.184908
0.020559 0.074922 0.107212
0.024596 0.093085 0.129411
0.030524 0.110617 0.154763
0.040614 0.126762 0.187053
0.049948 0.145177 0.219342
0.058020 0.167376 0.251632
0.067859 0.193107 0.290985
0.079967 0.223378 0.339419
0.087031 0.254659 0.380790
0.089049 0.286949 0.415098
0.093337 0.318103 0.461893
0.099391 0.348374 0.518399
0.102923 0.392520 0.571122
0.104941 0.444991 0.621575
0.108347 0.487750 0.652603
0.112383 0.526093 0.674802
0.116419 0.567464 0.703056
0.120455 0.609845 0.733327
0.129411 0.642386 0.752121
0.139501 0.672658 0.768265
0.149592 0.692334 0.779113
0.159682 0.710497 0.789203
0.173557 0.724876 0.801186
0.187683 0.739003 0.813294
0.016145 0.002018 0.016145
0.025129 0.002995 0.025129
0.034373 0.003975 0.034564
0.047523 0.005017 0.050774
0.059664 0.011071 0.082242
0.064742 0.052214 0.220514
0.064681 0.085729 0.313416
0.042352 0.086184 0.209711
0.026874 0.090286 0.135921
0.031952 0.105324 0.151870
0.039898 0.122335 0.174553
0.054155 0.143688 0.212051
0.066874 0.165749 0.246814
0.077030 0.188989 0.277021
0.088495 0.213483 0.311101
0.101646 0.239588 0.350161
0.110271 0.269306 0.390490
0.114373 0.302638 0.432089
0.119572 0.332490 0.473285
0.125627 0.359637 0.514168
0.129158 0.400007 0.555173
0.131176 0.448311 0.596251
0.133150 0.494780 0.633659
0.135103 0.540415 0.669399
0.137056 0.578922 0.700256
0.139009 0.615053 0.729486
0.144188 0.651500 0.754008
0.150112 0.688021 0.777444
0.161505 0.707568 0.790115
0.173679 0.724689 0.801247
0.186707 0.739003 0.812318
0.199792 0.753130 0.823385
0.032668 0.004162 0.032920
0.038657 0.004162 0.038909
0.045147 0.004293 0.045643
0.059143 0.006376 0.063546
0.072115 0.012495 0.096739
0.077908 0.046868 0.236964
0.077721 0.077506 0.332795
0.051616 0.091958 0.236252
0.033551 0.105840 0.166123
0.039605 0.118014 0.175237
0.049423 0.134602 0.194706
0.067521 0.160903 0.236956
0.083422 0.186324 0.273835
0.095660 0.210281 0.301763
0.108697 0.233526 0.330745
0.122758 0.255855 0.361081
0.132881 0.284076 0.400174
0.139066 0.318188 0.448022
0.145140 0.346735 0.483567
0.151130 0.370952 0.509542
0.154759 0.407823 0.539545
0.156972 0.452286 0.571964
0.157664 0.501762 0.614992
0.157664 0.553517 0.662840
0.157664 0.589403 0.696236
0.157664 0.620000 0.724815
0.159304 0.660118 0.754928
0.161322 0.702433 0.785395
0.173707 0.722248 0.800368
0.187573 0.738848 0.813127
0.199731 0.753008 0.823263
0.211774 0.767004 0.833223
0.054867 0.008199 0.059156
0.059815 0.008199 0.064103
0.065198 0.008394 0.069600
0.077111 0.011519 0.083336
0.087739 0.018680 0.114836
0.089366 0.054094 0.270686
0.086184 0.086555 0.380188
0.062162 0.106215 0.288853
0.045660 0.124264 0.218724
0.051714 0.137479 0.212214
0.061206 0.155109 0.220290
0.078262 0.182451 0.260457
0.094293 0.206961 0.294081
0.108615 0.226751 0.316801
0.122368 0.248564 0.343309
0.135388 0.272976 0.374687
0.146031 0.300677 0.409613
0.154299 0.331664 0.448087
0.160699 0.358843 0.477187
0.165647 0.383061 0.498996
0.170839 0.420583 0.528738
0.176177 0.466087 0.563241
0.177845 0.508012 0.600474
0.177845 0.548309 0.638948
0.177845 0.585237 0.673907
0.177845 0.621042 0.707694
0.179485 0.661290 0.741322
0.181503 0.702563 0.774914
0.190243 0.728628 0.799391
0.199942 0.752519 0.822567
0.210863 0.765181 0.831400
0.221865 0.777095 0.839277
0.079589 0.012487 0.084886
0.085187 0.012747 0.089443
0.091140 0.013244 0.094314
0.102402 0.017280 0.103883
0.112363 0.025076 0.132275
0.113209 0.059188 0.292421
0.108636 0.091982 0.409467
0.080578 0.119064 0.339745
0.060689 0.142972 0.280845
0.065312 0.157359 0.254415
0.073453 0.176079 0.247779
0.089338 0.204333 0.284690
0.105222 0.228192 0.314571
0.121106 0.244727 0.332734
0.135396 0.265278 0.356565
0.147635 0.290993 0.387683
0.158864 0.317847 0.417857
0.169085 0.345840 0.447086
0.176047 0.371709 0.470164
0.180473 0.395926 0.488457
0.187097 0.433529 0.517858
0.195040 0.479164 0.553924
0.197790 0.514327 0.586006
0.198181 0.544728 0.616277
0.198083 0.582405 0.652798
0.197823 0.622506 0.691403
0.199625 0.662714 0.728367
0.201904 0.702946 0.764953
0.206802 0.734918 0.798464
0.212075 0.765710 0.831534
0.222231 0.777217 0.839399
0.232712 0.787437 0.845584
0.121969 0.018541 0.107085
0.140067 0.020885 0.115809
0.158323 0.023334 0.124325
0.178960 0.027370 0.129728
0.199987 0.032953 0.145100
0.223749 0.049358 0.230251
0.229006 0.072062 0.311947
0.154075 0.122058 0.378674
0.096169 0.163674 0.409613
0.089333 0.180144 0.333186
0.088947 0.200296 0.288596
0.102748 0.228550 0.314051
0.116549 0.253581 0.336770
0.130351 0.273241 0.354933
0.143924 0.293727 0.374663
0.157204 0.315275 0.396406
0.169476 0.339004 0.417726
0.180738 0.364914 0.438623
0.189913 0.389872 0.458642
0.197465 0.414089 0.477976
0.204609 0.447786 0.506466
0.211510 0.487172 0.540448
0.216083 0.521097 0.571879
0.219599 0.552540 0.602151
0.218720 0.588915 0.640234
0.216376 0.626933 0.680922
0.219481 0.665904 0.719969
0.223842 0.705094 0.758639
0.223533 0.740582 0.797878
0.222557 0.775540 0.837198
0.235251 0.788284 0.846430
0.248857 0.799546 0.853656
0.180242 0.025352 0.128528
0.210057 0.029389 0.139855
0.240032 0.033437 0.150637
0.272387 0.037668 0.153241
0.305726 0.041599 0.158327
0.345958 0.043422 0.180787
0.358884 0.056596 0.231052
0.253487 0.118962 0.401809
0.165179 0.172425 0.505351
0.128137 0.199182 0.407245
0.105905 0.226039 0.341913
0.116256 0.253121 0.348684
0.127266 0.278298 0.359140
0.139375 0.300302 0.375741
0.152452 0.320711 0.390917
0.166774 0.339069 0.404263
0.179989 0.360259 0.417706
0.192098 0.384281 0.431247
0.203181 0.408413 0.448523
0.213467 0.432630 0.468704
0.221108 0.462666 0.496208
0.227162 0.496192 0.528107
0.233485 0.528600 0.558753
0.239930 0.560499 0.588829
0.238807 0.595571 0.628134
0.235162 0.631702 0.670514
0.239556 0.669313 0.711095
0.245805 0.707267 0.751262
0.241802 0.745391 0.795302
0.236333 0.783539 0.839896
0.249846 0.798008 0.851532
0.264623 0.810898 0.860972
0.307382 0.035443 0.146691
0.345530 0.039479 0.153852
0.384684 0.043593 0.160923
0.438912 0.048866 0.166652
0.489959 0.053577 0.173300
0.518733 0.054358 0.186385
0.529967 0.060437 0.222198
0.465192 0.089472 0.356500
0.379488 0.129394 0.457958
0.230995 0.201981 0.460888
0.129211 0.258394 0.449393
0.130188 0.279226 0.406167
0.135339 0.300107 0.382251
0.147447 0.321069 0.390519
0.160980 0.341348 0.399185
0.176344 0.360748 0.408364
0.190080 0.381938 0.418162
0.202188 0.404918 0.428578
0.213858 0.428594 0.444486
0.225185 0.452811 0.464667
0.233217 0.480243 0.490870
0.239271 0.509603 0.520686
0.247026 0.539276 0.549965
0.255554 0.569092 0.578999
0.256514 0.602863 0.618043
0.254952 0.637951 0.660423
0.260583 0.673675 0.700159
0.267874 0.709545 0.739284
0.266735 0.746498 0.784105
0.264391 0.783605 0.829740
0.271264 0.801914 0.848277
0.278750 0.818970 0.865008
0.441081 0.045533 0.164854
0.482615 0.049049 0.169671
0.525512 0.052674 0.174724
0.588854 0.057947 0.183318
0.646638 0.062626 0.191984
0.665517 0.063147 0.201163
0.673984 0.064522 0.228432
0.637333 0.069600 0.334089
0.550392 0.100604 0.431902
0.312582 0.209386 0.506181
0.147277 0.289463 0.532998
0.141483 0.306389 0.455399
0.142402 0.324340 0.406582
0.154511 0.344001 0.405736
0.168271 0.363661 0.407567
0.184156 0.383321 0.412840
0.198803 0.404511 0.419643
0.212214 0.427231 0.427976
0.224453 0.450061 0.442533
0.235780 0.472976 0.461933
0.244625 0.497641 0.486053
0.251982 0.523355 0.513004
0.260681 0.551352 0.542641
0.269990 0.580387 0.573498
0.272513 0.612204 0.611826
0.272773 0.644950 0.652644
0.279381 0.678753 0.691240
0.287453 0.712800 0.729323
0.288234 0.749297 0.775609
0.287974 0.786143 0.823067
0.291803 0.806145 0.845869
0.295904 0.825024 0.867026
0.594457 0.055624 0.183016
0.624533 0.057056 0.190959
0.654865 0.058533 0.199072
0.689043 0.060681 0.209748
0.720657 0.062887 0.221800
0.734328 0.065491 0.243478
0.736806 0.069340 0.279926
0.690780 0.078584 0.380375
0.591079 0.114535 0.469855
0.330354 0.230609 0.526427
0.149620 0.316675 0.544976
0.144868 0.336726 0.479876
0.146438 0.355849 0.434575
0.158547 0.373426 0.422271
0.171852 0.391003 0.416290
0.186695 0.408580 0.418438
0.203425 0.429770 0.424200
0.222044 0.454573 0.433574
0.234803 0.475385 0.446830
0.243006 0.493092 0.463105
0.253935 0.514502 0.482798
0.266499 0.538133 0.504541
0.274677 0.567627 0.539712
0.280862 0.599787 0.580985
0.283384 0.627698 0.617229
0.284686 0.654194 0.651797
0.291489 0.685979 0.688375
0.299562 0.718985 0.725417
0.299431 0.757174 0.775219
0.298129 0.796104 0.826843
0.309705 0.811353 0.845999
0.322139 0.825024 0.862990
0.715669 0.063822 0.209378
0.736240 0.064473 0.220445
0.756348 0.065043 0.231557
0.769498 0.064392 0.243340
0.782144 0.064286 0.257108
0.791258 0.067997 0.284776
0.789618 0.073221 0.323160
0.741379 0.085004 0.407986
0.638196 0.121672 0.484576
0.370179 0.232993 0.536461
0.179570 0.321753 0.556711
0.159259 0.360878 0.507365
0.150861 0.390897 0.467613
0.162319 0.405740 0.443852
0.174944 0.421010 0.430059
0.189071 0.436829 0.429082
0.206908 0.457205 0.433151
0.228456 0.482139 0.442265
0.242388 0.501359 0.454015
0.250395 0.516137 0.467817
0.262878 0.535146 0.484954
0.278046 0.556694 0.504094
0.286009 0.586120 0.541807
0.290696 0.619125 0.587963
0.293625 0.644758 0.623670
0.295969 0.667934 0.655895
0.302703 0.698779 0.692774
0.310450 0.731394 0.730727
0.310507 0.768510 0.781440
0.309465 0.806268 0.833976
0.326122 0.817782 0.848672
0.343960 0.827547 0.860846
0.766121 0.067859 0.253776
0.781485 0.070593 0.267968
0.796515 0.072985 0.281944
0.806540 0.070251 0.292686
0.816061 0.068192 0.304501
0.822050 0.070861 0.323836
0.820410 0.075044 0.348224
0.785712 0.085786 0.394510
0.699455 0.113860 0.448185
0.458520 0.193933 0.524026
0.270254 0.278136 0.567908
0.197863 0.371424 0.541477
0.156134 0.433733 0.511751
0.165509 0.444409 0.476532
0.176962 0.456880 0.454927
0.191089 0.471658 0.450826
0.207885 0.489430 0.451770
0.227350 0.510197 0.457759
0.243885 0.528767 0.467556
0.258142 0.545627 0.480316
0.271015 0.564116 0.499016
0.283059 0.583581 0.521280
0.291477 0.609491 0.554957
0.298247 0.638330 0.593822
0.302479 0.665265 0.632394
0.305864 0.691565 0.670868
0.311947 0.723843 0.713150
0.318652 0.757499 0.756311
0.321313 0.787454 0.802207
0.323396 0.816879 0.848493
0.339273 0.826896 0.856940
0.356068 0.835619 0.862864
0.810519 0.070381 0.298174
0.821066 0.073636 0.313147
0.831359 0.076509 0.327888
0.837869 0.073644 0.339151
0.844168 0.071341 0.351015
0.848985 0.072969 0.367095
0.847907 0.076257 0.383077
0.821281 0.086738 0.398636
0.755172 0.107684 0.430470
0.570614 0.160024 0.511129
0.402391 0.236228 0.565849
0.270108 0.364930 0.563506
0.185185 0.453084 0.546734
0.179196 0.473655 0.505916
0.181495 0.491066 0.479282
0.194450 0.504411 0.470885
0.210204 0.520165 0.468704
0.228757 0.538328 0.472740
0.246652 0.555612 0.481097
0.264033 0.572213 0.492815
0.277346 0.590034 0.512589
0.288218 0.608587 0.537197
0.297434 0.632422 0.568473
0.305897 0.658657 0.602781
0.311333 0.684941 0.641385
0.315759 0.711242 0.681422
0.322778 0.743413 0.726959
0.330395 0.776940 0.773766
0.334537 0.801637 0.814991
0.338182 0.825073 0.855418
0.353180 0.834106 0.860935
0.368934 0.842178 0.864125
0.844827 0.070381 0.342572
0.851207 0.071553 0.354421
0.857334 0.072668 0.366428
0.859678 0.072928 0.380815
0.862591 0.073229 0.396064
0.869492 0.073815 0.417352
0.869911 0.076452 0.434245
0.842243 0.087975 0.432097
0.801654 0.104233 0.443880
0.722297 0.134700 0.497458
0.603615 0.197168 0.541697
0.398420 0.330037 0.565393
0.253866 0.433293 0.566459
0.210379 0.487196 0.529808
0.190218 0.522444 0.502784
0.200048 0.533706 0.488136
0.214761 0.548419 0.482830
0.234356 0.566582 0.486867
0.251534 0.581522 0.494638
0.266833 0.593956 0.505314
0.280666 0.610866 0.525349
0.293621 0.630461 0.550998
0.304204 0.654621 0.582600
0.313709 0.680856 0.616908
0.320186 0.703235 0.650825
0.325655 0.724327 0.684612
0.336254 0.753829 0.729824
0.348037 0.785273 0.777672
0.351788 0.807887 0.814470
0.354392 0.829240 0.849689
0.368348 0.838142 0.857810
0.383061 0.846214 0.864125
0.869423 0.070381 0.390502
0.873003 0.071293 0.401504
0.876417 0.072273 0.412970
0.877328 0.074291 0.431393
0.879078 0.076171 0.450256
0.886694 0.077082 0.472195
0.888269 0.079922 0.488433
0.863661 0.091120 0.479970
0.839704 0.104514 0.480930
0.817701 0.124500 0.510160
0.736883 0.175510 0.540245
0.526675 0.294773 0.572209
0.358603 0.402879 0.582739
0.260758 0.492392 0.557545
0.206461 0.548952 0.534829
0.208153 0.563143 0.515299
0.218862 0.578637 0.506185
0.238587 0.595433 0.507487
0.255163 0.608970 0.514502
0.269290 0.619972 0.525959
0.283702 0.636141 0.545798
0.298284 0.655410 0.570667
0.309778 0.678216 0.601711
0.319869 0.702628 0.635563
0.327957 0.723037 0.667072
0.335379 0.742111 0.697799
0.347138 0.768802 0.742543
0.359897 0.797251 0.790521
0.364055 0.818067 0.824373
0.366985 0.837792 0.856207
0.381266 0.844030 0.861493
0.396304 0.849368 0.865008
0.881531 0.070381 0.442973
0.884070 0.073376 0.456058
0.886638 0.076309 0.469802
0.889632 0.078327 0.493434
0.893074 0.080468 0.516202
0.899649 0.083462 0.532933
0.901940 0.087604 0.546502
0.885665 0.096718 0.546372
0.866916 0.109592 0.548374
0.840746 0.133744 0.556772
0.782779 0.176226 0.567977
0.654857 0.259033 0.585359
0.509700 0.358807 0.594587
0.335818 0.486858 0.590225
0.232370 0.569198 0.577860
0.219481 0.592764 0.555205
0.222378 0.611383 0.541404
0.241061 0.625054 0.536457
0.257182 0.638395 0.542495
0.271308 0.651480 0.557077
0.286371 0.667128 0.576135
0.301995 0.684315 0.597878
0.313815 0.703605 0.627230
0.323905 0.723851 0.660041
0.334337 0.744781 0.692070
0.344883 0.765938 0.723839
0.354689 0.789634 0.767932
0.364324 0.813917 0.814869
0.369914 0.833300 0.847679
0.374927 0.851984 0.878472
0.391292 0.852297 0.873927
0.408413 0.851386 0.867026
0.894649 0.076436 0.501498
0.897188 0.080993 0.516145
0.899755 0.085423 0.531289
0.902750 0.087962 0.553879
0.905997 0.090688 0.575476
0.911009 0.094725 0.590123
0.913202 0.099518 0.602391
0.903177 0.107590 0.604344
0.888855 0.120073 0.604523
0.861643 0.145787 0.599380
0.816305 0.184949 0.599323
0.731089 0.253695 0.610455
0.597585 0.352297 0.619292
0.383602 0.500660 0.624305
0.253723 0.596702 0.616757
0.231980 0.625477 0.593061
0.228627 0.645137 0.577697
0.243665 0.655683 0.570667
0.258484 0.667657 0.575793
0.273131 0.680743 0.590376
0.288389 0.695740 0.609108
0.304013 0.711885 0.630331
0.316907 0.729059 0.657730
0.328560 0.746701 0.687936
0.340164 0.766589 0.720486
0.351752 0.787226 0.753817
0.361753 0.807439 0.792702
0.371387 0.827555 0.832869
0.378345 0.844139 0.862099
0.384920 0.860219 0.889766
0.403823 0.858417 0.880632
0.423549 0.855422 0.869044
0.908776 0.088544 0.566077
0.912356 0.094143 0.581766
0.915770 0.099615 0.597431
0.916681 0.103196 0.612729
0.917845 0.106833 0.628077
0.920774 0.110869 0.643766
0.922056 0.115662 0.656098
0.916197 0.123735 0.653885
0.905521 0.135957 0.649377
0.880392 0.160630 0.637984
0.837463 0.201680 0.634281
0.755372 0.278758 0.647497
0.622258 0.383349 0.656855
0.404108 0.533796 0.659784
0.270519 0.631466 0.651521
0.245651 0.661282 0.628866
0.237611 0.679900 0.615065
0.246399 0.687322 0.610117
0.259069 0.696757 0.614397
0.274759 0.707759 0.625855
0.289756 0.721975 0.644718
0.304338 0.738120 0.668024
0.319055 0.754578 0.693209
0.333833 0.771179 0.719249
0.345437 0.788463 0.752320
0.355983 0.805975 0.787734
0.368328 0.822217 0.816854
0.381087 0.838166 0.844522
0.389347 0.850584 0.867632
0.396963 0.862498 0.890092
0.418862 0.862388 0.881609
0.441712 0.861476 0.871062
0.918362 0.100653 0.614764
0.921812 0.107879 0.630323
0.925047 0.114869 0.645446
0.925047 0.118319 0.654039
0.925226 0.121843 0.663210
0.926658 0.125879 0.676426
0.927504 0.131002 0.687395
0.925811 0.140832 0.688632
0.919659 0.153233 0.686907
0.900129 0.173349 0.676295
0.867335 0.208011 0.671584
0.805360 0.274673 0.679851
0.688310 0.373096 0.685995
0.479470 0.524454 0.688599
0.338471 0.629757 0.683684
0.284699 0.675848 0.669102
0.257324 0.704557 0.660085
0.256348 0.715884 0.656635
0.263683 0.725527 0.659154
0.277485 0.733860 0.666315
0.292588 0.746709 0.682671
0.308472 0.762268 0.704545
0.324938 0.777827 0.728432
0.341669 0.793386 0.753235
0.352980 0.808066 0.783165
0.362485 0.822453 0.814804
0.375269 0.835676 0.838773
0.388810 0.848631 0.860972
0.400642 0.857029 0.876791
0.412229 0.864776 0.891699
0.434559 0.865810 0.885917
0.457604 0.866395 0.878756
0.924416 0.112761 0.651089
0.926825 0.122071 0.665607
0.929083 0.130949 0.679363
0.929083 0.133357 0.681707
0.929132 0.135969 0.684758
0.929522 0.140006 0.692766
0.930303 0.145714 0.701261
0.932777 0.158669 0.711873
0.931833 0.171591 0.718741
0.920636 0.184416 0.714379
0.903987 0.206253 0.710709
0.875343 0.247917 0.708561
0.786546 0.330716 0.708585
0.597496 0.482074 0.712231
0.446212 0.599681 0.713826
0.343484 0.673895 0.712784
0.285382 0.721353 0.711059
0.271906 0.742054 0.708650
0.271430 0.754041 0.708695
0.281065 0.759249 0.710648
0.296559 0.770275 0.722447
0.315568 0.784793 0.740154
0.333727 0.799310 0.763456
0.351499 0.813827 0.789301
0.362290 0.825903 0.813241
0.370753 0.837166 0.836547
0.382495 0.848111 0.858954
0.394994 0.858982 0.881153
0.412164 0.863474 0.888770
0.430002 0.867055 0.894303
0.450769 0.868804 0.892818
0.471731 0.870432 0.890865
0.922902 0.133699 0.676063
0.924269 0.141837 0.686935
0.925592 0.149836 0.697331
0.926243 0.155760 0.700586
0.926812 0.161448 0.703947
0.926812 0.165484 0.708048
0.927447 0.171168 0.713541
0.930832 0.183993 0.725063
0.932004 0.196134 0.733526
0.926536 0.206225 0.732810
0.919358 0.221014 0.731647
0.908422 0.246143 0.729498
0.853738 0.305425 0.731134
0.726142 0.421628 0.739076
0.600824 0.532050 0.748727
0.478436 0.635038 0.760575
0.385376 0.709708 0.765816
0.321643 0.756059 0.764449
0.293906 0.779707 0.765682
0.294167 0.785696 0.768937
0.304436 0.794737 0.776993
0.320711 0.805608 0.787930
0.338732 0.817375 0.804013
0.357545 0.829549 0.822437
0.370256 0.838207 0.837784
0.380933 0.845694 0.852106
0.394888 0.854238 0.867010
0.409601 0.863027 0.882048
0.431377 0.865891 0.885694
0.454162 0.867909 0.887712
0.473285 0.870537 0.892110
0.492164 0.873207 0.896667
0.916848 0.159934 0.694226
0.917173 0.164947 0.699890
0.917584 0.170407 0.705729
0.919277 0.182581 0.714192
0.920758 0.193738 0.721719
0.920758 0.197774 0.722695
0.921197 0.203067 0.724868
0.923541 0.213809 0.732224
0.924973 0.224387 0.738083
0.923671 0.234478 0.739450
0.921962 0.245687 0.741672
0.919358 0.259358 0.745773
0.902302 0.290387 0.753659
0.861159 0.350344 0.767850
0.783560 0.441887 0.786485
0.659089 0.574040 0.810833
0.528531 0.680999 0.822844
0.391886 0.762764 0.822518
0.325219 0.803664 0.827136
0.312980 0.812778 0.835599
0.314657 0.819735 0.840400
0.324682 0.825399 0.843004
0.341466 0.833390 0.847891
0.361321 0.842439 0.853815
0.377417 0.847191 0.859007
0.392260 0.850511 0.863954
0.410382 0.856582 0.867791
0.429261 0.863287 0.871372
0.455204 0.865891 0.873585
0.482155 0.867909 0.875603
0.499585 0.871514 0.886837
0.516381 0.875225 0.898685
0.923281 0.183395 0.719326
0.923281 0.191012 0.723363
0.923362 0.198811 0.727598
0.924664 0.209358 0.734824
0.925803 0.219359 0.741237
0.925803 0.225543 0.741953
0.926047 0.232460 0.743670
0.927349 0.242550 0.749724
0.927968 0.252104 0.754590
0.926536 0.260046 0.755892
0.925327 0.269331 0.758679
0.924611 0.281570 0.764734
0.916986 0.309140 0.775378
0.897847 0.362261 0.793671
0.826074 0.456453 0.814755
0.686630 0.603448 0.839428
0.549009 0.713337 0.853196
0.413210 0.786119 0.856061
0.346731 0.822429 0.860976
0.334166 0.830371 0.867486
0.333605 0.835424 0.870375
0.340245 0.838744 0.871091
0.354718 0.844839 0.872210
0.372750 0.852196 0.873512
0.388293 0.855011 0.874814
0.403006 0.856313 0.876116
0.423907 0.860895 0.876942
0.446236 0.866233 0.877658
0.473749 0.868666 0.879513
0.502002 0.870684 0.881531
0.521589 0.873923 0.890202
0.540598 0.877243 0.899316
0.935389 0.205594 0.747580
0.935389 0.218419 0.751616
0.935406 0.230775 0.755591
0.935666 0.236114 0.758651
0.935894 0.241948 0.761548
0.935894 0.251257 0.763306
0.935943 0.260713 0.765869
0.936203 0.270804 0.771923
0.935519 0.279576 0.776529
0.932004 0.284393 0.776789
0.929038 0.292506 0.778860
0.927280 0.307870 0.784915
0.916270 0.343252 0.796730
0.889840 0.411998 0.818148
0.804852 0.518623 0.838712
0.644575 0.673952 0.858177
0.513724 0.773425 0.871424
0.412299 0.817042 0.878455
0.363787 0.838834 0.882264
0.356431 0.843651 0.883566
0.356520 0.846882 0.885152
0.361077 0.849160 0.886910
0.372750 0.854214 0.887638
0.387658 0.860528 0.887899
0.400857 0.862302 0.888159
0.413487 0.862563 0.888420
0.436536 0.866103 0.889897
0.461990 0.870399 0.891654
0.489894 0.872702 0.893640
0.518147 0.874720 0.895658
0.541640 0.876982 0.897493
0.564816 0.879261 0.899316
0.938416 0.232334 0.760698
0.938416 0.244898 0.765515
0.938319 0.257125 0.770157
0.936756 0.264286 0.772175
0.935389 0.271715 0.773998
0.935389 0.281024 0.774454
0.935389 0.290334 0.775813
0.935389 0.299643 0.781086
0.934771 0.308220 0.785236
0.932297 0.314600 0.786017
0.929966 0.323055 0.788446
0.927948 0.336075 0.794501
0.919900 0.363547 0.805437
0.901802 0.415106 0.824512
0.838704 0.501355 0.843187
0.717748 0.632206 0.861350
0.604213 0.731809 0.875249
0.498100 0.800164 0.884884
0.434648 0.835855 0.889099
0.404377 0.846141 0.889099
0.391642 0.852236 0.889872
0.389428 0.855817 0.891109
0.397374 0.860561 0.892033
0.409939 0.865834 0.892814
0.421575 0.867152 0.893009
0.432903 0.867152 0.893009
0.456343 0.869797 0.894649
0.482578 0.873052 0.896667
0.510579 0.876592 0.898685
0.538833 0.880172 0.900703
0.561105 0.881556 0.900829
0.582979 0.882793 0.900829
0.938416 0.260587 0.768770
0.938416 0.271068 0.774629
0.938189 0.281602 0.780248
0.934543 0.292930 0.782266
0.931353 0.303875 0.783828
0.931353 0.312142 0.782201
0.931353 0.320410 0.781672
0.931353 0.328678 0.785903
0.931255 0.337255 0.789533
0.930865 0.346759 0.791356
0.929966 0.356060 0.794501
0.927948 0.364914 0.800555
0.924977 0.379236 0.809929
0.920420 0.402672 0.824837
0.890914 0.457608 0.841169
0.829329 0.553045 0.859332
0.736627 0.656293 0.874273
0.612807 0.767354 0.885991
0.523445 0.826416 0.891117
0.460884 0.845035 0.891117
0.430832 0.855556 0.891239
0.420286 0.861220 0.891435
0.424196 0.865899 0.892749
0.434677 0.870131 0.894572
0.445011 0.871188 0.895027
0.455297 0.871188 0.895027
0.478542 0.872987 0.896667
0.504777 0.875200 0.898685
0.532778 0.880433 0.900703
0.561032 0.886096 0.902721
0.580375 0.886633 0.902847
0.599123 0.886829 0.902847
0.926938 0.295399 0.768644
0.927785 0.307182 0.773005
0.928432 0.318827 0.777274
0.926088 0.328397 0.780138
0.923932 0.337885 0.782604
0.923085 0.346804 0.782278
0.922556 0.355564 0.782612
0.923403 0.363636 0.785802
0.923826 0.372425 0.788699
0.922980 0.383362 0.790717
0.922032 0.393932 0.793467
0.920860 0.403697 0.797829
0.920005 0.415342 0.803948
0.919680 0.430120 0.812997
0.906680 0.464322 0.826033
0.877385 0.523498 0.844196
0.815670 0.602887 0.860178
0.721536 0.702490 0.873980
0.629855 0.776936 0.881446
0.540082 0.831815 0.883985
0.491973 0.857237 0.884937
0.468862 0.864984 0.884937
0.465087 0.869598 0.885742
0.470099 0.872787 0.886914
0.482094 0.874220 0.887842
0.496416 0.875066 0.888688
0.516292 0.877552 0.889799
0.537449 0.880416 0.890971
0.559632 0.883850 0.892143
0.581961 0.887366 0.893314
0.602765 0.888379 0.893388
0.623467 0.889225 0.893388
0.912812 0.331725 0.766626
0.914700 0.345591 0.768904
0.916453 0.358994 0.771284
0.916193 0.365439 0.775190
0.915729 0.372323 0.778828
0.913841 0.382283 0.780586
0.912661 0.391890 0.782416
0.914549 0.399962 0.784565
0.915493 0.409011 0.786681
0.913605 0.420989 0.788699
0.912267 0.432927 0.790798
0.912136 0.444775 0.793077
0.912714 0.456160 0.795550
0.914472 0.466771 0.798350
0.914036 0.482680 0.807871
0.910781 0.505400 0.826033
0.882398 0.554583 0.843057
0.828886 0.630229 0.858942
0.740329 0.718216 0.869077
0.624516 0.815801 0.874740
0.558180 0.858539 0.876864
0.521528 0.868369 0.876864
