其他预设/【236】赛博朋克风调色预设/【后期菌】视频调色预设/CUBE/Glitch 05.cube
# LUT by SparkleStock. Enhanced with VOXCOLOR algorithms.
LUT_3D_SIZE 5
DOMAIN_MIN 0.000000 0.000000 0.000000
DOMAIN_MAX 0.903226 0.903226 0.903226
0.000000 0.093842 0.035191
0.000000 0.104058 0.125753
0.001766 0.153502 0.203197
0.000000 0.303976 0.446757
0.036200 0.471226 0.678082
0.175322 0.097752 0.085643
0.255737 0.102004 0.257833
0.007820 0.274246 0.411261
0.021536 0.435161 0.630009
0.085716 0.597305 0.807513
0.718948 0.105572 0.290480
0.827006 0.111248 0.371619
0.032749 0.376717 0.654410
0.070365 0.569483 0.780028
0.132206 0.712475 0.907453
0.951534 0.138240 0.541229
0.967947 0.151484 0.585391
0.746925 0.250529 0.730373
0.121135 0.690463 0.890934
0.193892 0.776875 0.929302
0.971841 0.226658 0.674550
0.971695 0.276732 0.714765
0.974091 0.330696 0.755201
0.341067 0.743234 0.941313
0.321301 0.822294 0.940561
0.007189 0.095355 0.054741
0.025682 0.102004 0.179672
0.005676 0.176474 0.246098
0.003910 0.325671 0.488018
0.045334 0.496127 0.702152
0.252071 0.097752 0.099570
0.604731 0.104959 0.304379
0.012967 0.384574 0.581503
0.062495 0.546446 0.756573
0.120102 0.689934 0.885657
0.765470 0.110365 0.323811
0.945535 0.133813 0.503754
0.270968 0.367093 0.755089
0.106417 0.664901 0.866204
0.180259 0.766865 0.923513
0.959741 0.142781 0.559779
0.973263 0.197328 0.646448
0.945397 0.262448 0.747400
0.169320 0.750516 0.917364
0.291739 0.809551 0.937859
0.970328 0.244947 0.687269
0.972293 0.374033 0.760534
0.973261 0.444504 0.786896
0.525108 0.756546 0.938564
0.455014 0.846211 0.942770
0.193233 0.097752 0.092580
0.358319 0.098293 0.191260
0.008597 0.197786 0.293983
0.000631 0.358026 0.526915
0.054782 0.518587 0.730300
0.538381 0.098293 0.191992
0.840897 0.114649 0.382296
0.119710 0.333870 0.683014
0.072076 0.573051 0.782410
0.135094 0.714019 0.902957
0.811207 0.109388 0.354107
0.953931 0.138151 0.538581
0.822834 0.238607 0.724373
0.151790 0.739832 0.909357
0.268182 0.799839 0.935573
0.970454 0.147431 0.580281
0.969839 0.212767 0.655934
0.973297 0.334664 0.752116
0.319775 0.757118 0.930866
0.410092 0.834214 0.930931
0.970096 0.257076 0.699398
0.973420 0.400617 0.774197
0.970115 0.561278 0.830815
0.891884 0.658814 0.914572
0.600198 0.861197 0.930964
0.549428 0.101031 0.198404
0.668817 0.105295 0.265828
0.000000 0.285305 0.529072
0.002750 0.377958 0.560063
0.063603 0.543971 0.758679
0.781477 0.109978 0.339875
0.923054 0.138594 0.386097
0.639355 0.216643 0.568487
0.086455 0.603249 0.810674
0.146557 0.732550 0.913503
0.942929 0.126603 0.500635
0.971042 0.162528 0.602340
0.970564 0.247821 0.692428
0.219927 0.721697 0.915867
0.294094 0.810453 0.938267
0.970022 0.157790 0.597227
0.971086 0.231801 0.679809
0.975446 0.368405 0.762776
0.606752 0.706153 0.919299
0.567835 0.853989 0.929108
0.971495 0.281301 0.716963
0.973473 0.426375 0.779413
0.970844 0.590712 0.840625
0.961934 0.724168 0.891113
0.738772 0.888769 0.932654
0.759436 0.111248 0.295399
0.430234 0.206994 0.057483
0.340737 0.318921 0.060816
0.164801 0.482542 0.228086
0.076269 0.577315 0.779117
0.780171 0.171209 0.135762
0.518359 0.449267 0.092955
0.568267 0.511675 0.104632
0.498933 0.624592 0.152765
0.166404 0.747644 0.896691
0.964021 0.156635 0.519974
0.835619 0.425263 0.184262
0.806801 0.651518 0.147865
0.672585 0.764831 0.243707
0.379930 0.837124 0.812377
0.971495 0.198307 0.650019
0.970069 0.350839 0.610721
0.937459 0.653327 0.264230
0.932480 0.830139 0.252847
0.597449 0.911310 0.760718
0.970665 0.303439 0.731569
0.974669 0.462808 0.795550
0.970096 0.643928 0.753110
0.971481 0.815814 0.700869
0.939685 0.938744 0.573696
