其他预设/【236】赛博朋克风调色预设/【后期菌】视频调色预设/CUBE/Glitch 05.cube
# LUT by SparkleStock. Enhanced with VOXCOLOR algorithms.
LUT_3D_SIZE 32
0.000000 0.093842 0.035191
0.000000 0.095860 0.039227
0.000000 0.097626 0.043263
0.000000 0.095607 0.047299
0.000000 0.094346 0.060921
0.000000 0.098382 0.141645
0.000000 0.102040 0.194368
0.000000 0.104058 0.125753
0.000000 0.108094 0.077318
0.000000 0.118185 0.089427
0.000000 0.126384 0.104689
0.000000 0.130420 0.126888
0.000000 0.135213 0.149087
0.000000 0.141267 0.171286
0.001766 0.153502 0.203197
0.005802 0.173683 0.247596
0.005802 0.192855 0.283921
0.001766 0.211018 0.312175
0.000000 0.230316 0.343834
0.000000 0.250497 0.378141
0.000000 0.275723 0.412449
0.000000 0.303976 0.446757
0.000000 0.325292 0.479677
0.000000 0.343455 0.511967
0.003027 0.366159 0.545770
0.007063 0.390376 0.580078
0.016019 0.419513 0.616025
0.026109 0.449784 0.652351
0.036200 0.471226 0.678082
0.046290 0.491407 0.702299
0.052597 0.513480 0.724624
0.058651 0.535679 0.746823
0.000000 0.095860 0.041245
0.000000 0.096836 0.044240
0.000130 0.097691 0.047299
0.002213 0.096714 0.051335
0.004036 0.096104 0.065218
0.004036 0.098057 0.148025
0.003646 0.100999 0.203027
0.001562 0.108225 0.137536
0.000000 0.115386 0.090924
0.000000 0.122351 0.100950
0.000325 0.129378 0.117058
0.001367 0.136539 0.146548
0.002409 0.145238 0.176039
0.003450 0.156500 0.205529
0.004891 0.171209 0.238807
0.006844 0.190348 0.276956
0.006323 0.210562 0.312761
0.003328 0.231850 0.346222
0.002018 0.251343 0.377230
0.002018 0.269441 0.406330
0.002018 0.293886 0.439986
0.002018 0.322139 0.476377
0.002734 0.345604 0.511381
0.003776 0.366891 0.545754
0.007845 0.389595 0.575390
0.012922 0.412771 0.603448
0.022919 0.439173 0.636531
0.034051 0.466319 0.670774
0.043361 0.491017 0.697156
0.052410 0.515364 0.722415
0.059628 0.534768 0.744805
0.066723 0.553842 0.767004
0.000378 0.097752 0.047173
0.000574 0.097752 0.049191
0.001017 0.097752 0.051331
0.005184 0.097752 0.055302
0.008772 0.097752 0.069535
0.008317 0.097752 0.155597
0.007177 0.100022 0.213768
0.003076 0.112131 0.151077
0.000016 0.122286 0.105962
0.000081 0.126583 0.113579
0.000757 0.132771 0.130208
0.002775 0.143122 0.166664
0.004793 0.155597 0.202974
0.006811 0.171612 0.239039
0.007918 0.188680 0.273595
0.007853 0.207103 0.306210
0.006844 0.228359 0.341527
0.004891 0.252446 0.379545
0.004000 0.272102 0.409947
0.003934 0.288312 0.434424
0.003951 0.312130 0.467609
0.004016 0.340514 0.506018
0.005468 0.365899 0.542682
0.007552 0.389920 0.578552
0.012760 0.412624 0.604364
0.019009 0.434888 0.626823
0.029913 0.458845 0.657217
0.041892 0.483193 0.689441
0.050452 0.510730 0.716368
0.058525 0.538723 0.742539
0.066597 0.555547 0.764742
0.074670 0.571627 0.786681
0.006433 0.097752 0.051209
0.009753 0.097752 0.053227
0.013256 0.097752 0.055302
0.019506 0.097752 0.058232
0.024006 0.097752 0.074157
0.016259 0.097752 0.181051
0.009000 0.100022 0.255758
0.003857 0.112131 0.190983
0.000277 0.123328 0.142484
0.001383 0.131791 0.142809
0.002775 0.142146 0.155076
0.004793 0.156663 0.193616
0.006811 0.170961 0.229665
0.008829 0.184892 0.261564
0.009480 0.202612 0.296054
0.008373 0.225201 0.333878
0.007364 0.247498 0.369194
0.006453 0.269502 0.402005
0.005432 0.288832 0.432471
0.004325 0.306084 0.461115
0.004602 0.331595 0.496514
0.005708 0.362062 0.535964
0.008203 0.385949 0.567940
0.011327 0.406846 0.596519
0.019139 0.429550 0.623634
0.028514 0.452856 0.650259
0.038311 0.478701 0.680588
0.048207 0.505131 0.711771
0.056507 0.529283 0.737656
0.064579 0.553110 0.762785
0.072652 0.568697 0.781017
0.080724 0.583735 0.798789
0.017028 0.097752 0.055498
0.023863 0.097752 0.057646
0.030809 0.097752 0.059802
0.039402 0.097752 0.062081
0.045448 0.097752 0.078804
0.033665 0.097752 0.196635
0.021760 0.099949 0.282400
0.009326 0.111667 0.229213
0.000537 0.123743 0.186833
0.002685 0.136893 0.176873
0.004793 0.151650 0.182394
0.006811 0.169944 0.221975
0.008732 0.186113 0.257357
0.010489 0.198742 0.285740
0.010652 0.217210 0.319792
0.008764 0.243185 0.361130
0.007820 0.266393 0.396382
0.007820 0.286835 0.425546
0.006758 0.306068 0.456249
0.004870 0.324361 0.488148
0.005424 0.351076 0.524848
0.007442 0.382845 0.564429
0.011295 0.405707 0.592776
0.015982 0.424521 0.616017
0.026040 0.447192 0.644140
0.037888 0.471149 0.673891
0.046669 0.498279 0.703747
0.054741 0.526142 0.733628
0.062813 0.547397 0.758211
0.070886 0.567709 0.782038
0.078836 0.582588 0.797015
0.086778 0.597105 0.811402
0.059408 0.097752 0.061552
0.072493 0.097752 0.064742
0.085558 0.097752 0.068005
0.098317 0.097752 0.072367
0.110353 0.097752 0.083621
0.117318 0.097752 0.143122
0.111077 0.099363 0.201611
0.047604 0.107956 0.255709
0.000797 0.119772 0.285980
0.003987 0.141255 0.244772
0.006811 0.162066 0.226857
0.008829 0.181401 0.260188
0.009968 0.199784 0.292055
0.009643 0.216580 0.321480
0.009090 0.236480 0.352472
0.008243 0.260371 0.385477
0.007820 0.283580 0.420208
0.007820 0.306104 0.456664
0.007344 0.326835 0.488799
0.006498 0.346169 0.517573
0.007442 0.370671 0.549196
0.009460 0.398274 0.582527
0.016893 0.423414 0.614650
0.026789 0.447436 0.646223
0.036586 0.469847 0.673305
0.046351 0.491721 0.698889
0.054741 0.515922 0.725426
0.062813 0.540660 0.752182
0.070886 0.562435 0.773640
0.078958 0.583788 0.794342
0.085932 0.601662 0.811077
0.092833 0.619304 0.827547
0.106707 0.097752 0.069498
0.125065 0.097752 0.073339
0.143419 0.097752 0.077331
0.161712 0.097752 0.083580
0.180396 0.097752 0.090513
0.201814 0.097752 0.102231
0.201444 0.098814 0.137398
0.106658 0.104477 0.274173
0.031940 0.115691 0.363767
0.017422 0.143554 0.311817
0.008072 0.169748 0.282428
0.010090 0.192273 0.302674
0.010668 0.213992 0.326387
0.008845 0.234368 0.355877
0.007820 0.255627 0.384114
0.007820 0.278022 0.410740
0.007722 0.301132 0.444755
0.007527 0.324959 0.486159
0.007661 0.347064 0.519250
0.008052 0.367831 0.545876
0.009948 0.390633 0.573763
0.012747 0.414654 0.602407
0.023066 0.441585 0.637317
0.036802 0.469839 0.675075
0.046144 0.491745 0.700724
0.054021 0.511535 0.722337
0.062215 0.533442 0.746066
0.070483 0.555836 0.770283
0.078751 0.578230 0.789545
0.087018 0.600625 0.808098
0.093028 0.620395 0.825736
0.098887 0.639990 0.843313
0.175322 0.097752 0.085643
0.194722 0.097752 0.088442
0.214769 0.097752 0.091522
0.244520 0.097752 0.098814
0.272708 0.097752 0.106398
0.289959 0.097752 0.116033
0.296360 0.098423 0.145014
0.255737 0.102004 0.257833
0.196903 0.111134 0.348989
0.083434 0.136913 0.375159
0.006054 0.165582 0.386132
0.008072 0.200606 0.363673
0.009041 0.230527 0.359132
0.008260 0.251945 0.384456
0.007820 0.274246 0.411261
0.007820 0.297682 0.439970
0.007202 0.320272 0.472423
0.005965 0.342015 0.508618
0.006815 0.364967 0.540603
0.009289 0.388859 0.569312
0.014570 0.412181 0.599282
0.021536 0.435161 0.630009
0.031724 0.461766 0.663422
0.043377 0.490020 0.698055
0.051417 0.510364 0.720580
0.058252 0.528071 0.739068
0.067098 0.550433 0.762211
0.076407 0.573869 0.786428
0.085716 0.597305 0.807513
0.095026 0.620741 0.828149
0.100124 0.637646 0.842988
0.104941 0.654117 0.857440
0.247974 0.097752 0.102797
0.268676 0.097752 0.105596
0.290334 0.097768 0.108741
0.326334 0.098028 0.117074
0.359926 0.098256 0.125667
0.376656 0.098256 0.136083
0.389664 0.098537 0.162184
0.386539 0.100034 0.256254
0.335192 0.107732 0.347345
0.139176 0.134033 0.429501
0.005045 0.166070 0.469770
0.007063 0.210729 0.417885
0.008227 0.247160 0.393001
0.007967 0.269880 0.413116
0.007820 0.292913 0.437789
0.007820 0.316349 0.468321
0.007071 0.338809 0.499862
0.005574 0.360292 0.532412
0.007482 0.383862 0.563241
0.012039 0.409056 0.592731
0.020055 0.432541 0.623646
0.030145 0.455000 0.655415
0.040057 0.481264 0.687362
0.049887 0.509257 0.719392
0.056885 0.528364 0.739703
0.062939 0.544509 0.756108
0.072273 0.567212 0.778437
0.082364 0.591429 0.802134
0.092226 0.615419 0.824292
0.102056 0.639376 0.846231
0.107187 0.654605 0.859686
0.112005 0.669252 0.872576
0.332734 0.097752 0.122978
0.355519 0.097752 0.128902
0.378544 0.097833 0.135042
0.405170 0.099135 0.144416
0.431861 0.100274 0.155093
0.459008 0.100274 0.174883
0.478135 0.100164 0.208015
0.462511 0.099579 0.298960
0.393456 0.107797 0.385103
0.164109 0.142431 0.456843
0.007063 0.180522 0.493206
0.009081 0.226222 0.451737
0.009855 0.264086 0.430238
0.008553 0.288889 0.442021
0.007820 0.311727 0.462462
0.007820 0.332038 0.494036
0.008113 0.355540 0.526618
0.008699 0.382231 0.560210
0.012690 0.405736 0.589737
0.019331 0.426763 0.616102
0.028127 0.449336 0.644543
0.038218 0.472838 0.674228
0.047413 0.498711 0.704809
0.056202 0.525662 0.735797
0.062939 0.544509 0.756629
0.068994 0.560653 0.774076
0.078327 0.583357 0.794908
0.088418 0.607574 0.816521
0.097369 0.630652 0.837507
0.106158 0.653567 0.858404
0.114153 0.670685 0.874724
0.122095 0.687415 0.890739
0.420648 0.097752 0.148204
0.444539 0.098077 0.157253
0.468179 0.098488 0.166347
0.488034 0.100181 0.176112
0.509289 0.101702 0.187651
0.540342 0.102028 0.211608
0.562252 0.101975 0.245891
0.544545 0.100282 0.324922
0.470315 0.107883 0.401805
0.226515 0.143362 0.472243
0.051091 0.184091 0.513509
0.026093 0.236366 0.490594
0.009956 0.279242 0.476467
0.008589 0.306454 0.476988
0.007820 0.329992 0.490553
0.007820 0.348806 0.520889
0.009480 0.373186 0.553049
0.012800 0.403132 0.587031
0.018794 0.426816 0.615887
0.026866 0.445630 0.640755
0.035793 0.467821 0.667128
0.045232 0.492038 0.694405
0.053956 0.516971 0.723070
0.062354 0.542230 0.752365
0.069238 0.560897 0.773311
0.075618 0.577368 0.791474
0.084748 0.599868 0.811012
0.094513 0.623760 0.830867
0.103082 0.646455 0.851007
0.111480 0.668980 0.871188
0.121159 0.686805 0.888257
0.130924 0.704317 0.905118
0.515498 0.097752 0.184530
0.538348 0.099119 0.196704
0.560946 0.100441 0.208662
0.579760 0.101092 0.217385
0.598802 0.101833 0.227101
0.619439 0.103200 0.243767
0.636792 0.104188 0.266267
0.639917 0.103537 0.314051
0.588081 0.108013 0.372185
0.371363 0.127869 0.461372
0.187541 0.163714 0.526919
0.076090 0.234738 0.540460
0.006701 0.290505 0.542478
0.007417 0.320841 0.525292
0.007820 0.347048 0.526163
0.007820 0.367945 0.550250
0.011563 0.392846 0.578763
0.019050 0.421750 0.611704
0.026866 0.446151 0.641276
0.034938 0.467048 0.668227
0.042563 0.490020 0.693429
0.049919 0.514237 0.717581
0.058708 0.537022 0.743121
0.068147 0.559156 0.769291
0.076073 0.577823 0.789455
0.083495 0.595335 0.807618
0.091974 0.617185 0.826310
0.100697 0.640035 0.845124
0.110047 0.663511 0.865134
0.119487 0.687078 0.885315
0.128255 0.703015 0.898478
0.136979 0.718444 0.911172
0.598240 0.099265 0.220099
0.620049 0.101283 0.233054
0.641532 0.103175 0.245728
0.658132 0.103175 0.254191
0.674619 0.103379 0.263256
0.690308 0.105006 0.276537
0.705790 0.106329 0.291965
0.720372 0.106329 0.316703
0.690931 0.108363 0.358139
0.529418 0.116501 0.449670
0.358485 0.145389 0.526757
0.166831 0.219928 0.572066
0.039601 0.283018 0.592426
0.019746 0.327026 0.571204
0.008748 0.362176 0.565532
0.009138 0.385937 0.579854
0.014574 0.411749 0.603355
0.025055 0.439612 0.636035
0.034182 0.464509 0.665786
0.042254 0.487099 0.693258
0.049309 0.510705 0.717679
0.055754 0.534923 0.740268
0.064437 0.556096 0.762903
0.074137 0.575887 0.785558
0.082323 0.594457 0.804550
0.090005 0.612619 0.822323
0.098639 0.634696 0.841682
0.107492 0.657677 0.861407
0.117086 0.680372 0.879822
0.126786 0.703027 0.898050
0.135327 0.717321 0.907185
0.143790 0.731057 0.915713
0.660802 0.103301 0.254407
0.681568 0.105320 0.264237
0.701815 0.107212 0.274047
0.714249 0.107212 0.283551
0.727610 0.107285 0.293918
0.747466 0.107871 0.310324
0.765552 0.108347 0.326533
0.775968 0.108347 0.341897
0.768920 0.109079 0.370053
0.709484 0.112009 0.436585
0.586921 0.130481 0.503972
0.325480 0.183147 0.573238
0.132759 0.244284 0.615602
0.054574 0.319539 0.613128
0.011222 0.374089 0.611167
0.012654 0.402017 0.609865
0.019131 0.429391 0.626075
0.030654 0.456213 0.659797
0.040236 0.481240 0.688831
0.048308 0.504871 0.714220
0.056014 0.528868 0.738511
0.063501 0.553085 0.762142
0.071793 0.573543 0.782237
0.080451 0.592292 0.800726
0.087596 0.610601 0.817896
0.094236 0.628764 0.834627
0.104367 0.652534 0.857176
0.115304 0.677597 0.881067
0.124247 0.696908 0.895446
0.132906 0.715396 0.908466
0.142357 0.728453 0.913369
0.151862 0.741147 0.917731
0.718948 0.105572 0.290480
0.738218 0.108046 0.299008
0.756999 0.110365 0.307720
0.768457 0.110365 0.319177
0.781029 0.110422 0.331131
0.801405 0.110877 0.346560
0.819389 0.111248 0.361073
0.827006 0.111248 0.371619
0.831075 0.111248 0.391963
0.824500 0.111248 0.441699
0.736977 0.121867 0.499472
0.471369 0.155849 0.574922
0.253316 0.212584 0.629037
0.114523 0.307239 0.647590
0.032749 0.376717 0.654410
0.024286 0.413824 0.646142
0.025653 0.445951 0.656200
0.036851 0.473098 0.684583
0.046034 0.498084 0.710111
0.053651 0.521390 0.733417
0.061837 0.545265 0.756722
0.070365 0.569483 0.780028
0.078580 0.590164 0.799037
0.086652 0.609238 0.816094
0.093895 0.628313 0.832466
0.100860 0.647387 0.848611
0.111634 0.671169 0.871844
0.123287 0.696037 0.896712
0.132206 0.712475 0.907453
0.140734 0.727708 0.916177
0.149872 0.738730 0.918187
0.159051 0.749472 0.919749
0.771419 0.105572 0.328824
0.788605 0.109087 0.338394
0.805629 0.112383 0.348277
0.820211 0.112383 0.362859
0.834997 0.112570 0.376766
0.851207 0.114067 0.385945
0.865610 0.115284 0.395576
0.872185 0.115284 0.407164
0.872869 0.115284 0.426726
0.855878 0.115284 0.470213
0.786257 0.121346 0.518481
0.600853 0.140746 0.577266
0.409101 0.189929 0.629948
0.206770 0.288751 0.672459
0.078775 0.367408 0.694576
0.046355 0.420139 0.690475
0.034702 0.461120 0.695846
0.043816 0.490349 0.710689
0.051502 0.515075 0.729120
0.058077 0.536298 0.750343
0.066524 0.559392 0.771565
0.076094 0.583609 0.792788
0.084634 0.605723 0.812578
0.092706 0.626880 0.831718
0.101511 0.648038 0.848611
0.110560 0.669195 0.864756
0.120878 0.690829 0.885449
0.131490 0.712572 0.907193
0.141190 0.726797 0.914810
0.150759 0.739947 0.920408
0.158010 0.747909 0.921246
0.165106 0.755526 0.921767
0.822880 0.108599 0.366159
0.837463 0.112635 0.377291
0.851980 0.116419 0.388639
0.865521 0.116419 0.403221
0.878939 0.116606 0.417193
0.891504 0.118104 0.426893
0.902652 0.119418 0.436752
0.907665 0.119939 0.447298
0.906395 0.120459 0.463866
0.886279 0.120980 0.498499
0.827368 0.125936 0.539052
0.683106 0.140649 0.592630
0.503789 0.188074 0.645377
0.266043 0.290020 0.696741
0.111520 0.375448 0.726573
0.063997 0.439637 0.728721
0.044012 0.484783 0.731228
0.051563 0.510888 0.734092
0.058273 0.533368 0.746697
0.064327 0.553029 0.766878
0.072578 0.575537 0.787059
0.082148 0.599754 0.807240
0.091046 0.622584 0.827421
0.099640 0.644783 0.847602
0.109746 0.666201 0.864756
0.120358 0.687358 0.880901
0.130123 0.706876 0.897786
0.139692 0.726015 0.914842
0.149262 0.738092 0.919594
0.158832 0.749159 0.922589
0.166082 0.756991 0.924729
0.173178 0.764608 0.926812
0.873333 0.114653 0.402485
0.884790 0.118689 0.415700
0.896053 0.122473 0.428806
0.904385 0.122473 0.440263
0.912857 0.122530 0.452412
0.922296 0.122986 0.469404
0.930515 0.123649 0.484600
0.933444 0.125212 0.492022
0.931654 0.126774 0.503382
0.915705 0.128337 0.526557
0.860309 0.135636 0.561186
0.718130 0.155556 0.621013
0.537380 0.207018 0.675323
0.292344 0.311048 0.720437
0.130985 0.400837 0.750400
0.077213 0.472317 0.760881
0.053581 0.516943 0.762345
0.060091 0.534715 0.754794
0.066345 0.552963 0.762842
0.072399 0.571582 0.783023
0.080000 0.593700 0.803204
0.088528 0.617917 0.823385
0.097817 0.640747 0.843566
0.107452 0.662946 0.863747
0.118600 0.682801 0.880901
0.130253 0.701876 0.897045
0.139367 0.719310 0.908853
0.147895 0.736366 0.919659
0.156423 0.746359 0.921808
0.164951 0.755343 0.922719
0.174090 0.765975 0.928635
0.183269 0.776716 0.934885
0.907893 0.119572 0.438811
0.916225 0.123023 0.453523
0.924343 0.126294 0.467800
0.929225 0.126880 0.475547
0.934287 0.127466 0.484336
0.940601 0.128052 0.500416
0.946220 0.129016 0.514945
0.948824 0.131620 0.522757
0.948124 0.133931 0.532424
0.937513 0.135363 0.547658
0.896874 0.141637 0.574568
0.790176 0.158563 0.627169
0.631063 0.205639 0.678134
0.384594 0.302963 0.726374
0.208418 0.392171 0.761995
0.122616 0.470941 0.781395
0.077762 0.525007 0.787384
0.073856 0.554367 0.779963
0.075223 0.575781 0.784772
0.080691 0.591014 0.799094
0.087787 0.611496 0.817444
0.095860 0.635128 0.838211
0.105722 0.658177 0.858978
0.116399 0.680962 0.879745
0.126831 0.698962 0.894409
0.137182 0.715368 0.907038
0.146158 0.730133 0.915013
0.154816 0.744520 0.921914
0.163474 0.754407 0.923289
0.172133 0.763651 0.923875
0.183232 0.773933 0.930381
0.194494 0.784284 0.937281
0.930092 0.123609 0.475136
0.935300 0.126017 0.490891
0.940357 0.128377 0.505884
0.943157 0.130005 0.509464
0.946005 0.131632 0.513696
0.949195 0.133260 0.522484
0.952470 0.135266 0.531676
0.956115 0.138911 0.542613
0.957759 0.141743 0.553321
0.953398 0.142134 0.563347
0.936260 0.144762 0.581144
0.891015 0.152314 0.616037
0.771484 0.188452 0.659841
0.528140 0.272236 0.718496
0.330936 0.357017 0.764079
0.193054 0.443079 0.792853
0.113307 0.514331 0.807696
0.091693 0.570772 0.808607
0.084728 0.601105 0.811203
0.089154 0.611130 0.815109
0.095860 0.629008 0.830204
0.103932 0.651598 0.852012
0.114511 0.675038 0.873821
0.126229 0.698865 0.895629
0.134578 0.714782 0.905866
0.141804 0.728062 0.912246
0.151040 0.739703 0.917357
0.160740 0.750965 0.922174
0.170440 0.762284 0.924200
0.180140 0.773612 0.925828
0.193257 0.781094 0.930446
0.206603 0.788320 0.935263
0.943462 0.130167 0.508940
0.946847 0.131535 0.520527
0.950228 0.132983 0.531720
0.953548 0.135652 0.536994
0.956624 0.138158 0.542202
0.957991 0.139526 0.546954
0.959615 0.141393 0.552841
0.962349 0.145429 0.563648
0.964058 0.148782 0.573446
0.962691 0.150084 0.580216
0.957051 0.152240 0.591665
0.942013 0.156277 0.613409
0.866701 0.180258 0.647773
0.690931 0.237481 0.703174
0.519205 0.307947 0.751596
0.352679 0.395442 0.791046
0.227297 0.481927 0.817347
0.143057 0.567403 0.830497
0.104811 0.615199 0.838081
0.102337 0.633687 0.841336
0.105641 0.652054 0.853176
0.112411 0.670347 0.870167
0.122404 0.690923 0.888053
0.133862 0.712536 0.906347
0.141755 0.726044 0.913459
0.148461 0.736851 0.916844
0.158445 0.747604 0.920229
0.169187 0.758346 0.923614
0.181067 0.769714 0.926373
0.193111 0.781171 0.929042
0.207718 0.786953 0.932382
0.222496 0.792356 0.935768
0.951534 0.138240 0.541229
0.953878 0.138565 0.545526
0.956413 0.139102 0.550209
0.961816 0.142813 0.560690
0.966584 0.146101 0.570195
0.966910 0.146426 0.572864
0.967296 0.147447 0.576668
0.967947 0.151484 0.585391
0.968354 0.155357 0.593106
0.968029 0.158742 0.597793
0.966686 0.162331 0.604555
0.963106 0.166367 0.615883
0.934795 0.177459 0.639441
0.865268 0.200309 0.683383
0.746925 0.250529 0.730373
0.565817 0.335940 0.781281
0.388354 0.436487 0.820602
0.214537 0.552170 0.848334
0.131242 0.622555 0.865228
0.118352 0.657709 0.873691
0.116448 0.678419 0.882276
0.121135 0.690463 0.890934
0.129761 0.706221 0.901920
0.140177 0.723668 0.913963
0.148591 0.734572 0.918732
0.156338 0.743295 0.921075
0.167364 0.754505 0.923419
0.179147 0.766288 0.925763
0.193892 0.776875 0.929302
0.209060 0.787291 0.933013
0.224839 0.792031 0.935442
0.240658 0.796393 0.937786
0.960994 0.144925 0.566582
0.962296 0.146357 0.570032
0.963716 0.147907 0.573889
0.966906 0.151227 0.583849
0.969697 0.154401 0.592817
0.969697 0.156549 0.594835
0.969831 0.159051 0.597720
0.970547 0.163088 0.604360
0.971084 0.166945 0.610528
0.971084 0.170265 0.615280
0.970861 0.173809 0.622413
0.970145 0.177845 0.634782
0.951778 0.188936 0.659260
0.903995 0.211787 0.703918
0.787116 0.265482 0.750058
0.581400 0.358835 0.798102
0.394107 0.463060 0.836836
0.225238 0.578157 0.866261
0.144290 0.648396 0.884408
0.131726 0.683745 0.893782
0.129537 0.702860 0.900186
0.133573 0.712235 0.904809
0.140787 0.723802 0.911221
0.149445 0.736366 0.918447
0.157664 0.745025 0.921230
0.165736 0.752381 0.922532
0.177088 0.763599 0.925580
0.189197 0.775707 0.929030
0.206090 0.784170 0.932993
0.223667 0.792112 0.937029
0.241916 0.796393 0.938502
0.260209 0.800429 0.939804
0.971084 0.150979 0.588781
0.971345 0.154494 0.594314
0.971528 0.157933 0.599929
0.970551 0.160211 0.606764
0.969697 0.162864 0.612998
0.969697 0.168137 0.615016
0.970027 0.173178 0.617510
0.971784 0.177214 0.622067
0.973103 0.180811 0.626933
0.973103 0.183090 0.632727
0.972553 0.185917 0.642529
0.970796 0.189954 0.661147
0.945529 0.206904 0.691875
0.881080 0.245378 0.742783
0.742067 0.313330 0.788337
0.507186 0.419183 0.827006
0.329268 0.522366 0.858970
0.208312 0.622881 0.884229
0.151256 0.682639 0.899967
0.143899 0.710697 0.908300
0.143663 0.726426 0.913011
0.147700 0.734759 0.915550
0.153481 0.742421 0.918447
0.160056 0.749777 0.921507
0.167755 0.756352 0.922467
0.175827 0.762667 0.922727
0.187179 0.773689 0.927272
0.199287 0.785798 0.932806
0.218004 0.791526 0.937029
0.237664 0.796344 0.941065
0.258972 0.800429 0.941562
0.280390 0.804465 0.941822
0.972093 0.161574 0.604925
0.972875 0.165610 0.610199
0.973579 0.169618 0.615569
0.973123 0.173199 0.622405
0.972626 0.176893 0.628638
0.971845 0.181385 0.630656
0.971589 0.185938 0.633053
0.973607 0.190755 0.637089
0.974925 0.195459 0.641825
0.974144 0.199820 0.648660
0.972976 0.204080 0.658690
0.970958 0.208117 0.675746
0.953926 0.221552 0.702860
0.911872 0.250651 0.746738
0.807216 0.306837 0.789362
0.622071 0.397846 0.830375
0.454699 0.494129 0.862599
0.305099 0.595685 0.886035
0.217788 0.665420 0.901708
0.178923 0.710404 0.911343
0.164430 0.734271 0.916706
0.164561 0.745468 0.919505
0.167689 0.754741 0.922841
0.172181 0.763139 0.926422
0.178187 0.768607 0.927317
0.184697 0.773099 0.927317
0.198295 0.781875 0.931601
0.213528 0.791640 0.936874
0.233774 0.797076 0.939698
0.254736 0.801894 0.942172
0.276126 0.806711 0.942326
0.297544 0.811528 0.942326
0.970075 0.173683 0.619052
0.971898 0.177719 0.623284
0.973709 0.181857 0.627743
0.975336 0.187521 0.635620
0.976532 0.192777 0.642765
0.974710 0.195186 0.644783
0.973607 0.198242 0.647179
0.975625 0.204101 0.651216
0.976683 0.210367 0.656212
0.974860 0.217853 0.664089
0.972976 0.224261 0.673533
0.970958 0.228298 0.686422
0.967207 0.235092 0.706636
0.960567 0.246485 0.739056
0.909097 0.282229 0.777969
0.799989 0.349282 0.825232
0.643554 0.436711 0.860060
0.439791 0.544517 0.882455
0.304176 0.631047 0.898844
0.221564 0.701029 0.910562
0.187411 0.736875 0.917357
0.182333 0.752239 0.921197
0.182402 0.764962 0.926292
0.184811 0.776484 0.931955
0.188733 0.781171 0.933371
0.193160 0.783580 0.933371
0.209752 0.789427 0.936809
0.229152 0.796067 0.941041
0.250830 0.802024 0.941911
0.272834 0.807883 0.942302
0.293312 0.813742 0.942326
0.313688 0.819601 0.942326
0.971337 0.189071 0.636458
0.972508 0.194800 0.640494
0.973680 0.200496 0.644677
0.974852 0.205704 0.651057
0.975625 0.210725 0.657315
0.973607 0.214435 0.662718
0.972346 0.218744 0.668024
0.974364 0.225645 0.672906
0.975373 0.232838 0.678163
0.973355 0.240911 0.684543
0.971601 0.248251 0.692448
0.970429 0.253979 0.703711
0.970014 0.260270 0.717658
0.970861 0.267496 0.736082
0.947612 0.288934 0.765413
0.893384 0.328645 0.808770
0.785122 0.394103 0.844510
0.622828 0.485308 0.872633
0.466466 0.578637 0.894604
0.314718 0.673618 0.911791
0.240805 0.728318 0.922874
0.213593 0.758850 0.930295
0.205895 0.775553 0.934449
0.207067 0.785969 0.937118
0.214195 0.790086 0.937786
0.223309 0.792104 0.937786
0.238665 0.797402 0.939690
0.255461 0.803456 0.942034
0.274022 0.808770 0.942326
0.292836 0.813978 0.942326
0.312932 0.819186 0.941533
0.333113 0.824394 0.940687
0.973355 0.205216 0.654621
0.973485 0.213028 0.658657
0.973615 0.220612 0.662710
0.973745 0.224778 0.667006
0.973607 0.229148 0.671962
0.971589 0.234942 0.681532
0.970328 0.241139 0.690418
0.972346 0.249081 0.696342
0.973355 0.257055 0.701859
0.971337 0.265128 0.706156
0.969909 0.273119 0.712304
0.969778 0.280931 0.722524
0.970405 0.288133 0.730353
0.972293 0.294317 0.734194
0.971503 0.302866 0.752588
0.967272 0.314453 0.789695
0.915778 0.354913 0.825956
0.817021 0.424244 0.861371
0.646272 0.522065 0.890047
0.419529 0.642045 0.913483
0.301218 0.717186 0.929514
0.247966 0.765425 0.941102
