其他预设/【236】赛博朋克风调色预设/【后期菌】视频调色预设/CUBE/Glitch 10_S.cube
# LUT by SparkleStock. Enhanced with VOXCOLOR algorithms.
LUT_3D_SIZE 5
DOMAIN_MIN 0.000000 0.000000 0.000000
DOMAIN_MAX 0.903226 0.903226 0.903226
0.003910 0.007820 0.015640
0.001514 0.071643 0.211522
0.009586 0.196134 0.273074
0.016902 0.395926 0.459118
0.003910 0.590673 0.629773
0.294895 0.034560 0.154132
0.406195 0.090509 0.389322
0.097878 0.324572 0.325077
0.146044 0.434656 0.403266
0.051787 0.667938 0.676596
0.920001 0.098256 0.447514
0.947124 0.139538 0.546714
0.102545 0.482851 0.450065
0.145885 0.588024 0.473765
0.053227 0.810983 0.817103
0.968940 0.256425 0.697380
0.972993 0.297426 0.728062
0.821656 0.413027 0.816899
0.026589 0.803147 0.815805
0.121969 0.915969 0.941891
0.976760 0.416107 0.786554
0.976760 0.475979 0.803834
0.978990 0.537197 0.830517
0.340249 0.849046 0.959419
0.340265 0.908690 0.950016
0.066093 0.019550 0.058020
0.056592 0.074483 0.298943
0.060038 0.194169 0.301364
0.092824 0.363014 0.442729
0.012487 0.602635 0.640946
0.397102 0.042677 0.178276
0.691932 0.110014 0.401507
0.171880 0.343295 0.368722
0.262090 0.396670 0.407771
0.154215 0.671461 0.699284
0.947225 0.111606 0.496160
0.832891 0.251626 0.586327
0.302347 0.444757 0.487294
0.268920 0.578989 0.476387
0.268172 0.767697 0.724850
0.974230 0.268037 0.716055
0.976784 0.378096 0.772118
0.863101 0.482491 0.705174
0.162813 0.842767 0.777096
0.417520 0.839762 0.741296
0.975930 0.435877 0.792031
0.973680 0.563477 0.838390
0.975723 0.614927 0.852762
0.568819 0.825305 0.956419
0.548513 0.900166 0.854966
0.318481 0.033929 0.164349
0.565878 0.059534 0.327677
0.041644 0.242469 0.361517
0.059489 0.417067 0.508752
0.009289 0.625403 0.668687
0.759001 0.075768 0.317961
0.866141 0.147769 0.554325
0.196112 0.358552 0.581246
0.226247 0.444913 0.562678
0.130308 0.732860 0.801685
0.972545 0.121237 0.549916
0.878237 0.262528 0.669590
0.693957 0.388802 0.657930
0.285379 0.639767 0.659564
0.493285 0.677728 0.705403
0.974710 0.289455 0.733152
0.974359 0.396589 0.779358
0.904207 0.542643 0.777912
0.407258 0.783669 0.783104
0.640272 0.775263 0.698777
0.965787 0.462186 0.795550
0.967113 0.590497 0.844834
0.972806 0.687203 0.873454
0.876686 0.768319 0.874420
0.723921 0.895951 0.775071
0.765112 0.078958 0.320373
0.882162 0.093077 0.405671
0.003910 0.415399 0.565902
0.006966 0.499191 0.550835
0.003910 0.651972 0.685336
0.964416 0.114889 0.529072
0.988262 0.206397 0.577577
0.730188 0.308269 0.695783
0.058638 0.649837 0.724777
0.058234 0.837845 0.889512
0.974994 0.220022 0.692684
0.975073 0.316273 0.753202
0.943532 0.428570 0.788676
0.230002 0.783700 0.903527
0.459308 0.737028 0.854849
0.984483 0.307882 0.755522
0.986083 0.417649 0.798334
0.982285 0.563468 0.848787
0.650250 0.744272 0.885826
0.730535 0.781914 0.819657
0.983608 0.474095 0.815093
0.980044 0.598818 0.856183
0.983007 0.702566 0.888604
0.931856 0.810835 0.901129
0.806173 0.906316 0.872370
0.948255 0.106959 0.467064
0.472366 0.228037 0.050831
0.347589 0.302398 0.059933
0.118026 0.371001 0.151431
0.003910 0.676487 0.694723
0.870265 0.208564 0.192745
0.527546 0.418800 0.105844
0.576991 0.474595 0.118714
0.426376 0.534353 0.120661
0.041684 0.866599 0.869048
0.993157 0.278099 0.684701
0.845708 0.447638 0.215038
0.772470 0.604205 0.150279
0.625624 0.696248 0.193543
0.385116 0.822322 0.791768
0.979405 0.378585 0.781037
0.975226 0.504007 0.700274
0.916585 0.669108 0.220141
0.875263 0.777194 0.230473
0.673817 0.842843 0.750332
0.969034 0.508150 0.824821
0.972293 0.626122 0.861820
0.972118 0.719227 0.794701
0.964186 0.823688 0.692778
0.918940 0.901238 0.581569
