其他预设/【236】赛博朋克风调色预设/【后期菌】视频调色预设/CUBE/Glitch 05_S.cube
# LUT by SparkleStock. Enhanced with VOXCOLOR algorithms.
LUT_3D_SIZE 32
0.000000 0.093842 0.035191
0.000000 0.095860 0.039227
0.000000 0.097626 0.043263
0.000000 0.095607 0.047299
0.000000 0.094346 0.060921
0.000000 0.098382 0.141645
0.000000 0.102040 0.194368
0.000000 0.104058 0.125753
0.000000 0.108094 0.077318
0.000000 0.118185 0.089427
0.001261 0.125753 0.104058
0.005298 0.127771 0.124239
0.007820 0.132059 0.145177
0.007820 0.140132 0.167376
0.010469 0.151736 0.197522
0.016523 0.167881 0.237884
0.018541 0.185035 0.272191
0.016523 0.203197 0.300445
0.016775 0.221360 0.330968
0.018794 0.239523 0.363258
0.017028 0.265254 0.399332
0.012992 0.295525 0.437675
0.011730 0.317472 0.469082
0.011730 0.335635 0.497335
0.010217 0.361366 0.536184
0.008199 0.389619 0.578564
0.016019 0.419513 0.616025
0.026109 0.449784 0.652351
0.036200 0.471226 0.678082
0.046290 0.491407 0.702299
0.052597 0.513480 0.724624
0.058651 0.535679 0.746823
0.000000 0.095860 0.041245
0.000000 0.096836 0.044240
0.000130 0.097691 0.047299
0.002213 0.096714 0.051335
0.004036 0.096104 0.065218
0.004036 0.098057 0.148025
0.003646 0.100999 0.203027
0.001562 0.108225 0.137536
0.000781 0.115125 0.090664
0.003906 0.121049 0.099648
0.007967 0.127055 0.114084
0.014086 0.133239 0.140514
0.020254 0.140522 0.166530
0.026504 0.149636 0.191854
0.033124 0.161371 0.220111
0.040220 0.176474 0.252140
0.044321 0.194149 0.283323
0.045428 0.214395 0.313660
0.047633 0.232297 0.341580
0.050693 0.248377 0.367620
0.049968 0.272024 0.400048
0.046974 0.300213 0.436308
0.041741 0.325089 0.474225
0.035492 0.348460 0.512894
0.031635 0.375493 0.550441
0.028575 0.403746 0.587613
0.031122 0.434486 0.628329
0.034963 0.465799 0.669863
0.043361 0.491017 0.697156
0.052410 0.515364 0.722415
0.059628 0.534768 0.744805
0.066723 0.553842 0.767004
0.000378 0.097752 0.047173
0.000574 0.097752 0.049191
0.001017 0.097752 0.051331
0.005184 0.097752 0.055302
0.008772 0.097752 0.069535
0.008317 0.097752 0.155597
0.007189 0.100022 0.213756
0.003153 0.112131 0.150999
0.001672 0.121782 0.105316
0.007857 0.124060 0.110849
0.014672 0.128841 0.124744
0.022875 0.139127 0.157033
0.032615 0.149315 0.187663
0.044919 0.159340 0.215526
0.055343 0.171274 0.241908
0.063350 0.185661 0.266385
0.069470 0.203824 0.294541
0.073701 0.225763 0.326375
0.077823 0.243307 0.351727
0.081859 0.257434 0.372038
0.082071 0.279210 0.401138
0.079988 0.305575 0.435511
0.071236 0.333060 0.479148
0.059453 0.361053 0.526997
0.053431 0.389241 0.563518
0.049330 0.417494 0.596263
0.046762 0.449186 0.640169
0.044549 0.481671 0.686650
0.050937 0.510453 0.715815
0.058553 0.538707 0.742506
0.066597 0.555547 0.764742
0.074670 0.571627 0.786681
0.006433 0.097752 0.051209
0.009753 0.097752 0.053227
0.013256 0.097752 0.055302
0.019506 0.097752 0.058232
0.024006 0.097752 0.074157
0.016259 0.097752 0.181051
0.009208 0.100022 0.255550
0.005171 0.112131 0.189669
0.004211 0.122823 0.139558
0.012479 0.129268 0.136759
0.021377 0.137890 0.144925
0.031663 0.151301 0.177214
0.043877 0.163051 0.205500
0.059306 0.172035 0.227114
0.071032 0.185205 0.251803
0.077998 0.203759 0.280447
0.085159 0.221922 0.307040
0.092515 0.239694 0.331583
0.098004 0.255416 0.354917
0.102040 0.269542 0.377311
0.101601 0.292620 0.407843
0.098476 0.321069 0.443258
0.092979 0.346340 0.480776
0.086404 0.370167 0.519250
0.080903 0.397313 0.558896
0.075760 0.425567 0.598932
0.070459 0.459797 0.645051
0.065120 0.495407 0.692574
0.064738 0.524580 0.728249
0.065063 0.552833 0.762231
0.072652 0.568697 0.781017
0.080724 0.583735 0.798789
0.017028 0.097752 0.055498
0.023863 0.097752 0.057646
0.030809 0.097752 0.059802
0.039402 0.097752 0.062081
0.045448 0.097752 0.078804
0.033665 0.097752 0.196635
0.022187 0.099973 0.281948
0.012031 0.111821 0.226353
0.007002 0.123491 0.181092
0.017353 0.134623 0.166835
0.028335 0.147321 0.166798
0.040704 0.163466 0.198046
0.055050 0.176828 0.223728
0.072692 0.185551 0.240134
0.085606 0.199942 0.262862
0.092442 0.221621 0.293719
0.100970 0.239523 0.318424
0.111191 0.253650 0.336978
0.117859 0.267996 0.358571
0.121765 0.282514 0.382528
0.120789 0.306552 0.413971
0.116883 0.336303 0.449906
0.114722 0.359653 0.482306
0.113355 0.380094 0.513098
0.108082 0.406297 0.555706
0.101507 0.434420 0.602252
0.093716 0.470531 0.650121
0.085643 0.508484 0.698295
0.078653 0.538405 0.740089
0.071818 0.567180 0.780972
0.078836 0.582588 0.797015
0.086778 0.597105 0.811402
0.059408 0.097752 0.061552
0.072493 0.097752 0.064742
0.085558 0.097752 0.068005
0.098317 0.097752 0.072367
0.110353 0.097752 0.083621
0.117318 0.097752 0.143122
0.111895 0.099583 0.200573
0.052784 0.109348 0.249138
0.011559 0.121538 0.273664
0.023993 0.141003 0.226076
0.037058 0.159430 0.200520
0.051510 0.175575 0.223435
0.065596 0.190889 0.244691
0.079072 0.204821 0.263179
0.092377 0.220319 0.282066
0.105462 0.237831 0.301466
0.117636 0.253650 0.322005
0.128898 0.267777 0.343683
0.135436 0.283881 0.365471
0.138301 0.301523 0.387345
0.137585 0.324129 0.416054
0.134720 0.349713 0.448864
0.136466 0.373194 0.483152
0.140307 0.395718 0.518111
0.133211 0.421661 0.562541
0.122469 0.448742 0.610129
0.113897 0.482118 0.656501
0.105824 0.516947 0.702592
0.093366 0.550123 0.747771
0.080280 0.583064 0.792820
0.085932 0.601662 0.811077
0.092833 0.619304 0.827547
0.106707 0.097752 0.069498
0.125065 0.097752 0.073339
0.143419 0.097752 0.077331
0.161712 0.097752 0.083580
0.180396 0.097752 0.090513
0.201814 0.097752 0.102231
0.202396 0.099229 0.135811
0.112688 0.107106 0.264123
0.044642 0.119572 0.345010
0.041583 0.145808 0.283620
0.044585 0.169561 0.244141
0.060925 0.187854 0.252865
0.075068 0.206025 0.265445
0.085550 0.223993 0.284454
0.099391 0.240280 0.299562
0.117554 0.254407 0.309652
0.132592 0.268631 0.326415
0.144506 0.282953 0.349851
0.151183 0.300461 0.371676
0.153787 0.320447 0.392248
0.153990 0.341694 0.418882
0.152753 0.363697 0.449153
0.157514 0.387089 0.484975
0.165000 0.411111 0.523319
0.156570 0.436646 0.568791
0.142833 0.462686 0.616639
0.133699 0.493645 0.661526
0.125627 0.525739 0.705729
0.109067 0.561707 0.753976
0.091295 0.598228 0.802801
0.094395 0.619614 0.823979
0.098887 0.639990 0.843313
0.175322 0.097752 0.085643
0.194722 0.097752 0.088442
0.214769 0.097752 0.091522
0.244520 0.097752 0.098814
0.272708 0.097752 0.106398
0.289959 0.097752 0.116033
0.296335 0.099033 0.143037
0.255583 0.105869 0.245309
0.201338 0.117554 0.324373
0.106618 0.143790 0.333812
0.046929 0.171123 0.330659
0.064311 0.200874 0.299802
0.079886 0.225816 0.285301
0.092450 0.242742 0.298060
0.107464 0.258443 0.309652
0.125627 0.272570 0.319743
0.140144 0.287315 0.334423
0.151016 0.302678 0.353692
0.158995 0.320056 0.374866
0.164723 0.339000 0.397521
0.168703 0.359205 0.424936
0.171632 0.380168 0.455208
0.175546 0.402517 0.491029
0.179908 0.425498 0.529373
0.172259 0.449992 0.572502
0.160606 0.474990 0.617225
0.151862 0.504907 0.660680
0.143790 0.535960 0.703841
0.129053 0.572709 0.753781
0.113364 0.610272 0.804689
0.108782 0.632699 0.831856
0.104941 0.654117 0.857440
0.247974 0.097752 0.102797
0.268676 0.097752 0.105596
0.290334 0.097768 0.108741
0.326334 0.098028 0.117074
0.359861 0.098289 0.125635
0.376070 0.098549 0.135790
0.387703 0.099945 0.159214
0.379500 0.106259 0.240134
0.330854 0.117880 0.315747
0.160878 0.145417 0.375444
0.049696 0.176413 0.398379
0.067859 0.215017 0.340440
0.084606 0.245394 0.306377
0.098993 0.262060 0.312106
0.114804 0.277387 0.319857
0.132446 0.290993 0.330208
0.146703 0.306129 0.343325
0.157575 0.322794 0.359210
0.167018 0.340009 0.379488
0.175351 0.357651 0.403185
0.182748 0.376717 0.430502
0.189583 0.396638 0.459992
0.192212 0.418483 0.496823
0.192928 0.441203 0.536990
0.185734 0.464655 0.578035
0.175904 0.488352 0.619374
0.167925 0.517390 0.661347
0.160374 0.547662 0.703466
0.146158 0.584997 0.755782
0.130989 0.623341 0.809555
0.122290 0.646305 0.840563
0.114023 0.668243 0.870053
0.332734 0.097752 0.122978
0.355519 0.097752 0.128902
0.378544 0.097833 0.135042
0.405170 0.099135 0.144416
0.431536 0.100437 0.154930
0.456078 0.101739 0.173418
0.471357 0.104176 0.202245
0.446488 0.111533 0.275873
0.378833 0.125236 0.343154
0.182817 0.157981 0.391393
0.053732 0.192883 0.409707
0.071895 0.232529 0.362184
0.089032 0.264339 0.331115
0.104461 0.283087 0.327469
0.119947 0.298675 0.330403
0.135506 0.310197 0.341795
0.150283 0.325333 0.354913
0.164280 0.344082 0.369756
0.175676 0.361036 0.388407
0.185051 0.376595 0.410020
0.194791 0.394229 0.434603
0.204752 0.413108 0.460969
0.204776 0.436060 0.501836
0.200284 0.460863 0.549293
0.192570 0.483274 0.589037
0.183781 0.504887 0.626209
0.177690 0.533535 0.666555
0.172222 0.563807 0.707633
0.154621 0.601141 0.764376
0.135286 0.639485 0.823356
0.133162 0.661473 0.851760
0.132186 0.682370 0.878126
0.418125 0.098382 0.147574
0.442017 0.098708 0.156622
0.465677 0.099119 0.165716
0.485858 0.100811 0.175481
0.506934 0.102545 0.186809
0.534276 0.104563 0.209073
0.550779 0.107777 0.238441
0.520312 0.116175 0.298593
0.445365 0.130741 0.354937
0.236980 0.163812 0.399856
0.092169 0.200687 0.420770
0.087222 0.245932 0.388871
0.090184 0.282143 0.363685
0.106329 0.303301 0.349689
0.121875 0.319901 0.346401
0.136653 0.330643 0.356882
0.152440 0.346104 0.369186
0.169236 0.366285 0.383313
0.182626 0.383061 0.400662
0.193367 0.397187 0.420517
0.204353 0.413837 0.443506
0.215485 0.431999 0.468374
0.213862 0.455265 0.510876
0.206440 0.480849 0.561394
0.198286 0.502869 0.601219
0.189889 0.523701 0.637479
0.183977 0.552203 0.678395
0.178638 0.582474 0.720384
0.159686 0.619239 0.778380
0.138789 0.656932 0.838663
0.141572 0.676987 0.863303
0.145934 0.695866 0.885567
0.504903 0.100400 0.181881
0.527753 0.101768 0.194055
0.550437 0.103090 0.206013
0.570618 0.103741 0.214736
0.590522 0.104563 0.224371
0.608490 0.106581 0.240386
0.620891 0.109991 0.259598
0.609173 0.119430 0.292669
0.552715 0.132173 0.332348
0.362037 0.154828 0.391849
0.206290 0.189425 0.431251
0.127388 0.250293 0.426433
0.084130 0.297442 0.413487
0.100274 0.321724 0.386991
0.116732 0.340994 0.374394
0.133593 0.353818 0.379667
0.151463 0.370321 0.389367
0.170342 0.390502 0.403494
0.185816 0.407278 0.420257
0.198640 0.421404 0.439071
0.208454 0.438054 0.462971
0.216462 0.456217 0.489922
0.215294 0.478050 0.528779
0.209956 0.501551 0.573047
0.201541 0.524612 0.615996
0.192102 0.547528 0.658507
0.182610 0.576420 0.704825
0.173105 0.606691 0.752023
0.157278 0.641634 0.804290
0.140547 0.677243 0.857281
0.144567 0.693262 0.875607
0.149970 0.707975 0.891622
0.585627 0.102419 0.216946
0.607436 0.104437 0.229901
0.629021 0.106329 0.242575
0.647249 0.106329 0.251038
0.664956 0.106532 0.260103
0.679017 0.108160 0.273383
0.689930 0.111447 0.286468
0.687196 0.121928 0.298707
0.648054 0.133435 0.323283
0.499691 0.148017 0.384867
0.351023 0.178529 0.432699
0.201684 0.244084 0.450276
0.108103 0.298264 0.450154
0.107452 0.333483 0.420534
0.114690 0.360158 0.403388
0.132072 0.375847 0.402281
0.150853 0.393586 0.408987
0.171034 0.413377 0.423504
0.187809 0.430201 0.439852
0.201936 0.444718 0.457624
0.210773 0.461758 0.482436
0.216437 0.480312 0.511470
0.215701 0.500835 0.548024
0.212055 0.522253 0.587995
0.204162 0.545477 0.631336
0.194852 0.569304 0.675799
0.183586 0.598684 0.726081
0.171868 0.629346 0.777705
0.158726 0.661147 0.824829
0.145380 0.693112 0.871311
0.150222 0.707193 0.884835
0.156277 0.720083 0.896162
0.656261 0.104437 0.253272
0.677028 0.106455 0.263102
0.697310 0.108347 0.272911
0.710330 0.108347 0.282416
0.724132 0.108420 0.292783
0.743401 0.109006 0.309188
0.757178 0.111642 0.322859
0.747153 0.123165 0.324682
0.723375 0.134411 0.336758
0.658340 0.144827 0.379594
0.546779 0.168243 0.419093
0.332860 0.220258 0.451253
0.182121 0.274958 0.464932
0.136682 0.334134 0.447811
0.117815 0.376107 0.434050
0.133113 0.395963 0.424611
0.150853 0.415265 0.427670
0.171034 0.434014 0.443229
0.187809 0.450968 0.459447
0.201936 0.466527 0.476178
0.210122 0.484608 0.501901
0.214745 0.504204 0.533018
0.214399 0.523620 0.569507
0.211795 0.542954 0.608437
0.205724 0.564877 0.647611
0.198498 0.587662 0.686866
0.188469 0.617693 0.738710
0.177792 0.649397 0.793459
0.166603 0.675860 0.836417
0.155341 0.701575 0.877690
0.160313 0.717219 0.888936
0.166367 0.732192 0.898181
0.718948 0.105572 0.290480
0.738218 0.108046 0.299008
0.756999 0.110365 0.307720
0.768457 0.110365 0.319177
0.781029 0.110422 0.331131
0.801405 0.110877 0.346560
0.815569 0.113262 0.358681
0.802809 0.124003 0.356467
0.787445 0.134305 0.361968
0.764270 0.143289 0.390612
0.678252 0.161631 0.421636
0.453983 0.200561 0.457897
0.277928 0.253503 0.480194
0.182231 0.329801 0.479217
0.131193 0.384822 0.472288
0.137573 0.412490 0.457706
0.150397 0.435861 0.456664
0.169667 0.454935 0.469163
0.185275 0.472618 0.484226
0.198034 0.489218 0.501282
0.205911 0.508057 0.526720
0.210859 0.528238 0.557187
0.211018 0.547344 0.593382
0.208999 0.565963 0.632182
0.204296 0.587609 0.669468
0.198697 0.610264 0.706249
0.189079 0.639636 0.758688
0.178533 0.670558 0.814739
0.169183 0.693449 0.853701
0.160004 0.715193 0.890222
0.166815 0.729124 0.896228
0.174692 0.742535 0.900199
0.771419 0.105572 0.328824
0.788605 0.109087 0.338394
0.805629 0.112383 0.348277
0.820211 0.112383 0.362859
0.834997 0.112570 0.376766
0.851207 0.114067 0.385945
0.862571 0.116712 0.393770
0.852936 0.124329 0.395723
0.837052 0.132808 0.402265
0.802418 0.143875 0.422576
0.727077 0.159743 0.444942
0.562179 0.186174 0.471828
0.401748 0.234429 0.496078
0.248763 0.319059 0.515934
0.157754 0.384236 0.520267
0.146426 0.424403 0.504643
0.149356 0.455065 0.498914
0.166542 0.476223 0.503081
0.179481 0.495403 0.515669
0.189115 0.513045 0.534809
0.197123 0.532274 0.558424
0.204154 0.552455 0.584724
0.204963 0.572278 0.620334
0.202945 0.591938 0.660175
0.199023 0.614625 0.698503
0.194466 0.638322 0.736326
0.184196 0.665350 0.788113
0.172609 0.693148 0.843122
0.164951 0.714737 0.878309
0.157855 0.735439 0.910663
0.168703 0.743446 0.907620
0.180746 0.750607 0.902217
0.822880 0.108599 0.366159
0.837463 0.112635 0.377291
0.851980 0.116419 0.388639
0.865521 0.116419 0.403221
0.878939 0.116606 0.417193
0.891504 0.118104 0.426893
0.900199 0.120455 0.435238
0.892126 0.126510 0.437712
0.876763 0.134078 0.442692
0.839525 0.146186 0.455191
0.771508 0.161631 0.472024
0.635775 0.184416 0.498389
0.480096 0.232541 0.525634
0.291176 0.322900 0.554343
0.174712 0.395857 0.564795
0.151406 0.446439 0.551775
0.146784 0.481528 0.543963
0.160846 0.501123 0.541359
0.172124 0.519327 0.550986
0.181238 0.536448 0.570125
0.188725 0.555807 0.593740
0.195235 0.576509 0.620041
0.196598 0.596853 0.654934
0.195621 0.617034 0.693734
0.192741 0.639852 0.732582
0.189225 0.663548 0.771447
0.180844 0.687615 0.817505
0.171339 0.711767 0.865224
0.165309 0.730621 0.894486
0.159776 0.748719 0.921112
0.173162 0.755099 0.914781
0.187809 0.760698 0.906253
0.873333 0.114653 0.402485
0.884790 0.118689 0.415700
0.896053 0.122473 0.428806
0.904385 0.122473 0.440263
0.912857 0.122530 0.452412
0.922296 0.122986 0.469404
0.928452 0.124492 0.483087
0.920380 0.130546 0.482436
0.906578 0.138114 0.483249
0.875591 0.150222 0.488457
0.811545 0.167295 0.502881
0.674770 0.195288 0.537579
0.512972 0.247840 0.568860
0.309469 0.341323 0.594444
0.182068 0.419683 0.605873
0.152513 0.478599 0.599103
0.142683 0.515250 0.591812
0.152578 0.529637 0.584000
0.163206 0.544391 0.590176
0.174403 0.559429 0.607232
0.180718 0.578658 0.632670
0.184103 0.600401 0.663137
0.185922 0.621070 0.697184
0.187028 0.641251 0.732859
0.185450 0.663288 0.771708
0.182976 0.685942 0.811614
0.179021 0.706429 0.846865
0.174724 0.726414 0.881043
0.170257 0.741102 0.902233
0.165765 0.755034 0.921568
0.180193 0.764083 0.917711
0.195882 0.772806 0.912307
0.907893 0.119572 0.438811
0.916225 0.123023 0.453523
0.924343 0.126294 0.467800
0.929225 0.126880 0.475547
0.934287 0.127466 0.484336
0.940601 0.128052 0.500416
0.944878 0.129553 0.513871
0.940321 0.135021 0.515954
0.931304 0.141564 0.517875
0.908910 0.151329 0.519307
0.860333 0.165854 0.530260
0.754155 0.190853 0.562159
0.606891 0.240508 0.592495
0.391149 0.331257 0.620228
0.242595 0.411981 0.637394
0.180425 0.479815 0.640975
0.149274 0.526818 0.639770
0.149144 0.552988 0.633781
0.154580 0.571065 0.637606
0.164345 0.582848 0.649063
0.170367 0.600775 0.672442
0.174142 0.622388 0.702974
0.177113 0.643823 0.736908
0.179717 0.665175 0.772387
0.178854 0.685405 0.808013
0.176836 0.705261 0.843688
0.174818 0.722313 0.871429
0.172800 0.738718 0.897338
0.172604 0.751364 0.911115
0.172670 0.763472 0.923159
0.187260 0.772590 0.922325
0.202819 0.781509 0.920632
0.930092 0.123609 0.475136
0.935300 0.126017 0.490891
0.940357 0.128377 0.505884
0.943157 0.130005 0.509464
0.946005 0.131632 0.513696
0.949195 0.133260 0.522484
0.952104 0.135412 0.531383
0.953796 0.139839 0.540757
0.952071 0.144559 0.547886
0.940093 0.150157 0.548276
0.915928 0.158889 0.554933
0.864955 0.174513 0.575374
0.748288 0.215575 0.600893
0.522130 0.299033 0.634875
0.344477 0.379757 0.661481
0.229185 0.456965 0.678602
0.164182 0.521154 0.687814
0.149470 0.572323 0.689116
0.146182 0.598993 0.691443
0.151781 0.606610 0.694568
0.158193 0.622323 0.712869
0.165094 0.642895 0.740276
0.169756 0.665436 0.774666
0.173402 0.688872 0.812228
0.172800 0.706498 0.842125
0.170782 0.722187 0.869467
0.168764 0.735919 0.892261
0.166745 0.749199 0.914004
0.172930 0.761454 0.920880
0.180286 0.773563 0.925632
0.194356 0.780728 0.928249
0.208873 0.787563 0.930722
0.937155 0.132690 0.505156
0.940540 0.134057 0.516743
0.943962 0.135546 0.527937
0.947933 0.138866 0.533210
0.951579 0.141942 0.538418
0.952946 0.143310 0.543170
0.954569 0.145177 0.549057
0.957304 0.149213 0.559864
0.958150 0.153249 0.568294
0.953332 0.157286 0.569596
0.943612 0.163031 0.574520
0.923106 0.172535 0.587409
0.847696 0.200203 0.609576
0.680779 0.258142 0.647204
0.521182 0.326334 0.682639
0.370997 0.407709 0.715254
0.257820 0.488759 0.736834
0.181653 0.569483 0.747380
0.146206 0.614430 0.754924
0.142431 0.631551 0.760132
0.145653 0.648551 0.774006
0.153074 0.665477 0.793081
0.159064 0.685625 0.819585
0.164402 0.707238 0.849465
0.167152 0.721772 0.869728
0.169040 0.733945 0.886784
0.170928 0.745537 0.901619
0.172816 0.756995 0.915941
0.184729 0.768453 0.919497
0.198075 0.779910 0.921515
0.210322 0.786302 0.928476
0.222496 0.792356 0.935768
0.935137 0.144799 0.531391
0.937481 0.145124 0.535688
0.940121 0.145767 0.540371
0.947217 0.151170 0.550852
0.953467 0.155939 0.560356
0.953792 0.156264 0.563025
0.954179 0.157286 0.566830
0.954830 0.161322 0.575553
0.955416 0.165358 0.582942
0.955806 0.169394 0.586327
0.954549 0.173837 0.591055
0.949667 0.179176 0.598737
0.921910 0.190568 0.618430
0.856028 0.212051 0.658141
0.742783 0.260192 0.702038
0.568640 0.342609 0.751319
0.398697 0.440324 0.786440
0.232952 0.553338 0.807403
0.151284 0.622372 0.824190
0.135009 0.657201 0.837731
0.132894 0.677585 0.847569
0.139273 0.689303 0.855186
0.146369 0.704960 0.868800
0.153791 0.722407 0.885140
0.161749 0.733555 0.893424
0.169887 0.742604 0.899023
0.178024 0.752763 0.904092
0.186162 0.763179 0.909040
0.203413 0.773595 0.911424
0.221967 0.784011 0.913442
0.231610 0.790338 0.925287
0.240658 0.796393 0.937786
0.948381 0.149970 0.559014
0.949683 0.151402 0.562464
0.951184 0.153034 0.566321
0.955676 0.157656 0.576281
0.959606 0.161969 0.585249
0.959606 0.164117 0.587267
0.959741 0.166619 0.590152
0.960457 0.170656 0.596792
0.961319 0.174513 0.602960
0.962621 0.177833 0.607713
0.963293 0.181377 0.614438
0.962577 0.185413 0.625505
0.944699 0.196016 0.649169
0.898217 0.217564 0.693828
0.783210 0.269957 0.739967
0.580098 0.362009 0.788011
0.396711 0.464932 0.824142
0.233050 0.578727 0.848359
0.152916 0.648396 0.866424
0.137748 0.683745 0.879704
0.135396 0.702860 0.886760
0.140734 0.712235 0.890080
0.147460 0.723802 0.896980
0.154816 0.736366 0.905508
0.163686 0.745025 0.908617
0.173060 0.752381 0.909919
0.183598 0.762541 0.912966
0.194405 0.773347 0.916417
0.213414 0.781647 0.919240
0.233595 0.789590 0.921975
0.247124 0.795091 0.930690
0.260209 0.800429 0.939804
0.968562 0.151988 0.587267
0.968822 0.155504 0.592801
0.969022 0.158958 0.598415
0.968305 0.161497 0.605251
0.967679 0.164377 0.611484
0.967679 0.169651 0.613502
0.968008 0.174692 0.615996
0.969766 0.178728 0.620553
0.971150 0.182325 0.625420
0.971410 0.184603 0.631214
0.971040 0.187431 0.640934
0.969282 0.191467 0.659292
0.944113 0.208320 0.689857
0.879924 0.246534 0.740765
0.741286 0.314225 0.786318
0.506926 0.419818 0.824988
0.329788 0.522741 0.856431
0.209874 0.622995 0.880648
0.152981 0.682639 0.896370
0.145104 0.710697 0.905484
0.144835 0.726426 0.910326
0.149132 0.734759 0.912604
0.154816 0.742421 0.915599
0.161131 0.749777 0.918919
0.168959 0.756352 0.919944
0.177292 0.762667 0.920205
0.188481 0.773477 0.924749
0.200329 0.785326 0.930283
0.219468 0.791022 0.934279
0.239649 0.795839 0.938054
0.260013 0.800168 0.939999
0.280390 0.804465 0.941822
0.972093 0.161574 0.604925
0.972875 0.165610 0.610199
0.973579 0.169618 0.615569
0.973123 0.173199 0.622405
0.972626 0.176893 0.628638
0.971845 0.181385 0.630656
0.971589 0.185938 0.633053
0.973607 0.190755 0.637089
0.974925 0.195459 0.641825
0.974144 0.199820 0.648660
0.972976 0.204080 0.658690
0.970958 0.208117 0.675746
0.953926 0.221552 0.702860
0.911872 0.250651 0.746738
0.807216 0.306837 0.789362
0.622071 0.397846 0.830375
0.454699 0.494129 0.862599
0.305099 0.595685 0.886035
0.217788 0.665420 0.901708
0.178923 0.710404 0.911343
0.164430 0.734271 0.916706
0.164561 0.745468 0.919505
0.167689 0.754741 0.922841
0.172181 0.763139 0.926422
0.178187 0.768607 0.927317
0.184697 0.773099 0.927317
0.198295 0.781875 0.931601
0.213528 0.791640 0.936874
0.233774 0.797076 0.939698
0.254736 0.801894 0.942172
0.276126 0.806711 0.942326
0.297544 0.811528 0.942326
0.970075 0.173683 0.619052
0.971898 0.177719 0.623284
0.973709 0.181857 0.627743
0.975336 0.187521 0.635620
0.976532 0.192777 0.642765
0.974710 0.195186 0.644783
0.973607 0.198242 0.647179
0.975625 0.204101 0.651216
0.976683 0.210367 0.656212
0.974860 0.217853 0.664089
0.972976 0.224261 0.673533
0.970958 0.228298 0.686422
0.967207 0.235092 0.706636
0.960567 0.246485 0.739056
0.909097 0.282229 0.777969
0.799989 0.349282 0.825232
0.643554 0.436711 0.860060
0.439791 0.544517 0.882455
0.304176 0.631047 0.898844
0.221564 0.701029 0.910562
0.187411 0.736875 0.917357
0.182333 0.752239 0.921197
0.182402 0.764962 0.926292
0.184811 0.776484 0.931955
0.188733 0.781171 0.933371
0.193160 0.783580 0.933371
0.209752 0.789427 0.936809
0.229152 0.796067 0.941041
0.250830 0.802024 0.941911
0.272834 0.807883 0.942302
0.293312 0.813742 0.942326
0.313688 0.819601 0.942326
0.963138 0.193990 0.631539
0.964310 0.199719 0.635575
0.965535 0.205362 0.639705
0.967553 0.209724 0.645239
0.969066 0.214110 0.650756
0.967048 0.218667 0.656159
0.965787 0.223663 0.661465
0.967805 0.230564 0.666347
0.969026 0.237546 0.671604
0.967854 0.244772 0.677984
0.966682 0.251795 0.685625
0.965510 0.258370 0.696041
0.965095 0.265189 0.709460
0.965942 0.272415 0.727883
0.943063 0.293483 0.757585
0.889681 0.332348 0.801788
0.782266 0.397383 0.837951
0.620818 0.488588 0.866074
0.465778 0.581441 0.887569
0.315723 0.675575 0.903909
0.242974 0.729429 0.914146
0.216608 0.759115 0.920721
0.208593 0.775553 0.924611
0.208918 0.785969 0.927280
0.217104 0.790086 0.927948
0.227911 0.792104 0.927948
0.243584 0.797402 0.929852
0.260380 0.803456 0.932195
0.278201 0.808770 0.932488
0.296168 0.813978 0.932488
0.317798 0.819186 0.931695
0.339671 0.824394 0.930849
0.955066 0.216189 0.643648
0.955196 0.224001 0.647684
0.955444 0.231467 0.651618
0.957462 0.233746 0.654027
0.958976 0.236700 0.657331
0.956958 0.244381 0.666901
0.955696 0.252112 0.675787
0.957715 0.260054 0.681711
0.959196 0.267557 0.687228
0.959065 0.273741 0.691525
0.958935 0.281024 0.697083
0.958805 0.290724 0.705415
0.959432 0.299106 0.712064
0.961319 0.305290 0.715905
0.961356 0.313013 0.735125
0.959012 0.322713 0.774120
0.909406 0.362229 0.811325
0.812537 0.431560 0.846739
0.644738 0.528319 0.874354
0.421771 0.646410 0.895902
0.306055 0.719664 0.910045
0.254692 0.766015 0.919745
