其他预设/【236】赛博朋克风调色预设/【后期菌】视频调色预设/CUBE/Glitch 07.cube
# LUT by SparkleStock. Enhanced with VOXCOLOR algorithms.
LUT_3D_SIZE 5
DOMAIN_MIN 0.000000 0.000000 0.000000
DOMAIN_MAX 0.903226 0.903226 0.903226
0.023460 0.054741 0.062561
0.030650 0.068868 0.152871
0.039101 0.103932 0.184025
0.021442 0.225775 0.461893
0.030902 0.457983 0.728912
0.243181 0.070381 0.115158
0.313981 0.075020 0.279901
0.036794 0.202640 0.408881
0.027370 0.402249 0.681133
0.090151 0.668695 0.850271
0.692208 0.078706 0.309148
0.726605 0.106528 0.391080
0.030308 0.357969 0.718517
0.065792 0.616607 0.819332
0.194494 0.818047 0.923578
0.757923 0.176079 0.559392
0.758553 0.214061 0.604335
0.633085 0.313322 0.715795
0.171583 0.790456 0.907181
0.276260 0.883427 0.940845
0.775581 0.321887 0.696244
0.784715 0.385005 0.733632
0.795616 0.459561 0.766085
0.405121 0.853473 0.937424
0.367632 0.905789 0.943502
0.061930 0.062561 0.086904
0.054900 0.074202 0.217955
0.042327 0.121086 0.222496
0.024864 0.254415 0.502010
0.040057 0.499512 0.749903
0.337910 0.067985 0.128113
0.619431 0.078376 0.307920
0.025672 0.334103 0.621790
0.052328 0.584298 0.794841
0.170798 0.793333 0.909931
0.712821 0.094147 0.344623
0.755491 0.162648 0.523934
0.241735 0.409627 0.789465
0.146332 0.763911 0.893395
0.267211 0.877931 0.941684
0.758553 0.191719 0.573014
0.766743 0.281550 0.669268
0.758688 0.358074 0.732940
0.249367 0.862345 0.939670
0.344622 0.900728 0.942018
0.775581 0.342625 0.709309
0.807158 0.512768 0.774784
0.825094 0.593978 0.797048
0.591480 0.850283 0.922633
0.515356 0.907372 0.929022
0.264623 0.070381 0.119951
0.439026 0.065930 0.213927
0.038218 0.133260 0.266625
0.022862 0.286619 0.550819
0.046184 0.542889 0.777998
0.613987 0.064815 0.209345
0.729167 0.110725 0.402731
0.102825 0.334233 0.733198
0.072238 0.628880 0.823459
0.197538 0.821367 0.923777
0.723574 0.102073 0.374834
0.759082 0.179005 0.558904
0.681302 0.306158 0.703768
0.232902 0.852548 0.934726
0.328774 0.894453 0.938217
0.759294 0.207579 0.597183
0.768180 0.301490 0.682836
0.793647 0.462900 0.762226
0.384086 0.857770 0.932902
0.461270 0.900936 0.924747
0.779890 0.361407 0.720987
0.814653 0.547824 0.786355
0.850380 0.695109 0.826228
0.833444 0.776013 0.877470
0.697402 0.899687 0.905683
0.621449 0.065841 0.211396
0.674342 0.074930 0.281932
0.013195 0.228298 0.563762
0.018492 0.317517 0.590408
0.058399 0.584492 0.802321
0.715172 0.097626 0.356431
0.770913 0.144646 0.427997
0.578646 0.226748 0.593391
0.092703 0.673177 0.850729
0.214842 0.838336 0.931406
0.757434 0.160439 0.524677
0.759294 0.232025 0.625864
0.776230 0.346452 0.710892
0.296636 0.836876 0.932414
0.349016 0.901142 0.942359
0.758553 0.225974 0.621217
0.774630 0.327395 0.701379
0.807946 0.506399 0.775022
0.683376 0.807214 0.897847
0.661702 0.894197 0.901859
0.785200 0.390344 0.734430
0.819406 0.572599 0.792081
0.855202 0.718119 0.831934
0.872117 0.809266 0.863627
0.807140 0.902550 0.898837
0.717939 0.089553 0.324536
0.418280 0.141499 0.064958
0.288959 0.224701 0.065588
0.201212 0.429090 0.174045
0.069246 0.629952 0.820988
0.770251 0.129545 0.136043
0.554970 0.371147 0.060022
0.631937 0.454115 0.058077
0.551403 0.615004 0.079458
0.218043 0.847700 0.916565
0.767468 0.205089 0.564539
0.823748 0.399784 0.161501
0.862232 0.634999 0.082371
0.775822 0.776995 0.197151
0.414192 0.907171 0.838586
0.765080 0.286916 0.673480
0.821859 0.457146 0.666327
0.931624 0.689142 0.206968
0.962618 0.819925 0.217239
0.668423 0.935305 0.796022
0.790216 0.421714 0.750530
0.829540 0.609842 0.801790
0.878881 0.749114 0.775534
0.923662 0.849651 0.697267
0.948604 0.926216 0.614482
