其他预设/【236】赛博朋克风调色预设/【后期菌】视频调色预设/CUBE/Glitch 06_S.cube
# LUT by SparkleStock. Enhanced with VOXCOLOR algorithms.
LUT_3D_SIZE 5
DOMAIN_MIN 0.000000 0.000000 0.000000
DOMAIN_MAX 0.903226 0.903226 0.903226
0.003910 0.003910 0.011730
0.047930 0.107464 0.203197
0.086526 0.236118 0.294390
0.124492 0.409548 0.514615
0.136474 0.594204 0.696244
0.364393 0.076057 0.210135
0.445577 0.125061 0.360979
0.185214 0.344501 0.357293
0.243315 0.452811 0.465172
0.201379 0.660623 0.726589
0.816952 0.113392 0.393403
0.836633 0.123751 0.448364
0.218467 0.478762 0.481846
0.263203 0.592345 0.528885
0.226088 0.753069 0.797593
0.900577 0.142907 0.638224
0.913324 0.165627 0.677341
0.769213 0.357204 0.758810
0.199084 0.754814 0.806980
0.271304 0.827262 0.863873
0.919875 0.283165 0.750985
0.919423 0.340986 0.772932
0.918488 0.397859 0.800014
0.448108 0.827075 0.881816
0.429058 0.866481 0.880604
0.107590 0.034560 0.098004
0.138590 0.111484 0.288613
0.135554 0.234783 0.321940
0.187297 0.372339 0.496318
0.146817 0.606040 0.705253
0.453780 0.085733 0.231540
0.636070 0.130808 0.365043
0.245718 0.355005 0.406686
0.348811 0.415237 0.455775
0.301231 0.635233 0.696370
0.838374 0.114275 0.420717
0.774256 0.169166 0.529358
0.388832 0.457954 0.484067
0.369462 0.570300 0.495368
0.391481 0.703174 0.674190
0.911188 0.148078 0.666368
0.920586 0.239737 0.733499
0.815280 0.366413 0.680474
0.306788 0.775312 0.720540
0.504849 0.797824 0.689268
0.917047 0.300371 0.764282
0.911197 0.444560 0.804978
0.907884 0.523625 0.822238
0.635012 0.840584 0.888188
0.630878 0.881136 0.797706
0.397440 0.082994 0.220351
0.570288 0.101373 0.324833
0.123662 0.279604 0.384493
0.161891 0.417446 0.562973
0.153099 0.630196 0.722944
0.713415 0.105482 0.318319
0.768046 0.124746 0.469160
0.305054 0.366844 0.589033
0.325815 0.457337 0.612666
0.285995 0.678621 0.778834
0.852322 0.113876 0.454601
0.823967 0.164939 0.620643
0.665588 0.341919 0.625083
0.389438 0.603090 0.636889
0.574263 0.647834 0.666502
0.911913 0.161953 0.686658
0.917196 0.261622 0.744879
0.859100 0.424414 0.754420
0.481440 0.764602 0.727380
0.694224 0.764340 0.667394
0.905285 0.325313 0.768371
0.902595 0.481735 0.813208
0.901257 0.648046 0.858189
0.837455 0.770034 0.838809
0.770650 0.889775 0.741259
0.720588 0.104941 0.320878
0.797638 0.112904 0.372343
0.128625 0.414703 0.593504
0.119524 0.494955 0.612562
0.155048 0.657998 0.746192
0.845836 0.113392 0.435364
0.898695 0.143574 0.491203
0.696723 0.321408 0.647241
0.205264 0.643703 0.768434
0.231999 0.765113 0.851564
0.895690 0.123861 0.617054
0.917281 0.177991 0.707517
0.889579 0.310328 0.760711
0.354958 0.736385 0.834233
0.540789 0.702865 0.804309
0.927321 0.166363 0.704162
0.929989 0.284929 0.764618
0.919904 0.439044 0.810144
0.696560 0.760219 0.835869
0.770815 0.783677 0.788900
0.926410 0.340929 0.782331
0.913126 0.499519 0.824947
0.908951 0.672482 0.873964
0.890572 0.803445 0.883258
0.825320 0.902557 0.839017
0.841295 0.113392 0.404503
0.544749 0.258081 0.064608
0.425477 0.338557 0.060417
0.200402 0.536550 0.332502
0.156993 0.679770 0.761328
0.813721 0.209187 0.191353
0.570094 0.438033 0.069978
0.598805 0.488091 0.070504
0.465600 0.600613 0.185986
0.231406 0.799185 0.852713
0.924815 0.168491 0.633195
0.830251 0.436363 0.167972
0.785799 0.615087 0.065182
0.618888 0.719185 0.226996
0.481887 0.821950 0.825735
0.921604 0.246493 0.749915
0.914273 0.416909 0.691963
0.886640 0.669110 0.179021
0.844644 0.783056 0.132741
0.696111 0.846395 0.783136
0.909036 0.370329 0.794716
0.903088 0.544280 0.837907
0.909834 0.733854 0.803351
0.917468 0.840504 0.679065
0.872765 0.877782 0.516755
