其他预设/【236】赛博朋克风调色预设/【后期菌】视频调色预设/CUBE/Glitch 08.cube
# LUT by SparkleStock. Enhanced with VOXCOLOR algorithms.
LUT_3D_SIZE 8
DOMAIN_MIN 0.000000 0.000000 0.000000
DOMAIN_MAX 0.903226 0.903226 0.903226
0.031281 0.031281 0.046921
0.069624 0.047299 0.106959
0.040614 0.113518 0.149213
0.060921 0.178854 0.242172
0.087031 0.261344 0.365024
0.101536 0.351402 0.500993
0.114906 0.460631 0.632044
0.134330 0.586006 0.731435
0.106959 0.051083 0.120834
0.139542 0.057150 0.170346
0.066557 0.167421 0.284235
0.088040 0.248751 0.342166
0.100461 0.339741 0.474758
0.114987 0.433818 0.606996
0.128752 0.558342 0.706363
0.156175 0.664748 0.781900
0.359474 0.063570 0.225901
0.475551 0.070414 0.243852
0.424851 0.090204 0.473240
0.104494 0.322111 0.474791
0.111126 0.410586 0.583361
0.124060 0.537067 0.687305
0.146817 0.641756 0.768379
0.179334 0.724270 0.829313
0.742282 0.070381 0.312427
0.800205 0.071187 0.354449
0.781981 0.082429 0.447908
0.148562 0.377572 0.685072
0.119458 0.511255 0.671706
0.140376 0.622323 0.751860
0.165146 0.705285 0.811911
0.195935 0.775980 0.856504
0.873207 0.073282 0.467190
0.897172 0.074234 0.538393
0.908645 0.078344 0.605918
0.563632 0.231833 0.757451
0.141898 0.603229 0.764180
0.161879 0.687017 0.802699
0.188212 0.761466 0.848977
0.231829 0.821338 0.879086
0.929209 0.085769 0.662820
0.933290 0.095274 0.692135
0.937912 0.116619 0.724624
0.859833 0.181051 0.765438
0.294476 0.610491 0.838435
0.184290 0.754289 0.844880
0.221958 0.810552 0.873870
0.271312 0.845771 0.890613
0.936903 0.136348 0.748967
0.938416 0.159641 0.767004
0.937912 0.189701 0.783893
0.925230 0.225136 0.810015
0.511926 0.618979 0.870570
0.251022 0.823242 0.882683
0.265425 0.842854 0.891540
0.330297 0.862864 0.898002
0.936651 0.229811 0.797276
0.934506 0.262329 0.801438
0.932968 0.300396 0.808855
0.934165 0.332661 0.814124
0.908007 0.380269 0.848863
0.527900 0.779178 0.901082
0.372852 0.867405 0.899316
0.423931 0.876653 0.899316
0.063822 0.043263 0.083625
0.084130 0.049549 0.127844
0.044996 0.118437 0.166831
0.069702 0.194747 0.257328
0.091950 0.280333 0.381799
0.105653 0.367376 0.522598
0.118087 0.476300 0.648876
0.138240 0.599754 0.737363
0.119141 0.044728 0.131771
0.300387 0.066518 0.222213
0.414362 0.096650 0.386354
0.102792 0.314082 0.435213
0.113412 0.408210 0.580285
0.121360 0.527831 0.679671
0.143781 0.626587 0.757389
0.170611 0.714237 0.817837
0.397757 0.063603 0.237257
0.677483 0.070794 0.284603
0.678594 0.091552 0.419480
0.126168 0.377338 0.634594
0.119150 0.505608 0.666055
0.134973 0.609050 0.742039
0.162920 0.694438 0.805323
0.191186 0.768707 0.850413
0.774194 0.074137 0.338382
0.866164 0.074662 0.438008
0.876405 0.079995 0.525551
0.233184 0.374468 0.739305
0.134538 0.595088 0.733372
0.154676 0.676350 0.787794
0.182241 0.752548 0.841002
0.226983 0.814349 0.874780
0.883993 0.077257 0.506864
0.929071 0.082636 0.650174
0.932599 0.094037 0.677351
0.802728 0.194350 0.742962
0.170329 0.646949 0.813805
0.177712 0.738819 0.832602
0.213401 0.803153 0.870563
0.267263 0.842832 0.890396
0.934335 0.093589 0.682460
0.938400 0.124359 0.735582
0.940412 0.147770 0.754845
0.915213 0.190105 0.796576
0.422177 0.602702 0.855342
0.211577 0.793599 0.865984
0.253825 0.835502 0.885609
0.322456 0.861294 0.897078
0.938319 0.146565 0.750424
0.936604 0.208441 0.790720
0.934506 0.237029 0.797276
0.934801 0.274961 0.806462
0.715090 0.514038 0.870723
0.308256 0.836251 0.893054
0.315029 0.859078 0.894994
0.400887 0.871469 0.897648
0.934392 0.242148 0.795510
0.932724 0.321524 0.811172
0.932215 0.357443 0.820596
0.928306 0.399724 0.827879
0.918449 0.443659 0.849413
0.654825 0.761817 0.904642
0.453454 0.874455 0.900069
0.515394 0.884144 0.902956
0.107716 0.047930 0.122347
0.163035 0.051807 0.165985
0.088597 0.123751 0.379106
0.073913 0.206924 0.278246
0.091950 0.288206 0.399083
0.110743 0.381368 0.541445
0.120329 0.503024 0.666225
0.144245 0.612798 0.749675
0.223321 0.059156 0.195158
0.489116 0.067667 0.244180
0.494183 0.090338 0.402677
0.108044 0.329794 0.484135
0.113668 0.424662 0.594318
0.123315 0.545217 0.697632
0.146360 0.643911 0.769246
0.174714 0.723397 0.824663
0.459134 0.064888 0.234531
0.721793 0.073530 0.308566
0.792058 0.083434 0.451780
0.160076 0.429159 0.727979
0.130428 0.579514 0.719663
0.153321 0.672683 0.782776
0.177534 0.743344 0.834820
0.215098 0.804522 0.870165
0.794822 0.074544 0.348415
0.871650 0.073815 0.459452
0.911347 0.078336 0.605040
0.669569 0.217220 0.743124
0.155011 0.646922 0.798506
0.175236 0.729138 0.829479
0.208453 0.796005 0.865570
0.256318 0.834229 0.882923
0.886560 0.073148 0.518013
0.933128 0.088085 0.665600
0.940126 0.118239 0.727116
0.908070 0.159784 0.771294
0.318277 0.605346 0.832912
0.200922 0.784922 0.859164
0.248125 0.830175 0.881939
0.314331 0.855831 0.895048
0.932362 0.096401 0.688424
0.937378 0.129700 0.742221
0.935849 0.187916 0.779263
0.940692 0.223863 0.802835
0.699358 0.451994 0.860056
0.261093 0.813328 0.876495
0.299928 0.851768 0.892851
0.385710 0.866888 0.893066
0.935011 0.150165 0.753703
0.934543 0.218638 0.794134
0.933123 0.298499 0.807230
0.932738 0.338154 0.817000
0.905535 0.385391 0.855945
0.548175 0.783995 0.896655
0.376414 0.862619 0.892884
0.473141 0.871296 0.893845
0.934506 0.252185 0.799371
0.932350 0.335485 0.815067
0.924706 0.428264 0.830927
0.923231 0.479143 0.840823
0.917994 0.526230 0.855288
0.756643 0.753512 0.914107
0.546210 0.880920 0.899335
0.600535 0.886773 0.900855
0.228802 0.059408 0.195377
0.328478 0.062862 0.222097
0.263386 0.079267 0.404283
0.077782 0.221617 0.308269
0.096055 0.304172 0.420912
0.112879 0.398685 0.567204
0.121550 0.519160 0.677915
0.146402 0.631918 0.758895
0.424460 0.067431 0.237729
0.702495 0.073203 0.296380
0.728199 0.076028 0.383323
0.146114 0.305957 0.646445
0.114750 0.441598 0.617108
0.123251 0.555428 0.702979
0.152701 0.660872 0.778120
0.178520 0.738283 0.834458
0.657091 0.071545 0.279071
0.824949 0.072762 0.371777
0.884964 0.076557 0.517049
0.653702 0.191133 0.704315
0.139635 0.596523 0.758504
0.157427 0.682518 0.793587
0.185517 0.753782 0.842280
0.225335 0.811328 0.872148
0.812102 0.072359 0.359730
0.879546 0.074474 0.487212
0.923044 0.082983 0.634368
0.819811 0.189714 0.749923
0.235451 0.644518 0.831036
0.195515 0.774452 0.852649
0.241736 0.826624 0.877296
0.302491 0.851191 0.892644
0.894315 0.075300 0.539313
0.931889 0.089650 0.669572
0.941562 0.126238 0.739314
0.938430 0.175362 0.781169
0.564283 0.483151 0.855105
0.238203 0.816608 0.875269
0.295092 0.847085 0.890062
0.375078 0.861647 0.889396
0.938148 0.100905 0.705452
0.940072 0.138374 0.750929
0.935944 0.206684 0.790270
0.936714 0.280121 0.805534
0.884916 0.351742 0.854081
0.369042 0.814844 0.891573
0.360861 0.860615 0.891297
0.455357 0.865091 0.888254
0.936903 0.159637 0.760864
0.936748 0.230329 0.796570
0.930962 0.314872 0.807761
0.928700 0.403016 0.830280
0.910027 0.452610 0.854769
0.645100 0.783707 0.903370
0.456404 0.869094 0.893266
0.563294 0.874765 0.892643
0.933082 0.264749 0.797581
0.932488 0.349512 0.817482
0.925917 0.446855 0.835513
0.915899 0.565290 0.859483
0.911046 0.614494 0.869595
0.872848 0.694568 0.904518
0.647687 0.886723 0.903311
0.678405 0.892297 0.903022
0.402737 0.065588 0.237631
0.546401 0.067667 0.253715
0.566142 0.085891 0.357786
0.090688 0.276354 0.433460
0.097357 0.320931 0.450569
0.111069 0.411334 0.581664
0.126636 0.535415 0.691842
0.151736 0.643998 0.771545
0.658458 0.070446 0.279576
0.824788 0.071650 0.367998
0.856268 0.076615 0.428849
0.358831 0.206800 0.702738
0.116808 0.465577 0.644182
0.129917 0.578150 0.716705
0.157020 0.673975 0.786750
0.183318 0.748826 0.841905
0.800030 0.074666 0.350523
0.875124 0.073030 0.474774
0.921549 0.079910 0.622363
0.773122 0.167981 0.712895
0.153652 0.600618 0.791894
0.161194 0.697553 0.806178
0.194449 0.768841 0.851893
0.235117 0.819035 0.876857
0.863564 0.074096 0.442135
0.915987 0.079234 0.603208
0.935154 0.099172 0.699217
0.899388 0.171193 0.773458
0.329446 0.597493 0.840347
0.205250 0.785419 0.862091
0.249821 0.829920 0.880212
0.318461 0.857025 0.892505
0.906078 0.073762 0.570589
0.932606 0.094395 0.685573
0.937601 0.130642 0.743518
0.939043 0.190596 0.784386
0.802983 0.394465 0.855328
0.321624 0.819388 0.885396
0.346177 0.857668 0.891105
0.444189 0.864117 0.885603
0.937387 0.105067 0.708943
0.937460 0.147486 0.756159
0.936055 0.215116 0.791950
0.935092 0.294018 0.803542
0.912812 0.382593 0.850407
0.554724 0.775476 0.891426
0.431939 0.866810 0.889925
0.558360 0.872381 0.891643
0.938026 0.176445 0.772049
0.934523 0.243717 0.797464
0.932863 0.327232 0.811033
0.926143 0.423102 0.832754
0.915820 0.526759 0.848370
0.859950 0.630957 0.892065
0.580293 0.867234 0.893705
0.655792 0.882829 0.895312
0.934051 0.278848 0.801914
0.930544 0.360621 0.819507
0.921906 0.462007 0.837097
0.913829 0.587791 0.862572
0.911502 0.691212 0.887680
0.898131 0.726928 0.899810
0.775995 0.877086 0.909885
0.744039 0.899666 0.907849
0.632044 0.071643 0.271939
0.728994 0.070633 0.305535
0.733091 0.077363 0.415375
0.151406 0.287457 0.588467
0.106223 0.377193 0.541880
0.112859 0.436593 0.608677
0.128638 0.556365 0.705452
0.153689 0.654873 0.778543
0.793553 0.070463 0.340969
0.877548 0.080469 0.398718
0.888688 0.076593 0.471253
0.706609 0.180522 0.557776
0.135550 0.540680 0.733487
0.136053 0.598439 0.736801
0.164285 0.685266 0.800921
0.186019 0.757496 0.848346
0.863189 0.075390 0.431947
0.910527 0.076607 0.589044
0.926113 0.110741 0.598706
0.878706 0.151073 0.674617
0.275981 0.571716 0.813211
0.170274 0.716404 0.820852
0.198081 0.778576 0.860919
0.244516 0.827743 0.882284
0.900569 0.076309 0.559888
0.932695 0.090297 0.673192
0.938041 0.123174 0.730319
0.939994 0.181203 0.764169
0.781760 0.362462 0.802689
0.250744 0.781860 0.871374
0.261607 0.836121 0.883680
0.332839 0.858954 0.892594
0.931247 0.084654 0.661705
0.936557 0.116087 0.727863
0.938165 0.166516 0.771638
0.937777 0.238707 0.798376
0.891356 0.352838 0.840027
0.419676 0.800512 0.889731
0.366911 0.863080 0.893835
0.471294 0.869460 0.891496
0.939271 0.115255 0.725015
0.935828 0.160609 0.761739
0.935140 0.224811 0.794686
0.932391 0.309967 0.806429
0.928546 0.400425 0.830074
0.800090 0.615061 0.885466
0.518412 0.869479 0.890688
0.638239 0.880411 0.894119
0.937391 0.183220 0.779113
0.933902 0.254201 0.799531
0.931074 0.338386 0.814059
0.924896 0.437942 0.833753
0.916258 0.555186 0.854722
0.889128 0.662993 0.889837
0.720609 0.872904 0.904053
0.728921 0.895381 0.902934
0.932741 0.291363 0.800994
0.929697 0.379180 0.826017
0.918796 0.480145 0.839509
0.912775 0.599152 0.866159
0.910847 0.705823 0.890118
0.912350 0.773327 0.907229
0.828072 0.880953 0.920458
0.789888 0.907155 0.916484
0.775203 0.070381 0.334500
0.836474 0.074389 0.356829
0.843541 0.101914 0.216856
0.696045 0.164605 0.184583
0.120048 0.402440 0.374134
0.119825 0.525715 0.667893
0.133960 0.579345 0.721532
0.157937 0.669704 0.787132
0.853852 0.074389 0.408629
0.688542 0.207211 0.072867
0.719690 0.226913 0.084981
0.595745 0.296395 0.084634
0.162610 0.552264 0.518846
0.140481 0.665635 0.699050
0.167875 0.707285 0.813387
0.194193 0.770926 0.855116
0.897859 0.074991 0.517118
0.917732 0.108547 0.525750
0.826765 0.287667 0.165031
0.829615 0.325722 0.157518
0.757938 0.411195 0.245319
0.223045 0.718511 0.630456
0.210244 0.792210 0.865070
0.249536 0.831572 0.884455
0.930889 0.083035 0.658987
0.933025 0.124517 0.642192
0.912208 0.236947 0.425686
0.901413 0.364951 0.304154
0.854700 0.471487 0.311166
0.342262 0.779042 0.734513
0.277586 0.844594 0.885754
0.344875 0.860824 0.894673
0.938416 0.108448 0.715644
0.936935 0.154879 0.756842
0.935695 0.221937 0.749968
0.927223 0.358046 0.539643
0.896637 0.528380 0.452518
0.544428 0.793838 0.688811
0.391046 0.865487 0.860744
0.489383 0.871408 0.892490
0.938241 0.140933 0.749439
0.935515 0.201764 0.791849
0.932903 0.284127 0.800066
0.930154 0.374982 0.808197
0.924477 0.501730 0.780658
0.889542 0.679776 0.656480
0.579625 0.867360 0.841975
0.658025 0.890963 0.901698
0.936903 0.197241 0.788410
0.934254 0.274202 0.801820
0.931680 0.359144 0.820195
0.923886 0.459910 0.833899
0.912433 0.585389 0.856602
0.906932 0.705483 0.816700
0.758816 0.871802 0.898787
0.751912 0.908617 0.910257
0.934506 0.302389 0.809942
0.928490 0.388417 0.824529
0.918817 0.499286 0.845997
0.912224 0.618365 0.868576
0.912060 0.722513 0.893200
0.919389 0.796259 0.900011
0.911436 0.865228 0.884323
0.823608 0.917995 0.915841
0.854791 0.076057 0.388863
0.838199 0.115504 0.191068
0.359063 0.258516 0.068261
0.327665 0.298483 0.075536
0.295294 0.325712 0.094322
0.183692 0.474416 0.286664
0.140807 0.625501 0.581172
0.164813 0.687004 0.796519
0.888159 0.099119 0.331815
0.377426 0.328402 0.073678
0.392610 0.366332 0.078115
0.408467 0.391374 0.083411
0.400631 0.426757 0.094534
0.335695 0.510161 0.175385
0.195632 0.728138 0.660929
0.198049 0.780941 0.860640
0.824162 0.193835 0.155776
0.740849 0.306557 0.084127
0.531048 0.468316 0.080446
0.554990 0.505786 0.080495
0.599721 0.539423 0.077617
0.504141 0.596824 0.143520
0.251701 0.787570 0.656468
0.268092 0.834172 0.868117
0.930307 0.114600 0.624976
0.837984 0.318577 0.176932
0.727471 0.511611 0.064104
0.698473 0.596221 0.076048
0.718339 0.622238 0.077264
0.613938 0.673358 0.150515
0.388680 0.810759 0.597660
0.364341 0.865914 0.845008
0.937106 0.144693 0.703678
0.934074 0.217222 0.641604
0.901719 0.426809 0.276501
0.788091 0.639258 0.082976
0.793505 0.698372 0.094410
0.732604 0.733274 0.121345
0.618712 0.791833 0.370890
0.518214 0.871727 0.819131
0.936651 0.186296 0.780492
0.935296 0.264925 0.763517
0.928463 0.406256 0.567309
0.912161 0.588468 0.339051
0.881955 0.720870 0.162853
0.856674 0.781558 0.133380
0.769650 0.805791 0.230904
0.637857 0.887199 0.805870
0.935821 0.249056 0.800250
0.931782 0.329411 0.812414
0.926871 0.434347 0.812249
0.925675 0.615035 0.612295
0.925559 0.725367 0.566204
0.901775 0.807614 0.291719
0.837158 0.843421 0.294356
0.769826 0.877193 0.584283
0.932741 0.321435 0.810564
0.926940 0.412248 0.830029
0.916776 0.532457 0.847379
0.910697 0.656619 0.853927
0.921281 0.763603 0.788779
0.923690 0.828848 0.776055
0.904180 0.863560 0.450652
0.871266 0.879375 0.508978
