其他预设/【236】赛博朋克风调色预设/【后期菌】视频调色预设/CUBE/Glitch 09_S.cube
# LUT by SparkleStock. Enhanced with VOXCOLOR algorithms.
LUT_3D_SIZE 8
DOMAIN_MIN 0.000000 0.000000 0.000000
DOMAIN_MAX 0.903226 0.903226 0.903226
0.066471 0.070381 0.003910
0.080346 0.079463 0.029136
0.066471 0.104184 0.046542
0.070381 0.132816 0.113140
0.075300 0.189954 0.249740
0.076940 0.277110 0.387601
0.068237 0.362249 0.499732
0.060795 0.452054 0.589285
0.088544 0.082364 0.028884
0.100868 0.083104 0.061275
0.068619 0.127938 0.152798
0.111830 0.179961 0.200150
0.159686 0.247661 0.305111
0.185747 0.314075 0.394539
0.150336 0.402570 0.509949
0.078677 0.495557 0.618006
0.302967 0.098256 0.087661
0.458328 0.105417 0.120903
0.401549 0.125261 0.340977
0.140356 0.261694 0.294435
0.206363 0.322782 0.333243
0.238750 0.382015 0.408104
0.204414 0.449772 0.505339
0.126229 0.523847 0.617364
0.648567 0.112635 0.197522
0.687464 0.112887 0.230617
0.657709 0.138309 0.303651
0.139505 0.321069 0.425270
0.201419 0.407013 0.386661
0.242314 0.456217 0.436650
0.202437 0.507218 0.531647
0.110975 0.560800 0.649885
0.771545 0.110491 0.308265
0.791408 0.118633 0.336270
0.779878 0.138602 0.349367
0.550636 0.234319 0.503585
0.167612 0.481671 0.482814
0.189661 0.521353 0.509664
0.163706 0.558509 0.592312
0.082343 0.592333 0.694169
0.802951 0.153502 0.381673
0.808212 0.162754 0.398916
0.811296 0.176547 0.412539
0.738600 0.196203 0.472418
0.209134 0.478985 0.643131
0.113168 0.567562 0.624964
0.091205 0.590546 0.674774
0.068176 0.603725 0.714721
0.817204 0.180494 0.437045
0.820231 0.190080 0.444234
0.823946 0.201753 0.456021
0.827588 0.207103 0.497165
0.313481 0.475458 0.714436
0.060165 0.593431 0.712011
0.064075 0.603709 0.719497
0.066471 0.617160 0.726642
0.818213 0.227793 0.468073
0.822376 0.244394 0.478277
0.830171 0.271967 0.492014
0.838447 0.304318 0.512182
0.850572 0.367262 0.594566
0.320748 0.621465 0.758484
0.075247 0.623214 0.721292
0.082319 0.630111 0.722606
0.074796 0.074544 0.012235
0.084166 0.082600 0.038930
0.064514 0.104372 0.056405
0.087360 0.139578 0.135009
0.122282 0.184530 0.262984
0.139330 0.262740 0.382015
0.103289 0.361940 0.502226
0.069372 0.455598 0.594583
0.091254 0.079430 0.030333
0.233072 0.095073 0.079796
0.386704 0.116800 0.259482
0.152104 0.219698 0.285324
0.238217 0.270609 0.351943
0.270474 0.323631 0.418751
0.239145 0.399860 0.504113
0.139311 0.501992 0.612981
0.357611 0.098761 0.100466
0.600624 0.111329 0.170088
0.535602 0.150357 0.276476
0.193591 0.293908 0.364049
0.281662 0.346356 0.363612
0.329712 0.382659 0.402317
0.311700 0.439436 0.479769
0.202254 0.519097 0.597088
0.679664 0.113392 0.217324
0.748241 0.118387 0.287382
0.673733 0.176395 0.298957
0.233463 0.320045 0.426011
0.281939 0.434667 0.387265
0.335137 0.465385 0.413788
0.322160 0.501332 0.488573
0.213443 0.553995 0.604440
0.783588 0.116045 0.320369
0.807399 0.147899 0.380127
0.740664 0.207673 0.361146
0.615866 0.268816 0.390060
0.240429 0.506411 0.464858
0.282441 0.542023 0.475526
0.255082 0.566874 0.551512
0.174288 0.592426 0.637884
0.813294 0.157457 0.397313
0.815901 0.175039 0.429098
0.800903 0.203141 0.429083
0.762571 0.251885 0.436658
0.324055 0.501170 0.587029
0.178539 0.592342 0.588344
0.154830 0.603758 0.636568
0.164008 0.617779 0.654446
0.817204 0.186646 0.436988
0.826393 0.207512 0.461559
0.828169 0.222882 0.469774
0.825850 0.254278 0.485759
0.658901 0.462093 0.703865
0.084263 0.604846 0.699660
0.090829 0.620787 0.704081
0.143967 0.635899 0.674355
0.818213 0.229811 0.462548
0.828557 0.289190 0.502059
0.842285 0.336281 0.526098
0.856674 0.392214 0.549324
0.874162 0.456260 0.612423
0.429377 0.629496 0.767918
0.090047 0.632438 0.723985
0.125901 0.647647 0.715490
0.088040 0.078706 0.024974
0.113559 0.083088 0.042820
0.055616 0.102427 0.289817
0.103147 0.136572 0.163507
0.146442 0.188310 0.298304
0.166872 0.265307 0.409927
0.136474 0.360357 0.513663
0.069323 0.467772 0.603286
0.158661 0.090721 0.061524
0.476190 0.102498 0.122441
0.427360 0.113009 0.284985
0.175726 0.220256 0.343658
0.265510 0.266283 0.395465
0.307310 0.312598 0.454310
0.282281 0.380921 0.517652
0.182587 0.485612 0.608129
0.435987 0.103485 0.112745
0.622133 0.116545 0.194043
0.600267 0.152701 0.309614
0.217695 0.306778 0.454628
0.294551 0.363301 0.437902
0.346853 0.395055 0.465340
0.356314 0.437064 0.511360
0.242467 0.515985 0.608000
0.694898 0.112985 0.224933
0.736950 0.127551 0.302850
0.667763 0.202566 0.338398
0.528625 0.270299 0.420211
0.294717 0.450963 0.466066
0.352374 0.474408 0.474408
0.382333 0.497481 0.507490
0.301296 0.544427 0.588576
0.775695 0.122722 0.325284
0.799803 0.157726 0.385820
0.724519 0.236762 0.391293
0.670492 0.298234 0.399756
0.315051 0.492791 0.514136
0.325322 0.551668 0.507418
0.360184 0.566329 0.527577
0.336104 0.586004 0.580038
0.799184 0.166782 0.397387
0.804189 0.186607 0.427683
0.796073 0.223711 0.445193
0.751103 0.299566 0.434934
0.629539 0.452580 0.589666
0.224499 0.604254 0.587659
0.273420 0.619451 0.591505
0.333517 0.628454 0.583429
0.808282 0.191479 0.434888
0.818202 0.220511 0.464546
0.828733 0.271997 0.496256
0.836475 0.310154 0.516427
0.834057 0.393689 0.594903
0.334579 0.628142 0.726228
0.200580 0.646781 0.637909
0.301949 0.666595 0.605845
0.821314 0.238315 0.474530
0.834036 0.306138 0.514962
0.864287 0.428394 0.570002
0.879097 0.492427 0.590843
0.895143 0.553559 0.632768
0.700922 0.705684 0.820573
0.200228 0.674312 0.688009
0.328344 0.713048 0.668958
0.156907 0.087535 0.060921
0.261397 0.095054 0.082034
0.235743 0.099603 0.290191
0.099119 0.148501 0.210855
0.134399 0.203140 0.334708
0.149828 0.283637 0.449633
0.121037 0.377641 0.542283
0.067228 0.476235 0.610943
0.385685 0.102419 0.110918
0.623422 0.109616 0.179213
0.595172 0.117538 0.286604
0.160199 0.199041 0.479128
0.249073 0.279873 0.463516
0.293301 0.325105 0.512862
0.255433 0.407520 0.572533
0.152066 0.505818 0.636574
0.596812 0.106833 0.165484
0.696775 0.118285 0.253020
0.667876 0.149135 0.343671
0.527632 0.198670 0.475490
0.286950 0.368617 0.519321
0.343149 0.400874 0.530729
0.340421 0.448056 0.572072
0.239818 0.522774 0.638501
0.698393 0.115788 0.241798
0.763153 0.118824 0.315689
0.691400 0.201047 0.381765
0.588100 0.258480 0.454130
0.306697 0.449724 0.553663
0.347869 0.486201 0.548210
0.398057 0.502597 0.562606
0.364963 0.536516 0.604634
0.787506 0.120500 0.339167
0.805994 0.156373 0.390526
0.733156 0.236632 0.422681
0.687108 0.303595 0.438293
0.557563 0.453037 0.601837
0.336107 0.559075 0.562661
0.418439 0.566661 0.560423
0.446631 0.576898 0.578930
0.809596 0.170167 0.409792
0.811622 0.188846 0.436695
0.795612 0.229198 0.458666
0.764435 0.315612 0.472802
0.765689 0.402722 0.564036
0.255968 0.605365 0.619575
0.365534 0.629378 0.586370
0.445363 0.635128 0.582061
0.813835 0.192269 0.440829
0.821987 0.224610 0.471474
0.834006 0.283509 0.502301
0.849571 0.400777 0.553695
0.852890 0.486027 0.613933
0.471787 0.670748 0.725488
0.295436 0.671630 0.624768
0.454791 0.704197 0.604492
0.827258 0.234388 0.480450
0.843760 0.320331 0.524389
0.873011 0.455102 0.582341
0.902819 0.592015 0.640690
0.911964 0.643789 0.667588
0.856921 0.710353 0.754784
0.433883 0.747684 0.701133
0.564376 0.784120 0.679662
0.367799 0.099770 0.101914
0.521549 0.102671 0.134773
0.510648 0.109104 0.248190
0.067090 0.203942 0.343081
0.095607 0.236927 0.361260
0.099990 0.317021 0.474400
0.079186 0.409170 0.562419
0.059961 0.490118 0.621294
0.598928 0.106833 0.168768
0.716470 0.112114 0.245015
0.721345 0.112920 0.300572
0.431263 0.158594 0.604948
0.187015 0.315287 0.525771
0.213774 0.371730 0.574335
0.184993 0.448184 0.616675
0.102596 0.537594 0.668539
0.698258 0.113392 0.228546
0.771631 0.114109 0.313244
0.741638 0.152697 0.387980
0.597886 0.180577 0.491922
0.228685 0.389734 0.603761
0.278695 0.433673 0.605704
0.257174 0.486327 0.641510
0.186838 0.543819 0.678712
0.761820 0.114906 0.294447
0.800593 0.133301 0.360849
0.746005 0.193096 0.421184
0.699709 0.230092 0.498315
0.334872 0.433618 0.632493
0.294582 0.505914 0.627690
0.330893 0.522324 0.638143
0.360430 0.540650 0.652415
0.798622 0.125468 0.348073
0.812526 0.157368 0.397849
0.775520 0.205748 0.438066
0.736452 0.273533 0.471894
0.658027 0.363668 0.603709
0.275643 0.566820 0.645668
0.386888 0.573713 0.629792
0.447368 0.581307 0.632431
0.814230 0.166977 0.409276
0.817124 0.186532 0.438165
0.818274 0.214848 0.463795
0.801652 0.289791 0.492622
0.809710 0.405658 0.593682
0.426097 0.629964 0.704121
0.366489 0.632780 0.640311
0.492126 0.649311 0.637630
0.820056 0.196297 0.450061
0.826856 0.226946 0.472523
0.838717 0.291542 0.511900
0.866143 0.418465 0.568477
0.884042 0.558672 0.620515
0.810494 0.660215 0.718361
0.419561 0.705460 0.669081
0.598311 0.744345 0.666277
0.817058 0.256921 0.487896
0.835732 0.342026 0.532610
0.869528 0.476627 0.588319
0.898339 0.621427 0.650934
0.919562 0.718798 0.704216
0.900439 0.762749 0.731518
0.725909 0.828444 0.759246
0.719500 0.833836 0.720982
0.579069 0.106833 0.158547
0.645584 0.108265 0.190881
0.645202 0.110060 0.312134
0.099908 0.218622 0.491057
0.063676 0.311963 0.439694
0.066235 0.347728 0.490732
0.060763 0.435657 0.573283
0.061109 0.497274 0.626429
0.691504 0.110662 0.221954
0.767566 0.113340 0.246577
0.779818 0.113248 0.294460
0.606713 0.142393 0.399477
0.107153 0.396037 0.599154
0.115611 0.433448 0.605454
0.091029 0.501440 0.643571
0.062899 0.559254 0.679876
0.757255 0.113050 0.288426
0.801591 0.124560 0.355112
0.789344 0.154640 0.351419
0.760852 0.157412 0.454103
0.207008 0.408240 0.667541
0.156143 0.497246 0.659954
0.124406 0.546824 0.687297
0.140416 0.567957 0.705891
0.792617 0.120944 0.345709
0.809074 0.154205 0.392210
0.798924 0.182109 0.431762
0.776350 0.220696 0.468346
0.654308 0.284378 0.591483
0.167667 0.539770 0.690258
0.212074 0.558855 0.700719
0.290211 0.558078 0.702751
0.809343 0.150190 0.389640
0.814263 0.172030 0.421430
0.818330 0.194654 0.449271
0.803720 0.244882 0.480812
0.799105 0.353052 0.599211
0.247909 0.589255 0.718031
0.293015 0.589505 0.700464
0.409889 0.592170 0.696481
0.813787 0.174395 0.422804
0.815511 0.190234 0.442120
0.823461 0.217141 0.469983
0.832903 0.276712 0.501510
0.849289 0.396954 0.562433
0.705446 0.585543 0.728364
0.347957 0.642379 0.699642
0.572098 0.681560 0.714464
0.817583 0.203543 0.452526
0.824199 0.235846 0.479387
0.839241 0.308295 0.519575
0.870463 0.441069 0.577322
0.894938 0.581648 0.635063
0.867243 0.701493 0.724325
0.633160 0.768033 0.758719
0.716556 0.784729 0.745082
0.827348 0.263557 0.491220
0.847993 0.358852 0.544521
0.877755 0.495488 0.597040
0.906131 0.628748 0.659218
0.926422 0.730710 0.715759
0.913107 0.796893 0.757828
0.800397 0.847671 0.795056
0.784395 0.859620 0.779097
0.679217 0.111878 0.214802
0.723867 0.113140 0.233347
0.716047 0.133390 0.121721
0.622393 0.171107 0.108717
0.087665 0.346588 0.314238
0.062561 0.413206 0.544159
0.061048 0.449296 0.587031
0.061878 0.506490 0.634440
0.749907 0.109482 0.275434
0.638640 0.229604 0.099815
0.660753 0.247507 0.103611
0.589322 0.326566 0.145532
0.093906 0.440063 0.437371
0.068304 0.501296 0.566721
0.062621 0.530684 0.650694
0.064099 0.565291 0.685430
0.793435 0.117623 0.319905
0.795419 0.144521 0.306776
0.745350 0.297473 0.154428
0.749624 0.334635 0.165514
0.690739 0.438627 0.301113
0.108540 0.534298 0.538385
0.066256 0.578390 0.695153
0.085299 0.591471 0.714193
0.808583 0.148456 0.387557
0.806371 0.166889 0.377917
0.791769 0.250148 0.275192
0.792625 0.356442 0.234412
0.781506 0.503332 0.347722
0.161556 0.582519 0.626378
0.132014 0.586498 0.720007
0.208259 0.580786 0.733769
0.810999 0.170896 0.415338
0.815301 0.188483 0.440463
0.818278 0.216147 0.436762
0.821417 0.343600 0.353947
0.820401 0.536979 0.409933
0.391198 0.638144 0.632699
0.230545 0.607437 0.717124
0.322924 0.603988 0.740481
0.806308 0.190316 0.439787
0.816921 0.210713 0.465874
0.824345 0.256958 0.488727
0.845905 0.350509 0.526297
0.872575 0.506759 0.549503
0.834654 0.660190 0.584473
0.389065 0.672713 0.728257
0.542259 0.699059 0.774210
0.823556 0.202485 0.457181
0.832157 0.241050 0.485751
0.848517 0.331425 0.531783
0.879025 0.469952 0.583186
0.906538 0.608346 0.644552
0.893079 0.718421 0.673244
0.685094 0.785955 0.791135
0.720282 0.803933 0.801524
0.831803 0.273916 0.501457
0.850824 0.374470 0.547182
0.885323 0.522813 0.610898
0.909701 0.645509 0.669405
0.928422 0.744242 0.722665
0.929415 0.801855 0.753918
0.891104 0.845908 0.765001
0.820980 0.872348 0.815680
0.745688 0.113392 0.254911
0.711246 0.144095 0.102703
0.398139 0.275943 0.113388
0.350759 0.330557 0.148135
0.298870 0.361976 0.168890
0.143118 0.415908 0.263692
0.080659 0.477716 0.475958
0.062561 0.520804 0.639319
0.765865 0.121082 0.179745
0.436231 0.373001 0.169003
0.460898 0.427644 0.205990
0.483638 0.459564 0.228831
0.435549 0.482669 0.250215
0.311196 0.494816 0.279329
0.088592 0.540441 0.550140
0.063329 0.573260 0.688381
0.717089 0.204788 0.101617
0.693269 0.320695 0.144870
0.588001 0.525238 0.272188
0.605038 0.550811 0.291416
0.637784 0.570858 0.300860
0.527609 0.584567 0.344510
0.123221 0.575069 0.558788
0.070409 0.597373 0.697305
0.807329 0.157664 0.366139
0.756510 0.331695 0.178007
0.717524 0.534130 0.244465
0.706933 0.612195 0.312595
0.717813 0.629766 0.323774
0.605359 0.648292 0.386269
0.206736 0.615355 0.543729
0.127818 0.616656 0.682920
0.813274 0.182337 0.409796
0.810825 0.213874 0.376400
0.806842 0.447343 0.266661
0.751929 0.627573 0.309741
0.763859 0.665456 0.343976
0.705440 0.685486 0.388051
0.577836 0.692389 0.527178
0.295613 0.650490 0.713996
0.819609 0.199031 0.453308
0.823482 0.236741 0.447978
0.833380 0.411149 0.396329
0.836110 0.573588 0.350178
0.814035 0.662159 0.343956
0.809758 0.709580 0.387631
0.738579 0.728746 0.504468
0.473418 0.718869 0.736152
0.829618 0.230084 0.478310
0.839472 0.292082 0.513788
0.867189 0.428182 0.546511
0.876158 0.613303 0.487445
0.881013 0.684633 0.506645
0.846374 0.730975 0.440621
0.795735 0.766607 0.519545
0.752555 0.791984 0.654996
0.826546 0.294272 0.513403
0.852655 0.408906 0.567181
0.888409 0.562835 0.627617
0.906162 0.675677 0.662006
0.907998 0.755437 0.661145
0.906528 0.801503 0.677925
0.872899 0.795134 0.551510
0.859341 0.826894 0.632203
