其他预设/【236】赛博朋克风调色预设/【后期菌】视频调色预设/CUBE/Glitch 05.cube
# LUT by SparkleStock. Enhanced with VOXCOLOR algorithms.
LUT_3D_SIZE 8
DOMAIN_MIN 0.000000 0.000000 0.000000
DOMAIN_MAX 0.903226 0.903226 0.903226
0.000000 0.093842 0.035191
0.000000 0.094346 0.060921
0.000000 0.108094 0.077318
0.000000 0.135213 0.149087
0.005802 0.192855 0.283921
0.000000 0.275723 0.412449
0.003027 0.366159 0.545770
0.036200 0.471226 0.678082
0.017028 0.097752 0.055498
0.045448 0.097752 0.078804
0.000537 0.123743 0.186833
0.008732 0.186113 0.257357
0.007820 0.266393 0.396382
0.005424 0.351076 0.524848
0.026040 0.447192 0.644140
0.062813 0.547397 0.758211
0.247974 0.097752 0.102797
0.359926 0.098256 0.125667
0.335192 0.107732 0.347345
0.008227 0.247160 0.393001
0.007071 0.338809 0.499862
0.020055 0.432541 0.623646
0.056885 0.528364 0.739703
0.092226 0.615419 0.824292
0.598240 0.099265 0.220099
0.674619 0.103379 0.263256
0.690931 0.108363 0.358139
0.039601 0.283018 0.592426
0.014574 0.411749 0.603355
0.049309 0.510705 0.717679
0.082323 0.594457 0.804550
0.117086 0.680372 0.879822
0.822880 0.108599 0.366159
0.878939 0.116606 0.417193
0.906395 0.120459 0.463866
0.503789 0.188074 0.645377
0.044012 0.484783 0.731228
0.072578 0.575537 0.787059
0.109746 0.666201 0.864756
0.149262 0.738092 0.919594
0.943462 0.130167 0.508940
0.956624 0.138158 0.542202
0.964058 0.148782 0.573446
0.866701 0.180258 0.647773
0.227297 0.481927 0.817347
0.105641 0.652054 0.853176
0.141755 0.726044 0.913459
0.181067 0.769714 0.926373
0.972093 0.161574 0.604925
0.972626 0.176893 0.628638
0.974925 0.195459 0.641825
0.953926 0.221552 0.702860
0.454699 0.494129 0.862599
0.164430 0.734271 0.916706
0.178187 0.768607 0.927317
0.233774 0.797076 0.939698
0.971841 0.226658 0.674550
0.971817 0.254521 0.696407
0.971792 0.284576 0.719176
0.973302 0.315255 0.739686
0.950851 0.361976 0.805067
0.461372 0.669997 0.925559
0.277245 0.804066 0.942326
0.321301 0.822294 0.940561
0.000000 0.094094 0.047425
0.004748 0.097752 0.067598
0.000000 0.111500 0.086489
0.000960 0.141597 0.158295
0.006998 0.206221 0.301645
0.003910 0.293003 0.436154
0.004541 0.385962 0.569104
0.044020 0.486362 0.691073
0.029226 0.094330 0.056238
0.203698 0.097783 0.096953
0.323823 0.113553 0.262118
0.008909 0.239552 0.352906
0.010388 0.336103 0.490687
0.019173 0.429540 0.620572
0.052446 0.515417 0.726053
0.087835 0.604782 0.815653
0.287360 0.097784 0.108286
0.524795 0.098968 0.188375
0.545686 0.108490 0.335517
0.017342 0.287001 0.542499
0.013679 0.411518 0.602235
0.044694 0.497852 0.708144
0.074344 0.581161 0.792549
0.111372 0.670729 0.870000
0.638826 0.102972 0.245297
0.790602 0.110120 0.341087
0.840078 0.118184 0.418041
0.133967 0.273572 0.651772
0.039578 0.480526 0.687389
0.069788 0.567975 0.778577
0.101586 0.650695 0.855254
0.141691 0.728473 0.911677
0.855422 0.115475 0.392203
0.939299 0.128304 0.497043
0.953956 0.136922 0.532844
0.767615 0.181572 0.634298
0.082079 0.524146 0.802562
0.096933 0.634953 0.840089
0.133428 0.713606 0.906703
0.175145 0.763353 0.923113
0.952580 0.136726 0.532697
0.966157 0.153879 0.587375
0.973686 0.169985 0.614573
0.938295 0.195814 0.676948
0.364945 0.478950 0.844327
0.132335 0.704481 0.895089
0.166350 0.756187 0.920126
0.228355 0.794725 0.939840
0.971939 0.169240 0.608933
0.972030 0.211125 0.658380
0.969999 0.232204 0.676770
0.971958 0.263018 0.715622
0.710960 0.441923 0.863349
0.212314 0.751618 0.929169
0.221618 0.790789 0.937970
0.300902 0.812493 0.939261
0.969583 0.232838 0.676544
0.970056 0.303952 0.736298
0.973228 0.340850 0.749162
0.973663 0.375373 0.766704
0.968940 0.419511 0.817743
0.588082 0.658491 0.925787
0.345448 0.820542 0.940606
0.393414 0.840750 0.941240
0.017280 0.094346 0.055245
0.073950 0.097752 0.065051
0.002637 0.104250 0.297812
0.004008 0.150165 0.182105
0.010347 0.217829 0.322265
0.003910 0.305148 0.457893
0.012247 0.405455 0.591246
0.046392 0.500668 0.707344
0.137776 0.097752 0.077790
0.372162 0.098238 0.126007
0.375961 0.107214 0.285790
0.009122 0.249085 0.400106
0.008048 0.345168 0.509830
0.022529 0.439745 0.637327
0.059020 0.532603 0.744057
0.090742 0.614541 0.823630
0.344367 0.098191 0.121005
0.574663 0.102886 0.211010
0.713562 0.113178 0.361234
0.056455 0.336817 0.643383
0.038557 0.471046 0.679693
0.065859 0.562527 0.769601
0.094745 0.640015 0.841970
0.134327 0.715937 0.902698
0.664219 0.102768 0.258288
0.816813 0.111463 0.361170
0.919606 0.127962 0.462248
0.601732 0.183900 0.631388
0.068314 0.534838 0.788831
0.091319 0.626023 0.833200
0.125374 0.701293 0.897799
0.167560 0.756987 0.918465
0.862095 0.117298 0.402859
0.947389 0.130591 0.517143
0.967297 0.150874 0.578742
0.924986 0.174010 0.649776
0.251007 0.477164 0.820821
0.121099 0.693878 0.885807
0.158233 0.747493 0.915458
0.218654 0.787870 0.932783
0.954598 0.137231 0.538833
0.969768 0.157567 0.595543
0.972028 0.197543 0.643930
0.979782 0.225547 0.676886
0.689948 0.386061 0.830269
0.171251 0.718564 0.908383
0.205993 0.781572 0.931449
0.286485 0.805934 0.936004
0.970201 0.170517 0.613755
0.969754 0.216563 0.666440
0.969892 0.287816 0.719828
0.973390 0.317706 0.742220
0.950199 0.367863 0.815795
0.467267 0.663128 0.921088
0.279866 0.800504 0.935515
0.361960 0.827136 0.936348
0.971565 0.248479 0.691858
0.971583 0.316047 0.739204
0.971775 0.403698 0.772781
0.973661 0.442555 0.785208
0.974452 0.485282 0.817508
0.730731 0.658281 0.931037
0.422513 0.837844 0.939687
0.476372 0.847925 0.942612
0.137357 0.097752 0.077318
0.222654 0.097752 0.099566
0.212682 0.102602 0.259204
0.005424 0.158445 0.216132
0.004724 0.227150 0.338972
0.003666 0.320080 0.475625
0.015095 0.416449 0.607871
0.050831 0.512813 0.722227
0.311601 0.097752 0.115081
0.550988 0.100740 0.200162
0.604005 0.101709 0.290397
0.036514 0.222461 0.552785
0.008450 0.361227 0.535776
0.027160 0.451494 0.650049
0.063505 0.549533 0.760141
0.097288 0.630166 0.835741
0.502242 0.098256 0.179176
0.709307 0.106657 0.284443
0.865234 0.118831 0.406869
0.560603 0.164295 0.589534
0.046163 0.479697 0.728622
0.070166 0.571684 0.783777
0.106562 0.659066 0.856776
0.143507 0.728596 0.910798
0.687212 0.106182 0.269652
0.842403 0.113186 0.381102
0.938262 0.132824 0.488104
0.795433 0.179505 0.636641
0.157918 0.527813 0.826858
0.110770 0.678239 0.875685
0.152167 0.742702 0.911120
0.207170 0.783107 0.927552
0.882837 0.117794 0.417047
0.947677 0.132783 0.520401
0.973666 0.157904 0.592381
0.977302 0.190919 0.650343
0.537833 0.414257 0.827923
0.150300 0.733598 0.909453
0.196619 0.776112 0.924166
0.278621 0.802320 0.934652
0.959346 0.142772 0.550555
0.971833 0.162640 0.608917
0.974498 0.207722 0.654976
0.974313 0.268449 0.711070
0.922773 0.333645 0.813426
0.272980 0.702029 0.918942
0.264679 0.799870 0.936090
0.349825 0.820186 0.930778
0.969697 0.174061 0.618633
0.972064 0.226921 0.675157
0.971211 0.298572 0.726878
0.975133 0.381196 0.769366
0.958330 0.428401 0.822572
0.577499 0.670982 0.925045
0.348027 0.818333 0.934195
0.441209 0.840038 0.933967
0.968273 0.252946 0.691630
0.974828 0.333268 0.747016
0.973830 0.418291 0.781242
0.973431 0.511753 0.813922
0.970318 0.553323 0.830025
0.899282 0.617460 0.905316
0.528384 0.840284 0.940565
0.561629 0.857338 0.935563
0.293129 0.097752 0.108725
0.414028 0.097752 0.146251
0.420831 0.104819 0.254700
0.002901 0.200915 0.351992
0.002901 0.248043 0.367188
0.002291 0.336770 0.496904
0.019298 0.430612 0.623455
0.058167 0.525552 0.738470
0.507170 0.097817 0.180185
0.702722 0.105669 0.278249
0.769669 0.108611 0.336942
0.330607 0.171583 0.572820
0.007090 0.373086 0.566155
0.034198 0.467851 0.667347
0.068000 0.561047 0.768148
0.105697 0.647919 0.851196
0.669753 0.104429 0.261844
0.827063 0.111337 0.371702
0.931518 0.128754 0.476811
0.716835 0.156462 0.599434
0.066288 0.482079 0.776408
0.076643 0.587768 0.797308
0.110983 0.670446 0.871644
0.150017 0.737406 0.914061
0.794236 0.111248 0.346515
0.921641 0.126228 0.455352
0.960795 0.143163 0.549925
0.903962 0.176151 0.653118
0.264637 0.476311 0.829089
0.125605 0.695864 0.892529
0.164736 0.752414 0.916312
0.221351 0.788280 0.931956
0.899841 0.119674 0.438477
0.951639 0.134322 0.535647
0.972236 0.158786 0.599072
0.975212 0.196737 0.649432
0.792881 0.346640 0.815734
0.220139 0.724356 0.915724
0.248916 0.793426 0.931910
0.339405 0.817606 0.929544
0.960721 0.143265 0.556324
0.971708 0.167613 0.612984
0.971334 0.213562 0.660281
0.972252 0.282054 0.716877
0.958390 0.364752 0.812415
0.481471 0.659313 0.913877
0.328333 0.813745 0.929872
0.432833 0.833891 0.928909
0.973721 0.186813 0.632296
0.969812 0.235328 0.680363
0.970687 0.309383 0.734651
0.973607 0.398355 0.772706
0.973543 0.484254 0.806325
0.883761 0.563971 0.898734
0.464769 0.816302 0.933557
0.537936 0.849910 0.932769
0.971007 0.264042 0.707112
0.973277 0.343418 0.749307
0.974089 0.429592 0.786471
0.971901 0.529814 0.820405
0.971098 0.614369 0.851142
0.953716 0.647841 0.878742
0.708316 0.809736 0.929243
0.642543 0.866349 0.925196
0.480812 0.099013 0.170151
0.580537 0.099184 0.210476
0.604108 0.101894 0.325866
0.075374 0.214448 0.484454
0.000000 0.300896 0.454923
0.000407 0.350291 0.521589
0.024469 0.443083 0.641788
0.062496 0.539024 0.752625
0.660224 0.101796 0.253487
0.816991 0.112678 0.303611
0.864531 0.115857 0.367241
0.602476 0.146377 0.460682
0.028344 0.426501 0.672318
0.043643 0.488484 0.693682
0.075269 0.572000 0.783501
0.107798 0.659256 0.860179
0.784536 0.110906 0.339598
0.915886 0.123393 0.448071
0.942479 0.141889 0.459505
0.873402 0.160772 0.553439
0.203187 0.444509 0.771153
0.088163 0.608506 0.818666
0.118567 0.685920 0.884253
0.156423 0.747510 0.918138
0.892395 0.119833 0.427032
0.949271 0.133711 0.526866
0.968419 0.152360 0.583966
0.975191 0.191136 0.624888
0.761030 0.312742 0.737990
0.161506 0.672041 0.893442
0.172741 0.759093 0.920452
0.234286 0.792336 0.933587
0.947193 0.129988 0.514762
0.964286 0.148387 0.580976
0.972370 0.182300 0.631817
0.973031 0.233473 0.676279
0.925519 0.332196 0.787004
0.328160 0.689363 0.914037
0.269070 0.800035 0.936594
0.361529 0.825468 0.931895
0.966963 0.149718 0.574638
0.971702 0.175885 0.620266
0.970562 0.223549 0.669036
0.970367 0.296974 0.725983
0.974461 0.378164 0.770513
0.800911 0.559728 0.900765
0.402353 0.830943 0.932328
0.517563 0.847170 0.933858
0.972582 0.192318 0.637467
0.971432 0.249802 0.690221
0.970368 0.321006 0.739583
0.973274 0.409502 0.775376
0.972037 0.505347 0.811760
0.941312 0.587914 0.874278
0.618952 0.802346 0.929596
0.621109 0.859663 0.922933
0.970389 0.276549 0.713838
0.973985 0.355788 0.758232
0.973534 0.444222 0.785984
0.971536 0.540240 0.824283
0.969241 0.630076 0.851618
0.961386 0.702114 0.880515
0.801452 0.820911 0.935586
0.719699 0.884340 0.931155
0.635954 0.103175 0.242172
0.721890 0.109580 0.269966
0.764892 0.115605 0.156142
0.602004 0.151846 0.130513
0.062468 0.367848 0.305234
0.011572 0.423675 0.595319
0.034739 0.466494 0.665953
0.067859 0.556996 0.766825
0.767618 0.105922 0.320239
0.628269 0.188051 0.072044
0.655008 0.206118 0.073015
0.547527 0.280202 0.082023
0.128819 0.480653 0.433367
0.069989 0.559509 0.641929
0.083599 0.596167 0.803416
0.113793 0.671546 0.874305
0.893042 0.119825 0.393074
0.923709 0.141640 0.404850
0.791181 0.268643 0.141166
0.800899 0.311434 0.151359
0.699521 0.381890 0.239934
0.214411 0.636582 0.550926
0.131343 0.707974 0.893216
0.165018 0.752522 0.922357
0.943669 0.128149 0.506665
0.956794 0.153212 0.503049
0.929635 0.238008 0.342204
0.915666 0.353090 0.280228
0.830897 0.445041 0.312177
0.311676 0.693652 0.696618
0.184247 0.772344 0.918546
0.249388 0.798393 0.936989
0.962621 0.145063 0.562383
0.971547 0.170949 0.615714
0.972400 0.221847 0.615408
0.961413 0.344478 0.465747
0.914938 0.492772 0.432076
0.512631 0.728614 0.662309
0.303046 0.818761 0.888190
0.376247 0.831111 0.934254
0.971809 0.164552 0.605080
0.972681 0.204245 0.655777
0.970501 0.272314 0.707733
0.972786 0.355282 0.729793
0.972586 0.456075 0.709064
0.921019 0.606672 0.647464
0.482870 0.840840 0.845363
0.536874 0.857972 0.935998
0.973021 0.200720 0.649161
0.969640 0.263631 0.703212
0.974237 0.339485 0.749107
0.972820 0.429100 0.774765
0.971475 0.525754 0.811313
0.961181 0.636914 0.781894
0.698925 0.830039 0.907123
0.657271 0.892796 0.930305
0.971463 0.292120 0.724298
0.972510 0.365059 0.756547
0.973607 0.462461 0.797555
0.970039 0.557465 0.829331
0.970325 0.645849 0.854062
0.966119 0.730314 0.861693
0.942099 0.818597 0.872841
0.777389 0.913170 0.915585
0.759436 0.111248 0.295399
0.765063 0.123694 0.134191
0.340038 0.240097 0.057060
0.338679 0.295513 0.058993
0.336018 0.341771 0.065405
0.184005 0.459822 0.181800
0.086664 0.545575 0.483681
0.076269 0.577315 0.779117
0.841601 0.123686 0.248776
0.388036 0.326203 0.065352
0.421466 0.383096 0.077159
0.452846 0.415012 0.083445
0.464729 0.458565 0.091879
0.424501 0.532192 0.118390
0.169973 0.644914 0.588280
0.120223 0.688422 0.881989
0.766141 0.186393 0.121847
0.701718 0.286642 0.086924
0.558463 0.487244 0.100162
0.584962 0.524658 0.107341
0.628641 0.551963 0.117204
0.581793 0.616651 0.143022
0.276599 0.723403 0.571772
0.186411 0.761855 0.888078
0.951371 0.146113 0.484560
0.810529 0.302496 0.162004
0.715503 0.502317 0.113844
0.719408 0.611362 0.135575
0.747181 0.642501 0.143270
0.684565 0.705359 0.177423
0.429977 0.784880 0.535868
0.310963 0.813825 0.828176
0.970531 0.165456 0.556104
0.964346 0.221775 0.519067
0.919118 0.408202 0.269546
0.814861 0.641244 0.154274
0.841492 0.704795 0.180427
0.803893 0.770715 0.195626
0.683029 0.820051 0.341667
0.433372 0.859381 0.814643
0.970389 0.191536 0.641752
0.969278 0.257346 0.642548
0.965985 0.385077 0.496673
0.950520 0.547795 0.353925
0.932763 0.692485 0.260445
0.930462 0.791482 0.251146
0.846884 0.855303 0.289609
0.558749 0.896545 0.798882
0.971011 0.240638 0.690158
0.971548 0.314425 0.736783
0.973298 0.404909 0.736465
0.970808 0.552795 0.577366
0.969144 0.649800 0.574826
0.962013 0.794625 0.402594
0.908842 0.896549 0.376139
0.796664 0.925952 0.555528
0.970665 0.303439 0.731569
0.972839 0.387431 0.765989
0.973937 0.487047 0.803123
0.969851 0.584840 0.803614
0.969032 0.691628 0.753064
0.970874 0.780819 0.759415
0.972256 0.890130 0.554137
0.939685 0.938744 0.573696
