其他预设/【236】赛博朋克风调色预设/【后期菌】视频调色预设/CUBE/Glitch 01.cube
# LUT by SparkleStock. Enhanced with VOXCOLOR algorithms.
LUT_3D_SIZE 32
0.082111 0.082111 0.082111
0.084130 0.082111 0.086148
0.086148 0.082111 0.089932
0.088166 0.082111 0.089932
0.089427 0.082364 0.097499
0.085391 0.084382 0.158042
0.082111 0.086400 0.197017
0.082111 0.088418 0.142528
0.082111 0.091445 0.103680
0.082111 0.097499 0.111752
0.082111 0.103554 0.120455
0.082111 0.109608 0.130546
0.082868 0.115662 0.143663
0.084886 0.121717 0.161826
0.086022 0.128654 0.186170
0.086022 0.136726 0.218459
0.087031 0.149844 0.249740
0.089049 0.168007 0.280011
0.089932 0.186170 0.315959
0.089932 0.204333 0.356321
0.092454 0.227541 0.394160
0.096490 0.253776 0.430486
0.097752 0.277236 0.468199
0.097752 0.299436 0.506543
0.099265 0.326175 0.543373
0.101283 0.354429 0.579699
0.104941 0.390881 0.614385
0.108977 0.429225 0.648693
0.111248 0.458739 0.675937
0.113266 0.486993 0.702173
0.117176 0.511462 0.715164
0.121212 0.535679 0.727273
0.086148 0.084130 0.086148
0.087124 0.083088 0.088101
0.088166 0.082111 0.089997
0.090184 0.082111 0.091038
0.091966 0.082364 0.099518
0.092096 0.084382 0.160061
0.091225 0.086986 0.200012
0.086017 0.092129 0.150731
0.082111 0.097239 0.115007
0.082111 0.102252 0.119955
0.082762 0.108241 0.128463
0.084846 0.116378 0.144803
0.086514 0.123735 0.163779
0.087490 0.129789 0.187150
0.088040 0.139005 0.214879
0.088040 0.152285 0.248210
0.089049 0.168528 0.283136
0.091067 0.187732 0.319657
0.092536 0.206351 0.354238
0.093577 0.224514 0.387308
0.096490 0.248373 0.425018
0.100527 0.275650 0.465510
0.101788 0.302300 0.504525
0.101788 0.328665 0.542869
0.103301 0.354884 0.574231
0.105320 0.381055 0.603265
0.108131 0.415423 0.634892
0.111126 0.451684 0.667116
0.114177 0.482761 0.691366
0.117237 0.513098 0.714477
0.121212 0.536721 0.730202
0.125248 0.559897 0.745436
0.090184 0.086022 0.090058
0.090249 0.084069 0.090058
0.090440 0.082238 0.090184
0.092523 0.082238 0.092202
0.094834 0.082474 0.101698
0.098740 0.084361 0.163543
0.099998 0.087409 0.205358
0.089777 0.095481 0.160374
0.082144 0.102626 0.127075
0.082274 0.106988 0.128833
0.083584 0.113119 0.137060
0.087490 0.123145 0.159519
0.089956 0.131779 0.184103
0.090021 0.138093 0.212226
0.090086 0.149649 0.243226
0.090151 0.167942 0.277924
0.091193 0.187179 0.316301
0.093211 0.207360 0.358355
0.095229 0.226442 0.391694
0.097247 0.244670 0.418255
0.100486 0.269286 0.455883
0.104457 0.297735 0.500151
0.105698 0.327347 0.540167
0.105698 0.357488 0.578251
0.107212 0.383284 0.604470
0.109230 0.407632 0.626734
0.111248 0.440019 0.655398
0.113266 0.474262 0.685540
0.117107 0.506624 0.706966
0.121208 0.538719 0.727147
0.125187 0.561597 0.745253
0.129158 0.583862 0.763220
0.094220 0.086022 0.092076
0.095327 0.085110 0.092076
0.096560 0.084256 0.092202
0.099684 0.084256 0.094220
0.102646 0.084231 0.106320
0.104469 0.084036 0.188997
0.103643 0.085391 0.245980
0.091339 0.093463 0.191622
0.082665 0.101910 0.150251
0.084878 0.111480 0.147842
0.086970 0.120866 0.154507
0.088792 0.129850 0.181133
0.090347 0.139395 0.207539
0.091453 0.149876 0.233579
0.092560 0.164687 0.266141
0.093667 0.185063 0.307089
0.095229 0.205342 0.345986
0.097247 0.225523 0.382833
0.099265 0.245191 0.416823
0.101283 0.264461 0.448592
0.103871 0.291420 0.486871
0.106801 0.322994 0.529055
0.107716 0.352150 0.565556
0.107716 0.380208 0.599473
0.109230 0.407046 0.625432
0.111248 0.433476 0.648738
0.113266 0.465408 0.675905
0.115284 0.498609 0.703963
0.120036 0.528107 0.725128
0.125179 0.557077 0.745309
0.128247 0.580737 0.760486
0.131176 0.604043 0.775329
0.099770 0.086022 0.094346
0.102569 0.085891 0.094476
0.105470 0.085769 0.094716
0.109897 0.085769 0.096604
0.113917 0.085533 0.110137
0.115089 0.083645 0.205183
0.112830 0.083576 0.273119
0.095709 0.091388 0.223578
0.083780 0.100877 0.183574
0.087425 0.115394 0.172181
0.089972 0.128141 0.173768
0.090102 0.136995 0.203909
0.090941 0.147923 0.232025
0.092959 0.162311 0.256763
0.094977 0.180058 0.290757
0.096995 0.202127 0.336652
0.099013 0.223382 0.375940
0.101031 0.243824 0.408620
0.103049 0.264265 0.443351
0.105067 0.284707 0.479677
0.107004 0.313489 0.518119
0.108892 0.347276 0.557830
0.109571 0.376498 0.591051
0.109702 0.403644 0.621322
0.111248 0.431328 0.646858
0.113266 0.459191 0.670815
0.115496 0.490545 0.696200
0.117774 0.522704 0.721914
0.123242 0.549794 0.742559
0.129167 0.576159 0.762480
0.131673 0.600511 0.775443
0.133951 0.624728 0.787942
0.115915 0.086022 0.098382
0.124964 0.084850 0.099554
0.133919 0.083751 0.100706
0.141470 0.083751 0.101552
0.149396 0.083645 0.108314
0.159943 0.082799 0.156488
0.160809 0.083186 0.205871
0.119731 0.088914 0.260489
0.089053 0.097622 0.287929
0.089574 0.115264 0.233831
0.090298 0.132112 0.205732
0.091470 0.147216 0.234832
0.092959 0.162831 0.263858
0.094977 0.179302 0.292763
0.096995 0.197766 0.327278
0.099013 0.218793 0.369007
0.101031 0.240569 0.407774
0.103049 0.263093 0.443579
0.105067 0.285618 0.479677
0.107085 0.308143 0.516003
0.108371 0.335102 0.551189
0.109217 0.364723 0.585692
0.110288 0.397655 0.617286
0.111459 0.432093 0.647558
0.113266 0.459256 0.671531
0.115284 0.483994 0.693404
0.119206 0.513916 0.715014
0.123568 0.545033 0.736562
0.128385 0.572904 0.754863
0.133268 0.600311 0.772700
0.137662 0.624728 0.788463
0.142024 0.648945 0.804087
0.138492 0.085643 0.103175
0.152619 0.084016 0.105389
0.166628 0.082490 0.107488
0.178866 0.082490 0.107879
0.191748 0.082465 0.109409
0.209130 0.082270 0.118913
0.212962 0.082868 0.151866
0.158083 0.086904 0.286428
0.113538 0.094879 0.369495
0.099998 0.114670 0.298081
0.091197 0.135070 0.254822
0.092824 0.156814 0.273505
0.094745 0.177507 0.297072
0.097154 0.196451 0.328775
0.099306 0.215937 0.363042
0.101129 0.236118 0.400605
0.103049 0.258317 0.438461
0.105067 0.282534 0.476609
0.107085 0.306971 0.513842
0.109104 0.331579 0.550363
0.109738 0.357570 0.582612
0.109543 0.384391 0.612298
0.111004 0.420119 0.642386
0.113217 0.459895 0.672658
0.115430 0.486195 0.694776
0.117644 0.508004 0.714175
0.122978 0.537164 0.732888
0.129032 0.568022 0.751441
0.133492 0.596430 0.768058
0.137723 0.624488 0.784398
0.143297 0.647847 0.801348
0.148961 0.670892 0.818339
0.188945 0.083625 0.111248
0.203071 0.084081 0.114503
0.217796 0.084508 0.117709
0.241492 0.084508 0.120183
0.263879 0.084353 0.123145
0.277094 0.083116 0.129525
0.283205 0.082868 0.155251
0.258532 0.086904 0.264815
0.221279 0.094358 0.352309
0.146284 0.112066 0.373597
0.094582 0.133638 0.378121
0.094126 0.163714 0.345766
0.095526 0.191178 0.336262
0.100018 0.214289 0.364841
0.102886 0.236118 0.395527
0.103668 0.256299 0.428924
0.105067 0.278498 0.464175
0.107085 0.302715 0.501282
0.109104 0.328324 0.538645
0.111122 0.355015 0.576208
0.111105 0.383740 0.606895
0.109868 0.413686 0.633455
0.111720 0.448242 0.662567
0.114975 0.484893 0.692839
0.118230 0.508850 0.711832
0.121485 0.528575 0.727065
0.127014 0.559884 0.746689
0.133068 0.593867 0.767325
0.138439 0.621754 0.785114
0.143712 0.648770 0.802496
0.147399 0.666205 0.813652
0.150979 0.683001 0.824394
0.243938 0.082111 0.120329
0.259367 0.084130 0.125147
0.275768 0.086038 0.129964
0.306755 0.086298 0.134781
0.335521 0.086306 0.139794
0.348737 0.084549 0.146174
0.358363 0.083780 0.168336
0.352439 0.087295 0.258890
0.315706 0.094163 0.349054
0.186548 0.111089 0.438046
0.097365 0.134403 0.477968
0.096128 0.171770 0.409939
0.097430 0.204963 0.376184
0.102964 0.231199 0.399555
0.106076 0.255013 0.426173
0.106076 0.275715 0.456965
0.107085 0.298695 0.491045
0.109104 0.323954 0.528413
0.110975 0.350458 0.564865
0.112733 0.377930 0.600604
0.112293 0.408738 0.629305
0.110536 0.441549 0.653783
0.112940 0.474852 0.681707
0.117237 0.508378 0.711197
0.121143 0.530772 0.727846
0.124919 0.549456 0.740215
0.130546 0.582051 0.760360
0.136600 0.617856 0.782298
0.142654 0.644604 0.800250
0.148709 0.670058 0.817632
0.151711 0.683489 0.825126
0.154511 0.696118 0.831962
0.312553 0.082111 0.132438
0.333190 0.084130 0.140380
0.354148 0.086103 0.148322
0.379928 0.087405 0.156264
0.405699 0.088455 0.165183
0.431414 0.087739 0.180937
0.448266 0.087425 0.210521
0.426718 0.088857 0.300034
0.370195 0.094944 0.387593
0.208747 0.114995 0.469294
0.098342 0.141759 0.507459
0.100230 0.183293 0.449845
0.102703 0.219090 0.418304
0.106154 0.245325 0.430217
0.108094 0.270051 0.451302
0.108094 0.292836 0.484177
0.109104 0.318941 0.521382
0.111122 0.348366 0.562916
0.112407 0.374935 0.595331
0.113123 0.399283 0.620655
0.112944 0.430221 0.646101
0.112228 0.465115 0.671620
0.115675 0.496920 0.697721
0.121013 0.527322 0.724087
0.124398 0.550498 0.740736
0.127132 0.571265 0.754147
0.132564 0.602557 0.773640
0.138618 0.636279 0.794537
0.144673 0.660033 0.809624
0.150727 0.682362 0.823881
0.156659 0.697551 0.834110
0.162583 0.712263 0.844070
0.392520 0.083373 0.152745
0.416412 0.085391 0.164137
0.440157 0.087368 0.175449
0.461705 0.088735 0.185539
0.484442 0.089972 0.196940
0.515494 0.090298 0.217511
0.536135 0.090562 0.249166
0.511657 0.090562 0.328849
0.446330 0.095461 0.408596
0.258451 0.115056 0.488539
0.125256 0.143826 0.531904
0.112367 0.192781 0.494797
0.105311 0.233705 0.470799
0.107981 0.261242 0.468651
0.109482 0.287185 0.481598
0.109482 0.311076 0.513952
0.110491 0.339330 0.551189
0.112509 0.371945 0.593309
0.113392 0.399616 0.622686
0.113392 0.423443 0.642150
0.113595 0.454064 0.664830
0.113921 0.488763 0.689437
0.118185 0.519030 0.713553
0.124239 0.547283 0.737445
0.127511 0.571484 0.754501
0.129854 0.594334 0.769278
0.135213 0.623267 0.787124
0.141267 0.653604 0.805678
0.147606 0.675054 0.819161
0.153986 0.695235 0.831921
0.161342 0.711327 0.843155
0.168764 0.727147 0.854287
0.497462 0.087409 0.191089
0.520312 0.089427 0.206648
0.542950 0.091274 0.221865
0.562415 0.090558 0.231955
0.582027 0.090102 0.242705
0.602663 0.091470 0.258069
0.619528 0.092580 0.280024
0.620049 0.092580 0.330541
0.570085 0.095396 0.391019
0.368665 0.106658 0.481378
0.209235 0.134257 0.545249
0.142182 0.197794 0.550848
0.102056 0.249394 0.546120
0.106809 0.281098 0.524181
0.109482 0.308928 0.523262
0.109482 0.331778 0.549367
0.110491 0.360031 0.579833
0.112509 0.393688 0.614662
0.113392 0.424745 0.643192
0.113392 0.453780 0.666823
0.114246 0.483099 0.687810
0.115614 0.512589 0.707210
0.120203 0.541229 0.728982
0.126257 0.569483 0.751832
0.130310 0.595246 0.770190
0.133695 0.620179 0.787051
0.139249 0.644425 0.801055
0.145303 0.668512 0.814401
0.152554 0.689181 0.829057
0.159975 0.709362 0.843899
0.165443 0.724477 0.852334
0.170782 0.739255 0.860341
0.586510 0.089932 0.230190
0.608319 0.091950 0.248352
0.629777 0.093740 0.266035
0.645987 0.092112 0.276516
0.661986 0.090989 0.287347
0.676503 0.093398 0.300628
0.690886 0.095355 0.316667
0.704687 0.095355 0.344660
0.672625 0.096673 0.387723
0.502975 0.101947 0.475999
0.342967 0.125224 0.549342
0.204174 0.188111 0.589834
0.115597 0.244674 0.604913
0.110715 0.290700 0.577636
0.108481 0.327840 0.569100
0.109653 0.353554 0.584659
0.111052 0.383174 0.607184
0.112680 0.416701 0.636674
0.113612 0.448873 0.663674
0.114002 0.479990 0.688738
0.115898 0.508545 0.708471
0.118698 0.535561 0.725006
0.123198 0.563428 0.744899
0.128471 0.591682 0.766316
0.133109 0.617250 0.784414
0.137536 0.641923 0.801405
0.143602 0.663581 0.813424
0.150047 0.684543 0.824296
0.157575 0.703454 0.838756
0.165256 0.722073 0.853729
0.169887 0.736114 0.860707
0.174313 0.749850 0.867152
0.649071 0.089932 0.270552
0.669838 0.091950 0.288714
0.689995 0.093805 0.306462
0.700997 0.093219 0.317985
0.712568 0.093138 0.330118
0.728127 0.096588 0.346523
0.742185 0.099391 0.362953
0.749736 0.099391 0.379488
0.739809 0.100189 0.408230
0.677443 0.103379 0.473590
0.559620 0.117086 0.538015
0.319792 0.153933 0.600381
0.157131 0.205940 0.636161
0.123084 0.283213 0.627633
0.105812 0.342031 0.621896
0.110109 0.377120 0.619748
0.112550 0.410386 0.632377
0.113136 0.441830 0.659784
0.114198 0.471332 0.684115
0.115630 0.499325 0.706054
0.119218 0.528010 0.725267
0.124101 0.557109 0.742844
0.127820 0.585627 0.761629
0.131010 0.613881 0.780964
0.135908 0.636324 0.796197
0.141377 0.656830 0.810064
0.148485 0.679400 0.823189
0.155971 0.702445 0.836144
0.162717 0.717972 0.848131
0.169358 0.732424 0.859979
0.174899 0.745228 0.867738
0.180368 0.757923 0.875225
0.703686 0.092580 0.315328
0.721133 0.094598 0.332124
0.738051 0.096547 0.348712
0.747035 0.097459 0.362188
0.756686 0.098647 0.376249
0.771008 0.101772 0.394412
0.783401 0.104396 0.411318
0.787437 0.104852 0.422776
0.789390 0.105584 0.443233
0.785094 0.107146 0.490691
0.701823 0.113876 0.543520
0.444808 0.131974 0.608164
0.250216 0.178683 0.653596
0.159662 0.273078 0.667006
0.109779 0.346824 0.669252
0.112188 0.394022 0.657144
0.113620 0.433440 0.661701
0.114076 0.465078 0.682923
0.115666 0.493678 0.703047
0.118140 0.519913 0.722317
0.122567 0.548956 0.740610
0.128166 0.579683 0.758317
0.131929 0.608083 0.776338
0.134859 0.635425 0.794501
0.140132 0.655882 0.807781
0.146186 0.674045 0.819434
0.153880 0.695646 0.833097
0.161953 0.718041 0.847224
0.168658 0.731435 0.857420
0.175168 0.743544 0.867055
0.180823 0.754371 0.874797
0.186422 0.765112 0.882414
0.748084 0.098635 0.365781
0.759282 0.100653 0.379452
0.770471 0.102732 0.393306
0.781538 0.105726 0.409906
0.792491 0.108477 0.426702
0.802646 0.109519 0.444865
0.811655 0.110646 0.462356
0.815691 0.112143 0.476939
0.816342 0.113396 0.496876
0.806837 0.113917 0.532876
0.748304 0.117001 0.570667
0.581909 0.125724 0.612396
0.409581 0.166184 0.653270
0.227366 0.259537 0.692721
0.122278 0.339533 0.709614
0.116354 0.402355 0.697506
0.114141 0.451147 0.696334
0.115638 0.485910 0.706099
0.118270 0.515877 0.720038
0.121786 0.542112 0.737225
0.125952 0.571806 0.754086
0.130509 0.603575 0.770751
0.135380 0.630868 0.788446
0.140392 0.656127 0.806609
0.146186 0.676063 0.819108
0.152240 0.694226 0.829720
0.159934 0.712442 0.843187
0.168007 0.730670 0.857314
0.175624 0.743544 0.866599
0.183175 0.755652 0.875192
0.187919 0.763550 0.881893
0.192476 0.771166 0.888468
0.785419 0.105698 0.418251
0.794533 0.107716 0.431401
0.803672 0.109795 0.444702
0.813176 0.112790 0.460261
0.822437 0.115475 0.476145
0.829988 0.115996 0.494308
0.836783 0.116700 0.511605
0.840299 0.118197 0.525145
0.840038 0.119450 0.542088
0.828450 0.119971 0.569234
0.783621 0.122079 0.597683
0.665660 0.127677 0.628996
0.503683 0.167746 0.667267
0.268346 0.265266 0.717133
0.131327 0.352390 0.740797
0.120716 0.426149 0.730772
0.116419 0.478847 0.725173
0.118437 0.510486 0.724001
0.121298 0.539085 0.733156
0.124813 0.565320 0.750343
0.128979 0.594363 0.767529
0.133536 0.625090 0.784715
0.139123 0.650626 0.801141
0.145177 0.673801 0.817221
0.152013 0.692827 0.829199
0.159108 0.710469 0.839810
0.166575 0.726471 0.852855
0.174126 0.742095 0.866461
0.181678 0.753732 0.874769
0.189229 0.764799 0.882321
0.194462 0.772143 0.887492
0.199540 0.779239 0.892505
0.815691 0.113770 0.472740
0.826888 0.115788 0.487973
0.837654 0.117737 0.502902
0.841950 0.118649 0.513252
0.846524 0.119642 0.524580
0.853034 0.121204 0.542743
0.858787 0.122559 0.559062
0.861261 0.123015 0.567395
0.860480 0.123747 0.578869
0.849933 0.125309 0.599766
0.807773 0.129110 0.624569
0.696061 0.137833 0.657966
0.532522 0.183370 0.695585
0.282603 0.290265 0.740244
0.136926 0.385396 0.762801
0.125273 0.465404 0.756942
0.120455 0.516540 0.748219
0.122473 0.538804 0.736631
0.124748 0.563302 0.742400
0.127222 0.589537 0.761670
0.131648 0.616627 0.780940
0.137247 0.644230 0.800209
0.143159 0.667356 0.814421
0.149213 0.688449 0.826335
0.157611 0.706172 0.838053
0.166790 0.722773 0.849705
0.173801 0.737733 0.862099
0.180311 0.752316 0.874663
0.186821 0.762000 0.881930
0.193331 0.770983 0.888440
0.200451 0.780150 0.891593
0.207612 0.789329 0.894523
0.839151 0.118437 0.518147
0.849502 0.121041 0.534292
0.859296 0.123482 0.549822
0.860728 0.123482 0.556137
0.862591 0.123662 0.563567
0.867474 0.125094 0.578800
0.871819 0.126587 0.592532
0.873837 0.128345 0.599758
0.873561 0.130167 0.608986
0.866400 0.132186 0.624219
0.835843 0.136360 0.644315
0.753817 0.145279 0.675107
0.609954 0.185885 0.709146
0.363030 0.279303 0.748597
0.201920 0.372921 0.772354
0.151142 0.466795 0.775935
0.126469 0.531017 0.771703
0.127901 0.565585 0.759660
0.129663 0.592829 0.762447
0.131681 0.614377 0.776769
0.136222 0.637756 0.793654
0.142276 0.662234 0.812078
0.148733 0.683757 0.825578
0.155373 0.703938 0.836840
0.163283 0.719774 0.847419
0.171616 0.734161 0.857770
0.179049 0.747861 0.869549
0.186275 0.761401 0.881657
0.192476 0.770670 0.887443
0.198531 0.779328 0.892326
0.205378 0.788231 0.893973
0.212279 0.797149 0.895406
0.857314 0.120455 0.556491
0.864540 0.124101 0.572636
0.871339 0.127519 0.587971
0.871730 0.127519 0.591161
0.872421 0.127568 0.595205
0.875221 0.127958 0.605231
0.877873 0.129191 0.615122
0.879892 0.134073 0.624431
0.880917 0.138240 0.633919
0.878964 0.140258 0.643945
0.866961 0.143781 0.658507
0.832849 0.150617 0.683049
0.725181 0.178203 0.711230
0.494923 0.240374 0.745472
0.313111 0.325073 0.772224
0.193587 0.438737 0.789346
0.134021 0.527436 0.795530
0.134411 0.591169 0.790778
0.135717 0.626486 0.790896
0.137735 0.639701 0.794802
0.142276 0.658002 0.805828
0.148330 0.679355 0.821127
0.155504 0.699902 0.835082
0.163185 0.720083 0.848428
0.169012 0.733575 0.857184
0.174220 0.744838 0.864410
0.182760 0.757105 0.875603
0.192069 0.769604 0.887712
0.198531 0.779654 0.891675
0.204585 0.789354 0.894474
0.209480 0.796368 0.895015
0.214297 0.803204 0.895406
0.869170 0.126257 0.589790
0.873272 0.128992 0.602028
0.877239 0.131677 0.613832
0.879192 0.133630 0.619105
0.881071 0.135339 0.624484
0.882439 0.135339 0.630603
0.883806 0.136230 0.637345
0.885173 0.140982 0.646785
0.886198 0.145051 0.655557
0.886198 0.147069 0.662327
0.882984 0.150348 0.672495
0.872698 0.156403 0.690137
0.806434 0.174468 0.712296
0.646874 0.212551 0.741981
0.491558 0.279259 0.768676
0.341698 0.382768 0.791526
0.235520 0.485528 0.806174
0.173024 0.587540 0.812619
0.146084 0.643338 0.815438
0.146800 0.663194 0.815438
0.150039 0.680812 0.822233
0.154792 0.697087 0.833105
0.161379 0.714704 0.844872
0.168800 0.732932 0.857045
0.174659 0.744569 0.865118
0.179997 0.754008 0.871823
0.188139 0.765088 0.880803
0.196927 0.776545 0.890308
0.203324 0.786807 0.893831
0.209378 0.796897 0.896500
0.214761 0.803204 0.896667
0.220099 0.809258 0.896667
0.877243 0.134330 0.620061
0.878219 0.134981 0.626050
0.879452 0.135908 0.632320
0.884530 0.140986 0.642801
0.889014 0.145429 0.652347
0.889339 0.145429 0.655341
0.889665 0.145930 0.659349
0.889990 0.148599 0.667747
0.890234 0.151105 0.675217
0.890234 0.153123 0.679904
0.889949 0.156403 0.686361
0.889038 0.162457 0.696712
0.867303 0.173101 0.712751
0.810861 0.191394 0.738271
0.710359 0.234665 0.763078
0.553208 0.310051 0.786969
0.393387 0.420623 0.808908
0.230897 0.566382 0.828894
0.159039 0.650109 0.837638
0.157672 0.685588 0.837638
0.158828 0.705159 0.841177
0.161497 0.715184 0.846841
0.166717 0.728701 0.854832
0.173097 0.743804 0.863881
0.180258 0.753878 0.871953
0.187679 0.762276 0.879700
0.194519 0.772314 0.885490
0.201224 0.782730 0.890828
0.207360 0.792861 0.894742
0.213414 0.802951 0.898453
0.220750 0.809258 0.898685
0.228171 0.815312 0.898685
0.883928 0.142402 0.646170
0.884644 0.143834 0.650923
0.885559 0.145421 0.656000
0.889465 0.149327 0.665961
0.892883 0.152924 0.674928
0.892883 0.154356 0.676946
0.893017 0.156167 0.679831
0.893733 0.159617 0.686471
0.894091 0.162709 0.692281
0.893375 0.164727 0.695602
0.893290 0.168007 0.700407
0.894592 0.174061 0.708479
0.883639 0.184803 0.723680
0.852261 0.203356 0.750762
0.751388 0.253267 0.775963
0.561166 0.343496 0.798748
0.388879 0.458300 0.819743
0.234527 0.597679 0.838948
0.166668 0.676930 0.848961
0.166082 0.709415 0.851825
0.167571 0.726195 0.855422
0.170306 0.733551 0.859458
0.174830 0.743592 0.865285
0.180168 0.754855 0.871925
0.186483 0.762651 0.878565
0.193123 0.769291 0.885205
0.199869 0.779898 0.889148
0.206640 0.791421 0.892468
0.213410 0.800437 0.895788
0.220180 0.809095 0.899108
0.230185 0.815312 0.899987
0.240406 0.821367 0.900703
0.889982 0.150475 0.670388
0.891740 0.153990 0.676181
0.893436 0.157334 0.682040
0.894218 0.158116 0.688876
0.894901 0.159239 0.695109
0.894901 0.162754 0.697127
0.895231 0.166648 0.699622
0.896988 0.172181 0.704179
0.897867 0.176836 0.708166
0.896110 0.178854 0.710444
0.894983 0.182134 0.714533
0.895243 0.188188 0.722606
0.879733 0.202445 0.739369
0.837939 0.230373 0.770617
0.711612 0.300595 0.797251
0.476601 0.425197 0.817953
0.310564 0.542604 0.834260
0.213500 0.652819 0.846174
0.171876 0.712865 0.855341
0.173373 0.733893 0.862371
0.176295 0.745725 0.867531
0.180071 0.752039 0.871567
0.184205 0.758891 0.875961
0.188501 0.765987 0.880518
0.192993 0.771179 0.885075
0.197550 0.775736 0.889632
0.204752 0.787645 0.892338
0.212564 0.801251 0.894616
0.220376 0.808705 0.896895
0.228188 0.815280 0.899173
0.241187 0.821367 0.900964
0.254533 0.827421 0.902721
0.893009 0.160061 0.687037
0.894246 0.163316 0.692310
0.895454 0.166562 0.697534
0.896236 0.169687 0.702026
0.896919 0.173024 0.706209
0.896919 0.177841 0.708227
0.897151 0.183037 0.710477
0.898388 0.189872 0.713732
0.899007 0.195699 0.716678
0.897770 0.198498 0.718696
0.896675 0.202315 0.722362
0.895894 0.208369 0.729653
0.885494 0.219989 0.744561
0.859064 0.240886 0.772163
0.767582 0.297584 0.797544
0.592463 0.400312 0.820069
0.436581 0.509387 0.837939
0.299936 0.624809 0.851154
0.224591 0.697388 0.861037
0.196923 0.736643 0.868328
0.188094 0.756124 0.874561
0.190568 0.763741 0.880160
0.194116 0.770821 0.884147
0.198152 0.777656 0.887402
0.201017 0.782392 0.890072
0.203490 0.786428 0.892545
0.210513 0.797394 0.894649
0.218585 0.809958 0.896667
0.228708 0.816142 0.898685
0.239124 0.821415 0.900703
0.254484 0.828153 0.902721
0.270173 0.834989 0.904739
0.895027 0.170151 0.701164
0.895223 0.172364 0.705395
0.895520 0.174895 0.709513
0.897342 0.182186 0.711921
0.898937 0.189299 0.714281
0.898937 0.195158 0.716299
0.898974 0.201395 0.718354
0.899169 0.209272 0.720567
0.899267 0.216140 0.722732
0.899072 0.219981 0.724750
0.898368 0.224514 0.728091
0.896545 0.230568 0.734340
0.894478 0.237501 0.746253
0.892004 0.245899 0.767606
0.855467 0.277794 0.790839
0.775133 0.339899 0.816488
0.630709 0.436996 0.838004
0.422194 0.569084 0.855385
0.293141 0.664773 0.866505
0.225893 0.732151 0.872755
0.200919 0.763481 0.879900
0.201310 0.773180 0.887581
0.204206 0.781627 0.891504
0.208243 0.789504 0.893717
0.209545 0.794501 0.894563
0.209935 0.798537 0.894954
0.216567 0.807810 0.896667
0.224640 0.818291 0.898685
0.237497 0.823303 0.900703
0.251038 0.827535 0.902721
0.268546 0.835184 0.904739
0.286318 0.843061 0.906757
0.895406 0.188440 0.712011
0.896252 0.192997 0.715201
0.897066 0.197668 0.718265
0.897391 0.204048 0.719436
0.897676 0.210493 0.720820
0.897676 0.217393 0.723684
0.897835 0.224672 0.726707
0.898681 0.233591 0.730418
0.899316 0.241501 0.733917
0.899316 0.246383 0.736781
0.898950 0.251896 0.740378
0.897778 0.258797 0.745586
0.897485 0.266332 0.753553
0.898657 0.274925 0.766117
0.883793 0.294712 0.783181
0.848314 0.328889 0.806032
0.754700 0.397928 0.828231
0.602952 0.501827 0.849779
0.452669 0.604335 0.866420
0.303525 0.705761 0.879245
0.236488 0.758037 0.888041
0.218716 0.780822 0.894421
0.214773 0.793492 0.896639
0.217117 0.801564 0.896964
0.220876 0.806609 0.897680
0.225108 0.810645 0.898526
0.232460 0.817538 0.900325
0.240532 0.825090 0.902343
0.253902 0.830306 0.903620
0.268029 0.835188 0.904792
0.288320 0.840681 0.905964
0.309022 0.846214 0.907136
0.895406 0.208621 0.722101
0.897294 0.216303 0.724250
0.898954 0.223773 0.726272
0.897196 0.228070 0.726402
0.895658 0.232822 0.727004
0.895658 0.240764 0.730910
0.896012 0.249085 0.735170
0.897900 0.259045 0.740964
0.899316 0.267996 0.746286
0.899316 0.273920 0.750192
0.899275 0.280475 0.754179
0.899145 0.288417 0.758346
0.899112 0.297776 0.762146
0.899243 0.309494 0.765336
0.898376 0.320101 0.775304
0.896228 0.329280 0.793988
0.862506 0.366550 0.816187
0.797210 0.431910 0.841902
0.633191 0.537478 0.865053
0.392386 0.674318 0.886210
0.277306 0.749639 0.896830
0.237660 0.788048 0.901126
