其他预设/【236】赛博朋克风调色预设/【后期菌】视频调色预设/CUBE/Glitch 07.cube
# LUT by SparkleStock. Enhanced with VOXCOLOR algorithms.
LUT_3D_SIZE 8
DOMAIN_MIN 0.000000 0.000000 0.000000
DOMAIN_MAX 0.903226 0.903226 0.903226
0.023460 0.054741 0.062561
0.041749 0.062813 0.089049
0.035191 0.071390 0.095860
0.035947 0.088292 0.146060
0.038092 0.131176 0.253650
0.027497 0.197522 0.413458
0.019550 0.305742 0.576798
0.030902 0.457983 0.728912
0.067102 0.066723 0.090941
0.095888 0.066959 0.112765
0.035036 0.088137 0.196118
0.045708 0.125492 0.234401
0.037587 0.188387 0.385335
0.027370 0.287823 0.548175
0.028563 0.418939 0.693303
0.060645 0.590205 0.803366
0.337527 0.069877 0.126257
0.464855 0.069657 0.150768
0.373222 0.080667 0.355678
0.034434 0.173837 0.391556
0.026117 0.267431 0.517907
0.027354 0.397838 0.674314
0.047173 0.557545 0.784605
0.102569 0.693872 0.864577
0.646423 0.064831 0.233343
0.676946 0.074670 0.280565
0.653502 0.092597 0.369744
0.038730 0.247262 0.632145
0.021707 0.364702 0.647729
0.041489 0.524100 0.764986
0.086738 0.663117 0.847268
0.159019 0.777603 0.902380
0.725507 0.102923 0.385835
0.742282 0.125692 0.436292
0.743808 0.141275 0.484336
0.476650 0.209093 0.636629
0.041245 0.500635 0.776391
0.077087 0.635356 0.833654
0.145189 0.758781 0.898962
0.221283 0.844119 0.937281
0.755905 0.163971 0.535175
0.758553 0.183818 0.563103
0.758553 0.207470 0.598981
0.700476 0.237237 0.642850
0.237407 0.576717 0.855727
0.135518 0.741241 0.885242
0.204048 0.829455 0.930124
0.263045 0.876982 0.941757
0.758553 0.229559 0.624476
0.760067 0.250554 0.647362
0.767004 0.282111 0.666408
0.758578 0.312899 0.700077
0.472935 0.619093 0.869707
0.233314 0.841356 0.936256
0.259802 0.873593 0.943254
0.304135 0.893693 0.942326
0.775581 0.321887 0.696244
0.778091 0.354164 0.716552
0.786001 0.394819 0.738775
0.791978 0.441386 0.756446
0.790993 0.499012 0.794891
0.505180 0.796380 0.921735
0.333227 0.897603 0.942326
0.367632 0.905789 0.943502
0.040110 0.058903 0.071138
0.054619 0.063049 0.100075
0.034971 0.071895 0.105722
0.037616 0.097626 0.157257
0.038848 0.138488 0.281212
0.031065 0.216144 0.439063
0.018977 0.327465 0.604702
0.036578 0.478668 0.740138
0.078844 0.063538 0.095323
0.273128 0.073550 0.121057
0.378326 0.078567 0.272470
0.042104 0.169665 0.343262
0.030320 0.261723 0.511465
0.030192 0.390710 0.671359
0.043776 0.535196 0.771306
0.096101 0.679122 0.852993
0.391731 0.069657 0.134867
0.605788 0.063700 0.200439
0.560415 0.088256 0.344892
0.025677 0.237704 0.579199
0.031821 0.368625 0.647778
0.037017 0.503150 0.755008
0.079373 0.648259 0.839473
0.148467 0.767484 0.899619
0.668467 0.072546 0.260054
0.720585 0.098610 0.362517
0.720754 0.116042 0.428471
0.119083 0.271643 0.694499
0.033868 0.474988 0.738355
0.064503 0.620704 0.815063
0.135462 0.745119 0.888570
0.211398 0.837156 0.932998
0.733701 0.116863 0.413967
0.755664 0.159861 0.523022
0.755726 0.175405 0.551016
0.641657 0.213336 0.619292
0.080400 0.598295 0.849282
0.118825 0.720848 0.874919
0.196946 0.820413 0.923561
0.260511 0.875978 0.942326
0.758553 0.179611 0.557211
0.759809 0.216906 0.610372
0.762282 0.243489 0.636645
0.744675 0.269400 0.670046
0.369703 0.586785 0.857535
0.188016 0.808019 0.917579
0.249216 0.865400 0.940776
0.299915 0.893245 0.942233
0.760795 0.238990 0.634383
0.767219 0.296390 0.679285
0.771289 0.326896 0.697985
0.781820 0.372491 0.727962
0.657869 0.556631 0.836323
0.287349 0.859600 0.939500
0.294827 0.890317 0.943701
0.349053 0.899603 0.942141
0.773929 0.329947 0.698515
0.789854 0.420911 0.748608
0.796461 0.464207 0.764625
0.806910 0.514227 0.775673
0.813430 0.570997 0.806927
0.633217 0.780626 0.909919
0.391062 0.901175 0.940393
0.438334 0.913136 0.938442
0.070507 0.063066 0.090941
0.115959 0.067195 0.103867
0.025523 0.080858 0.340082
0.040362 0.102040 0.173752
0.041497 0.149095 0.303350
0.031407 0.232623 0.466092
0.024469 0.352789 0.633305
0.042205 0.508691 0.754818
0.184095 0.070381 0.111313
0.479394 0.065985 0.151868
0.427785 0.077573 0.303315
0.036015 0.177432 0.402493
0.032228 0.282451 0.534743
0.028895 0.407161 0.689109
0.046844 0.559527 0.783015
0.104031 0.693725 0.862976
0.445325 0.066406 0.145543
0.631377 0.065999 0.226357
0.666540 0.094536 0.365671
0.055328 0.306386 0.692337
0.032892 0.457558 0.729549
0.060275 0.613805 0.810196
0.124352 0.730110 0.877838
0.199596 0.825155 0.924141
0.676287 0.073856 0.277627
0.725232 0.104241 0.381467
0.749480 0.143559 0.488211
0.538834 0.204877 0.620904
0.067492 0.587844 0.830554
0.112253 0.710157 0.870998
0.190194 0.813693 0.919987
0.253630 0.870311 0.940597
0.735329 0.117794 0.420253
0.756190 0.165086 0.538639
0.759009 0.203313 0.591790
0.737713 0.231426 0.637855
0.252017 0.569951 0.852899
0.173178 0.795593 0.908675
0.241066 0.858321 0.936783
0.296561 0.891200 0.941822
0.758553 0.180620 0.557032
0.758936 0.224417 0.617113
0.764070 0.279687 0.667007
0.771365 0.313455 0.692099
0.628062 0.480594 0.806068
0.239012 0.831887 0.930523
0.286928 0.888993 0.943336
0.342190 0.896524 0.940707
0.759058 0.243812 0.636206
0.769079 0.309953 0.687236
0.785497 0.397681 0.739072
0.794176 0.440490 0.758204
0.790179 0.504737 0.798974
0.527549 0.789672 0.916819
0.335829 0.894245 0.939490
0.406925 0.904619 0.935437
0.775809 0.345473 0.711734
0.792564 0.442526 0.756322
0.813552 0.545395 0.783911
0.824100 0.589488 0.796821
0.833679 0.633488 0.815407
0.732961 0.777162 0.901949
0.475342 0.905824 0.931302
0.541962 0.905940 0.925192
0.187305 0.070381 0.110995
0.310848 0.069624 0.123784
0.245244 0.073742 0.272651
0.042864 0.110430 0.196708
0.036004 0.157286 0.319433
0.024579 0.249597 0.491887
0.022577 0.371208 0.654666
0.044362 0.530146 0.769527
0.416298 0.069421 0.141442
0.619626 0.064615 0.212032
0.620461 0.075810 0.294757
0.036473 0.189851 0.595363
0.030519 0.298373 0.563562
0.027626 0.425194 0.700017
0.057673 0.589457 0.802775
0.114409 0.714631 0.875243
0.595356 0.063163 0.191760
0.693084 0.080298 0.304059
0.737174 0.116629 0.421178
0.515867 0.177211 0.579692
0.038466 0.485873 0.772165
0.070636 0.630997 0.826956
0.138053 0.751384 0.887754
0.213958 0.837294 0.931580
0.685841 0.079296 0.288637
0.731505 0.111465 0.402882
0.754940 0.157584 0.516409
0.658721 0.220437 0.626395
0.168944 0.610740 0.861731
0.162477 0.781167 0.903458
0.234356 0.854942 0.935499
0.286483 0.887129 0.938082
0.743601 0.127140 0.439177
0.756365 0.171578 0.544628
0.760786 0.216771 0.612055
0.761197 0.265819 0.660370
0.527497 0.488716 0.808320
0.227860 0.843732 0.933876
0.280999 0.884152 0.937391
0.333567 0.894312 0.937353
0.758553 0.188936 0.575663
0.760771 0.233829 0.625648
0.766810 0.292894 0.678845
0.780919 0.373329 0.726216
0.761793 0.445589 0.780720
0.338241 0.824453 0.932055
0.323748 0.894090 0.938322
0.397172 0.902221 0.934510
0.758846 0.249695 0.646252
0.773785 0.323541 0.697237
0.788223 0.414485 0.744803
0.808961 0.521568 0.779014
0.808121 0.574888 0.808051
0.629283 0.788285 0.911936
0.395675 0.901804 0.937142
0.496746 0.903100 0.923012
0.778067 0.352537 0.713703
0.795843 0.457656 0.760805
0.819732 0.568499 0.792410
0.842010 0.657318 0.816681
0.845894 0.686275 0.824360
0.825113 0.745167 0.871045
0.611298 0.895194 0.917060
0.651342 0.901802 0.910742
0.397818 0.069372 0.135087
0.521923 0.065462 0.163849
0.493792 0.071887 0.270857
0.027920 0.135327 0.352016
0.033173 0.171994 0.356333
0.023481 0.261165 0.516349
0.024974 0.392268 0.673516
0.048105 0.553533 0.787535
0.596593 0.062691 0.194946
0.690117 0.077514 0.297007
0.712845 0.095639 0.351730
0.340254 0.161838 0.564972
0.023247 0.321179 0.604588
0.028845 0.449091 0.716410
0.063710 0.607072 0.811672
0.127766 0.733066 0.882580
0.677703 0.074922 0.281525
0.726688 0.107065 0.390779
0.752621 0.151069 0.503893
0.607864 0.181001 0.588070
0.056909 0.518101 0.818933
0.079371 0.650719 0.836515
0.149728 0.766032 0.897312
0.224827 0.846500 0.935355
0.721035 0.099334 0.364475
0.752503 0.144422 0.481620
0.758928 0.186718 0.570690
0.724426 0.229002 0.637349
0.272338 0.574935 0.854755
0.182247 0.800245 0.915391
0.246401 0.862399 0.937200
0.298949 0.889775 0.939979
0.746034 0.135795 0.463923
0.756540 0.175502 0.552483
0.758746 0.222076 0.616471
0.762429 0.275492 0.664324
0.682414 0.447442 0.784492
0.295745 0.840472 0.932717
0.313859 0.889349 0.936638
0.386586 0.899918 0.934108
0.759489 0.193192 0.577946
0.759791 0.240771 0.631765
0.770680 0.303724 0.683644
0.783533 0.388297 0.732668
0.790334 0.499785 0.793268
0.539026 0.783670 0.910918
0.377503 0.898762 0.935768
0.488789 0.898747 0.921197
0.764091 0.266149 0.654747
0.775784 0.334490 0.702164
0.791454 0.428004 0.751175
0.811837 0.539853 0.785490
0.832095 0.630933 0.807427
0.803075 0.702231 0.863897
0.532219 0.885827 0.920919
0.622571 0.896964 0.906164
0.782364 0.372311 0.726487
0.799054 0.470014 0.765461
0.822594 0.580844 0.794453
0.842504 0.668030 0.819831
0.860696 0.736531 0.836914
0.856986 0.764464 0.855485
0.769743 0.865419 0.894713
0.739456 0.899241 0.903362
0.583105 0.063822 0.187179
0.638729 0.065255 0.226117
0.608754 0.080057 0.329992
0.074365 0.169325 0.501225
0.023481 0.227939 0.466275
0.017841 0.285488 0.544838
0.026976 0.413332 0.689592
0.054363 0.576420 0.798285
0.676360 0.071012 0.269290
0.740465 0.098003 0.330460
0.748483 0.114793 0.389471
0.562620 0.147316 0.473916
0.029462 0.410295 0.728411
0.034723 0.485269 0.743773
0.075048 0.632643 0.831478
0.138968 0.748406 0.894482
0.717093 0.098960 0.356951
0.747456 0.138421 0.477540
0.767890 0.169171 0.499293
0.721141 0.188504 0.563433
0.195847 0.516485 0.823291
0.097928 0.681595 0.856476
0.164770 0.784559 0.908306
0.234779 0.854674 0.937550
0.743796 0.130798 0.450911
0.758553 0.172922 0.546456
0.759254 0.214368 0.604406
0.765114 0.265898 0.651376
0.657413 0.380646 0.736612
0.214969 0.787750 0.915046
0.256635 0.870993 0.941157
0.307346 0.892632 0.941671
0.756588 0.165810 0.534638
0.758658 0.208029 0.601085
0.761054 0.259258 0.652687
0.772661 0.326488 0.698069
0.770725 0.446951 0.773574
0.387657 0.807947 0.922555
0.329059 0.895069 0.940630
0.408113 0.903430 0.935655
0.758553 0.206770 0.598953
0.759948 0.250456 0.644551
0.771144 0.315644 0.691706
0.787634 0.410450 0.743486
0.807616 0.520574 0.780284
0.742277 0.690525 0.864728
0.451390 0.902194 0.928723
0.596963 0.895825 0.908629
0.763440 0.273925 0.661416
0.777116 0.346149 0.711021
0.793890 0.444482 0.756317
0.815460 0.557324 0.788715
0.836588 0.649853 0.812973
0.835119 0.720149 0.851253
0.706076 0.862998 0.898660
0.719028 0.896417 0.898928
0.784093 0.385396 0.731500
0.804550 0.495179 0.771390
0.824829 0.592540 0.795989
0.844294 0.676206 0.820602
0.862087 0.748659 0.840470
0.870474 0.797354 0.859167
0.818438 0.865345 0.894372
0.794945 0.901050 0.899855
0.666856 0.070381 0.255416
0.701933 0.082897 0.291929
0.761772 0.086721 0.169708
0.627320 0.110804 0.142325
0.092556 0.280439 0.278974
0.023888 0.374720 0.637602
0.030784 0.449178 0.719766
0.060722 0.600385 0.808754
0.713663 0.090155 0.341006
0.637811 0.130320 0.068569
0.674688 0.150251 0.066138
0.573073 0.204930 0.070845
0.129473 0.454075 0.437961
0.073321 0.582315 0.662950
0.084575 0.659870 0.843010
0.150658 0.766492 0.901741
0.750904 0.123621 0.423516
0.768403 0.151063 0.439190
0.783340 0.219502 0.126242
0.793828 0.263093 0.128346
0.733094 0.347636 0.240771
0.204699 0.690175 0.568141
0.175537 0.803699 0.912187
0.243054 0.862092 0.939226
0.757333 0.163926 0.530882
0.767967 0.191938 0.540393
0.808049 0.242553 0.371734
0.840308 0.345286 0.288713
0.828086 0.459722 0.316513
0.334361 0.781853 0.714628
0.261439 0.877275 0.936228
0.315908 0.894706 0.940793
0.758553 0.196993 0.586840
0.760769 0.245617 0.638903
0.774661 0.301500 0.658515
0.831928 0.406505 0.503987
0.853766 0.560650 0.464257
0.550998 0.803287 0.696954
0.350412 0.903916 0.898631
0.422057 0.904570 0.932437
0.760665 0.235910 0.630339
0.767998 0.292070 0.678281
0.783666 0.378046 0.727016
0.803752 0.482951 0.758013
0.838050 0.593171 0.748326
0.865801 0.710418 0.650301
0.545630 0.898735 0.860895
0.620381 0.902795 0.911529
0.767346 0.285317 0.672324
0.780144 0.365949 0.722581
0.799578 0.468588 0.764388
0.821997 0.577350 0.789748
0.843600 0.665546 0.813201
0.868589 0.743872 0.783684
0.746086 0.876676 0.885906
0.741465 0.913640 0.902420
0.787311 0.403673 0.741399
0.806042 0.505554 0.772894
0.829649 0.610765 0.802252
0.846040 0.688439 0.823478
0.865868 0.761913 0.843091
0.877748 0.809107 0.852396
0.884316 0.858283 0.849912
0.832553 0.913358 0.887822
0.717939 0.089553 0.324536
0.768326 0.095046 0.142797
0.300237 0.162933 0.066520
0.286009 0.205057 0.065047
0.290261 0.245988 0.062008
0.224322 0.407672 0.129191
0.111732 0.543471 0.477932
0.069246 0.629952 0.820988
0.771036 0.104514 0.269107
0.355781 0.236193 0.062569
0.399648 0.286486 0.062017
0.444001 0.325355 0.058391
0.472382 0.379265 0.053961
0.445096 0.478458 0.062877
0.175657 0.696427 0.598473
0.161608 0.784233 0.902931
0.766117 0.139196 0.117880
0.721355 0.223300 0.071150
0.619861 0.420941 0.060561
0.658946 0.471691 0.058972
0.710643 0.506987 0.060938
0.659147 0.601162 0.072501
0.276605 0.788469 0.577208
0.230536 0.860357 0.909093
0.767382 0.181214 0.522090
0.791150 0.257944 0.145059
0.776686 0.456155 0.062978
0.802557 0.592152 0.069214
0.827477 0.627696 0.075992
0.783257 0.704490 0.110473
0.459592 0.840756 0.544780
0.334818 0.898525 0.854327
0.766394 0.224066 0.597382
0.785592 0.276933 0.576585
0.861681 0.414211 0.257444
0.865994 0.630160 0.086853
0.897761 0.701653 0.113343
0.889000 0.761436 0.142396
0.776460 0.842674 0.355704
0.483341 0.916848 0.834607
0.762150 0.275914 0.665212
0.782576 0.348660 0.684524
0.847211 0.467761 0.547782
0.896055 0.604014 0.357316
0.936724 0.722962 0.200848
0.949960 0.791168 0.203449
0.916858 0.848799 0.299753
0.627580 0.929671 0.822673
0.777473 0.343581 0.707796
0.791771 0.433999 0.754993
0.816806 0.543556 0.767347
0.881340 0.656654 0.599751
0.910512 0.739285 0.580242
0.958504 0.815824 0.370461
0.951178 0.885361 0.396271
0.870190 0.924336 0.626419
0.790216 0.421714 0.750530
0.808599 0.530676 0.782007
0.834000 0.631258 0.806930
0.857783 0.709461 0.811001
0.889522 0.781918 0.769327
0.906486 0.831732 0.761733
0.957616 0.888550 0.543299
0.948604 0.926216 0.614482
