其他预设/【236】赛博朋克风调色预设/【后期菌】视频调色预设/CUBE/Glitch 04.cube
# LUT by SparkleStock. Enhanced with VOXCOLOR algorithms.
LUT_3D_SIZE 32
0.000000 0.000000 0.003910
0.024217 0.002018 0.024091
0.048056 0.004162 0.044650
0.066219 0.008199 0.070886
0.080346 0.018037 0.109986
0.066219 0.068489 0.239145
0.052092 0.109482 0.326302
0.037966 0.109482 0.231451
0.028884 0.115032 0.167881
0.034938 0.137231 0.198152
0.040362 0.159430 0.229685
0.044398 0.181629 0.263993
0.049948 0.202315 0.294516
0.058020 0.220477 0.318734
0.063444 0.242172 0.346483
0.065462 0.268407 0.378772
0.067480 0.290606 0.408035
0.069498 0.308769 0.434270
0.072652 0.325797 0.465046
0.076688 0.341942 0.499354
0.080724 0.364393 0.536184
0.084760 0.390628 0.574528
0.084634 0.414089 0.603160
0.082616 0.436288 0.627377
0.083625 0.463028 0.650080
0.085643 0.491281 0.672280
0.089301 0.521174 0.694479
0.093337 0.551446 0.716678
0.095607 0.572888 0.733579
0.097626 0.593069 0.749724
0.101536 0.609466 0.763977
0.105572 0.625611 0.778104
0.034308 0.002018 0.032163
0.050192 0.004036 0.049220
0.066414 0.006246 0.067045
0.087702 0.011323 0.096405
0.104823 0.020641 0.137719
0.092780 0.059636 0.262711
0.078197 0.095225 0.348436
0.052613 0.116057 0.264001
0.034678 0.136450 0.206420
0.039691 0.155524 0.229400
0.045049 0.176226 0.255920
0.051169 0.200508 0.290228
0.056849 0.223277 0.321142
0.061796 0.243523 0.346401
0.066374 0.264566 0.373825
0.070475 0.286635 0.404031
0.074055 0.307793 0.435897
0.077115 0.328039 0.469424
0.080138 0.345978 0.501046
0.083133 0.362123 0.531187
0.085476 0.385876 0.563200
0.087429 0.414195 0.596336
0.086652 0.439738 0.624057
0.084634 0.464021 0.649315
0.085643 0.488156 0.669936
0.087661 0.512243 0.689010
0.091319 0.539663 0.708931
0.095355 0.567851 0.729047
0.098537 0.589944 0.745688
0.101597 0.611167 0.761833
0.104595 0.626653 0.774133
0.107590 0.641756 0.786176
0.068615 0.004541 0.061426
0.076948 0.006559 0.075357
0.086262 0.008817 0.090412
0.110283 0.014676 0.122311
0.129919 0.023367 0.165382
0.118852 0.051881 0.286664
0.103074 0.082616 0.371277
0.066878 0.122978 0.296998
0.040724 0.157334 0.245179
0.044695 0.173675 0.260738
0.049907 0.193127 0.282135
0.057849 0.219428 0.316378
0.063595 0.244092 0.347520
0.065678 0.266031 0.373495
0.069441 0.286375 0.400638
0.075365 0.304668 0.429282
0.080313 0.324882 0.463687
0.084284 0.347016 0.503854
0.087120 0.365817 0.536184
0.089073 0.382027 0.562419
0.089846 0.407066 0.589794
0.089911 0.437403 0.617852
0.088544 0.464875 0.644478
0.086526 0.491045 0.670453
0.087535 0.512821 0.689153
0.089553 0.533132 0.705428
0.093317 0.558204 0.723289
0.097483 0.584374 0.741517
0.101536 0.606899 0.757866
0.105572 0.628903 0.773945
0.107655 0.643522 0.784288
0.109608 0.657648 0.794248
0.102923 0.014631 0.105824
0.115422 0.016649 0.116631
0.128446 0.018712 0.128365
0.149343 0.021446 0.154014
0.164292 0.027924 0.192008
0.137601 0.060604 0.316414
0.109519 0.094725 0.404739
0.075406 0.135087 0.336709
0.050554 0.170224 0.287233
0.053484 0.189689 0.293418
0.057329 0.211616 0.308045
0.063188 0.238958 0.341246
0.068021 0.262711 0.370175
0.071146 0.280483 0.391983
0.074584 0.299395 0.419517
0.078425 0.319771 0.454410
0.081810 0.340506 0.490378
0.084740 0.361598 0.527420
0.086534 0.380530 0.558383
0.087446 0.397781 0.584618
0.088479 0.423862 0.610040
0.089586 0.455240 0.634973
0.088544 0.482322 0.657758
0.086526 0.507450 0.679567
0.087535 0.530528 0.698787
0.089553 0.552923 0.717146
0.095009 0.577539 0.736244
0.101259 0.602667 0.755514
0.105572 0.622327 0.771081
0.109608 0.641206 0.786119
0.110715 0.655630 0.794444
0.111626 0.669757 0.802321
0.141772 0.024469 0.149466
0.158437 0.026357 0.157668
0.175229 0.028127 0.166546
0.193913 0.028127 0.185555
0.205736 0.032408 0.217267
0.169541 0.066650 0.337897
0.132710 0.102431 0.426572
0.093130 0.144876 0.376770
0.063363 0.182487 0.337548
0.063037 0.205598 0.330061
0.064115 0.230194 0.334760
0.068282 0.258056 0.366269
0.072351 0.280915 0.393066
0.076257 0.295432 0.412010
0.079337 0.313139 0.440096
0.081355 0.334948 0.479938
0.083308 0.356073 0.517012
0.085196 0.376514 0.551320
0.086095 0.395820 0.580794
0.086225 0.414243 0.606508
0.087372 0.441170 0.629863
0.089130 0.473200 0.651801
0.088560 0.500127 0.671502
0.086933 0.524734 0.690186
0.088040 0.548561 0.709602
0.090058 0.572127 0.729262
0.096889 0.596222 0.749134
0.104831 0.620440 0.769055
0.109242 0.637593 0.783678
0.113148 0.653738 0.797544
0.113880 0.668113 0.804575
0.114401 0.682370 0.811150
0.212405 0.032542 0.187809
0.233237 0.033388 0.197054
0.254195 0.034182 0.206322
0.277045 0.034182 0.215957
0.296681 0.036379 0.232956
0.293817 0.053956 0.301507
0.273131 0.079320 0.367005
0.175221 0.138431 0.419281
0.097019 0.190365 0.445679
0.077945 0.220766 0.394445
0.066459 0.249398 0.367115
0.071667 0.274136 0.392374
0.075996 0.296213 0.417608
0.078861 0.313855 0.442802
0.081355 0.331953 0.472581
0.083373 0.350637 0.508256
0.084805 0.371241 0.543247
0.085651 0.393765 0.577555
0.086681 0.415155 0.604685
0.087852 0.435661 0.626233
0.088088 0.462068 0.646724
0.087763 0.492014 0.666579
0.088691 0.520438 0.688493
0.090188 0.548170 0.711344
0.092076 0.568872 0.728676
0.094094 0.587230 0.744170
0.100079 0.610349 0.761568
0.106980 0.634566 0.779406
0.110349 0.651720 0.791946
0.113213 0.667865 0.803729
0.117786 0.683216 0.814535
0.122473 0.698515 0.825277
0.288336 0.039479 0.223126
0.313139 0.039674 0.233021
0.338129 0.039894 0.242461
0.365927 0.040480 0.245065
0.393155 0.041448 0.250379
0.416396 0.045094 0.274661
0.410268 0.060397 0.318900
0.276878 0.126213 0.449621
0.163425 0.186463 0.530020
0.109783 0.230015 0.459451
0.073880 0.267016 0.414557
0.077005 0.289605 0.426145
0.079642 0.311292 0.444373
0.081465 0.331473 0.473668
0.083287 0.350144 0.504102
0.085110 0.366875 0.536001
0.085924 0.387251 0.568421
0.085729 0.411273 0.601361
0.086778 0.434599 0.626319
0.088796 0.457384 0.645068
0.088536 0.483343 0.663572
0.086908 0.511206 0.681931
0.089175 0.540456 0.705301
0.093211 0.570337 0.730951
0.095880 0.588402 0.746298
0.098093 0.602529 0.758211
0.103269 0.624695 0.773404
0.109128 0.648717 0.789354
0.112139 0.666018 0.800689
0.114743 0.682358 0.811366
0.121924 0.698149 0.824727
0.129411 0.713903 0.838268
0.387223 0.041497 0.245325
0.415151 0.042734 0.254179
0.443591 0.044126 0.262837
0.479722 0.047836 0.268566
0.513590 0.051278 0.275312
0.531623 0.052841 0.289178
0.533177 0.059615 0.320463
0.463325 0.088975 0.427227
0.371745 0.131518 0.511271
0.214985 0.213609 0.527155
0.103306 0.277757 0.527375
0.090806 0.302430 0.493132
0.083287 0.325419 0.480763
0.084069 0.345600 0.504850
0.084850 0.365638 0.531444
0.085631 0.385494 0.561260
0.085403 0.406912 0.588992
0.084166 0.429892 0.614642
0.084760 0.454520 0.638167
0.086778 0.480430 0.660041
0.087820 0.506258 0.680368
0.088276 0.532038 0.699768
0.091193 0.559205 0.721316
0.095229 0.587003 0.743841
0.098679 0.604547 0.757626
0.101934 0.618674 0.768497
0.106459 0.639994 0.782648
0.111276 0.662974 0.797556
0.116891 0.681056 0.811496
0.122620 0.698437 0.825297
0.127067 0.712340 0.835925
0.131429 0.726011 0.846341
0.485605 0.044524 0.268029
0.515616 0.046803 0.275580
0.546173 0.049285 0.283181
0.584907 0.054818 0.291514
0.620566 0.059660 0.299855
0.634692 0.059660 0.308253
0.641715 0.060038 0.331823
0.617954 0.062057 0.421140
0.539785 0.091710 0.507267
0.298394 0.204268 0.583825
0.125033 0.289850 0.616318
0.101336 0.316085 0.551869
0.086526 0.340147 0.518277
0.086526 0.360589 0.536115
0.086298 0.381685 0.558053
0.085777 0.403624 0.585265
0.084899 0.426474 0.609482
0.083662 0.450236 0.630705
0.084109 0.475498 0.652733
0.085867 0.501929 0.675388
0.087625 0.527139 0.696008
0.089382 0.551617 0.715408
0.093065 0.577124 0.735524
0.097622 0.603099 0.755966
0.101593 0.620187 0.768644
0.105368 0.634314 0.778734
0.109567 0.654788 0.792104
0.113864 0.676727 0.806231
0.121237 0.695362 0.821896
0.129049 0.713524 0.837780
0.132161 0.726744 0.846829
0.134960 0.739634 0.855422
0.582474 0.050579 0.292246
0.611444 0.053899 0.297714
0.640112 0.057227 0.303427
0.664264 0.060677 0.312801
0.687163 0.063696 0.323226
0.701290 0.063696 0.340998
0.707141 0.064075 0.372575
0.677129 0.066093 0.463976
0.586982 0.097308 0.547499
0.316427 0.216116 0.607391
0.123666 0.305994 0.633635
0.102052 0.332230 0.585851
0.088544 0.356683 0.559160
0.088544 0.378166 0.567623
0.087405 0.399393 0.582466
0.084801 0.420290 0.605511
0.084443 0.445744 0.629729
0.086331 0.475755 0.655118
0.087559 0.499651 0.675453
0.088276 0.518790 0.691858
0.088992 0.541917 0.708182
0.089708 0.567436 0.724457
0.094497 0.592552 0.744313
0.101137 0.617486 0.765796
0.104848 0.634314 0.778734
0.107582 0.648441 0.788825
0.112432 0.668068 0.802195
0.117770 0.688965 0.816321
0.124361 0.707470 0.831075
0.131132 0.725633 0.845917
0.137109 0.741782 0.856854
0.143033 0.757796 0.867531
0.671775 0.056633 0.318355
0.697750 0.060344 0.323368
0.722903 0.063969 0.328698
0.735728 0.066312 0.338789
0.748471 0.068404 0.350319
0.760645 0.068729 0.371933
0.765385 0.069372 0.405374
0.737913 0.071390 0.490069
0.646610 0.100832 0.567652
0.363815 0.212543 0.623898
0.156781 0.301612 0.653047
0.116419 0.340868 0.622580
0.090827 0.373849 0.602708
0.089850 0.396374 0.600495
0.087820 0.417873 0.607367
0.084435 0.438054 0.625920
0.084597 0.464810 0.648835
0.088308 0.498141 0.676112
0.090115 0.521768 0.695223
0.090440 0.537848 0.707983
0.090766 0.559461 0.721597
0.091091 0.584395 0.735724
0.096519 0.608388 0.754729
0.104266 0.631954 0.775951
0.107716 0.648441 0.789069
0.109734 0.662567 0.799485
0.115296 0.681084 0.812387
0.121676 0.700614 0.825863
0.128056 0.719803 0.839908
0.134436 0.738942 0.854035
0.142097 0.756250 0.865659
0.149844 0.773437 0.877117
0.744427 0.062687 0.348627
0.763110 0.065356 0.356764
0.781167 0.068070 0.365024
0.789826 0.071455 0.375114
0.798142 0.074588 0.385604
0.804066 0.075955 0.398884
0.807830 0.077445 0.420672
0.802231 0.079463 0.479327
0.733583 0.099790 0.543630
0.475787 0.175046 0.624875
0.265759 0.252071 0.677068
0.160817 0.332991 0.665350
0.093691 0.392402 0.652119
0.089590 0.415969 0.636365
0.086713 0.438054 0.633342
0.085411 0.458235 0.646687
0.086095 0.483428 0.665436
0.088764 0.513635 0.689588
0.090701 0.539410 0.708504
0.092068 0.561740 0.723346
0.093435 0.583093 0.737742
0.094802 0.603859 0.751868
0.099839 0.625119 0.768725
0.106544 0.646602 0.786823
0.109734 0.662567 0.799941
0.111752 0.676694 0.811398
0.118161 0.693518 0.822803
0.125582 0.710965 0.834195
0.133003 0.732627 0.847980
0.140425 0.754891 0.862107
0.147175 0.769466 0.871778
0.153880 0.783527 0.881153
0.799672 0.068742 0.378141
0.812627 0.071150 0.389404
0.825126 0.073636 0.400617
0.830790 0.077282 0.411098
0.836144 0.080675 0.421620
0.839334 0.082303 0.432427
0.843220 0.083930 0.447908
0.850120 0.085558 0.483648
0.806569 0.097552 0.532620
0.611659 0.140649 0.621286
0.423341 0.205899 0.686150
0.249524 0.319889 0.698649
0.130709 0.401972 0.697526
0.103562 0.430877 0.673700
0.087779 0.456819 0.662490
0.086607 0.478953 0.667503
0.087031 0.503561 0.681109
0.089049 0.530642 0.703308
0.091286 0.556369 0.721882
0.093695 0.581042 0.737636
0.096104 0.602134 0.751885
0.098513 0.621078 0.765230
0.103159 0.640604 0.780769
0.108823 0.660395 0.797304
0.112045 0.675937 0.809933
0.114454 0.690064 0.821261
0.121782 0.707417 0.832535
0.130245 0.725515 0.843798
0.138024 0.747258 0.856883
0.145706 0.769523 0.870228
0.152961 0.781900 0.877532
0.160187 0.793618 0.884432
0.825907 0.074796 0.406395
0.835737 0.078246 0.420782
0.845242 0.081644 0.434990
0.849864 0.084248 0.446513
0.854698 0.086599 0.458857
0.861013 0.087185 0.476955
0.866851 0.087771 0.495041
0.870627 0.088357 0.513073
0.856240 0.093321 0.543296
0.787364 0.111419 0.610089
0.661933 0.165342 0.670331
0.412079 0.298081 0.716161
0.224648 0.396569 0.736261
0.141255 0.437972 0.713476
0.092466 0.473224 0.696928
0.088170 0.500566 0.688400
0.087031 0.526215 0.695235
0.089049 0.550172 0.717434
0.091872 0.572188 0.735422
0.095323 0.592695 0.750135
0.098773 0.613527 0.762691
0.102223 0.634554 0.773953
0.106479 0.654015 0.789557
0.111101 0.672764 0.807134
0.114845 0.688046 0.818462
0.118295 0.702173 0.827706
0.126664 0.723757 0.841129
0.136169 0.747063 0.855516
0.143167 0.764901 0.867169
0.149807 0.781957 0.878431
0.159926 0.793032 0.882675
0.170277 0.803708 0.886450
0.849494 0.080850 0.443477
0.856655 0.083975 0.459167
0.863649 0.087031 0.474717
0.868141 0.089049 0.488193
0.873080 0.090871 0.502531
0.881153 0.091327 0.522908
0.888090 0.091783 0.541404
0.890108 0.092239 0.551755
0.891443 0.094045 0.571318
0.890727 0.099904 0.618515
0.812175 0.142016 0.668866
0.562387 0.263883 0.726154
0.351682 0.367270 0.757735
0.206119 0.439856 0.746473
0.116008 0.492734 0.732676
0.097194 0.520271 0.715620
0.088569 0.545367 0.715685
0.090131 0.568022 0.732871
0.093341 0.588663 0.748080
0.097833 0.607737 0.761751
0.102040 0.628195 0.773754
0.106076 0.649482 0.784756
0.110426 0.668308 0.800055
0.114918 0.686016 0.817306
0.119751 0.701721 0.828357
0.124699 0.716759 0.837341
0.133085 0.740154 0.851772
0.142264 0.765478 0.867461
0.149905 0.780207 0.876258
0.157326 0.793422 0.884070
0.167860 0.803281 0.886023
0.178602 0.812916 0.887586
0.869675 0.086904 0.491912
0.874753 0.087946 0.506559
0.879859 0.089049 0.521329
0.885392 0.091067 0.537929
0.891243 0.093020 0.554481
0.899316 0.094517 0.570691
0.906253 0.096014 0.586779
0.908271 0.097512 0.602338
0.908043 0.101141 0.621640
0.901078 0.111166 0.652172
0.848827 0.140844 0.685857
0.696948 0.213756 0.726479
0.521268 0.307248 0.757019
0.305917 0.435039 0.770755
0.163792 0.516235 0.770109
0.115813 0.537523 0.750969
0.092084 0.560015 0.744264
0.092605 0.583711 0.749993
0.095945 0.605979 0.759603
0.101479 0.627137 0.772232
0.106076 0.647074 0.785147
0.110113 0.666278 0.798232
0.115178 0.683737 0.812749
0.120712 0.700403 0.827917
0.127368 0.717410 0.840010
0.134399 0.734531 0.851077
0.141483 0.756625 0.865053
0.148579 0.779865 0.879700
0.158693 0.792511 0.883810
0.169240 0.803643 0.886414
0.177039 0.812395 0.887065
0.184656 0.820988 0.887586
0.889856 0.092959 0.543373
0.893892 0.094000 0.558542
0.897957 0.095070 0.573734
0.902449 0.096568 0.589293
0.907323 0.098130 0.604543
0.914875 0.100148 0.617628
0.921291 0.102166 0.631079
0.922788 0.104184 0.646117
0.921519 0.109116 0.662165
0.911949 0.122787 0.681239
0.874020 0.147972 0.704280
0.773701 0.198490 0.736049
0.616184 0.288922 0.764962
0.363335 0.445878 0.789114
0.193282 0.542568 0.795009
0.129679 0.561772 0.777432
0.097617 0.582181 0.767342
0.097097 0.603794 0.764738
0.099688 0.624565 0.770410
0.104701 0.644681 0.782518
0.109429 0.663576 0.796214
0.113986 0.681739 0.810861
0.119572 0.698515 0.824793
0.125627 0.714660 0.838398
0.133585 0.732709 0.850881
0.142178 0.751392 0.862990
0.149555 0.771240 0.874622
0.156651 0.791356 0.886145
0.167222 0.802699 0.887586
0.178289 0.812790 0.887586
0.185633 0.820988 0.888562
0.192729 0.829061 0.889604
0.910037 0.099013 0.597862
0.914073 0.102138 0.615114
0.917942 0.105096 0.631934
0.919310 0.105552 0.642285
0.921320 0.106203 0.652717
0.927830 0.108221 0.663719
0.933204 0.110239 0.674306
0.933660 0.112257 0.683094
0.931870 0.117969 0.692892
0.923342 0.134765 0.705716
0.887756 0.163401 0.724136
0.792645 0.218085 0.754863
0.636430 0.312293 0.781562
0.378373 0.472374 0.801548
0.204479 0.571733 0.807378
0.138793 0.593020 0.795009
0.105169 0.611867 0.784919
0.103607 0.628272 0.777107
0.104571 0.644421 0.780500
0.107500 0.660370 0.792609
0.112098 0.677703 0.806955
0.117697 0.695866 0.822644
0.123609 0.712642 0.836185
0.129663 0.728786 0.848749
0.138403 0.747616 0.860972
0.148037 0.767342 0.873080
0.157302 0.783999 0.880481
0.166481 0.799949 0.886796
0.175489 0.810772 0.887586
0.184473 0.820862 0.887586
0.193640 0.829061 0.890515
0.202819 0.837133 0.893640
0.923407 0.103932 0.640999
0.926857 0.109140 0.656818
0.930092 0.114023 0.672044
0.930092 0.114023 0.678358
0.930629 0.114348 0.684998
0.934925 0.116952 0.693917
0.938526 0.119886 0.702628
0.939112 0.124247 0.710440
0.938119 0.131034 0.718529
0.932391 0.145096 0.727448
0.906949 0.169492 0.740842
0.838138 0.216624 0.764083
0.702339 0.304648 0.786518
0.454894 0.460823 0.807610
0.275035 0.566073 0.816854
0.182072 0.605849 0.810865
0.128723 0.633679 0.803411
0.114987 0.649564 0.794493
0.109783 0.663471 0.795424
0.111215 0.675840 0.804017
0.115902 0.691830 0.817330
0.122543 0.709993 0.833475
0.129586 0.727574 0.847248
0.136812 0.744890 0.859942
0.144868 0.762598 0.870000
0.153201 0.780435 0.879179
0.163914 0.795257 0.883704
0.175176 0.809384 0.887154
0.183647 0.818441 0.888098
0.191719 0.826774 0.888684
0.204430 0.834863 0.891406
0.217450 0.842935 0.894270
0.931479 0.107968 0.675307
0.933888 0.115260 0.686960
0.936146 0.122095 0.698084
0.936146 0.122095 0.701273
0.936293 0.122551 0.704919
0.937464 0.126196 0.711755
0.938722 0.130757 0.719359
0.940349 0.139286 0.730296
0.941179 0.147374 0.740207
0.939617 0.154145 0.747043
0.930385 0.168320 0.755099
0.904280 0.198787 0.765840
0.803765 0.272879 0.782416
0.579235 0.419679 0.808717
0.391760 0.533328 0.824080
0.251925 0.604352 0.825382
0.164723 0.649368 0.822616
0.130155 0.668378 0.815780
0.115251 0.681894 0.814108
0.115642 0.691138 0.816452
0.120590 0.705957 0.827421
0.128271 0.724119 0.843566
0.137072 0.743133 0.858055
0.146381 0.762533 0.871791
0.152615 0.777636 0.878203
0.157823 0.791307 0.882174
0.169642 0.805348 0.884876
0.182988 0.819475 0.887284
0.191719 0.825798 0.889010
0.199792 0.831005 0.890637
0.217385 0.838899 0.891471
0.235613 0.846971 0.892252
0.935768 0.120834 0.703308
0.937135 0.126953 0.710794
0.938457 0.132853 0.718142
0.939108 0.135457 0.723416
0.939596 0.138158 0.728624
0.938945 0.141544 0.733376
0.938673 0.146064 0.738897
0.940040 0.155504 0.747751
0.941065 0.163918 0.755742
0.941065 0.169256 0.761145
0.938929 0.179070 0.766752
0.932094 0.198730 0.772806
0.871258 0.251078 0.785476
0.720421 0.357908 0.809173
0.565568 0.460749 0.825407
0.405553 0.558464 0.832047
0.278640 0.631083 0.836246
0.184831 0.678606 0.838004
0.138297 0.704305 0.837674
0.128532 0.713028 0.835721
0.129101 0.726024 0.842231
0.135872 0.741583 0.853819
0.144030 0.758976 0.866257
0.152818 0.777204 0.879082
0.159019 0.790355 0.883313
0.164357 0.801812 0.884680
0.176307 0.813852 0.886576
0.189783 0.826025 0.888595
0.202518 0.832218 0.890043
0.215147 0.837556 0.891410
0.234856 0.844237 0.892106
0.255037 0.851007 0.892757
0.937786 0.138997 0.727525
0.938111 0.141991 0.730845
0.938522 0.145222 0.734613
0.940215 0.151992 0.745094
0.941484 0.158209 0.754598
0.939792 0.160553 0.757268
0.938477 0.164032 0.760120
0.938803 0.172430 0.763765
0.939047 0.180583 0.767590
0.939047 0.188005 0.771952
0.938538 0.196972 0.776842
0.936911 0.209341 0.782897
0.918390 0.235259 0.792832
0.871713 0.283759 0.809238
0.773628 0.364271 0.823194
0.609446 0.485943 0.834000
0.439307 0.592414 0.846532
0.263211 0.683684 0.860789
0.171888 0.729108 0.864170
0.146499 0.738873 0.859092
0.139908 0.749655 0.859873
0.144595 0.761047 0.864170
0.150670 0.774991 0.872897
0.157375 0.790094 0.883639
0.164618 0.801682 0.886568
0.172039 0.812098 0.886894
0.183533 0.821403 0.888595
0.195967 0.830452 0.890613
0.214952 0.838077 0.891150
0.234873 0.845498 0.891475
0.255037 0.850356 0.893082
0.275218 0.855044 0.894775
0.938416 0.154385 0.748967
0.938416 0.159983 0.750985
0.938498 0.165647 0.753410
0.939800 0.172287 0.761938
0.940776 0.178618 0.769563
0.939474 0.182785 0.770865
0.938551 0.187818 0.772570
0.939267 0.196606 0.776020
0.939625 0.205037 0.779438
0.938909 0.212393 0.782758
0.938416 0.220380 0.787380
0.938416 0.229754 0.794867
0.930165 0.249919 0.803769
0.908161 0.288067 0.815032
0.818059 0.373865 0.828544
0.640401 0.520926 0.844949
0.459976 0.633679 0.859369
0.276785 0.712125 0.871803
0.182833 0.752523 0.875851
0.158291 0.763330 0.873377
0.151162 0.772346 0.873264
0.154482 0.780289 0.874566
0.159682 0.791006 0.879940
0.165736 0.802984 0.887166
0.173304 0.811935 0.888973
0.181377 0.819877 0.888973
0.194474 0.828507 0.890031
0.208731 0.837296 0.891333
0.230564 0.844205 0.892122
0.253479 0.850845 0.892838
0.275845 0.855044 0.894775
0.298174 0.859080 0.896793
0.938416 0.168511 0.769148
0.938416 0.179318 0.771166
0.938433 0.189734 0.773266
0.938693 0.194291 0.776586
0.938888 0.199190 0.779524
0.938628 0.206481 0.779784
0.938746 0.214248 0.781033
0.940504 0.224078 0.786567
0.941383 0.233029 0.791286
0.939625 0.239344 0.793565
0.938416 0.246290 0.798122
0.938416 0.254622 0.807692
0.925868 0.278433 0.816334
0.892407 0.328039 0.823429
0.788113 0.431674 0.837332
0.592748 0.604775 0.859987
0.417010 0.711278 0.873365
0.260900 0.751185 0.877467
0.183484 0.775308 0.880799
0.167274 0.787157 0.883533
0.162620 0.794611 0.884721
0.164898 0.799428 0.884982
0.169773 0.807020 0.887166
0.175827 0.815874 0.890226
0.183395 0.821700 0.890991
0.191467 0.826518 0.890991
0.207103 0.835408 0.891203
0.224485 0.845238 0.891463
0.247620 0.850454 0.893034
0.271577 0.855011 0.894791
0.296937 0.859080 0.896793
0.322391 0.863116 0.898811
0.938416 0.191719 0.777221
0.939198 0.202266 0.780801
0.939930 0.212600 0.784284
0.939930 0.219761 0.786302
0.939832 0.226939 0.788068
0.939051 0.234230 0.788068
0.938648 0.242192 0.789057
0.939885 0.253064 0.794330
0.940308 0.262341 0.798594
0.938290 0.266833 0.799831
0.936903 0.272443 0.803346
0.936903 0.280516 0.811874
0.928554 0.298207 0.820939
0.906290 0.331929 0.830900
0.828914 0.412388 0.844705
0.680681 0.552939 0.863454
0.529161 0.662567 0.875400
0.374353 0.741273 0.880543
0.274071 0.784276 0.884184
0.216197 0.799509 0.886658
0.189897 0.807744 0.888074
0.182540 0.811781 0.888855
0.183330 0.818055 0.890487
0.187822 0.825346 0.892505
0.194999 0.829610 0.892423
0.203071 0.832865 0.891642
0.221246 0.841039 0.892130
0.241753 0.850348 0.892912
0.267557 0.855727 0.894775
0.294118 0.860545 0.896793
0.320373 0.865362 0.898079
0.346609 0.870179 0.899316
0.938416 0.217955 0.781257
0.940239 0.226418 0.786921
0.941948 0.235060 0.792356
0.941948 0.246387 0.794375
0.941720 0.257080 0.796140
0.939897 0.263329 0.796140
0.938453 0.270641 0.796934
0.938648 0.282554 0.801165
0.938290 0.292091 0.804388
0.936272 0.294500 0.804583
0.934885 0.298679 0.806731
0.934885 0.306751 0.813176
0.933566 0.315068 0.822892
0.930051 0.323791 0.838061
0.893298 0.367404 0.851606
0.813811 0.455875 0.863063
0.693018 0.571753 0.873447
0.530919 0.715038 0.882756
0.394636 0.788638 0.887048
0.278433 0.808037 0.887439
0.222447 0.817835 0.888725
0.202591 0.821871 0.890548
0.198042 0.827429 0.892505
0.200451 0.833679 0.894523
0.207107 0.836901 0.893660
0.215180 0.839115 0.891837
0.235894 0.846247 0.892977
0.259525 0.854515 0.894799
0.288454 0.860675 0.896793
0.318140 0.866534 0.898811
0.344591 0.872393 0.899120
0.370826 0.878252 0.899316
0.938416 0.249109 0.790212
0.939588 0.257182 0.794574
0.940634 0.265295 0.798736
0.939788 0.274018 0.799908
0.938901 0.282514 0.801039
0.937729 0.289414 0.801885
0.936777 0.297133 0.803330
0.936777 0.308395 0.807366
0.936484 0.317981 0.810393
0.935312 0.322538 0.810393
0.934506 0.328193 0.812021
0.934506 0.336266 0.817229
0.933872 0.343142 0.823999
0.932179 0.348025 0.833374
0.914309 0.371135 0.844172
0.875640 0.417682 0.856801
0.794883 0.503841 0.869008
0.672039 0.629615 0.880791
0.534878 0.724079 0.887850
0.386580 0.794191 0.891235
0.299110 0.825651 0.892708
0.248137 0.833919 0.893034
0.231268 0.839501 0.893941
0.229901 0.843863 0.895113
0.238787 0.846467 0.895162
0.251091 0.848485 0.894836
0.271699 0.854047 0.895727
0.294223 0.860427 0.896899
0.319084 0.866522 0.898071
0.344277 0.872576 0.899243
0.376795 0.876250 0.899316
0.409800 0.879765 0.899316
0.938416 0.281399 0.800303
0.938547 0.289471 0.802581
0.938551 0.297324 0.804725
0.936663 0.301881 0.804856
0.934995 0.306861 0.805206
0.934864 0.314803 0.807093
0.934759 0.323173 0.809384
0.934759 0.333393 0.813420
0.934726 0.342979 0.816448
0.934596 0.350661 0.816448
0.934506 0.358465 0.817750
0.934506 0.366537 0.821916
0.933090 0.373804 0.824911
0.929315 0.379728 0.825952
0.925311 0.386108 0.833430
0.921014 0.393074 0.849185
0.882443 0.441215 0.863995
0.809596 0.530532 0.877861
0.679660 0.643615 0.888176
0.505322 0.775182 0.895727
0.385953 0.832942 0.897460
0.299566 0.846418 0.895703
