其他预设/【236】赛博朋克风调色预设/【后期菌】视频调色预设/CUBE/Glitch 01_S.cube
# LUT by SparkleStock. Enhanced with VOXCOLOR algorithms.
LUT_3D_SIZE 32
0.082111 0.082111 0.082111
0.084130 0.082111 0.086148
0.086148 0.082111 0.089932
0.088166 0.082111 0.089932
0.089427 0.082364 0.097499
0.085391 0.084382 0.158042
0.082111 0.086400 0.197017
0.082111 0.088418 0.142528
0.082111 0.091445 0.103680
0.082111 0.097499 0.111752
0.082742 0.102923 0.119825
0.084760 0.106959 0.127897
0.086778 0.111752 0.139753
0.088796 0.117807 0.157916
0.091697 0.124744 0.181377
0.095734 0.132816 0.211648
0.098761 0.145934 0.240911
0.100779 0.164097 0.269164
0.103932 0.182260 0.304229
0.107968 0.200423 0.344591
0.109482 0.223631 0.383691
0.109482 0.249866 0.422035
0.109482 0.271939 0.458992
0.109482 0.292120 0.495317
0.106455 0.321382 0.536184
0.102419 0.353672 0.578564
0.104941 0.390881 0.614385
0.108977 0.429225 0.648693
0.111248 0.458739 0.675937
0.113266 0.486993 0.702173
0.117176 0.511462 0.715164
0.121212 0.535679 0.727273
0.086148 0.084130 0.086148
0.087124 0.083088 0.088101
0.088166 0.082111 0.089997
0.090184 0.082111 0.091038
0.091966 0.082364 0.099518
0.092096 0.084382 0.160061
0.091225 0.086986 0.200012
0.086017 0.092129 0.150731
0.082632 0.096979 0.115007
0.084715 0.100950 0.119955
0.087755 0.105918 0.127506
0.092898 0.113079 0.140787
0.098041 0.119043 0.156289
0.103183 0.123015 0.175493
0.109209 0.130603 0.198173
0.116370 0.142842 0.225319
0.122001 0.158042 0.255623
0.126103 0.176205 0.289085
0.130753 0.193196 0.321740
0.135831 0.209276 0.353770
0.139037 0.231703 0.389095
0.141121 0.257938 0.426397
0.136759 0.285024 0.468040
0.129468 0.312496 0.511657
0.123055 0.342800 0.551222
0.116936 0.374048 0.589436
0.113990 0.411908 0.627861
0.111777 0.451294 0.666335
0.114177 0.482761 0.691366
0.117237 0.513098 0.714477
0.121212 0.536721 0.730202
0.125248 0.559897 0.745436
0.090184 0.086022 0.090058
0.090249 0.084069 0.090058
0.090440 0.082238 0.090184
0.092523 0.082238 0.092202
0.094834 0.082474 0.101698
0.098740 0.084361 0.163543
0.100010 0.087409 0.205346
0.089854 0.095481 0.160297
0.083279 0.102138 0.126917
0.087446 0.104547 0.128544
0.092853 0.109315 0.135380
0.100990 0.119275 0.153673
0.109177 0.126355 0.172600
0.117444 0.128634 0.192586
0.126510 0.137007 0.214594
0.136600 0.153217 0.239202
0.144738 0.170338 0.270417
0.150922 0.188371 0.308240
0.157070 0.204243 0.338447
0.163189 0.218435 0.362729
0.167885 0.240276 0.394539
0.171726 0.266707 0.430864
0.163393 0.298418 0.476634
0.149527 0.332531 0.526696
0.139957 0.363811 0.565137
0.131819 0.394148 0.599705
0.123576 0.432630 0.640621
0.115308 0.472992 0.683001
0.117522 0.506348 0.706412
0.121232 0.538702 0.727114
0.125187 0.561597 0.745253
0.129158 0.583862 0.763220
0.094220 0.086022 0.092076
0.095327 0.085110 0.092076
0.096560 0.084256 0.092202
0.099684 0.084256 0.094220
0.102646 0.084231 0.106320
0.104469 0.084036 0.188997
0.103851 0.085391 0.245773
0.092654 0.093463 0.190308
0.085818 0.101682 0.147553
0.092068 0.110340 0.142931
0.099233 0.118755 0.146121
0.108412 0.126632 0.166497
0.118421 0.133972 0.185555
0.129813 0.140417 0.202416
0.140636 0.151589 0.225401
0.150727 0.168841 0.256258
0.159906 0.185441 0.286432
0.168174 0.201391 0.315922
0.175819 0.216938 0.343069
0.182980 0.232171 0.368393
0.186113 0.256356 0.400593
0.186829 0.285911 0.436919
0.180384 0.316451 0.478391
0.170684 0.347439 0.522204
0.161375 0.378719 0.562208
0.152196 0.410097 0.600942
0.141218 0.448775 0.642639
0.129826 0.489137 0.685019
0.127091 0.523404 0.715722
0.125594 0.556800 0.744756
0.128247 0.580737 0.760486
0.131176 0.604043 0.775329
0.099770 0.086022 0.094346
0.102569 0.085891 0.094476
0.105470 0.085769 0.094716
0.109897 0.085769 0.096604
0.113917 0.085533 0.110137
0.115089 0.083645 0.205183
0.113233 0.083601 0.272618
0.098260 0.091543 0.220408
0.089016 0.101129 0.177426
0.096958 0.115646 0.162127
0.105613 0.127763 0.158466
0.115833 0.134598 0.180404
0.127470 0.142752 0.199560
0.141466 0.153103 0.214077
0.153982 0.166758 0.237623
0.164593 0.184660 0.272777
0.175009 0.200740 0.301454
0.185230 0.214997 0.323653
0.194096 0.230462 0.348195
0.201908 0.246867 0.374561
0.203576 0.272793 0.406908
0.201558 0.304432 0.442843
0.197033 0.334101 0.480255
0.191370 0.362876 0.518338
0.182093 0.394091 0.559840
0.171612 0.426120 0.602480
0.158380 0.464814 0.644592
0.144514 0.505046 0.686581
0.136800 0.540664 0.724298
0.129964 0.575622 0.761405
0.131673 0.600511 0.775443
0.133951 0.624728 0.787942
0.115915 0.086022 0.098382
0.124964 0.084850 0.099554
0.133919 0.083751 0.100706
0.141470 0.083751 0.101552
0.149396 0.083645 0.108314
0.159943 0.082799 0.156488
0.161407 0.083405 0.204394
0.123519 0.090306 0.251135
0.096828 0.099892 0.271951
0.103729 0.117534 0.214989
0.111992 0.133752 0.182032
0.123255 0.146837 0.201887
0.135152 0.159678 0.220913
0.148107 0.172112 0.238555
0.161859 0.186027 0.259757
0.176637 0.201847 0.285537
0.189657 0.217406 0.309526
0.200919 0.232704 0.331725
0.209069 0.249797 0.356854
0.214797 0.268285 0.384261
0.215684 0.291737 0.415045
0.213666 0.318168 0.447855
0.211290 0.349074 0.482859
0.208751 0.382015 0.518859
0.197912 0.412710 0.561402
0.184306 0.442656 0.606126
0.172181 0.480112 0.646089
0.160398 0.519303 0.684954
0.147476 0.559347 0.727749
0.134391 0.599514 0.771105
0.137662 0.624728 0.788463
0.142024 0.648945 0.804087
0.138492 0.085643 0.103175
0.152619 0.084016 0.105389
0.166628 0.082490 0.107488
0.178866 0.082490 0.107879
0.191748 0.082465 0.109409
0.209130 0.082270 0.118913
0.213609 0.083283 0.149596
0.162180 0.089533 0.272049
0.122437 0.099216 0.344945
0.117750 0.119202 0.269168
0.118250 0.139106 0.220062
0.130163 0.158832 0.229632
0.142370 0.176677 0.242742
0.155064 0.191390 0.261751
0.170066 0.205846 0.280304
0.188033 0.219973 0.298272
0.203071 0.235011 0.318062
0.215180 0.250960 0.339675
0.222967 0.269400 0.365024
0.227394 0.289776 0.393277
0.227793 0.311536 0.422548
0.225775 0.334126 0.452429
0.225144 0.365622 0.485487
0.225144 0.401167 0.519990
0.213182 0.431096 0.562842
0.197233 0.459154 0.608477
0.186520 0.495728 0.646866
0.177015 0.534268 0.683582
0.159764 0.577762 0.730552
0.141405 0.621965 0.778987
0.144469 0.647065 0.799591
0.148961 0.670892 0.818339
0.188945 0.083625 0.111248
0.203071 0.084081 0.114503
0.217796 0.084508 0.117709
0.241492 0.084508 0.120183
0.263879 0.084353 0.123145
0.277094 0.083116 0.129525
0.283266 0.083479 0.152981
0.258919 0.090770 0.250436
0.225165 0.100974 0.324633
0.163189 0.119918 0.329060
0.123979 0.141710 0.320772
0.134851 0.169769 0.284511
0.147578 0.193994 0.266633
0.163397 0.211831 0.279393
0.179700 0.228045 0.293975
0.196626 0.242172 0.310901
0.211144 0.256689 0.328608
0.223252 0.271597 0.347097
0.232212 0.290167 0.371078
0.238722 0.311585 0.399332
0.239902 0.335037 0.427300
0.237884 0.359710 0.455098
0.237253 0.388993 0.488221
0.237253 0.420371 0.523766
0.226072 0.448478 0.563754
0.211164 0.475494 0.605222
0.203185 0.512719 0.644522
0.196805 0.552300 0.683322
0.179033 0.595014 0.730552
0.159633 0.638175 0.778987
0.154820 0.661257 0.802520
0.150979 0.683001 0.824394
0.243938 0.082111 0.120329
0.259367 0.084130 0.125147
0.275768 0.086038 0.129964
0.306755 0.086298 0.134781
0.335456 0.086306 0.139762
0.348151 0.084549 0.145881
0.356781 0.084732 0.165366
0.347797 0.093325 0.242770
0.313261 0.104506 0.316512
0.202070 0.123450 0.379268
0.129024 0.147358 0.400992
0.139896 0.182186 0.332441
0.153404 0.211522 0.291843
0.171307 0.231703 0.297832
0.188212 0.249349 0.308037
0.203836 0.263736 0.323661
0.217963 0.278514 0.339675
0.230592 0.293682 0.356081
0.240365 0.312366 0.378418
0.247917 0.333784 0.405370
0.249976 0.358050 0.431548
0.248739 0.384025 0.457262
0.247815 0.411566 0.491167
0.247034 0.439820 0.528795
0.237025 0.466559 0.566374
0.223940 0.492795 0.603937
0.217572 0.530296 0.643562
0.212755 0.570398 0.683664
0.194267 0.611810 0.731740
0.173825 0.653409 0.780956
0.164552 0.674928 0.806003
0.156024 0.695109 0.829439
0.312553 0.082111 0.132438
0.333190 0.084130 0.140380
0.354148 0.086103 0.148322
0.379928 0.087405 0.156264
0.405374 0.088455 0.165020
0.428484 0.087739 0.179473
0.441866 0.089159 0.204752
0.413092 0.099835 0.276948
0.357464 0.113359 0.344961
0.221275 0.135428 0.400426
0.132019 0.162136 0.419740
0.146015 0.199047 0.359523
0.161086 0.229685 0.321008
0.177947 0.249866 0.318664
0.193355 0.267968 0.323270
0.206896 0.283397 0.336811
0.221023 0.300778 0.352305
0.235735 0.320113 0.369752
0.245248 0.338862 0.389615
0.250716 0.357155 0.411359
0.253947 0.379598 0.434282
0.255835 0.404531 0.457913
0.253739 0.431747 0.494748
0.249833 0.460001 0.537584
0.242168 0.486740 0.574121
0.233249 0.512976 0.608559
0.225124 0.549631 0.646752
0.217182 0.588691 0.685812
0.197391 0.627238 0.736493
0.175908 0.665713 0.788833
0.172430 0.687037 0.811146
0.170151 0.707218 0.831457
0.389998 0.083373 0.152114
0.413889 0.085716 0.163507
0.437655 0.087999 0.174818
0.459529 0.089366 0.184908
0.482126 0.090603 0.196057
0.509794 0.090928 0.214610
0.525609 0.093402 0.241086
0.490065 0.105185 0.301889
0.423679 0.119589 0.360674
0.264770 0.141853 0.413405
0.155988 0.170464 0.435682
0.157485 0.213040 0.390958
0.164597 0.247705 0.358270
0.181067 0.269188 0.345640
0.195772 0.288336 0.343264
0.208206 0.304481 0.354071
0.222333 0.323816 0.368067
0.238152 0.346340 0.385254
0.247710 0.365642 0.402806
0.252397 0.382438 0.420644
0.256474 0.403465 0.441207
0.260184 0.427032 0.463406
0.257405 0.453820 0.501583
0.251677 0.482074 0.547023
0.245460 0.509302 0.584065
0.239080 0.536188 0.618308
0.229156 0.571590 0.656676
0.218415 0.608958 0.695996
0.198502 0.644559 0.747165
0.177279 0.679908 0.800026
0.178455 0.699817 0.818832
0.181124 0.718696 0.835367
0.486867 0.087409 0.188440
0.509717 0.090794 0.203999
0.532441 0.093923 0.219216
0.553273 0.093207 0.229307
0.573917 0.092751 0.239804
0.593252 0.094118 0.253149
0.606398 0.097243 0.270706
0.592727 0.107985 0.306511
0.538320 0.120044 0.348370
0.361704 0.136059 0.408393
0.226100 0.164605 0.445447
0.180726 0.220722 0.431971
0.158933 0.265413 0.413344
0.176445 0.291062 0.386132
0.192191 0.312553 0.373731
0.205667 0.328698 0.380371
0.219794 0.348554 0.390722
0.234572 0.372120 0.404784
0.244845 0.393049 0.420383
0.251616 0.411928 0.437179
0.255823 0.432435 0.457352
0.258492 0.453918 0.479551
0.256103 0.480055 0.515580
0.251416 0.508309 0.557895
0.244678 0.537099 0.598843
0.237257 0.566069 0.639335
0.225445 0.599323 0.681414
0.212621 0.633565 0.723859
0.195182 0.666042 0.770861
0.177084 0.698267 0.818514
0.180408 0.714074 0.832112
0.185161 0.728786 0.843440
0.573897 0.089932 0.227036
0.595706 0.093577 0.245199
0.617266 0.096893 0.262882
0.635103 0.095266 0.273363
0.652526 0.094143 0.283991
0.667043 0.096551 0.295643
0.678179 0.100474 0.307943
0.674664 0.110955 0.323047
0.633407 0.121745 0.348761
0.478924 0.133463 0.406309
0.339008 0.159625 0.449475
0.231138 0.217564 0.460997
0.167307 0.267740 0.456042
0.176877 0.304977 0.423622
0.188782 0.334183 0.405614
0.203690 0.353062 0.406134
0.217816 0.374219 0.412254
0.231162 0.397655 0.423972
0.241761 0.419041 0.437960
0.250224 0.438831 0.453714
0.254659 0.459354 0.473985
0.256677 0.480316 0.496965
0.254801 0.506291 0.531627
0.251156 0.534544 0.571598
0.244483 0.563139 0.613425
0.236801 0.591848 0.655870
0.223883 0.623149 0.699902
0.209756 0.655048 0.744300
0.195573 0.684156 0.786990
0.181381 0.712865 0.829435
0.185071 0.726378 0.841487
0.189954 0.738877 0.851512
0.644531 0.089932 0.269416
0.665298 0.092536 0.287579
0.685491 0.094940 0.305327
0.697079 0.094354 0.316850
0.709163 0.094273 0.328910
0.724722 0.097723 0.344729
0.734946 0.102687 0.357875
0.722057 0.114210 0.359437
0.695903 0.125521 0.370309
0.629956 0.136197 0.409109
0.523241 0.156110 0.443941
0.326835 0.196342 0.470046
0.199076 0.244434 0.478111
0.185730 0.305628 0.456107
0.185657 0.351499 0.439856
0.202648 0.377669 0.431003
0.216775 0.401431 0.431914
0.228037 0.422784 0.442590
0.238311 0.442672 0.455537
0.247815 0.461421 0.470250
0.252641 0.482855 0.491432
0.254659 0.505900 0.516495
0.253499 0.532526 0.551092
0.250895 0.560779 0.590022
0.245264 0.586250 0.627682
0.238624 0.610793 0.664919
0.225901 0.640466 0.707975
0.211774 0.671323 0.752373
0.202148 0.696655 0.790505
0.193164 0.721198 0.827742
0.194250 0.735427 0.844351
0.196008 0.748967 0.859584
0.703686 0.092580 0.315328
0.721133 0.094598 0.332124
0.738051 0.096547 0.348712
0.747035 0.097459 0.362188
0.756686 0.098647 0.376249
0.771008 0.101772 0.394412
0.779751 0.106410 0.408462
0.764323 0.117607 0.404686
0.747804 0.128642 0.407664
0.728013 0.139188 0.430905
0.646866 0.154759 0.455468
0.430734 0.181385 0.482940
0.272997 0.226540 0.497816
0.212584 0.302577 0.491696
0.185153 0.361183 0.480877
0.200126 0.397379 0.464016
0.212885 0.426250 0.459264
0.223431 0.447798 0.466620
0.233209 0.467699 0.478041
0.242388 0.486317 0.492624
0.247946 0.508720 0.513920
0.251331 0.533393 0.539244
0.250688 0.559901 0.573519
0.248214 0.587243 0.611863
0.243055 0.610727 0.646838
0.237001 0.632927 0.680690
0.225128 0.660944 0.723851
0.211913 0.690304 0.769161
0.204166 0.712601 0.804445
0.197200 0.733889 0.838297
0.199328 0.746327 0.852314
0.202062 0.758175 0.865008
0.748084 0.098635 0.365781
0.759282 0.100653 0.379452
0.770471 0.102732 0.393306
0.781538 0.105726 0.409906
0.792491 0.108477 0.426702
0.802646 0.109519 0.444865
0.809177 0.112074 0.459891
0.799998 0.121188 0.461323
0.786082 0.130920 0.465343
0.757959 0.142508 0.477126
0.692566 0.156191 0.488929
0.545180 0.174484 0.500778
0.401114 0.215603 0.514481
0.262581 0.294765 0.531277
0.188017 0.361053 0.530614
0.195699 0.410789 0.507503
0.205334 0.447994 0.496501
0.216921 0.472667 0.497608
0.225982 0.494520 0.506881
0.233078 0.514180 0.522505
0.239808 0.537624 0.542889
0.246318 0.563339 0.566130
0.245936 0.588740 0.599754
0.242420 0.613999 0.638098
0.237001 0.636963 0.672292
0.230946 0.659162 0.705102
0.220766 0.685487 0.749761
0.209634 0.712764 0.797154
0.200325 0.732977 0.831787
0.191276 0.752182 0.864597
0.199133 0.759607 0.866831
0.208117 0.766247 0.867026
0.785419 0.105698 0.418251
0.794533 0.107716 0.431401
0.803672 0.109795 0.444702
0.813176 0.112790 0.460261
0.822437 0.115475 0.476145
0.829988 0.115996 0.494308
0.835086 0.117640 0.509627
0.829553 0.124150 0.512622
0.817721 0.132320 0.515860
0.786994 0.145470 0.519832
0.731203 0.159088 0.524637
0.620273 0.173736 0.531277
0.480438 0.215115 0.545046
0.292429 0.301047 0.570695
0.187984 0.375700 0.574556
0.190979 0.435853 0.550404
0.198010 0.477224 0.536017
0.209077 0.499813 0.531395
0.217617 0.521341 0.538454
0.224192 0.542043 0.554599
0.230401 0.565878 0.576155
0.236390 0.591592 0.600958
0.236203 0.615561 0.632922
0.233209 0.638737 0.668142
0.228700 0.661180 0.701164
0.223688 0.683379 0.733453
0.216242 0.706742 0.775475
0.208235 0.730373 0.819743
0.199316 0.747852 0.851252
0.190267 0.764453 0.880937
0.201541 0.769763 0.876140
0.214171 0.774320 0.869044
0.815691 0.113770 0.472740
0.826888 0.115788 0.487973
0.837654 0.117737 0.502902
0.841950 0.118649 0.513252
0.846524 0.119642 0.524580
0.853034 0.121204 0.542743
0.857481 0.123108 0.557671
0.852989 0.126493 0.558582
0.842719 0.132841 0.559217
0.815117 0.148074 0.559022
0.762777 0.163450 0.562590
0.656013 0.179139 0.574438
0.510970 0.225075 0.589509
0.302129 0.321423 0.609950
0.185055 0.405125 0.612705
0.185966 0.472569 0.592719
0.190914 0.513940 0.577811
0.199898 0.529239 0.567981
0.208112 0.548162 0.572762
0.215729 0.569906 0.588907
0.219725 0.593480 0.613718
0.221547 0.618153 0.643729
0.221491 0.640364 0.673024
0.220579 0.661457 0.701994
0.218154 0.683379 0.733453
0.215225 0.705578 0.765743
0.211555 0.724709 0.800994
0.207714 0.743133 0.836930
0.201139 0.757227 0.862839
0.194173 0.770703 0.887317
0.206554 0.776793 0.880241
0.220225 0.782392 0.871062
0.839151 0.118437 0.518147
0.849502 0.121041 0.534292
0.859296 0.123482 0.549822
0.860728 0.123482 0.556137
0.862591 0.123662 0.563567
0.867474 0.125094 0.578800
0.871014 0.126855 0.591726
0.868735 0.130045 0.594656
0.861932 0.135742 0.596495
0.841556 0.148957 0.595063
0.802077 0.162722 0.598127
0.720571 0.177695 0.611081
0.588557 0.220278 0.624671
0.372360 0.308879 0.639319
0.235113 0.394746 0.643200
0.199373 0.477098 0.633240
0.184953 0.531944 0.623963
0.191854 0.559286 0.615370
0.199084 0.581099 0.618055
0.206570 0.598611 0.629513
0.210110 0.619581 0.651793
0.211282 0.642626 0.680568
0.211648 0.664105 0.707999
0.211648 0.684872 0.734820
0.210135 0.704516 0.763985
0.208117 0.723786 0.793931
0.206098 0.740040 0.825305
0.204080 0.755599 0.857009
0.201607 0.767627 0.875269
0.199068 0.779149 0.891610
0.209406 0.785545 0.885917
0.220604 0.791600 0.878756
0.857314 0.120455 0.556491
0.864540 0.124101 0.572636
0.871339 0.127519 0.587971
0.871730 0.127519 0.591161
0.872421 0.127568 0.595205
0.875221 0.127958 0.605231
0.877654 0.129264 0.614902
0.878500 0.134537 0.623039
0.876645 0.140494 0.629045
0.866684 0.148501 0.628654
0.847386 0.158034 0.631783
0.807545 0.170924 0.642655
0.702742 0.204003 0.652599
0.489670 0.270731 0.660997
0.326383 0.353408 0.667743
0.227105 0.456591 0.672365
0.179875 0.535395 0.673504
0.184693 0.589818 0.671161
0.190426 0.618792 0.671893
0.196871 0.627971 0.675018
0.201322 0.644514 0.690267
0.204577 0.665477 0.712792
0.205594 0.687021 0.738987
0.205594 0.708829 0.766849
0.204080 0.724827 0.793150
0.202062 0.738889 0.818929
0.200044 0.753321 0.848676
0.198026 0.767838 0.879338
0.201021 0.778824 0.888355
0.204731 0.789305 0.894279
0.210578 0.795636 0.892818
0.216567 0.801690 0.890865
0.864125 0.130041 0.586006
0.868226 0.132776 0.598245
0.872153 0.135461 0.610048
0.873455 0.137414 0.615321
0.874765 0.139123 0.620700
0.876132 0.139123 0.626819
0.877621 0.140014 0.633439
0.879639 0.144766 0.642228
0.880128 0.149518 0.649145
0.876026 0.154271 0.650447
0.868283 0.160508 0.654088
0.852529 0.170013 0.662877
0.786168 0.192285 0.672837
0.635461 0.235837 0.684750
0.492559 0.302630 0.697860
0.359690 0.399303 0.712507
0.264025 0.494577 0.722435
0.205565 0.588451 0.727643
0.181930 0.639152 0.731386
0.185380 0.656273 0.733990
0.188790 0.672865 0.744325
0.192175 0.689140 0.759298
0.195023 0.707698 0.779373
0.197627 0.727293 0.801767
0.199206 0.740297 0.821623
0.200443 0.751103 0.840632
0.200622 0.763021 0.860858
0.200557 0.775194 0.881364
0.206985 0.785545 0.886263
0.214342 0.795636 0.888932
0.217365 0.802553 0.892761
0.220099 0.809258 0.896667
0.864125 0.144168 0.610223
0.865102 0.144819 0.616212
0.866229 0.145747 0.622482
0.869614 0.150824 0.632963
0.872617 0.155268 0.642508
0.872942 0.155268 0.645503
0.873585 0.155768 0.649193
0.875603 0.158437 0.655899
0.876873 0.161106 0.661774
0.875896 0.163775 0.665159
0.874533 0.167279 0.669582
0.872320 0.172617 0.676287
0.851138 0.183301 0.688461
0.798342 0.202896 0.709749
0.703678 0.246188 0.731321
0.555185 0.319946 0.753260
0.401712 0.427198 0.771000
0.243258 0.567945 0.784540
0.173532 0.649112 0.794273
0.172816 0.683941 0.801043
0.174012 0.703267 0.807732
0.176356 0.713293 0.814372
0.181743 0.727033 0.825399
0.188513 0.742461 0.838419
0.195040 0.752861 0.849681
0.201484 0.761584 0.860357
0.205179 0.770572 0.866326
0.208239 0.779621 0.871209
0.216881 0.789582 0.875066
0.226320 0.799672 0.878777
0.227520 0.807565 0.888529
0.228171 0.815312 0.898685
0.873837 0.149970 0.638602
0.874553 0.151402 0.643355
0.875387 0.152989 0.648433
0.877991 0.156895 0.658393
0.880270 0.160492 0.667360
0.880270 0.161924 0.669378
0.880648 0.163735 0.672019
0.882666 0.167185 0.677357
0.884001 0.170277 0.682191
0.883285 0.172295 0.685511
0.883199 0.175168 0.689909
0.884501 0.179920 0.696680
0.874037 0.189848 0.711067
0.843960 0.208401 0.738148
0.745529 0.258313 0.763350
0.559213 0.348541 0.786135
0.390181 0.462043 0.804526
0.238433 0.598818 0.818523
0.171713 0.676930 0.829187
0.171128 0.709415 0.837259
0.172617 0.726195 0.842809
0.175351 0.733551 0.846845
0.180770 0.743592 0.853567
0.187411 0.754855 0.861509
0.194051 0.762651 0.868475
0.200691 0.769291 0.875115
0.206379 0.778840 0.876942
0.211848 0.789061 0.877658
0.220734 0.797914 0.880652
0.230108 0.806573 0.883972
0.235393 0.814010 0.892175
0.240406 0.821367 0.900703
0.887964 0.151988 0.668874
0.889722 0.155504 0.674668
0.891402 0.158848 0.680527
0.891923 0.159629 0.687362
0.892379 0.160752 0.693596
0.892379 0.164268 0.695614
0.892757 0.168161 0.698059
0.894775 0.173695 0.702356
0.895849 0.178350 0.706148
0.894091 0.180368 0.708426
0.892964 0.183566 0.712434
0.893225 0.189360 0.720246
0.877812 0.203454 0.736846
0.836279 0.231382 0.768094
0.710440 0.301604 0.794729
0.476211 0.426206 0.815430
0.310824 0.543353 0.831217
0.214281 0.653047 0.842089
0.172885 0.712865 0.851386
0.174383 0.733893 0.859458
0.177304 0.745725 0.865008
0.181080 0.752039 0.869044
0.185393 0.758891 0.873618
0.189950 0.765987 0.878435
0.194507 0.771179 0.883057
0.199064 0.775736 0.887614
0.206054 0.787433 0.889897
0.213605 0.800779 0.891654
0.221840 0.808200 0.893868
0.230173 0.814775 0.896146
0.242229 0.821106 0.899401
0.254533 0.827421 0.902721
0.893009 0.160061 0.687037
0.894246 0.163316 0.692310
0.895454 0.166562 0.697534
0.896236 0.169687 0.702026
0.896919 0.173024 0.706209
0.896919 0.177841 0.708227
0.897151 0.183037 0.710477
0.898388 0.189872 0.713732
0.899007 0.195699 0.716678
0.897770 0.198498 0.718696
0.896675 0.202315 0.722362
0.895894 0.208369 0.729653
0.885494 0.219989 0.744561
0.859064 0.240886 0.772163
0.767582 0.297584 0.797544
0.592463 0.400312 0.820069
0.436581 0.509387 0.837939
0.299936 0.624809 0.851154
0.224591 0.697388 0.861037
0.196923 0.736643 0.868328
0.188094 0.756124 0.874561
0.190568 0.763741 0.880160
0.194116 0.770821 0.884147
0.198152 0.777656 0.887402
0.201017 0.782392 0.890072
0.203490 0.786428 0.892545
0.210513 0.797394 0.894649
0.218585 0.809958 0.896667
0.228708 0.816142 0.898685
0.239124 0.821415 0.900703
0.254484 0.828153 0.902721
0.270173 0.834989 0.904739
0.895027 0.170151 0.701164
0.895223 0.172364 0.705395
0.895520 0.174895 0.709513
0.897342 0.182186 0.711921
0.898937 0.189299 0.714281
0.898937 0.195158 0.716299
0.898974 0.201395 0.718354
0.899169 0.209272 0.720567
0.899267 0.216140 0.722732
0.899072 0.219981 0.724750
0.898368 0.224514 0.728091
0.896545 0.230568 0.734340
0.894478 0.237501 0.746253
0.892004 0.245899 0.767606
0.855467 0.277794 0.790839
0.775133 0.339899 0.816488
0.630709 0.436996 0.838004
0.422194 0.569084 0.855385
0.293141 0.664773 0.866505
0.225893 0.732151 0.872755
0.200919 0.763481 0.879900
0.201310 0.773180 0.887581
0.204206 0.781627 0.891504
0.208243 0.789504 0.893717
0.209545 0.794501 0.894563
0.209935 0.798537 0.894954
0.216567 0.807810 0.896667
0.224640 0.818291 0.898685
0.237497 0.823303 0.900703
0.251038 0.827535 0.902721
0.268546 0.835184 0.904739
0.286318 0.843061 0.906757
0.885567 0.191719 0.705452
0.887260 0.197123 0.708642
0.888867 0.202587 0.711706
0.889193 0.208967 0.712877
0.889478 0.215306 0.714261
0.889478 0.221360 0.717125
0.889795 0.228110 0.719990
0.891487 0.237875 0.722854
0.892757 0.246420 0.725718
0.892757 0.251302 0.728583
0.892391 0.256815 0.732444
0.891219 0.263716 0.738498
0.891561 0.271251 0.746994
0.894425 0.279845 0.759558
0.880514 0.299261 0.776252
0.845035 0.332592 0.798256
0.751844 0.401207 0.820032
0.600942 0.505107 0.841580
0.451981 0.607139 0.857745
0.304530 0.707718 0.869724
0.238657 0.759147 0.878203
0.221731 0.781086 0.884583
0.218634 0.793492 0.886800
0.221824 0.801564 0.887126
0.225161 0.806609 0.887842
0.228546 0.810645 0.888688
0.236427 0.817538 0.890487
0.245346 0.825090 0.892505
0.258081 0.830306 0.893782
0.271361 0.835188 0.894954
0.292393 0.840681 0.896126
0.313941 0.846214 0.897298
0.873459 0.215937 0.707470
0.877235 0.225506 0.709618
0.880665 0.234747 0.711641
0.878907 0.239043 0.711771
0.877369 0.243559 0.712373
0.877369 0.249614 0.716279
0.878077 0.256754 0.720185
0.881853 0.268603 0.724091
0.884685 0.278970 0.727997
0.884685 0.284894 0.731903
0.884644 0.291449 0.736480
0.884514 0.299391 0.742535
0.885897 0.308749 0.747515
0.889803 0.320467 0.750705
0.891060 0.330248 0.759847
0.888912 0.337539 0.776643
0.856134 0.373865 0.797898
0.792727 0.439226 0.823613
0.631657 0.543731 0.845702
0.394628 0.678684 0.864971
0.282143 0.752117 0.874883
0.244385 0.788638 0.879179
