其他预设/【236】赛博朋克风调色预设/【后期菌】视频调色预设/CUBE/Glitch 09.cube
# LUT by SparkleStock. Enhanced with VOXCOLOR algorithms.
LUT_3D_SIZE 32
0.066471 0.070381 0.003910
0.070507 0.072399 0.007946
0.074544 0.074417 0.011982
0.078580 0.076436 0.016019
0.080346 0.079463 0.029136
0.066219 0.089553 0.105824
0.055876 0.098130 0.156024
0.061930 0.100148 0.091445
0.066471 0.104184 0.046542
0.066471 0.114275 0.060669
0.065841 0.123104 0.076688
0.063822 0.129158 0.096869
0.062561 0.136726 0.117050
0.062561 0.146817 0.137231
0.061678 0.160439 0.169773
0.059660 0.178602 0.218207
0.058651 0.197774 0.258569
0.058651 0.217955 0.290859
0.058651 0.239271 0.325419
0.058651 0.261470 0.361744
0.059912 0.284930 0.398070
0.061930 0.309148 0.434396
0.062561 0.329203 0.459622
0.062561 0.347365 0.479803
0.061048 0.367042 0.504525
0.059029 0.387223 0.530760
0.060291 0.410683 0.553716
0.062309 0.434901 0.575915
0.060795 0.452054 0.589285
0.058777 0.468199 0.601394
0.060543 0.482452 0.613502
0.062561 0.496579 0.625611
0.072525 0.072399 0.009964
0.074478 0.073376 0.011917
0.076562 0.074417 0.014066
0.080598 0.076436 0.019143
0.082754 0.079202 0.035907
0.071752 0.087210 0.134468
0.063167 0.095266 0.199511
0.065055 0.103533 0.119308
0.066211 0.111736 0.062166
0.065169 0.119743 0.074210
0.064473 0.128442 0.090749
0.064539 0.138663 0.117180
0.064189 0.149225 0.144392
0.063147 0.160358 0.172906
0.062134 0.175477 0.208312
0.061157 0.195723 0.252580
0.061190 0.218020 0.292942
0.062232 0.242367 0.329398
0.062687 0.263749 0.362265
0.062687 0.282823 0.392341
0.063298 0.305111 0.424371
0.064274 0.329329 0.457572
0.064579 0.350100 0.483970
0.064579 0.369304 0.507275
0.063066 0.387679 0.528091
0.061048 0.405776 0.548077
0.061463 0.426307 0.567322
0.062439 0.447400 0.586396
0.061707 0.465074 0.599376
0.060730 0.482261 0.611484
0.060608 0.494626 0.622616
0.060543 0.506669 0.633683
0.078454 0.074544 0.016019
0.078519 0.074544 0.016084
0.078832 0.074666 0.016519
0.082868 0.076619 0.022508
0.085342 0.079076 0.042852
0.076879 0.085065 0.163678
0.069649 0.092605 0.243917
0.067761 0.106862 0.148286
0.065873 0.119117 0.078970
0.063985 0.125366 0.088605
0.063298 0.134098 0.105381
0.065251 0.148290 0.137866
0.065739 0.161773 0.171791
0.063786 0.174077 0.208117
0.062687 0.190767 0.246208
0.062687 0.213097 0.286570
0.063664 0.238225 0.326835
0.065617 0.266153 0.367001
0.066508 0.287526 0.398233
0.066573 0.303801 0.422515
0.066557 0.325040 0.450419
0.066492 0.349257 0.480495
0.066471 0.370700 0.507796
0.066471 0.390881 0.533836
0.064958 0.408035 0.550990
0.062939 0.424179 0.565182
0.062561 0.441911 0.580855
0.062561 0.460009 0.596869
0.062561 0.478050 0.609466
0.062561 0.496082 0.621575
0.060730 0.506547 0.631669
0.058777 0.516507 0.641630
0.082490 0.078580 0.022073
0.083597 0.078580 0.023180
0.084886 0.078637 0.024526
0.088923 0.079548 0.029474
0.090615 0.080964 0.052422
0.075903 0.085912 0.201371
0.063985 0.092995 0.302117
0.064180 0.109335 0.193986
0.064376 0.123934 0.113473
0.064571 0.133309 0.115817
0.064990 0.144514 0.128556
0.065902 0.159747 0.164166
0.066129 0.175054 0.200044
0.065218 0.190483 0.236370
0.064705 0.209842 0.274462
0.064705 0.234254 0.314824
0.065161 0.257820 0.353526
0.066072 0.280540 0.390567
0.067094 0.300807 0.421018
0.068200 0.319165 0.446342
0.067924 0.341185 0.472683
0.066817 0.365402 0.499634
0.066471 0.386845 0.523811
0.066471 0.407026 0.546726
0.064958 0.424179 0.563880
0.062939 0.440324 0.579113
0.062561 0.457209 0.593289
0.062561 0.474266 0.607220
0.062561 0.490354 0.619557
0.062561 0.506303 0.631665
0.061707 0.514685 0.639807
0.060795 0.522562 0.647684
0.088544 0.082364 0.028884
0.091343 0.082494 0.031032
0.094261 0.082616 0.033299
0.098948 0.082616 0.037335
0.100868 0.083104 0.061275
0.083422 0.087010 0.224546
0.068477 0.093492 0.338174
0.064376 0.111134 0.236683
0.061935 0.127686 0.158254
0.064473 0.140966 0.149010
0.066260 0.155263 0.154515
0.066390 0.171799 0.192468
0.066471 0.189091 0.229665
0.066471 0.207645 0.265600
0.066528 0.229331 0.303244
0.066658 0.255046 0.343085
0.066789 0.277180 0.380225
0.066919 0.295733 0.414663
0.067964 0.315055 0.444120
0.069722 0.334976 0.469705
0.069120 0.357419 0.494434
0.067102 0.381376 0.518652
0.066471 0.402916 0.540094
0.066471 0.423357 0.560275
0.064958 0.440186 0.577038
0.062939 0.455810 0.592662
0.062561 0.471963 0.605430
0.062561 0.488238 0.617539
0.062561 0.502405 0.629419
0.062561 0.516271 0.641267
0.062561 0.523180 0.647806
0.062561 0.529625 0.653990
0.108725 0.084382 0.040993
0.117774 0.085554 0.044183
0.126876 0.086652 0.047425
0.136771 0.086652 0.051462
0.145983 0.087010 0.065116
0.150409 0.089875 0.146101
0.144058 0.094729 0.219236
0.091002 0.108204 0.258362
0.052886 0.123975 0.274978
0.059591 0.146630 0.224070
0.064567 0.168349 0.199955
0.065739 0.188009 0.234783
0.066471 0.208426 0.268855
0.066471 0.230104 0.301665
0.066984 0.251725 0.335729
0.068156 0.273274 0.371404
0.069327 0.294887 0.406981
0.070499 0.316565 0.442460
0.070829 0.336083 0.469444
0.070503 0.353920 0.489820
0.069120 0.374280 0.512597
0.067102 0.396154 0.536815
0.066471 0.418475 0.558257
0.066471 0.441000 0.578438
0.064958 0.455224 0.592076
0.062939 0.466682 0.603534
0.062561 0.482900 0.615520
0.062561 0.500216 0.627629
0.062561 0.512691 0.637687
0.062561 0.524474 0.647452
0.062561 0.534182 0.654837
0.062561 0.543752 0.662063
0.139501 0.087157 0.053858
0.154995 0.088979 0.058090
0.170660 0.090713 0.062345
0.188888 0.091103 0.066968
0.207563 0.091649 0.072729
0.229372 0.093276 0.086465
0.231113 0.096344 0.125651
0.145897 0.105653 0.275121
0.079332 0.120008 0.369353
0.068721 0.149498 0.297873
0.062240 0.177564 0.256319
0.064844 0.202498 0.280601
0.066544 0.227162 0.306910
0.066740 0.251380 0.336595
0.067732 0.273119 0.367335
0.069751 0.291672 0.399429
0.071573 0.312667 0.432956
0.073201 0.336103 0.467914
0.072888 0.355877 0.492840
0.071065 0.372803 0.509961
0.069242 0.391642 0.531151
0.067419 0.411627 0.554782
0.066715 0.434119 0.575639
0.066520 0.457751 0.595234
0.064958 0.469859 0.606040
0.062939 0.478127 0.613917
0.062561 0.494117 0.625233
0.062561 0.511889 0.637341
0.062732 0.523111 0.646089
0.062927 0.533397 0.654357
0.062756 0.544659 0.662075
0.062561 0.555987 0.669757
0.216189 0.093211 0.070003
0.238974 0.093992 0.075276
0.262841 0.094879 0.080704
0.302943 0.097353 0.088451
0.340497 0.099461 0.096686
0.360223 0.099005 0.108339
0.367888 0.099599 0.141926
0.323295 0.104742 0.270564
0.259594 0.114930 0.366879
0.138573 0.140254 0.366228
0.057162 0.170013 0.360023
0.062891 0.209528 0.341600
0.066935 0.243307 0.340046
0.068172 0.267524 0.366607
0.069751 0.290175 0.395133
0.071769 0.310812 0.426185
0.072550 0.330765 0.455545
0.072094 0.350035 0.483213
0.071455 0.370329 0.507878
0.070674 0.391422 0.530207
0.069893 0.411172 0.551397
0.069112 0.430116 0.571903
0.068017 0.450134 0.589635
0.066780 0.470640 0.606105
0.064958 0.482749 0.615350
0.062939 0.492058 0.622185
0.062561 0.506551 0.633305
0.062561 0.522240 0.645414
0.063643 0.534113 0.655073
0.064880 0.545440 0.664382
0.063798 0.552862 0.670213
0.062561 0.560023 0.675811
0.302967 0.098256 0.087661
0.330960 0.098517 0.094236
0.360394 0.098980 0.101015
0.411432 0.102496 0.110845
0.458393 0.105385 0.120935
0.476817 0.103887 0.132849
0.488942 0.102952 0.163572
0.473773 0.104449 0.275804
0.409292 0.111577 0.372380
0.196871 0.135599 0.421986
0.053354 0.167962 0.441545
0.061426 0.218675 0.394998
0.067326 0.259550 0.374402
0.069604 0.284027 0.397057
0.071541 0.307166 0.422475
0.073038 0.328584 0.451444
0.072908 0.348016 0.477549
0.071150 0.365463 0.500790
0.070381 0.386132 0.524836
0.070381 0.409308 0.549509
0.070218 0.429188 0.569625
0.069958 0.447090 0.587007
0.068489 0.464993 0.601972
0.066471 0.482895 0.615838
0.064648 0.494939 0.624040
0.062891 0.505029 0.630355
0.062561 0.518188 0.641166
0.062561 0.532054 0.653014
0.064099 0.543927 0.663096
0.065857 0.555515 0.672926
0.064319 0.560755 0.678057
0.062561 0.565572 0.682875
0.420017 0.100274 0.109860
0.446968 0.101576 0.118519
0.474058 0.102886 0.127185
0.503223 0.104319 0.135974
0.531175 0.105645 0.146064
0.550640 0.106231 0.165269
0.562830 0.106597 0.201330
0.543495 0.106011 0.310437
0.467296 0.113400 0.401805
0.220502 0.144713 0.439954
0.053354 0.182414 0.456518
0.061426 0.234169 0.425595
0.067716 0.276085 0.412421
0.071036 0.301604 0.428826
0.072648 0.323962 0.448449
0.072062 0.342255 0.472211
0.071411 0.362729 0.497795
0.070695 0.385384 0.525202
0.070381 0.405988 0.547556
0.070381 0.424997 0.565979
0.069567 0.442664 0.581799
0.068265 0.459525 0.596056
0.066471 0.476385 0.609328
0.064453 0.493246 0.622153
0.063411 0.505029 0.630876
0.062695 0.515120 0.638232
0.062561 0.527432 0.648392
0.062561 0.540257 0.659198
0.063188 0.550176 0.668239
0.063904 0.559681 0.677028
0.063277 0.567721 0.685023
0.062561 0.575663 0.692965
0.523823 0.102923 0.135843
0.547780 0.104941 0.145608
0.571061 0.106813 0.155268
0.584211 0.106487 0.163340
0.598037 0.106455 0.173105
0.616591 0.108473 0.194718
0.628479 0.109795 0.230015
0.611488 0.108103 0.324605
0.534150 0.114368 0.408812
0.275768 0.144510 0.461868
0.092922 0.184172 0.490614
0.076257 0.244780 0.465876
0.067354 0.292498 0.453124
0.071390 0.318734 0.460351
0.072778 0.340697 0.472960
0.070760 0.357167 0.492490
0.069751 0.378194 0.516739
0.069751 0.403779 0.545709
0.069751 0.424053 0.566329
0.069751 0.440198 0.580456
0.068489 0.456139 0.593118
0.066471 0.471959 0.604901
0.064677 0.487778 0.616908
0.062984 0.503597 0.629016
0.062561 0.515120 0.638098
0.062561 0.525210 0.646170
0.062826 0.536412 0.655618
0.063151 0.547869 0.665383
0.062907 0.556650 0.673952
0.062581 0.565048 0.682350
0.062256 0.574117 0.691724
0.061930 0.583231 0.701164
0.598493 0.106959 0.170151
0.615158 0.108977 0.178874
0.631409 0.110784 0.187557
0.641434 0.109417 0.195630
0.651875 0.108473 0.204353
0.665220 0.110491 0.217633
0.676002 0.112009 0.238738
0.675677 0.111358 0.293747
0.620472 0.113457 0.366497
0.400629 0.123808 0.492465
0.219542 0.158002 0.566781
0.123714 0.244650 0.527461
0.065336 0.308643 0.499736
0.069372 0.334878 0.491338
0.070760 0.357297 0.494247
0.068742 0.374809 0.511694
0.067732 0.395316 0.532819
0.067732 0.418817 0.557622
0.067732 0.438180 0.576420
0.067732 0.454325 0.590546
0.066471 0.469615 0.602557
0.064453 0.484393 0.613299
0.063375 0.499170 0.624980
0.062724 0.513948 0.637089
0.062561 0.525210 0.646170
0.062561 0.535301 0.654243
0.063672 0.544810 0.662844
0.065039 0.554184 0.671567
0.064014 0.563615 0.680917
0.062647 0.573055 0.690357
0.061279 0.579260 0.697843
0.059912 0.585249 0.705200
0.658027 0.109482 0.200675
0.669745 0.111109 0.208747
0.681210 0.112533 0.216844
0.688892 0.110906 0.225307
0.696924 0.109734 0.233770
0.707405 0.111752 0.242233
0.717520 0.113319 0.253833
0.726048 0.112928 0.279027
0.693075 0.112228 0.334459
0.535598 0.110601 0.480609
0.369231 0.137739 0.575594
0.183305 0.228163 0.558017
0.067590 0.299936 0.541099
0.068892 0.340624 0.525280
0.069083 0.372140 0.521394
0.067846 0.391865 0.532852
0.066837 0.412242 0.549094
0.066056 0.433269 0.570121
0.065714 0.451330 0.586828
0.065714 0.467084 0.600173
0.064453 0.481821 0.611728
0.062435 0.495948 0.622209
0.062073 0.509538 0.633272
0.062463 0.522883 0.644600
0.062561 0.533494 0.653193
0.062561 0.543194 0.660875
0.063883 0.552524 0.669826
0.065511 0.561768 0.679070
0.063949 0.570728 0.688371
0.061930 0.579646 0.697681
0.060279 0.584354 0.703206
0.058651 0.588781 0.708479
0.692334 0.109482 0.224892
0.703011 0.110068 0.232964
0.713435 0.110580 0.241126
0.720075 0.109995 0.250631
0.727326 0.109734 0.260136
0.738848 0.111752 0.269640
0.749028 0.113123 0.279548
0.753390 0.111691 0.291200
0.742811 0.110471 0.319551
0.687411 0.109885 0.397997
0.557370 0.127323 0.472150
0.263118 0.184416 0.536859
0.076964 0.249809 0.573714
0.070975 0.329036 0.564144
0.067977 0.384053 0.558306
0.068823 0.407945 0.557264
0.067814 0.428842 0.565695
0.064949 0.446745 0.583597
0.063696 0.462853 0.597764
0.063696 0.477565 0.609027
0.062435 0.491912 0.620452
0.060417 0.506039 0.631974
0.060771 0.518196 0.641931
0.062203 0.529458 0.651175
0.062561 0.538768 0.658466
0.062561 0.547426 0.665106
0.063037 0.559099 0.676401
0.063623 0.571468 0.688770
0.061930 0.578084 0.696639
0.059912 0.583878 0.703865
0.059237 0.589367 0.707307
0.058651 0.594835 0.710497
0.723110 0.109482 0.251758
0.732289 0.109482 0.258919
0.741273 0.109510 0.266263
0.747328 0.109966 0.276354
0.753911 0.110560 0.286273
0.764197 0.112123 0.294997
0.772932 0.113184 0.303012
0.774950 0.112078 0.307960
0.776855 0.111020 0.320963
0.778417 0.110109 0.358135
0.689572 0.119613 0.417523
0.401830 0.152033 0.525784
0.191719 0.210647 0.593057
0.110995 0.312919 0.592015
0.066272 0.384916 0.588097
0.067834 0.417987 0.580480
0.067281 0.442822 0.583377
0.064612 0.459423 0.596788
0.062931 0.474376 0.608331
0.062020 0.488047 0.618421
0.060986 0.501718 0.629488
0.059880 0.515389 0.641141
0.060608 0.526911 0.650333
0.062170 0.537457 0.658405
0.062903 0.546148 0.665647
0.063359 0.554221 0.672613
0.062704 0.566101 0.684286
0.061792 0.578861 0.697046
0.060710 0.584386 0.703540
0.059603 0.588878 0.709138
0.059534 0.593980 0.710953
0.059534 0.599123 0.712515
0.749346 0.109482 0.282029
0.756442 0.109482 0.287107
0.763472 0.109575 0.292498
0.769527 0.111073 0.302589
0.775589 0.112448 0.312118
0.781709 0.112969 0.317716
0.787059 0.113575 0.323584
0.789077 0.114552 0.330614
0.790721 0.114535 0.343358
0.791242 0.111541 0.373239
0.749854 0.115382 0.425660
0.616269 0.134261 0.527672
0.441964 0.185584 0.595335
0.199792 0.290981 0.605751
0.063798 0.371570 0.608734
0.064319 0.420265 0.602159
0.064807 0.453434 0.602452
0.065263 0.471076 0.609613
0.063778 0.485898 0.618421
0.060783 0.498528 0.628512
0.060270 0.511157 0.638928
0.061247 0.523786 0.649539
0.061910 0.535700 0.658405
0.062431 0.547288 0.666477
0.063684 0.556239 0.675282
0.065181 0.564311 0.684331
0.063029 0.573653 0.693856
0.060034 0.583288 0.703491
0.060515 0.589334 0.708683
0.061491 0.594867 0.713240
0.061552 0.598082 0.714013
0.061552 0.601141 0.714533
0.771545 0.110491 0.308265
0.776557 0.112574 0.313343
0.781570 0.114653 0.318669
0.786583 0.116671 0.327717
0.791408 0.118633 0.336270
0.794924 0.120195 0.341348
0.798061 0.121843 0.346694
0.799558 0.123861 0.353204
0.800811 0.124105 0.363734
0.801332 0.119027 0.386324
0.785171 0.119320 0.433082
0.732310 0.131429 0.533010
0.575842 0.179692 0.601910
0.246696 0.288214 0.619097
0.061324 0.374207 0.626571
0.060803 0.431235 0.621558
0.061812 0.467788 0.619768
0.064351 0.483868 0.621200
0.063485 0.497421 0.627503
0.059969 0.509009 0.637593
0.059912 0.520597 0.647684
0.061930 0.532184 0.657774
0.062919 0.543772 0.666477
0.063440 0.555360 0.674550
0.064303 0.564311 0.683745
0.065279 0.572384 0.693315
0.063029 0.580456 0.700822
0.060034 0.588528 0.707853
0.060970 0.593924 0.711807
0.062468 0.598936 0.715323
0.063049 0.601630 0.717007
0.063570 0.604169 0.718570
0.789708 0.112509 0.330464
0.792637 0.118759 0.337625
0.795567 0.124744 0.344774
0.798496 0.126762 0.351739
0.801369 0.129114 0.358729
0.803843 0.133801 0.365890
0.805938 0.137988 0.372343
0.806394 0.140006 0.375729
0.807126 0.139729 0.382092
0.808688 0.132568 0.397391
0.795522 0.131429 0.439787
0.749952 0.143537 0.541799
0.593354 0.192973 0.612782
0.251709 0.304619 0.632052
0.058850 0.392826 0.641609
0.057288 0.450895 0.638680
0.058297 0.485886 0.635327
0.061878 0.497799 0.631551
0.062053 0.508944 0.635575
0.059579 0.519490 0.645666
0.059912 0.530036 0.655756
0.061930 0.540582 0.665847
0.063635 0.551128 0.674550
0.065198 0.561675 0.682622
0.064758 0.570365 0.691036
0.063652 0.578438 0.699565
0.062704 0.586510 0.705183
0.061792 0.594583 0.710131
0.062077 0.598155 0.712914
0.062533 0.601085 0.715388
0.064026 0.604624 0.719937
0.065588 0.608205 0.724624
0.799924 0.122473 0.350393
0.802528 0.129374 0.358465
0.805022 0.135933 0.366301
0.805869 0.137365 0.370598
0.806862 0.139229 0.375220
0.808880 0.144111 0.382121
0.810629 0.148676 0.388216
0.811215 0.151866 0.390820
0.812013 0.152826 0.395653
0.813445 0.147098 0.407176
0.805214 0.144563 0.439755
0.775723 0.149055 0.518656
0.635474 0.191166 0.588720
0.310625 0.295977 0.644055
0.111378 0.383870 0.670196
0.073620 0.450012 0.658804
0.056759 0.491936 0.650080
0.060795 0.509643 0.644026
0.061755 0.522078 0.645735
0.060323 0.530410 0.653482
0.060681 0.539476 0.662694
0.062114 0.548980 0.672784
0.063143 0.558888 0.681487
0.063989 0.568978 0.689559
0.063127 0.576676 0.696753
0.061694 0.583577 0.703654
0.061902 0.590477 0.708227
0.062488 0.597378 0.712263
0.062561 0.600519 0.715046
0.062561 0.603123 0.717650
0.063904 0.606520 0.721841
0.065336 0.609971 0.726138
0.803961 0.138618 0.368555
0.807606 0.143436 0.376628
0.810947 0.147976 0.384269
0.809710 0.148367 0.385441
0.808880 0.149059 0.387068
0.810898 0.151858 0.391886
0.812843 0.155121 0.396483
0.814470 0.160394 0.400129
0.815788 0.163958 0.405483
0.816179 0.162396 0.415965
0.814393 0.158494 0.434481
0.807818 0.149445 0.470677
0.696733 0.177625 0.537486
0.411465 0.267854 0.655317
0.206684 0.353469 0.709321
0.105389 0.433151 0.681263
0.056759 0.488616 0.664207
0.060795 0.519864 0.658153
0.062341 0.536465 0.657518
0.061951 0.541673 0.661099
0.062048 0.548915 0.668748
0.062439 0.557378 0.678838
0.061711 0.566960 0.687541
0.060474 0.577050 0.695614
0.059872 0.583186 0.701245
0.059481 0.588003 0.706062
0.060730 0.592821 0.710245
0.062358 0.597638 0.714281
0.062561 0.601430 0.717976
0.062561 0.605076 0.721621
0.062927 0.607562 0.722948
0.063318 0.609971 0.724119
0.807997 0.149718 0.384196
0.810731 0.153103 0.390315
0.813249 0.156358 0.396256
0.812533 0.157660 0.399511
0.811996 0.158970 0.402700
0.812712 0.160337 0.405435
0.813551 0.162461 0.408291
0.814918 0.167864 0.411676
0.816106 0.172080 0.416087
0.816757 0.172731 0.423573
0.817632 0.170391 0.433399
0.818999 0.161472 0.448372
0.751889 0.174989 0.498255
0.570650 0.225897 0.606321
0.409406 0.296172 0.677162
0.273868 0.391349 0.700142
0.169057 0.464912 0.701119
0.094973 0.516861 0.680092
0.062561 0.544057 0.671661
0.062561 0.551999 0.673028
0.062561 0.559209 0.678220
0.062561 0.565979 0.685706
0.061174 0.574137 0.693148
0.059156 0.582926 0.700570
0.058651 0.588150 0.705452
0.058651 0.592186 0.709488
0.060291 0.596222 0.712995
0.062309 0.600259 0.716381
0.063131 0.603725 0.719766
0.063782 0.607110 0.723151
0.063822 0.609214 0.723973
0.063822 0.611232 0.724624
0.812033 0.157790 0.398322
0.812684 0.160134 0.401317
0.813380 0.162542 0.404653
0.814747 0.165928 0.413116
0.815772 0.168930 0.420603
0.814405 0.169256 0.421254
0.813355 0.170338 0.422222
0.813681 0.174700 0.424566
0.814348 0.178394 0.427154
0.816041 0.180087 0.430474
0.817306 0.181067 0.434831
0.817632 0.180482 0.441472
0.803383 0.178895 0.466226
0.764844 0.175640 0.521170
0.676576 0.222740 0.602232
0.524372 0.334581 0.716873
0.348733 0.428976 0.751702
0.149657 0.505925 0.706717
0.062561 0.547572 0.687220
0.062561 0.561764 0.687545
0.062561 0.570016 0.689743
0.062561 0.574703 0.693063
0.061174 0.580777 0.698486
0.059156 0.587483 0.704866
0.058651 0.592186 0.709488
0.058651 0.596222 0.713524
0.060291 0.600259 0.716185
0.062309 0.604295 0.718529
0.064042 0.606850 0.720873
0.065735 0.609194 0.723216
0.065841 0.611232 0.724949
0.065841 0.613250 0.726642
0.814682 0.165863 0.413837
0.814682 0.168597 0.415139
0.814763 0.171323 0.416811
0.816065 0.173927 0.424037
0.817042 0.176295 0.430449
0.815740 0.177011 0.431165
0.814816 0.178350 0.432260
0.815532 0.182386 0.434994
0.816395 0.185738 0.437549
0.817697 0.187040 0.439567
0.818816 0.188566 0.442887
0.819532 0.190584 0.449072
0.821712 0.186695 0.473224
0.826335 0.172958 0.527322
0.727484 0.221454 0.603522
0.495598 0.349961 0.708137
0.297466 0.449434 0.743877
0.133089 0.519872 0.710741
0.061174 0.558562 0.696647
0.061174 0.572559 0.697363
0.061174 0.580330 0.698893
0.061174 0.584366 0.700911
0.060771 0.588313 0.704720
0.060185 0.592219 0.709342
0.060038 0.595685 0.712987
0.060038 0.599005 0.716307
0.061678 0.603489 0.718570
0.063696 0.608241 0.720588
0.065088 0.610601 0.722606
0.066390 0.612619 0.724624
0.066471 0.614638 0.725971
0.066471 0.616656 0.727273
0.816700 0.173935 0.429981
0.816700 0.177711 0.430242
0.816716 0.181283 0.430677
0.816976 0.181804 0.433737
0.817172 0.182479 0.436634
0.816911 0.184237 0.438392
0.817029 0.186422 0.440528
0.818787 0.190458 0.444303
0.820170 0.193550 0.447640
0.820431 0.193811 0.449658
0.821159 0.194621 0.453954
0.822917 0.196639 0.463264
0.824967 0.196264 0.497962
0.827506 0.191903 0.574975
0.680092 0.252962 0.639457
0.339879 0.398135 0.687826
0.141226 0.495525 0.709504
0.084134 0.545131 0.704492
0.059156 0.572949 0.703287
0.059156 0.583821 0.705045
0.059156 0.590420 0.706966
0.059156 0.594457 0.708984
0.060185 0.596255 0.711360
0.061682 0.597036 0.713899
0.062057 0.598940 0.716242
0.062057 0.601219 0.718521
0.063696 0.606354 0.720588
0.065714 0.612147 0.722606
0.066194 0.614638 0.724624
0.066455 0.616656 0.726642
0.066471 0.618674 0.727012
0.066471 0.620692 0.727273
0.817204 0.180494 0.437045
0.817986 0.183749 0.438607
0.818767 0.186898 0.440198
0.819548 0.188460 0.442216
0.820231 0.190080 0.444234
0.820231 0.192098 0.446252
0.820610 0.194494 0.448649
0.822628 0.198531 0.452685
0.823946 0.201753 0.456021
0.823165 0.202534 0.457258
0.823259 0.203702 0.460774
0.825277 0.205720 0.469302
0.827588 0.207103 0.497165
0.830387 0.207429 0.557252
0.733474 0.261669 0.619390
0.508358 0.385229 0.684164
0.313481 0.475458 0.714436
0.148843 0.532355 0.710204
0.071980 0.566879 0.709049
0.063387 0.584000 0.710286
0.060165 0.593431 0.712011
0.060165 0.598249 0.714029
0.061552 0.600828 0.716047
0.063570 0.602391 0.718065
0.064075 0.603709 0.719497
0.064075 0.604946 0.720734
0.065080 0.609462 0.722606
0.066317 0.614735 0.724624
0.066471 0.617160 0.726642
0.066471 0.619178 0.728660
0.067204 0.621196 0.728786
0.067985 0.623214 0.728786
0.817204 0.186548 0.441081
0.819027 0.188762 0.444727
0.820850 0.191064 0.448270
0.822673 0.194710 0.450289
0.824268 0.198152 0.452307
0.824268 0.200170 0.454325
0.824646 0.202567 0.456721
0.826664 0.206603 0.460757
0.827722 0.210086 0.463833
0.825899 0.211909 0.464029
0.825277 0.213792 0.466177
0.827295 0.215811 0.472622
0.829996 0.218366 0.487855
0.833837 0.221816 0.517736
0.820447 0.262776 0.580655
0.784902 0.351963 0.686052
0.595234 0.433338 0.732469
0.251441 0.506901 0.719904
0.089753 0.553989 0.714517
0.069702 0.580484 0.714712
0.062183 0.594082 0.716047
0.062183 0.599941 0.718065
0.063570 0.604278 0.720083
0.065588 0.607924 0.722101
0.066093 0.608982 0.722752
0.066093 0.609177 0.722948
0.066251 0.612652 0.724624
0.066447 0.616883 0.726642
0.066471 0.619178 0.728660
0.066471 0.621196 0.730678
0.068180 0.623214 0.730804
0.070003 0.625233 0.730804
0.820484 0.195882 0.451676
0.822502 0.198746 0.454866
0.824467 0.201631 0.457983
0.825639 0.204821 0.460001
0.826664 0.207970 0.462125
0.826664 0.210834 0.464989
0.827043 0.214236 0.467756
0.829061 0.219965 0.470099
0.830281 0.224977 0.472280
0.829109 0.227842 0.473973
0.828935 0.230971 0.477028
0.830953 0.234681 0.483083
0.833093 0.239466 0.493092
0.835436 0.246041 0.509692
0.837495 0.271870 0.553663
0.839188 0.322452 0.632825
0.732163 0.393704 0.691578
0.516422 0.485626 0.729921
0.320052 0.543638 0.738604
0.138748 0.575276 0.724217
0.068644 0.593570 0.720083
0.065259 0.603855 0.722101
0.065006 0.609263 0.723538
0.066178 0.612453 0.724709
0.067106 0.613885 0.725637
0.067952 0.614731 0.726483
0.068111 0.616794 0.727594
0.068111 0.619138 0.728766
0.068111 0.621937 0.729938
0.068111 0.624801 0.731110
0.072383 0.626872 0.731183
0.076940 0.628890 0.731183
0.824520 0.205972 0.463785
0.826538 0.209878 0.465933
0.828438 0.213674 0.468073
0.828568 0.215823 0.470091
0.828682 0.218191 0.472345
0.828682 0.222097 0.476251
0.829061 0.226735 0.479474
0.831079 0.234547 0.479734
0.832560 0.241383 0.480873
0.832430 0.245289 0.484649
0.832971 0.249785 0.489137
0.834989 0.255579 0.495191
0.836348 0.262837 0.501685
0.836608 0.272537 0.508911
0.838407 0.282807 0.529381
0.842182 0.293808 0.566879
0.835672 0.354644 0.637089
0.818877 0.465314 0.740012
0.599396 0.533873 0.766988
0.222272 0.569678 0.734893
0.076130 0.592788 0.724119
0.068579 0.608282 0.726138
