其他预设/【236】赛博朋克风调色预设/【后期菌】视频调色预设/CUBE/Glitch 05_S.cube
# LUT by SparkleStock. Enhanced with VOXCOLOR algorithms.
LUT_3D_SIZE 5
DOMAIN_MIN 0.000000 0.000000 0.000000
DOMAIN_MAX 0.903226 0.903226 0.903226
0.000000 0.093842 0.035191
0.000000 0.104058 0.125753
0.010469 0.151736 0.197522
0.012992 0.295525 0.437675
0.036200 0.471226 0.678082
0.175322 0.097752 0.085643
0.255583 0.105869 0.245309
0.107464 0.258443 0.309652
0.171632 0.380168 0.455208
0.129053 0.572709 0.753781
0.718948 0.105572 0.290480
0.802809 0.124003 0.356467
0.131193 0.384822 0.472288
0.210859 0.528238 0.557187
0.169183 0.693449 0.853701
0.935137 0.144799 0.531391
0.954830 0.161322 0.575553
0.742783 0.260192 0.702038
0.139273 0.689303 0.855186
0.203413 0.773595 0.911424
0.961120 0.233091 0.668117
0.963118 0.283165 0.706188
0.968143 0.336644 0.744964
0.345010 0.743580 0.928794
0.326765 0.822294 0.927695
0.007189 0.095355 0.054741
0.028078 0.099607 0.178203
0.065714 0.150023 0.240081
0.094969 0.274588 0.442745
0.053911 0.489694 0.697034
0.252071 0.097752 0.099570
0.523902 0.125512 0.284284
0.194655 0.304855 0.401777
0.319097 0.383765 0.484620
0.256633 0.589814 0.745492
0.761397 0.112131 0.322929
0.807382 0.182422 0.446663
0.339388 0.386965 0.485872
0.349105 0.543880 0.537495
0.353317 0.670604 0.722690
0.947372 0.147574 0.552976
0.960398 0.203880 0.639211
0.852157 0.324930 0.640939
0.259796 0.730680 0.770439
0.432627 0.770207 0.736287
0.959606 0.250065 0.681666
0.963716 0.378854 0.754102
0.967313 0.448605 0.780464
0.528492 0.757994 0.922756
0.511475 0.851203 0.839361
0.193233 0.097752 0.092580
0.358319 0.098293 0.191260
0.048674 0.177353 0.304347
0.059868 0.320862 0.515043
0.059762 0.513606 0.728640
0.538381 0.098293 0.191992
0.750416 0.128532 0.384981
0.232682 0.284134 0.574521
0.289300 0.420162 0.634943
0.238521 0.631975 0.829371
0.807789 0.110755 0.354107
0.854385 0.172540 0.521814
0.667654 0.305945 0.601972
0.371589 0.584957 0.672988
0.518931 0.631573 0.707177
0.955318 0.156024 0.577254
0.957382 0.217440 0.652819
0.903809 0.370174 0.709049
0.416142 0.721817 0.768072
0.617779 0.753348 0.702632
0.950545 0.268806 0.692753
0.957779 0.408551 0.767016
0.959268 0.568832 0.822620
0.861286 0.688955 0.845910
0.693038 0.871951 0.769508
0.549428 0.101031 0.198404
0.668817 0.105295 0.265828
0.000000 0.285305 0.529072
0.003056 0.377857 0.560165
0.063603 0.543971 0.758679
0.781477 0.109978 0.339875
0.921396 0.138831 0.386334
0.625650 0.214531 0.570619
0.137524 0.560253 0.794726
0.175309 0.708183 0.903551
0.925254 0.132658 0.506201
0.958934 0.165555 0.602340
0.931807 0.259425 0.688538
0.283870 0.672364 0.876915
0.470008 0.681415 0.845956
0.967378 0.158848 0.597227
0.968970 0.232859 0.679809
0.973447 0.369240 0.762651
0.623233 0.692584 0.860135
0.703050 0.770830 0.814543
0.969766 0.282339 0.716963
0.972090 0.426933 0.779068
0.969884 0.591058 0.840279
0.933393 0.742418 0.865512
0.782628 0.889629 0.854191
0.759436 0.111248 0.295399
0.430234 0.206994 0.057483
0.340737 0.318921 0.060816
0.164801 0.482542 0.228086
0.076269 0.577315 0.779117
0.776924 0.171209 0.140091
0.515776 0.447521 0.096865
0.567185 0.509266 0.108961
0.498933 0.622427 0.156011
0.169651 0.744397 0.896691
0.964021 0.156635 0.519974
0.835619 0.425263 0.184262
0.806801 0.651518 0.147865
0.672585 0.764831 0.243707
0.418400 0.801557 0.812256
0.962503 0.201904 0.651818
0.962875 0.354435 0.613622
0.932470 0.653327 0.269219
0.925287 0.826542 0.266944
0.647374 0.873317 0.770149
0.955957 0.311088 0.734511
0.962902 0.468691 0.797691
0.961935 0.646870 0.755095
0.968064 0.816322 0.704245
0.938927 0.936069 0.588896
