其他预设/【236】赛博朋克风调色预设/【后期菌】视频调色预设/CUBE/Glitch 09.cube
# LUT by SparkleStock. Enhanced with VOXCOLOR algorithms.
LUT_3D_SIZE 5
DOMAIN_MIN 0.000000 0.000000 0.000000
DOMAIN_MAX 0.903226 0.903226 0.903226
0.066471 0.070381 0.003910
0.061930 0.100148 0.091445
0.061678 0.160439 0.169773
0.061930 0.309148 0.434396
0.060795 0.452054 0.589285
0.216189 0.093211 0.070003
0.323295 0.104742 0.270564
0.069751 0.290175 0.395133
0.069112 0.430116 0.571903
0.063643 0.534113 0.655073
0.723110 0.109482 0.251758
0.774950 0.112078 0.307960
0.066272 0.384916 0.588097
0.059880 0.515389 0.641141
0.060710 0.584386 0.703540
0.812033 0.157790 0.398322
0.813681 0.174700 0.424566
0.676576 0.222740 0.602232
0.062561 0.574703 0.693063
0.064042 0.606850 0.720873
0.826790 0.221360 0.472361
0.834863 0.258244 0.493698
0.846951 0.318123 0.534890
0.134899 0.612139 0.738092
0.073742 0.627967 0.731183
0.084508 0.078201 0.021947
0.072892 0.099859 0.158022
0.064958 0.182439 0.217178
0.066858 0.334122 0.464684
0.060795 0.469261 0.603896
0.311434 0.097121 0.087795
0.651867 0.112071 0.288771
0.075121 0.392551 0.539526
0.062092 0.506064 0.632465
0.059501 0.572981 0.691895
0.748857 0.112851 0.277306
0.810851 0.147571 0.383642
0.193388 0.353972 0.653534
0.058252 0.563560 0.684229
0.058895 0.601243 0.716678
0.813294 0.164341 0.407790
0.823868 0.200475 0.455462
0.827116 0.235425 0.535013
0.056790 0.596476 0.713020
0.064849 0.617690 0.724608
0.827873 0.230515 0.474526
0.859800 0.380685 0.553737
0.882980 0.493576 0.598290
0.363580 0.681436 0.776783
0.172457 0.662084 0.742454
0.222496 0.094725 0.075679
0.437427 0.098492 0.202392
0.061878 0.204630 0.269453
0.065242 0.358892 0.491346
0.059050 0.485984 0.615793
0.618348 0.108851 0.176531
0.778006 0.113547 0.315556
0.073391 0.338036 0.603111
0.061491 0.519044 0.642632
0.057614 0.583165 0.701762
0.767374 0.111732 0.299932
0.814784 0.158197 0.399559
0.725280 0.215124 0.555552
0.051682 0.590650 0.705115
0.060007 0.612553 0.721906
0.816574 0.174171 0.422523
0.825033 0.208385 0.462265
0.848672 0.324329 0.533799
0.110561 0.610383 0.731054
0.117022 0.639650 0.725695
0.828955 0.236537 0.482851
0.869646 0.426079 0.569953
0.916250 0.653472 0.673797
0.882187 0.760208 0.813955
0.530193 0.771118 0.798765
0.623467 0.108851 0.180746
0.698861 0.112761 0.237709
0.056255 0.300538 0.485882
0.061503 0.376575 0.514912
0.062215 0.500204 0.629554
0.755905 0.111878 0.289841
0.795118 0.136350 0.299245
0.615984 0.200218 0.499784
0.062561 0.536611 0.655862
0.060499 0.590196 0.707397
0.809148 0.146739 0.381990
0.817304 0.182378 0.434940
0.829365 0.229163 0.479850
0.070829 0.589914 0.716189
0.063928 0.617811 0.723363
0.817204 0.179456 0.435100
0.827873 0.221472 0.472277
0.859517 0.370591 0.551308
0.477603 0.676639 0.775026
0.462166 0.748280 0.785288
0.834265 0.261218 0.493804
0.877369 0.463267 0.585130
0.921752 0.685994 0.691670
0.935006 0.800646 0.776833
0.755602 0.850493 0.834562
0.745688 0.113392 0.254911
0.479742 0.246420 0.101198
0.325236 0.350030 0.161045
0.120854 0.425477 0.306397
0.062561 0.520804 0.639319
0.726569 0.188627 0.104123
0.557766 0.491992 0.247017
0.587299 0.544846 0.281498
0.391249 0.558696 0.350278
0.062325 0.595361 0.699209
0.811907 0.172442 0.388378
0.766222 0.440936 0.229978
0.748798 0.634211 0.312090
0.542008 0.664986 0.440560
0.159029 0.644831 0.680776
0.824394 0.201684 0.456156
0.839737 0.358560 0.452715
0.819922 0.640691 0.326596
0.807977 0.724419 0.401074
0.464850 0.752464 0.700629
0.838313 0.285447 0.507520
0.889791 0.521125 0.607934
0.914005 0.723564 0.645366
0.897059 0.798506 0.628789
0.855260 0.822586 0.615941
