其他预设/【236】赛博朋克风调色预设/【后期菌】视频调色预设/CUBE/Glitch 04_S.cube
# LUT by SparkleStock. Enhanced with VOXCOLOR algorithms.
LUT_3D_SIZE 32
0.000000 0.000000 0.003910
0.024217 0.002018 0.024091
0.048056 0.004162 0.044650
0.066219 0.008199 0.070886
0.080346 0.018037 0.109986
0.066219 0.068489 0.239145
0.052092 0.109482 0.326302
0.037966 0.109482 0.231451
0.028884 0.115032 0.167881
0.034938 0.137231 0.198152
0.041623 0.158799 0.229054
0.049696 0.178980 0.261344
0.057011 0.198404 0.289850
0.063066 0.216567 0.312049
0.070003 0.236496 0.337779
0.078075 0.258695 0.368051
0.083120 0.278876 0.393277
0.085139 0.297039 0.413458
0.088292 0.314067 0.441585
0.092328 0.330212 0.475893
0.093842 0.353924 0.515246
0.093842 0.382178 0.557626
0.092454 0.403494 0.588907
0.090436 0.421657 0.615142
0.088418 0.453442 0.642891
0.086400 0.489768 0.671144
0.089301 0.521174 0.694479
0.093337 0.551446 0.716678
0.095607 0.572888 0.733579
0.097626 0.593069 0.749724
0.101536 0.609466 0.763977
0.105572 0.625611 0.778104
0.034308 0.002018 0.032163
0.050192 0.004036 0.049220
0.066414 0.006246 0.067045
0.087702 0.011323 0.096405
0.104823 0.020641 0.137719
0.092780 0.059636 0.262711
0.078197 0.095225 0.348436
0.052613 0.116057 0.264001
0.034938 0.136189 0.205899
0.040993 0.154222 0.226796
0.048654 0.172926 0.250277
0.059851 0.193107 0.279442
0.070292 0.212531 0.305213
0.079471 0.230694 0.325329
0.089077 0.248344 0.346242
0.099233 0.265335 0.368181
0.106361 0.282912 0.390803
0.110462 0.301075 0.414109
0.115113 0.317517 0.440674
0.120191 0.332620 0.469774
0.122095 0.355291 0.503268
0.122095 0.382503 0.539398
0.117127 0.408507 0.575171
0.109901 0.433961 0.610780
0.104237 0.465225 0.641654
0.099094 0.498426 0.670949
0.097178 0.532632 0.699556
0.096006 0.567070 0.728005
0.098537 0.589944 0.745688
0.101597 0.611167 0.761833
0.104595 0.626653 0.774133
0.107590 0.641756 0.786176
0.068615 0.004541 0.061426
0.076948 0.006559 0.075357
0.086262 0.008817 0.090412
0.110283 0.014676 0.122311
0.129919 0.023367 0.165382
0.118852 0.051881 0.286664
0.103086 0.082616 0.371265
0.066955 0.122978 0.296921
0.041371 0.156830 0.243995
0.047425 0.171152 0.255322
0.056002 0.187305 0.271247
0.070129 0.207486 0.297287
0.083523 0.226788 0.320202
0.095697 0.244625 0.337910
0.107814 0.259985 0.354136
0.119857 0.272159 0.368458
0.128971 0.287262 0.388574
0.135156 0.305295 0.414484
0.141230 0.321130 0.439368
0.147220 0.335257 0.463455
0.149466 0.356951 0.491448
0.149466 0.383187 0.521785
0.141230 0.413450 0.561475
0.129252 0.445544 0.605418
0.120203 0.476467 0.639351
0.112131 0.506999 0.669948
0.105645 0.543825 0.703825
0.099526 0.582104 0.738458
0.101951 0.606484 0.757312
0.105596 0.628878 0.773913
0.107655 0.643522 0.784288
0.109608 0.657648 0.794248
0.102923 0.014631 0.105824
0.115422 0.016649 0.116631
0.128446 0.018712 0.128365
0.149343 0.021446 0.154014
0.164292 0.027924 0.192008
0.137601 0.060604 0.316414
0.109726 0.094725 0.404531
0.076720 0.135087 0.335395
0.053480 0.169720 0.283250
0.059534 0.187167 0.282078
0.068111 0.205468 0.288434
0.082238 0.225649 0.311349
0.096022 0.242998 0.329577
0.109238 0.255627 0.339993
0.121485 0.268513 0.353485
0.132487 0.281728 0.370932
0.142121 0.296311 0.390006
0.150389 0.312260 0.410708
0.156789 0.327184 0.432142
0.161737 0.341311 0.454146
0.163592 0.363006 0.482008
0.163592 0.389241 0.513387
0.156789 0.417356 0.548390
0.146894 0.446326 0.585041
0.138366 0.479592 0.621058
0.130294 0.514290 0.656863
0.122962 0.551051 0.695947
0.115801 0.588288 0.735789
0.112627 0.615272 0.761674
0.110023 0.640791 0.785566
0.110715 0.655630 0.794444
0.111626 0.669757 0.802321
0.141772 0.024469 0.149466
0.158437 0.026357 0.157668
0.175229 0.028127 0.166546
0.193913 0.028127 0.185555
0.205736 0.032408 0.217267
0.169541 0.066650 0.337897
0.133089 0.102431 0.425974
0.095526 0.144876 0.372982
0.068379 0.181885 0.328942
0.072481 0.202587 0.311756
0.079715 0.223085 0.305962
0.093842 0.243136 0.325231
0.107920 0.258793 0.338886
0.121916 0.267126 0.343183
0.134375 0.277822 0.354087
0.144856 0.291558 0.373487
0.155207 0.305490 0.391129
0.165427 0.319617 0.407013
0.172096 0.333816 0.425241
0.176002 0.348073 0.445292
0.177385 0.369573 0.472829
0.177255 0.395417 0.504859
0.172023 0.421799 0.535858
0.164471 0.448425 0.566390
0.156334 0.483449 0.604392
0.148001 0.521272 0.644885
0.139774 0.557878 0.688233
0.131571 0.594204 0.732241
0.122799 0.624036 0.765141
0.113945 0.652941 0.796454
0.113880 0.668113 0.804575
0.114401 0.682370 0.811150
0.212405 0.032542 0.187809
0.233237 0.033388 0.197054
0.254195 0.034182 0.206322
0.277045 0.034182 0.215957
0.296681 0.036379 0.232956
0.293817 0.053956 0.301507
0.273509 0.079320 0.364649
0.177617 0.138431 0.404360
0.102817 0.188981 0.419692
0.091295 0.213849 0.361883
0.087787 0.236887 0.325882
0.101914 0.255896 0.337861
0.115601 0.271683 0.347740
0.128556 0.282099 0.354120
0.141796 0.292600 0.363461
0.155402 0.303211 0.376612
0.167836 0.315580 0.390087
0.179098 0.329707 0.403889
0.185637 0.344493 0.420619
0.188501 0.359791 0.439628
0.188843 0.379728 0.465473
0.187671 0.402448 0.495419
0.184978 0.430002 0.527200
0.181592 0.459752 0.559815
0.172934 0.492433 0.599119
0.162518 0.526089 0.640653
0.153054 0.561915 0.681658
0.143810 0.598240 0.722541
0.129439 0.632630 0.762341
0.114336 0.666742 0.801987
0.117786 0.683216 0.814535
0.122473 0.698515 0.825277
0.288336 0.039479 0.223126
0.313139 0.039674 0.233021
0.338129 0.039894 0.242461
0.365927 0.040480 0.245065
0.393155 0.041448 0.250379
0.416396 0.045094 0.274661
0.410317 0.060470 0.315043
0.277188 0.126676 0.425192
0.166843 0.185153 0.488518
0.124854 0.220437 0.411375
0.099668 0.250432 0.357729
0.111451 0.268790 0.355776
0.123356 0.284804 0.357216
0.135465 0.296913 0.364312
0.149254 0.307341 0.371749
0.165203 0.315609 0.379627
0.179135 0.326708 0.389326
0.191048 0.340640 0.400849
0.197615 0.355926 0.416217
0.200024 0.372266 0.434575
0.199910 0.391007 0.459240
0.198282 0.411188 0.487688
0.197774 0.439559 0.519897
0.197774 0.471654 0.553814
0.188692 0.502234 0.593932
0.176584 0.532310 0.636116
0.166274 0.566988 0.675022
0.156378 0.602728 0.713170
0.137996 0.640576 0.758895
0.118401 0.678724 0.805702
0.123096 0.696977 0.822970
0.129411 0.713903 0.838268
0.387223 0.041497 0.245325
0.415151 0.042734 0.254179
0.443591 0.044126 0.262837
0.479722 0.047836 0.268566
0.513590 0.051278 0.275312
0.531623 0.052841 0.289178
0.531468 0.060079 0.316215
0.452502 0.091913 0.400324
0.359083 0.133984 0.462348
0.222308 0.206766 0.458117
0.128052 0.262866 0.441252
0.127336 0.282265 0.396593
0.131429 0.298931 0.369390
0.143537 0.311040 0.371277
0.156871 0.321924 0.375330
0.171779 0.331233 0.382165
0.184668 0.342332 0.389782
0.195540 0.355222 0.398180
0.202823 0.370639 0.412767
0.207315 0.388020 0.432166
0.209284 0.407152 0.457873
0.209740 0.427333 0.487363
0.209882 0.454988 0.518464
0.209882 0.486041 0.550298
0.200801 0.515580 0.589114
0.188692 0.544614 0.630257
0.179228 0.576558 0.668121
0.170375 0.609173 0.705228
0.154857 0.645719 0.752645
0.138386 0.682826 0.801536
0.134488 0.704919 0.824793
0.131429 0.726011 0.846341
0.485605 0.044524 0.268029
0.515616 0.046803 0.275580
0.546173 0.049285 0.283181
0.584907 0.054818 0.291514
0.620435 0.059693 0.299790
0.633521 0.059953 0.307667
0.636523 0.061397 0.325980
0.595836 0.067973 0.389518
0.511987 0.098391 0.448938
0.298654 0.200337 0.496005
0.149079 0.276732 0.505131
0.139770 0.296913 0.430787
0.138590 0.314067 0.382979
0.150959 0.326175 0.379399
0.163869 0.337401 0.379806
0.177475 0.347492 0.385339
0.189714 0.358721 0.391263
0.200585 0.371090 0.397578
0.208454 0.386132 0.411399
0.213988 0.403254 0.431060
0.217812 0.422450 0.456213
0.220612 0.442892 0.484661
0.220770 0.470449 0.516153
0.219729 0.501241 0.549029
0.210778 0.529739 0.586738
0.199190 0.557472 0.626059
0.190670 0.587055 0.663157
0.182858 0.617067 0.699744
0.168837 0.652831 0.749146
0.153929 0.689417 0.800380
0.145002 0.714407 0.827445
0.136474 0.738625 0.852899
0.582474 0.050579 0.292246
0.611444 0.053899 0.297714
0.640112 0.057227 0.303427
0.664264 0.060677 0.312801
0.686512 0.063859 0.322900
0.695431 0.065161 0.338068
0.693291 0.067842 0.361525
0.643229 0.076501 0.420896
0.546881 0.109523 0.473806
0.311674 0.215636 0.507332
0.148037 0.294895 0.510079
0.141853 0.315076 0.445109
0.143017 0.332230 0.400817
0.156427 0.344338 0.390986
0.169012 0.355564 0.386967
0.180534 0.365654 0.390417
0.193294 0.377405 0.395820
0.207291 0.390816 0.403176
0.215355 0.403970 0.416282
0.218805 0.416925 0.433859
0.223802 0.435210 0.453674
0.229726 0.456693 0.474831
0.227996 0.486008 0.511206
0.222788 0.518884 0.554497
0.214358 0.546339 0.591686
0.204853 0.571989 0.626840
0.197570 0.600336 0.664004
0.190800 0.629305 0.701631
0.174175 0.665851 0.753899
0.156142 0.703479 0.808257
0.152879 0.728534 0.832588
0.150601 0.752751 0.854918
0.668622 0.057264 0.317725
0.694597 0.060974 0.322737
0.719750 0.064600 0.328047
0.732574 0.066943 0.337812
0.744553 0.069246 0.348594
0.750607 0.071264 0.366497
0.746030 0.074796 0.390478
0.695382 0.084886 0.440800
0.596218 0.117420 0.486061
0.351507 0.217283 0.516137
0.176515 0.295705 0.520255
0.154901 0.326953 0.467263
0.146202 0.351145 0.427259
0.159027 0.363579 0.408901
0.170940 0.374846 0.398746
0.181682 0.384611 0.399136
0.194800 0.396719 0.403530
0.210293 0.411172 0.411928
0.219123 0.423903 0.424135
0.222768 0.435295 0.439303
0.228570 0.453238 0.455895
0.235666 0.475112 0.473342
0.232781 0.504415 0.512361
0.225360 0.537095 0.561186
0.216962 0.563672 0.598586
0.208239 0.588215 0.632178
0.200890 0.616037 0.670953
0.193860 0.644616 0.710924
0.176462 0.681739 0.764225
0.157583 0.720083 0.819430
0.159210 0.743047 0.839359
0.162205 0.764986 0.856936
0.731183 0.065336 0.345978
0.749866 0.068005 0.354115
0.767924 0.070719 0.362290
0.776582 0.074104 0.371013
0.784915 0.077318 0.379972
0.790969 0.079337 0.390584
0.789907 0.082868 0.404930
0.758008 0.092959 0.435462
0.677333 0.118201 0.470567
0.450329 0.188900 0.519392
0.269933 0.258337 0.541933
0.192073 0.325000 0.506649
0.146658 0.371717 0.472634
0.155316 0.385193 0.440735
0.165797 0.396589 0.420684
0.178622 0.405313 0.415867
0.191740 0.417421 0.418178
0.205150 0.432915 0.427617
0.215998 0.448445 0.438522
0.224851 0.464004 0.450565
0.230653 0.482859 0.468590
0.234624 0.503691 0.490203
0.232195 0.529088 0.526944
0.226857 0.556560 0.570561
0.217418 0.582616 0.609784
0.206611 0.608201 0.647542
0.196333 0.637064 0.691329
0.186178 0.666685 0.736509
0.172035 0.703938 0.786815
0.157322 0.742282 0.837853
0.162140 0.758411 0.849710
0.168259 0.773058 0.858954
0.783906 0.071895 0.374988
0.796861 0.074304 0.386250
0.809360 0.076790 0.397362
0.815023 0.080435 0.406216
0.820785 0.083828 0.415110
0.827230 0.085456 0.424289
0.828463 0.088670 0.433835
0.807110 0.098761 0.444967
0.746681 0.117493 0.466694
0.569023 0.162152 0.520206
0.403632 0.222801 0.552235
0.265230 0.318628 0.537002
0.174846 0.385136 0.512492
0.164495 0.402778 0.472520
0.163999 0.417258 0.445308
0.176173 0.427674 0.434502
0.188509 0.440955 0.433948
0.201008 0.457100 0.443648
0.213068 0.473720 0.453348
0.224786 0.490712 0.463048
0.230442 0.509696 0.482065
0.232460 0.529877 0.506673
0.230584 0.552833 0.541844
0.226939 0.577050 0.581815
0.217825 0.601609 0.621200
0.206888 0.626282 0.660391
0.195634 0.656456 0.707409
0.184306 0.687899 0.756234
0.172637 0.723330 0.802667
0.160919 0.759330 0.848757
0.167388 0.771773 0.856154
0.175070 0.782644 0.860972
0.820231 0.075931 0.405260
0.830062 0.079381 0.419647
0.839566 0.082779 0.433818
0.844188 0.085383 0.444755
0.849168 0.087734 0.456514
0.856655 0.088320 0.474026
0.858148 0.090688 0.486826
0.833671 0.100779 0.479209
0.796417 0.114303 0.482188
0.720836 0.138130 0.516951
0.604466 0.190316 0.543577
0.398359 0.304892 0.552300
0.249256 0.386633 0.543154
0.195158 0.413649 0.504224
0.167775 0.436137 0.474408
0.174741 0.452803 0.456310
0.184994 0.469208 0.451591
0.198535 0.485353 0.460249
0.210464 0.500216 0.468907
0.221141 0.514082 0.477565
0.226406 0.531895 0.496843
0.228424 0.552076 0.522493
0.227264 0.575032 0.557272
0.224660 0.599250 0.596202
0.218150 0.620684 0.632984
0.210338 0.641190 0.669049
0.201362 0.673122 0.716328
0.192118 0.707690 0.766194
0.181621 0.738043 0.807289
0.170944 0.767793 0.847130
0.176502 0.781798 0.856089
0.183143 0.794753 0.862990
0.849494 0.080850 0.443477
0.856655 0.083975 0.459167
0.863649 0.087031 0.474717
0.868141 0.089049 0.488193
0.873080 0.090871 0.502531
0.881153 0.091327 0.522908
0.883391 0.093418 0.536998
0.860345 0.102598 0.523847
0.837723 0.113193 0.518102
0.816370 0.128035 0.534573
0.735207 0.172214 0.551124
0.522460 0.280931 0.567855
0.350067 0.368848 0.567521
0.244931 0.422100 0.538747
0.183570 0.459887 0.511853
0.178492 0.477789 0.487375
0.182561 0.495269 0.477350
0.195776 0.512325 0.481777
0.206721 0.527111 0.489536
0.215900 0.540131 0.499887
0.221173 0.557057 0.519311
0.224103 0.576326 0.544179
0.223631 0.598371 0.577998
0.221613 0.621676 0.615887
0.216909 0.642150 0.651773
0.211311 0.661680 0.686992
0.202961 0.694116 0.734218
0.193978 0.729531 0.784215
0.185222 0.755717 0.820655
0.176498 0.780586 0.855158
0.182911 0.793248 0.860610
0.190332 0.805096 0.864125
0.869675 0.086904 0.491912
0.874753 0.087946 0.506559
0.879859 0.089049 0.521329
0.885392 0.091067 0.537929
0.891243 0.093020 0.554481
0.899316 0.094517 0.570691
0.902921 0.097064 0.583544
0.887166 0.104160 0.581852
0.868190 0.114755 0.580273
0.839546 0.135847 0.579036
0.775829 0.172604 0.579508
0.634953 0.243824 0.583739
0.484824 0.326273 0.583796
0.319275 0.427438 0.576896
0.214818 0.489898 0.560027
0.188908 0.502592 0.530341
0.181519 0.518509 0.513545
0.192651 0.537649 0.509639
0.201513 0.554518 0.516682
0.208609 0.569621 0.532241
0.214403 0.586026 0.551665
0.219415 0.603212 0.573409
0.219594 0.623174 0.605536
0.217576 0.644396 0.642382
0.213654 0.666693 0.679571
0.209097 0.689348 0.716873
0.199251 0.720677 0.763643
0.188184 0.754008 0.812598
0.181902 0.777200 0.845262
0.176303 0.798944 0.875599
0.185840 0.806528 0.871026
0.196386 0.813168 0.864125
0.889856 0.092959 0.543373
0.893892 0.094000 0.558542
0.897957 0.095070 0.573734
0.902449 0.096568 0.589293
0.907323 0.098130 0.604543
0.914875 0.100148 0.617628
0.918935 0.102923 0.628626
0.907868 0.108977 0.630579
0.892016 0.119703 0.629391
0.861810 0.144441 0.618780
0.808737 0.178333 0.611505
0.705358 0.232366 0.611570
0.565190 0.314620 0.612147
0.363706 0.443909 0.613580
0.233111 0.521732 0.601170
0.193660 0.533385 0.570964
0.178199 0.548260 0.551824
0.186727 0.566358 0.543752
0.194157 0.582771 0.549265
0.200732 0.597874 0.565345
0.206330 0.613954 0.585941
0.211343 0.630620 0.609246
0.211880 0.648986 0.640071
0.210383 0.668125 0.674314
0.206981 0.691854 0.711242
0.202945 0.717113 0.749065
0.195312 0.745122 0.790432
0.186849 0.773766 0.832617
0.182715 0.793638 0.860333
0.179200 0.812257 0.885982
0.191309 0.817204 0.877698
0.204459 0.821241 0.867152
0.910037 0.099013 0.597862
0.914073 0.102138 0.615114
0.917942 0.105096 0.631934
0.919310 0.105552 0.642285
0.921320 0.106203 0.652717
0.927830 0.108221 0.663719
0.931434 0.110995 0.672243
0.922451 0.117050 0.670029
0.909203 0.128035 0.665456
0.883163 0.153815 0.653803
0.833931 0.189400 0.647114
0.733677 0.246558 0.651346
0.591165 0.333890 0.652575
0.378223 0.471511 0.648799
0.238449 0.555388 0.635282
0.192749 0.570166 0.609242
0.172600 0.584521 0.592186
0.178004 0.598452 0.584114
0.184652 0.611871 0.587283
0.192269 0.624891 0.599197
0.196956 0.640840 0.622136
0.199885 0.658547 0.651692
0.200488 0.675807 0.681605
0.200032 0.692863 0.711681
0.196891 0.717634 0.746786
0.192855 0.744976 0.783568
0.191146 0.767452 0.814584
0.189974 0.788804 0.844270
0.187663 0.805031 0.865867
0.185189 0.820524 0.886308
0.199316 0.825277 0.880628
0.214549 0.829313 0.873207
0.923407 0.103932 0.640999
0.926857 0.109140 0.656818
0.930092 0.114023 0.672044
0.930092 0.114023 0.678358
0.930629 0.114348 0.684998
0.934925 0.116952 0.693917
0.937452 0.120423 0.701286
0.932309 0.127649 0.701937
0.923570 0.138309 0.699984
0.904040 0.159271 0.690219
0.867034 0.189225 0.684115
0.791583 0.238962 0.686068
0.663572 0.323022 0.685458
0.447961 0.464289 0.680576
0.294724 0.557736 0.669798
0.221682 0.589700 0.651439
0.181613 0.612908 0.638810
0.174517 0.627361 0.631909
0.175294 0.639176 0.632918
0.182195 0.648941 0.640079
0.186410 0.663955 0.660749
0.189014 0.682118 0.689523
0.190633 0.700504 0.718745
0.191805 0.718993 0.748170
0.189510 0.741729 0.779694
0.186060 0.765881 0.811919
0.187529 0.785167 0.836685
0.190133 0.803330 0.859731
0.191256 0.815398 0.874403
0.192167 0.826595 0.887878
0.208458 0.832177 0.884693
0.225775 0.837385 0.880396
0.931479 0.107968 0.675307
0.933888 0.115260 0.686960
0.936146 0.122095 0.698084
0.936146 0.122095 0.701273
0.936293 0.122551 0.704919
0.937464 0.126196 0.711755
0.938429 0.130904 0.718993
0.938494 0.140213 0.727977
0.935743 0.150092 0.733315
0.924546 0.161680 0.727716
0.906290 0.180307 0.722199
0.872503 0.214419 0.716861
0.772094 0.288714 0.712475
0.560649 0.429981 0.709675
0.390616 0.535732 0.704626
0.273827 0.595820 0.696684
0.201989 0.635173 0.690304
0.175103 0.653791 0.685487
0.166050 0.665086 0.684478
0.170867 0.670685 0.686431
0.174952 0.684136 0.701241
0.178598 0.702299 0.723765
0.181975 0.723550 0.752466
0.185230 0.746205 0.783975
0.184237 0.764514 0.810552
0.181828 0.781375 0.835485
0.184339 0.799294 0.857192
0.187984 0.817457 0.878154
0.193795 0.824967 0.885274
0.199914 0.830957 0.890417
0.218484 0.838166 0.889640
0.237884 0.845458 0.888468
0.928200 0.123356 0.697001
0.930218 0.129476 0.704488
0.932151 0.135375 0.711836
0.932802 0.137979 0.717109
0.933290 0.140681 0.722317
0.932639 0.144066 0.727069
0.932488 0.148587 0.732591
0.934506 0.158026 0.741444
0.934653 0.167124 0.747889
0.929184 0.175196 0.747108
0.921580 0.187541 0.745269
0.909276 0.209284 0.741102
0.846804 0.262422 0.739695
0.700720 0.367884 0.742885
0.556288 0.466083 0.745476
0.413979 0.554945 0.747299
0.299956 0.622486 0.747820
0.214220 0.668707 0.747039
0.172389 0.693030 0.747796
0.164707 0.700321 0.749749
0.164349 0.712373 0.759432
0.168385 0.727281 0.773754
0.173317 0.746351 0.794611
0.178655 0.767313 0.818437
0.180917 0.781684 0.835672
0.182154 0.793858 0.850710
0.187781 0.808782 0.865167
0.194421 0.824341 0.879489
0.206302 0.830387 0.882475
0.218931 0.835074 0.883842
0.236809 0.842935 0.888200
0.255037 0.851007 0.892757
0.918109 0.145555 0.711128
0.920127 0.148550 0.714448
0.922125 0.151781 0.718216
0.923818 0.158551 0.728697
0.925087 0.164768 0.738201
0.923395 0.167112 0.740870
0.922398 0.170590 0.743723
0.924416 0.178988 0.747368
0.925604 0.187305 0.751209
0.924302 0.195377 0.755636
0.922491 0.204467 0.759330
0.919562 0.215794 0.761414
0.901228 0.240939 0.767037
0.857220 0.289113 0.778559
0.763826 0.367848 0.789940
0.606935 0.485874 0.801137
0.444478 0.588829 0.808949
0.276455 0.676714 0.813376
0.188078 0.722195 0.818169
0.161647 0.734694 0.823246
0.154259 0.745444 0.828243
0.158295 0.755144 0.833190
0.164658 0.769006 0.841808
0.172080 0.784760 0.852094
0.178769 0.795485 0.857351
0.185214 0.804534 0.860931
0.195202 0.815487 0.865622
0.206009 0.826880 0.870570
0.224790 0.833317 0.871473
0.244711 0.839045 0.871799
0.260115 0.846971 0.882927
0.275218 0.855044 0.894775
0.923281 0.159430 0.736354
0.924583 0.165028 0.738372
0.925885 0.170692 0.740797
0.927187 0.177332 0.749325
0.928163 0.183663 0.756950
0.926861 0.187830 0.758252
0.926182 0.192863 0.759957
0.928200 0.201651 0.763407
0.929534 0.210082 0.767151
0.928818 0.217438 0.771773
0.928326 0.225018 0.776883
0.928326 0.233091 0.783067
0.920563 0.252442 0.791156
0.899861 0.290590 0.802418
0.811630 0.375818 0.816500
0.636576 0.521577 0.834208
0.460058 0.632377 0.845372
0.282074 0.708219 0.849994
0.189669 0.748943 0.855019
0.163824 0.762353 0.860357
0.156207 0.771533 0.863173
0.159528 0.778173 0.864475
0.165623 0.788483 0.868060
0.172979 0.800461 0.872682
0.180872 0.808436 0.873837
0.188945 0.815076 0.873837
0.202042 0.824520 0.874895
0.216299 0.834610 0.876197
0.238132 0.840543 0.876986
0.261047 0.845881 0.877703
0.279751 0.852440 0.886963
0.298174 0.859080 0.896793
0.935389 0.169520 0.766626
0.935650 0.180327 0.768644
0.935910 0.190743 0.770743
0.936170 0.195300 0.774063
0.936366 0.200199 0.777001
0.936105 0.207490 0.777261
0.936272 0.215257 0.778510
0.938290 0.225087 0.784044
0.939364 0.234039 0.788829
0.937607 0.240353 0.791368
0.936398 0.247217 0.796022
0.936398 0.255290 0.805332
0.923948 0.278937 0.813811
0.890747 0.328543 0.820907
0.786827 0.432065 0.834924
0.591983 0.604905 0.857839
0.417026 0.711018 0.870566
0.261958 0.750404 0.873105
0.184851 0.774592 0.876632
0.168381 0.786961 0.880929
0.163629 0.794448 0.882703
0.165907 0.799005 0.882963
0.170961 0.806516 0.884790
0.177275 0.815369 0.887329
0.184908 0.821000 0.887964
0.192981 0.825557 0.887964
0.208617 0.834610 0.888176
0.225999 0.844701 0.888436
0.249134 0.849722 0.890006
0.273090 0.854018 0.891764
0.297719 0.858559 0.895231
0.322391 0.863116 0.898811
0.938416 0.191719 0.777221
0.939198 0.202266 0.780801
0.939930 0.212600 0.784284
0.939930 0.219761 0.786302
0.939832 0.226939 0.788068
0.939051 0.234230 0.788068
0.938648 0.242192 0.789057
0.939885 0.253064 0.794330
0.940308 0.262341 0.798594
0.938290 0.266833 0.799831
0.936903 0.272443 0.803346
0.936903 0.280516 0.811874
0.928554 0.298207 0.820939
0.906290 0.331929 0.830900
0.828914 0.412388 0.844705
0.680681 0.552939 0.863454
0.529161 0.662567 0.875400
0.374353 0.741273 0.880543
0.274071 0.784276 0.884184
0.216197 0.799509 0.886658
0.189897 0.807744 0.888074
0.182540 0.811781 0.888855
0.183330 0.818055 0.890487
0.187822 0.825346 0.892505
0.194999 0.829610 0.892423
0.203071 0.832865 0.891642
0.221246 0.841039 0.892130
0.241753 0.850348 0.892912
0.267557 0.855727 0.894775
0.294118 0.860545 0.896793
0.320373 0.865362 0.898079
0.346609 0.870179 0.899316
0.938416 0.217955 0.781257
0.940239 0.226418 0.786921
0.941948 0.235060 0.792356
0.941948 0.246387 0.794375
0.941720 0.257080 0.796140
0.939897 0.263329 0.796140
0.938453 0.270641 0.796934
0.938648 0.282554 0.801165
0.938290 0.292091 0.804388
0.936272 0.294500 0.804583
0.934885 0.298679 0.806731
0.934885 0.306751 0.813176
0.933566 0.315068 0.822892
0.930051 0.323791 0.838061
0.893298 0.367404 0.851606
0.813811 0.455875 0.863063
0.693018 0.571753 0.873447
0.530919 0.715038 0.882756
0.394636 0.788638 0.887048
0.278433 0.808037 0.887439
0.222447 0.817835 0.888725
0.202591 0.821871 0.890548
0.198042 0.827429 0.892505
0.200451 0.833679 0.894523
0.207107 0.836901 0.893660
0.215180 0.839115 0.891837
0.235894 0.846247 0.892977
0.259525 0.854515 0.894799
0.288454 0.860675 0.896793
0.318140 0.866534 0.898811
0.344591 0.872393 0.899120
0.370826 0.878252 0.899316
0.928578 0.254028 0.782014
0.930596 0.262101 0.787222
0.932435 0.270214 0.792177
0.931589 0.278937 0.793349
0.930702 0.287221 0.794480
0.929530 0.292429 0.795327
0.928737 0.298772 0.796612
0.929583 0.310035 0.799802
0.929925 0.319832 0.802195
0.928753 0.325236 0.802195
0.927948 0.331473 0.803822
0.927948 0.339545 0.809030
0.927630 0.346104 0.815801
0.926784 0.350140 0.825175
0.909760 0.373145 0.835973
0.871937 0.420538 0.848603
0.792027 0.506698 0.860386
0.670029 0.631625 0.871323
0.533714 0.725242 0.878488
0.386263 0.794509 0.882719
0.299639 0.825651 0.884510
0.249512 0.833919 0.884835
0.233489 0.839501 0.885742
0.232968 0.843863 0.886914
0.241431 0.846467 0.886963
0.252889 0.848485 0.886638
0.273339 0.854047 0.887529
0.295863 0.860427 0.888700
0.321464 0.866522 0.889872
0.347504 0.872576 0.891044
0.380868 0.876250 0.891117
0.414720 0.879765 0.891117
0.916470 0.292372 0.782014
0.918488 0.300445 0.786180
0.920262 0.308297 0.790094
0.918374 0.312854 0.790224
0.916706 0.317362 0.790574
0.916575 0.321529 0.792462
0.916824 0.326830 0.794399
0.918711 0.337051 0.796547
0.920095 0.347109 0.798158
0.919965 0.356679 0.798158
0.919875 0.365781 0.799460
0.919875 0.373853 0.803627
0.919167 0.380412 0.806621
0.917279 0.384448 0.807663
0.915164 0.390592 0.815141
0.912755 0.399445 0.830896
0.876071 0.447587 0.844762
0.805112 0.535016 0.856740
0.677064 0.646211 0.867291
0.504614 0.775890 0.876730
0.387133 0.832942 0.879171
0.302634 0.846418 0.877414
