其他预设/【236】赛博朋克风调色预设/【后期菌】视频调色预设/CUBE/Glitch 06_S.cube
# LUT by SparkleStock. Enhanced with VOXCOLOR algorithms.
LUT_3D_SIZE 32
0.003910 0.003910 0.011730
0.018037 0.007946 0.023839
0.032416 0.012109 0.036326
0.050579 0.018163 0.054489
0.066976 0.030271 0.086526
0.071012 0.084760 0.215684
0.070129 0.125627 0.302084
0.047930 0.107464 0.203197
0.032794 0.099391 0.134582
0.038848 0.121591 0.156781
0.046795 0.144420 0.182764
0.058903 0.168637 0.217072
0.069498 0.191341 0.246082
0.077571 0.211522 0.266263
0.086526 0.236118 0.294390
0.096617 0.266389 0.332734
0.104689 0.293634 0.364015
0.110743 0.317851 0.388232
0.115662 0.338662 0.412449
0.119699 0.356825 0.436666
0.122473 0.381295 0.472235
0.124492 0.409548 0.514615
0.125122 0.430864 0.544509
0.125122 0.449027 0.568726
0.125122 0.477785 0.595970
0.125122 0.510075 0.624224
0.128402 0.540725 0.650837
0.132438 0.570996 0.677072
0.136474 0.594204 0.696244
0.140510 0.616403 0.714407
0.144546 0.632927 0.725002
0.148583 0.649071 0.735093
0.026109 0.011982 0.029893
0.038153 0.014977 0.038877
0.050774 0.018163 0.048630
0.072062 0.024217 0.069917
0.091323 0.035154 0.104949
0.096401 0.080268 0.236191
0.094607 0.116643 0.324674
0.063033 0.115146 0.227870
0.040867 0.118791 0.159776
0.046921 0.137866 0.177808
0.055844 0.159198 0.200927
0.071077 0.185498 0.235235
0.084797 0.210285 0.265026
0.095994 0.232549 0.287290
0.107163 0.254215 0.311577
0.118295 0.275113 0.338463
0.127930 0.297670 0.364015
0.136067 0.321887 0.388232
0.141898 0.341527 0.410106
0.145934 0.357606 0.430156
0.148709 0.379342 0.461559
0.150727 0.404470 0.499773
0.149209 0.431255 0.534809
0.146084 0.458792 0.568400
0.142960 0.489113 0.597988
0.139835 0.520361 0.626242
0.138297 0.554200 0.657087
0.137125 0.588638 0.688530
0.140510 0.611456 0.707442
0.144546 0.632613 0.724563
0.148583 0.647118 0.737046
0.152619 0.661180 0.749220
0.049191 0.020181 0.048813
0.059347 0.022199 0.054867
0.070377 0.024469 0.062048
0.094529 0.030524 0.086135
0.116321 0.040362 0.123926
0.121595 0.076688 0.257641
0.118323 0.108937 0.348562
0.078026 0.123519 0.254036
0.049317 0.138476 0.186414
0.055372 0.154556 0.199499
0.065190 0.174440 0.219175
0.083287 0.202693 0.253353
0.099896 0.229237 0.283624
0.114023 0.252934 0.307386
0.127266 0.271674 0.327844
0.139375 0.284043 0.344053
0.150507 0.302206 0.364169
0.160663 0.326163 0.388191
0.167376 0.344554 0.407746
0.171412 0.358616 0.423825
0.174187 0.377885 0.451298
0.176205 0.400280 0.485605
0.172763 0.432028 0.525239
0.166839 0.468028 0.567294
0.160769 0.499878 0.599193
0.154649 0.530345 0.627706
0.148530 0.567159 0.662673
0.142410 0.605438 0.699129
0.144949 0.628109 0.718269
0.148725 0.648551 0.734934
0.152684 0.661119 0.749098
0.156655 0.673162 0.763094
0.085517 0.030271 0.079084
0.096714 0.032290 0.085139
0.108656 0.034560 0.092190
0.131766 0.040614 0.114194
0.151085 0.050452 0.151203
0.143859 0.086778 0.293251
0.130627 0.120394 0.391918
0.091372 0.142268 0.302601
0.063444 0.162433 0.234718
0.069498 0.177471 0.231138
0.078991 0.196639 0.238705
0.096047 0.224892 0.270800
0.112005 0.248312 0.297035
0.126131 0.263675 0.313505
0.139375 0.279552 0.330317
0.151484 0.296087 0.347569
0.163137 0.314250 0.366643
0.174334 0.334040 0.387540
0.181503 0.350022 0.405142
0.185539 0.363042 0.420180
0.188314 0.383874 0.447261
0.190332 0.409394 0.481569
0.188322 0.438538 0.517622
0.184481 0.469330 0.554469
0.178150 0.502222 0.588191
0.170989 0.535814 0.620871
0.163828 0.572367 0.658311
0.156667 0.609604 0.696851
0.155430 0.635791 0.723542
0.155040 0.660399 0.748540
0.157762 0.672251 0.761271
0.160691 0.683253 0.773184
0.126131 0.040867 0.110617
0.139542 0.043015 0.116932
0.153485 0.045383 0.124056
0.175424 0.051047 0.143326
0.192741 0.060299 0.177780
0.177703 0.094672 0.318526
0.157123 0.128214 0.419480
0.112529 0.158160 0.348000
0.080207 0.184445 0.288710
0.084699 0.199743 0.265990
0.092792 0.218887 0.259423
0.108807 0.246489 0.288393
0.124113 0.267012 0.310283
0.138240 0.275735 0.320373
0.151541 0.289072 0.333654
0.163779 0.308342 0.351035
0.175953 0.325919 0.368612
0.188062 0.341803 0.386385
0.195630 0.355710 0.402253
0.199666 0.368079 0.416640
0.202522 0.390295 0.443315
0.204670 0.418418 0.477362
0.203954 0.445243 0.510022
0.201936 0.471479 0.542051
0.195280 0.505184 0.577791
0.187077 0.541380 0.614768
0.179086 0.577681 0.654283
0.171144 0.614007 0.694385
0.165822 0.643611 0.728449
0.160874 0.672255 0.761650
0.162579 0.683749 0.773307
0.164727 0.694100 0.783527
0.196765 0.054993 0.150979
0.220591 0.058183 0.159377
0.244170 0.061332 0.167999
0.264025 0.063871 0.179977
0.282644 0.068436 0.199458
0.292604 0.087185 0.271459
0.282961 0.110572 0.336477
0.188371 0.154059 0.371241
0.115426 0.192842 0.382519
0.107419 0.217515 0.323344
0.106593 0.241476 0.288458
0.121566 0.263871 0.307012
0.136222 0.283091 0.322391
0.150348 0.297023 0.332482
0.164105 0.310100 0.343028
0.177385 0.322078 0.354160
0.190080 0.334968 0.367050
0.202188 0.348769 0.381698
0.209756 0.362937 0.397370
0.213792 0.377389 0.413841
0.217300 0.399734 0.439995
0.220490 0.426816 0.471959
0.220099 0.453316 0.502535
0.218081 0.479551 0.532481
0.210643 0.512475 0.571606
0.201399 0.547629 0.613791
0.194059 0.583735 0.652591
0.187158 0.620061 0.690609
0.175587 0.652400 0.730792
0.163348 0.684168 0.771284
0.165574 0.697811 0.784374
0.168764 0.710245 0.795636
0.271561 0.067985 0.187936
0.302678 0.071826 0.197635
0.333109 0.075463 0.207132
0.353224 0.076049 0.213577
0.374439 0.077270 0.221088
0.403343 0.082933 0.236061
0.403783 0.096873 0.269905
0.280874 0.146674 0.385522
0.179806 0.193319 0.453454
0.144262 0.230491 0.378329
0.123446 0.262027 0.327392
0.135034 0.281167 0.329670
0.147647 0.299720 0.334585
0.161969 0.317297 0.343895
0.176034 0.329919 0.351695
0.189771 0.336168 0.357554
0.202693 0.345250 0.366342
0.214802 0.357163 0.378060
0.222589 0.371566 0.393293
0.227016 0.387906 0.411261
0.231076 0.410431 0.436919
0.234917 0.436666 0.467190
0.234999 0.462767 0.496074
0.233371 0.488807 0.524328
0.225543 0.520755 0.565910
0.215648 0.554672 0.611936
0.208873 0.589753 0.650080
0.202819 0.625102 0.686406
0.186341 0.659711 0.731732
0.168373 0.694214 0.778344
0.169935 0.710164 0.793890
0.172800 0.724876 0.807366
0.364393 0.076057 0.210135
0.389261 0.078856 0.217751
0.414484 0.081713 0.225425
0.445015 0.085423 0.233953
0.474432 0.089118 0.242506
0.496046 0.092698 0.251229
0.502865 0.100258 0.274527
0.445577 0.125061 0.360979
0.370549 0.159467 0.425266
0.242302 0.222679 0.423052
0.153522 0.273745 0.409223
0.151569 0.298093 0.369837
0.156110 0.318730 0.347150
0.171473 0.333182 0.352293
0.185214 0.344501 0.357293
0.196866 0.351792 0.362111
0.208747 0.360874 0.369337
0.220856 0.371745 0.378971
0.229815 0.386279 0.392708
0.236325 0.403661 0.409634
0.240516 0.426576 0.434901
0.243315 0.452811 0.465172
0.244503 0.478196 0.494056
0.244959 0.503194 0.522309
0.238433 0.533319 0.562330
0.229579 0.565153 0.606272
0.223000 0.595612 0.644026
0.216946 0.625753 0.680352
0.201379 0.660623 0.726589
0.184453 0.696167 0.774242
0.180221 0.715111 0.796690
0.176836 0.732949 0.817457
0.454703 0.084130 0.232334
0.475665 0.086148 0.238388
0.497502 0.088369 0.244695
0.532461 0.093642 0.254785
0.565068 0.098574 0.264282
0.581213 0.101112 0.269620
0.592182 0.104408 0.285773
0.580725 0.110983 0.348789
0.521581 0.136861 0.408649
0.319381 0.220644 0.459036
0.176746 0.286993 0.472256
0.165159 0.314986 0.403705
0.163775 0.336925 0.360935
0.179399 0.348773 0.361130
0.192716 0.359197 0.363006
0.203067 0.367791 0.367042
0.214557 0.377393 0.373226
0.227187 0.388004 0.381559
0.237106 0.402570 0.393993
0.244918 0.420212 0.409617
0.249435 0.442574 0.433419
0.251974 0.467768 0.462129
0.253617 0.493006 0.492136
0.254854 0.518265 0.522733
0.249500 0.546502 0.561386
0.241948 0.575732 0.602724
0.235402 0.602741 0.639990
0.229087 0.629236 0.676316
0.213943 0.664333 0.723920
0.197538 0.700659 0.773136
0.190165 0.721605 0.800075
0.183395 0.741526 0.825529
0.537445 0.092202 0.254533
0.561532 0.094220 0.260587
0.585452 0.096246 0.266894
0.606870 0.098395 0.276984
0.627629 0.100852 0.287132
0.643774 0.105474 0.297678
0.652204 0.110853 0.316890
0.627206 0.119511 0.373658
0.553480 0.147993 0.426747
0.333572 0.235943 0.468801
0.179416 0.304831 0.478896
0.169911 0.331782 0.418678
0.169048 0.352679 0.378382
0.182589 0.363486 0.371286
0.195190 0.374235 0.369060
0.206583 0.384912 0.373096
0.219635 0.396597 0.379802
0.234348 0.409292 0.389176
0.244593 0.423598 0.400894
0.251363 0.439156 0.414435
0.256791 0.458133 0.433550
0.261413 0.479160 0.456009
0.261560 0.505961 0.490508
0.259672 0.535386 0.530480
0.255098 0.561540 0.568351
0.249630 0.586604 0.605524
0.242628 0.613677 0.642008
0.235271 0.641215 0.678334
0.219086 0.676442 0.728672
0.201639 0.712768 0.781013
0.199084 0.732737 0.805218
0.197522 0.751616 0.827547
0.614511 0.099013 0.278624
0.639119 0.101682 0.285004
0.662925 0.104184 0.291575
0.674709 0.104184 0.301014
0.686915 0.104819 0.310918
0.702083 0.109897 0.324068
0.708524 0.115793 0.343309
0.677146 0.125232 0.388944
0.599009 0.153306 0.434123
0.380599 0.237285 0.477936
0.220595 0.306678 0.492148
0.189087 0.343980 0.441240
0.173569 0.370956 0.403417
0.184701 0.380721 0.387402
0.196403 0.391511 0.379590
0.208837 0.403620 0.382324
0.222963 0.417063 0.388574
0.238783 0.431841 0.398339
0.249475 0.446252 0.409422
0.256181 0.460379 0.421531
0.262479 0.477435 0.438033
0.268533 0.496249 0.457173
0.267874 0.522985 0.494170
0.264164 0.553321 0.539284
0.259476 0.577799 0.577026
0.254464 0.600324 0.612310
0.246172 0.627503 0.649499
0.237123 0.655756 0.687126
0.221238 0.690503 0.738653
0.204377 0.726178 0.792165
0.205826 0.744215 0.812293
0.208495 0.761076 0.830196
0.679091 0.103049 0.306877
0.698490 0.107802 0.314299
0.717349 0.112257 0.321716
0.728091 0.112257 0.329072
0.738995 0.112501 0.336762
0.751038 0.114454 0.346788
0.756698 0.117420 0.359389
0.734694 0.124776 0.383150
0.674525 0.145820 0.417913
0.499862 0.207925 0.485683
0.346499 0.273347 0.519946
0.239995 0.346063 0.480495
0.176433 0.394783 0.445146
0.184440 0.403506 0.416632
0.194840 0.413710 0.399966
0.208316 0.425819 0.398534
0.222443 0.440304 0.402180
0.237220 0.457165 0.410903
0.248629 0.472488 0.421531
0.257418 0.486614 0.433639
0.264497 0.504973 0.452095
0.270552 0.525870 0.474359
0.270608 0.548960 0.509468
0.267939 0.573047 0.550416
0.261169 0.596743 0.589460
0.253031 0.620309 0.627869
0.241615 0.647684 0.669029
0.229441 0.675937 0.710823
0.216811 0.708862 0.760136
0.204117 0.742453 0.810523
0.207779 0.756454 0.823621
0.212531 0.769148 0.834232
0.736102 0.107085 0.335131
0.751466 0.111968 0.343203
0.766402 0.116545 0.351174
0.774930 0.116545 0.357619
0.783702 0.116545 0.364462
0.794183 0.116545 0.374097
0.799379 0.117827 0.383012
0.781672 0.124662 0.388806
0.737615 0.140042 0.410712
0.614511 0.181055 0.480955
0.478530 0.239869 0.524405
0.314217 0.337845 0.508911
0.207348 0.405036 0.484726
0.196215 0.420920 0.446057
0.195451 0.435665 0.421514
0.208015 0.448946 0.415135
0.221360 0.464472 0.416176
0.235487 0.482244 0.424639
0.247563 0.497966 0.435153
0.258044 0.512093 0.447261
0.265270 0.530532 0.466938
0.270543 0.551560 0.491155
0.270804 0.572274 0.524816
0.268786 0.592845 0.562769
0.261592 0.615272 0.601650
0.252673 0.638318 0.640840
0.240158 0.665912 0.684897
0.226812 0.694556 0.730076
0.216657 0.725023 0.776053
0.206957 0.755750 0.822144
0.211660 0.767130 0.832165
0.217324 0.777221 0.839782
0.780500 0.111122 0.363384
0.793781 0.112879 0.371457
0.806503 0.114527 0.379492
0.810865 0.114527 0.386979
0.816122 0.114527 0.395255
0.827645 0.114527 0.409056
0.832906 0.116199 0.419207
0.811032 0.125118 0.413544
0.779996 0.137113 0.418524
0.721471 0.158335 0.455435
0.620773 0.206147 0.489967
0.427296 0.312456 0.519262
0.285012 0.392667 0.520727
0.228049 0.429383 0.475808
0.199682 0.457214 0.445015
0.208080 0.473619 0.432386
0.219342 0.490187 0.430824
0.233469 0.506917 0.440328
0.246131 0.522183 0.451298
0.257654 0.536310 0.463406
0.263968 0.552797 0.483083
0.267158 0.570699 0.507300
0.266768 0.591153 0.540245
0.264749 0.612766 0.577156
0.259900 0.633110 0.613433
0.254106 0.653030 0.649499
0.243869 0.680885 0.694662
0.232606 0.710571 0.741924
0.223623 0.737522 0.782693
0.214964 0.764083 0.822534
0.218756 0.775203 0.836071
0.223378 0.785293 0.847854
0.816952 0.113392 0.393403
0.827238 0.113392 0.401931
0.837035 0.113392 0.410516
0.839509 0.113392 0.419956
0.842959 0.113392 0.430234
0.853245 0.113392 0.446378
0.857660 0.115028 0.457738
0.836633 0.123751 0.448364
0.814857 0.133500 0.444849
0.790835 0.146324 0.458910
0.717418 0.185840 0.483184
0.535334 0.284076 0.529926
0.382641 0.369617 0.545933
0.278937 0.434001 0.510714
0.218467 0.478762 0.481846
0.213585 0.498292 0.461144
0.217979 0.516129 0.454243
0.231650 0.532274 0.461144
0.243673 0.547540 0.471743
0.254415 0.562122 0.485219
0.260274 0.577111 0.505123
0.263203 0.592345 0.528885
0.262731 0.612054 0.560971
0.260713 0.633797 0.596841
0.257523 0.653539 0.631881
0.253943 0.672613 0.666644
0.244332 0.700045 0.712515
0.233331 0.729405 0.760950
0.226088 0.753069 0.797593
0.219383 0.775919 0.832552
0.224884 0.785098 0.843708
0.231199 0.793365 0.853278
0.843187 0.113392 0.425693
0.849307 0.113392 0.435263
0.855263 0.113392 0.445019
0.858779 0.113392 0.457584
0.862620 0.113392 0.470596
0.868739 0.113392 0.486740
0.871136 0.114442 0.499272
0.857399 0.120040 0.496147
0.840050 0.129008 0.494976
0.811862 0.148082 0.499663
0.755437 0.182780 0.511959
0.636890 0.251852 0.540993
0.505941 0.332836 0.557260
0.354323 0.433676 0.552247
0.255965 0.500310 0.535814
0.226084 0.522965 0.504696
0.217458 0.542364 0.488942
0.230088 0.558509 0.488551
0.239898 0.574361 0.497718
0.247514 0.589985 0.514318
0.253503 0.604063 0.534744
0.258516 0.617213 0.557463
0.258695 0.635555 0.588508
0.256677 0.656257 0.623337
0.254268 0.677300 0.658897
0.251729 0.698458 0.694702
0.240622 0.724587 0.740769
0.227537 0.751864 0.789203
0.222768 0.772533 0.823112
0.219188 0.792259 0.854946
0.229766 0.797337 0.856142
0.241289 0.801438 0.855296
0.862359 0.113392 0.464037
0.867437 0.113392 0.476211
0.872417 0.113392 0.488409
0.875933 0.113392 0.500973
0.879578 0.113392 0.514115
0.884135 0.113392 0.531301
0.886141 0.114149 0.545168
0.877092 0.118185 0.544647
0.863258 0.126892 0.543475
0.835070 0.149612 0.540350
0.788573 0.183562 0.545160
0.701794 0.242217 0.567424
0.579764 0.324894 0.584146
0.398982 0.447607 0.591633
0.277611 0.527684 0.580635
0.232627 0.552943 0.545872
0.215147 0.572343 0.526472
0.225173 0.585884 0.522436
0.233257 0.600010 0.530008
0.239832 0.614593 0.546608
0.245431 0.628606 0.567684
0.250444 0.642277 0.591446
0.251697 0.659707 0.621742
0.251241 0.678846 0.655008
0.249223 0.700281 0.690178
0.246684 0.722480 0.725983
0.237692 0.745843 0.767395
0.227211 0.769474 0.810100
0.224135 0.787409 0.839648
0.222117 0.804530 0.867315
0.236700 0.808469 0.863857
0.252389 0.811528 0.858323
0.874468 0.113392 0.508435
0.881629 0.113392 0.524775
0.888497 0.113392 0.540684
0.890971 0.113392 0.550123
0.893835 0.113392 0.560792
0.899434 0.113392 0.580061
0.902677 0.114149 0.595425
0.895711 0.118185 0.593862
0.884481 0.127152 0.590347
0.860459 0.150914 0.580973
0.816826 0.188184 0.582787
0.730048 0.255172 0.609218
0.604112 0.345791 0.626592
0.412913 0.475796 0.628870
0.283405 0.560885 0.616310
0.233213 0.588227 0.584671
0.211046 0.606065 0.566834
0.216905 0.614397 0.562798
0.223753 0.624488 0.568612
0.231369 0.635946 0.582088
0.236057 0.650740 0.603945
0.238986 0.667535 0.630831
0.241737 0.684510 0.660671
0.244406 0.701566 0.691854
0.242388 0.722480 0.725723
0.238807 0.744679 0.760486
0.235544 0.763810 0.792393
0.232354 0.782233 0.823641
0.230190 0.797695 0.847199
0.228171 0.812733 0.869659
0.245683 0.818494 0.866851
0.264497 0.823637 0.862359
0.887712 0.113392 0.549428
0.894612 0.114564 0.567005
0.901171 0.115662 0.583878
0.902603 0.115662 0.590192
0.904540 0.115882 0.597801
0.910008 0.117640 0.614467
0.913756 0.119935 0.628288
0.910045 0.124557 0.629785
0.902738 0.132906 0.628614
0.884640 0.152436 0.619435
0.851121 0.183907 0.619207
0.783678 0.241651 0.638672
0.670095 0.329007 0.653254
0.479612 0.465717 0.659699
0.339513 0.560617 0.652387
0.264192 0.601760 0.627389
0.222691 0.628581 0.613165
0.215009 0.641080 0.609714
0.215530 0.650906 0.613039
0.222430 0.658653 0.621632
0.227012 0.672544 0.641414
0.230202 0.690121 0.667910
0.233571 0.707519 0.697001
0.237021 0.724836 0.727273
0.234856 0.743177 0.757935
0.230820 0.761861 0.788727
0.231015 0.778958 0.815341
0.232187 0.795689 0.840990
0.234669 0.808090 0.857241
0.237338 0.819873 0.872149
0.255876 0.826286 0.872043
0.275471 0.832340 0.870936
0.901838 0.113392 0.587772
0.906656 0.116647 0.604307
0.911196 0.119699 0.620008
0.911587 0.119699 0.623198
0.912482 0.120309 0.627291
0.916909 0.125191 0.637707
0.920591 0.130220 0.647623
0.921047 0.135884 0.655370
0.918687 0.142931 0.660187
0.907880 0.154128 0.656216
0.890116 0.172710 0.654686
0.857045 0.207539 0.658527
0.768461 0.282916 0.667641
0.587352 0.425876 0.685544
0.434754 0.534316 0.688778
0.318811 0.598375 0.673154
0.246583 0.642382 0.664138
0.218069 0.666339 0.661729
0.208304 0.678834 0.661994
0.213121 0.682415 0.664337
0.218223 0.694092 0.679823
0.223496 0.710627 0.703194
0.226800 0.729132 0.731309
0.229209 0.748532 0.761580
0.226784 0.762707 0.787555
0.222748 0.775142 0.812098
0.224636 0.791913 0.836694
0.227891 0.809685 0.861301
0.237924 0.818571 0.869219
0.248926 0.826188 0.874753
0.267008 0.832340 0.878944
0.285561 0.838394 0.883045
0.904613 0.124744 0.616025
0.907998 0.128129 0.627613
0.911213 0.131425 0.638806
0.911864 0.133378 0.644079
0.912857 0.135681 0.649377
0.916242 0.140433 0.654845
0.919249 0.145185 0.660936
0.920616 0.149937 0.669724
0.920437 0.155357 0.676299
0.915619 0.162778 0.676234
0.908035 0.174045 0.676169
0.894364 0.193770 0.676104
0.838997 0.247404 0.685120
0.714135 0.357554 0.709273
0.585371 0.460127 0.724111
0.451591 0.552959 0.726976
0.342125 0.624569 0.725771
0.256974 0.674957 0.720498
0.215400 0.701798 0.720388
0.207718 0.710326 0.724294
0.207807 0.720767 0.735565
0.212560 0.732355 0.751254
0.217222 0.748060 0.772045
0.221845 0.765637 0.795156
0.222902 0.777111 0.813677
0.222772 0.786550 0.830668
0.228672 0.800962 0.848241
0.235963 0.816521 0.865948
0.251514 0.824333 0.869927
0.268245 0.831038 0.871945
0.285097 0.836523 0.879578
0.301958 0.841926 0.887586
0.900577 0.142907 0.638224
0.902921 0.145250 0.642521
0.905224 0.147765 0.647204
0.906916 0.152843 0.657685
0.908690 0.157619 0.667019
0.911034 0.160288 0.668321
0.912999 0.162957 0.670636
0.913324 0.165627 0.677341
0.913666 0.169223 0.683135
0.914057 0.175603 0.686195
0.913308 0.182898 0.689254
0.910053 0.192208 0.692314
0.892834 0.218240 0.704455
0.852342 0.272142 0.731732
0.769213 0.357204 0.758810
0.631267 0.482326 0.785631
0.480658 0.587788 0.793801
0.317387 0.673590 0.783320
0.231089 0.721784 0.784447
0.204658 0.740728 0.794602
0.196415 0.750517 0.801706
0.199084 0.754814 0.806980
0.205960 0.765377 0.816639
0.214749 0.778787 0.828292
0.221535 0.788438 0.837699
0.227655 0.796836 0.846357
0.238958 0.807667 0.853904
0.251457 0.819060 0.861196
0.271304 0.827262 0.863873
0.292201 0.835009 0.865891
0.307361 0.839582 0.876453
0.322139 0.843944 0.887586
0.910415 0.151357 0.664586
0.911717 0.156240 0.667320
0.913019 0.161106 0.670461
0.914321 0.165728 0.679705
0.915623 0.170204 0.687883
0.916925 0.173654 0.688599
0.918117 0.177373 0.690451
0.918834 0.182256 0.697221
0.919517 0.187252 0.703129
0.920103 0.192590 0.706449
0.920506 0.198152 0.711112
0.920506 0.204206 0.718728
0.910912 0.226178 0.734084
0.885327 0.274677 0.762337
0.807195 0.366126 0.790733
0.661501 0.512797 0.819312
0.500542 0.624183 0.830053
0.324316 0.700285 0.822958
0.232277 0.744052 0.824247
0.205716 0.762671 0.832059
0.197465 0.771362 0.836250
0.200199 0.774096 0.838268
0.207006 0.781798 0.843464
0.215664 0.791758 0.850104
0.224957 0.800303 0.855231
0.234462 0.808375 0.859853
0.248304 0.816924 0.864581
0.263146 0.825582 0.869333
0.284426 0.833727 0.871066
0.306625 0.841800 0.872368
0.326627 0.845417 0.880445
0.346483 0.848737 0.888973
0.926560 0.155394 0.692839
0.926820 0.164443 0.696615
0.927081 0.173085 0.700472
0.927341 0.175624 0.705550
0.927602 0.178537 0.710212
0.927862 0.184070 0.711970
0.928403 0.190263 0.714863
0.930161 0.199312 0.722675
0.931105 0.207173 0.729104
0.929608 0.211469 0.731382
0.928578 0.216315 0.736956
0.928578 0.222369 0.749781
0.912734 0.250981 0.768392
0.870485 0.317188 0.796645
0.778877 0.425888 0.821395
0.623808 0.589224 0.841641
0.466494 0.693840 0.851862
0.306934 0.739735 0.852057
0.226873 0.767358 0.853022
0.208645 0.780769 0.854584
0.204170 0.788157 0.856431
0.207946 0.791933 0.858449
0.213646 0.797813 0.862213
0.220221 0.804648 0.866770
0.230556 0.812411 0.869813
0.242143 0.820484 0.872352
0.257222 0.827340 0.877536
0.273107 0.833915 0.883330
0.294516 0.841800 0.884282
0.316716 0.849872 0.884542
0.344530 0.852513 0.887671
0.372718 0.854791 0.890991
0.930596 0.170025 0.708984
0.931377 0.180115 0.713801
0.932110 0.189897 0.718570
0.932110 0.195040 0.722606
0.932110 0.200199 0.726487
0.932110 0.205472 0.729287
0.932342 0.211795 0.732782
0.933579 0.222666 0.739292
0.934002 0.232025 0.744679
0.931984 0.236842 0.746697
0.930596 0.242046 0.751522
0.930596 0.248100 0.762524
0.919635 0.269290 0.778531
0.890405 0.315706 0.802878
0.820134 0.400743 0.825887
0.697095 0.535435 0.847175
0.561394 0.644217 0.859999
0.413031 0.727090 0.864361
0.314872 0.772354 0.865830
0.255762 0.788369 0.865049
0.230747 0.798362 0.865529
0.226190 0.804742 0.866766
0.228391 0.810898 0.869927
0.233664 0.816952 0.873963
0.243478 0.822762 0.875900
0.254805 0.828491 0.877137
0.271316 0.835119 0.881653
0.289024 0.841955 0.886926
0.313395 0.848505 0.888269
0.338719 0.855015 0.889050
0.365752 0.858046 0.890259
0.392899 0.860846 0.891496
0.930596 0.188188 0.721092
0.932419 0.198278 0.726951
0.934128 0.208320 0.732696
0.934128 0.217629 0.736733
0.934128 0.226304 0.740744
0.934128 0.230535 0.744585
0.934165 0.236207 0.748536
0.934360 0.248120 0.752963
0.934002 0.258520 0.756787
0.931984 0.264379 0.758806
0.930596 0.270299 0.762329
0.930596 0.276354 0.769165
0.928228 0.285435 0.780614
0.921914 0.299562 0.799753
0.884583 0.347296 0.821656
0.807374 0.438241 0.847110
0.699276 0.554835 0.863580
0.560287 0.697079 0.871066
0.434005 0.771248 0.873316
0.317607 0.792470 0.871494
0.263948 0.806369 0.870932
0.247933 0.815874 0.871127
0.245838 0.823006 0.873963
0.250069 0.829061 0.878000
0.258842 0.832527 0.879155
0.269127 0.835131 0.879350
0.287136 0.842020 0.882825
0.306926 0.849897 0.887057
0.335204 0.854755 0.889180
0.364694 0.859182 0.891003
0.388081 0.863059 0.891300
0.411062 0.866900 0.891496
0.922398 0.221108 0.728282
0.924416 0.231199 0.732643
0.926255 0.241130 0.737038
0.925409 0.248682 0.741920
0.924668 0.256112 0.746591
0.924668 0.262687 0.749781
0.924827 0.270141 0.752971
0.925673 0.281403 0.756161
0.925803 0.291152 0.759269
0.923785 0.296360 0.762134
0.922398 0.302097 0.765466
0.922398 0.308997 0.769828
0.922276 0.316655 0.777461
0.921950 0.325573 0.790546
0.904337 0.351979 0.808273
0.864495 0.400869 0.831970
0.790346 0.488462 0.849970
0.681890 0.614756 0.862274
0.555783 0.709155 0.867950
0.415948 0.778746 0.868471
0.336819 0.812737 0.869195
0.294114 0.825366 0.870041
0.281216 0.833475 0.871335
0.281867 0.839530 0.872832
0.291502 0.842557 0.873841
0.304131 0.844575 0.874688
0.322896 0.849449 0.877438
0.343077 0.854983 0.880628
0.366904 0.859206 0.881312
0.391251 0.863242 0.881637
0.419138 0.866485 0.882451
0.447261 0.869675 0.883297
0.912307 0.257434 0.734336
0.914325 0.267524 0.736615
0.916099 0.277261 0.739121
0.914211 0.281688 0.745045
0.912560 0.286774 0.750497
0.912560 0.296474 0.752645
0.912913 0.306271 0.754794
0.914801 0.316492 0.756942
0.915713 0.325199 0.759530
0.913695 0.329365 0.763436
0.912307 0.334712 0.766833
0.912307 0.342654 0.769112
0.912966 0.351353 0.773099
0.914724 0.361313 0.779935
0.913776 0.370077 0.792780
0.909349 0.377303 0.813351
0.870615 0.427398 0.832393
0.797573 0.520361 0.849905
0.678171 0.632988 0.859617
0.522712 0.760909 0.863263
0.418845 0.818726 0.865810
0.345933 0.834480 0.867697
