其他预设/【236】赛博朋克风调色预设/【后期菌】视频调色预设/CUBE/Glitch 02.cube
# LUT by SparkleStock. Enhanced with VOXCOLOR algorithms.
LUT_3D_SIZE 8
DOMAIN_MIN 0.000000 0.000000 0.000000
DOMAIN_MAX 0.903226 0.903226 0.903226
0.000000 0.000000 0.000000
0.047425 0.009964 0.067985
0.020559 0.074922 0.107212
0.045281 0.149087 0.223252
0.075300 0.265380 0.394539
0.089805 0.404251 0.595970
0.109230 0.574654 0.715038
0.149592 0.692334 0.779113
0.079589 0.012487 0.084886
0.112363 0.025076 0.132275
0.055201 0.143541 0.288727
0.072603 0.248023 0.362338
0.090753 0.373735 0.563225
0.102256 0.543516 0.690874
0.139375 0.665806 0.766711
0.195528 0.750758 0.820874
0.441081 0.045533 0.164854
0.646768 0.062594 0.192049
0.582913 0.093988 0.488779
0.093589 0.355059 0.563294
0.099542 0.516133 0.674945
0.128259 0.646911 0.748211
0.181674 0.729474 0.805462
0.249337 0.798260 0.853908
0.826286 0.067228 0.304481
0.856781 0.068188 0.357118
0.815565 0.088149 0.489125
0.147036 0.498906 0.749488
0.118759 0.619740 0.736228
0.169260 0.719461 0.798915
0.229770 0.780923 0.840583
0.308952 0.830863 0.873422
0.894649 0.076436 0.501498
0.905997 0.090688 0.575476
0.917609 0.109486 0.636043
0.658177 0.337307 0.776383
0.169488 0.707665 0.802044
0.217503 0.770463 0.832067
0.292612 0.822111 0.866774
0.368730 0.855898 0.889905
0.930470 0.131176 0.681109
0.933119 0.158925 0.708992
0.938416 0.193091 0.741200
0.878459 0.296738 0.775386
0.373666 0.726610 0.855536
0.280190 0.815394 0.861586
0.357314 0.850125 0.884827
0.428854 0.867152 0.893261
0.938416 0.232334 0.760698
0.935389 0.271715 0.773998
0.934771 0.308220 0.785236
0.919900 0.363547 0.805437
0.604213 0.731809 0.875249
0.391642 0.852236 0.889872
0.421575 0.867152 0.893009
0.510579 0.876592 0.898685
0.928830 0.360231 0.794753
0.926926 0.399055 0.801173
0.922878 0.439266 0.811504
0.921010 0.483498 0.822880
0.906721 0.553639 0.851911
0.652802 0.829423 0.899885
0.554827 0.879818 0.901912
0.606907 0.889351 0.904821
0.036956 0.004162 0.036956
0.064783 0.012841 0.087108
0.025413 0.084125 0.129398
0.050151 0.166697 0.243482
0.080219 0.288841 0.422291
0.092283 0.434864 0.620322
0.115060 0.599811 0.727020
0.157172 0.700028 0.787299
0.092324 0.010278 0.091238
0.347609 0.045216 0.163880
0.573113 0.091007 0.380869
0.084606 0.335102 0.496273
0.092857 0.498584 0.664024
0.127220 0.638179 0.747873
0.172010 0.721422 0.796069
0.236126 0.788374 0.845058
0.523058 0.052849 0.173780
0.792748 0.063159 0.258219
0.758523 0.098030 0.444780
0.109035 0.476450 0.707521
0.115609 0.612541 0.732566
0.161391 0.703691 0.782997
0.223542 0.776228 0.836755
0.298822 0.826249 0.868502
0.846922 0.073331 0.331396
0.884184 0.079018 0.462402
0.895023 0.092019 0.565932
0.239595 0.500366 0.778600
0.148260 0.689327 0.777786
0.210308 0.763974 0.827157
0.283759 0.815331 0.858464
0.360638 0.849549 0.883297
0.901525 0.083564 0.541542
0.927959 0.126017 0.674607
0.933127 0.150841 0.705289
0.822948 0.289940 0.763691
0.226985 0.749672 0.839986
0.267874 0.806059 0.854945
0.347968 0.843768 0.878491
0.419184 0.862630 0.888126
0.933119 0.149466 0.704695
0.938406 0.213055 0.749796
0.940264 0.253332 0.767975
0.916332 0.318037 0.793274
0.498127 0.716174 0.855146
0.337763 0.839856 0.876237
0.402739 0.858343 0.886646
0.494955 0.870969 0.894392
0.935389 0.250566 0.763289
0.929066 0.334851 0.787012
0.926695 0.366851 0.794777
0.926579 0.414934 0.810302
0.769290 0.654751 0.873635
0.468572 0.859516 0.893759
0.489019 0.871968 0.897727
0.578091 0.876627 0.896600
0.928578 0.371216 0.791587
0.920994 0.468075 0.813664
0.918632 0.512781 0.824933
0.915322 0.559673 0.835896
0.911658 0.610126 0.863177
0.737693 0.812806 0.906982
0.624198 0.889092 0.905475
0.667905 0.895038 0.910832
0.083247 0.009334 0.081733
0.134375 0.024063 0.120260
0.082229 0.124833 0.434937
0.055217 0.184502 0.268350
0.080219 0.305246 0.447766
0.092959 0.462975 0.642728
0.124561 0.619935 0.739577
0.165586 0.711734 0.796747
0.220722 0.033079 0.151325
0.666996 0.062799 0.192403
0.646020 0.093294 0.409940
0.097247 0.362622 0.573328
0.097047 0.521788 0.676532
0.132682 0.652562 0.758111
0.180287 0.732925 0.805492
0.249039 0.797379 0.851017
0.618991 0.056629 0.186597
0.814292 0.068083 0.289512
0.827677 0.086801 0.480652
0.159456 0.553983 0.766439
0.146030 0.680953 0.770124
0.205997 0.759333 0.822849
0.272909 0.807580 0.854774
0.348290 0.842256 0.878383
0.853375 0.070829 0.350279
0.886724 0.078017 0.492093
0.923174 0.109825 0.636347
0.734288 0.306085 0.762999
0.205552 0.745295 0.825753
0.262639 0.802192 0.853005
0.338586 0.836735 0.872708
0.404378 0.853795 0.879462
0.901326 0.086778 0.551934
0.930251 0.133761 0.694256
0.942375 0.194784 0.742184
0.920704 0.271759 0.779587
0.389653 0.720001 0.845152
0.323173 0.830473 0.868285
0.390529 0.850597 0.878689
0.482669 0.864933 0.888948
0.933119 0.152944 0.710660
0.938254 0.226147 0.753956
0.930575 0.311569 0.783940
0.929075 0.353392 0.793796
0.744922 0.592063 0.847681
0.401733 0.843693 0.877455
0.461700 0.863983 0.888320
0.559994 0.870505 0.890637
0.935698 0.259509 0.767244
0.926743 0.343159 0.788727
0.923310 0.440328 0.810635
0.920638 0.489256 0.822155
0.901884 0.556414 0.855450
0.660267 0.825856 0.897527
0.554678 0.870856 0.891995
0.635791 0.877595 0.895096
0.927016 0.388712 0.800531
0.920499 0.486481 0.822766
0.914969 0.585012 0.842819
0.913890 0.624310 0.852884
0.914344 0.662124 0.870212
0.809376 0.805667 0.913984
0.682000 0.891287 0.903592
0.710794 0.893030 0.902694
0.226279 0.033551 0.150853
0.396211 0.045078 0.165989
0.339680 0.073571 0.445443
0.065442 0.207828 0.314958
0.081229 0.318400 0.476902
0.095347 0.490366 0.655740
0.126554 0.635457 0.747665
0.174781 0.724713 0.803924
0.576102 0.056661 0.180437
0.803279 0.067435 0.271919
0.800242 0.077161 0.391959
0.143653 0.399292 0.721527
0.103114 0.549855 0.694279
0.135922 0.660201 0.759034
0.196013 0.750519 0.819863
0.261278 0.804650 0.855214
0.778624 0.064229 0.248771
0.868082 0.071810 0.382347
0.903287 0.088997 0.557659
0.714061 0.259077 0.736161
0.165938 0.698784 0.799537
0.212613 0.764886 0.826568
0.287176 0.817466 0.860600
0.365324 0.846543 0.878715
0.860134 0.071748 0.367888
0.896750 0.081120 0.524600
0.931810 0.123660 0.663530
0.841990 0.290651 0.769555
0.313330 0.745789 0.846293
0.311816 0.826759 0.866147
0.378788 0.844628 0.874733
0.469178 0.861458 0.886624
0.905724 0.092316 0.578483
0.932687 0.140261 0.695116
0.942051 0.211832 0.752737
0.935647 0.291795 0.781825
0.640381 0.608784 0.840551
0.375023 0.843509 0.875182
0.449682 0.854311 0.878396
0.548396 0.864947 0.883441
0.938661 0.167368 0.720075
0.937876 0.237613 0.764484
0.929956 0.329447 0.786691
0.923721 0.415744 0.806499
0.882974 0.512813 0.842255
0.512748 0.840505 0.881861
0.537224 0.866451 0.887537
0.619269 0.871428 0.886736
0.934169 0.269286 0.769274
0.928830 0.360415 0.793928
0.920916 0.459144 0.813587
0.916515 0.565283 0.840017
0.903413 0.612732 0.862196
0.729294 0.823835 0.901588
0.620750 0.875795 0.893075
0.686933 0.882514 0.893742
0.924920 0.396610 0.797654
0.920646 0.507514 0.826202
0.914880 0.604656 0.848912
0.913931 0.685905 0.871787
0.913569 0.715868 0.876369
0.884523 0.767247 0.905418
0.735630 0.891870 0.904184
0.752197 0.895162 0.905736
0.538202 0.053858 0.174187
0.717496 0.062561 0.207173
0.692204 0.087299 0.358380
0.087043 0.296856 0.508972
0.084130 0.352329 0.523408
0.100925 0.517948 0.680604
0.133573 0.652981 0.758578
0.183269 0.736073 0.808424
0.782071 0.062691 0.252966
0.867039 0.070548 0.374292
0.878743 0.078209 0.450743
0.463845 0.273996 0.743660
0.110872 0.582814 0.719027
0.144561 0.678718 0.771419
0.203826 0.756009 0.823266
0.276253 0.816189 0.863372
0.856167 0.071016 0.354689
0.892361 0.079698 0.508332
0.925185 0.113904 0.653760
0.797481 0.253910 0.738975
0.192560 0.716053 0.821497
0.224893 0.775165 0.835908
0.302840 0.826755 0.868682
0.374210 0.849558 0.881327
0.882723 0.078592 0.470307
0.924911 0.107133 0.632494
0.939587 0.162129 0.718687
0.912513 0.283720 0.786052
0.410535 0.708047 0.851186
0.331591 0.832326 0.872305
0.397481 0.851306 0.878006
0.486012 0.863332 0.884859
0.913772 0.099107 0.607057
0.932711 0.151825 0.706607
0.940502 0.226075 0.759196
0.934476 0.310151 0.785117
0.818979 0.540485 0.841765
0.468118 0.841474 0.878370
0.516855 0.860782 0.880426
0.610299 0.867067 0.883900
0.939352 0.172527 0.725267
0.935833 0.250469 0.767636
0.928323 0.342270 0.785959
0.923781 0.433556 0.806973
0.905197 0.551763 0.849669
0.667468 0.820243 0.890687
0.600389 0.869887 0.885437
0.682350 0.877902 0.891626
0.934999 0.289976 0.779503
0.928341 0.375392 0.797673
0.919925 0.475985 0.817715
0.916390 0.582769 0.842508
0.910838 0.664185 0.863106
0.868164 0.732999 0.895897
0.692596 0.875113 0.893761
0.737211 0.886774 0.897776
0.924920 0.415196 0.804233
0.918741 0.516054 0.825333
0.913841 0.615974 0.849702
0.913673 0.697960 0.873563
0.918501 0.760755 0.890406
0.909409 0.784385 0.898509
0.810701 0.883446 0.911293
0.788842 0.899491 0.909424
0.766878 0.065084 0.237757
0.821241 0.065425 0.288885
0.795925 0.075488 0.441089
0.156439 0.355263 0.681064
0.095428 0.464257 0.647432
0.104913 0.550628 0.697111
0.140258 0.667092 0.767382
0.189384 0.744614 0.816826
0.853249 0.067985 0.342869
0.893361 0.078732 0.398822
0.902209 0.082957 0.493030
0.743869 0.217566 0.595145
0.148800 0.662437 0.783423
0.155798 0.701092 0.786277
0.216461 0.769543 0.833130
0.283071 0.819894 0.866094
0.882414 0.075878 0.452522
0.920151 0.105974 0.625672
0.927495 0.145181 0.611939
0.898313 0.221753 0.705332
0.336030 0.688038 0.832935
0.242925 0.789907 0.847716
0.313176 0.830536 0.872145
0.385314 0.857619 0.888310
0.912584 0.094851 0.594078
0.931558 0.143767 0.698436
0.938905 0.209507 0.746996
0.936347 0.291727 0.774387
0.807419 0.490980 0.809599
0.371539 0.829524 0.876649
0.412603 0.858477 0.883870
0.502864 0.867331 0.889485
0.930564 0.131575 0.689022
0.938435 0.196572 0.743373
0.936720 0.282849 0.777376
0.927929 0.367326 0.793388
0.889263 0.507336 0.837082
0.554748 0.837590 0.888091
0.546030 0.869452 0.891276
0.630355 0.876115 0.892130
0.940125 0.197884 0.741188
0.933898 0.270168 0.769943
0.927499 0.355139 0.790113
0.920495 0.455140 0.812871
0.916336 0.561949 0.840185
0.829202 0.726984 0.892358
0.662323 0.878399 0.892757
0.723616 0.882897 0.894605
0.932818 0.303549 0.780594
0.925748 0.390644 0.800001
0.919244 0.490925 0.820750
0.915286 0.596640 0.844338
0.911135 0.678598 0.867710
0.896025 0.744555 0.892484
0.768706 0.877775 0.903768
0.778564 0.896706 0.904460
0.923155 0.431247 0.806670
0.918081 0.539028 0.831335
0.912465 0.628529 0.852374
0.913056 0.705879 0.873785
0.917422 0.773593 0.892273
0.918105 0.814584 0.903157
0.851702 0.882514 0.914996
0.823434 0.905903 0.916095
0.848233 0.071264 0.327311
0.873023 0.072818 0.364540
0.876165 0.091640 0.180189
0.755819 0.149506 0.139635
0.094786 0.463162 0.434730
0.124711 0.640511 0.740687
0.149059 0.684917 0.776769
0.199792 0.754192 0.826033
0.876177 0.072302 0.430649
0.751555 0.192908 0.040547
0.774939 0.215610 0.040314
0.645385 0.294556 0.052678
0.152763 0.638352 0.576422
0.161985 0.734297 0.750811
0.229367 0.782440 0.840873
0.299347 0.828096 0.872324
0.908385 0.087686 0.545168
0.922084 0.126361 0.538971
0.865503 0.276600 0.117236
0.864206 0.325402 0.112640
0.806505 0.434803 0.235277
0.242249 0.767145 0.676313
0.330259 0.841605 0.876334
0.395557 0.859371 0.889547
0.929962 0.129073 0.682618
0.931432 0.175957 0.662217
0.921272 0.251889 0.420278
0.915749 0.387008 0.284197
0.883002 0.523863 0.307919
0.421481 0.816423 0.739292
0.428309 0.864965 0.884704
0.525086 0.872100 0.894716
0.938416 0.178236 0.733063
0.937530 0.259342 0.767469
0.930367 0.333819 0.760432
0.928581 0.426960 0.538335
0.907310 0.601599 0.476808
0.637848 0.819751 0.710916
0.554158 0.869761 0.857905
0.646492 0.879940 0.894349
0.940040 0.246521 0.762793
0.929775 0.324717 0.785758
0.924027 0.422098 0.806248
0.918716 0.529195 0.819359
0.918476 0.631710 0.801123
0.902018 0.744976 0.664388
0.692858 0.874230 0.851824
0.741880 0.893258 0.903051
0.932020 0.322111 0.785041
0.924861 0.409993 0.802370
0.919142 0.514199 0.825316
0.913280 0.613756 0.846715
0.912799 0.694875 0.868229
0.913881 0.768486 0.826845
0.807904 0.879405 0.901051
0.797073 0.904804 0.909748
0.924920 0.448323 0.813221
0.916848 0.551253 0.833453
0.913248 0.645255 0.857074
0.913314 0.716118 0.875857
0.919322 0.779564 0.893557
0.921690 0.827672 0.899058
0.916360 0.872747 0.887547
0.851065 0.915043 0.913104
0.880774 0.073913 0.398827
0.868763 0.102199 0.142268
0.372978 0.246912 0.043414
0.299208 0.295709 0.066439
0.245134 0.339793 0.109034
0.132356 0.527359 0.319189
0.142166 0.687139 0.632682
0.212535 0.771467 0.831709
0.898543 0.092735 0.306442
0.366283 0.333090 0.059695
0.360803 0.383204 0.075747
0.373486 0.416938 0.081346
0.344727 0.472490 0.110250
0.282936 0.572593 0.199269
0.224490 0.771797 0.701961
0.312339 0.834312 0.872169
0.862624 0.178118 0.108294
0.792365 0.306076 0.046297
0.537275 0.517720 0.064918
0.571360 0.551078 0.062063
0.632163 0.576874 0.055356
0.491986 0.626528 0.133903
0.293175 0.814146 0.683978
0.399137 0.859960 0.876061
0.928578 0.158205 0.645536
0.870803 0.318839 0.139298
0.769385 0.549131 0.040420
0.736072 0.644299 0.054704
0.750599 0.674141 0.058348
0.612806 0.704611 0.127077
0.437413 0.822491 0.590600
0.509681 0.873343 0.857259
0.935796 0.222658 0.724559
0.929619 0.294424 0.668998
0.915812 0.458090 0.249314
0.815244 0.689399 0.062146
0.820482 0.740883 0.073398
0.758225 0.763807 0.096308
0.659679 0.803557 0.352513
0.644094 0.876233 0.820422
0.930027 0.305998 0.781822
0.927431 0.381563 0.772050
0.927909 0.485754 0.581892
0.922681 0.652712 0.358986
0.900313 0.765934 0.142088
0.878902 0.810836 0.124958
0.802065 0.819883 0.212718
0.729614 0.886650 0.809009
0.928000 0.380684 0.797707
0.919998 0.479944 0.819026
0.916468 0.583259 0.826572
0.926112 0.697517 0.625116
0.929117 0.773589 0.577640
0.912319 0.828986 0.302377
0.862576 0.852274 0.291219
0.816889 0.875661 0.585933
0.920042 0.468049 0.815821
0.916018 0.574688 0.840887
0.912423 0.664795 0.860874
0.915106 0.736034 0.863808
0.922872 0.803464 0.806286
0.925980 0.844581 0.795485
0.913894 0.870358 0.484269
0.892580 0.880112 0.543789
