其他预设/【236】赛博朋克风调色预设/【后期菌】视频调色预设/CUBE/Glitch 05_S.cube
# LUT by SparkleStock. Enhanced with VOXCOLOR algorithms.
LUT_3D_SIZE 8
DOMAIN_MIN 0.000000 0.000000 0.000000
DOMAIN_MAX 0.903226 0.903226 0.903226
0.000000 0.093842 0.035191
0.000000 0.094346 0.060921
0.000000 0.108094 0.077318
0.007820 0.132059 0.145177
0.018541 0.185035 0.272191
0.017028 0.265254 0.399332
0.010217 0.361366 0.536184
0.036200 0.471226 0.678082
0.017028 0.097752 0.055498
0.045448 0.097752 0.078804
0.007002 0.123491 0.181092
0.055050 0.176828 0.223728
0.100970 0.239523 0.318424
0.120789 0.306552 0.413971
0.108082 0.406297 0.555706
0.078653 0.538405 0.740089
0.247974 0.097752 0.102797
0.359861 0.098289 0.125635
0.330854 0.117880 0.315747
0.084606 0.245394 0.306377
0.146703 0.306129 0.343325
0.182748 0.376717 0.430502
0.185734 0.464655 0.578035
0.146158 0.584997 0.755782
0.585627 0.102419 0.216946
0.664956 0.106532 0.260103
0.648054 0.133435 0.323283
0.108103 0.298264 0.450154
0.150853 0.393586 0.408987
0.210773 0.461758 0.482436
0.204162 0.545477 0.631336
0.158726 0.661147 0.824829
0.822880 0.108599 0.366159
0.878939 0.116606 0.417193
0.876763 0.134078 0.442692
0.480096 0.232541 0.525634
0.146784 0.481528 0.543963
0.188725 0.555807 0.593740
0.192741 0.639852 0.732582
0.165309 0.730621 0.894486
0.937155 0.132690 0.505156
0.951579 0.141942 0.538418
0.958150 0.153249 0.568294
0.847696 0.200203 0.609576
0.257820 0.488759 0.736834
0.145653 0.648551 0.774006
0.167152 0.721772 0.869728
0.184729 0.768453 0.919497
0.972093 0.161574 0.604925
0.972626 0.176893 0.628638
0.974925 0.195459 0.641825
0.953926 0.221552 0.702860
0.454699 0.494129 0.862599
0.164430 0.734271 0.916706
0.178187 0.768607 0.927317
0.233774 0.797076 0.939698
0.961120 0.233091 0.668117
0.963240 0.258947 0.687830
0.963492 0.290733 0.710599
0.966869 0.321688 0.728965
0.947115 0.366265 0.796490
0.464208 0.671449 0.914146
0.281049 0.804066 0.929461
0.326765 0.822294 0.927695
0.000000 0.094094 0.047425
0.004748 0.097752 0.067598
0.001733 0.110743 0.086522
0.022606 0.132011 0.156073
0.063940 0.179294 0.278880
0.079247 0.252271 0.393232
0.047356 0.366228 0.541803
0.052597 0.479929 0.684640
0.029226 0.094330 0.056238
0.203361 0.097801 0.096953
0.319892 0.112225 0.244033
0.100733 0.204186 0.289067
0.174619 0.256828 0.353912
0.216046 0.322092 0.432969
0.213173 0.412681 0.561828
0.157530 0.553998 0.745684
0.287360 0.097784 0.108286
0.513354 0.103702 0.187095
0.478266 0.136629 0.288282
0.145702 0.268403 0.371811
0.222332 0.332369 0.371236
0.287438 0.379314 0.426538
0.290201 0.453690 0.543744
0.230646 0.592940 0.735546
0.638012 0.103175 0.245297
0.775869 0.115179 0.338984
0.703089 0.168848 0.351295
0.222806 0.303099 0.428755
0.243055 0.421380 0.407296
0.307342 0.463790 0.454073
0.319945 0.536715 0.570587
0.265725 0.658574 0.756575
0.854348 0.115980 0.391951
0.934821 0.130041 0.494806
0.848605 0.183578 0.467216
0.648637 0.262789 0.467131
0.234764 0.505823 0.516383
0.279158 0.576610 0.551277
0.290151 0.649482 0.674736
0.263763 0.724562 0.807937
0.952580 0.136726 0.532697
0.966157 0.153879 0.587375
0.948819 0.184026 0.595912
0.854783 0.249681 0.591874
0.396231 0.504220 0.676572
0.226480 0.685758 0.728959
0.238910 0.735951 0.805448
0.300722 0.772261 0.834524
0.971939 0.169240 0.608933
0.972030 0.211125 0.658380
0.969999 0.232204 0.676770
0.963412 0.268983 0.706642
0.702918 0.453132 0.828865
0.227569 0.751673 0.898590
0.237855 0.789707 0.904047
0.348825 0.807328 0.859414
0.958862 0.239271 0.670249
0.961479 0.310385 0.727730
0.964927 0.347265 0.742730
0.967231 0.380891 0.760271
0.964652 0.423697 0.810204
0.589465 0.661302 0.916425
0.349445 0.820640 0.928689
0.406879 0.841002 0.916652
0.017280 0.094346 0.055245
0.073950 0.097752 0.065051
0.007556 0.100274 0.295790
0.043739 0.135310 0.189014
0.092584 0.179611 0.307508
0.097752 0.253056 0.419765
0.082250 0.364588 0.551194
0.054969 0.494235 0.703056
0.137776 0.097752 0.077790
0.370186 0.098506 0.126703
0.352956 0.107642 0.275696
0.120714 0.204313 0.344218
0.200431 0.250264 0.391072
0.254729 0.306503 0.459325
0.256335 0.395966 0.577275
0.197895 0.533850 0.733018
0.343488 0.098631 0.121444
0.552843 0.108375 0.210319
0.584668 0.146411 0.325646
0.183312 0.294307 0.454629
0.249906 0.355643 0.447462
0.318567 0.398577 0.497042
0.344992 0.461271 0.579428
0.284666 0.604848 0.749277
0.664219 0.102768 0.258288
0.774358 0.124707 0.352528
0.728233 0.189990 0.399158
0.487615 0.261187 0.440130
0.271258 0.439426 0.495014
0.337364 0.485794 0.521411
0.388034 0.539427 0.582661
0.356309 0.637471 0.716378
0.847964 0.123100 0.399958
0.929677 0.137672 0.512207
0.832353 0.207568 0.511197
0.719091 0.281882 0.487944
0.353564 0.474010 0.548707
0.331227 0.596361 0.578709
0.390639 0.633013 0.615866
0.415635 0.687726 0.697324
0.934449 0.144530 0.530760
0.955406 0.165776 0.587164
0.934557 0.218109 0.620291
0.859855 0.293354 0.586191
0.640206 0.437788 0.663576
0.288785 0.689052 0.711265
0.351874 0.734267 0.718246
0.459583 0.746522 0.701521
0.959765 0.176779 0.609580
0.961405 0.222556 0.662131
0.961813 0.291721 0.715653
0.963607 0.323856 0.730718
0.922575 0.389724 0.773247
0.484223 0.667524 0.864572
0.362720 0.792576 0.796891
0.490187 0.807959 0.743787
0.962227 0.252214 0.686256
0.964113 0.321649 0.733601
0.964546 0.405806 0.767178
0.968058 0.446290 0.779605
0.970717 0.489017 0.811423
0.730653 0.660686 0.918052
0.454294 0.842665 0.863530
0.544281 0.853829 0.818098
0.137357 0.097752 0.077318
0.222654 0.097752 0.099566
0.214195 0.101690 0.259611
0.041518 0.143981 0.230405
0.076366 0.192419 0.340807
0.088040 0.274942 0.455822
0.068485 0.382983 0.585550
0.057264 0.506380 0.718354
0.305701 0.097752 0.118030
0.548274 0.100769 0.201047
0.548064 0.105094 0.297256
0.127973 0.191487 0.490762
0.185673 0.269237 0.460036
0.241844 0.324466 0.529065
0.236718 0.424613 0.648867
0.175984 0.570873 0.784722
0.502242 0.098256 0.179176
0.684028 0.111838 0.287119
0.709459 0.147915 0.393292
0.476237 0.189797 0.488874
0.248791 0.360312 0.543020
0.316616 0.406709 0.572425
0.340676 0.481871 0.656694
0.289098 0.616907 0.787125
0.677142 0.109335 0.272806
0.819148 0.119849 0.379774
0.770739 0.181736 0.454506
0.613573 0.252336 0.512223
0.309996 0.440225 0.593698
0.345383 0.512447 0.612002
0.416278 0.551003 0.641378
0.429423 0.625000 0.716494
0.877955 0.119422 0.416233
0.940318 0.135239 0.518699
0.848981 0.209773 0.551014
0.769143 0.283628 0.545766
0.515108 0.436384 0.623137
0.359088 0.611362 0.640470
0.453615 0.627347 0.634984
0.538715 0.656881 0.666933
0.950476 0.147582 0.548781
0.964737 0.166188 0.607078
0.933598 0.226886 0.638516
0.869581 0.322802 0.649814
0.819673 0.397899 0.699430
0.375990 0.673408 0.737888
0.454538 0.721416 0.682798
0.576780 0.732067 0.671600
0.963594 0.176502 0.617412
0.967181 0.230583 0.672637
0.966486 0.301013 0.724436
0.958366 0.390827 0.756071
0.926142 0.448592 0.788855
0.588298 0.680707 0.833188
0.462988 0.799518 0.753358
0.616684 0.807067 0.699919
0.964489 0.255216 0.690190
0.971801 0.335175 0.745503
0.970901 0.419805 0.779728
0.971161 0.513266 0.812408
0.968804 0.554587 0.828096
0.888188 0.631343 0.870549
0.573012 0.849041 0.824884
0.654588 0.866106 0.771304
0.293129 0.097752 0.108725
0.414028 0.097752 0.146251
0.421579 0.104445 0.254700
0.010778 0.194356 0.355649
0.036696 0.227122 0.374655
0.039394 0.313994 0.495968
0.038710 0.420635 0.620553
0.058167 0.525552 0.738470
0.507170 0.097817 0.180185
0.702650 0.105682 0.278261
0.734294 0.109083 0.345214
0.340238 0.159757 0.554334
0.129243 0.305582 0.543391
0.176600 0.377274 0.618938
0.178324 0.475209 0.718303
0.138734 0.620138 0.832562
0.669753 0.104429 0.261844
0.824989 0.111801 0.371865
0.834561 0.143955 0.475280
0.615029 0.177635 0.562848
0.214628 0.389944 0.664858
0.265273 0.448730 0.678686
0.273319 0.543181 0.764204
0.253205 0.654334 0.847757
0.790452 0.112761 0.346710
0.915427 0.127641 0.455352
0.862006 0.170086 0.540695
0.743894 0.228624 0.598477
0.351026 0.425621 0.697103
0.309634 0.554314 0.728056
0.371977 0.596012 0.751088
0.435314 0.630179 0.772566
0.899841 0.119674 0.438477
0.950528 0.134599 0.535508
0.909825 0.185541 0.589735
0.837384 0.256505 0.611284
0.705994 0.383155 0.713509
0.356544 0.633976 0.757996
0.460107 0.652180 0.725703
0.573447 0.668057 0.729526
0.960721 0.143265 0.556324
0.971708 0.167613 0.612984
0.961941 0.218176 0.657886
0.926585 0.304338 0.699996
0.890752 0.398095 0.763358
0.522988 0.643182 0.796084
0.493622 0.731203 0.742392
0.635494 0.738116 0.726891
0.971768 0.187984 0.631905
0.968249 0.236109 0.679973
0.969175 0.310164 0.734261
0.972435 0.399061 0.772315
0.959048 0.492624 0.795396
0.840558 0.597860 0.820109
0.565779 0.793799 0.773988
0.688646 0.809862 0.737758
0.953735 0.274405 0.703658
0.959460 0.351516 0.745853
0.960717 0.436670 0.781501
0.961538 0.538118 0.812886
0.963082 0.618377 0.844090
0.922822 0.673180 0.836970
0.724886 0.825954 0.824097
0.727401 0.875845 0.780412
0.480812 0.099013 0.170151
0.580537 0.099184 0.210476
0.604108 0.101894 0.325866
0.075374 0.214448 0.484454
0.002051 0.299529 0.455606
0.005790 0.348497 0.523384
0.024469 0.443083 0.641788
0.062496 0.539024 0.752625
0.660224 0.101796 0.253487
0.816991 0.112678 0.303611
0.863439 0.115857 0.367583
0.596017 0.144781 0.462582
0.072374 0.395489 0.666830
0.093737 0.451001 0.685443
0.100658 0.553598 0.776034
0.108172 0.658975 0.860085
0.784536 0.110906 0.339598
0.915886 0.123393 0.448071
0.922053 0.144923 0.461812
0.820541 0.167941 0.553995
0.252012 0.404923 0.742347
0.169576 0.542576 0.785782
0.171178 0.642985 0.861212
0.221168 0.695227 0.890613
0.888367 0.121346 0.428032
0.946244 0.134239 0.526866
0.949126 0.158204 0.584229
0.905359 0.208951 0.622742
0.712868 0.320096 0.712853
0.240358 0.611675 0.843929
0.287456 0.668657 0.855564
0.393609 0.670217 0.848681
0.945565 0.130314 0.514762
0.962984 0.149038 0.580976
0.969589 0.183670 0.631817
0.935639 0.249402 0.672605
0.874283 0.348402 0.764064
0.379798 0.649490 0.858907
0.409409 0.699097 0.834029
0.558845 0.690793 0.810732
0.962691 0.151427 0.574638
0.968285 0.177593 0.620266
0.967255 0.225257 0.669036
0.966067 0.299559 0.725636
0.957206 0.386966 0.764465
0.776596 0.565566 0.846309
0.519560 0.754842 0.820433
0.678980 0.747688 0.796915
0.966275 0.195328 0.637467
0.966387 0.251601 0.690221
0.965486 0.323103 0.739583
0.969490 0.411781 0.774738
0.964673 0.509338 0.808094
0.890707 0.615830 0.830459
0.666083 0.785933 0.832275
0.730157 0.818125 0.801208
0.963126 0.280906 0.713838
0.968175 0.359959 0.756779
0.967911 0.447127 0.784532
0.967179 0.542864 0.822831
0.966336 0.631528 0.850166
0.935381 0.717858 0.858250
0.797653 0.834513 0.868756
0.773254 0.886611 0.838546
0.635954 0.103175 0.242172
0.721890 0.109580 0.269966
0.764892 0.115605 0.156142
0.602004 0.151846 0.130513
0.062468 0.367848 0.305234
0.011572 0.423675 0.595319
0.034739 0.466494 0.665953
0.067859 0.556996 0.766825
0.767618 0.105922 0.320239
0.628269 0.188051 0.072044
0.655008 0.206118 0.073015
0.547527 0.280202 0.082023
0.128819 0.480653 0.433367
0.069989 0.559509 0.641929
0.083599 0.596167 0.803416
0.113793 0.671546 0.874305
0.893042 0.119825 0.393074
0.923709 0.141640 0.404850
0.791181 0.268643 0.141166
0.800899 0.311434 0.151359
0.697134 0.381501 0.244727
0.218166 0.632507 0.551036
0.133644 0.705798 0.892403
0.184289 0.735147 0.915985
0.939421 0.128906 0.507422
0.953766 0.153968 0.503806
0.926961 0.238323 0.343509
0.913159 0.353553 0.281244
0.824898 0.444735 0.318482
0.318911 0.683943 0.694136
0.236457 0.728531 0.901677
0.347972 0.718855 0.904589
0.957576 0.147081 0.563392
0.967511 0.172967 0.616104
0.968494 0.223394 0.615509
0.958386 0.345411 0.466528
0.912920 0.493231 0.432568
0.521953 0.711086 0.665006
0.386188 0.752761 0.860369
0.510456 0.732203 0.882186
0.959826 0.170118 0.607477
0.963095 0.209038 0.655777
0.961224 0.277107 0.707733
0.965597 0.356993 0.729793
0.966556 0.458471 0.709064
0.893739 0.606658 0.652074
0.548057 0.787343 0.817826
0.655153 0.778508 0.875550
0.973021 0.200720 0.649161
0.969640 0.263631 0.703212
0.974237 0.339485 0.749107
0.972820 0.429100 0.774765
0.971475 0.525754 0.811313
0.936775 0.645254 0.779790
0.716188 0.813194 0.873221
0.726996 0.853045 0.877402
0.964892 0.296063 0.724298
0.967253 0.368917 0.756547
0.968520 0.465089 0.797555
0.966096 0.559839 0.829331
0.967697 0.647163 0.852748
0.959944 0.733093 0.859606
0.922943 0.827422 0.856970
0.800741 0.910310 0.882946
0.759436 0.111248 0.295399
0.765063 0.123694 0.134191
0.340038 0.240097 0.057060
0.338679 0.295513 0.058993
0.336018 0.341771 0.065405
0.184005 0.459822 0.181800
0.086664 0.545575 0.483681
0.076269 0.577315 0.779117
0.841601 0.123686 0.248776
0.388036 0.326203 0.065352
0.421466 0.383096 0.077159
0.452846 0.415012 0.083445
0.464729 0.458565 0.091879
0.424501 0.532192 0.118390
0.169973 0.644914 0.588280
0.120223 0.688422 0.881989
0.761528 0.186393 0.127999
0.697104 0.285104 0.092977
0.555585 0.483969 0.106314
0.583424 0.521582 0.113493
0.627500 0.547745 0.123356
0.581793 0.613575 0.147636
0.279327 0.719732 0.576138
0.191025 0.757241 0.888078
0.951371 0.146113 0.484560
0.810529 0.302496 0.162004
0.715503 0.502317 0.113844
0.719408 0.611362 0.135575
0.747181 0.642501 0.143270
0.684565 0.705359 0.177423
0.433457 0.782229 0.536283
0.328788 0.798892 0.827322
0.970531 0.165456 0.556104
0.964346 0.221775 0.519067
0.919118 0.408202 0.269546
0.814861 0.641244 0.154274
0.841492 0.704795 0.180427
0.803536 0.770358 0.196697
0.691548 0.801652 0.365383
0.484811 0.815292 0.815850
0.966930 0.192920 0.642443
0.966511 0.258729 0.643239
0.963308 0.386372 0.497967
0.948445 0.548353 0.354885
0.931379 0.692485 0.262007
0.927695 0.790099 0.256211
0.841920 0.834831 0.332602
0.611552 0.855104 0.804041
0.971011 0.240638 0.690158
0.971548 0.314425 0.736783
0.973298 0.404909 0.736465
0.970808 0.552795 0.577366
0.969144 0.649800 0.574826
0.960897 0.794201 0.404825
0.903024 0.887012 0.399472
0.815610 0.904238 0.586311
0.955957 0.311088 0.734511
0.961073 0.393314 0.769664
0.962549 0.493034 0.804786
0.961026 0.588730 0.805379
0.963149 0.694569 0.755592
0.965939 0.782953 0.762291
0.967654 0.890130 0.560442
0.938927 0.936069 0.588896
