其他预设/【236】赛博朋克风调色预设/【后期菌】视频调色预设/CUBE/Glitch 09_S.cube
# LUT by SparkleStock. Enhanced with VOXCOLOR algorithms.
LUT_3D_SIZE 32
0.066471 0.070381 0.003910
0.070507 0.072399 0.007946
0.074544 0.074417 0.011982
0.078580 0.076436 0.016019
0.080346 0.079463 0.029136
0.066219 0.089553 0.105824
0.055876 0.098130 0.156024
0.061930 0.100148 0.091445
0.066471 0.104184 0.046542
0.066471 0.114275 0.060669
0.067102 0.122473 0.076057
0.069120 0.126510 0.094220
0.070381 0.132816 0.113140
0.070381 0.142907 0.133321
0.071264 0.155646 0.164980
0.073282 0.171791 0.211396
0.075300 0.189954 0.249740
0.077318 0.210135 0.280011
0.078201 0.231451 0.313688
0.078201 0.253650 0.350014
0.076940 0.277110 0.387601
0.074922 0.301328 0.425945
0.074291 0.321382 0.451802
0.074291 0.339545 0.471983
0.068237 0.362249 0.499732
0.060165 0.386466 0.530003
0.060291 0.410683 0.553716
0.062309 0.434901 0.575915
0.060795 0.452054 0.589285
0.058777 0.468199 0.601394
0.060543 0.482452 0.613502
0.062561 0.496579 0.625611
0.072525 0.072399 0.009964
0.074478 0.073376 0.011917
0.076562 0.074417 0.014066
0.080598 0.076436 0.019143
0.082754 0.079202 0.035907
0.071752 0.087210 0.134468
0.063167 0.095266 0.199511
0.065055 0.103533 0.119308
0.066732 0.111476 0.061906
0.067773 0.118441 0.072908
0.070422 0.125794 0.087775
0.076606 0.133996 0.111146
0.081644 0.142907 0.135274
0.084768 0.152997 0.160663
0.089687 0.166192 0.192061
0.096914 0.183379 0.231186
0.102577 0.203104 0.266926
0.106679 0.225368 0.299281
0.109645 0.245252 0.328596
0.111728 0.263285 0.355548
0.111248 0.284532 0.387666
0.109230 0.307707 0.422885
0.103586 0.330301 0.453495
0.096295 0.352630 0.482008
0.086856 0.374813 0.509497
0.076700 0.396947 0.536644
0.069665 0.421620 0.561463
0.063350 0.446879 0.585745
0.061707 0.465074 0.599376
0.060730 0.482261 0.611484
0.060608 0.494626 0.622616
0.060543 0.506669 0.633683
0.078454 0.074544 0.016019
0.078519 0.074544 0.016084
0.078832 0.074666 0.016519
0.082868 0.076619 0.022508
0.085342 0.079076 0.042852
0.076879 0.085065 0.163678
0.069661 0.092605 0.243905
0.067838 0.106862 0.148208
0.067041 0.118628 0.078340
0.069319 0.122925 0.085956
0.074039 0.129663 0.100042
0.084130 0.141772 0.128361
0.092804 0.153172 0.157339
0.099119 0.163393 0.187415
0.107940 0.177117 0.218431
0.119983 0.195345 0.250655
0.129097 0.216405 0.283726
0.135282 0.240296 0.317643
0.140331 0.258732 0.342735
0.144498 0.272924 0.360963
0.144717 0.292161 0.387939
0.142569 0.314425 0.420164
0.132320 0.339285 0.455029
0.118388 0.365325 0.491094
0.105726 0.387068 0.518371
0.093488 0.407379 0.542718
0.079556 0.432451 0.568653
0.065234 0.458621 0.594953
0.063045 0.477842 0.609120
0.062590 0.496070 0.621554
0.060730 0.506547 0.631669
0.058777 0.516507 0.641630
0.082490 0.078580 0.022073
0.083597 0.078580 0.023180
0.084886 0.078637 0.024526
0.088923 0.079548 0.029474
0.090615 0.080964 0.052422
0.075903 0.085912 0.201371
0.064193 0.092995 0.301909
0.065495 0.109335 0.192672
0.068082 0.123706 0.110825
0.074527 0.132169 0.111150
0.082111 0.141772 0.120549
0.092202 0.153880 0.149909
0.102439 0.166062 0.178366
0.112920 0.178366 0.205317
0.123629 0.193717 0.234120
0.134631 0.212987 0.265303
0.144266 0.231963 0.294728
0.152533 0.250647 0.322396
0.159666 0.267390 0.345339
0.165915 0.282623 0.364609
0.165614 0.302902 0.391324
0.161383 0.326208 0.422507
0.152631 0.349245 0.454182
0.141824 0.372160 0.486081
0.128381 0.394685 0.513879
0.114059 0.417079 0.540310
0.097198 0.441695 0.567481
0.079752 0.466824 0.594823
0.070792 0.486826 0.613677
0.063045 0.506095 0.631319
0.061707 0.514685 0.639807
0.060795 0.522562 0.647684
0.088544 0.082364 0.028884
0.091343 0.082494 0.031032
0.094261 0.082616 0.033299
0.098948 0.082616 0.037335
0.100868 0.083104 0.061275
0.083422 0.087010 0.224546
0.068929 0.093516 0.337698
0.067236 0.111288 0.233668
0.068619 0.127938 0.152798
0.079231 0.141218 0.141405
0.089761 0.154254 0.142870
0.100112 0.166754 0.172621
0.111830 0.179961 0.200150
0.125826 0.194348 0.223977
0.138399 0.211042 0.250167
0.149140 0.230702 0.279397
0.159686 0.247661 0.305111
0.170037 0.261918 0.327311
0.178887 0.277163 0.348228
0.186568 0.293178 0.368149
0.185747 0.314075 0.394539
0.179822 0.337902 0.424810
0.172600 0.359311 0.453605
0.164788 0.379622 0.481728
0.150336 0.402570 0.509949
0.133671 0.426397 0.538202
0.114360 0.450541 0.566455
0.094440 0.474758 0.594709
0.078677 0.495557 0.618006
0.063509 0.515869 0.640596
0.062561 0.523180 0.647806
0.062561 0.529625 0.653990
0.108725 0.084382 0.040993
0.117774 0.085554 0.044183
0.126876 0.086652 0.047425
0.136771 0.086652 0.051462
0.145983 0.087010 0.065116
0.150409 0.089875 0.146101
0.145096 0.094948 0.217979
0.097573 0.109596 0.250399
0.065625 0.126245 0.261189
0.080403 0.148900 0.207091
0.094448 0.169358 0.177894
0.106882 0.184982 0.203478
0.119511 0.200923 0.227232
0.132466 0.217393 0.247933
0.146731 0.233436 0.268721
0.162681 0.248930 0.289618
0.176873 0.264326 0.311166
0.189307 0.279625 0.333365
0.197310 0.294740 0.353111
0.201867 0.309713 0.370948
0.200524 0.328267 0.396557
0.195642 0.348969 0.426828
0.190177 0.370118 0.454907
0.184449 0.391471 0.481988
0.167392 0.412335 0.509949
0.146560 0.433037 0.538202
0.128162 0.456595 0.566455
0.110324 0.480812 0.594709
0.087531 0.502523 0.620741
0.064030 0.523876 0.646455
0.062561 0.534182 0.654837
0.062561 0.543752 0.662063
0.139501 0.087157 0.053858
0.154995 0.088979 0.058090
0.170660 0.090713 0.062345
0.188888 0.091103 0.066968
0.207563 0.091649 0.072729
0.229372 0.093276 0.086465
0.232370 0.096796 0.123723
0.153860 0.108514 0.262906
0.094733 0.124723 0.347976
0.093756 0.154409 0.270702
0.097805 0.181287 0.222255
0.112908 0.201989 0.237228
0.127108 0.221739 0.253031
0.139802 0.239902 0.270218
0.155601 0.255501 0.285980
0.175392 0.267805 0.299912
0.192252 0.281737 0.317489
0.206184 0.297295 0.338711
0.213744 0.312268 0.357407
0.216348 0.326786 0.374138
0.214924 0.343459 0.399087
0.211083 0.361427 0.428968
0.206839 0.382035 0.456074
0.202412 0.403844 0.481919
0.183436 0.422772 0.509424
0.159609 0.440739 0.537482
0.142024 0.463467 0.565699
0.125879 0.487294 0.593952
0.097715 0.509525 0.622376
0.067834 0.531529 0.650825
0.064319 0.544073 0.660903
0.062561 0.555987 0.669757
0.216189 0.093211 0.070003
0.238974 0.093992 0.075276
0.262841 0.094879 0.080704
0.302943 0.097353 0.088451
0.340497 0.099461 0.096686
0.360223 0.099005 0.108339
0.367778 0.100441 0.139802
0.322599 0.110076 0.257112
0.262951 0.123942 0.341140
0.159898 0.150503 0.325321
0.095396 0.179464 0.307081
0.115707 0.213707 0.283515
0.134334 0.241920 0.273278
0.150153 0.260083 0.285256
0.166798 0.276138 0.297633
0.184506 0.289483 0.310523
0.199804 0.302373 0.324975
0.212694 0.314807 0.340990
0.221556 0.329585 0.359165
0.227284 0.346185 0.379020
0.227683 0.362989 0.403840
0.224884 0.379915 0.431637
0.219533 0.398766 0.456660
0.213023 0.418491 0.480422
0.195088 0.436117 0.506624
0.173345 0.453043 0.533641
0.156150 0.473883 0.561662
0.140006 0.495627 0.589916
0.113665 0.516686 0.619251
0.085867 0.537649 0.648742
0.073693 0.549151 0.662791
0.062561 0.560023 0.675811
0.302967 0.098256 0.087661
0.330960 0.098517 0.094236
0.360394 0.098980 0.101015
0.411432 0.102496 0.110845
0.458328 0.105417 0.120903
0.476231 0.104180 0.132556
0.486651 0.104689 0.160602
0.464647 0.112761 0.259684
0.401549 0.125261 0.340977
0.215168 0.151040 0.368905
0.094517 0.182638 0.372604
0.118474 0.227036 0.322998
0.140356 0.261694 0.294435
0.158779 0.280117 0.300945
0.176091 0.296547 0.309677
0.191976 0.310413 0.321264
0.206363 0.322782 0.333243
0.219253 0.333654 0.345612
0.229140 0.348187 0.363071
0.236691 0.365569 0.384489
0.238750 0.382015 0.408104
0.237513 0.397899 0.433037
0.230682 0.415350 0.456807
0.221307 0.433513 0.480047
0.204414 0.449772 0.505339
0.185014 0.465396 0.531314
0.168259 0.484299 0.558928
0.152114 0.503959 0.586921
0.126229 0.523847 0.617364
0.098952 0.543768 0.648156
0.081684 0.554717 0.665216
0.065084 0.565068 0.681361
0.420017 0.100274 0.109860
0.446968 0.101576 0.118519
0.474058 0.102886 0.127185
0.503223 0.104319 0.135974
0.530850 0.105808 0.145901
0.547711 0.107696 0.163804
0.555917 0.110743 0.195560
0.526622 0.118816 0.287351
0.451285 0.132877 0.360833
0.237822 0.164906 0.379386
0.098228 0.200801 0.380221
0.121143 0.245199 0.342072
0.142764 0.280247 0.318327
0.162229 0.299712 0.318587
0.179672 0.316272 0.322892
0.194515 0.329097 0.332397
0.209943 0.342507 0.343854
0.225958 0.356504 0.357265
0.236040 0.370647 0.373422
0.241509 0.384904 0.391715
0.244739 0.399527 0.410903
0.246627 0.414370 0.430628
0.237192 0.431495 0.455635
0.222609 0.449658 0.483042
0.206758 0.464354 0.508594
0.190483 0.477895 0.533527
0.174313 0.494715 0.560100
0.158169 0.512292 0.587051
0.128638 0.531008 0.619186
0.097194 0.549887 0.652062
0.085525 0.561748 0.669252
0.075174 0.573140 0.685397
0.521931 0.103554 0.135213
0.545888 0.105572 0.144978
0.569169 0.107443 0.154637
0.582319 0.107118 0.162709
0.595722 0.107297 0.172263
0.610890 0.111008 0.192183
0.617697 0.115597 0.222626
0.588272 0.123995 0.298663
0.510380 0.138236 0.363681
0.287087 0.170005 0.395645
0.133898 0.207958 0.406838
0.134940 0.259517 0.372335
0.143159 0.299431 0.347793
0.163340 0.319938 0.339850
0.180872 0.336770 0.338487
0.194999 0.348879 0.345583
0.210818 0.363006 0.355869
0.228330 0.379151 0.369345
0.238994 0.392842 0.384139
0.244332 0.404625 0.399958
0.248247 0.417669 0.415981
0.251306 0.431471 0.432126
0.240447 0.447823 0.457759
0.223260 0.465335 0.487705
0.207636 0.479038 0.513842
0.192533 0.491472 0.538711
0.175790 0.506393 0.564954
0.158669 0.521886 0.591515
0.127079 0.539431 0.624854
0.093423 0.557268 0.659162
0.086559 0.568514 0.674611
0.081481 0.579321 0.688803
0.590546 0.109608 0.167502
0.607212 0.111626 0.176226
0.623463 0.113433 0.184908
0.633488 0.112066 0.192981
0.643766 0.111203 0.201623
0.655809 0.113872 0.214252
0.663007 0.117811 0.232326
0.649206 0.127250 0.273990
0.590062 0.138626 0.329113
0.394892 0.155813 0.424615
0.239881 0.190902 0.475258
0.173219 0.265376 0.427215
0.139123 0.320003 0.389522
0.159304 0.341551 0.369080
0.176836 0.358970 0.359319
0.190963 0.371078 0.363291
0.205740 0.385205 0.370972
0.221169 0.401350 0.382365
0.233265 0.414455 0.395661
0.242770 0.425197 0.410439
0.246294 0.437199 0.426071
0.246229 0.449959 0.442216
0.236541 0.464554 0.467133
0.222479 0.479982 0.496038
0.205293 0.493946 0.523477
0.187065 0.507422 0.550429
0.167197 0.520845 0.577909
0.146951 0.534255 0.605511
0.116793 0.550628 0.638981
0.085220 0.567424 0.673289
0.081416 0.574699 0.682879
0.079463 0.581339 0.690821
0.648567 0.112635 0.197522
0.660285 0.114263 0.205594
0.671751 0.115687 0.213691
0.679432 0.114059 0.222154
0.687464 0.112887 0.230617
0.697945 0.114906 0.239080
0.705265 0.118437 0.248788
0.698885 0.128528 0.263891
0.657709 0.138309 0.303651
0.512146 0.147163 0.417380
0.367030 0.178313 0.485845
0.222898 0.258516 0.454728
0.139505 0.321069 0.425270
0.157343 0.354205 0.398579
0.173557 0.378825 0.383081
0.187683 0.392496 0.381974
0.201419 0.407013 0.386661
0.214765 0.422377 0.397143
0.227415 0.434774 0.408795
0.239523 0.444865 0.421360
0.242314 0.456217 0.436650
0.239515 0.468325 0.453576
0.230853 0.481016 0.477484
0.219525 0.493971 0.504566
0.202437 0.507218 0.531647
0.183427 0.520564 0.558729
0.161509 0.533539 0.588032
0.138919 0.546429 0.617848
0.110975 0.560800 0.649885
0.082266 0.575382 0.682240
0.079373 0.580444 0.688412
0.078201 0.584871 0.692839
0.688929 0.110617 0.223757
0.699605 0.111203 0.231829
0.710029 0.111716 0.239991
0.716670 0.111130 0.249496
0.723920 0.110869 0.259000
0.735443 0.112887 0.268505
0.742437 0.116419 0.276520
0.729808 0.126510 0.278083
0.705297 0.136812 0.293365
0.645145 0.147749 0.349807
0.529454 0.173170 0.400044
0.291579 0.230458 0.436630
0.147252 0.289626 0.451049
0.158840 0.351927 0.428525
0.171538 0.394775 0.411725
0.185665 0.412612 0.402285
0.198360 0.428171 0.403327
0.209622 0.441451 0.414850
0.221360 0.452937 0.424615
0.233469 0.463028 0.433013
0.234958 0.474380 0.448043
0.230076 0.486488 0.467052
0.222194 0.497030 0.489462
0.212950 0.506860 0.513419
0.198726 0.517765 0.537376
0.182841 0.529027 0.561333
0.160663 0.543304 0.593435
0.137031 0.558277 0.627417
0.112603 0.569263 0.655419
0.088060 0.579679 0.682565
0.082498 0.585456 0.689389
0.078201 0.590925 0.694857
0.723110 0.109482 0.251758
0.732289 0.109482 0.258919
0.741273 0.109510 0.266263
0.747328 0.109966 0.276354
0.753911 0.110560 0.286273
0.764197 0.112123 0.294997
0.769868 0.115199 0.301291
0.755546 0.124833 0.297059
0.741664 0.135087 0.299143
0.729100 0.147195 0.320170
0.646024 0.167828 0.357533
0.407823 0.207213 0.430836
0.239588 0.262540 0.471133
0.187964 0.344436 0.456420
0.165106 0.401923 0.441964
0.179232 0.428028 0.427837
0.191797 0.447363 0.425233
0.202799 0.459927 0.434152
0.212885 0.470844 0.442228
0.222260 0.480479 0.449650
0.223415 0.491375 0.464191
0.219639 0.503028 0.483005
0.212596 0.512532 0.504460
0.204068 0.521060 0.527115
0.191341 0.530418 0.549769
0.177214 0.540053 0.572424
0.154149 0.553867 0.605446
0.129020 0.568644 0.640861
0.106854 0.577555 0.666079
0.085110 0.585627 0.689840
0.081493 0.590953 0.694011
0.079084 0.596096 0.696875
0.749346 0.109482 0.282029
0.756442 0.109482 0.287107
0.763472 0.109575 0.292498
0.769527 0.111073 0.302589
0.775589 0.112448 0.312118
0.781709 0.112969 0.317716
0.784776 0.115003 0.322253
0.774621 0.123596 0.322188
0.763603 0.133068 0.325573
0.749997 0.145177 0.339309
0.703637 0.162229 0.370683
0.585220 0.190157 0.440861
0.440682 0.241057 0.483892
0.252608 0.330244 0.481679
0.152997 0.397757 0.474253
0.167124 0.437403 0.460127
0.180730 0.464029 0.453877
0.193815 0.477635 0.455505
0.201297 0.488421 0.462149
0.204422 0.497014 0.472695
0.206489 0.506869 0.486456
0.207921 0.517480 0.502145
0.201790 0.527375 0.523339
0.192220 0.536945 0.547035
0.179232 0.545782 0.570732
0.165106 0.554375 0.594428
0.140347 0.565454 0.625953
0.113136 0.577107 0.659284
0.091620 0.585627 0.683330
0.070918 0.593700 0.706050
0.075178 0.597073 0.703320
0.081102 0.600132 0.698893
0.771545 0.110491 0.308265
0.776557 0.112574 0.313343
0.781570 0.114653 0.318669
0.786583 0.116671 0.327717
0.791408 0.118633 0.336270
0.794924 0.120195 0.341348
0.796364 0.122880 0.345657
0.788813 0.130432 0.346633
0.779878 0.138602 0.349367
0.766792 0.148627 0.357375
0.740484 0.162457 0.385298
0.685084 0.184656 0.457039
0.550636 0.234319 0.503585
0.284442 0.329756 0.508142
0.140661 0.404202 0.504753
0.154267 0.451660 0.491147
0.167612 0.481671 0.482814
0.180697 0.494235 0.479754
0.187008 0.504273 0.484641
0.188049 0.512345 0.495708
0.189661 0.521353 0.509664
0.191614 0.530923 0.525353
0.186003 0.540493 0.545831
0.176954 0.550062 0.568486
0.163706 0.558509 0.592312
0.149059 0.566582 0.616529
0.126318 0.575870 0.644343
0.101711 0.585440 0.672987
0.082343 0.592333 0.694169
0.063725 0.598843 0.714285
0.072509 0.601630 0.709439
0.083120 0.604169 0.702929
0.789708 0.112509 0.330464
0.792637 0.118759 0.337625
0.795567 0.124744 0.344774
0.798496 0.126762 0.351739
0.801369 0.129114 0.358729
0.803843 0.133801 0.365890
0.804632 0.138830 0.371501
0.798122 0.145340 0.370395
0.790489 0.151687 0.370525
0.779487 0.157546 0.374366
0.756564 0.168511 0.401378
0.707413 0.190710 0.479368
0.569450 0.242327 0.530211
0.283466 0.342971 0.535810
0.128096 0.421258 0.533462
0.140661 0.470799 0.520898
0.152444 0.500289 0.512044
0.163446 0.509729 0.506901
0.170017 0.518399 0.509704
0.173142 0.526472 0.518688
0.172930 0.534829 0.533816
0.170717 0.543357 0.552630
0.165236 0.551885 0.571936
0.158270 0.560413 0.591466
0.144762 0.568600 0.614511
0.129073 0.576672 0.638729
0.112062 0.585115 0.660618
0.094745 0.593643 0.681971
0.079023 0.597671 0.698596
0.063529 0.601056 0.714546
0.073486 0.604624 0.712369
0.085139 0.608205 0.708984
0.799924 0.122473 0.350393
0.802528 0.129374 0.358465
0.805022 0.135933 0.366301
0.805869 0.137365 0.370598
0.806862 0.139229 0.375220
0.808880 0.144111 0.382121
0.809824 0.149213 0.387679
0.806113 0.155268 0.387418
0.801100 0.160817 0.387874
0.792181 0.164854 0.390478
0.775390 0.172002 0.411452
0.741277 0.185999 0.472842
0.614300 0.232025 0.525125
0.332547 0.331432 0.562232
0.164491 0.412754 0.574988
0.142618 0.470824 0.556434
0.136433 0.507410 0.544423
0.145938 0.522513 0.538955
0.152367 0.533002 0.540114
0.156403 0.539903 0.546429
0.155760 0.547170 0.559945
0.152310 0.554656 0.577783
0.146263 0.562545 0.596247
0.139037 0.570618 0.614996
0.126001 0.577372 0.636088
0.111028 0.583687 0.657962
0.097219 0.590477 0.676344
0.083678 0.597378 0.693921
0.073213 0.600519 0.705916
0.063188 0.603123 0.717113
0.070617 0.606520 0.716470
0.079210 0.609971 0.715038
0.803961 0.138618 0.368555
0.807606 0.143436 0.376628
0.810947 0.147976 0.384269
0.809710 0.148367 0.385441
0.808880 0.149059 0.387068
0.810898 0.151858 0.391886
0.812623 0.155268 0.396337
0.813079 0.161322 0.399201
0.811711 0.166872 0.402261
0.804876 0.170908 0.405907
0.796352 0.173500 0.416856
0.784113 0.172914 0.443872
0.679400 0.207482 0.495374
0.420562 0.300640 0.587686
0.238966 0.384371 0.626482
0.156679 0.455981 0.596471
0.119768 0.505587 0.579252
0.128231 0.533189 0.574825
0.134204 0.547975 0.574682
0.138240 0.552793 0.577872
0.138248 0.558627 0.587613
0.135839 0.565072 0.601284
0.128686 0.572636 0.619162
0.119377 0.580708 0.638952
0.107382 0.585119 0.657180
0.094493 0.588309 0.674888
0.081920 0.592821 0.691643
0.069421 0.597638 0.708178
0.065466 0.601430 0.715486
0.062732 0.605076 0.721475
0.064758 0.607562 0.721483
0.067102 0.609971 0.721092
0.802951 0.153502 0.381673
0.805686 0.156887 0.387793
0.808245 0.160142 0.393692
0.808180 0.161444 0.396296
0.808212 0.162754 0.398916
0.808928 0.164121 0.401651
0.809767 0.166245 0.404629
0.811134 0.171648 0.408665
0.811296 0.176547 0.412539
0.807846 0.179932 0.415924
0.804823 0.181181 0.421649
0.802740 0.177731 0.432520
0.738600 0.196203 0.472418
0.571033 0.251213 0.560694
0.424029 0.321118 0.620118
0.303464 0.410175 0.642447
0.209134 0.478985 0.643131
0.141039 0.527550 0.622169
0.112053 0.553265 0.614865
0.113486 0.561207 0.618185
0.113168 0.567562 0.624964
0.111801 0.572965 0.633818
0.106227 0.579756 0.646878
0.098740 0.587178 0.661851
0.091205 0.590546 0.674774
0.083653 0.592565 0.687012
0.076102 0.596222 0.698722
0.068550 0.600259 0.710310
0.068176 0.603725 0.714721
0.068827 0.607110 0.718106
0.066426 0.609214 0.721369
0.063822 0.611232 0.724624
0.798915 0.167628 0.391764
0.799566 0.169972 0.394758
0.800368 0.172381 0.397989
0.803428 0.175766 0.404759
0.805934 0.178769 0.410765
0.804567 0.179094 0.411416
0.803517 0.180176 0.412701
0.803843 0.184538 0.416738
0.804266 0.188395 0.420351
0.804982 0.190739 0.422694
0.805800 0.192574 0.426075
0.806841 0.193290 0.431739
0.794261 0.192883 0.453539
0.758976 0.190605 0.502234
0.675445 0.236944 0.579040
0.529881 0.345791 0.691989
0.362119 0.437517 0.724441
0.172157 0.512121 0.676397
0.087511 0.552744 0.658417
0.084776 0.566936 0.663821
0.083548 0.574983 0.668125
0.083222 0.579345 0.671771
0.080838 0.585094 0.677475
0.077518 0.591474 0.684115
0.076492 0.594583 0.690267
0.076232 0.596601 0.696257
0.075972 0.600259 0.700871
0.075711 0.604295 0.705167
0.077160 0.606850 0.707755
0.078852 0.609194 0.710099
0.072611 0.611232 0.718179
0.065841 0.613250 0.726642
0.804591 0.173430 0.408791
0.804591 0.176165 0.410093
0.804754 0.178891 0.411684
0.807358 0.181495 0.417608
0.809474 0.183863 0.422881
0.808172 0.184579 0.423598
0.807248 0.185917 0.424936
0.807964 0.189954 0.428972
0.808827 0.193306 0.432504
0.810129 0.194608 0.434522
0.811655 0.196134 0.437842
0.813673 0.198152 0.444027
0.816667 0.194262 0.467691
0.821289 0.180526 0.520487
0.723578 0.228452 0.595384
0.494296 0.355658 0.698698
0.300721 0.453828 0.732485
0.142854 0.522965 0.696745
0.072322 0.561085 0.683709
0.069718 0.575081 0.688331
0.068742 0.582852 0.691325
0.068742 0.586889 0.693343
0.068339 0.590835 0.696257
0.067753 0.594741 0.699577
0.068583 0.597231 0.702897
0.069885 0.599250 0.706217
0.071769 0.603489 0.708479
0.073787 0.608241 0.710497
0.075178 0.610601 0.712515
0.076480 0.612619 0.714533
0.071679 0.614638 0.720763
0.066471 0.616656 0.727273
0.814682 0.175449 0.428972
0.814682 0.179224 0.429233
0.814714 0.182797 0.429652
0.815235 0.183318 0.432451
0.815658 0.183993 0.435120
0.815398 0.185751 0.436878
0.815516 0.187936 0.439063
0.817273 0.191972 0.443099
0.818657 0.195064 0.446631
0.818917 0.195324 0.448649
0.819727 0.196134 0.452945
0.821745 0.198152 0.462255
0.823958 0.197778 0.496855
0.826497 0.193416 0.573608
0.679310 0.254362 0.637829
0.339619 0.399275 0.685938
0.141877 0.496404 0.707226
0.086087 0.545750 0.701692
0.061385 0.573454 0.700700
0.060864 0.584325 0.703239
0.060669 0.590925 0.705452
0.060669 0.594961 0.707470
0.061699 0.596759 0.709667
0.063196 0.597541 0.711946
0.063765 0.599250 0.714224
0.064026 0.601268 0.716503
0.065714 0.606354 0.718570
0.067732 0.612147 0.720588
0.068213 0.614638 0.722606
0.068473 0.616656 0.724624
0.067513 0.618674 0.725971
0.066471 0.620692 0.727273
0.817204 0.180494 0.437045
0.817986 0.183749 0.438607
0.818767 0.186898 0.440198
0.819548 0.188460 0.442216
0.820231 0.190080 0.444234
0.820231 0.192098 0.446252
0.820610 0.194494 0.448649
0.822628 0.198531 0.452685
0.823946 0.201753 0.456021
0.823165 0.202534 0.457258
0.823259 0.203702 0.460774
0.825277 0.205720 0.469302
0.827588 0.207103 0.497165
0.830387 0.207429 0.557252
0.733474 0.261669 0.619390
0.508358 0.385229 0.684164
0.313481 0.475458 0.714436
0.148843 0.532355 0.710204
0.071980 0.566879 0.709049
0.063387 0.584000 0.710286
0.060165 0.593431 0.712011
0.060165 0.598249 0.714029
0.061552 0.600828 0.716047
0.063570 0.602391 0.718065
0.064075 0.603709 0.719497
0.064075 0.604946 0.720734
0.065080 0.609462 0.722606
0.066317 0.614735 0.724624
0.066471 0.617160 0.726642
0.066471 0.619178 0.728660
0.067204 0.621196 0.728786
0.067985 0.623214 0.728786
0.817204 0.186548 0.441081
0.819027 0.188762 0.444727
0.820850 0.191064 0.448270
0.822673 0.194710 0.450289
0.824268 0.198152 0.452307
0.824268 0.200170 0.454325
0.824646 0.202567 0.456721
0.826664 0.206603 0.460757
0.827722 0.210086 0.463833
0.825899 0.211909 0.464029
0.825277 0.213792 0.466177
0.827295 0.215811 0.472622
0.829996 0.218366 0.487855
0.833837 0.221816 0.517736
0.820447 0.262776 0.580655
0.784902 0.351963 0.686052
0.595234 0.433338 0.732469
0.251441 0.506901 0.719904
0.089753 0.553989 0.714517
0.069702 0.580484 0.714712
0.062183 0.594082 0.716047
0.062183 0.599941 0.718065
0.063570 0.604278 0.720083
0.065588 0.607924 0.722101
0.066093 0.608982 0.722752
0.066093 0.609177 0.722948
0.066251 0.612652 0.724624
0.066447 0.616883 0.726642
0.066471 0.619178 0.728660
0.066471 0.621196 0.730678
0.068180 0.623214 0.730804
0.070003 0.625233 0.730804
0.813925 0.200801 0.448397
0.815943 0.203665 0.451586
0.817908 0.206603 0.454703
0.819080 0.210639 0.456721
0.820211 0.214529 0.458845
0.821057 0.217393 0.461710
0.822123 0.220636 0.464476
0.824142 0.225519 0.466820
0.825362 0.229897 0.469001
0.824190 0.232761 0.470693
0.824280 0.235890 0.473749
0.827144 0.239601 0.479803
0.829813 0.244385 0.489495
0.832157 0.250960 0.505249
0.834216 0.276789 0.548744
0.835908 0.327372 0.627906
0.729307 0.398200 0.686658
0.514412 0.489275 0.725002
0.320316 0.546917 0.733209
0.142398 0.578556 0.717976
0.073563 0.596320 0.713524
0.070178 0.605760 0.715543
0.069926 0.610902 0.716979
0.071097 0.614092 0.718151
0.072660 0.615525 0.719078
0.074352 0.616371 0.719925
0.074670 0.618434 0.721035
0.074670 0.620777 0.722207
0.074670 0.623577 0.723379
0.074670 0.626441 0.724551
0.079735 0.628512 0.724624
0.085139 0.630530 0.724624
0.809889 0.216946 0.456469
0.811907 0.220852 0.458617
0.813807 0.224766 0.460757
0.813937 0.228802 0.462776
0.814287 0.232822 0.465030
0.816175 0.236728 0.468936
0.818087 0.241012 0.472158
0.820105 0.246936 0.472418
0.821586 0.252356 0.473558
0.821456 0.256262 0.477334
0.822587 0.260758 0.481821
0.826493 0.266552 0.487876
0.829032 0.273811 0.493661
0.829293 0.283510 0.499000
0.831091 0.293780 0.518408
0.834867 0.304782 0.555905
0.829301 0.364674 0.626115
0.814393 0.473456 0.729039
0.599986 0.541188 0.754952
0.230413 0.576993 0.720970
0.087104 0.598924 0.709488
0.079552 0.612530 0.711506
