其他预设/【236】赛博朋克风调色预设/【后期菌】视频调色预设/CUBE/Glitch 09.cube
# LUT by SparkleStock. Enhanced with VOXCOLOR algorithms.
LUT_3D_SIZE 8
DOMAIN_MIN 0.000000 0.000000 0.000000
DOMAIN_MAX 0.903226 0.903226 0.903226
0.066471 0.070381 0.003910
0.080346 0.079463 0.029136
0.066471 0.104184 0.046542
0.062561 0.136726 0.117050
0.058651 0.197774 0.258569
0.059912 0.284930 0.398070
0.061048 0.367042 0.504525
0.060795 0.452054 0.589285
0.088544 0.082364 0.028884
0.100868 0.083104 0.061275
0.061935 0.127686 0.158254
0.066471 0.189091 0.229665
0.066789 0.277180 0.380225
0.069120 0.357419 0.494434
0.064958 0.440186 0.577038
0.062561 0.502405 0.629419
0.302967 0.098256 0.087661
0.458393 0.105385 0.120935
0.409292 0.111577 0.372380
0.067326 0.259550 0.374402
0.072908 0.348016 0.477549
0.070218 0.429188 0.569625
0.064648 0.494939 0.624040
0.064099 0.543927 0.663096
0.658027 0.109482 0.200675
0.696924 0.109734 0.233770
0.693075 0.112228 0.334459
0.067590 0.299936 0.541099
0.066837 0.412242 0.549094
0.064453 0.481821 0.611728
0.062561 0.533494 0.653193
0.063949 0.570728 0.688371
0.771545 0.110491 0.308265
0.791408 0.118633 0.336270
0.800811 0.124105 0.363734
0.575842 0.179692 0.601910
0.061812 0.467788 0.619768
0.059912 0.520597 0.647684
0.064303 0.564311 0.683745
0.060970 0.593924 0.711807
0.807997 0.149718 0.384196
0.811996 0.158970 0.402700
0.816106 0.172080 0.416087
0.751889 0.174989 0.498255
0.169057 0.464912 0.701119
0.062561 0.559209 0.678220
0.058651 0.588150 0.705452
0.063131 0.603725 0.719766
0.817204 0.180494 0.437045
0.820231 0.190080 0.444234
0.823946 0.201753 0.456021
0.827588 0.207103 0.497165
0.313481 0.475458 0.714436
0.060165 0.593431 0.712011
0.064075 0.603709 0.719497
0.066471 0.617160 0.726642
0.826790 0.221360 0.472361
0.830814 0.235817 0.482566
0.836604 0.265535 0.496302
0.842736 0.297885 0.516886
0.854307 0.361382 0.600999
0.314315 0.617868 0.767061
0.067985 0.621070 0.729869
0.073742 0.627967 0.731183
0.074796 0.074544 0.012235
0.084166 0.082600 0.038930
0.063253 0.105128 0.056153
0.066422 0.149213 0.135514
0.062626 0.211522 0.281586
0.063993 0.300994 0.417035
0.062561 0.385331 0.525463
0.060795 0.459887 0.598871
0.091254 0.079430 0.030333
0.233456 0.095040 0.079780
0.396892 0.114221 0.277200
0.067923 0.254385 0.340955
0.076932 0.345885 0.476328
0.069120 0.423070 0.565961
0.061145 0.486901 0.616399
0.062538 0.537975 0.659296
0.357611 0.098761 0.100466
0.611412 0.106565 0.170641
0.593793 0.120334 0.314889
0.072323 0.311502 0.505262
0.074007 0.416383 0.555002
0.066227 0.478533 0.611793
0.062320 0.527993 0.651175
0.061822 0.567735 0.685593
0.680275 0.113189 0.217324
0.761749 0.113217 0.291482
0.780688 0.117829 0.343434
0.126502 0.274459 0.606106
0.068595 0.466183 0.605410
0.064217 0.521326 0.646346
0.059676 0.557454 0.678295
0.058151 0.588016 0.704470
0.784410 0.115540 0.320622
0.810393 0.146027 0.381413
0.814808 0.157009 0.397337
0.693112 0.164409 0.499724
0.060482 0.494720 0.661958
0.059396 0.550713 0.668736
0.057259 0.582687 0.701150
0.059107 0.601165 0.715885
0.813294 0.157457 0.397313
0.815901 0.175039 0.429098
0.818569 0.188094 0.439760
0.820272 0.183588 0.488891
0.251784 0.462118 0.703586
0.059892 0.578399 0.699123
0.058416 0.598369 0.714362
0.063900 0.612445 0.723249
0.817204 0.186646 0.436988
0.826393 0.207512 0.461559
0.828169 0.222882 0.469774
0.831910 0.243550 0.491231
0.664677 0.450041 0.729698
0.062837 0.600486 0.721832
0.064999 0.614020 0.725839
0.067671 0.621548 0.726771
0.826790 0.223378 0.466698
0.836995 0.282758 0.506218
0.848717 0.329849 0.530387
0.860962 0.385808 0.553612
0.878450 0.450483 0.617265
0.424490 0.627352 0.774257
0.081784 0.629863 0.731183
0.103371 0.641116 0.731541
0.088040 0.078706 0.024974
0.113559 0.083088 0.042820
0.047731 0.106402 0.288743
0.066569 0.154482 0.151427
0.066097 0.227667 0.305111
0.069120 0.316301 0.441297
0.062561 0.401223 0.540908
0.060746 0.472060 0.607298
0.158661 0.090721 0.061524
0.478546 0.102213 0.121668
0.453275 0.109273 0.292639
0.070931 0.267311 0.384255
0.076842 0.358294 0.490442
0.067921 0.436211 0.578483
0.061328 0.492575 0.622902
0.061012 0.542294 0.662616
0.436866 0.103045 0.112306
0.642310 0.110585 0.190540
0.713471 0.113400 0.330231
0.085752 0.336601 0.592240
0.070255 0.462615 0.598946
0.062329 0.517399 0.642108
0.058601 0.552042 0.673059
0.056901 0.583794 0.700663
0.694898 0.112985 0.224933
0.769793 0.111233 0.304181
0.808663 0.131871 0.365147
0.623351 0.168901 0.549254
0.062358 0.502568 0.653796
0.058961 0.549078 0.667097
0.055298 0.577933 0.696680
0.058472 0.598826 0.712886
0.786925 0.116920 0.325284
0.810915 0.150459 0.388916
0.818604 0.174383 0.420291
0.817883 0.169826 0.476955
0.141675 0.468356 0.698336
0.056214 0.573653 0.694002
0.052934 0.594961 0.708273
0.060671 0.608835 0.721473
0.813457 0.158384 0.400792
0.814960 0.178246 0.431273
0.824088 0.199509 0.454019
0.830067 0.215259 0.474468
0.658608 0.383744 0.708496
0.055945 0.586983 0.707637
0.060875 0.607249 0.719920
0.063164 0.616468 0.723102
0.816631 0.185218 0.436976
0.824463 0.214114 0.466633
0.834994 0.265736 0.498343
0.843278 0.302888 0.520061
0.856686 0.368282 0.618860
0.295765 0.614019 0.762735
0.063727 0.615281 0.722859
0.083031 0.627815 0.723439
0.828784 0.232712 0.476398
0.841386 0.300535 0.516830
0.869890 0.423032 0.572110
0.882833 0.487186 0.594578
0.898879 0.549824 0.635118
0.696859 0.701717 0.830091
0.133507 0.647918 0.734886
0.208586 0.673556 0.748192
0.156907 0.087535 0.060921
0.261397 0.095054 0.082034
0.234230 0.100514 0.289378
0.065714 0.164898 0.188005
0.063009 0.241220 0.325052
0.067077 0.331180 0.458219
0.064030 0.409003 0.553675
0.058651 0.480523 0.611358
0.391585 0.102419 0.107968
0.625914 0.109586 0.178299
0.647767 0.112855 0.270028
0.063341 0.228749 0.511575
0.074434 0.368010 0.505099
0.068949 0.444975 0.580712
0.062542 0.505107 0.632353
0.062561 0.549015 0.666366
0.596812 0.106833 0.165484
0.718615 0.113055 0.248563
0.785768 0.114513 0.328644
0.600557 0.160096 0.526480
0.063742 0.465826 0.622899
0.061155 0.522658 0.646179
0.058664 0.560480 0.678032
0.055192 0.589460 0.705125
0.708463 0.112635 0.238644
0.779882 0.111744 0.314555
0.812775 0.144695 0.378424
0.710147 0.167690 0.496160
0.102532 0.496503 0.690083
0.055713 0.567528 0.687432
0.051555 0.593504 0.706229
0.058367 0.606519 0.717811
0.790761 0.118873 0.339167
0.811288 0.153119 0.390490
0.819984 0.179208 0.430871
0.825552 0.192565 0.458340
0.571403 0.403492 0.743751
0.051944 0.587961 0.704305
0.055066 0.602207 0.715249
0.059283 0.612641 0.720509
0.816692 0.165358 0.409792
0.816944 0.184119 0.436695
0.824727 0.205853 0.461485
0.833823 0.249863 0.488391
0.838995 0.324566 0.619033
0.072370 0.585594 0.718526
0.058886 0.611539 0.719404
0.074775 0.622539 0.720084
0.818718 0.188607 0.440829
0.826790 0.220948 0.471553
0.837668 0.280004 0.503522
0.861972 0.388466 0.557686
0.878023 0.461875 0.630889
0.424784 0.649491 0.785657
0.077739 0.623663 0.724470
0.152794 0.653398 0.734724
0.830285 0.231703 0.480450
0.846739 0.318060 0.524411
0.875281 0.453588 0.583044
0.904943 0.590648 0.641447
0.913478 0.643032 0.668345
0.865719 0.698479 0.779186
0.341536 0.710940 0.769812
0.428182 0.739981 0.782915
0.367799 0.099770 0.101914
0.521549 0.102671 0.134773
0.510274 0.109478 0.248190
0.056873 0.210501 0.336522
0.061552 0.256612 0.348387
0.064526 0.338158 0.471751
0.062170 0.419765 0.562419
0.059961 0.490118 0.621294
0.598928 0.106833 0.168768
0.716531 0.112102 0.244991
0.751710 0.112074 0.287470
0.431711 0.167370 0.622335
0.066593 0.378767 0.524725
0.065937 0.453480 0.588449
0.061536 0.512247 0.636906
0.064190 0.556540 0.675200
0.698258 0.113392 0.228546
0.773209 0.113621 0.312781
0.808323 0.136683 0.369278
0.670808 0.148596 0.481328
0.060240 0.463463 0.646683
0.061625 0.528661 0.651643
0.060463 0.566739 0.685099
0.055415 0.591470 0.707283
0.764652 0.113392 0.293690
0.804530 0.131888 0.359738
0.814146 0.162465 0.404825
0.818525 0.159191 0.489504
0.204004 0.460132 0.696034
0.057760 0.573954 0.695650
0.053354 0.595460 0.709069
0.060521 0.609512 0.720382
0.798622 0.125468 0.348073
0.813359 0.156951 0.397711
0.817805 0.178081 0.431402
0.825826 0.201983 0.457773
0.703789 0.295114 0.640341
0.059579 0.588571 0.713755
0.056684 0.608554 0.717385
0.068203 0.619553 0.718016
0.814230 0.166977 0.409276
0.817124 0.186532 0.438165
0.825449 0.209726 0.463454
0.833540 0.260233 0.490221
0.858360 0.362785 0.607072
0.320207 0.619680 0.767147
0.067810 0.618881 0.720771
0.142791 0.646657 0.729650
0.821619 0.195125 0.449670
0.828393 0.225774 0.472523
0.839888 0.290761 0.511900
0.867239 0.417760 0.568477
0.895590 0.551181 0.623692
0.840502 0.635446 0.765418
0.212775 0.662994 0.745434
0.361857 0.717659 0.769786
0.830875 0.244967 0.487896
0.849327 0.331663 0.532610
0.879892 0.469718 0.588488
0.908034 0.615187 0.653835
0.927024 0.714933 0.708081
0.928187 0.748407 0.757380
0.701101 0.805427 0.827034
0.623886 0.800000 0.811940
0.579069 0.106833 0.158547
0.645584 0.108265 0.190881
0.645202 0.110060 0.312134
0.099908 0.218622 0.491057
0.061625 0.313330 0.439010
0.060852 0.351316 0.488938
0.060763 0.435657 0.573283
0.061109 0.497274 0.626429
0.691504 0.110662 0.221954
0.767566 0.113340 0.246577
0.780546 0.113226 0.294096
0.612726 0.144215 0.391356
0.062235 0.424600 0.593198
0.060582 0.465245 0.599921
0.061042 0.517606 0.643742
0.062524 0.559441 0.679876
0.757255 0.113050 0.288426
0.801591 0.124560 0.355112
0.803999 0.151606 0.345394
0.798522 0.145535 0.436378
0.138461 0.441223 0.670868
0.062671 0.540342 0.661846
0.061784 0.572540 0.690630
0.059375 0.595645 0.712035
0.795644 0.119674 0.344709
0.811345 0.153448 0.391420
0.813780 0.176265 0.425787
0.823189 0.198915 0.446234
0.677879 0.261237 0.583235
0.062411 0.571531 0.699650
0.057161 0.599485 0.714626
0.061455 0.610764 0.722598
0.810645 0.149539 0.389314
0.815239 0.171379 0.421105
0.820575 0.193243 0.448439
0.830149 0.224906 0.469629
0.834727 0.329264 0.593980
0.154597 0.602335 0.733867
0.061410 0.614861 0.722818
0.085134 0.629252 0.724176
0.817204 0.172686 0.421950
0.818075 0.188525 0.441266
0.826024 0.215433 0.469129
0.836001 0.273961 0.500309
0.861726 0.386463 0.559459
0.699747 0.572070 0.746901
0.107529 0.635466 0.725514
0.312850 0.701394 0.761218
0.822628 0.199759 0.451265
0.829163 0.231339 0.478126
0.843025 0.305773 0.518314
0.873380 0.438641 0.576549
0.901293 0.578666 0.634863
0.907419 0.687947 0.741494
0.554479 0.759832 0.803708
0.588276 0.786051 0.803257
0.833158 0.259200 0.489768
0.853709 0.354494 0.543162
0.882113 0.492583 0.597040
0.910207 0.626124 0.659218
0.929327 0.729258 0.715759
0.935659 0.787739 0.768673
0.797730 0.832798 0.831564
0.732798 0.840619 0.829419
0.679217 0.111878 0.214802
0.723867 0.113140 0.233347
0.716047 0.133390 0.121721
0.622393 0.171107 0.108717
0.087665 0.346588 0.314238
0.062561 0.413206 0.544159
0.061048 0.449296 0.587031
0.061878 0.506490 0.634440
0.749907 0.109482 0.275434
0.638640 0.229604 0.099815
0.660753 0.247507 0.103611
0.589322 0.326566 0.145532
0.093906 0.440063 0.437371
0.068304 0.501296 0.566721
0.062621 0.530684 0.650694
0.064099 0.565291 0.685430
0.793435 0.117623 0.319905
0.795419 0.144521 0.306776
0.745350 0.297473 0.154428
0.749624 0.334635 0.165514
0.692048 0.441104 0.296090
0.102952 0.536231 0.536552
0.063141 0.579323 0.694958
0.060524 0.599574 0.713688
0.811610 0.147700 0.386043
0.808641 0.166133 0.376403
0.793942 0.249429 0.273385
0.794138 0.355978 0.232605
0.787505 0.504996 0.340419
0.146514 0.587535 0.623395
0.060562 0.603643 0.714575
0.062848 0.614074 0.723932
0.815036 0.168878 0.413320
0.818328 0.186465 0.438445
0.821305 0.214179 0.435362
0.823435 0.342666 0.352049
0.822318 0.536520 0.408533
0.366325 0.645090 0.622263
0.092242 0.624598 0.702941
0.092756 0.631535 0.725106
0.815894 0.184750 0.434994
0.824110 0.205871 0.461131
0.831534 0.252165 0.486331
0.850698 0.346180 0.523901
0.877987 0.503158 0.546687
0.853276 0.663943 0.569090
0.253591 0.675868 0.713482
0.361998 0.720659 0.771590
0.823556 0.202485 0.457181
0.832157 0.241050 0.485751
0.848517 0.331425 0.531783
0.879025 0.469952 0.583186
0.906538 0.608346 0.644552
0.911760 0.714242 0.665350
0.653587 0.787467 0.796738
0.645862 0.814223 0.813605
0.837060 0.269974 0.500143
0.855996 0.370527 0.545868
0.889266 0.520184 0.609584
0.913390 0.645255 0.668345
0.931051 0.742928 0.722665
0.934549 0.799500 0.753650
0.904128 0.838596 0.766213
0.800067 0.864869 0.826434
0.745688 0.113392 0.254911
0.711246 0.144095 0.102703
0.398139 0.275943 0.113388
0.350759 0.330557 0.148135
0.298870 0.361976 0.168890
0.143118 0.415908 0.263692
0.080659 0.477716 0.475958
0.062561 0.520804 0.639319
0.765865 0.121082 0.179745
0.436231 0.373001 0.169003
0.460898 0.427644 0.205990
0.483638 0.459564 0.228831
0.435549 0.482669 0.250215
0.311196 0.494816 0.279329
0.088592 0.540441 0.550140
0.063329 0.573260 0.688381
0.721703 0.204788 0.095465
0.697784 0.322233 0.138818
0.590878 0.526776 0.267574
0.606576 0.553887 0.286802
0.638925 0.573934 0.296246
0.527609 0.586601 0.339897
0.117069 0.577202 0.554422
0.064257 0.599754 0.695767
0.807329 0.157664 0.366139
0.756510 0.331695 0.178007
0.717524 0.534130 0.244465
0.706933 0.612195 0.312595
0.717813 0.629766 0.323774
0.605359 0.648292 0.386269
0.201689 0.616600 0.542069
0.101448 0.623614 0.676744
0.813274 0.182337 0.409796
0.810825 0.213874 0.376400
0.806842 0.447343 0.266661
0.751929 0.627573 0.309741
0.763859 0.665456 0.343976
0.705619 0.685665 0.387337
0.560300 0.702596 0.508357
0.208382 0.664482 0.691139
0.822376 0.197648 0.451924
0.826204 0.235358 0.446595
0.835455 0.409766 0.394946
0.837493 0.573030 0.348661
0.815240 0.662159 0.341881
0.810919 0.710049 0.383012
0.731060 0.735149 0.467769
0.388371 0.728902 0.709621
0.829618 0.230084 0.478310
0.839472 0.292082 0.513788
0.867189 0.428182 0.546511
0.876158 0.613303 0.487445
0.881013 0.684633 0.506645
0.847066 0.730975 0.438234
0.793729 0.767116 0.497441
0.726220 0.795471 0.625656
0.838313 0.285447 0.507520
0.864284 0.400194 0.561298
0.897234 0.557874 0.623013
0.914417 0.672735 0.658096
0.913881 0.753087 0.657235
0.910266 0.799737 0.674414
0.874218 0.791362 0.543170
0.855260 0.822586 0.615941
