其他预设/【236】赛博朋克风调色预设/【后期菌】视频调色预设/CUBE/Glitch 01_S.cube
# LUT by SparkleStock. Enhanced with VOXCOLOR algorithms.
LUT_3D_SIZE 5
DOMAIN_MIN 0.000000 0.000000 0.000000
DOMAIN_MAX 0.903226 0.903226 0.903226
0.082111 0.082111 0.082111
0.082111 0.088418 0.142528
0.091697 0.124744 0.181377
0.109482 0.249866 0.422035
0.111248 0.458739 0.675937
0.188945 0.083625 0.111248
0.258919 0.090770 0.250436
0.179700 0.228045 0.293975
0.237884 0.359710 0.455098
0.179033 0.595014 0.730552
0.703686 0.092580 0.315328
0.764323 0.117607 0.404686
0.185153 0.361183 0.480877
0.251331 0.533393 0.539244
0.204166 0.712601 0.804445
0.864125 0.144168 0.610223
0.875603 0.158437 0.655899
0.703678 0.246188 0.731321
0.176356 0.713293 0.814372
0.216881 0.789582 0.875066
0.884306 0.236622 0.725381
0.889762 0.295001 0.742588
0.897277 0.358274 0.771297
0.326452 0.768961 0.887960
0.300363 0.842813 0.893302
0.094725 0.082111 0.089932
0.102679 0.088418 0.196374
0.138240 0.124455 0.217792
0.179232 0.241549 0.434783
0.123735 0.480414 0.688656
0.241981 0.084508 0.121806
0.507020 0.114649 0.292890
0.250291 0.287535 0.402028
0.348563 0.385294 0.471792
0.287714 0.606329 0.710497
0.742262 0.101625 0.358030
0.744465 0.177218 0.506526
0.330524 0.367524 0.494327
0.367341 0.554783 0.512392
0.367622 0.681167 0.693611
0.872828 0.145673 0.631169
0.883441 0.202994 0.708093
0.793385 0.323715 0.661615
0.274725 0.742905 0.737914
0.411319 0.782568 0.708684
0.884937 0.255741 0.731004
0.893168 0.406107 0.779991
0.899674 0.496953 0.798183
0.526187 0.783066 0.891358
0.505692 0.857649 0.810375
0.201810 0.082994 0.113014
0.328352 0.084850 0.192289
0.120728 0.142846 0.275515
0.153188 0.285956 0.511812
0.125728 0.515563 0.720209
0.520792 0.090473 0.206461
0.710991 0.121782 0.433050
0.250451 0.258509 0.584200
0.319025 0.425648 0.621096
0.266852 0.648271 0.790023
0.774531 0.104701 0.400072
0.789917 0.168055 0.590324
0.633267 0.298938 0.624045
0.384769 0.591289 0.652970
0.501798 0.643347 0.683400
0.872417 0.154653 0.658767
0.881674 0.220605 0.713096
0.838254 0.387783 0.731720
0.399714 0.739350 0.743660
0.611977 0.757336 0.684006
0.874110 0.277424 0.735345
0.890486 0.445816 0.787909
0.898539 0.634378 0.818897
0.830063 0.731636 0.821349
0.703774 0.867974 0.745329
0.534544 0.089301 0.206225
0.660720 0.093211 0.285496
0.091303 0.235011 0.529072
0.104616 0.338553 0.552874
0.124398 0.545644 0.741558
0.756946 0.100014 0.380892
0.852850 0.131592 0.460532
0.605807 0.193001 0.603694
0.182759 0.582501 0.772810
0.205817 0.725992 0.860586
0.854966 0.128890 0.578125
0.879595 0.162585 0.686007
0.861194 0.264752 0.729898
0.284402 0.692349 0.841620
0.452477 0.694659 0.818891
0.891398 0.155996 0.679339
0.894474 0.238598 0.731366
0.901346 0.396212 0.786366
0.627355 0.716757 0.838709
0.711075 0.770546 0.795135
0.896895 0.295143 0.753984
0.902746 0.469074 0.801483
0.908056 0.655746 0.837008
0.884862 0.780017 0.852717
0.796008 0.880455 0.835214
0.746319 0.099518 0.332356
0.395438 0.175575 0.090424
0.302035 0.270824 0.091697
0.186027 0.428814 0.199287
0.129622 0.591783 0.756661
0.748988 0.154055 0.172401
0.493405 0.418954 0.121155
0.554100 0.488176 0.131999
0.455733 0.603380 0.156271
0.190767 0.757426 0.852732
0.886597 0.155268 0.604250
0.792790 0.418077 0.217104
0.770849 0.651631 0.175505
0.639184 0.749900 0.233208
0.383219 0.799543 0.786000
0.886096 0.205972 0.721410
0.892037 0.369630 0.659166
0.868759 0.683161 0.268171
0.853776 0.799312 0.277079
0.655636 0.843784 0.747550
0.881458 0.326143 0.767553
0.895340 0.520884 0.811436
0.899859 0.702318 0.772306
0.909391 0.822313 0.675729
0.890070 0.898750 0.553977
