其他预设/【236】赛博朋克风调色预设/【后期菌】视频调色预设/CUBE/Glitch 02.cube
# LUT by SparkleStock. Enhanced with VOXCOLOR algorithms.
LUT_3D_SIZE 32
0.000000 0.000000 0.000000
0.012109 0.002018 0.012109
0.024217 0.003910 0.024343
0.036326 0.003910 0.038470
0.047425 0.009964 0.067985
0.051462 0.058399 0.205216
0.051335 0.095103 0.295904
0.033173 0.080976 0.184908
0.020559 0.074922 0.107212
0.024596 0.093085 0.129411
0.029893 0.111248 0.155394
0.037966 0.129411 0.189701
0.045281 0.149087 0.223252
0.051335 0.171286 0.255542
0.059156 0.198783 0.296661
0.069246 0.233091 0.349131
0.075300 0.265380 0.394539
0.077318 0.295652 0.432882
0.080472 0.327058 0.483713
0.084508 0.359348 0.544256
0.089805 0.404251 0.595970
0.095860 0.456721 0.642386
0.099139 0.499480 0.672153
0.101157 0.537824 0.694352
0.109230 0.574654 0.715038
0.119320 0.610980 0.735219
0.129411 0.642386 0.752121
0.139501 0.672658 0.768265
0.149592 0.692334 0.779113
0.159682 0.710497 0.789203
0.173557 0.724876 0.801186
0.187683 0.739003 0.813294
0.016145 0.002018 0.016145
0.025129 0.002995 0.025129
0.034373 0.003975 0.034564
0.047523 0.005017 0.050774
0.059664 0.011071 0.082242
0.064742 0.052214 0.220514
0.064681 0.085729 0.313416
0.042352 0.086184 0.209711
0.026353 0.090546 0.136441
0.029348 0.106626 0.154474
0.034580 0.125309 0.179871
0.044736 0.149722 0.221470
0.053354 0.174476 0.260750
0.059408 0.199800 0.296164
0.066317 0.228143 0.337674
0.074324 0.260367 0.387019
0.079857 0.294219 0.437635
0.082917 0.329699 0.489519
0.085940 0.362798 0.537486
0.088935 0.394046 0.582405
0.092540 0.439209 0.623052
0.096511 0.492722 0.661135
0.102720 0.535806 0.689730
0.109946 0.574149 0.714013
0.118539 0.603949 0.732094
0.127588 0.630900 0.748109
0.138329 0.659703 0.763383
0.149461 0.688933 0.778486
0.161505 0.707568 0.790115
0.173679 0.724689 0.801247
0.186707 0.739003 0.812318
0.199792 0.753130 0.823385
0.032668 0.004162 0.032920
0.038657 0.004162 0.038909
0.045147 0.004293 0.045643
0.059143 0.006376 0.063546
0.072115 0.012495 0.096739
0.077908 0.046868 0.236964
0.077709 0.077506 0.332807
0.051539 0.091958 0.236329
0.032399 0.106345 0.167291
0.034352 0.120537 0.180571
0.039459 0.139794 0.204837
0.051502 0.170196 0.253272
0.061275 0.199767 0.297873
0.067265 0.227956 0.336087
0.073282 0.257084 0.378146
0.079337 0.287421 0.425148
0.084349 0.322802 0.480645
0.088320 0.363229 0.544639
0.091156 0.398164 0.589554
0.093109 0.428826 0.619630
0.095306 0.474176 0.649747
0.097650 0.528339 0.679888
0.106573 0.571313 0.707120
0.118486 0.609202 0.733030
0.127616 0.632442 0.748638
0.135819 0.650801 0.760811
0.147248 0.677040 0.774572
0.159422 0.705098 0.788699
0.173361 0.722732 0.801060
0.187553 0.738877 0.813168
0.199731 0.753008 0.823263
0.211774 0.767004 0.833223
0.054867 0.008199 0.059156
0.059815 0.008199 0.064103
0.065198 0.008394 0.069600
0.077111 0.011519 0.083336
0.087739 0.018680 0.114836
0.089366 0.054094 0.270686
0.085977 0.086555 0.380396
0.060848 0.106215 0.290167
0.042230 0.124768 0.222430
0.043141 0.140002 0.222170
0.047206 0.160626 0.237127
0.058208 0.193111 0.285561
0.066939 0.223594 0.329382
0.071887 0.250741 0.365512
0.077318 0.279739 0.410500
0.083373 0.311117 0.466877
0.087865 0.347540 0.522375
0.090794 0.389009 0.576993
0.092588 0.427914 0.616049
0.093500 0.464826 0.643001
0.098561 0.509265 0.670644
0.106113 0.558220 0.698702
0.114515 0.594554 0.721703
0.123303 0.625151 0.742404
0.133215 0.648913 0.757491
0.143501 0.670396 0.770707
0.156167 0.694682 0.784662
0.169382 0.719615 0.798789
0.184363 0.736859 0.811150
0.199597 0.753004 0.823259
0.210863 0.765181 0.831400
0.221865 0.777095 0.839277
0.079589 0.012487 0.084886
0.085187 0.012747 0.089443
0.091140 0.013244 0.094314
0.102402 0.017280 0.103883
0.112363 0.025076 0.132275
0.113209 0.059188 0.292421
0.108257 0.091982 0.410040
0.078181 0.119064 0.343378
0.055201 0.143541 0.288727
0.053508 0.160207 0.270108
0.055376 0.182386 0.272118
0.065076 0.216693 0.319511
0.072603 0.248023 0.362338
0.076509 0.274388 0.397558
0.081184 0.303460 0.445166
0.086847 0.336010 0.508704
0.090753 0.373735 0.563225
0.092902 0.416636 0.608730
0.094135 0.458878 0.642041
0.094655 0.500607 0.665867
0.102256 0.543516 0.690874
0.114104 0.587133 0.716588
0.122237 0.617502 0.735903
0.128682 0.641849 0.752308
0.139375 0.665806 0.766711
0.151484 0.689633 0.780447
0.165443 0.712031 0.794501
0.179831 0.734100 0.808627
0.195528 0.750758 0.820874
0.211412 0.766642 0.832853
0.222231 0.777217 0.839399
0.232712 0.787437 0.845584
0.121969 0.018541 0.107085
0.140067 0.020885 0.115809
0.158323 0.023334 0.124325
0.178960 0.027370 0.129728
0.199987 0.032953 0.145100
0.223749 0.049358 0.230251
0.228627 0.072062 0.314083
0.151679 0.122058 0.392203
0.090159 0.164764 0.433118
0.074926 0.185596 0.362420
0.066508 0.210639 0.326021
0.073083 0.244947 0.365081
0.078266 0.276667 0.405435
0.081131 0.304074 0.447945
0.083853 0.334642 0.496009
0.086392 0.369276 0.551214
0.089256 0.410126 0.597923
0.092446 0.457193 0.636137
0.096478 0.498328 0.664500
0.101165 0.534849 0.685202
0.109026 0.571899 0.706433
0.118791 0.609267 0.727981
0.128422 0.638399 0.747425
0.137992 0.663788 0.765914
0.149466 0.685662 0.778494
0.161574 0.706363 0.789106
0.177227 0.727330 0.802573
0.193697 0.748357 0.816700
0.207832 0.763061 0.828035
0.221633 0.776863 0.838972
0.235251 0.788284 0.846430
0.248857 0.799546 0.853656
0.180242 0.025352 0.128528
0.210057 0.029389 0.139855
0.240032 0.033437 0.150637
0.272387 0.037668 0.153241
0.305726 0.041599 0.158327
0.345958 0.043422 0.180787
0.358872 0.056523 0.234531
0.253410 0.118498 0.423842
0.162140 0.173280 0.543137
0.113445 0.206481 0.452388
0.080496 0.239662 0.397037
0.082189 0.272797 0.419561
0.083857 0.304395 0.451143
0.085484 0.333430 0.497820
0.086571 0.365996 0.544582
0.086961 0.403103 0.591454
0.089077 0.446395 0.630449
0.092918 0.495871 0.661566
0.099249 0.535679 0.685397
0.107517 0.567969 0.703560
0.115662 0.599648 0.721601
0.123735 0.630961 0.739568
0.134851 0.658515 0.758655
0.147350 0.684360 0.778250
0.159702 0.704150 0.789496
0.172006 0.721922 0.797959
0.189071 0.741810 0.811024
0.207234 0.762187 0.825151
0.220612 0.775329 0.835746
0.233306 0.787437 0.845836
0.248869 0.799180 0.853485
0.264623 0.810898 0.860972
0.307382 0.035443 0.146691
0.345530 0.039479 0.153852
0.384684 0.043593 0.160923
0.438912 0.048866 0.166652
0.489959 0.053577 0.173300
0.518733 0.054358 0.186385
0.531908 0.059973 0.226068
0.477484 0.086534 0.381006
0.394547 0.126733 0.504208
0.226068 0.207848 0.532201
0.106862 0.272016 0.542210
0.096055 0.298903 0.512654
0.089130 0.328157 0.508171
0.088674 0.361358 0.545473
0.089500 0.398091 0.583316
0.091974 0.439364 0.621855
0.094611 0.482135 0.653559
0.097410 0.526403 0.678427
0.103871 0.563933 0.699524
0.113180 0.596222 0.717687
0.121717 0.624647 0.735077
0.129789 0.650752 0.752003
0.142337 0.675246 0.768615
0.156919 0.699007 0.785086
0.170574 0.716714 0.797113
0.183920 0.732403 0.807659
0.201179 0.752747 0.821114
0.219342 0.774165 0.835241
0.235454 0.787437 0.845836
0.251274 0.799546 0.855927
0.265079 0.809335 0.860646
0.278750 0.818970 0.865008
0.441081 0.045533 0.164854
0.482615 0.049049 0.169671
0.525512 0.052674 0.174724
0.588854 0.057947 0.183318
0.646768 0.062594 0.192049
0.666689 0.062854 0.201749
0.679652 0.063163 0.233945
0.662466 0.063684 0.363624
0.582913 0.093988 0.488779
0.316264 0.213642 0.600360
0.126717 0.303248 0.657095
0.106797 0.326749 0.593167
0.093589 0.355059 0.563294
0.091571 0.391385 0.590180
0.092088 0.430787 0.618633
0.095864 0.474144 0.649100
0.099542 0.516133 0.674945
0.103122 0.556755 0.696167
0.109925 0.591372 0.714936
0.119235 0.621318 0.731797
0.128259 0.646911 0.748211
0.137113 0.669891 0.764355
0.151158 0.691976 0.779113
0.167563 0.713655 0.793239
0.181674 0.729474 0.805462
0.195019 0.743340 0.817050
0.212490 0.763342 0.830066
0.230914 0.784760 0.843411
0.249337 0.798260 0.853908
0.267760 0.810629 0.863999
0.281240 0.818970 0.867010
0.294390 0.827043 0.869549
0.594457 0.055624 0.183016
0.624533 0.057056 0.190959
0.654865 0.058533 0.199072
0.689043 0.060681 0.209748
0.721308 0.062724 0.222125
0.740187 0.064026 0.246408
0.751522 0.065572 0.290842
0.730170 0.068176 0.422605
0.639160 0.102646 0.543853
0.339179 0.232716 0.633561
0.127043 0.331111 0.681117
0.108164 0.359820 0.635937
0.095607 0.391385 0.612705
0.093589 0.427711 0.626050
0.093650 0.465290 0.643697
0.096385 0.504480 0.666872
0.102667 0.544907 0.691154
0.112497 0.586571 0.716543
0.120276 0.616371 0.734206
0.126461 0.636942 0.745859
0.136266 0.660972 0.760319
0.148245 0.687078 0.776464
0.163983 0.708707 0.791221
0.181430 0.728302 0.805348
0.193457 0.742819 0.816008
0.203678 0.755644 0.825513
0.221409 0.772912 0.835599
0.240874 0.791205 0.845820
0.260339 0.805226 0.855927
0.279804 0.818637 0.866017
0.297255 0.827043 0.870981
0.314571 0.835115 0.875603
0.718822 0.063192 0.210639
0.739394 0.063843 0.221706
0.759481 0.064412 0.232818
0.772306 0.063761 0.244601
0.785513 0.063444 0.258752
0.801397 0.065462 0.289479
0.810495 0.067798 0.336734
0.790184 0.071508 0.455606
0.697237 0.105588 0.566114
0.386385 0.230775 0.651525
0.161098 0.333340 0.702494
0.124056 0.386137 0.677691
0.099782 0.431902 0.661872
0.096787 0.465949 0.661025
0.096128 0.500281 0.668068
0.098472 0.534980 0.685255
0.106544 0.572379 0.707161
0.120345 0.612481 0.733787
0.129386 0.639070 0.750709
0.134724 0.655150 0.760083
0.145555 0.677821 0.773282
0.159682 0.704447 0.788776
0.176136 0.724807 0.802882
0.193648 0.742319 0.816358
0.205301 0.756023 0.825781
0.215001 0.768457 0.833854
0.233217 0.783641 0.842190
0.253398 0.799460 0.850588
0.273579 0.812944 0.859613
0.293760 0.826095 0.868727
0.313330 0.834179 0.874972
0.332860 0.841926 0.881027
0.779365 0.065210 0.259074
0.794729 0.067944 0.273265
0.809673 0.070336 0.287242
0.818331 0.067602 0.297983
0.826982 0.065462 0.309791
0.835575 0.067480 0.329060
0.841092 0.069620 0.358412
0.833280 0.072289 0.431454
0.759343 0.095953 0.516182
0.487029 0.182601 0.635966
0.269359 0.279177 0.718053
0.171905 0.397594 0.717207
0.108701 0.481638 0.710501
0.102581 0.508394 0.694031
0.100620 0.536347 0.690918
0.104005 0.565837 0.704980
0.112078 0.596987 0.722720
0.124837 0.629798 0.744138
0.135766 0.656712 0.761125
0.145271 0.679042 0.774666
0.157664 0.700801 0.788125
0.171791 0.722219 0.801536
0.186813 0.739520 0.813559
0.202241 0.754948 0.824951
0.217279 0.768912 0.833854
0.232187 0.782388 0.841926
0.251380 0.796922 0.851109
0.271561 0.811699 0.860549
0.291742 0.822319 0.866969
0.311923 0.832344 0.872958
0.329540 0.839257 0.879009
0.346987 0.845962 0.885063
0.826286 0.067228 0.304481
0.836832 0.070483 0.319454
0.847024 0.073355 0.334195
0.851907 0.070491 0.345457
0.856781 0.068188 0.357118
0.861598 0.069816 0.371570
0.865513 0.071516 0.390466
0.865513 0.073535 0.428614
0.815565 0.088149 0.489125
0.615773 0.140555 0.616721
0.426519 0.226284 0.713130
0.260449 0.385323 0.740927
0.147036 0.498906 0.749488
0.121387 0.536729 0.725987
0.108212 0.568799 0.716014
0.111077 0.593472 0.723436
0.118759 0.619740 0.736228
0.131258 0.647603 0.754391
0.143537 0.673891 0.770760
0.155646 0.698954 0.785733
0.169260 0.719461 0.798915
0.183777 0.737233 0.811024
0.198295 0.752768 0.822014
0.212812 0.767285 0.832495
0.229770 0.780923 0.840583
0.247543 0.794269 0.847875
0.268542 0.808249 0.857758
0.290285 0.822376 0.868239
0.308952 0.830863 0.873422
0.327180 0.838545 0.877849
0.344188 0.844701 0.882703
0.361114 0.850755 0.887586
0.850503 0.069246 0.344843
0.856883 0.070418 0.356691
0.862974 0.071533 0.368698
0.864731 0.071793 0.383085
0.867132 0.072094 0.398261
0.874033 0.072680 0.418963
0.879639 0.073535 0.439811
0.879639 0.075553 0.461294
0.861981 0.083397 0.500192
0.791347 0.108721 0.591332
0.665175 0.175506 0.674070
0.416819 0.333503 0.738323
0.234401 0.462059 0.772403
0.161879 0.541547 0.756193
0.120972 0.595230 0.744854
0.120712 0.615736 0.739776
0.127352 0.639400 0.746319
0.140893 0.666221 0.764481
0.153628 0.690296 0.779092
0.165736 0.712235 0.790941
0.180001 0.730918 0.802951
0.195560 0.747649 0.815060
0.211119 0.763574 0.826766
0.226678 0.779133 0.838289
0.243116 0.791469 0.845075
0.259847 0.802732 0.850283
0.284035 0.816321 0.860622
0.309945 0.830448 0.872145
0.324576 0.838024 0.878370
0.337596 0.844664 0.883838
0.356231 0.850755 0.885828
0.375240 0.856810 0.887586
0.869423 0.070381 0.390502
0.873003 0.071293 0.401504
0.876417 0.072273 0.412970
0.877328 0.074291 0.431393
0.879078 0.076171 0.450256
0.886694 0.077082 0.472195
0.892968 0.078287 0.492547
0.893424 0.080761 0.506022
0.893815 0.085366 0.531395
0.894010 0.096368 0.592459
0.817306 0.146573 0.658364
0.571423 0.283022 0.734922
0.366139 0.413735 0.781818
0.228517 0.534886 0.779279
0.146833 0.613173 0.772554
0.137068 0.636348 0.760445
0.138565 0.660370 0.761650
0.151325 0.685238 0.776167
0.163975 0.706957 0.788450
0.176539 0.726227 0.798997
0.191626 0.743544 0.810519
0.208226 0.759688 0.822628
0.224827 0.775207 0.834110
0.241427 0.790440 0.845307
0.258370 0.802158 0.851475
0.275426 0.812704 0.855967
0.300099 0.825049 0.865907
0.326529 0.837808 0.877104
0.339859 0.844701 0.883004
0.351316 0.850755 0.888147
0.369243 0.855955 0.888468
0.387601 0.861098 0.888468
0.881531 0.070381 0.442973
0.884070 0.073376 0.456058
0.886638 0.076309 0.469802
0.889632 0.078327 0.493434
0.893074 0.080468 0.516202
0.899649 0.083462 0.532933
0.905272 0.086555 0.549639
0.906770 0.090070 0.566240
0.906900 0.095978 0.588488
0.902929 0.109063 0.627678
0.858189 0.145726 0.672686
0.723757 0.234262 0.730495
0.554929 0.350653 0.773876
0.328771 0.513468 0.793211
0.189539 0.620204 0.798789
0.162066 0.654837 0.786681
0.153148 0.683025 0.783718
0.162783 0.704768 0.789903
0.174651 0.723949 0.799127
0.188257 0.741135 0.810715
0.204386 0.757670 0.822628
0.222028 0.773815 0.834737
0.239670 0.787901 0.844786
0.257312 0.801051 0.853900
0.276077 0.813030 0.860329
0.295216 0.824618 0.865862
0.316895 0.834619 0.874305
0.339159 0.844253 0.883419
0.354701 0.850755 0.887236
0.369284 0.856810 0.890295
0.383500 0.860056 0.890487
0.397692 0.863116 0.890487
0.894649 0.076436 0.501498
0.897188 0.080993 0.516145
0.899755 0.085423 0.531289
0.902750 0.087962 0.553879
0.905997 0.090688 0.575476
0.911009 0.094725 0.590123
0.915461 0.098761 0.604746
0.917479 0.102797 0.619264
0.917609 0.109486 0.636043
0.912075 0.124133 0.659609
0.884164 0.156012 0.690296
0.807020 0.225799 0.736647
0.658177 0.337307 0.776383
0.389835 0.518351 0.805092
0.222544 0.638074 0.816854
0.185177 0.678956 0.806829
0.169488 0.707665 0.802044
0.175477 0.724201 0.802500
0.186337 0.739931 0.809217
0.200984 0.755034 0.820805
0.217503 0.770463 0.832067
0.235145 0.786087 0.843134
0.253861 0.798936 0.852143
0.273066 0.810523 0.860215
0.292612 0.822111 0.866774
0.312272 0.833699 0.872828
0.332356 0.842431 0.880099
0.352537 0.850503 0.887651
0.368730 0.855898 0.889905
0.384354 0.860911 0.891402
0.398636 0.863604 0.891984
0.412828 0.866143 0.892505
0.908776 0.088544 0.566077
0.912356 0.094143 0.581766
0.915770 0.099615 0.597431
0.916681 0.103196 0.612729
0.917845 0.106833 0.628077
0.920774 0.110869 0.643766
0.923533 0.114906 0.657868
0.925551 0.118942 0.665094
0.925942 0.125891 0.674062
0.921450 0.141580 0.688253
0.895231 0.177430 0.711193
0.821212 0.257633 0.753378
0.675884 0.373698 0.789337
0.411709 0.549533 0.814922
0.245850 0.666783 0.826750
0.206400 0.708707 0.820891
0.187586 0.734291 0.816627
0.189408 0.743536 0.813957
0.199031 0.754904 0.818722
0.214720 0.767924 0.829268
0.230979 0.781920 0.838838
0.247579 0.796503 0.847822
0.267402 0.808310 0.856179
0.288690 0.818856 0.864251
0.307976 0.829402 0.870810
0.326594 0.839949 0.876864
0.346483 0.848485 0.883289
0.366664 0.856557 0.889799
0.381946 0.860130 0.891011
0.396528 0.863059 0.891467
0.414650 0.866599 0.892960
0.433009 0.870179 0.894523
0.918362 0.100653 0.614764
0.921812 0.107879 0.630323
0.925047 0.114869 0.645446
0.925047 0.118319 0.654039
0.925226 0.121843 0.663210
0.926658 0.125879 0.676426
0.928310 0.130464 0.688469
0.930914 0.137430 0.695435
0.932151 0.145958 0.702889
0.929286 0.159174 0.711807
0.910472 0.189803 0.727806
0.856569 0.258744 0.759379
0.732847 0.365158 0.789073
0.492758 0.534027 0.815634
0.327233 0.654479 0.831115
0.257576 0.712678 0.832352
0.219232 0.747734 0.831246
0.212202 0.759648 0.827795
0.216230 0.770353 0.830314
0.228859 0.780118 0.837475
0.244784 0.792609 0.845572
0.262687 0.806735 0.854230
0.283946 0.818087 0.862083
0.306731 0.828178 0.869569
0.324731 0.836950 0.875542
0.341136 0.845283 0.881010
0.360133 0.852928 0.886003
0.379728 0.860414 0.890885
0.396077 0.863116 0.892008
0.411961 0.865134 0.892594
0.431873 0.868495 0.893973
0.452054 0.871945 0.895406
0.924416 0.112761 0.651089
0.926825 0.122071 0.665607
0.929083 0.130949 0.679363
0.929083 0.133357 0.681707
0.929132 0.135969 0.684758
0.929522 0.140006 0.692766
0.930523 0.145568 0.701554
0.934169 0.157741 0.713728
0.936708 0.168873 0.724567
0.935926 0.176881 0.731403
0.928961 0.195141 0.741086
0.908389 0.235959 0.757036
0.820341 0.321671 0.778527
0.619833 0.482208 0.809254
0.453788 0.610276 0.831180
0.332051 0.696598 0.841792
0.261417 0.750924 0.845893
0.241887 0.773254 0.843484
0.236931 0.786172 0.843529
0.243311 0.791771 0.845482
0.258846 0.802699 0.852277
0.279873 0.816826 0.861977
0.302825 0.828178 0.869439
0.326651 0.838268 0.875884
0.342568 0.844697 0.880815
0.355849 0.849905 0.885242
0.373414 0.856118 0.888346
0.391967 0.862563 0.891146
0.410919 0.865134 0.892920
0.429929 0.867152 0.894547
0.450036 0.869537 0.895015
0.470217 0.871945 0.895406
0.930470 0.131176 0.681109
0.930535 0.139965 0.692631
0.930678 0.148534 0.703597
0.931980 0.153807 0.706201
0.933119 0.158925 0.708992
0.933119 0.162962 0.713093
0.933632 0.168646 0.718708
0.936366 0.181470 0.730882
0.938416 0.193091 0.741200
0.938416 0.201098 0.745952
0.936708 0.213825 0.751763
0.931239 0.236935 0.759900
0.878459 0.296738 0.775386
0.746827 0.417694 0.803118
0.612973 0.534662 0.826892
0.476263 0.646504 0.845576
0.373666 0.726610 0.855536
0.305181 0.774979 0.856773
0.273461 0.799875 0.857314
0.270336 0.806516 0.857314
0.280190 0.815394 0.861586
0.297832 0.825614 0.868422
0.319100 0.835298 0.874720
0.342015 0.844738 0.880774
0.357314 0.850125 0.884827
0.370073 0.854161 0.888212
0.387752 0.859308 0.889958
0.406566 0.864711 0.891325
0.428854 0.867152 0.893261
0.451639 0.869170 0.895280
0.471983 0.871188 0.896016
0.492164 0.873207 0.896667
0.936524 0.153376 0.707344
0.933465 0.160081 0.714700
0.930808 0.167022 0.722020
0.934193 0.177503 0.728790
0.937155 0.187179 0.734837
0.937155 0.191215 0.735813
0.937277 0.196508 0.738303
0.937928 0.207250 0.747352
0.938416 0.218089 0.754806
0.938416 0.229221 0.757475
0.938010 0.240516 0.760877
0.936708 0.252169 0.765889
0.918952 0.282937 0.776688
0.873772 0.345563 0.797129
0.791738 0.440202 0.819991
0.662319 0.576001 0.845966
0.527953 0.685792 0.862176
0.388639 0.769576 0.868621
0.319486 0.812310 0.871441
0.304904 0.823116 0.871441
0.305905 0.829651 0.872458
0.316256 0.833622 0.874085
0.333812 0.840636 0.878756
0.354644 0.849034 0.884811
0.370203 0.854161 0.888082
0.384005 0.858197 0.890426
0.402725 0.862498 0.891129
0.422580 0.866859 0.891455
0.448645 0.869170 0.893261
0.475596 0.871188 0.895280
0.496200 0.873207 0.896992
0.516381 0.875225 0.898685
0.938416 0.178350 0.729417
0.935812 0.187268 0.734755
0.933534 0.196207 0.740130
0.936138 0.205452 0.746054
0.938416 0.214313 0.751327
0.938416 0.220498 0.752043
0.938416 0.227415 0.754004
0.938416 0.237505 0.761361
0.938058 0.247384 0.767203
0.936626 0.256628 0.768505
0.935418 0.266401 0.770886
0.934702 0.277338 0.775638
0.926100 0.304583 0.785956
0.904357 0.359006 0.805551
0.830550 0.454500 0.827368
0.689804 0.602797 0.852041
0.550880 0.713988 0.868414
0.413780 0.788072 0.876486
0.345998 0.825684 0.880018
0.332132 0.834928 0.880018
0.331082 0.839656 0.880465
0.337722 0.841674 0.881181
0.352195 0.847362 0.884090
0.370228 0.854718 0.887996
0.384794 0.858510 0.889949
0.398204 0.861114 0.891251
0.418862 0.864882 0.892077
0.441191 0.868918 0.892794
0.468704 0.871188 0.894649
0.496957 0.873207 0.896667
0.518985 0.875225 0.898014
0.540598 0.877243 0.899316
0.938416 0.204585 0.749598
0.937896 0.217670 0.753895
0.937440 0.230255 0.758098
0.937961 0.235332 0.760897
0.938416 0.240939 0.763566
0.938416 0.250248 0.765324
0.938416 0.259704 0.767936
0.938416 0.269795 0.774251
0.937538 0.278632 0.779052
0.934022 0.283710 0.779312
0.931056 0.291921 0.781302
0.929298 0.307024 0.787096
0.918093 0.342341 0.798846
0.891142 0.411347 0.820524
0.805747 0.518233 0.841234
0.645210 0.673822 0.860699
0.514099 0.773555 0.874468
0.412413 0.817432 0.882540
0.363640 0.839485 0.886072
0.356024 0.844563 0.886072
0.356016 0.847728 0.887171
0.360573 0.849746 0.888928
0.372246 0.854718 0.890015
0.387154 0.861033 0.890796
0.400157 0.863002 0.891186
0.412526 0.863523 0.891447
0.435527 0.866900 0.892924
0.460981 0.870936 0.894681
0.488885 0.873207 0.896667
0.517138 0.875225 0.898685
0.541119 0.877243 0.899055
0.564816 0.879261 0.899316
0.938416 0.232334 0.760698
0.938416 0.244898 0.765515
0.938319 0.257125 0.770157
0.936756 0.264286 0.772175
0.935389 0.271715 0.773998
0.935389 0.281024 0.774454
0.935389 0.290334 0.775813
0.935389 0.299643 0.781086
0.934771 0.308220 0.785236
0.932297 0.314600 0.786017
0.929966 0.323055 0.788446
0.927948 0.336075 0.794501
0.919900 0.363547 0.805437
0.901802 0.415106 0.824512
0.838704 0.501355 0.843187
0.717748 0.632206 0.861350
0.604213 0.731809 0.875249
0.498100 0.800164 0.884884
0.434648 0.835855 0.889099
0.404377 0.846141 0.889099
0.391642 0.852236 0.889872
0.389428 0.855817 0.891109
0.397374 0.860561 0.892033
0.409939 0.865834 0.892814
0.421575 0.867152 0.893009
0.432903 0.867152 0.893009
0.456343 0.869797 0.894649
0.482578 0.873052 0.896667
0.510579 0.876592 0.898685
0.538833 0.880172 0.900703
0.561105 0.881556 0.900829
0.582979 0.882793 0.900829
0.938416 0.260587 0.768770
0.938416 0.271068 0.774629
0.938189 0.281602 0.780248
0.934543 0.292930 0.782266
0.931353 0.303875 0.783828
0.931353 0.312142 0.782201
0.931353 0.320410 0.781672
0.931353 0.328678 0.785903
0.931255 0.337255 0.789533
0.930865 0.346759 0.791356
0.929966 0.356060 0.794501
0.927948 0.364914 0.800555
0.924977 0.379236 0.809929
0.920420 0.402672 0.824837
0.890914 0.457608 0.841169
0.829329 0.553045 0.859332
0.736627 0.656293 0.874273
0.612807 0.767354 0.885991
0.523445 0.826416 0.891117
0.460884 0.845035 0.891117
0.430832 0.855556 0.891239
0.420286 0.861220 0.891435
0.424196 0.865899 0.892749
0.434677 0.870131 0.894572
0.445011 0.871188 0.895027
0.455297 0.871188 0.895027
0.478542 0.872987 0.896667
0.504777 0.875200 0.898685
0.532778 0.880433 0.900703
0.561032 0.886096 0.902721
0.580375 0.886633 0.902847
0.599123 0.886829 0.902847
0.935137 0.292120 0.776842
0.935137 0.303903 0.781204
0.934991 0.315548 0.785419
0.932647 0.325118 0.787437
0.930490 0.334606 0.789162
0.929644 0.343525 0.788837
0.928957 0.352285 0.789329
0.928957 0.360357 0.793365
0.928745 0.368934 0.796897
0.927899 0.379024 0.798915
0.926951 0.389013 0.801666
0.925779 0.398778 0.806027
0.924607 0.410740 0.812147
0.923435 0.426364 0.821196
0.909960 0.461042 0.833862
0.880665 0.520218 0.851178
0.818527 0.600031 0.867584
0.723546 0.700480 0.883077
0.631018 0.775772 0.891284
0.540399 0.831498 0.893823
0.491444 0.857237 0.894775
0.467487 0.864984 0.894775
0.462865 0.869598 0.895581
0.467031 0.872787 0.896752
0.479449 0.874220 0.897680
0.494618 0.875066 0.898526
0.514652 0.877552 0.899637
0.535810 0.880416 0.900809
0.557992 0.883850 0.901981
0.580322 0.887366 0.903153
0.601125 0.888379 0.903226
0.621827 0.889225 0.903226
0.931101 0.324410 0.784915
0.931101 0.338276 0.787193
0.931085 0.351678 0.789455
0.930824 0.358123 0.791474
0.930360 0.365008 0.793459
0.928472 0.374968 0.795217
0.926938 0.384574 0.797402
0.926938 0.392647 0.801438
0.926467 0.401223 0.804970
0.924579 0.411314 0.806988
0.923240 0.421954 0.809087
0.923110 0.433802 0.811366
0.922980 0.445894 0.813839
0.922849 0.458393 0.816639
0.921352 0.475364 0.825334
0.918097 0.498084 0.841609
0.888770 0.548211 0.859576
0.833369 0.625745 0.879236
0.742925 0.715620 0.891024
0.625224 0.815093 0.896687
0.557000 0.858539 0.898811
0.518460 0.868369 0.898811
