其他预设/【236】赛博朋克风调色预设/【后期菌】视频调色预设/CUBE/Glitch 07_S.cube
# LUT by SparkleStock. Enhanced with VOXCOLOR algorithms.
LUT_3D_SIZE 32
0.023460 0.054741 0.062561
0.029515 0.056759 0.066597
0.035443 0.058777 0.070633
0.039479 0.060795 0.074670
0.041749 0.062813 0.089049
0.031659 0.064831 0.175827
0.024596 0.066850 0.231577
0.030650 0.068868 0.152871
0.035191 0.071390 0.095860
0.035191 0.075426 0.103932
0.035821 0.079463 0.113897
0.037839 0.083499 0.128023
0.040614 0.087535 0.142150
0.044650 0.091571 0.156277
0.048687 0.100022 0.180115
0.052723 0.114149 0.216441
0.054741 0.127266 0.248731
0.054741 0.139375 0.276984
0.052471 0.153754 0.313184
0.048434 0.169899 0.355564
0.041876 0.193611 0.400467
0.033803 0.221865 0.446883
0.032668 0.245956 0.486362
0.034686 0.268155 0.522688
0.029136 0.300949 0.569609
0.021064 0.337275 0.620061
0.022830 0.378520 0.662315
0.026866 0.420900 0.702677
0.030902 0.457983 0.728912
0.034938 0.494308 0.753130
0.044650 0.532526 0.773563
0.054741 0.570870 0.793744
0.029515 0.058777 0.068615
0.034527 0.059754 0.070568
0.039674 0.060730 0.072782
0.046835 0.061707 0.078901
0.051970 0.062813 0.095363
0.042921 0.064831 0.184225
0.035532 0.067240 0.242058
0.035337 0.071341 0.165435
0.035451 0.075166 0.109205
0.036493 0.078161 0.114153
0.039467 0.082132 0.122294
0.046693 0.088251 0.137463
0.053504 0.094761 0.154584
0.059623 0.101922 0.174960
0.065743 0.110764 0.200492
0.071862 0.121765 0.232651
0.075443 0.134883 0.264941
0.076484 0.150117 0.297361
0.076427 0.165277 0.330110
0.075516 0.180380 0.363116
0.071431 0.204353 0.402550
0.065442 0.233648 0.445841
0.058513 0.263077 0.492937
0.051156 0.292568 0.541762
0.043263 0.325622 0.587902
0.035191 0.359865 0.633146
0.032725 0.403258 0.676963
0.031553 0.448763 0.720449
0.037673 0.490793 0.747075
0.044834 0.532327 0.771293
0.052788 0.565987 0.790749
0.060795 0.599123 0.809889
0.036074 0.062687 0.074796
0.040175 0.062687 0.074861
0.044646 0.062687 0.075414
0.054672 0.062687 0.083291
0.062378 0.062939 0.101650
0.053850 0.064958 0.193375
0.045786 0.067745 0.253890
0.039731 0.073864 0.179155
0.035777 0.078991 0.123478
0.038120 0.081139 0.124976
0.043515 0.085179 0.131091
0.055624 0.093382 0.147366
0.066243 0.102244 0.167279
0.074381 0.112204 0.193253
0.082490 0.121424 0.220311
0.090562 0.129691 0.248759
0.095673 0.142907 0.281016
0.097821 0.161070 0.317082
0.099933 0.177072 0.346483
0.102016 0.191394 0.370700
0.100234 0.215644 0.405089
0.096132 0.245850 0.445581
0.083930 0.280174 0.499411
0.068046 0.316370 0.559303
0.058020 0.349733 0.604694
0.049948 0.382153 0.645251
0.043409 0.427849 0.690727
0.037225 0.476609 0.737339
0.044939 0.523319 0.764754
0.054639 0.569735 0.789427
0.061043 0.598940 0.807936
0.067228 0.626998 0.826033
0.050200 0.064705 0.082868
0.055343 0.064705 0.083975
0.060726 0.064705 0.085309
0.069710 0.064705 0.090062
0.075593 0.064958 0.107509
0.059774 0.066976 0.213817
0.045786 0.069958 0.285984
0.039731 0.077119 0.210208
0.037079 0.083548 0.151667
0.044630 0.087779 0.144831
0.053606 0.093903 0.145869
0.065714 0.104188 0.164227
0.076724 0.113571 0.183879
0.085904 0.121448 0.205688
0.094598 0.130863 0.231768
0.102671 0.142256 0.263342
0.108823 0.157033 0.295078
0.113054 0.175196 0.326977
0.116663 0.192956 0.354555
0.119788 0.210403 0.378772
0.117746 0.235174 0.414463
0.112603 0.264339 0.457039
0.102939 0.296905 0.504358
0.091221 0.331017 0.553834
0.082238 0.365423 0.598965
0.074165 0.399926 0.642647
0.065934 0.450244 0.691248
0.057666 0.504212 0.740984
0.059652 0.551572 0.775170
0.063102 0.597988 0.807134
0.071069 0.624264 0.825122
0.079337 0.649197 0.842178
0.067102 0.066723 0.090941
0.074198 0.066723 0.092959
0.081412 0.066723 0.094977
0.090395 0.066723 0.096995
0.095888 0.066959 0.112765
0.076944 0.068847 0.224802
0.059001 0.071968 0.304139
0.045395 0.080431 0.241773
0.038283 0.088390 0.189970
0.050652 0.094834 0.169854
0.062939 0.103009 0.162250
0.075048 0.114987 0.182170
0.086449 0.124988 0.201480
0.096669 0.131693 0.219774
0.106064 0.141588 0.244674
0.114397 0.155585 0.278071
0.121721 0.171730 0.308700
0.128035 0.190023 0.336563
0.132995 0.209305 0.362448
0.136901 0.229355 0.386796
0.134745 0.254614 0.423431
0.128951 0.282998 0.467438
0.121859 0.314335 0.509029
0.114177 0.347016 0.549521
0.105812 0.382332 0.594554
0.097219 0.418528 0.641101
0.087726 0.472654 0.692143
0.078026 0.530919 0.744223
0.074478 0.578930 0.784968
0.071809 0.625477 0.824093
0.081469 0.649442 0.841674
0.091950 0.671901 0.857819
0.103428 0.068742 0.099013
0.118856 0.068742 0.101031
0.134338 0.068742 0.103049
0.150613 0.068742 0.105067
0.165741 0.068847 0.113807
0.172836 0.069694 0.169598
0.164723 0.072554 0.224717
0.090705 0.084142 0.276927
0.038804 0.095225 0.299078
0.053256 0.104795 0.231048
0.066976 0.114792 0.189852
0.079084 0.125728 0.207689
0.090876 0.137031 0.226088
0.102138 0.148945 0.245423
0.113030 0.161314 0.267720
0.123446 0.174269 0.293825
0.132853 0.190413 0.319246
0.141251 0.209748 0.343984
0.146536 0.228900 0.369088
0.149400 0.247909 0.394477
0.148155 0.273428 0.429550
0.144445 0.302853 0.470433
0.140152 0.336665 0.511763
0.135595 0.372470 0.553297
0.124886 0.407786 0.599372
0.112127 0.442940 0.646960
0.104392 0.495179 0.695659
0.097817 0.551360 0.744614
0.090102 0.600023 0.790436
0.082225 0.647611 0.835811
0.094489 0.673594 0.853782
0.108094 0.698136 0.869927
0.150348 0.070381 0.107085
0.173133 0.070381 0.109299
0.195992 0.070381 0.111537
0.219948 0.070381 0.114141
0.244296 0.070357 0.117632
0.271377 0.070162 0.127332
0.271801 0.072542 0.161102
0.156704 0.086083 0.299179
0.069730 0.099802 0.380733
0.067126 0.114059 0.292718
0.069425 0.127136 0.234079
0.082510 0.137617 0.240068
0.095376 0.150222 0.250940
0.107875 0.166367 0.269949
0.120118 0.180917 0.289215
0.132031 0.193416 0.308810
0.143033 0.209561 0.329512
0.153123 0.229351 0.351320
0.158893 0.248776 0.375729
0.161302 0.267915 0.402159
0.160943 0.293890 0.435914
0.158925 0.323966 0.474062
0.157176 0.359458 0.514851
0.155548 0.397411 0.556841
0.143326 0.432923 0.603225
0.127572 0.467621 0.651073
0.121497 0.517606 0.697758
0.117656 0.571118 0.744174
0.107264 0.620358 0.794464
0.095937 0.668988 0.845307
0.108717 0.696806 0.864353
0.123104 0.723237 0.881279
0.243181 0.070381 0.115158
0.269091 0.070381 0.118413
0.295464 0.070381 0.121822
0.328796 0.070381 0.127551
0.360564 0.070227 0.133516
0.381396 0.068990 0.141133
0.384749 0.069938 0.165985
0.312358 0.080354 0.265523
0.232415 0.094594 0.343431
0.129818 0.120309 0.356451
0.064998 0.141914 0.350348
0.083291 0.154478 0.302174
0.100193 0.168385 0.276850
0.114775 0.184530 0.289610
0.127734 0.199991 0.303993
0.138606 0.214574 0.320463
0.149087 0.230718 0.338561
0.159178 0.248426 0.358286
0.166119 0.269868 0.382369
0.170611 0.294215 0.409841
0.171034 0.321492 0.443335
0.169016 0.350527 0.480442
0.168698 0.384261 0.519474
0.169154 0.420131 0.559380
0.159015 0.456685 0.602899
0.145344 0.493466 0.647623
0.140506 0.539610 0.693722
0.137707 0.587914 0.740138
0.131091 0.637414 0.792251
0.123930 0.687086 0.845177
0.128182 0.715945 0.868259
0.133195 0.743418 0.889351
0.337527 0.069877 0.126257
0.365781 0.069616 0.130554
0.394547 0.069388 0.135070
0.431003 0.069649 0.142882
0.464790 0.069690 0.150735
0.479893 0.068192 0.158872
0.484254 0.068685 0.178435
0.442070 0.077799 0.247506
0.364601 0.093406 0.321053
0.181279 0.128495 0.408026
0.062020 0.157115 0.440886
0.083698 0.171502 0.354693
0.103301 0.186743 0.303264
0.119446 0.203409 0.309774
0.133056 0.219961 0.319389
0.143407 0.236366 0.332995
0.154018 0.253162 0.349009
0.164890 0.270348 0.367433
0.172759 0.293174 0.390799
0.178293 0.320386 0.418011
0.180083 0.347923 0.449943
0.179627 0.375655 0.484706
0.179977 0.408804 0.523363
0.180693 0.444413 0.563790
0.172572 0.481292 0.605292
0.161505 0.518595 0.647151
0.158213 0.561239 0.692290
0.156716 0.605117 0.738185
0.152314 0.654975 0.791828
0.147496 0.705688 0.846577
0.147256 0.734857 0.871970
0.147321 0.762589 0.895406
0.436414 0.067859 0.146438
0.464667 0.066557 0.151777
0.492457 0.065417 0.157204
0.513289 0.066719 0.163975
0.532884 0.067932 0.171958
0.543821 0.068518 0.188428
0.543430 0.071484 0.213589
0.493954 0.084764 0.276411
0.405288 0.104278 0.343447
0.199051 0.142492 0.423130
0.063387 0.173585 0.454231
0.082982 0.189014 0.378455
0.101283 0.205688 0.331192
0.117428 0.224436 0.331453
0.131494 0.242615 0.336640
0.142886 0.260062 0.348163
0.155581 0.279462 0.363657
0.169577 0.300815 0.383122
0.177642 0.323120 0.404601
0.181092 0.346165 0.427646
0.186007 0.370838 0.454109
0.191801 0.396487 0.482623
0.190523 0.432565 0.525056
0.186031 0.473383 0.573816
0.179733 0.508439 0.615838
0.172832 0.541575 0.655614
0.172015 0.581746 0.698669
0.172600 0.623540 0.742482
0.165724 0.674049 0.796775
0.157782 0.725804 0.852566
0.165159 0.753085 0.875094
0.173557 0.778734 0.895406
0.523949 0.067102 0.169142
0.549273 0.065735 0.176498
0.573584 0.064559 0.183814
0.582698 0.066251 0.190519
0.591682 0.068025 0.198958
0.599754 0.070369 0.219529
0.597317 0.075178 0.245875
0.549338 0.090672 0.297238
0.459972 0.111651 0.353534
0.246444 0.149083 0.424623
0.098301 0.182101 0.457344
0.094004 0.205407 0.405654
0.097617 0.227419 0.369394
0.114413 0.247274 0.358847
0.129301 0.266247 0.357045
0.141735 0.284084 0.366484
0.155699 0.305437 0.380969
0.171193 0.330305 0.400499
0.180205 0.352903 0.420395
0.184176 0.373735 0.440576
0.191361 0.397090 0.463483
0.200475 0.421958 0.488026
0.198669 0.459358 0.531814
0.191899 0.502454 0.584350
0.187423 0.536664 0.627706
0.183712 0.567912 0.668003
0.183334 0.606301 0.710257
0.183724 0.646337 0.752963
0.176938 0.696399 0.806605
0.169126 0.747893 0.861810
0.181881 0.772289 0.880762
0.196008 0.794879 0.897298
0.586510 0.069120 0.197395
0.602460 0.069836 0.208918
0.617787 0.070548 0.220270
0.623776 0.071199 0.229058
0.630026 0.072192 0.238669
0.638098 0.075577 0.254032
0.639567 0.080842 0.271849
0.612420 0.094253 0.300298
0.545448 0.111325 0.336543
0.359002 0.139383 0.396174
0.207018 0.173117 0.437944
0.130851 0.219338 0.440418
0.090326 0.255281 0.430197
0.109205 0.274095 0.398819
0.125720 0.292026 0.384387
0.139196 0.308822 0.391743
0.152639 0.330696 0.404145
0.166050 0.357647 0.421592
0.177666 0.382328 0.440576
0.187887 0.405243 0.460757
0.195463 0.430681 0.484315
0.201452 0.457633 0.509900
0.201533 0.492819 0.549717
0.198929 0.531749 0.596003
0.196276 0.567261 0.642484
0.193607 0.601634 0.689031
0.189193 0.639762 0.733303
0.184375 0.678757 0.777050
0.183318 0.725954 0.827177
0.182797 0.774324 0.878215
0.196008 0.793642 0.892025
0.210135 0.811024 0.903352
0.636963 0.071138 0.230190
0.647053 0.073937 0.243926
0.656741 0.076586 0.257409
0.660387 0.076977 0.267109
0.664537 0.077823 0.277208
0.672218 0.081859 0.290098
0.675665 0.087409 0.302487
0.660757 0.099518 0.312708
0.614227 0.113758 0.331733
0.472829 0.134395 0.377173
0.331676 0.166282 0.420741
0.191060 0.222919 0.460192
0.105763 0.268497 0.471715
0.112664 0.295643 0.436691
0.122726 0.318148 0.417417
0.136852 0.334683 0.418394
0.150165 0.357078 0.426954
0.162665 0.385331 0.443099
0.176079 0.411753 0.461075
0.190206 0.436752 0.480475
0.198026 0.464029 0.504635
0.202062 0.492673 0.531651
0.203861 0.525792 0.568962
0.204642 0.560946 0.610951
0.203909 0.596100 0.657237
0.202673 0.631254 0.704956
0.198103 0.670270 0.751246
0.192765 0.710176 0.797206
0.194604 0.752361 0.843281
0.197469 0.794871 0.889372
0.210159 0.811138 0.900553
0.223505 0.825655 0.909406
0.667234 0.073156 0.270552
0.677325 0.078039 0.283246
0.686947 0.082705 0.295688
0.689551 0.084138 0.304347
0.692660 0.085895 0.313794
0.699300 0.089932 0.328767
0.701509 0.095481 0.340896
0.684518 0.107590 0.340701
0.655174 0.120789 0.347227
0.588772 0.137259 0.373918
0.482904 0.163027 0.407200
0.290208 0.209248 0.454984
0.159080 0.257300 0.481089
0.130566 0.308403 0.471064
0.120708 0.344839 0.459927
0.134834 0.362416 0.447363
0.148668 0.385331 0.449153
0.162209 0.413584 0.465298
0.176079 0.441179 0.482102
0.190206 0.468260 0.499419
0.198026 0.496969 0.524100
0.202062 0.526655 0.553199
0.205293 0.557952 0.590445
0.208157 0.589981 0.631393
0.209508 0.622010 0.671950
0.210354 0.654039 0.712377
0.212100 0.695854 0.760685
0.214053 0.739927 0.810812
0.214069 0.773518 0.851939
0.213809 0.805612 0.891780
0.224351 0.822205 0.904524
0.235613 0.837764 0.915461
0.692208 0.078706 0.309148
0.700476 0.084760 0.320801
0.708438 0.090619 0.332344
0.711824 0.093549 0.342239
0.715429 0.096560 0.352801
0.720571 0.100140 0.368035
0.721601 0.105320 0.379618
0.704805 0.117428 0.375387
0.685926 0.129813 0.375224
0.660797 0.143029 0.387268
0.584403 0.163446 0.409097
0.395222 0.199706 0.452453
0.246859 0.248808 0.486704
0.166526 0.319311 0.505778
0.125326 0.368511 0.506881
0.134440 0.390319 0.484877
0.145832 0.415578 0.479897
0.159503 0.444287 0.491940
0.173174 0.472484 0.507316
0.186845 0.500281 0.525284
0.195918 0.529625 0.550087
0.202233 0.559897 0.578991
0.207295 0.590481 0.615773
0.211787 0.621209 0.656135
0.215107 0.651936 0.693470
0.218036 0.682663 0.729795
0.222394 0.723916 0.779239
0.227081 0.767598 0.831709
0.226300 0.795217 0.868458
0.224737 0.820541 0.902961
0.235808 0.834696 0.912197
0.247722 0.848106 0.919749
0.710371 0.088796 0.345473
0.714472 0.094851 0.356085
0.718724 0.100840 0.366912
0.725234 0.105853 0.380973
0.731313 0.110556 0.394921
0.734373 0.113095 0.408071
0.734295 0.117428 0.418744
0.720624 0.129537 0.418678
0.703568 0.141401 0.419297
0.676356 0.152533 0.421966
0.621965 0.168589 0.430840
0.507780 0.195475 0.453364
0.378947 0.243795 0.487485
0.225702 0.327840 0.540932
0.138476 0.388301 0.559547
0.136132 0.418442 0.533376
0.141275 0.448388 0.521626
0.153905 0.478139 0.524295
0.166534 0.506205 0.537913
0.179163 0.532961 0.560047
0.191101 0.561915 0.584460
0.202624 0.592186 0.610239
0.210029 0.623487 0.646044
0.215562 0.655256 0.686406
0.220705 0.687025 0.723741
0.225718 0.718793 0.760067
0.227927 0.755164 0.809510
0.229490 0.792597 0.861981
0.229229 0.817611 0.895084
0.228708 0.840852 0.925421
0.243751 0.849018 0.924631
0.259830 0.856179 0.921767
0.725507 0.102923 0.385835
0.728046 0.109498 0.397488
0.730800 0.115976 0.409259
0.736790 0.120988 0.422800
0.742282 0.125692 0.436292
0.744300 0.128231 0.449442
0.744060 0.132369 0.460310
0.734035 0.143436 0.461286
0.719973 0.154389 0.461514
0.693803 0.165000 0.459496
0.651846 0.179070 0.461893
0.575158 0.200748 0.474001
0.454723 0.249915 0.507861
0.261376 0.344896 0.577974
0.147948 0.416294 0.606419
0.137271 0.457372 0.581290
0.137206 0.490443 0.566936
0.147753 0.515507 0.563355
0.159764 0.541229 0.574532
0.172914 0.567464 0.597187
0.186023 0.595897 0.621794
0.199108 0.625648 0.647574
0.208076 0.656428 0.681589
0.215172 0.687676 0.719347
0.221877 0.718924 0.756421
0.228452 0.750172 0.793268
0.231801 0.780944 0.836885
0.234405 0.811606 0.882064
0.235186 0.833951 0.911066
0.235707 0.855109 0.937757
0.253255 0.860703 0.931858
0.271939 0.865260 0.923785
0.737615 0.121086 0.430234
0.741196 0.128703 0.445011
0.744667 0.136026 0.459386
0.746489 0.138956 0.467719
0.748337 0.141967 0.476914
0.750355 0.145547 0.492148
0.750896 0.150141 0.504317
0.745037 0.159125 0.503211
0.735142 0.168776 0.501876
0.713138 0.180429 0.499858
0.674045 0.194889 0.502255
0.597358 0.215526 0.514363
0.474188 0.267166 0.547833
0.273550 0.370480 0.616904
0.153742 0.452490 0.647497
0.137857 0.507109 0.628618
0.133626 0.541742 0.615826
0.141047 0.556389 0.609120
0.152863 0.577555 0.617172
0.168096 0.603790 0.636702
0.180685 0.631572 0.662091
0.191687 0.660281 0.690996
0.201436 0.689303 0.722407
0.210615 0.718468 0.754956
0.218622 0.747633 0.791510
0.226239 0.776798 0.829398
0.234014 0.801255 0.861362
0.241826 0.824626 0.891959
0.244170 0.844237 0.916404
0.245732 0.863311 0.939971
0.264322 0.869752 0.933876
0.284048 0.875351 0.925803
0.746319 0.136979 0.470091
0.749769 0.144465 0.484478
0.753004 0.151610 0.498271
0.753004 0.153628 0.503154
0.753183 0.155898 0.509151
0.754615 0.159934 0.522952
0.755241 0.164837 0.534776
0.752377 0.173496 0.538031
0.746355 0.182431 0.539675
0.730861 0.192196 0.536485
0.701371 0.204117 0.536794
0.641088 0.220783 0.544802
0.533128 0.267353 0.572900
0.345705 0.363767 0.634485
0.218492 0.451920 0.670009
0.168690 0.529454 0.672027
0.143594 0.577954 0.669879
0.143204 0.597419 0.663564
0.150466 0.617396 0.668052
0.163682 0.637772 0.680942
0.176409 0.663438 0.702864
0.188843 0.692277 0.730206
0.200471 0.720311 0.759965
0.211734 0.747979 0.790823
0.219725 0.773888 0.824219
0.226625 0.799212 0.858461
0.235166 0.819882 0.884558
0.244084 0.839477 0.908776
0.250041 0.855768 0.925588
0.255574 0.871587 0.941342
0.272094 0.877153 0.936406
0.289345 0.882036 0.930092
0.752373 0.151105 0.506417
0.754782 0.157550 0.517679
0.757040 0.163718 0.528413
0.757040 0.165736 0.531212
0.757089 0.168007 0.534866
0.757479 0.172043 0.544500
0.757650 0.177141 0.554697
0.756869 0.186841 0.567326
0.754493 0.195516 0.575480
0.747332 0.201114 0.570207
0.732684 0.208218 0.566805
0.701566 0.218634 0.567521
0.622771 0.254268 0.586376
0.464513 0.331933 0.635461
0.329097 0.422755 0.678082
0.223049 0.530496 0.712389
0.164101 0.602431 0.727948
0.152253 0.638562 0.724758
0.151573 0.659972 0.725340
0.159580 0.669932 0.728855
0.172958 0.692343 0.744007
0.189559 0.722223 0.766141
0.203922 0.749866 0.794989
0.217267 0.776492 0.826888
0.224217 0.798236 0.855076
0.229034 0.818352 0.882028
0.235491 0.837198 0.906757
0.242327 0.855752 0.930975
0.253491 0.868267 0.937761
0.265274 0.879920 0.942058
0.277302 0.883273 0.939336
0.289345 0.886072 0.936146
0.750859 0.166493 0.531391
0.752226 0.172548 0.539528
0.753549 0.178431 0.547528
0.754200 0.181751 0.553452
0.754769 0.185161 0.559319
0.754769 0.189197 0.564787
0.754769 0.194124 0.571647
0.754769 0.202913 0.584537
0.754249 0.210513 0.593667
0.752165 0.214549 0.591519
0.746461 0.219643 0.590428
0.732790 0.227065 0.591665
0.684624 0.250623 0.605670
0.578967 0.301075 0.640954
0.469892 0.376136 0.683387
0.356422 0.482834 0.735011
0.264273 0.575276 0.767627
0.193445 0.653462 0.781232
0.162933 0.695467 0.788650
0.163779 0.709334 0.791254
0.173007 0.729384 0.801182
0.187264 0.753146 0.815504
0.202327 0.776818 0.837255
0.217755 0.800449 0.862384
0.227569 0.818026 0.881946
0.235511 0.833585 0.899653
0.244564 0.850202 0.916832
0.253874 0.867063 0.933888
0.266259 0.875721 0.935450
0.279084 0.883208 0.934799
0.286904 0.886178 0.936529
0.294390 0.888847 0.938416
0.744805 0.182638 0.549554
0.745130 0.188692 0.554567
0.745541 0.194706 0.560027
0.747234 0.200109 0.572200
0.748715 0.205342 0.583015
0.748715 0.209378 0.584317
0.748715 0.213915 0.586815
0.748715 0.220620 0.594497
0.748975 0.226658 0.601284
0.750017 0.230694 0.605385
0.749716 0.235463 0.610219
0.746461 0.241842 0.616664
0.729803 0.252641 0.628455
0.690809 0.270804 0.649157
0.628801 0.319043 0.687033
0.537205 0.405951 0.746990
0.412246 0.517142 0.796271
0.253923 0.652615 0.834875
0.180445 0.726715 0.855573
0.172958 0.753081 0.862343
0.175156 0.771309 0.867974
0.183163 0.784654 0.872922
0.197705 0.802207 0.883867
0.215217 0.821672 0.897538
0.230238 0.835082 0.906424
0.244430 0.846475 0.913715
0.258886 0.860618 0.919631
0.273404 0.875396 0.925230
0.284617 0.880148 0.924448
0.295359 0.883468 0.922756
0.299143 0.887154 0.930279
0.302463 0.890865 0.938416
0.748463 0.198783 0.576041
0.749179 0.205553 0.581510
0.749887 0.212145 0.587251
0.750473 0.216051 0.597081
0.750985 0.220152 0.605861
0.750985 0.225620 0.607293
0.751120 0.231333 0.609592
0.751836 0.238103 0.615647
0.752698 0.244011 0.621701
0.754000 0.247331 0.627755
0.754672 0.251729 0.634440
0.753956 0.258500 0.642513
0.745623 0.268712 0.655223
0.724595 0.284662 0.675665
0.665973 0.339602 0.716413
0.559014 0.444674 0.783271
0.425949 0.561365 0.835969
0.266780 0.689677 0.874509
0.193481 0.760828 0.895105
0.186971 0.787519 0.901745
0.189209 0.803387 0.905496
0.196696 0.812761 0.907514
0.208568 0.825224 0.913113
0.222434 0.839090 0.920339
0.236935 0.849050 0.924098
0.251648 0.857709 0.926702
0.266361 0.869646 0.928249
0.281073 0.882341 0.929551
0.292368 0.885067 0.928574
0.303175 0.886369 0.927272
0.309770 0.889563 0.933294
0.316085 0.892883 0.939804
0.756535 0.214928 0.606313
0.758293 0.222740 0.613864
0.759847 0.230112 0.621168
0.758350 0.230893 0.624748
0.757040 0.232521 0.628321
0.757040 0.240073 0.631836
0.757369 0.247673 0.635828
0.759127 0.255485 0.641882
0.760510 0.261914 0.647936
0.760771 0.264192 0.653990
0.760400 0.268200 0.660675
0.758643 0.276012 0.668748
0.748097 0.291172 0.683802
0.722903 0.318579 0.710493
0.647810 0.395458 0.757491
0.508561 0.535944 0.830599
0.378622 0.652115 0.880693
0.257991 0.743971 0.907775
0.204483 0.796242 0.922186
0.203181 0.817725 0.926743
0.208674 0.830989 0.929713
0.218244 0.839322 0.931731
0.226471 0.847163 0.934466
0.234087 0.854779 0.937525
0.245464 0.861615 0.938681
0.258093 0.868190 0.939202
0.270722 0.878044 0.939511
0.283352 0.888656 0.939771
0.295298 0.890210 0.939576
0.307146 0.890470 0.939316
0.319665 0.892623 0.940520
0.332230 0.894901 0.941822
0.758553 0.229559 0.624476
0.760571 0.237631 0.631767
0.762386 0.245346 0.638875
0.761149 0.247689 0.643237
0.760067 0.250554 0.647362
0.760067 0.257064 0.649836
0.760738 0.264160 0.653128
0.764319 0.273794 0.659963
0.767004 0.282111 0.666408
0.767004 0.286473 0.671681
0.766618 0.291750 0.677829
0.765381 0.299041 0.685902
0.758578 0.312899 0.700077
0.742498 0.337702 0.724425
0.688481 0.400585 0.763953
0.585688 0.512426 0.822998
0.472935 0.619093 0.869707
0.350222 0.720584 0.904080
0.277200 0.785126 0.923586
0.242827 0.820931 0.931528
0.233314 0.841356 0.936256
0.238718 0.852554 0.939055
0.245106 0.861289 0.941317
0.251941 0.868906 0.943336
0.259802 0.873593 0.943254
0.268004 0.877304 0.942473
0.278746 0.884294 0.942326
0.290073 0.892041 0.942326
0.304135 0.893693 0.942326
0.318587 0.894474 0.942326
0.332002 0.896415 0.942326
0.345347 0.898433 0.942326
0.758553 0.243686 0.638602
0.760571 0.251758 0.644852
0.762451 0.259668 0.651179
0.762256 0.265136 0.658665
0.762085 0.270474 0.665265
0.762085 0.274901 0.665656
0.763147 0.280695 0.667450
0.768811 0.292413 0.675327
0.773058 0.303073 0.682293
0.773058 0.310560 0.686524
0.772997 0.317659 0.691956
0.772802 0.323909 0.700028
0.771728 0.334382 0.712251
0.769189 0.351894 0.731390
0.748764 0.388802 0.758875
0.705342 0.450647 0.797088
0.614463 0.544814 0.840152
0.476125 0.671303 0.888066
0.370488 0.758500 0.916425
0.290285 0.815137 0.929575
0.259680 0.845978 0.936907
0.258834 0.861342 0.940748
0.263985 0.872812 0.943336
0.271862 0.882512 0.945354
0.276077 0.885376 0.944491
0.279071 0.885962 0.942668
0.287990 0.889827 0.942326
0.298276 0.894450 0.942326
0.314942 0.896622 0.942326
0.332519 0.898445 0.942326
0.345152 0.900451 0.942326
0.357456 0.902469 0.942326
0.755274 0.272570 0.651089
0.757292 0.280642 0.657144
0.759237 0.288588 0.663166
0.760083 0.294643 0.668699
0.760929 0.300656 0.673858
0.761776 0.306385 0.676397
0.763440 0.313151 0.679974
0.768648 0.324414 0.688046
0.772765 0.334878 0.695109
0.773612 0.342951 0.699145
0.774458 0.351186 0.703914
0.775304 0.359779 0.710294
0.776151 0.369935 0.719188
0.776997 0.382694 0.732273
0.769641 0.406163 0.751681
0.751738 0.443400 0.779218
0.696696 0.512374 0.813982
0.604514 0.613083 0.855971
0.495195 0.706909 0.889905
0.372547 0.795380 0.917572
0.312598 0.843407 0.929941
0.290269 0.867169 0.933131
0.285931 0.880368 0.934934
0.289772 0.888765 0.936105
0.294785 0.891500 0.935519
0.300188 0.892346 0.934348
0.309400 0.895096 0.934816
0.319490 0.898286 0.935662
0.334423 0.899710 0.935027
0.350047 0.900882 0.934181
0.366342 0.902847 0.933335
0.382682 0.904866 0.932488
0.751238 0.304859 0.663198
0.753256 0.312932 0.669252
0.755266 0.320878 0.675079
0.757154 0.326932 0.677488
0.759042 0.333206 0.680303
0.760929 0.341018 0.685967
0.763245 0.349282 0.692082
0.767411 0.359503 0.700155
0.771008 0.369186 0.707218
0.772896 0.377259 0.711254
0.774784 0.386470 0.715372
0.776671 0.398188 0.719668
0.778559 0.408734 0.724917
0.780447 0.417328 0.731752
0.781424 0.430250 0.743999
0.781228 0.448738 0.763204
0.765246 0.489589 0.788593
0.733478 0.552801 0.820166
0.627153 0.649556 0.858917
0.462841 0.772399 0.903250
0.371644 0.839176 0.921218
0.324316 0.872311 0.923366
