其他预设/【236】赛博朋克风调色预设/【后期菌】视频调色预设/CUBE/Glitch 09_S.cube
# LUT by SparkleStock. Enhanced with VOXCOLOR algorithms.
LUT_3D_SIZE 5
DOMAIN_MIN 0.000000 0.000000 0.000000
DOMAIN_MAX 0.903226 0.903226 0.903226
0.066471 0.070381 0.003910
0.061930 0.100148 0.091445
0.071264 0.155646 0.164980
0.074922 0.301328 0.425945
0.060795 0.452054 0.589285
0.216189 0.093211 0.070003
0.322599 0.110076 0.257112
0.166798 0.276138 0.297633
0.224884 0.379915 0.431637
0.113665 0.516686 0.619251
0.723110 0.109482 0.251758
0.755546 0.124833 0.297059
0.165106 0.401923 0.441964
0.219639 0.503028 0.483005
0.106854 0.577555 0.666079
0.798915 0.167628 0.391764
0.803843 0.184538 0.416738
0.675445 0.236944 0.579040
0.083222 0.579345 0.671771
0.077160 0.606850 0.707755
0.818213 0.227793 0.468073
0.828430 0.265506 0.489410
0.842662 0.324556 0.528457
0.141332 0.614629 0.729515
0.082319 0.630111 0.722606
0.084508 0.078201 0.021947
0.076757 0.097463 0.158950
0.124455 0.154816 0.218980
0.160313 0.285048 0.430124
0.069372 0.464973 0.599608
0.311434 0.097121 0.087795
0.576118 0.134242 0.275197
0.251418 0.319944 0.400981
0.350651 0.378416 0.453151
0.224136 0.508687 0.605861
0.745668 0.114617 0.276964
0.712029 0.202609 0.356648
0.321527 0.401345 0.468026
0.354608 0.516219 0.476630
0.287582 0.566981 0.589929
0.803708 0.171144 0.405394
0.814235 0.207412 0.452230
0.765055 0.316145 0.482075
0.181578 0.612066 0.617798
0.286936 0.635670 0.601367
0.819296 0.236948 0.472382
0.853367 0.387118 0.550762
0.878692 0.497864 0.594298
0.374408 0.685784 0.767177
0.273032 0.695370 0.675553
0.222496 0.094725 0.075679
0.437427 0.098492 0.202392
0.100295 0.184196 0.289097
0.124825 0.323921 0.488950
0.065690 0.482664 0.614133
0.618348 0.108851 0.176531
0.707228 0.129285 0.333174
0.225404 0.297878 0.548919
0.309244 0.404756 0.573883
0.185987 0.532793 0.664471
0.764640 0.113099 0.300616
0.745518 0.194673 0.406773
0.630686 0.308974 0.517059
0.350234 0.531820 0.592569
0.429469 0.551462 0.609780
0.804465 0.182764 0.422523
0.815689 0.214614 0.462265
0.800289 0.368457 0.523902
0.293372 0.632937 0.648086
0.469882 0.659917 0.609516
0.813315 0.250411 0.482851
0.857916 0.435412 0.567568
0.908430 0.657382 0.669887
0.857704 0.778406 0.765470
0.650287 0.813024 0.695822
0.623467 0.108851 0.180746
0.698861 0.112761 0.237709
0.056255 0.300538 0.485882
0.061808 0.376372 0.515014
0.062215 0.500204 0.629554
0.755905 0.111878 0.289841
0.793933 0.136587 0.299719
0.610157 0.201368 0.511137
0.121096 0.508497 0.658794
0.095688 0.578101 0.706624
0.797040 0.150255 0.387557
0.808222 0.185405 0.438156
0.803163 0.247583 0.493675
0.164545 0.571522 0.710148
0.338489 0.570588 0.711282
0.815089 0.180514 0.435629
0.826286 0.222530 0.472806
0.858052 0.371857 0.551938
0.532986 0.676973 0.757510
0.645348 0.722834 0.744979
0.832881 0.262255 0.494150
0.876331 0.464092 0.585130
0.921060 0.686339 0.691670
0.911364 0.810564 0.766997
0.798412 0.865458 0.794742
0.745688 0.113392 0.254911
0.479742 0.246420 0.101198
0.325236 0.350030 0.161045
0.120854 0.425477 0.306397
0.062561 0.520804 0.639319
0.723322 0.188627 0.108453
0.555602 0.490910 0.250264
0.586217 0.542681 0.284745
0.391249 0.556706 0.353525
0.066654 0.593686 0.700291
0.811907 0.172442 0.388378
0.766222 0.440936 0.229978
0.748798 0.634211 0.312090
0.542008 0.664986 0.440560
0.222477 0.630786 0.696596
0.817200 0.205281 0.459752
0.834342 0.362156 0.456312
0.816325 0.640691 0.331991
0.805888 0.724129 0.412154
0.540528 0.743481 0.727034
0.826546 0.294272 0.513403
0.880658 0.526975 0.613097
0.908122 0.726326 0.649276
0.893928 0.800272 0.633212
0.859341 0.826894 0.632203
