其他预设/【236】赛博朋克风调色预设/【后期菌】视频调色预设/CUBE/Glitch 01.cube
# LUT by SparkleStock. Enhanced with VOXCOLOR algorithms.
LUT_3D_SIZE 5
DOMAIN_MIN 0.000000 0.000000 0.000000
DOMAIN_MAX 0.903226 0.903226 0.903226
0.082111 0.082111 0.082111
0.082111 0.088418 0.142528
0.086022 0.128654 0.186170
0.096490 0.253776 0.430486
0.111248 0.458739 0.675937
0.188945 0.083625 0.111248
0.258532 0.086904 0.264815
0.102886 0.236118 0.395527
0.109868 0.413686 0.633455
0.138439 0.621754 0.785114
0.703686 0.092580 0.315328
0.787437 0.104852 0.422776
0.109779 0.346824 0.669252
0.128166 0.579683 0.758317
0.168658 0.731435 0.857420
0.877243 0.134330 0.620061
0.889990 0.148599 0.667747
0.710359 0.234665 0.763078
0.161497 0.715184 0.846841
0.207360 0.792861 0.894742
0.897172 0.232334 0.733958
0.899169 0.289398 0.752479
0.901566 0.352325 0.780358
0.322509 0.768615 0.900825
0.294899 0.842813 0.906168
0.094725 0.082111 0.089932
0.100282 0.089346 0.197843
0.090473 0.145482 0.219900
0.100148 0.282803 0.479669
0.115158 0.486016 0.693775
0.241981 0.084508 0.121806
0.585644 0.092119 0.316999
0.115544 0.354960 0.588833
0.122292 0.555167 0.739109
0.160219 0.713915 0.842776
0.746677 0.099859 0.358913
0.869817 0.127053 0.581963
0.260467 0.340893 0.771031
0.145684 0.690040 0.826107
0.201370 0.782961 0.886344
0.882414 0.138870 0.635962
0.897321 0.196206 0.717098
0.877173 0.259856 0.771980
0.190695 0.765636 0.881067
0.267116 0.830395 0.901142
0.897802 0.249309 0.737436
0.902575 0.401818 0.786424
0.903962 0.492665 0.806276
0.521700 0.781618 0.907379
0.449231 0.853112 0.910591
0.201810 0.082994 0.113014
0.328352 0.084850 0.192289
0.089932 0.157603 0.262609
0.103712 0.317269 0.523196
0.119088 0.520544 0.721869
0.520792 0.090473 0.206461
0.794425 0.108650 0.438736
0.146735 0.291307 0.700334
0.125584 0.588154 0.762306
0.170798 0.733632 0.857863
0.777265 0.103334 0.400072
0.879001 0.133028 0.617641
0.769804 0.231292 0.761225
0.181055 0.755548 0.873411
0.247566 0.822033 0.896797
0.889604 0.146060 0.661794
0.895304 0.214376 0.718938
0.902026 0.355122 0.778554
0.297940 0.783409 0.896333
0.402117 0.844303 0.903360
0.897570 0.269205 0.742282
0.904560 0.438639 0.796856
0.906359 0.629182 0.827116
0.855632 0.707138 0.888163
0.615196 0.858985 0.900597
0.534544 0.089301 0.206225
0.660720 0.093211 0.285496
0.091303 0.235011 0.529072
0.104311 0.338756 0.552772
0.124398 0.545644 0.741558
0.756946 0.100014 0.380892
0.854272 0.131355 0.460532
0.619928 0.193417 0.603629
0.135592 0.627153 0.786727
0.179729 0.750533 0.871059
0.867563 0.125374 0.578125
0.892686 0.159558 0.686007
0.897266 0.255281 0.738787
0.224673 0.746024 0.876252
0.272832 0.831749 0.903025
0.894572 0.154938 0.679339
0.896795 0.237541 0.731366
0.902936 0.395456 0.787020
0.615112 0.735737 0.892632
0.581670 0.856317 0.898582
0.898970 0.294106 0.754330
0.904051 0.468382 0.801828
0.908748 0.655400 0.837354
0.907741 0.768990 0.873587
0.758708 0.874744 0.906032
0.746319 0.099518 0.332356
0.395438 0.175575 0.090424
0.302035 0.270824 0.091697
0.186027 0.428814 0.199287
0.129622 0.591783 0.756661
0.752235 0.154055 0.168072
0.495570 0.420036 0.117908
0.555182 0.490585 0.127669
0.455733 0.605544 0.151941
0.187520 0.760673 0.852138
0.886597 0.155268 0.604250
0.792790 0.418077 0.217104
0.770849 0.651631 0.175505
0.639184 0.749900 0.233208
0.342347 0.833450 0.782828
0.896887 0.202376 0.719611
0.899926 0.367135 0.658064
0.872355 0.683161 0.263182
0.857663 0.802909 0.264491
0.607239 0.877340 0.733546
0.899108 0.317318 0.764612
0.905679 0.515001 0.809670
0.905742 0.699111 0.770321
0.912461 0.822184 0.671813
0.888684 0.900364 0.538417
