其他预设/【236】赛博朋克风调色预设/【后期菌】视频调色预设/CUBE/Glitch 07_S.cube
# LUT by SparkleStock. Enhanced with VOXCOLOR algorithms.
LUT_3D_SIZE 5
DOMAIN_MIN 0.000000 0.000000 0.000000
DOMAIN_MAX 0.903226 0.903226 0.903226
0.023460 0.054741 0.062561
0.030650 0.068868 0.152871
0.048687 0.100022 0.180115
0.033803 0.221865 0.446883
0.030902 0.457983 0.728912
0.243181 0.070381 0.115158
0.312358 0.080354 0.265523
0.127734 0.199991 0.303993
0.169016 0.350527 0.480442
0.131091 0.637414 0.792251
0.692208 0.078706 0.309148
0.704805 0.117428 0.375387
0.125326 0.368511 0.506881
0.202233 0.559897 0.578991
0.226300 0.795217 0.868458
0.744805 0.182638 0.549554
0.748715 0.220620 0.594497
0.628801 0.319043 0.687033
0.183163 0.784654 0.872922
0.284617 0.880148 0.924448
0.764860 0.328320 0.687668
0.777453 0.389294 0.724225
0.791327 0.463850 0.757508
0.408718 0.853473 0.926702
0.372889 0.905789 0.932781
0.061930 0.062561 0.086904
0.057296 0.074202 0.216486
0.098744 0.100995 0.217161
0.112123 0.217458 0.447538
0.047804 0.493080 0.743470
0.337910 0.067985 0.128113
0.531533 0.100802 0.284860
0.192592 0.270965 0.408600
0.303706 0.389686 0.490143
0.291592 0.667783 0.760074
0.708947 0.095913 0.343740
0.647004 0.203482 0.456405
0.316270 0.401210 0.490718
0.357844 0.587368 0.535377
0.408688 0.746288 0.726920
0.748967 0.196512 0.568221
0.755491 0.287478 0.661253
0.693148 0.401145 0.625959
0.319583 0.815453 0.780515
0.469044 0.832919 0.733842
0.764860 0.347744 0.704191
0.800726 0.518074 0.767545
0.820163 0.596122 0.790615
0.594169 0.850283 0.907521
0.564840 0.904621 0.823607
0.264623 0.070381 0.119951
0.439026 0.065930 0.213927
0.075752 0.121529 0.279816
0.079276 0.259956 0.533238
0.052825 0.537909 0.774678
0.613987 0.064815 0.209345
0.651254 0.123316 0.400502
0.217234 0.281351 0.597167
0.277493 0.436855 0.649104
0.285784 0.719478 0.842315
0.720840 0.103440 0.374834
0.682216 0.205232 0.535053
0.570434 0.337694 0.581904
0.403464 0.633903 0.678864
0.553398 0.674584 0.700891
0.747185 0.213146 0.594155
0.757193 0.307719 0.678165
0.744632 0.484164 0.715754
0.456518 0.788999 0.764669
0.646641 0.785842 0.689175
0.762105 0.368828 0.714342
0.801609 0.553247 0.777892
0.840525 0.699328 0.818408
0.809268 0.788961 0.810773
0.758970 0.896786 0.744806
0.621449 0.065841 0.211396
0.674342 0.074930 0.281932
0.013195 0.228298 0.563762
0.018798 0.317415 0.590408
0.058399 0.584492 0.802321
0.715172 0.097626 0.356431
0.769729 0.144646 0.427997
0.567526 0.222645 0.592014
0.139325 0.622193 0.831722
0.238359 0.810837 0.919985
0.745326 0.163466 0.527216
0.750212 0.235052 0.625864
0.747763 0.350715 0.701579
0.344819 0.766249 0.887123
0.507241 0.736204 0.844999
0.756438 0.227032 0.621217
0.772719 0.328129 0.701379
0.806440 0.506911 0.774346
0.676691 0.766360 0.841979
0.756421 0.788902 0.791779
0.783470 0.391035 0.734084
0.818156 0.573079 0.791601
0.854243 0.718465 0.831588
0.851119 0.818309 0.841962
0.830286 0.898168 0.827004
0.717939 0.089553 0.324536
0.418280 0.141499 0.064958
0.288959 0.224701 0.065588
0.201212 0.429090 0.174045
0.069246 0.629952 0.820988
0.764839 0.129545 0.139290
0.552805 0.370064 0.063269
0.630610 0.451950 0.061324
0.551228 0.612839 0.083787
0.221290 0.843859 0.916565
0.767468 0.205089 0.564539
0.823748 0.399784 0.161501
0.862232 0.634999 0.082371
0.775822 0.776995 0.197151
0.449740 0.867182 0.837848
0.757886 0.290513 0.675278
0.815361 0.458945 0.668125
0.926635 0.689142 0.210158
0.953917 0.815748 0.231337
0.708901 0.890616 0.802843
0.777274 0.426421 0.753471
0.820260 0.614630 0.803864
0.872200 0.751704 0.777519
0.920408 0.849651 0.700385
0.946232 0.924072 0.628808
