其他预设/【236】赛博朋克风调色预设/【后期菌】视频调色预设/CUBE/Miami 08_S.cube
# LUT by SparkleStock. Enhanced with VOXCOLOR algorithms.
LUT_3D_SIZE 5
DOMAIN_MIN 0.000000 0.000000 0.000000
DOMAIN_MAX 0.903226 0.903226 0.903226
0.000000 0.000000 0.003910
0.192855 0.036956 0.137609
0.631539 0.074291 0.245073
0.837638 0.084130 0.308391
0.914578 0.134330 0.362880
0.039101 0.117807 0.122347
0.484527 0.154763 0.249846
0.700806 0.176368 0.241147
0.833963 0.198413 0.292246
0.921999 0.281578 0.355588
0.086526 0.357834 0.327815
0.320402 0.351943 0.212356
0.625717 0.359580 0.100360
0.795461 0.373947 0.133793
0.904719 0.406480 0.234079
0.134330 0.634440 0.536562
0.409597 0.505599 0.186707
0.697331 0.539069 0.103049
0.844420 0.530431 0.087405
0.922902 0.537759 0.137735
0.207864 0.800429 0.672027
0.473391 0.681951 0.244927
0.735431 0.692041 0.154364
0.867185 0.717813 0.107875
0.930010 0.754216 0.144664
0.032794 0.032163 0.103428
0.186052 0.045362 0.246082
0.603538 0.060165 0.323779
0.823653 0.067110 0.389737
0.920254 0.092580 0.494813
0.068579 0.169773 0.223342
0.412458 0.175229 0.363012
0.633248 0.169598 0.343529
0.784450 0.176981 0.380632
0.929042 0.189510 0.509700
0.128886 0.422881 0.438611
0.219145 0.494725 0.477146
0.624984 0.380591 0.321981
0.775884 0.393823 0.336799
0.907327 0.423466 0.369893
0.171665 0.663593 0.618808
0.272578 0.723907 0.663674
0.660052 0.613543 0.196909
0.810984 0.614525 0.150468
0.911820 0.626694 0.202522
0.258768 0.814177 0.735797
0.408826 0.808033 0.649822
0.734246 0.736114 0.250859
0.864802 0.774050 0.212667
0.916452 0.819801 0.293867
0.073913 0.079084 0.255668
0.215396 0.066524 0.387654
0.623141 0.072631 0.461441
0.839940 0.070288 0.548276
0.929754 0.078620 0.655504
0.129447 0.252336 0.441622
0.265769 0.275695 0.576275
0.658161 0.175331 0.531900
0.807116 0.175772 0.574544
0.936333 0.185975 0.691246
0.184384 0.491851 0.616184
0.265600 0.559015 0.656689
0.600669 0.417599 0.599321
0.789481 0.369131 0.584986
0.917247 0.390220 0.616160
0.255180 0.708085 0.713935
0.351398 0.750764 0.751200
0.464732 0.761056 0.720632
0.802394 0.662037 0.354171
0.901729 0.658687 0.348208
0.319047 0.823425 0.775707
0.443343 0.845824 0.801641
0.637655 0.828364 0.666932
0.834871 0.813375 0.346938
0.903895 0.851168 0.449837
0.129158 0.116041 0.488506
0.263985 0.117916 0.603017
0.657144 0.095498 0.652652
0.864683 0.078201 0.709993
0.929872 0.086213 0.788320
0.209126 0.299200 0.656420
0.308105 0.342143 0.737743
0.735392 0.198580 0.752182
0.882413 0.177796 0.783107
0.934746 0.195935 0.829065
0.266800 0.533348 0.758256
0.372309 0.589458 0.803544
0.533006 0.580428 0.825297
0.859689 0.388706 0.801539
0.917756 0.404284 0.784002
0.336416 0.732696 0.808249
0.446768 0.765373 0.836040
0.585491 0.794705 0.859690
0.743344 0.738526 0.791529
0.898041 0.651332 0.741682
0.418792 0.836474 0.831429
0.545820 0.849166 0.840384
0.666338 0.866907 0.859119
0.785417 0.867113 0.758310
0.905682 0.867251 0.633958
0.198657 0.134708 0.661054
0.300908 0.151199 0.743450
0.678753 0.097752 0.785293
0.865069 0.095359 0.824080
0.930218 0.088585 0.871188
0.267948 0.293552 0.780797
0.371135 0.349647 0.835627
0.606216 0.285985 0.868781
0.894937 0.201728 0.869035
0.928579 0.221036 0.886192
0.362627 0.558110 0.854393
0.484164 0.586656 0.877878
0.592372 0.597136 0.888309
0.845642 0.442808 0.882256
0.918706 0.432202 0.885158
0.422788 0.737082 0.877780
0.552999 0.760667 0.888103
0.673077 0.782680 0.896309
0.769802 0.793259 0.903491
0.900344 0.679205 0.902764
0.522615 0.845376 0.883297
0.640215 0.863107 0.886524
0.736099 0.877205 0.897411
0.831933 0.895631 0.919139
0.917338 0.905227 0.896619
