其他预设/【236】赛博朋克风调色预设/【后期菌】视频调色预设/CUBE/Miami 06.cube
# LUT by SparkleStock. Enhanced with VOXCOLOR algorithms.
LUT_3D_SIZE 32
0.019550 0.019550 0.035191
0.033677 0.027623 0.047299
0.047425 0.035443 0.059029
0.055498 0.039479 0.065084
0.064579 0.043263 0.071138
0.080724 0.045281 0.077192
0.099896 0.048434 0.083625
0.132186 0.056507 0.091697
0.170025 0.066597 0.100779
0.224514 0.082742 0.112887
0.285940 0.100148 0.121212
0.362627 0.120329 0.121212
0.451424 0.141267 0.124239
0.560401 0.163466 0.132312
0.648188 0.181251 0.143916
0.708731 0.193359 0.160061
0.759184 0.204459 0.172169
0.799546 0.214549 0.180242
0.830826 0.222369 0.189449
0.855044 0.228424 0.199540
0.878000 0.233217 0.209630
0.900199 0.237253 0.219721
0.914073 0.241289 0.224261
0.924164 0.245325 0.226279
0.935768 0.246334 0.229811
0.947876 0.246334 0.233847
0.958345 0.249614 0.239523
0.968436 0.253650 0.245578
0.974994 0.257686 0.249866
0.981049 0.261722 0.253902
0.983319 0.265759 0.256046
0.985337 0.269795 0.258065
0.025605 0.031659 0.047299
0.039731 0.036607 0.056283
0.053675 0.041432 0.065084
0.064872 0.044427 0.071138
0.077339 0.047820 0.077453
0.098692 0.054005 0.085590
0.123853 0.060543 0.093716
0.165517 0.068615 0.101788
0.212731 0.078966 0.109828
0.276594 0.096153 0.117770
0.349347 0.115251 0.124207
0.441659 0.138557 0.127332
0.532408 0.159104 0.133483
0.620553 0.175054 0.144681
0.694344 0.190234 0.158042
0.749679 0.204426 0.174187
0.793882 0.215526 0.186817
0.826953 0.223533 0.195931
0.852700 0.229856 0.203836
0.872751 0.234869 0.210802
0.893493 0.239271 0.220372
0.914651 0.243307 0.231504
0.927484 0.245911 0.235654
0.936533 0.247864 0.236630
0.946314 0.249915 0.241464
0.956339 0.251998 0.247583
0.964725 0.255668 0.253650
0.972732 0.259704 0.259704
0.978119 0.262829 0.264904
0.983132 0.265824 0.269982
0.986314 0.268818 0.271215
0.989373 0.271813 0.272191
0.031533 0.043389 0.058903
0.045660 0.045407 0.064958
0.059815 0.047429 0.071020
0.074397 0.049513 0.077205
0.090509 0.052605 0.083894
0.117331 0.062760 0.094114
0.148705 0.072562 0.103908
0.199808 0.080830 0.111850
0.256510 0.091636 0.118799
0.330008 0.110060 0.122770
0.413780 0.130843 0.127494
0.520153 0.156818 0.133874
0.612074 0.176812 0.143135
0.679908 0.186837 0.157196
0.739882 0.199426 0.172169
0.789748 0.215310 0.188314
0.827669 0.226279 0.201366
0.853644 0.232334 0.211327
0.874053 0.237216 0.218065
0.890133 0.241187 0.222296
0.908694 0.245199 0.231410
0.928745 0.249235 0.243454
0.940605 0.250586 0.247217
0.948743 0.250716 0.247217
0.956734 0.253776 0.253467
0.964676 0.257812 0.261800
0.971032 0.261743 0.268070
0.977021 0.265649 0.273863
0.981301 0.267960 0.279885
0.985337 0.270043 0.285940
0.989251 0.272065 0.286318
0.993157 0.274083 0.286318
0.035569 0.049443 0.062939
0.049696 0.051462 0.068994
0.064307 0.053549 0.075186
0.086180 0.056674 0.083454
0.109844 0.060807 0.092226
0.146040 0.072005 0.104530
0.186983 0.083238 0.115626
0.248503 0.094631 0.121485
0.316402 0.108823 0.126611
0.403441 0.131412 0.129541
0.493592 0.153758 0.135176
0.590591 0.175567 0.146764
0.671966 0.192566 0.158889
0.727301 0.201550 0.171909
0.776142 0.211730 0.186296
0.816635 0.223448 0.202441
0.847785 0.232334 0.214452
0.869594 0.238388 0.222329
0.887594 0.242685 0.229913
0.902632 0.245614 0.237269
0.919501 0.249235 0.246904
0.937468 0.253272 0.257906
0.949394 0.256055 0.261344
0.958573 0.258268 0.261344
0.965262 0.261848 0.270718
0.971121 0.265885 0.283218
0.976240 0.268122 0.286883
0.981187 0.269945 0.288511
0.985337 0.272907 0.294012
0.989373 0.276032 0.300066
0.991335 0.278119 0.300445
0.993157 0.280137 0.300445
0.039101 0.055750 0.066976
0.053097 0.057508 0.072900
0.068001 0.059416 0.079092
0.096515 0.063582 0.089313
0.127340 0.068790 0.100022
0.174342 0.081290 0.114149
0.226043 0.094216 0.126359
0.298109 0.108994 0.130265
0.376782 0.126506 0.133894
0.475279 0.152220 0.136694
0.570134 0.175412 0.143541
0.656977 0.193054 0.159296
0.727757 0.207156 0.173780
0.771765 0.215359 0.186149
0.810418 0.223448 0.199942
0.842186 0.231390 0.215566
0.867152 0.238323 0.226536
0.885315 0.244247 0.232850
0.901281 0.248120 0.241436
0.915538 0.250399 0.251786
0.930568 0.253613 0.261649
0.946062 0.257389 0.271219
0.957751 0.261433 0.274746
0.967711 0.265600 0.275528
0.973131 0.269669 0.287539
0.977037 0.273705 0.303293
0.980943 0.274567 0.303761
0.984849 0.274698 0.300701
0.988641 0.278018 0.305274
0.992417 0.281793 0.310938
0.992897 0.284166 0.311536
0.993157 0.286444 0.311796
0.039101 0.063822 0.071012
0.052056 0.063497 0.075894
0.066113 0.063517 0.081176
0.096710 0.068725 0.092438
0.131962 0.075235 0.104058
0.199796 0.090859 0.118185
0.270572 0.107301 0.130200
0.354095 0.127287 0.133064
0.440580 0.147663 0.137475
0.535952 0.169211 0.146524
0.623776 0.188237 0.156692
0.694995 0.201712 0.169321
0.754839 0.213601 0.182634
0.795721 0.222845 0.197086
0.830794 0.231064 0.210228
0.858396 0.237965 0.221686
0.881279 0.243856 0.231614
0.899442 0.248739 0.240011
0.915994 0.253328 0.250680
0.931292 0.257690 0.263114
0.943458 0.260384 0.271154
0.953743 0.262076 0.276557
0.963089 0.266186 0.283079
0.972008 0.271394 0.290110
0.976386 0.275723 0.301340
0.979250 0.279759 0.313969
0.982115 0.281468 0.307081
0.984979 0.282640 0.295688
0.986818 0.284267 0.296486
0.988511 0.285960 0.299025
0.990814 0.290155 0.301380
0.993157 0.294516 0.303724
0.038722 0.071516 0.075426
0.051026 0.069889 0.079463
0.064616 0.068742 0.084003
0.097491 0.074796 0.096112
0.136755 0.082266 0.108424
0.220734 0.099648 0.122160
0.307142 0.118494 0.133662
0.404076 0.143688 0.135485
0.499642 0.167026 0.140384
0.591108 0.184799 0.154511
0.671913 0.200109 0.167376
0.729266 0.210004 0.177467
0.779271 0.219900 0.189681
0.817029 0.229795 0.205435
0.848692 0.237924 0.217914
0.872519 0.243783 0.226182
0.893123 0.248828 0.235263
0.910505 0.253060 0.245158
0.927301 0.258207 0.257324
0.943641 0.264066 0.271255
0.953918 0.266385 0.277863
0.960559 0.266580 0.280076
0.967781 0.270670 0.288287
0.975267 0.276529 0.299224
0.978799 0.281020 0.309819
0.981012 0.285057 0.320300
0.982750 0.287453 0.306715
0.984377 0.289471 0.287575
0.984410 0.289723 0.283987
0.984214 0.289723 0.282619
0.987803 0.295216 0.285952
0.991644 0.301075 0.289597
0.036704 0.077571 0.081481
0.050050 0.078026 0.085517
0.064811 0.078832 0.090058
0.100811 0.084886 0.102166
0.142288 0.091836 0.114218
0.222101 0.105051 0.125871
0.309225 0.121489 0.135485
0.428032 0.151890 0.136266
0.538182 0.178614 0.140384
0.622356 0.194303 0.154511
0.696196 0.207856 0.167376
0.747299 0.216710 0.177467
0.792226 0.225563 0.188900
0.826859 0.234417 0.202571
0.855853 0.241505 0.214334
0.877597 0.246322 0.223643
0.895076 0.251367 0.232724
0.908291 0.256640 0.241578
0.923850 0.261657 0.252702
0.941232 0.266475 0.265592
0.953853 0.269054 0.272460
0.963618 0.270291 0.275715
0.969668 0.273990 0.279954
0.974030 0.278807 0.284642
0.977562 0.283039 0.295237
0.980817 0.287075 0.307801
0.981057 0.289471 0.290374
0.980601 0.291489 0.266027
0.979462 0.291742 0.255408
0.978225 0.291742 0.246749
0.980772 0.296258 0.247673
0.983571 0.301075 0.249235
0.035191 0.085643 0.088040
0.049838 0.087401 0.092076
0.065902 0.089394 0.096568
0.103204 0.094928 0.107895
0.145234 0.100999 0.119068
0.220359 0.110829 0.129158
0.306556 0.125151 0.137406
0.440727 0.158938 0.137666
0.562399 0.187940 0.141263
0.646573 0.202587 0.154869
0.718704 0.215261 0.167376
0.764339 0.223594 0.177467
0.804677 0.231634 0.188314
0.836185 0.239186 0.200423
0.862396 0.245199 0.211306
0.881796 0.249235 0.220616
0.897062 0.254281 0.229567
0.908194 0.260335 0.238160
0.922548 0.265108 0.248145
0.939409 0.268883 0.259212
0.953137 0.271886 0.266210
0.964985 0.274425 0.270767
0.970433 0.277993 0.272370
0.972972 0.282029 0.272631
0.976439 0.286066 0.282314
0.980215 0.290102 0.295139
0.979283 0.292287 0.275222
0.977265 0.294044 0.247750
0.975019 0.294264 0.231044
0.972740 0.294264 0.215876
0.974490 0.298292 0.214195
0.976508 0.302589 0.213414
0.035191 0.099770 0.096112
0.051921 0.100486 0.100148
0.069677 0.101373 0.104445
0.102813 0.104823 0.112647
0.140417 0.108941 0.121086
0.209292 0.117729 0.131176
0.289630 0.130814 0.139619
0.419635 0.162518 0.140921
0.543650 0.190479 0.144778
0.649698 0.207209 0.156301
0.735890 0.221641 0.167376
0.778401 0.231015 0.177467
0.815613 0.238925 0.188314
0.843997 0.244394 0.200423
0.867083 0.249235 0.209939
0.883358 0.253272 0.216124
0.899145 0.258317 0.224554
0.914443 0.264371 0.235231
0.927691 0.268558 0.243783
0.939344 0.271292 0.250684
0.950468 0.275206 0.257422
0.961275 0.279828 0.264062
0.967829 0.284048 0.267032
0.972452 0.288084 0.268334
0.975658 0.292120 0.274372
0.978392 0.296156 0.281989
0.977265 0.297495 0.263635
0.975247 0.298211 0.239287
0.972089 0.298300 0.219326
0.968769 0.298300 0.199991
0.970454 0.303305 0.195121
0.972472 0.308643 0.191215
0.033929 0.113897 0.104184
0.050790 0.114548 0.107570
0.068428 0.115182 0.111040
0.097723 0.115573 0.115793
0.131266 0.116924 0.121049
0.194543 0.124996 0.129838
0.268879 0.137048 0.137357
0.391137 0.166343 0.139375
0.513265 0.192855 0.143167
0.635002 0.211018 0.152281
0.732631 0.226658 0.161700
0.777225 0.236748 0.171791
0.815544 0.244813 0.182516
0.843407 0.249500 0.194299
0.865830 0.253902 0.202978
0.881259 0.257938 0.207665
0.897892 0.262984 0.215575
0.915729 0.269038 0.226707
0.928623 0.273005 0.233847
0.937672 0.275349 0.237884
0.947168 0.280011 0.244035
0.956933 0.286066 0.251457
0.963700 0.290285 0.254940
0.969103 0.293670 0.256632
0.972211 0.297299 0.259838
0.974555 0.301010 0.263549
0.974413 0.302764 0.249646
0.973697 0.304066 0.231679
0.970075 0.304229 0.210009
0.966039 0.304229 0.187809
0.967374 0.310210 0.180746
0.969066 0.316589 0.174692
0.029893 0.128023 0.112257
0.042588 0.130757 0.113559
0.056124 0.133020 0.114816
0.082295 0.128202 0.115402
0.112582 0.124996 0.116492
0.171693 0.133068 0.121114
0.239714 0.144534 0.125248
0.346348 0.170704 0.127266
0.457279 0.194873 0.130277
0.581099 0.213036 0.136266
0.684392 0.228676 0.143537
0.742526 0.238766 0.153628
0.791262 0.247612 0.163962
0.824333 0.254382 0.174704
0.851508 0.259956 0.183708
0.871103 0.263993 0.190479
0.889298 0.269038 0.197867
0.906094 0.275092 0.205875
0.920290 0.279645 0.211648
0.932464 0.283030 0.215684
0.942481 0.288084 0.220534
0.951205 0.294138 0.225873
0.956213 0.296925 0.227988
0.959533 0.298227 0.228639
0.962902 0.300554 0.230804
0.966287 0.303224 0.233473
0.969725 0.308167 0.230377
0.973176 0.313635 0.225950
0.970075 0.314319 0.205972
0.966039 0.314319 0.183773
0.966397 0.321277 0.176710
0.967048 0.328698 0.170656
0.025857 0.145177 0.121843
0.035557 0.147651 0.119890
0.046091 0.149490 0.117908
0.069136 0.141808 0.115500
0.095925 0.135998 0.113595
0.148916 0.143289 0.115223
0.209183 0.153461 0.116704
0.300974 0.176116 0.117550
0.400414 0.197843 0.118901
0.522802 0.216787 0.121765
0.629586 0.233209 0.127010
0.702042 0.244080 0.137491
0.761389 0.253756 0.147386
0.798887 0.261438 0.156305
0.830546 0.267524 0.164683
0.854698 0.271561 0.172364
0.875627 0.276606 0.179428
0.893335 0.282660 0.185873
0.909467 0.287799 0.190963
0.924375 0.292226 0.194999
0.934767 0.297181 0.198547
0.942449 0.302455 0.201802
0.947311 0.304639 0.202819
0.950891 0.305421 0.202819
0.955106 0.307715 0.204333
0.959533 0.310515 0.206351
0.965282 0.316964 0.210009
0.971337 0.324255 0.214045
0.969929 0.326192 0.198885
0.967455 0.327363 0.180982
0.966934 0.333906 0.173455
0.966544 0.340807 0.166619
0.021821 0.167376 0.133951
0.030479 0.165684 0.126790
0.039841 0.163682 0.119861
0.059762 0.157042 0.116411
0.082644 0.151882 0.113465
0.126261 0.157090 0.114051
0.176372 0.164788 0.114100
0.254622 0.183277 0.111821
0.342084 0.202400 0.110047
0.457181 0.223427 0.109787
0.563835 0.241932 0.113209
0.651915 0.254887 0.124732
0.722199 0.265474 0.134106
0.762821 0.272114 0.139900
0.798517 0.277615 0.146064
0.827877 0.281651 0.152704
0.853493 0.286696 0.159768
0.875367 0.292751 0.167254
0.894494 0.298475 0.172800
0.911485 0.303944 0.176836
0.922007 0.307988 0.179082
0.928647 0.311178 0.180254
0.936048 0.314144 0.180620
0.943795 0.317008 0.180620
0.949833 0.321386 0.182134
0.955302 0.326269 0.184152
0.961246 0.331416 0.187809
0.967300 0.336624 0.191846
0.969538 0.341034 0.186711
0.971231 0.345331 0.180266
0.969994 0.349139 0.171502
0.968562 0.352915 0.162583
0.016902 0.190458 0.145177
0.024518 0.185511 0.134631
0.032709 0.180551 0.124435
0.049504 0.175408 0.119487
0.068652 0.171241 0.114987
0.104262 0.173911 0.113620
0.145584 0.178850 0.111581
0.211660 0.193628 0.106634
0.288283 0.210261 0.103102
0.396544 0.232460 0.103818
0.500818 0.252279 0.107667
0.596320 0.266861 0.118409
0.673952 0.278758 0.126465
0.721800 0.286180 0.130045
0.763440 0.292519 0.134509
0.797097 0.297466 0.140107
0.827173 0.302967 0.146487
0.853668 0.309022 0.153648
0.875221 0.314563 0.158539
0.892928 0.319706 0.161664
0.905061 0.323466 0.163120
0.913849 0.326395 0.163576
0.923533 0.329772 0.164032
0.933623 0.333353 0.164487
0.942054 0.338447 0.166115
0.949931 0.344045 0.168133
0.956327 0.348374 0.171050
0.962381 0.352411 0.174175
0.967069 0.358213 0.174566
0.971560 0.364267 0.174566
0.970804 0.366537 0.167242
0.969697 0.368555 0.159430
0.010847 0.214675 0.155268
0.017422 0.207645 0.143680
0.024441 0.200862 0.132377
0.038112 0.197802 0.125346
0.053744 0.195068 0.118633
0.083104 0.194612 0.114141
0.117396 0.196427 0.109173
0.173056 0.208080 0.102142
0.240304 0.222369 0.098610
0.342316 0.244568 0.105576
0.441317 0.264713 0.112745
0.533694 0.280337 0.120362
0.614060 0.294057 0.126074
0.674407 0.304603 0.128613
0.724445 0.313611 0.132035
0.761226 0.320642 0.136592
0.795469 0.327184 0.141409
0.827173 0.333239 0.146487
0.850418 0.337609 0.149295
0.867083 0.340668 0.150336
0.882732 0.344949 0.151663
0.897770 0.349961 0.153160
0.909406 0.353273 0.154657
0.919497 0.355812 0.156155
0.931052 0.359865 0.158042
0.943095 0.364422 0.160061
0.950273 0.368555 0.161285
0.956327 0.372592 0.162327
0.961926 0.378394 0.162457
0.967459 0.384448 0.162457
0.968720 0.386718 0.160016
0.969697 0.388736 0.157412
0.006811 0.242929 0.168385
0.013386 0.230690 0.152110
0.020340 0.219090 0.136283
0.032969 0.217072 0.127169
0.047950 0.215314 0.118567
0.079394 0.215379 0.113555
0.114108 0.217519 0.108261
0.162998 0.228652 0.101751
0.226210 0.243201 0.099782
0.332388 0.268004 0.111435
0.433765 0.289614 0.121013
0.524580 0.304196 0.126025
0.604360 0.317655 0.129720
0.665749 0.329243 0.131217
0.716145 0.338382 0.133142
0.752405 0.344371 0.135615
0.785867 0.350653 0.138870
0.816529 0.357228 0.142907
0.839611 0.360947 0.144673
0.856797 0.362444 0.144673
0.873618 0.366139 0.145608
0.890218 0.371151 0.147106
0.903059 0.375179 0.148961
0.914191 0.378760 0.150979
0.926788 0.382682 0.152607
0.939873 0.386718 0.154104
0.947246 0.390755 0.154808
0.953300 0.394791 0.155329
0.959354 0.399681 0.154938
0.965409 0.404694 0.154417
0.968655 0.409829 0.154873
0.971715 0.414972 0.155394
0.004793 0.275218 0.184530
0.012410 0.254647 0.159922
0.020405 0.235235 0.136153
0.034076 0.233217 0.124955
0.051270 0.231980 0.114792
0.093130 0.236211 0.111862
0.135721 0.242127 0.108847
0.181487 0.255343 0.105462
0.246001 0.272757 0.106618
0.366761 0.302768 0.121395
0.478164 0.326981 0.132470
0.568978 0.338439 0.135400
0.644852 0.349554 0.137402
0.695825 0.360101 0.137857
0.738539 0.366830 0.137829
0.770633 0.368653 0.137178
0.798366 0.373373 0.138870
0.821737 0.380990 0.142907
0.842801 0.384578 0.144673
0.862070 0.385034 0.144673
0.877719 0.387036 0.144957
0.891195 0.389965 0.145413
0.904491 0.395491 0.146943
0.917706 0.402196 0.148961
0.929262 0.406899 0.149807
0.940264 0.410936 0.150263
0.947246 0.414972 0.151618
0.953300 0.419008 0.153180
0.959354 0.422076 0.152008
0.965409 0.425005 0.150446
0.970608 0.435869 0.151813
0.975751 0.447261 0.153376
0.002775 0.312049 0.204080
0.009090 0.286660 0.172312
0.016369 0.262475 0.141588
0.038112 0.256356 0.126550
0.063525 0.251831 0.112993
0.114629 0.258471 0.109803
0.165684 0.267394 0.107492
0.216527 0.286208 0.108990
0.284247 0.307659 0.114002
0.402599 0.337019 0.129561
0.512528 0.361272 0.141438
0.603929 0.374292 0.145214
0.676922 0.384456 0.147354
0.719237 0.389859 0.146768
0.756027 0.394180 0.145555
0.785712 0.397110 0.143537
0.810060 0.402611 0.143668
0.829069 0.410683 0.145946
0.848737 0.415533 0.146943
0.868918 0.417877 0.146943
0.883688 0.419285 0.146577
0.895210 0.420131 0.145991
0.907315 0.426348 0.146792
0.919684 0.435006 0.148225
0.930344 0.438880 0.148143
0.940435 0.441158 0.147557
0.948198 0.445341 0.149087
0.955424 0.449963 0.151105
0.961112 0.452307 0.149592
0.966580 0.454325 0.147574
0.971499 0.465498 0.149339
0.976382 0.477281 0.151357
0.000757 0.352411 0.226279
0.003947 0.324938 0.188261
0.009142 0.298345 0.151353
0.044427 0.284935 0.131107
0.082730 0.274160 0.112733
0.142166 0.281842 0.107460
0.202140 0.293174 0.104628
0.264440 0.320320 0.112375
0.336848 0.346719 0.121814
0.439576 0.370871 0.136332
0.539089 0.393171 0.148469
0.631531 0.411399 0.155369
0.702441 0.421693 0.159072
0.737465 0.418764 0.157444
0.769698 0.420676 0.155646
0.798342 0.428814 0.153628
0.821127 0.436919 0.152196
0.838053 0.444991 0.151349
0.856810 0.452185 0.150979
0.876991 0.458695 0.150979
0.891109 0.460363 0.149962
0.901590 0.459126 0.148334
0.911221 0.465408 0.148094
0.920465 0.475108 0.148485
0.930344 0.476898 0.147362
0.940435 0.476052 0.145734
0.949890 0.480495 0.147069
0.959200 0.486159 0.149087
0.964237 0.488632 0.147574
0.968664 0.490651 0.145555
0.971565 0.497917 0.147321
0.974364 0.505534 0.149339
0.000000 0.396557 0.251001
0.001367 0.361793 0.205431
0.005049 0.328438 0.161363
0.043458 0.316199 0.139814
0.087246 0.306418 0.120122
0.168686 0.313839 0.113416
0.246489 0.324812 0.109738
0.308529 0.351178 0.119178
0.378951 0.377478 0.129952
0.474518 0.403583 0.144729
0.567196 0.428447 0.157412
0.653519 0.450581 0.165484
0.720311 0.464586 0.170017
0.754554 0.465042 0.168650
0.785891 0.468858 0.166998
0.813494 0.476996 0.164980
0.835042 0.485426 0.163287
0.850535 0.494150 0.161920
0.866835 0.500310 0.160223
0.883761 0.504476 0.158270
0.896008 0.504777 0.155870
0.905447 0.502759 0.153201
0.915290 0.508618 0.152367
0.925315 0.518058 0.152367
0.933925 0.518904 0.151341
0.942062 0.516886 0.149974
0.951257 0.519840 0.150300
0.960697 0.523941 0.151016
0.965409 0.526789 0.149909
0.969445 0.529458 0.148542
0.971589 0.535911 0.149738
0.973607 0.542617 0.151105
0.000000 0.442973 0.277236
0.000325 0.397794 0.223334
0.002836 0.355064 0.171518
0.038120 0.349074 0.151012
0.082950 0.344631 0.132100
0.194596 0.351011 0.124353
0.295574 0.359966 0.119633
0.350323 0.380082 0.128031
0.414756 0.403258 0.138285
0.508240 0.435613 0.154104
0.596231 0.465750 0.167502
0.672137 0.491009 0.175575
0.733591 0.510872 0.180498
0.770959 0.521744 0.180172
0.803598 0.530052 0.179106
0.830159 0.535065 0.177088
0.850666 0.542454 0.175916
0.865118 0.552219 0.175591
0.878032 0.555319 0.172592
0.889750 0.553236 0.167514
0.899393 0.551194 0.163291
0.907791 0.549175 0.159580
0.919456 0.554318 0.158421
0.932606 0.562716 0.158421
0.939653 0.563302 0.158177
0.944666 0.561284 0.157851
0.952429 0.561699 0.156679
0.960827 0.562676 0.155312
0.965409 0.566044 0.154857
0.969445 0.569755 0.154531
0.971589 0.577250 0.154816
0.973607 0.584997 0.155141
0.000000 0.492164 0.307634
0.000716 0.437285 0.244682
0.004114 0.385449 0.184270
0.047731 0.379264 0.161940
0.101031 0.375147 0.141662
0.222117 0.385498 0.135738
0.331546 0.398388 0.132706
0.390462 0.422279 0.142211
0.456424 0.448238 0.152659
0.543528 0.480397 0.165940
0.623430 0.509810 0.177593
0.687488 0.533181 0.185665
0.742710 0.552817 0.190979
0.783202 0.566228 0.191695
0.815890 0.576477 0.191528
0.838545 0.582661 0.190226
0.857652 0.589725 0.189217
0.873211 0.597667 0.188501
0.885694 0.600080 0.185185
0.895784 0.598192 0.179847
0.904613 0.596222 0.174875
0.912686 0.594204 0.170123
0.923936 0.599123 0.169130
0.936630 0.607196 0.169846
0.942294 0.606089 0.168951
0.945614 0.601923 0.167519
0.952795 0.603469 0.166192
0.960868 0.606333 0.164890
0.965409 0.608970 0.164727
0.969445 0.611574 0.164727
0.972260 0.617962 0.164727
0.974994 0.624602 0.164727
0.000000 0.542617 0.339924
0.001758 0.478363 0.267598
0.006978 0.417543 0.198201
0.064136 0.408234 0.172747
0.129285 0.402163 0.150125
0.250371 0.418764 0.147325
0.361557 0.438294 0.147224
0.429847 0.470518 0.158811
0.500757 0.501945 0.169781
0.579528 0.530980 0.178895
0.649796 0.556943 0.187683
0.701355 0.576147 0.195756
0.749936 0.592788 0.201460
0.793553 0.605157 0.203218
0.825720 0.616188 0.204093
0.843167 0.625497 0.203832
0.860711 0.632560 0.202823
0.878354 0.637378 0.201065
0.891748 0.640181 0.197880
0.901838 0.641418 0.193583
0.910668 0.640621 0.188351
0.918740 0.638602 0.182557
0.928558 0.643522 0.181954
0.939169 0.651594 0.183712
0.943531 0.648144 0.181515
0.945809 0.640852 0.178000
0.952795 0.645198 0.177129
0.960868 0.652229 0.176869
0.965409 0.653563 0.176836
0.969445 0.654084 0.176836
0.973237 0.658389 0.176836
0.977013 0.662946 0.176836
0.000000 0.582474 0.372213
0.002018 0.514314 0.290513
0.008378 0.449979 0.212279
0.079857 0.443014 0.186044
0.157245 0.439287 0.162738
0.275987 0.458231 0.159938
0.385563 0.479616 0.159641
0.455415 0.511580 0.170188
0.525609 0.541835 0.180115
0.596829 0.566964 0.188188
0.661904 0.590892 0.196504
0.713463 0.612180 0.205358
0.760287 0.629733 0.211648
0.799216 0.641060 0.213666
0.828861 0.651846 0.214802
0.846568 0.661937 0.214802
0.864113 0.669781 0.214183
0.881495 0.675380 0.212946
0.895214 0.677646 0.210135
0.906086 0.677321 0.206098
0.915697 0.677402 0.201777
0.924550 0.677728 0.197286
0.933180 0.682305 0.196732
0.941708 0.688815 0.197969
0.947111 0.686146 0.195837
0.951473 0.680417 0.192582
0.957580 0.683998 0.191337
0.964090 0.689726 0.190556
0.968436 0.691126 0.191142
0.972472 0.691907 0.191923
0.975776 0.693543 0.191239
0.979031 0.695235 0.190458
0.000000 0.618800 0.404503
0.002018 0.548557 0.313428
0.009289 0.482529 0.226406
0.095351 0.479730 0.200170
0.185108 0.479779 0.176734
0.300725 0.499765 0.172893
0.407567 0.521410 0.171359
0.476377 0.550250 0.179822
0.543967 0.577120 0.188188
0.607896 0.598082 0.196260
0.669260 0.620448 0.204902
0.724986 0.645902 0.214797
0.771679 0.665668 0.221739
0.803318 0.675954 0.223757
0.829773 0.686154 0.224892
0.849563 0.696244 0.224892
0.867628 0.705131 0.224794
0.883968 0.712812 0.224599
0.897818 0.714232 0.222243
0.909732 0.710782 0.218207
0.920384 0.711645 0.215188
0.930279 0.715095 0.212779
0.937802 0.719217 0.212161
0.944247 0.723643 0.212356
0.951473 0.722797 0.210745
0.958960 0.720193 0.208532
0.963960 0.721821 0.206636
0.968387 0.724425 0.204813
0.972472 0.726345 0.206180
0.976508 0.728168 0.208003
0.978835 0.726939 0.206408
0.981049 0.725507 0.204585
0.004919 0.650207 0.438432
0.009476 0.576188 0.335444
0.019774 0.506775 0.237306
0.116187 0.506449 0.211917
0.215245 0.508899 0.188879
0.332816 0.530772 0.182304
0.441366 0.554001 0.178793
0.510827 0.583101 0.188558
0.576448 0.609336 0.197900
0.630546 0.626978 0.205972
0.683810 0.646248 0.214146
0.735239 0.669098 0.222544
0.778100 0.688115 0.228867
0.806678 0.700744 0.231732
0.831583 0.711523 0.233713
0.851764 0.719920 0.234559
0.869504 0.727732 0.234559
0.884803 0.734959 0.233713
0.898783 0.737278 0.231548
0.911738 0.735780 0.228359
0.923431 0.738271 0.226959
0.934368 0.743153 0.226633
0.941948 0.746290 0.226532
0.948002 0.748634 0.226532
0.954936 0.749610 0.225653
0.962162 0.750131 0.224481
0.966796 0.753244 0.223997
0.970832 0.756954 0.223671
0.974128 0.758443 0.224656
0.977318 0.759615 0.225828
0.979409 0.759383 0.224802
0.981427 0.759058 0.223631
0.010973 0.680478 0.472740
0.018655 0.602293 0.357252
0.032469 0.529104 0.247461
0.138256 0.530862 0.223114
0.245907 0.535395 0.200597
0.366602 0.559351 0.190898
0.477887 0.584468 0.185238
0.548390 0.614609 0.197086
0.612188 0.640844 0.207990
0.655870 0.655362 0.216063
0.700020 0.671181 0.223586
0.745200 0.689865 0.229901
0.783373 0.707450 0.235312
0.809868 0.723204 0.239218
0.833601 0.734828 0.242241
0.853782 0.741143 0.244129
0.871001 0.747393 0.244129
0.885258 0.753577 0.242241
0.899369 0.757198 0.240207
0.913365 0.758826 0.238058
0.926100 0.763139 0.238351
0.938079 0.769063 0.240109
