其他预设/【236】赛博朋克风调色预设/【后期菌】视频调色预设/CUBE/Miami 08.cube
# LUT by SparkleStock. Enhanced with VOXCOLOR algorithms.
LUT_3D_SIZE 32
0.000000 0.000000 0.003910
0.022199 0.004036 0.024091
0.044272 0.008072 0.044020
0.064453 0.012109 0.060165
0.085391 0.016397 0.076057
0.111626 0.022451 0.090184
0.142402 0.028884 0.107338
0.192855 0.036956 0.137609
0.247343 0.045029 0.166872
0.313941 0.053101 0.193107
0.379907 0.059282 0.212405
0.444486 0.061300 0.216441
0.510579 0.064831 0.224261
0.579195 0.070886 0.238388
0.637215 0.074291 0.250749
0.681613 0.074291 0.260839
0.718948 0.074291 0.268912
0.749220 0.074291 0.274966
0.776086 0.075426 0.283291
0.800303 0.077445 0.293381
0.821997 0.081985 0.303472
0.842178 0.088040 0.313562
0.858197 0.091319 0.322265
0.872324 0.093337 0.330338
0.880396 0.099896 0.335383
0.886450 0.107968 0.339419
0.897424 0.117680 0.346735
0.909532 0.127771 0.354807
0.914578 0.134330 0.362880
0.918614 0.140384 0.370952
0.924542 0.155898 0.373348
0.930596 0.172043 0.375367
0.010090 0.016145 0.024091
0.035414 0.019139 0.042189
0.060547 0.022199 0.060230
0.082811 0.026235 0.077416
0.106874 0.030784 0.095262
0.143525 0.038922 0.117721
0.183741 0.046656 0.140864
0.239401 0.052646 0.166969
0.297796 0.058374 0.191024
0.364393 0.063322 0.208926
0.431011 0.067354 0.223472
0.497673 0.069372 0.230633
0.560771 0.072123 0.239625
0.617929 0.076094 0.251668
0.668593 0.079695 0.262858
0.710908 0.082819 0.272948
0.745639 0.084903 0.282062
0.772786 0.085944 0.290200
0.797113 0.088707 0.298850
0.819247 0.092808 0.307899
0.838858 0.097479 0.318249
0.856956 0.102492 0.329382
0.870175 0.104730 0.336978
0.881177 0.105706 0.342967
0.890031 0.112005 0.349835
0.898168 0.120077 0.356996
0.906147 0.128943 0.364051
0.914089 0.137992 0.371082
0.918614 0.146243 0.378113
0.922650 0.154381 0.385144
0.926625 0.168072 0.386499
0.930596 0.182134 0.387475
0.019929 0.032163 0.043894
0.047987 0.034116 0.059973
0.075866 0.036204 0.076212
0.101060 0.040305 0.094830
0.128988 0.045155 0.114914
0.176055 0.055245 0.145250
0.225685 0.064189 0.173988
0.286424 0.068160 0.195796
0.348610 0.071659 0.214659
0.415143 0.073742 0.224684
0.482204 0.075825 0.234730
0.550429 0.077908 0.244821
0.610402 0.079943 0.254936
0.656623 0.081896 0.265091
0.700110 0.085615 0.275190
0.740081 0.091604 0.285215
0.772078 0.095575 0.295306
0.796100 0.097528 0.305461
0.817851 0.101751 0.314409
0.837837 0.107740 0.322416
0.855381 0.112509 0.333027
0.871461 0.116545 0.345201
0.882036 0.117941 0.351780
0.890108 0.118136 0.355816
0.899645 0.124142 0.364442
0.909671 0.132084 0.374598
0.914724 0.140238 0.381262
0.918630 0.148440 0.387121
0.922593 0.158466 0.393094
0.926564 0.168751 0.399083
0.928704 0.180441 0.399397
0.930722 0.192224 0.399332
0.025983 0.046290 0.058020
0.050916 0.047202 0.073058
0.076842 0.048377 0.088776
0.117660 0.053520 0.114686
0.160561 0.059282 0.141279
0.218044 0.069372 0.172657
0.276724 0.078120 0.201069
0.340587 0.081049 0.216628
0.404857 0.084028 0.230543
0.470347 0.087153 0.239527
0.534739 0.090277 0.248857
0.596715 0.093402 0.258947
0.651610 0.095697 0.269453
0.694706 0.096608 0.280650
0.733701 0.099286 0.290879
0.767423 0.104233 0.299863
0.794733 0.107163 0.309953
0.815630 0.108074 0.321150
0.834256 0.111256 0.329967
0.851117 0.116203 0.336933
0.866839 0.120581 0.347805
0.881877 0.124618 0.361020
0.892126 0.128162 0.367925
0.900199 0.131482 0.371961
0.908955 0.136706 0.381368
0.917938 0.142565 0.392565
0.921104 0.152021 0.396886
0.922927 0.162306 0.399620
0.925718 0.175326 0.404291
0.928647 0.188737 0.409239
0.930722 0.195739 0.408511
0.932741 0.202315 0.407404
0.031785 0.060921 0.072652
0.053724 0.060791 0.086257
0.077721 0.061056 0.101039
0.132601 0.067240 0.133459
0.189286 0.073897 0.165846
0.258618 0.083857 0.198006
0.327461 0.092352 0.226027
0.394189 0.094501 0.236118
0.460281 0.097154 0.245769
0.524470 0.101320 0.254102
0.585892 0.105364 0.262984
0.641227 0.109140 0.273074
0.690800 0.111500 0.283824
0.730772 0.111500 0.295672
0.765218 0.113152 0.305811
0.792560 0.116928 0.313753
0.815312 0.118816 0.323714
0.833475 0.118816 0.335692
0.849587 0.121232 0.344704
0.864105 0.125529 0.351410
0.877971 0.129744 0.362347
0.891447 0.133911 0.375822
0.901208 0.139465 0.383077
0.909280 0.145649 0.387504
0.917255 0.150418 0.397399
0.925197 0.154714 0.409117
0.926580 0.165887 0.410679
0.926450 0.178647 0.409898
0.928314 0.194026 0.413218
0.930462 0.209781 0.417124
0.932488 0.213390 0.415842
0.934506 0.216189 0.414215
0.035821 0.079084 0.090814
0.055677 0.077912 0.100254
0.077917 0.077266 0.111195
0.135921 0.084492 0.144656
0.198075 0.091929 0.177825
0.289280 0.100848 0.208943
0.376091 0.108693 0.236118
0.443860 0.111882 0.246208
0.509953 0.115577 0.256380
0.571016 0.120785 0.266796
0.627361 0.124894 0.277110
0.673321 0.126587 0.287201
0.715864 0.127645 0.297169
0.752711 0.127645 0.306934
0.782209 0.128385 0.315446
0.802260 0.130078 0.322347
0.821367 0.130924 0.331265
0.839530 0.130924 0.342202
0.857399 0.134513 0.353688
0.875042 0.140893 0.365602
0.886825 0.146540 0.375236
0.895092 0.151748 0.383504
0.903226 0.158344 0.391279
0.911298 0.165570 0.398831
0.918492 0.172161 0.407164
0.925392 0.178541 0.415757
0.925734 0.194336 0.411656
0.924562 0.212303 0.404625
0.927207 0.225600 0.406252
0.930397 0.238229 0.409117
0.932488 0.247502 0.410700
0.934506 0.256551 0.412197
0.039101 0.097626 0.108221
0.057459 0.095803 0.114666
0.078527 0.094598 0.122901
0.140242 0.102671 0.157990
0.207669 0.110743 0.192330
0.315084 0.118816 0.221429
0.415700 0.126168 0.246709
0.486854 0.130399 0.255432
0.554607 0.134989 0.264953
0.612156 0.140653 0.276866
0.663642 0.144546 0.288088
0.701790 0.144546 0.297788
0.738205 0.144620 0.307024
0.771732 0.144815 0.315487
0.797027 0.145010 0.322981
0.811740 0.145206 0.329231
0.827982 0.145596 0.337401
0.845755 0.146182 0.347492
0.864442 0.150869 0.360878
0.883842 0.158746 0.376827
0.893762 0.165362 0.385453
0.897993 0.171221 0.389684
0.904597 0.178870 0.397273
0.912279 0.187333 0.406387
0.918740 0.195503 0.413499
0.924794 0.203576 0.419944
0.924766 0.223126 0.410997
0.923334 0.245325 0.398497
0.926174 0.256758 0.396992
0.929624 0.266654 0.397057
0.931731 0.280333 0.400479
0.933750 0.294264 0.404124
0.039101 0.117807 0.122347
0.058500 0.117025 0.130875
0.080936 0.116798 0.141324
0.148900 0.124870 0.180579
0.220754 0.132942 0.217784
0.319836 0.141015 0.240634
0.416221 0.148562 0.259468
0.500916 0.153835 0.260900
0.577522 0.158685 0.264693
0.629863 0.162266 0.275564
0.677443 0.164727 0.285419
0.714550 0.164727 0.293035
0.748752 0.165191 0.301751
0.778112 0.166428 0.312297
0.802431 0.167665 0.321419
0.820268 0.168902 0.328710
0.837031 0.171376 0.337401
0.852720 0.175086 0.347492
0.868153 0.180555 0.360292
0.883387 0.187390 0.375200
0.892395 0.192965 0.384086
0.897668 0.197782 0.389359
0.903165 0.206538 0.393692
0.908763 0.217084 0.397598
0.914704 0.225775 0.404971
0.920758 0.233847 0.413499
0.923268 0.253398 0.403250
0.924961 0.275597 0.388667
0.925457 0.286119 0.377787
0.925783 0.294972 0.367437
0.927695 0.307610 0.368254
0.929713 0.320499 0.369817
0.040614 0.139501 0.138997
0.061056 0.139762 0.149087
0.084646 0.140543 0.161114
0.155475 0.149136 0.202192
0.229022 0.157566 0.240406
0.321594 0.164858 0.258569
0.414691 0.171819 0.272472
0.510063 0.177353 0.267915
0.594286 0.182072 0.266629
0.645064 0.184351 0.275157
0.691000 0.185836 0.282994
0.726284 0.185576 0.289308
0.758175 0.186170 0.297698
0.784410 0.188188 0.309546
0.807769 0.190206 0.319743
0.827429 0.192224 0.327815
0.844583 0.196521 0.336897
0.859230 0.203096 0.346987
0.872010 0.208938 0.358762
0.883338 0.214212 0.371847
0.891369 0.219200 0.381189
0.897424 0.224017 0.388285
0.902270 0.233668 0.390860
0.906566 0.245516 0.391381
0.911986 0.254533 0.398493
0.917780 0.262605 0.407803
0.921722 0.281309 0.395796
0.925238 0.302467 0.378870
0.923456 0.311947 0.358583
0.920917 0.319759 0.337816
0.922406 0.330134 0.334077
0.924164 0.340680 0.331473
0.046669 0.165736 0.163214
0.068152 0.167038 0.173304
0.092263 0.168926 0.185006
0.155801 0.179603 0.220876
0.222837 0.189465 0.254533
0.314368 0.193632 0.272696
0.407009 0.197664 0.286208
0.504464 0.201114 0.279568
0.592593 0.204532 0.275157
0.652745 0.207852 0.277436
0.703825 0.209728 0.281301
0.734942 0.208426 0.288657
0.764229 0.208369 0.297308
0.790464 0.210387 0.308114
0.812912 0.212405 0.317725
0.830489 0.214423 0.325797
0.847643 0.219761 0.334878
0.864373 0.228420 0.344969
0.876307 0.233416 0.354400
0.884510 0.235564 0.363319
0.891369 0.241334 0.373702
0.897424 0.249276 0.384965
0.902986 0.259187 0.390274
0.908324 0.269994 0.392878
0.913223 0.278750 0.398168
0.917975 0.286822 0.404352
0.920030 0.302141 0.389221
0.921462 0.319132 0.369170
0.917597 0.327180 0.339378
0.912975 0.333951 0.308196
0.913357 0.338402 0.294040
0.914073 0.342699 0.281020
0.053354 0.195125 0.189323
0.075553 0.198120 0.198762
0.099697 0.201480 0.209305
0.153013 0.210334 0.236386
0.211018 0.218577 0.262068
0.301832 0.222548 0.277953
0.393794 0.226275 0.289345
0.490728 0.228944 0.281273
0.579996 0.231467 0.274388
0.646268 0.233550 0.271068
0.701371 0.234657 0.271207
0.731903 0.233615 0.278953
0.761068 0.233843 0.287457
0.787954 0.236187 0.297222
0.810568 0.238103 0.306531
0.827689 0.239470 0.315255
0.845006 0.244874 0.324011
0.862518 0.254313 0.332799
0.874500 0.258992 0.340599
0.882182 0.259969 0.347630
0.889050 0.266641 0.358485
0.895430 0.276732 0.371636
0.901362 0.285927 0.378744
0.907091 0.294716 0.383105
0.911795 0.302479 0.387467
0.916156 0.309900 0.391829
0.917768 0.322770 0.378048
0.918744 0.336897 0.360080
0.913569 0.342821 0.324568
0.907514 0.347573 0.286550
0.906526 0.347870 0.262508
0.905875 0.347870 0.239397
0.061426 0.231451 0.219594
0.083625 0.237570 0.226951
0.106727 0.243210 0.234498
0.143379 0.241647 0.244914
0.186800 0.241558 0.255102
0.277615 0.251778 0.263696
0.368405 0.260974 0.269164
0.459089 0.265726 0.261092
0.543410 0.268249 0.253166
0.608640 0.264082 0.245679
0.665306 0.261869 0.242628
0.703129 0.263952 0.249333
0.737632 0.266523 0.256795
0.766601 0.269909 0.265518
0.791754 0.271500 0.275153
0.812000 0.270783 0.285960
0.829838 0.274104 0.293674
0.845266 0.281460 0.298296
0.859267 0.286985 0.306031
0.872157 0.291086 0.316187
0.881629 0.298931 0.326261
0.889050 0.309022 0.336286
0.894592 0.315353 0.343134
0.899279 0.319975 0.348537
0.904503 0.325134 0.353941
0.909907 0.330472 0.359344
0.914252 0.342951 0.356760
0.918353 0.357078 0.352333
0.913569 0.359356 0.319425
0.907514 0.359942 0.282449
0.904573 0.359979 0.249683
0.901838 0.359979 0.217198
0.069498 0.270804 0.252893
0.091697 0.275361 0.255823
0.114076 0.279226 0.258471
0.139139 0.272716 0.256909
0.171347 0.268688 0.255851
0.253569 0.282034 0.258325
0.336351 0.293792 0.257430
0.421567 0.298675 0.241936
0.502112 0.300416 0.227109
0.568644 0.292734 0.214285
0.628117 0.288714 0.207238
0.672060 0.292751 0.212901
0.710876 0.296347 0.218882
0.741147 0.299212 0.225392
0.768400 0.300111 0.234352
0.791771 0.298483 0.246460
0.811105 0.300306 0.253914
0.826404 0.305579 0.256714
0.842398 0.311292 0.264530
0.858933 0.317346 0.276248
0.870424 0.324947 0.285199
0.878887 0.333475 0.292490
0.885112 0.338601 0.299737
0.890320 0.342182 0.306963
0.895870 0.345811 0.313017
0.901533 0.349457 0.318681
0.907832 0.360984 0.324926
0.914277 0.374329 0.331306
0.912519 0.375940 0.307496
0.909589 0.375875 0.279373
0.905622 0.374773 0.241301
0.901586 0.373601 0.202567
0.077571 0.315202 0.291237
0.099770 0.310385 0.285834
0.121953 0.305722 0.280410
0.143891 0.303378 0.274681
0.170501 0.302735 0.269457
0.229807 0.313998 0.267764
0.293190 0.323478 0.259773
0.374240 0.325236 0.224489
0.452962 0.324894 0.192997
0.524702 0.318254 0.172881
0.589057 0.314950 0.160496
0.637166 0.318986 0.165118
0.678586 0.321411 0.168886
0.708858 0.321150 0.171229
0.737477 0.320748 0.177845
0.763973 0.320162 0.189954
0.786432 0.321464 0.198449
0.804856 0.324654 0.203332
0.822803 0.329455 0.211473
0.840380 0.335509 0.222150
0.852912 0.340506 0.229408
0.862416 0.344867 0.234616
0.871115 0.351556 0.243360
0.879448 0.359303 0.253711
0.884998 0.363193 0.259765
0.889620 0.365797 0.264387
0.896569 0.375436 0.275515
0.904056 0.386698 0.288145
0.909720 0.392606 0.284255
0.915123 0.397749 0.278005
0.911677 0.394042 0.240325
0.907640 0.389746 0.200549
0.086526 0.357834 0.327815
0.108269 0.349111 0.317725
0.129915 0.340933 0.307760
0.150096 0.340933 0.299688
0.172645 0.341454 0.291152
0.211770 0.345620 0.279368
0.256950 0.349091 0.261775
0.328364 0.349546 0.219005
0.400935 0.348830 0.179733
0.476971 0.344599 0.150959
0.545013 0.342951 0.131299
0.595466 0.346987 0.131689
0.639717 0.349095 0.131762
0.673634 0.347988 0.131307
0.704874 0.346967 0.134753
0.732672 0.346055 0.143216
0.758028 0.346836 0.149791
0.780944 0.349310 0.154478
0.800929 0.352260 0.161692
0.818637 0.355580 0.170871
0.833577 0.358656 0.177406
0.846857 0.361586 0.182353
0.857945 0.368185 0.190971
0.868035 0.376453 0.201257
0.875294 0.380717 0.207881
0.881609 0.383646 0.213284
0.888981 0.390913 0.225934
0.896598 0.399181 0.240256
0.906379 0.406480 0.247742
0.916470 0.413641 0.254252
0.915025 0.409695 0.226218
0.912812 0.405007 0.195882
0.096617 0.398196 0.362123
0.117318 0.392598 0.352032
0.137988 0.387349 0.342068
0.158169 0.387349 0.333996
0.178634 0.386177 0.323246
0.201094 0.376803 0.293756
0.229608 0.369467 0.263338
0.284357 0.370964 0.228900
0.345209 0.372071 0.193274
0.424371 0.372006 0.154084
0.494561 0.373222 0.124658
0.545013 0.377259 0.116716
0.592390 0.380147 0.111191
0.634640 0.381124 0.109693
0.670111 0.380363 0.108908
0.696867 0.377368 0.109038
0.724827 0.377629 0.109885
0.753992 0.381144 0.111447
0.776126 0.381034 0.116122
0.792792 0.378105 0.123218
0.811899 0.380139 0.130273
0.832470 0.385152 0.137304
0.845836 0.389538 0.143708
0.855927 0.393639 0.149828
0.867091 0.398424 0.157754
0.878614 0.403437 0.166282
0.886117 0.407709 0.176132
0.892692 0.411810 0.186288
0.902343 0.416766 0.194165
0.912433 0.421844 0.201716
0.914895 0.420697 0.195231
0.916848 0.419134 0.187809
0.103680 0.439567 0.395421
0.126986 0.430323 0.379602
0.150031 0.421624 0.363974
0.169170 0.421103 0.351214
0.188204 0.419020 0.335517
0.206497 0.406000 0.299257
0.229770 0.395897 0.264705
0.274624 0.398436 0.237558
0.328446 0.400454 0.205838
0.409170 0.400910 0.160398
0.480434 0.402485 0.125049
0.530886 0.406521 0.111899
0.579044 0.409605 0.102728
0.623377 0.411102 0.100189
0.659565 0.409495 0.096539
0.685279 0.403897 0.091461
0.713760 0.402855 0.088923
0.745008 0.406370 0.088923
0.768347 0.405382 0.092328
0.785533 0.400890 0.098382
0.805812 0.401687 0.105372
0.827946 0.405658 0.112924
0.842516 0.409361 0.118775
0.853648 0.412941 0.123853
0.866245 0.418377 0.132299
0.879330 0.424432 0.141869
0.887549 0.426783 0.149376
0.894645 0.428281 0.156407
0.902538 0.431088 0.163893
0.910545 0.434083 0.171445
0.915806 0.436223 0.176189
0.920884 0.438306 0.180746
0.107716 0.481947 0.427711
0.137271 0.462287 0.400434
0.166046 0.443758 0.373479
0.183102 0.442196 0.351345
0.201354 0.439982 0.327966
0.227980 0.433212 0.295871
0.257438 0.428382 0.265877
0.299167 0.431963 0.244979
0.350645 0.433981 0.217426
0.431369 0.431312 0.169903
0.502633 0.430738 0.132470
0.553085 0.434774 0.117237
0.599681 0.437468 0.106373
0.639848 0.437924 0.102793
0.673236 0.434363 0.097646
0.697909 0.425640 0.090485
0.724827 0.422515 0.086904
0.753992 0.424989 0.086904
0.777591 0.425302 0.090310
0.796861 0.423935 0.096364
0.815316 0.423301 0.102703
0.833284 0.423105 0.109213
0.847984 0.427654 0.116171
0.861200 0.434359 0.123332
0.872755 0.440576 0.131518
0.883757 0.446631 0.140046
0.893278 0.448136 0.145665
0.902457 0.448592 0.150613
0.906965 0.449446 0.156928
0.910806 0.450358 0.163438
0.917759 0.456274 0.169093
0.924920 0.462523 0.174692
0.112887 0.523192 0.458865
0.144005 0.501319 0.427162
0.174407 0.480247 0.395067
0.194067 0.471198 0.357114
0.215640 0.462190 0.319389
0.250598 0.453466 0.283258
0.286900 0.447904 0.251156
0.329019 0.456042 0.236508
0.378886 0.461722 0.215318
0.451993 0.460029 0.174501
0.518753 0.460127 0.141210
0.571549 0.464163 0.124479
0.617388 0.465367 0.111411
0.651631 0.461852 0.104445
0.681743 0.456229 0.096995
0.706547 0.447896 0.088923
0.732489 0.444446 0.084886
0.759570 0.445878 0.084886
0.783100 0.446834 0.087962
0.803867 0.447420 0.093431
0.822111 0.446745 0.099998
0.838842 0.445312 0.107224
0.852977 0.449206 0.113420
0.865932 0.455521 0.119149
0.876738 0.461201 0.127075
0.886829 0.466669 0.135733
0.896919 0.468647 0.141112
0.907010 0.469819 0.145734
0.911062 0.469452 0.151097
0.914252 0.468866 0.156565
0.920921 0.474201 0.162034
0.927821 0.479929 0.167502
0.118942 0.563554 0.489137
0.147976 0.545847 0.458475
0.176816 0.527900 0.426055
0.202725 0.506352 0.367270
0.230808 0.485365 0.310014
0.274099 0.468309 0.263468
0.317757 0.457344 0.224074
0.363002 0.472772 0.215676
0.411827 0.484962 0.202559
0.471393 0.487436 0.175282
0.530146 0.490398 0.150975
0.587108 0.494434 0.133203
0.632817 0.493295 0.117530
0.659768 0.483530 0.105356
0.686235 0.475759 0.094977
0.712080 0.470551 0.086904
0.737502 0.468142 0.082868
0.762500 0.468533 0.082868
0.785704 0.469619 0.085358
0.807513 0.471247 0.089785
0.826798 0.471613 0.097263
0.844571 0.471222 0.106573
0.857599 0.473293 0.110556
0.868471 0.476483 0.112118
0.878756 0.480601 0.119784
0.888847 0.485028 0.129484
0.898937 0.488502 0.135904
0.909028 0.491757 0.141568
0.914903 0.490740 0.146149
0.920176 0.489113 0.150576
0.925022 0.490476 0.155003
0.929839 0.492038 0.159430
0.127519 0.600132 0.518147
0.155121 0.583988 0.485272
0.182927 0.567578 0.450573
0.213784 0.547202 0.388533
0.247156 0.525711 0.326314
0.298129 0.496416 0.262841
0.347516 0.475043 0.209646
0.390026 0.487998 0.200988
0.435368 0.499048 0.189433
0.489206 0.504387 0.169187
0.543084 0.509928 0.150609
0.597052 0.515917 0.135701
0.641084 0.516829 0.121574
0.668557 0.509277 0.108750
0.695772 0.503833 0.098574
0.722659 0.501099 0.091803
0.748211 0.499732 0.088092
0.772428 0.499732 0.087441
0.794045 0.499769 0.087962
0.813640 0.499834 0.089394
0.831526 0.499044 0.093797
0.848387 0.497742 0.099981
0.861936 0.499618 0.104599
0.873980 0.502938 0.108505
0.884558 0.505331 0.116073
0.894649 0.507414 0.124862
0.903682 0.510026 0.131958
0.912470 0.512760 0.138663
0.918866 0.512475 0.142463
0.924920 0.511759 0.145848
0.928472 0.512935 0.149844
0.931858 0.514237 0.153880
0.137609 0.634440 0.546401
0.164170 0.618295 0.509359
0.191260 0.602472 0.471210
0.226284 0.591470 0.416461
0.264212 0.576359 0.358017
0.322477 0.532481 0.273713
0.376616 0.497698 0.202811
0.412876 0.502320 0.189986
0.453271 0.507642 0.176087
0.506067 0.515063 0.158966
0.556951 0.523013 0.144164
0.603627 0.532127 0.134464
0.645056 0.537726 0.124374
0.677736 0.537466 0.113632
0.708337 0.537034 0.105539
0.736265 0.536383 0.100852
0.762337 0.536058 0.097662
0.786554 0.536058 0.095970
0.805828 0.534337 0.093691
0.821257 0.531277 0.090957
0.836279 0.528014 0.089891
0.851056 0.524629 0.089826
0.866103 0.527286 0.096787
0.881271 0.532689 0.106943
0.892631 0.533258 0.114511
0.902721 0.532217 0.121216
0.910061 0.532551 0.128768
0.916767 0.533202 0.136515
0.922902 0.534479 0.139534
0.928957 0.535846 0.141877
0.931532 0.539105 0.145808
0.933876 0.542490 0.149844
0.144925 0.665973 0.571879
0.173308 0.649828 0.534251
0.202233 0.634098 0.495293
0.239275 0.624594 0.436377
0.278986 0.610402 0.373475
0.337381 0.563400 0.282660
0.391662 0.525857 0.206225
0.428118 0.529308 0.192098
0.468040 0.533197 0.177288
0.518363 0.538405 0.160427
0.566834 0.544244 0.145865
0.611232 0.551470 0.136360
0.651846 0.557012 0.127441
0.686154 0.559746 0.119499
0.716560 0.561284 0.112639
0.741949 0.561284 0.107171
0.766752 0.561642 0.102712
0.790969 0.562358 0.099261
0.809913 0.562012 0.095481
0.824756 0.560841 0.091445
0.838704 0.558326 0.089118
0.852114 0.555006 0.087816
0.867897 0.557638 0.094749
0.884758 0.562977 0.105425
0.896004 0.562798 0.111561
0.905378 0.560779 0.116183
0.912637 0.560401 0.123027
0.919407 0.560401 0.130383
0.925551 0.561540 0.134322
0.931605 0.562842 0.137772
0.933876 0.566708 0.141772
0.935894 0.570744 0.145808
0.150979 0.696244 0.596096
0.182487 0.680100 0.559510
0.214407 0.664240 0.520942
0.252490 0.652652 0.452652
0.292722 0.636898 0.381547
0.347992 0.591979 0.290733
0.400320 0.556520 0.214297
0.439901 0.562053 0.200170
0.481386 0.566464 0.185100
0.528583 0.567505 0.167197
0.574906 0.569177 0.151268
0.619304 0.572237 0.139680
0.659919 0.575565 0.130631
0.694226 0.579341 0.125814
0.722809 0.581465 0.119800
0.744032 0.581465 0.112249
0.766752 0.582344 0.105706
0.790969 0.584102 0.100173
0.810499 0.586555 0.095481
0.826383 0.589550 0.091445
0.840071 0.589249 0.089769
0.852440 0.586970 0.089508
0.868613 0.589212 0.095335
0.886515 0.593509 0.103928
0.897241 0.593069 0.107981
0.905573 0.591051 0.110519
0.913483 0.590673 0.116126
0.921295 0.590673 0.122441
0.927569 0.590900 0.128072
0.933623 0.591161 0.133606
0.935894 0.594961 0.137735
0.937912 0.598997 0.141772
0.160061 0.720462 0.614259
0.192350 0.705879 0.580277
0.225067 0.691549 0.543955
0.264192 0.681003 0.472541
0.304847 0.666323 0.398213
0.356211 0.622706 0.303492
0.405365 0.587816 0.223883
0.444946 0.590746 0.209756
0.486236 0.592748 0.194621
0.532652 0.591966 0.176458
0.578682 0.592060 0.160187
0.623861 0.594078 0.148078
0.664671 0.596560 0.138411
0.698197 0.599815 0.132812
0.726911 0.602330 0.126131
0.749435 0.603892 0.118059
0.771634 0.606073 0.110995
0.793508 0.608872 0.104941
0.812598 0.611488 0.099583
0.829524 0.613962 0.094765
0.843928 0.614117 0.092470
0.856818 0.612880 0.091689
0.871721 0.615268 0.095921
0.887541 0.619304 0.102431
0.898136 0.618800 0.104986
0.906989 0.616782 0.106223
0.915208 0.617038 0.110739
0.923281 0.617819 0.116012
0.928904 0.619284 0.121285
0.934177 0.620846 0.126558
0.937863 0.623996 0.132869
0.941444 0.627251 0.139249
0.170151 0.742661 0.630404
0.202441 0.730162 0.599547
0.235223 0.717915 0.566089
0.275389 0.709452 0.493633
0.316435 0.696725 0.417743
0.363632 0.654149 0.317814
0.409206 0.619325 0.233973
0.447746 0.618088 0.219847
0.488254 0.616704 0.204711
0.534670 0.614882 0.186548
0.581026 0.614259 0.170277
0.627247 0.616277 0.158169
0.668317 0.618369 0.147720
0.700801 0.620582 0.140038
0.730296 0.623422 0.132186
0.755945 0.627068 0.124113
0.778144 0.630811 0.117050
0.796893 0.634652 0.110995
0.815202 0.636552 0.105051
0.833170 0.636942 0.099192
0.848615 0.636967 0.095856
0.862546 0.636772 0.094033
0.875627 0.639485 0.096507
0.888322 0.643522 0.100933
0.898917 0.643017 0.102187
0.908812 0.640999 0.102382
0.917226 0.642102 0.105857
0.925299 0.643924 0.110088
0.930010 0.647342 0.114320
0.934242 0.650988 0.118551
0.939816 0.653291 0.127726
0.945480 0.655504 0.137231
0.183521 0.764860 0.648188
0.214118 0.749366 0.614532
0.245325 0.734495 0.578544
0.285687 0.728961 0.507585
0.326912 0.718822 0.432565
0.374174 0.676442 0.329121
0.419447 0.641788 0.242742
0.456099 0.640616 0.230308
0.494345 0.638598 0.216441
0.537376 0.634041 0.198278
0.582258 0.631804 0.181743
0.631214 0.634668 0.168788
0.673602 0.637850 0.157347
0.705045 0.641560 0.148428
0.734580 0.645784 0.139509
0.761662 0.650666 0.130591
0.783861 0.654279 0.122681
0.801177 0.656623 0.115780
0.818494 0.658600 0.109832
0.835811 0.660293 0.104624
0.851663 0.662515 0.101410
0.866636 0.665053 0.099391
0.878476 0.666294 0.098626
0.888892 0.666945 0.098431
0.899063 0.668768 0.099017
0.909154 0.670982 0.099863
0.916917 0.675099 0.105364
0.924143 0.679656 0.111939
0.930059 0.683017 0.119255
0.935788 0.686207 0.126676
0.941822 0.688298 0.135013
0.947876 0.690316 0.143411
0.197648 0.787059 0.666351
0.226161 0.767399 0.628528
0.255416 0.748817 0.588764
0.295778 0.746408 0.519889
0.337133 0.739003 0.446301
0.385437 0.696623 0.339732
0.431165 0.662165 0.251205
0.465733 0.662034 0.240854
0.501376 0.660016 0.228550
0.540240 0.652334 0.210387
0.583235 0.648274 0.193526
0.635315 0.652180 0.179530
0.679266 0.656794 0.167047
0.709667 0.662588 0.157086
0.739072 0.668439 0.147126
0.767195 0.674363 0.137166
0.789394 0.677455 0.128214
0.805669 0.677715 0.120272
0.821944 0.679953 0.114454
0.838219 0.683729 0.110288
0.854332 0.688685 0.107464
0.870346 0.694348 0.105446
