其他预设/【236】赛博朋克风调色预设/【后期菌】视频调色预设/CUBE/Miami 09_S.cube
# LUT by SparkleStock. Enhanced with VOXCOLOR algorithms.
LUT_3D_SIZE 32
0.070381 0.011730 0.015640
0.080472 0.013748 0.021695
0.090310 0.015640 0.027623
0.096364 0.015640 0.031659
0.102671 0.015640 0.035191
0.110743 0.015640 0.035191
0.121086 0.016397 0.036326
0.141267 0.020433 0.042380
0.163971 0.024974 0.048939
0.194242 0.031028 0.057011
0.230190 0.038975 0.063822
0.278624 0.051083 0.067859
0.333113 0.064705 0.077949
0.397692 0.080850 0.098130
0.456091 0.096112 0.116545
0.506543 0.110239 0.132690
0.551950 0.123356 0.145808
0.592312 0.135465 0.155898
0.625863 0.144168 0.164854
0.654117 0.150222 0.172926
0.682370 0.156277 0.184782
0.710623 0.162331 0.198909
0.727777 0.166998 0.206098
0.739886 0.171034 0.210135
0.750481 0.176584 0.214171
0.760571 0.182638 0.218207
0.770662 0.188692 0.222243
0.780752 0.194747 0.226279
0.789077 0.197269 0.228550
0.797149 0.199287 0.230568
0.805222 0.203197 0.230694
0.813294 0.207234 0.230694
0.076436 0.017785 0.021695
0.086526 0.018761 0.027749
0.096364 0.019676 0.033612
0.102419 0.019676 0.036607
0.109506 0.019807 0.039487
0.123828 0.020848 0.041570
0.139639 0.022256 0.044398
0.161904 0.025251 0.050452
0.188774 0.029791 0.056230
0.229461 0.038970 0.061178
0.274848 0.050042 0.068770
0.330574 0.065275 0.082181
0.385713 0.080069 0.095787
0.439877 0.094131 0.109718
0.491049 0.107765 0.123706
0.538377 0.120850 0.137768
0.579618 0.131884 0.149323
0.614772 0.140868 0.158372
0.645458 0.148204 0.166286
0.672670 0.154259 0.173317
0.697929 0.159662 0.183480
0.722016 0.164675 0.195524
0.737868 0.169016 0.203494
0.749976 0.173052 0.209614
0.760571 0.179383 0.214171
0.770662 0.186479 0.218207
0.780752 0.192729 0.223936
0.790843 0.198783 0.230055
0.799168 0.202217 0.233497
0.807240 0.205277 0.236557
0.813359 0.207299 0.236748
0.819349 0.209252 0.236748
0.082238 0.023713 0.027623
0.092328 0.023713 0.033677
0.102191 0.023713 0.039479
0.108636 0.023713 0.041497
0.116822 0.023981 0.043776
0.137198 0.026130 0.047877
0.158417 0.028278 0.052332
0.183285 0.030426 0.058321
0.214631 0.035113 0.063432
0.265409 0.047417 0.065906
0.319726 0.061532 0.074442
0.381832 0.079629 0.096315
0.437199 0.095457 0.113014
0.481337 0.107500 0.121086
0.525475 0.119515 0.130867
0.569613 0.131494 0.142846
0.606687 0.140445 0.152773
0.636698 0.146369 0.160651
0.664512 0.152293 0.167502
0.690617 0.158217 0.173557
0.713061 0.163002 0.182174
0.733307 0.167104 0.192330
0.747958 0.171205 0.200964
0.760067 0.175306 0.208906
0.770808 0.182337 0.214114
0.781094 0.190344 0.218410
0.791063 0.196712 0.225775
0.800958 0.202701 0.233847
0.809144 0.206981 0.238445
0.817086 0.211018 0.242546
0.821306 0.211392 0.242803
0.825277 0.211522 0.242803
0.084256 0.027749 0.031659
0.094346 0.027749 0.037713
0.104599 0.027749 0.043515
0.117294 0.027749 0.045533
0.131339 0.028278 0.047942
0.154840 0.032509 0.053085
0.180551 0.036741 0.058191
0.215835 0.040972 0.063139
0.256295 0.048003 0.069291
0.312281 0.063432 0.079056
0.367900 0.079369 0.090977
0.422715 0.096425 0.107643
0.471963 0.111211 0.121086
0.511934 0.122213 0.129158
0.551906 0.132731 0.138028
0.591877 0.142626 0.147923
0.624785 0.149494 0.155247
0.650630 0.153335 0.160000
0.675449 0.157176 0.165484
0.699471 0.161017 0.171538
0.721784 0.165671 0.180807
0.743072 0.170814 0.192004
0.758049 0.175957 0.199531
0.770157 0.181100 0.205390
0.783242 0.187610 0.213202
0.796653 0.194576 0.221665
0.804668 0.199902 0.229811
0.811439 0.204849 0.237884
0.817412 0.208999 0.243393
0.823271 0.213036 0.248536
0.826383 0.215363 0.248857
0.829313 0.217576 0.248857
0.086022 0.032290 0.035443
0.096112 0.032159 0.041367
0.106715 0.032037 0.047055
0.125008 0.032037 0.049203
0.144555 0.032810 0.051856
0.172873 0.038995 0.058041
0.204304 0.045253 0.063944
0.249223 0.051828 0.068632
0.297853 0.061332 0.076086
0.357615 0.079625 0.091840
0.413633 0.097166 0.106414
0.461417 0.113050 0.118392
0.504903 0.126664 0.128857
0.541229 0.136494 0.136800
0.577099 0.145498 0.144628
0.612383 0.153441 0.152310
0.641060 0.158421 0.157225
0.663129 0.160439 0.159373
0.685344 0.162604 0.163792
0.707674 0.164882 0.169976
0.729759 0.169358 0.179538
0.751697 0.175152 0.191125
0.767057 0.181124 0.197790
0.779426 0.187179 0.202217
0.794627 0.193135 0.212405
0.810772 0.199060 0.224514
0.816761 0.203450 0.232920
0.820406 0.207486 0.240471
0.824394 0.211636 0.247054
0.828430 0.215802 0.253499
0.830818 0.219969 0.254024
0.833097 0.224135 0.254154
0.086022 0.040362 0.037461
0.096112 0.039190 0.042343
0.106780 0.038092 0.047120
0.126115 0.038092 0.050310
0.148656 0.038995 0.054005
0.193640 0.046221 0.061231
0.239393 0.054106 0.068957
0.288478 0.064848 0.078852
0.338671 0.077738 0.089431
0.392183 0.097072 0.102061
0.442277 0.114678 0.114161
0.484853 0.128479 0.125098
0.525084 0.140010 0.134521
0.561410 0.147757 0.141422
0.593635 0.155133 0.147297
0.620586 0.162034 0.151854
0.644575 0.166493 0.155727
0.665603 0.168511 0.158917
0.687948 0.171848 0.164377
0.711319 0.176209 0.171604
0.732493 0.180164 0.178952
0.752348 0.183875 0.186373
0.768489 0.189197 0.193884
0.782941 0.195251 0.201436
0.798663 0.200427 0.212405
0.814808 0.205309 0.224514
0.818258 0.209504 0.229534
0.818779 0.213540 0.232920
0.822376 0.218602 0.241716
0.826412 0.223810 0.251286
0.830753 0.229018 0.252983
0.835115 0.234226 0.254154
0.086022 0.048434 0.039479
0.096307 0.046416 0.043711
0.107224 0.044537 0.047942
0.127600 0.044732 0.052174
0.152672 0.045839 0.056885
0.210611 0.053325 0.064958
0.267927 0.062240 0.074165
0.322546 0.077343 0.088292
0.375521 0.093716 0.101410
0.423565 0.113897 0.111500
0.468272 0.131433 0.121407
0.505640 0.143151 0.130912
0.542177 0.152891 0.139050
0.577331 0.159336 0.144909
0.606020 0.165525 0.149002
0.626396 0.171384 0.150824
0.646577 0.175518 0.153754
0.666563 0.177926 0.157790
0.689039 0.182166 0.163987
0.713451 0.187830 0.171864
0.734080 0.191215 0.177585
0.752438 0.193233 0.182011
0.769006 0.197758 0.189929
0.784760 0.203421 0.199434
0.800954 0.208011 0.210891
0.817294 0.212242 0.223000
0.818877 0.215998 0.225270
0.817054 0.219643 0.225270
0.819503 0.224713 0.235011
0.822563 0.229986 0.246143
0.828430 0.235808 0.249097
0.834484 0.241667 0.251506
0.086022 0.056507 0.041497
0.097349 0.054489 0.046770
0.109307 0.052674 0.052043
0.130725 0.053911 0.057316
0.156317 0.055538 0.062939
0.211131 0.059900 0.071012
0.268057 0.067252 0.080219
0.334134 0.087564 0.094346
0.395181 0.107842 0.107464
0.441142 0.128023 0.117554
0.482790 0.144909 0.126485
0.514949 0.154543 0.132865
0.545888 0.163763 0.138659
0.574792 0.172291 0.143476
0.600421 0.179196 0.146528
0.621839 0.184013 0.147309
0.642020 0.188668 0.149718
0.660964 0.193160 0.153754
0.683570 0.197139 0.159365
0.709024 0.200720 0.166200
0.730695 0.203324 0.172832
0.750094 0.205342 0.179342
0.765556 0.208434 0.185763
0.779227 0.212014 0.192143
0.795681 0.216864 0.202819
0.813062 0.222137 0.214928
0.815687 0.224396 0.217198
0.814905 0.225958 0.217198
0.812928 0.227122 0.222382
0.810780 0.228228 0.228306
0.816321 0.232814 0.232887
0.822376 0.237631 0.237379
0.086022 0.066597 0.044524
0.098391 0.064319 0.050318
0.111374 0.062260 0.056145
0.133573 0.063497 0.062459
0.159523 0.064864 0.068961
0.211734 0.067143 0.076773
0.267813 0.073486 0.085574
0.340660 0.097442 0.098659
0.407111 0.120520 0.111126
0.454374 0.140962 0.121737
0.495696 0.157782 0.130375
0.523949 0.166636 0.134672
0.550494 0.175855 0.138773
0.574190 0.185686 0.142549
0.597004 0.192867 0.144673
0.618682 0.196643 0.144673
0.638863 0.201688 0.146691
0.657547 0.208003 0.150727
0.679892 0.211900 0.155752
0.705086 0.213919 0.161546
0.726984 0.215937 0.168438
0.746904 0.217955 0.175990
0.761991 0.219973 0.181662
0.774881 0.221991 0.186479
0.790945 0.226450 0.196374
0.808066 0.231723 0.207962
0.811699 0.232289 0.209923
0.812220 0.231768 0.209663
0.806760 0.229482 0.211624
0.800445 0.226943 0.213902
0.805238 0.230324 0.219232
0.810772 0.234100 0.224766
0.086022 0.082742 0.050579
0.099432 0.079422 0.055331
0.113392 0.076191 0.060246
0.135591 0.074304 0.067602
0.161411 0.073067 0.074885
0.212580 0.076387 0.081656
0.266446 0.083381 0.088829
0.332002 0.106296 0.097748
0.395849 0.128853 0.107610
0.454569 0.150336 0.120305
0.503768 0.168849 0.130700
0.532022 0.180827 0.136039
0.557785 0.191610 0.140400
0.579398 0.200398 0.143135
0.600128 0.206538 0.144673
0.619723 0.209272 0.144673
0.639904 0.214317 0.146691
0.660671 0.221674 0.150727
0.681585 0.226027 0.155166
0.702612 0.228045 0.159918
0.722297 0.230063 0.165118
0.741176 0.232081 0.170586
0.758085 0.234100 0.177756
0.774100 0.236118 0.185698
0.787820 0.238233 0.194812
0.800775 0.240382 0.204316
0.805319 0.238669 0.205041
0.807923 0.236065 0.203739
0.801812 0.231695 0.206481
0.794456 0.227073 0.209801
0.797231 0.229347 0.213243
0.800681 0.232081 0.216693
0.086652 0.100148 0.057264
0.100779 0.097414 0.060649
0.115329 0.094497 0.064286
0.136226 0.088833 0.071708
0.160655 0.084300 0.078877
0.209805 0.087686 0.084280
0.261153 0.094598 0.089805
0.322021 0.116798 0.095860
0.383671 0.138590 0.103688
0.447664 0.159161 0.116838
0.500896 0.177719 0.127873
0.530451 0.191846 0.134252
0.557101 0.203824 0.139241
0.578910 0.212222 0.141910
0.599408 0.217971 0.143269
0.618222 0.220315 0.142943
0.638566 0.225523 0.144799
0.660439 0.233595 0.148835
0.680592 0.238445 0.152688
0.699406 0.240789 0.156399
0.717813 0.242929 0.160720
0.735976 0.244947 0.165407
0.753915 0.246294 0.173138
0.771752 0.247335 0.182252
0.783780 0.247351 0.190584
0.793870 0.247026 0.198657
0.799835 0.244743 0.200382
0.804848 0.242009 0.200642
0.798696 0.236085 0.203637
0.790949 0.229705 0.207022
0.791746 0.231504 0.208210
0.793113 0.233847 0.209252
0.088670 0.120329 0.065336
0.102797 0.121761 0.066638
0.117086 0.122425 0.068192
0.133817 0.111553 0.073530
0.154079 0.102203 0.078616
0.199064 0.103505 0.081936
0.247221 0.108725 0.085769
0.309131 0.130924 0.091824
0.369479 0.151414 0.098871
0.425140 0.166778 0.108896
0.473944 0.181755 0.118108
0.507666 0.195882 0.125529
0.538873 0.208251 0.131950
0.565890 0.217690 0.136702
0.590229 0.224481 0.138777
0.611126 0.227866 0.137410
0.631991 0.233595 0.138744
0.652823 0.241667 0.142781
0.673691 0.247103 0.146048
0.694588 0.250489 0.148717
0.713777 0.253019 0.153949
0.731940 0.255037 0.160720
0.749163 0.254236 0.166953
0.765958 0.252153 0.172942
0.777725 0.250606 0.180494
0.787816 0.249239 0.188566
0.796319 0.250147 0.196215
0.804457 0.251579 0.203767
0.799607 0.245264 0.205850
0.792902 0.237843 0.207152
0.791811 0.240553 0.205281
0.791095 0.243938 0.203197
0.091445 0.142781 0.071895
0.105572 0.146817 0.071504
0.119747 0.149864 0.071390
0.134655 0.138081 0.075426
0.152655 0.127576 0.079162
0.192301 0.126013 0.080789
0.235438 0.128467 0.082807
0.293703 0.148322 0.086518
0.350502 0.166143 0.091124
0.402908 0.177861 0.098415
0.450411 0.190332 0.106194
0.487127 0.204459 0.115048
0.521134 0.216925 0.122705
0.550624 0.226625 0.128369
0.577779 0.233847 0.131356
0.601931 0.237884 0.130900
0.624488 0.243743 0.132495
0.645450 0.251424 0.136140
0.666888 0.256836 0.139090
0.688697 0.260481 0.141499
0.708471 0.262866 0.147203
0.727025 0.264493 0.154885
0.744191 0.262495 0.160598
0.760726 0.258850 0.165415
0.772428 0.256425 0.172088
0.782518 0.254407 0.179379
0.792609 0.256990 0.190267
0.802699 0.260636 0.201985
0.801055 0.255737 0.204133
0.797735 0.249618 0.204914
0.795270 0.252287 0.201546
0.792861 0.255542 0.197900
0.095481 0.169016 0.075931
0.109608 0.173052 0.074499
0.123914 0.176490 0.073408
0.140905 0.170957 0.077445
0.159816 0.165399 0.081049
0.192171 0.159670 0.081635
0.227236 0.157566 0.081635
0.274042 0.171172 0.079096
0.323551 0.184046 0.078494
0.381165 0.194722 0.083702
0.432573 0.206477 0.090701
0.470331 0.220604 0.101637
0.504208 0.232680 0.110206
0.531615 0.241338 0.114828
0.559876 0.247974 0.119052
0.589236 0.252010 0.122762
0.615439 0.257348 0.125920
0.638484 0.263989 0.128524
0.660248 0.268358 0.131604
0.681015 0.270962 0.135054
0.701050 0.272305 0.140498
0.720645 0.272891 0.147138
0.738852 0.271284 0.153957
0.756429 0.268680 0.160858
0.768392 0.266515 0.166489
0.778482 0.264497 0.171697
0.788573 0.266235 0.181348
0.798663 0.268839 0.192025
0.803399 0.268367 0.195866
0.807370 0.267455 0.198730
0.804384 0.268497 0.196468
0.800933 0.269669 0.193864
0.099518 0.203197 0.079967
0.114556 0.205867 0.078861
0.129789 0.208328 0.078075
0.147952 0.207677 0.082111
0.167091 0.206155 0.085472
0.193066 0.198539 0.084105
0.221568 0.193986 0.081859
0.261018 0.202709 0.075805
0.304945 0.211660 0.071818
0.362298 0.221295 0.074031
0.413995 0.232049 0.078909
0.453251 0.245264 0.089651
0.488649 0.256209 0.098049
0.517618 0.263370 0.102541
0.547243 0.268765 0.107317
0.577710 0.271890 0.112460
0.605507 0.275796 0.116724
0.630636 0.280483 0.120109
0.652981 0.283413 0.123605
0.673162 0.284975 0.127185
0.693628 0.285846 0.132312
0.714265 0.286302 0.138366
0.732574 0.285057 0.145494
0.749826 0.283039 0.153111
0.763415 0.281362 0.158726
0.775784 0.279800 0.163674
0.785932 0.280036 0.172059
0.795567 0.280687 0.181238
0.803436 0.282933 0.185917
0.811052 0.285407 0.189954
0.810308 0.285561 0.188741
0.809006 0.285561 0.187179
0.103554 0.247596 0.084003
0.120675 0.247140 0.084980
0.137861 0.246867 0.086148
0.156024 0.249341 0.090184
0.174513 0.250684 0.093154
0.195280 0.244109 0.088662
0.219159 0.239816 0.083877
0.256527 0.245415 0.077823
0.297068 0.251762 0.072794
0.347129 0.260355 0.070841
0.394465 0.269742 0.071879
0.435804 0.280874 0.079495
0.474847 0.289736 0.086331
0.510067 0.294813 0.091864
0.541384 0.298125 0.096315
0.567684 0.299167 0.099375
0.594440 0.300469 0.104160
0.621652 0.302031 0.110670
0.644909 0.303008 0.114946
0.665090 0.303529 0.117485
0.686207 0.304660 0.122221
0.707885 0.306157 0.128275
0.725088 0.305238 0.134688
0.740256 0.303219 0.141263
0.757231 0.302324 0.148180
0.774808 0.301804 0.155211
0.785086 0.299696 0.162294
0.793679 0.297222 0.169390
0.800506 0.299989 0.173809
0.807081 0.303504 0.177845
0.812131 0.303724 0.177609
0.817078 0.303724 0.177088
0.107590 0.294012 0.096112
0.129919 0.289911 0.095005
0.152021 0.286285 0.094090
0.170704 0.289801 0.096043
0.189779 0.292511 0.097190
0.211587 0.289581 0.092698
0.235825 0.287958 0.088206
0.270588 0.291994 0.083715
0.308525 0.296909 0.079467
0.355983 0.304460 0.075951
0.401203 0.311666 0.074775
0.441500 0.318111 0.078747
0.480088 0.323067 0.083108
0.515828 0.325541 0.088121
0.546071 0.326249 0.091368
0.569247 0.324686 0.092344
0.594701 0.324426 0.096348
0.622433 0.325467 0.103379
0.645625 0.325630 0.107883
0.665285 0.325109 0.110422
0.686207 0.325524 0.114832
0.707885 0.326501 0.120366
0.725446 0.326135 0.126257
0.741135 0.325158 0.132312
0.758240 0.324914 0.138708
0.775817 0.324914 0.145218
0.786518 0.322481 0.151781
0.795632 0.319486 0.158356
0.801613 0.320365 0.162709
0.807146 0.321797 0.166745
0.816037 0.324816 0.166021
0.825151 0.327941 0.164980
0.111626 0.342446 0.116293
0.142288 0.334179 0.108937
0.172267 0.326582 0.101902
0.191992 0.329056 0.099688
0.212889 0.331636 0.097581
0.241989 0.334956 0.096214
0.271565 0.338410 0.094847
0.303203 0.342446 0.093480
0.339317 0.347101 0.091836
0.388859 0.353611 0.089362
0.434209 0.357822 0.087600
0.470339 0.356976 0.087405
0.504370 0.356203 0.088381
0.534902 0.355552 0.091311
0.561304 0.353135 0.092475
0.582397 0.348448 0.091368
0.606288 0.347667 0.093288
0.632979 0.350791 0.098236
0.655130 0.351280 0.102414
0.673748 0.349717 0.105995
0.693628 0.348440 0.110145
0.714265 0.347333 0.114637
0.733648 0.347748 0.120203
0.752462 0.348855 0.126257
0.766443 0.349131 0.130310
0.778812 0.349131 0.133695
0.790228 0.348391 0.140518
0.801426 0.347479 0.148135
0.806756 0.344062 0.152619
0.811248 0.340286 0.156655
0.822026 0.348838 0.153978
0.833223 0.358213 0.150853
0.111122 0.395421 0.131933
0.150117 0.385331 0.121257
0.188192 0.375594 0.110849
0.212474 0.371168 0.104469
0.238050 0.367538 0.098740
0.272684 0.369491 0.097569
0.307048 0.372824 0.097166
0.340249 0.382133 0.100095
0.376445 0.390189 0.101495
0.421624 0.394486 0.098305
0.463223 0.396361 0.095664
0.496945 0.392911 0.094232
0.527298 0.389119 0.093215
0.552036 0.384757 0.092890
0.575036 0.379911 0.092080
0.595803 0.374443 0.090648
0.618426 0.373727 0.091950
0.642903 0.377763 0.095986
0.664158 0.379382 0.099693
0.682907 0.379122 0.103143
0.701819 0.377031 0.106959
0.720828 0.373841 0.110995
0.739434 0.373426 0.115614
0.757858 0.374272 0.120496
0.770471 0.373605 0.122791
0.781147 0.372433 0.124223
0.792511 0.372689 0.130098
0.804034 0.373275 0.136999
0.810031 0.369589 0.141393
0.815239 0.365292 0.145429
0.825269 0.373080 0.142996
0.835619 0.381673 0.140132
0.107085 0.451928 0.144042
0.154413 0.441838 0.132324
0.200756 0.431385 0.120679
0.232330 0.415501 0.110133
0.264806 0.400935 0.100498
0.303606 0.395596 0.097243
0.342332 0.394762 0.096124
0.380741 0.413446 0.104262
0.418499 0.427752 0.109047
0.454304 0.428924 0.103773
0.489133 0.428976 0.100026
0.521813 0.426568 0.099636
0.549171 0.421864 0.097707
0.567660 0.413336 0.093215
0.587601 0.406602 0.090517
0.609409 0.402176 0.090127
0.630990 0.401980 0.091950
0.652343 0.406016 0.095986
0.672817 0.409394 0.099107
0.692607 0.412258 0.101515
0.710607 0.410036 0.104941
0.727533 0.404763 0.108977
0.743340 0.402265 0.112163
0.758639 0.401028 0.114963
0.771252 0.398278 0.115955
0.782970 0.395023 0.116346
0.793683 0.395735 0.120333
0.804164 0.397362 0.125151
0.811854 0.396540 0.129285
0.819145 0.395369 0.133321
0.826375 0.397492 0.132841
0.833601 0.399836 0.132059
0.101788 0.514742 0.162457
0.155495 0.498792 0.145791
0.208275 0.482741 0.129411
0.247140 0.465164 0.117302
0.286843 0.448287 0.106040
0.332413 0.436308 0.100702
0.376274 0.429395 0.097646
0.412730 0.444434 0.104481
0.448307 0.456526 0.108583
0.481248 0.459781 0.104481
0.513781 0.461592 0.101662
0.545420 0.460224 0.101662
0.571981 0.456563 0.100124
0.590079 0.449076 0.096022
0.609401 0.443384 0.094000
0.630298 0.439999 0.094651
0.650186 0.439348 0.096669
0.669065 0.441431 0.100055
0.687212 0.442782 0.102305
0.704789 0.443563 0.103672
0.721064 0.440479 0.105893
0.736558 0.435075 0.108627
0.751112 0.433342 0.110422
0.765238 0.433277 0.111789
0.776387 0.430234 0.112131
0.786542 0.426197 0.112131
0.795587 0.426023 0.114881
0.804376 0.426739 0.118266
0.813677 0.426828 0.121082
0.823051 0.426828 0.123816
0.828092 0.428049 0.124597
0.832845 0.429351 0.125248
0.095734 0.581339 0.184656
0.154649 0.556015 0.160699
0.212767 0.531436 0.137483
0.258923 0.518025 0.125374
0.306047 0.504012 0.113852
0.359950 0.485784 0.106430
0.409410 0.471645 0.100706
0.439616 0.475226 0.102333
0.470767 0.480027 0.103310
0.504749 0.488490 0.102333
0.537673 0.494207 0.101662
0.568270 0.493881 0.101662
0.595352 0.492433 0.101296
0.616574 0.489113 0.100319
0.636743 0.486220 0.100510
0.655557 0.483876 0.102203
0.673362 0.482183 0.104221
0.690158 0.481142 0.106565
0.705049 0.478196 0.107773
0.718460 0.473769 0.108099
0.732521 0.469383 0.108627
0.746974 0.465021 0.109278
0.761202 0.465762 0.109706
0.775329 0.468822 0.110031
0.784134 0.466559 0.110113
0.791164 0.462523 0.110113
0.797931 0.460656 0.112017
0.804636 0.459289 0.114360
0.815499 0.459118 0.115223
0.826957 0.459118 0.115874
0.830175 0.462291 0.117501
0.832845 0.465677 0.119194
0.099391 0.638224 0.215180
0.162083 0.606390 0.182500
0.224062 0.575610 0.150881
0.275361 0.560637 0.135192
0.327669 0.544924 0.120276
0.387040 0.524026 0.110772
0.440845 0.507987 0.103318
0.470531 0.513000 0.104750
0.500656 0.518387 0.105824
0.532099 0.524897 0.105824
0.561833 0.529149 0.105600
0.587808 0.528433 0.104884
0.612367 0.527229 0.104168
0.634566 0.525210 0.103452
0.654060 0.523819 0.103306
0.670074 0.523233 0.103891
0.686512 0.521215 0.105193
0.703373 0.517765 0.107212
0.717158 0.513252 0.107692
0.728550 0.507914 0.106976
0.741204 0.503837 0.106707
0.754615 0.500517 0.106707
0.767533 0.502255 0.107199
0.780228 0.506291 0.107915
0.787405 0.503736 0.108632
0.792743 0.498983 0.109348
0.799827 0.495871 0.111122
0.807313 0.493137 0.113140
0.816964 0.492168 0.113392
0.826925 0.491452 0.113392
0.830110 0.493849 0.114613
0.832845 0.496453 0.115915
0.107464 0.690695 0.249488
0.173280 0.653653 0.207433
0.238449 0.617730 0.166701
0.293914 0.598590 0.145804
0.350389 0.579101 0.126070
0.413926 0.557162 0.114482
0.471507 0.541644 0.105726
0.503276 0.553948 0.109242
0.533922 0.563501 0.111878
0.561199 0.564803 0.111878
0.586116 0.565149 0.111329
0.605841 0.563392 0.109571
0.626494 0.561536 0.107814
0.648693 0.559518 0.106056
0.666819 0.559038 0.104412
0.679709 0.560535 0.102915
0.695105 0.558517 0.103175
0.713008 0.552984 0.105193
0.726662 0.548146 0.105088
0.737013 0.543849 0.103330
0.748626 0.540814 0.102671
0.760995 0.538536 0.102671
0.772155 0.540598 0.103879
0.782766 0.544635 0.105637
0.788642 0.541298 0.107395
0.792938 0.535504 0.109152
0.801519 0.531350 0.111122
0.811089 0.527574 0.113140
0.818266 0.525564 0.113392
0.825102 0.523807 0.113392
0.829069 0.524185 0.113636
0.832845 0.524706 0.113897
0.112509 0.729543 0.280768
0.179106 0.693543 0.230902
0.245464 0.658385 0.182569
0.308220 0.635860 0.157245
0.371107 0.613669 0.133280
0.434905 0.593814 0.118828
0.492941 0.580037 0.107696
0.526012 0.592601 0.110951
0.556788 0.601829 0.113197
0.580680 0.601048 0.112415
0.603514 0.600368 0.111248
0.624020 0.599913 0.109230
0.643989 0.598578 0.107212
0.663064 0.595779 0.105193
0.679432 0.594062 0.103175
0.692322 0.593736 0.101157
0.706286 0.590546 0.099985
0.721324 0.584492 0.099660
0.733579 0.579573 0.098382
0.743670 0.575537 0.096364
0.754045 0.573738 0.096096
0.764591 0.573283 0.096877
0.774824 0.574304 0.099046
0.784915 0.575997 0.101845
0.791050 0.571879 0.104058
0.795868 0.565825 0.106076
0.804970 0.562045 0.107460
0.815060 0.558790 0.108697
0.821619 0.557984 0.108851
0.827673 0.557529 0.108851
0.831836 0.556035 0.109584
0.835872 0.554473 0.110365
0.116545 0.763851 0.311040
0.183143 0.730975 0.253882
0.250021 0.698551 0.198453
0.321110 0.672902 0.168963
0.391157 0.648367 0.140962
0.453914 0.631637 0.123385
0.511299 0.620008 0.109519
0.545412 0.630489 0.111732
0.576188 0.637895 0.112936
0.596955 0.636072 0.111113
0.618617 0.635327 0.109230
0.642248 0.636955 0.107212
0.662608 0.636531 0.105193
0.677516 0.632691 0.103175
0.691997 0.629021 0.101157
0.705928 0.625570 0.099139
0.718330 0.620818 0.096405
0.729201 0.614764 0.092955
0.739634 0.609845 0.090310
0.749724 0.605808 0.088292
0.758797 0.605312 0.088674
0.767260 0.606939 0.090497
0.776842 0.606463 0.093707
0.786933 0.605031 0.097548
0.793850 0.600132 0.100022
0.799709 0.594078 0.102040
0.809006 0.591145 0.102577
0.819096 0.588931 0.102773
0.825655 0.590079 0.102797
0.831709 0.591706 0.102797
0.835872 0.588390 0.104506
0.839908 0.584744 0.106329
0.128780 0.794879 0.342951
0.194531 0.761743 0.275963
0.260713 0.728880 0.211005
0.333365 0.700106 0.176502
0.405178 0.673122 0.143830
0.471125 0.658670 0.123975
0.530663 0.648502 0.108062
0.562431 0.656900 0.109234
0.591092 0.662905 0.109820
0.610426 0.661733 0.108648
0.630758 0.661029 0.107212
0.653283 0.661355 0.105193
0.673293 0.660680 0.102858
0.689112 0.658336 0.099994
0.703450 0.655252 0.097499
0.715884 0.651216 0.095481
0.726300 0.646170 0.092454
0.734698 0.640116 0.088418
0.744048 0.635673 0.085993
0.754139 0.632483 0.084821
0.762968 0.632019 0.085114
0.771040 0.633191 0.086286
0.780500 0.631006 0.088845
0.790591 0.627295 0.092035
0.798289 0.623096 0.093711
0.805189 0.618735 0.094883
0.813306 0.620403 0.095103
0.821704 0.623463 0.095103
0.828052 0.622649 0.095843
0.834106 0.621282 0.096690
0.839062 0.619793 0.097841
0.843944 0.618295 0.099013
0.142907 0.825151 0.375240
0.207616 0.790973 0.297837
0.272822 0.756938 0.222788
0.345473 0.725039 0.183077
0.417808 0.695581 0.145588
0.487920 0.683212 0.123649
0.550258 0.674346 0.105849
0.578902 0.680661 0.105979
0.604958 0.685365 0.106044
0.623251 0.685234 0.105914
0.642216 0.684596 0.105193
0.662657 0.682838 0.103175
0.682146 0.681642 0.100449
0.700049 0.681381 0.096543
0.714647 0.679469 0.093463
0.724998 0.675433 0.091445
0.733331 0.670388 0.088418
0.739646 0.664333 0.084382
0.748084 0.660476 0.082543
0.758175 0.658328 0.082413
0.767004 0.657604 0.082445
0.775076 0.657734 0.082575
