其他预设/【236】赛博朋克风调色预设/【后期菌】视频调色预设/CUBE/Miami 08.cube
# LUT by SparkleStock. Enhanced with VOXCOLOR algorithms.
LUT_3D_SIZE 5
DOMAIN_MIN 0.000000 0.000000 0.000000
DOMAIN_MAX 0.903226 0.903226 0.903226
0.000000 0.000000 0.003910
0.192855 0.036956 0.137609
0.637215 0.074291 0.250749
0.842178 0.088040 0.313562
0.914578 0.134330 0.362880
0.039101 0.117807 0.122347
0.500916 0.153835 0.260900
0.802431 0.167665 0.321419
0.897668 0.197782 0.389359
0.925457 0.286119 0.377787
0.086526 0.357834 0.327815
0.328364 0.349546 0.219005
0.704874 0.346967 0.134753
0.846857 0.361586 0.182353
0.906379 0.406480 0.247742
0.137609 0.634440 0.546401
0.412876 0.502320 0.189986
0.708337 0.537034 0.105539
0.851056 0.524629 0.089826
0.922902 0.534479 0.139534
0.210009 0.800429 0.682748
0.476849 0.679807 0.247071
0.740203 0.689897 0.156509
0.869329 0.715669 0.110019
0.930010 0.752072 0.146809
0.032794 0.032163 0.103428
0.186052 0.045362 0.246082
0.642891 0.072436 0.345636
0.852033 0.077571 0.423659
0.920254 0.094725 0.499101
0.068579 0.169773 0.223342
0.475731 0.168067 0.399337
0.828637 0.146890 0.467019
0.905822 0.158254 0.553467
0.937619 0.185092 0.597679
0.129769 0.422881 0.440377
0.222127 0.517465 0.548660
0.817253 0.361130 0.429364
0.890524 0.383741 0.470154
0.915077 0.432103 0.440653
0.174061 0.663593 0.623601
0.273742 0.724531 0.671147
0.716333 0.607373 0.197192
0.851504 0.608448 0.137855
0.917789 0.621791 0.201570
0.260913 0.814177 0.743544
0.410970 0.808033 0.655449
0.738722 0.733970 0.250859
0.869151 0.772814 0.212667
0.919397 0.808991 0.307122
0.073913 0.079084 0.255668
0.215396 0.066524 0.387654
0.648945 0.077424 0.469062
0.862896 0.075317 0.562924
0.929754 0.078620 0.657164
0.129447 0.252336 0.441622
0.274241 0.285148 0.606042
0.829411 0.160057 0.622669
0.914157 0.160917 0.694768
0.945553 0.181731 0.743376
0.185067 0.491851 0.616867
0.275841 0.583183 0.693718
0.729778 0.426017 0.725702
0.915073 0.340717 0.750884
0.935283 0.377354 0.783343
0.258207 0.708085 0.719501
0.354323 0.751427 0.757531
0.473257 0.779895 0.766477
0.870539 0.668771 0.333061
0.909891 0.672037 0.304375
0.326867 0.823425 0.784011
0.447937 0.845824 0.809860
0.641940 0.828055 0.672569
0.864802 0.800937 0.336499
0.911398 0.831304 0.470266
0.129158 0.116041 0.488506
0.263985 0.117916 0.603017
0.657144 0.095498 0.652652
0.864784 0.078201 0.709993
0.929872 0.086213 0.788320
0.209126 0.299200 0.656420
0.308342 0.342380 0.737979
0.767411 0.197597 0.762081
0.908710 0.174769 0.796760
0.936273 0.195723 0.836620
0.272366 0.536375 0.758745
0.373780 0.593657 0.806571
0.543511 0.593528 0.839366
0.899267 0.384349 0.832057
0.928627 0.404005 0.848080
0.337474 0.733225 0.808778
0.447297 0.765902 0.836569
0.586223 0.795382 0.860855
0.770182 0.761543 0.833379
0.898081 0.655321 0.811083
0.419138 0.836474 0.831774
0.546512 0.849166 0.840730
0.666762 0.866907 0.859465
0.802047 0.863815 0.770429
0.910713 0.859847 0.626133
0.198657 0.134708 0.661054
0.300908 0.151199 0.743450
0.678753 0.097752 0.785293
0.865069 0.095359 0.824080
0.930218 0.088585 0.871188
0.270112 0.293552 0.779715
0.372217 0.350730 0.835627
0.607298 0.286822 0.868781
0.896019 0.201728 0.869035
0.928579 0.221036 0.886192
0.362627 0.558110 0.854393
0.484164 0.586656 0.877878
0.592372 0.597136 0.888309
0.845642 0.442808 0.882256
0.920632 0.434053 0.885727
0.426385 0.737082 0.877780
0.557292 0.762465 0.888103
0.674875 0.784479 0.896309
0.772180 0.797145 0.903491
0.902087 0.684368 0.907864
0.533584 0.845376 0.883297
0.647171 0.863107 0.886524
0.741318 0.877205 0.897411
0.834875 0.895631 0.919139
0.917983 0.906403 0.897057
