其他预设/【236】赛博朋克风调色预设/【后期菌】视频调色预设/CUBE/Miami 03_S.cube
# LUT by SparkleStock. Enhanced with VOXCOLOR algorithms.
LUT_3D_SIZE 8
DOMAIN_MIN 0.000000 0.000000 0.000000
DOMAIN_MAX 0.903226 0.903226 0.903226
0.093842 0.043011 0.078201
0.102419 0.050831 0.090436
0.147826 0.060165 0.106076
0.342951 0.080472 0.091571
0.666351 0.098761 0.083120
0.771293 0.109356 0.096364
0.804591 0.118816 0.103175
0.818970 0.128654 0.119068
0.101662 0.051083 0.090436
0.132002 0.063350 0.114368
0.275788 0.084699 0.107496
0.581978 0.104388 0.085615
0.702234 0.119385 0.090819
0.760571 0.130257 0.108733
0.810308 0.145149 0.142821
0.828935 0.164247 0.170505
0.103175 0.065084 0.107590
0.146280 0.080504 0.130798
0.415688 0.114462 0.100962
0.621815 0.144896 0.082111
0.680604 0.160195 0.082990
0.747039 0.173341 0.106618
0.803444 0.183130 0.134053
0.836527 0.181072 0.114629
0.118816 0.126384 0.148330
0.144099 0.117961 0.143537
0.323698 0.148387 0.110869
0.593358 0.184278 0.078201
0.676959 0.202819 0.071700
0.742290 0.214834 0.078856
0.802825 0.212193 0.094936
0.833492 0.213447 0.114796
0.132059 0.271561 0.238010
0.148408 0.252336 0.197900
0.243588 0.256909 0.163710
0.474937 0.294447 0.121338
0.648298 0.305750 0.102797
0.744280 0.303431 0.103733
0.806194 0.296775 0.118677
0.832718 0.288657 0.133545
0.172926 0.492669 0.363132
0.184066 0.426169 0.260567
0.366179 0.458776 0.230352
0.598965 0.475466 0.184371
0.721829 0.463439 0.157896
0.789777 0.453946 0.152969
0.826192 0.440515 0.158722
0.846719 0.426263 0.164097
0.279255 0.681361 0.505156
0.241610 0.629338 0.322294
0.487611 0.657579 0.258569
0.681198 0.668622 0.227541
0.781977 0.665001 0.209756
0.831726 0.646581 0.201179
0.856980 0.627450 0.197017
0.868719 0.616383 0.193538
0.418503 0.767004 0.605934
0.333340 0.721458 0.316060
0.616176 0.752047 0.256502
0.746896 0.763546 0.235198
0.814128 0.763200 0.221486
0.856114 0.753756 0.214675
0.879102 0.745562 0.212531
0.892086 0.751612 0.212531
0.098004 0.043515 0.087031
0.106581 0.055245 0.102687
0.148330 0.064327 0.122506
0.349530 0.088194 0.121969
0.646048 0.095103 0.117493
0.749850 0.105779 0.135331
0.801157 0.132031 0.177507
0.819336 0.157286 0.208633
0.098997 0.052328 0.103932
0.139677 0.068537 0.135040
0.279615 0.097196 0.141458
0.529652 0.117120 0.136525
0.652436 0.129618 0.159516
0.734560 0.145653 0.194695
0.802771 0.167637 0.231618
0.837708 0.198530 0.275240
0.114653 0.081798 0.139912
0.131590 0.099274 0.163605
0.452173 0.148204 0.168035
0.573462 0.180174 0.177019
0.639222 0.204662 0.204101
0.721047 0.213707 0.222246
0.806322 0.241801 0.277337
0.850349 0.268428 0.329498
0.131400 0.159450 0.196329
0.147952 0.205619 0.241003
0.283260 0.211686 0.193046
0.559231 0.234157 0.143213
0.632456 0.257650 0.157860
0.718152 0.269216 0.169951
0.796525 0.274708 0.190306
0.848453 0.293237 0.226298
0.157164 0.333434 0.319938
0.188290 0.402795 0.374437
0.217388 0.369623 0.236908
0.428592 0.368471 0.157918
0.620092 0.360009 0.131112
0.722177 0.360283 0.133256
0.801483 0.355319 0.136400
0.842414 0.347661 0.143007
0.230523 0.572851 0.484136
0.274045 0.617348 0.530804
0.286909 0.559963 0.283250
0.565174 0.538636 0.189254
0.681459 0.544847 0.170169
0.762373 0.538738 0.166987
0.822151 0.523076 0.167182
0.858860 0.516894 0.168214
0.349790 0.718822 0.621717
0.362051 0.714142 0.547989
0.405190 0.690071 0.295216
0.686172 0.701839 0.231594
0.769112 0.697650 0.209959
0.828380 0.690618 0.204015
0.860344 0.686869 0.200281
0.872941 0.672288 0.190657
0.484987 0.785785 0.676592
0.435612 0.759023 0.453518
0.559118 0.767368 0.272439
0.757065 0.774370 0.235383
0.821464 0.778919 0.223991
0.856972 0.776838 0.218724
0.883592 0.772692 0.217933
0.895811 0.781613 0.216750
0.102671 0.052344 0.112005
0.114906 0.063350 0.124996
0.157094 0.076309 0.157098
0.347235 0.095803 0.182524
0.628134 0.104315 0.190344
0.748048 0.128275 0.236297
0.801312 0.162274 0.286753
0.830928 0.198559 0.325398
0.114401 0.072245 0.144489
0.132578 0.082478 0.169071
0.276713 0.117326 0.208674
0.523855 0.133353 0.223429
0.633932 0.147126 0.260675
0.721196 0.166804 0.289599
0.803017 0.195190 0.332376
0.850715 0.242944 0.381396
0.124239 0.102858 0.177845
0.147163 0.138838 0.237501
0.394444 0.172983 0.257662
0.546612 0.205146 0.278339
0.625976 0.225587 0.298849
0.713443 0.243759 0.321212
0.798408 0.264941 0.352002
0.861866 0.312174 0.420761
0.146060 0.209952 0.280390
0.171583 0.272642 0.347681
0.254994 0.313214 0.369341
0.551653 0.294229 0.323018
0.632262 0.313775 0.329769
0.716007 0.327653 0.342470
0.798225 0.351975 0.366929
0.862576 0.364169 0.388117
0.184762 0.402070 0.423736
0.241428 0.495587 0.526619
0.277062 0.531581 0.495853
0.407892 0.441176 0.297266
0.638012 0.383308 0.231634
0.713987 0.395429 0.230984
0.793858 0.411199 0.240630
0.856781 0.410367 0.205632
0.281273 0.635286 0.593732
0.344394 0.678590 0.644726
0.398987 0.703805 0.637076
0.439293 0.626971 0.273613
0.666502 0.579320 0.198902
0.749840 0.578524 0.193554
0.811815 0.581081 0.193876
0.864597 0.569771 0.192049
0.415452 0.745354 0.696895
0.472525 0.764367 0.704436
0.526516 0.765339 0.647399
0.638545 0.740485 0.277278
0.768317 0.727568 0.221291
0.821879 0.723523 0.211992
0.840110 0.715776 0.205967
0.878267 0.709031 0.204197
0.557472 0.801715 0.733929
0.598752 0.805740 0.713496
0.602266 0.785816 0.453688
0.740940 0.792664 0.258294
0.830210 0.795641 0.228273
0.863230 0.796403 0.224827
0.873969 0.798655 0.220669
0.896036 0.805998 0.222982
0.114906 0.072652 0.164727
0.129313 0.082392 0.184111
0.172112 0.088320 0.211774
0.367612 0.122453 0.267292
0.637960 0.136795 0.294907
0.757158 0.168369 0.350629
0.810182 0.208072 0.395458
0.835294 0.255395 0.439242
0.126713 0.104612 0.227288
0.158861 0.131478 0.292924
0.290691 0.148547 0.317279
0.538747 0.162755 0.332623
0.648684 0.177601 0.367970
0.729298 0.202015 0.394313
0.814125 0.249647 0.445890
0.854745 0.301333 0.498369
0.151231 0.160720 0.303557
0.183973 0.217567 0.394085
0.285315 0.245164 0.433605
0.551676 0.240877 0.390324
0.632343 0.254761 0.403088
0.718381 0.276136 0.419353
0.804424 0.310832 0.463960
0.863635 0.358238 0.530947
0.185327 0.293402 0.433175
0.215747 0.349889 0.511429
0.298595 0.400596 0.545121
0.532424 0.343121 0.445096
0.634862 0.348527 0.437317
0.713813 0.359567 0.441110
0.792109 0.383923 0.462714
0.863123 0.421416 0.515915
0.254590 0.505485 0.598525
0.305472 0.575661 0.656263
0.346710 0.606716 0.630716
0.431975 0.567719 0.557061
0.652587 0.469729 0.473884
0.717235 0.459994 0.439413
0.790390 0.477371 0.438886
0.865450 0.498277 0.448525
0.361997 0.691838 0.704199
0.432285 0.726400 0.740487
0.495585 0.742780 0.731777
0.528917 0.721239 0.651766
0.662445 0.645475 0.324611
0.757513 0.585885 0.248343
0.799917 0.589374 0.254958
0.871693 0.591027 0.265827
0.481227 0.770662 0.754220
0.557430 0.792136 0.766224
0.615869 0.794461 0.761096
0.672788 0.793853 0.705064
0.750198 0.756420 0.282440
0.806477 0.745453 0.231585
0.826501 0.731422 0.242059
0.879633 0.726390 0.248190
0.616277 0.814356 0.782050
0.674984 0.824293 0.787555
0.709479 0.820952 0.756588
0.764639 0.813001 0.558895
0.833901 0.803072 0.242452
0.857410 0.812028 0.234664
0.860547 0.817481 0.243163
0.893139 0.821802 0.275670
0.142907 0.114653 0.283291
0.165859 0.128776 0.313168
0.231329 0.141275 0.334244
0.398196 0.166493 0.365081
0.658792 0.187801 0.395287
0.774214 0.233563 0.458507
0.823877 0.279128 0.508903
0.847370 0.327408 0.553765
0.166245 0.167576 0.380115
0.200943 0.210668 0.451843
0.320957 0.214395 0.458250
0.587349 0.213449 0.445410
0.688456 0.232617 0.486103
0.762589 0.266517 0.523156
0.824832 0.315861 0.561405
0.860048 0.384503 0.612786
0.201554 0.260209 0.499195
0.237526 0.316427 0.583470
0.302926 0.355193 0.616809
0.542618 0.297327 0.533310
0.673036 0.305607 0.536949
0.742179 0.323920 0.550293
0.820468 0.369807 0.591227
0.864671 0.426755 0.635863
0.248743 0.399205 0.627043
0.302855 0.479681 0.688164
0.346209 0.512850 0.676972
0.467352 0.470691 0.629820
0.666416 0.399711 0.569431
0.739695 0.410061 0.576792
0.805124 0.434223 0.590745
0.873364 0.470594 0.612754
0.331188 0.598916 0.721581
0.390076 0.659150 0.751109
0.443260 0.674345 0.741671
0.516735 0.640877 0.692334
0.678264 0.579162 0.639324
0.748117 0.537032 0.600015
0.800265 0.529525 0.577497
0.874387 0.548932 0.591409
0.446696 0.732204 0.774531
0.520498 0.757195 0.790690
0.583599 0.772405 0.789308
0.628687 0.768007 0.764860
0.702051 0.750408 0.725439
0.767396 0.649428 0.450440
0.805625 0.616826 0.397840
0.872685 0.618400 0.395727
0.566520 0.795624 0.796356
0.624427 0.803258 0.799689
0.682632 0.811118 0.805678
0.732714 0.814057 0.793119
0.770384 0.812295 0.749497
0.793422 0.767631 0.376235
0.824427 0.737075 0.291371
0.882720 0.738399 0.306770
0.654593 0.826103 0.800856
0.702374 0.829958 0.803644
0.749799 0.836016 0.801898
0.784942 0.831737 0.763365
0.829155 0.828408 0.651475
0.842074 0.823332 0.314601
0.854823 0.824986 0.293965
0.890403 0.829534 0.364503
0.188692 0.191089 0.460253
0.220107 0.218846 0.519596
0.291127 0.217861 0.493295
0.469757 0.231231 0.485898
0.696484 0.253996 0.505103
0.788601 0.294826 0.551055
0.833963 0.348358 0.602496
0.850125 0.393086 0.639229
0.213162 0.249866 0.558310
0.255515 0.300321 0.619968
0.371998 0.308541 0.613024
0.613769 0.295272 0.572780
0.747517 0.309011 0.588580
0.800647 0.351754 0.624425
0.844549 0.411344 0.661711
0.862315 0.472267 0.690328
0.258768 0.359657 0.657018
0.304106 0.417544 0.698474
0.370094 0.469765 0.723156
0.621912 0.405244 0.663961
0.744550 0.376898 0.641156
0.797940 0.419174 0.667895
0.847167 0.479967 0.697457
0.867681 0.516723 0.712772
0.318457 0.512976 0.734076
0.372129 0.570375 0.755033
0.445108 0.620754 0.772693
0.554704 0.619694 0.761626
0.741257 0.527002 0.712161
0.801636 0.512200 0.700201
0.838331 0.529467 0.707635
0.875606 0.534138 0.706905
0.414109 0.673341 0.786502
0.487419 0.709414 0.800196
0.571606 0.738569 0.810175
0.634952 0.735499 0.802955
0.727358 0.712294 0.782487
0.803300 0.638166 0.735863
0.825167 0.602326 0.706050
0.877877 0.595035 0.699789
0.537405 0.767789 0.813982
0.596282 0.776446 0.818833
0.662113 0.789617 0.821221
0.720386 0.798383 0.824279
0.777008 0.793637 0.817275
0.792839 0.751986 0.759798
0.823192 0.690013 0.700414
0.879920 0.673269 0.681418
0.633464 0.807854 0.822502
0.685449 0.812906 0.827206
0.730076 0.820504 0.826941
0.773737 0.826159 0.826607
0.805365 0.829195 0.817107
0.802672 0.808514 0.751162
0.827248 0.762836 0.487116
0.882950 0.746777 0.476677
0.704614 0.831514 0.822685
0.746168 0.840152 0.828162
0.779510 0.841189 0.823258
0.817067 0.846138 0.825533
0.847155 0.847583 0.812569
0.850160 0.836952 0.691763
0.855887 0.830721 0.498236
0.892051 0.830534 0.489301
0.239775 0.275597 0.625106
0.276520 0.309160 0.656594
0.374016 0.297979 0.620037
0.588455 0.307341 0.600889
0.706197 0.315833 0.594078
0.799200 0.363022 0.638602
0.839827 0.422800 0.681117
0.860899 0.474632 0.705904
0.264119 0.337963 0.676723
0.319291 0.392424 0.712118
0.400820 0.440706 0.730320
0.648469 0.408947 0.685056
0.791989 0.400303 0.666893
0.829187 0.450238 0.694941
0.854009 0.506408 0.721725
0.867751 0.553408 0.742908
0.325305 0.459553 0.743096
0.369307 0.511231 0.756767
0.474301 0.585475 0.782062
0.683373 0.573220 0.762313
0.798162 0.525333 0.737614
0.851292 0.541715 0.740264
0.867417 0.585443 0.760281
0.875818 0.600714 0.769201
0.390869 0.602940 0.785794
0.474256 0.655116 0.804504
0.561203 0.692470 0.813548
0.660048 0.719229 0.820398
0.805444 0.665053 0.794454
0.856357 0.630793 0.776442
0.860675 0.622312 0.777116
0.881200 0.612923 0.780960
0.504537 0.719680 0.820976
0.582589 0.743670 0.827699
0.660339 0.764010 0.835021
0.724899 0.781397 0.840760
0.791374 0.788411 0.844923
0.840478 0.718761 0.807354
0.849116 0.666239 0.786994
0.879327 0.650559 0.781509
0.610756 0.783242 0.835335
0.674361 0.795014 0.838696
0.721121 0.803556 0.842581
0.767603 0.811930 0.846322
0.807683 0.816923 0.845726
0.820545 0.793866 0.826493
0.846224 0.738197 0.795369
0.885136 0.716539 0.784575
0.702425 0.823259 0.847016
0.736744 0.825952 0.845826
0.773505 0.832787 0.846328
0.808527 0.833948 0.845791
0.839827 0.838453 0.845849
0.842795 0.832558 0.828900
0.851078 0.809226 0.779388
0.889514 0.781899 0.728241
0.751909 0.846394 0.847801
0.776967 0.843944 0.841295
0.805747 0.847563 0.842562
0.836665 0.851298 0.841241
0.859578 0.856761 0.844077
0.876405 0.853340 0.834306
0.875761 0.850621 0.771665
0.898802 0.843499 0.702034
0.289976 0.352158 0.706209
0.337918 0.385457 0.723627
0.427780 0.397643 0.710147
0.651842 0.375277 0.672389
0.753199 0.391357 0.671698
0.812786 0.442082 0.702360
0.847317 0.503976 0.731854
0.867657 0.557077 0.757247
0.335863 0.434876 0.748715
0.395469 0.491812 0.764758
0.491868 0.542749 0.772690
0.695139 0.521897 0.751101
0.802172 0.493456 0.728116
0.841295 0.536400 0.747251
0.863148 0.582800 0.765922
0.872901 0.613031 0.782076
0.392048 0.555034 0.789280
0.476284 0.606820 0.800478
0.573927 0.651585 0.811011
0.683132 0.684479 0.821136
0.810623 0.638454 0.797904
0.855386 0.611421 0.778926
0.870820 0.643638 0.793592
0.885102 0.663107 0.805215
0.490398 0.668569 0.818881
0.574306 0.703154 0.825328
0.660674 0.738200 0.836517
0.736762 0.757809 0.842926
0.829182 0.748324 0.838439
0.864637 0.708873 0.819084
0.881409 0.704950 0.813886
0.889479 0.709628 0.820952
0.604637 0.755091 0.841393
0.669981 0.769164 0.842095
0.733234 0.788044 0.852967
0.781079 0.798401 0.858354
0.818414 0.807561 0.861591
0.867304 0.785335 0.842569
0.878408 0.746520 0.829949
0.888616 0.728340 0.833501
0.689503 0.800299 0.852517
0.732017 0.804970 0.854926
0.773246 0.814059 0.859295
0.807534 0.820467 0.859613
0.834909 0.831043 0.860915
0.855994 0.831879 0.860756
0.873313 0.798284 0.852960
0.896167 0.775814 0.847880
0.750375 0.834558 0.860667
0.778318 0.835632 0.861953
0.806192 0.837884 0.860039
0.839165 0.842060 0.861102
0.857062 0.844297 0.860988
0.873246 0.850042 0.860838
0.883241 0.840030 0.853457
0.900809 0.824386 0.844745
0.775927 0.850841 0.861981
0.796081 0.852130 0.860267
0.828959 0.854032 0.861365
0.848891 0.853156 0.859954
0.866430 0.860294 0.859965
0.886445 0.863727 0.860357
0.898743 0.863666 0.853124
0.911107 0.861000 0.840921
