其他预设/【236】赛博朋克风调色预设/【后期菌】视频调色预设/CUBE/Miami 05.cube
# LUT by SparkleStock. Enhanced with VOXCOLOR algorithms.
LUT_3D_SIZE 8
DOMAIN_MIN 0.000000 0.000000 0.000000
DOMAIN_MAX 0.903226 0.903226 0.903226
0.015640 0.015640 0.031281
0.084130 0.031533 0.099013
0.215558 0.051840 0.161448
0.479173 0.068742 0.193107
0.719957 0.088923 0.214171
0.827169 0.095103 0.255163
0.885820 0.100779 0.290859
0.912433 0.119068 0.315959
0.039353 0.072399 0.091697
0.160166 0.073360 0.160943
0.421461 0.091543 0.216917
0.685153 0.108347 0.241436
0.819792 0.119959 0.280011
0.883179 0.122779 0.320679
0.913947 0.137483 0.358074
0.938062 0.157977 0.381799
0.048434 0.135087 0.145808
0.191878 0.149685 0.223285
0.573612 0.146687 0.227024
0.760852 0.157286 0.254126
0.851150 0.160061 0.297047
0.899190 0.181828 0.339277
0.922707 0.204654 0.362489
0.931780 0.242148 0.316484
0.067985 0.235739 0.228802
0.139330 0.228704 0.227374
0.443966 0.243600 0.190727
0.714175 0.241460 0.184742
0.828914 0.242860 0.214789
0.884416 0.260241 0.254801
0.909069 0.274840 0.281102
0.924664 0.303614 0.276179
0.088040 0.370069 0.341563
0.141214 0.322843 0.279137
0.250147 0.319368 0.178468
0.584651 0.348615 0.083682
0.736867 0.352805 0.085273
0.821830 0.357110 0.092129
0.880876 0.376766 0.109331
0.912987 0.393045 0.134204
0.102923 0.523066 0.455460
0.172397 0.417230 0.287006
0.362391 0.433444 0.173723
0.657103 0.466527 0.097247
0.783096 0.460033 0.083678
0.855927 0.467723 0.092133
0.898197 0.486252 0.103175
0.924542 0.496965 0.121338
0.120329 0.675054 0.570365
0.212393 0.595551 0.390433
0.429294 0.550343 0.193587
0.673590 0.578352 0.115243
0.800278 0.591063 0.100665
0.867783 0.602859 0.095734
0.909821 0.625782 0.108013
0.935642 0.636007 0.125879
0.155646 0.774067 0.649702
0.246448 0.715254 0.472728
0.454931 0.676393 0.267679
0.679721 0.667307 0.178496
0.801060 0.697030 0.138065
0.866395 0.716486 0.126131
0.909280 0.736281 0.122022
0.940182 0.769230 0.162787
0.035695 0.032290 0.083877
0.080016 0.043263 0.132092
0.201521 0.045940 0.211144
0.492892 0.071846 0.254134
0.732884 0.081859 0.279255
0.835449 0.083202 0.315833
0.895308 0.095538 0.372689
0.926068 0.105295 0.407026
0.041070 0.089773 0.125973
0.166863 0.085652 0.225526
0.437924 0.099216 0.287140
0.698261 0.103478 0.301443
0.832308 0.107399 0.350259
0.893618 0.115554 0.405256
0.921241 0.118608 0.443254
0.940384 0.140854 0.464084
0.063888 0.166025 0.196517
0.118313 0.183257 0.253109
0.647426 0.140062 0.333665
0.814468 0.140034 0.370675
0.884648 0.143611 0.430400
0.914024 0.151107 0.463845
0.935414 0.170249 0.512112
0.943930 0.188681 0.525554
0.091038 0.275694 0.285756
0.127655 0.321432 0.336766
0.395211 0.298522 0.363488
0.785460 0.243718 0.309173
0.872720 0.250729 0.355722
0.905363 0.267895 0.385402
0.919669 0.291568 0.395009
0.937616 0.313690 0.407397
0.106076 0.412258 0.399523
0.131600 0.457519 0.445524
0.218412 0.432856 0.380217
0.544274 0.412055 0.162260
0.763660 0.402250 0.122931
0.843163 0.410231 0.139501
0.886673 0.423418 0.149872
0.912223 0.440868 0.169283
0.116338 0.566590 0.521894
0.141381 0.602098 0.551481
0.260011 0.555576 0.402972
0.644450 0.506652 0.125492
0.786300 0.509392 0.105068
0.857151 0.523111 0.109921
0.896850 0.541574 0.123507
0.931137 0.564185 0.155873
0.136262 0.697351 0.617510
0.169394 0.714122 0.616595
0.305123 0.670262 0.426728
0.668204 0.611131 0.159453
0.793001 0.628727 0.126023
0.864527 0.651136 0.120778
0.906118 0.677033 0.133268
0.931019 0.686119 0.148437
0.169760 0.781106 0.680340
0.214347 0.774269 0.621601
0.369968 0.757286 0.463672
0.675935 0.697063 0.231180
0.793097 0.728439 0.183096
0.862205 0.749671 0.162478
0.909059 0.772736 0.164690
0.936774 0.806857 0.217229
0.044020 0.056759 0.141393
0.081953 0.052060 0.182829
0.203063 0.059221 0.285313
0.500037 0.072049 0.322432
0.743548 0.075809 0.334382
0.851691 0.083373 0.392972
0.896931 0.090631 0.446757
0.924115 0.091372 0.490048
0.063163 0.123865 0.200964
0.121305 0.110288 0.260127
0.425662 0.097955 0.349644
0.723082 0.104215 0.364026
0.844819 0.106433 0.418388
0.891636 0.111974 0.473744
0.916511 0.116570 0.527262
0.936869 0.126350 0.559593
0.080085 0.195117 0.259322
0.134835 0.228094 0.327551
0.594947 0.148164 0.402457
0.813567 0.140863 0.433037
0.882126 0.140064 0.494837
0.907659 0.144892 0.548216
0.930727 0.156581 0.589123
0.944838 0.177340 0.618990
0.108192 0.315454 0.359698
0.147339 0.357612 0.414371
0.263544 0.370563 0.506136
0.825876 0.206829 0.490931
0.897367 0.200959 0.551607
0.922230 0.216127 0.588629
0.940356 0.243114 0.627953
0.942953 0.282815 0.570977
0.119935 0.442578 0.451521
0.152049 0.493989 0.513160
0.183995 0.537809 0.553716
0.471247 0.492412 0.451304
0.842591 0.401789 0.335314
0.881993 0.420600 0.351722
0.906822 0.446170 0.368332
0.916760 0.482614 0.326922
0.133573 0.593069 0.563717
0.161127 0.635991 0.602179
0.201133 0.665739 0.631494
0.387382 0.635464 0.440586
0.781768 0.550288 0.136761
0.856556 0.564311 0.142442
0.896106 0.590704 0.166803
0.921816 0.605767 0.199173
0.153249 0.709325 0.649425
0.189873 0.737812 0.671531
0.234191 0.758199 0.673922
0.495866 0.705484 0.410516
0.795088 0.668227 0.167757
0.863462 0.694529 0.155347
0.897620 0.707388 0.157804
0.925539 0.724974 0.183478
0.197599 0.792458 0.716047
0.235249 0.810819 0.723372
0.303916 0.798222 0.636754
0.583228 0.759050 0.400695
0.796137 0.753183 0.239391
0.862058 0.776212 0.216699
0.898802 0.796531 0.220255
0.922545 0.820580 0.282726
0.060921 0.083625 0.218712
0.098789 0.064937 0.258703
0.202172 0.063822 0.342629
0.518985 0.077591 0.393468
0.747820 0.075862 0.409800
0.850588 0.082860 0.466535
0.895446 0.084382 0.537486
0.925262 0.089517 0.587662
0.082897 0.152163 0.294545
0.125767 0.150476 0.353351
0.385535 0.112376 0.444599
0.724991 0.106480 0.434118
0.842727 0.107162 0.491748
0.890006 0.107021 0.555939
0.925251 0.117248 0.623518
0.939328 0.124622 0.646523
0.108599 0.230625 0.360540
0.149237 0.266380 0.435662
0.302780 0.230383 0.541614
0.794568 0.146804 0.518264
0.884208 0.141113 0.580063
0.909293 0.150803 0.635364
0.940245 0.164649 0.686046
0.945671 0.176300 0.698355
0.133427 0.352285 0.450057
0.162339 0.384332 0.499807
0.275616 0.408281 0.608043
0.754810 0.246811 0.592117
0.893579 0.210818 0.644495
0.930495 0.217470 0.685949
0.947250 0.244379 0.724375
0.950765 0.263685 0.736488
0.146792 0.480536 0.540550
0.177332 0.528267 0.587422
0.216902 0.579223 0.631010
0.369726 0.581871 0.660093
0.869572 0.360642 0.625999
0.912450 0.344239 0.627096
0.927433 0.374930 0.641256
0.934128 0.406129 0.629114
0.159792 0.624870 0.614772
0.203350 0.663248 0.656813
0.245997 0.699630 0.686922
0.296483 0.723192 0.699458
0.703188 0.638408 0.392111
0.873506 0.597063 0.284415
0.897210 0.626690 0.285251
0.916872 0.638297 0.322172
0.179611 0.719750 0.680140
0.224445 0.753448 0.709667
0.268595 0.773826 0.726439
0.335137 0.798125 0.734469
0.691206 0.721000 0.373362
0.859997 0.725491 0.210473
0.895145 0.739315 0.207083
0.918691 0.754387 0.233756
0.220514 0.799725 0.742209
0.273597 0.822178 0.765419
0.315421 0.835908 0.763726
0.442415 0.830151 0.682452
0.770763 0.772661 0.342481
0.858164 0.792978 0.272283
0.894244 0.813754 0.294150
0.912930 0.832433 0.361528
0.085139 0.095860 0.308391
0.119251 0.083930 0.359088
0.247600 0.071016 0.439067
0.512825 0.080333 0.465860
0.755896 0.081851 0.483949
0.857965 0.082689 0.552243
0.904210 0.082844 0.631238
0.935894 0.092173 0.681788
0.108355 0.160382 0.393851
0.137015 0.182622 0.447847
0.350658 0.131286 0.544165
0.730825 0.107138 0.520787
0.843528 0.103899 0.577248
0.892747 0.106810 0.640019
0.921719 0.111824 0.699193
0.944862 0.126401 0.729458
0.135965 0.263366 0.476385
0.167767 0.290099 0.541586
0.249246 0.314982 0.623829
0.700821 0.175860 0.616127
0.885596 0.148351 0.669226
0.912203 0.152993 0.702901
0.935565 0.167147 0.750146
0.946129 0.180795 0.774865
0.156667 0.375676 0.552455
0.200826 0.429120 0.619158
0.263537 0.461615 0.676951
0.466591 0.418337 0.724599
0.875870 0.234748 0.717416
0.928747 0.227870 0.754916
0.943617 0.246809 0.782025
0.950700 0.273343 0.800783
0.176205 0.522554 0.629891
0.213984 0.570096 0.671188
0.268006 0.621108 0.704641
0.407812 0.608923 0.743834
0.788114 0.445220 0.739897
0.902707 0.365624 0.730701
0.930099 0.367787 0.752080
0.937416 0.385718 0.768165
0.199812 0.658470 0.683684
0.244767 0.694215 0.713143
0.298779 0.726888 0.739977
0.363498 0.747655 0.758551
0.543338 0.738576 0.756143
0.854450 0.649094 0.486165
0.900076 0.625957 0.438966
0.914411 0.650627 0.441438
0.218069 0.744541 0.722089
0.266931 0.766639 0.743903
0.326712 0.787619 0.765200
0.389974 0.810812 0.780724
0.498092 0.822700 0.771614
0.806211 0.765124 0.434252
0.898754 0.757553 0.291671
0.917931 0.776471 0.303508
0.258435 0.810918 0.769091
0.308678 0.827606 0.784540
0.365413 0.844427 0.798183
0.439257 0.854344 0.790464
0.633559 0.839846 0.702292
0.817995 0.810301 0.431113
0.888582 0.823214 0.360610
0.911101 0.839460 0.435062
0.104184 0.109356 0.413837
0.134798 0.114112 0.466738
0.266536 0.088866 0.544378
0.560161 0.081993 0.550066
0.761947 0.084402 0.572571
0.861631 0.080403 0.634021
0.907482 0.081827 0.711112
0.938038 0.091506 0.753752
0.131347 0.172466 0.491497
0.163247 0.194659 0.558041
0.320443 0.148170 0.629994
0.682721 0.121765 0.622879
0.846831 0.107703 0.660158
0.893939 0.104382 0.708934
0.919309 0.115266 0.753573
0.936524 0.128739 0.786636
0.171107 0.284373 0.595881
0.213362 0.320069 0.651892
0.283936 0.343071 0.707101
0.649242 0.210219 0.725215
0.872410 0.153251 0.728660
0.913387 0.161372 0.762741
0.930891 0.170977 0.794546
0.941916 0.187185 0.822755
0.201936 0.403722 0.664838
0.253145 0.447674 0.708091
0.314654 0.490831 0.746125
0.447886 0.484428 0.785584
0.830458 0.292079 0.788345
0.919031 0.243626 0.796606
0.935979 0.259036 0.819246
0.947193 0.283458 0.836161
0.219017 0.560832 0.712316
0.272410 0.606853 0.747037
0.340985 0.645423 0.775975
0.432638 0.662128 0.803413
0.626447 0.583136 0.816544
0.882785 0.408200 0.799215
0.929425 0.374069 0.820150
0.940936 0.394324 0.837036
0.249951 0.695081 0.751616
0.301805 0.713866 0.772482
0.367116 0.742313 0.798185
0.450138 0.759260 0.810887
0.601014 0.749039 0.826225
0.771317 0.694510 0.806824
0.892156 0.584290 0.776296
0.910802 0.559174 0.776242
0.280768 0.769022 0.777994
0.329034 0.787211 0.789272
0.397857 0.799566 0.802046
0.487404 0.814767 0.817757
0.586768 0.828190 0.824691
0.718952 0.818030 0.776615
0.883870 0.788393 0.487144
0.917191 0.785426 0.479753
0.305673 0.819149 0.794366
0.355539 0.834464 0.803741
0.416313 0.845092 0.816085
0.523351 0.857737 0.831731
0.635381 0.868665 0.832274
0.773265 0.852171 0.722669
0.869106 0.839087 0.542288
0.908987 0.851724 0.520162
0.124239 0.117302 0.521048
0.162429 0.129984 0.577498
0.319787 0.103794 0.641377
0.640958 0.090395 0.643107
0.770145 0.086526 0.662921
0.863258 0.082111 0.715953
0.911091 0.086022 0.777400
0.934759 0.095555 0.806841
0.154889 0.174411 0.590127
0.198703 0.196852 0.649873
0.289492 0.213733 0.714007
0.624978 0.143128 0.747219
0.846988 0.109877 0.742768
0.893122 0.115788 0.770915
0.919220 0.125366 0.804781
0.938261 0.135363 0.832716
0.212291 0.303805 0.691154
0.256922 0.320139 0.724518
0.334602 0.348992 0.775494
0.594755 0.256627 0.807872
0.844051 0.192890 0.795786
0.908112 0.172676 0.809805
0.924995 0.184882 0.836004
0.939573 0.192452 0.853272
0.252926 0.438505 0.745175
0.318644 0.478025 0.779179
0.389216 0.501218 0.811786
0.477199 0.500498 0.836401
0.778415 0.325090 0.842311
0.908253 0.268866 0.836272
0.926958 0.273583 0.848600
0.943271 0.295235 0.866013
0.279002 0.589525 0.781774
0.347378 0.620835 0.808606
0.422126 0.639373 0.833173
0.513100 0.650673 0.847179
0.623402 0.627845 0.858521
0.848420 0.455494 0.847280
0.922582 0.396659 0.851892
0.933389 0.400008 0.859716
0.304241 0.703275 0.806923
0.371413 0.730651 0.826194
0.447487 0.747690 0.839281
0.534268 0.760156 0.851694
0.630171 0.763415 0.864279
0.733408 0.735025 0.865295
0.885165 0.593766 0.848088
0.911897 0.555883 0.852257
0.336644 0.782933 0.825159
0.392536 0.795217 0.834393
0.477127 0.810209 0.843943
0.565523 0.820858 0.849994
0.653099 0.835159 0.856476
0.745628 0.836021 0.860610
0.847673 0.825161 0.798540
0.910179 0.793577 0.726576
0.365939 0.834285 0.829765
0.417275 0.839047 0.831064
0.504958 0.848763 0.841594
0.605127 0.862414 0.850806
0.700614 0.872813 0.865424
0.771364 0.880650 0.865995
0.860357 0.875175 0.785584
0.909948 0.873176 0.695250
0.157790 0.126888 0.619809
0.213426 0.144042 0.669529
0.326517 0.131303 0.724319
0.650158 0.096617 0.740862
0.798508 0.090688 0.755701
0.867592 0.091754 0.785163
0.910362 0.091360 0.825696
0.935304 0.100693 0.851467
0.191947 0.182536 0.687566
0.253241 0.203764 0.737094
0.350428 0.227506 0.790483
0.612731 0.153211 0.808736
0.847339 0.124369 0.798201
0.895406 0.124943 0.824610
0.918245 0.136497 0.848655
0.937241 0.139827 0.864920
0.252771 0.300697 0.761682
0.314177 0.322802 0.801566
0.394751 0.343893 0.828588
0.511133 0.336751 0.852752
0.794181 0.210553 0.858908
0.907295 0.185899 0.849189
0.923530 0.197730 0.866683
0.935808 0.203557 0.882066
0.313347 0.451676 0.809169
0.384125 0.467126 0.836822
0.451308 0.482128 0.854097
0.531766 0.491233 0.871140
0.735682 0.380869 0.888099
0.889576 0.305029 0.871228
0.923966 0.297840 0.874702
0.937066 0.303688 0.886121
0.352508 0.597154 0.837280
0.420486 0.613721 0.852219
0.508001 0.626363 0.869360
0.585799 0.630388 0.879835
0.648306 0.621715 0.885864
0.823187 0.485296 0.883090
0.911103 0.426369 0.871804
0.928201 0.416081 0.883273
0.377381 0.710436 0.853591
0.450780 0.725506 0.861948
0.540563 0.739071 0.875115
0.617307 0.744302 0.884790
0.692773 0.748200 0.891426
0.751149 0.740927 0.894271
0.867982 0.643646 0.890633
0.914976 0.578227 0.890471
0.403473 0.790464 0.865964
0.478795 0.801194 0.867011
0.564989 0.813077 0.874515
0.644972 0.826556 0.882626
0.716234 0.830112 0.888538
0.778392 0.839705 0.896680
0.841939 0.838712 0.889889
0.912817 0.789734 0.885629
0.429566 0.839700 0.861602
0.509693 0.847070 0.865925
0.601108 0.858580 0.870405
0.680823 0.869614 0.879257
0.751733 0.877196 0.888172
0.813855 0.889267 0.898888
0.869428 0.896196 0.894676
0.920394 0.903384 0.880206
