其他预设/【236】赛博朋克风调色预设/【后期菌】视频调色预设/CUBE/Miami 10.cube
# LUT by SparkleStock. Enhanced with VOXCOLOR algorithms.
LUT_3D_SIZE 8
DOMAIN_MIN 0.000000 0.000000 0.000000
DOMAIN_MAX 0.903226 0.903226 0.903226
0.019550 0.019550 0.015640
0.044777 0.027623 0.023965
0.156907 0.058273 0.058273
0.418503 0.118689 0.113266
0.564311 0.158421 0.154511
0.612367 0.174566 0.183521
0.641882 0.186800 0.210261
0.666099 0.206855 0.239902
0.027623 0.031281 0.027623
0.116936 0.052930 0.049273
0.373275 0.115219 0.111089
0.555531 0.163340 0.163486
0.616090 0.186678 0.204959
0.651305 0.204963 0.253109
0.675783 0.230849 0.295806
0.701428 0.260953 0.328230
0.031785 0.045533 0.036704
0.147635 0.074100 0.065621
0.491489 0.164040 0.147260
0.593224 0.197550 0.180437
0.639750 0.216824 0.224908
0.665847 0.249309 0.262841
0.690121 0.282326 0.299354
0.695309 0.313355 0.252230
0.053101 0.116167 0.078706
0.113962 0.110324 0.069087
0.418516 0.185580 0.118592
0.582429 0.235426 0.153376
0.629338 0.264876 0.178211
0.659414 0.296172 0.200187
0.678248 0.316882 0.218122
0.700260 0.343215 0.215493
0.090058 0.266641 0.185287
0.135436 0.249878 0.146056
0.356955 0.249846 0.077428
0.550835 0.282396 0.108461
0.630514 0.312696 0.119060
0.670546 0.332494 0.127950
0.700899 0.355186 0.132438
0.724974 0.370875 0.142374
0.093968 0.465550 0.328950
0.239104 0.377067 0.175363
0.515730 0.374431 0.088833
0.634827 0.375106 0.101906
0.686764 0.384680 0.110491
0.716552 0.402806 0.114246
0.739129 0.416140 0.117790
0.757858 0.424371 0.126888
0.084886 0.635954 0.473244
0.343553 0.494923 0.224823
0.624647 0.481752 0.101902
0.671734 0.460127 0.103639
0.719819 0.470986 0.110491
0.746587 0.475608 0.113392
0.770914 0.482786 0.114320
0.784662 0.488075 0.120781
0.189575 0.713020 0.571122
0.456489 0.571159 0.232928
0.689913 0.553439 0.113115
0.708967 0.522851 0.111248
0.731512 0.526171 0.113392
0.760193 0.528107 0.113392
0.778303 0.534292 0.113392
0.793195 0.546104 0.120663
0.023965 0.023713 0.023713
0.052393 0.031801 0.031818
0.154413 0.055778 0.062972
0.432126 0.122803 0.128935
0.573393 0.164601 0.186922
0.628593 0.190710 0.248011
0.663800 0.208719 0.302560
0.692359 0.233229 0.347642
0.028599 0.028868 0.029120
0.127891 0.060120 0.064803
0.391408 0.119711 0.132598
0.560192 0.168797 0.201155
0.637497 0.209761 0.282942
0.681490 0.234996 0.346636
0.705019 0.258234 0.386817
0.724530 0.291616 0.421932
0.040142 0.058655 0.053638
0.083452 0.069311 0.067757
0.537593 0.181580 0.220486
0.630748 0.222744 0.301093
0.677308 0.259778 0.374166
0.705477 0.283788 0.414440
0.732436 0.326818 0.460469
0.739272 0.361722 0.484063
0.056303 0.153241 0.114267
0.088027 0.186864 0.154779
0.374872 0.208946 0.180049
0.614400 0.260572 0.239400
0.666245 0.295352 0.299937
0.685055 0.331546 0.334458
0.706791 0.369985 0.361200
0.729010 0.417194 0.387515
0.076183 0.341938 0.254846
0.094450 0.410168 0.318556
0.273458 0.347011 0.196951
0.558924 0.323675 0.118702
0.658038 0.341915 0.124774
0.691780 0.367514 0.132734
0.714864 0.381267 0.139091
0.737037 0.397475 0.149562
0.062219 0.564238 0.426539
0.106417 0.584598 0.460420
0.406356 0.466958 0.205448
0.637317 0.402179 0.105966
0.696076 0.420664 0.113436
0.729286 0.434259 0.117066
0.751171 0.442766 0.125553
0.770426 0.460094 0.137976
0.102150 0.665875 0.550563
0.219751 0.652331 0.515049
0.553346 0.550706 0.190606
0.680198 0.483312 0.112299
0.719819 0.489593 0.113848
0.749265 0.496666 0.116272
0.770876 0.506544 0.119230
0.786876 0.507878 0.123328
0.240634 0.716767 0.610451
0.406968 0.630585 0.497686
0.679652 0.610412 0.173314
0.713168 0.538966 0.117222
0.734545 0.541775 0.117525
0.763489 0.542425 0.118124
0.780752 0.552035 0.118791
0.796416 0.568118 0.139157
0.032290 0.028380 0.037209
0.066345 0.037176 0.046258
0.171844 0.067606 0.088605
0.443083 0.130965 0.169012
0.586254 0.182138 0.247608
0.652640 0.215164 0.327599
0.692334 0.240394 0.382796
0.717487 0.264928 0.425115
0.043800 0.044305 0.053166
0.113866 0.061157 0.080445
0.401094 0.133419 0.174733
0.586929 0.198598 0.278937
0.655613 0.231795 0.356998
0.699928 0.262668 0.418902
0.719916 0.289460 0.453901
0.737880 0.315897 0.479473
0.050892 0.070943 0.076936
0.103687 0.102727 0.129369
0.526241 0.198704 0.279211
0.648938 0.249907 0.377882
0.692404 0.283654 0.436452
0.716613 0.313513 0.474705
0.733880 0.341919 0.500433
0.755802 0.384566 0.535617
0.065238 0.194901 0.177410
0.111564 0.245379 0.241595
0.301382 0.294773 0.341236
0.663424 0.312539 0.438191
0.711771 0.345684 0.487501
0.728057 0.384165 0.518326
0.744831 0.429304 0.550156
0.748644 0.460966 0.541719
0.063562 0.409890 0.337987
0.117705 0.461927 0.415523
0.197800 0.494376 0.459697
0.524017 0.426272 0.312758
0.685978 0.412654 0.298750
0.705552 0.437254 0.313206
0.724967 0.469174 0.336738
0.748853 0.465231 0.273285
0.078311 0.584602 0.500867
0.148553 0.597892 0.536288
0.261484 0.618424 0.561276
0.586730 0.522856 0.221887
0.703094 0.446248 0.119845
0.732391 0.458380 0.125899
0.759963 0.474687 0.134843
0.771089 0.480784 0.148451
0.161977 0.656261 0.587324
0.264919 0.677473 0.607261
0.393224 0.678225 0.593222
0.677127 0.568732 0.203085
0.722217 0.510324 0.122566
0.749289 0.516644 0.121259
0.767969 0.521496 0.122801
0.784662 0.527816 0.129861
0.318457 0.714407 0.641528
0.415371 0.718707 0.639498
0.577129 0.658601 0.479849
0.721615 0.595996 0.184906
0.740859 0.555192 0.126215
0.767321 0.559441 0.126994
0.778611 0.564561 0.129809
0.793217 0.582882 0.162913
0.053101 0.045281 0.067859
0.098614 0.054769 0.087291
0.201729 0.082266 0.125598
0.470091 0.156297 0.232460
0.611049 0.206924 0.328377
0.671775 0.241920 0.399449
0.706713 0.267565 0.446883
0.724840 0.285940 0.473297
0.068615 0.069169 0.111927
0.146387 0.106497 0.181048
0.411700 0.162057 0.249633
0.608993 0.221615 0.354682
0.673024 0.260899 0.421895
0.708629 0.288044 0.469269
0.730096 0.317729 0.499361
0.746349 0.343293 0.520147
0.094696 0.116854 0.174187
0.161470 0.178428 0.277355
0.420164 0.246710 0.390169
0.657620 0.280362 0.437135
0.704093 0.311635 0.489113
0.723476 0.342721 0.517950
0.745387 0.384800 0.550710
0.761473 0.422303 0.574128
0.130904 0.244088 0.290273
0.180865 0.295135 0.353630
0.358399 0.378782 0.469212
0.652754 0.369730 0.503817
0.712929 0.388762 0.541783
0.732129 0.414362 0.560072
0.747507 0.463061 0.590087
0.764469 0.503118 0.614858
0.145714 0.421689 0.430380
0.205112 0.465574 0.478611
0.289153 0.508368 0.524172
0.466704 0.536651 0.563101
0.702070 0.499256 0.573317
0.724036 0.510390 0.576055
0.739346 0.546239 0.591326
0.751722 0.571814 0.595485
0.161078 0.565943 0.549184
0.257803 0.597058 0.583816
0.357389 0.627480 0.611458
0.450259 0.643195 0.617290
0.676661 0.543189 0.315771
0.738598 0.498359 0.223297
0.758498 0.505141 0.209036
0.768965 0.523189 0.243409
0.238555 0.651382 0.615309
0.347153 0.675373 0.637308
0.436816 0.693674 0.654729
0.547660 0.696706 0.646519
0.711718 0.576326 0.236239
0.750554 0.535387 0.135323
0.768981 0.541411 0.138669
0.781405 0.547019 0.152350
0.377295 0.712983 0.665395
0.470955 0.728038 0.683377
0.555465 0.720291 0.674478
0.678558 0.700214 0.555608
0.748284 0.585191 0.180652
0.768036 0.576410 0.147401
0.778136 0.585562 0.158860
0.790374 0.610671 0.226730
0.096112 0.084382 0.169773
0.179176 0.106894 0.210192
0.331335 0.134708 0.241537
0.504387 0.185848 0.319661
0.628630 0.231435 0.395161
0.683725 0.263509 0.451550
0.718570 0.288702 0.489251
0.738344 0.317696 0.522582
0.128784 0.128532 0.252010
0.195556 0.173797 0.327034
0.465916 0.215043 0.381761
0.628398 0.250716 0.422247
0.680196 0.280869 0.474993
0.712211 0.307922 0.507440
0.732416 0.342980 0.535749
0.760698 0.386345 0.569630
0.173935 0.208373 0.350120
0.231712 0.260376 0.412965
0.370090 0.331617 0.492793
0.628895 0.312434 0.488440
0.713293 0.346519 0.536616
0.730583 0.377137 0.556931
0.748319 0.421425 0.585765
0.765371 0.457109 0.609475
0.208999 0.324467 0.423056
0.274281 0.386757 0.476248
0.370417 0.449796 0.539906
0.558505 0.483498 0.594908
0.709901 0.436623 0.580365
0.738494 0.466167 0.603133
0.756681 0.500259 0.624247
0.769790 0.538788 0.647731
0.225759 0.450382 0.495545
0.292828 0.497145 0.535628
0.387218 0.545290 0.581343
0.523760 0.580272 0.622783
0.687899 0.578274 0.638508
0.734191 0.560708 0.632129
0.753026 0.580298 0.646606
0.769104 0.604153 0.664302
0.258675 0.572323 0.585261
0.346715 0.604759 0.611867
0.439189 0.631024 0.640052
0.520424 0.653338 0.659717
0.629633 0.672366 0.672105
0.726990 0.604497 0.483282
0.753166 0.578495 0.408484
0.765864 0.585530 0.404810
0.335383 0.657384 0.642867
0.426660 0.676661 0.661961
0.514254 0.695765 0.683446
0.575602 0.709639 0.692587
0.650398 0.711914 0.683298
0.736753 0.616034 0.350866
0.769479 0.561217 0.188649
0.782577 0.569197 0.195937
0.441773 0.714127 0.686728
0.520410 0.728304 0.701775
0.586213 0.734012 0.708953
0.652269 0.726744 0.693451
0.723315 0.727375 0.620293
0.764363 0.639090 0.297165
0.779781 0.610546 0.220016
0.789674 0.647805 0.340662
0.176710 0.151988 0.334122
0.259269 0.186015 0.389969
0.449275 0.212979 0.424607
0.557826 0.225051 0.409084
0.645686 0.256120 0.453515
0.691830 0.282619 0.494898
0.722968 0.313513 0.528742
0.748019 0.351332 0.562732
0.207909 0.198657 0.396394
0.284510 0.245190 0.453910
0.536204 0.279914 0.525633
0.621128 0.272994 0.477060
0.686806 0.304806 0.516855
0.717353 0.335303 0.544703
0.738562 0.379978 0.573822
0.763895 0.419541 0.601764
0.251164 0.289166 0.463191
0.310788 0.339716 0.503401
0.408377 0.401459 0.557419
0.641599 0.382390 0.568160
0.712012 0.379871 0.567650
0.733589 0.423535 0.600777
0.752739 0.460996 0.620509
0.770532 0.494066 0.642123
0.279649 0.393395 0.505929
0.351343 0.447162 0.548378
0.433934 0.505273 0.591101
0.560382 0.561641 0.646994
0.709079 0.510231 0.635571
0.742748 0.510181 0.637708
0.759545 0.542883 0.654653
0.772281 0.568283 0.667471
0.312395 0.498650 0.555807
0.397235 0.547003 0.596900
0.486933 0.590352 0.635408
0.568960 0.627716 0.666750
0.669311 0.648983 0.703810
0.744707 0.611918 0.680311
0.768534 0.615554 0.686789
0.778443 0.630931 0.698598
0.368779 0.596922 0.621644
0.455510 0.618522 0.645128
0.530940 0.643171 0.668526
0.596248 0.670289 0.693098
0.670486 0.692491 0.715027
0.720138 0.694782 0.715842
0.758801 0.675839 0.700258
0.775429 0.676664 0.703527
0.443652 0.659902 0.667218
0.519274 0.678821 0.686593
0.579776 0.695386 0.700683
0.631626 0.711845 0.712073
0.668223 0.723359 0.721174
0.712496 0.721313 0.702314
0.763869 0.654187 0.461486
0.782298 0.646853 0.441944
0.503512 0.710998 0.703365
0.568441 0.727679 0.717658
0.616686 0.733119 0.721392
0.663541 0.743944 0.730150
0.708200 0.750165 0.732563
0.752272 0.741631 0.655612
0.776967 0.693578 0.480348
0.793819 0.693744 0.479243
0.260839 0.213288 0.447640
0.339741 0.241891 0.491041
0.562370 0.267569 0.538877
0.610813 0.263655 0.485398
0.652237 0.274978 0.496465
0.702063 0.309888 0.540094
0.731813 0.354140 0.572176
0.757093 0.395999 0.599953
0.283502 0.261022 0.484344
0.361272 0.312244 0.529778
0.489125 0.362477 0.588917
0.647719 0.340907 0.565197
0.700600 0.344857 0.559365
0.722981 0.383410 0.585315
0.748274 0.427398 0.614857
0.772778 0.463928 0.638489
0.318734 0.357021 0.535749
0.385222 0.401859 0.570635
0.489243 0.477055 0.623760
0.669430 0.478400 0.659505
0.710680 0.453277 0.621186
0.741835 0.473015 0.635423
0.763479 0.508673 0.658120
0.777592 0.536998 0.674761
0.357488 0.461299 0.570907
0.440694 0.518150 0.615153
0.520565 0.567394 0.652671
0.600949 0.605125 0.688775
0.724529 0.578287 0.692296
0.756326 0.565893 0.677554
0.769730 0.581638 0.687926
0.782577 0.602826 0.697064
0.409068 0.550701 0.611749
0.495570 0.594367 0.649190
0.567170 0.627070 0.680848
0.629900 0.658917 0.712185
0.683803 0.676736 0.733828
0.750627 0.652445 0.719668
0.776293 0.645573 0.716413
0.783236 0.653501 0.719884
0.476788 0.618971 0.657347
0.548768 0.645249 0.681522
0.605192 0.671480 0.704842
0.650023 0.688409 0.721808
0.691451 0.709516 0.739349
0.725980 0.717546 0.746739
0.769655 0.698051 0.736289
0.783868 0.696775 0.738461
0.536733 0.671694 0.694271
0.589414 0.685975 0.708730
0.635526 0.705319 0.720134
0.670448 0.718317 0.728998
0.702022 0.732407 0.743221
0.729862 0.741434 0.750244
0.754017 0.735177 0.718096
0.790229 0.726471 0.689779
0.580676 0.718464 0.723867
0.614684 0.723595 0.726264
0.655326 0.739225 0.735842
0.687690 0.749464 0.745849
0.722114 0.762541 0.760055
0.746275 0.765902 0.753805
0.774357 0.760302 0.709226
0.798829 0.749382 0.661788
0.342572 0.260839 0.522436
0.430966 0.294390 0.563152
0.593757 0.322847 0.611895
0.647432 0.301474 0.543845
0.675608 0.318306 0.549855
0.711820 0.358965 0.581461
0.742429 0.400381 0.609560
0.766792 0.439185 0.637972
0.362351 0.331448 0.554953
0.439802 0.374982 0.589944
0.540435 0.426157 0.638539
0.684872 0.419582 0.642525
0.706372 0.398410 0.603964
0.731883 0.438424 0.625908
0.756022 0.481014 0.655662
0.774244 0.508233 0.673769
0.400243 0.426023 0.597537
0.482188 0.485099 0.636634
0.557770 0.534791 0.666806
0.639511 0.567083 0.700536
0.732659 0.538707 0.691774
0.750315 0.519027 0.666356
0.770133 0.552395 0.688474
0.784512 0.577371 0.701522
0.446704 0.523770 0.631865
0.526270 0.569617 0.666278
0.595866 0.610474 0.698613
0.656028 0.638662 0.725482
0.740563 0.640264 0.747371
0.763342 0.610731 0.716274
0.779859 0.618328 0.717129
0.791804 0.631284 0.723412
0.510494 0.601491 0.667255
0.576770 0.633029 0.695338
0.634105 0.662930 0.726227
0.672460 0.680676 0.743993
0.706790 0.699183 0.759900
0.766773 0.686062 0.757681
0.783648 0.674074 0.741707
0.794426 0.676290 0.742457
0.561284 0.650833 0.694348
0.614902 0.672015 0.716238
0.656440 0.691821 0.733531
0.688274 0.707930 0.752262
0.720535 0.722785 0.768087
0.746880 0.732095 0.775423
0.780722 0.724999 0.770620
0.796999 0.720865 0.766772
0.606838 0.687541 0.718643
0.642500 0.702042 0.730020
0.678069 0.717691 0.742479
0.710477 0.730939 0.757593
0.733522 0.741866 0.768263
0.755837 0.756838 0.777477
0.770654 0.762569 0.773726
0.798246 0.757705 0.770004
0.631710 0.717520 0.735304
0.664534 0.730133 0.743921
0.693887 0.742319 0.753646
0.718976 0.751193 0.763150
0.742273 0.764445 0.774062
0.764749 0.777363 0.783417
0.781717 0.785323 0.780505
0.804475 0.788605 0.771567
