其他预设/【236】赛博朋克风调色预设/【后期菌】视频调色预设/CUBE/Miami 09.cube
# LUT by SparkleStock. Enhanced with VOXCOLOR algorithms.
LUT_3D_SIZE 32
0.070381 0.011730 0.015640
0.080472 0.013748 0.021695
0.090310 0.015640 0.027623
0.096364 0.015640 0.031659
0.102671 0.015640 0.035191
0.110743 0.015640 0.035191
0.121086 0.016397 0.036326
0.141267 0.020433 0.042380
0.163971 0.024974 0.048939
0.194242 0.031028 0.057011
0.230190 0.038975 0.063822
0.278624 0.051083 0.067859
0.333113 0.065462 0.078706
0.397692 0.083625 0.100905
0.456973 0.100022 0.120455
0.509444 0.114149 0.136600
0.555860 0.127266 0.150727
0.596222 0.139375 0.162835
0.629773 0.149213 0.172674
0.658027 0.157286 0.180746
0.685019 0.162835 0.191341
0.711254 0.166872 0.203450
0.727777 0.170908 0.208621
0.739886 0.174944 0.210639
0.750481 0.178980 0.214171
0.760571 0.183016 0.218207
0.770662 0.188692 0.222243
0.780752 0.194747 0.226279
0.789077 0.197269 0.228550
0.797149 0.199287 0.230568
0.805222 0.203197 0.230694
0.813294 0.207234 0.230694
0.076436 0.017785 0.021695
0.086526 0.018761 0.027749
0.096364 0.019676 0.033612
0.102419 0.019676 0.036607
0.109506 0.019807 0.039487
0.123828 0.020848 0.041570
0.139639 0.022256 0.044398
0.161904 0.025251 0.050452
0.188774 0.029791 0.056491
0.229461 0.038970 0.062480
0.275174 0.050367 0.070788
0.331941 0.066642 0.084199
0.388513 0.082453 0.099343
0.444759 0.097491 0.117375
0.498442 0.112586 0.134582
0.548830 0.127755 0.150727
0.591600 0.139831 0.164333
0.626754 0.148815 0.175400
0.656855 0.156700 0.184782
0.683025 0.163731 0.192855
0.707283 0.169541 0.202148
0.730393 0.174619 0.212173
0.743792 0.178264 0.215977
0.752776 0.181259 0.216954
0.761808 0.185035 0.219444
0.770857 0.189071 0.222439
0.780752 0.193900 0.226279
0.790843 0.198913 0.230316
0.799168 0.202217 0.233497
0.807240 0.205277 0.236557
0.813359 0.207299 0.236748
0.819349 0.209252 0.236748
0.082238 0.023713 0.027623
0.092328 0.023713 0.033677
0.102191 0.023713 0.039479
0.108636 0.023713 0.041497
0.116822 0.023981 0.043776
0.137198 0.026130 0.047877
0.158417 0.028278 0.052332
0.183285 0.030426 0.058321
0.214663 0.035097 0.063953
0.265571 0.047336 0.068510
0.320650 0.062036 0.078539
0.384904 0.082152 0.100608
0.443176 0.099265 0.119674
0.491481 0.111374 0.133736
0.539699 0.125134 0.148652
0.587808 0.141019 0.164666
0.626868 0.151956 0.177686
0.656879 0.157945 0.187712
0.683485 0.163971 0.196602
0.707442 0.170025 0.204609
0.728957 0.176039 0.212657
0.749008 0.182028 0.220730
0.759481 0.185376 0.223252
0.765600 0.187525 0.223252
0.773282 0.191089 0.224912
0.781485 0.195125 0.227126
0.791063 0.199108 0.230714
0.800958 0.203079 0.234620
0.809144 0.207051 0.238583
0.817086 0.211022 0.242554
0.821306 0.211392 0.242803
0.825277 0.211522 0.242803
0.084256 0.027749 0.031659
0.094346 0.027749 0.037713
0.104599 0.027749 0.043515
0.117294 0.027749 0.045533
0.131339 0.028278 0.047942
0.154840 0.032509 0.053085
0.180551 0.036741 0.058191
0.215835 0.040972 0.063139
0.256848 0.047726 0.070072
0.315047 0.062048 0.082962
0.373511 0.077856 0.098069
0.432557 0.096930 0.118055
0.486793 0.113392 0.135428
0.533014 0.125501 0.148448
0.577783 0.137438 0.161867
0.620684 0.149156 0.175798
0.655056 0.157489 0.187256
0.680901 0.162437 0.196240
0.703340 0.168007 0.204088
0.723131 0.174061 0.211054
0.741782 0.179424 0.218712
0.759749 0.184371 0.226784
0.770288 0.188827 0.229307
0.777449 0.193058 0.229307
0.786953 0.197143 0.233310
0.797239 0.201179 0.238648
0.804668 0.204316 0.241130
0.811439 0.207246 0.242953
0.817412 0.210175 0.245744
0.823271 0.213105 0.248674
0.826383 0.215363 0.248857
0.829313 0.217576 0.248857
0.086022 0.032290 0.035443
0.096112 0.032159 0.041367
0.106715 0.032037 0.047055
0.125008 0.032037 0.049203
0.144555 0.032810 0.051856
0.172873 0.038995 0.058041
0.204329 0.045228 0.063969
0.249378 0.051673 0.068786
0.299212 0.060576 0.077412
0.363400 0.076851 0.097463
0.424395 0.093593 0.116842
0.478363 0.111366 0.134745
0.528693 0.126965 0.150475
0.572961 0.138944 0.162583
0.614239 0.149156 0.174635
0.651671 0.157098 0.186613
0.681422 0.163088 0.196574
0.703491 0.167124 0.204516
0.722301 0.172295 0.211542
0.738576 0.178350 0.217857
0.754362 0.183143 0.224945
0.769856 0.187179 0.232496
0.780337 0.192602 0.235125
0.788540 0.198657 0.235516
0.799672 0.203002 0.241570
0.811781 0.206778 0.249512
0.816801 0.209337 0.250578
0.820187 0.211616 0.250057
0.824255 0.213780 0.251758
0.828422 0.215929 0.253776
0.830818 0.219969 0.254024
0.833097 0.224135 0.254154
0.086022 0.040362 0.037461
0.096112 0.039190 0.042343
0.106780 0.038092 0.047120
0.126115 0.038092 0.050310
0.148656 0.038995 0.054005
0.193640 0.046221 0.061231
0.239613 0.053887 0.069177
0.289870 0.063456 0.080244
0.342829 0.074963 0.093296
0.403893 0.092279 0.112306
0.461437 0.108762 0.130318
0.511238 0.123409 0.146137
0.558574 0.136665 0.160565
0.601801 0.147602 0.172674
0.639302 0.156773 0.184270
0.669444 0.163674 0.195206
0.695028 0.169142 0.204125
0.716055 0.173178 0.211026
0.734995 0.178350 0.218769
0.752312 0.184404 0.227166
0.765234 0.189197 0.232431
0.775520 0.193233 0.235817
0.785090 0.198657 0.239291
0.794334 0.204711 0.242807
0.805726 0.207494 0.248861
0.817835 0.209187 0.255762
0.818624 0.213048 0.253247
0.816801 0.217410 0.248560
0.821131 0.220746 0.249740
0.826339 0.223936 0.251758
0.830753 0.229018 0.252983
0.835115 0.234226 0.254154
0.086022 0.048434 0.039479
0.096307 0.046416 0.043711
0.107224 0.044537 0.047942
0.127600 0.044732 0.052174
0.152672 0.045839 0.056885
0.210611 0.053325 0.064958
0.268379 0.061861 0.074544
0.325406 0.074946 0.090688
0.382711 0.089203 0.107387
0.440845 0.106976 0.125745
0.495134 0.122917 0.142659
0.540965 0.134830 0.156395
0.585062 0.145987 0.169520
0.626270 0.155882 0.181629
0.660130 0.164011 0.192684
0.684543 0.169870 0.202384
0.706449 0.175013 0.210261
0.725849 0.179440 0.216315
0.744553 0.184782 0.224530
0.762716 0.190837 0.234425
0.773555 0.195507 0.238380
0.780000 0.199348 0.238771
0.788548 0.204442 0.242652
0.798053 0.210106 0.248120
0.809510 0.212108 0.254028
0.821619 0.212889 0.260083
0.818970 0.217479 0.254500
0.812916 0.222947 0.246233
0.816773 0.226650 0.246281
0.822046 0.230100 0.247518
0.828235 0.235808 0.249488
0.834484 0.241667 0.251506
0.086022 0.056507 0.041497
0.097349 0.054489 0.046770
0.109307 0.052674 0.052043
0.130725 0.053911 0.057316
0.156317 0.055538 0.062939
0.211131 0.059900 0.071012
0.268900 0.066874 0.080598
0.339468 0.085167 0.096743
0.406407 0.102809 0.113701
0.462458 0.118498 0.133101
0.514339 0.132682 0.150080
0.557044 0.143554 0.161733
0.596845 0.153669 0.173557
0.631804 0.162522 0.185665
0.662604 0.169610 0.195809
0.688058 0.174427 0.203425
0.708402 0.180091 0.210261
0.723635 0.186601 0.216315
0.740517 0.192855 0.223944
0.758679 0.198909 0.232798
0.770821 0.202929 0.237664
0.779349 0.205728 0.240138
0.786400 0.209065 0.242522
0.792780 0.212645 0.244865
0.803456 0.217251 0.249992
0.815565 0.222198 0.256046
0.812916 0.225030 0.249618
0.806862 0.227374 0.240308
0.807073 0.227952 0.236582
0.808180 0.228277 0.233652
0.815084 0.232814 0.235361
0.822376 0.237631 0.237379
0.086022 0.066597 0.044524
0.098391 0.064319 0.050318
0.111374 0.062260 0.056145
0.133573 0.063497 0.062459
0.159523 0.064831 0.068994
0.211734 0.066850 0.077066
0.269046 0.072505 0.086506
0.348468 0.093923 0.101869
0.422503 0.113713 0.118502
0.480377 0.128621 0.138944
0.532616 0.142024 0.156232
0.572457 0.152114 0.166583
0.608514 0.161448 0.177593
0.638265 0.169520 0.189701
0.666136 0.175713 0.199047
0.691590 0.179489 0.204841
0.710632 0.185543 0.210896
0.723261 0.193876 0.217210
0.738271 0.200488 0.224074
0.755131 0.205761 0.231365
0.767924 0.209325 0.236785
0.778275 0.211864 0.241082
0.784463 0.214224 0.242424
0.788760 0.216502 0.242424
0.798134 0.222540 0.246574
0.809201 0.229831 0.252108
0.806992 0.230987 0.244947
0.801719 0.230727 0.234856
0.798838 0.228700 0.228070
0.796299 0.226422 0.221755
0.802976 0.230063 0.223008
0.810267 0.234100 0.224766
0.086022 0.082742 0.050579
0.099432 0.079422 0.055331
0.113392 0.076191 0.060246
0.135591 0.074304 0.067602
0.161411 0.072904 0.075048
0.212580 0.074922 0.083120
0.268070 0.079992 0.091974
0.342284 0.098285 0.104213
0.415798 0.116513 0.118763
0.487212 0.134545 0.140246
0.548109 0.150096 0.158575
0.585867 0.160187 0.169968
0.619841 0.169520 0.181629
0.647509 0.177593 0.193738
0.672841 0.183330 0.202628
0.695170 0.186064 0.207380
0.713691 0.192118 0.213434
0.728404 0.201493 0.220791
0.741395 0.206802 0.226353
0.753048 0.208951 0.230519
0.764538 0.212645 0.235418
0.775931 0.217267 0.240756
0.783161 0.220994 0.242424
0.788499 0.224314 0.242424
0.795009 0.228269 0.245012
0.801910 0.232435 0.248462
0.801458 0.232159 0.240911
0.799310 0.230857 0.230820
0.794997 0.227789 0.223122
0.790375 0.224469 0.215766
0.793992 0.228045 0.215977
0.798158 0.232081 0.216693
0.086652 0.099518 0.057264
0.100779 0.096783 0.060649
0.115329 0.093886 0.064286
0.136226 0.088548 0.071708
0.160655 0.084089 0.079088
0.209805 0.085781 0.086184
0.262923 0.090062 0.093842
0.333231 0.105556 0.103932
0.405329 0.121652 0.116643
0.482798 0.139554 0.137215
0.547918 0.155015 0.155447
0.585871 0.165106 0.168532
0.620163 0.174562 0.181251
0.648351 0.182959 0.193359
0.673036 0.188424 0.201936
0.693217 0.190116 0.205972
0.711543 0.196008 0.211864
0.728013 0.206098 0.219611
0.740309 0.210879 0.224318
0.749358 0.211530 0.226662
0.760319 0.215558 0.231121
0.772428 0.221613 0.236850
0.780150 0.225832 0.238417
0.785879 0.229217 0.238091
0.790338 0.231577 0.239523
0.794375 0.233595 0.241541
0.796454 0.233921 0.235308
0.798081 0.233855 0.227170
0.792987 0.230031 0.219375
0.786933 0.225669 0.211628
0.787836 0.229180 0.210533
0.789203 0.233217 0.209882
0.088670 0.117680 0.065336
0.102797 0.119113 0.066638
0.117086 0.119861 0.068192
0.133817 0.110357 0.073530
0.154079 0.102122 0.078698
0.199064 0.102773 0.082669
0.248601 0.105816 0.087787
0.317867 0.119227 0.097878
0.386580 0.131937 0.109287
0.453633 0.142549 0.124650
0.513220 0.152997 0.140278
0.556381 0.163088 0.156488
0.596271 0.172934 0.171160
0.630709 0.182374 0.183269
0.658910 0.187968 0.191846
0.679091 0.188619 0.195882
0.697937 0.193990 0.201253
0.715449 0.204080 0.207958
0.729958 0.210033 0.212796
0.742132 0.212767 0.216181
0.754265 0.217576 0.220380
0.766373 0.223631 0.225067
0.773380 0.226418 0.225592
0.778067 0.227720 0.224225
0.782266 0.229559 0.225397
0.786302 0.231577 0.227415
0.792613 0.236980 0.226259
0.799448 0.243165 0.224371
0.795005 0.239210 0.218268
0.788951 0.233807 0.211563
0.787901 0.237253 0.208580
0.787185 0.241289 0.205846
0.091445 0.139627 0.071895
0.105572 0.143663 0.071504
0.119747 0.146813 0.071390
0.134655 0.136657 0.075426
0.152655 0.127576 0.079162
0.192301 0.126013 0.080789
0.236427 0.126575 0.083491
0.299965 0.136340 0.090847
0.363046 0.144982 0.099294
0.424761 0.150255 0.111012
0.482061 0.157033 0.124622
0.529649 0.167124 0.142394
0.573185 0.176775 0.158042
0.609967 0.185694 0.170151
0.640682 0.191052 0.179241
0.663597 0.191833 0.184449
0.684136 0.196683 0.190080
0.702299 0.205602 0.196134
0.718631 0.211774 0.201273
0.733539 0.215811 0.205700
0.746453 0.220864 0.209638
0.758171 0.226528 0.213284
0.765413 0.228835 0.213573
0.770621 0.229616 0.212336
0.775243 0.231325 0.213540
0.779670 0.233343 0.215558
0.788699 0.241602 0.217576
0.798789 0.251302 0.219594
0.796804 0.249268 0.215233
0.793093 0.245557 0.209960
0.790969 0.248377 0.205846
0.788951 0.251632 0.201810
0.095481 0.167881 0.075931
0.109608 0.171917 0.074499
0.123914 0.175392 0.073408
0.140905 0.170444 0.077445
0.159816 0.165399 0.081049
0.192171 0.159670 0.081635
0.227834 0.155674 0.082124
0.277831 0.159190 0.082189
0.331538 0.162624 0.084907
0.396378 0.165814 0.095583
0.456803 0.171160 0.108151
0.507515 0.181251 0.124882
0.551442 0.189730 0.139880
0.584057 0.195524 0.151988
0.615618 0.200036 0.162445
0.645824 0.202900 0.170778
0.670009 0.207230 0.177971
0.688172 0.213023 0.184025
0.705676 0.217829 0.189750
0.722667 0.221865 0.195219
0.735711 0.226267 0.198897
0.746388 0.230889 0.201501
0.755453 0.234303 0.202896
0.763786 0.237167 0.203743
0.769970 0.239397 0.205468
0.775439 0.241415 0.207486
0.784662 0.248828 0.209504
0.794753 0.257487 0.211522
0.798236 0.260791 0.208983
0.800775 0.263329 0.205793
0.799041 0.264587 0.201810
0.797023 0.265759 0.197774
0.099518 0.203197 0.079967
0.114556 0.205867 0.078861
0.129789 0.208328 0.078075
0.147952 0.207677 0.082111
0.167091 0.206155 0.085472
0.193066 0.198539 0.084105
0.221946 0.192350 0.082238
0.263415 0.192350 0.078201
0.310254 0.192741 0.077013
0.373206 0.194303 0.084370
0.432598 0.198103 0.094045
0.484157 0.206827 0.108823
0.528758 0.213451 0.122429
0.561764 0.216575 0.134082
0.594741 0.219302 0.144453
0.627682 0.221515 0.153176
0.654145 0.224184 0.161249
0.674131 0.227309 0.168670
0.692322 0.230690 0.174810
0.709118 0.234270 0.179953
0.722862 0.238421 0.183712
0.734776 0.242912 0.186642
0.745436 0.246465 0.188945
0.755526 0.249589 0.190963
0.764298 0.252909 0.193323
0.772631 0.256295 0.195796
0.782022 0.262377 0.197530
0.791657 0.269083 0.199092
0.798557 0.275617 0.197920
0.805067 0.282127 0.196358
0.805291 0.282534 0.193758
0.805096 0.282534 0.191089
0.103554 0.247596 0.084003
0.120675 0.247140 0.084980
0.137861 0.246867 0.086148
0.156024 0.249341 0.090184
0.174513 0.250684 0.093154
0.195280 0.244109 0.088662
0.219538 0.238766 0.084256
0.258923 0.238766 0.080219
0.302117 0.238897 0.077469
0.356736 0.239417 0.078576
0.409748 0.241525 0.082978
0.459223 0.247124 0.094631
0.504867 0.251013 0.105893
0.544122 0.252055 0.116505
0.579248 0.251786 0.124923
0.609063 0.249833 0.130521
0.636047 0.249378 0.138594
0.660199 0.250419 0.149140
0.678456 0.252303 0.155475
0.692127 0.254842 0.158535
0.707303 0.259253 0.162815
0.723383 0.264786 0.167828
0.735345 0.267231 0.170782
0.745436 0.268273 0.172800
0.758114 0.273416 0.175941
0.771655 0.279926 0.179456
0.781176 0.284056 0.180539
0.789769 0.287636 0.181059
0.797451 0.294691 0.180669
0.805002 0.302243 0.180148
0.809197 0.302715 0.180543
0.813168 0.302715 0.180998
0.107590 0.294012 0.096112
0.129919 0.289911 0.095005
0.152021 0.286285 0.094090
0.170704 0.289801 0.096043
0.189779 0.292511 0.097190
0.211587 0.289581 0.092698
0.236203 0.287298 0.088585
0.272985 0.287819 0.086111
0.313444 0.288340 0.083881
0.364938 0.288861 0.082384
0.414988 0.289504 0.083857
0.461860 0.290415 0.091864
0.505876 0.290399 0.100067
0.545131 0.288836 0.108595
0.578662 0.285053 0.114702
0.604832 0.278412 0.117697
0.630774 0.276134 0.124207
0.656489 0.278217 0.134232
0.675136 0.279092 0.140046
0.688286 0.279027 0.142585
0.703918 0.282461 0.146996
0.721039 0.287994 0.152529
0.734401 0.290798 0.156004
0.746054 0.292360 0.158543
0.759513 0.298414 0.161033
0.773575 0.305966 0.163507
0.783194 0.309022 0.164817
0.791787 0.311040 0.165859
0.799469 0.316077 0.166444
0.807020 0.321545 0.166965
0.814145 0.324328 0.167913
0.821241 0.326932 0.168890
0.111626 0.342446 0.116293
0.142288 0.334179 0.108937
0.172267 0.326582 0.101902
0.191992 0.329056 0.099688
0.212889 0.331636 0.097581
0.241989 0.334956 0.096214
0.271943 0.337946 0.095225
0.305600 0.339509 0.095876
0.344237 0.341071 0.096250
0.397814 0.342633 0.095795
0.448319 0.342039 0.096682
0.492066 0.336701 0.100523
0.531786 0.331607 0.104949
0.564791 0.326920 0.110353
0.592984 0.319100 0.113791
0.614987 0.307252 0.114702
0.638326 0.304452 0.118087
0.662999 0.310702 0.123946
0.682362 0.311056 0.128524
0.697595 0.306824 0.132104
0.712707 0.308045 0.136254
0.727745 0.312537 0.140746
0.742604 0.317163 0.144612
0.757381 0.321850 0.148192
0.768497 0.327905 0.148599
0.778392 0.334415 0.147948
0.788076 0.337275 0.150365
0.797711 0.339293 0.153490
0.804612 0.339773 0.155247
0.811122 0.340034 0.156810
0.820134 0.347374 0.155870
0.829313 0.355186 0.154763
0.111122 0.395421 0.131933
0.150117 0.385331 0.121257
0.188192 0.375594 0.110849
0.212474 0.371168 0.104469
0.238050 0.367538 0.098740
0.272684 0.369491 0.097569
0.307317 0.372555 0.097434
0.341950 0.380432 0.101796
0.380082 0.386552 0.104774
0.428712 0.387398 0.103603
0.474839 0.385823 0.103428
0.515462 0.378923 0.105446
0.551104 0.371461 0.107342
0.578446 0.363063 0.109034
0.603168 0.352927 0.110243
0.624521 0.340558 0.110829
0.646134 0.338117 0.113140
0.668007 0.345604 0.117176
0.687318 0.347121 0.120553
0.704634 0.343997 0.123417
0.719591 0.343883 0.126648
0.733132 0.345575 0.130098
0.747657 0.349058 0.133146
0.762630 0.353355 0.136010
0.772867 0.357212 0.135652
0.781525 0.360923 0.134220
0.791347 0.364210 0.136755
0.801438 0.367400 0.140205
0.808509 0.366546 0.142915
0.815150 0.365113 0.145519
0.823926 0.371737 0.144339
0.832845 0.378898 0.142907
0.107085 0.451928 0.144042
0.154413 0.441838 0.132324
0.200756 0.431385 0.120679
0.232330 0.415501 0.110133
0.264806 0.400935 0.100498
0.303606 0.395596 0.097243
0.342406 0.394689 0.096197
0.381205 0.412982 0.104726
0.419858 0.426393 0.110308
0.458072 0.425156 0.107053
0.496062 0.422800 0.105446
0.533560 0.417983 0.107464
0.565296 0.410260 0.107797
0.587430 0.397696 0.105324
0.610133 0.386584 0.104644
0.633569 0.377340 0.106272
0.654141 0.375940 0.109104
0.671848 0.382385 0.113140
0.690508 0.386377 0.115345
0.709907 0.388460 0.116126
0.724994 0.387695 0.117925
0.737493 0.385221 0.120333
0.750261 0.385254 0.121623
0.763151 0.386425 0.122404
0.773648 0.386377 0.122307
0.783348 0.385921 0.121916
0.793365 0.390120 0.123800
0.803456 0.395393 0.126209
0.811439 0.395710 0.129700
0.819121 0.395320 0.133345
0.826009 0.397126 0.133207
0.832845 0.399079 0.132816
0.103049 0.514742 0.163718
0.156106 0.498141 0.147053
0.208316 0.481439 0.130672
0.247832 0.463211 0.118563
0.288104 0.445845 0.107301
0.333674 0.434518 0.101963
0.377535 0.428134 0.098907
0.413991 0.443172 0.105743
0.449910 0.454923 0.110186
0.484218 0.456811 0.107452
0.518546 0.457254 0.105999
0.552919 0.454520 0.107366
0.582214 0.448978 0.107195
0.603046 0.438758 0.104461
0.624504 0.430331 0.103806
0.646768 0.424212 0.105824
0.665973 0.422552 0.108526
0.682118 0.425351 0.111911
0.699068 0.427381 0.113392
0.716645 0.428814 0.113392
0.730804 0.426828 0.114246
0.742913 0.422792 0.115614
0.755469 0.422426 0.116041
0.768229 0.423728 0.116041
0.778010 0.422051 0.116041
0.786799 0.419382 0.116041
0.795587 0.421685 0.117152
0.804376 0.425136 0.118519
0.813107 0.425567 0.121652
0.821830 0.425567 0.125037
0.827441 0.427398 0.125248
0.832845 0.429351 0.125248
0.099013 0.581339 0.187936
0.156236 0.554322 0.163979
0.212873 0.528050 0.140762
0.260721 0.512947 0.128654
0.309327 0.497665 0.117131
0.363229 0.481130 0.109710
0.412689 0.468366 0.103985
0.442896 0.471946 0.105613
0.474127 0.476666 0.106670
0.508435 0.484804 0.106019
0.541787 0.490195 0.105674
0.573035 0.489544 0.105999
0.600767 0.487648 0.105958
0.622641 0.483677 0.105307
0.643318 0.480133 0.105824
0.662458 0.477138 0.107842
0.680100 0.474437 0.110023
0.696244 0.472028 0.112367
0.710851 0.469436 0.113392
0.724262 0.466702 0.113392
0.736859 0.463154 0.113595
0.748967 0.459118 0.113921
0.762240 0.460184 0.114023
0.776041 0.463569 0.114023
0.784520 0.461632 0.114023
0.791225 0.457921 0.114023
0.797931 0.456644 0.114287
0.804636 0.455928 0.114613
0.814018 0.455838 0.116704
0.823783 0.455838 0.119048
0.828483 0.460599 0.119194
0.832845 0.465677 0.119194
0.101914 0.638224 0.217703
0.163303 0.605088 0.185022
0.224143 0.573006 0.153404
0.276744 0.556731 0.137715
0.330191 0.540041 0.122799
0.389562 0.520446 0.113294
0.443368 0.505465 0.105840
0.473053 0.510478 0.107273
0.503178 0.515865 0.108347
0.534621 0.522375 0.108347
0.564356 0.526626 0.108123
0.590331 0.525910 0.107407
0.614890 0.524706 0.106691
0.637089 0.522688 0.105975
0.656582 0.521296 0.105828
0.672597 0.520710 0.106414
0.689035 0.518041 0.107716
0.705896 0.513289 0.109734
0.719680 0.508940 0.110214
0.731073 0.504903 0.109498
0.742913 0.501315 0.109230
0.755022 0.497995 0.109230
0.767533 0.499732 0.109722
0.780228 0.503768 0.110438
0.787405 0.501213 0.111154
0.792743 0.496461 0.111870
0.799827 0.493348 0.112586
0.807313 0.490614 0.113302
0.815825 0.489646 0.114531
0.824483 0.488929 0.115833
0.828808 0.492547 0.115915
0.832845 0.496453 0.115915
0.107968 0.690695 0.249992
0.173524 0.653392 0.207938
0.238465 0.617209 0.167205
0.294191 0.597809 0.146308
0.350893 0.578125 0.126575
0.414431 0.556446 0.114987
0.472012 0.541140 0.106231
0.503780 0.553444 0.109746
0.534426 0.562997 0.112383
0.561703 0.564299 0.112383
0.586620 0.564645 0.111834
0.606345 0.562887 0.110076
0.626998 0.561032 0.108318
0.649197 0.559014 0.106561
0.667324 0.558534 0.104917
0.680214 0.560031 0.103419
0.695610 0.557883 0.103680
0.713512 0.552089 0.105698
0.727167 0.547283 0.105592
0.737518 0.543247 0.103834
0.748967 0.540310 0.103175
0.761076 0.538031 0.103175
0.772155 0.540094 0.104384
0.782766 0.544130 0.106141
0.788642 0.540794 0.107899
0.792938 0.535000 0.109657
0.801519 0.530846 0.111415
0.811089 0.527070 0.113172
0.818038 0.525060 0.113620
0.824613 0.523302 0.113880
0.828808 0.523925 0.113897
0.832845 0.524706 0.113897
0.112509 0.729543 0.280768
0.179106 0.693543 0.230902
0.245464 0.658385 0.182569
0.308220 0.635860 0.157245
0.371107 0.613669 0.133280
0.434905 0.593814 0.118828
0.492941 0.580037 0.107696
0.526012 0.592601 0.110951
0.556788 0.601829 0.113197
0.580680 0.601048 0.112415
0.603514 0.600368 0.111248
0.624020 0.599913 0.109230
0.643989 0.598578 0.107212
0.663064 0.595779 0.105193
0.679432 0.594062 0.103175
0.692322 0.593736 0.101157
0.706286 0.590546 0.099985
0.721324 0.584492 0.099660
0.733579 0.579573 0.098382
0.743670 0.575537 0.096364
0.754045 0.573738 0.096096
0.764591 0.573283 0.096877
0.774824 0.574304 0.099046
0.784915 0.575997 0.101845
0.791050 0.571879 0.104058
0.795868 0.565825 0.106076
0.804970 0.562045 0.107460
0.815060 0.558790 0.108697
0.821619 0.557984 0.108851
0.827673 0.557529 0.108851
0.831836 0.556035 0.109584
0.835872 0.554473 0.110365
0.116545 0.763851 0.311040
0.183143 0.730975 0.253882
0.250021 0.698551 0.198453
0.321110 0.672902 0.168963
0.391157 0.648367 0.140962
0.453914 0.631637 0.123385
0.511299 0.620008 0.109519
0.545412 0.630489 0.111732
0.576188 0.637895 0.112936
0.596955 0.636072 0.111113
0.618617 0.635327 0.109230
0.642248 0.636955 0.107212
0.662608 0.636531 0.105193
0.677516 0.632691 0.103175
0.691997 0.629021 0.101157
0.705928 0.625570 0.099139
0.718330 0.620818 0.096405
0.729201 0.614764 0.092955
0.739634 0.609845 0.090310
0.749724 0.605808 0.088292
0.758797 0.605312 0.088674
0.767260 0.606939 0.090497
0.776842 0.606463 0.093707
0.786933 0.605031 0.097548
0.793850 0.600132 0.100022
0.799709 0.594078 0.102040
0.809006 0.591145 0.102577
0.819096 0.588931 0.102773
0.825655 0.590079 0.102797
0.831709 0.591706 0.102797
0.835872 0.588390 0.104506
0.839908 0.584744 0.106329
0.130420 0.794879 0.346230
0.196171 0.761743 0.278396
0.262406 0.728827 0.212645
0.335904 0.699206 0.178142
0.408458 0.671482 0.145470
0.474404 0.657030 0.125615
0.533942 0.646862 0.109702
0.565711 0.655260 0.110873
0.594371 0.661265 0.111459
0.613706 0.660094 0.110288
0.634037 0.659390 0.108851
0.656562 0.659715 0.106833
0.676255 0.659040 0.104498
0.691228 0.656696 0.101633
0.705090 0.653612 0.098769
0.717524 0.649576 0.095904
0.727940 0.644531 0.092454
0.736338 0.638476 0.088418
0.745688 0.634033 0.085993
0.755778 0.630843 0.084821
0.764608 0.630380 0.085114
0.772680 0.631551 0.086286
0.781558 0.629366 0.088845
0.790802 0.625656 0.092035
0.798289 0.621457 0.093711
0.805189 0.617095 0.094883
0.813306 0.618763 0.095103
0.821704 0.621823 0.095103
0.828052 0.621009 0.096584
0.834106 0.619642 0.098277
0.837475 0.617360 0.098688
0.840665 0.615016 0.099013
0.146565 0.825151 0.382556
0.211274 0.790973 0.303264
0.276598 0.756820 0.226446
0.351137 0.723033 0.186735
0.425123 0.691923 0.149246
0.495236 0.679554 0.127307
0.557573 0.670689 0.109506
0.586217 0.677003 0.109637
0.612274 0.681707 0.109702
0.630567 0.681577 0.109571
0.649531 0.680938 0.108851
0.669973 0.679180 0.106833
0.688754 0.677984 0.104107
0.704768 0.677723 0.100201
0.718305 0.675811 0.096295
0.728656 0.671775 0.092389
0.736989 0.666730 0.088418
0.743304 0.660675 0.084382
0.751742 0.656818 0.082543
0.761833 0.654670 0.082413
0.770662 0.653946 0.082445
0.778734 0.654076 0.082575
