其他预设/【236】赛博朋克风调色预设/【后期菌】视频调色预设/CUBE/Miami 05.cube
# LUT by SparkleStock. Enhanced with VOXCOLOR algorithms.
LUT_3D_SIZE 5
DOMAIN_MIN 0.000000 0.000000 0.000000
DOMAIN_MAX 0.903226 0.903226 0.903226
0.015640 0.015640 0.031281
0.166115 0.044777 0.141267
0.625106 0.080850 0.202062
0.849368 0.097121 0.269290
0.912433 0.119068 0.315959
0.045407 0.118437 0.131681
0.464619 0.126213 0.229954
0.807565 0.146438 0.277436
0.903974 0.168109 0.350897
0.934938 0.223399 0.338487
0.076940 0.303472 0.283039
0.253874 0.278372 0.187777
0.714082 0.288714 0.114340
0.866977 0.309099 0.165138
0.919855 0.348647 0.215579
0.104941 0.565446 0.489768
0.330850 0.437480 0.179273
0.739414 0.496326 0.088528
0.874089 0.498320 0.092784
0.928578 0.528864 0.119320
0.155646 0.774067 0.649702
0.404609 0.681878 0.293719
0.746571 0.683359 0.153103
0.882540 0.721629 0.126131
0.940182 0.769230 0.162787
0.043011 0.051714 0.126257
0.163222 0.054110 0.242217
0.633919 0.075174 0.301149
0.865639 0.085147 0.385583
0.925677 0.095408 0.468419
0.069165 0.165610 0.223631
0.448577 0.141387 0.357854
0.841849 0.129826 0.422222
0.910468 0.136170 0.525576
0.942998 0.164174 0.582079
0.111048 0.372824 0.387186
0.178380 0.440242 0.469855
0.838218 0.298960 0.397485
0.909966 0.324023 0.444701
0.928997 0.380988 0.411376
0.131294 0.618312 0.572392
0.193094 0.676583 0.621053
0.727761 0.576352 0.142907
0.868839 0.593507 0.125337
0.925197 0.633571 0.184115
0.189396 0.789203 0.707291
0.275961 0.793270 0.641335
0.739503 0.726395 0.242063
0.875697 0.778620 0.206107
0.925681 0.817884 0.264824
0.073030 0.090814 0.259956
0.180351 0.068038 0.363258
0.662641 0.079768 0.423602
0.869976 0.084903 0.526268
0.931207 0.088984 0.637130
0.113213 0.223199 0.398396
0.223399 0.245862 0.537297
0.845075 0.132145 0.570569
0.915027 0.139775 0.671191
0.947791 0.162868 0.730593
0.152997 0.426661 0.544448
0.221124 0.516732 0.637317
0.761274 0.347529 0.676845
0.934809 0.281112 0.743388
0.949182 0.320831 0.780819
0.187606 0.667975 0.667442
0.257908 0.721355 0.711362
0.369046 0.760702 0.735709
0.879036 0.655788 0.300143
0.910718 0.682884 0.305003
0.236431 0.806524 0.754411
0.325938 0.837637 0.785968
0.542250 0.829047 0.668042
0.861862 0.802894 0.305731
0.911835 0.836105 0.397317
0.108221 0.115410 0.444108
0.221747 0.105792 0.556845
0.697302 0.087820 0.575175
0.878101 0.081054 0.671323
0.938038 0.094631 0.772306
0.168503 0.260839 0.597736
0.267895 0.297536 0.694430
0.811740 0.161322 0.719595
0.915523 0.146459 0.774122
0.940357 0.171281 0.827074
0.224876 0.488018 0.712674
0.331399 0.566929 0.773764
0.525478 0.552879 0.818993
0.921167 0.311163 0.820582
0.944092 0.342357 0.846605
0.267073 0.716954 0.771797
0.376090 0.761316 0.811797
0.531048 0.786656 0.832808
0.787048 0.731137 0.800784
0.907026 0.617519 0.788170
0.317065 0.824683 0.802829
0.413383 0.843591 0.816765
0.597393 0.866130 0.843458
0.792696 0.856823 0.749984
0.911005 0.856172 0.545076
0.157790 0.126888 0.619809
0.280980 0.136673 0.707165
0.749325 0.093065 0.746782
0.882825 0.089020 0.795449
0.935304 0.100693 0.851467
0.234722 0.265592 0.741843
0.358802 0.308480 0.811414
0.678822 0.224142 0.851831
0.910757 0.170829 0.849946
0.936054 0.183942 0.879231
0.335257 0.532022 0.826245
0.466751 0.560477 0.860886
0.595379 0.553898 0.878199
0.889023 0.370640 0.872865
0.934335 0.359588 0.886638
0.383630 0.733547 0.856716
0.524438 0.760355 0.873960
0.664099 0.772595 0.887822
0.773886 0.775413 0.896697
0.911852 0.627985 0.896026
0.429566 0.839700 0.861602
0.579078 0.856383 0.869423
0.718485 0.872650 0.883755
0.831783 0.891892 0.902512
0.920394 0.903384 0.880206
