其他预设/【236】赛博朋克风调色预设/【后期菌】视频调色预设/CUBE/Miami 02_S.cube
# LUT by SparkleStock. Enhanced with VOXCOLOR algorithms.
LUT_3D_SIZE 32
0.023460 0.007820 0.011730
0.037587 0.013874 0.027875
0.051840 0.019803 0.043641
0.067985 0.023839 0.053732
0.083877 0.027623 0.063570
0.098004 0.029641 0.071643
0.115915 0.032794 0.081607
0.150222 0.040867 0.099770
0.190080 0.049443 0.116924
0.246587 0.059534 0.131050
0.306877 0.067732 0.138870
0.375493 0.071769 0.132816
0.455460 0.076562 0.131303
0.554347 0.082616 0.137357
0.634692 0.088670 0.142528
0.691199 0.094725 0.146565
0.736606 0.099770 0.153628
0.770914 0.103806 0.163718
0.798411 0.108977 0.174944
0.820610 0.115032 0.187053
0.841548 0.119825 0.201684
0.861729 0.123861 0.217829
0.872198 0.129285 0.228424
0.878252 0.135339 0.236496
0.884306 0.141393 0.246082
0.890360 0.147447 0.256173
0.898054 0.156781 0.267903
0.906127 0.166872 0.280011
0.910668 0.173430 0.286822
0.914704 0.179485 0.292877
0.918740 0.189323 0.300823
0.922776 0.199413 0.308895
0.029515 0.017911 0.027875
0.046766 0.021882 0.041937
0.063883 0.025922 0.055750
0.078987 0.031000 0.065841
0.095140 0.036086 0.076330
0.118641 0.041229 0.089610
0.145340 0.046530 0.102830
0.185897 0.052519 0.115784
0.232004 0.059274 0.127470
0.294761 0.068322 0.135347
0.362603 0.075805 0.139847
0.441634 0.079841 0.136917
0.519909 0.084634 0.136576
0.596922 0.090688 0.140547
0.661318 0.097198 0.145914
0.709492 0.104294 0.153074
0.748129 0.109860 0.162221
0.777229 0.113897 0.173353
0.801275 0.117896 0.183863
0.821391 0.121867 0.193888
0.839595 0.127181 0.208389
0.856651 0.133300 0.225576
0.868292 0.138659 0.237212
0.877471 0.143672 0.246326
0.885869 0.151028 0.258516
0.894006 0.159165 0.271731
0.902091 0.168890 0.285740
0.910163 0.178980 0.299932
0.913792 0.187362 0.307003
0.916787 0.195499 0.313058
0.919782 0.202538 0.319051
0.922776 0.209504 0.325040
0.035443 0.028001 0.043515
0.055494 0.030019 0.055624
0.075219 0.032290 0.067623
0.090062 0.038344 0.077974
0.107134 0.044650 0.089301
0.139814 0.052723 0.107464
0.175180 0.060038 0.123698
0.222182 0.064075 0.131575
0.274734 0.069120 0.137939
0.343935 0.077192 0.139762
0.419016 0.084064 0.141055
0.507031 0.088296 0.141186
0.582938 0.093187 0.141999
0.638663 0.099176 0.143952
0.687411 0.106019 0.149551
0.727187 0.113962 0.159837
0.759054 0.119918 0.170936
0.783011 0.123889 0.182850
0.803672 0.126799 0.192639
0.821769 0.128882 0.200777
0.837426 0.134708 0.215221
0.851618 0.142781 0.233449
0.864467 0.148168 0.246172
0.876706 0.152334 0.256392
0.887382 0.160846 0.271105
0.897538 0.170806 0.287315
0.906001 0.180925 0.303419
0.914073 0.191081 0.319499
0.916848 0.201236 0.326920
0.918866 0.211392 0.333104
0.920945 0.215872 0.337153
0.923028 0.219973 0.341059
0.039479 0.038092 0.051588
0.057447 0.040110 0.063696
0.075935 0.042380 0.075955
0.102235 0.048434 0.090473
0.130115 0.054741 0.105446
0.169044 0.062813 0.123609
0.211245 0.070129 0.139257
0.267622 0.074165 0.144009
0.329548 0.079210 0.147248
0.408124 0.087283 0.145946
0.485744 0.095131 0.145743
0.561260 0.102488 0.147956
0.624667 0.108941 0.149681
0.667893 0.113888 0.150593
0.705509 0.119235 0.156972
0.735911 0.125094 0.170383
0.761007 0.129488 0.181483
0.780797 0.132417 0.190271
0.799050 0.135457 0.199279
0.816106 0.138582 0.208458
0.832023 0.144799 0.223944
0.847256 0.152871 0.243214
0.861863 0.159690 0.257694
0.876185 0.165940 0.269998
0.888163 0.173410 0.286013
0.899360 0.181287 0.303264
0.908019 0.191862 0.318717
0.916091 0.203059 0.333755
0.918866 0.214256 0.342869
0.920884 0.225453 0.351137
0.923940 0.230975 0.353363
0.927065 0.236118 0.355186
0.043263 0.048182 0.059912
0.059147 0.050200 0.071891
0.076326 0.052471 0.084272
0.112912 0.058525 0.102695
0.150800 0.064848 0.121053
0.197802 0.073050 0.138956
0.248295 0.080521 0.153782
0.313916 0.084817 0.155280
0.384533 0.090090 0.155491
0.470140 0.098293 0.151846
0.548565 0.106963 0.150519
0.611191 0.116663 0.154295
0.662295 0.124239 0.156850
0.694194 0.128275 0.157371
0.721564 0.132312 0.164443
0.743112 0.136348 0.179936
0.761959 0.139440 0.190710
0.778104 0.141588 0.196765
0.794322 0.144945 0.205382
0.810597 0.149242 0.215994
0.826790 0.155735 0.232261
0.842935 0.163547 0.251921
0.859169 0.171628 0.267777
0.875444 0.179831 0.281903
0.888692 0.186520 0.299252
0.900931 0.192704 0.317676
0.909679 0.203702 0.331550
0.917621 0.215811 0.344375
0.920494 0.228033 0.355263
0.922642 0.240272 0.365874
0.926682 0.247201 0.366659
0.930849 0.253776 0.366790
0.045281 0.058273 0.070003
0.059082 0.060291 0.080940
0.074438 0.062561 0.092475
0.113107 0.068615 0.112981
0.155422 0.075068 0.132902
0.223256 0.084313 0.148721
0.292238 0.093020 0.161074
0.366192 0.099400 0.158405
0.440715 0.106495 0.156273
0.516947 0.115740 0.155752
0.584045 0.124150 0.155923
0.631047 0.130725 0.157615
0.671213 0.136348 0.160431
0.699988 0.140384 0.165118
0.723322 0.144420 0.172255
0.739662 0.148456 0.182540
0.755905 0.152070 0.190710
0.772049 0.155259 0.196765
0.788853 0.160244 0.207726
0.806170 0.166623 0.222504
0.822754 0.172596 0.237729
0.838899 0.178325 0.253223
0.855849 0.186471 0.267777
0.873166 0.195715 0.281903
0.887455 0.203446 0.300815
0.900736 0.210672 0.321321
0.908833 0.221865 0.327123
0.915733 0.233973 0.329532
0.919387 0.247107 0.342764
0.922577 0.260388 0.357541
0.927659 0.271288 0.359564
0.932867 0.282029 0.360735
0.046542 0.069120 0.080472
0.059042 0.071138 0.090367
0.073319 0.073421 0.101043
0.114267 0.079670 0.123438
0.160569 0.086351 0.144799
0.244353 0.096051 0.158925
0.328149 0.105482 0.169012
0.411998 0.113750 0.161590
0.491647 0.122425 0.156480
0.558700 0.132320 0.158303
0.615154 0.140506 0.159434
0.648290 0.144933 0.159043
0.678472 0.149213 0.161826
0.703731 0.153249 0.169899
0.723322 0.157286 0.177088
0.735626 0.161322 0.183143
0.749753 0.165456 0.189197
0.765702 0.169687 0.195251
0.783006 0.175969 0.208007
0.801365 0.183846 0.225974
0.818706 0.189445 0.240280
0.835436 0.193677 0.252389
0.852883 0.201668 0.265348
0.870655 0.211367 0.278693
0.885840 0.220286 0.298972
0.900162 0.228944 0.321561
0.907925 0.240247 0.319926
0.914175 0.252161 0.312700
0.918317 0.264985 0.324784
0.922158 0.277940 0.339627
0.927707 0.291628 0.342996
0.933371 0.305364 0.345600
0.044524 0.083247 0.092580
0.059107 0.085265 0.101434
0.075532 0.087612 0.111199
0.119605 0.094904 0.134635
0.167991 0.102235 0.156907
0.246566 0.109852 0.171034
0.329255 0.117786 0.179753
0.429770 0.127096 0.165041
0.519836 0.136291 0.154202
0.578556 0.145145 0.154983
0.627328 0.153266 0.154747
0.654214 0.159776 0.152273
0.678537 0.165358 0.153754
0.698588 0.169394 0.161826
0.715705 0.173430 0.169016
0.729051 0.177467 0.175070
0.743177 0.182121 0.181124
0.758085 0.187394 0.187179
0.775520 0.193546 0.199348
0.794920 0.200382 0.216274
0.814604 0.206241 0.230190
0.834460 0.211514 0.242298
0.851451 0.218398 0.252393
0.867140 0.226015 0.261572
0.882585 0.236756 0.282371
0.897949 0.248540 0.307044
0.906753 0.259582 0.300721
0.914045 0.270454 0.287246
0.917405 0.277680 0.283055
0.920205 0.284385 0.280190
0.923736 0.295729 0.285382
0.927317 0.307382 0.291111
0.044020 0.098382 0.106203
0.059904 0.100400 0.114275
0.077648 0.102781 0.123275
0.123283 0.110593 0.146190
0.172548 0.118185 0.167974
0.247217 0.124239 0.181841
0.328588 0.131002 0.189225
0.438998 0.140832 0.168524
0.535769 0.150287 0.152802
0.591625 0.158620 0.152021
0.637126 0.166953 0.150385
0.659845 0.175286 0.146870
0.679807 0.182007 0.147602
0.695170 0.186044 0.155414
0.709879 0.190194 0.162229
0.723745 0.194490 0.167763
0.737872 0.199666 0.173687
0.752259 0.205720 0.180001
0.769759 0.211481 0.191260
0.789679 0.217015 0.206363
0.810698 0.223037 0.219757
0.832377 0.229351 0.232126
0.849400 0.235666 0.240691
0.864308 0.241981 0.247526
0.880144 0.253373 0.267935
0.896289 0.266458 0.292869
0.905663 0.276899 0.282363
0.913475 0.286729 0.263679
0.915989 0.288356 0.245394
0.917747 0.288812 0.227166
0.919505 0.297080 0.231398
0.921263 0.305868 0.237127
0.048056 0.116545 0.124365
0.062899 0.118563 0.132438
0.079471 0.120878 0.141112
0.121981 0.127649 0.158820
0.168511 0.134330 0.175916
0.243181 0.140384 0.188741
0.322599 0.146951 0.194889
0.422593 0.155740 0.172104
0.514937 0.164675 0.154039
0.584333 0.174049 0.150133
0.639795 0.183423 0.147000
0.664598 0.192798 0.145568
0.684689 0.200170 0.147211
0.696928 0.204206 0.153982
0.709423 0.208812 0.159300
0.722248 0.214151 0.162750
0.736375 0.219847 0.168153
0.751803 0.225901 0.175510
0.769173 0.230491 0.184880
0.788052 0.233941 0.195817
0.807378 0.239832 0.208300
0.826973 0.247189 0.221710
0.845494 0.254545 0.232749
0.863527 0.261901 0.242709
0.880144 0.270429 0.259993
0.896289 0.279348 0.279718
0.904817 0.288161 0.266544
0.911587 0.296950 0.245777
0.913060 0.292978 0.219940
0.913776 0.287185 0.193380
0.914492 0.290179 0.188302
0.915208 0.293760 0.184656
0.053354 0.136600 0.141898
0.066829 0.138944 0.148994
0.081762 0.141397 0.156366
0.118543 0.145498 0.167889
0.159816 0.149844 0.179159
0.232533 0.155898 0.188664
0.308594 0.162514 0.192151
0.399148 0.171563 0.169561
0.486985 0.180547 0.150780
0.566667 0.189335 0.143423
0.630461 0.198429 0.138264
0.659300 0.208194 0.137939
0.682085 0.216177 0.139884
0.694780 0.221189 0.145612
0.707503 0.226515 0.149860
0.720262 0.232244 0.152204
0.734714 0.238136 0.156924
0.750859 0.244190 0.164019
0.767956 0.248340 0.171665
0.785794 0.251009 0.179737
0.804038 0.256852 0.191390
0.822526 0.264599 0.205191
0.841731 0.272122 0.217605
0.861261 0.279543 0.229388
0.878252 0.285695 0.243466
0.894397 0.291424 0.258309
0.903136 0.299586 0.248344
0.910167 0.308310 0.232655
0.910761 0.300286 0.201871
0.910436 0.289870 0.168930
0.910720 0.289219 0.154971
0.911046 0.289219 0.142276
0.061426 0.160817 0.158042
0.072818 0.164203 0.162014
0.085082 0.167242 0.165936
0.110406 0.165094 0.169126
0.140872 0.163971 0.172063
0.207339 0.170025 0.173235
0.276956 0.177227 0.170928
0.360219 0.189400 0.153546
0.443368 0.199686 0.137630
0.526175 0.204308 0.126107
0.594721 0.210212 0.117758
0.631893 0.218935 0.116391
0.663011 0.227439 0.117294
0.684038 0.235577 0.121981
0.702360 0.242205 0.126099
0.717203 0.246892 0.129484
0.732696 0.252262 0.133162
0.748841 0.258317 0.137133
0.765352 0.263639 0.143411
0.782148 0.268391 0.151484
0.800653 0.274364 0.162486
0.820183 0.281069 0.175245
0.838280 0.286835 0.186617
0.855727 0.292173 0.197359
0.872198 0.297023 0.208051
0.888342 0.301710 0.218728
0.899621 0.311369 0.224908
0.909776 0.322176 0.230051
0.909850 0.313501 0.200048
0.908483 0.302044 0.165024
0.909679 0.301328 0.143122
0.911046 0.301328 0.122095
0.068742 0.185791 0.177971
0.078832 0.187875 0.178036
0.089329 0.189498 0.177874
0.105930 0.184225 0.174293
0.127445 0.180270 0.170509
0.183366 0.185543 0.165301
0.243047 0.192257 0.157835
0.319018 0.205211 0.140583
0.396797 0.215530 0.123918
0.479994 0.217939 0.109010
0.551535 0.222361 0.098008
0.597431 0.231215 0.095599
0.636393 0.240093 0.095022
0.663800 0.249012 0.097495
0.687647 0.256136 0.100653
0.706917 0.260953 0.104689
0.725210 0.266194 0.107716
0.742526 0.271858 0.109734
0.759404 0.277741 0.114718
0.775939 0.283795 0.122010
0.795241 0.289361 0.131335
0.816203 0.294634 0.141881
0.834391 0.298789 0.151846
0.851317 0.302434 0.161546
0.867364 0.306666 0.170611
0.883118 0.311093 0.179464
0.895910 0.320809 0.194930
0.908019 0.331746 0.211921
0.909134 0.326277 0.189779
0.908678 0.318465 0.162046
0.910175 0.316878 0.134985
0.911803 0.315706 0.107968
0.074796 0.212027 0.204206
0.084886 0.208902 0.199064
0.095123 0.205773 0.193758
0.107557 0.202583 0.186011
0.123214 0.200191 0.178191
0.161428 0.203381 0.169858
0.205354 0.207815 0.158291
0.274034 0.217646 0.132706
0.345303 0.225881 0.109270
0.424334 0.229331 0.092279
0.495940 0.235121 0.079520
0.551210 0.246058 0.076069
0.597203 0.255066 0.073278
0.627735 0.260860 0.071586
0.656985 0.267138 0.072399
0.684587 0.274038 0.076436
0.708609 0.279800 0.079463
0.729051 0.284422 0.081481
0.747881 0.289850 0.085293
0.765458 0.295904 0.090501
0.786453 0.300168 0.096442
0.809498 0.303358 0.102821
0.829769 0.306145 0.110768
0.848778 0.308749 0.119426
0.864565 0.313501 0.129793
0.879277 0.318970 0.140730
0.891874 0.326342 0.154047
0.903983 0.334154 0.167913
0.908743 0.338321 0.165431
0.912454 0.341966 0.160614
0.913235 0.338166 0.133032
0.913821 0.333869 0.103932
0.080850 0.242677 0.232208
0.091396 0.236167 0.224135
0.101857 0.229880 0.215880
0.111036 0.226951 0.204878
0.122087 0.224241 0.193477
0.146239 0.223069 0.179285
0.176604 0.223545 0.162250
0.233892 0.231162 0.132889
0.296030 0.238453 0.105417
0.372718 0.244768 0.083609
0.443933 0.252893 0.067069
0.503109 0.265002 0.062122
0.554424 0.274254 0.057687
0.592638 0.278746 0.054106
0.628260 0.284406 0.053061
0.660549 0.291567 0.055274
0.688933 0.297393 0.057618
0.713410 0.301885 0.060091
0.735105 0.306487 0.062931
0.754635 0.311174 0.066056
0.777379 0.314763 0.069751
0.802052 0.317692 0.073787
0.823950 0.319368 0.079658
0.844587 0.320475 0.086363
0.860683 0.325292 0.096096
0.875265 0.331347 0.106837
0.888208 0.336290 0.117579
0.900772 0.340977 0.128320
0.907242 0.350393 0.136726
0.912840 0.360483 0.144799
0.913617 0.356719 0.123759
0.914073 0.352032 0.100779
0.086904 0.279002 0.262479
0.098492 0.271451 0.254407
0.109799 0.264058 0.246021
0.116895 0.259045 0.232936
0.124951 0.253601 0.218541
0.139729 0.245138 0.194974
0.159353 0.239495 0.170713
0.199975 0.246070 0.143436
0.249614 0.253882 0.115443
0.326302 0.265405 0.085301
0.396540 0.277110 0.062382
0.452591 0.289219 0.055351
0.507031 0.298862 0.050005
0.558786 0.304395 0.047466
0.602024 0.309729 0.045183
0.634314 0.314807 0.043230
0.665302 0.320113 0.044012
0.694987 0.325646 0.047527
0.720718 0.328946 0.049651
0.743373 0.330509 0.050693
0.767940 0.334227 0.053606
0.793654 0.339240 0.057642
0.816594 0.340135 0.061365
0.838272 0.339159 0.064945
0.855410 0.343455 0.071553
0.871034 0.349510 0.079170
0.885018 0.351914 0.086786
0.898624 0.353477 0.094403
0.904312 0.362501 0.102419
0.908869 0.372592 0.110491
0.910558 0.371758 0.105075
0.912055 0.370195 0.098761
0.091950 0.318355 0.292751
0.105621 0.305596 0.279470
0.118751 0.293125 0.265877
0.123763 0.284987 0.247583
0.129801 0.276744 0.228436
0.143017 0.267760 0.203307
0.159613 0.261596 0.178166
0.190861 0.267650 0.152973
0.234120 0.275853 0.125110
0.313412 0.290501 0.089240
0.385766 0.304029 0.061731
0.442859 0.315096 0.052617
0.499512 0.324283 0.046164
0.555433 0.330338 0.044146
0.600332 0.335281 0.041245
0.631059 0.338797 0.037209
0.662047 0.343581 0.036688
0.693295 0.349636 0.039683
0.720002 0.352285 0.040993
0.743177 0.352285 0.040993
0.767940 0.355092 0.043841
0.793654 0.359584 0.048398
0.816594 0.361032 0.051925
0.838272 0.361097 0.054985
0.855410 0.365264 0.059900
0.871034 0.370797 0.065434
0.885018 0.373527 0.070967
0.898624 0.375611 0.076501
0.903401 0.381966 0.083800
0.906916 0.388932 0.091352
0.910493 0.393273 0.094692
0.914073 0.397440 0.097752
0.095986 0.360735 0.323022
0.112782 0.338601 0.299326
0.128711 0.317082 0.275446
0.131640 0.304778 0.248820
0.136637 0.293670 0.223163
0.156102 0.290936 0.204284
0.177385 0.289850 0.184611
0.206550 0.295904 0.161501
0.249549 0.304367 0.134419
0.334048 0.320056 0.095424
0.411611 0.333650 0.065116
0.473912 0.342633 0.053919
0.531867 0.350519 0.046164
0.582580 0.356573 0.044146
0.623182 0.361061 0.041245
0.650784 0.363535 0.037209
0.679168 0.367799 0.035646
0.708333 0.373853 0.036558
0.732957 0.376502 0.036956
0.754049 0.376502 0.036956
0.777379 0.377356 0.040456
0.802052 0.378723 0.046054
0.823950 0.382060 0.051339
0.844587 0.386291 0.056482
0.860683 0.390718 0.061137
0.875265 0.395210 0.065629
0.888208 0.401130 0.070121
0.900772 0.407379 0.074613
0.904507 0.408787 0.080870
0.906981 0.409503 0.087380
0.913422 0.421266 0.092609
0.920127 0.433765 0.097752
0.100022 0.406521 0.355564
0.118771 0.379114 0.326139
0.136620 0.352171 0.296148
0.140982 0.332185 0.257674
0.147720 0.314404 0.221405
0.171091 0.312061 0.200573
0.196805 0.311951 0.179704
0.232676 0.321521 0.158677
0.279661 0.332295 0.133988
0.359995 0.346682 0.098313
0.436321 0.359645 0.069820
0.503829 0.369475 0.057125
0.561548 0.377010 0.047775
0.602952 0.380721 0.043999
0.639258 0.384204 0.040366
0.669008 0.387394 0.036916
0.697131 0.392016 0.035191
0.723627 0.398070 0.035191
0.747560 0.402367 0.035850
0.769498 0.405296 0.037022
0.791396 0.406395 0.040513
0.813270 0.406395 0.045395
0.832369 0.410960 0.050680
0.850206 0.417600 0.056149
0.865260 0.421409 0.060543
0.879387 0.424273 0.064579
0.891874 0.430893 0.069091
0.903983 0.438379 0.073714
0.907775 0.439600 0.079076
0.910379 0.439925 0.084545
0.917560 0.452335 0.091112
0.925047 0.465550 0.097752
0.104058 0.454955 0.389872
0.123849 0.425465 0.358363
0.142935 0.395918 0.325508
0.151463 0.365516 0.272452
0.162107 0.338101 0.222382
0.187561 0.331591 0.193217
0.217507 0.329268 0.165968
0.266918 0.345087 0.147024
0.321195 0.359767 0.125981
0.390071 0.371029 0.098639
0.460147 0.382821 0.075549
0.532864 0.395775 0.061812
0.589151 0.403701 0.050640
0.618055 0.403246 0.043739
0.650064 0.405296 0.038804
0.686064 0.410569 0.036395
0.715750 0.416233 0.035191
0.739121 0.422287 0.035191
0.763444 0.429513 0.037022
0.788507 0.437651 0.040277
0.808973 0.440703 0.043247
0.826680 0.440703 0.046046
0.841613 0.445984 0.049964
0.855284 0.453666 0.054391
0.869297 0.456172 0.058525
0.883423 0.456953 0.062561
0.895910 0.462336 0.067920
0.908019 0.468781 0.073583
0.912722 0.473517 0.078165
0.916368 0.478009 0.082592
0.922638 0.485797 0.090070
0.929083 0.493804 0.097752
0.108094 0.512219 0.425441
0.126973 0.477390 0.387943
0.145507 0.442839 0.349416
0.158852 0.412437 0.295448
0.174541 0.383524 0.242400
0.206636 0.365036 0.195788
0.242318 0.352687 0.154389
0.293552 0.366944 0.135575
0.348773 0.380811 0.116224
0.415956 0.393505 0.095262
0.483852 0.407257 0.077249
0.553313 0.423337 0.065727
0.608005 0.434095 0.055742
0.638082 0.435983 0.048320
0.670921 0.439978 0.043263
0.707311 0.446684 0.041245
0.736606 0.452738 0.039910
0.758806 0.458141 0.039259
0.782176 0.464350 0.040513
0.806459 0.471186 0.043247
0.824434 0.474563 0.045533
0.838626 0.475865 0.047551
0.851833 0.482716 0.050957
0.864593 0.492091 0.054993
0.876913 0.493946 0.059029
0.889087 0.493295 0.063066
0.899621 0.498092 0.068213
0.909776 0.504147 0.073616
0.915147 0.510201 0.077823
0.919834 0.516255 0.081859
0.925193 0.524140 0.089679
0.930596 0.532148 0.097752
0.112131 0.574780 0.461766
0.128926 0.532660 0.415936
0.145832 0.491664 0.370053
0.164386 0.467512 0.323376
0.185804 0.441984 0.273843
0.227272 0.406830 0.204316
0.269595 0.379769 0.144103
0.315621 0.387776 0.124247
0.367978 0.397997 0.105417
0.439327 0.414858 0.089663
0.507483 0.432451 0.076533
0.568612 0.451656 0.069177
0.621611 0.466710 0.062187
0.661062 0.474847 0.055807
0.697807 0.482814 0.051335
0.731073 0.490561 0.049317
0.758806 0.496615 0.047462
0.781005 0.500977 0.045769
0.802618 0.503801 0.045395
0.823775 0.505428 0.046046
0.838626 0.508154 0.047551
0.849693 0.511539 0.049570
0.862640 0.520474 0.052975
0.876441 0.531932 0.057011
0.886678 0.533527 0.061048
0.895727 0.531834 0.065084
0.903136 0.536436 0.069384
0.910167 0.542490 0.073746
0.916059 0.548545 0.077823
0.921787 0.554599 0.081859
0.926235 0.565414 0.089679
0.930596 0.576546 0.097752
0.121717 0.624854 0.503642
0.139294 0.582604 0.450911
0.156899 0.541563 0.398388
0.174932 0.518648 0.348977
0.196529 0.493193 0.295888
0.243075 0.449967 0.217052
0.289085 0.416518 0.149213
0.332767 0.425437 0.129032
0.383333 0.435592 0.109649
0.454553 0.449459 0.092658
0.521581 0.464627 0.078861
0.579390 0.482659 0.072090
0.631144 0.497445 0.065857
0.672808 0.506820 0.060519
0.709431 0.516251 0.056320
0.739573 0.525756 0.053585
0.767175 0.533242 0.051209
0.792238 0.538711 0.049191
0.814153 0.542714 0.048711
0.833618 0.545579 0.049427
0.847671 0.548728 0.050957
0.858478 0.552048 0.052975
0.870582 0.561902 0.056873
0.883277 0.574727 0.061625
0.891968 0.576957 0.065303
0.899324 0.575655 0.068624
0.905622 0.580912 0.071944
0.911677 0.587682 0.075264
0.917104 0.593199 0.079837
0.922443 0.598537 0.084589
0.927231 0.608209 0.091112
0.931984 0.618169 0.097752
0.133825 0.669252 0.548040
0.153485 0.630127 0.489060
0.172849 0.591950 0.430221
0.187757 0.567993 0.373519
0.207010 0.541107 0.313660
0.256681 0.493714 0.231699
0.305034 0.457661 0.161322
0.347675 0.470746 0.141141
0.396939 0.482464 0.120716
0.466075 0.490081 0.099558
0.531346 0.499976 0.082571
0.588113 0.514884 0.074759
0.638826 0.527326 0.068265
0.679449 0.535659 0.063969
0.714118 0.545416 0.059900
0.741135 0.557004 0.056124
0.769258 0.566573 0.053227
0.798488 0.574125 0.051209
0.821639 0.581384 0.051315
0.840063 0.588414 0.053073
0.854376 0.592475 0.054993
0.866225 0.594754 0.057011
0.877222 0.604999 0.061625
0.887834 0.618865 0.067419
0.895223 0.622136 0.070577
0.901537 0.621876 0.072855
0.907640 0.628174 0.075134
0.913695 0.635986 0.077412
0.918211 0.640722 0.082767
0.922508 0.645019 0.088560
0.928208 0.651696 0.093195
0.934002 0.658531 0.097752
0.144420 0.701542 0.581843
0.164601 0.667885 0.521300
0.184502 0.635014 0.460639
0.200191 0.613921 0.398209
0.220030 0.589607 0.332848
0.268920 0.542735 0.246981
0.316589 0.506567 0.173138
0.358970 0.516788 0.151394
0.407518 0.525186 0.129341
0.474571 0.528116 0.106361
0.538328 0.533812 0.087551
0.594835 0.545595 0.077917
0.645287 0.556279 0.070674
0.685649 0.565133 0.067419
0.720515 0.575752 0.064164
0.748312 0.588642 0.060909
0.775784 0.599514 0.058663
0.802931 0.608368 0.057426
0.824146 0.616342 0.057581
0.840746 0.623634 0.058818
0.855027 0.629094 0.060543
0.867917 0.633455 0.062561
0.878345 0.642382 0.066280
0.887655 0.653384 0.070772
0.895695 0.656721 0.073408
0.903311 0.657502 0.075426
0.909658 0.664207 0.077445
0.915713 0.672280 0.079463
0.921368 0.678187 0.085012
0.926967 0.683786 0.091067
0.931528 0.687615 0.095229
0.936020 0.691325 0.099265
0.154511 0.729795 0.612115
0.174692 0.702388 0.551572
0.194722 0.675636 0.490585
0.212495 0.658710 0.422947
0.233896 0.638301 0.352508
0.280703 0.593513 0.262475
0.326680 0.558062 0.184856
0.369060 0.563074 0.161029
0.417088 0.566525 0.137153
0.482057 0.565288 0.113132
0.544382 0.567143 0.092955
0.600889 0.575801 0.081237
0.651342 0.584923 0.073083
0.691704 0.594819 0.070869
0.727480 0.606480 0.068656
0.757361 0.620411 0.066443
0.783792 0.632324 0.065238
0.806772 0.642220 0.065043
0.824992 0.650064 0.065067
0.839509 0.656314 0.065263
0.853660 0.663336 0.066597
0.867592 0.670823 0.068615
0.877629 0.677862 0.070902
0.885897 0.684697 0.073311
0.895239 0.687773 0.075426
0.904939 0.689596 0.077445
0.911677 0.696497 0.079463
0.917731 0.704569 0.081481
0.925209 0.712300 0.087031
0.932891 0.719982 0.093085
0.935629 0.721011 0.097247
0.938038 0.721597 0.101283
0.171160 0.758049 0.630908
0.189648 0.730121 0.568673
0.208064 0.703141 0.505880
0.225380 0.690381 0.434726
0.246546 0.673773 0.360691
0.294655 0.630221 0.266491
0.342166 0.594957 0.185572
0.387085 0.595608 0.162201
0.435649 0.595803 0.139253
0.495151 0.594631 0.117575
0.553452 0.596349 0.098887
0.609112 0.604421 0.086778
0.657449 0.613885 0.078136
0.693579 0.625668 0.075272
0.726776 0.637736 0.072778
0.756202 0.650170 0.070760
0.782014 0.661009 0.069751
0.804213 0.670253 0.069751
0.822823 0.679131 0.069751
0.838643 0.687724 0.069751
0.852875 0.694934 0.070483
0.866155 0.701314 0.071655
0.875273 0.706888 0.072827
0.882500 0.712096 0.073998
0.891874 0.714912 0.075805
0.901964 0.716930 0.077823
0.908776 0.724555 0.082592
0.914830 0.733474 0.087995
0.923391 0.740171 0.093227
0.932309 0.746550 0.098435
0.934759 0.748536 0.102545
0.936777 0.750229 0.106581
0.189323 0.786302 0.647053
0.205728 0.756291 0.582734
0.222125 0.727619 0.517793
0.238400 0.719025 0.443514
0.258915 0.706193 0.366224
0.309107 0.663682 0.267858
0.358896 0.628483 0.183749
0.406940 0.624968 0.161420
0.456286 0.622299 0.140034
0.509538 0.622169 0.121481
0.563217 0.624602 0.104941
0.617836 0.632674 0.092833
0.663568 0.642919 0.083800
0.694491 0.656786 0.079894
0.724303 0.669114 0.076814
0.752686 0.679465 0.074796
0.777977 0.688742 0.073787
0.800177 0.696944 0.073787
0.819959 0.707124 0.073787
0.837861 0.718842 0.073787
0.852224 0.725922 0.073868
0.864463 0.730219 0.073998
