其他预设/【236】赛博朋克风调色预设/【后期菌】视频调色预设/CUBE/Miami 04_S.cube
# LUT by SparkleStock. Enhanced with VOXCOLOR algorithms.
LUT_3D_SIZE 5
DOMAIN_MIN 0.000000 0.000000 0.000000
DOMAIN_MAX 0.903226 0.903226 0.903226
0.019550 0.003910 0.007820
0.098508 0.017406 0.037587
0.689812 0.106959 0.043894
0.845962 0.153880 0.116167
0.867657 0.189449 0.184782
0.023460 0.030650 0.036074
0.449987 0.096267 0.059127
0.728697 0.181251 0.085248
0.817440 0.212918 0.170151
0.882845 0.257792 0.189360
0.021695 0.166241 0.111374
0.189909 0.179916 0.052202
0.683599 0.307581 0.007421
0.804591 0.333727 0.020954
0.888973 0.366053 0.067334
0.022199 0.488632 0.300697
0.354705 0.420823 0.061458
0.787059 0.541514 0.007047
0.880547 0.569987 0.007718
0.919371 0.586856 0.032098
0.113644 0.700911 0.513859
0.576326 0.696257 0.077119
0.834464 0.762801 0.042632
0.914199 0.787344 0.045533
0.942326 0.802821 0.075549
0.031281 0.011730 0.058903
0.103004 0.025812 0.103004
0.625847 0.085842 0.156980
0.824024 0.134716 0.280129
0.878935 0.207990 0.407908
0.033677 0.057731 0.106121
0.372330 0.115274 0.203270
0.642838 0.191852 0.283380
0.773747 0.224701 0.346086
0.885474 0.273981 0.454474
0.033136 0.249288 0.254065
0.102276 0.339545 0.316884
0.641408 0.349627 0.243384
0.771455 0.380310 0.270731
0.899323 0.413336 0.271727
0.055355 0.579960 0.494426
0.118422 0.622368 0.527254
0.717904 0.631767 0.063450
0.840050 0.658181 0.062939
0.912520 0.670563 0.100849
0.170729 0.739634 0.666298
0.413824 0.733759 0.411740
0.829475 0.784951 0.078230
0.908236 0.818763 0.095855
0.932321 0.838395 0.148405
0.057390 0.041749 0.204459
0.149754 0.042291 0.241073
0.634798 0.089659 0.333975
0.832735 0.164080 0.457999
0.874594 0.246985 0.561264
0.070003 0.126583 0.333076
0.197208 0.195369 0.462782
0.665155 0.204508 0.465095
0.780464 0.247865 0.514547
0.883639 0.316468 0.601112
0.078706 0.359918 0.526305
0.167311 0.455400 0.598965
0.616393 0.385042 0.527682
0.767488 0.401387 0.529252
0.888834 0.434575 0.557618
0.104547 0.656212 0.709899
0.197159 0.692044 0.739323
0.438425 0.706214 0.663831
0.819594 0.682064 0.239534
0.910921 0.687466 0.264020
0.233021 0.765259 0.759164
0.454009 0.788365 0.751966
0.744335 0.799909 0.522306
0.871939 0.837567 0.185241
0.917827 0.852761 0.305001
0.109608 0.126636 0.507552
0.240500 0.137097 0.538145
0.685715 0.137752 0.502792
0.844172 0.227138 0.592263
0.880901 0.317537 0.662287
0.126518 0.268550 0.625888
0.256096 0.351290 0.684827
0.755753 0.258455 0.622312
0.846663 0.331855 0.668242
0.883928 0.396389 0.703503
0.180762 0.488462 0.729026
0.324340 0.573697 0.763200
0.556650 0.601598 0.765198
0.836792 0.468046 0.712228
0.885005 0.493202 0.705275
0.274311 0.714533 0.808778
0.440059 0.741646 0.811104
0.642569 0.764307 0.808373
0.782749 0.733567 0.741658
0.897355 0.691466 0.709076
0.354880 0.789614 0.815976
0.565975 0.802104 0.805754
0.744125 0.825178 0.807754
0.838686 0.838669 0.695813
0.913774 0.855655 0.506962
0.183016 0.268281 0.686658
0.325032 0.289996 0.696171
0.747161 0.228424 0.632800
0.841991 0.312399 0.677642
0.879765 0.394579 0.718696
0.227227 0.405662 0.751449
0.388939 0.482797 0.773490
0.712161 0.414396 0.734519
0.864319 0.419006 0.730197
0.882773 0.474053 0.756481
0.336579 0.604189 0.809026
0.507142 0.665704 0.823844
0.674221 0.699459 0.830697
0.864682 0.596583 0.785642
0.891355 0.599596 0.800608
0.472960 0.749220 0.841454
0.619705 0.765407 0.842695
0.735863 0.785469 0.848306
0.815142 0.801580 0.849593
0.898943 0.752710 0.846311
0.569157 0.810393 0.849453
0.701087 0.821339 0.845625
0.786093 0.834471 0.847490
0.851863 0.849388 0.857269
0.896393 0.860142 0.833389
