其他预设/【236】赛博朋克风调色预设/【后期菌】视频调色预设/CUBE/Miami 01.cube
# LUT by SparkleStock. Enhanced with VOXCOLOR algorithms.
LUT_3D_SIZE 8
DOMAIN_MIN 0.000000 0.000000 0.000000
DOMAIN_MAX 0.903226 0.903226 0.903226
0.003910 0.000000 0.000000
0.008577 0.003910 0.011982
0.052597 0.009334 0.015640
0.406016 0.050579 0.003910
0.790086 0.103680 0.008829
0.835367 0.118563 0.029767
0.842178 0.126636 0.063192
0.852017 0.140384 0.096995
0.007820 0.004162 0.007820
0.035187 0.012520 0.020258
0.303846 0.042661 0.011039
0.776570 0.103729 0.011905
0.835115 0.122539 0.051335
0.846512 0.133780 0.105075
0.858168 0.150320 0.163901
0.863885 0.176104 0.200321
0.008829 0.012739 0.009334
0.059090 0.028632 0.031126
0.628040 0.089179 0.008764
0.814080 0.124142 0.026333
0.842064 0.135351 0.066744
0.857045 0.159918 0.126746
0.863551 0.184025 0.166721
0.868084 0.209829 0.109022
0.016397 0.054489 0.035821
0.038787 0.054236 0.033551
0.377234 0.092637 0.012951
0.786420 0.148184 0.007674
0.836893 0.166872 0.019160
0.858575 0.190474 0.044305
0.865639 0.215094 0.070633
0.873349 0.250419 0.077868
0.018541 0.197395 0.114906
0.032428 0.179623 0.078523
0.135904 0.189950 0.057247
0.584395 0.233021 0.007063
0.797377 0.259965 0.003910
0.847655 0.282493 0.003910
0.874203 0.313562 0.013370
0.888188 0.343805 0.029690
0.023334 0.449658 0.276606
0.044988 0.366183 0.135534
0.274441 0.387443 0.083951
0.672137 0.427780 0.021308
0.817099 0.447274 0.008630
0.865667 0.460981 0.007694
0.893546 0.486049 0.019676
0.908654 0.512475 0.032420
0.087031 0.643774 0.459496
0.086933 0.565556 0.189758
0.390559 0.590465 0.098635
0.689608 0.636670 0.042547
0.825985 0.672064 0.028266
0.882162 0.678252 0.026488
0.915587 0.691911 0.034894
0.929966 0.701111 0.048255
0.217703 0.733958 0.621575
0.178008 0.669468 0.191593
0.509269 0.710676 0.087006
0.737978 0.750770 0.053191
0.837308 0.774902 0.045155
0.885189 0.785671 0.046856
0.917983 0.788520 0.053931
0.931984 0.805385 0.082400
0.003910 0.003910 0.004415
0.012756 0.004162 0.020071
0.054330 0.010058 0.027151
0.459769 0.057797 0.012894
0.799798 0.103680 0.036387
0.834269 0.119690 0.094293
0.846438 0.125907 0.177857
0.858209 0.143045 0.248125
0.004903 0.004903 0.009317
0.047214 0.016728 0.033062
0.354254 0.049710 0.032082
0.778317 0.103919 0.054124
0.840152 0.126054 0.150919
0.856582 0.136762 0.254793
0.862882 0.160608 0.324531
0.872883 0.196656 0.379281
0.020087 0.021853 0.032859
0.033553 0.030021 0.049757
0.721772 0.102032 0.084553
0.830707 0.122622 0.182785
0.861281 0.154247 0.305886
0.868247 0.180190 0.377534
0.885381 0.231517 0.454183
0.885650 0.276545 0.479886
0.024469 0.078523 0.069189
0.037222 0.109153 0.110156
0.306645 0.114213 0.099216
0.820990 0.158570 0.093232
0.853013 0.183378 0.164875
0.873412 0.222144 0.223465
0.879436 0.259344 0.254895
0.896381 0.314781 0.290416
0.031468 0.257116 0.197782
0.042043 0.333028 0.274163
0.098457 0.298283 0.139553
0.520050 0.300646 0.035216
0.818843 0.316503 0.009091
0.861086 0.344133 0.017947
0.884316 0.372765 0.032216
0.897446 0.401557 0.043391
0.048768 0.526561 0.416152
0.079869 0.569067 0.482424
0.158137 0.502342 0.169156
0.641986 0.487012 0.030495
0.811286 0.529167 0.015425
0.865444 0.555539 0.014560
0.896850 0.569171 0.028445
0.917275 0.608591 0.048479
0.141308 0.685971 0.630294
0.165459 0.680269 0.535172
0.270627 0.633724 0.161536
0.686976 0.678643 0.051008
0.817789 0.703878 0.033704
0.877703 0.724515 0.034697
0.913923 0.738422 0.048672
0.926542 0.738042 0.061176
0.276443 0.752499 0.711266
0.261493 0.722101 0.433057
0.445585 0.726240 0.133235
0.745026 0.767636 0.059580
0.837898 0.793426 0.059119
0.885869 0.806813 0.063688
0.917245 0.815535 0.074560
0.932526 0.828323 0.112263
0.008325 0.004415 0.017154
0.021064 0.008072 0.029169
0.071199 0.017593 0.052849
0.472288 0.057487 0.052186
0.807618 0.106207 0.120345
0.841747 0.120492 0.233758
0.853953 0.141015 0.342674
0.864304 0.174545 0.413011
0.015958 0.012267 0.033144
0.037475 0.017186 0.060191
0.363534 0.049989 0.080728
0.790599 0.106428 0.162040
0.840261 0.129434 0.293183
0.864622 0.162377 0.408748
0.872595 0.202131 0.477624
0.879465 0.245394 0.521387
0.025348 0.031407 0.060482
0.040854 0.045789 0.111190
0.659089 0.089893 0.192722
0.831116 0.134773 0.328936
0.864434 0.179690 0.442580
0.872644 0.230163 0.520170
0.881779 0.275082 0.556469
0.896372 0.335327 0.601645
0.033396 0.108347 0.144278
0.056706 0.160944 0.238841
0.182054 0.194317 0.361383
0.834942 0.202664 0.444242
0.870778 0.255834 0.527370
0.884683 0.309332 0.566601
0.895525 0.377586 0.613440
0.901794 0.394939 0.568482
0.041619 0.316402 0.325740
0.068865 0.412110 0.476982
0.110058 0.476161 0.555195
0.454654 0.391868 0.258773
0.867957 0.347257 0.191251
0.879075 0.387737 0.207326
0.897391 0.443094 0.242372
0.903922 0.479461 0.170073
0.082925 0.584818 0.587194
0.132876 0.632086 0.662453
0.199853 0.669781 0.673696
0.405336 0.606494 0.173804
0.807917 0.585409 0.023931
0.863491 0.612973 0.027912
0.895501 0.647495 0.039504
0.909177 0.660361 0.063602
0.197522 0.716092 0.726353
0.261811 0.732949 0.737205
0.331344 0.735708 0.666890
0.587076 0.722880 0.142214
0.818527 0.739768 0.045580
0.877615 0.756718 0.048034
0.906109 0.760653 0.056658
0.925234 0.771476 0.078456
0.347642 0.772529 0.767911
0.405466 0.777078 0.737165
0.477632 0.762824 0.426963
0.714950 0.788636 0.120531
0.847747 0.809366 0.070752
0.891683 0.822979 0.083283
0.910654 0.828034 0.097188
0.924009 0.837072 0.148740
0.017154 0.008577 0.044398
0.034259 0.012943 0.067586
0.092214 0.021821 0.092438
0.523701 0.063192 0.139835
0.807871 0.104884 0.258903
0.844709 0.135811 0.393253
0.862022 0.178895 0.483083
0.870900 0.226332 0.541876
0.029136 0.022577 0.094240
0.058828 0.036412 0.177933
0.344440 0.060472 0.222093
0.786832 0.107861 0.315995
0.845297 0.150863 0.439082
0.867184 0.206604 0.530097
0.879113 0.268980 0.593483
0.888995 0.314020 0.621884
0.035821 0.052694 0.167628
0.065751 0.094726 0.306000
0.281848 0.131872 0.433737
0.818735 0.171462 0.480251
0.863519 0.236554 0.564031
0.874759 0.293243 0.613332
0.894094 0.361413 0.655880
0.901251 0.411775 0.680111
0.057768 0.174606 0.340888
0.079012 0.242605 0.458464
0.208396 0.321077 0.605959
0.774523 0.282184 0.583593
0.869933 0.337088 0.633866
0.880979 0.384169 0.657344
0.894024 0.454244 0.688652
0.898842 0.514358 0.710406
0.072904 0.426275 0.583247
0.111414 0.508582 0.668745
0.169127 0.580030 0.722461
0.359679 0.582975 0.709077
0.853765 0.470345 0.653347
0.881098 0.488071 0.640036
0.893162 0.549982 0.651382
0.899972 0.587587 0.646018
0.143427 0.652131 0.733494
0.216916 0.692342 0.769408
0.300183 0.720094 0.780430
0.387270 0.729989 0.738846
0.755183 0.681587 0.238796
0.885194 0.648063 0.121425
0.901009 0.679391 0.116707
0.918073 0.692989 0.163738
0.259912 0.743584 0.784203
0.337248 0.760076 0.789063
0.420560 0.769549 0.777860
0.544549 0.774264 0.726632
0.780726 0.776962 0.168929
0.878741 0.784324 0.068624
0.905983 0.784339 0.081060
0.923002 0.791095 0.110273
0.407799 0.787096 0.798753
0.504454 0.800973 0.800798
0.581085 0.801418 0.765591
0.703476 0.804048 0.549253
0.843825 0.819164 0.125313
0.890452 0.833645 0.108634
0.908875 0.838622 0.138775
0.922971 0.839891 0.218894
0.036326 0.023587 0.163214
0.068302 0.033677 0.209675
0.193237 0.043902 0.247872
0.548016 0.074853 0.316760
0.801068 0.120093 0.415216
0.846035 0.176783 0.521227
0.867152 0.239145 0.586600
0.886373 0.308663 0.641426
0.051779 0.051848 0.279515
0.083804 0.084732 0.390669
0.363251 0.101731 0.426744
0.782294 0.138956 0.466979
0.843810 0.206160 0.562031
0.866477 0.268409 0.615756
0.882767 0.333530 0.659049
0.899064 0.396695 0.699529
0.073030 0.130688 0.435873
0.102061 0.190970 0.546648
0.197640 0.267437 0.631762
0.739726 0.226746 0.583434
0.865201 0.307439 0.644382
0.876896 0.363120 0.674299
0.891627 0.432390 0.709759
0.899003 0.493596 0.732649
0.088923 0.298931 0.609832
0.128465 0.395157 0.691128
0.199047 0.469084 0.735453
0.471921 0.469611 0.717622
0.852674 0.412481 0.689721
0.880070 0.476707 0.720923
0.886905 0.532851 0.739966
0.898178 0.589642 0.763976
0.123995 0.534101 0.735422
0.179188 0.602348 0.772899
0.263306 0.655955 0.792105
0.432861 0.661874 0.779172
0.796462 0.621595 0.748302
0.872150 0.596766 0.734065
0.887481 0.628703 0.746232
0.895768 0.665612 0.761122
0.224778 0.698885 0.802858
0.298704 0.725281 0.811522
0.384805 0.746591 0.811579
0.483628 0.759227 0.807075
0.664130 0.761211 0.782345
0.868356 0.704875 0.452463
0.899869 0.695980 0.360543
0.912047 0.716540 0.362121
0.346230 0.767635 0.814820
0.422755 0.777929 0.813326
0.524955 0.788127 0.813325
0.609701 0.796404 0.803297
0.715200 0.804614 0.772931
0.854377 0.799884 0.304197
0.905818 0.797676 0.134357
0.921135 0.806259 0.158857
0.484096 0.803224 0.820805
0.570941 0.809872 0.816676
0.652076 0.815848 0.816741
0.720904 0.821319 0.779971
0.809655 0.828931 0.665938
0.882278 0.838292 0.254556
0.909029 0.839299 0.203627
0.923127 0.838490 0.333103
0.076562 0.071138 0.409044
0.119328 0.100112 0.490659
0.265038 0.096397 0.469005
0.618222 0.118580 0.476455
0.800974 0.165903 0.544960
0.848766 0.230836 0.603680
0.871551 0.311638 0.656765
0.891618 0.383179 0.702543
0.090273 0.128870 0.519099
0.129249 0.187064 0.607050
0.352684 0.194316 0.598618
0.733753 0.196298 0.582296
0.842729 0.267054 0.631234
0.867097 0.336103 0.674332
0.883672 0.405149 0.712295
0.897424 0.470489 0.740386
0.113754 0.250012 0.644063
0.145696 0.315987 0.686623
0.229965 0.390808 0.725001
0.698573 0.347838 0.678566
0.857642 0.370811 0.688975
0.873838 0.445456 0.727324
0.890188 0.515936 0.753388
0.900040 0.564439 0.771622
0.133288 0.428720 0.736134
0.187389 0.500058 0.768427
0.272925 0.573408 0.788974
0.458077 0.620078 0.792594
0.827309 0.544784 0.756525
0.880027 0.559643 0.760774
0.893901 0.606959 0.780976
0.901408 0.647393 0.792171
0.199275 0.624130 0.804087
0.278036 0.668690 0.815799
0.383498 0.708215 0.823914
0.501247 0.728196 0.822528
0.708951 0.732915 0.817153
0.867986 0.684374 0.793180
0.893889 0.697384 0.800568
0.900220 0.719727 0.806192
0.321732 0.737685 0.831050
0.396204 0.749233 0.829805
0.489362 0.766784 0.832144
0.592909 0.780382 0.831536
0.724819 0.789099 0.832597
0.823602 0.786250 0.817026
0.883306 0.764663 0.797778
0.898433 0.762903 0.793699
0.438274 0.784284 0.834594
0.523975 0.792851 0.832574
0.606384 0.801295 0.826247
0.685575 0.807885 0.831717
0.749057 0.816704 0.832076
0.817262 0.817481 0.798464
0.893842 0.807221 0.449272
0.912289 0.802092 0.431802
0.551686 0.809506 0.833601
0.630359 0.820308 0.834346
0.693179 0.822362 0.831009
0.755203 0.832450 0.834529
0.812529 0.840161 0.828025
0.860324 0.840181 0.727474
0.900561 0.839062 0.490759
0.916917 0.839287 0.494887
0.119446 0.163718 0.608583
0.159064 0.196399 0.641699
0.358384 0.180299 0.605556
0.695158 0.192602 0.595047
0.793858 0.224652 0.614247
0.850881 0.309384 0.670766
0.877369 0.396060 0.715966
0.894576 0.467947 0.749651
0.130700 0.234352 0.656163
0.183599 0.297173 0.697685
0.299873 0.347766 0.720320
0.692976 0.322576 0.682131
0.844906 0.352451 0.691971
0.867690 0.419155 0.725449
0.888234 0.498038 0.757844
0.898978 0.557736 0.776388
0.151793 0.368775 0.735162
0.210090 0.420628 0.751788
0.332641 0.512824 0.777338
0.671588 0.506094 0.760451
0.836895 0.486044 0.751082
0.880789 0.536007 0.771046
0.897070 0.592001 0.790281
0.905834 0.631249 0.804648
0.201253 0.540049 0.795888
0.291945 0.602601 0.809395
0.396137 0.651156 0.817724
0.543083 0.686973 0.821554
0.817701 0.654008 0.804700
0.886287 0.642635 0.801539
0.898839 0.668981 0.807050
0.906900 0.696906 0.814718
0.298679 0.684111 0.829679
0.396909 0.715063 0.834414
0.500779 0.738700 0.838929
0.617138 0.762706 0.841291
0.729200 0.776670 0.843473
0.860325 0.742669 0.825427
0.897747 0.741112 0.826193
0.900213 0.750117 0.828133
0.421461 0.756645 0.840380
0.513791 0.773663 0.844399
0.604177 0.786613 0.844974
0.683503 0.794829 0.845536
0.755009 0.808342 0.853806
0.818118 0.810264 0.848803
0.881675 0.791614 0.835762
0.901683 0.790911 0.838320
0.542490 0.802195 0.846088
0.606763 0.804768 0.843632
0.678587 0.811665 0.844175
0.739152 0.819686 0.846899
0.790844 0.829565 0.850894
0.835700 0.832006 0.847887
0.871992 0.831592 0.812606
0.907705 0.818498 0.766576
0.633199 0.824845 0.846088
0.679633 0.824899 0.841818
0.741317 0.831852 0.845304
0.789539 0.839442 0.847248
0.831423 0.846341 0.853579
0.854244 0.848363 0.848245
0.886304 0.850632 0.802989
0.911242 0.848894 0.738784
0.165232 0.251506 0.692334
0.223720 0.287819 0.706713
0.386255 0.295778 0.692688
0.716454 0.287600 0.667596
0.812257 0.329300 0.689201
0.853530 0.402733 0.724746
0.880595 0.486191 0.760055
0.898937 0.557289 0.781086
0.188542 0.343293 0.735333
0.262576 0.396926 0.751283
0.381637 0.459274 0.765064
0.702114 0.449533 0.748073
0.842453 0.442637 0.739479
0.873850 0.515356 0.769759
0.895503 0.583811 0.796551
0.901396 0.623854 0.805537
0.230926 0.478892 0.783828
0.324455 0.545348 0.795470
0.441685 0.601214 0.804638
0.613116 0.644873 0.813054
0.823916 0.625845 0.808188
0.882121 0.609615 0.797387
0.899077 0.654929 0.813712
0.910636 0.684432 0.824944
0.304806 0.623577 0.819963
0.407291 0.661626 0.825187
0.528815 0.701467 0.834782
0.653596 0.737112 0.839619
0.813794 0.740811 0.843704
0.878320 0.710272 0.832522
0.904412 0.719904 0.833929
0.911461 0.737596 0.838542
0.416632 0.723810 0.841849
0.516503 0.744054 0.845370
0.626270 0.767166 0.852556
0.704805 0.783820 0.853938
0.766034 0.795364 0.859557
0.862990 0.784630 0.853898
0.898050 0.773011 0.847820
0.906456 0.778397 0.851888
0.531261 0.775451 0.853970
0.617380 0.786314 0.854348
0.690169 0.797845 0.857290
0.747133 0.807981 0.860919
0.795967 0.820528 0.865003
0.837226 0.824318 0.867315
0.881897 0.819064 0.861873
0.907277 0.813445 0.862446
0.629720 0.809185 0.861981
0.686355 0.812969 0.857271
0.738723 0.820899 0.859001
0.786707 0.832307 0.863177
0.825332 0.835497 0.864554
0.854290 0.840886 0.867241
0.875624 0.844408 0.862494
0.905619 0.840561 0.857320
0.694104 0.829524 0.858071
0.741547 0.832794 0.858261
0.781434 0.840639 0.861490
0.815528 0.843724 0.862290
0.845285 0.850631 0.865641
0.869524 0.857280 0.867068
0.891744 0.863039 0.865229
0.909378 0.865950 0.856181
