其他预设/【236】赛博朋克风调色预设/【后期菌】视频调色预设/CUBE/Miami 10.cube
# LUT by SparkleStock. Enhanced with VOXCOLOR algorithms.
LUT_3D_SIZE 5
DOMAIN_MIN 0.000000 0.000000 0.000000
DOMAIN_MAX 0.903226 0.903226 0.903226
0.019550 0.019550 0.015640
0.113518 0.045660 0.045660
0.512850 0.144294 0.134330
0.622458 0.178602 0.195630
0.666099 0.206855 0.239902
0.031281 0.038470 0.033677
0.408974 0.134826 0.126168
0.615809 0.199719 0.201342
0.672894 0.248218 0.280516
0.698873 0.303053 0.278774
0.067859 0.178854 0.125753
0.288698 0.181914 0.083906
0.598061 0.270804 0.137516
0.666412 0.313387 0.153990
0.711759 0.353884 0.171538
0.087913 0.516003 0.367294
0.511710 0.393082 0.089923
0.671759 0.403982 0.105967
0.730678 0.418300 0.113921
0.767037 0.437391 0.126888
0.189575 0.713020 0.571122
0.680637 0.564344 0.116273
0.719957 0.525064 0.111732
0.766247 0.530321 0.113392
0.793195 0.546104 0.120663
0.031281 0.027370 0.032163
0.129545 0.055921 0.067562
0.522635 0.152566 0.188855
0.656774 0.211648 0.320878
0.713451 0.258370 0.407457
0.043894 0.057434 0.062272
0.401114 0.150459 0.197336
0.658961 0.246528 0.371841
0.716134 0.300354 0.455882
0.747160 0.357085 0.508805
0.064506 0.290659 0.232134
0.168893 0.368537 0.330585
0.663275 0.350502 0.352080
0.708111 0.411099 0.406572
0.734084 0.457391 0.389997
0.074519 0.604344 0.510974
0.261873 0.618240 0.538557
0.685240 0.460251 0.117943
0.741547 0.471195 0.117579
0.776008 0.487737 0.137284
0.297218 0.714407 0.635343
0.537358 0.657982 0.485444
0.725783 0.547434 0.121607
0.770866 0.558350 0.125997
0.794091 0.579103 0.153977
0.067859 0.059156 0.103175
0.218028 0.091824 0.153880
0.569356 0.199340 0.323811
0.686785 0.261360 0.438953
0.733852 0.302398 0.498007
0.120276 0.142134 0.236895
0.333720 0.245337 0.403776
0.682756 0.295127 0.477492
0.729730 0.348452 0.532699
0.763399 0.421742 0.583914
0.180579 0.347589 0.405252
0.301686 0.457707 0.505014
0.661460 0.475154 0.574114
0.740252 0.497721 0.609292
0.766194 0.564071 0.650674
0.234100 0.592406 0.588386
0.380104 0.638572 0.629793
0.539493 0.670403 0.652279
0.745737 0.531297 0.229084
0.770944 0.533777 0.210186
0.405805 0.714322 0.674359
0.547091 0.733066 0.700670
0.699729 0.700905 0.557970
0.767718 0.586955 0.163820
0.789370 0.628677 0.279394
0.202945 0.176205 0.374484
0.431129 0.227870 0.467866
0.618344 0.253288 0.450716
0.703938 0.295705 0.516056
0.751144 0.364743 0.575948
0.256339 0.281289 0.469115
0.413487 0.374458 0.555124
0.680710 0.358782 0.550386
0.737346 0.425412 0.604205
0.773901 0.489853 0.644337
0.315422 0.464733 0.543406
0.459258 0.552931 0.616489
0.622278 0.619996 0.685167
0.758565 0.581128 0.673032
0.779174 0.611341 0.691954
0.412852 0.616452 0.643192
0.549600 0.658896 0.681341
0.650016 0.696986 0.713699
0.724096 0.704211 0.714487
0.778130 0.693687 0.713535
0.519852 0.715229 0.710721
0.612299 0.733210 0.722431
0.688374 0.749983 0.738591
0.752910 0.746419 0.677068
0.794819 0.705225 0.512688
0.342572 0.260839 0.522436
0.541970 0.315003 0.601805
0.662295 0.304733 0.540220
0.718981 0.369251 0.587711
0.766792 0.439185 0.637972
0.389306 0.400552 0.586649
0.528965 0.496111 0.651081
0.709661 0.523112 0.693081
0.752445 0.508079 0.663694
0.782494 0.561364 0.696397
0.476544 0.569462 0.651468
0.602411 0.632572 0.706986
0.682760 0.668479 0.742614
0.770819 0.643689 0.730275
0.793764 0.655936 0.732845
0.573393 0.661119 0.702616
0.652726 0.695553 0.732095
0.710761 0.721092 0.762685
0.754497 0.742267 0.777067
0.798106 0.728438 0.769897
0.631710 0.717520 0.735304
0.686586 0.739845 0.751779
0.731453 0.756535 0.768777
0.769285 0.780488 0.786542
0.804475 0.788605 0.771567
