其他预设/【236】赛博朋克风调色预设/【后期菌】视频调色预设/CUBE/Miami 06_S.cube
# LUT by SparkleStock. Enhanced with VOXCOLOR algorithms.
LUT_3D_SIZE 32
0.019550 0.019550 0.035191
0.033677 0.027623 0.047299
0.047425 0.035443 0.059029
0.055498 0.039479 0.065084
0.064579 0.043263 0.071138
0.080724 0.045281 0.077192
0.099896 0.048434 0.083625
0.132186 0.056507 0.091697
0.170025 0.066597 0.100779
0.224514 0.082742 0.112887
0.285309 0.099518 0.120581
0.359979 0.117680 0.118563
0.447514 0.137357 0.121086
0.556491 0.159556 0.131176
0.643395 0.176458 0.142150
0.701920 0.186548 0.154259
0.749346 0.196639 0.165358
0.785671 0.206729 0.175449
0.817457 0.214549 0.184404
0.845710 0.220604 0.192476
0.871441 0.226658 0.203071
0.895658 0.232712 0.215180
0.910163 0.237379 0.220351
0.920254 0.241415 0.222369
0.933371 0.243938 0.227415
0.947498 0.245956 0.233469
0.958345 0.249614 0.239523
0.968436 0.253650 0.245578
0.974994 0.257686 0.249866
0.981049 0.261722 0.253902
0.983319 0.265759 0.256046
0.985337 0.269795 0.258065
0.025605 0.031659 0.047299
0.039731 0.036607 0.056283
0.053675 0.041432 0.065084
0.064872 0.044427 0.071138
0.077339 0.047820 0.077453
0.098692 0.054005 0.085590
0.123853 0.060543 0.093716
0.165517 0.068615 0.101788
0.212470 0.078706 0.109567
0.275292 0.094851 0.116468
0.345396 0.112277 0.121558
0.431523 0.132523 0.122665
0.516845 0.151158 0.127140
0.600824 0.167108 0.137231
0.670021 0.180494 0.147749
0.720213 0.190584 0.158816
0.761910 0.199112 0.168873
0.795111 0.206078 0.177922
0.822599 0.211945 0.185836
0.845645 0.216958 0.192867
0.868772 0.222622 0.202420
0.891947 0.228676 0.213487
0.909707 0.234059 0.219765
0.925006 0.239137 0.223867
0.939425 0.243482 0.231776
0.953552 0.247583 0.240955
0.963553 0.253324 0.250135
0.972602 0.259444 0.259314
0.978119 0.262829 0.264904
0.983132 0.265824 0.269982
0.986314 0.268818 0.271215
0.989373 0.271813 0.272191
0.031533 0.043389 0.058903
0.045660 0.045407 0.064958
0.059815 0.047429 0.071020
0.074397 0.049513 0.077205
0.090509 0.052605 0.083894
0.117331 0.062760 0.094114
0.148692 0.072562 0.103896
0.199731 0.080830 0.111773
0.255831 0.091132 0.118169
0.327115 0.107537 0.120122
0.406130 0.125651 0.122787
0.502153 0.147525 0.127018
0.584529 0.164931 0.133398
0.644160 0.174891 0.143358
0.696074 0.184851 0.153376
0.738063 0.194812 0.163466
0.774031 0.201777 0.172450
0.803977 0.205749 0.180327
0.827295 0.209756 0.187252
0.845458 0.213792 0.193436
0.866184 0.219049 0.202103
0.888448 0.225038 0.212259
0.909280 0.231072 0.219594
0.929461 0.237127 0.225649
0.945101 0.243279 0.236439
0.959228 0.249463 0.248808
0.968489 0.257076 0.260807
0.976626 0.265018 0.272720
0.981232 0.267891 0.279678
0.985333 0.270039 0.285927
0.989251 0.272065 0.286318
0.993157 0.274083 0.286318
0.035569 0.049443 0.062939
0.049696 0.051462 0.068994
0.064307 0.053549 0.075186
0.086180 0.056674 0.083454
0.109844 0.060807 0.092226
0.146040 0.072005 0.104530
0.186776 0.083238 0.115418
0.247189 0.094631 0.120171
0.312923 0.108318 0.123963
0.394624 0.128890 0.124874
0.476569 0.148241 0.127799
0.559050 0.164906 0.135156
0.627495 0.178276 0.142707
0.672544 0.186153 0.150584
0.713520 0.194031 0.159430
0.749260 0.201908 0.169520
0.779499 0.207311 0.176942
0.804237 0.210240 0.181694
0.825277 0.213792 0.188424
0.843440 0.217829 0.196691
0.864817 0.222434 0.206790
0.888123 0.227382 0.217987
0.909280 0.233091 0.225649
0.929461 0.239145 0.231703
0.945101 0.246859 0.245618
0.959228 0.255127 0.262154
0.969335 0.261438 0.272395
0.978514 0.267297 0.281183
0.984161 0.271731 0.290484
0.989304 0.275963 0.299859
0.991335 0.278119 0.300445
0.993157 0.280137 0.300445
0.039101 0.055750 0.066976
0.053097 0.057508 0.072900
0.068001 0.059416 0.079092
0.096515 0.063582 0.089313
0.127340 0.068790 0.100022
0.174342 0.081290 0.114149
0.225567 0.094216 0.125981
0.295094 0.108994 0.127869
0.369683 0.126001 0.129382
0.459455 0.149697 0.129773
0.542718 0.169651 0.133073
0.611659 0.181369 0.142772
0.666807 0.191012 0.151154
0.698966 0.197196 0.157339
0.729844 0.203210 0.165004
0.759074 0.209004 0.174574
0.783714 0.212910 0.180433
0.803765 0.214928 0.182581
0.823047 0.218154 0.189270
0.841731 0.222321 0.199491
0.863629 0.226324 0.210729
0.887455 0.230230 0.222577
0.908776 0.235613 0.230800
0.928957 0.241667 0.237375
0.944792 0.250651 0.254154
0.959179 0.260612 0.274335
0.969970 0.265759 0.282298
0.979930 0.269795 0.287441
0.986358 0.275597 0.298565
0.992283 0.281651 0.310543
0.992897 0.284166 0.311536
0.993157 0.286444 0.311796
0.039101 0.063822 0.071012
0.052056 0.063497 0.075894
0.066113 0.063517 0.081176
0.096710 0.068725 0.092438
0.131962 0.075235 0.104058
0.199796 0.090859 0.118185
0.269315 0.107301 0.129822
0.346133 0.127287 0.130668
0.424106 0.147159 0.132181
0.505546 0.166689 0.135697
0.578849 0.182801 0.140168
0.634249 0.191394 0.146744
0.680543 0.199475 0.153563
0.711661 0.206701 0.160789
0.738307 0.212389 0.167217
0.759204 0.216099 0.172621
0.779157 0.218964 0.176917
0.798167 0.220982 0.180107
0.819336 0.224794 0.187838
0.842186 0.230002 0.199100
0.863694 0.233746 0.209427
0.884396 0.236610 0.219192
0.904739 0.241667 0.229628
0.924920 0.247722 0.240370
0.942318 0.255924 0.258191
0.958789 0.264843 0.278372
0.969123 0.269795 0.280410
0.978042 0.273831 0.278262
0.983429 0.279633 0.287563
0.988311 0.285687 0.298500
0.990814 0.290155 0.301380
0.993157 0.294516 0.303724
0.038722 0.071516 0.075426
0.051026 0.069889 0.079463
0.064616 0.068742 0.084003
0.097491 0.074796 0.096112
0.136755 0.082266 0.108424
0.220734 0.099648 0.122160
0.305177 0.118531 0.133211
0.391629 0.143920 0.132625
0.474746 0.166900 0.133748
0.547853 0.182654 0.139998
0.611439 0.195377 0.145494
0.654080 0.201432 0.149335
0.691716 0.208169 0.154690
0.721011 0.216047 0.162567
0.743755 0.221360 0.167881
0.758077 0.223378 0.169899
0.774124 0.225494 0.172828
0.791897 0.227708 0.176669
0.814429 0.231862 0.185051
0.840665 0.237525 0.196964
0.862343 0.241033 0.206599
0.881287 0.243246 0.214867
0.900813 0.247966 0.226491
0.920603 0.253825 0.239641
0.939173 0.261197 0.258211
0.957336 0.269075 0.278587
0.967300 0.273831 0.275056
0.975373 0.277867 0.266007
0.979914 0.283327 0.272509
0.983950 0.288991 0.281232
0.987803 0.295021 0.285561
0.991644 0.301075 0.289597
0.036704 0.077571 0.081481
0.050050 0.078026 0.085517
0.064811 0.078832 0.090058
0.100811 0.084886 0.102166
0.142288 0.091836 0.114218
0.222101 0.105051 0.125871
0.306869 0.121721 0.134643
0.413112 0.153359 0.130932
0.508988 0.180506 0.129972
0.573763 0.194177 0.137263
0.628691 0.205468 0.143151
0.661957 0.211522 0.145950
0.691781 0.217869 0.150263
0.715868 0.224705 0.157098
0.736139 0.229433 0.161826
0.751502 0.231451 0.163844
0.767028 0.234087 0.166253
0.782718 0.237342 0.169052
0.804339 0.240780 0.176393
0.830574 0.244361 0.187264
0.854857 0.247738 0.197159
0.877967 0.250993 0.206469
0.897363 0.255322 0.214838
0.915070 0.260140 0.222780
0.933119 0.266471 0.240829
0.951282 0.273306 0.262247
0.961246 0.277867 0.254679
0.969319 0.281903 0.240422
0.973859 0.285541 0.239893
0.977896 0.289121 0.241326
0.980772 0.295021 0.245199
0.983571 0.301075 0.249235
0.035191 0.085643 0.088040
0.049838 0.087401 0.092076
0.065902 0.089394 0.096568
0.103204 0.094928 0.107895
0.145201 0.101031 0.119035
0.220066 0.111122 0.128865
0.303305 0.126034 0.135766
0.422829 0.161839 0.129972
0.528404 0.191915 0.127515
0.592137 0.204805 0.135066
0.643989 0.215640 0.140889
0.669704 0.221954 0.142907
0.693050 0.228074 0.146341
0.712450 0.233868 0.152135
0.730198 0.238124 0.156163
0.745822 0.240402 0.157920
0.761088 0.243559 0.160069
0.775996 0.247596 0.162608
0.796836 0.250350 0.168955
0.822290 0.252108 0.178264
0.847744 0.255290 0.187899
0.873198 0.259326 0.197729
0.893148 0.263541 0.204113
0.910594 0.267838 0.208930
0.928383 0.273062 0.225807
0.946285 0.278595 0.246705
0.956201 0.282701 0.236500
0.964273 0.286477 0.219118
0.968586 0.288714 0.212503
0.972362 0.290733 0.207425
0.974490 0.296535 0.209915
0.976508 0.302589 0.212910
0.035191 0.099770 0.096112
0.051921 0.100486 0.100148
0.069677 0.101373 0.104445
0.102813 0.104823 0.112647
0.140254 0.109104 0.120923
0.207828 0.119194 0.129712
0.283970 0.133715 0.135961
0.397244 0.167437 0.131209
0.503341 0.196732 0.129012
0.587906 0.212747 0.134480
0.653429 0.226056 0.138870
0.677060 0.233412 0.140889
0.697933 0.239792 0.143932
0.714208 0.244544 0.148684
0.729287 0.248670 0.151671
0.742828 0.251990 0.152387
0.758614 0.255668 0.155056
0.776647 0.259704 0.159678
0.797097 0.261873 0.165179
0.819426 0.262589 0.171364
0.841755 0.265380 0.179176
0.864084 0.269416 0.187964
0.886638 0.274348 0.196171
0.909292 0.279686 0.204113
0.927602 0.283608 0.217865
0.944463 0.287058 0.233554
0.954183 0.289927 0.224912
0.962255 0.292661 0.210655
0.965657 0.294769 0.200785
0.968391 0.296787 0.191540
0.970454 0.302589 0.189864
0.972472 0.308643 0.188692
0.033929 0.114527 0.103554
0.050790 0.115178 0.106939
0.068428 0.115813 0.110410
0.097723 0.116203 0.115162
0.131054 0.117766 0.120207
0.192639 0.127531 0.127303
0.262499 0.141397 0.132434
0.368222 0.173036 0.129049
0.472154 0.201387 0.127275
0.570715 0.219875 0.130334
0.646939 0.235210 0.133170
0.674021 0.243608 0.135514
0.696733 0.250493 0.138492
0.712161 0.254854 0.142528
0.726565 0.259074 0.145083
0.739650 0.263110 0.145734
0.756283 0.267146 0.148762
0.776464 0.271182 0.154165
0.796645 0.273314 0.158433
0.816826 0.273965 0.161818
0.837210 0.276732 0.168133
0.857717 0.280768 0.176205
0.881491 0.285520 0.185218
0.906749 0.290598 0.194657
0.925173 0.293381 0.205610
0.941317 0.295399 0.217068
0.951961 0.297946 0.212551
0.961336 0.300616 0.204349
0.963989 0.302430 0.192729
0.965681 0.304123 0.180620
0.967374 0.310210 0.175469
0.969066 0.316589 0.170782
0.029893 0.130672 0.109608
0.042588 0.133406 0.110910
0.056124 0.135668 0.112167
0.082295 0.130851 0.112753
0.112501 0.127726 0.113762
0.170961 0.136450 0.117733
0.236329 0.149079 0.120716
0.331636 0.178634 0.119414
0.427495 0.205683 0.118421
0.525015 0.225213 0.118356
0.605406 0.241590 0.119369
0.648111 0.251030 0.122754
0.682150 0.258956 0.126384
0.701745 0.264359 0.130420
0.719859 0.269164 0.133886
0.736069 0.273200 0.136620
0.754265 0.277236 0.139648
0.774446 0.281273 0.142968
0.794627 0.284576 0.145153
0.814808 0.287311 0.146455
0.835843 0.290859 0.151988
0.857391 0.294895 0.160061
0.879342 0.297499 0.167641
0.901476 0.299452 0.174997
0.919118 0.301454 0.183867
0.935263 0.303472 0.193241
0.949292 0.307711 0.198490
0.962833 0.312464 0.202786
0.965095 0.313627 0.192729
0.965746 0.314278 0.180620
0.966397 0.321277 0.173516
0.967048 0.328698 0.166745
0.025857 0.148330 0.118689
0.035557 0.150804 0.116736
0.046091 0.152643 0.114755
0.069136 0.144961 0.112346
0.095925 0.139151 0.110442
0.148916 0.146442 0.112070
0.207889 0.157444 0.113099
0.292779 0.184526 0.111537
0.380469 0.210078 0.109763
0.476556 0.231040 0.107354
0.560234 0.248971 0.106959
0.616611 0.260233 0.110995
0.660757 0.269689 0.114739
0.684518 0.276134 0.117994
0.706856 0.281525 0.121591
0.727362 0.285561 0.125627
0.748097 0.289597 0.128849
0.769059 0.293634 0.131258
0.790241 0.297670 0.132531
0.811593 0.301706 0.132922
0.833231 0.305498 0.137625
0.855040 0.309144 0.144917
0.875729 0.310551 0.151089
0.895910 0.310942 0.156753
0.913357 0.312553 0.163930
0.929892 0.314571 0.171612
0.945793 0.319551 0.182573
0.961547 0.325215 0.194291
0.965225 0.326607 0.188237
0.967178 0.327388 0.179643
0.966934 0.333906 0.171538
0.966544 0.340807 0.163466
0.021821 0.168511 0.132816
0.030479 0.166819 0.125655
0.039841 0.164817 0.118726
0.059762 0.158177 0.115276
0.082644 0.153018 0.112330
0.126261 0.158226 0.112916
0.175664 0.166949 0.112318
0.250139 0.190906 0.106589
0.329495 0.214635 0.101430
0.423500 0.237680 0.097980
0.509001 0.258020 0.096869
0.575793 0.272407 0.100905
0.628012 0.284206 0.103867
0.655939 0.291693 0.105039
0.683355 0.297670 0.107464
0.710111 0.301706 0.111500
0.735011 0.305742 0.115243
0.758057 0.309778 0.118694
0.781908 0.313815 0.121009
0.806385 0.317851 0.122441
0.828544 0.320992 0.126233
0.849311 0.323596 0.131441
0.869675 0.325394 0.136246
0.889856 0.326826 0.140868
0.908084 0.328698 0.147004
0.925661 0.330716 0.153644
0.940911 0.334850 0.163564
0.955623 0.339472 0.174240
0.963728 0.342556 0.176258
0.970889 0.345421 0.177039
0.969994 0.349139 0.169520
0.968562 0.352915 0.161448
0.016902 0.190458 0.145177
0.024518 0.185511 0.134631
0.032709 0.180551 0.124435
0.049504 0.175408 0.119487
0.068652 0.171241 0.114987
0.104262 0.173911 0.113620
0.145291 0.179900 0.110995
0.209805 0.200276 0.102923
0.281399 0.221727 0.096202
0.374231 0.246399 0.093532
0.460615 0.268692 0.092816
0.532811 0.285748 0.096397
0.591507 0.299606 0.098635
0.627702 0.308135 0.098635
0.661505 0.315096 0.100002
0.692233 0.320044 0.103127
0.720616 0.324764 0.106707
0.746656 0.329255 0.110743
0.772550 0.332978 0.113388
0.798329 0.336103 0.114950
0.821179 0.339106 0.117774
0.842272 0.342035 0.121355
0.863051 0.344025 0.125562
0.883688 0.345587 0.130054
0.903153 0.347150 0.135717
0.922227 0.348712 0.141772
0.937281 0.352285 0.150365
0.951408 0.356321 0.159544
0.961604 0.360357 0.165590
0.971239 0.364393 0.171189
0.970804 0.366537 0.165252
0.969697 0.368555 0.158547
0.010847 0.214675 0.155268
0.017422 0.207645 0.143680
0.024441 0.200862 0.132377
0.038112 0.197802 0.125346
0.053744 0.195068 0.118633
0.083104 0.194612 0.114141
0.117298 0.197281 0.108977
0.172438 0.213491 0.100905
0.237001 0.232077 0.094965
0.329833 0.257792 0.095420
0.415891 0.281452 0.096527
0.487046 0.300591 0.099066
0.550168 0.316142 0.100653
0.599905 0.325712 0.100653
0.641780 0.334170 0.101108
0.673549 0.341201 0.102150
0.704537 0.347483 0.104689
0.734743 0.353017 0.108725
0.761873 0.356024 0.110784
0.786611 0.357065 0.111305
0.810373 0.360589 0.113087
0.833548 0.365602 0.115626
0.855695 0.367526 0.120223
0.877373 0.368047 0.125757
0.898661 0.368568 0.131681
0.919818 0.369088 0.137735
0.935263 0.372466 0.144636
0.949390 0.376502 0.151732
0.958675 0.380538 0.156606
0.967268 0.384574 0.161163
0.968720 0.386718 0.158091
0.969697 0.388736 0.154511
0.006811 0.242929 0.168385
0.013386 0.230690 0.152110
0.020340 0.219090 0.136283
0.032969 0.217072 0.127169
0.047950 0.215314 0.118567
0.079394 0.215379 0.113555
0.114108 0.218179 0.108164
0.162998 0.232826 0.101133
0.224436 0.251022 0.097015
0.323518 0.279861 0.101637
0.414199 0.305343 0.105283
0.486395 0.323441 0.106780
0.551145 0.338536 0.107325
0.603485 0.348627 0.106284
0.646142 0.357151 0.105470
0.676348 0.363661 0.104949
0.706555 0.369943 0.106447
0.736761 0.375997 0.109962
0.763306 0.378646 0.111500
0.787002 0.378646 0.111500
0.810698 0.381779 0.112761
0.834395 0.386792 0.114779
0.856704 0.389074 0.119572
0.878382 0.390116 0.125627
0.900060 0.390767 0.130900
0.921739 0.391288 0.135913
0.936012 0.394665 0.141348
0.948576 0.398701 0.146882
0.957210 0.401826 0.150650
0.965282 0.404820 0.154165
0.968655 0.409829 0.152981
0.971715 0.414972 0.151484
0.004793 0.275218 0.184530
0.012410 0.254647 0.159922
0.020405 0.235235 0.136153
0.034076 0.233217 0.124955
0.051270 0.231980 0.114792
0.093130 0.236211 0.111862
0.135721 0.242591 0.108554
0.181487 0.258280 0.103607
0.243706 0.278559 0.102353
0.355287 0.312606 0.112184
0.455537 0.340367 0.119084
0.530858 0.354299 0.119540
0.594436 0.366790 0.118653
0.638444 0.376880 0.115528
0.674591 0.384037 0.113087
0.700631 0.387422 0.111524
0.726671 0.392142 0.111980
0.752711 0.398196 0.114454
0.776846 0.400845 0.115536
0.799501 0.400845 0.115536
0.822156 0.402676 0.116798
0.844811 0.405606 0.118816
0.866078 0.408669 0.123609
0.886715 0.411794 0.129663
0.907352 0.413747 0.133374
0.927988 0.415309 0.136303
0.939527 0.418882 0.140502
0.948967 0.422918 0.144994
0.957210 0.424220 0.147720
0.965282 0.425131 0.150194
0.970608 0.435869 0.149921
0.975751 0.447261 0.149466
0.002775 0.312049 0.204080
0.009090 0.286660 0.172312
0.016369 0.262475 0.141588
0.038112 0.256356 0.126550
0.063525 0.251831 0.112993
0.114629 0.258471 0.109803
0.165684 0.267663 0.107224
0.216527 0.287909 0.107289
0.282310 0.311296 0.110365
0.392915 0.344106 0.122473
0.493470 0.371180 0.131347
0.571916 0.385632 0.133105
0.633883 0.397130 0.132251
0.668386 0.403705 0.127043
0.698645 0.409568 0.123230
0.723448 0.414516 0.121212
0.747372 0.420017 0.120626
0.770418 0.426071 0.121473
0.792987 0.430038 0.121843
0.815186 0.432382 0.121843
0.836287 0.433790 0.122738
0.856728 0.434636 0.124170
0.876185 0.438078 0.127974
0.895194 0.442700 0.132857
0.913764 0.444491 0.135152
0.932187 0.445337 0.136584
0.943152 0.448775 0.140608
0.952397 0.452811 0.145230
0.959590 0.453828 0.146548
0.966491 0.454414 0.147395
0.971499 0.465498 0.147997
0.976382 0.477281 0.148583
0.000757 0.352411 0.226279
0.003947 0.324938 0.188261
0.009142 0.298345 0.151353
0.044427 0.284935 0.131107
0.082730 0.274160 0.112733
0.142166 0.281842 0.107460
0.202140 0.293247 0.104555
0.264440 0.320784 0.111911
0.335953 0.348077 0.120455
0.435100 0.374638 0.132564
0.528754 0.398717 0.142414
0.610325 0.417336 0.147297
0.670339 0.429094 0.147614
0.694426 0.429420 0.140323
0.719282 0.434046 0.135339
0.745126 0.444202 0.133321
0.768530 0.452307 0.131693
0.789492 0.458361 0.130456
0.811150 0.464672 0.129915
0.833349 0.471182 0.129915
0.852497 0.472850 0.130159
0.869813 0.471613 0.130550
0.886861 0.475120 0.132596
0.903787 0.480784 0.135396
0.919493 0.481272 0.136389
0.934791 0.480035 0.136779
0.946863 0.483083 0.141454
0.958191 0.487119 0.147118
0.963822 0.489047 0.146744
0.968639 0.490675 0.145507
0.971565 0.497917 0.146955
0.974364 0.505534 0.148583
0.000000 0.397818 0.248479
0.001367 0.363055 0.203560
0.005049 0.329658 0.160101
0.043458 0.316768 0.138553
0.087165 0.306499 0.118860
0.167954 0.314571 0.112155
0.245228 0.326074 0.108477
0.307268 0.352439 0.117916
0.377185 0.379081 0.128349
0.470734 0.406554 0.141759
0.559685 0.432358 0.153074
0.638521 0.454492 0.159780
0.697803 0.469277 0.161920
0.724494 0.471816 0.156452
0.750701 0.477403 0.152777
0.776285 0.486907 0.151410
0.797866 0.495663 0.149392
0.815443 0.503671 0.146723
0.834521 0.509151 0.144823
0.854767 0.512667 0.143521
0.870822 0.512723 0.142626
0.884363 0.510705 0.141975
0.899247 0.514685 0.142711
0.914740 0.521390 0.144078
0.926768 0.521553 0.143932
0.937639 0.519535 0.143281
0.948987 0.521378 0.145962
0.960445 0.524112 0.149413
0.965409 0.526789 0.148648
0.969445 0.529458 0.147281
0.971589 0.535911 0.149087
0.973607 0.542617 0.151105
0.000000 0.446252 0.270678
0.000325 0.401073 0.218467
0.002836 0.358237 0.168239
0.038120 0.350555 0.147732
0.082738 0.344843 0.128821
0.192692 0.352915 0.121074
0.292295 0.363246 0.116354
0.347044 0.383362 0.124752
0.410972 0.406619 0.134924
0.502438 0.439299 0.150418
0.588003 0.469660 0.163490
0.660590 0.494919 0.171237
0.719872 0.514392 0.175591
0.756979 0.524222 0.174289
0.788589 0.532087 0.173414
0.813131 0.537425 0.173089
0.832108 0.545660 0.171071
0.845519 0.556792 0.167360
0.861017 0.559539 0.163832
0.878138 0.555763 0.160447
0.890417 0.553085 0.158120
0.899792 0.551067 0.156427
0.912657 0.555763 0.156122
0.927109 0.563510 0.156447
0.934970 0.563933 0.155259
0.940634 0.561915 0.153567
0.950159 0.562065 0.152668
0.960575 0.562716 0.151952
0.965409 0.566044 0.151577
0.969445 0.569755 0.151252
0.971589 0.577250 0.153123
0.973607 0.584997 0.155141
0.000000 0.494687 0.302589
0.000716 0.439807 0.240939
0.004114 0.387890 0.181747
0.047731 0.380404 0.159418
0.100868 0.375310 0.139139
0.220652 0.386963 0.133215
0.329024 0.400910 0.130184
0.387939 0.424802 0.139688
0.453576 0.450761 0.150137
0.539378 0.482920 0.163417
0.617978 0.512333 0.175070
0.680734 0.535704 0.183143
0.735630 0.554851 0.188456
0.777424 0.566960 0.189172
0.810275 0.576477 0.189575
0.831628 0.582661 0.189575
0.849433 0.590376 0.187915
0.863690 0.599620 0.184595
0.877800 0.601870 0.180872
0.891797 0.598680 0.176836
0.902091 0.596222 0.173166
0.910163 0.594204 0.169716
0.921413 0.599123 0.169130
0.934108 0.607196 0.169846
0.939771 0.606089 0.167974
0.943091 0.601923 0.165240
0.951331 0.603469 0.163670
0.960705 0.606333 0.162368
0.965409 0.608970 0.162205
0.969445 0.611574 0.162205
0.972260 0.617962 0.163425
0.974994 0.624602 0.164727
0.000000 0.543121 0.338915
0.001758 0.478867 0.266849
0.006978 0.418031 0.197696
0.064136 0.408462 0.172242
0.129252 0.402196 0.149620
0.250078 0.419057 0.146821
0.361053 0.438798 0.146719
0.429343 0.471023 0.158307
0.500188 0.502450 0.169276
0.578698 0.531484 0.178390
0.648705 0.557447 0.187179
0.700004 0.576652 0.195251
0.748520 0.593195 0.200956
0.792397 0.605304 0.202713
0.824597 0.616188 0.203702
0.841784 0.625497 0.203702
0.859068 0.632691 0.202563
0.876449 0.637768 0.200284
0.890169 0.640539 0.197017
0.901041 0.641516 0.192981
0.910163 0.640621 0.188009
0.918235 0.638602 0.182475
0.928053 0.643522 0.181954
0.938665 0.651594 0.183712
0.943026 0.648144 0.181320
0.945305 0.640852 0.177544
0.952502 0.645198 0.176624
0.960835 0.652229 0.176364
0.965409 0.653563 0.176331
0.969445 0.654084 0.176331
0.973237 0.658389 0.176576
0.977013 0.662946 0.176836
0.000000 0.582474 0.372213
0.002018 0.514314 0.290513
0.008378 0.449979 0.212279
0.079857 0.443014 0.186044
0.157245 0.439287 0.162738
0.275987 0.458231 0.159938
0.385563 0.479616 0.159641
0.455415 0.511580 0.170188
0.525609 0.541835 0.180115
0.596829 0.566964 0.188188
0.661904 0.590892 0.196504
0.713463 0.612180 0.205358
0.760287 0.629733 0.211648
0.799216 0.641060 0.213666
0.828861 0.651846 0.214802
0.846568 0.661937 0.214802
0.864113 0.669781 0.214183
0.881495 0.675380 0.212946
0.895214 0.677646 0.210135
0.906086 0.677321 0.206098
0.915697 0.677402 0.201777
0.924550 0.677728 0.197286
0.933180 0.682305 0.196732
0.941708 0.688815 0.197969
0.947111 0.686146 0.195837
0.951473 0.680417 0.192582
0.957580 0.683998 0.191337
0.964090 0.689726 0.190556
0.968436 0.691126 0.191142
0.972472 0.691907 0.191923
0.975776 0.693543 0.191239
0.979031 0.695235 0.190458
0.000000 0.618800 0.404503
0.002018 0.548557 0.313428
0.009289 0.482529 0.226406
0.095351 0.479730 0.200170
0.185108 0.479779 0.176734
0.300725 0.499765 0.172893
0.407567 0.521410 0.171359
0.476377 0.550250 0.179822
0.543967 0.577120 0.188188
0.607896 0.598082 0.196260
0.669260 0.620448 0.204902
0.724986 0.645902 0.214797
0.771679 0.665668 0.221739
0.803318 0.675954 0.223757
0.829773 0.686154 0.224892
0.849563 0.696244 0.224892
0.867628 0.705131 0.224794
0.883968 0.712812 0.224599
0.897818 0.714232 0.222243
0.909732 0.710782 0.218207
0.920384 0.711645 0.215188
0.930279 0.715095 0.212779
0.937802 0.719217 0.212161
0.944247 0.723643 0.212356
0.951473 0.722797 0.210745
0.958960 0.720193 0.208532
0.963960 0.721821 0.206636
0.968387 0.724425 0.204813
0.972472 0.726345 0.206180
0.976508 0.728168 0.208003
0.978835 0.726939 0.206408
0.981049 0.725507 0.204585
0.004919 0.651846 0.433513
0.009476 0.577828 0.332217
0.019721 0.508468 0.235666
0.115288 0.508988 0.210277
0.213500 0.512072 0.187240
0.330224 0.533100 0.180665
0.437928 0.555641 0.177153
0.506543 0.584740 0.186918
0.571741 0.610976 0.196260
0.626685 0.628618 0.204333
0.680531 0.647887 0.212507
0.731960 0.670737 0.220905
0.774820 0.689755 0.227227
0.803399 0.702384 0.230092
0.828304 0.712792 0.232073
0.848485 0.720344 0.232920
0.866225 0.727732 0.232920
0.881523 0.734959 0.232073
0.895503 0.737278 0.229909
0.908458 0.735780 0.226719
0.920681 0.738271 0.225319
0.932464 0.743153 0.224994
0.940308 0.746290 0.224892
0.946363 0.748634 0.224892
0.953296 0.749610 0.224013
0.960522 0.750131 0.222841
0.965156 0.753244 0.223045
0.969192 0.756954 0.223566
0.973229 0.758443 0.223916
0.977265 0.759615 0.224241
0.978616 0.758590 0.223163
0.979787 0.757418 0.221991
0.010973 0.684136 0.461766
0.018655 0.605951 0.350055
0.032351 0.532880 0.243804
0.136250 0.536526 0.219456
0.242013 0.542474 0.196940
0.360821 0.564543 0.187240
0.470217 0.588126 0.181580
0.538833 0.618267 0.193428
0.601687 0.644502 0.204333
0.647257 0.659019 0.212405
0.692705 0.674839 0.219928
0.737884 0.693522 0.226243
0.776057 0.711108 0.231654
0.802553 0.726862 0.235560
0.826286 0.737660 0.238583
0.846467 0.742087 0.240471
0.863686 0.747393 0.240471
0.877943 0.753577 0.238583
0.892053 0.757198 0.236549
0.906050 0.758826 0.234401
0.919965 0.763139 0.234694
0.933831 0.769063 0.236451
