其他预设/【236】赛博朋克风调色预设/【后期菌】视频调色预设/CUBE/Miami 01.cube
# LUT by SparkleStock. Enhanced with VOXCOLOR algorithms.
LUT_3D_SIZE 5
DOMAIN_MIN 0.000000 0.000000 0.000000
DOMAIN_MAX 0.903226 0.903226 0.903226
0.003910 0.000000 0.000000
0.033929 0.006307 0.015640
0.703308 0.086526 0.004793
0.839403 0.120581 0.039857
0.852017 0.140384 0.096995
0.007820 0.010217 0.007820
0.422096 0.062048 0.014216
0.831241 0.126888 0.043715
0.858315 0.157151 0.146699
0.867205 0.203482 0.138529
0.019550 0.104563 0.064453
0.126123 0.109193 0.038580
0.784943 0.189396 0.003910
0.858038 0.231260 0.018069
0.879302 0.291953 0.050326
0.029389 0.512219 0.325040
0.238783 0.405736 0.096271
0.765539 0.505375 0.020055
0.876083 0.521199 0.013748
0.914513 0.560714 0.034243
0.217703 0.733958 0.621575
0.435185 0.696403 0.105446
0.797109 0.762337 0.047824
0.897298 0.787690 0.047962
0.931984 0.805385 0.082400
0.006307 0.003910 0.014127
0.046201 0.012613 0.040480
0.714265 0.087067 0.050347
0.843456 0.122347 0.220689
0.862612 0.165610 0.372193
0.020433 0.022830 0.042677
0.442389 0.066273 0.112671
0.843423 0.139654 0.313786
0.872983 0.211089 0.479983
0.891382 0.295448 0.556637
0.035874 0.185177 0.186979
0.079953 0.292083 0.338637
0.852865 0.241061 0.273788
0.884720 0.322784 0.352129
0.901191 0.394625 0.308532
0.090672 0.609246 0.594615
0.188119 0.666855 0.612563
0.741162 0.620214 0.033581
0.874685 0.655052 0.027197
0.915737 0.687396 0.060841
0.328161 0.768265 0.756682
0.421978 0.754468 0.440579
0.802699 0.792072 0.062480
0.899063 0.822774 0.084505
0.925964 0.837413 0.137904
0.025226 0.013496 0.081481
0.094692 0.025137 0.136405
0.735252 0.088292 0.279287
0.848216 0.165358 0.482265
0.878040 0.264916 0.598135
0.048308 0.065393 0.256392
0.172930 0.146406 0.481890
0.844901 0.211384 0.554876
0.878878 0.322046 0.644210
0.900650 0.429687 0.701599
0.078327 0.341209 0.584781
0.154251 0.508074 0.718269
0.770870 0.442771 0.675010
0.880022 0.507169 0.713261
0.896663 0.609021 0.756222
0.218789 0.704679 0.792800
0.337758 0.740191 0.799339
0.524986 0.758901 0.765351
0.886023 0.717348 0.139264
0.917703 0.737521 0.143238
0.443115 0.796812 0.806776
0.598223 0.808570 0.806898
0.762104 0.813948 0.572001
0.896328 0.834616 0.133986
0.922541 0.838892 0.270571
0.092706 0.097373 0.481695
0.222430 0.126115 0.541054
0.746746 0.158091 0.542682
0.857163 0.270808 0.639616
0.895849 0.407786 0.721096
0.114535 0.245065 0.649499
0.230413 0.357154 0.712619
0.819670 0.332545 0.674894
0.879337 0.462994 0.739267
0.900907 0.566887 0.776758
0.177987 0.562676 0.793052
0.327587 0.658037 0.814635
0.593451 0.701322 0.814706
0.891232 0.653253 0.795565
0.900861 0.694423 0.802478
0.371859 0.757215 0.832743
0.530287 0.783260 0.836882
0.690402 0.798998 0.838602
0.835545 0.797865 0.817723
0.900451 0.779503 0.804766
0.572453 0.813738 0.837638
0.688189 0.822967 0.833671
0.788752 0.839947 0.839367
0.865954 0.842962 0.758358
0.916291 0.840786 0.538708
0.165232 0.251506 0.692334
0.322489 0.295062 0.697799
0.782539 0.300298 0.675433
0.861602 0.425127 0.735032
0.898937 0.557289 0.781086
0.217662 0.440483 0.771199
0.391949 0.554163 0.793007
0.757850 0.601329 0.799855
0.887496 0.602901 0.799110
0.908484 0.671194 0.821381
0.361134 0.687647 0.835892
0.550847 0.731999 0.842105
0.717744 0.769476 0.848056
0.881285 0.743466 0.839715
0.909214 0.760910 0.846466
0.559709 0.787755 0.857094
0.686229 0.801760 0.858580
0.782846 0.820397 0.863971
0.849418 0.831577 0.867901
0.907777 0.822429 0.865071
0.694104 0.829524 0.858071
0.771665 0.839228 0.861013
0.832385 0.846713 0.864099
0.874667 0.859386 0.867675
0.909378 0.865950 0.856181
