其他预设/【236】赛博朋克风调色预设/【后期菌】视频调色预设/CUBE/Miami 06.cube
# LUT by SparkleStock. Enhanced with VOXCOLOR algorithms.
LUT_3D_SIZE 8
DOMAIN_MIN 0.000000 0.000000 0.000000
DOMAIN_MAX 0.903226 0.903226 0.903226
0.019550 0.019550 0.035191
0.064579 0.043263 0.071138
0.170025 0.066597 0.100779
0.451424 0.141267 0.124239
0.759184 0.204459 0.172169
0.878000 0.233217 0.209630
0.935768 0.246334 0.229811
0.974994 0.257686 0.249866
0.039101 0.055750 0.066976
0.127340 0.068790 0.100022
0.376782 0.126506 0.133894
0.727757 0.207156 0.173780
0.867152 0.238323 0.226536
0.930568 0.253613 0.261649
0.973131 0.269669 0.287539
0.988641 0.278018 0.305274
0.035191 0.085643 0.088040
0.145234 0.100999 0.119068
0.562399 0.187940 0.141263
0.804677 0.231634 0.188314
0.897062 0.254281 0.229567
0.953137 0.271886 0.266210
0.976439 0.286066 0.282314
0.975019 0.294264 0.231044
0.025857 0.145177 0.121843
0.095925 0.135998 0.113595
0.400414 0.197843 0.118901
0.761389 0.253756 0.147386
0.875627 0.276606 0.179428
0.934767 0.297181 0.198547
0.955106 0.307715 0.204333
0.969929 0.326192 0.198885
0.006811 0.242929 0.168385
0.047950 0.215314 0.118567
0.226210 0.243201 0.099782
0.604360 0.317655 0.129720
0.785867 0.350653 0.138870
0.873618 0.366139 0.145608
0.926788 0.382682 0.152607
0.959354 0.399681 0.154938
0.000000 0.396557 0.251001
0.087246 0.306418 0.120122
0.378951 0.377478 0.129952
0.720311 0.464586 0.170017
0.835042 0.485426 0.163287
0.896008 0.504777 0.155870
0.933925 0.518904 0.151341
0.965409 0.526789 0.149909
0.000000 0.582474 0.372213
0.157245 0.439287 0.162738
0.525609 0.541835 0.180115
0.760287 0.629733 0.211648
0.864113 0.669781 0.214183
0.915697 0.677402 0.201777
0.947111 0.686146 0.195837
0.968436 0.691126 0.191142
0.031154 0.701920 0.498218
0.290012 0.565194 0.211005
0.637846 0.662897 0.216087
0.791836 0.726500 0.241073
0.873809 0.762667 0.249768
0.926434 0.781570 0.248605
0.956832 0.794196 0.251937
0.974575 0.815561 0.258524
0.039605 0.040110 0.067732
0.071911 0.055229 0.090957
0.158954 0.063631 0.117933
0.455208 0.144371 0.165309
0.762842 0.208369 0.212023
0.886198 0.241370 0.258561
0.947905 0.261848 0.302727
0.977277 0.276480 0.347138
0.040834 0.072855 0.088780
0.137740 0.077395 0.127786
0.377430 0.136346 0.169919
0.712753 0.206353 0.222362
0.877439 0.251954 0.291954
0.950860 0.274018 0.349277
0.976120 0.294714 0.395031
0.983876 0.312542 0.436092
0.050986 0.113079 0.117396
0.102347 0.118922 0.144935
0.637433 0.205781 0.236094
0.845698 0.254264 0.308207
0.941163 0.291558 0.389035
0.978042 0.307483 0.433236
0.993599 0.332816 0.504810
0.995701 0.341350 0.525960
0.030678 0.178069 0.163409
0.068240 0.205252 0.195303
0.326008 0.206826 0.197783
0.815025 0.271970 0.226655
0.912982 0.297778 0.276149
0.954716 0.315913 0.303304
0.973083 0.333127 0.316863
0.983317 0.357744 0.332234
0.004472 0.298365 0.242742
0.016426 0.346288 0.285526
0.130365 0.294351 0.173691
0.547155 0.359492 0.148821
0.810477 0.380815 0.146731
0.889014 0.405988 0.152089
0.929115 0.420538 0.152551
0.956543 0.438869 0.151858
0.002649 0.492083 0.367673
0.001980 0.531492 0.400256
0.223029 0.412329 0.180281
0.702273 0.509275 0.179603
0.838561 0.543849 0.174275
0.896249 0.575313 0.167726
0.931108 0.580707 0.159783
0.956929 0.595290 0.159946
0.001514 0.646394 0.502678
0.024400 0.626775 0.430434
0.369817 0.540851 0.211401
0.748968 0.658026 0.219632
0.859437 0.698920 0.225074
0.915253 0.722505 0.220875
0.947675 0.740879 0.219349
0.966588 0.734865 0.212675
0.058692 0.728522 0.595502
0.182324 0.635123 0.371578
0.535167 0.660000 0.236626
0.789231 0.737500 0.244924
0.864017 0.779224 0.255434
0.919957 0.805348 0.260123
0.952096 0.822058 0.266978
0.969415 0.842364 0.275844
0.052849 0.071895 0.104689
0.085139 0.071358 0.117615
0.169634 0.074287 0.149718
0.439592 0.151215 0.210411
0.758545 0.215680 0.271068
0.897119 0.260876 0.347780
0.958219 0.285561 0.418699
0.981378 0.303069 0.482558
0.067830 0.099900 0.137044
0.117135 0.101963 0.160268
0.365852 0.143709 0.219229
0.732976 0.226181 0.302011
0.889811 0.272094 0.387753
0.960627 0.295727 0.471775
0.983889 0.314376 0.535707
0.989663 0.320417 0.577993
0.074792 0.137853 0.169329
0.119853 0.163869 0.216437
0.561788 0.198887 0.297391
0.852783 0.273706 0.404552
0.949016 0.302832 0.506663
0.985663 0.317708 0.577175
0.995508 0.328736 0.607485
0.992760 0.338541 0.643952
0.071586 0.215221 0.232936
0.117548 0.258377 0.286258
0.233852 0.285890 0.357943
0.865141 0.300357 0.477737
0.968127 0.328768 0.567840
0.981764 0.342379 0.599167
0.996526 0.364569 0.644871
0.991683 0.388623 0.576182
0.037546 0.347455 0.335611
0.066723 0.416857 0.415835
0.088921 0.460337 0.457338
0.434503 0.390437 0.290534
0.880693 0.398945 0.269074
0.920640 0.422925 0.276233
0.943577 0.457582 0.289360
0.963183 0.483947 0.231059
0.007405 0.546274 0.474038
0.008609 0.587608 0.534179
0.059350 0.618130 0.556751
0.428714 0.530336 0.241512
0.834777 0.594284 0.188252
0.893554 0.619064 0.183468
0.928564 0.643774 0.182461
0.950594 0.643465 0.175965
0.006709 0.673321 0.599901
0.053232 0.696130 0.621621
0.233086 0.693590 0.569720
0.615537 0.660942 0.258051
0.851142 0.726914 0.235530
0.912183 0.756525 0.234409
0.941065 0.765035 0.234250
0.958631 0.773559 0.232688
0.120154 0.751490 0.671193
0.279027 0.755091 0.640289
0.447752 0.685469 0.410210
0.731063 0.745061 0.271131
0.864140 0.795828 0.262966
0.915184 0.824524 0.269897
0.939001 0.837914 0.274238
0.951935 0.851518 0.280385
0.078075 0.100779 0.167124
0.109034 0.098138 0.175640
0.177971 0.087214 0.191719
0.456681 0.160817 0.272443
0.767907 0.236541 0.360438
0.907742 0.276732 0.462877
0.964066 0.291615 0.547283
0.983193 0.301328 0.600039
0.098081 0.139705 0.214452
0.146876 0.167642 0.276979
0.346992 0.142338 0.291724
0.734349 0.235225 0.383626
0.892921 0.275598 0.492379
0.964341 0.293194 0.583717
0.987187 0.309226 0.646042
0.985032 0.310787 0.668615
0.112790 0.193445 0.274604
0.159671 0.236245 0.348298
0.303227 0.238590 0.423209
0.822178 0.267519 0.505326
0.945725 0.295826 0.605104
0.980795 0.310321 0.662461
0.988473 0.326084 0.704002
0.987557 0.337575 0.722312
0.144567 0.285834 0.354889
0.181426 0.328877 0.417597
0.281716 0.368043 0.519650
0.768988 0.303985 0.579220
0.940798 0.322273 0.660386
0.976030 0.340042 0.701973
0.989236 0.365810 0.736366
0.987980 0.394085 0.747452
0.130831 0.427927 0.480922
0.140049 0.483958 0.542674
0.190208 0.551104 0.601522
0.377353 0.542986 0.611574
0.898267 0.426848 0.638518
0.953550 0.431495 0.635610
0.964894 0.472642 0.643670
0.969291 0.523899 0.631014
0.034165 0.597028 0.602285
0.085810 0.641617 0.656525
0.181811 0.671886 0.685085
0.323267 0.679855 0.660123
0.744586 0.640995 0.324124
0.916371 0.635280 0.234019
0.940459 0.660431 0.220389
0.962125 0.665468 0.233396
0.027452 0.699398 0.674635
0.135279 0.724054 0.697717
0.295943 0.735842 0.701003
0.477999 0.737068 0.661392
0.773783 0.735304 0.298556
0.908569 0.777938 0.246862
0.938345 0.791097 0.249669
0.958807 0.801826 0.250252
0.194279 0.768518 0.721471
0.360692 0.787504 0.739361
0.502500 0.778625 0.701495
0.666020 0.757982 0.532362
0.845802 0.803730 0.278675
0.909164 0.834869 0.274884
0.929032 0.848066 0.280117
0.943359 0.862400 0.294295
0.124365 0.153754 0.280264
0.169142 0.154946 0.300811
0.244568 0.116924 0.294525
0.463943 0.156504 0.355299
0.760193 0.231829 0.449043
0.906294 0.269689 0.572026
0.969319 0.285940 0.642110
0.982737 0.292421 0.697632
0.143476 0.201562 0.356960
0.177478 0.237785 0.414657
0.345473 0.178551 0.417599
0.732101 0.228879 0.482520
0.886935 0.268951 0.602511
0.955698 0.287351 0.664850
0.979853 0.302366 0.715378
0.990237 0.313481 0.748702
0.169394 0.268281 0.440308
0.204789 0.304498 0.503443
0.281145 0.343081 0.583177
0.705360 0.256378 0.588145
0.938251 0.296951 0.690572
0.970998 0.312971 0.728188
0.988533 0.333148 0.762273
0.995849 0.350343 0.785569
0.202201 0.358843 0.518216
0.240355 0.413752 0.579836
0.294162 0.459072 0.630122
0.490900 0.443855 0.676413
0.911632 0.342829 0.718741
0.973920 0.362064 0.769516
0.984409 0.386669 0.792683
0.983482 0.423439 0.812167
0.213361 0.515568 0.612839
0.249948 0.573893 0.661594
0.302195 0.617093 0.699651
0.455559 0.617540 0.711190
0.814504 0.523076 0.732351
0.938082 0.483007 0.748390
0.961132 0.511188 0.766102
0.966572 0.554230 0.780791
0.139269 0.653352 0.698633
0.206949 0.685786 0.729306
0.314548 0.711081 0.746595
0.441146 0.728072 0.753429
0.654913 0.725834 0.741636
0.887175 0.673360 0.447233
0.943078 0.672963 0.383800
0.957437 0.689397 0.375799
0.137975 0.734438 0.745940
0.274650 0.749794 0.756357
0.424889 0.767755 0.769481
0.556762 0.775546 0.764408
0.690063 0.773344 0.731132
0.859255 0.786172 0.374647
0.937217 0.804373 0.265395
0.956128 0.814938 0.262513
0.300644 0.787177 0.775601
0.434769 0.802257 0.782264
0.578577 0.809889 0.790357
0.691728 0.795936 0.733615
0.799127 0.814101 0.637901
0.878789 0.835048 0.331344
0.921063 0.856916 0.294007
0.939933 0.869129 0.336580
0.178223 0.227667 0.443225
0.215522 0.252055 0.500957
0.298947 0.188111 0.456282
0.526264 0.176002 0.472182
0.769030 0.230893 0.561703
0.901139 0.263643 0.653571
0.964871 0.282754 0.711600
0.985024 0.296091 0.761764
0.192017 0.271101 0.521732
0.232519 0.303734 0.597945
0.367420 0.260827 0.594403
0.687234 0.227550 0.591536
0.882864 0.268714 0.672195
0.948932 0.288420 0.725057
0.978353 0.304097 0.765687
0.990881 0.320988 0.801141
0.214712 0.333149 0.603033
0.257047 0.367450 0.643616
0.315386 0.401690 0.687204
0.675612 0.284958 0.677739
0.923144 0.302757 0.738002
0.966187 0.327907 0.782352
0.982778 0.344152 0.806536
0.995849 0.370132 0.832475
0.245569 0.423508 0.644917
0.291238 0.476479 0.688465
0.348454 0.526843 0.718229
0.489277 0.550409 0.753224
0.868733 0.403892 0.781277
0.965318 0.390419 0.805876
0.978515 0.420624 0.827764
0.980068 0.462610 0.838927
0.288377 0.589000 0.713797
0.339330 0.633595 0.746403
0.412682 0.670824 0.773171
0.525812 0.693677 0.790727
0.714674 0.676915 0.811744
0.918614 0.561082 0.808990
0.959546 0.568019 0.828667
0.964594 0.598533 0.841589
0.270511 0.707539 0.773282
0.356726 0.725264 0.782989
0.465428 0.747252 0.798959
0.590447 0.762496 0.812442
0.728929 0.767111 0.820878
0.840476 0.746422 0.814073
0.920079 0.706618 0.798155
0.946535 0.705595 0.801528
0.308155 0.767745 0.804339
0.428682 0.780597 0.810892
0.558328 0.790831 0.816242
0.665230 0.802580 0.820256
0.750490 0.809616 0.819365
0.830438 0.806485 0.779170
0.915701 0.810075 0.451311
0.956835 0.811199 0.425633
0.399824 0.801942 0.810015
0.535050 0.817534 0.817432
0.645697 0.822359 0.817517
0.740142 0.831775 0.823886
0.817129 0.840880 0.816754
0.871786 0.843832 0.695369
0.905228 0.858277 0.468334
0.931862 0.872524 0.440501
0.225018 0.291489 0.615520
0.259928 0.308684 0.654226
0.375415 0.238319 0.610406
0.635714 0.209423 0.603961
0.779617 0.240280 0.644657
0.902249 0.268297 0.724010
0.967931 0.291445 0.779454
0.990130 0.309579 0.816574
0.230849 0.321159 0.651960
0.273542 0.353432 0.704136
0.360167 0.373951 0.746335
0.670523 0.249962 0.694590
0.889973 0.277395 0.735465
0.949020 0.301677 0.781204
0.977811 0.320216 0.816888
0.989268 0.340795 0.850202
0.255416 0.386157 0.709191
0.301474 0.416969 0.733772
0.387636 0.473054 0.773229
0.657581 0.357946 0.773811
0.881404 0.335804 0.784216
0.960888 0.349254 0.817609
0.980619 0.370772 0.845680
0.992524 0.399060 0.864761
0.294931 0.493088 0.733120
0.357974 0.544819 0.763094
0.432086 0.589032 0.787945
0.556330 0.624285 0.821867
0.846819 0.475992 0.831002
0.956805 0.446895 0.843290
0.973960 0.478137 0.857718
0.976828 0.514900 0.871913
0.354705 0.644014 0.780110
0.423564 0.679014 0.801766
0.522727 0.703494 0.821165
0.624646 0.727390 0.840954
0.733213 0.734103 0.860942
0.900564 0.635218 0.854148
0.957594 0.617498 0.864940
0.962475 0.633460 0.870097
0.399498 0.744992 0.822311
0.499740 0.760618 0.827833
0.599126 0.772580 0.838693
0.685223 0.785136 0.848250
0.763777 0.799810 0.862147
0.833215 0.784899 0.867671
0.921553 0.738858 0.862044
0.956792 0.740059 0.877543
0.458857 0.797988 0.846178
0.568184 0.803927 0.844744
0.668004 0.811092 0.847502
0.743475 0.819479 0.852085
0.802283 0.826423 0.858575
0.849833 0.830463 0.862111
0.898181 0.834350 0.813182
0.947058 0.824711 0.745671
0.546673 0.828808 0.850629
0.632381 0.831544 0.844332
0.725767 0.838872 0.847157
0.788695 0.844760 0.852033
0.842102 0.859800 0.867718
0.877814 0.865651 0.864590
0.915164 0.873996 0.790055
0.941034 0.883256 0.696705
0.261218 0.329455 0.721092
0.307382 0.348891 0.754782
0.411505 0.304383 0.738677
0.690630 0.227683 0.693596
0.838260 0.264343 0.733677
0.918423 0.286127 0.786424
0.970926 0.305152 0.827893
0.984369 0.322811 0.861851
0.278953 0.370045 0.761442
0.334956 0.395159 0.789400
0.418245 0.415041 0.818426
0.689140 0.284109 0.769751
0.894459 0.303975 0.791887
0.953508 0.323140 0.827571
0.975329 0.345840 0.855714
0.986243 0.367080 0.880606
0.306552 0.435812 0.781611
0.373751 0.485338 0.803982
0.471329 0.528033 0.836993
0.613321 0.527769 0.862480
0.860691 0.392332 0.843940
0.961308 0.381923 0.855015
0.976849 0.411239 0.878889
0.983989 0.445583 0.894594
0.355474 0.550872 0.800555
0.429417 0.592782 0.818610
0.540838 0.643108 0.847656
0.653232 0.676007 0.874440
0.830686 0.578226 0.878756
0.934575 0.530023 0.878885
0.969317 0.536636 0.886735
0.977883 0.568166 0.898331
0.436231 0.685088 0.828023
0.522953 0.702714 0.843407
0.625187 0.731893 0.867718
0.708577 0.757518 0.888957
0.777846 0.763262 0.905288
0.900461 0.691058 0.897479
0.952300 0.668545 0.895147
0.973407 0.675999 0.905337
0.522810 0.765930 0.854226
0.613340 0.773787 0.864284
0.689785 0.789528 0.877023
0.753728 0.801402 0.888171
0.811777 0.814140 0.902274
0.859641 0.807754 0.909277
0.924032 0.782027 0.899788
0.961913 0.770906 0.910048
0.602077 0.815060 0.874362
0.675874 0.818743 0.873042
0.740873 0.825948 0.881393
0.801493 0.835880 0.890079
0.840114 0.841915 0.897341
0.879218 0.849743 0.906156
0.909366 0.853820 0.897742
0.949243 0.843675 0.895541
0.666355 0.844786 0.878419
0.732824 0.848410 0.878692
0.790968 0.853498 0.882381
0.832689 0.860199 0.884704
0.868755 0.868493 0.895961
0.899009 0.879282 0.904145
0.923147 0.891583 0.897466
0.947459 0.899816 0.881339
