其他预设/【236】赛博朋克风调色预设/【后期菌】视频调色预设/CUBE/Miami 02_S.cube
# LUT by SparkleStock. Enhanced with VOXCOLOR algorithms.
LUT_3D_SIZE 8
DOMAIN_MIN 0.000000 0.000000 0.000000
DOMAIN_MAX 0.903226 0.903226 0.903226
0.023460 0.007820 0.011730
0.083877 0.027623 0.063570
0.190080 0.049443 0.116924
0.455460 0.076562 0.131303
0.736606 0.099770 0.153628
0.841548 0.119825 0.201684
0.884306 0.141393 0.246082
0.910668 0.173430 0.286822
0.043263 0.048182 0.059912
0.150800 0.064848 0.121053
0.384533 0.090090 0.155491
0.662295 0.124239 0.156850
0.761959 0.139440 0.190710
0.826790 0.155735 0.232261
0.888692 0.186520 0.299252
0.920494 0.228033 0.355263
0.044020 0.098382 0.106203
0.172548 0.118185 0.167974
0.535769 0.150287 0.152802
0.679807 0.182007 0.147602
0.737872 0.199666 0.173687
0.810698 0.223037 0.219757
0.880144 0.253373 0.267935
0.915989 0.288356 0.245394
0.068742 0.185791 0.177971
0.127445 0.180270 0.170509
0.396797 0.215530 0.123918
0.636393 0.240093 0.095022
0.725210 0.266194 0.107716
0.795241 0.289361 0.131335
0.867364 0.306666 0.170611
0.909134 0.326277 0.189779
0.091950 0.318355 0.292751
0.129801 0.276744 0.228436
0.234120 0.275853 0.125110
0.499512 0.324283 0.046164
0.662047 0.343581 0.036688
0.767940 0.355092 0.043841
0.855410 0.365264 0.059900
0.903401 0.381966 0.083800
0.108094 0.512219 0.425441
0.174541 0.383524 0.242400
0.348773 0.380811 0.116224
0.608005 0.434095 0.055742
0.736606 0.452738 0.039910
0.824434 0.474563 0.045533
0.876913 0.493946 0.059029
0.915147 0.510201 0.077823
0.144420 0.701542 0.581843
0.220030 0.589607 0.332848
0.407518 0.525186 0.129341
0.645287 0.556279 0.070674
0.775784 0.599514 0.058663
0.855027 0.629094 0.060543
0.895695 0.656721 0.073408
0.921368 0.678187 0.085012
0.212783 0.802195 0.673793
0.278347 0.726479 0.368682
0.479600 0.642187 0.145885
0.671738 0.667397 0.092995
0.780549 0.709867 0.077823
0.852143 0.740960 0.078393
0.888416 0.759237 0.083552
0.917483 0.789158 0.110739
0.039605 0.020307 0.056759
0.080000 0.032273 0.100071
0.182699 0.053036 0.154165
0.461408 0.076261 0.190361
0.715477 0.095607 0.203002
0.820142 0.110483 0.253857
0.882850 0.135522 0.333365
0.912812 0.173317 0.391499
0.040834 0.061662 0.094423
0.153868 0.073956 0.172832
0.378892 0.101943 0.207946
0.608782 0.123832 0.211006
0.703381 0.136042 0.245289
0.793561 0.152404 0.294807
0.868523 0.174613 0.351652
0.917138 0.216103 0.431492
0.060669 0.127047 0.157318
0.113532 0.145017 0.205415
0.551634 0.167518 0.240178
0.627167 0.191319 0.247903
0.687895 0.209834 0.276875
0.767641 0.222823 0.301887
0.859108 0.251469 0.369052
0.922436 0.287509 0.466861
0.085692 0.229026 0.236846
0.127471 0.274737 0.295788
0.341085 0.275505 0.256912
0.607168 0.283477 0.196974
0.676935 0.305245 0.216462
0.758826 0.320328 0.239430
0.848514 0.339524 0.273480
0.911062 0.374491 0.335831
0.110995 0.376315 0.363954
0.136950 0.434938 0.420995
0.218319 0.395260 0.294759
0.455528 0.385668 0.107602
0.642657 0.395473 0.086722
0.747956 0.406595 0.092812
0.840761 0.418984 0.099199
0.901930 0.433193 0.110341
0.127185 0.577185 0.526346
0.160003 0.625504 0.567684
0.264559 0.538679 0.326702
0.574832 0.490078 0.080885
0.695926 0.521478 0.070003
0.790119 0.543883 0.072308
0.866473 0.559514 0.080631
0.911969 0.586823 0.100889
0.175672 0.734308 0.650516
0.208120 0.744143 0.628998
0.343420 0.656159 0.313278
0.645089 0.597176 0.094124
0.756426 0.639173 0.077755
0.840391 0.678011 0.080703
0.883746 0.709693 0.088427
0.914962 0.723655 0.100059
0.251266 0.814417 0.722618
0.300702 0.788580 0.608953
0.441393 0.737475 0.289603
0.672940 0.695300 0.123682
0.780716 0.737867 0.100029
0.844961 0.764238 0.097935
0.886900 0.784713 0.109871
0.912390 0.817859 0.151055
0.047425 0.041119 0.110617
0.077823 0.044744 0.150068
0.183822 0.064954 0.223256
0.451167 0.079308 0.259562
0.707722 0.091445 0.278498
0.818429 0.112167 0.349599
0.881600 0.137369 0.421417
0.914805 0.172576 0.506421
0.059725 0.096210 0.161643
0.120272 0.095150 0.220500
0.365594 0.113856 0.284572
0.598657 0.125639 0.288755
0.680674 0.136783 0.327334
0.770171 0.149612 0.368901
0.859767 0.178663 0.431539
0.920149 0.222310 0.529510
0.079206 0.154633 0.211388
0.128532 0.193253 0.287945
0.483355 0.178825 0.314726
0.600491 0.199333 0.328696
0.671204 0.216058 0.359229
0.757227 0.231161 0.388077
0.846738 0.253205 0.433201
0.916487 0.297206 0.546324
0.112859 0.272948 0.317725
0.148053 0.323764 0.385614
0.251192 0.346369 0.412853
0.589848 0.294869 0.361467
0.672031 0.311661 0.379802
0.755926 0.327337 0.395592
0.838950 0.353394 0.432316
0.908280 0.381703 0.483597
0.129024 0.415830 0.438131
0.168011 0.497231 0.526781
0.206754 0.534286 0.506410
0.422474 0.463811 0.330245
0.668985 0.425528 0.255296
0.745901 0.439747 0.261056
0.828705 0.463680 0.280331
0.899920 0.487561 0.249266
0.156476 0.616656 0.583573
0.197548 0.665787 0.629426
0.251661 0.703245 0.646172
0.405944 0.609080 0.310452
0.680317 0.561313 0.115684
0.771119 0.585839 0.119177
0.839684 0.614121 0.132603
0.901436 0.625895 0.155723
0.212897 0.745021 0.688892
0.262288 0.775532 0.717967
0.323218 0.793255 0.707503
0.545694 0.691500 0.285744
0.754440 0.680139 0.104773
0.823057 0.716739 0.105706
0.854117 0.735669 0.125010
0.903927 0.752639 0.150462
0.297442 0.827925 0.761149
0.352198 0.836530 0.758344
0.452888 0.797690 0.588924
0.636005 0.748655 0.260860
0.783628 0.763001 0.134822
0.845750 0.789925 0.132239
0.870043 0.815302 0.153282
0.902980 0.837024 0.216523
0.057768 0.069498 0.186674
0.093919 0.065442 0.224424
0.186491 0.072961 0.286558
0.476605 0.090835 0.339777
0.722203 0.100274 0.367123
0.823629 0.119052 0.442436
0.882878 0.143875 0.533832
0.917479 0.190963 0.614601
0.082946 0.127771 0.254765
0.126147 0.144734 0.327864
0.345491 0.125632 0.391965
0.615330 0.134441 0.378739
0.696818 0.142715 0.423027
0.780480 0.160830 0.475870
0.870532 0.203791 0.560772
0.919855 0.253875 0.643046
0.110617 0.203507 0.337710
0.150563 0.243674 0.422917
0.282952 0.235755 0.486386
0.599931 0.212091 0.428455
0.674790 0.228143 0.459278
0.763476 0.247917 0.492005
0.851695 0.279196 0.551242
0.912778 0.322609 0.638083
0.137483 0.324788 0.450244
0.165994 0.363863 0.514572
0.267515 0.400722 0.562158
0.563580 0.326370 0.477951
0.676774 0.327828 0.489795
0.755771 0.343321 0.508051
0.829785 0.366139 0.526915
0.904175 0.396657 0.585513
0.163971 0.492758 0.579927
0.199974 0.563674 0.630604
0.245650 0.598099 0.613411
0.374154 0.572145 0.564841
0.679129 0.454657 0.507719
0.747667 0.456790 0.485870
0.818169 0.476466 0.486025
0.894843 0.503828 0.501471
0.206469 0.669033 0.667747
0.265059 0.716925 0.709422
0.322852 0.740657 0.719690
0.384974 0.735367 0.669443
0.657915 0.644529 0.330809
0.783906 0.619937 0.245694
0.827887 0.633091 0.257510
0.897937 0.641956 0.287176
0.257727 0.766333 0.733075
0.323624 0.796701 0.759969
0.388358 0.809471 0.771899
0.483123 0.819994 0.745897
0.707974 0.730834 0.293291
0.803756 0.744918 0.162655
0.838695 0.756310 0.194915
0.898718 0.765995 0.231931
0.346535 0.834232 0.785509
0.421669 0.850822 0.804085
0.490785 0.850841 0.792669
0.637425 0.819213 0.644101
0.784841 0.783480 0.233196
0.835032 0.813004 0.191182
0.854621 0.835123 0.237979
0.897558 0.845135 0.316097
0.086148 0.098887 0.289976
0.122909 0.094273 0.341808
0.232578 0.094102 0.408926
0.493368 0.106569 0.432113
0.745956 0.117689 0.460387
0.845258 0.144567 0.557614
0.899177 0.180860 0.642236
0.925474 0.225523 0.706404
0.113461 0.161961 0.385538
0.143700 0.189327 0.455821
0.329238 0.153909 0.529444
0.665700 0.152670 0.496447
0.742901 0.164712 0.555688
0.817911 0.195929 0.615881
0.886590 0.236686 0.671014
0.927292 0.296386 0.741991
0.148835 0.252901 0.499594
0.182817 0.298810 0.581091
0.262850 0.333660 0.631014
0.585314 0.244791 0.572748
0.725726 0.253540 0.597760
0.791852 0.274033 0.625402
0.868473 0.315292 0.676586
0.915768 0.359794 0.727482
0.173373 0.381559 0.608022
0.219864 0.451150 0.669229
0.274405 0.496683 0.680785
0.431008 0.449402 0.652578
0.703304 0.358373 0.619857
0.777648 0.372817 0.631569
0.842526 0.393575 0.649964
0.901172 0.418158 0.672046
0.203702 0.573210 0.680462
0.253054 0.634106 0.724651
0.310969 0.663343 0.726632
0.421517 0.631486 0.692478
0.673797 0.538977 0.662557
0.772474 0.497830 0.636878
0.822401 0.500956 0.621007
0.890854 0.519735 0.631773
0.264151 0.719086 0.739646
0.325531 0.750805 0.767080
0.390627 0.769824 0.782513
0.458648 0.770406 0.767135
0.599882 0.754580 0.735160
0.786551 0.670740 0.475230
0.829691 0.648440 0.428819
0.898576 0.655044 0.431108
0.326415 0.795864 0.776932
0.391281 0.806364 0.790478
0.476897 0.820823 0.805609
0.548666 0.833911 0.806534
0.639936 0.828222 0.776133
0.777762 0.772444 0.409532
0.838093 0.767751 0.302362
0.899568 0.773986 0.329825
0.404621 0.840181 0.804107
0.478952 0.847534 0.810575
0.562430 0.856646 0.821438
0.639503 0.858545 0.800051
0.747711 0.842222 0.703468
0.808713 0.824898 0.379685
0.846777 0.840137 0.335810
0.897569 0.854625 0.425353
0.114527 0.128780 0.426702
0.148798 0.141690 0.493613
0.254622 0.122831 0.539838
0.559335 0.125130 0.544753
0.777261 0.146605 0.575809
0.861631 0.176067 0.648188
0.904345 0.217401 0.719705
0.924855 0.260136 0.766243
0.147447 0.194918 0.525760
0.192202 0.235409 0.602628
0.327403 0.213681 0.652357
0.673250 0.187249 0.630065
0.811259 0.209943 0.669574
0.862913 0.244541 0.716289
0.901917 0.296167 0.761240
0.920786 0.339374 0.794895
0.193017 0.318213 0.646980
0.243829 0.372700 0.695027
0.310010 0.420809 0.735057
0.609654 0.320436 0.717851
0.800084 0.296982 0.715496
0.844072 0.335076 0.741739
0.894775 0.371481 0.775209
0.915729 0.395128 0.793370
0.220461 0.466669 0.711877
0.273528 0.531922 0.745275
0.333881 0.584428 0.767696
0.454975 0.576114 0.773367
0.742425 0.436725 0.751561
0.832465 0.421220 0.754182
0.864914 0.439849 0.764739
0.900404 0.451929 0.760466
0.257023 0.640840 0.758679
0.320937 0.685631 0.781028
0.402063 0.724612 0.802923
0.487149 0.723777 0.806737
0.643951 0.681813 0.801512
0.810438 0.567517 0.770931
0.841910 0.541437 0.746893
0.891573 0.546698 0.741099
0.333393 0.754672 0.794627
0.395903 0.769899 0.809896
0.476156 0.788791 0.821129
0.562212 0.800578 0.833363
0.670274 0.796267 0.831651
0.754935 0.741374 0.782775
0.829263 0.671796 0.732092
0.891971 0.659710 0.717890
0.402879 0.811764 0.818844
0.479626 0.818984 0.824896
0.556247 0.828056 0.829054
0.625935 0.837761 0.837205
0.688731 0.843566 0.839872
0.746820 0.820062 0.773051
0.837572 0.784371 0.525002
0.899344 0.778401 0.518070
0.474050 0.842296 0.825903
0.548643 0.851756 0.834480
0.613940 0.856442 0.839485
0.680451 0.866449 0.849910
0.748887 0.873699 0.846049
0.807095 0.857487 0.733487
0.844426 0.851165 0.561341
0.898114 0.861063 0.557472
0.152240 0.157033 0.563176
0.194816 0.187472 0.621111
0.318355 0.163202 0.655284
0.635547 0.159178 0.663076
0.777803 0.177617 0.671360
0.863385 0.218333 0.731451
0.903271 0.267235 0.778869
0.917206 0.307150 0.813095
0.196134 0.251001 0.651456
0.250224 0.303984 0.712833
0.333402 0.345289 0.753333
0.628932 0.278916 0.752084
0.847913 0.270952 0.747610
0.882301 0.308681 0.779131
0.903520 0.347859 0.809446
0.918582 0.378861 0.828504
0.250004 0.387569 0.736985
0.300058 0.434246 0.765784
0.387449 0.504178 0.801172
0.605106 0.451117 0.808479
0.819349 0.383969 0.796769
0.883728 0.393007 0.807757
0.904700 0.426213 0.827055
0.915751 0.442958 0.834751
0.276386 0.542356 0.773180
0.345759 0.602206 0.800395
0.427598 0.642981 0.821486
0.540268 0.660745 0.838081
0.765664 0.541728 0.834070
0.873887 0.496782 0.829406
0.880492 0.500104 0.830252
0.903492 0.506503 0.835520
0.328962 0.686736 0.804957
0.405671 0.720995 0.824838
0.497488 0.743253 0.843471
0.590244 0.760882 0.857317
0.686666 0.758921 0.869122
0.816948 0.640898 0.843737
0.860688 0.589754 0.830336
0.891698 0.583769 0.827814
0.405398 0.769352 0.831030
0.488936 0.789946 0.846578
0.564287 0.803834 0.854267
0.635539 0.815644 0.861468
0.703360 0.819007 0.869381
0.758122 0.791063 0.856362
0.841584 0.703946 0.832340
0.894722 0.685863 0.828340
0.507597 0.823845 0.851512
0.566111 0.830581 0.852595
0.628241 0.843943 0.857262
0.689694 0.847012 0.863116
0.739622 0.854437 0.868404
0.781525 0.847724 0.856636
0.834362 0.823642 0.807327
0.900146 0.801617 0.760766
0.565141 0.855979 0.851964
0.611846 0.857165 0.851781
0.670709 0.864670 0.858524
0.722317 0.870424 0.865435
0.777078 0.881012 0.872443
0.822459 0.882163 0.870357
0.858819 0.878333 0.804975
0.903131 0.879048 0.745893
0.202188 0.206098 0.676316
0.258040 0.247331 0.721621
0.357696 0.250676 0.747051
0.653510 0.205867 0.746465
0.806272 0.234779 0.756885
0.866017 0.275524 0.788068
0.896866 0.316671 0.821334
0.917519 0.351947 0.844994
0.259566 0.325004 0.750001
0.321476 0.372088 0.786556
0.398609 0.411186 0.806761
0.629577 0.365145 0.814328
0.840786 0.327261 0.802315
0.881377 0.358152 0.819455
0.901744 0.393323 0.839024
0.916532 0.410330 0.849230
0.308977 0.461392 0.797756
0.381018 0.515100 0.818242
0.467205 0.549874 0.835583
0.574726 0.566345 0.846305
0.773304 0.466100 0.850853
0.878330 0.433348 0.837684
0.895933 0.465937 0.851561
0.912993 0.486045 0.861657
0.348590 0.599522 0.821241
0.433634 0.636937 0.839091
0.538529 0.670862 0.854328
0.629193 0.691602 0.869810
0.752063 0.636937 0.878174
0.856281 0.559590 0.865471
0.896289 0.562804 0.867152
0.908105 0.575420 0.881316
0.419028 0.721617 0.841442
0.508527 0.742399 0.859852
0.601163 0.763499 0.875754
0.669048 0.770499 0.880086
0.723520 0.776984 0.885722
0.824538 0.707489 0.889393
0.877267 0.651860 0.880680
0.898724 0.639931 0.889173
0.499036 0.790464 0.864560
0.580455 0.799932 0.873768
0.645312 0.809359 0.878622
0.700545 0.816599 0.881775
0.754623 0.826364 0.891117
0.798599 0.826329 0.898120
0.856186 0.766623 0.891739
0.904250 0.735077 0.897904
0.584744 0.835042 0.873479
0.636372 0.841538 0.876083
0.687632 0.848996 0.878892
0.738604 0.856447 0.885455
0.780054 0.863518 0.892899
0.820091 0.868702 0.902068
0.855842 0.857518 0.892355
0.907738 0.830002 0.889438
0.623267 0.862192 0.872535
0.675380 0.870821 0.877798
0.720165 0.873097 0.881963
0.759859 0.877966 0.885465
0.805361 0.885897 0.894999
0.845720 0.890861 0.903625
0.878330 0.897254 0.895676
0.916901 0.902113 0.889802
