其他预设/【236】赛博朋克风调色预设/【后期菌】视频调色预设/CUBE/Miami 01_S.cube
# LUT by SparkleStock. Enhanced with VOXCOLOR algorithms.
LUT_3D_SIZE 8
DOMAIN_MIN 0.000000 0.000000 0.000000
DOMAIN_MAX 0.903226 0.903226 0.903226
0.003910 0.000000 0.000000
0.008577 0.003910 0.011982
0.052597 0.009334 0.015640
0.405260 0.050579 0.003910
0.779365 0.100779 0.008829
0.828808 0.114653 0.029767
0.839782 0.124239 0.063192
0.852017 0.140384 0.096995
0.007820 0.004162 0.007820
0.035187 0.012520 0.020258
0.299143 0.043418 0.011039
0.712971 0.104233 0.010847
0.760010 0.119385 0.041872
0.796897 0.131555 0.083426
0.844266 0.144420 0.143537
0.863885 0.174098 0.197900
0.008829 0.012739 0.009334
0.059090 0.028664 0.031126
0.592662 0.102423 0.008260
0.703967 0.146060 0.021162
0.726276 0.161074 0.045924
0.781131 0.177414 0.089427
0.839839 0.193542 0.133239
0.868312 0.210383 0.098907
0.016397 0.060795 0.035821
0.038787 0.060340 0.033551
0.360947 0.116545 0.012292
0.683709 0.189701 0.004520
0.721231 0.215306 0.012658
0.779499 0.233493 0.031809
0.841926 0.240195 0.056088
0.873349 0.255465 0.073994
0.018541 0.197395 0.114906
0.032428 0.179623 0.078523
0.137796 0.200541 0.054216
0.539264 0.268843 0.004724
0.718065 0.305750 0.003910
0.790265 0.319954 0.003910
0.855133 0.331977 0.010469
0.888188 0.347540 0.029690
0.023334 0.450919 0.274083
0.044988 0.367445 0.134273
0.273937 0.389046 0.082852
0.652546 0.433228 0.021308
0.785798 0.457836 0.008630
0.843130 0.471576 0.007694
0.886389 0.491944 0.019676
0.908654 0.512475 0.032420
0.087031 0.643774 0.459496
0.086933 0.565556 0.189758
0.390559 0.590465 0.098635
0.689608 0.636670 0.042547
0.825985 0.672064 0.028266
0.882162 0.678252 0.026488
0.915587 0.691911 0.034894
0.929966 0.701111 0.048255
0.215558 0.736102 0.615142
0.178008 0.671612 0.189449
0.506848 0.712821 0.085139
0.733689 0.752914 0.053191
0.830875 0.774902 0.045155
0.883045 0.785671 0.046856
0.915009 0.788520 0.053931
0.931984 0.805385 0.082400
0.003910 0.003910 0.004415
0.012756 0.004162 0.020071
0.055054 0.010058 0.027908
0.449454 0.053130 0.018619
0.753260 0.087787 0.043955
0.802610 0.105230 0.096942
0.841295 0.117050 0.173695
0.858209 0.140901 0.245980
0.004903 0.004903 0.009317
0.047418 0.017013 0.033330
0.333522 0.057357 0.038653
0.655170 0.105132 0.070042
0.703926 0.119670 0.136930
0.766656 0.129443 0.203573
0.832657 0.148532 0.271752
0.874518 0.190226 0.354678
0.020087 0.021853 0.032859
0.034338 0.034989 0.050273
0.607829 0.127913 0.089830
0.631780 0.162433 0.155014
0.675839 0.186276 0.218692
0.748514 0.198411 0.257460
0.838085 0.228929 0.334438
0.885916 0.267144 0.410680
0.024469 0.078726 0.069189
0.038024 0.113953 0.110292
0.281635 0.161109 0.101803
0.623516 0.226591 0.099834
0.668879 0.252670 0.138684
0.748707 0.273393 0.171228
0.830652 0.288379 0.202194
0.892491 0.319761 0.256594
0.031468 0.257369 0.197717
0.042478 0.333638 0.273574
0.115672 0.320433 0.138095
0.458164 0.344758 0.058957
0.678347 0.366263 0.048917
0.762480 0.384345 0.054346
0.847624 0.392944 0.054310
0.896827 0.409990 0.053744
0.048768 0.526561 0.416152
0.079869 0.569067 0.482424
0.159373 0.505815 0.167020
0.595896 0.503905 0.041460
0.735745 0.543864 0.035389
0.811150 0.563943 0.035254
0.875002 0.573064 0.038832
0.915147 0.607566 0.056653
0.141308 0.685971 0.630294
0.165459 0.680269 0.535172
0.270627 0.633724 0.161536
0.681071 0.678643 0.051532
0.801397 0.706813 0.037028
0.865458 0.724515 0.038953
0.906234 0.738268 0.050822
0.922976 0.737887 0.065745
0.274299 0.754505 0.704834
0.261226 0.726122 0.429027
0.443182 0.728384 0.133235
0.740737 0.769253 0.059719
0.832954 0.793426 0.059119
0.883724 0.806813 0.063827
0.914142 0.815633 0.074742
0.931136 0.829543 0.112402
0.008325 0.004415 0.017154
0.021064 0.008072 0.029169
0.072648 0.017593 0.057329
0.455948 0.048910 0.070406
0.745057 0.086656 0.137878
0.802520 0.100942 0.234136
0.842544 0.124996 0.328743
0.864304 0.172401 0.410590
0.015958 0.012267 0.033144
0.038201 0.017929 0.061247
0.333855 0.061089 0.104465
0.634440 0.108150 0.182941
0.677508 0.122151 0.262620
0.753752 0.139838 0.331637
0.829739 0.175086 0.392435
0.879051 0.228111 0.466612
0.025348 0.031846 0.060921
0.044829 0.054586 0.115475
0.531209 0.124030 0.201503
0.605365 0.171062 0.283140
0.663172 0.200952 0.332848
0.741445 0.225766 0.365761
0.823702 0.256164 0.404212
0.891946 0.311357 0.503944
0.033396 0.108347 0.144278
0.061226 0.172201 0.237631
0.186839 0.232419 0.322961
0.597529 0.261723 0.343527
0.665367 0.295875 0.365033
0.742971 0.322731 0.381989
0.824788 0.357951 0.415670
0.895519 0.378388 0.454753
0.041619 0.319303 0.325366
0.069141 0.412264 0.472013
0.130340 0.473378 0.488694
0.406595 0.415375 0.242824
0.685619 0.394041 0.201484
0.753873 0.416778 0.209154
0.833758 0.446512 0.228470
0.900396 0.470883 0.183072
0.081664 0.584818 0.580057
0.132724 0.632086 0.654245
0.203174 0.666637 0.648225
0.390217 0.605340 0.184083
0.714984 0.589856 0.077670
0.788656 0.608395 0.081119
0.852798 0.631991 0.093777
0.901821 0.641007 0.114239
0.195434 0.716092 0.722179
0.259859 0.732949 0.728856
0.331344 0.735708 0.663254
0.583228 0.722880 0.144790
0.794810 0.739688 0.057203
0.855851 0.755736 0.061656
0.875951 0.757443 0.089187
0.915405 0.762699 0.117469
0.343907 0.772529 0.760441
0.403598 0.777078 0.731683
0.475765 0.762824 0.423710
0.709709 0.788636 0.122398
0.843530 0.809366 0.072619
0.886951 0.823231 0.086119
0.895190 0.834811 0.110933
0.917217 0.844023 0.163323
0.017154 0.008577 0.044398
0.034259 0.012943 0.067586
0.095367 0.021821 0.096096
0.503056 0.056592 0.159239
0.752051 0.086091 0.271573
0.810906 0.117017 0.383667
0.851386 0.166575 0.469172
0.870900 0.224603 0.539732
0.029136 0.025527 0.097190
0.059271 0.036835 0.178721
0.322756 0.065529 0.238510
0.646798 0.110075 0.320054
0.696210 0.137282 0.395540
0.763170 0.171580 0.446040
0.843221 0.229314 0.517347
0.886353 0.291407 0.588650
0.035821 0.052694 0.167628
0.066233 0.099118 0.308138
0.265608 0.154088 0.410707
0.612421 0.193197 0.415455
0.668749 0.229914 0.441966
0.745771 0.261347 0.469398
0.833832 0.309318 0.520794
0.898452 0.370095 0.599084
0.057768 0.177760 0.340888
0.079632 0.245865 0.454094
0.208078 0.326254 0.536450
0.580497 0.305335 0.466804
0.672348 0.335112 0.476724
0.745263 0.359680 0.485840
0.822438 0.395845 0.509225
0.893782 0.441054 0.567542
0.072904 0.426275 0.581620
0.111565 0.508195 0.665264
0.178865 0.560361 0.654708
0.347899 0.541196 0.577460
0.686201 0.462667 0.508356
0.749842 0.469501 0.483042
0.817845 0.501784 0.481106
0.893492 0.526328 0.493696
0.141654 0.652131 0.728685
0.215142 0.692309 0.765598
0.296588 0.714297 0.753552
0.380508 0.707273 0.668120
0.680069 0.661619 0.262905
0.797491 0.634097 0.185826
0.836654 0.645439 0.207215
0.907946 0.653006 0.237586
0.258691 0.743584 0.780541
0.334886 0.760076 0.785480
0.419339 0.769549 0.775419
0.538162 0.774264 0.713746
0.754985 0.774446 0.181944
0.837056 0.778071 0.110815
0.857459 0.773090 0.157346
0.911583 0.773270 0.199747
0.406358 0.787437 0.797239
0.502940 0.801293 0.799285
0.579527 0.801716 0.764078
0.701687 0.804114 0.547806
0.842418 0.819164 0.125762
0.872799 0.835529 0.123067
0.878657 0.848123 0.176926
0.914207 0.853994 0.253345
0.036326 0.023587 0.163214
0.068302 0.033677 0.209675
0.193237 0.043902 0.248247
0.540139 0.071756 0.319295
0.774572 0.110121 0.417368
0.829744 0.167323 0.518326
0.864756 0.233847 0.583699
0.886373 0.308663 0.641426
0.051779 0.051848 0.279515
0.083816 0.084732 0.390669
0.351598 0.101853 0.426857
0.692786 0.133723 0.463509
0.741717 0.181847 0.531597
0.797247 0.230495 0.571747
0.858425 0.295866 0.622589
0.897438 0.383934 0.687471
0.073030 0.130688 0.435873
0.102224 0.190962 0.546347
0.200984 0.261917 0.610471
0.614793 0.226525 0.545981
0.715367 0.279341 0.574224
0.776065 0.314456 0.592718
0.850461 0.374611 0.639515
0.896962 0.443174 0.688846
0.088166 0.298931 0.609076
0.128616 0.394722 0.689189
0.203668 0.451582 0.697099
0.427591 0.429131 0.640857
0.702652 0.382892 0.599875
0.770987 0.417801 0.614570
0.833549 0.447655 0.629858
0.893921 0.491658 0.655674
0.123995 0.534101 0.735422
0.179188 0.602209 0.772483
0.259447 0.637982 0.764647
0.407952 0.615252 0.708986
0.696235 0.574790 0.661800
0.774910 0.547001 0.632397
0.821661 0.550227 0.612635
0.892078 0.571909 0.625392
0.224778 0.698885 0.802858
0.298704 0.725281 0.811522
0.382498 0.744196 0.806965
0.473521 0.746980 0.779918
0.632783 0.737102 0.734833
0.796893 0.678109 0.454051
0.836937 0.656627 0.400090
0.904150 0.663398 0.401241
0.345449 0.767635 0.814429
0.421974 0.777929 0.812910
0.523784 0.788127 0.812935
0.608920 0.796404 0.802907
0.707448 0.802058 0.761851
0.806190 0.788552 0.333146
0.851513 0.779341 0.243318
0.908332 0.780629 0.283179
0.474770 0.804534 0.813140
0.562704 0.809872 0.809768
0.644480 0.815848 0.809832
0.713442 0.821319 0.773624
0.800615 0.828931 0.662060
0.853812 0.842919 0.276018
0.871867 0.850995 0.262637
0.912746 0.854171 0.373575
0.076562 0.071138 0.409044
0.119328 0.100112 0.490659
0.265038 0.096397 0.469005
0.618222 0.118580 0.476455
0.799607 0.165220 0.544960
0.846971 0.230836 0.603680
0.871551 0.311638 0.656765
0.891618 0.383179 0.702543
0.090273 0.128870 0.519099
0.129249 0.187064 0.607050
0.352000 0.194294 0.598618
0.715483 0.192902 0.582125
0.805659 0.252785 0.627291
0.842337 0.316579 0.666646
0.877231 0.393123 0.706007
0.897424 0.470302 0.740292
0.113754 0.250012 0.644063
0.145696 0.315987 0.686623
0.229370 0.387344 0.721878
0.656787 0.335421 0.668975
0.789752 0.347504 0.674159
0.829168 0.408759 0.706906
0.876313 0.484155 0.739876
0.899580 0.525382 0.752145
0.132531 0.427207 0.735378
0.187112 0.499301 0.767670
0.272339 0.566671 0.782855
0.444025 0.585770 0.768998
0.760801 0.503548 0.728147
0.830535 0.513852 0.730858
0.862592 0.544122 0.742267
0.899593 0.555073 0.740193
0.198950 0.623804 0.803761
0.277711 0.668344 0.815473
0.382919 0.707382 0.822827
0.491269 0.713642 0.807985
0.678363 0.700493 0.790593
0.819875 0.642288 0.757226
0.848314 0.620758 0.736513
0.895483 0.617308 0.724823
0.320023 0.736830 0.830196
0.394440 0.748379 0.828950
0.487653 0.765929 0.831289
0.591360 0.778668 0.829640
0.715472 0.782417 0.822349
0.781415 0.751335 0.775175
0.836476 0.706717 0.728235
0.893892 0.692050 0.710336
0.434001 0.784284 0.833333
0.520965 0.792851 0.831313
0.603861 0.801295 0.824986
0.682035 0.807885 0.830455
0.744130 0.816086 0.828020
0.781958 0.806144 0.765534
0.847536 0.786720 0.491932
0.905637 0.779071 0.491857
0.547328 0.809506 0.832149
0.626002 0.820308 0.832800
0.690087 0.822362 0.829557
0.750845 0.832450 0.833077
0.808546 0.840161 0.826572
0.841194 0.843786 0.716401
0.869223 0.848383 0.514888
0.910677 0.852909 0.525497
0.119446 0.163718 0.608583
0.159064 0.196399 0.641699
0.358384 0.180299 0.605556
0.695158 0.192602 0.595047
0.793858 0.224652 0.614247
0.850881 0.309384 0.670766
0.877369 0.396060 0.715966
0.894576 0.467947 0.749651
0.130700 0.234352 0.656163
0.183599 0.297173 0.697685
0.299873 0.347766 0.720320
0.692976 0.322576 0.682131
0.844906 0.352451 0.691971
0.867690 0.419155 0.725449
0.888234 0.498038 0.757844
0.898978 0.557736 0.776388
0.151793 0.368775 0.735162
0.210090 0.420628 0.751788
0.332641 0.512824 0.777338
0.671588 0.506094 0.760451
0.829705 0.482570 0.751082
0.878756 0.532351 0.771046
0.896566 0.590443 0.789972
0.905664 0.617267 0.801803
0.200203 0.539292 0.795888
0.291188 0.601825 0.809395
0.395784 0.650068 0.817724
0.541952 0.685459 0.821464
0.810348 0.645926 0.803266
0.878918 0.634286 0.797684
0.884997 0.633623 0.800100
0.905256 0.632587 0.803922
0.296661 0.682712 0.829061
0.394526 0.714053 0.833796
0.498421 0.737152 0.838311
0.615738 0.761622 0.840673
0.728191 0.774752 0.842855
0.842699 0.720995 0.818555
0.867841 0.685259 0.810108
0.896321 0.667569 0.805750
0.416668 0.754249 0.837983
0.508893 0.771266 0.842002
0.599384 0.784217 0.842577
0.678086 0.792432 0.843139
0.751420 0.805527 0.850417
0.795834 0.788666 0.836962
0.849634 0.746379 0.813518
0.896737 0.727749 0.807487
0.542490 0.802195 0.846088
0.606763 0.804768 0.843632
0.678587 0.811665 0.844175
0.739152 0.819686 0.846899
0.790844 0.829565 0.850894
0.818121 0.823710 0.838992
0.845689 0.813496 0.799569
0.905634 0.797051 0.758536
0.629257 0.824845 0.844774
0.674461 0.824899 0.840504
0.738688 0.831852 0.843990
0.786656 0.839442 0.845934
0.829134 0.846341 0.851926
0.850156 0.848712 0.846158
0.870330 0.854653 0.795471
0.908749 0.855871 0.740483
0.165232 0.251506 0.692334
0.223720 0.287819 0.706713
0.386255 0.295778 0.692688
0.716454 0.287600 0.667596
0.812257 0.329300 0.689201
0.853530 0.402733 0.724746
0.880595 0.486191 0.760055
0.898937 0.557289 0.781086
0.188542 0.343293 0.735333
0.262576 0.396926 0.751283
0.381637 0.459274 0.765064
0.702114 0.449533 0.748073
0.842453 0.442637 0.739479
0.873850 0.515356 0.769759
0.895503 0.583811 0.796551
0.901396 0.623854 0.805537
0.229388 0.475816 0.785366
0.324355 0.540734 0.797008
0.440147 0.598138 0.806176
0.610040 0.641797 0.813054
0.820840 0.622372 0.808585
0.880087 0.606539 0.798925
0.897539 0.650910 0.814655
0.910636 0.681356 0.824944
0.304806 0.623577 0.819963
0.407291 0.661626 0.825187
0.528815 0.701467 0.834782
0.653596 0.737112 0.839619
0.813794 0.740811 0.843704
0.878320 0.710272 0.832522
0.903327 0.717414 0.833929
0.911234 0.723453 0.839039
0.416632 0.723810 0.841849
0.516503 0.744054 0.845370
0.626270 0.767166 0.852556
0.704805 0.783820 0.853938
0.766034 0.795364 0.859557
0.862633 0.784273 0.853898
0.888847 0.756074 0.847997
0.904310 0.742213 0.853860
0.529186 0.774067 0.853970
0.614613 0.785623 0.854348
0.688697 0.797154 0.857290
0.745749 0.807289 0.860919
0.794762 0.819836 0.865003
0.835374 0.822243 0.867315
0.870454 0.799285 0.862557
0.904926 0.781434 0.865009
0.629720 0.809185 0.861981
0.686355 0.812969 0.857271
0.738723 0.820899 0.859001
0.786707 0.832307 0.863177
0.825332 0.835497 0.864554
0.852750 0.840462 0.867241
0.866355 0.837756 0.862913
0.904097 0.827806 0.859461
0.679396 0.829524 0.858071
0.730814 0.832794 0.858261
0.772066 0.840639 0.861490
0.808814 0.843724 0.862290
0.839402 0.850631 0.865641
0.866583 0.857280 0.867068
0.887892 0.863039 0.865229
0.908733 0.866387 0.857149
