其他预设/【236】赛博朋克风调色预设/【后期菌】视频调色预设/CUBE/Miami 07_S.cube
# LUT by SparkleStock. Enhanced with VOXCOLOR algorithms.
LUT_3D_SIZE 8
DOMAIN_MIN 0.000000 0.000000 0.000000
DOMAIN_MAX 0.903226 0.903226 0.903226
0.000000 0.000000 0.000000
0.056759 0.008325 0.048182
0.150475 0.036704 0.093463
0.463028 0.063192 0.117302
0.763851 0.090941 0.140889
0.846845 0.106833 0.182134
0.888216 0.116419 0.225018
0.914199 0.140384 0.259452
0.023713 0.036704 0.044272
0.119332 0.049443 0.100779
0.382780 0.081513 0.132755
0.690296 0.115915 0.139220
0.769779 0.122921 0.172169
0.832133 0.133825 0.212962
0.892448 0.152900 0.278302
0.926446 0.189107 0.337010
0.024974 0.082742 0.086652
0.146121 0.102325 0.148204
0.576517 0.143786 0.134635
0.697030 0.173024 0.138366
0.748088 0.187431 0.160834
0.815817 0.206135 0.200711
0.883859 0.230133 0.251860
0.919395 0.259167 0.231190
0.046038 0.172548 0.161574
0.104140 0.168288 0.153734
0.412197 0.205720 0.114417
0.659243 0.233176 0.085562
0.731952 0.258121 0.102223
0.801446 0.278901 0.120345
0.875184 0.285602 0.157583
0.920107 0.303988 0.179021
0.069498 0.307634 0.279128
0.116305 0.275104 0.232659
0.204613 0.270556 0.138093
0.523453 0.329007 0.042059
0.682740 0.347138 0.035191
0.783255 0.349921 0.037713
0.867254 0.355426 0.055990
0.909252 0.364190 0.079434
0.084634 0.511084 0.416359
0.156098 0.402444 0.272456
0.297523 0.387207 0.146947
0.615598 0.439030 0.055229
0.752027 0.457584 0.039910
0.832661 0.464134 0.039829
0.885869 0.470360 0.055119
0.918866 0.484539 0.069311
0.118563 0.690695 0.568600
0.199694 0.598912 0.373869
0.358774 0.530219 0.167938
0.627592 0.555987 0.076269
0.780931 0.595905 0.058928
0.859475 0.611704 0.055372
0.902343 0.635360 0.065588
0.926507 0.650333 0.077339
0.181881 0.790464 0.664207
0.242160 0.721939 0.418390
0.416087 0.651216 0.182512
0.649954 0.652387 0.097231
0.779434 0.695817 0.076261
0.853091 0.723867 0.073343
0.892956 0.742030 0.073030
0.920632 0.774694 0.093711
0.020307 0.011982 0.040614
0.059693 0.016633 0.076594
0.140950 0.033518 0.123609
0.478794 0.064783 0.157139
0.742347 0.083560 0.186166
0.828304 0.090941 0.241029
0.882638 0.107366 0.317513
0.922422 0.126510 0.377283
0.021284 0.049443 0.067053
0.122688 0.060809 0.148380
0.391542 0.093445 0.182659
0.635845 0.115724 0.194068
0.716686 0.119324 0.234059
0.800109 0.128402 0.287629
0.875309 0.142398 0.347657
0.922473 0.178559 0.423261
0.040427 0.110902 0.133638
0.086666 0.131394 0.178248
0.588888 0.156764 0.225775
0.640775 0.178264 0.241811
0.693954 0.194788 0.270993
0.771558 0.202833 0.300327
0.864377 0.223244 0.370203
0.927368 0.250755 0.451856
0.065938 0.205565 0.212222
0.102755 0.251171 0.264221
0.340465 0.261279 0.247277
0.622309 0.271403 0.190278
0.685690 0.291790 0.211981
0.766792 0.308712 0.233874
0.853214 0.324051 0.266769
0.918958 0.351812 0.323048
0.087470 0.363946 0.350014
0.116337 0.424543 0.403980
0.199136 0.394305 0.294272
0.463531 0.390326 0.111236
0.657483 0.396497 0.086161
0.756273 0.407080 0.091091
0.847885 0.409152 0.092632
0.906138 0.414797 0.099591
0.104734 0.571590 0.505579
0.133815 0.613928 0.553251
0.237155 0.546861 0.351199
0.570032 0.493385 0.083820
0.707526 0.525923 0.067155
0.801580 0.538475 0.069065
0.872576 0.540100 0.072952
0.917796 0.567207 0.092853
0.148050 0.714253 0.635799
0.181987 0.732647 0.621011
0.298015 0.662195 0.361796
0.627016 0.592031 0.100138
0.757414 0.629954 0.076860
0.846692 0.663672 0.071518
0.892571 0.690542 0.082245
0.921706 0.702891 0.091161
0.220213 0.798512 0.708971
0.254196 0.777821 0.606524
0.390452 0.737053 0.335217
0.653643 0.676938 0.125992
0.779101 0.722824 0.093645
0.846935 0.751006 0.090131
0.886966 0.771023 0.092420
0.918438 0.806375 0.122847
0.028380 0.024974 0.081733
0.061174 0.028852 0.112098
0.149396 0.041558 0.188001
0.473550 0.063066 0.231308
0.727781 0.074552 0.266019
0.828393 0.089932 0.335725
0.882036 0.101410 0.408677
0.920860 0.126917 0.492245
0.044085 0.077384 0.130485
0.092805 0.072381 0.181474
0.377174 0.098000 0.257646
0.619709 0.115416 0.277548
0.693391 0.120418 0.322403
0.777196 0.128790 0.369663
0.864557 0.146890 0.430977
0.921014 0.181198 0.521795
0.058273 0.130733 0.177780
0.102671 0.169455 0.252796
0.519106 0.163511 0.304175
0.613283 0.183121 0.329423
0.677542 0.198103 0.357842
0.761300 0.211711 0.391790
0.851516 0.229680 0.433096
0.920946 0.266518 0.547670
0.093309 0.245508 0.286696
0.129056 0.306547 0.356875
0.238764 0.330572 0.399760
0.605812 0.277375 0.364265
0.678547 0.293469 0.383364
0.761991 0.313907 0.401097
0.844396 0.333444 0.436308
0.914830 0.360333 0.476466
0.103037 0.406480 0.410891
0.147110 0.471546 0.500702
0.188491 0.519638 0.495328
0.420940 0.465001 0.333955
0.683142 0.421195 0.249815
0.759733 0.436551 0.256144
0.834750 0.453416 0.270082
0.910798 0.471294 0.233537
0.129610 0.602297 0.567049
0.172745 0.643530 0.614183
0.222614 0.685396 0.631443
0.386204 0.617969 0.332496
0.691119 0.561359 0.116924
0.779463 0.578872 0.116651
0.848709 0.602527 0.127370
0.909028 0.612611 0.146137
0.182581 0.724038 0.673516
0.233493 0.758144 0.702535
0.295313 0.776128 0.700047
0.516410 0.687089 0.301480
0.756266 0.669159 0.101745
0.832476 0.703922 0.098167
0.859648 0.722779 0.115027
0.909490 0.739914 0.134796
0.275849 0.810141 0.747678
0.322086 0.826934 0.752566
0.405409 0.796293 0.596957
0.611185 0.735094 0.261158
0.783086 0.747639 0.118641
0.844412 0.775749 0.114463
0.871971 0.799688 0.127347
0.907868 0.830275 0.173803
0.041371 0.057011 0.147574
0.068469 0.045891 0.183907
0.159458 0.053663 0.254407
0.500867 0.067228 0.306121
0.744850 0.073201 0.360105
0.830432 0.089545 0.438526
0.884811 0.111036 0.532319
0.924884 0.140889 0.609430
0.061524 0.109453 0.213133
0.104292 0.120719 0.288294
0.349005 0.106844 0.373391
0.638068 0.116561 0.378962
0.704536 0.123022 0.426648
0.782032 0.135553 0.477885
0.875359 0.169497 0.560032
0.926902 0.206222 0.637611
0.084410 0.173081 0.289207
0.131026 0.218652 0.390237
0.274272 0.217677 0.476215
0.613291 0.192947 0.434146
0.681576 0.209683 0.463919
0.766027 0.228627 0.495941
0.857270 0.254854 0.555054
0.923557 0.290933 0.642923
0.118543 0.303158 0.418817
0.148987 0.349124 0.490022
0.257438 0.385790 0.556033
0.579420 0.308707 0.482899
0.685294 0.312060 0.494402
0.764418 0.327808 0.512355
0.839021 0.353571 0.534556
0.913404 0.382363 0.592576
0.142850 0.474791 0.558334
0.179064 0.542388 0.616120
0.223878 0.579621 0.606640
0.362683 0.561922 0.566500
0.692855 0.442040 0.508576
0.759324 0.444720 0.492388
0.826526 0.464874 0.488646
0.902470 0.491835 0.501219
0.179855 0.649222 0.652501
0.237178 0.700836 0.699636
0.297714 0.729005 0.711455
0.360976 0.727316 0.664869
0.659486 0.637096 0.325078
0.789511 0.609715 0.232261
0.832261 0.625121 0.242847
0.905748 0.635083 0.266291
0.232627 0.747120 0.717308
0.298849 0.780571 0.748568
0.360731 0.799139 0.763858
0.454229 0.808745 0.742313
0.703826 0.720193 0.274916
0.809285 0.733099 0.147259
0.842719 0.746351 0.183036
0.904357 0.757186 0.212380
0.323453 0.819007 0.775544
0.398302 0.837314 0.796329
0.465790 0.843985 0.788761
0.613393 0.812948 0.633548
0.782346 0.771718 0.207373
0.837828 0.799988 0.159540
0.855369 0.826721 0.200807
0.904132 0.845376 0.274653
0.067606 0.078327 0.245956
0.104180 0.073591 0.301132
0.220599 0.068619 0.382955
0.534361 0.080573 0.415545
0.770039 0.091461 0.462271
0.851565 0.109124 0.559014
0.900955 0.138732 0.643245
0.927618 0.177389 0.704541
0.095042 0.135786 0.339427
0.124780 0.165553 0.421176
0.336887 0.131436 0.516075
0.685685 0.122708 0.493447
0.751861 0.139276 0.561654
0.823772 0.162904 0.613830
0.890860 0.198230 0.671822
0.932347 0.254051 0.741119
0.126758 0.229441 0.456579
0.162974 0.271740 0.547967
0.247584 0.314061 0.623046
0.607284 0.218032 0.574629
0.734147 0.229621 0.601948
0.798456 0.250406 0.628224
0.875779 0.287859 0.679617
0.923551 0.326981 0.730536
0.151484 0.361871 0.583678
0.198265 0.429237 0.657767
0.261959 0.475167 0.677820
0.429673 0.433358 0.657150
0.718371 0.341651 0.624877
0.787374 0.360155 0.638741
0.851477 0.379402 0.653800
0.910863 0.404503 0.675274
0.180502 0.547764 0.671498
0.223851 0.610764 0.710147
0.285309 0.649921 0.720229
0.409649 0.625871 0.696481
0.683574 0.523666 0.664223
0.780371 0.482130 0.636174
0.830194 0.491051 0.625020
0.896427 0.508200 0.635417
0.240028 0.703446 0.737701
0.298464 0.736361 0.760470
0.366269 0.761964 0.776134
0.439586 0.763857 0.768192
0.593402 0.745321 0.732220
0.794173 0.661644 0.461935
0.836360 0.639441 0.414293
0.904564 0.648124 0.414065
0.304456 0.780614 0.773022
0.368676 0.798603 0.785046
0.455040 0.813051 0.802284
0.528449 0.824967 0.802779
0.631497 0.822713 0.771354
0.782108 0.768062 0.384578
0.841926 0.763826 0.270481
0.905181 0.771608 0.300268
0.381986 0.831526 0.797296
0.460057 0.840397 0.808124
0.543754 0.850206 0.815687
0.619409 0.853010 0.793883
0.743475 0.833996 0.686539
0.810865 0.816857 0.340350
0.851566 0.838407 0.297963
0.902684 0.851775 0.388962
0.097499 0.105320 0.388736
0.128076 0.120797 0.458756
0.245830 0.099208 0.525259
0.598655 0.097760 0.535940
0.798378 0.114999 0.577449
0.868190 0.135298 0.652184
0.907229 0.173239 0.716930
0.927569 0.216311 0.766557
0.130123 0.172161 0.492921
0.169672 0.212408 0.579714
0.318868 0.185792 0.641929
0.701591 0.156545 0.632181
0.820233 0.169897 0.675063
0.866982 0.202078 0.714747
0.910801 0.249244 0.759401
0.928574 0.298272 0.794659
0.175611 0.294590 0.623483
0.219977 0.345264 0.680703
0.291166 0.397039 0.730315
0.624485 0.289211 0.719012
0.808599 0.263975 0.716804
0.855809 0.302416 0.746248
0.899086 0.339448 0.778777
0.924510 0.367674 0.793329
0.200667 0.438013 0.699272
0.251250 0.502880 0.737424
0.313747 0.562198 0.764846
0.447212 0.564317 0.775404
0.756049 0.418015 0.751406
0.843601 0.401866 0.759454
0.873468 0.421357 0.764773
0.907323 0.435755 0.762712
0.231524 0.617014 0.749903
0.297951 0.669958 0.776903
0.381081 0.711360 0.802626
0.469771 0.715666 0.803849
0.642300 0.669629 0.801177
0.818258 0.550659 0.768527
0.847517 0.533800 0.750734
0.896065 0.538921 0.742821
0.308545 0.738946 0.791657
0.375095 0.757495 0.809170
0.453960 0.776654 0.822447
0.541077 0.791803 0.831372
0.662914 0.787626 0.831122
0.757831 0.731353 0.780429
0.833749 0.665487 0.730738
0.893258 0.656856 0.717080
0.383817 0.800665 0.816085
0.460996 0.811939 0.824865
0.538568 0.823525 0.827793
0.614928 0.833637 0.835068
0.677855 0.837545 0.835718
0.749712 0.812908 0.766676
0.842068 0.780130 0.497874
0.906203 0.776503 0.494902
0.457091 0.834106 0.822876
0.536880 0.845665 0.830896
0.603931 0.851113 0.835594
0.669770 0.860883 0.846894
0.745126 0.866914 0.842391
0.808055 0.852272 0.718653
0.850640 0.846219 0.526403
0.904758 0.858035 0.521958
0.131176 0.135969 0.541229
0.170037 0.157607 0.597272
0.310592 0.140120 0.647041
0.669301 0.130928 0.661099
0.796885 0.142073 0.673024
0.870070 0.175213 0.733990
0.909036 0.219729 0.778869
0.926938 0.267650 0.808302
0.176641 0.225201 0.632003
0.227584 0.277944 0.695199
0.310965 0.312403 0.746371
0.642998 0.234428 0.753030
0.860499 0.226278 0.752410
0.893900 0.265533 0.780443
0.910505 0.306086 0.810566
0.926402 0.342769 0.828392
0.227667 0.365036 0.726768
0.278116 0.410040 0.754323
0.373642 0.483520 0.798671
0.609000 0.419022 0.811443
0.829430 0.352963 0.794502
0.893709 0.363470 0.806616
0.908976 0.394417 0.828713
0.923115 0.414180 0.835104
0.258227 0.517427 0.768514
0.324926 0.580045 0.799787
0.410214 0.622132 0.822451
0.527072 0.643217 0.836666
0.771376 0.513428 0.834622
0.880304 0.467361 0.826364
0.887848 0.475134 0.828511
0.909286 0.484853 0.832025
0.303724 0.669090 0.804339
0.386421 0.704196 0.824585
0.472865 0.729890 0.839684
0.577563 0.750724 0.857373
0.680802 0.746666 0.867914
0.823556 0.625180 0.841482
0.865779 0.577778 0.832744
0.895899 0.573167 0.827814
0.385958 0.756596 0.833426
0.462696 0.776859 0.841061
0.548201 0.794952 0.854602
0.623968 0.803738 0.861294
0.699942 0.810873 0.869386
0.759432 0.784840 0.856594
0.844091 0.697054 0.832515
0.896866 0.680030 0.830426
0.478758 0.815483 0.851512
0.546701 0.823726 0.853931
0.613741 0.836358 0.857365
0.677139 0.842039 0.861318
0.735882 0.846636 0.868080
0.780224 0.841967 0.854934
0.840669 0.819777 0.799970
0.905789 0.798170 0.751090
0.552463 0.850072 0.850251
0.598215 0.854337 0.850467
0.661588 0.861944 0.857486
0.718043 0.865885 0.862585
0.774576 0.876429 0.869577
0.823207 0.876880 0.867213
0.859791 0.876278 0.796427
0.908849 0.875836 0.726124
0.184404 0.178350 0.653864
0.236484 0.212254 0.704683
0.346218 0.216616 0.741778
0.674753 0.170639 0.747889
0.818913 0.193660 0.759310
0.875603 0.233017 0.790839
0.907229 0.272033 0.821102
0.925339 0.313265 0.843440
0.240646 0.301543 0.738991
0.296631 0.341297 0.776940
0.383213 0.384792 0.804577
0.634830 0.327605 0.814387
0.853280 0.285943 0.804333
0.892423 0.323946 0.822543
0.905055 0.361676 0.843188
0.924491 0.384063 0.853140
0.291091 0.432960 0.794122
0.367753 0.492474 0.819762
0.454723 0.528769 0.837174
0.563149 0.542885 0.846400
0.783211 0.442626 0.852321
0.887471 0.404972 0.836389
0.904075 0.437137 0.852390
0.919719 0.457844 0.859259
0.332193 0.580729 0.819170
0.414917 0.617664 0.836773
0.518491 0.650693 0.854724
0.620523 0.672242 0.867427
0.753009 0.616623 0.876790
0.866257 0.535959 0.864283
0.900247 0.538580 0.863779
0.913097 0.551671 0.875466
0.398567 0.704569 0.841926
0.487515 0.725560 0.855091
0.587584 0.747806 0.873164
0.662057 0.758351 0.880834
0.716233 0.764352 0.889058
0.826917 0.689918 0.886492
0.883589 0.636846 0.878535
0.902044 0.631559 0.886533
0.477028 0.774824 0.860907
0.565145 0.792934 0.873760
0.634965 0.802231 0.877149
0.694653 0.805845 0.885552
0.751291 0.817071 0.891060
0.797827 0.817535 0.897327
0.857193 0.756286 0.890376
0.903644 0.724438 0.897817
0.565646 0.827620 0.875929
0.621428 0.835530 0.875253
0.680936 0.841746 0.878173
0.734147 0.849042 0.885250
0.777843 0.856316 0.891752
0.819474 0.863798 0.899397
0.857034 0.852648 0.890976
0.911400 0.826833 0.887432
0.613132 0.859458 0.871567
0.664473 0.863999 0.873876
0.714488 0.868340 0.880787
0.754573 0.874033 0.884530
0.802836 0.882557 0.892885
0.846841 0.889211 0.900493
0.879017 0.894430 0.893365
0.920221 0.900443 0.885247
