其他预设/【236】赛博朋克风调色预设/【后期菌】视频调色预设/CUBE/Miami 03_S.cube
# LUT by SparkleStock. Enhanced with VOXCOLOR algorithms.
LUT_3D_SIZE 32
0.093842 0.043011 0.078201
0.097878 0.043011 0.082238
0.101662 0.043263 0.086148
0.101662 0.047299 0.088166
0.102419 0.050831 0.090436
0.108473 0.050831 0.094472
0.116041 0.051588 0.098508
0.130167 0.055624 0.102545
0.147826 0.060165 0.106076
0.176079 0.066219 0.108094
0.213792 0.071643 0.106959
0.272317 0.075679 0.098887
0.342951 0.080472 0.091571
0.433765 0.086526 0.085517
0.521048 0.091697 0.082111
0.603790 0.095734 0.082111
0.666351 0.098761 0.083120
0.708731 0.100779 0.085139
0.737489 0.102797 0.088292
0.755652 0.104815 0.092328
0.771293 0.109356 0.096364
0.785419 0.115410 0.100400
0.793996 0.117302 0.101662
0.800050 0.117302 0.101662
0.804591 0.118816 0.103175
0.808627 0.120834 0.105193
0.812664 0.122852 0.110491
0.816700 0.124870 0.116545
0.818970 0.128654 0.119068
0.820988 0.132690 0.121086
0.824898 0.136726 0.121212
0.828935 0.140762 0.121212
0.095860 0.045029 0.082238
0.098854 0.046070 0.085232
0.101857 0.047234 0.088296
0.104982 0.050229 0.092397
0.108994 0.053109 0.096490
0.119214 0.055193 0.100527
0.130753 0.057642 0.104367
0.148005 0.061678 0.107362
0.170871 0.065959 0.109071
0.210582 0.070971 0.106923
0.259753 0.076004 0.102923
0.329736 0.081082 0.094851
0.405968 0.085745 0.088316
0.492616 0.089716 0.084345
0.569352 0.093716 0.082111
0.633346 0.097752 0.082111
0.681845 0.100258 0.083641
0.714851 0.101235 0.086701
0.738336 0.103383 0.089724
0.754415 0.106443 0.092719
0.769274 0.111374 0.097015
0.783401 0.117428 0.102093
0.792694 0.119320 0.104396
0.799790 0.119320 0.105438
0.805372 0.121615 0.110336
0.810450 0.124675 0.116521
0.814682 0.128581 0.122600
0.818718 0.132682 0.128654
0.821900 0.136726 0.132088
0.824959 0.140762 0.135148
0.826982 0.144799 0.134362
0.828935 0.148835 0.133321
0.097878 0.047047 0.086148
0.099896 0.049065 0.088231
0.102179 0.051087 0.090566
0.108428 0.053170 0.096686
0.115687 0.055498 0.102545
0.130009 0.059534 0.106581
0.145564 0.063582 0.110190
0.166461 0.067684 0.111948
0.194942 0.071785 0.111752
0.246176 0.075886 0.105698
0.306686 0.080578 0.099033
0.387605 0.086567 0.091026
0.468744 0.091091 0.085265
0.550250 0.093174 0.083247
0.616090 0.096112 0.082168
0.661790 0.100148 0.082299
0.696586 0.102199 0.084349
0.720478 0.102264 0.088320
0.738877 0.104526 0.091230
0.753004 0.108497 0.093313
0.767171 0.113770 0.097959
0.781363 0.119825 0.104144
0.791437 0.121761 0.107553
0.799640 0.121827 0.109702
0.806231 0.124870 0.117855
0.812285 0.128906 0.128011
0.816753 0.134529 0.134781
0.820854 0.140518 0.140771
0.824784 0.144913 0.145165
0.828690 0.149079 0.149331
0.828935 0.153062 0.147639
0.828935 0.157033 0.145555
0.099896 0.049065 0.088166
0.101914 0.051083 0.091291
0.104392 0.053170 0.094668
0.113766 0.056295 0.101829
0.124150 0.059534 0.108599
0.141597 0.063570 0.112635
0.161839 0.067814 0.115463
0.194193 0.072957 0.113054
0.234393 0.078100 0.109734
0.298125 0.083243 0.103680
0.368206 0.088324 0.097341
0.452250 0.093272 0.090375
0.527920 0.097536 0.085265
0.589635 0.100661 0.083247
0.639331 0.104184 0.083080
0.673573 0.108221 0.085293
0.700037 0.110792 0.087865
0.718720 0.111899 0.090794
0.734841 0.114031 0.093834
0.748967 0.116960 0.096958
0.763786 0.121843 0.103297
0.779019 0.127897 0.111565
0.790851 0.130550 0.117058
0.801137 0.131657 0.121289
0.808249 0.134960 0.130745
0.814303 0.138997 0.141942
0.819617 0.143773 0.148062
0.824760 0.148721 0.153009
0.826998 0.154808 0.159096
0.828821 0.161057 0.165346
0.828935 0.164194 0.162807
0.828935 0.167124 0.159682
0.101662 0.051083 0.090436
0.103810 0.053101 0.094342
0.106581 0.055245 0.098517
0.118689 0.059282 0.106719
0.132002 0.063350 0.114368
0.153746 0.067647 0.118144
0.179700 0.072298 0.120028
0.223903 0.078482 0.113713
0.275788 0.084699 0.107496
0.350718 0.091014 0.101572
0.428578 0.096576 0.095689
0.512882 0.100482 0.089895
0.581978 0.104388 0.085615
0.625725 0.108294 0.083857
0.660472 0.112257 0.084406
0.683648 0.116293 0.087922
0.702234 0.119385 0.090819
0.716230 0.121534 0.093097
0.730520 0.123682 0.096584
0.745037 0.125830 0.101011
0.760571 0.130257 0.108733
0.776716 0.136051 0.118433
0.790176 0.139338 0.125716
0.802414 0.141487 0.131901
0.810308 0.145149 0.142821
0.816753 0.149315 0.155320
0.822563 0.153164 0.159991
0.828227 0.156940 0.162856
0.828935 0.164247 0.170505
0.828935 0.172059 0.178838
0.829057 0.174806 0.175697
0.829187 0.177214 0.171791
0.101662 0.053101 0.094472
0.104852 0.055119 0.097337
0.108599 0.057264 0.100600
0.120708 0.061300 0.109844
0.135583 0.065629 0.118144
0.169826 0.072009 0.119837
0.208670 0.078547 0.119638
0.267455 0.085773 0.111240
0.330797 0.093292 0.103721
0.407811 0.101690 0.098838
0.480918 0.108359 0.094322
0.545432 0.111223 0.090611
0.600206 0.114088 0.088414
0.638745 0.116952 0.088739
0.666917 0.120329 0.088638
0.681760 0.124365 0.087987
0.695659 0.127978 0.089842
0.708613 0.131168 0.094204
0.724205 0.134358 0.100360
0.741847 0.137548 0.107911
0.758553 0.141064 0.114853
0.774698 0.144774 0.121428
0.788874 0.148127 0.128450
0.802154 0.151317 0.135677
0.812651 0.156020 0.149201
0.822221 0.161228 0.164825
0.826078 0.163580 0.162465
0.828617 0.165273 0.155955
0.828935 0.170497 0.164255
0.828935 0.176226 0.174671
0.830033 0.181771 0.172637
0.831205 0.187305 0.169773
0.101662 0.055498 0.098508
0.105893 0.057516 0.100722
0.110629 0.059672 0.103415
0.122933 0.063904 0.113311
0.139200 0.068591 0.121993
0.183208 0.076468 0.122189
0.232610 0.084418 0.120345
0.305392 0.092686 0.109669
0.379606 0.101410 0.100604
0.458117 0.111500 0.096372
0.526801 0.119190 0.092772
0.573869 0.121599 0.090558
0.615565 0.123934 0.089858
0.648311 0.126148 0.091681
0.670432 0.129158 0.091112
0.678895 0.133195 0.087466
0.689376 0.137133 0.088475
0.701876 0.140974 0.094139
0.718476 0.144925 0.102183
0.738266 0.148961 0.112078
0.756023 0.151858 0.118677
0.772558 0.154071 0.123299
0.787169 0.157269 0.129756
0.800905 0.160915 0.137048
0.813420 0.166367 0.152493
0.825529 0.172421 0.170656
0.828593 0.173398 0.162266
0.829569 0.173203 0.147749
0.829691 0.176026 0.154991
0.829691 0.179281 0.165342
0.831217 0.186503 0.164463
0.832845 0.193990 0.162835
0.101662 0.059534 0.102545
0.106935 0.061552 0.105800
0.112713 0.063774 0.109405
0.126058 0.069047 0.118258
0.142976 0.074515 0.126160
0.184900 0.081351 0.127397
0.234759 0.088650 0.125814
0.318998 0.097959 0.112013
0.401545 0.107464 0.100344
0.479014 0.117554 0.095070
0.544704 0.125895 0.090428
0.584480 0.130387 0.087173
0.618495 0.134415 0.085432
0.642907 0.137670 0.086213
0.661253 0.141267 0.085969
0.671799 0.145303 0.084406
0.684364 0.148721 0.085415
0.698946 0.151520 0.088996
0.715286 0.155015 0.095542
0.732993 0.159051 0.104396
0.751270 0.162599 0.112558
0.769889 0.165854 0.120305
0.783718 0.167946 0.124874
0.795371 0.169508 0.127999
0.807366 0.174440 0.142402
0.819475 0.180494 0.160565
0.826770 0.180624 0.150483
0.832954 0.179387 0.133882
0.833727 0.178435 0.132662
0.833727 0.177524 0.133638
0.833300 0.181556 0.134126
0.832845 0.185917 0.134582
0.103175 0.065084 0.107590
0.108969 0.066841 0.111887
0.115268 0.068851 0.116387
0.129134 0.074645 0.123938
0.146280 0.080504 0.130798
0.186381 0.086819 0.132816
0.236077 0.093890 0.131380
0.327347 0.104241 0.114975
0.415688 0.114462 0.100962
0.495240 0.124292 0.094126
0.560491 0.133024 0.088247
0.594278 0.139338 0.084471
0.621815 0.144896 0.082111
0.638936 0.149193 0.082111
0.653978 0.153262 0.082111
0.666347 0.157037 0.082111
0.680604 0.160195 0.082990
0.696749 0.162734 0.084748
0.712747 0.165822 0.089765
0.728632 0.169337 0.097316
0.747039 0.173341 0.106618
0.766959 0.177638 0.116968
0.780838 0.178980 0.120561
0.791970 0.178980 0.121082
0.803444 0.183130 0.134053
0.815032 0.188664 0.151174
0.825403 0.187850 0.139839
0.835493 0.185572 0.121936
0.836527 0.181072 0.114629
0.836266 0.176254 0.108835
0.834602 0.177845 0.110365
0.832845 0.179863 0.112383
0.109230 0.075174 0.115662
0.113982 0.075890 0.121001
0.119239 0.076859 0.126347
0.132063 0.081611 0.131815
0.148168 0.086689 0.136852
0.187228 0.094045 0.138870
0.234905 0.102158 0.137239
0.319926 0.113551 0.119792
0.406444 0.124292 0.104217
0.497453 0.133081 0.094257
0.569930 0.141422 0.086555
0.601634 0.148778 0.083820
0.626307 0.155377 0.082111
0.639262 0.160716 0.082111
0.652416 0.164915 0.082111
0.665826 0.167649 0.082111
0.680604 0.171327 0.082469
0.696749 0.175949 0.083186
0.712161 0.178777 0.086575
0.727004 0.180209 0.092043
0.744370 0.184082 0.101214
0.763249 0.189421 0.112607
0.779666 0.191089 0.117957
0.794965 0.191089 0.120561
0.805918 0.193677 0.130928
0.815422 0.197127 0.143883
0.825403 0.195076 0.132613
0.835493 0.191756 0.115752
0.835615 0.184392 0.109486
0.834313 0.176449 0.104734
0.833561 0.177845 0.106329
0.832845 0.179863 0.108347
0.114023 0.087787 0.124365
0.118384 0.088113 0.129443
0.123169 0.088569 0.134415
0.134301 0.090977 0.137800
0.148631 0.093972 0.140933
0.185348 0.101068 0.142300
0.229766 0.109165 0.140189
0.307561 0.121599 0.123002
0.390059 0.133024 0.106923
0.486667 0.141422 0.094163
0.564071 0.149718 0.084760
0.599225 0.157790 0.082742
0.625835 0.165106 0.081359
0.638204 0.171160 0.081033
0.651342 0.175591 0.080708
0.665468 0.177935 0.080382
0.680441 0.181971 0.080219
0.696261 0.187700 0.080219
0.711311 0.190389 0.082307
0.725763 0.190715 0.086017
0.742535 0.194417 0.094367
0.760698 0.200146 0.105499
0.778413 0.201712 0.111528
0.795925 0.201387 0.115239
0.806845 0.202087 0.123246
0.815569 0.203128 0.132686
0.825403 0.201631 0.124512
0.835493 0.199548 0.112273
0.834704 0.190173 0.107212
0.832360 0.179757 0.103175
0.832519 0.180998 0.104815
0.832845 0.183016 0.106833
0.116041 0.105950 0.134456
0.121444 0.107317 0.136409
0.127010 0.108424 0.138321
0.135017 0.105625 0.139623
0.145962 0.103672 0.140673
0.177471 0.107643 0.139957
0.215900 0.113396 0.136738
0.284320 0.126872 0.122677
0.357965 0.139338 0.108420
0.447282 0.148778 0.093577
0.524555 0.157790 0.082742
0.575333 0.165863 0.080724
0.614442 0.173178 0.078950
0.634102 0.179232 0.077583
0.651342 0.184119 0.076216
0.665468 0.187504 0.074849
0.679921 0.191540 0.074165
0.694698 0.196228 0.074165
0.709879 0.199047 0.075667
0.725373 0.200414 0.078336
0.742535 0.203857 0.084341
0.760698 0.208544 0.092348
0.776981 0.209069 0.096686
0.792409 0.207702 0.099355
0.804371 0.205797 0.105539
0.815178 0.203714 0.112896
0.825403 0.206709 0.114486
0.835493 0.210875 0.114747
0.833793 0.201371 0.111248
0.830407 0.189913 0.107212
0.831477 0.191089 0.108851
0.832845 0.193107 0.110869
0.118816 0.126384 0.148330
0.124089 0.127620 0.146377
0.129411 0.128426 0.144522
0.135465 0.122762 0.144131
0.144099 0.117961 0.143537
0.170790 0.119198 0.141519
0.203181 0.122705 0.137463
0.260274 0.136051 0.124573
0.323698 0.148387 0.110869
0.406114 0.157697 0.094725
0.482183 0.166986 0.082872
0.544289 0.176230 0.080464
0.593358 0.184278 0.078201
0.620700 0.190332 0.076183
0.643627 0.195333 0.074336
0.660879 0.198978 0.072709
0.676959 0.202819 0.071700
0.691866 0.206855 0.071309
0.707910 0.209976 0.072493
0.724836 0.212385 0.074902
0.742290 0.214834 0.078856
0.760063 0.217308 0.083739
0.775597 0.216962 0.087189
0.790115 0.215335 0.089989
0.802825 0.212193 0.094936
0.814934 0.208548 0.100600
0.825085 0.213788 0.108221
0.834785 0.221080 0.116293
0.833492 0.213447 0.114796
0.830627 0.203682 0.111931
0.831974 0.204963 0.113278
0.833601 0.206981 0.114906
0.122852 0.150601 0.168511
0.126042 0.149754 0.161350
0.129411 0.148672 0.154547
0.135465 0.144050 0.153115
0.143578 0.139900 0.151610
0.166103 0.139054 0.149592
0.192375 0.140478 0.145145
0.234885 0.151740 0.130172
0.285809 0.161993 0.114906
0.361976 0.169219 0.098761
0.435051 0.178053 0.086583
0.501323 0.190422 0.083133
0.556121 0.200423 0.080219
0.591796 0.206477 0.078201
0.623056 0.211022 0.076810
0.648640 0.213626 0.076224
0.669928 0.216946 0.075215
0.686919 0.220982 0.073783
0.705045 0.224689 0.075097
0.724054 0.228139 0.078547
0.741639 0.228375 0.080940
0.758370 0.226682 0.082697
0.774295 0.225751 0.086603
0.789854 0.225165 0.091486
0.802825 0.223065 0.096173
0.814934 0.220461 0.100795
0.824239 0.224204 0.108221
0.832897 0.229412 0.116293
0.834208 0.226987 0.117530
0.834468 0.223472 0.117790
0.835034 0.225144 0.118356
0.835619 0.227162 0.118942
0.126005 0.182764 0.189575
0.128023 0.180290 0.179485
0.130294 0.177747 0.169842
0.136348 0.174167 0.166912
0.143883 0.170668 0.163983
0.161786 0.167738 0.161053
0.182508 0.166908 0.155817
0.215448 0.175176 0.140583
0.257291 0.183346 0.125236
0.325842 0.191223 0.109547
0.393416 0.200768 0.097357
0.458841 0.213984 0.092865
0.517089 0.224172 0.088788
0.563375 0.229315 0.085403
0.603054 0.233489 0.083300
0.634237 0.236419 0.082844
0.660277 0.239902 0.081835
0.681174 0.243938 0.080272
0.701924 0.246949 0.081347
0.722561 0.249162 0.084471
0.740960 0.248324 0.085928
0.758016 0.245655 0.086384
0.774133 0.243881 0.090375
0.789822 0.242514 0.095974
0.803167 0.241342 0.100742
0.815731 0.240235 0.105234
0.823906 0.241086 0.111524
0.831067 0.242388 0.118230
0.833727 0.243348 0.121631
0.835746 0.244259 0.124561
0.836726 0.246208 0.124317
0.837638 0.248226 0.123861
0.128023 0.225144 0.211774
0.130041 0.221629 0.201684
0.132312 0.218174 0.191911
0.138366 0.215636 0.186898
0.145250 0.212787 0.181885
0.157945 0.207775 0.176873
0.173850 0.204471 0.170334
0.203665 0.208572 0.157184
0.240821 0.214659 0.143659
0.299997 0.226703 0.129012
0.358847 0.238461 0.117213
0.416982 0.249593 0.111679
0.475751 0.257698 0.105779
0.535578 0.260758 0.099269
0.583784 0.264672 0.094952
0.617050 0.269685 0.093455
0.647257 0.274209 0.092446
0.674403 0.278246 0.091925
0.698474 0.278913 0.092283
0.720152 0.276960 0.093325
0.740244 0.276512 0.094651
0.759383 0.276968 0.096149
0.775435 0.274022 0.099749
0.790082 0.269530 0.104306
0.803948 0.269140 0.109596
0.817554 0.270116 0.115129
0.824231 0.266279 0.119076
0.829309 0.261332 0.122657
0.831709 0.263334 0.127490
0.833727 0.266328 0.132503
0.836661 0.268407 0.131412
0.839656 0.270425 0.129915
0.132059 0.271561 0.238010
0.133557 0.264400 0.223753
0.135339 0.257527 0.210009
0.141393 0.254989 0.203954
0.148408 0.252336 0.197900
0.162144 0.248885 0.191846
0.178699 0.246851 0.185047
0.207474 0.250952 0.175021
0.243588 0.256909 0.163710
0.301722 0.268432 0.148542
0.359531 0.279181 0.135896
0.416624 0.288230 0.128800
0.474937 0.294447 0.121338
0.535285 0.295945 0.113266
0.583784 0.298296 0.107387
0.617050 0.301747 0.104327
0.648298 0.305750 0.102797
0.677528 0.310307 0.102797
0.702510 0.309738 0.102797
0.724189 0.305181 0.102797
0.744280 0.303431 0.103733
0.763419 0.303366 0.105230
0.779113 0.300616 0.108831
0.793239 0.296644 0.113388
0.806194 0.296775 0.118677
0.818759 0.298272 0.124211
0.825240 0.293686 0.126888
0.830318 0.287697 0.128906
0.832718 0.288657 0.133545
0.834737 0.290610 0.138557
0.839623 0.295066 0.137955
0.844701 0.299688 0.136979
0.138114 0.322013 0.268281
0.138569 0.308602 0.245691
0.139375 0.295806 0.224135
0.145429 0.292226 0.218081
0.153355 0.289313 0.212027
0.174383 0.291070 0.205972
0.197058 0.294049 0.199955
0.226873 0.302316 0.194096
0.265592 0.310096 0.185389
0.331017 0.316410 0.168137
0.395466 0.322929 0.153408
0.457767 0.329894 0.144229
0.514648 0.334419 0.135465
0.562497 0.334874 0.127393
0.603054 0.334362 0.120602
0.634237 0.332604 0.115459
0.663401 0.334524 0.112887
0.690548 0.340123 0.112887
0.714033 0.339423 0.112887
0.734670 0.333825 0.112887
0.753069 0.329080 0.113172
0.770125 0.324849 0.113628
0.785167 0.323661 0.117619
0.799294 0.323856 0.123218
0.809905 0.324247 0.127987
0.819344 0.324702 0.132478
0.826933 0.323307 0.134960
0.834094 0.321484 0.136979
0.836755 0.319320 0.139794
0.838773 0.317106 0.142724
0.845612 0.326184 0.143944
0.852773 0.336014 0.145051
0.146438 0.375871 0.300823
0.144095 0.360898 0.273416
0.142459 0.346242 0.247050
0.151443 0.336347 0.236309
0.162697 0.327827 0.225934
0.189844 0.328934 0.218122
0.218565 0.332824 0.211457
0.254110 0.348773 0.209764
0.297043 0.362037 0.204394
0.362143 0.367245 0.187988
0.427263 0.372169 0.173190
0.492429 0.376465 0.161928
0.547511 0.377832 0.151203
0.585790 0.374317 0.141373
0.621078 0.371086 0.133451
0.652522 0.368222 0.127983
0.680482 0.369817 0.125248
0.704960 0.375871 0.125248
0.727020 0.375444 0.124919
0.747201 0.369975 0.124333
0.763761 0.364507 0.124113
0.778148 0.359039 0.124113
0.791551 0.357912 0.127873
0.804506 0.358758 0.133341
0.814238 0.357212 0.137296
0.822896 0.354868 0.140746
0.830127 0.353953 0.143509
0.837027 0.353367 0.146113
0.840168 0.351300 0.147692
0.842772 0.349021 0.149124
0.849404 0.356935 0.150556
0.856305 0.365528 0.151988
0.156529 0.432378 0.335131
0.150019 0.419488 0.305640
0.144803 0.406134 0.276801
0.158995 0.385823 0.257727
0.175457 0.367538 0.239670
0.207811 0.363437 0.228733
0.242522 0.365048 0.220311
0.287441 0.391414 0.222784
0.335843 0.413011 0.221320
0.394693 0.420302 0.208039
0.455842 0.425681 0.194738
0.522049 0.426853 0.181393
0.575049 0.423923 0.168194
0.606036 0.414158 0.155239
0.638135 0.408323 0.146015
0.671661 0.407542 0.141588
0.699101 0.410179 0.139375
0.720454 0.416233 0.139375
0.741147 0.416392 0.138460
0.761328 0.411965 0.136832
0.775935 0.407538 0.136222
0.787197 0.403111 0.136222
0.798191 0.400878 0.139265
0.809063 0.399641 0.143692
0.819056 0.394449 0.146605
0.828755 0.387939 0.149014
0.834488 0.385396 0.152428
0.839306 0.383769 0.156073
0.843098 0.384306 0.156871
0.846743 0.385152 0.157261
0.851488 0.387402 0.157652
0.856305 0.389746 0.158042
0.172926 0.492669 0.363132
0.159646 0.476654 0.329605
0.148204 0.460534 0.297031
0.164349 0.442826 0.278738
0.184066 0.426169 0.260567
0.228790 0.416860 0.243250
0.273477 0.413873 0.229571
0.318005 0.438286 0.231654
0.366179 0.458776 0.230352
0.425290 0.467499 0.218895
0.485520 0.474310 0.207417
0.548211 0.476914 0.195894
0.598965 0.475466 0.184371
0.629822 0.467263 0.172849
0.661904 0.462365 0.164601
0.695561 0.461714 0.160565
0.721829 0.463439 0.157896
0.740708 0.467540 0.156594
0.759221 0.465599 0.155255
0.777449 0.458959 0.153888
0.789777 0.453946 0.152969
0.798565 0.449910 0.152318
0.807801 0.448604 0.154442
0.817241 0.448539 0.157827
0.826192 0.440515 0.158722
0.834981 0.429839 0.158787
0.839379 0.426197 0.161021
0.842764 0.424179 0.163755
0.846719 0.426263 0.164097
0.850755 0.428932 0.164097
0.854181 0.429098 0.164097
0.857566 0.429098 0.164097
0.193107 0.555230 0.387349
0.171494 0.532966 0.348615
0.152240 0.511637 0.311548
0.168385 0.504346 0.299505
0.190186 0.496151 0.285760
0.251575 0.481634 0.260111
0.308631 0.472659 0.239076
0.346910 0.487697 0.238034
0.391438 0.501416 0.234649
0.454715 0.511181 0.224233
0.515856 0.520011 0.214773
0.572298 0.526781 0.207417
0.620708 0.530280 0.200060
0.655732 0.528327 0.192704
0.689702 0.526488 0.186800
0.722317 0.524795 0.182764
0.747022 0.524437 0.179053
0.763818 0.525414 0.175668
0.779662 0.519762 0.174004
0.794765 0.508956 0.173679
0.804620 0.502381 0.172499
0.811325 0.498345 0.170806
0.819194 0.499187 0.171888
0.827592 0.502246 0.174232
0.834720 0.491879 0.172523
0.841426 0.477036 0.169463
0.844587 0.472614 0.169419
0.846931 0.470596 0.170070
0.850755 0.473590 0.170151
0.854791 0.477301 0.170151
0.857241 0.477533 0.170151
0.859584 0.477533 0.170151
0.220225 0.606691 0.425441
0.191711 0.581758 0.374337
0.165989 0.558086 0.325752
0.182134 0.553334 0.314946
0.204764 0.547784 0.302227
0.272793 0.536652 0.276122
0.335684 0.530146 0.253996
0.376306 0.543687 0.249113
0.422202 0.555828 0.242929
0.483917 0.563770 0.232838
0.542478 0.571305 0.224009
0.594103 0.577946 0.217955
0.639990 0.581827 0.211900
0.676316 0.581111 0.205846
0.709309 0.580452 0.200675
0.738018 0.579866 0.196639
0.761161 0.578141 0.192602
0.778738 0.575276 0.188566
0.793569 0.569226 0.186800
0.806263 0.560698 0.186800
0.815255 0.554530 0.185539
0.822026 0.549778 0.183521
0.829199 0.549590 0.183785
0.836555 0.551478 0.185087
0.842398 0.541453 0.182923
0.847736 0.527456 0.179603
0.850377 0.524356 0.178980
0.852395 0.523770 0.178980
0.855552 0.524722 0.178354
0.858872 0.525894 0.177638
0.860972 0.525967 0.176921
0.862990 0.525967 0.176205
0.250497 0.653108 0.469839
0.215733 0.627133 0.403111
0.184152 0.602419 0.339814
0.200296 0.596625 0.327966
0.223187 0.591075 0.314726
0.293300 0.587235 0.291746
0.359055 0.587043 0.271377
0.405927 0.602667 0.262329
0.455468 0.615590 0.253019
0.513016 0.620407 0.242929
0.567412 0.625143 0.234100
0.614869 0.629700 0.228045
0.658153 0.631889 0.221991
0.694479 0.630131 0.215937
0.725194 0.629798 0.210765
0.748695 0.631295 0.206729
0.770275 0.628528 0.202693
0.789936 0.621497 0.198657
0.804506 0.616554 0.196891
0.815117 0.613234 0.196891
0.823979 0.608368 0.195630
0.831791 0.602574 0.193611
0.838573 0.599913 0.193160
0.844888 0.598676 0.193420
0.849689 0.590213 0.191776
0.853986 0.579341 0.189498
0.856431 0.578519 0.189071
0.858449 0.580017 0.189071
0.860695 0.577583 0.187533
0.862974 0.574589 0.185775
0.865008 0.574402 0.184017
0.867026 0.574402 0.182260
0.279255 0.681361 0.505156
0.241366 0.658250 0.425929
0.206709 0.636352 0.350799
0.220510 0.632642 0.337128
0.241610 0.629338 0.322294
0.313806 0.628882 0.299314
0.382279 0.631246 0.278750
0.434620 0.645829 0.268660
0.487611 0.657579 0.258569
0.542556 0.660834 0.248479
0.594591 0.664089 0.239649
0.640226 0.667344 0.233595
0.681198 0.668622 0.227541
0.714399 0.666604 0.221486
0.742103 0.666010 0.216657
0.762740 0.667246 0.213402
0.781977 0.665001 0.209756
0.799814 0.659272 0.205720
0.813294 0.655191 0.203515
0.823385 0.652391 0.202734
0.831726 0.646581 0.201179
0.839017 0.638965 0.199161
0.845995 0.635197 0.198531
0.852830 0.633179 0.198531
0.856980 0.627450 0.197017
0.860235 0.620484 0.194999
0.863120 0.618914 0.194621
0.865919 0.618588 0.194621
0.868719 0.616383 0.193538
0.871518 0.613909 0.192301
0.872853 0.613022 0.191064
0.874089 0.612241 0.189828
0.307508 0.703560 0.537445
0.267537 0.684616 0.446761
0.230731 0.666819 0.360760
0.241407 0.666233 0.345006
0.260034 0.665924 0.328218
0.334313 0.667552 0.304196
0.405455 0.671218 0.282786
0.463003 0.683717 0.272696
0.519380 0.693645 0.262605
0.572241 0.695858 0.252515
0.622519 0.698071 0.243686
0.667112 0.700285 0.237631
0.705871 0.700911 0.231577
0.734906 0.698893 0.225523
0.759355 0.697843 0.221149
0.777908 0.698039 0.218935
0.794541 0.696834 0.215811
0.809254 0.694230 0.211774
0.821367 0.690931 0.208983
0.831457 0.687090 0.207160
0.839147 0.679587 0.205216
0.845397 0.669887 0.203197
0.852765 0.665468 0.202567
0.860642 0.663450 0.202567
0.864272 0.660846 0.201053
0.866485 0.658047 0.199035
0.870021 0.654719 0.198657
0.873862 0.651268 0.198657
0.877703 0.650495 0.198486
0.881543 0.650105 0.198291
0.881967 0.648372 0.198095
0.882162 0.646549 0.197900
0.342320 0.727399 0.561536
0.296034 0.706697 0.459394
0.253219 0.687289 0.362469
0.262463 0.687289 0.343785
0.280837 0.687965 0.324410
0.363124 0.693368 0.300192
0.440796 0.699552 0.278783
0.498475 0.709122 0.269538
0.553159 0.716592 0.260294
0.598859 0.717764 0.251050
0.643094 0.719465 0.243067
0.684107 0.722329 0.237859
0.719383 0.724315 0.232651
0.745098 0.724836 0.227443
0.767509 0.724758 0.223260
0.785671 0.723912 0.220396
0.800970 0.721633 0.217369
0.813404 0.717923 0.214179
0.824996 0.714981 0.211648
0.835933 0.712637 0.209630
0.844347 0.708097 0.208141
0.851248 0.702238 0.206969
0.857790 0.698437 0.206021
0.864170 0.695573 0.205175
0.869183 0.693343 0.204084
0.873740 0.691325 0.202913
0.877186 0.690418 0.202693
0.880376 0.689767 0.202693
0.883566 0.688205 0.202693
0.886756 0.686512 0.202693
0.887748 0.686101 0.202693
0.888595 0.685776 0.202693
0.378646 0.751616 0.583735
0.325069 0.727789 0.470136
0.275353 0.705452 0.362273
0.283555 0.705452 0.340465
0.302190 0.706648 0.318355
0.393851 0.716218 0.294138
0.478945 0.725202 0.272924
0.535582 0.731647 0.264721
0.587401 0.736513 0.256518
0.624769 0.736643 0.248316
0.661973 0.737953 0.241375
0.698820 0.741859 0.237208
0.730320 0.745668 0.233042
0.752910 0.749313 0.228875
0.773563 0.750538 0.224823
0.791726 0.748650 0.220917
0.805983 0.744809 0.217890
0.816334 0.739015 0.215741
0.827600 0.736334 0.213666
0.839578 0.736073 0.211648
0.849034 0.735569 0.210810
0.856976 0.734918 0.210680
