其他预设/【236】赛博朋克风调色预设/【后期菌】视频调色预设/CUBE/Miami 01_S.cube
# LUT by SparkleStock. Enhanced with VOXCOLOR algorithms.
LUT_3D_SIZE 32
0.003910 0.000000 0.000000
0.003910 0.002018 0.004036
0.004036 0.003910 0.007946
0.006054 0.003910 0.009964
0.008577 0.003910 0.011982
0.014631 0.003910 0.014001
0.021821 0.004288 0.015640
0.033929 0.006307 0.015640
0.052597 0.009334 0.015640
0.090941 0.015388 0.015640
0.153249 0.023334 0.013748
0.268281 0.035443 0.007694
0.405260 0.050579 0.003910
0.578816 0.070760 0.003910
0.697632 0.085643 0.004793
0.746066 0.093716 0.006811
0.779365 0.100779 0.008829
0.797528 0.106833 0.010847
0.811150 0.110617 0.015136
0.821241 0.112635 0.021190
0.828808 0.114653 0.029767
0.834863 0.116671 0.039857
0.836755 0.118689 0.048561
0.836755 0.120708 0.056633
0.839782 0.124239 0.063192
0.843818 0.128275 0.069246
0.846214 0.132312 0.078580
0.848233 0.136348 0.088670
0.852017 0.140384 0.096995
0.856053 0.144420 0.105067
0.858197 0.150348 0.107464
0.860215 0.156403 0.109482
0.003910 0.002018 0.002018
0.004952 0.002995 0.006054
0.006119 0.003910 0.009964
0.009179 0.003910 0.011982
0.013004 0.004170 0.014001
0.022183 0.006254 0.016019
0.033474 0.008520 0.017658
0.053915 0.011580 0.017658
0.087946 0.015909 0.016617
0.162746 0.024046 0.012450
0.256954 0.034727 0.008671
0.393859 0.051002 0.005741
0.522635 0.066398 0.004301
0.637862 0.080329 0.005342
0.717032 0.091242 0.007267
0.749842 0.098273 0.010326
0.774287 0.103773 0.013907
0.790367 0.107745 0.018008
0.802492 0.111203 0.024380
0.811541 0.114263 0.032517
0.820020 0.116671 0.042527
0.828157 0.118689 0.053659
0.832849 0.120708 0.061971
0.835973 0.122726 0.069002
0.840563 0.126257 0.078425
0.845641 0.130294 0.088646
0.849079 0.135176 0.100453
0.852139 0.140254 0.112627
0.855141 0.146243 0.122124
0.858136 0.152362 0.131238
0.860215 0.158421 0.134676
0.862233 0.164475 0.137735
0.004036 0.003910 0.004036
0.006054 0.003975 0.008007
0.008211 0.004040 0.011860
0.012442 0.004105 0.013944
0.017715 0.004675 0.016027
0.030280 0.008776 0.018110
0.046115 0.012878 0.019754
0.076126 0.016979 0.019493
0.126351 0.022691 0.017329
0.237216 0.033238 0.009452
0.361773 0.046693 0.004036
0.516450 0.066548 0.004036
0.635266 0.081936 0.004842
0.694312 0.089879 0.006990
0.735386 0.096966 0.010021
0.753353 0.102956 0.014188
0.769270 0.106959 0.019396
0.783137 0.108977 0.025645
0.793781 0.112131 0.033982
0.801918 0.116167 0.043942
0.811317 0.118942 0.055368
0.821472 0.120960 0.067671
0.828943 0.122978 0.075768
0.835192 0.124996 0.081953
0.841393 0.128625 0.094289
0.847578 0.132792 0.108676
0.851964 0.138439 0.122693
0.855935 0.144428 0.136625
0.858254 0.152411 0.147423
0.860337 0.160679 0.157774
0.862298 0.166750 0.162144
0.864251 0.172674 0.166115
0.006054 0.003910 0.006054
0.008072 0.005017 0.008984
0.010424 0.006123 0.011926
0.017780 0.007230 0.015050
0.026699 0.008841 0.018175
0.046555 0.013984 0.021300
0.073587 0.019127 0.023009
0.131722 0.024270 0.018582
0.210590 0.032587 0.014074
0.351662 0.050424 0.009322
0.483315 0.067265 0.006054
0.594245 0.081912 0.006054
0.676735 0.093264 0.007641
0.711824 0.099123 0.011873
0.738055 0.104583 0.016987
0.752898 0.109531 0.023237
0.765169 0.113014 0.031049
0.774869 0.115032 0.040423
0.784276 0.118185 0.048955
0.793455 0.122221 0.056832
0.803895 0.124996 0.069429
0.815093 0.127014 0.084858
0.825037 0.129032 0.095363
0.834411 0.131050 0.103631
0.842955 0.136242 0.119613
0.851223 0.142492 0.138167
0.855154 0.147683 0.150426
0.858083 0.152631 0.161232
0.861183 0.163218 0.175286
0.864308 0.174610 0.189803
0.865358 0.178923 0.193457
0.866269 0.182764 0.196386
0.007820 0.004162 0.007820
0.009838 0.006050 0.009838
0.012369 0.007946 0.011991
0.022590 0.009964 0.016157
0.035187 0.012520 0.020258
0.064416 0.018834 0.023904
0.104656 0.025271 0.025377
0.192606 0.032237 0.017435
0.299143 0.043418 0.011039
0.461437 0.067244 0.009281
0.594741 0.086697 0.008154
0.664268 0.096527 0.008414
0.712971 0.104233 0.010847
0.726968 0.108400 0.016902
0.739796 0.112452 0.023839
0.751124 0.116358 0.031911
0.760010 0.119385 0.041872
0.766455 0.121534 0.053720
0.775097 0.124744 0.062821
0.785448 0.128780 0.069787
0.796897 0.131555 0.083426
0.809006 0.133573 0.101068
0.821204 0.135681 0.113787
0.833443 0.137829 0.124268
0.844266 0.144420 0.143537
0.854616 0.152493 0.165736
0.858197 0.157391 0.174977
0.860215 0.161558 0.181226
0.863885 0.174098 0.197900
0.867791 0.187834 0.216063
0.868279 0.191073 0.219456
0.868540 0.193611 0.221865
0.007820 0.006180 0.007820
0.009838 0.007027 0.009838
0.012434 0.007946 0.012056
0.023696 0.009964 0.017264
0.040199 0.012780 0.021886
0.093386 0.021178 0.022407
0.160903 0.030674 0.021536
0.290517 0.044931 0.014635
0.417885 0.060799 0.009541
0.538515 0.081501 0.009867
0.635364 0.098155 0.010823
0.679892 0.105901 0.013166
0.712580 0.112696 0.016902
0.725535 0.117904 0.022956
0.735044 0.122087 0.029893
0.740122 0.124951 0.037966
0.747446 0.127978 0.046884
0.757015 0.131168 0.056649
0.768196 0.134834 0.068941
0.780630 0.138870 0.083198
0.792861 0.141645 0.096966
0.804970 0.143663 0.110442
0.817884 0.146487 0.124007
0.831164 0.149677 0.137613
0.843810 0.156529 0.157664
0.856244 0.164601 0.179863
0.860215 0.170346 0.177255
0.862233 0.175554 0.168922
0.864992 0.185490 0.183773
0.867856 0.196102 0.201936
0.870232 0.203051 0.208259
0.872576 0.209756 0.213792
0.007820 0.008199 0.007820
0.010034 0.008394 0.010034
0.012902 0.008727 0.012499
0.025597 0.011136 0.018749
0.045761 0.014456 0.023965
0.118218 0.024156 0.021947
0.208507 0.036004 0.019099
0.376075 0.057162 0.012654
0.522615 0.077424 0.008276
0.606073 0.095001 0.010099
0.670530 0.109099 0.012674
0.693185 0.115544 0.016906
0.711519 0.121843 0.021747
0.722651 0.127897 0.027606
0.729254 0.132186 0.034434
0.730035 0.134204 0.042506
0.736285 0.137133 0.050579
0.748003 0.140974 0.058651
0.761186 0.145035 0.073095
0.775508 0.149266 0.092495
0.788813 0.152236 0.106320
0.801507 0.154450 0.116802
0.815052 0.157916 0.130505
0.828983 0.161953 0.145673
0.843061 0.168723 0.165822
0.857188 0.176405 0.187630
0.861794 0.182764 0.175164
0.864202 0.188818 0.154787
0.866098 0.196126 0.165570
0.867921 0.203612 0.180803
0.871453 0.213174 0.188957
0.875099 0.222874 0.196639
0.007820 0.010217 0.007820
0.011075 0.011454 0.011075
0.015115 0.012894 0.014582
0.030935 0.017386 0.021874
0.053703 0.022268 0.028001
0.125118 0.029885 0.025983
0.218663 0.041017 0.022744
0.408104 0.067383 0.014216
0.566622 0.090770 0.008015
0.632373 0.105222 0.008797
0.682053 0.117823 0.010982
0.696375 0.126351 0.016255
0.707547 0.133951 0.021357
0.713472 0.140006 0.026174
0.718968 0.144294 0.032416
0.723916 0.146312 0.040488
0.731207 0.148721 0.048561
0.740842 0.151520 0.056633
0.753699 0.155711 0.068733
0.769063 0.160984 0.083967
0.784711 0.164996 0.097532
0.800531 0.168251 0.110096
0.814336 0.172043 0.120870
0.827226 0.176079 0.130831
0.841043 0.181287 0.148115
0.855170 0.186886 0.167840
0.861468 0.192855 0.154136
0.865960 0.198909 0.132719
0.867205 0.203482 0.129700
0.867986 0.207844 0.129309
0.869500 0.215257 0.134533
0.871062 0.222874 0.140132
0.008829 0.012739 0.009334
0.012865 0.014757 0.013370
0.017736 0.017011 0.017610
0.035117 0.022805 0.024901
0.059090 0.028664 0.031126
0.129203 0.034979 0.029889
0.224131 0.045834 0.026894
0.426592 0.076366 0.016283
0.592662 0.102423 0.008260
0.649560 0.115052 0.007999
0.691036 0.126969 0.009712
0.698588 0.137320 0.015766
0.703967 0.146060 0.021162
0.705725 0.152114 0.025458
0.710131 0.156517 0.030951
0.717943 0.158795 0.037982
0.726276 0.161074 0.045924
0.735129 0.163352 0.054778
0.747938 0.167315 0.065023
0.763822 0.172588 0.076350
0.781131 0.177414 0.089427
0.799294 0.181971 0.103554
0.813652 0.185991 0.112310
0.826282 0.189766 0.118624
0.839839 0.193542 0.133239
0.853705 0.197318 0.150621
0.861436 0.202945 0.135843
0.867750 0.208999 0.113644
0.868312 0.210383 0.098907
0.868051 0.211099 0.085236
0.868279 0.216331 0.086945
0.868540 0.221865 0.089679
0.012865 0.016775 0.015388
0.016902 0.018794 0.019424
0.021577 0.020983 0.023469
0.035833 0.025735 0.027635
0.056812 0.030813 0.031517
0.124841 0.038169 0.033404
0.215538 0.050066 0.032558
0.404458 0.081639 0.019864
0.564799 0.108998 0.010017
0.639404 0.123710 0.008715
0.692404 0.137385 0.009712
0.697872 0.148778 0.015766
0.701558 0.158169 0.021552
0.702274 0.164223 0.026890
0.705639 0.169081 0.031146
0.712410 0.172401 0.034011
0.721784 0.175721 0.041432
0.733762 0.179041 0.053410
0.747352 0.181702 0.063265
0.762195 0.183851 0.071468
0.779113 0.188806 0.083373
0.797276 0.195446 0.097499
0.813066 0.199401 0.106971
0.827779 0.202135 0.114328
0.841076 0.204870 0.126860
0.853900 0.207604 0.141116
0.862282 0.213036 0.125753
0.869638 0.219090 0.103554
0.869419 0.215916 0.083348
0.868117 0.211424 0.063428
0.869256 0.214378 0.059864
0.870558 0.217829 0.057390
0.015640 0.025226 0.021442
0.019676 0.027244 0.024828
0.024156 0.029328 0.028107
0.035288 0.032387 0.029800
0.052784 0.035951 0.031704
0.114824 0.043047 0.035089
0.197383 0.054684 0.035313
0.368857 0.085997 0.021837
0.521272 0.113762 0.011063
0.616513 0.130884 0.008394
0.684677 0.146540 0.008247
0.693270 0.158974 0.013651
0.699007 0.169260 0.019054
0.699984 0.175965 0.024457
0.703182 0.181503 0.027639
0.709236 0.185539 0.027965
0.719164 0.189575 0.034540
0.732965 0.193611 0.047364
0.746949 0.195743 0.056198
0.761076 0.196394 0.061926
0.777929 0.201480 0.072294
0.796417 0.209227 0.085444
0.813070 0.212812 0.094879
0.828890 0.214504 0.102626
0.841926 0.216197 0.112912
0.854035 0.217890 0.124044
0.863128 0.223655 0.113119
0.871526 0.230360 0.097105
0.870525 0.224135 0.073628
0.868182 0.216063 0.049085
0.869927 0.217755 0.040655
0.871945 0.220099 0.033299
0.015640 0.043389 0.027497
0.019676 0.045407 0.028799
0.023961 0.047295 0.030060
0.031968 0.047230 0.030711
0.044907 0.047669 0.031443
0.092365 0.051641 0.032745
0.158193 0.060152 0.031667
0.303626 0.088341 0.020275
0.443282 0.114543 0.010542
0.565605 0.134790 0.005790
0.656944 0.152920 0.003560
0.680120 0.166396 0.006880
0.696143 0.178114 0.010200
0.700244 0.186902 0.013520
0.705200 0.193611 0.015986
0.711254 0.197648 0.017353
0.720661 0.201684 0.022366
0.733421 0.205720 0.031024
0.746949 0.209024 0.037449
0.761076 0.211758 0.042136
0.778580 0.216974 0.050160
0.798110 0.223680 0.060185
0.814372 0.226222 0.067928
0.829150 0.226873 0.074633
0.841926 0.227524 0.082315
0.854035 0.228175 0.090322
0.863975 0.235438 0.094891
0.873414 0.244227 0.098667
0.871632 0.238262 0.076753
0.868247 0.230190 0.051169
0.869927 0.232859 0.038767
0.871945 0.236244 0.027244
0.016397 0.060795 0.035821
0.020043 0.062032 0.034649
0.023814 0.063090 0.033551
0.029478 0.061463 0.033551
0.038787 0.060340 0.033551
0.073616 0.062748 0.033551
0.123641 0.069185 0.031659
0.239519 0.093077 0.021568
0.360947 0.116545 0.012292
0.499024 0.138744 0.005456
0.607826 0.159153 0.001265
0.652225 0.175624 0.002893
0.683709 0.189701 0.004520
0.693669 0.199792 0.006148
0.702775 0.207234 0.007775
0.710782 0.211270 0.009403
0.721231 0.215306 0.012658
0.734120 0.219342 0.017540
0.747706 0.223818 0.021947
0.761833 0.228635 0.025983
0.779499 0.233493 0.031809
0.799290 0.238376 0.038710
0.815186 0.239902 0.044760
0.829313 0.239902 0.050424
0.841926 0.240195 0.056088
0.854035 0.240585 0.061751
0.864504 0.248540 0.074979
0.874594 0.258239 0.089952
0.873349 0.255465 0.073994
0.870485 0.250908 0.053618
0.871831 0.252576 0.039101
0.873459 0.254659 0.024974
0.018415 0.076940 0.047930
0.021019 0.076094 0.043633
0.023749 0.075264 0.039605
0.028371 0.074678 0.039605
0.035597 0.074596 0.039605
0.061052 0.078047 0.039605
0.096820 0.084158 0.037713
0.177284 0.101800 0.027623
0.271369 0.120581 0.017825
0.406322 0.142781 0.008906
0.523066 0.165142 0.002958
0.599754 0.187862 0.003544
0.655325 0.205846 0.004130
0.675701 0.215937 0.004716
0.692945 0.223378 0.005302
0.706160 0.227415 0.005887
0.720254 0.231451 0.007059
0.735227 0.235487 0.008817
0.749724 0.241134 0.011856
0.763851 0.248035 0.015893
0.780866 0.251721 0.019766
0.799615 0.253479 0.023542
0.815186 0.254028 0.027899
0.829313 0.254028 0.032522
0.841926 0.255102 0.037144
0.854035 0.256535 0.041766
0.864504 0.263838 0.052259
0.874594 0.272496 0.064107
0.876083 0.277794 0.061430
0.876344 0.282611 0.056678
0.876909 0.279983 0.043137
0.877495 0.276858 0.029010
0.019550 0.104563 0.064453
0.021568 0.102089 0.057943
0.023713 0.099770 0.051783
0.027749 0.099770 0.050872
0.033404 0.100103 0.049846
0.050396 0.102773 0.048023
0.074356 0.107334 0.044907
0.128520 0.120093 0.036183
0.200162 0.134985 0.026776
0.324243 0.156273 0.015319
0.440043 0.178679 0.006872
0.537628 0.203547 0.005049
0.612729 0.223045 0.003910
0.650357 0.233591 0.003910
0.679982 0.241887 0.003910
0.699316 0.247290 0.003910
0.717512 0.252238 0.003910
0.734568 0.256730 0.003910
0.750489 0.262211 0.005668
0.765527 0.268460 0.008793
0.782518 0.271943 0.010941
0.800681 0.273766 0.012503
0.816382 0.274022 0.015140
0.830965 0.273566 0.018265
0.844034 0.275308 0.022415
0.856598 0.277782 0.026907
0.866412 0.283694 0.035207
0.875591 0.290399 0.044386
0.879302 0.299269 0.048666
0.882231 0.308448 0.052247
0.882414 0.306336 0.042645
0.882414 0.303472 0.032163
0.019550 0.146943 0.086652
0.021568 0.143427 0.079101
0.023713 0.140132 0.071834
0.027749 0.140132 0.068839
0.032493 0.140075 0.065470
0.042193 0.139619 0.059481
0.057496 0.141055 0.053565
0.097076 0.150690 0.047966
0.152574 0.162717 0.040122
0.255823 0.181922 0.025540
0.359254 0.201920 0.013643
0.463089 0.223663 0.007653
0.551861 0.241598 0.003910
0.615529 0.253186 0.003910
0.662991 0.263435 0.003910
0.689616 0.271963 0.003910
0.712499 0.278994 0.003910
0.731638 0.284528 0.003910
0.749643 0.288120 0.004496
0.766764 0.290204 0.005538
0.784536 0.294728 0.006254
0.802699 0.300717 0.006774
0.819117 0.301559 0.007653
0.834741 0.300062 0.008695
0.848851 0.302324 0.013105
0.862457 0.305840 0.018639
0.870773 0.309408 0.025442
0.877869 0.312989 0.032538
0.883142 0.319645 0.035646
0.888155 0.326741 0.038185
0.888468 0.331335 0.036330
0.888468 0.335761 0.034182
0.018541 0.197395 0.114906
0.021080 0.188672 0.101625
0.023713 0.180461 0.088857
0.027749 0.179940 0.083780
0.032428 0.179623 0.078523
0.041607 0.180730 0.072013
0.055217 0.183045 0.065967
0.088027 0.190597 0.061930
0.137796 0.200541 0.054216
0.238441 0.217662 0.035467
0.340733 0.235088 0.019729
0.446651 0.253186 0.010615
0.539264 0.268843 0.004724
0.609702 0.280430 0.004203
0.662567 0.290452 0.003910
0.692839 0.298459 0.003910
0.718065 0.305750 0.003910
0.738246 0.312325 0.003910
0.756413 0.315495 0.003910
0.773014 0.316016 0.003910
0.790265 0.319954 0.003910
0.807907 0.325943 0.003910
0.824878 0.328218 0.004626
0.841544 0.328804 0.005668
0.855133 0.331977 0.010469
0.867697 0.336014 0.016523
0.875819 0.339256 0.022154
0.882915 0.342316 0.027688
0.888188 0.347540 0.029690
0.893200 0.353074 0.031187
0.894490 0.363429 0.034149
0.895532 0.374105 0.037209
0.016523 0.255920 0.149213
0.020104 0.237822 0.125517
0.023713 0.220758 0.102854
0.027749 0.219196 0.095693
0.033209 0.218748 0.089004
0.048638 0.226104 0.085619
0.067521 0.233302 0.082111
0.101373 0.239812 0.078075
0.155829 0.248454 0.069059
0.272098 0.263492 0.045102
0.384481 0.278184 0.025133
0.488315 0.292116 0.013935
0.574939 0.304778 0.006351
0.632878 0.315324 0.004789
0.678712 0.322937 0.003910
0.708984 0.326778 0.003910
0.734210 0.332506 0.003910
0.754391 0.340123 0.003910
0.770800 0.344334 0.003910
0.784276 0.345897 0.003910
0.799705 0.347622 0.003910
0.816305 0.349445 0.003910
0.833666 0.353997 0.006058
0.851374 0.359791 0.009183
0.862880 0.364267 0.014505
0.872320 0.368303 0.020559
0.881548 0.373239 0.025344
0.890727 0.378382 0.029836
0.894437 0.382955 0.030796
0.897367 0.387447 0.031252
0.900479 0.402619 0.036102
0.903604 0.418503 0.041245
0.016775 0.318986 0.188062
0.019054 0.297373 0.156879
0.021552 0.276581 0.126811
0.027346 0.268118 0.113465
0.035418 0.261462 0.101243
0.059440 0.267451 0.096881
0.086929 0.274551 0.092470
0.129439 0.286464 0.087848
0.190047 0.298785 0.078262
0.304949 0.312325 0.053785
0.417022 0.324503 0.032806
0.522875 0.333682 0.019526
0.606952 0.342324 0.010029
0.654735 0.350071 0.006840
0.695113 0.355824 0.004789
0.725971 0.359014 0.004203
0.750904 0.364938 0.003910
0.769913 0.373597 0.003910
0.785370 0.378849 0.003910
0.798065 0.381453 0.003910
0.812183 0.382430 0.004276
0.827156 0.382430 0.004862
0.843114 0.387980 0.007820
0.859519 0.396052 0.011856
0.870114 0.400658 0.016527
0.878773 0.404108 0.021410
0.887642 0.410626 0.026081
0.896561 0.417852 0.030703
0.899442 0.422800 0.031281
0.901460 0.427422 0.031281
0.905370 0.441992 0.036956
0.909406 0.457226 0.043011
0.018794 0.385583 0.230442
0.017947 0.365012 0.194051
0.017711 0.344481 0.158514
0.026630 0.324560 0.135795
0.038739 0.306967 0.114849
0.073176 0.305665 0.106320
0.111862 0.308794 0.098329
0.168955 0.331123 0.092666
0.236854 0.350995 0.083080
0.337173 0.363494 0.061727
0.440849 0.373328 0.042246
0.551910 0.377299 0.026882
0.636116 0.381124 0.015303
0.675567 0.384704 0.010029
0.711714 0.389025 0.006351
0.743613 0.394298 0.004724
0.768025 0.401785 0.003910
0.784951 0.411485 0.003910
0.800083 0.417779 0.003910
0.813819 0.421425 0.003910
0.827026 0.422792 0.004927
0.839916 0.422792 0.006555
0.853074 0.428342 0.009838
0.866355 0.436414 0.013874
0.876950 0.440239 0.016983
0.886650 0.442647 0.019782
0.894022 0.450663 0.024909
0.900858 0.459972 0.030573
0.903478 0.466092 0.031281
0.905496 0.471755 0.031281
0.909406 0.481508 0.036956
0.913442 0.491533 0.043011
0.023334 0.450919 0.274083
0.019363 0.426832 0.227927
0.016393 0.403103 0.183098
0.028436 0.384745 0.158165
0.044988 0.367445 0.134273
0.093097 0.357550 0.117672
0.143672 0.352964 0.102561
0.204931 0.371387 0.093903
0.273937 0.389046 0.082852
0.366183 0.404409 0.064624
0.463089 0.417637 0.047454
0.570243 0.426165 0.032611
0.652546 0.433228 0.021308
0.693429 0.437850 0.015905
0.730267 0.443384 0.011982
0.761906 0.450089 0.009964
0.785798 0.457836 0.008630
0.801942 0.466625 0.007979
0.816952 0.470909 0.007328
0.831079 0.471690 0.006677
0.843130 0.471576 0.007694
0.853937 0.470925 0.009712
0.865639 0.478062 0.013118
0.877747 0.488738 0.017154
0.886389 0.491944 0.019676
0.893876 0.492660 0.021695
0.899670 0.498349 0.025934
0.905073 0.505184 0.030687
0.908654 0.512475 0.032420
0.911974 0.519832 0.033722
0.915355 0.529690 0.038869
0.918740 0.539716 0.044272
0.029389 0.515498 0.318481
0.022293 0.485162 0.259826
0.016588 0.456160 0.203409
0.031757 0.447176 0.180559
0.052995 0.436906 0.157188
0.116728 0.417637 0.130172
0.179607 0.403091 0.105816
0.238783 0.409015 0.092991
0.305185 0.418601 0.079597
0.393265 0.439173 0.064494
0.484377 0.459236 0.050123
0.582157 0.478180 0.037363
0.661335 0.493316 0.027753
0.709509 0.502104 0.023391
0.749993 0.510437 0.020055
0.780590 0.518184 0.018037
0.803961 0.525410 0.016181
0.820105 0.532115 0.014489
0.835115 0.532559 0.012796
0.849242 0.528132 0.011104
0.859991 0.525414 0.011730
0.868715 0.523721 0.013748
0.879765 0.533397 0.017154
0.891874 0.548240 0.021190
0.897391 0.550925 0.023713
0.900711 0.549558 0.025731
0.904878 0.550624 0.028278
0.909239 0.552251 0.030947
0.914513 0.560714 0.034243
0.919916 0.570154 0.037628
0.922451 0.583072 0.041928
0.924794 0.596222 0.046290
0.045155 0.567591 0.365654
0.034218 0.537449 0.293068
0.024884 0.508545 0.223407
0.039597 0.498194 0.197627
0.061853 0.486720 0.171286
0.136913 0.467385 0.141015
0.209142 0.453397 0.113770
0.269099 0.462576 0.099644
0.335403 0.474473 0.085159
0.420749 0.494524 0.069600
0.507052 0.513680 0.055119
0.595457 0.530866 0.043011
0.669899 0.545660 0.033661
0.721068 0.556467 0.028908
0.762154 0.566390 0.025352
0.790277 0.575179 0.023334
0.813844 0.581526 0.021316
0.832853 0.585432 0.019298
0.848310 0.586152 0.017683
0.861004 0.584395 0.016381
0.871258 0.581579 0.016706
0.880046 0.578129 0.018008
0.890133 0.587165 0.021190
0.900809 0.601878 0.025226
0.906066 0.604043 0.027212
0.909516 0.602024 0.028514
0.912861 0.602810 0.030979
0.916181 0.604242 0.033714
0.920640 0.611370 0.038214
0.925262 0.619313 0.042966
0.927443 0.631039 0.047047
0.929461 0.643017 0.051083
0.065336 0.614007 0.414089
0.050233 0.586990 0.326920
0.036863 0.560625 0.243262
0.049492 0.544024 0.212275
0.071097 0.527603 0.181377
0.155532 0.512435 0.151105
0.235768 0.503784 0.123861
0.297808 0.523380 0.109734
0.365154 0.542307 0.094729
0.448417 0.559233 0.077087
0.530357 0.573962 0.061174
0.609389 0.583857 0.049065
0.678362 0.594485 0.039324
0.730572 0.606333 0.033531
0.770878 0.617298 0.029389
0.795876 0.627129 0.027370
0.819963 0.632434 0.025352
0.843139 0.633215 0.023334
0.859247 0.636084 0.022305
0.869858 0.640576 0.022044
0.879981 0.638802 0.022110
0.889811 0.633268 0.022370
0.898791 0.640222 0.025226
0.907384 0.652851 0.029262
0.913682 0.654495 0.030467
0.919216 0.652477 0.030727
0.922105 0.654955 0.033844
0.924383 0.658470 0.037620
0.926890 0.663125 0.043161
0.929429 0.667942 0.048955
0.931479 0.676544 0.053101
0.933497 0.685397 0.057137
0.087031 0.643774 0.459496
0.068542 0.620663 0.359307
0.052015 0.597960 0.263069
0.064905 0.581359 0.226092
0.086933 0.565556 0.189758
0.172930 0.555336 0.157924
0.255119 0.550901 0.129264
0.320805 0.571537 0.114356
0.390559 0.590465 0.098635
0.472520 0.604266 0.080472
0.551857 0.616765 0.064201
0.625420 0.626400 0.052092
0.689608 0.636670 0.042547
0.738173 0.647997 0.037274
0.776769 0.658100 0.033083
0.802549 0.666628 0.030284
0.825985 0.672064 0.028266
0.847077 0.674407 0.027029
0.861981 0.676641 0.026488
0.872071 0.678790 0.026488
0.882162 0.678252 0.026488
0.892252 0.676104 0.026488
0.900955 0.681609 0.029262
0.909028 0.690593 0.033299
0.915587 0.691911 0.034894
0.921641 0.690674 0.035675
0.925051 0.693722 0.039101
0.927850 0.697758 0.043137
0.929966 0.701111 0.048255
0.931984 0.704366 0.053528
0.933269 0.709940 0.057642
0.934506 0.715669 0.061678
0.109230 0.667991 0.503894
0.087616 0.649047 0.391206
0.068225 0.630380 0.282859
0.082156 0.615862 0.239633
0.104966 0.602533 0.197570
0.189921 0.597520 0.163653
0.272045 0.596926 0.133105
0.341897 0.615480 0.117156
0.414516 0.632064 0.100653
0.495435 0.642740 0.082490
0.572754 0.653742 0.066219
0.642150 0.665460 0.054110
0.701782 0.676641 0.044956
0.745139 0.686927 0.040724
0.781717 0.695532 0.036664
0.809579 0.701977 0.032823
0.831974 0.707934 0.030805
0.848900 0.713402 0.030609
0.861981 0.714074 0.030524
0.872071 0.711014 0.030524
0.882162 0.711779 0.030524
0.892252 0.714839 0.030524
0.900955 0.719107 0.033299
0.909028 0.723924 0.037335
0.915587 0.724982 0.039711
0.921641 0.724787 0.041534
0.925897 0.728030 0.045155
0.929738 0.732066 0.049191
0.931984 0.734507 0.053398
0.934002 0.736720 0.057630
0.934311 0.739300 0.061678
0.934506 0.741904 0.065714
0.142907 0.695488 0.545013
0.113937 0.673940 0.415594
0.087608 0.652961 0.291225
0.100889 0.640527 0.242595
0.123633 0.629460 0.195756
0.212625 0.627963 0.161448
0.298650 0.630152 0.130228
0.371823 0.648315 0.112391
0.445190 0.664248 0.095107
0.519144 0.673492 0.079483
0.590372 0.683631 0.065487
0.655602 0.695740 0.055071
0.710994 0.706457 0.047047
0.749989 0.714855 0.043011
0.783173 0.722227 0.039345
0.808888 0.728282 0.036155
0.829394 0.733067 0.034137
0.844693 0.736582 0.033291
0.858014 0.738230 0.033396
0.869797 0.738425 0.034243
0.881051 0.740492 0.035089
0.891988 0.743682 0.035935
0.900955 0.745708 0.037811
0.909028 0.747206 0.040154
0.914317 0.748849 0.043523
0.918679 0.750542 0.047234
0.923464 0.754826 0.052585
0.928346 0.759709 0.058313
0.931463 0.761344 0.062561
0.934327 0.762516 0.066597
0.935300 0.765275 0.069840
0.936146 0.768139 0.073030
0.179232 0.723741 0.585375
0.141930 0.698027 0.438249
0.107724 0.673272 0.296954
0.119963 0.662921 0.243116
0.142447 0.654068 0.191719
0.236647 0.655695 0.157412
0.327490 0.660423 0.125802
0.403787 0.678586 0.105881
0.477415 0.694259 0.087816
0.543036 0.702461 0.075317
0.607232 0.711885 0.064119
0.668296 0.723993 0.055787
0.719522 0.733929 0.049065
0.754350 0.740244 0.045029
0.783824 0.746445 0.041819
0.806414 0.752499 0.039670
0.824837 0.755721 0.037652
0.839094 0.756112 0.035764
0.853131 0.759322 0.036000
0.866998 0.764726 0.037888
0.879684 0.768094 0.039776
0.891662 0.770243 0.041664
