其他预设/【236】赛博朋克风调色预设/【后期菌】视频调色预设/CUBE/Miami 10_S.cube
# LUT by SparkleStock. Enhanced with VOXCOLOR algorithms.
LUT_3D_SIZE 32
0.019550 0.019550 0.015640
0.023587 0.021568 0.017658
0.027875 0.023587 0.019676
0.035947 0.025605 0.021695
0.044777 0.027623 0.023965
0.058903 0.029641 0.028001
0.077192 0.033551 0.033551
0.113518 0.045660 0.045660
0.156907 0.058273 0.058273
0.221486 0.072399 0.072399
0.287327 0.087157 0.085895
0.355942 0.103301 0.098004
0.418503 0.117933 0.109356
0.470974 0.130041 0.119446
0.511967 0.139501 0.130420
0.538202 0.145555 0.142528
0.561410 0.151610 0.150601
0.581591 0.157664 0.154637
0.594961 0.161448 0.159808
0.603033 0.163466 0.165863
0.612367 0.168007 0.176962
0.622458 0.174061 0.191089
0.629773 0.177341 0.198278
0.635828 0.179359 0.202315
0.641882 0.184404 0.207864
0.647936 0.190458 0.213919
0.653990 0.196512 0.223252
0.660045 0.202567 0.233343
0.666099 0.206855 0.239902
0.672153 0.210891 0.245956
0.678208 0.216820 0.250118
0.684262 0.222874 0.254154
0.023587 0.023587 0.019676
0.028664 0.024563 0.020653
0.034060 0.025670 0.021760
0.044215 0.028729 0.024819
0.056169 0.032180 0.028522
0.080712 0.038364 0.036725
0.109417 0.045464 0.045464
0.156159 0.056531 0.056531
0.208141 0.068884 0.068624
0.275845 0.085094 0.083792
0.340579 0.100307 0.097027
0.398778 0.113327 0.106011
0.451314 0.125224 0.115410
0.494410 0.135249 0.125501
0.528307 0.143993 0.135107
0.550376 0.151089 0.144091
0.569938 0.156102 0.151121
0.586994 0.159031 0.156199
0.600755 0.162034 0.162998
0.611952 0.165094 0.171136
0.623109 0.170025 0.182365
0.634241 0.176079 0.195451
0.640450 0.180075 0.202315
0.644421 0.183134 0.206351
0.649954 0.190002 0.216588
0.656009 0.198140 0.228892
0.662063 0.205431 0.241936
0.668117 0.212527 0.255151
0.674171 0.218769 0.263012
0.680226 0.224888 0.270108
0.686280 0.230946 0.274335
0.692334 0.237001 0.278372
0.027370 0.027497 0.023587
0.033555 0.027497 0.023652
0.040150 0.027761 0.023973
0.052910 0.031993 0.028139
0.068436 0.036965 0.033307
0.103330 0.047120 0.045480
0.142361 0.057312 0.057288
0.199324 0.067663 0.067509
0.259590 0.079951 0.079178
0.329768 0.098049 0.095192
0.393009 0.113624 0.108115
0.440987 0.123649 0.114234
0.483571 0.132869 0.121745
0.517162 0.140746 0.131575
0.544004 0.148652 0.139782
0.562167 0.156594 0.145901
0.578312 0.160630 0.152053
0.592438 0.160760 0.158238
0.606565 0.163051 0.166546
0.620692 0.167022 0.176506
0.633557 0.172336 0.187891
0.645666 0.178455 0.200130
0.650971 0.183232 0.206863
0.653185 0.187398 0.211095
0.658377 0.195959 0.225873
0.664561 0.205985 0.244166
0.670534 0.214476 0.260607
0.676458 0.222614 0.276622
0.682439 0.230808 0.285972
0.688428 0.239011 0.294370
0.694357 0.245138 0.298557
0.700281 0.251127 0.302463
0.027370 0.029515 0.025605
0.035638 0.029515 0.026711
0.044838 0.029974 0.028139
0.068013 0.037331 0.034389
0.093825 0.045167 0.041509
0.138093 0.056364 0.054725
0.186109 0.068184 0.067769
0.250362 0.082701 0.080073
0.314274 0.097853 0.092784
0.377161 0.114910 0.106715
0.433110 0.129443 0.118531
0.473798 0.138427 0.125692
0.507528 0.145824 0.132291
0.529662 0.150576 0.137955
0.550058 0.155813 0.144274
0.568221 0.161672 0.151435
0.584366 0.165708 0.159149
0.598493 0.167921 0.167417
0.612619 0.170538 0.175465
0.626746 0.173467 0.183342
0.639612 0.179041 0.195247
0.651720 0.186202 0.209569
0.659174 0.192737 0.219102
0.664512 0.198986 0.226458
0.672048 0.207287 0.243580
0.680315 0.216270 0.263956
0.684986 0.225413 0.279096
0.688827 0.234592 0.293027
0.693636 0.244739 0.306674
0.698584 0.255025 0.320280
0.702494 0.260306 0.322839
0.706335 0.265254 0.324662
0.027623 0.031281 0.027623
0.037583 0.031411 0.029511
0.048955 0.032172 0.031801
0.081505 0.042392 0.040134
0.116936 0.052930 0.049273
0.172531 0.065690 0.064050
0.230849 0.079487 0.078657
0.300961 0.097780 0.092523
0.367249 0.115439 0.105885
0.422064 0.131193 0.117733
0.470144 0.144506 0.128320
0.503410 0.152448 0.136132
0.528889 0.158217 0.141869
0.541388 0.160366 0.144148
0.556194 0.163340 0.148790
0.573966 0.167376 0.156472
0.589916 0.171477 0.165228
0.604043 0.175644 0.175058
0.618316 0.178748 0.183130
0.632703 0.181027 0.189836
0.645666 0.186845 0.202278
0.657774 0.194787 0.218162
0.667287 0.202819 0.230332
0.675620 0.210891 0.240813
0.685271 0.219061 0.260083
0.695362 0.227264 0.282282
0.698682 0.236789 0.295224
0.700439 0.246619 0.306031
0.703849 0.258671 0.323388
0.707495 0.271040 0.341681
0.709858 0.275963 0.343313
0.712137 0.280390 0.343834
0.029641 0.031281 0.029641
0.038560 0.032452 0.030487
0.049085 0.034255 0.031932
0.083719 0.045517 0.042348
0.124097 0.057618 0.053960
0.204691 0.075585 0.073945
0.282538 0.093809 0.092393
0.348484 0.113144 0.104176
0.408262 0.130802 0.115455
0.449536 0.143432 0.125220
0.485703 0.154271 0.133724
0.510636 0.161171 0.139452
0.532079 0.166680 0.144668
0.547703 0.169870 0.149030
0.562899 0.173430 0.153477
0.577547 0.177467 0.158034
0.591934 0.182089 0.164186
0.606061 0.187297 0.171933
0.621506 0.192029 0.182024
0.637976 0.196390 0.193937
0.651720 0.202339 0.207030
0.663829 0.209240 0.220831
0.674774 0.216946 0.234498
0.685190 0.225018 0.248104
0.695362 0.233969 0.268155
0.705452 0.243214 0.290354
0.707080 0.251241 0.294834
0.706754 0.258988 0.295224
0.707169 0.272602 0.312191
0.707690 0.287054 0.331526
0.711811 0.295037 0.337128
0.716173 0.302589 0.341816
0.031281 0.032416 0.031659
0.039548 0.034239 0.031854
0.049618 0.036716 0.032794
0.086725 0.049020 0.044903
0.131685 0.062561 0.058525
0.231614 0.084760 0.082742
0.324829 0.106691 0.104347
0.388952 0.127458 0.114633
0.444417 0.145555 0.124268
0.473908 0.155646 0.131950
0.499675 0.164536 0.138370
0.517252 0.170786 0.142016
0.534902 0.176279 0.146418
0.552675 0.180510 0.152082
0.568054 0.184571 0.156407
0.580358 0.188412 0.159011
0.593476 0.193359 0.163047
0.607407 0.199413 0.168515
0.623719 0.205468 0.179660
0.641882 0.211522 0.195219
0.656383 0.217576 0.208743
0.668687 0.223631 0.221047
0.680856 0.230938 0.235454
0.692965 0.238815 0.250818
0.703560 0.248352 0.271308
0.713651 0.258443 0.293507
0.713903 0.265571 0.290635
0.711885 0.272016 0.281977
0.709696 0.286094 0.296673
0.707482 0.301262 0.314706
0.712471 0.311487 0.323217
0.717939 0.321382 0.331095
0.031281 0.038470 0.033677
0.040590 0.039251 0.034914
0.051897 0.040818 0.036830
0.093170 0.054163 0.048939
0.141125 0.068615 0.062561
0.235845 0.090814 0.086778
0.326391 0.113331 0.108579
0.398847 0.137223 0.119906
0.459521 0.157664 0.129801
0.484844 0.167755 0.135400
0.506771 0.176970 0.139737
0.521223 0.184261 0.141300
0.536139 0.190796 0.143619
0.551828 0.196069 0.147199
0.566492 0.200260 0.151720
0.579838 0.203059 0.157448
0.592955 0.207486 0.161485
0.605845 0.213540 0.163828
0.621701 0.219594 0.171848
0.639864 0.225649 0.184282
0.655016 0.231703 0.197286
0.668361 0.237757 0.210631
0.680856 0.244349 0.222500
0.692965 0.251184 0.233697
0.703560 0.260461 0.253145
0.713651 0.270552 0.275344
0.713903 0.279373 0.269933
0.711885 0.287901 0.258150
0.708784 0.297682 0.262430
0.705529 0.307642 0.269005
0.707523 0.316565 0.275825
0.709867 0.325419 0.282660
0.031785 0.045533 0.036704
0.041876 0.045273 0.038462
0.054078 0.045879 0.040834
0.097955 0.059485 0.052422
0.147602 0.074133 0.065588
0.237635 0.096071 0.089805
0.325447 0.119011 0.111752
0.403632 0.146288 0.123861
0.468472 0.169398 0.134016
0.493275 0.180010 0.138313
0.513948 0.189909 0.141186
0.525536 0.198242 0.140925
0.537881 0.205818 0.141617
0.551486 0.212132 0.143895
0.565206 0.216567 0.148253
0.579073 0.218585 0.155284
0.592320 0.222622 0.159190
0.604950 0.228676 0.159971
0.620399 0.234291 0.165403
0.638041 0.239564 0.174452
0.653649 0.245651 0.186837
0.668036 0.252226 0.201224
0.680856 0.258622 0.211807
0.692965 0.264937 0.220661
0.703365 0.273888 0.238937
0.713195 0.283718 0.260355
0.713821 0.293337 0.252682
0.712324 0.302906 0.238294
0.707922 0.307805 0.233135
0.703104 0.312036 0.229294
0.702803 0.319136 0.233021
0.702803 0.326428 0.237253
0.033803 0.055624 0.042758
0.043894 0.054322 0.043475
0.055966 0.053821 0.044740
0.097760 0.065344 0.054245
0.145193 0.078039 0.065588
0.232102 0.098936 0.089805
0.316984 0.121810 0.111752
0.393086 0.153254 0.123861
0.458967 0.180010 0.134277
0.494186 0.192704 0.139615
0.521370 0.204361 0.142878
0.530874 0.213735 0.141576
0.541136 0.222353 0.142008
0.552658 0.229709 0.145328
0.564751 0.234730 0.148448
0.577575 0.236748 0.151313
0.591344 0.240785 0.154698
0.606057 0.246839 0.158604
0.621245 0.250696 0.163059
0.636804 0.252844 0.167942
0.652282 0.259061 0.179416
0.667710 0.267720 0.194844
0.680856 0.275483 0.207901
0.692965 0.282839 0.219879
0.702584 0.291270 0.236594
0.711372 0.300058 0.254887
0.713496 0.307789 0.245781
0.714082 0.315275 0.230352
0.707206 0.313534 0.218683
0.699263 0.310474 0.207551
0.698767 0.314189 0.203987
0.698767 0.318355 0.200927
0.037713 0.070129 0.050705
0.047153 0.068762 0.051030
0.058342 0.067948 0.051698
0.095774 0.075435 0.057491
0.138960 0.084345 0.065385
0.222418 0.103224 0.087975
0.304351 0.125118 0.108599
0.379671 0.160077 0.120708
0.446675 0.189828 0.131303
0.488730 0.203954 0.137357
0.520979 0.217023 0.140889
0.531655 0.227765 0.138870
0.542234 0.237749 0.139001
0.552650 0.246473 0.142711
0.563949 0.252262 0.144799
0.576383 0.254281 0.144799
0.590510 0.258480 0.147663
0.606329 0.264859 0.153392
0.621379 0.268200 0.157216
0.635832 0.269176 0.159560
0.650935 0.275035 0.169716
0.666429 0.283824 0.184558
0.679595 0.291672 0.198685
0.691704 0.299094 0.212486
0.700541 0.306271 0.227069
0.708288 0.313367 0.241912
0.711909 0.320674 0.236073
0.714578 0.328031 0.225462
0.706652 0.321317 0.208869
0.697213 0.312594 0.191422
0.696928 0.313635 0.181849
0.697253 0.315328 0.172800
0.045786 0.094346 0.062813
0.053142 0.095062 0.064180
0.061792 0.095681 0.065369
0.089850 0.094834 0.063871
0.124313 0.095933 0.064734
0.203604 0.110646 0.082116
0.282542 0.129545 0.098508
0.359946 0.166587 0.110617
0.428252 0.197900 0.121212
0.469265 0.212027 0.127266
0.503402 0.225746 0.130798
0.522411 0.238571 0.128780
0.538589 0.250639 0.128520
0.550046 0.261446 0.131189
0.562387 0.268407 0.132690
0.575862 0.270425 0.132690
0.589989 0.275145 0.135034
0.604767 0.282567 0.139721
0.619947 0.288120 0.143676
0.635441 0.292222 0.147061
0.649633 0.296648 0.155003
0.663043 0.301271 0.165679
0.675559 0.306385 0.177788
0.687668 0.311723 0.190548
0.695724 0.316036 0.201745
0.702429 0.320007 0.212421
0.707547 0.330114 0.220189
0.712300 0.341637 0.227284
0.706457 0.333621 0.209260
0.699101 0.322815 0.187647
0.699923 0.322749 0.174883
0.701290 0.323400 0.162709
0.053101 0.119320 0.078706
0.059156 0.120948 0.079162
0.066121 0.122144 0.079210
0.086758 0.116871 0.073156
0.113962 0.113477 0.069087
0.187134 0.123242 0.078917
0.260758 0.137634 0.088882
0.336339 0.172071 0.099428
0.403799 0.201822 0.109047
0.446895 0.217511 0.115882
0.484580 0.233200 0.120195
0.510360 0.248889 0.118958
0.531598 0.263236 0.118795
0.545269 0.275344 0.120423
0.559311 0.283380 0.121509
0.573828 0.286180 0.121900
0.588345 0.291225 0.123918
0.602863 0.298516 0.127563
0.618515 0.305111 0.130989
0.635050 0.311166 0.134244
0.648819 0.314453 0.139778
0.660928 0.316081 0.146678
0.673036 0.319096 0.156354
0.685145 0.322741 0.167291
0.693006 0.325166 0.176079
0.699451 0.327184 0.184152
0.705578 0.337454 0.198836
0.711632 0.349628 0.215046
0.708801 0.343630 0.201350
0.704699 0.335037 0.183383
0.705603 0.333768 0.169382
0.706839 0.332986 0.155646
0.059156 0.145555 0.100905
0.065210 0.146141 0.097194
0.071915 0.146491 0.093337
0.088385 0.143301 0.087283
0.110772 0.140950 0.081782
0.174570 0.144465 0.080154
0.239015 0.151825 0.080028
0.306263 0.175847 0.086408
0.369296 0.198828 0.093423
0.419683 0.218683 0.102341
0.463683 0.238539 0.108737
0.493629 0.258394 0.109584
0.519034 0.275344 0.110332
0.536872 0.287453 0.110918
0.553712 0.296400 0.111874
0.569271 0.301283 0.113307
0.584830 0.306328 0.115325
0.600389 0.311536 0.117929
0.617083 0.317220 0.119727
0.634660 0.323274 0.120899
0.648819 0.325911 0.123698
0.660928 0.326497 0.127474
0.673036 0.328470 0.134025
0.685145 0.331074 0.141837
0.693787 0.333239 0.149844
0.701273 0.335257 0.157916
0.707596 0.341295 0.168369
0.713651 0.348261 0.179371
0.715376 0.349815 0.179607
0.716482 0.350596 0.178305
0.715758 0.347959 0.166322
0.714912 0.345095 0.153628
0.067859 0.178854 0.125753
0.074824 0.177943 0.119699
0.082152 0.176991 0.113644
0.094912 0.175428 0.107590
0.112651 0.174004 0.100942
0.165252 0.173548 0.090135
0.220062 0.175900 0.081086
0.284446 0.190417 0.079654
0.346356 0.206400 0.080875
0.400845 0.226776 0.090054
0.448397 0.247579 0.097137
0.480686 0.269323 0.099611
0.509289 0.287282 0.101499
0.531749 0.298935 0.102410
0.551246 0.308537 0.103407
0.566936 0.315503 0.104514
0.583536 0.321460 0.106304
0.601048 0.326407 0.108778
0.618413 0.331208 0.109860
0.635665 0.335896 0.109860
0.650272 0.338223 0.111406
0.663292 0.339134 0.113880
0.675685 0.340493 0.118502
0.687794 0.342056 0.124101
0.696875 0.343618 0.130530
0.704947 0.345181 0.137235
0.711010 0.348012 0.145051
0.716609 0.351137 0.153123
0.720441 0.356028 0.161196
0.724022 0.361171 0.169268
0.724062 0.359417 0.160557
0.723867 0.357204 0.150727
0.079967 0.221234 0.154006
0.089016 0.218240 0.147952
0.098102 0.215400 0.141898
0.107736 0.214879 0.135843
0.121049 0.214236 0.128414
0.160109 0.212739 0.111358
0.204699 0.212682 0.094887
0.273249 0.218866 0.080956
0.338284 0.227557 0.072281
0.392773 0.243767 0.079377
0.440324 0.261381 0.085354
0.472614 0.282082 0.088870
0.503170 0.299000 0.092190
0.530838 0.309612 0.095184
0.552809 0.319539 0.096442
0.567456 0.328588 0.095465
0.585098 0.336628 0.096735
0.605735 0.343659 0.100250
0.623296 0.347614 0.101788
0.638464 0.349176 0.101788
0.653592 0.351634 0.103985
0.668695 0.354628 0.107500
0.681739 0.355922 0.111732
0.693848 0.356443 0.116289
0.702929 0.356964 0.120114
0.711002 0.357484 0.123694
0.716218 0.358428 0.130924
0.720775 0.359470 0.138997
0.723566 0.362277 0.147069
0.726105 0.365337 0.155141
0.729987 0.367359 0.151313
0.733958 0.369312 0.146691
0.090058 0.266641 0.185287
0.101711 0.258439 0.175066
0.113205 0.250716 0.164943
0.122319 0.250196 0.156285
0.135436 0.249878 0.146056
0.176580 0.250985 0.124833
0.222373 0.252262 0.104197
0.288320 0.254281 0.086099
0.351532 0.258414 0.073518
0.406541 0.268896 0.077489
0.454288 0.281920 0.081481
0.486057 0.300538 0.085517
0.516092 0.315763 0.089163
0.543239 0.325333 0.092157
0.564234 0.334219 0.093187
0.577319 0.342227 0.091689
0.594440 0.350527 0.092698
0.615598 0.359120 0.096214
0.632507 0.363465 0.097752
0.646113 0.364507 0.097752
0.660330 0.366118 0.100274
0.674912 0.368071 0.104311
0.688152 0.369756 0.108347
0.700781 0.371318 0.112383
0.709993 0.371709 0.114906
0.718065 0.371709 0.116924
0.722858 0.371709 0.123861
0.726894 0.371709 0.131933
0.728709 0.373019 0.138639
0.730206 0.374516 0.145149
0.737441 0.379858 0.144640
0.745057 0.385457 0.143663
0.098130 0.315076 0.219594
0.112908 0.298540 0.201041
0.127462 0.282941 0.182780
0.138659 0.281378 0.168914
0.155813 0.280931 0.153868
0.214663 0.288287 0.130562
0.273086 0.294643 0.109014
0.329658 0.296661 0.095083
0.386100 0.298972 0.084585
0.442151 0.302162 0.084390
0.490288 0.309196 0.085517
0.521016 0.324690 0.089553
0.548057 0.337572 0.092418
0.568954 0.346100 0.093329
0.585522 0.352578 0.093642
0.596523 0.356418 0.093187
0.611562 0.363156 0.094196
0.630636 0.372791 0.096669
0.646048 0.378764 0.097752
0.658613 0.381889 0.097752
0.670485 0.381677 0.100274
0.681943 0.379464 0.104311
0.694922 0.381995 0.108347
0.708593 0.386682 0.112383
0.718065 0.387854 0.114906
0.726138 0.387854 0.116924
0.730931 0.387854 0.123861
0.734967 0.387854 0.131933
0.735870 0.388252 0.135904
0.736326 0.388708 0.139290
0.746424 0.396915 0.140539
0.757166 0.405638 0.141645
0.100527 0.364645 0.255037
0.121359 0.341535 0.232252
0.141902 0.319560 0.209296
0.158112 0.314612 0.183777
0.181572 0.311324 0.158128
0.255786 0.319657 0.131567
0.325923 0.326916 0.108046
0.378394 0.329520 0.097695
0.430116 0.331180 0.089574
0.479592 0.330008 0.088141
0.522700 0.332885 0.088418
0.551800 0.344668 0.092454
0.575480 0.354620 0.094537
0.590127 0.361521 0.093366
0.603550 0.366798 0.092963
0.615398 0.369988 0.093549
0.629525 0.376335 0.094851
0.645930 0.385840 0.096869
0.659919 0.391939 0.098081
0.672027 0.395389 0.098667
0.682875 0.394892 0.101410
0.692965 0.392028 0.105446
0.704219 0.394087 0.109079
0.716002 0.398383 0.112529
0.724563 0.399897 0.114466
0.732049 0.400483 0.115898
0.736733 0.400593 0.122250
0.740769 0.400593 0.129736
0.742811 0.401105 0.132438
0.744569 0.401691 0.134456
0.753834 0.409540 0.137023
0.763599 0.417873 0.139627
0.098508 0.415098 0.291363
0.127673 0.386779 0.267537
0.156484 0.359596 0.242563
0.179985 0.349440 0.200378
0.211518 0.341205 0.159625
0.299273 0.346413 0.128898
0.380412 0.351328 0.102577
0.432882 0.354974 0.095351
0.481480 0.356894 0.089834
0.518456 0.353639 0.089443
0.552321 0.353782 0.090436
0.579337 0.361399 0.094472
0.599372 0.367966 0.095774
0.607769 0.372783 0.092519
0.619044 0.377800 0.091400
0.634017 0.383073 0.093028
0.648144 0.389941 0.094851
0.661424 0.398404 0.096869
0.674045 0.403461 0.098667
0.686154 0.405870 0.100295
0.697001 0.406285 0.103428
0.707092 0.405504 0.107464
0.715481 0.406065 0.110381
0.723098 0.407237 0.112790
0.729836 0.408751 0.113685
0.736281 0.410378 0.114076
0.740769 0.410683 0.119385
0.744805 0.410683 0.125830
0.749582 0.412107 0.128402
0.754464 0.413735 0.130420
0.760018 0.418719 0.133964
0.765617 0.423927 0.137609
0.093968 0.466812 0.326428
0.131465 0.428077 0.296351
0.168503 0.391332 0.265291
0.198644 0.384432 0.219460
0.237761 0.378329 0.174102
0.339708 0.377808 0.132047
0.430547 0.377287 0.096987
0.473253 0.376766 0.092234
0.512866 0.375692 0.088833
0.543202 0.372958 0.089484
0.572868 0.373174 0.091193
0.601056 0.379879 0.095229
0.621432 0.385095 0.096971
0.628789 0.387829 0.094887
0.639990 0.392016 0.094598
0.656135 0.398070 0.096617
0.669285 0.404808 0.098635
0.679441 0.412229 0.100653
0.689596 0.415879 0.102305
0.699752 0.416595 0.103672
0.709460 0.416457 0.105893
0.718899 0.415806 0.108627
0.726907 0.417393 0.110869
0.734263 0.419997 0.112887
0.740154 0.421673 0.113880
0.745558 0.423040 0.114531
0.749321 0.423296 0.118515
0.752706 0.423296 0.123267
0.758427 0.425632 0.125627
0.764481 0.428301 0.127645
0.767423 0.432252 0.130945
0.770157 0.436288 0.134330
0.087913 0.519282 0.360735
0.133744 0.467007 0.321285
0.178984 0.418088 0.281696
0.215375 0.419521 0.240032
0.261783 0.419797 0.196366
0.378312 0.411985 0.138687
0.478070 0.404173 0.091323
0.505152 0.396361 0.088654
0.532266 0.390340 0.087075
0.559477 0.389689 0.088768
0.587971 0.391662 0.091193
0.619284 0.399409 0.095229
0.642395 0.404495 0.098142
0.651834 0.405146 0.099184
0.664207 0.408161 0.100653
0.680352 0.414215 0.102671
0.691940 0.420432 0.104689
0.698971 0.426812 0.106707
0.706001 0.428834 0.107773
0.713032 0.427467 0.108099
0.720917 0.425896 0.108627
0.729315 0.424204 0.109278
0.738429 0.428329 0.110869
0.747869 0.435100 0.112887
0.753500 0.437037 0.114661
0.757862 0.437362 0.116354
0.760584 0.437423 0.118840
0.762927 0.437423 0.121509
0.768518 0.440670 0.123609
0.774572 0.444381 0.125627
0.775561 0.448397 0.127950
0.776212 0.452433 0.130294
0.081859 0.564816 0.400593
0.141035 0.504012 0.353200
0.198998 0.447082 0.305799
0.238775 0.448254 0.258276
0.289162 0.448197 0.208873
0.413828 0.439539 0.146312
0.519282 0.431283 0.094969
0.541481 0.424773 0.092234
0.563257 0.418817 0.090509
0.583764 0.414520 0.091811
0.606162 0.413418 0.093744
0.632723 0.419342 0.097064
0.653913 0.423313 0.099896
0.666152 0.424029 0.101914
0.679473 0.426767 0.103932
0.694186 0.432105 0.105950
0.704927 0.437085 0.107968
0.711698 0.441708 0.109986
0.718065 0.443400 0.110869
0.724119 0.442814 0.110869
0.731435 0.441333 0.110869
0.739507 0.439315 0.110869
0.747983 0.443742 0.111764
0.756641 0.451098 0.113066
0.761833 0.452400 0.114906
0.765869 0.451684 0.116924
0.768265 0.452132 0.118942
0.770283 0.452848 0.120960
0.775207 0.456469 0.122978
0.780545 0.460505 0.124996
0.781550 0.463870 0.127014
0.782266 0.467190 0.129032
0.075805 0.607196 0.442973
0.150605 0.540143 0.388289
0.223346 0.477093 0.333401
0.265205 0.474099 0.275462
0.318066 0.470657 0.216946
0.447941 0.464082 0.154385
0.557626 0.458495 0.102846
0.579825 0.457193 0.099070
0.599518 0.453580 0.096303
0.611692 0.443034 0.096564
0.625757 0.436658 0.097455
0.643985 0.439458 0.099733
0.661139 0.441866 0.101914
0.676503 0.443624 0.103932
0.690670 0.446492 0.105950
0.703300 0.450789 0.107968
0.713520 0.454207 0.109986
0.721332 0.456746 0.112005
0.728156 0.458699 0.112887
0.734210 0.460196 0.112887
0.741526 0.459496 0.112887
0.749598 0.457478 0.112887
0.756641 0.461189 0.113066
0.763216 0.467503 0.113327
0.767887 0.467764 0.114906
0.771923 0.466006 0.116924
0.774320 0.467105 0.118942
0.776338 0.468862 0.120960
0.780350 0.472614 0.122978
0.784646 0.476650 0.124996
0.786563 0.479038 0.127014
0.788320 0.481317 0.129032
0.084886 0.635954 0.473244
0.165155 0.566557 0.414394
0.243201 0.501294 0.355145
0.287925 0.498039 0.289915
0.343553 0.494923 0.224823
0.475511 0.492774 0.160699
0.586596 0.490443 0.107989
0.607232 0.487318 0.104734
0.624647 0.481752 0.101902
0.632394 0.468862 0.100339
0.642277 0.459899 0.099896
0.656859 0.459573 0.101914
0.671734 0.460127 0.103639
0.687098 0.462145 0.104876
0.700354 0.464704 0.106455
0.710900 0.467959 0.108473
0.719819 0.470986 0.110491
0.727110 0.473786 0.112509
0.733705 0.475267 0.113392
0.739760 0.475722 0.113392
0.746587 0.475608 0.113392
0.753878 0.475153 0.113392
0.760319 0.478098 0.113392
0.766373 0.482590 0.113392
0.770914 0.482786 0.114320
0.774950 0.481549 0.115557
0.777982 0.482957 0.117428
0.780781 0.484975 0.119446
0.784662 0.488075 0.120781
0.788699 0.491330 0.122018
0.790843 0.492693 0.123987
0.792861 0.493930 0.126005
0.099013 0.660171 0.499480
0.181365 0.589733 0.437505
0.261560 0.523559 0.374935
0.309408 0.521345 0.303455
0.367900 0.519791 0.232635
0.500900 0.522851 0.166428
0.612440 0.523970 0.112220
0.630994 0.516678 0.110007
0.646065 0.507727 0.107435
0.650687 0.493796 0.103790
0.657770 0.483140 0.101914
0.670270 0.479689 0.103932
0.683452 0.478290 0.105267
0.697774 0.480308 0.105462
0.709533 0.482411 0.106455
0.717996 0.484625 0.108473
0.725352 0.487652 0.110491
0.731602 0.491493 0.112509
0.737742 0.492258 0.113392
0.743796 0.490630 0.113392
0.749972 0.491037 0.113392
0.756222 0.492665 0.113392
0.762337 0.494829 0.113392
0.768392 0.497238 0.113392
0.772932 0.497694 0.113538
0.776968 0.497498 0.113734
0.780846 0.499101 0.115410
0.784687 0.501119 0.117428
0.788699 0.503308 0.117851
0.792735 0.505522 0.118047
0.794879 0.505843 0.119951
0.796897 0.506039 0.121969
0.121338 0.684388 0.520796
0.202388 0.611216 0.454850
0.281452 0.542438 0.388114
0.330732 0.539573 0.309538
0.390185 0.537677 0.232566
0.520841 0.542560 0.166815
0.630087 0.545013 0.113014
0.646557 0.536941 0.110995
0.659707 0.527778 0.108684
0.662897 0.515344 0.105495
0.668081 0.505005 0.103668
0.677650 0.499276 0.104839
0.688611 0.496770 0.105572
0.701892 0.499634 0.105572
0.712524 0.502128 0.106455
0.719750 0.504147 0.108473
0.725967 0.505904 0.110068
0.731175 0.507402 0.111240
0.737335 0.507874 0.111752
0.744235 0.507548 0.111752
0.751665 0.508687 0.112281
0.759412 0.510705 0.113128
0.765413 0.512142 0.112810
0.770621 0.513313 0.111964
0.774950 0.514241 0.112387
0.778987 0.515087 0.113233
0.783023 0.517573 0.114344
0.787059 0.520438 0.115516
0.791095 0.521821 0.116403
0.795131 0.522993 0.117249
0.797276 0.523066 0.119194
0.799294 0.523066 0.121212
0.145555 0.708605 0.540977
0.224522 0.632308 0.470864
0.301698 0.560535 0.399767
0.352020 0.556629 0.313900
0.411993 0.553952 0.230678
0.539524 0.559876 0.165968
0.645841 0.563176 0.113014
0.660228 0.555104 0.110995
0.671555 0.546462 0.108945
0.673704 0.536111 0.106797
0.677195 0.526553 0.105360
0.683639 0.518741 0.105490
0.692257 0.515323 0.105572
0.704496 0.519229 0.105572
0.714086 0.522309 0.106455
0.720270 0.524328 0.108473
0.725446 0.524523 0.109547
0.729612 0.522895 0.109677
0.735903 0.523172 0.109734
0.743845 0.524930 0.109734
0.752967 0.526850 0.110914
0.762797 0.528868 0.112802
