其他预设/【236】赛博朋克风调色预设/【后期菌】视频调色预设/CUBE/Miami 09.cube
# LUT by SparkleStock. Enhanced with VOXCOLOR algorithms.
LUT_3D_SIZE 8
DOMAIN_MIN 0.000000 0.000000 0.000000
DOMAIN_MAX 0.903226 0.903226 0.903226
0.070381 0.011730 0.015640
0.102671 0.015640 0.035191
0.163971 0.024974 0.048939
0.333113 0.065462 0.078706
0.555860 0.127266 0.150727
0.685019 0.162835 0.191341
0.750481 0.178980 0.214171
0.789077 0.197269 0.228550
0.086022 0.032290 0.035443
0.144555 0.032810 0.051856
0.299212 0.060576 0.077412
0.528693 0.126965 0.150475
0.681422 0.163088 0.196574
0.754362 0.183143 0.224945
0.799672 0.203002 0.241570
0.824255 0.213780 0.251758
0.086022 0.066597 0.044524
0.159523 0.064831 0.068994
0.422503 0.113713 0.118502
0.608514 0.161448 0.177593
0.710632 0.185543 0.210896
0.767924 0.209325 0.236785
0.798134 0.222540 0.246574
0.798838 0.228700 0.228070
0.091445 0.139627 0.071895
0.152655 0.127576 0.079162
0.363046 0.144982 0.099294
0.573185 0.176775 0.158042
0.684136 0.196683 0.190080
0.746453 0.220864 0.209638
0.775243 0.231325 0.213540
0.796804 0.249268 0.215233
0.107590 0.294012 0.096112
0.189779 0.292511 0.097190
0.313444 0.288340 0.083881
0.505876 0.290399 0.100067
0.630774 0.276134 0.124207
0.703918 0.282461 0.146996
0.759513 0.298414 0.161033
0.799469 0.316077 0.166444
0.103049 0.514742 0.163718
0.288104 0.445845 0.107301
0.449910 0.454923 0.110186
0.582214 0.448978 0.107195
0.665973 0.422552 0.108526
0.730804 0.426828 0.114246
0.778010 0.422051 0.116041
0.813107 0.425567 0.121652
0.112509 0.729543 0.280768
0.371107 0.613669 0.133280
0.556788 0.601829 0.113197
0.643989 0.598578 0.107212
0.706286 0.590546 0.099985
0.754045 0.573738 0.096096
0.791050 0.571879 0.104058
0.821619 0.557984 0.108851
0.171538 0.846593 0.406521
0.446403 0.708947 0.149604
0.623796 0.698844 0.107716
0.700570 0.699776 0.102292
0.743873 0.688074 0.086148
0.778482 0.671018 0.079776
0.805474 0.662673 0.080724
0.833056 0.679713 0.086990
0.082616 0.015893 0.036200
0.110507 0.019567 0.055481
0.162990 0.024941 0.062842
0.367974 0.068615 0.110869
0.581022 0.126005 0.168133
0.706750 0.154844 0.204369
0.778075 0.170180 0.237041
0.825277 0.187077 0.258052
0.082600 0.037428 0.048451
0.160082 0.040409 0.077175
0.329943 0.068803 0.115267
0.552823 0.123688 0.173383
0.711807 0.162714 0.227379
0.793017 0.179173 0.268135
0.830280 0.190540 0.290230
0.862772 0.204026 0.312445
0.086559 0.075931 0.073945
0.127643 0.075978 0.106172
0.513730 0.125252 0.187643
0.690524 0.164487 0.242624
0.784211 0.187257 0.290883
0.833659 0.204174 0.321572
0.871775 0.220741 0.360350
0.889953 0.234935 0.365639
0.098305 0.166717 0.115170
0.119708 0.196593 0.158400
0.335851 0.179855 0.170663
0.648297 0.204355 0.211699
0.739579 0.227642 0.242869
0.781791 0.254175 0.263386
0.808074 0.271528 0.270946
0.834237 0.300679 0.276624
0.106516 0.341059 0.184538
0.123909 0.410876 0.248894
0.287153 0.381382 0.170047
0.495695 0.354479 0.126425
0.658462 0.320426 0.133826
0.725398 0.326987 0.149823
0.773926 0.341775 0.151712
0.802842 0.352942 0.153049
0.105230 0.589997 0.297202
0.131883 0.634320 0.345296
0.389400 0.553155 0.172300
0.591360 0.498296 0.115092
0.674407 0.482336 0.112456
0.735168 0.489409 0.114236
0.779711 0.481696 0.113699
0.814775 0.482948 0.122412
0.125317 0.762211 0.418154
0.203386 0.765955 0.373053
0.492731 0.661729 0.164924
0.661918 0.636829 0.115457
0.714411 0.627422 0.101273
0.756936 0.618528 0.097027
0.792884 0.614357 0.100328
0.820339 0.600907 0.102347
0.200146 0.853139 0.484116
0.360903 0.812567 0.347616
0.589843 0.737849 0.152049
0.708218 0.722320 0.112548
0.757912 0.719630 0.098893
0.787385 0.703715 0.085301
0.813037 0.702759 0.084032
0.840795 0.717630 0.093096
0.090941 0.020055 0.065084
0.118913 0.019770 0.078327
0.186483 0.025413 0.108225
0.387597 0.072062 0.153709
0.609084 0.122347 0.204601
0.738372 0.156618 0.260734
0.814486 0.173443 0.306373
0.861151 0.185767 0.341946
0.093150 0.051116 0.089651
0.143458 0.041399 0.117402
0.349669 0.069625 0.164145
0.596049 0.127379 0.228257
0.749520 0.163242 0.299288
0.826975 0.180719 0.349009
0.871893 0.199344 0.390047
0.899253 0.207768 0.410867
0.087844 0.089484 0.122160
0.125512 0.100372 0.181503
0.507637 0.118859 0.262055
0.727300 0.165505 0.320398
0.828077 0.191853 0.381675
0.876892 0.208222 0.420418
0.904348 0.221808 0.444993
0.931766 0.240026 0.460952
0.093996 0.196203 0.214533
0.113894 0.242339 0.286110
0.254092 0.253056 0.392897
0.770246 0.212431 0.393650
0.856804 0.227182 0.427339
0.891540 0.254322 0.454342
0.918734 0.286783 0.481109
0.903766 0.320827 0.420154
0.097247 0.388435 0.313009
0.113774 0.471876 0.413472
0.158147 0.521764 0.467018
0.495051 0.446953 0.317545
0.740284 0.339946 0.241564
0.780936 0.360394 0.239984
0.817698 0.388837 0.247486
0.830506 0.401186 0.203514
0.100600 0.632353 0.436882
0.133144 0.673881 0.496220
0.219837 0.709637 0.522563
0.521562 0.620907 0.230075
0.677623 0.526587 0.114926
0.733954 0.527196 0.112171
0.779487 0.530063 0.114617
0.808506 0.524787 0.120638
0.142964 0.782380 0.521288
0.212563 0.801268 0.542327
0.347434 0.800341 0.497643
0.634598 0.712320 0.203998
0.727473 0.665196 0.113167
0.765002 0.653716 0.101515
0.790315 0.640634 0.095223
0.819208 0.635378 0.098380
0.242628 0.863116 0.558460
0.354595 0.861879 0.531902
0.537018 0.814889 0.370187
0.700270 0.767706 0.171202
0.773946 0.747904 0.114451
0.799924 0.738527 0.100246
0.818567 0.736200 0.091485
0.847931 0.745231 0.111772
0.098508 0.027370 0.112383
0.132719 0.020511 0.130953
0.207470 0.028575 0.154889
0.429518 0.074312 0.226890
0.649621 0.127071 0.284804
0.784638 0.160817 0.349754
0.855337 0.174606 0.401472
0.898701 0.185124 0.440556
0.097499 0.057060 0.171530
0.133851 0.057469 0.247697
0.372408 0.068598 0.288399
0.640725 0.128085 0.329118
0.786828 0.163100 0.385259
0.865013 0.179957 0.441708
0.911727 0.199614 0.488547
0.935637 0.204781 0.497074
0.093744 0.106174 0.247876
0.120865 0.128013 0.358248
0.329569 0.127753 0.472586
0.758803 0.163163 0.441683
0.865945 0.186229 0.485464
0.909136 0.202311 0.516733
0.941494 0.225895 0.543553
0.956600 0.245025 0.548376
0.084361 0.244674 0.385750
0.103137 0.292849 0.468535
0.255131 0.311820 0.579557
0.750251 0.236624 0.529158
0.881738 0.236728 0.544799
0.924977 0.262347 0.558477
0.953039 0.297955 0.584259
0.961197 0.335479 0.582096
0.079772 0.463325 0.497860
0.110328 0.521699 0.559164
0.171796 0.580369 0.607761
0.396389 0.561564 0.610074
0.847407 0.401150 0.534917
0.887789 0.398391 0.513065
0.912594 0.429573 0.511501
0.915177 0.461424 0.482361
0.104689 0.680629 0.576066
0.167684 0.725122 0.622903
0.253241 0.754144 0.639427
0.380987 0.762597 0.603816
0.686671 0.645886 0.296997
0.771815 0.548614 0.178317
0.795785 0.558116 0.157385
0.823742 0.559082 0.167709
0.162620 0.804087 0.607831
0.256137 0.820833 0.622636
0.363878 0.824938 0.610746
0.524806 0.826546 0.568339
0.725786 0.739275 0.229352
0.776607 0.687731 0.114246
0.798137 0.671788 0.103568
0.823094 0.664209 0.102852
0.275450 0.869728 0.615972
0.394923 0.876890 0.622835
0.516900 0.868478 0.588020
0.683346 0.847069 0.458093
0.784335 0.780095 0.166478
0.817338 0.767065 0.118088
0.837835 0.764313 0.118539
0.863868 0.780342 0.164033
0.105572 0.031281 0.226532
0.146064 0.025666 0.276594
0.285297 0.031146 0.312065
0.483058 0.064681 0.358957
0.694857 0.117168 0.390494
0.828650 0.149665 0.457962
0.896403 0.163100 0.506620
0.939397 0.174411 0.545566
0.092711 0.063513 0.342646
0.116089 0.067265 0.435245
0.389795 0.069060 0.478109
0.698029 0.113606 0.455064
0.826475 0.141998 0.505766
0.896283 0.162964 0.539850
0.936243 0.177769 0.576823
0.960008 0.191927 0.597463
0.091445 0.130163 0.477622
0.117484 0.149348 0.571598
0.226219 0.170192 0.645630
0.719227 0.141454 0.579796
0.889860 0.171210 0.585711
0.925813 0.194625 0.604512
0.955646 0.220801 0.620625
0.971931 0.244612 0.627211
0.083820 0.278005 0.572074
0.122943 0.332829 0.646079
0.211509 0.367398 0.689216
0.498904 0.349913 0.684360
0.880050 0.257866 0.628069
0.935959 0.277513 0.636141
0.955296 0.313505 0.644232
0.970931 0.356954 0.650906
0.078588 0.501591 0.633541
0.128908 0.554360 0.672091
0.213911 0.612060 0.691944
0.427160 0.593959 0.686677
0.790223 0.506856 0.650223
0.897723 0.444255 0.614243
0.929053 0.456708 0.613512
0.941667 0.493323 0.616846
0.124093 0.713569 0.676926
0.193113 0.743941 0.696518
0.298318 0.769034 0.690259
0.423353 0.782150 0.684842
0.630250 0.765519 0.654296
0.801686 0.652331 0.391180
0.829984 0.597325 0.302680
0.848782 0.606776 0.287775
0.203348 0.828039 0.677349
0.305055 0.836833 0.673769
0.431757 0.842364 0.672966
0.547252 0.842374 0.654409
0.677547 0.845190 0.619668
0.794179 0.773230 0.304794
0.816893 0.698179 0.142674
0.832002 0.699213 0.131083
0.323083 0.876555 0.665489
0.432231 0.882434 0.662655
0.547686 0.881408 0.658220
0.668265 0.877410 0.608806
0.779444 0.871955 0.525155
0.832336 0.823912 0.248629
0.852053 0.791886 0.168937
0.882308 0.812132 0.259118
0.100274 0.032542 0.431369
0.132662 0.034100 0.517126
0.322123 0.042307 0.516609
0.579191 0.055144 0.523856
0.751404 0.094871 0.525609
0.858409 0.120891 0.561972
0.920742 0.136946 0.600511
0.960994 0.150283 0.632170
0.095266 0.053984 0.543426
0.126598 0.055739 0.642037
0.379474 0.066369 0.651161
0.711369 0.089346 0.610486
0.854990 0.119877 0.599233
0.908812 0.138521 0.628481
0.945198 0.158795 0.646631
0.971581 0.176409 0.663185
0.106654 0.125883 0.668028
0.146620 0.147893 0.720229
0.236906 0.186109 0.752708
0.692783 0.173973 0.686507
0.895705 0.164559 0.659377
0.934455 0.194631 0.673833
0.956659 0.221503 0.681845
0.975520 0.256694 0.685279
0.104380 0.286696 0.719721
0.167552 0.335913 0.740607
0.259311 0.387669 0.752023
0.448475 0.421472 0.747591
0.846963 0.329932 0.704677
0.932433 0.304530 0.685301
0.953543 0.345681 0.690798
0.969384 0.383863 0.692192
0.113445 0.525483 0.723342
0.189651 0.574949 0.738216
0.315158 0.616280 0.741577
0.443951 0.643361 0.737388
0.665619 0.623578 0.721034
0.887454 0.515300 0.684719
0.938445 0.502138 0.683148
0.950195 0.534515 0.682167
0.168231 0.733201 0.728941
0.260368 0.741628 0.728986
0.382438 0.764578 0.728977
0.503272 0.777948 0.721644
0.658753 0.773123 0.714644
0.794278 0.758805 0.683803
0.889476 0.687987 0.642722
0.914120 0.671796 0.625264
0.271056 0.835335 0.721361
0.378204 0.839692 0.719193
0.490323 0.844369 0.711999
0.594024 0.850848 0.706539
0.690186 0.852469 0.693682
0.785774 0.848455 0.648127
0.849441 0.780607 0.367191
0.874678 0.745220 0.327597
0.376551 0.886133 0.698767
0.486346 0.890531 0.693193
0.585691 0.884196 0.683968
0.683530 0.885597 0.678919
0.761328 0.891561 0.666107
0.836038 0.882514 0.565040
0.873972 0.852410 0.390646
0.897817 0.842552 0.372485
0.102545 0.020433 0.637215
0.150011 0.020531 0.698022
0.387040 0.045224 0.676796
0.677878 0.060921 0.649832
0.792723 0.071240 0.638753
0.887223 0.094961 0.662079
0.940605 0.114320 0.688009
0.975426 0.133825 0.695488
0.098944 0.041440 0.711901
0.155829 0.045475 0.770676
0.284365 0.067260 0.797333
0.692524 0.111804 0.724577
0.880767 0.114870 0.692141
0.922544 0.132360 0.703125
0.955196 0.158917 0.711555
0.978903 0.184398 0.715420
0.120227 0.127116 0.783023
0.180803 0.149937 0.803388
0.292868 0.199213 0.821946
0.651526 0.218898 0.766510
0.867518 0.205768 0.734556
0.936884 0.216893 0.724661
0.958402 0.245587 0.727330
0.978363 0.274448 0.722855
0.148745 0.304383 0.791807
0.238543 0.363130 0.800517
0.344725 0.412356 0.793984
0.476344 0.448580 0.785688
0.813084 0.388648 0.757746
0.923378 0.357628 0.725925
0.949946 0.388065 0.724562
0.964731 0.420571 0.724537
0.178765 0.538292 0.777347
0.292647 0.580791 0.780810
0.401597 0.619877 0.773621
0.523367 0.652660 0.765361
0.653247 0.667041 0.758325
0.862754 0.587776 0.728437
0.934808 0.551017 0.714534
0.945648 0.570393 0.709375
0.242721 0.722195 0.766341
0.359300 0.746639 0.764279
0.477535 0.758584 0.755762
0.576644 0.774829 0.748583
0.672715 0.783779 0.742327
0.767606 0.783189 0.729017
0.894943 0.723651 0.703289
0.929970 0.706723 0.695521
0.347870 0.830196 0.754643
0.447159 0.835714 0.743686
0.553042 0.839591 0.736216
0.643034 0.845268 0.726826
0.720230 0.851977 0.722343
0.788171 0.856002 0.711760
0.859606 0.855269 0.659535
0.906102 0.806735 0.573896
0.447221 0.891675 0.731110
0.536203 0.887221 0.718998
0.632600 0.888911 0.714245
0.710428 0.889099 0.708428
0.774309 0.896242 0.709879
0.824281 0.899617 0.702272
0.879785 0.898506 0.627211
0.909530 0.881725 0.543645
0.126510 0.009964 0.774067
0.196740 0.011730 0.809030
0.386657 0.036729 0.789305
0.714379 0.067155 0.727582
0.841820 0.078531 0.726642
0.903856 0.096421 0.736729
0.952258 0.114421 0.743890
0.982815 0.131425 0.748800
0.128239 0.025719 0.830082
0.202499 0.038943 0.857503
0.336621 0.076611 0.852857
0.692855 0.124402 0.786673
0.888718 0.135925 0.752913
0.936236 0.153392 0.755018
0.961149 0.183886 0.757166
0.979873 0.203957 0.753542
0.161676 0.118563 0.862160
0.244757 0.157609 0.867695
0.357780 0.204909 0.859541
0.523867 0.259039 0.833164
0.836702 0.258224 0.789997
0.941135 0.250755 0.760209
0.960358 0.286163 0.763655
0.975049 0.319206 0.756897
0.214586 0.326896 0.841657
0.316474 0.365745 0.837993
0.424347 0.419685 0.824642
0.541401 0.469003 0.807816
0.774265 0.463619 0.789392
0.905150 0.431702 0.766052
0.948619 0.435966 0.749409
0.962406 0.459761 0.748248
0.283156 0.549322 0.814100
0.391452 0.583113 0.800460
0.498599 0.622071 0.791893
0.597689 0.657490 0.784638
0.678219 0.668313 0.781144
0.848048 0.634734 0.764277
0.921689 0.609972 0.742398
0.950275 0.614077 0.736781
0.346853 0.713903 0.789390
0.461636 0.728705 0.782852
0.565241 0.745520 0.774006
0.643014 0.759036 0.769364
0.716950 0.777348 0.764973
0.777604 0.786738 0.757793
0.883536 0.763772 0.739466
0.938075 0.739573 0.732192
0.430791 0.817078 0.774698
0.530147 0.822686 0.766695
0.616350 0.829850 0.757616
0.690532 0.840341 0.751500
0.749723 0.844865 0.746571
0.798316 0.856578 0.738112
0.855923 0.864837 0.727648
0.923085 0.838309 0.707188
0.517358 0.882540 0.753675
0.603190 0.883976 0.744805
0.677103 0.886088 0.737039
0.736716 0.886357 0.730922
0.791141 0.890574 0.729798
0.836060 0.896879 0.732293
0.880175 0.907959 0.719918
0.917336 0.910615 0.693674
