其他预设/【236】赛博朋克风调色预设/【后期菌】视频调色预设/CUBE/Miami 09.cube
# LUT by SparkleStock. Enhanced with VOXCOLOR algorithms.
LUT_3D_SIZE 5
DOMAIN_MIN 0.000000 0.000000 0.000000
DOMAIN_MAX 0.903226 0.903226 0.903226
0.070381 0.011730 0.015640
0.141267 0.020433 0.042380
0.456973 0.100022 0.120455
0.711254 0.166872 0.203450
0.789077 0.197269 0.228550
0.086022 0.056507 0.041497
0.339468 0.085167 0.096743
0.662604 0.169610 0.195809
0.779349 0.205728 0.240138
0.807073 0.227952 0.236582
0.099518 0.203197 0.079967
0.263415 0.192350 0.078201
0.594741 0.219302 0.144453
0.734776 0.242912 0.186642
0.798557 0.275617 0.197920
0.099013 0.581339 0.187936
0.442896 0.471946 0.105613
0.643318 0.480133 0.105824
0.748967 0.459118 0.113921
0.814018 0.455838 0.116704
0.171538 0.846593 0.406521
0.600344 0.695899 0.107716
0.727989 0.697612 0.094220
0.786554 0.671018 0.078865
0.833056 0.679713 0.086990
0.089932 0.019550 0.058020
0.156863 0.023460 0.088923
0.487103 0.099139 0.158494
0.752222 0.160817 0.253019
0.851890 0.184856 0.317957
0.086949 0.073616 0.096787
0.377711 0.095272 0.194231
0.754352 0.171101 0.308411
0.867653 0.205125 0.391030
0.914736 0.227199 0.425908
0.099607 0.271630 0.225954
0.155438 0.370685 0.342947
0.738477 0.261401 0.289678
0.823105 0.303492 0.319453
0.837630 0.349371 0.274870
0.104311 0.660850 0.428728
0.229955 0.719381 0.469165
0.659683 0.570011 0.118092
0.751261 0.557907 0.104122
0.812916 0.549238 0.116769
0.232228 0.859584 0.541534
0.494373 0.814228 0.372727
0.742144 0.738320 0.113970
0.803384 0.732510 0.095559
0.845362 0.740291 0.105802
0.102545 0.028253 0.154889
0.202750 0.026199 0.205903
0.578881 0.099623 0.311788
0.826208 0.159397 0.414248
0.920485 0.182028 0.495570
0.092959 0.098655 0.329780
0.216795 0.117276 0.512939
0.826123 0.162156 0.493402
0.922603 0.194299 0.556090
0.963407 0.230414 0.581037
0.075658 0.365109 0.530878
0.154210 0.475133 0.631747
0.770042 0.359529 0.612579
0.932472 0.340353 0.611037
0.965103 0.410475 0.624307
0.128715 0.738828 0.648380
0.267473 0.782160 0.663762
0.498505 0.796062 0.625492
0.780942 0.610443 0.184334
0.816834 0.607424 0.150350
0.298801 0.872975 0.638537
0.493090 0.877889 0.644526
0.739522 0.851692 0.461515
0.829254 0.778409 0.134698
0.872703 0.797125 0.208336
0.104311 0.034560 0.495948
0.266104 0.040582 0.587438
0.702742 0.067041 0.562781
0.885620 0.117505 0.594912
0.967048 0.147354 0.652351
0.106849 0.099518 0.677516
0.228645 0.138837 0.756822
0.836407 0.146389 0.669010
0.943033 0.185068 0.687530
0.976069 0.236870 0.694182
0.124382 0.403811 0.740171
0.279352 0.495251 0.761307
0.550566 0.540531 0.747848
0.929626 0.409999 0.697552
0.960904 0.467584 0.699288
0.204231 0.761454 0.733303
0.402407 0.791241 0.736428
0.601695 0.807824 0.724406
0.806567 0.787921 0.676102
0.915567 0.714649 0.633563
0.392370 0.891276 0.704821
0.566765 0.887138 0.693022
0.725192 0.890478 0.685362
0.844383 0.886825 0.592559
0.901941 0.851301 0.399787
0.126510 0.009964 0.774067
0.315552 0.025027 0.798305
0.797422 0.071370 0.723615
0.917983 0.101759 0.738942
0.982815 0.131425 0.748800
0.148037 0.085444 0.859523
0.316748 0.150186 0.865345
0.738410 0.227762 0.799899
0.946663 0.233353 0.759636
0.977242 0.286947 0.757865
0.246733 0.444088 0.830700
0.436618 0.518801 0.808155
0.615957 0.577974 0.790166
0.897384 0.524310 0.758363
0.956514 0.540710 0.742316
0.367424 0.748211 0.786461
0.555116 0.767609 0.773775
0.691406 0.790608 0.762876
0.794564 0.812973 0.751690
0.938075 0.764896 0.728156
0.517358 0.882540 0.753675
0.659945 0.885632 0.738646
0.765338 0.888728 0.729656
0.847669 0.897291 0.732792
0.917336 0.910615 0.693674
