其他预设/【236】赛博朋克风调色预设/【后期菌】视频调色预设/CUBE/Miami 04_S.cube
# LUT by SparkleStock. Enhanced with VOXCOLOR algorithms.
LUT_3D_SIZE 32
0.019550 0.003910 0.007820
0.023587 0.005928 0.015893
0.027749 0.007820 0.023713
0.033803 0.007820 0.027749
0.040614 0.007820 0.031533
0.052723 0.007820 0.033551
0.068237 0.009334 0.035569
0.098508 0.017406 0.037587
0.138366 0.025479 0.040110
0.206981 0.033551 0.044146
0.283795 0.044146 0.045660
0.378646 0.060291 0.041623
0.482578 0.076436 0.039857
0.601646 0.092580 0.041876
0.689812 0.106959 0.043894
0.738246 0.119068 0.045912
0.774572 0.128149 0.050957
0.798789 0.134204 0.059029
0.816195 0.137988 0.070507
0.828304 0.140006 0.084634
0.837890 0.145808 0.100022
0.845962 0.153880 0.116167
0.849872 0.157790 0.126762
0.851890 0.159808 0.134834
0.855422 0.164854 0.144420
0.859458 0.170908 0.154511
0.861855 0.178602 0.164601
0.863873 0.186674 0.174692
0.867657 0.189449 0.184782
0.871693 0.191467 0.194873
0.871945 0.197269 0.197395
0.871945 0.203324 0.199413
0.019550 0.005928 0.013874
0.026711 0.006905 0.020905
0.033933 0.007885 0.027749
0.042071 0.008927 0.031785
0.051486 0.010229 0.035699
0.069844 0.013354 0.038759
0.092780 0.017406 0.041623
0.135550 0.025479 0.043641
0.188167 0.034593 0.045383
0.270324 0.046831 0.046294
0.359702 0.059965 0.046311
0.464969 0.075068 0.044358
0.562521 0.089390 0.043112
0.647216 0.102410 0.043047
0.710579 0.114120 0.046628
0.746514 0.124146 0.054896
0.775028 0.131665 0.064628
0.796120 0.136677 0.075825
0.810987 0.140592 0.087498
0.821013 0.143651 0.099542
0.831119 0.149193 0.114800
0.841275 0.156224 0.131986
0.847268 0.160524 0.142191
0.851370 0.163584 0.149221
0.855422 0.170452 0.160109
0.859458 0.178590 0.172283
0.863547 0.184982 0.186149
0.867649 0.190971 0.200406
0.870782 0.196220 0.210106
0.873776 0.201362 0.219155
0.873963 0.206383 0.219660
0.873963 0.211396 0.219594
0.019676 0.007946 0.019803
0.029702 0.008011 0.025857
0.039756 0.008199 0.031785
0.050237 0.010217 0.035821
0.062549 0.012756 0.039874
0.087677 0.018940 0.044040
0.118470 0.025503 0.047779
0.173805 0.033706 0.049667
0.239198 0.043910 0.050579
0.334765 0.060120 0.048561
0.435905 0.075679 0.047214
0.549310 0.089805 0.047344
0.639498 0.102394 0.046717
0.690992 0.112420 0.044829
0.730438 0.121534 0.049948
0.754395 0.129476 0.064075
0.775325 0.135465 0.078201
0.793227 0.139501 0.092328
0.805637 0.143501 0.104184
0.813774 0.147472 0.114275
0.824434 0.152786 0.129533
0.836608 0.158905 0.147891
0.844664 0.163637 0.157835
0.850849 0.167738 0.163954
0.855569 0.176234 0.176275
0.859800 0.186194 0.190662
0.865407 0.191447 0.207746
0.871331 0.195613 0.225453
0.873837 0.203254 0.234958
0.875855 0.211392 0.243291
0.875981 0.215623 0.241981
0.875981 0.219594 0.240028
0.021695 0.009964 0.023839
0.030678 0.011071 0.029893
0.040146 0.012235 0.035821
0.056877 0.014253 0.039857
0.076480 0.017052 0.044170
0.116191 0.025320 0.050420
0.161371 0.033966 0.055461
0.230246 0.044252 0.055266
0.308659 0.056279 0.054615
0.415684 0.073530 0.052597
0.516564 0.089805 0.051901
0.603929 0.103932 0.054114
0.671982 0.116130 0.055571
0.707853 0.125114 0.055766
0.736688 0.132731 0.062057
0.756478 0.138590 0.076183
0.773241 0.143537 0.090310
0.786978 0.147574 0.104437
0.798150 0.150987 0.116293
0.807329 0.153917 0.126384
0.819031 0.159491 0.143594
0.832246 0.166652 0.165077
0.842060 0.172425 0.176714
0.850328 0.177568 0.183875
0.857912 0.184762 0.199580
0.865268 0.192639 0.218134
0.869768 0.199194 0.230076
0.873609 0.205443 0.240492
0.875855 0.214256 0.252730
0.877873 0.223435 0.265230
0.878000 0.226755 0.265156
0.878000 0.229685 0.264245
0.023460 0.012487 0.027623
0.031533 0.014375 0.033547
0.040496 0.016279 0.039369
0.062826 0.018427 0.043666
0.089346 0.021617 0.048418
0.145201 0.032098 0.056360
0.206159 0.042958 0.062411
0.289227 0.055457 0.060262
0.380042 0.069340 0.058212
0.494097 0.087372 0.056454
0.591958 0.104103 0.056507
0.654194 0.117969 0.060543
0.701221 0.129614 0.064067
0.722899 0.137556 0.066736
0.741871 0.143790 0.074133
0.757365 0.147826 0.087608
0.770157 0.151927 0.101344
0.780248 0.156094 0.115341
0.790558 0.159198 0.127580
0.801039 0.161476 0.138451
0.813799 0.167213 0.157094
0.827925 0.175025 0.180400
0.839367 0.181718 0.193502
0.849587 0.187903 0.201965
0.859808 0.193990 0.220827
0.870029 0.200044 0.243157
0.873691 0.207632 0.249459
0.875839 0.215575 0.252063
0.877873 0.225283 0.266401
0.879892 0.235243 0.282416
0.880140 0.238124 0.283661
0.880270 0.240532 0.283921
0.023460 0.018541 0.029641
0.031533 0.019388 0.034523
0.040561 0.020380 0.039499
0.063932 0.023570 0.045879
0.094749 0.028062 0.052324
0.177686 0.041668 0.059225
0.264164 0.055652 0.064233
0.365980 0.071276 0.061043
0.464867 0.087242 0.058732
0.554965 0.104233 0.059058
0.630498 0.119597 0.060543
0.673984 0.131380 0.064579
0.707731 0.141332 0.070056
0.725242 0.148233 0.077933
0.739593 0.153880 0.085981
0.749879 0.157916 0.094249
0.760067 0.162538 0.104860
0.770157 0.167746 0.117815
0.782225 0.172478 0.133113
0.795831 0.176840 0.150235
0.809763 0.182056 0.166664
0.823889 0.187785 0.182679
0.836047 0.194543 0.195650
0.847309 0.201769 0.207238
0.858571 0.208117 0.227663
0.869834 0.214171 0.251034
0.874537 0.220913 0.248222
0.877727 0.227813 0.239369
0.879892 0.236480 0.251363
0.881910 0.245398 0.266336
0.883134 0.251144 0.269469
0.884306 0.256677 0.271813
0.023460 0.024596 0.032037
0.031338 0.024791 0.036074
0.040297 0.025214 0.040386
0.065491 0.029055 0.048849
0.100506 0.034409 0.056962
0.204276 0.050359 0.062626
0.311194 0.066907 0.066288
0.431759 0.086046 0.061275
0.539402 0.104437 0.058167
0.608278 0.120581 0.060771
0.663971 0.134773 0.063639
0.690662 0.144668 0.067090
0.712422 0.153270 0.073640
0.725963 0.159715 0.085358
0.736313 0.165106 0.093972
0.742563 0.169142 0.098594
0.750831 0.174090 0.106666
0.761117 0.179949 0.118189
0.774588 0.185917 0.135607
0.790538 0.191972 0.157611
0.805592 0.196643 0.172169
0.820109 0.200484 0.182260
0.832971 0.207099 0.194454
0.845079 0.214976 0.207604
0.857481 0.221779 0.229201
0.869980 0.228224 0.253613
0.875603 0.234193 0.242799
0.879639 0.240052 0.223854
0.881739 0.247506 0.231284
0.883562 0.255188 0.242481
0.885384 0.263053 0.247148
0.887207 0.270930 0.251380
0.023460 0.030650 0.036074
0.030296 0.031887 0.040110
0.038604 0.033221 0.044553
0.069006 0.036021 0.055099
0.107797 0.040334 0.064774
0.205317 0.055241 0.068355
0.310673 0.071919 0.069348
0.449987 0.096267 0.059127
0.569348 0.118563 0.052894
0.628850 0.134708 0.058623
0.675494 0.148574 0.062663
0.693852 0.157428 0.062988
0.709232 0.166160 0.066805
0.719648 0.174688 0.076440
0.728697 0.181251 0.085248
0.735988 0.185287 0.092995
0.745297 0.189714 0.101068
0.756625 0.194531 0.109466
0.769966 0.200044 0.124931
0.784874 0.206098 0.145893
0.800840 0.210118 0.160061
0.817440 0.212918 0.170151
0.830953 0.218492 0.178765
0.843061 0.225327 0.186707
0.857025 0.233432 0.207783
0.871608 0.241960 0.233237
0.877621 0.247474 0.219232
0.881657 0.252291 0.196122
0.882845 0.257792 0.189360
0.883627 0.263391 0.184933
0.884408 0.270149 0.189600
0.885189 0.276984 0.194873
0.023460 0.038722 0.041623
0.029775 0.040220 0.045920
0.037791 0.041766 0.050656
0.071317 0.044044 0.061983
0.112094 0.047739 0.072147
0.203625 0.061345 0.074165
0.306409 0.077697 0.073058
0.457962 0.105950 0.058411
0.585721 0.131372 0.049053
0.642098 0.148298 0.055563
0.684559 0.162620 0.059733
0.696407 0.171213 0.058757
0.706644 0.180270 0.061271
0.714196 0.190100 0.069604
0.722089 0.197281 0.078250
0.730422 0.201057 0.087299
0.740773 0.205093 0.095241
0.753142 0.209390 0.102077
0.766353 0.214382 0.115687
0.780219 0.219916 0.134566
0.796608 0.223578 0.148115
0.814511 0.226117 0.158466
0.828967 0.231072 0.164833
0.841857 0.237127 0.169390
0.856797 0.245622 0.189229
0.872421 0.254932 0.214163
0.878630 0.259956 0.197310
0.882666 0.263993 0.170814
0.882943 0.267801 0.152008
0.882683 0.271577 0.134301
0.883155 0.277245 0.137406
0.883675 0.283039 0.141898
0.023460 0.052849 0.051714
0.030817 0.052263 0.057052
0.039613 0.051921 0.062569
0.070015 0.055241 0.070772
0.107407 0.059587 0.078201
0.193729 0.071110 0.080219
0.290916 0.085769 0.078722
0.435177 0.114023 0.061991
0.561374 0.140225 0.049509
0.633374 0.160276 0.049769
0.686252 0.177397 0.050945
0.697058 0.188074 0.054135
0.705863 0.198042 0.059644
0.711331 0.206831 0.069018
0.718509 0.212971 0.076427
0.727883 0.215705 0.081310
0.739276 0.219741 0.088731
0.752686 0.225079 0.098692
0.765767 0.229355 0.110739
0.778592 0.232806 0.124410
0.793939 0.236988 0.136657
0.810800 0.241610 0.148050
0.827079 0.247217 0.156175
0.843094 0.253272 0.162815
0.857253 0.259423 0.179269
0.870794 0.265608 0.198994
0.876612 0.270047 0.180319
0.880648 0.274083 0.152782
0.880014 0.276980 0.128377
0.878712 0.279714 0.104420
0.881071 0.284341 0.101275
0.883675 0.289093 0.099518
0.023460 0.068868 0.061174
0.031207 0.067501 0.065926
0.040093 0.066349 0.070699
0.066068 0.068432 0.075776
0.098732 0.071476 0.080350
0.178219 0.081241 0.081391
0.268301 0.094533 0.079015
0.404295 0.123112 0.061829
0.527871 0.150096 0.047604
0.614194 0.172295 0.042266
0.678016 0.191341 0.040285
0.692338 0.203450 0.045688
0.703292 0.214289 0.052605
0.708630 0.223012 0.062044
0.716047 0.228944 0.068379
0.726138 0.231288 0.070723
0.737921 0.235650 0.077298
0.751396 0.242030 0.088105
0.764469 0.246139 0.098508
0.777229 0.248483 0.108599
0.792308 0.252739 0.119747
0.808778 0.258142 0.131530
0.825741 0.263321 0.140539
0.842927 0.268399 0.148286
0.856305 0.272207 0.161843
0.868414 0.275593 0.177336
0.874757 0.280829 0.162575
0.879769 0.286493 0.140832
0.878630 0.288397 0.112538
0.876612 0.289764 0.083308
0.880270 0.294244 0.073669
0.884306 0.298931 0.065336
0.023460 0.089049 0.069246
0.030166 0.089765 0.069832
0.037620 0.090176 0.070503
0.056303 0.086009 0.072456
0.081285 0.083454 0.073905
0.150357 0.092178 0.071822
0.230023 0.104819 0.067492
0.355601 0.134440 0.053431
0.474229 0.162205 0.040508
0.572009 0.184404 0.031004
0.647940 0.203450 0.025507
0.675803 0.215558 0.028827
0.696782 0.227179 0.033661
0.706286 0.237985 0.041017
0.716047 0.245545 0.046636
0.726138 0.248930 0.050021
0.736879 0.254333 0.055034
0.748272 0.261755 0.061674
0.761605 0.266906 0.070255
0.776448 0.270291 0.080346
0.792959 0.273636 0.090843
0.810471 0.276956 0.101584
0.825610 0.279336 0.109551
0.839672 0.281289 0.116256
0.852269 0.282754 0.127991
0.864377 0.284056 0.141401
0.873259 0.293133 0.143175
0.881397 0.304005 0.142264
0.880648 0.304737 0.113840
0.878630 0.304021 0.081485
0.882288 0.310324 0.064815
0.886324 0.317094 0.049191
0.023460 0.110743 0.079589
0.028734 0.111980 0.076008
0.034511 0.112708 0.072603
0.047857 0.105808 0.071822
0.066671 0.100632 0.070682
0.123763 0.107533 0.067037
0.191012 0.118449 0.061585
0.302267 0.146768 0.048304
0.412726 0.173654 0.035219
0.520792 0.196244 0.022720
0.608392 0.216291 0.014635
0.650967 0.230743 0.016263
0.682997 0.244023 0.019111
0.697449 0.255351 0.023993
0.711018 0.263659 0.028164
0.723452 0.268086 0.031419
0.734910 0.273945 0.034869
0.745391 0.281236 0.038515
0.758838 0.286696 0.045127
0.774592 0.290733 0.054045
0.791852 0.293263 0.062964
0.810015 0.294891 0.071883
0.824821 0.296205 0.078832
0.838101 0.297377 0.084886
0.850796 0.298549 0.094602
0.863295 0.299720 0.105539
0.873203 0.309514 0.117111
0.882512 0.321297 0.128829
0.882935 0.322713 0.107452
0.882089 0.322648 0.081347
0.885087 0.328747 0.060429
0.888342 0.335257 0.039857
0.023460 0.134960 0.093716
0.026650 0.134114 0.085969
0.030345 0.133085 0.078527
0.041607 0.129309 0.075662
0.056775 0.126477 0.072831
0.099286 0.130253 0.070227
0.150780 0.137654 0.065035
0.241204 0.160764 0.048630
0.338121 0.184005 0.032941
0.454520 0.207636 0.019400
0.553057 0.230352 0.010274
0.612298 0.251054 0.010859
0.657087 0.267459 0.011885
0.677789 0.276703 0.013643
0.697607 0.284296 0.015144
0.716291 0.289764 0.016316
0.731394 0.295102 0.018204
0.742917 0.300310 0.020808
0.756234 0.304859 0.025206
0.770947 0.308895 0.031000
0.787816 0.310775 0.036794
0.805979 0.311361 0.042588
0.822933 0.314498 0.048561
0.839338 0.318795 0.054615
0.853595 0.323091 0.061987
0.867136 0.327388 0.069799
0.875546 0.332689 0.079939
0.882772 0.338223 0.090615
0.885669 0.343415 0.088247
0.887948 0.348558 0.084016
0.889189 0.351076 0.063489
0.890360 0.353420 0.041876
0.021695 0.166241 0.111374
0.023713 0.162856 0.099916
0.026235 0.159613 0.088894
0.036326 0.158506 0.084402
0.048988 0.157505 0.079935
0.079650 0.157245 0.075638
0.118038 0.160646 0.068998
0.189909 0.179916 0.052202
0.273400 0.200423 0.035732
0.391751 0.224640 0.020238
0.495700 0.248572 0.009301
0.567961 0.271878 0.008390
0.624769 0.289984 0.007820
0.655821 0.299423 0.007820
0.683599 0.307581 0.007421
0.707165 0.314091 0.006510
0.726142 0.319592 0.006835
0.740529 0.324084 0.008398
0.755026 0.328063 0.010839
0.769608 0.331644 0.013964
0.786428 0.333271 0.017374
0.804591 0.333727 0.020954
0.822441 0.337405 0.025609
0.840148 0.342548 0.030752
0.855512 0.348716 0.035895
0.870094 0.355226 0.041037
0.878118 0.357346 0.049830
0.884628 0.358453 0.059465
0.888973 0.366053 0.067334
0.893009 0.374581 0.074950
0.893261 0.375114 0.059741
0.893261 0.375114 0.043011
0.017658 0.206603 0.133573
0.019676 0.200093 0.118991
0.022199 0.194051 0.104974
0.032290 0.195027 0.099440
0.043910 0.195198 0.093410
0.066239 0.189730 0.083906
0.094928 0.188509 0.073620
0.151174 0.205696 0.059949
0.221385 0.224640 0.045041
0.333487 0.248857 0.026422
0.435743 0.272138 0.012686
0.516337 0.293361 0.009692
0.584211 0.311337 0.007820
0.630888 0.323901 0.007820
0.668821 0.334272 0.006510
0.695512 0.341824 0.003515
0.718655 0.348366 0.002278
0.738250 0.353900 0.002799
0.755612 0.357749 0.003613
0.771236 0.360288 0.004655
0.788446 0.362176 0.006632
0.806609 0.363673 0.009171
0.823743 0.366244 0.012068
0.840408 0.369304 0.015128
0.856293 0.375733 0.018187
0.871917 0.383284 0.021247
0.880982 0.383907 0.028803
0.888534 0.382930 0.037396
0.893009 0.391182 0.044223
0.897045 0.400751 0.050798
0.897298 0.401350 0.047242
0.897298 0.401350 0.043011
0.015640 0.251001 0.160817
0.018700 0.236679 0.138423
0.022232 0.223378 0.116920
0.032843 0.225397 0.108782
0.044984 0.226544 0.100278
0.067834 0.221596 0.089211
0.095286 0.220701 0.078144
0.142679 0.237367 0.067077
0.206509 0.256181 0.053602
0.319653 0.281439 0.032900
0.424090 0.304460 0.016918
0.509371 0.322558 0.011319
0.581933 0.339167 0.007820
0.633297 0.353294 0.007820
0.673638 0.363632 0.006054
0.699809 0.369101 0.002018
0.723733 0.375383 0.000000
0.745411 0.382479 0.000000
0.763977 0.386425 0.000000
0.780122 0.387923 0.000000
0.796877 0.390071 0.001261
0.813998 0.392610 0.003279
0.830090 0.395507 0.005656
0.845714 0.398567 0.008194
0.860557 0.405386 0.010733
0.875139 0.413458 0.013272
0.884855 0.413755 0.019884
0.893449 0.412258 0.027436
0.897143 0.419533 0.032766
0.900138 0.428061 0.037778
0.902278 0.432012 0.040472
0.904361 0.435657 0.043011
0.015640 0.299436 0.193107
0.020783 0.272614 0.158213
0.026333 0.247596 0.124732
0.037986 0.249614 0.112428
0.052210 0.251542 0.100539
0.084435 0.252844 0.091555
0.119113 0.257222 0.082571
0.164422 0.274929 0.073587
0.228774 0.295045 0.061414
0.350250 0.322387 0.039670
0.460741 0.345539 0.021996
0.547064 0.359470 0.013272
0.617933 0.373475 0.007820
0.663048 0.387601 0.007820
0.698051 0.395661 0.006054
0.720055 0.395922 0.002018
0.741375 0.400642 0.000000
0.762012 0.409821 0.000000
0.780122 0.414093 0.000000
0.796267 0.414549 0.000000
0.811720 0.416957 0.001261
0.826758 0.420538 0.003279
0.841483 0.425192 0.006372
0.856065 0.430335 0.009952
0.868304 0.437675 0.013533
0.879761 0.445748 0.017113
0.889738 0.446891 0.023074
0.899373 0.446435 0.029584
0.901375 0.451106 0.032961
0.902286 0.456510 0.035890
0.908202 0.467101 0.039430
0.914451 0.478037 0.043011
0.015640 0.345600 0.221991
0.021109 0.314482 0.180457
0.027285 0.285105 0.140307
0.044081 0.281850 0.120907
0.064123 0.279287 0.102557
0.106894 0.281566 0.091555
0.151398 0.287701 0.081322
0.203413 0.310551 0.074422
0.271947 0.334459 0.064136
0.390038 0.361541 0.043694
0.498161 0.384127 0.026121
0.584354 0.396821 0.014859
0.651700 0.408515 0.007600
0.687635 0.418540 0.007015
0.717190 0.424578 0.005175
0.738543 0.425489 0.001725
0.759017 0.430697 0.000000
0.778612 0.440202 0.000000
0.796267 0.445679 0.000330
0.812411 0.448022 0.000915
0.825830 0.451058 0.002396
0.837613 0.454508 0.004415
0.850605 0.459346 0.007015
0.864145 0.464814 0.009879
0.875099 0.470478 0.013622
0.885189 0.476206 0.017658
0.894803 0.478709 0.023334
0.904308 0.480466 0.029389
0.906009 0.483705 0.031911
0.906595 0.487155 0.033929
0.912551 0.497319 0.037839
0.918866 0.507931 0.041876
0.015640 0.389998 0.248226
0.020067 0.360963 0.204609
0.025788 0.332954 0.161920
0.050916 0.320325 0.133146
0.079682 0.309168 0.105942
0.133911 0.308322 0.089732
0.190263 0.313481 0.075658
0.255819 0.344664 0.070841
0.331383 0.374301 0.062899
0.436976 0.399299 0.045582
0.536180 0.420778 0.029507
0.621331 0.434514 0.016161
0.683729 0.444124 0.007210
0.708207 0.446859 0.005582
0.732228 0.451074 0.003613
0.755664 0.457193 0.001204
0.776659 0.464484 0.000000
0.795213 0.472947 0.000000
0.812411 0.480312 0.000915
0.828556 0.486822 0.002543
0.839371 0.490769 0.004415
0.846988 0.493177 0.006433
0.857961 0.496973 0.007600
0.870460 0.501400 0.008382
0.881153 0.503679 0.011604
0.891243 0.505241 0.015640
0.900011 0.509501 0.021316
0.908474 0.514384 0.027370
0.910956 0.517101 0.029893
0.912584 0.519510 0.031911
0.915676 0.523750 0.035821
0.918866 0.528112 0.039857
0.018163 0.438180 0.274462
0.021548 0.406672 0.227459
0.026650 0.376286 0.181336
0.057508 0.362745 0.148395
0.093532 0.350563 0.116651
0.165728 0.347894 0.093280
0.237265 0.351426 0.073046
0.305946 0.381828 0.066406
0.381706 0.410846 0.057715
0.478705 0.435714 0.042872
0.570252 0.457836 0.028864
0.649804 0.473916 0.016690
0.708556 0.484942 0.008325
0.732643 0.487546 0.006307
0.756787 0.491973 0.004573
0.781005 0.498743 0.003206
0.801218 0.506490 0.002523
0.817428 0.515214 0.002523
0.832869 0.521740 0.003292
0.847712 0.526557 0.004659
0.856655 0.529625 0.006026
0.862058 0.531643 0.007393
0.870729 0.536391 0.008715
0.880884 0.542381 0.010017
0.889038 0.543878 0.013370
0.896525 0.543878 0.017406
0.904487 0.546152 0.022024
0.912560 0.548952 0.026776
0.915334 0.551637 0.030276
0.917353 0.554306 0.033596
0.919981 0.558196 0.036977
0.922650 0.562167 0.040362
0.022199 0.488632 0.300697
0.024543 0.451916 0.249528
0.028929 0.416909 0.199434
0.063953 0.407534 0.165452
0.106357 0.398868 0.131754
0.200427 0.395157 0.100051
0.289150 0.396671 0.072265
0.354705 0.420823 0.061458
0.426560 0.445414 0.050164
0.517309 0.471324 0.037404
0.601955 0.495138 0.025804
0.673175 0.514343 0.016755
0.729063 0.528885 0.010343
0.759400 0.535655 0.008325
0.787059 0.541514 0.007047
0.811276 0.546201 0.006722
0.829927 0.553427 0.006559
0.843012 0.563192 0.006559
0.855914 0.567245 0.006742
0.868674 0.566854 0.007067
0.876185 0.567969 0.007393
0.880547 0.569987 0.007718
0.886743 0.576884 0.010147
0.893774 0.585998 0.013533
0.898022 0.588276 0.017406
0.901342 0.588276 0.021442
0.908523 0.586319 0.024368
0.916596 0.583910 0.027037
0.919371 0.586856 0.032098
0.921389 0.590567 0.037502
0.924994 0.597451 0.040036
0.928704 0.604547 0.042380
0.030398 0.533535 0.336644
0.030984 0.495907 0.278445
0.034116 0.460037 0.221425
0.075455 0.450533 0.182105
0.125045 0.441891 0.143053
0.232395 0.439287 0.105881
0.331859 0.441736 0.073543
0.397155 0.466083 0.062150
0.467072 0.490366 0.050579
0.550856 0.514453 0.038470
0.628109 0.536872 0.027623
0.690996 0.555620 0.019550
0.742946 0.570365 0.013480
0.776667 0.578438 0.010746
0.804664 0.585058 0.009208
0.825301 0.589810 0.009208
0.843106 0.596157 0.009208
0.858079 0.604099 0.009208
0.870232 0.608453 0.009208
0.880193 0.610015 0.009208
0.886898 0.610520 0.009655
0.891650 0.610390 0.010371
0.897298 0.616302 0.013370
0.903352 0.624960 0.017406
0.906379 0.626587 0.020368
0.908397 0.625871 0.022972
0.914171 0.625367 0.025682
0.920811 0.624911 0.028416
0.924033 0.625879 0.033429
0.926768 0.627051 0.038767
0.929380 0.634692 0.040993
0.931984 0.642765 0.043011
0.040488 0.575915 0.377006
0.038991 0.539329 0.310474
0.040626 0.504305 0.245187
0.089256 0.492717 0.198575
0.146398 0.482513 0.152623
0.263122 0.481992 0.111284
0.370399 0.486720 0.075756
0.436736 0.514192 0.065405
0.505611 0.540037 0.054615
0.582104 0.560999 0.042506
0.651740 0.580619 0.031659
0.706294 0.597284 0.023587
0.753817 0.610727 0.017125
0.789622 0.618800 0.013350
0.816513 0.625875 0.011226
0.831941 0.631669 0.011226
0.849225 0.636975 0.011226
0.868365 0.641792 0.011226
0.880583 0.647708 0.011226
0.887419 0.654479 0.011226
0.893603 0.654983 0.012324
0.899397 0.651728 0.014082
0.905370 0.655231 0.017406
0.911424 0.661807 0.021442
0.914451 0.662132 0.022842
0.916470 0.660374 0.023363
0.920551 0.663906 0.026528
0.925108 0.668658 0.030304
0.928981 0.666632 0.034536
0.932757 0.663637 0.038832
0.933481 0.671018 0.040993
0.934002 0.679091 0.043011
0.052092 0.607700 0.406773
0.049293 0.576062 0.335814
0.050164 0.545790 0.265970
0.106085 0.536025 0.212849
0.169801 0.527383 0.160972
0.288088 0.526602 0.117811
0.397122 0.530825 0.080704
0.466063 0.556735 0.069832
0.534678 0.580627 0.058456
0.602317 0.598464 0.045566
0.665216 0.616261 0.034670
0.717687 0.633968 0.028160
0.763224 0.647769 0.022577
0.797206 0.655061 0.018541
0.823185 0.661811 0.016613
0.838874 0.667865 0.017394
0.855247 0.673301 0.017394
0.872303 0.678118 0.016613
0.883610 0.683448 0.015832
0.890446 0.689177 0.015050
0.897281 0.689779 0.016019
0.904117 0.687305 0.018037
0.910415 0.689621 0.021979
0.916470 0.694112 0.026797
0.919497 0.693722 0.028001
0.921515 0.691704 0.028001
0.924538 0.694975 0.030646
0.927793 0.699467 0.033901
0.931048 0.697864 0.037839
0.934303 0.695390 0.041876
0.935239 0.700606 0.044752
0.936020 0.706335 0.047551
0.064201 0.635954 0.433009
0.060360 0.610565 0.358925
0.060710 0.586348 0.285760
0.123922 0.579707 0.226389
0.193888 0.573669 0.168914
0.311133 0.571846 0.124711
0.419907 0.574638 0.086563
0.491973 0.597423 0.074649
0.560588 0.618190 0.062232
0.618853 0.632902 0.048300
0.675307 0.649202 0.037339
0.727777 0.668992 0.032912
0.772143 0.683705 0.028632
0.803000 0.689954 0.024596
0.828133 0.696118 0.023123
0.845905 0.702173 0.024946
0.861236 0.708129 0.024946
0.874126 0.713988 0.023123
0.884196 0.718016 0.021300
0.892073 0.720620 0.019477
0.899950 0.721353 0.020055
0.907828 0.720962 0.022073
0.914451 0.722496 0.026732
0.920506 0.724905 0.032591
0.923533 0.723993 0.034055
0.925551 0.721975 0.034055
0.927728 0.723554 0.035854
0.929941 0.725963 0.038067
0.932155 0.725922 0.041876
0.934368 0.725531 0.045912
0.936215 0.727948 0.049765
0.938038 0.730552 0.053606
0.079589 0.662567 0.460884
0.075553 0.638350 0.377751
0.076228 0.615374 0.295871
0.147578 0.611012 0.232789
0.224957 0.607367 0.171831
0.344546 0.608734 0.125741
0.453906 0.613848 0.086339
0.518941 0.635201 0.075923
0.581209 0.654113 0.064791
0.635177 0.665700 0.051510
0.687354 0.678916 0.041119
0.735593 0.695711 0.037083
0.776142 0.708797 0.033681
0.803875 0.715697 0.031338
0.827791 0.722227 0.030532
0.846800 0.728282 0.031704
0.861936 0.733067 0.031281
0.873198 0.736582 0.029262
0.883619 0.739731 0.027720
0.893384 0.742596 0.026549
0.902091 0.744728 0.027370
0.910163 0.746420 0.029389
0.916848 0.747173 0.033018
0.922902 0.747498 0.037380
0.925929 0.747336 0.039105
0.927948 0.747010 0.039951
0.931341 0.750652 0.043812
0.935052 0.755209 0.048369
0.936541 0.755038 0.052471
0.937713 0.754192 0.056507
0.938884 0.755237 0.059750
0.940056 0.756409 0.062939
0.095734 0.688803 0.489137
0.091697 0.664586 0.395588
0.092894 0.641739 0.303748
0.172576 0.639461 0.237542
0.257637 0.638159 0.173589
0.380351 0.643692 0.125415
0.490492 0.651997 0.084711
0.546152 0.672308 0.076379
0.600608 0.689657 0.067069
0.651452 0.698120 0.054830
0.699853 0.707885 0.045155
0.742885 0.720515 0.041119
0.779007 0.731386 0.038499
0.803615 0.739328 0.038238
0.826229 0.746445 0.038149
0.846280 0.752499 0.038279
0.861415 0.755721 0.037335
0.871636 0.756112 0.035317
0.882772 0.758480 0.034361
0.894620 0.762386 0.034230
0.904109 0.766211 0.035443
0.912181 0.769986 0.037461
