其他预设/【236】赛博朋克风调色预设/【后期菌】视频调色预设/CUBE/Miami 02_S.cube
# LUT by SparkleStock. Enhanced with VOXCOLOR algorithms.
LUT_3D_SIZE 5
DOMAIN_MIN 0.000000 0.000000 0.000000
DOMAIN_MAX 0.903226 0.903226 0.903226
0.023460 0.007820 0.011730
0.150222 0.040867 0.099770
0.634692 0.088670 0.142528
0.861729 0.123861 0.217829
0.910668 0.173430 0.286822
0.044524 0.083247 0.092580
0.429770 0.127096 0.165041
0.715705 0.173430 0.169016
0.834460 0.211514 0.242298
0.917405 0.277680 0.283055
0.080850 0.242677 0.232208
0.233892 0.231162 0.132889
0.628260 0.284406 0.053061
0.802052 0.317692 0.073787
0.907242 0.350393 0.136726
0.112131 0.574780 0.461766
0.315621 0.387776 0.124247
0.697807 0.482814 0.051335
0.849693 0.511539 0.049570
0.916059 0.548545 0.077823
0.212783 0.802195 0.673793
0.430612 0.646581 0.165252
0.731626 0.692062 0.083584
0.864251 0.745908 0.079304
0.917483 0.789158 0.110739
0.046921 0.036074 0.098004
0.148798 0.055921 0.185954
0.598729 0.083194 0.236443
0.836511 0.115552 0.340925
0.913894 0.171665 0.476882
0.068237 0.129879 0.179196
0.377973 0.154441 0.283094
0.637126 0.186166 0.312930
0.781181 0.211307 0.370364
0.917711 0.271934 0.522040
0.117355 0.330696 0.352931
0.184145 0.409279 0.407446
0.623494 0.353306 0.279995
0.770283 0.379873 0.305154
0.903429 0.422983 0.329735
0.155890 0.641394 0.595372
0.243417 0.711645 0.642192
0.641959 0.575649 0.105564
0.808002 0.623227 0.097602
0.903935 0.658330 0.135155
0.283982 0.823027 0.751238
0.406453 0.802622 0.603705
0.734003 0.735041 0.130985
0.857673 0.792824 0.127360
0.905573 0.833618 0.196459
0.073030 0.084760 0.227415
0.170277 0.078706 0.321041
0.644563 0.102650 0.384123
0.847081 0.132295 0.522688
0.921828 0.205635 0.659434
0.120402 0.204532 0.385766
0.226402 0.246788 0.529627
0.666335 0.203747 0.500506
0.803082 0.242404 0.570937
0.918541 0.325585 0.698516
0.164349 0.427776 0.589224
0.237746 0.538654 0.645695
0.603411 0.422346 0.568675
0.772481 0.414263 0.570707
0.897095 0.451536 0.603989
0.251489 0.723741 0.721613
0.349337 0.766624 0.758277
0.476203 0.770237 0.715782
0.796825 0.674544 0.272872
0.899568 0.686679 0.294069
0.364747 0.837869 0.789980
0.505175 0.853892 0.811764
0.695801 0.822571 0.638132
0.829512 0.826081 0.244453
0.896266 0.850617 0.369150
0.122600 0.140889 0.465046
0.225767 0.144656 0.569458
0.706888 0.143806 0.581245
0.878101 0.195532 0.690569
0.925962 0.277778 0.782583
0.197151 0.303093 0.652139
0.301997 0.385887 0.730469
0.773280 0.287262 0.715862
0.874064 0.334946 0.768918
0.918456 0.398367 0.814023
0.245500 0.572908 0.752690
0.365510 0.663130 0.793601
0.561530 0.662606 0.811220
0.845009 0.504837 0.788231
0.895153 0.504283 0.771377
0.368027 0.775178 0.814808
0.509378 0.805965 0.835329
0.643226 0.824927 0.848845
0.774456 0.759077 0.782105
0.893256 0.696475 0.745297
0.497942 0.846723 0.834171
0.611708 0.857713 0.844294
0.724456 0.870753 0.858254
0.817675 0.864988 0.757832
0.898007 0.862562 0.591761
0.202188 0.206098 0.676316
0.318441 0.253491 0.739109
0.759204 0.214045 0.748357
0.878126 0.287111 0.796140
0.917519 0.351947 0.844994
0.297389 0.425180 0.787144
0.426950 0.508242 0.826582
0.685616 0.478333 0.844551
0.884256 0.420382 0.838152
0.913314 0.464840 0.857454
0.382703 0.671523 0.834737
0.546054 0.715533 0.864255
0.681335 0.733364 0.878411
0.859616 0.612720 0.874399
0.903597 0.605146 0.886571
0.516288 0.804591 0.869899
0.639524 0.816766 0.879189
0.735265 0.830521 0.886099
0.808445 0.840795 0.903067
0.906768 0.758187 0.899011
0.623267 0.862192 0.872535
0.709879 0.872056 0.880971
0.782325 0.881989 0.890341
0.851863 0.892879 0.904536
0.916901 0.902113 0.889802
