其他预设/【236】赛博朋克风调色预设/【后期菌】视频调色预设/CUBE/Miami 08_S.cube
# LUT by SparkleStock. Enhanced with VOXCOLOR algorithms.
LUT_3D_SIZE 32
0.000000 0.000000 0.003910
0.022199 0.004036 0.024091
0.044272 0.008072 0.044020
0.064453 0.012109 0.060165
0.085391 0.016397 0.076057
0.111626 0.022451 0.090184
0.142402 0.028884 0.107338
0.192855 0.036956 0.137609
0.247343 0.045029 0.166872
0.313941 0.053101 0.193107
0.379277 0.059282 0.211774
0.441838 0.061300 0.213792
0.506669 0.064831 0.220351
0.575285 0.070886 0.234478
0.631539 0.074291 0.245073
0.671901 0.074291 0.251127
0.708227 0.074291 0.257182
0.740517 0.074291 0.263236
0.768265 0.074291 0.271561
0.792483 0.074291 0.281651
0.815438 0.078075 0.294264
0.837638 0.084130 0.308391
0.854287 0.087409 0.316968
0.868414 0.089427 0.323022
0.878000 0.097499 0.330590
0.886072 0.107590 0.338662
0.897424 0.117680 0.346735
0.909532 0.127771 0.354807
0.914578 0.134330 0.362880
0.918614 0.140384 0.370952
0.924542 0.155898 0.373348
0.930596 0.172043 0.375367
0.010090 0.016145 0.024091
0.035414 0.019139 0.042189
0.060547 0.022199 0.060230
0.082811 0.026235 0.077416
0.106874 0.030784 0.095262
0.143525 0.038922 0.117721
0.183741 0.046656 0.140864
0.239401 0.052646 0.166969
0.297275 0.058374 0.190503
0.361789 0.063322 0.206322
0.425367 0.067354 0.218480
0.486887 0.069372 0.222581
0.545990 0.071732 0.228489
0.601064 0.074662 0.237407
0.648335 0.077221 0.244617
0.685572 0.079304 0.249630
0.718773 0.080866 0.255684
0.747938 0.081908 0.262780
0.773734 0.084121 0.270389
0.796909 0.087246 0.278396
0.818824 0.091551 0.290879
0.839981 0.096564 0.306047
0.857021 0.099518 0.317098
0.872189 0.101536 0.326277
0.884379 0.108827 0.336970
0.895577 0.117876 0.348167
0.904975 0.127771 0.359364
0.913959 0.137861 0.370561
0.918614 0.146243 0.378113
0.922650 0.154381 0.385144
0.926625 0.168072 0.386499
0.930596 0.182134 0.387475
0.019929 0.032163 0.043894
0.047987 0.034116 0.059973
0.075866 0.036204 0.076212
0.101060 0.040305 0.094830
0.128988 0.045155 0.114914
0.176055 0.055245 0.145250
0.225673 0.064189 0.173976
0.286346 0.068160 0.195719
0.347443 0.071659 0.213508
0.409809 0.073742 0.219432
0.471442 0.075825 0.225335
0.531464 0.077908 0.231194
0.584700 0.079210 0.236346
0.626624 0.079210 0.240317
0.665131 0.080976 0.244345
0.699243 0.085012 0.248446
0.729254 0.088007 0.254500
0.755164 0.089960 0.262508
0.778913 0.094147 0.269380
0.800982 0.100071 0.275369
0.821953 0.104815 0.287746
0.842264 0.108851 0.303956
0.859711 0.111590 0.317346
0.875855 0.113738 0.329455
0.890535 0.120232 0.343272
0.904727 0.128174 0.357659
0.912254 0.137967 0.371676
0.918244 0.148188 0.385608
0.922524 0.158466 0.392817
0.926560 0.168751 0.399067
0.928704 0.180441 0.399397
0.930722 0.192224 0.399332
0.025983 0.046290 0.058020
0.050916 0.047202 0.073058
0.076842 0.048377 0.088776
0.117660 0.053520 0.114686
0.160561 0.059282 0.141279
0.218044 0.069372 0.172657
0.276516 0.078120 0.200862
0.339273 0.081049 0.215314
0.401150 0.084028 0.227114
0.460391 0.087153 0.230954
0.517272 0.090277 0.234449
0.568962 0.093402 0.237184
0.614255 0.095355 0.239991
0.648888 0.095355 0.242921
0.681927 0.097121 0.246818
0.712914 0.101157 0.251961
0.738759 0.103631 0.258016
0.759461 0.104542 0.264981
0.779760 0.107102 0.270812
0.799745 0.110943 0.275760
0.821236 0.114906 0.288397
0.843631 0.118942 0.305649
0.861729 0.123112 0.319364
0.877873 0.127344 0.331473
0.893335 0.132796 0.348415
0.908568 0.138655 0.366969
0.915444 0.149750 0.379228
0.920392 0.162054 0.390034
0.924542 0.175326 0.399588
0.928578 0.188737 0.408962
0.930722 0.195739 0.408511
0.932741 0.202315 0.407404
0.031785 0.060921 0.072652
0.053724 0.060791 0.086257
0.077721 0.061056 0.101039
0.132601 0.067240 0.133459
0.189286 0.073897 0.165846
0.258618 0.083857 0.198006
0.326985 0.092377 0.225576
0.391174 0.094655 0.233257
0.453214 0.097373 0.239523
0.508809 0.101410 0.241541
0.560539 0.105364 0.242929
0.603766 0.109140 0.242929
0.641377 0.111549 0.243686
0.669631 0.111679 0.245704
0.697371 0.113404 0.249146
0.724453 0.117180 0.254419
0.746131 0.119133 0.260083
0.762406 0.119263 0.266137
0.780110 0.120602 0.271495
0.798923 0.122880 0.276313
0.820789 0.126257 0.289146
0.844485 0.130294 0.306788
0.863079 0.135717 0.320715
0.879354 0.141772 0.332954
0.895532 0.146508 0.352565
0.911677 0.150804 0.374634
0.917983 0.163511 0.384908
0.922019 0.178158 0.392459
0.926169 0.193888 0.404226
0.930336 0.209773 0.416595
0.932488 0.213390 0.415842
0.934506 0.216189 0.414215
0.035821 0.079084 0.090814
0.055677 0.077912 0.100254
0.077917 0.077266 0.111195
0.135921 0.084492 0.144656
0.198075 0.091929 0.177825
0.289280 0.100848 0.208943
0.374834 0.108912 0.235080
0.435897 0.113274 0.239637
0.493771 0.117554 0.243559
0.542075 0.121591 0.245578
0.585863 0.124894 0.246965
0.619715 0.126587 0.246965
0.651468 0.128084 0.247722
0.679721 0.129256 0.249740
0.703361 0.130656 0.250448
0.721068 0.132348 0.249471
0.738580 0.133780 0.252010
0.755896 0.134952 0.258065
0.776985 0.137918 0.266938
0.801007 0.142280 0.278005
0.822221 0.146438 0.290578
0.841751 0.150475 0.304054
0.859759 0.155898 0.317395
0.877076 0.161953 0.330675
0.893514 0.168251 0.349766
0.909658 0.174631 0.370793
0.915965 0.191113 0.377486
0.920001 0.209927 0.380872
0.925063 0.224355 0.393940
0.930271 0.238156 0.408393
0.932488 0.247502 0.410700
0.934506 0.256551 0.412197
0.039101 0.097626 0.108221
0.057459 0.095803 0.114666
0.078527 0.094598 0.122901
0.140242 0.102671 0.157990
0.207669 0.110743 0.192330
0.315084 0.118816 0.221429
0.413698 0.126510 0.245158
0.474176 0.132564 0.245614
0.529934 0.138163 0.246412
0.571533 0.142394 0.248234
0.608148 0.145303 0.249366
0.633797 0.145303 0.248975
0.659984 0.146133 0.249414
0.687065 0.148347 0.251237
0.707055 0.149677 0.249870
0.717927 0.149872 0.244402
0.732346 0.151077 0.244597
0.750314 0.153290 0.250456
0.773738 0.157554 0.261991
0.801405 0.163413 0.277940
0.822115 0.168011 0.290228
0.838651 0.171852 0.300318
0.856171 0.177483 0.312781
0.874138 0.183928 0.326322
0.890592 0.191447 0.344843
0.906542 0.199324 0.365024
0.913447 0.218838 0.368649
0.918264 0.241037 0.368454
0.923822 0.254236 0.380847
0.929486 0.266149 0.395039
0.931731 0.280137 0.399893
0.933750 0.294264 0.404124
0.039101 0.117807 0.122347
0.058500 0.117025 0.130875
0.080936 0.116798 0.141324
0.148900 0.124870 0.180579
0.220754 0.132942 0.217784
0.319836 0.141015 0.240634
0.413633 0.148709 0.257723
0.484527 0.154763 0.249846
0.547056 0.160622 0.244133
0.584488 0.165895 0.244914
0.617262 0.169520 0.244678
0.639786 0.169520 0.242205
0.661676 0.170741 0.240951
0.682508 0.173996 0.241733
0.700806 0.176368 0.241147
0.715844 0.177605 0.238803
0.731826 0.179851 0.240040
0.748752 0.183106 0.244857
0.769962 0.187240 0.255351
0.794505 0.192057 0.270259
0.815345 0.195613 0.282156
0.833963 0.198413 0.292246
0.851418 0.205150 0.302560
0.868344 0.213679 0.312976
0.883757 0.220937 0.330716
0.898665 0.227773 0.350897
0.908759 0.247091 0.353676
0.917743 0.269290 0.352439
0.921999 0.281578 0.355588
0.925580 0.292450 0.359364
0.927695 0.306373 0.364544
0.929713 0.320499 0.369817
0.040614 0.139501 0.138997
0.061056 0.139762 0.149087
0.084646 0.140543 0.161114
0.155475 0.149136 0.202192
0.228989 0.157566 0.240341
0.321301 0.164858 0.257983
0.411062 0.171917 0.269522
0.489768 0.177971 0.254614
0.557895 0.183960 0.243173
0.594286 0.189754 0.242131
0.625448 0.193819 0.240154
0.645108 0.194079 0.236118
0.663353 0.195658 0.233595
0.679237 0.199434 0.233595
0.696004 0.202327 0.233595
0.713907 0.204084 0.233595
0.731191 0.207372 0.235613
0.747857 0.212189 0.239649
0.767342 0.216128 0.248776
0.789020 0.219383 0.261861
0.809600 0.222353 0.273400
0.829520 0.225152 0.284011
0.847203 0.232606 0.293772
0.863869 0.242176 0.303146
0.878630 0.249304 0.319844
0.892757 0.255619 0.338984
0.904821 0.273782 0.340086
0.916409 0.294679 0.337027
0.919167 0.305893 0.331518
0.920664 0.315723 0.325659
0.922406 0.328116 0.328039
0.924164 0.340680 0.330968
0.046669 0.165736 0.163214
0.068152 0.167038 0.173304
0.092263 0.168926 0.185006
0.155801 0.179603 0.220876
0.222675 0.189465 0.254207
0.312903 0.193632 0.269766
0.400971 0.198152 0.279027
0.479677 0.204206 0.260994
0.549887 0.209935 0.246167
0.594611 0.214688 0.240959
0.630851 0.218362 0.236118
0.648428 0.219664 0.232081
0.664980 0.221503 0.229559
0.679823 0.224237 0.229559
0.695549 0.226088 0.229559
0.712410 0.226804 0.229559
0.730214 0.231133 0.231577
0.748963 0.239076 0.235613
0.768188 0.242624 0.242396
0.787783 0.242754 0.251314
0.806931 0.246505 0.262593
0.825810 0.252429 0.275288
0.844599 0.259428 0.289280
0.863348 0.266914 0.303862
0.878630 0.274303 0.318738
0.892757 0.281659 0.333711
0.903128 0.295786 0.330647
0.912633 0.311475 0.323421
0.913308 0.321126 0.311011
0.912722 0.329915 0.297861
0.913357 0.336384 0.288067
0.914073 0.342699 0.278498
0.053354 0.195125 0.188692
0.075553 0.198120 0.198132
0.099697 0.201480 0.208674
0.153013 0.210334 0.235756
0.210765 0.218577 0.261014
0.299562 0.222548 0.273514
0.386283 0.226971 0.279946
0.464012 0.233351 0.260091
0.534841 0.238819 0.242856
0.584968 0.241554 0.233481
0.625290 0.244166 0.225877
0.644038 0.246509 0.222166
0.661420 0.248853 0.219847
0.676523 0.251196 0.219847
0.692367 0.252515 0.220132
0.709163 0.252515 0.220783
0.727488 0.257072 0.222801
0.747344 0.266186 0.226186
0.766613 0.269587 0.231256
0.785427 0.268546 0.237635
0.804038 0.272997 0.248653
0.822526 0.280744 0.262455
0.841731 0.286879 0.278583
0.861261 0.292283 0.295770
0.876982 0.299200 0.309636
0.891435 0.306621 0.322396
0.901497 0.317851 0.320028
0.910545 0.329959 0.314169
0.909626 0.337397 0.296689
0.907282 0.344167 0.277550
0.906526 0.346177 0.256579
0.905875 0.347870 0.235487
0.061426 0.231451 0.216946
0.083625 0.237570 0.224302
0.106727 0.243210 0.231850
0.143379 0.241647 0.242266
0.186548 0.241558 0.252291
0.275344 0.251778 0.259582
0.361480 0.261474 0.261979
0.436085 0.268896 0.243165
0.504309 0.274104 0.225669
0.553395 0.272671 0.212128
0.595604 0.272745 0.201985
0.622686 0.276130 0.199316
0.646447 0.279515 0.197648
0.664675 0.282900 0.197648
0.683188 0.284804 0.198844
0.702067 0.284804 0.201578
0.720913 0.287799 0.203596
0.739727 0.293788 0.204898
0.759713 0.297580 0.209642
0.780610 0.299663 0.217064
0.800653 0.304635 0.227821
0.820183 0.311341 0.240581
0.838280 0.315719 0.254236
0.855727 0.319039 0.268297
0.871709 0.323872 0.282945
0.887203 0.329211 0.297788
0.899999 0.340050 0.306812
0.912173 0.352158 0.314494
0.910733 0.355950 0.295973
0.907347 0.358554 0.273709
0.904573 0.359328 0.243755
0.901838 0.359979 0.213288
0.069498 0.270804 0.249740
0.091697 0.275361 0.252669
0.114076 0.279226 0.255318
0.139139 0.272716 0.253756
0.171144 0.268688 0.252698
0.251738 0.282034 0.255172
0.330769 0.294171 0.252531
0.403030 0.301071 0.227728
0.469920 0.305238 0.204503
0.520698 0.301201 0.186015
0.566065 0.299688 0.172674
0.599526 0.303724 0.170656
0.628007 0.307467 0.169248
0.648188 0.310722 0.168857
0.669053 0.312724 0.170574
0.690796 0.313115 0.175001
0.711140 0.315133 0.177605
0.730084 0.318778 0.178386
0.750859 0.322863 0.183269
0.773058 0.327290 0.191341
0.794240 0.332002 0.200960
0.814812 0.336884 0.211506
0.832877 0.340335 0.223395
0.849803 0.343134 0.235894
0.865850 0.346568 0.250248
0.881604 0.350214 0.265221
0.895719 0.360101 0.282416
0.909455 0.371428 0.300123
0.910375 0.374211 0.287640
0.909463 0.375773 0.270844
0.905622 0.374773 0.235373
0.901586 0.373601 0.198657
0.077571 0.315202 0.290102
0.099770 0.310385 0.284699
0.121953 0.305722 0.279275
0.143891 0.303378 0.273546
0.170428 0.302735 0.268322
0.229148 0.313998 0.266629
0.290212 0.323856 0.257283
0.361431 0.327632 0.214773
0.429103 0.329455 0.176706
0.486130 0.325419 0.151968
0.536770 0.323905 0.134330
0.573356 0.327941 0.132312
0.603790 0.330903 0.130513
0.623971 0.332075 0.129081
0.646659 0.333361 0.130668
0.672568 0.334793 0.136136
0.696037 0.336811 0.140303
0.717064 0.339415 0.143167
0.738751 0.343630 0.148961
0.760950 0.349099 0.157033
0.782783 0.352248 0.164048
0.804396 0.354006 0.170428
0.824219 0.357912 0.181731
0.843228 0.362794 0.195272
0.859015 0.365968 0.207543
0.873727 0.368572 0.219391
0.886800 0.376571 0.239385
0.899495 0.385815 0.261258
0.907575 0.391983 0.266613
0.914997 0.397712 0.269608
0.911677 0.394042 0.234397
0.907640 0.389746 0.196639
0.086526 0.357834 0.327815
0.108269 0.349111 0.317725
0.129915 0.340933 0.307760
0.150096 0.340933 0.299688
0.172645 0.341454 0.291152
0.211770 0.345620 0.279368
0.255692 0.349469 0.260725
0.320402 0.351943 0.212356
0.384753 0.353245 0.167877
0.448030 0.351031 0.135066
0.503516 0.350913 0.111024
0.541860 0.355405 0.106272
0.575101 0.358384 0.102374
0.599839 0.358839 0.099900
0.625717 0.359580 0.100360
0.653059 0.360687 0.104591
0.678741 0.362249 0.108042
0.702763 0.364267 0.110711
0.726015 0.367274 0.115906
0.748670 0.371050 0.123067
0.771895 0.373035 0.128845
0.795461 0.373947 0.133793
0.816700 0.377454 0.144111
0.836881 0.382141 0.156871
0.853546 0.385168 0.167970
0.869040 0.387642 0.178516
0.881413 0.393184 0.197949
0.893066 0.399433 0.219432
0.904719 0.406480 0.234079
0.916372 0.413641 0.247750
0.915025 0.409695 0.221202
0.912812 0.405007 0.191972
0.096617 0.398196 0.362123
0.117318 0.392598 0.352032
0.137988 0.387349 0.342068
0.158169 0.387349 0.333996
0.178634 0.386177 0.323246
0.201094 0.376803 0.293756
0.228936 0.369845 0.262483
0.280105 0.373361 0.223488
0.335863 0.376485 0.183436
0.405390 0.378438 0.140209
0.465172 0.381510 0.107053
0.503516 0.387044 0.096051
0.540664 0.391064 0.087857
0.575818 0.392561 0.084341
0.606642 0.392976 0.082392
0.631901 0.392000 0.082457
0.658625 0.392520 0.082262
0.686813 0.394539 0.081806
0.712475 0.394616 0.084463
0.736171 0.393184 0.089541
0.761739 0.394518 0.095839
0.788430 0.397513 0.102870
0.810645 0.399523 0.111691
0.830826 0.401085 0.121326
0.849836 0.404112 0.132426
0.868454 0.407628 0.144013
0.880567 0.409979 0.158563
0.891178 0.412063 0.173797
0.901790 0.416766 0.186752
0.912401 0.421844 0.199381
0.914895 0.420697 0.192297
0.916848 0.419134 0.183899
0.103680 0.439567 0.395421
0.126986 0.430323 0.379602
0.150031 0.421624 0.363974
0.169170 0.421103 0.351214
0.188204 0.419020 0.335517
0.206497 0.406000 0.299257
0.229392 0.396178 0.264046
0.272228 0.400214 0.233383
0.322518 0.403860 0.198148
0.395169 0.406334 0.149193
0.457425 0.409927 0.110796
0.496811 0.415981 0.095628
0.535781 0.420522 0.084243
0.574060 0.422540 0.079166
0.605959 0.422108 0.074971
0.629655 0.418528 0.071911
0.656639 0.417747 0.069633
0.686911 0.419765 0.068135
0.713484 0.418963 0.069751
0.737180 0.415969 0.073787
0.762748 0.416066 0.080346
0.789439 0.418019 0.088418
0.811655 0.419704 0.096490
0.831836 0.421266 0.104563
0.851235 0.424684 0.115272
0.870375 0.428720 0.126860
0.883008 0.429054 0.137601
0.894140 0.428533 0.148147
0.902538 0.431088 0.159605
0.910545 0.434083 0.171193
0.915806 0.436223 0.174297
0.920884 0.438306 0.176836
0.107716 0.481947 0.427711
0.137271 0.462287 0.400434
0.166046 0.443758 0.373479
0.183102 0.442196 0.351345
0.201354 0.439982 0.327966
0.227980 0.433212 0.295871
0.257060 0.428468 0.265413
0.296771 0.432504 0.242042
0.344717 0.435368 0.212014
0.417368 0.434717 0.162018
0.480275 0.436162 0.122254
0.521744 0.442216 0.105002
0.560454 0.446757 0.091535
0.594566 0.448775 0.084374
0.623666 0.446977 0.078096
0.646321 0.440271 0.072953
0.672784 0.437928 0.070153
0.703056 0.439946 0.069698
0.729043 0.440316 0.071769
0.751697 0.439405 0.075805
0.774922 0.437679 0.082364
0.798488 0.435466 0.090436
0.819727 0.437997 0.098508
0.839908 0.442684 0.106581
0.857745 0.446883 0.116509
0.874802 0.450919 0.127055
0.888737 0.450407 0.135062
0.901952 0.448844 0.142484
0.906965 0.449446 0.152639
0.910806 0.450358 0.163185
0.917759 0.456274 0.167201
0.924920 0.462523 0.170782
0.112887 0.523192 0.458865
0.144005 0.501319 0.427162
0.174407 0.480247 0.395067
0.194067 0.471198 0.357114
0.215640 0.462190 0.319389
0.250598 0.453466 0.283258
0.286631 0.447904 0.250887
0.327319 0.456042 0.234808
0.374532 0.462080 0.212039
0.441325 0.461819 0.169203
0.501404 0.463532 0.133894
0.546714 0.469587 0.115146
0.585383 0.473029 0.099522
0.612986 0.472117 0.089106
0.638480 0.468842 0.080598
0.661265 0.462527 0.074544
0.687501 0.460086 0.071516
0.717186 0.461518 0.071516
0.742661 0.462474 0.073457
0.764860 0.463060 0.076908
0.787059 0.461490 0.083613
0.809258 0.458625 0.092271
0.829264 0.460684 0.099721
0.848273 0.464981 0.106622
0.864255 0.468203 0.115915
0.879228 0.471068 0.126005
0.893038 0.470917 0.133292
0.906578 0.470071 0.139932
0.911062 0.469452 0.148054
0.914252 0.468866 0.156386
0.920921 0.474201 0.160691
0.927821 0.479929 0.164727
0.118942 0.563554 0.489137
0.147976 0.545847 0.458475
0.176816 0.527900 0.426055
0.202725 0.506352 0.367270
0.230808 0.485365 0.310014
0.274099 0.468309 0.263468
0.317684 0.457344 0.224001
0.362538 0.472772 0.215212
0.410272 0.485060 0.201297
0.466649 0.487924 0.172002
0.521195 0.491786 0.145678
0.571712 0.497840 0.125887
0.610512 0.499329 0.108050
0.629781 0.493210 0.093467
0.651045 0.488372 0.082616
0.674871 0.485182 0.076562
0.701107 0.483782 0.073535
0.729751 0.484173 0.073535
0.754769 0.485259 0.074889
0.776968 0.486887 0.077298
0.799168 0.487009 0.084264
0.821367 0.486228 0.093964
0.839940 0.486789 0.100307
0.856866 0.487961 0.105124
0.870765 0.488840 0.113897
0.883655 0.489621 0.123987
0.896228 0.490773 0.132120
0.908727 0.492009 0.139802
0.914903 0.490740 0.145319
0.920176 0.489113 0.150527
0.925022 0.490476 0.154637
0.929839 0.492038 0.158673
0.126257 0.600132 0.514363
0.153860 0.583988 0.481488
0.181666 0.567578 0.446830
0.212523 0.547202 0.385441
0.245895 0.525792 0.323872
0.296868 0.497148 0.261051
0.346255 0.476304 0.208385
0.388765 0.489259 0.199727
0.433765 0.500472 0.187830
0.486236 0.506462 0.166217
0.537893 0.512675 0.146272
0.587759 0.519380 0.129997
0.626933 0.521520 0.114747
0.648286 0.516052 0.101206
0.671747 0.512378 0.090941
0.697917 0.511011 0.084886
0.724152 0.510652 0.081534
0.750452 0.511303 0.080883
0.773347 0.511625 0.080634
0.793593 0.511690 0.080700
0.813433 0.510901 0.084996
0.833028 0.509599 0.091832
0.850251 0.510535 0.098533
0.866395 0.512488 0.105173
0.878537 0.512488 0.112936
0.889343 0.511837 0.121074
0.900679 0.512825 0.129158
0.912136 0.514192 0.137231
0.918866 0.513737 0.141772
0.924920 0.513021 0.145808
0.928472 0.513586 0.149844
0.931858 0.514237 0.153880
0.134330 0.634440 0.536562
0.160891 0.618295 0.499520
0.187980 0.602472 0.461478
0.223004 0.591470 0.408421
0.260933 0.576570 0.351670
0.319197 0.534386 0.269058
0.373336 0.500977 0.199531
0.409597 0.505599 0.186707
0.449910 0.511344 0.172727
0.502381 0.520458 0.155280
0.552736 0.529145 0.140152
0.598436 0.536892 0.130127
0.638130 0.541245 0.120345
0.667816 0.539943 0.110971
0.697331 0.539069 0.103049
0.726626 0.538743 0.096995
0.752861 0.539427 0.093121
0.776037 0.541119 0.091429
0.795807 0.540139 0.088967
0.812928 0.537079 0.085908
0.828991 0.533816 0.085777
0.844420 0.530431 0.087405
0.860341 0.532864 0.095343
0.876486 0.537942 0.106150
0.887065 0.537942 0.112611
0.895788 0.536249 0.117623
0.905887 0.536196 0.125122
0.916303 0.536522 0.133195
0.922902 0.537759 0.137735
0.928957 0.539126 0.141772
0.931532 0.540798 0.145808
0.933876 0.542490 0.149844
0.142402 0.665973 0.564311
0.170786 0.649828 0.526683
0.199711 0.634098 0.487806
0.236752 0.624594 0.430193
0.276463 0.610565 0.368592
0.334858 0.564865 0.279080
0.389139 0.528380 0.203702
0.425595 0.531830 0.189575
0.465518 0.536046 0.174765
0.515840 0.542556 0.157904
0.564311 0.548882 0.143342
0.608709 0.554807 0.133837
0.648835 0.559046 0.125407
0.681841 0.560478 0.118767
0.712084 0.561284 0.112070
0.738775 0.561284 0.105299
0.763578 0.562293 0.100189
0.786493 0.564311 0.096739
0.805600 0.564535 0.092959
0.821745 0.563363 0.088923
0.836181 0.560849 0.087409
0.849592 0.557529 0.087409
0.865374 0.560161 0.094749
0.882235 0.565499 0.105425
0.892505 0.565320 0.110585
0.900577 0.563302 0.113905
0.909707 0.562924 0.120504
0.919082 0.562924 0.127860
0.925551 0.564063 0.132938
0.931605 0.565365 0.137691
0.933876 0.568010 0.141772
0.935894 0.570744 0.145808
0.150475 0.696244 0.594583
0.181983 0.680100 0.557996
0.213902 0.664240 0.519445
0.251986 0.652652 0.451416
0.292218 0.636930 0.380570
0.347487 0.592272 0.290016
0.399816 0.557024 0.213792
0.439396 0.562558 0.199666
0.480881 0.567033 0.184595
0.528079 0.568335 0.166693
0.574402 0.570105 0.150763
0.618800 0.572904 0.139176
0.659316 0.575972 0.130224
0.693364 0.579488 0.125667
0.721914 0.581465 0.119686
0.743397 0.581465 0.111874
0.766117 0.582474 0.105202
0.790074 0.584492 0.099668
0.809636 0.587060 0.094977
0.825781 0.590054 0.090941
0.839566 0.589753 0.089427
0.851935 0.587475 0.089427
0.868108 0.589716 0.095335
0.886011 0.594013 0.103928
0.896541 0.593574 0.107785
0.904613 0.591556 0.110064
0.912897 0.591177 0.115622
0.921230 0.591177 0.121936
0.927569 0.591405 0.127795
0.933623 0.591665 0.133589
0.935894 0.595221 0.137735
0.937912 0.598997 0.141772
0.160061 0.720462 0.614259
0.192350 0.705879 0.580277
0.225067 0.691549 0.543955
0.264192 0.681003 0.472541
0.304847 0.666323 0.398213
0.356211 0.622706 0.303492
0.405365 0.587816 0.223883
0.444946 0.590746 0.209756
0.486236 0.592748 0.194621
0.532652 0.591966 0.176458
0.578682 0.592060 0.160187
0.623861 0.594078 0.148078
0.664671 0.596560 0.138411
0.698197 0.599815 0.132812
0.726911 0.602330 0.126131
0.749435 0.603892 0.118059
0.771634 0.606073 0.110995
0.793508 0.608872 0.104941
0.812598 0.611488 0.099583
0.829524 0.613962 0.094765
0.843928 0.614117 0.092470
0.856818 0.612880 0.091689
0.871721 0.615268 0.095921
0.887541 0.619304 0.102431
0.898136 0.618800 0.104986
0.906989 0.616782 0.106223
0.915208 0.617038 0.110739
0.923281 0.617819 0.116012
0.928904 0.619284 0.121285
0.934177 0.620846 0.126558
0.937863 0.623996 0.132869
0.941444 0.627251 0.139249
0.170151 0.742661 0.630404
0.202441 0.730162 0.599547
0.235223 0.717915 0.566089
0.275389 0.709452 0.493633
0.316435 0.696725 0.417743
0.363632 0.654149 0.317814
0.409206 0.619325 0.233973
0.447746 0.618088 0.219847
0.488254 0.616704 0.204711
0.534670 0.614882 0.186548
0.581026 0.614259 0.170277
0.627247 0.616277 0.158169
0.668317 0.618369 0.147720
0.700801 0.620582 0.140038
0.730296 0.623422 0.132186
0.755945 0.627068 0.124113
0.778144 0.630811 0.117050
0.796893 0.634652 0.110995
0.815202 0.636552 0.105051
0.833170 0.636942 0.099192
0.848615 0.636967 0.095856
0.862546 0.636772 0.094033
0.875627 0.639485 0.096507
0.888322 0.643522 0.100933
0.898917 0.643017 0.102187
0.908812 0.640999 0.102382
0.917226 0.642102 0.105857
0.925299 0.643924 0.110088
0.930010 0.647342 0.114320
0.934242 0.650988 0.118551
0.939816 0.653291 0.127726
0.945480 0.655504 0.137231
0.181881 0.764860 0.639990
0.212478 0.750212 0.608026
0.243686 0.736134 0.573625
0.284048 0.730601 0.502666
0.325272 0.720462 0.427858
0.372535 0.678082 0.326106
0.417649 0.643428 0.241102
0.453454 0.642256 0.228668
0.491277 0.640450 0.214802
0.535155 0.636739 0.196639
0.580354 0.634819 0.180103
0.628463 0.636837 0.167148
0.670322 0.639489 0.155707
0.701766 0.643200 0.146788
0.730931 0.647424 0.137870
0.757166 0.652306 0.128951
0.779788 0.655919 0.121041
0.798797 0.658263 0.114141
0.816854 0.660240 0.108192
0.834171 0.661933 0.102984
0.850023 0.664154 0.099770
0.864996 0.666693 0.097752
0.876836 0.668516 0.096987
0.887252 0.670013 0.096791
0.897424 0.671413 0.097377
0.907514 0.672780 0.098224
0.915965 0.676739 0.103725
0.924037 0.681296 0.110300
0.930059 0.684657 0.117615
0.935788 0.687847 0.125037
0.941029 0.689144 0.132580
0.946237 0.690316 0.140132
0.193990 0.787059 0.648062
0.222504 0.769287 0.614015
0.251758 0.752475 0.577791
0.292120 0.750066 0.508915
0.333475 0.742661 0.435800
0.381779 0.700281 0.333007
0.427154 0.665822 0.247547
0.459834 0.665692 0.237196
0.494532 0.664146 0.224892
0.535285 0.658352 0.206729
0.578987 0.655000 0.189868
0.629179 0.657018 0.175872
0.671950 0.660452 0.163389
0.702352 0.666246 0.153428
0.730931 0.672096 0.143468
0.757166 0.678021 0.133508
0.780309 0.681113 0.124557
0.800360 0.681373 0.116614
0.818287 0.683611 0.110796
0.834562 0.687387 0.106630
0.850674 0.692343 0.103806
0.866688 0.698006 0.101788
