其他预设/【236】赛博朋克风调色预设/【后期菌】视频调色预设/CUBE/Miami 08_S.cube
# LUT by SparkleStock. Enhanced with VOXCOLOR algorithms.
LUT_3D_SIZE 8
DOMAIN_MIN 0.000000 0.000000 0.000000
DOMAIN_MAX 0.903226 0.903226 0.903226
0.000000 0.000000 0.003910
0.085391 0.016397 0.076057
0.247343 0.045029 0.166872
0.506669 0.064831 0.220351
0.708227 0.074291 0.257182
0.815438 0.078075 0.294264
0.878000 0.097499 0.330590
0.914578 0.134330 0.362880
0.031785 0.060921 0.072652
0.189286 0.073897 0.165846
0.453214 0.097373 0.239523
0.641377 0.111549 0.243686
0.746131 0.119133 0.260083
0.820789 0.126257 0.289146
0.895532 0.146508 0.352565
0.926169 0.193888 0.404226
0.040614 0.139501 0.138997
0.228989 0.157566 0.240341
0.557895 0.183960 0.243173
0.663353 0.195658 0.233595
0.731191 0.207372 0.235613
0.809600 0.222353 0.273400
0.878630 0.249304 0.319844
0.919167 0.305893 0.331518
0.069498 0.270804 0.249740
0.171144 0.268688 0.252698
0.469920 0.305238 0.204503
0.628007 0.307467 0.169248
0.711140 0.315133 0.177605
0.794240 0.332002 0.200960
0.865850 0.346568 0.250248
0.910375 0.374211 0.287640
0.103680 0.439567 0.395421
0.188204 0.419020 0.335517
0.322518 0.403860 0.198148
0.535781 0.420522 0.084243
0.656639 0.417747 0.069633
0.762748 0.416066 0.080346
0.851235 0.424684 0.115272
0.902538 0.431088 0.159605
0.126257 0.600132 0.514363
0.245895 0.525792 0.323872
0.433765 0.500472 0.187830
0.626933 0.521520 0.114747
0.724152 0.510652 0.081534
0.813433 0.510901 0.084996
0.878537 0.512488 0.112936
0.918866 0.513737 0.141772
0.160061 0.720462 0.614259
0.304847 0.666323 0.398213
0.486236 0.592748 0.194621
0.664671 0.596560 0.138411
0.771634 0.606073 0.110995
0.843928 0.614117 0.092470
0.898136 0.618800 0.104986
0.928904 0.619284 0.121285
0.207864 0.800429 0.672027
0.348399 0.754834 0.447274
0.508610 0.678159 0.231907
0.674603 0.680730 0.177792
0.782596 0.699756 0.134737
0.851951 0.711759 0.110804
0.895837 0.723184 0.099591
0.930010 0.754216 0.144664
0.031533 0.012739 0.064579
0.077367 0.024705 0.113331
0.228737 0.044524 0.212592
0.511434 0.066219 0.279836
0.696057 0.065275 0.295082
0.804717 0.068742 0.329707
0.878630 0.083906 0.391483
0.922259 0.100677 0.433879
0.029608 0.078531 0.107635
0.198350 0.083022 0.236871
0.433125 0.108947 0.287418
0.603102 0.111752 0.280692
0.696582 0.115239 0.292722
0.793732 0.116929 0.325477
0.869671 0.125141 0.376258
0.928487 0.151044 0.451027
0.061206 0.173654 0.196073
0.142321 0.202593 0.267518
0.555943 0.185099 0.317773
0.620688 0.187000 0.293824
0.686671 0.193811 0.301747
0.771264 0.199612 0.322548
0.864727 0.212544 0.379826
0.930510 0.224026 0.461897
0.097422 0.325545 0.324536
0.151220 0.376989 0.386411
0.395151 0.358644 0.344583
0.600276 0.318556 0.263035
0.675368 0.327490 0.261551
0.759616 0.337117 0.272904
0.848618 0.348164 0.310732
0.915581 0.372757 0.377866
0.121273 0.483205 0.459366
0.167112 0.538166 0.520418
0.279942 0.523886 0.396388
0.505051 0.478008 0.187721
0.637737 0.452129 0.130572
0.741471 0.450185 0.136941
0.841657 0.461021 0.161151
0.904450 0.471884 0.195148
0.151862 0.631710 0.578275
0.194228 0.662733 0.612311
0.353796 0.635372 0.420752
0.592529 0.556734 0.155273
0.697603 0.559140 0.125104
0.789465 0.561660 0.121539
0.866595 0.559882 0.138561
0.915826 0.568754 0.173329
0.184180 0.738596 0.654369
0.237538 0.752566 0.655866
0.415270 0.697131 0.418511
0.664427 0.634213 0.194766
0.768089 0.649647 0.146988
0.839235 0.660932 0.124336
0.891253 0.670481 0.130095
0.922215 0.672933 0.143290
0.230556 0.806825 0.710888
0.317612 0.797891 0.647172
0.486157 0.754967 0.407247
0.677084 0.707605 0.229093
0.786282 0.733251 0.191745
0.852037 0.748248 0.160224
0.895485 0.766398 0.148286
0.926929 0.796762 0.227964
0.032794 0.038218 0.116041
0.087376 0.040329 0.180368
0.231947 0.052344 0.293703
0.500599 0.062406 0.340750
0.684766 0.058651 0.356068
0.802105 0.063822 0.397061
0.874102 0.075300 0.450793
0.920481 0.088544 0.517923
0.059977 0.116834 0.190780
0.145083 0.108182 0.279175
0.415729 0.114674 0.358937
0.584026 0.114735 0.349356
0.676690 0.114677 0.358314
0.770275 0.115190 0.389562
0.861835 0.121033 0.446441
0.927020 0.134373 0.524664
0.081599 0.210444 0.269970
0.156464 0.258545 0.370029
0.498096 0.190521 0.390100
0.593578 0.190356 0.364333
0.671822 0.193445 0.377266
0.761223 0.200480 0.399382
0.854992 0.204271 0.438125
0.927660 0.207833 0.530531
0.127645 0.361716 0.404824
0.174475 0.411250 0.465307
0.289557 0.407389 0.470789
0.588095 0.296699 0.388242
0.679551 0.294826 0.392191
0.764503 0.307846 0.406618
0.850323 0.319619 0.439773
0.921060 0.344618 0.477980
0.142248 0.506502 0.515576
0.201290 0.568495 0.582967
0.241763 0.582760 0.542954
0.465578 0.520423 0.390497
0.665072 0.462774 0.304866
0.745479 0.468168 0.309896
0.826946 0.475922 0.324069
0.900835 0.493167 0.314366
0.174008 0.644893 0.609141
0.217135 0.682146 0.645709
0.278806 0.709654 0.658258
0.464784 0.648402 0.402968
0.683364 0.594171 0.191830
0.772875 0.595457 0.183016
0.847268 0.604055 0.203151
0.906444 0.603839 0.223383
0.211636 0.741753 0.682838
0.261054 0.768173 0.708915
0.334345 0.788565 0.711662
0.585614 0.711590 0.406677
0.766221 0.685631 0.212430
0.831019 0.698728 0.178543
0.864790 0.708522 0.173980
0.911319 0.718069 0.194588
0.266694 0.815919 0.743820
0.328559 0.829007 0.752032
0.444528 0.805154 0.640247
0.635522 0.758985 0.377309
0.787092 0.756981 0.252264
0.852048 0.773083 0.226731
0.880147 0.798289 0.234405
0.914100 0.825052 0.315382
0.057768 0.071895 0.207738
0.115186 0.058077 0.268948
0.238640 0.063725 0.356980
0.513859 0.073535 0.417979
0.689673 0.066414 0.435120
0.807602 0.066203 0.479038
0.879261 0.073115 0.549306
0.924920 0.079552 0.611411
0.088524 0.152240 0.299037
0.147336 0.159469 0.382952
0.387387 0.129370 0.464556
0.594192 0.117150 0.440400
0.689937 0.113326 0.457786
0.778587 0.113648 0.490148
0.877297 0.121915 0.566900
0.928992 0.126958 0.625836
0.119446 0.260363 0.400524
0.178179 0.304044 0.492993
0.325847 0.270140 0.539655
0.592361 0.203292 0.472183
0.678588 0.198225 0.476368
0.767354 0.201111 0.498955
0.861843 0.207691 0.553603
0.931862 0.209126 0.625698
0.153880 0.408686 0.520019
0.196518 0.444311 0.575219
0.302794 0.436681 0.591366
0.561301 0.328138 0.519770
0.682487 0.303666 0.507883
0.766122 0.305163 0.516576
0.848728 0.319263 0.537718
0.923159 0.326299 0.593447
0.184082 0.554025 0.607940
0.230595 0.597673 0.647295
0.277861 0.612484 0.629006
0.399676 0.576943 0.584106
0.687183 0.443304 0.522188
0.760620 0.435908 0.497842
0.829221 0.448718 0.496153
0.904817 0.464436 0.505683
0.217812 0.674053 0.668471
0.279072 0.708894 0.707063
0.331725 0.729662 0.719564
0.392033 0.727394 0.672587
0.659693 0.651879 0.424300
0.783763 0.614370 0.325543
0.830062 0.617460 0.319146
0.903087 0.620785 0.336475
0.249402 0.754265 0.718147
0.315771 0.777612 0.750501
0.372781 0.799118 0.761922
0.452206 0.810453 0.748434
0.706473 0.735800 0.405014
0.817329 0.730513 0.257609
0.847963 0.735850 0.258470
0.904605 0.742498 0.284505
0.302552 0.820663 0.774788
0.379358 0.839259 0.792442
0.434988 0.846255 0.787786
0.575008 0.825842 0.681766
0.770582 0.776204 0.349894
0.843826 0.798980 0.301940
0.864992 0.824302 0.337773
0.905723 0.845755 0.406586
0.091067 0.087157 0.321256
0.146434 0.081029 0.395857
0.284402 0.072155 0.473619
0.510258 0.079255 0.514489
0.713012 0.074291 0.529373
0.833496 0.074617 0.588834
0.899454 0.075414 0.656212
0.934604 0.080541 0.697070
0.121786 0.179493 0.425640
0.167880 0.210480 0.503634
0.367525 0.153196 0.574549
0.633117 0.124723 0.555629
0.731454 0.114607 0.586324
0.815749 0.114642 0.619693
0.886537 0.119784 0.672196
0.936579 0.128108 0.732535
0.161070 0.301584 0.541339
0.212365 0.336645 0.612941
0.293287 0.345168 0.654331
0.561678 0.225915 0.619148
0.726264 0.199408 0.617673
0.797831 0.201411 0.631219
0.880434 0.203416 0.679821
0.935857 0.212565 0.734886
0.189771 0.435210 0.627698
0.247844 0.481904 0.684291
0.309475 0.501046 0.691809
0.440496 0.440221 0.674320
0.706622 0.318263 0.640255
0.795402 0.308932 0.651403
0.862095 0.319708 0.665829
0.922974 0.330701 0.683604
0.219082 0.577262 0.686003
0.272870 0.621641 0.725017
0.327627 0.644913 0.730874
0.427705 0.607862 0.707863
0.661082 0.505904 0.682081
0.783386 0.448270 0.648047
0.841255 0.447289 0.630530
0.907442 0.458598 0.640398
0.267451 0.697538 0.734116
0.322787 0.724754 0.762709
0.383093 0.745475 0.780003
0.440750 0.749138 0.767920
0.573802 0.736268 0.745569
0.779573 0.654699 0.512873
0.833284 0.624472 0.460033
0.902372 0.633860 0.456567
0.303207 0.771785 0.764469
0.368337 0.787450 0.781681
0.441780 0.805168 0.801030
0.505502 0.819515 0.804292
0.590513 0.820062 0.777249
0.770922 0.767468 0.479310
0.844644 0.750654 0.369058
0.904647 0.758132 0.386684
0.345998 0.825444 0.790029
0.417678 0.841105 0.804731
0.492567 0.848029 0.814086
0.562414 0.858439 0.798291
0.694992 0.841941 0.709626
0.802077 0.817813 0.453413
0.855529 0.833918 0.425976
0.903777 0.855597 0.496448
0.117050 0.112005 0.450162
0.166501 0.120626 0.524010
0.305632 0.097947 0.587751
0.543463 0.091950 0.605304
0.740179 0.088890 0.637939
0.845543 0.078201 0.679721
0.901948 0.076891 0.737253
0.928765 0.079963 0.772175
0.151699 0.186890 0.539138
0.203229 0.218455 0.615168
0.345009 0.184289 0.675675
0.614326 0.143919 0.692188
0.792307 0.123544 0.700636
0.859851 0.117938 0.728019
0.908927 0.125719 0.767657
0.930181 0.135831 0.801682
0.211469 0.328429 0.657559
0.262250 0.358634 0.704830
0.325153 0.386328 0.744714
0.567978 0.268542 0.751041
0.792777 0.203577 0.737050
0.857242 0.203939 0.759295
0.906422 0.205629 0.784998
0.933266 0.218155 0.808897
0.238128 0.451155 0.719184
0.296089 0.494859 0.753299
0.359025 0.529095 0.779749
0.453007 0.512673 0.791362
0.719852 0.361464 0.777296
0.851927 0.309242 0.775026
0.886680 0.321965 0.780524
0.924476 0.337930 0.774243
0.264424 0.601215 0.758679
0.328547 0.635522 0.786708
0.395069 0.668250 0.811631
0.465741 0.661084 0.816400
0.607894 0.612580 0.813385
0.808196 0.478245 0.781347
0.860744 0.451277 0.761149
0.909431 0.464575 0.750201
0.310507 0.712515 0.792104
0.373067 0.729154 0.807917
0.434182 0.750562 0.824795
0.507580 0.766896 0.837235
0.622404 0.758013 0.842503
0.722803 0.708769 0.794374
0.832235 0.622182 0.733690
0.898188 0.609295 0.715350
0.360215 0.781855 0.814808
0.428231 0.796039 0.824738
0.499172 0.809445 0.832501
0.572746 0.823724 0.841912
0.638591 0.833162 0.841638
0.714928 0.815269 0.777797
0.839657 0.774974 0.557171
0.904540 0.766378 0.547677
0.403168 0.831136 0.820036
0.478119 0.841267 0.831274
0.546463 0.849859 0.835594
0.623093 0.859845 0.847998
0.688417 0.872110 0.846802
0.775946 0.860103 0.734376
0.844963 0.853071 0.595954
0.904664 0.865145 0.605528
0.154637 0.121212 0.567969
0.203673 0.140396 0.624321
0.335395 0.116842 0.678082
0.577689 0.099436 0.712393
0.726251 0.095355 0.723603
0.844969 0.086559 0.760177
0.906639 0.082111 0.802915
0.927622 0.084056 0.827620
0.188526 0.200858 0.640706
0.243220 0.233914 0.699157
0.323350 0.257505 0.757665
0.563082 0.177608 0.779786
0.821281 0.135373 0.778764
0.877834 0.133754 0.806304
0.913008 0.133978 0.825384
0.934055 0.143994 0.848774
0.251196 0.338146 0.733889
0.294692 0.357790 0.769625
0.369325 0.394878 0.809212
0.539623 0.328897 0.829033
0.780618 0.236962 0.825358
0.890464 0.212466 0.831648
0.917359 0.219814 0.846687
0.928958 0.227260 0.855810
0.292832 0.471475 0.781928
0.352991 0.513331 0.813460
0.422866 0.533597 0.837997
0.493665 0.546217 0.852444
0.711769 0.408119 0.859665
0.883757 0.338470 0.846751
0.896045 0.339686 0.847200
0.925368 0.350494 0.849669
0.321622 0.609568 0.814177
0.384355 0.632580 0.838313
0.452052 0.650046 0.853325
0.534655 0.674637 0.865703
0.626573 0.669200 0.878924
0.793695 0.528344 0.858274
0.875893 0.469824 0.836609
0.909794 0.473061 0.829003
0.358367 0.707926 0.835713
0.422455 0.732011 0.848963
0.497187 0.752188 0.861175
0.576656 0.767396 0.874042
0.647529 0.774926 0.878866
0.715717 0.750262 0.866318
0.840797 0.639980 0.841958
0.899864 0.616585 0.831110
0.417531 0.791095 0.854539
0.481564 0.800539 0.857252
0.560451 0.816711 0.869485
0.619340 0.828272 0.871220
0.680943 0.840115 0.877104
0.742514 0.835676 0.867804
0.825335 0.816976 0.811651
0.902652 0.782998 0.756998
0.473716 0.841421 0.857819
0.541125 0.846911 0.856953
0.608030 0.858951 0.863633
0.670420 0.868768 0.869771
0.732765 0.877343 0.880783
0.781625 0.885270 0.875610
0.847191 0.881767 0.808698
0.906055 0.882385 0.751600
0.198657 0.134708 0.661054
0.248605 0.152000 0.710888
0.334012 0.148758 0.756031
0.572554 0.103753 0.779528
0.743234 0.098207 0.791445
0.843065 0.099005 0.817831
0.903804 0.088532 0.850470
0.930218 0.088585 0.871188
0.231048 0.207600 0.729002
0.287726 0.237156 0.775164
0.360083 0.273415 0.813268
0.541813 0.193148 0.831723
0.798888 0.144521 0.832496
0.877430 0.142447 0.850580
0.912567 0.151762 0.868884
0.929358 0.149579 0.881392
0.282286 0.331424 0.799269
0.341080 0.358859 0.828647
0.398334 0.384751 0.849606
0.485418 0.392702 0.868538
0.715759 0.269453 0.876613
0.885800 0.224767 0.866592
0.914679 0.241263 0.879041
0.928660 0.249201 0.887514
0.339635 0.482200 0.834106
0.403515 0.496621 0.853311
0.469707 0.526228 0.873613
0.533945 0.539039 0.884418
0.682562 0.471275 0.892121
0.843650 0.376068 0.883341
0.908936 0.364936 0.881983
0.922964 0.368320 0.889164
0.376591 0.614259 0.861293
0.437057 0.631457 0.872614
0.523385 0.651208 0.885616
0.591512 0.665252 0.892625
0.648669 0.669163 0.895731
0.783171 0.577796 0.898213
0.881914 0.505372 0.884534
0.911405 0.498841 0.886633
0.411070 0.711563 0.872637
0.481825 0.731142 0.883484
0.562521 0.745890 0.889253
0.632332 0.758315 0.895027
0.693929 0.769736 0.900900
0.749522 0.769644 0.901912
0.835626 0.693001 0.901913
0.900950 0.648738 0.901158
0.469839 0.794375 0.881983
0.541559 0.805328 0.885079
0.610445 0.818402 0.890402
0.674452 0.826878 0.895672
0.729437 0.835630 0.900226
0.779399 0.846389 0.907322
0.832419 0.846752 0.902881
0.905028 0.797120 0.897149
0.522615 0.845376 0.883297
0.592330 0.854828 0.883789
0.653923 0.865175 0.887913
0.705741 0.874817 0.892931
0.763125 0.882241 0.901668
0.815829 0.893006 0.914907
0.865546 0.902930 0.907065
0.917338 0.905227 0.896619
