其他预设/【236】赛博朋克风调色预设/【后期菌】视频调色预设/CUBE/Miami 04.cube
# LUT by SparkleStock. Enhanced with VOXCOLOR algorithms.
LUT_3D_SIZE 5
DOMAIN_MIN 0.000000 0.000000 0.000000
DOMAIN_MAX 0.903226 0.903226 0.903226
0.019550 0.003910 0.007820
0.098508 0.017406 0.037587
0.695488 0.110869 0.044777
0.850503 0.158421 0.120077
0.867657 0.189449 0.184782
0.023460 0.030650 0.036074
0.466376 0.092401 0.061524
0.841511 0.174944 0.113754
0.877621 0.218594 0.227533
0.884160 0.261848 0.202245
0.021695 0.166241 0.111374
0.191223 0.171412 0.054599
0.783190 0.274840 0.008105
0.861696 0.313656 0.029547
0.888973 0.365569 0.070361
0.022199 0.485353 0.307256
0.357985 0.417543 0.061458
0.803236 0.539480 0.007047
0.888444 0.568726 0.007718
0.919371 0.586856 0.032098
0.115788 0.698767 0.520291
0.581929 0.694112 0.077119
0.838752 0.761141 0.042632
0.916343 0.787344 0.045533
0.942326 0.802821 0.075549
0.031281 0.011730 0.058903
0.100608 0.025812 0.101536
0.668679 0.102707 0.150043
0.856810 0.160573 0.293625
0.878935 0.210135 0.410053
0.033677 0.057731 0.106121
0.430477 0.098646 0.205263
0.854212 0.185500 0.352541
0.886955 0.246051 0.479177
0.886503 0.290928 0.526056
0.033136 0.248946 0.254407
0.079701 0.324511 0.344904
0.852247 0.307528 0.283965
0.889762 0.362432 0.342762
0.903754 0.417453 0.301337
0.055355 0.579960 0.498833
0.117886 0.622218 0.533057
0.787282 0.629867 0.032621
0.890778 0.662712 0.029695
0.919481 0.680124 0.066399
0.172873 0.736659 0.671417
0.415968 0.730301 0.414206
0.833764 0.784951 0.076085
0.913687 0.817660 0.092608
0.936956 0.829317 0.138625
0.057390 0.041749 0.204459
0.149754 0.042291 0.241073
0.658942 0.100706 0.324495
0.851671 0.183663 0.464448
0.874594 0.248645 0.562924
0.070003 0.126583 0.333076
0.196789 0.194596 0.475305
0.838439 0.207730 0.511470
0.873214 0.279100 0.597954
0.884017 0.337031 0.640006
0.079389 0.359918 0.526989
0.160573 0.464798 0.627044
0.760398 0.374950 0.611732
0.879359 0.403595 0.654447
0.887320 0.462563 0.685408
0.104547 0.656212 0.718004
0.197159 0.692044 0.745654
0.443458 0.717013 0.702779
0.898121 0.698403 0.170472
0.925503 0.723760 0.159385
0.238697 0.763493 0.768644
0.459685 0.786070 0.761092
0.750695 0.798452 0.524185
0.908459 0.830043 0.151738
0.928756 0.835041 0.259319
0.109608 0.126636 0.507552
0.240500 0.137097 0.538145
0.685715 0.137752 0.502792
0.844375 0.227240 0.592263
0.880901 0.317537 0.662287
0.126518 0.268550 0.625888
0.256096 0.351527 0.685064
0.791660 0.263579 0.622541
0.867537 0.346572 0.671820
0.882845 0.402960 0.706461
0.183789 0.488462 0.729026
0.327067 0.576725 0.763688
0.569612 0.616721 0.774263
0.872313 0.479504 0.723527
0.881311 0.538786 0.739276
0.275369 0.714533 0.809307
0.440588 0.742175 0.811633
0.643426 0.764961 0.809184
0.818928 0.759778 0.768311
0.896393 0.727521 0.755591
0.355226 0.789614 0.816321
0.566667 0.802104 0.806100
0.744471 0.825178 0.808100
0.859099 0.834469 0.700770
0.923432 0.843092 0.458550
0.183016 0.268281 0.686658
0.325032 0.289996 0.696171
0.747161 0.228424 0.632800
0.841991 0.312399 0.677642
0.879765 0.394579 0.718696
0.228310 0.406745 0.750367
0.390022 0.484962 0.772407
0.713243 0.416316 0.733436
0.866309 0.420089 0.729115
0.882773 0.475624 0.755399
0.336579 0.604189 0.809026
0.507142 0.665704 0.823844
0.674221 0.699459 0.830697
0.864682 0.596583 0.785642
0.891383 0.615369 0.793358
0.478355 0.749220 0.841454
0.623302 0.767205 0.842695
0.739460 0.787673 0.848306
0.819319 0.805467 0.849593
0.897684 0.773425 0.839814
0.577982 0.809596 0.849453
0.709875 0.821339 0.845625
0.792242 0.834471 0.847490
0.854805 0.849388 0.857269
0.896507 0.858205 0.830183
