其他预设/【236】赛博朋克风调色预设/【后期菌】视频调色预设/CUBE/Miami 07_S.cube
# LUT by SparkleStock. Enhanced with VOXCOLOR algorithms.
LUT_3D_SIZE 5
DOMAIN_MIN 0.000000 0.000000 0.000000
DOMAIN_MAX 0.903226 0.903226 0.903226
0.000000 0.000000 0.000000
0.117176 0.027623 0.080850
0.672027 0.083877 0.121717
0.862990 0.108851 0.198278
0.914199 0.140384 0.259452
0.024974 0.070633 0.074544
0.450419 0.116248 0.143977
0.727094 0.162530 0.154747
0.838260 0.192350 0.224261
0.923659 0.247628 0.266751
0.060417 0.224892 0.213540
0.210033 0.223537 0.132999
0.653087 0.284804 0.052377
0.813103 0.310503 0.071533
0.914492 0.333072 0.123735
0.088670 0.565572 0.450667
0.266650 0.397395 0.159479
0.706066 0.488441 0.050847
0.860264 0.498117 0.045558
0.922902 0.521581 0.068204
0.181881 0.790464 0.664207
0.368840 0.660509 0.216315
0.725466 0.672511 0.082217
0.866111 0.729921 0.072432
0.920632 0.774694 0.093711
0.028884 0.020433 0.072147
0.114194 0.035488 0.153791
0.631271 0.067553 0.218659
0.845205 0.089687 0.330077
0.921462 0.126510 0.459874
0.048687 0.109445 0.150357
0.395494 0.139220 0.262868
0.644771 0.168625 0.308985
0.784462 0.189996 0.370088
0.922638 0.236471 0.517557
0.096381 0.314478 0.326245
0.168934 0.397936 0.392776
0.638369 0.342613 0.278953
0.779275 0.371412 0.305936
0.911294 0.406228 0.319717
0.129789 0.627653 0.581111
0.212288 0.695326 0.628608
0.646205 0.576969 0.107695
0.815942 0.612199 0.095924
0.910619 0.641696 0.126587
0.260176 0.806609 0.738498
0.360586 0.798752 0.614968
0.724498 0.714428 0.122367
0.858291 0.778091 0.110869
0.909725 0.824850 0.157373
0.053480 0.068237 0.187431
0.149071 0.059587 0.285419
0.676328 0.076163 0.377869
0.853420 0.102419 0.519661
0.926707 0.158315 0.662356
0.097626 0.178044 0.344070
0.207106 0.223771 0.508608
0.675107 0.182972 0.506921
0.805890 0.219489 0.572265
0.926849 0.291558 0.698227
0.143916 0.404316 0.559331
0.217654 0.519771 0.635608
0.613063 0.408475 0.571784
0.782377 0.402964 0.575457
0.905360 0.441755 0.608273
0.227431 0.708101 0.714818
0.321480 0.754074 0.749120
0.457640 0.761565 0.715529
0.802515 0.669690 0.253768
0.905355 0.679454 0.275893
0.343935 0.825570 0.780500
0.482361 0.845693 0.803579
0.683461 0.817302 0.623167
0.829922 0.815404 0.207145
0.903810 0.847855 0.330580
0.109608 0.117428 0.435153
0.206705 0.120171 0.552666
0.736891 0.115552 0.583894
0.882642 0.150401 0.693522
0.929587 0.232651 0.784003
0.176474 0.277631 0.628056
0.282232 0.361486 0.725048
0.790190 0.250102 0.718201
0.882714 0.303081 0.772527
0.927037 0.366683 0.813950
0.223126 0.549668 0.744239
0.343675 0.646011 0.791901
0.553339 0.648725 0.811170
0.852420 0.482374 0.789187
0.901233 0.490620 0.772674
0.347215 0.760494 0.810471
0.481611 0.792925 0.832476
0.630909 0.817756 0.850036
0.776332 0.748405 0.781116
0.895879 0.691393 0.745251
0.481699 0.840160 0.829126
0.601159 0.852187 0.840238
0.715173 0.865804 0.856153
0.819611 0.857316 0.747182
0.904651 0.860945 0.558158
0.184404 0.178350 0.653864
0.302601 0.220066 0.729344
0.775622 0.176604 0.748927
0.887712 0.242587 0.801125
0.925339 0.313265 0.843440
0.280349 0.399091 0.782404
0.413994 0.484181 0.826049
0.689368 0.450168 0.846695
0.894136 0.393776 0.838247
0.921370 0.437362 0.857990
0.363152 0.655484 0.833854
0.529075 0.699629 0.859328
0.675323 0.718744 0.877942
0.868890 0.595837 0.869584
0.906007 0.591026 0.882540
0.497209 0.788951 0.866050
0.624998 0.810940 0.877789
0.731426 0.820788 0.887805
0.807968 0.833501 0.900078
0.907073 0.748350 0.899728
0.613132 0.859458 0.871567
0.702402 0.867657 0.878671
0.777411 0.878630 0.889325
0.855109 0.891141 0.901707
0.920221 0.900443 0.885247
