其他预设/【236】赛博朋克风调色预设/【后期菌】视频调色预设/CUBE/Miami 07.cube
# LUT by SparkleStock. Enhanced with VOXCOLOR algorithms.
LUT_3D_SIZE 8
DOMAIN_MIN 0.000000 0.000000 0.000000
DOMAIN_MAX 0.903226 0.903226 0.903226
0.000000 0.000000 0.000000
0.056759 0.008325 0.048182
0.150475 0.036704 0.093463
0.466938 0.063192 0.118059
0.775581 0.091950 0.145808
0.856053 0.110743 0.186044
0.890613 0.118816 0.227415
0.914199 0.140384 0.259452
0.023713 0.036704 0.044272
0.119332 0.049443 0.100779
0.390384 0.081261 0.137959
0.747791 0.115410 0.158848
0.848989 0.126327 0.214614
0.891964 0.138663 0.267703
0.913442 0.159051 0.318091
0.926584 0.191252 0.343858
0.024974 0.082742 0.086652
0.146121 0.102292 0.148237
0.614796 0.134517 0.147879
0.806581 0.157033 0.177438
0.872332 0.173308 0.229583
0.902001 0.198063 0.281887
0.921698 0.231256 0.314559
0.923960 0.261035 0.248470
0.046038 0.169394 0.164727
0.104140 0.165134 0.156887
0.432142 0.192224 0.125895
0.757752 0.204145 0.112029
0.848326 0.223183 0.143273
0.887830 0.251278 0.171319
0.904739 0.275092 0.196008
0.922666 0.301429 0.191093
0.069498 0.307634 0.279128
0.116305 0.275104 0.232659
0.205753 0.263744 0.142508
0.567839 0.300754 0.052780
0.753484 0.314974 0.048813
0.834769 0.319954 0.052019
0.884546 0.339911 0.065930
0.910843 0.362045 0.081578
0.084634 0.511084 0.420143
0.156098 0.400003 0.274897
0.299126 0.385604 0.148208
0.630506 0.431446 0.057878
0.779743 0.445727 0.040594
0.851610 0.452278 0.045127
0.894649 0.464338 0.057768
0.918866 0.482586 0.069311
0.118563 0.690695 0.568600
0.199694 0.598912 0.373869
0.358774 0.530219 0.167938
0.627592 0.555987 0.076269
0.780931 0.595905 0.058928
0.859475 0.611704 0.055372
0.902343 0.635360 0.065588
0.926507 0.650333 0.077339
0.184025 0.790464 0.670640
0.244304 0.717788 0.420395
0.418231 0.647204 0.184656
0.655972 0.650243 0.098960
0.784760 0.693673 0.076261
0.855235 0.720270 0.073343
0.895101 0.739886 0.073030
0.920632 0.774694 0.095856
0.020307 0.011982 0.040614
0.059693 0.016633 0.076594
0.140697 0.034023 0.123609
0.494609 0.067460 0.161757
0.783149 0.092763 0.199849
0.861432 0.105401 0.263057
0.893892 0.113925 0.326875
0.922422 0.128654 0.379427
0.021284 0.049443 0.067053
0.122753 0.060792 0.148649
0.417889 0.089075 0.195241
0.752069 0.114954 0.222629
0.858217 0.125846 0.302854
0.902250 0.137940 0.378759
0.920531 0.150306 0.424054
0.927030 0.184824 0.460290
0.040427 0.110902 0.133638
0.086636 0.127010 0.179037
0.696573 0.139322 0.253849
0.839011 0.149056 0.322801
0.892159 0.169863 0.404524
0.909085 0.183726 0.456332
0.927463 0.220441 0.521480
0.934198 0.256288 0.538498
0.065938 0.205362 0.212222
0.102503 0.247877 0.268350
0.377899 0.240617 0.283513
0.817656 0.231713 0.241780
0.884302 0.248340 0.297251
0.906965 0.284618 0.340521
0.917160 0.314795 0.353904
0.928876 0.354188 0.370214
0.087722 0.363946 0.350266
0.116150 0.424367 0.405184
0.194082 0.386037 0.323469
0.525634 0.364772 0.108317
0.782605 0.361189 0.070317
0.849500 0.378668 0.078852
0.885961 0.390533 0.088218
0.909710 0.411041 0.097497
0.104734 0.571590 0.505579
0.133815 0.613928 0.553251
0.238258 0.545407 0.359072
0.611546 0.474343 0.080014
0.775036 0.503813 0.055253
0.850956 0.524305 0.059703
0.893279 0.531299 0.067416
0.922084 0.563411 0.090607
0.148050 0.714253 0.635799
0.181987 0.732647 0.621011
0.298015 0.662195 0.361796
0.630525 0.589046 0.099984
0.772027 0.625161 0.074269
0.855073 0.660430 0.071209
0.897295 0.688836 0.081741
0.925218 0.697654 0.088092
0.220351 0.798512 0.715404
0.256211 0.777821 0.612827
0.392596 0.733283 0.338970
0.659465 0.674793 0.125992
0.781245 0.720680 0.093645
0.850438 0.749000 0.090131
0.889746 0.769514 0.092238
0.918514 0.803978 0.122571
0.028380 0.024974 0.081733
0.061174 0.028852 0.112098
0.146430 0.042063 0.188001
0.497836 0.069653 0.230902
0.784540 0.090322 0.272956
0.871530 0.106670 0.359942
0.899442 0.112509 0.431243
0.920860 0.129061 0.494390
0.044085 0.077384 0.130485
0.092789 0.071940 0.181476
0.414721 0.094464 0.266279
0.769774 0.114606 0.304249
0.862431 0.126903 0.390927
0.899554 0.139696 0.478829
0.914960 0.160505 0.544280
0.929453 0.191440 0.581327
0.058273 0.130733 0.177780
0.102671 0.165639 0.254118
0.639235 0.143700 0.336304
0.838993 0.153183 0.410659
0.890486 0.171827 0.500943
0.907915 0.200347 0.571678
0.928429 0.231950 0.611614
0.931703 0.276700 0.655611
0.093309 0.245508 0.286696
0.128879 0.303807 0.365792
0.249038 0.329465 0.468056
0.844347 0.226371 0.487479
0.899561 0.247603 0.567210
0.917980 0.286274 0.606383
0.926296 0.332059 0.650172
0.927513 0.366889 0.597580
0.105938 0.406480 0.413792
0.147110 0.471855 0.505149
0.180835 0.534364 0.563653
0.476496 0.467400 0.396212
0.860220 0.392943 0.278238
0.886792 0.420443 0.290254
0.898172 0.451816 0.311054
0.919655 0.479648 0.239940
0.133178 0.602297 0.574186
0.172897 0.643530 0.623522
0.221720 0.691033 0.657006
0.397352 0.622207 0.354367
0.774114 0.546176 0.074422
0.846466 0.571255 0.073087
0.890944 0.603087 0.089737
0.914467 0.620183 0.109762
0.184668 0.724038 0.677691
0.235446 0.758144 0.706844
0.295313 0.776128 0.706040
0.520293 0.686625 0.301670
0.776023 0.664624 0.094072
0.851130 0.700773 0.088149
0.884491 0.716856 0.088116
0.914972 0.738507 0.102891
0.277717 0.810141 0.753280
0.323833 0.826934 0.758169
0.407276 0.796293 0.600451
0.613776 0.733227 0.260796
0.784954 0.745290 0.116773
0.847760 0.774031 0.111464
0.887019 0.790439 0.115951
0.907782 0.818086 0.164050
0.041371 0.057011 0.147574
0.068469 0.045891 0.183907
0.159458 0.053760 0.251253
0.522122 0.075805 0.302210
0.797320 0.088084 0.365276
0.867372 0.104673 0.456949
0.897843 0.120496 0.548085
0.924884 0.142618 0.613303
0.061524 0.109453 0.213133
0.104292 0.120723 0.288297
0.373495 0.106778 0.381266
0.774058 0.118910 0.395911
0.860133 0.128767 0.491317
0.894543 0.150620 0.580287
0.925375 0.190094 0.647047
0.932946 0.218626 0.675179
0.084410 0.173081 0.289207
0.131033 0.218701 0.391600
0.294532 0.212654 0.524576
0.817461 0.173178 0.510686
0.890520 0.194600 0.604034
0.915230 0.228664 0.661173
0.930132 0.273540 0.708375
0.932633 0.309029 0.733175
0.121696 0.303158 0.418817
0.149035 0.349483 0.497372
0.269139 0.397267 0.626567
0.770430 0.287243 0.603724
0.891490 0.287269 0.663456
0.917691 0.314805 0.701875
0.924284 0.368229 0.734901
0.926677 0.405632 0.746866
0.143663 0.474791 0.559962
0.179264 0.542979 0.618600
0.223168 0.605868 0.665457
0.378932 0.612060 0.690614
0.860491 0.430772 0.650300
0.895571 0.432541 0.650290
0.902717 0.474832 0.661811
0.910489 0.518356 0.651930
0.181385 0.649222 0.655537
0.238952 0.701349 0.703199
0.301691 0.735832 0.734905
0.364520 0.752680 0.734365
0.728727 0.649526 0.318495
0.874594 0.614210 0.185832
0.894158 0.642348 0.174073
0.914146 0.660081 0.211681
0.233847 0.747120 0.720970
0.300070 0.780571 0.751088
0.361951 0.799139 0.767520
0.458220 0.812326 0.755463
0.721562 0.718605 0.268293
0.845281 0.731341 0.110997
0.883735 0.747877 0.114448
0.910328 0.765252 0.131312
0.324625 0.819007 0.777473
0.399449 0.837314 0.797842
0.467186 0.843985 0.790669
0.614701 0.812816 0.635076
0.783698 0.771377 0.207031
0.852834 0.795024 0.148334
0.881279 0.812149 0.167946
0.907489 0.829756 0.248247
0.067606 0.078327 0.245956
0.104180 0.073591 0.301132
0.220599 0.068619 0.382955
0.541481 0.083670 0.415545
0.796275 0.099021 0.463020
0.870757 0.116964 0.565825
0.904475 0.140510 0.648542
0.927618 0.177389 0.704541
0.095042 0.135786 0.339427
0.124780 0.165565 0.421188
0.348158 0.131583 0.519350
0.771308 0.126228 0.502625
0.860033 0.148650 0.597781
0.901601 0.179293 0.668878
0.923317 0.215974 0.715964
0.934076 0.261078 0.754955
0.126758 0.229441 0.456579
0.162998 0.271951 0.548324
0.250907 0.325726 0.648460
0.724376 0.216798 0.621287
0.892668 0.230924 0.686720
0.912012 0.262757 0.728135
0.927161 0.310000 0.763055
0.929984 0.345846 0.781908
0.152045 0.361871 0.584997
0.198598 0.430233 0.659180
0.266406 0.499106 0.711499
0.471993 0.474701 0.736966
0.873429 0.342643 0.726965
0.909478 0.373019 0.760704
0.914858 0.402944 0.774852
0.920310 0.443374 0.791396
0.180502 0.547764 0.671498
0.223990 0.610903 0.710563
0.291320 0.667990 0.744508
0.432563 0.669653 0.765063
0.783404 0.549845 0.751549
0.879774 0.496060 0.741222
0.896382 0.519952 0.759603
0.899178 0.548257 0.776750
0.240028 0.703446 0.737701
0.298464 0.736361 0.760470
0.368488 0.764271 0.779202
0.448486 0.776354 0.793028
0.615913 0.769175 0.778959
0.864478 0.682197 0.461354
0.897513 0.665745 0.384767
0.910443 0.688186 0.383749
0.305238 0.780614 0.773412
0.369457 0.798603 0.785827
0.455770 0.813051 0.802674
0.529154 0.824967 0.803169
0.637051 0.824911 0.780955
0.824789 0.772118 0.363977
0.890959 0.773262 0.174270
0.913081 0.791972 0.189740
0.388342 0.831526 0.805515
0.465664 0.840397 0.814582
0.550458 0.850206 0.823428
0.625484 0.853010 0.800293
0.747483 0.833024 0.690209
0.835413 0.810050 0.325494
0.882562 0.822216 0.248221
0.904617 0.834832 0.355492
0.097499 0.105320 0.388736
0.128076 0.120797 0.458756
0.245830 0.099208 0.525259
0.598655 0.097760 0.535940
0.799062 0.114999 0.577449
0.869984 0.137092 0.652184
0.907229 0.173239 0.716930
0.927569 0.216311 0.766557
0.130123 0.172161 0.492921
0.169672 0.212408 0.579714
0.319232 0.185792 0.641951
0.719878 0.159209 0.633051
0.859243 0.177160 0.682150
0.895874 0.211483 0.729791
0.917347 0.253853 0.768375
0.928574 0.298365 0.794753
0.175611 0.294590 0.623483
0.219977 0.345264 0.680703
0.292104 0.403109 0.734287
0.662313 0.296247 0.733915
0.877886 0.271752 0.739681
0.903983 0.317369 0.774212
0.914325 0.350832 0.797624
0.927395 0.383363 0.812184
0.201423 0.438770 0.700297
0.252007 0.504116 0.738888
0.317047 0.568999 0.769070
0.464375 0.595170 0.799609
0.821782 0.434772 0.784621
0.896762 0.416929 0.794286
0.906246 0.445337 0.809820
0.909666 0.475702 0.822115
0.232175 0.617339 0.750229
0.298276 0.670283 0.777228
0.381660 0.712476 0.803459
0.477429 0.731673 0.816671
0.664807 0.697959 0.828062
0.864611 0.570374 0.805416
0.893852 0.567717 0.821054
0.898831 0.591094 0.833883
0.310254 0.740655 0.792511
0.376694 0.758349 0.810024
0.454815 0.778252 0.823302
0.542626 0.793352 0.833086
0.671032 0.795722 0.840502
0.794789 0.761779 0.822234
0.877755 0.700153 0.802223
0.894974 0.698686 0.805058
0.386055 0.800665 0.817347
0.463519 0.811939 0.826126
0.541091 0.823525 0.829054
0.616677 0.834410 0.837441
0.681647 0.839282 0.840254
0.778995 0.826959 0.798125
0.885506 0.796478 0.456044
0.914096 0.798040 0.432923
0.459997 0.834106 0.824329
0.539785 0.845665 0.832348
0.606836 0.851113 0.837046
0.673847 0.860883 0.848347
0.746579 0.866914 0.843843
0.824470 0.850037 0.728839
0.877284 0.835747 0.503136
0.906347 0.846455 0.489613
0.131176 0.135969 0.541229
0.170037 0.157607 0.597272
0.310592 0.140120 0.647041
0.669301 0.130928 0.661099
0.796885 0.142073 0.673024
0.870070 0.175213 0.733990
0.909036 0.219729 0.778869
0.926938 0.267650 0.808302
0.176641 0.225201 0.632003
0.227584 0.277944 0.695199
0.310965 0.312403 0.746371
0.642998 0.234428 0.753030
0.860499 0.226278 0.752410
0.893900 0.265533 0.780443
0.910505 0.306086 0.810566
0.926402 0.342769 0.828392
0.227667 0.365036 0.726768
0.278116 0.410040 0.754323
0.373642 0.483520 0.798671
0.609000 0.419022 0.811443
0.834532 0.353811 0.794811
0.896061 0.365193 0.806825
0.909790 0.395231 0.829142
0.923454 0.419514 0.838295
0.259277 0.518184 0.768514
0.325927 0.580802 0.799787
0.411069 0.622889 0.822451
0.527829 0.644740 0.837130
0.779462 0.516215 0.836899
0.888045 0.470594 0.829154
0.900506 0.492865 0.837259
0.911691 0.517832 0.850420
0.305124 0.670099 0.804339
0.387993 0.705571 0.824585
0.474265 0.730899 0.840302
0.579070 0.751733 0.858490
0.681811 0.747965 0.868532
0.840368 0.637362 0.849384
0.894997 0.607350 0.853129
0.896716 0.617760 0.859758
0.389127 0.758993 0.834199
0.467489 0.779360 0.843458
0.554408 0.797349 0.856999
0.626364 0.806134 0.863691
0.702957 0.813689 0.871783
0.777089 0.804567 0.871277
0.875137 0.725133 0.858669
0.899034 0.718252 0.870568
0.478758 0.815483 0.851512
0.546701 0.823726 0.853931
0.613741 0.836358 0.857365
0.677139 0.842039 0.861318
0.735882 0.846636 0.868080
0.795218 0.849393 0.865559
0.864207 0.838669 0.816524
0.908564 0.818018 0.755562
0.556406 0.850072 0.852879
0.602158 0.854337 0.853095
0.665361 0.861944 0.858800
0.720671 0.865885 0.863899
0.775890 0.876429 0.870891
0.826603 0.876880 0.870415
0.874805 0.873751 0.801626
0.910737 0.873599 0.720397
0.184404 0.178350 0.653864
0.236484 0.212254 0.704683
0.346218 0.216616 0.741778
0.674753 0.170639 0.747889
0.818913 0.193660 0.759310
0.875603 0.233017 0.790839
0.907229 0.272033 0.821102
0.925339 0.313265 0.843440
0.240646 0.301543 0.738991
0.296631 0.341297 0.776940
0.383213 0.384792 0.804577
0.634830 0.327605 0.814387
0.853280 0.285943 0.804333
0.892423 0.323946 0.822543
0.905055 0.361676 0.843188
0.924491 0.384063 0.853140
0.294167 0.434498 0.792584
0.370730 0.496989 0.819762
0.456261 0.531845 0.837174
0.564687 0.545961 0.846400
0.785542 0.444164 0.852321
0.889009 0.406014 0.836389
0.905613 0.438675 0.852390
0.919719 0.460225 0.859259
0.332193 0.580729 0.819170
0.414917 0.617664 0.836773
0.518491 0.650693 0.854724
0.620523 0.672242 0.867427
0.753009 0.616623 0.876790
0.866257 0.535959 0.864283
0.901332 0.539825 0.863779
0.913137 0.558628 0.875466
0.398567 0.704569 0.841926
0.487515 0.725560 0.855091
0.587584 0.747806 0.873164
0.662057 0.758351 0.880834
0.716233 0.764352 0.889058
0.827274 0.690275 0.886492
0.892006 0.647353 0.878964
0.902296 0.653259 0.888525
0.479795 0.775516 0.860907
0.567220 0.793626 0.873760
0.636348 0.802922 0.877149
0.696036 0.806536 0.885552
0.751983 0.817763 0.891060
0.799210 0.819386 0.897327
0.868785 0.771295 0.892947
0.905143 0.745974 0.899543
0.565646 0.827620 0.875929
0.621428 0.835530 0.875253
0.680936 0.841746 0.878173
0.734147 0.849042 0.885250
0.777843 0.856316 0.891752
0.820165 0.864222 0.899397
0.863687 0.861241 0.891485
0.914127 0.838776 0.888669
0.623133 0.859458 0.871567
0.674280 0.863999 0.873876
0.721760 0.868340 0.880787
0.761592 0.874033 0.884530
0.808552 0.882557 0.892885
0.849783 0.889211 0.900493
0.882903 0.894430 0.893365
0.920866 0.901619 0.885154
