其他预设/【236】赛博朋克风调色预设/【后期菌】视频调色预设/CUBE/Miami 06.cube
# LUT by SparkleStock. Enhanced with VOXCOLOR algorithms.
LUT_3D_SIZE 5
DOMAIN_MIN 0.000000 0.000000 0.000000
DOMAIN_MAX 0.903226 0.903226 0.903226
0.019550 0.019550 0.035191
0.132186 0.056507 0.091697
0.648188 0.181251 0.143916
0.900199 0.237253 0.219721
0.974994 0.257686 0.249866
0.036704 0.077571 0.081481
0.428032 0.151890 0.136266
0.855853 0.241505 0.214334
0.963618 0.270291 0.275715
0.979462 0.291742 0.255408
0.016902 0.190458 0.145177
0.211660 0.193628 0.106634
0.763440 0.292519 0.134509
0.913849 0.326395 0.163576
0.967069 0.358213 0.174566
0.000000 0.442973 0.277236
0.350323 0.380082 0.128031
0.803598 0.530052 0.179106
0.907791 0.549175 0.159580
0.965409 0.566044 0.154857
0.031154 0.701920 0.498218
0.579744 0.639624 0.206583
0.837385 0.750102 0.246839
0.938543 0.786713 0.250623
0.974575 0.815561 0.258524
0.049317 0.064327 0.095607
0.135554 0.067696 0.132906
0.623918 0.181503 0.220225
0.912417 0.261462 0.339024
0.980597 0.298300 0.446346
0.066768 0.117851 0.146691
0.413055 0.166566 0.236576
0.892386 0.278756 0.399108
0.985725 0.316859 0.542475
0.991986 0.334529 0.601593
0.041046 0.258659 0.256352
0.106734 0.335161 0.331001
0.875093 0.331712 0.341570
0.959362 0.372533 0.399980
0.977314 0.408035 0.338129
0.003027 0.572038 0.479881
0.046554 0.606319 0.506626
0.783283 0.615294 0.201597
0.909216 0.654815 0.191386
0.953391 0.673539 0.186589
0.101226 0.745761 0.654462
0.391390 0.680202 0.414562
0.827108 0.769026 0.254216
0.923427 0.826694 0.270874
0.956481 0.849961 0.278970
0.099139 0.120455 0.209630
0.178980 0.100795 0.225665
0.643892 0.205301 0.353346
0.929274 0.278152 0.545204
0.983193 0.294537 0.653950
0.133068 0.213971 0.336734
0.249176 0.268346 0.462522
0.888733 0.276752 0.588314
0.979253 0.308287 0.695130
0.993121 0.332759 0.751840
0.187126 0.386604 0.493543
0.251953 0.496518 0.599009
0.776709 0.390605 0.657669
0.975522 0.393940 0.755370
0.978470 0.465697 0.790671
0.078238 0.654589 0.680275
0.214827 0.698645 0.715477
0.467507 0.719978 0.702736
0.916392 0.698999 0.249197
0.954591 0.729086 0.236364
0.241012 0.776989 0.747055
0.500295 0.800848 0.768077
0.741105 0.783844 0.555276
0.909566 0.839276 0.277638
0.940115 0.866123 0.310308
0.194368 0.247848 0.501750
0.287799 0.239491 0.536892
0.681080 0.210419 0.545330
0.919952 0.268004 0.690874
0.987953 0.301234 0.781228
0.219090 0.331229 0.619976
0.311709 0.383882 0.692194
0.840545 0.285307 0.703379
0.971129 0.324240 0.792805
0.997700 0.363803 0.840265
0.287628 0.525072 0.698108
0.384219 0.611062 0.757984
0.606071 0.641802 0.802190
0.961957 0.477636 0.825105
0.972318 0.541831 0.849889
0.301759 0.735142 0.795156
0.496303 0.767064 0.816852
0.693682 0.788597 0.831414
0.855266 0.773645 0.818204
0.949593 0.740571 0.815476
0.430681 0.810015 0.820105
0.635566 0.825205 0.822658
0.788061 0.841448 0.836086
0.886742 0.851203 0.732743
0.933009 0.874935 0.472188
0.261218 0.329455 0.721092
0.371794 0.327835 0.747873
0.786408 0.250769 0.713463
0.933656 0.291270 0.798728
0.984369 0.322811 0.861851
0.298186 0.414752 0.778242
0.427987 0.488335 0.825528
0.760214 0.382139 0.828312
0.966864 0.370589 0.857432
0.984744 0.421248 0.892280
0.394241 0.626368 0.813148
0.559075 0.685841 0.851039
0.719994 0.717243 0.889384
0.933604 0.603286 0.885574
0.975326 0.625126 0.899282
0.541168 0.781163 0.861192
0.685936 0.795308 0.875848
0.796807 0.817853 0.896823
0.875981 0.821393 0.911246
0.961913 0.790389 0.912761
0.666355 0.844786 0.878419
0.778311 0.852814 0.881394
0.852999 0.864736 0.891489
0.906258 0.882819 0.908377
0.947459 0.899816 0.881339
