其他预设/【236】赛博朋克风调色预设/【后期菌】视频调色预设/CUBE/Miami 08.cube
# LUT by SparkleStock. Enhanced with VOXCOLOR algorithms.
LUT_3D_SIZE 8
DOMAIN_MIN 0.000000 0.000000 0.000000
DOMAIN_MAX 0.903226 0.903226 0.903226
0.000000 0.000000 0.003910
0.085391 0.016397 0.076057
0.247343 0.045029 0.166872
0.510579 0.064831 0.224261
0.718948 0.074291 0.268912
0.821997 0.081985 0.303472
0.880396 0.099896 0.335383
0.914578 0.134330 0.362880
0.031785 0.060921 0.072652
0.189286 0.073897 0.165846
0.460281 0.097154 0.245769
0.690800 0.111500 0.283824
0.815312 0.118816 0.323714
0.877971 0.129744 0.362347
0.917255 0.150418 0.397399
0.928314 0.194026 0.413218
0.040614 0.139501 0.138997
0.229022 0.157566 0.240406
0.594286 0.182072 0.266629
0.758175 0.186170 0.297698
0.844583 0.196521 0.336897
0.891369 0.219200 0.381189
0.911986 0.254533 0.398493
0.923456 0.311947 0.358583
0.069498 0.270804 0.252893
0.171347 0.268688 0.255851
0.502112 0.300416 0.227109
0.710876 0.296347 0.218882
0.811105 0.300306 0.253914
0.870424 0.324947 0.285199
0.895870 0.345811 0.313017
0.912519 0.375940 0.307496
0.103680 0.439567 0.395421
0.188204 0.419020 0.335517
0.328446 0.400454 0.205838
0.579044 0.409605 0.102728
0.713760 0.402855 0.088923
0.805812 0.401687 0.105372
0.866245 0.418377 0.132299
0.902538 0.431088 0.163893
0.127519 0.600132 0.518147
0.247156 0.525711 0.326314
0.435368 0.499048 0.189433
0.641084 0.516829 0.121574
0.748211 0.499732 0.088092
0.831526 0.499044 0.093797
0.884558 0.505331 0.116073
0.918866 0.512475 0.142463
0.160061 0.720462 0.614259
0.304847 0.666323 0.398213
0.486236 0.592748 0.194621
0.664671 0.596560 0.138411
0.771634 0.606073 0.110995
0.843928 0.614117 0.092470
0.898136 0.618800 0.104986
0.928904 0.619284 0.121285
0.210009 0.800429 0.682748
0.350543 0.752690 0.453430
0.512622 0.675738 0.234051
0.678891 0.678586 0.179936
0.787922 0.697612 0.136881
0.854096 0.709614 0.112948
0.897981 0.719725 0.101735
0.930010 0.752072 0.146809
0.031533 0.012739 0.064579
0.077367 0.024705 0.113331
0.229241 0.045029 0.213601
0.523746 0.071138 0.287888
0.730678 0.074291 0.320683
0.830159 0.076733 0.359979
0.887488 0.090212 0.406997
0.922259 0.102821 0.438168
0.029608 0.078531 0.107635
0.198670 0.083022 0.237173
0.468191 0.108457 0.313941
0.702489 0.111186 0.342055
0.824191 0.114466 0.392667
0.886832 0.119996 0.435298
0.912641 0.128628 0.465354
0.932923 0.154693 0.489784
0.061206 0.173654 0.196073
0.143031 0.202374 0.272741
0.651340 0.172091 0.369458
0.800350 0.161601 0.402916
0.872771 0.162067 0.459424
0.903855 0.174005 0.494733
0.927659 0.201696 0.533784
0.939104 0.223596 0.544579
0.097626 0.325545 0.324739
0.151708 0.377260 0.391850
0.447165 0.359570 0.406421
0.778606 0.298840 0.354524
0.857260 0.306741 0.387975
0.886521 0.328608 0.406600
0.902907 0.349176 0.420656
0.921742 0.379970 0.440412
0.121460 0.483205 0.459936
0.167124 0.538426 0.522664
0.290374 0.532390 0.442129
0.582953 0.480410 0.214562
0.741952 0.442795 0.141073
0.821178 0.441261 0.149927
0.874780 0.457362 0.179224
0.905393 0.472155 0.207453
0.151862 0.631710 0.578275
0.194228 0.662733 0.612311
0.359238 0.635071 0.431756
0.636779 0.550191 0.161417
0.761334 0.545935 0.124985
0.838182 0.552106 0.123513
0.885342 0.552690 0.141446
0.918203 0.564152 0.181597
0.184180 0.738596 0.654369
0.237538 0.752566 0.655866
0.415270 0.697131 0.418511
0.671860 0.633625 0.195355
0.780266 0.644814 0.146988
0.849857 0.656189 0.124181
0.897335 0.667299 0.129843
0.924497 0.664946 0.144942
0.232700 0.806825 0.719326
0.319756 0.797891 0.653604
0.488560 0.754672 0.411258
0.681872 0.705461 0.230711
0.788632 0.731107 0.191745
0.854181 0.745501 0.160224
0.897781 0.764156 0.148286
0.928181 0.793151 0.230578
0.032794 0.038218 0.116041
0.087376 0.040329 0.180368
0.232452 0.052849 0.294647
0.527184 0.070983 0.353489
0.733705 0.074291 0.387349
0.840071 0.075553 0.431910
0.887024 0.083120 0.479046
0.920481 0.090412 0.521935
0.059977 0.116834 0.190780
0.145365 0.108182 0.279962
0.458785 0.114861 0.388191
0.710198 0.117137 0.409287
0.826594 0.113733 0.455931
0.882749 0.114252 0.513763
0.914460 0.124004 0.558197
0.933591 0.136454 0.583565
0.082038 0.210444 0.269970
0.157693 0.259139 0.376172
0.607123 0.176321 0.445549
0.795604 0.161179 0.472286
0.868178 0.158649 0.534673
0.903285 0.174604 0.577747
0.928230 0.185386 0.610461
0.937246 0.200116 0.628941
0.127645 0.361716 0.404824
0.178037 0.415546 0.479619
0.318633 0.429613 0.577270
0.808184 0.252206 0.532948
0.887806 0.246955 0.576826
0.914406 0.267692 0.608497
0.929227 0.295087 0.643385
0.933520 0.343934 0.593817
0.145149 0.506502 0.521003
0.201892 0.569643 0.593355
0.244972 0.609740 0.621056
0.545157 0.550228 0.488167
0.822482 0.459679 0.371317
0.862062 0.469075 0.382689
0.884956 0.481722 0.397050
0.904495 0.507510 0.356362
0.177577 0.644893 0.616277
0.220566 0.682146 0.653191
0.281796 0.716437 0.684251
0.495317 0.661784 0.446419
0.762226 0.589283 0.180844
0.836945 0.588072 0.167449
0.885669 0.601740 0.191254
0.913532 0.603163 0.220775
0.213723 0.741753 0.687012
0.261189 0.768173 0.715042
0.334614 0.788565 0.717654
0.589402 0.711186 0.409478
0.785567 0.683235 0.209954
0.850733 0.695449 0.172458
0.888640 0.700892 0.160221
0.918197 0.704991 0.182085
0.268562 0.815919 0.751291
0.330426 0.829007 0.757755
0.446395 0.805154 0.643982
0.637751 0.758623 0.377309
0.790345 0.755114 0.252264
0.856089 0.771952 0.226731
0.892126 0.787405 0.232172
0.917746 0.811996 0.331372
0.057768 0.071895 0.207738
0.115186 0.058077 0.268948
0.239145 0.064229 0.357387
0.534923 0.078665 0.422645
0.731984 0.075048 0.454166
0.840632 0.076427 0.507804
0.891117 0.077025 0.568473
0.924920 0.079552 0.613555
0.088524 0.152240 0.299037
0.147526 0.159722 0.383489
0.416965 0.133247 0.486188
0.704055 0.117709 0.484423
0.826591 0.112601 0.539881
0.884212 0.112803 0.589162
0.922783 0.124379 0.653358
0.935287 0.128438 0.665882
0.119446 0.260363 0.400524
0.181699 0.307734 0.498964
0.356561 0.279597 0.603950
0.773737 0.183416 0.571818
0.871857 0.167351 0.616430
0.907171 0.176401 0.658049
0.933993 0.192959 0.700048
0.943301 0.201338 0.708080
0.157033 0.408686 0.523172
0.198311 0.446763 0.581755
0.325007 0.466357 0.669662
0.732103 0.316081 0.656740
0.878473 0.264277 0.676183
0.915800 0.265420 0.699645
0.935117 0.291425 0.728749
0.943227 0.314603 0.741284
0.184896 0.554025 0.608754
0.231592 0.599265 0.651261
0.287539 0.640910 0.686120
0.428159 0.630849 0.711806
0.846407 0.425681 0.666560
0.897247 0.410051 0.655107
0.908730 0.433336 0.665479
0.918896 0.463439 0.651873
0.219586 0.674053 0.671506
0.280813 0.709886 0.710872
0.338113 0.735359 0.740851
0.399538 0.752265 0.741819
0.724464 0.664966 0.449245
0.863139 0.616475 0.317682
0.887443 0.623643 0.302400
0.912925 0.631238 0.331022
0.250623 0.754265 0.720588
0.316991 0.777612 0.752942
0.374002 0.799118 0.764363
0.456197 0.812476 0.760835
0.724145 0.736144 0.408255
0.854611 0.727983 0.241274
0.888554 0.730890 0.221180
0.912224 0.738724 0.245553
0.304066 0.820663 0.776301
0.380457 0.839259 0.793955
0.435745 0.846255 0.789300
0.576040 0.825842 0.683213
0.771646 0.775862 0.350202
0.858762 0.793348 0.297932
0.889597 0.809480 0.333631
0.911981 0.826188 0.431763
0.091067 0.087157 0.321256
0.146434 0.081029 0.395857
0.284402 0.072155 0.473619
0.514477 0.079817 0.515051
0.732696 0.080354 0.533283
0.850723 0.079483 0.599575
0.902974 0.077192 0.661510
0.934604 0.080541 0.697070
0.121786 0.179493 0.425640
0.167880 0.210493 0.503646
0.380102 0.156300 0.583952
0.702314 0.127620 0.577048
0.825426 0.115064 0.633833
0.886492 0.114203 0.671795
0.917215 0.119442 0.717185
0.938308 0.128006 0.744781
0.161070 0.301584 0.541339
0.212585 0.337109 0.613453
0.300616 0.361052 0.685221
0.657841 0.225720 0.683283
0.874484 0.180329 0.704175
0.906976 0.183671 0.727502
0.929634 0.193704 0.759273
0.944218 0.208185 0.782519
0.190527 0.435600 0.628455
0.248956 0.483166 0.685717
0.322071 0.527449 0.728820
0.487033 0.481906 0.761445
0.851483 0.298901 0.745091
0.917163 0.284892 0.773343
0.930083 0.301928 0.788935
0.940391 0.323006 0.802521
0.219082 0.577262 0.686003
0.273009 0.621780 0.725295
0.334013 0.659985 0.754875
0.455036 0.645827 0.775696
0.746441 0.518133 0.773805
0.883288 0.436905 0.751411
0.913447 0.431012 0.766778
0.920987 0.451208 0.778527
0.267451 0.697538 0.734116
0.322787 0.724754 0.762709
0.385400 0.749493 0.783070
0.449143 0.763291 0.792623
0.592566 0.758161 0.791956
0.840706 0.669494 0.527615
0.890507 0.638184 0.456893
0.910777 0.653582 0.450850
0.303988 0.771785 0.764860
0.368727 0.787450 0.782071
0.442171 0.805168 0.801421
0.505892 0.819515 0.804683
0.594758 0.823579 0.787498
0.809213 0.772208 0.479057
0.892196 0.751614 0.320202
0.913353 0.765324 0.330708
0.352907 0.825444 0.797975
0.424485 0.841105 0.811171
0.496503 0.848029 0.822065
0.567032 0.858439 0.804700
0.698999 0.841941 0.713634
0.823250 0.811136 0.449922
0.886091 0.818392 0.411347
0.909870 0.838108 0.509564
0.117050 0.112005 0.450162
0.166501 0.120626 0.524010
0.305632 0.097947 0.587751
0.543463 0.091950 0.605304
0.740862 0.088890 0.637939
0.847337 0.078201 0.679721
0.901948 0.076891 0.737253
0.928765 0.079963 0.772175
0.151699 0.186890 0.539138
0.203229 0.218455 0.615168
0.345373 0.184289 0.675697
0.627529 0.144399 0.695877
0.825641 0.123373 0.711038
0.884522 0.117767 0.740530
0.916926 0.125719 0.774154
0.930181 0.135831 0.801775
0.211469 0.328429 0.657559
0.262250 0.358634 0.704830
0.328144 0.389705 0.748090
0.596121 0.272383 0.768708
0.858747 0.196723 0.764487
0.905591 0.197722 0.789275
0.922976 0.202707 0.803762
0.937139 0.216459 0.831600
0.239129 0.451912 0.719697
0.296846 0.495665 0.754056
0.362454 0.535490 0.785593
0.468685 0.536262 0.816074
0.774670 0.363060 0.815186
0.905430 0.300199 0.811829
0.923178 0.316233 0.828706
0.933468 0.334674 0.835688
0.265075 0.601540 0.759005
0.328872 0.635848 0.787033
0.395394 0.669366 0.812464
0.474095 0.674794 0.831125
0.625181 0.631721 0.841457
0.852202 0.478679 0.821382
0.911380 0.443120 0.832849
0.920931 0.463107 0.839242
0.312216 0.713370 0.792959
0.373921 0.730008 0.808772
0.435036 0.751416 0.825649
0.509129 0.768097 0.838949
0.628507 0.765342 0.851988
0.751145 0.731954 0.837716
0.877458 0.627258 0.800606
0.897905 0.609411 0.793734
0.362737 0.781855 0.816069
0.430753 0.796039 0.826000
0.501632 0.809445 0.833762
0.574780 0.823724 0.843173
0.641154 0.834619 0.846211
0.737768 0.826620 0.810100
0.879230 0.785053 0.531513
0.913036 0.775409 0.508904
0.404621 0.831136 0.821489
0.481024 0.841267 0.832727
0.549181 0.849859 0.837046
0.624545 0.859845 0.849450
0.690947 0.872110 0.848630
0.789500 0.857685 0.744055
0.867052 0.842817 0.589142
0.910194 0.855311 0.600525
0.154637 0.121212 0.567969
0.203673 0.140396 0.624321
0.335395 0.116842 0.678082
0.577689 0.099436 0.712393
0.726251 0.095355 0.723603
0.844969 0.086559 0.760177
0.906639 0.082111 0.802915
0.927622 0.084056 0.827620
0.188526 0.200858 0.640706
0.243220 0.233914 0.699157
0.323350 0.257505 0.757665
0.563082 0.177608 0.779786
0.821281 0.135373 0.778764
0.877834 0.133754 0.806304
0.913008 0.133978 0.825384
0.934055 0.143994 0.848774
0.251196 0.338146 0.733889
0.294692 0.357790 0.769625
0.369325 0.394878 0.809212
0.539623 0.328897 0.829033
0.784252 0.236962 0.825667
0.892706 0.212466 0.831958
0.918053 0.219814 0.847116
0.930549 0.227260 0.859299
0.294053 0.472695 0.781928
0.354022 0.514362 0.813460
0.423219 0.534354 0.838057
0.494796 0.547120 0.852998
0.716770 0.409025 0.861942
0.891563 0.338470 0.849635
0.914366 0.337753 0.858703
0.930971 0.351548 0.872023
0.322632 0.610577 0.814177
0.385755 0.633589 0.838353
0.453401 0.651055 0.854024
0.535664 0.675646 0.866321
0.627582 0.670209 0.879543
0.808558 0.532433 0.867934
0.904688 0.470947 0.859219
0.916409 0.475217 0.862678
0.361537 0.711173 0.835713
0.427144 0.733684 0.851359
0.500357 0.754684 0.863881
0.579053 0.769792 0.876438
0.649925 0.777741 0.881263
0.728567 0.764792 0.881655
0.866629 0.648500 0.871094
0.900251 0.620107 0.872363
0.417531 0.791095 0.854539
0.481564 0.800539 0.857252
0.560451 0.816711 0.869485
0.619340 0.828272 0.871220
0.680943 0.840115 0.877104
0.754213 0.843973 0.878130
0.845663 0.834809 0.829491
0.906334 0.794630 0.760741
0.477659 0.841421 0.859133
0.543753 0.846911 0.858267
0.610658 0.858951 0.864947
0.671735 0.868768 0.872399
0.734419 0.877343 0.882097
0.784828 0.885270 0.878813
0.858624 0.880322 0.814252
0.909400 0.880367 0.750656
0.198657 0.134708 0.661054
0.248605 0.152000 0.710888
0.334012 0.148758 0.756031
0.572554 0.103753 0.779528
0.743234 0.098207 0.791445
0.843065 0.099005 0.817831
0.903804 0.088532 0.850470
0.930218 0.088585 0.871188
0.231048 0.207600 0.729002
0.287726 0.237156 0.775164
0.360083 0.273415 0.813268
0.541813 0.193148 0.831723
0.798888 0.144521 0.832496
0.877430 0.142447 0.850580
0.912567 0.151762 0.868884
0.929358 0.149579 0.881392
0.285362 0.331424 0.797731
0.341179 0.360397 0.828647
0.399872 0.386289 0.849606
0.486956 0.394240 0.868538
0.717297 0.269453 0.876613
0.887338 0.224767 0.866592
0.916217 0.241263 0.879041
0.928660 0.249201 0.887514
0.339635 0.482200 0.834106
0.403515 0.496621 0.853311
0.469707 0.526228 0.873613
0.533945 0.539039 0.884418
0.682562 0.471275 0.892121
0.843650 0.376068 0.883341
0.910275 0.364936 0.881983
0.924140 0.368507 0.889352
0.376591 0.614259 0.861293
0.437057 0.631457 0.872614
0.523385 0.651208 0.885616
0.591512 0.665252 0.892625
0.648669 0.669163 0.895731
0.783528 0.577974 0.898213
0.890432 0.507145 0.885087
0.915901 0.503720 0.886139
0.412453 0.711563 0.872637
0.483253 0.731187 0.883484
0.563904 0.746581 0.889253
0.633024 0.759007 0.895027
0.694620 0.770427 0.900900
0.751151 0.771496 0.901912
0.844712 0.701060 0.904481
0.903301 0.654812 0.904544
0.469839 0.794375 0.881983
0.541559 0.805328 0.885079
0.610445 0.818402 0.890402
0.674452 0.826878 0.895672
0.729437 0.835630 0.900226
0.780091 0.846812 0.907322
0.837325 0.853611 0.904195
0.907835 0.803630 0.899056
0.533584 0.845376 0.883297
0.601144 0.854828 0.883789
0.659806 0.865175 0.887913
0.712405 0.874817 0.892931
0.766067 0.882241 0.901668
0.818770 0.893006 0.914907
0.868179 0.902930 0.907065
0.917983 0.906403 0.897057
