其他预设/【236】赛博朋克风调色预设/【后期菌】视频调色预设/CUBE/Miami 04_S.cube
# LUT by SparkleStock. Enhanced with VOXCOLOR algorithms.
LUT_3D_SIZE 8
DOMAIN_MIN 0.000000 0.000000 0.000000
DOMAIN_MAX 0.903226 0.903226 0.903226
0.019550 0.003910 0.007820
0.040614 0.007820 0.031533
0.138366 0.025479 0.040110
0.482578 0.076436 0.039857
0.774572 0.128149 0.050957
0.837890 0.145808 0.100022
0.855422 0.164854 0.144420
0.867657 0.189449 0.184782
0.023460 0.012487 0.027623
0.089346 0.021617 0.048418
0.380042 0.069340 0.058212
0.701221 0.129614 0.064067
0.770157 0.151927 0.101344
0.813799 0.167213 0.157094
0.859808 0.193990 0.220827
0.877873 0.225283 0.266401
0.023460 0.038722 0.041623
0.112094 0.047739 0.072147
0.585721 0.131372 0.049053
0.706644 0.180270 0.061271
0.740773 0.205093 0.095241
0.796608 0.223578 0.148115
0.856797 0.245622 0.189229
0.882943 0.267801 0.152008
0.023460 0.110743 0.079589
0.066671 0.100632 0.070682
0.412726 0.173654 0.035219
0.682997 0.244023 0.019111
0.734910 0.273945 0.034869
0.791852 0.293263 0.062964
0.850796 0.298549 0.094602
0.882935 0.322713 0.107452
0.015640 0.251001 0.160817
0.044984 0.226544 0.100278
0.206509 0.256181 0.053602
0.581933 0.339167 0.007820
0.723733 0.375383 0.000000
0.796877 0.390071 0.001261
0.860557 0.405386 0.010733
0.897143 0.419533 0.032766
0.018163 0.438180 0.274462
0.093532 0.350563 0.116651
0.381706 0.410846 0.057715
0.708556 0.484942 0.008325
0.801218 0.506490 0.002523
0.856655 0.529625 0.006026
0.889038 0.543878 0.013370
0.915334 0.551637 0.030276
0.052092 0.607700 0.406773
0.169801 0.527383 0.160972
0.534678 0.580627 0.058456
0.763224 0.647769 0.022577
0.855247 0.673301 0.017394
0.897281 0.689779 0.016019
0.919497 0.693722 0.028001
0.931048 0.697864 0.037839
0.113644 0.700911 0.513859
0.303305 0.661774 0.172271
0.627072 0.710448 0.067810
0.788194 0.749761 0.044056
0.867958 0.770060 0.042535
0.906127 0.784219 0.043515
0.928883 0.787690 0.050904
0.942326 0.802821 0.075549
0.023965 0.008072 0.032290
0.047962 0.011999 0.047962
0.126725 0.022293 0.072717
0.471051 0.074621 0.094074
0.745501 0.114718 0.117485
0.817961 0.132393 0.181332
0.853278 0.164068 0.255192
0.873963 0.197143 0.321887
0.024201 0.017626 0.042128
0.103149 0.032936 0.088765
0.377963 0.077080 0.114322
0.634187 0.125832 0.137806
0.709875 0.144579 0.192948
0.779655 0.165803 0.255590
0.847850 0.190817 0.310561
0.885555 0.228344 0.384104
0.028127 0.058403 0.081074
0.061381 0.072894 0.110375
0.586247 0.153270 0.161465
0.637679 0.194742 0.198479
0.686984 0.218801 0.241494
0.759807 0.235105 0.278455
0.843041 0.259248 0.336567
0.891093 0.286548 0.410850
0.030573 0.143004 0.137328
0.045115 0.177310 0.182596
0.307033 0.209156 0.150541
0.626938 0.274668 0.133626
0.682363 0.298336 0.164826
0.757584 0.315917 0.190152
0.839704 0.330763 0.219619
0.899119 0.357271 0.270991
0.026679 0.303663 0.244638
0.037693 0.351073 0.298603
0.153309 0.336771 0.154825
0.497831 0.393505 0.060794
0.683283 0.421781 0.047995
0.767117 0.433711 0.050758
0.849723 0.453032 0.051702
0.900129 0.468801 0.061348
0.038047 0.504749 0.385835
0.053201 0.547771 0.423373
0.236647 0.479215 0.158669
0.654931 0.537529 0.032747
0.753589 0.567820 0.035174
0.825539 0.594515 0.037467
0.881154 0.601626 0.039003
0.917889 0.613352 0.058728
0.079813 0.649169 0.522114
0.101138 0.642759 0.457799
0.384439 0.621445 0.150057
0.752935 0.680913 0.041097
0.836420 0.707460 0.035437
0.885468 0.724827 0.037585
0.917037 0.739173 0.047357
0.926542 0.734956 0.063660
0.140083 0.719074 0.605064
0.222339 0.695779 0.399713
0.566173 0.734178 0.138895
0.788898 0.765673 0.062789
0.867087 0.787252 0.060231
0.902958 0.801450 0.066178
0.927166 0.814101 0.074666
0.938730 0.827260 0.109982
0.032290 0.013244 0.070003
0.053101 0.016649 0.082807
0.141007 0.032290 0.131176
0.448604 0.068839 0.178809
0.724376 0.103306 0.208751
0.809132 0.129411 0.289308
0.859654 0.169590 0.368796
0.879489 0.213719 0.433493
0.035728 0.036769 0.101731
0.078524 0.042457 0.136350
0.352302 0.079813 0.191813
0.616727 0.125602 0.237546
0.689246 0.145270 0.291033
0.762660 0.165524 0.341301
0.842287 0.200198 0.395808
0.883574 0.239212 0.459493
0.037144 0.075927 0.132682
0.075198 0.104217 0.197537
0.499172 0.150962 0.254178
0.613113 0.199646 0.300344
0.670896 0.225034 0.337561
0.750168 0.242543 0.363964
0.830013 0.260496 0.399437
0.885291 0.290317 0.474649
0.038848 0.183871 0.231658
0.062884 0.235314 0.286870
0.203375 0.271521 0.330287
0.602377 0.289276 0.335674
0.669074 0.314759 0.357956
0.746471 0.327905 0.371953
0.828487 0.351417 0.401464
0.894574 0.367673 0.429280
0.034926 0.350486 0.349323
0.052536 0.415674 0.431268
0.112420 0.463856 0.430994
0.412531 0.429352 0.253526
0.688973 0.430129 0.205704
0.760864 0.447647 0.218651
0.835615 0.467879 0.234175
0.902328 0.494331 0.195381
0.051173 0.557158 0.491660
0.072942 0.592929 0.549148
0.124244 0.622197 0.568119
0.436757 0.592446 0.196841
0.730951 0.602927 0.079121
0.804043 0.622125 0.088466
0.860300 0.639368 0.102773
0.907636 0.639672 0.121077
0.096743 0.672967 0.618877
0.131070 0.686602 0.636577
0.246235 0.697182 0.573344
0.646409 0.708146 0.162832
0.831468 0.737046 0.067944
0.875839 0.752051 0.071447
0.886937 0.754417 0.092713
0.918631 0.758755 0.118053
0.181682 0.746420 0.685422
0.277446 0.745915 0.646559
0.472668 0.741115 0.400208
0.748385 0.779526 0.152672
0.865350 0.803375 0.088034
0.901032 0.816998 0.098786
0.902997 0.831473 0.117984
0.930303 0.842007 0.165074
0.045281 0.032794 0.146691
0.075378 0.032998 0.166481
0.153685 0.037054 0.196036
0.460399 0.072652 0.256905
0.725747 0.102740 0.310649
0.814547 0.139477 0.393513
0.856980 0.186003 0.464879
0.875440 0.230710 0.514721
0.050355 0.059835 0.198132
0.097885 0.078600 0.274216
0.323450 0.084466 0.303151
0.624339 0.123954 0.337694
0.697411 0.152467 0.396389
0.765306 0.179810 0.436616
0.843361 0.222948 0.493590
0.880481 0.265395 0.549093
0.058175 0.114779 0.262593
0.094394 0.163634 0.352590
0.269327 0.183820 0.409438
0.607915 0.204671 0.406367
0.671089 0.232769 0.430972
0.745215 0.252305 0.452759
0.828487 0.280242 0.493647
0.884726 0.308701 0.555711
0.061678 0.246460 0.373556
0.087854 0.285717 0.429693
0.226396 0.338374 0.484848
0.573231 0.297576 0.443062
0.669057 0.321116 0.455666
0.745724 0.339742 0.468607
0.822160 0.358282 0.485894
0.887009 0.380747 0.528653
0.059705 0.415944 0.504098
0.084230 0.474669 0.574228
0.154697 0.519155 0.577147
0.345022 0.506331 0.522291
0.690386 0.438397 0.468467
0.752119 0.446185 0.453183
0.820168 0.466661 0.451802
0.894734 0.491313 0.464457
0.075805 0.599913 0.623760
0.110442 0.638726 0.682519
0.177224 0.667443 0.692422
0.308599 0.665269 0.613458
0.682032 0.641705 0.277744
0.802389 0.629777 0.208845
0.841581 0.643673 0.226475
0.908214 0.645597 0.250048
0.119361 0.702132 0.709411
0.171843 0.722478 0.726477
0.283666 0.730522 0.709011
0.464964 0.741726 0.643409
0.772699 0.755932 0.207878
0.849549 0.769571 0.127575
0.867203 0.767436 0.169255
0.912633 0.770625 0.205083
0.216746 0.757093 0.744805
0.335911 0.774286 0.744660
0.477563 0.775960 0.696713
0.678547 0.784347 0.510680
0.858000 0.809707 0.150454
0.889738 0.830915 0.141151
0.888847 0.842241 0.190281
0.921950 0.849652 0.253626
0.070507 0.056885 0.285183
0.109417 0.055050 0.310092
0.219086 0.059282 0.321130
0.469404 0.081469 0.356378
0.743938 0.117815 0.406269
0.823816 0.167270 0.487066
0.858714 0.220742 0.550551
0.877621 0.268175 0.598891
0.074735 0.103118 0.369447
0.107740 0.140176 0.435888
0.330806 0.116842 0.437820
0.662505 0.139801 0.446549
0.733636 0.172671 0.506661
0.794274 0.210788 0.545742
0.850551 0.253104 0.586941
0.883555 0.306922 0.627066
0.087026 0.187044 0.447245
0.119104 0.235602 0.524474
0.214979 0.284329 0.583234
0.587228 0.214454 0.521841
0.711015 0.252809 0.546695
0.769238 0.274497 0.564987
0.841630 0.310949 0.597342
0.883694 0.344725 0.634459
0.094163 0.321395 0.548671
0.142587 0.381255 0.612197
0.224807 0.421546 0.635442
0.434711 0.399857 0.605009
0.701109 0.338790 0.568014
0.770420 0.361486 0.584364
0.830500 0.381903 0.594118
0.886229 0.403427 0.610425
0.106211 0.487188 0.656993
0.164764 0.537570 0.693330
0.242321 0.578830 0.699769
0.407081 0.564949 0.662080
0.690296 0.493736 0.613164
0.773860 0.473606 0.590288
0.822289 0.484510 0.579408
0.889466 0.504077 0.589445
0.121928 0.642053 0.733823
0.179850 0.671929 0.758201
0.273796 0.694300 0.765629
0.394801 0.702667 0.736765
0.604301 0.698927 0.684712
0.798156 0.659095 0.427224
0.839623 0.643225 0.391357
0.905851 0.651178 0.395195
0.166872 0.730048 0.778596
0.238877 0.739867 0.777842
0.372070 0.758310 0.775067
0.510905 0.764280 0.752820
0.660343 0.775339 0.702554
0.811646 0.778824 0.343435
0.862014 0.773286 0.266137
0.915235 0.777109 0.294039
0.263879 0.773884 0.782111
0.379450 0.787897 0.776069
0.524861 0.796507 0.771279
0.665579 0.801815 0.710117
0.789136 0.814673 0.608086
0.859338 0.835114 0.290700
0.877669 0.846676 0.269475
0.915648 0.856063 0.359239
0.097499 0.106455 0.455082
0.141735 0.128446 0.503821
0.267646 0.103765 0.472915
0.534866 0.107749 0.460554
0.764290 0.149632 0.497714
0.831738 0.204613 0.563359
0.860309 0.256754 0.609071
0.878882 0.303215 0.648876
0.104392 0.167755 0.529678
0.150625 0.221533 0.596074
0.343055 0.188168 0.584304
0.660729 0.169668 0.554600
0.790178 0.213204 0.584319
0.830033 0.257071 0.619223
0.867425 0.308895 0.649730
0.879879 0.350803 0.675095
0.120854 0.273904 0.615341
0.169761 0.320722 0.659611
0.260022 0.372714 0.685705
0.626970 0.266781 0.624909
0.778628 0.286490 0.627351
0.825555 0.322922 0.653947
0.865230 0.358191 0.674613
0.885580 0.388249 0.693133
0.145035 0.399677 0.679461
0.206612 0.445893 0.708737
0.287123 0.498387 0.727402
0.443462 0.510152 0.728627
0.750698 0.397118 0.676354
0.821899 0.397054 0.677022
0.851373 0.420499 0.681725
0.885954 0.435930 0.685411
0.189616 0.557175 0.742860
0.261726 0.603048 0.760525
0.358680 0.639512 0.776388
0.471139 0.653192 0.770226
0.656276 0.632404 0.752445
0.811298 0.532660 0.707284
0.836677 0.521862 0.693299
0.885681 0.535466 0.694000
0.227569 0.686280 0.792959
0.316681 0.699627 0.796185
0.417524 0.722071 0.798146
0.534982 0.736798 0.795541
0.681588 0.739927 0.788787
0.771121 0.711851 0.737798
0.832126 0.665546 0.691195
0.894555 0.657320 0.683248
0.256787 0.746697 0.813136
0.359208 0.759221 0.809800
0.485335 0.767140 0.802056
0.606219 0.782596 0.796353
0.700420 0.794029 0.792890
0.765053 0.788175 0.723377
0.855010 0.780308 0.473013
0.912456 0.775217 0.473051
0.331705 0.784471 0.810833
0.455505 0.795518 0.804563
0.581402 0.801828 0.796746
0.690618 0.814910 0.799535
0.774847 0.824912 0.783893
0.835057 0.834992 0.657093
0.873649 0.847439 0.476711
0.913079 0.854655 0.474583
0.138997 0.185665 0.604673
0.187317 0.220237 0.638769
0.342735 0.168934 0.595523
0.629997 0.157709 0.565914
0.760457 0.183281 0.575297
0.830843 0.246367 0.623609
0.863287 0.303940 0.660297
0.879765 0.349078 0.685975
0.144351 0.255656 0.651077
0.206544 0.305544 0.686217
0.318213 0.342597 0.704943
0.644428 0.244235 0.640432
0.823367 0.274171 0.640614
0.851107 0.313506 0.664446
0.869903 0.357770 0.689609
0.880241 0.395804 0.713378
0.174130 0.355898 0.708101
0.237671 0.397214 0.724702
0.348681 0.458262 0.751081
0.633688 0.373795 0.705849
0.810889 0.344898 0.684613
0.860620 0.378343 0.699420
0.876371 0.413387 0.717113
0.881759 0.436673 0.732204
0.210297 0.472732 0.750941
0.298640 0.527954 0.771299
0.393123 0.571878 0.780071
0.520081 0.603539 0.789964
0.782961 0.476685 0.744467
0.861015 0.457720 0.732143
0.864187 0.474339 0.740014
0.885755 0.490610 0.753569
0.276858 0.613730 0.792837
0.371041 0.644343 0.803382
0.459592 0.672867 0.810528
0.570504 0.702026 0.818233
0.692290 0.712297 0.818409
0.826949 0.610240 0.775121
0.854988 0.574009 0.763840
0.886184 0.574278 0.767398
0.349978 0.711112 0.819821
0.437714 0.731302 0.822754
0.536243 0.744144 0.823631
0.630786 0.757671 0.826453
0.714334 0.769209 0.827730
0.770799 0.756150 0.815415
0.843273 0.701970 0.784615
0.891400 0.685991 0.782224
0.404324 0.768518 0.838268
0.498427 0.774311 0.827071
0.599113 0.785722 0.822570
0.683974 0.795193 0.820407
0.751290 0.806908 0.825700
0.792759 0.806097 0.815784
0.838272 0.798154 0.765872
0.901737 0.785289 0.714585
0.449804 0.799241 0.835872
0.550491 0.803674 0.824330
0.655869 0.813979 0.821642
0.732231 0.824927 0.824585
0.793709 0.836656 0.830740
0.830258 0.841266 0.820887
0.865492 0.849705 0.749267
0.908886 0.852839 0.680568
0.183016 0.268281 0.686658
0.244922 0.297417 0.704443
0.371497 0.278978 0.687090
0.664703 0.213703 0.633036
0.785895 0.247693 0.640515
0.833723 0.301006 0.671393
0.864272 0.347984 0.698608
0.879765 0.394579 0.718696
0.205936 0.340656 0.723464
0.276543 0.381579 0.739507
0.387499 0.410641 0.745734
0.653511 0.319572 0.695504
0.820583 0.327002 0.684513
0.853685 0.364349 0.703169
0.874793 0.404864 0.728033
0.881618 0.432072 0.739065
0.238669 0.428952 0.759815
0.325981 0.479316 0.775157
0.428430 0.520793 0.784036
0.566936 0.523031 0.778826
0.793131 0.422651 0.735931
0.860358 0.426480 0.730626
0.874629 0.457421 0.748413
0.883288 0.490667 0.761817
0.294716 0.538979 0.790790
0.387559 0.583273 0.799257
0.500407 0.629035 0.812550
0.610891 0.655508 0.819248
0.776226 0.582779 0.795822
0.859295 0.533322 0.770657
0.882996 0.547621 0.774096
0.892025 0.565935 0.787182
0.380326 0.654186 0.819572
0.464069 0.678556 0.824121
0.570089 0.709196 0.835138
0.659985 0.730864 0.840228
0.727170 0.742808 0.841121
0.839167 0.681449 0.816008
0.874994 0.649567 0.805295
0.893383 0.644266 0.813613
0.455903 0.733075 0.838329
0.547788 0.745159 0.839896
0.626396 0.757820 0.841893
0.696164 0.772636 0.845739
0.755506 0.786355 0.849185
0.803670 0.789993 0.847948
0.859475 0.753953 0.837435
0.897620 0.733333 0.841775
0.529877 0.783381 0.847854
0.608172 0.789551 0.845511
0.678831 0.795042 0.843184
0.742890 0.807616 0.850293
0.783884 0.814709 0.849537
0.824674 0.823473 0.850116
0.854491 0.824252 0.847476
0.896291 0.810656 0.841833
0.569157 0.810393 0.849453
0.649732 0.817016 0.842482
0.717937 0.823059 0.847388
0.766588 0.829243 0.848191
0.808850 0.838183 0.850291
0.845720 0.847175 0.855251
0.870912 0.854313 0.846525
0.896393 0.860142 0.833389
