其他预设/【236】赛博朋克风调色预设/【后期菌】视频调色预设/CUBE/Miami 09_S.cube
# LUT by SparkleStock. Enhanced with VOXCOLOR algorithms.
LUT_3D_SIZE 5
DOMAIN_MIN 0.000000 0.000000 0.000000
DOMAIN_MAX 0.903226 0.903226 0.903226
0.070381 0.011730 0.015640
0.141267 0.020433 0.042380
0.456091 0.096112 0.116545
0.710623 0.162331 0.198909
0.789077 0.197269 0.228550
0.086022 0.056507 0.041497
0.334134 0.087564 0.094346
0.600421 0.179196 0.146528
0.750094 0.205342 0.179342
0.812928 0.227122 0.222382
0.099518 0.203197 0.079967
0.261018 0.202709 0.075805
0.547243 0.268765 0.107317
0.714265 0.286302 0.138366
0.803436 0.282933 0.185917
0.095734 0.581339 0.184656
0.439616 0.475226 0.102333
0.636743 0.486220 0.100510
0.746974 0.465021 0.109278
0.815499 0.459118 0.115223
0.169394 0.846593 0.402233
0.596056 0.698043 0.105572
0.725845 0.699756 0.092560
0.784410 0.673162 0.078865
0.833056 0.681857 0.086022
0.089932 0.019550 0.058020
0.156863 0.023460 0.091319
0.476434 0.082958 0.164459
0.737221 0.138240 0.245830
0.851890 0.182711 0.315812
0.086949 0.073616 0.096787
0.340029 0.116334 0.195895
0.598617 0.188894 0.262597
0.768182 0.204993 0.305942
0.909036 0.224945 0.382804
0.098724 0.272513 0.225954
0.165191 0.377557 0.317303
0.589256 0.331456 0.253230
0.741475 0.358013 0.265007
0.851012 0.367663 0.255905
0.101914 0.660850 0.426332
0.230192 0.719144 0.463662
0.615610 0.586180 0.135331
0.731089 0.576394 0.124303
0.834386 0.575583 0.143091
0.231398 0.859584 0.537246
0.491212 0.814228 0.370583
0.738339 0.740464 0.114988
0.800137 0.735756 0.097976
0.851632 0.759177 0.119079
0.102545 0.028253 0.154889
0.202750 0.026199 0.205903
0.563241 0.089460 0.321952
0.811419 0.144750 0.414878
0.920485 0.180368 0.495570
0.092959 0.098655 0.329780
0.215182 0.130320 0.499477
0.664256 0.180587 0.462357
0.817507 0.198551 0.499878
0.953031 0.228900 0.555562
0.075658 0.365109 0.530195
0.161489 0.466992 0.605788
0.632209 0.383429 0.534177
0.802208 0.376488 0.516005
0.933985 0.414611 0.534279
0.125688 0.738828 0.645353
0.267473 0.778958 0.660648
0.488628 0.778102 0.598193
0.741393 0.623928 0.254607
0.851939 0.629549 0.267894
0.293125 0.872975 0.632967
0.487415 0.877889 0.639778
0.732479 0.852001 0.459945
0.805869 0.793248 0.172005
0.880581 0.826640 0.274793
0.104311 0.034560 0.495948
0.266104 0.040582 0.587438
0.702742 0.067041 0.562781
0.885519 0.117404 0.594912
0.967048 0.147354 0.652351
0.106849 0.099518 0.677516
0.228645 0.139074 0.756585
0.800225 0.151770 0.668394
0.914693 0.187891 0.683873
0.973327 0.236695 0.692502
0.121355 0.403811 0.740171
0.279352 0.495251 0.760819
0.540862 0.529069 0.738413
0.887435 0.411265 0.690623
0.941580 0.450631 0.681613
0.203702 0.760925 0.733303
0.401878 0.790387 0.736428
0.601042 0.807170 0.724304
0.773512 0.761011 0.671989
0.908423 0.689717 0.642578
0.391678 0.891276 0.704821
0.566073 0.887138 0.693022
0.724846 0.890478 0.685362
0.828589 0.887037 0.597337
0.900861 0.862019 0.467119
0.126510 0.009964 0.774067
0.315552 0.025027 0.798305
0.797422 0.071370 0.723615
0.917983 0.101759 0.738942
0.982815 0.131425 0.748800
0.146955 0.086526 0.859523
0.316084 0.150186 0.865345
0.737084 0.227762 0.801226
0.945407 0.233353 0.760718
0.977242 0.286458 0.758947
0.246733 0.444088 0.830700
0.436618 0.518801 0.808155
0.615957 0.577974 0.790166
0.897384 0.524310 0.758363
0.951960 0.531875 0.756808
0.363828 0.748211 0.786461
0.551519 0.765810 0.773775
0.689608 0.788809 0.764674
0.792476 0.809376 0.754069
0.932610 0.748437 0.752759
0.507564 0.882540 0.756617
0.653264 0.885632 0.741962
0.759939 0.888728 0.732598
0.844058 0.897291 0.735734
0.916691 0.909439 0.706806
