其他预设/【236】赛博朋克风调色预设/【后期菌】视频调色预设/CUBE/Miami 07.cube
# LUT by SparkleStock. Enhanced with VOXCOLOR algorithms.
LUT_3D_SIZE 5
DOMAIN_MIN 0.000000 0.000000 0.000000
DOMAIN_MAX 0.903226 0.903226 0.903226
0.000000 0.000000 0.000000
0.117176 0.027623 0.080850
0.677703 0.083877 0.125627
0.868161 0.112761 0.202188
0.914199 0.140384 0.259452
0.024974 0.070633 0.074544
0.466808 0.112383 0.150239
0.838935 0.152655 0.207938
0.904605 0.189567 0.300066
0.927118 0.249772 0.282013
0.060417 0.224892 0.213540
0.211888 0.215033 0.137251
0.745834 0.247270 0.071044
0.875001 0.279332 0.096743
0.918296 0.329268 0.132226
0.088670 0.565572 0.460505
0.268660 0.394115 0.162758
0.720242 0.482639 0.051335
0.867429 0.492315 0.046819
0.922902 0.516503 0.068204
0.184025 0.790464 0.670640
0.370985 0.657050 0.217629
0.730239 0.670367 0.082217
0.868255 0.727431 0.072432
0.920632 0.774694 0.095856
0.028884 0.020433 0.072147
0.111797 0.035488 0.153791
0.675417 0.082022 0.221397
0.879505 0.107338 0.354034
0.921462 0.128654 0.462019
0.048687 0.109445 0.150357
0.460488 0.125497 0.278960
0.861224 0.147264 0.404115
0.909156 0.185351 0.538726
0.932208 0.245142 0.611964
0.097263 0.314478 0.327127
0.162209 0.399524 0.438588
0.849818 0.298247 0.356076
0.902311 0.351882 0.417960
0.920257 0.408696 0.373935
0.132186 0.627653 0.585904
0.212139 0.695800 0.635484
0.701756 0.563383 0.085973
0.859426 0.604325 0.069302
0.916047 0.644520 0.099714
0.262320 0.806609 0.744931
0.362222 0.798752 0.620086
0.729962 0.712284 0.121053
0.861537 0.775886 0.108453
0.910050 0.815422 0.150583
0.053480 0.068237 0.187431
0.149071 0.059587 0.285419
0.709269 0.086327 0.375525
0.879546 0.115207 0.535586
0.926707 0.158315 0.664016
0.097626 0.178044 0.344070
0.209470 0.228763 0.528930
0.860890 0.174875 0.586677
0.919583 0.232147 0.697347
0.934112 0.307333 0.755261
0.144599 0.404316 0.560698
0.219566 0.540351 0.672979
0.759965 0.416185 0.685785
0.905152 0.407553 0.743110
0.915053 0.482465 0.778968
0.227919 0.708101 0.720384
0.324594 0.756206 0.756544
0.467001 0.780242 0.763372
0.875776 0.683121 0.192996
0.914181 0.712721 0.184480
0.350389 0.825570 0.790379
0.490872 0.845693 0.812721
0.688606 0.814787 0.629405
0.858620 0.804447 0.178335
0.905742 0.829991 0.298707
0.109608 0.117428 0.435153
0.206705 0.120171 0.552666
0.736891 0.115552 0.583894
0.882744 0.150503 0.693522
0.929587 0.232651 0.784003
0.176474 0.277631 0.628056
0.282232 0.361960 0.725285
0.826861 0.254154 0.724927
0.906505 0.312020 0.786322
0.928351 0.374393 0.820907
0.226153 0.552695 0.745216
0.346702 0.649038 0.794928
0.568666 0.670439 0.824886
0.891598 0.500383 0.816827
0.903813 0.543129 0.835723
0.348273 0.761552 0.810999
0.481936 0.793778 0.833005
0.631664 0.818511 0.851200
0.812427 0.779157 0.819244
0.899774 0.729803 0.820062
0.482391 0.840160 0.829472
0.601850 0.852187 0.840584
0.715787 0.865804 0.856499
0.837148 0.855260 0.759158
0.907239 0.850277 0.524187
0.184404 0.178350 0.653864
0.302601 0.220066 0.729344
0.775622 0.176604 0.748927
0.887712 0.242587 0.801125
0.925339 0.313265 0.843440
0.282514 0.400174 0.781322
0.415077 0.486345 0.826049
0.690450 0.452088 0.846695
0.895219 0.393951 0.838247
0.921370 0.439038 0.857990
0.363152 0.655484 0.833854
0.529075 0.699629 0.859328
0.675323 0.718744 0.877942
0.868890 0.595837 0.869584
0.906214 0.606618 0.883024
0.504403 0.790749 0.866050
0.629291 0.812738 0.877789
0.734617 0.822586 0.887805
0.811564 0.837388 0.900078
0.908484 0.767478 0.902061
0.623133 0.859458 0.871567
0.710856 0.867657 0.878671
0.784224 0.878630 0.889325
0.858050 0.891141 0.901707
0.920866 0.901619 0.885154
