其他预设/【236】赛博朋克风调色预设/【后期菌】视频调色预设/CUBE/Miami 10.cube
# LUT by SparkleStock. Enhanced with VOXCOLOR algorithms.
LUT_3D_SIZE 32
0.019550 0.019550 0.015640
0.023587 0.021568 0.017658
0.027875 0.023587 0.019676
0.035947 0.025605 0.021695
0.044777 0.027623 0.023965
0.058903 0.029641 0.028001
0.077192 0.033551 0.033551
0.113518 0.045660 0.045660
0.156907 0.058273 0.058273
0.221486 0.072399 0.072399
0.287327 0.087157 0.086526
0.355942 0.103301 0.100653
0.418503 0.118689 0.113266
0.470974 0.132816 0.123356
0.512850 0.144294 0.134330
0.541103 0.152367 0.146438
0.564311 0.158421 0.154511
0.582474 0.162457 0.158547
0.594961 0.166493 0.164854
0.603033 0.170529 0.172926
0.612367 0.174566 0.183521
0.622458 0.178602 0.195630
0.629773 0.181251 0.202188
0.635828 0.183269 0.206225
0.641882 0.186800 0.210261
0.647936 0.190837 0.214297
0.653990 0.196512 0.223252
0.660045 0.202567 0.233343
0.666099 0.206855 0.239902
0.672153 0.210891 0.245956
0.678208 0.216820 0.250118
0.684262 0.222874 0.254154
0.023587 0.023587 0.019676
0.028664 0.024563 0.020653
0.034060 0.025670 0.021760
0.044215 0.028729 0.024819
0.056169 0.032180 0.028522
0.080712 0.038364 0.036725
0.109417 0.045464 0.045464
0.156159 0.056531 0.056531
0.208401 0.069144 0.068884
0.277147 0.086396 0.085094
0.343248 0.102650 0.100002
0.403530 0.116712 0.112045
0.457759 0.130017 0.123747
0.501897 0.142060 0.134879
0.537262 0.152367 0.145983
0.561349 0.160439 0.157050
0.580391 0.165972 0.165122
0.594387 0.168967 0.170200
0.605637 0.173133 0.178720
0.614751 0.178211 0.189917
0.623825 0.183289 0.201033
0.632874 0.188367 0.212100
0.638432 0.190625 0.216901
0.642403 0.191601 0.218854
0.647936 0.195654 0.225494
0.653990 0.200732 0.233697
0.660891 0.206603 0.244280
0.667987 0.212657 0.255412
0.674171 0.218769 0.263012
0.680226 0.224888 0.270108
0.686280 0.230946 0.274335
0.692334 0.237001 0.278372
0.027370 0.027497 0.023587
0.033555 0.027497 0.023652
0.040150 0.027761 0.023973
0.052910 0.031993 0.028139
0.068436 0.036965 0.033307
0.103330 0.047120 0.045480
0.142374 0.057312 0.057300
0.199401 0.067663 0.067586
0.260254 0.080439 0.079825
0.332580 0.100490 0.097923
0.398558 0.118038 0.113538
0.450573 0.130082 0.123694
0.496485 0.141344 0.134509
0.532225 0.151305 0.146422
0.561072 0.160410 0.157566
0.581058 0.168418 0.167722
0.596096 0.173463 0.175990
0.606187 0.175546 0.182369
0.616241 0.179827 0.192997
0.626266 0.185816 0.206928
0.635071 0.191846 0.218541
0.643143 0.197900 0.228761
0.647098 0.199926 0.232090
0.649181 0.200121 0.232285
0.654292 0.204760 0.241513
0.660411 0.210879 0.253752
0.668064 0.216946 0.265620
0.676072 0.223000 0.277403
0.682370 0.230877 0.286110
0.688424 0.239015 0.294378
0.694357 0.245138 0.298557
0.700281 0.251127 0.302463
0.027370 0.029515 0.025605
0.035638 0.029515 0.026711
0.044838 0.029974 0.028139
0.068013 0.037331 0.034389
0.093825 0.045167 0.041509
0.138093 0.056364 0.054725
0.186316 0.068184 0.067977
0.251677 0.082701 0.081387
0.317476 0.098081 0.095709
0.384594 0.116049 0.112765
0.444714 0.131840 0.127991
0.489438 0.142842 0.139188
0.527277 0.152672 0.149482
0.553643 0.160549 0.158270
0.575850 0.168027 0.168113
0.592711 0.174993 0.179310
0.606187 0.180038 0.190702
0.616277 0.183163 0.202290
0.625745 0.187313 0.213438
0.634729 0.192261 0.224245
0.643143 0.197900 0.235987
0.651216 0.203954 0.248291
0.655887 0.208129 0.254419
0.659011 0.211449 0.257739
0.665163 0.217650 0.269311
0.672324 0.224811 0.283633
0.679327 0.231072 0.291660
0.686292 0.237127 0.298235
0.692461 0.245915 0.309026
0.698515 0.255094 0.320418
0.702494 0.260306 0.322839
0.706335 0.265254 0.324662
0.027623 0.031281 0.027623
0.037583 0.031411 0.029511
0.048955 0.032172 0.031801
0.081505 0.042392 0.040134
0.116936 0.052930 0.049273
0.172531 0.065690 0.064050
0.231276 0.079463 0.079060
0.303667 0.097626 0.095074
0.373275 0.115219 0.111089
0.434534 0.131103 0.127104
0.488266 0.145096 0.141816
0.525438 0.154926 0.153664
0.555531 0.163340 0.163486
0.573824 0.169394 0.169931
0.590180 0.175449 0.178854
0.604047 0.181503 0.190963
0.616090 0.186678 0.204959
0.626311 0.190975 0.220844
0.635323 0.195272 0.232627
0.643395 0.199568 0.241220
0.651305 0.204963 0.253109
0.659117 0.211018 0.266975
0.664423 0.217161 0.275739
0.668589 0.223346 0.282184
0.675783 0.230849 0.295806
0.683985 0.238791 0.311821
0.690019 0.245199 0.315405
0.695553 0.251253 0.316122
0.701428 0.260953 0.328230
0.707352 0.271174 0.341966
0.709858 0.275963 0.343313
0.712137 0.280390 0.343834
0.029641 0.031281 0.029641
0.038560 0.032452 0.030487
0.049085 0.034255 0.031932
0.083719 0.045517 0.042348
0.124097 0.057618 0.053960
0.204691 0.075585 0.073945
0.283356 0.093589 0.092991
0.353664 0.111752 0.107964
0.419106 0.128825 0.122937
0.469949 0.142626 0.137910
0.513590 0.154535 0.151256
0.541388 0.162282 0.161021
0.566012 0.169394 0.170713
0.585347 0.175449 0.180282
0.601377 0.181503 0.190963
0.613161 0.187557 0.203071
0.624683 0.193774 0.216026
0.635946 0.200154 0.229827
0.645414 0.206534 0.243043
0.653486 0.212914 0.255802
0.660094 0.219090 0.267952
0.665822 0.225144 0.279735
0.671193 0.232004 0.289996
0.676401 0.239230 0.299566
0.684636 0.246212 0.313188
0.693880 0.253113 0.328161
0.696725 0.259326 0.323087
0.698092 0.265380 0.313387
0.702535 0.275991 0.321460
0.707417 0.287254 0.332071
0.711811 0.295037 0.337128
0.716173 0.302589 0.341816
0.031281 0.032416 0.031659
0.039548 0.034239 0.031854
0.049618 0.036716 0.032794
0.086725 0.049020 0.044903
0.131685 0.062561 0.058525
0.231614 0.084760 0.082742
0.326037 0.106312 0.105141
0.396605 0.125061 0.119658
0.459883 0.142052 0.133931
0.501286 0.153770 0.147472
0.536058 0.163779 0.159304
0.556239 0.170029 0.167376
0.576200 0.176279 0.176889
0.595795 0.182528 0.188802
0.611317 0.188521 0.200886
0.621603 0.194185 0.213190
0.632410 0.200956 0.225104
0.643737 0.208833 0.236626
0.653234 0.216929 0.250529
0.661306 0.225197 0.266283
0.667100 0.232204 0.278498
0.671527 0.238453 0.288588
0.676938 0.245822 0.299663
0.682797 0.253699 0.311186
0.691683 0.260648 0.324662
0.701579 0.267288 0.338789
0.701794 0.273611 0.326045
0.699776 0.279861 0.307101
0.702714 0.290553 0.310088
0.706359 0.301881 0.316207
0.712080 0.311682 0.323608
0.717939 0.321382 0.331095
0.031281 0.038470 0.033677
0.040590 0.039251 0.034914
0.051897 0.040818 0.036830
0.093170 0.054163 0.048939
0.141125 0.068615 0.062561
0.235845 0.090814 0.086778
0.327990 0.112953 0.109567
0.408974 0.134826 0.126168
0.478762 0.153640 0.141222
0.514957 0.163275 0.151638
0.546148 0.172177 0.161322
0.566329 0.179468 0.169394
0.585119 0.186760 0.178516
0.601589 0.194051 0.189388
0.615809 0.199719 0.201342
0.627137 0.203299 0.214688
0.636381 0.208507 0.225559
0.643542 0.215343 0.233957
0.651216 0.223570 0.245321
0.659288 0.232879 0.258992
0.666384 0.240927 0.270425
0.672894 0.248218 0.280516
0.678240 0.255196 0.289443
0.683058 0.262032 0.297841
0.690902 0.271064 0.310535
0.699756 0.280829 0.324662
0.699776 0.288584 0.308533
0.697758 0.295875 0.285423
0.698873 0.303053 0.278774
0.700435 0.310214 0.274478
0.705049 0.317802 0.278298
0.709867 0.325419 0.282660
0.031785 0.045533 0.036704
0.041876 0.045273 0.038462
0.054078 0.045879 0.040834
0.097955 0.059485 0.052422
0.147635 0.074100 0.065621
0.237928 0.095778 0.090098
0.327892 0.118079 0.113392
0.416428 0.143078 0.131555
0.491489 0.164040 0.147260
0.526122 0.172893 0.155593
0.556076 0.181503 0.163763
0.575736 0.189575 0.171575
0.593224 0.197550 0.180437
0.607090 0.205362 0.191048
0.619959 0.210639 0.202514
0.631547 0.212657 0.215078
0.639750 0.216824 0.224908
0.644567 0.223138 0.232004
0.650776 0.231138 0.241187
0.658067 0.240447 0.251994
0.665847 0.249309 0.262841
0.673919 0.257902 0.273713
0.679217 0.265287 0.281452
0.683253 0.272122 0.287766
0.690121 0.282326 0.299354
0.697933 0.293654 0.312700
0.697970 0.302337 0.294097
0.696212 0.310409 0.268122
0.695309 0.313355 0.252230
0.694527 0.315568 0.237778
0.698018 0.320894 0.237302
0.701794 0.326428 0.237757
0.033803 0.055624 0.042758
0.043894 0.054322 0.043475
0.055966 0.053821 0.044740
0.097760 0.065344 0.054245
0.145356 0.077876 0.065751
0.233567 0.097471 0.091270
0.321643 0.118665 0.115410
0.409137 0.146788 0.133573
0.485760 0.170875 0.149539
0.529767 0.182854 0.158913
0.565516 0.193611 0.167474
0.583093 0.201684 0.174244
0.598887 0.209268 0.183236
0.611712 0.216038 0.195931
0.623084 0.220730 0.205834
0.632589 0.222748 0.212149
0.641312 0.227435 0.220937
0.649254 0.234791 0.232199
0.655073 0.241488 0.240276
0.659239 0.247673 0.245875
0.665847 0.256665 0.256722
0.673919 0.267341 0.270718
0.679217 0.277525 0.280150
0.683253 0.287486 0.287506
0.689340 0.296128 0.297011
0.696110 0.304330 0.307231
0.696798 0.312427 0.288889
0.696082 0.320499 0.263956
0.692574 0.317065 0.239991
0.688668 0.311988 0.216165
0.690988 0.314905 0.209244
0.693722 0.318355 0.203450
0.037713 0.069498 0.050705
0.047153 0.068457 0.051030
0.058342 0.067928 0.051698
0.095774 0.075089 0.057491
0.139172 0.083503 0.065596
0.224322 0.100689 0.089879
0.309717 0.120390 0.112953
0.396170 0.150987 0.130790
0.473867 0.177385 0.146853
0.525296 0.191186 0.157595
0.566309 0.203299 0.166770
0.584407 0.211697 0.172499
0.600381 0.219704 0.180888
0.612815 0.227061 0.193713
0.623341 0.232081 0.202095
0.631413 0.234100 0.204764
0.640494 0.238982 0.212674
0.650585 0.246729 0.225824
0.656501 0.252938 0.233078
0.659170 0.257951 0.235747
0.664809 0.266991 0.245618
0.672231 0.278449 0.259810
0.677549 0.289459 0.269795
0.681910 0.300266 0.277867
0.687053 0.307264 0.284963
0.692456 0.312993 0.291733
0.694792 0.321683 0.278087
0.696419 0.331058 0.259729
0.691895 0.323116 0.230377
0.686492 0.312700 0.199454
0.688046 0.313635 0.187451
0.690064 0.315328 0.176710
0.045786 0.091697 0.062813
0.053142 0.093781 0.064180
0.061792 0.095595 0.065369
0.089850 0.093382 0.063871
0.124394 0.093203 0.064815
0.204337 0.107264 0.082848
0.285305 0.124622 0.100649
0.370716 0.156260 0.117444
0.448413 0.183179 0.133247
0.502967 0.195939 0.146072
0.548081 0.207661 0.156354
0.572428 0.217100 0.161041
0.592699 0.227321 0.167217
0.606175 0.238844 0.175876
0.617286 0.246208 0.182825
0.625359 0.248226 0.187577
0.634440 0.252588 0.194966
0.644531 0.259293 0.204992
0.651618 0.266804 0.212051
0.656371 0.274942 0.216803
0.661489 0.283852 0.223549
0.666827 0.293227 0.231492
0.672210 0.300721 0.239523
0.677614 0.307361 0.247596
0.681455 0.312537 0.251567
0.684775 0.317224 0.254171
0.690951 0.329105 0.254976
0.697786 0.342646 0.255367
0.695736 0.334313 0.226536
0.692416 0.322855 0.193530
0.694100 0.322749 0.179444
0.696118 0.323400 0.166619
0.053101 0.116167 0.078706
0.059156 0.119422 0.079162
0.066121 0.122042 0.079210
0.086758 0.115142 0.073156
0.113962 0.110324 0.069087
0.187134 0.120089 0.078917
0.261820 0.133272 0.089639
0.343065 0.161265 0.104221
0.418516 0.185580 0.118592
0.476585 0.198860 0.132328
0.526191 0.211632 0.143277
0.557179 0.223285 0.148094
0.582429 0.235426 0.153376
0.598118 0.248381 0.159430
0.610817 0.257064 0.165484
0.619671 0.260254 0.171538
0.629338 0.264876 0.178211
0.639819 0.270930 0.185502
0.648030 0.278815 0.191439
0.654475 0.288124 0.196321
0.659414 0.296172 0.200187
0.663450 0.303464 0.203442
0.668874 0.308517 0.209203
0.674928 0.312553 0.216104
0.678248 0.316882 0.218122
0.680657 0.321309 0.218512
0.689307 0.333987 0.227154
0.699398 0.348570 0.237700
0.700260 0.343215 0.215493
0.699805 0.335013 0.188607
0.701302 0.333768 0.173683
0.702929 0.332986 0.159556
0.059156 0.144420 0.100905
0.065210 0.145592 0.097194
0.071915 0.146455 0.093337
0.088385 0.142679 0.087283
0.110772 0.139814 0.081782
0.174570 0.143330 0.080154
0.239881 0.149286 0.080785
0.311752 0.165822 0.091201
0.381213 0.182325 0.102187
0.443449 0.198730 0.114881
0.498198 0.214952 0.125765
0.536477 0.230771 0.132666
0.567847 0.244345 0.139249
0.587702 0.254175 0.145303
0.603656 0.262467 0.151357
0.614593 0.268782 0.157412
0.625823 0.274966 0.163043
0.637345 0.281020 0.168251
0.646598 0.287734 0.171518
0.654084 0.294960 0.173276
0.659414 0.300925 0.174667
0.663450 0.306133 0.175839
0.668874 0.310535 0.178801
0.674928 0.314571 0.182577
0.679030 0.319682 0.184595
0.682480 0.325150 0.186027
0.691325 0.334638 0.191479
0.701416 0.345054 0.197859
0.705924 0.348293 0.192448
0.709635 0.350507 0.185352
0.710416 0.347959 0.171665
0.711002 0.345095 0.157538
0.067859 0.178854 0.125753
0.074824 0.177943 0.119699
0.082152 0.176991 0.113644
0.094912 0.175428 0.107590
0.112651 0.174004 0.100942
0.165252 0.173548 0.090135
0.220734 0.174557 0.081757
0.288698 0.181914 0.083906
0.355588 0.191288 0.088430
0.419256 0.206717 0.100083
0.476272 0.222715 0.110617
0.518652 0.239967 0.118689
0.554318 0.253947 0.126005
0.578796 0.262475 0.132059
0.598061 0.270804 0.137516
0.610626 0.278876 0.142203
0.623646 0.286167 0.146792
0.637121 0.292677 0.151284
0.647045 0.298162 0.153249
0.654206 0.302849 0.153249
0.660553 0.307984 0.153534
0.666412 0.313387 0.153990
0.672092 0.317851 0.155207
0.677691 0.321887 0.156769
0.682801 0.327095 0.158673
0.687749 0.332694 0.160691
0.696135 0.339562 0.163979
0.705314 0.346723 0.167559
0.711759 0.353884 0.171538
0.717813 0.361045 0.175575
0.719046 0.359417 0.165574
0.719957 0.357204 0.154637
0.079967 0.221234 0.154006
0.089016 0.218240 0.147952
0.098102 0.215400 0.141898
0.107736 0.214879 0.135843
0.121049 0.214236 0.128414
0.160109 0.212739 0.111358
0.205175 0.211730 0.095363
0.276264 0.212836 0.083971
0.344977 0.215961 0.078079
0.406562 0.225140 0.088691
0.462145 0.236191 0.098508
0.504525 0.251359 0.106581
0.542145 0.264428 0.113897
0.571830 0.273998 0.119951
0.594481 0.282912 0.124040
0.608087 0.290985 0.125602
0.623190 0.298797 0.129150
0.639791 0.306348 0.134684
0.649910 0.310531 0.137105
0.654987 0.312093 0.137105
0.663157 0.318009 0.138040
0.673183 0.326538 0.139538
0.679449 0.331977 0.140364
0.684006 0.336014 0.140885
0.690418 0.340440 0.142528
0.697449 0.344997 0.144546
0.704532 0.349978 0.146988
0.711628 0.355055 0.149527
0.717813 0.360133 0.153376
0.723867 0.365211 0.157412
0.727053 0.367359 0.154246
0.730048 0.369312 0.150601
0.090058 0.266641 0.185287
0.101711 0.258439 0.175066
0.113205 0.250716 0.164943
0.122319 0.250196 0.156285
0.135436 0.249878 0.146056
0.176580 0.250985 0.124833
0.222752 0.251603 0.104477
0.290716 0.250106 0.087877
0.356955 0.249846 0.077428
0.418019 0.253296 0.085436
0.472919 0.259432 0.093463
0.514257 0.271475 0.101536
0.550835 0.282396 0.108461
0.579479 0.291445 0.113473
0.601544 0.299155 0.116293
0.615150 0.305144 0.116293
0.630514 0.312696 0.119060
0.647635 0.321810 0.124593
0.657689 0.326383 0.127014
0.662246 0.327424 0.127014
0.670546 0.332494 0.127950
0.681092 0.339981 0.129447
0.688237 0.345811 0.130273
0.693836 0.350889 0.130794
0.700899 0.355186 0.132438
0.708451 0.359222 0.134456
0.714363 0.363258 0.136897
0.719896 0.367294 0.139436
0.724974 0.370875 0.142374
0.729987 0.374390 0.145368
0.735549 0.379370 0.146532
0.741147 0.384448 0.147574
0.098130 0.315076 0.219594
0.112908 0.298540 0.201041
0.127462 0.282941 0.182780
0.138659 0.281378 0.168914
0.155813 0.280931 0.153868
0.214663 0.288287 0.130562
0.273465 0.294179 0.109099
0.332055 0.293723 0.095624
0.391524 0.292942 0.086477
0.453629 0.291184 0.090318
0.508594 0.292437 0.095481
0.547849 0.300314 0.103554
0.580391 0.307850 0.109698
0.601744 0.314815 0.112627
0.619251 0.319531 0.114275
0.631816 0.321354 0.114275
0.645617 0.327864 0.116521
0.660655 0.339061 0.121013
0.670383 0.345718 0.122978
0.675982 0.348842 0.122978
0.682720 0.351438 0.123263
0.690141 0.353717 0.123718
0.698458 0.359352 0.124935
0.707181 0.366513 0.126497
0.714245 0.371330 0.128402
0.720755 0.375367 0.130420
0.725625 0.379403 0.133707
0.730117 0.383439 0.137288
0.733242 0.386108 0.138533
0.736171 0.388582 0.139444
0.744532 0.395450 0.142431
0.753256 0.402611 0.145555
0.100527 0.364645 0.255037
0.121359 0.341535 0.232252
0.141902 0.319560 0.209296
0.158112 0.314612 0.183777
0.181572 0.311324 0.158128
0.255786 0.319657 0.131567
0.326192 0.326647 0.108046
0.380094 0.327819 0.097695
0.434111 0.327689 0.090290
0.488470 0.323653 0.091722
0.537274 0.322221 0.095046
0.573861 0.326517 0.102532
0.602879 0.330814 0.107749
0.619284 0.335110 0.109181
0.634066 0.337784 0.110499
0.646760 0.338369 0.111671
0.659878 0.344131 0.113982
0.673419 0.355068 0.117432
0.682748 0.362452 0.118942
0.688803 0.367074 0.118942
0.694857 0.369174 0.119308
0.700911 0.369760 0.119894
0.708532 0.374687 0.121062
0.716865 0.381588 0.122494
0.723049 0.386340 0.123926
0.728518 0.390376 0.125358
0.733299 0.393936 0.128906
0.737921 0.397387 0.132942
0.741290 0.399584 0.133960
0.744479 0.401602 0.134545
0.752491 0.408197 0.138366
0.760824 0.415098 0.142402
0.098508 0.415098 0.291363
0.127673 0.386779 0.267537
0.156484 0.359596 0.242563
0.179985 0.349440 0.200378
0.211518 0.341205 0.159625
0.299273 0.346413 0.128898
0.380485 0.351255 0.102577
0.433346 0.354510 0.095351
0.482936 0.355942 0.090029
0.522712 0.351906 0.090420
0.560515 0.349497 0.092702
0.593976 0.350669 0.099147
0.619870 0.351841 0.103322
0.633150 0.353013 0.103712
0.646630 0.354384 0.105356
0.660366 0.356012 0.108611
0.673484 0.361252 0.111443
0.685983 0.370106 0.113852
0.694857 0.377165 0.114906
0.700911 0.382829 0.114906
0.706966 0.385970 0.115923
0.713020 0.387597 0.117550
0.718492 0.391418 0.118327
0.723700 0.396235 0.118718
0.728322 0.400467 0.119109
0.732749 0.404503 0.119499
0.738181 0.407217 0.122852
0.743845 0.409625 0.126888
0.749167 0.411692 0.128817
0.754440 0.413710 0.130444
0.759652 0.418353 0.134330
0.764860 0.423170 0.138366
0.093968 0.465550 0.328950
0.132116 0.426816 0.298874
0.169765 0.390071 0.267773
0.199906 0.383170 0.221291
0.239104 0.377067 0.175363
0.341702 0.376547 0.133309
0.433070 0.376026 0.098126
0.475775 0.375505 0.092723
0.515730 0.374431 0.088833
0.547434 0.371697 0.089484
0.579117 0.370631 0.091824
0.610756 0.373235 0.097878
0.634827 0.375106 0.101906
0.646284 0.375757 0.102557
0.659194 0.377291 0.104404
0.673972 0.379960 0.107789
0.686764 0.384680 0.110491
0.697571 0.391450 0.112509
0.705338 0.396719 0.113392
0.710741 0.400821 0.113392
0.716552 0.402806 0.114246
0.722606 0.403522 0.115614
0.728615 0.407416 0.116488
0.734605 0.412754 0.117139
0.739129 0.416140 0.117790
0.743165 0.418874 0.118441
0.747783 0.420497 0.121314
0.752536 0.421864 0.124699
0.757858 0.424371 0.126888
0.763261 0.427040 0.128906
0.766772 0.431601 0.131596
0.770157 0.436288 0.134330
0.087913 0.516003 0.367294
0.135436 0.463728 0.327844
0.182264 0.414809 0.288149
0.218655 0.416241 0.244792
0.265274 0.416518 0.199645
0.383496 0.408706 0.141967
0.484629 0.400894 0.094285
0.511710 0.393082 0.089923
0.538906 0.387060 0.087075
0.566443 0.386409 0.088768
0.594937 0.388077 0.091824
0.625534 0.394848 0.097878
0.648563 0.399714 0.102297
0.658979 0.401407 0.103989
0.671759 0.403982 0.105967
0.687578 0.407693 0.108310
0.699849 0.411892 0.110491
0.708573 0.416579 0.112509
0.714843 0.419179 0.113392
0.719204 0.420155 0.113392
0.724624 0.419667 0.113595
0.730678 0.418300 0.113921
0.738836 0.422975 0.115186
0.747950 0.430396 0.116879
0.753256 0.432740 0.118572
0.757292 0.433391 0.120264
0.760217 0.433778 0.122486
0.762886 0.434103 0.124829
0.767037 0.437391 0.126888
0.771398 0.441101 0.128906
0.773868 0.446704 0.129643
0.776212 0.452433 0.130294
0.081859 0.562293 0.405638
0.142337 0.501490 0.358245
0.201521 0.444560 0.310763
0.241297 0.445732 0.261938
0.291847 0.445675 0.211396
0.417816 0.437016 0.148835
0.524328 0.428761 0.097247
0.546527 0.422251 0.093211
0.568303 0.416294 0.090509
0.588809 0.411998 0.091811
0.610801 0.410895 0.094151
0.636059 0.416819 0.098773
0.656436 0.421278 0.102419
0.668675 0.423296 0.104437
0.681996 0.426197 0.106455
0.696708 0.430234 0.108473
0.708101 0.433912 0.110491
0.716173 0.437232 0.112509
0.722378 0.439087 0.113392
0.727130 0.439803 0.113392
0.733144 0.438811 0.113392
0.739914 0.436792 0.113392
0.747983 0.441219 0.114287
0.756641 0.448576 0.115589
0.761833 0.449878 0.117428
0.765869 0.449161 0.119446
0.768265 0.449609 0.121464
0.770283 0.450325 0.123482
0.774067 0.453946 0.125501
0.778104 0.457983 0.127519
0.780248 0.462568 0.128316
0.782266 0.467190 0.129032
0.075805 0.606691 0.443982
0.150865 0.539638 0.389298
0.223850 0.476589 0.334394
0.265710 0.473594 0.276195
0.318603 0.470152 0.217450
0.448738 0.463577 0.154889
0.558635 0.457991 0.103301
0.580834 0.456689 0.099265
0.600527 0.453076 0.096303
0.612701 0.442529 0.096564
0.626685 0.436154 0.097536
0.644653 0.438953 0.100075
0.661644 0.441459 0.102419
0.677007 0.443477 0.104437
0.691175 0.446378 0.106455
0.703804 0.450415 0.108473
0.714155 0.453572 0.110491
0.722227 0.455851 0.112509
0.729018 0.457836 0.113392
0.734812 0.459594 0.113392
0.741867 0.458992 0.113392
0.749679 0.456973 0.113392
0.756641 0.460684 0.113571
0.763216 0.466999 0.113831
0.767887 0.467259 0.115410
0.771923 0.465502 0.117428
0.774320 0.466600 0.119446
0.776338 0.468358 0.121464
0.780122 0.472109 0.123482
0.784158 0.476145 0.125501
0.786302 0.478778 0.127275
0.788320 0.481317 0.129032
0.084886 0.635954 0.473244
0.165155 0.566557 0.414394
0.243201 0.501294 0.355145
0.287925 0.498039 0.289915
0.343553 0.494923 0.224823
0.475511 0.492774 0.160699
0.586596 0.490443 0.107989
0.607232 0.487318 0.104734
0.624647 0.481752 0.101902
0.632394 0.468862 0.100339
0.642277 0.459899 0.099896
0.656859 0.459573 0.101914
0.671734 0.460127 0.103639
0.687098 0.462145 0.104876
0.700354 0.464704 0.106455
0.710900 0.467959 0.108473
0.719819 0.470986 0.110491
0.727110 0.473786 0.112509
0.733705 0.475267 0.113392
0.739760 0.475722 0.113392
0.746587 0.475608 0.113392
0.753878 0.475153 0.113392
0.760319 0.478098 0.113392
0.766373 0.482590 0.113392
0.770914 0.482786 0.114320
0.774950 0.481549 0.115557
0.777982 0.482957 0.117428
0.780781 0.484975 0.119446
0.784662 0.488075 0.120781
0.788699 0.491330 0.122018
0.790843 0.492693 0.123987
0.792861 0.493930 0.126005
0.099013 0.660171 0.499480
0.181365 0.589733 0.437505
0.261560 0.523559 0.374935
0.309408 0.521345 0.303455
0.367900 0.519791 0.232635
0.500900 0.522851 0.166428
0.612440 0.523970 0.112220
0.630994 0.516678 0.110007
0.646065 0.507727 0.107435
0.650687 0.493796 0.103790
0.657770 0.483140 0.101914
0.670270 0.479689 0.103932
0.683452 0.478290 0.105267
0.697774 0.480308 0.105462
0.709533 0.482411 0.106455
0.717996 0.484625 0.108473
0.725352 0.487652 0.110491
0.731602 0.491493 0.112509
0.737742 0.492258 0.113392
0.743796 0.490630 0.113392
0.749972 0.491037 0.113392
0.756222 0.492665 0.113392
0.762337 0.494829 0.113392
0.768392 0.497238 0.113392
0.772932 0.497694 0.113538
0.776968 0.497498 0.113734
0.780846 0.499101 0.115410
0.784687 0.501119 0.117428
0.788699 0.503308 0.117851
0.792735 0.505522 0.118047
0.794879 0.505843 0.119951
0.796897 0.506039 0.121969
0.122978 0.682748 0.525715
0.204027 0.609576 0.458076
0.283144 0.540798 0.389754
0.333271 0.537933 0.311178
0.393464 0.536037 0.234205
0.524120 0.540920 0.168454
0.633366 0.543373 0.114653
0.649836 0.535301 0.112635
0.662986 0.525927 0.110324
0.666176 0.512646 0.107134
0.671624 0.501726 0.105307
0.682040 0.495997 0.106479
0.692896 0.493173 0.107212
0.704484 0.495191 0.107212
0.714163 0.497209 0.108094
0.721389 0.499227 0.110113
0.727606 0.500985 0.111708
0.732814 0.502482 0.112879
0.739450 0.502954 0.113392
0.747197 0.502629 0.113392
0.753886 0.504297 0.113392
0.759941 0.507162 0.113392
0.765413 0.508862 0.113392
0.770621 0.510034 0.113392
0.774950 0.510962 0.113392
0.778987 0.511808 0.113392
0.783023 0.514294 0.115032
0.787059 0.517158 0.117050
0.790355 0.518542 0.118043
0.793545 0.519714 0.118889
0.796429 0.520580 0.120834
0.799294 0.521427 0.122852
0.149213 0.704947 0.551950
0.228180 0.628650 0.478062
0.305474 0.556878 0.403425
0.357684 0.552972 0.317558
0.419309 0.550294 0.234336
0.546840 0.556218 0.169626
0.653156 0.559518 0.116671
0.667543 0.551446 0.114653
0.678871 0.542332 0.112603
0.681019 0.530093 0.110454
0.685100 0.519238 0.109018
0.693433 0.511426 0.109148
0.701815 0.507300 0.109230
0.710278 0.509318 0.109230
0.717744 0.511336 0.110113
0.723928 0.513354 0.112131
0.729104 0.513549 0.113205
0.733270 0.511922 0.113335
0.740622 0.512199 0.113392
0.750452 0.513956 0.113392
0.757923 0.517057 0.113392
0.763977 0.520963 0.113392
