其他预设/【236】赛博朋克风调色预设/【后期菌】视频调色预设/CUBE/Miami 03_S.cube
# LUT by SparkleStock. Enhanced with VOXCOLOR algorithms.
LUT_3D_SIZE 5
DOMAIN_MIN 0.000000 0.000000 0.000000
DOMAIN_MAX 0.903226 0.903226 0.903226
0.093842 0.043011 0.078201
0.130167 0.055624 0.102545
0.521048 0.091697 0.082111
0.785419 0.115410 0.100400
0.818970 0.128654 0.119068
0.101662 0.059534 0.102545
0.318998 0.097959 0.112013
0.661253 0.141267 0.085969
0.769889 0.165854 0.120305
0.833727 0.178435 0.132662
0.126005 0.182764 0.189575
0.215448 0.175176 0.140583
0.603054 0.233489 0.083300
0.758016 0.245655 0.086384
0.833727 0.243348 0.121631
0.193107 0.555230 0.387349
0.346910 0.487697 0.238034
0.689702 0.526488 0.186800
0.811325 0.498345 0.170806
0.850755 0.473590 0.170151
0.418503 0.767004 0.605934
0.567676 0.747507 0.264802
0.785484 0.766520 0.228550
0.863275 0.751933 0.214675
0.892086 0.751612 0.212531
0.101662 0.050831 0.106455
0.137988 0.068823 0.140384
0.495427 0.095949 0.159503
0.765104 0.128275 0.221470
0.828357 0.187557 0.297975
0.119113 0.085688 0.155483
0.305549 0.140679 0.214925
0.590965 0.191168 0.251847
0.737035 0.220160 0.297150
0.856134 0.281720 0.387983
0.157339 0.279307 0.318192
0.215751 0.379980 0.375224
0.588645 0.320768 0.244657
0.735125 0.345008 0.258151
0.852215 0.355124 0.253879
0.293870 0.654393 0.598517
0.387113 0.706437 0.604207
0.644878 0.626457 0.207164
0.786678 0.617364 0.191018
0.867812 0.602985 0.188086
0.538674 0.798232 0.720356
0.563293 0.780536 0.465449
0.797524 0.785134 0.230056
0.870376 0.795310 0.223126
0.895874 0.800568 0.217684
0.124744 0.087409 0.212657
0.174675 0.106870 0.254317
0.525044 0.150076 0.325272
0.779129 0.205830 0.412449
0.840307 0.289325 0.501750
0.168206 0.185686 0.370720
0.254874 0.260636 0.497327
0.616179 0.246404 0.444242
0.752684 0.285622 0.486951
0.863559 0.383465 0.588351
0.248153 0.438835 0.612506
0.327026 0.549530 0.658161
0.591428 0.446356 0.540020
0.737148 0.434380 0.519035
0.874342 0.486523 0.552755
0.432439 0.740927 0.758745
0.549810 0.768524 0.770345
0.630936 0.758454 0.700940
0.773161 0.643662 0.273033
0.873711 0.637070 0.281407
0.625526 0.821155 0.786827
0.715627 0.829222 0.789121
0.795906 0.817931 0.571506
0.845113 0.817643 0.246932
0.891388 0.826777 0.315476
0.202819 0.215306 0.514742
0.285512 0.249337 0.557695
0.614719 0.259074 0.519946
0.807089 0.325748 0.588683
0.856179 0.416392 0.661623
0.260705 0.351048 0.660094
0.361206 0.448573 0.718903
0.728253 0.383404 0.651732
0.823871 0.442035 0.689186
0.869170 0.539843 0.729703
0.379704 0.617290 0.773156
0.511218 0.691181 0.802428
0.667763 0.702573 0.796638
0.824284 0.596995 0.740891
0.879743 0.573729 0.725136
0.582779 0.784260 0.824723
0.689251 0.803639 0.831810
0.775950 0.816768 0.836163
0.803054 0.766418 0.765306
0.884282 0.707007 0.710778
0.722647 0.836852 0.832059
0.781038 0.841523 0.830607
0.842091 0.850638 0.830713
0.852600 0.838920 0.722007
0.895087 0.832356 0.528949
0.289976 0.352158 0.706209
0.391764 0.394990 0.714607
0.719412 0.378858 0.665448
0.825090 0.458617 0.711539
0.867657 0.557077 0.757247
0.374927 0.523070 0.779450
0.526170 0.615503 0.799334
0.759096 0.631671 0.796425
0.858672 0.601877 0.776523
0.882049 0.651110 0.800085
0.552329 0.723322 0.837259
0.682769 0.760766 0.843089
0.783969 0.784499 0.852407
0.870494 0.742486 0.825769
0.889105 0.719401 0.829107
0.700309 0.808566 0.856748
0.771128 0.817901 0.860396
0.827347 0.829912 0.861696
0.864880 0.837314 0.863360
0.898597 0.789636 0.850006
0.775927 0.850841 0.861981
0.822562 0.853782 0.861013
0.858236 0.855814 0.859172
0.892088 0.865246 0.860856
0.911107 0.861000 0.840921
