其他预设/【236】赛博朋克风调色预设/【后期菌】视频调色预设/CUBE/Miami 01.cube
# LUT by SparkleStock. Enhanced with VOXCOLOR algorithms.
LUT_3D_SIZE 32
0.003910 0.000000 0.000000
0.003910 0.002018 0.004036
0.004036 0.003910 0.007946
0.006054 0.003910 0.009964
0.008577 0.003910 0.011982
0.014631 0.003910 0.014001
0.021821 0.004288 0.015640
0.033929 0.006307 0.015640
0.052597 0.009334 0.015640
0.090941 0.015388 0.015640
0.153249 0.023334 0.013748
0.268281 0.035443 0.007694
0.406016 0.050579 0.003910
0.581591 0.070760 0.003910
0.703308 0.086526 0.004793
0.755778 0.096617 0.006811
0.790086 0.103680 0.008829
0.806231 0.107716 0.010847
0.818970 0.111752 0.015136
0.829061 0.115788 0.021190
0.835367 0.118563 0.029767
0.839403 0.120581 0.039857
0.840665 0.122600 0.048561
0.840665 0.124618 0.056633
0.842178 0.126636 0.063192
0.844196 0.128654 0.069246
0.846214 0.132312 0.078580
0.848233 0.136348 0.088670
0.852017 0.140384 0.096995
0.856053 0.144420 0.105067
0.858197 0.150348 0.107464
0.860215 0.156403 0.109482
0.003910 0.002018 0.002018
0.004952 0.002995 0.006054
0.006119 0.003910 0.009964
0.009179 0.003910 0.011982
0.013004 0.004170 0.014001
0.022183 0.006254 0.016019
0.033474 0.008520 0.017658
0.053915 0.011580 0.017658
0.087946 0.015909 0.016617
0.162746 0.024046 0.012450
0.259232 0.035052 0.008671
0.403429 0.052369 0.005741
0.538690 0.068416 0.004301
0.659060 0.082347 0.005342
0.742889 0.093687 0.007722
0.779735 0.101694 0.011824
0.804668 0.107716 0.015925
0.817688 0.111752 0.020026
0.827303 0.116374 0.026984
0.834269 0.121452 0.036163
0.839403 0.124618 0.047214
0.843440 0.126636 0.059387
0.843985 0.127938 0.066593
0.842943 0.128914 0.071541
0.844196 0.130672 0.079662
0.846214 0.132690 0.088841
0.849079 0.136348 0.100453
0.852139 0.140384 0.112627
0.855141 0.146243 0.122124
0.858136 0.152362 0.131238
0.860215 0.158421 0.134676
0.862233 0.164475 0.137735
0.004036 0.003910 0.004036
0.006054 0.003975 0.008007
0.008211 0.004040 0.011860
0.012442 0.004105 0.013944
0.017715 0.004675 0.016027
0.030280 0.008776 0.018110
0.046115 0.012878 0.019754
0.076126 0.016979 0.019493
0.126465 0.022675 0.017329
0.237786 0.033156 0.009452
0.367091 0.047197 0.004036
0.535960 0.069071 0.004036
0.666673 0.085720 0.004866
0.733791 0.093663 0.007080
0.781114 0.100779 0.011030
0.802988 0.106833 0.017215
0.818872 0.111846 0.023464
0.828768 0.115817 0.029779
0.835331 0.120923 0.039316
0.839302 0.126912 0.051360
0.843273 0.130379 0.064827
0.847244 0.132332 0.079149
0.847232 0.133077 0.085147
0.845409 0.133272 0.087360
0.846467 0.134932 0.097239
0.848485 0.137080 0.109673
0.852037 0.140762 0.123112
0.855943 0.144799 0.136783
0.858254 0.152480 0.147492
0.860337 0.160683 0.157778
0.862298 0.166750 0.162144
0.864251 0.172674 0.166115
0.006054 0.003910 0.006054
0.008072 0.005017 0.008984
0.010424 0.006123 0.011926
0.017780 0.007230 0.015050
0.026699 0.008841 0.018175
0.046555 0.013984 0.021300
0.073587 0.019127 0.023009
0.131722 0.024270 0.018582
0.212527 0.032310 0.014074
0.361346 0.049041 0.009322
0.503085 0.065751 0.006054
0.629248 0.082417 0.006054
0.724286 0.095030 0.008056
0.767448 0.100889 0.013394
0.799017 0.106833 0.020014
0.815683 0.112887 0.028282
0.827401 0.117379 0.037656
0.834171 0.120309 0.048137
0.838781 0.124374 0.058911
0.841710 0.129321 0.069913
0.844640 0.131746 0.084943
0.847569 0.132658 0.102390
0.849380 0.135225 0.111512
0.850682 0.138545 0.116850
0.852521 0.142549 0.131417
0.854539 0.146780 0.149059
0.856399 0.150853 0.157550
0.858221 0.154889 0.163930
0.861183 0.164394 0.176462
0.864308 0.174680 0.189872
0.865358 0.178923 0.193457
0.866269 0.182764 0.196386
0.007820 0.004162 0.007820
0.009838 0.006050 0.009838
0.012369 0.007946 0.011991
0.022590 0.009964 0.016157
0.035187 0.012520 0.020258
0.064416 0.018834 0.023904
0.104754 0.025247 0.025377
0.193225 0.032082 0.017435
0.303846 0.042661 0.011039
0.480918 0.064469 0.009281
0.629387 0.083125 0.008194
0.714928 0.094843 0.008585
0.776570 0.103729 0.011905
0.798378 0.107895 0.020108
0.815715 0.112774 0.029136
0.827303 0.118567 0.039227
0.835115 0.122539 0.051335
0.839151 0.124687 0.065462
0.842199 0.127970 0.077758
0.844477 0.132137 0.088630
0.846512 0.133780 0.105075
0.848399 0.133911 0.124866
0.851675 0.138114 0.136869
0.855581 0.144168 0.145332
0.858168 0.150320 0.163901
0.860317 0.156504 0.185840
0.860614 0.161049 0.188473
0.860484 0.165216 0.186650
0.863885 0.176104 0.200321
0.867791 0.187952 0.216205
0.868279 0.191073 0.219456
0.868540 0.193611 0.221865
0.007820 0.006180 0.007820
0.009838 0.007027 0.009838
0.012434 0.007946 0.012056
0.023696 0.009964 0.017264
0.040199 0.012780 0.021886
0.093386 0.021178 0.022407
0.161782 0.030455 0.021536
0.296083 0.043540 0.014635
0.431963 0.058024 0.009541
0.572579 0.076708 0.009867
0.687847 0.092239 0.011189
0.747348 0.100832 0.014704
0.791543 0.108156 0.020368
0.810226 0.113364 0.029612
0.823983 0.117916 0.039227
0.831404 0.121627 0.049317
0.837133 0.125077 0.061426
0.841169 0.128267 0.075553
0.845389 0.132592 0.091364
0.849750 0.137800 0.108485
0.851915 0.140486 0.125322
0.852761 0.141658 0.141987
0.854995 0.146186 0.155162
0.857859 0.152240 0.166750
0.860968 0.159174 0.184538
0.864158 0.166400 0.204394
0.863804 0.171986 0.194787
0.862632 0.177194 0.178382
0.864992 0.186389 0.188408
0.867856 0.196154 0.202209
0.870232 0.203051 0.208259
0.872576 0.209756 0.213792
0.007820 0.008199 0.007820
0.010034 0.008394 0.010034
0.012902 0.008727 0.012499
0.025597 0.011136 0.018749
0.045761 0.014456 0.023965
0.118218 0.024156 0.021947
0.210131 0.035553 0.019099
0.386356 0.054302 0.012654
0.545444 0.072302 0.008325
0.653120 0.088056 0.010343
0.738702 0.100779 0.013622
0.775679 0.106833 0.019676
0.804624 0.112814 0.027098
0.820183 0.118673 0.036798
0.830786 0.122852 0.046839
0.835017 0.124870 0.057321
0.839053 0.127799 0.069429
0.842894 0.131640 0.083165
0.847980 0.136946 0.101552
0.854035 0.143391 0.123556
0.856427 0.147191 0.140514
0.856622 0.149404 0.154446
0.857937 0.154259 0.167974
0.859759 0.160313 0.181320
0.863242 0.167881 0.198132
0.867278 0.175953 0.216099
0.866554 0.182544 0.196354
0.864731 0.188794 0.167905
0.866098 0.196126 0.172381
0.867921 0.203612 0.181560
0.871453 0.213174 0.189152
0.875099 0.222874 0.196639
0.007820 0.010217 0.007820
0.011075 0.011454 0.011075
0.015115 0.012894 0.014582
0.030935 0.017386 0.021874
0.053703 0.022268 0.028001
0.125118 0.029885 0.025983
0.220872 0.040175 0.022744
0.422096 0.062048 0.014216
0.595506 0.081871 0.008325
0.685474 0.095542 0.010343
0.756604 0.106833 0.013622
0.786290 0.112887 0.019676
0.809506 0.118478 0.026317
0.821940 0.123295 0.033933
0.831241 0.126888 0.043715
0.836515 0.128906 0.056279
0.840551 0.131315 0.068388
0.843350 0.134114 0.080040
0.847980 0.140136 0.096930
0.854035 0.148664 0.117892
0.857078 0.153896 0.133809
0.858315 0.157151 0.146699
0.859239 0.162331 0.157037
0.860020 0.168385 0.166217
0.863242 0.175953 0.181206
0.867278 0.184025 0.198132
0.867400 0.191463 0.177345
0.866619 0.198754 0.147854
0.867205 0.203482 0.138529
0.867986 0.207844 0.132084
0.869500 0.215257 0.135770
0.871062 0.222874 0.140132
0.008829 0.012739 0.009334
0.012865 0.014757 0.013370
0.017736 0.017011 0.017610
0.035117 0.022805 0.024901
0.059090 0.028632 0.031126
0.129203 0.034686 0.029889
0.226975 0.044097 0.026894
0.444604 0.068054 0.016283
0.628040 0.089179 0.008764
0.708894 0.101808 0.010522
0.771887 0.112464 0.013704
0.795583 0.118779 0.020018
0.814080 0.124142 0.026333
0.823910 0.127917 0.032648
0.831974 0.130924 0.041810
0.837768 0.132942 0.054635
0.842064 0.135351 0.066744
0.844864 0.138150 0.078136
0.848762 0.144465 0.093447
0.853514 0.153514 0.111805
0.857045 0.159918 0.126746
0.859845 0.164736 0.139635
0.860720 0.170403 0.147826
0.860720 0.176458 0.153880
0.863551 0.184025 0.166721
0.867327 0.192098 0.181824
0.868247 0.199959 0.160272
0.868507 0.207771 0.130261
0.868084 0.209829 0.109022
0.867563 0.211066 0.089036
0.867775 0.216331 0.088703
0.868035 0.221865 0.089679
0.012865 0.016775 0.015388
0.016902 0.018794 0.019424
0.021577 0.020983 0.023469
0.035833 0.025735 0.027635
0.056812 0.030650 0.031517
0.124841 0.036704 0.033404
0.219163 0.045920 0.032558
0.427418 0.068835 0.019864
0.607989 0.089700 0.010522
0.705509 0.104412 0.011238
0.779308 0.116826 0.014029
0.800921 0.124182 0.021385
0.817725 0.129805 0.028742
0.826514 0.132540 0.036098
0.833536 0.134960 0.043568
0.838289 0.136979 0.051185
0.843627 0.140950 0.063293
0.849551 0.146874 0.079894
0.851886 0.152212 0.093382
0.851431 0.157094 0.104449
0.854962 0.163889 0.118608
0.860886 0.171831 0.134623
0.862738 0.178476 0.143790
0.862738 0.184530 0.149844
0.864788 0.192098 0.159560
0.867523 0.200170 0.170497
0.869093 0.207185 0.149010
0.870395 0.213955 0.120040
0.868279 0.213150 0.092552
0.865675 0.211262 0.065275
0.866733 0.214378 0.060580
0.868035 0.217829 0.057390
0.015640 0.023965 0.021442
0.019676 0.025983 0.024828
0.024156 0.028066 0.028107
0.035288 0.031126 0.029800
0.052784 0.034519 0.031704
0.114824 0.040248 0.035089
0.201057 0.048882 0.035313
0.392126 0.070105 0.021837
0.565194 0.090139 0.011486
0.684262 0.106609 0.010510
0.773750 0.120557 0.012157
0.798163 0.128955 0.019579
0.816936 0.135327 0.026878
0.826310 0.138321 0.033974
0.833492 0.140889 0.039731
0.837853 0.142907 0.043768
0.843745 0.147626 0.054737
0.851166 0.155048 0.072639
0.853058 0.159796 0.083877
0.850649 0.162465 0.089932
0.854588 0.169569 0.102943
0.862335 0.179334 0.120130
0.864532 0.186548 0.129663
0.864206 0.192602 0.135717
0.865639 0.199682 0.142553
0.867657 0.207103 0.149649
0.869939 0.214736 0.133577
0.872283 0.222418 0.112159
0.869044 0.219847 0.081513
0.865008 0.215811 0.049549
0.866343 0.217755 0.040655
0.868035 0.220099 0.033299
0.015640 0.038092 0.027497
0.019676 0.040110 0.028799
0.023961 0.041998 0.030060
0.031968 0.041933 0.030711
0.044907 0.042461 0.031443
0.092365 0.047149 0.032745
0.160305 0.054350 0.031667
0.317000 0.072448 0.020275
0.472361 0.090399 0.010705
0.623719 0.107911 0.006604
0.739638 0.122901 0.005452
0.777591 0.132340 0.010790
0.806390 0.140535 0.015616
0.819930 0.146654 0.019587
0.829911 0.150979 0.023587
0.835314 0.152997 0.027623
0.840685 0.156675 0.034946
0.846023 0.162014 0.045558
0.849933 0.167022 0.053606
0.852733 0.171774 0.059660
0.857973 0.179009 0.070719
0.864678 0.187732 0.084781
0.865834 0.194621 0.093337
0.864467 0.200675 0.099391
0.865639 0.206192 0.103883
0.867657 0.211530 0.107854
0.870786 0.223004 0.108969
0.874171 0.235894 0.109425
0.871062 0.233973 0.082425
0.867026 0.229937 0.051502
0.867384 0.232859 0.038767
0.868035 0.236244 0.027244
0.016397 0.054489 0.035821
0.020043 0.055726 0.034649
0.023814 0.056783 0.033551
0.029478 0.055156 0.033551
0.038787 0.054236 0.033551
0.073616 0.058273 0.033551
0.124483 0.064140 0.031732
0.244853 0.077941 0.022032
0.377234 0.092637 0.012951
0.545648 0.110019 0.005725
0.680332 0.125733 0.001774
0.740809 0.137776 0.005029
0.786420 0.148184 0.007674
0.807252 0.155866 0.009301
0.822473 0.161240 0.011641
0.830481 0.163649 0.014896
0.836893 0.166872 0.019160
0.841710 0.170908 0.024433
0.847004 0.176519 0.029926
0.852668 0.183354 0.035589
0.858575 0.190474 0.044305
0.864630 0.197766 0.054851
0.865671 0.204206 0.062040
0.864434 0.210261 0.067704
0.865639 0.215094 0.070633
0.867657 0.219521 0.072652
0.871315 0.233152 0.083873
0.875351 0.248906 0.097219
0.873349 0.250419 0.077868
0.870485 0.249899 0.053846
0.869939 0.252185 0.039101
0.869549 0.254659 0.024974
0.018415 0.074670 0.047930
0.021019 0.073823 0.043633
0.023749 0.072993 0.039605
0.028371 0.072407 0.039605
0.035597 0.072399 0.039605
0.061052 0.076436 0.039605
0.096881 0.081131 0.037982
0.177670 0.088682 0.029323
0.278282 0.098171 0.020242
0.438363 0.113469 0.009891
0.579036 0.129378 0.003141
0.677011 0.146630 0.004313
0.750745 0.159902 0.005265
0.784077 0.166542 0.005851
0.808607 0.171787 0.006693
0.821822 0.175237 0.007865
0.831880 0.178980 0.010046
0.838781 0.183016 0.013236
0.844400 0.189799 0.017231
0.849022 0.198718 0.021853
0.854539 0.205317 0.027574
0.860593 0.210525 0.033954
0.863067 0.216315 0.039125
0.863914 0.222369 0.043747
0.865639 0.227984 0.046416
0.867657 0.233453 0.048434
0.871315 0.246432 0.057963
0.875351 0.261145 0.069226
0.876083 0.270731 0.064197
0.876344 0.279584 0.056840
0.875017 0.278551 0.043137
0.873585 0.276858 0.029010
0.019550 0.104563 0.064453
0.021568 0.102089 0.057943
0.023713 0.099770 0.051783
0.027749 0.099770 0.050872
0.033404 0.100103 0.049846
0.050396 0.102773 0.048023
0.073978 0.105613 0.045285
0.126123 0.109193 0.038580
0.200777 0.115182 0.030296
0.342955 0.128398 0.017276
0.478338 0.143362 0.007755
0.598773 0.162176 0.005932
0.693795 0.176547 0.004622
0.746461 0.183513 0.004166
0.784943 0.189396 0.003910
0.805189 0.193888 0.003910
0.820943 0.198836 0.004691
0.832206 0.204239 0.006254
0.839916 0.210997 0.008695
0.844864 0.218809 0.011820
0.851073 0.225401 0.014945
0.858038 0.231260 0.018069
0.861916 0.236940 0.021507
0.864390 0.242538 0.025088
0.867205 0.248820 0.028180
0.870135 0.255330 0.031110
0.873223 0.266548 0.038747
0.876348 0.278852 0.047470
0.879302 0.291953 0.050326
0.882231 0.305168 0.052344
0.880949 0.304774 0.042645
0.879387 0.303472 0.032163
0.019550 0.146943 0.086652
0.021568 0.143427 0.079101
0.023713 0.140132 0.071834
0.027749 0.140132 0.068839
0.032493 0.140075 0.065470
0.042193 0.139619 0.059481
0.057117 0.139725 0.053943
0.094680 0.142264 0.050363
0.150845 0.146951 0.043902
0.262817 0.158083 0.028799
0.378410 0.170639 0.016544
0.501970 0.186328 0.010554
0.609491 0.199527 0.006250
0.690280 0.208576 0.004752
0.748682 0.216087 0.003910
0.778303 0.221621 0.003910
0.802390 0.228652 0.004170
0.820943 0.237180 0.004691
0.833015 0.242375 0.005505
0.840046 0.244979 0.006547
0.848338 0.252222 0.007588
0.857387 0.262247 0.008630
0.862632 0.268513 0.010701
0.866147 0.273070 0.013240
0.870786 0.279873 0.017634
0.875798 0.287425 0.022647
0.877585 0.295452 0.028135
0.878626 0.303590 0.033734
0.883142 0.314348 0.036200
0.888155 0.325480 0.038218
0.887980 0.330814 0.036330
0.887459 0.335761 0.034182
0.018541 0.197395 0.114906
0.021080 0.188672 0.101625
0.023713 0.180461 0.088857
0.027749 0.179940 0.083780
0.032428 0.179623 0.078523
0.041607 0.180730 0.072013
0.054936 0.182203 0.066247
0.086249 0.185262 0.063708
0.135904 0.189950 0.057247
0.240585 0.199519 0.039019
0.351166 0.209862 0.023477
0.474725 0.221906 0.013842
0.584395 0.233021 0.007063
0.670912 0.242591 0.005045
0.734816 0.249484 0.003910
0.769645 0.252934 0.003910
0.797377 0.259965 0.003910
0.818014 0.270576 0.003910
0.831290 0.275511 0.003910
0.838842 0.276032 0.003910
0.847655 0.282493 0.003910
0.857225 0.292519 0.003910
0.863706 0.299859 0.005656
0.868784 0.305978 0.008194
0.874203 0.313562 0.013370
0.879737 0.321635 0.019424
0.882044 0.328491 0.023839
0.883606 0.335066 0.027875
0.888188 0.343805 0.029690
0.893200 0.352854 0.031187
0.894490 0.363429 0.034149
0.895532 0.374105 0.037209
0.016523 0.255920 0.149213
0.020104 0.237822 0.125517
0.023713 0.220758 0.102854
0.027749 0.219196 0.095693
0.033209 0.218748 0.089004
0.048638 0.226104 0.085619
0.067435 0.233046 0.082197
0.100832 0.238189 0.078616
0.155955 0.244178 0.070332
0.276260 0.252706 0.047938
0.396605 0.261031 0.028554
0.517040 0.268908 0.015795
0.618507 0.277029 0.007063
0.688359 0.285557 0.005045
0.743344 0.289585 0.003910
0.779214 0.287827 0.003910
0.805905 0.292775 0.003910
0.823417 0.304428 0.003910
0.834741 0.310405 0.003910
0.841251 0.311967 0.003910
0.849022 0.316215 0.003910
0.857550 0.322074 0.003910
0.865138 0.330977 0.006372
0.872299 0.341262 0.009952
0.877458 0.349888 0.015388
0.881950 0.357960 0.021442
0.886601 0.365663 0.025857
0.891288 0.373279 0.029893
0.894437 0.380326 0.030796
0.897367 0.387292 0.031252
0.900479 0.402619 0.036102
0.903604 0.418503 0.041245
0.016775 0.318986 0.188062
0.019054 0.297373 0.156879
0.021552 0.276581 0.126811
0.027346 0.268118 0.113465
0.035418 0.261462 0.101243
0.059440 0.267451 0.096881
0.086929 0.274551 0.092470
0.129439 0.286464 0.087848
0.190910 0.297564 0.078620
0.309262 0.306222 0.055575
0.428020 0.313701 0.035134
0.547674 0.318583 0.020421
0.644160 0.323344 0.010029
0.702034 0.327901 0.006840
0.750225 0.329980 0.004789
0.785964 0.328873 0.004203
0.811614 0.334374 0.003910
0.827173 0.346483 0.003910
0.838374 0.352915 0.003910
0.846186 0.354933 0.003910
0.853795 0.357480 0.004276
0.861281 0.360345 0.004862
0.868768 0.369162 0.007820
0.876254 0.380684 0.011856
0.881592 0.389180 0.016527
0.886214 0.396666 0.021410
0.891524 0.405581 0.026081
0.896992 0.414825 0.030703
0.899442 0.421278 0.031281
0.901460 0.427333 0.031281
0.905370 0.441992 0.036956
0.909406 0.457226 0.043011
0.018794 0.385583 0.230442
0.017947 0.365012 0.194051
0.017711 0.344481 0.158514
0.026630 0.324560 0.135795
0.038739 0.306967 0.114849
0.073176 0.305665 0.106320
0.111862 0.308794 0.098329
0.168955 0.331123 0.092666
0.237456 0.350295 0.083177
0.340184 0.359995 0.062215
0.448527 0.367538 0.042881
0.569222 0.370338 0.027126
0.663235 0.371452 0.015303
0.712776 0.369760 0.010029
0.755823 0.370602 0.006351
0.790521 0.374703 0.004724
0.815129 0.382808 0.003910
0.829647 0.394917 0.003910
0.842150 0.401350 0.003910
0.853087 0.403368 0.003910
0.861216 0.404613 0.004927
0.867661 0.405394 0.006555
0.874106 0.412844 0.009838
0.880551 0.423325 0.013874
0.886410 0.430779 0.016983
0.892073 0.437224 0.019782
0.896732 0.447636 0.024909
0.901159 0.458963 0.030573
0.903478 0.465677 0.031281
0.905496 0.471731 0.031281
0.909406 0.481508 0.036956
0.913442 0.491533 0.043011
0.023334 0.449658 0.276606
0.019363 0.425571 0.229148
0.016393 0.401842 0.183138
0.028436 0.383484 0.158856
0.044988 0.366183 0.135534
0.093097 0.356288 0.118934
0.143672 0.351703 0.103822
0.204931 0.370126 0.095164
0.274441 0.387443 0.083951
0.368706 0.401439 0.065072
0.469115 0.413727 0.047454
0.583040 0.422255 0.032611
0.672137 0.427780 0.021308
0.719855 0.428301 0.015905
0.760852 0.431812 0.011982
0.793207 0.439169 0.009964
0.817099 0.447274 0.008630
0.832527 0.456127 0.007979
0.845722 0.460403 0.007328
0.857180 0.461120 0.006677
0.865667 0.460981 0.007694
0.872372 0.460330 0.009712
0.879973 0.468407 0.013118
0.887980 0.480450 0.017154
0.893546 0.486049 0.019676
0.898299 0.489499 0.021695
0.901940 0.496811 0.025934
0.905325 0.505013 0.030687
0.908654 0.512475 0.032420
0.911974 0.519832 0.033722
0.915355 0.529690 0.038869
0.918740 0.539716 0.044272
0.029389 0.512219 0.325040
0.022293 0.481882 0.263000
0.016588 0.452880 0.203515
0.031757 0.443897 0.182357
0.052995 0.433627 0.160467
0.116728 0.414357 0.133451
0.179607 0.399812 0.109095
0.238783 0.405736 0.096271
0.305689 0.415240 0.082453
0.395788 0.435486 0.065657
0.489751 0.455326 0.050123
0.592219 0.474270 0.037363
0.674936 0.489039 0.027753
0.724738 0.496851 0.023391
0.765539 0.505375 0.020055
0.794769 0.514815 0.018037
0.818140 0.521357 0.016181
0.835652 0.525003 0.014489
0.849172 0.525829 0.012796
0.859588 0.524462 0.011104
0.868336 0.522891 0.011730
0.876083 0.521199 0.013748
0.886157 0.531098 0.017154
0.897290 0.546266 0.021190
0.902074 0.549521 0.023713
0.904743 0.548805 0.025731
0.907148 0.550258 0.028278
0.909492 0.552211 0.030947
0.914513 0.560714 0.034243
0.919916 0.570154 0.037628
0.922451 0.583072 0.041928
0.924794 0.596222 0.046290
0.045155 0.565068 0.370700
0.034218 0.534927 0.295509
0.024884 0.506022 0.223488
0.039597 0.495671 0.199011
0.061853 0.484197 0.173809
0.136913 0.464863 0.143537
0.209142 0.450874 0.116293
0.269099 0.460054 0.102166
0.335729 0.471951 0.087356
0.422377 0.492001 0.070495
0.510388 0.511157 0.055119
0.601398 0.528343 0.043011
0.677467 0.543137 0.033661
0.728636 0.553944 0.028908
0.769152 0.564437 0.025352
0.795974 0.574528 0.023334
0.819540 0.580224 0.021316
0.839851 0.581526 0.019298
0.854413 0.582572 0.017683
0.864504 0.583418 0.016381
0.873780 0.581579 0.016706
0.882569 0.578129 0.018008
0.892655 0.587165 0.021190
0.903332 0.601878 0.025226
0.908588 0.604043 0.027212
0.912039 0.602024 0.028514
0.914325 0.602810 0.030979
0.916343 0.604242 0.033714
0.920640 0.611370 0.038214
0.925262 0.619313 0.042966
0.927443 0.631039 0.047047
0.929461 0.643017 0.051083
0.065336 0.613502 0.415098
0.050233 0.586486 0.327408
0.036863 0.560120 0.243279
0.049492 0.543520 0.212551
0.071097 0.527098 0.181881
0.155532 0.511930 0.151610
0.235768 0.503280 0.124365
0.297808 0.522875 0.110239
0.365219 0.541803 0.095168
0.448742 0.558729 0.077266
0.531025 0.573458 0.061174
0.610577 0.583353 0.049065
0.679876 0.593980 0.039324
0.732086 0.605829 0.033531
0.772277 0.616908 0.029389
0.797015 0.626998 0.027370
0.821102 0.632174 0.025352
0.844538 0.632434 0.023334
0.860467 0.635368 0.022305
0.870558 0.640381 0.022044
0.880486 0.638802 0.022110
0.890316 0.633268 0.022370
0.899295 0.640222 0.025226
0.907889 0.652851 0.029262
0.914187 0.654495 0.030467
0.919721 0.652477 0.030727
0.922398 0.654955 0.033844
0.924416 0.658470 0.037620
0.926890 0.663125 0.043161
0.929429 0.667942 0.048955
0.931479 0.676544 0.053101
0.933497 0.685397 0.057137
0.087031 0.643774 0.459496
0.068542 0.620663 0.359307
0.052015 0.597960 0.263069
0.064905 0.581359 0.226092
0.086933 0.565556 0.189758
0.172930 0.555336 0.157924
0.255119 0.550901 0.129264
0.320805 0.571537 0.114356
0.390559 0.590465 0.098635
0.472520 0.604266 0.080472
0.551857 0.616765 0.064201
0.625420 0.626400 0.052092
0.689608 0.636670 0.042547
0.738173 0.647997 0.037274
0.776769 0.658100 0.033083
0.802549 0.666628 0.030284
0.825985 0.672064 0.028266
0.847077 0.674407 0.027029
0.861981 0.676641 0.026488
0.872071 0.678790 0.026488
0.882162 0.678252 0.026488
0.892252 0.676104 0.026488
0.900955 0.681609 0.029262
0.909028 0.690593 0.033299
0.915587 0.691911 0.034894
0.921641 0.690674 0.035675
0.925051 0.693722 0.039101
0.927850 0.697758 0.043137
0.929966 0.701111 0.048255
0.931984 0.704366 0.053528
0.933269 0.709940 0.057642
0.934506 0.715669 0.061678
0.109230 0.667991 0.503894
0.087616 0.649047 0.391206
0.068225 0.630380 0.282859
0.082156 0.615862 0.239633
0.104966 0.602533 0.197570
0.189921 0.597520 0.163653
0.272045 0.596926 0.133105
0.341897 0.615480 0.117156
0.414516 0.632064 0.100653
0.495435 0.642740 0.082490
0.572754 0.653742 0.066219
0.642150 0.665460 0.054110
0.701782 0.676641 0.044956
0.745139 0.686927 0.040724
0.781717 0.695532 0.036664
0.809579 0.701977 0.032823
0.831974 0.707934 0.030805
0.848900 0.713402 0.030609
0.861981 0.714074 0.030524
0.872071 0.711014 0.030524
0.882162 0.711779 0.030524
0.892252 0.714839 0.030524
0.900955 0.719107 0.033299
0.909028 0.723924 0.037335
0.915587 0.724982 0.039711
0.921641 0.724787 0.041534
0.925897 0.728030 0.045155
0.929738 0.732066 0.049191
0.931984 0.734507 0.053398
0.934002 0.736720 0.057630
0.934311 0.739300 0.061678
0.934506 0.741904 0.065714
0.144546 0.693848 0.549932
0.114731 0.672300 0.419667
0.087608 0.651321 0.294451
0.100889 0.638887 0.244975
0.123633 0.627820 0.197395
0.212625 0.626323 0.163088
0.298809 0.628512 0.131868
0.372828 0.646675 0.114031
0.447042 0.662608 0.096535
0.521842 0.671852 0.080065
0.593651 0.681992 0.065487
0.658881 0.694100 0.055071
0.714273 0.704817 0.047047
0.753268 0.713215 0.043011
0.786823 0.720958 0.039345
0.813384 0.727859 0.036155
0.834313 0.733067 0.034137
0.849612 0.736582 0.033291
0.861981 0.738230 0.033396
0.872071 0.738425 0.034243
0.882691 0.740492 0.035089
0.893628 0.743682 0.035935
0.902595 0.745708 0.037811
0.910668 0.747206 0.040154
0.916592 0.748849 0.043523
0.921800 0.750542 0.047234
0.925368 0.754826 0.052585
0.928558 0.759709 0.058313
0.931463 0.761344 0.062561
0.934327 0.762516 0.066597
0.934506 0.764481 0.069840
0.934506 0.766500 0.073030
0.182890 0.720083 0.596349
0.143700 0.694369 0.447335
0.107724 0.669614 0.304151
0.119963 0.659264 0.248426
0.142447 0.650410 0.195377
0.236647 0.652037 0.161070
0.327844 0.656765 0.129459
0.406029 0.674928 0.109539
0.481545 0.690601 0.091002
0.549053 0.698804 0.076615
0.614548 0.708227 0.064119
0.675612 0.720336 0.055787
0.726837 0.730271 0.049065
0.761666 0.736586 0.045029
0.791966 0.743613 0.041819
0.816443 0.751555 0.039670
0.835811 0.755721 0.037652
0.850068 0.756112 0.035764
0.861981 0.759322 0.036000
0.872071 0.764726 0.037888
0.883342 0.768094 0.039776
0.895320 0.770243 0.041664
