其他预设/【236】赛博朋克风调色预设/【后期菌】视频调色预设/CUBE/Miami 09_S.cube
# LUT by SparkleStock. Enhanced with VOXCOLOR algorithms.
LUT_3D_SIZE 8
DOMAIN_MIN 0.000000 0.000000 0.000000
DOMAIN_MAX 0.903226 0.903226 0.903226
0.070381 0.011730 0.015640
0.102671 0.015640 0.035191
0.163971 0.024974 0.048939
0.333113 0.064705 0.077949
0.551950 0.123356 0.145808
0.682370 0.156277 0.184782
0.750481 0.176584 0.214171
0.789077 0.197269 0.228550
0.086022 0.032290 0.035443
0.144555 0.032810 0.051856
0.297853 0.061332 0.076086
0.504903 0.126664 0.128857
0.641060 0.158421 0.157225
0.729759 0.169358 0.179538
0.794627 0.193135 0.212405
0.824394 0.211636 0.247054
0.086022 0.066597 0.044524
0.159523 0.064864 0.068961
0.407111 0.120520 0.111126
0.550494 0.175855 0.138773
0.638863 0.201688 0.146691
0.726984 0.215937 0.168438
0.790945 0.226450 0.196374
0.806760 0.229482 0.211624
0.091445 0.142781 0.071895
0.152655 0.127576 0.079162
0.350502 0.166143 0.091124
0.521134 0.216925 0.122705
0.624488 0.243743 0.132495
0.708471 0.262866 0.147203
0.772428 0.256425 0.172088
0.801055 0.255737 0.204133
0.107590 0.294012 0.096112
0.189779 0.292511 0.097190
0.308525 0.296909 0.079467
0.480088 0.323067 0.083108
0.594701 0.324426 0.096348
0.686207 0.325524 0.114832
0.758240 0.324914 0.138708
0.801613 0.320365 0.162709
0.101788 0.514742 0.162457
0.286843 0.448287 0.106040
0.448307 0.456526 0.108583
0.571981 0.456563 0.100124
0.650186 0.439348 0.096669
0.721064 0.440479 0.105893
0.776387 0.430234 0.112131
0.813677 0.426828 0.121082
0.112509 0.729543 0.280768
0.371107 0.613669 0.133280
0.556788 0.601829 0.113197
0.643989 0.598578 0.107212
0.706286 0.590546 0.099985
0.754045 0.573738 0.096096
0.791050 0.571879 0.104058
0.821619 0.557984 0.108851
0.169394 0.846593 0.402233
0.442114 0.711091 0.147460
0.619508 0.700989 0.105572
0.696696 0.701920 0.100148
0.741729 0.690219 0.086148
0.776338 0.673162 0.079776
0.805474 0.664817 0.080724
0.833056 0.681857 0.086022
0.082616 0.015893 0.036200
0.110507 0.019567 0.055481
0.163495 0.024941 0.063094
0.367168 0.066093 0.111122
0.567086 0.112005 0.162522
0.693380 0.132645 0.194242
0.775679 0.162050 0.230735
0.825277 0.184933 0.255908
0.082600 0.037428 0.048451
0.160033 0.040692 0.077191
0.318410 0.073469 0.114952
0.497623 0.122741 0.161041
0.628801 0.147846 0.189295
0.733419 0.159034 0.217399
0.811555 0.172627 0.248572
0.866074 0.195730 0.293249
0.086559 0.075931 0.073945
0.127423 0.080899 0.106154
0.454057 0.150108 0.173536
0.559075 0.191453 0.194895
0.648906 0.211961 0.212694
0.739158 0.217692 0.230575
0.832995 0.226813 0.277261
0.889404 0.235716 0.325783
0.098102 0.166920 0.115170
0.119724 0.200782 0.158040
0.314476 0.217916 0.160363
0.530527 0.264069 0.174472
0.619511 0.288206 0.184832
0.708362 0.302113 0.197130
0.788575 0.303575 0.215579
0.844222 0.310939 0.246360
0.106264 0.341246 0.184538
0.123922 0.411238 0.248431
0.280655 0.393178 0.163610
0.452549 0.392126 0.123923
0.589312 0.378633 0.128350
0.685785 0.381701 0.138471
0.770377 0.377886 0.141411
0.817267 0.370100 0.149915
0.105230 0.589997 0.297202
0.131883 0.634320 0.345296
0.384867 0.556479 0.169993
0.558253 0.515396 0.115646
0.634991 0.511419 0.113347
0.712832 0.514845 0.115109
0.775757 0.499111 0.114375
0.824243 0.498145 0.123169
0.125317 0.762211 0.418154
0.203386 0.765955 0.373053
0.492731 0.661729 0.164924
0.658718 0.639286 0.115487
0.703471 0.632294 0.101467
0.752730 0.622629 0.097287
0.792729 0.620833 0.100871
0.827548 0.614993 0.103119
0.198002 0.853139 0.479828
0.358629 0.812567 0.345471
0.585416 0.739873 0.151928
0.703930 0.724465 0.112548
0.755768 0.721775 0.098893
0.785241 0.705859 0.085301
0.812952 0.705143 0.084268
0.842067 0.722280 0.093573
0.090941 0.020055 0.065084
0.118913 0.019770 0.078327
0.186988 0.024909 0.112200
0.382735 0.065784 0.162034
0.585119 0.101788 0.211917
0.719579 0.130509 0.256409
0.808880 0.156724 0.298748
0.861151 0.183623 0.340078
0.093150 0.051116 0.089651
0.143427 0.041715 0.118142
0.329419 0.076903 0.175404
0.512190 0.122964 0.232138
0.635534 0.147480 0.271609
0.740517 0.158082 0.304756
0.836978 0.174207 0.344713
0.898097 0.196057 0.384256
0.087405 0.089923 0.122600
0.125293 0.105572 0.181653
0.434157 0.150896 0.257409
0.560923 0.196257 0.283409
0.657334 0.215457 0.313122
0.751334 0.220327 0.332030
0.845140 0.229433 0.360345
0.920498 0.240566 0.411018
0.093996 0.196203 0.214533
0.114398 0.249574 0.281631
0.245203 0.282241 0.350082
0.575173 0.277594 0.323507
0.671342 0.291958 0.333265
0.757601 0.306233 0.347248
0.845825 0.320735 0.368761
0.899382 0.331267 0.369005
0.094720 0.390962 0.312635
0.114026 0.471867 0.409602
0.171573 0.515641 0.424677
0.441402 0.461152 0.290333
0.626246 0.400497 0.239036
0.705569 0.412583 0.237586
0.790900 0.425854 0.241502
0.849333 0.427207 0.212675
0.097194 0.632353 0.433314
0.133144 0.673881 0.492558
0.222090 0.706053 0.505606
0.489759 0.619862 0.233527
0.626316 0.553426 0.147031
0.702022 0.554286 0.147264
0.773933 0.558245 0.151889
0.835612 0.555791 0.160480
0.140876 0.782380 0.519201
0.212563 0.801268 0.538152
0.347165 0.800341 0.493738
0.630252 0.712724 0.204616
0.712148 0.670040 0.120911
0.753388 0.662378 0.112456
0.785137 0.663998 0.120318
0.837666 0.667370 0.133551
0.242628 0.863116 0.554725
0.352727 0.861879 0.528287
0.534910 0.814889 0.368560
0.696535 0.768067 0.171563
0.772079 0.749772 0.114933
0.796738 0.741526 0.103244
0.813359 0.751144 0.106475
0.855102 0.769055 0.131353
0.098508 0.027370 0.112383
0.132719 0.020511 0.130953
0.207470 0.028168 0.158645
0.420184 0.066345 0.241773
0.624533 0.109356 0.295525
0.761060 0.137239 0.352403
0.847097 0.161700 0.398318
0.898701 0.182980 0.440556
0.094550 0.057060 0.174480
0.133851 0.057895 0.248091
0.349314 0.076024 0.295709
0.552198 0.123808 0.336074
0.670062 0.145654 0.374897
0.769356 0.157229 0.409634
0.870796 0.177354 0.452506
0.929459 0.195149 0.480227
0.093744 0.106174 0.247876
0.121143 0.132002 0.357765
0.304691 0.155401 0.445488
0.592813 0.193430 0.409394
0.681939 0.212099 0.424668
0.773273 0.217940 0.438917
0.868436 0.230713 0.466991
0.943332 0.244063 0.502990
0.084361 0.247828 0.385750
0.103593 0.293003 0.465956
0.247718 0.323145 0.525530
0.582099 0.286451 0.455194
0.690064 0.293547 0.449993
0.776934 0.311033 0.455253
0.859857 0.326347 0.471519
0.939330 0.344805 0.495945
0.079772 0.463325 0.497047
0.110515 0.521348 0.557275
0.182916 0.564910 0.563411
0.380107 0.536390 0.522466
0.693902 0.436544 0.455353
0.762356 0.435694 0.434138
0.835200 0.455477 0.430594
0.905671 0.469893 0.423062
0.102915 0.680629 0.574292
0.167684 0.724594 0.621064
0.253241 0.747283 0.623853
0.376724 0.737890 0.561155
0.638165 0.639134 0.311740
0.723816 0.571426 0.233027
0.780192 0.581960 0.241310
0.855438 0.583771 0.251651
0.161399 0.804087 0.606610
0.254916 0.820833 0.621416
0.362657 0.824938 0.609525
0.520067 0.824523 0.561141
0.709139 0.739744 0.239042
0.752722 0.698074 0.154015
0.787501 0.696696 0.180883
0.852940 0.700028 0.203291
0.274352 0.869728 0.614800
0.393825 0.876890 0.622079
0.515801 0.868478 0.586965
0.681905 0.847069 0.457403
0.783325 0.780436 0.166926
0.805486 0.774686 0.133456
0.823273 0.788853 0.165830
0.873873 0.810638 0.218804
0.105572 0.031281 0.226532
0.146064 0.025666 0.276594
0.285297 0.031146 0.312439
0.479400 0.061780 0.361858
0.680486 0.109608 0.397305
0.815259 0.138923 0.459927
0.892883 0.159580 0.506620
0.939397 0.174411 0.545566
0.092711 0.063513 0.342646
0.116089 0.067277 0.435233
0.377592 0.072392 0.478385
0.631612 0.114550 0.460736
0.736134 0.134952 0.498876
0.824729 0.153283 0.526120
0.903096 0.166230 0.560504
0.956653 0.188728 0.589466
0.091445 0.130163 0.477622
0.117672 0.149535 0.571134
0.226889 0.178126 0.624940
0.611167 0.171044 0.551675
0.741413 0.195974 0.548401
0.815398 0.211864 0.560245
0.902701 0.225021 0.579838
0.961360 0.244648 0.605402
0.083820 0.278005 0.571318
0.123094 0.332829 0.644634
0.214597 0.365804 0.662861
0.453287 0.353147 0.623848
0.731327 0.296903 0.573664
0.811268 0.312018 0.574160
0.881204 0.331508 0.580197
0.945912 0.358335 0.589866
0.078588 0.501591 0.633541
0.128908 0.554221 0.671813
0.216619 0.600297 0.674101
0.409738 0.572037 0.641063
0.698033 0.502321 0.601383
0.798472 0.458153 0.564422
0.853083 0.469121 0.552164
0.920689 0.488591 0.555978
0.124093 0.713569 0.676926
0.193113 0.743941 0.696518
0.298318 0.765016 0.687699
0.419948 0.768190 0.669346
0.608303 0.744728 0.629698
0.754143 0.645517 0.416544
0.801271 0.606919 0.375713
0.870364 0.613791 0.373190
0.202957 0.828039 0.676568
0.304689 0.836833 0.673013
0.431366 0.842364 0.672575
0.546861 0.842374 0.654018
0.670283 0.842074 0.614292
0.763769 0.771960 0.340567
0.796722 0.720116 0.259217
0.860214 0.724769 0.278892
0.318319 0.876555 0.662034
0.426913 0.882434 0.659200
0.542297 0.881408 0.654766
0.663140 0.877410 0.605606
0.774464 0.871955 0.522241
0.810507 0.831524 0.272052
0.830146 0.815102 0.243688
0.886974 0.840540 0.332172
0.100274 0.032542 0.431369
0.132662 0.034100 0.517126
0.322123 0.042307 0.516609
0.579191 0.055144 0.523856
0.750721 0.094187 0.525609
0.856614 0.119096 0.561972
0.920742 0.136946 0.600511
0.960994 0.150283 0.632170
0.095266 0.053984 0.543426
0.126598 0.055739 0.642037
0.379088 0.066391 0.651161
0.696039 0.089704 0.610828
0.818841 0.120256 0.602695
0.880976 0.136158 0.627340
0.937237 0.157276 0.646355
0.971487 0.176409 0.663185
0.106654 0.125883 0.668028
0.146620 0.147893 0.720229
0.236311 0.188416 0.749629
0.657577 0.180028 0.680810
0.825034 0.175965 0.650764
0.884625 0.201763 0.664284
0.940122 0.221922 0.676936
0.969213 0.255351 0.678753
0.103623 0.286696 0.719721
0.167552 0.335913 0.740094
0.258969 0.387296 0.748481
0.436186 0.414422 0.733452
0.782986 0.336664 0.688202
0.876040 0.314593 0.673280
0.912812 0.348600 0.676253
0.951934 0.376368 0.672776
0.113119 0.525483 0.723342
0.189326 0.574928 0.738216
0.314579 0.615659 0.741323
0.439016 0.633943 0.729933
0.643500 0.606343 0.707961
0.838200 0.510735 0.672608
0.883102 0.495998 0.661632
0.929066 0.512612 0.657575
0.167376 0.732346 0.728941
0.259513 0.740774 0.728986
0.381583 0.762869 0.728977
0.502071 0.776746 0.721297
0.651967 0.766683 0.710937
0.761895 0.732925 0.672470
0.844310 0.663873 0.634408
0.907741 0.647940 0.621080
0.269306 0.835335 0.721361
0.376455 0.839692 0.719193
0.488636 0.843696 0.711999
0.592763 0.850075 0.706539
0.686395 0.850467 0.692998
0.758132 0.832956 0.644375
0.822707 0.773971 0.443050
0.883946 0.749605 0.435670
0.373645 0.886133 0.698767
0.483441 0.890531 0.693193
0.582786 0.884196 0.683968
0.680906 0.885597 0.678919
0.759875 0.891561 0.666107
0.819330 0.883246 0.568955
0.851222 0.861952 0.438406
0.898255 0.856895 0.441618
0.102545 0.020433 0.637215
0.150011 0.020531 0.698022
0.387040 0.045224 0.676796
0.677878 0.060921 0.649832
0.792723 0.071240 0.638753
0.887223 0.094961 0.662079
0.940605 0.114320 0.688009
0.975426 0.133825 0.695488
0.098944 0.041440 0.711901
0.155829 0.045475 0.770676
0.284365 0.067260 0.797333
0.692524 0.111804 0.724577
0.880767 0.114870 0.692141
0.922544 0.132360 0.703125
0.955196 0.158917 0.711555
0.978903 0.184398 0.715420
0.120227 0.127116 0.783023
0.180803 0.149937 0.803388
0.292868 0.199213 0.821946
0.651526 0.218898 0.766510
0.862416 0.205768 0.734556
0.931705 0.216893 0.724661
0.957588 0.245587 0.727330
0.976235 0.274080 0.722943
0.147989 0.304383 0.791807
0.237786 0.363130 0.800517
0.343968 0.412259 0.793984
0.475587 0.447823 0.785688
0.805215 0.388431 0.757746
0.915487 0.357384 0.726020
0.932914 0.385681 0.726548
0.953882 0.410433 0.730463
0.177756 0.538292 0.777347
0.291638 0.579782 0.780810
0.400537 0.618738 0.773621
0.522358 0.651651 0.765361
0.652238 0.666032 0.758325
0.846597 0.581116 0.729824
0.900557 0.537166 0.721174
0.933931 0.545267 0.721408
0.240325 0.722195 0.766341
0.357627 0.744243 0.764279
0.475139 0.755978 0.755762
0.574248 0.772283 0.748583
0.670318 0.780963 0.742327
0.751339 0.765011 0.730767
0.862774 0.699356 0.715398
0.919399 0.678809 0.714443
0.347870 0.830196 0.754643
0.447159 0.835714 0.743686
0.553042 0.839591 0.736216
0.643034 0.845268 0.726826
0.720230 0.851977 0.722343
0.776028 0.848875 0.714249
0.839399 0.836140 0.680297
0.903856 0.793414 0.627494
0.445906 0.891675 0.731110
0.533574 0.887221 0.718998
0.629802 0.888911 0.714245
0.708054 0.889099 0.708428
0.772020 0.896242 0.709879
0.821153 0.899193 0.702964
0.866517 0.897708 0.643931
0.907154 0.884337 0.586389
0.126510 0.009964 0.774067
0.196740 0.011730 0.809030
0.386657 0.036729 0.789305
0.714379 0.067155 0.727582
0.841820 0.078531 0.726642
0.903856 0.096421 0.736729
0.952258 0.114421 0.743890
0.982815 0.131425 0.748800
0.128239 0.025719 0.830082
0.202499 0.038943 0.857503
0.336621 0.076611 0.852857
0.692855 0.124402 0.786673
0.888718 0.135925 0.752913
0.936236 0.153392 0.755018
0.961149 0.183886 0.757166
0.979873 0.203957 0.753542
0.160138 0.120101 0.862160
0.243318 0.159048 0.867695
0.356242 0.204909 0.859541
0.522329 0.259039 0.833462
0.833626 0.258224 0.792676
0.938555 0.250755 0.761747
0.958820 0.286163 0.765193
0.975049 0.318512 0.758435
0.214586 0.326896 0.841657
0.316474 0.365745 0.837993
0.424347 0.419685 0.824642
0.541401 0.469003 0.807816
0.774265 0.463619 0.789392
0.905150 0.431702 0.766052
0.947374 0.435805 0.750654
0.960628 0.456673 0.754391
0.283156 0.549322 0.814100
0.391452 0.583113 0.800460
0.498599 0.622071 0.791893
0.597689 0.657490 0.784638
0.678219 0.668313 0.781144
0.847691 0.634555 0.764456
0.913173 0.601972 0.749939
0.944355 0.598277 0.754855
0.345469 0.713903 0.789390
0.460252 0.728013 0.782852
0.563858 0.744828 0.774006
0.642322 0.758344 0.769498
0.716259 0.776657 0.765664
0.776444 0.785354 0.759422
0.872044 0.752054 0.752921
0.932610 0.721702 0.757902
0.430791 0.817078 0.774698
0.530147 0.822686 0.766695
0.616350 0.829850 0.757616
0.690532 0.840341 0.751500
0.749723 0.844865 0.746571
0.797625 0.856154 0.738804
0.850951 0.857566 0.738344
0.920220 0.828194 0.731050
0.507564 0.882540 0.756617
0.595604 0.883976 0.748909
0.670525 0.886088 0.740106
0.730189 0.886357 0.733864
0.787607 0.890574 0.732739
0.832861 0.896879 0.735234
0.876494 0.907504 0.724600
0.916691 0.909439 0.706806
