其他预设/【236】赛博朋克风调色预设/【后期菌】视频调色预设/CUBE/Miami 05.cube
# LUT by SparkleStock. Enhanced with VOXCOLOR algorithms.
LUT_3D_SIZE 32
0.015640 0.015640 0.031281
0.035821 0.021695 0.051462
0.055624 0.027497 0.071264
0.069751 0.029515 0.085391
0.084130 0.031533 0.099013
0.100274 0.033551 0.109104
0.121717 0.036704 0.121086
0.166115 0.044777 0.141267
0.215558 0.051840 0.161448
0.280137 0.055876 0.181629
0.344717 0.059912 0.194873
0.409296 0.063949 0.192855
0.479173 0.068742 0.193107
0.557878 0.074796 0.197143
0.625106 0.080850 0.202062
0.677577 0.086904 0.208117
0.719957 0.088923 0.214171
0.752247 0.086904 0.220225
0.779996 0.088292 0.229685
0.804213 0.092328 0.241794
0.827169 0.095103 0.255163
0.849368 0.097121 0.269290
0.864630 0.097752 0.279255
0.876738 0.097752 0.287327
0.885820 0.100779 0.290859
0.893892 0.104815 0.292877
0.900325 0.110491 0.299814
0.906379 0.116545 0.307886
0.912433 0.119068 0.315959
0.918488 0.121086 0.324031
0.928326 0.126888 0.322644
0.938416 0.132942 0.320626
0.025731 0.031785 0.049443
0.046953 0.034715 0.068583
0.067732 0.037587 0.087344
0.081859 0.039605 0.100429
0.097670 0.041884 0.113791
0.125273 0.045985 0.129089
0.157391 0.050440 0.144717
0.209081 0.056429 0.161773
0.264513 0.061670 0.177788
0.331176 0.064665 0.190678
0.398815 0.068310 0.199560
0.468602 0.073388 0.199625
0.537437 0.078441 0.201570
0.604685 0.083454 0.206648
0.662734 0.088923 0.213520
0.708955 0.094977 0.222699
0.747169 0.097516 0.231878
0.777375 0.096539 0.241057
0.802455 0.097796 0.250712
0.823547 0.100791 0.260738
0.844030 0.103826 0.272675
0.864145 0.106886 0.285760
0.875892 0.106410 0.293967
0.883834 0.104327 0.299956
0.891874 0.107614 0.306092
0.899946 0.112692 0.312277
0.906379 0.117717 0.319149
0.912433 0.122730 0.326179
0.919399 0.126945 0.332299
0.926495 0.131046 0.338288
0.933469 0.136002 0.337747
0.940435 0.141015 0.336770
0.035317 0.047678 0.067228
0.057451 0.047678 0.085196
0.079133 0.047800 0.102817
0.094041 0.049753 0.115251
0.111944 0.052226 0.128670
0.150808 0.058346 0.148981
0.193432 0.064062 0.168084
0.252348 0.068034 0.181950
0.313770 0.071516 0.193847
0.382711 0.073535 0.199837
0.453299 0.076814 0.204646
0.527513 0.082868 0.206859
0.594941 0.088166 0.210489
0.651057 0.092202 0.216478
0.700138 0.097093 0.225173
0.740175 0.103082 0.237346
0.774157 0.106011 0.249455
0.802085 0.105881 0.261499
0.824483 0.106959 0.271308
0.842581 0.108977 0.279381
0.860557 0.112297 0.290057
0.878459 0.116399 0.302296
0.886874 0.115040 0.308851
0.890975 0.111199 0.312822
0.898054 0.114731 0.321529
0.906127 0.120720 0.331815
0.912560 0.125069 0.338557
0.918614 0.129040 0.344481
0.926320 0.135005 0.348753
0.934262 0.141255 0.352789
0.938420 0.145307 0.352919
0.942326 0.149213 0.352789
0.037335 0.059786 0.079337
0.058427 0.059786 0.094179
0.079914 0.059843 0.109197
0.107321 0.060755 0.126839
0.137202 0.062447 0.145075
0.184400 0.069608 0.167470
0.234966 0.075976 0.187484
0.300131 0.078905 0.197184
0.367542 0.081607 0.205696
0.441691 0.083625 0.210643
0.513582 0.086904 0.215713
0.580505 0.092959 0.221051
0.641032 0.098256 0.226243
0.690898 0.102292 0.231190
0.734186 0.106727 0.239755
0.769014 0.111675 0.252970
0.797788 0.113042 0.265079
0.820508 0.110829 0.276081
0.840042 0.110995 0.285435
0.857098 0.113014 0.293507
0.872080 0.116985 0.305486
0.885816 0.122128 0.319808
0.893644 0.123242 0.326297
0.898787 0.122526 0.329227
0.906127 0.126058 0.340017
0.914199 0.131006 0.353428
0.920632 0.134313 0.359063
0.926686 0.137243 0.362904
0.932570 0.145812 0.366916
0.938429 0.155186 0.370952
0.940504 0.157481 0.369129
0.942326 0.159304 0.366916
0.039353 0.072399 0.091697
0.059274 0.072139 0.103546
0.080370 0.071911 0.116049
0.119105 0.072171 0.138378
0.160166 0.073360 0.160943
0.217519 0.081041 0.185161
0.277460 0.087637 0.205899
0.348615 0.089525 0.211563
0.421461 0.091543 0.216917
0.499386 0.093951 0.221344
0.571635 0.097418 0.226869
0.631397 0.103212 0.234812
0.685153 0.108347 0.241436
0.728900 0.112383 0.245862
0.766410 0.116248 0.254362
0.795900 0.119894 0.268098
0.819792 0.119959 0.280011
0.838085 0.116444 0.290102
0.855097 0.116187 0.299277
0.871111 0.118466 0.307740
0.883179 0.122779 0.320679
0.892879 0.128312 0.336303
0.900162 0.131608 0.343020
0.906347 0.133886 0.345689
0.913947 0.137483 0.358074
0.922019 0.141519 0.373698
0.928240 0.144656 0.377316
0.934034 0.147586 0.378162
0.938062 0.157977 0.381799
0.941838 0.169435 0.385835
0.942318 0.170883 0.382670
0.942579 0.171665 0.379024
0.041371 0.088544 0.105824
0.059208 0.086201 0.115589
0.078547 0.084150 0.126204
0.120407 0.086493 0.149575
0.167067 0.089114 0.173052
0.247335 0.093671 0.197269
0.326676 0.097532 0.217422
0.401997 0.098378 0.219961
0.476406 0.100396 0.223753
0.548081 0.105930 0.231304
0.614080 0.110894 0.238653
0.667592 0.114604 0.245553
0.715490 0.118437 0.252698
0.754029 0.122473 0.260249
0.785875 0.124972 0.269140
0.809116 0.125492 0.279751
0.830403 0.126078 0.290102
0.849738 0.126729 0.300192
0.866619 0.129468 0.311125
0.881592 0.133829 0.322713
0.891317 0.136319 0.334219
0.897892 0.137686 0.345677
0.904914 0.141112 0.354673
0.912140 0.145474 0.362550
0.920001 0.149592 0.373112
0.928074 0.153628 0.384570
0.932602 0.162689 0.379789
0.936313 0.172910 0.371261
0.938258 0.179656 0.373727
0.939950 0.185905 0.377763
0.942253 0.192887 0.377527
0.944597 0.199918 0.377006
0.043389 0.104311 0.119572
0.059339 0.100860 0.127450
0.077139 0.097890 0.136409
0.122709 0.102122 0.161603
0.174724 0.106003 0.186552
0.271854 0.107435 0.209793
0.366187 0.108636 0.228456
0.448409 0.108831 0.227284
0.526431 0.110947 0.228928
0.591857 0.118824 0.239019
0.651728 0.124809 0.247787
0.699381 0.126632 0.253646
0.741810 0.129211 0.261092
0.775532 0.133052 0.271182
0.802618 0.134330 0.280561
0.821171 0.132312 0.289024
0.840050 0.133418 0.298203
0.859255 0.137650 0.308098
0.875713 0.142907 0.320373
0.890035 0.148961 0.334500
0.898050 0.150336 0.344843
0.902282 0.148904 0.352915
0.909020 0.152753 0.363091
0.916897 0.159003 0.374223
0.924774 0.163446 0.383207
0.932651 0.167287 0.391475
0.935768 0.181124 0.379590
0.937786 0.197269 0.363055
0.937867 0.201395 0.362640
0.937672 0.203804 0.364527
0.941444 0.214391 0.366354
0.945480 0.225523 0.368177
0.045407 0.118437 0.131681
0.060315 0.118112 0.138517
0.077530 0.118136 0.146825
0.129350 0.123409 0.177227
0.185661 0.127812 0.206082
0.273416 0.126119 0.224115
0.363649 0.124976 0.237375
0.464619 0.126213 0.229954
0.555140 0.128849 0.226910
0.614316 0.135685 0.237001
0.668589 0.140628 0.245443
0.712076 0.141409 0.250261
0.750729 0.142947 0.257055
0.781326 0.145747 0.267146
0.807565 0.146438 0.277436
0.828202 0.144420 0.287982
0.845519 0.146048 0.297682
0.859515 0.151321 0.306536
0.874281 0.157033 0.318355
0.889644 0.163088 0.332482
0.898701 0.166416 0.342825
0.903974 0.168109 0.350897
0.910322 0.173650 0.357493
0.917157 0.180941 0.363417
0.923993 0.184864 0.371880
0.930828 0.187663 0.381189
0.933750 0.201305 0.367807
0.935768 0.217450 0.349188
0.934938 0.223399 0.338487
0.933701 0.227891 0.328918
0.937407 0.233725 0.329052
0.941444 0.239649 0.329833
0.048434 0.135087 0.145808
0.062561 0.137105 0.152122
0.079223 0.139359 0.160089
0.133907 0.145153 0.192834
0.191878 0.149685 0.223285
0.272863 0.145389 0.237672
0.359987 0.142227 0.246993
0.473716 0.143985 0.234364
0.573612 0.146687 0.227024
0.632007 0.152220 0.235552
0.684766 0.156106 0.242839
0.725128 0.156366 0.247396
0.760852 0.157286 0.254126
0.788845 0.159304 0.264477
0.813848 0.159670 0.275369
0.835005 0.157912 0.286957
0.851150 0.160061 0.297047
0.862282 0.166115 0.305640
0.875355 0.171730 0.316467
0.889937 0.177003 0.329032
0.899190 0.181828 0.339277
0.905244 0.186385 0.348130
0.911119 0.193180 0.352464
0.916913 0.200992 0.354742
0.922707 0.204654 0.362489
0.928501 0.206933 0.372059
0.931439 0.219631 0.357033
0.933717 0.234734 0.336331
0.931780 0.242148 0.316484
0.929241 0.248462 0.296758
0.932378 0.251237 0.293572
0.935894 0.253776 0.291489
0.054489 0.159304 0.165989
0.068615 0.161322 0.173345
0.084821 0.163511 0.181898
0.132214 0.168263 0.208393
0.183936 0.171754 0.233506
0.265962 0.166416 0.248934
0.352956 0.162213 0.258711
0.461478 0.162929 0.243999
0.561374 0.164329 0.233534
0.635392 0.167779 0.235813
0.698893 0.170558 0.239454
0.739255 0.171860 0.246094
0.774588 0.173430 0.254517
0.801540 0.175449 0.265909
0.824133 0.176270 0.276476
0.841124 0.175554 0.285980
0.857269 0.178223 0.296071
0.872568 0.184278 0.306747
0.883948 0.188135 0.314970
0.892281 0.190283 0.321285
0.899190 0.195239 0.331139
0.905244 0.201879 0.343118
0.910403 0.208609 0.349143
0.915155 0.215379 0.352464
0.919908 0.219562 0.358908
0.924660 0.222882 0.366395
0.928249 0.232391 0.349286
0.931569 0.243328 0.326501
0.927939 0.251131 0.300925
0.923317 0.258488 0.274950
0.924371 0.263281 0.263561
0.925803 0.267903 0.253145
0.059912 0.183521 0.186170
0.074365 0.185865 0.193591
0.090318 0.188212 0.201692
0.128792 0.190621 0.219985
0.172556 0.192216 0.237725
0.253345 0.188115 0.251591
0.338235 0.184904 0.259952
0.440898 0.185555 0.244459
0.539085 0.186141 0.231927
0.623845 0.186532 0.228281
0.695443 0.187533 0.228399
0.738083 0.189876 0.236797
0.775304 0.192464 0.246220
0.803493 0.195459 0.257352
0.826099 0.196574 0.267146
0.841527 0.195272 0.275218
0.857835 0.197810 0.285146
0.875021 0.204190 0.296929
0.885726 0.206981 0.303952
0.891390 0.206981 0.307272
0.897705 0.212027 0.317143
0.904410 0.220099 0.330944
0.909280 0.226113 0.338032
0.913316 0.231190 0.342068
0.917108 0.235487 0.347129
0.920819 0.239523 0.352533
0.925323 0.247368 0.338365
0.930010 0.256091 0.319682
0.925299 0.263391 0.289435
0.919244 0.270486 0.257536
0.918561 0.275995 0.237660
0.918235 0.281399 0.218585
0.063949 0.207738 0.206351
0.079442 0.211123 0.211689
0.095591 0.214122 0.217056
0.121566 0.211323 0.222849
0.153612 0.209142 0.228741
0.228151 0.211290 0.235316
0.306597 0.213548 0.238144
0.401968 0.216283 0.224733
0.494687 0.217129 0.212462
0.579447 0.212311 0.203608
0.653323 0.210057 0.200471
0.703255 0.213443 0.209911
0.747376 0.217853 0.218813
0.781814 0.223972 0.226821
0.809758 0.225022 0.234856
0.829354 0.219554 0.242929
0.846182 0.220530 0.252336
0.860244 0.227952 0.263077
0.872511 0.231199 0.271988
0.883383 0.231199 0.279474
0.892952 0.236244 0.290256
0.901741 0.244316 0.303016
0.907262 0.248182 0.309778
0.911298 0.250135 0.313815
0.914309 0.253650 0.317314
0.916978 0.257686 0.320634
0.922980 0.267223 0.320463
0.929750 0.278030 0.319486
0.925299 0.282855 0.286896
0.919244 0.286827 0.249789
0.917584 0.290187 0.220799
0.916217 0.293507 0.192350
0.067985 0.235739 0.228802
0.083739 0.236651 0.230104
0.099570 0.237200 0.231199
0.116562 0.232317 0.229180
0.139330 0.228704 0.227374
0.202542 0.233978 0.227048
0.270198 0.238945 0.223635
0.357106 0.242591 0.206839
0.443966 0.243600 0.190727
0.530679 0.236700 0.176665
0.607932 0.233095 0.169541
0.664374 0.236740 0.177678
0.714175 0.241460 0.184742
0.752910 0.247970 0.190015
0.785265 0.248784 0.196854
0.809417 0.242274 0.205708
0.828914 0.242860 0.214789
0.843757 0.250541 0.224099
0.858197 0.254561 0.233847
0.872324 0.255733 0.243938
0.884416 0.260241 0.254801
0.895288 0.266751 0.266129
0.901729 0.269860 0.272981
0.906155 0.271422 0.277798
0.909069 0.274840 0.281102
0.911477 0.278876 0.283901
0.918488 0.288519 0.292624
0.926560 0.299456 0.302715
0.924664 0.303614 0.276179
0.921344 0.306804 0.244410
0.918512 0.307797 0.209528
0.915713 0.308643 0.174440
0.072021 0.270047 0.255037
0.086734 0.262626 0.249048
0.101393 0.255558 0.243307
0.115260 0.253800 0.241289
0.132820 0.252661 0.238701
0.176242 0.255851 0.232126
0.225864 0.258931 0.221291
0.302357 0.261535 0.191996
0.382707 0.262544 0.165208
0.474628 0.258768 0.145938
0.557089 0.256986 0.133606
0.618739 0.259590 0.136535
0.672186 0.262097 0.139562
0.711962 0.264440 0.142752
0.747181 0.264733 0.149331
0.776541 0.262390 0.160268
0.802288 0.264538 0.169349
0.824422 0.271178 0.176576
0.842052 0.276500 0.185413
0.856179 0.280797 0.195503
0.869573 0.283873 0.205065
0.882528 0.286216 0.214309
0.890336 0.290887 0.221942
0.895804 0.296616 0.228843
0.899759 0.301075 0.234230
0.903210 0.305111 0.239112
0.910415 0.312216 0.248226
0.918488 0.320028 0.258317
0.922971 0.326529 0.251831
0.926943 0.332844 0.242978
0.922613 0.331103 0.207575
0.917731 0.328824 0.170403
0.076940 0.303472 0.283039
0.090611 0.291819 0.272037
0.104213 0.280780 0.261511
0.116777 0.278958 0.258126
0.131124 0.277273 0.253390
0.157945 0.276557 0.239198
0.191443 0.276354 0.221368
0.253874 0.278372 0.187777
0.324523 0.280178 0.155780
0.419830 0.281350 0.128568
0.506246 0.282929 0.109291
0.573104 0.285402 0.107468
0.631393 0.287290 0.107085
0.675400 0.288202 0.109104
0.714082 0.288714 0.114340
0.745916 0.288714 0.123714
0.774950 0.291286 0.130973
0.801186 0.296429 0.136116
0.821123 0.301059 0.142760
0.836161 0.305290 0.150572
0.851484 0.307732 0.157977
0.866977 0.309099 0.165138
0.876921 0.314449 0.172299
0.884343 0.321610 0.179460
0.890934 0.326769 0.185791
0.897249 0.331261 0.191846
0.904621 0.335912 0.200809
0.912238 0.340599 0.210444
0.919855 0.348647 0.215579
0.927471 0.357175 0.220071
0.923980 0.354779 0.193375
0.919749 0.351654 0.164601
0.082994 0.335761 0.313310
0.095624 0.325150 0.300225
0.108314 0.314828 0.287551
0.121920 0.308838 0.281041
0.135615 0.302727 0.272399
0.149937 0.295761 0.248833
0.169765 0.290480 0.224558
0.213447 0.292498 0.197216
0.270295 0.296128 0.167043
0.366643 0.304591 0.128373
0.455403 0.311508 0.099916
0.527469 0.315023 0.093927
0.592137 0.318343 0.090941
0.644478 0.321338 0.092959
0.687391 0.323022 0.095461
0.718183 0.323022 0.098586
0.746697 0.324552 0.101678
0.772932 0.327612 0.104738
0.794041 0.328987 0.107541
0.811162 0.329052 0.110145
0.829219 0.331884 0.114295
0.847838 0.336376 0.119373
0.860907 0.341270 0.124451
0.871453 0.346348 0.129529
0.882732 0.351768 0.135339
0.894254 0.357301 0.141393
0.901757 0.359608 0.149510
0.908332 0.361171 0.158103
0.914907 0.369739 0.164019
0.921482 0.379309 0.169553
0.921832 0.378931 0.163429
0.921767 0.377889 0.156529
0.088040 0.370069 0.341563
0.102231 0.355291 0.323270
0.116321 0.340868 0.305356
0.128886 0.331754 0.293117
0.141214 0.322843 0.279137
0.151890 0.315357 0.252966
0.166802 0.309945 0.227651
0.200069 0.313526 0.206037
0.250147 0.319368 0.178468
0.350661 0.331998 0.133028
0.443099 0.341779 0.098777
0.517769 0.345294 0.089142
0.584651 0.348615 0.083682
0.638554 0.351609 0.085179
0.681206 0.352838 0.085566
0.709395 0.351796 0.084524
0.736867 0.352805 0.085273
0.763623 0.355865 0.087812
0.785545 0.356361 0.089215
0.803708 0.354864 0.089736
0.821830 0.357110 0.092129
0.839928 0.361602 0.095644
0.854625 0.366139 0.099876
0.867775 0.370696 0.104433
0.880876 0.376766 0.109331
0.893961 0.383341 0.114344
0.901334 0.384997 0.120996
0.907388 0.385518 0.128027
0.912987 0.393045 0.134204
0.918520 0.401573 0.140258
0.922711 0.404059 0.145885
0.926812 0.406143 0.151484
0.092076 0.406395 0.367799
0.110434 0.382243 0.341173
0.128235 0.358900 0.314925
0.137674 0.347703 0.294354
0.147919 0.337621 0.273603
0.163804 0.335342 0.251599
0.182557 0.334748 0.230645
0.213740 0.341454 0.214240
0.264078 0.349900 0.190055
0.371884 0.363571 0.142532
0.469334 0.373743 0.105873
0.544004 0.376217 0.093113
0.608933 0.378105 0.085309
0.657628 0.379016 0.085765
0.695528 0.378162 0.084654
0.719550 0.375037 0.081530
0.745460 0.376046 0.081757
0.773258 0.381189 0.085338
0.795636 0.383183 0.087783
0.813799 0.382727 0.089346
0.829317 0.383410 0.091478
0.843248 0.384778 0.093951
0.858075 0.389054 0.098574
0.873308 0.394652 0.104172
0.885368 0.401765 0.107769
0.896370 0.409381 0.110698
0.903352 0.412079 0.115268
0.909406 0.413641 0.120215
0.914093 0.418564 0.126131
0.918585 0.423968 0.132186
0.926617 0.430164 0.140742
0.934885 0.436414 0.149466
0.096112 0.443856 0.395169
0.115707 0.416188 0.364898
0.134655 0.389164 0.334455
0.143899 0.371782 0.301450
0.154698 0.356427 0.269681
0.176376 0.355255 0.246570
0.200984 0.356585 0.225364
0.238286 0.368759 0.212409
0.291961 0.380835 0.191463
0.394754 0.392618 0.146544
0.489308 0.401899 0.111431
0.565735 0.405675 0.097890
0.629370 0.407156 0.088548
0.671685 0.404812 0.086205
0.706481 0.402241 0.083377
0.731610 0.399376 0.079927
0.757129 0.400971 0.080219
0.783039 0.407026 0.084256
0.804921 0.410004 0.087486
0.823670 0.410590 0.090090
0.838268 0.410443 0.091962
0.850377 0.409857 0.093394
0.864052 0.414642 0.097601
0.878439 0.421868 0.103070
0.889164 0.427971 0.105950
0.898669 0.433700 0.107968
0.905370 0.437366 0.112102
0.911424 0.440556 0.116724
0.916738 0.443461 0.122600
0.921946 0.446326 0.128654
0.930084 0.454072 0.137394
0.938416 0.462145 0.146312
0.100148 0.482200 0.423423
0.118702 0.455574 0.393151
0.136804 0.428940 0.361732
0.148131 0.402184 0.313102
0.161533 0.378365 0.267012
0.189461 0.375110 0.238693
0.221491 0.376115 0.213646
0.271292 0.395580 0.202774
0.330696 0.412083 0.184953
0.418906 0.419700 0.146284
0.504411 0.427093 0.115793
0.583963 0.433993 0.103293
0.646817 0.435865 0.093040
0.681841 0.429355 0.086530
0.714814 0.425351 0.081814
0.745151 0.424570 0.079406
0.771191 0.427207 0.080219
0.792934 0.433261 0.084256
0.813579 0.436825 0.088072
0.833369 0.438453 0.091718
0.848359 0.438046 0.093329
0.860467 0.436418 0.093720
0.871994 0.442310 0.096885
0.883256 0.451619 0.101312
0.892419 0.455118 0.103932
0.900882 0.456681 0.105950
0.907388 0.461258 0.110930
0.913442 0.466531 0.116594
0.920579 0.467874 0.122600
0.927870 0.468655 0.128654
0.933208 0.476272 0.135441
0.938416 0.484344 0.142276
0.102923 0.523066 0.455460
0.121086 0.493576 0.420631
0.139074 0.464403 0.384900
0.154438 0.439991 0.335619
0.172397 0.417230 0.287006
0.208527 0.406033 0.243063
0.247978 0.400243 0.204857
0.301816 0.417885 0.191512
0.362391 0.433444 0.173723
0.443180 0.442753 0.142606
0.522118 0.452286 0.117835
0.596983 0.462312 0.107028
0.657103 0.466527 0.097247
0.692648 0.461059 0.089175
0.726199 0.457983 0.084036
0.757186 0.457983 0.082669
0.783096 0.460033 0.083678
0.803928 0.464134 0.087063
0.823295 0.466698 0.089350
0.841523 0.468065 0.090782
0.855927 0.467723 0.092133
0.868035 0.466356 0.093435
0.879204 0.473314 0.096617
0.889945 0.484055 0.100653
0.898197 0.486252 0.103175
0.905618 0.485601 0.105193
0.911400 0.489340 0.109962
0.916803 0.494093 0.115365
0.924542 0.496965 0.121338
0.932614 0.499569 0.127393
0.936903 0.506690 0.134057
0.940939 0.514111 0.140762
0.104941 0.565446 0.489768
0.123104 0.530748 0.447648
0.141418 0.497279 0.405601
0.161989 0.482240 0.364654
0.185677 0.466250 0.320597
0.231182 0.443595 0.254781
0.278054 0.427129 0.197827
0.330850 0.437480 0.179273
0.389864 0.448873 0.159662
0.467528 0.463390 0.136877
0.541388 0.477480 0.118486
0.606878 0.490630 0.109763
0.663092 0.498361 0.101283
0.703845 0.497059 0.093211
0.739414 0.496326 0.088528
0.768318 0.496326 0.088202
0.793707 0.496815 0.089211
0.815581 0.497791 0.091555
0.833646 0.498401 0.091042
0.848749 0.498727 0.088308
0.861981 0.498646 0.089399
0.874089 0.498320 0.092784
0.885974 0.506319 0.096617
0.897757 0.518102 0.100653
0.905488 0.519779 0.103175
0.911868 0.518086 0.105193
0.916608 0.519937 0.109116
0.920970 0.522606 0.113477
0.928578 0.528864 0.119320
0.936651 0.535635 0.125374
0.940939 0.542039 0.133016
0.944975 0.548419 0.140762
0.109734 0.606439 0.519913
0.128613 0.573694 0.476231
0.147700 0.542014 0.432659
0.169899 0.526325 0.390734
0.195825 0.509228 0.344700
0.247840 0.482277 0.269901
0.299940 0.461758 0.205207
0.352411 0.469115 0.184310
0.409861 0.478131 0.163234
0.482253 0.492127 0.141621
0.551348 0.505717 0.123568
0.613193 0.518412 0.113347
0.668007 0.526614 0.104469
0.711104 0.527330 0.097829
0.746766 0.528046 0.093781
0.772871 0.528762 0.093065
0.797381 0.529479 0.092641
0.820297 0.530195 0.092511
0.838268 0.531314 0.090989
0.852395 0.532746 0.088385
0.865260 0.533283 0.089484
0.877369 0.533283 0.092804
0.889478 0.541608 0.097109
0.901586 0.553716 0.101861
0.908617 0.555767 0.104563
0.913955 0.554465 0.106581
0.919399 0.555860 0.110239
0.924867 0.557878 0.114275
0.931361 0.563941 0.120704
0.938001 0.570581 0.127474
0.941529 0.577343 0.134794
0.944849 0.584114 0.142150
0.115788 0.646801 0.548166
0.135709 0.619264 0.505526
0.155772 0.592141 0.462605
0.177971 0.571244 0.415472
0.204548 0.549460 0.364491
0.261771 0.521467 0.286566
0.318103 0.499907 0.219139
0.370574 0.506222 0.197200
0.426462 0.513676 0.174822
0.492604 0.524547 0.151126
0.557077 0.535338 0.130664
0.617880 0.545949 0.117318
0.672434 0.553240 0.107269
0.716572 0.554998 0.102712
0.751453 0.556755 0.099379
0.774434 0.558513 0.097622
0.797902 0.560271 0.095115
0.821859 0.562029 0.091860
0.840286 0.564775 0.090143
0.854413 0.568290 0.089622
0.867278 0.569609 0.090851
0.879387 0.569609 0.093130
0.891496 0.577933 0.097825
0.903604 0.590042 0.103619
0.909854 0.592874 0.106581
0.914150 0.592613 0.108599
0.921092 0.594204 0.112257
0.928643 0.596222 0.116293
0.933575 0.600462 0.123633
0.938132 0.605019 0.131445
0.940553 0.612628 0.137853
0.942831 0.620440 0.144168
0.120329 0.675054 0.570365
0.140510 0.653506 0.529548
0.160915 0.632210 0.488352
0.184676 0.614699 0.441480
0.212393 0.595551 0.390433
0.267793 0.564954 0.310165
0.322497 0.540936 0.240638
0.374187 0.545428 0.217658
0.429294 0.550343 0.193587
0.494654 0.556528 0.166245
0.558753 0.563445 0.142545
0.620077 0.571973 0.126855
0.673590 0.578352 0.115243
0.714082 0.581152 0.110426
0.748621 0.584293 0.106491
0.775508 0.587873 0.103692
0.800278 0.591063 0.100665
0.822933 0.593862 0.097410
0.840791 0.596918 0.095546
0.854918 0.600173 0.094765
0.867783 0.602859 0.095734
0.879892 0.605202 0.097752
0.891463 0.613185 0.101471
0.902790 0.623731 0.105962
0.909821 0.625782 0.108013
0.915420 0.625001 0.109250
0.923028 0.627763 0.113396
0.931101 0.631344 0.118213
0.935642 0.636007 0.125879
0.939678 0.640824 0.133951
0.941822 0.645763 0.140132
0.943840 0.650711 0.146186
0.124365 0.699272 0.590546
0.144546 0.683973 0.551812
0.165081 0.668927 0.512699
0.190926 0.657665 0.467910
0.219944 0.643595 0.418426
0.271178 0.609873 0.336075
0.322302 0.582926 0.264660
0.372950 0.585334 0.240638
0.427536 0.587385 0.214745
0.493938 0.588362 0.183236
0.559079 0.591047 0.156020
0.621445 0.597492 0.138248
0.673655 0.602960 0.124943
0.708939 0.606801 0.119084
0.743283 0.611439 0.114108
0.776419 0.617103 0.110267
0.803273 0.621855 0.107240
0.823845 0.625696 0.105027
0.840791 0.628622 0.103033
0.854918 0.630835 0.101210
0.867783 0.635083 0.101788
0.879892 0.640551 0.103806
0.890747 0.648079 0.106093
0.901033 0.656542 0.108501
0.909366 0.657290 0.109250
0.917047 0.655467 0.109445
0.925047 0.659727 0.114242
0.933119 0.665391 0.120101
0.937660 0.671226 0.127897
0.941696 0.677085 0.135969
0.943840 0.678183 0.142150
0.945858 0.678964 0.148204
0.134960 0.725128 0.612367
0.152603 0.710155 0.573177
0.170835 0.695382 0.533555
0.197916 0.683599 0.487465
0.228131 0.669846 0.436792
0.280276 0.642309 0.354050
0.332104 0.620155 0.282440
0.382556 0.621327 0.259069
0.435775 0.621148 0.233680
0.497295 0.616916 0.202237
0.559669 0.615105 0.174680
0.623922 0.618621 0.155670
0.676946 0.623284 0.140885
0.711254 0.629859 0.133138
0.744821 0.636576 0.126274
0.777436 0.643477 0.120545
0.803411 0.648945 0.116248
0.822746 0.652981 0.113384
0.839151 0.656358 0.110995
0.853278 0.659223 0.108977
0.867201 0.664081 0.108953
0.881002 0.670135 0.110125
0.891671 0.676413 0.110133
0.900915 0.682793 0.109612
0.909280 0.685413 0.110751
0.917353 0.686781 0.112444
0.926113 0.693331 0.120431
0.935031 0.701078 0.129870
0.939678 0.705863 0.137373
0.943714 0.710225 0.144599
0.945858 0.711291 0.149140
0.947876 0.712137 0.153502
0.147069 0.751364 0.634566
0.161586 0.735349 0.594334
0.176954 0.719469 0.553606
0.205077 0.705603 0.505432
0.236464 0.691069 0.452937
0.290692 0.671864 0.370195
0.344212 0.656285 0.298780
0.394665 0.656415 0.276451
0.446321 0.654153 0.252104
0.501591 0.644714 0.221702
0.560320 0.638346 0.194535
0.626657 0.638737 0.174484
0.680983 0.642618 0.158266
0.715290 0.652318 0.148436
0.747946 0.661249 0.139489
0.778478 0.669191 0.131677
0.802890 0.675181 0.125818
0.821184 0.679217 0.121912
0.837133 0.683180 0.119068
0.851260 0.687086 0.117050
0.866485 0.692334 0.116374
0.882369 0.698389 0.116505
