其他预设/【236】赛博朋克风调色预设/【后期菌】视频调色预设/CUBE/Miami 02.cube
# LUT by SparkleStock. Enhanced with VOXCOLOR algorithms.
LUT_3D_SIZE 32
0.023460 0.007820 0.011730
0.037587 0.013874 0.027875
0.051840 0.019803 0.043641
0.067985 0.023839 0.053732
0.083877 0.027623 0.063570
0.098004 0.029641 0.071643
0.115915 0.032794 0.081607
0.150222 0.040867 0.099770
0.190080 0.049443 0.116924
0.246587 0.059534 0.131050
0.307508 0.067732 0.139501
0.378141 0.071769 0.135465
0.460127 0.077318 0.135213
0.561032 0.085391 0.141267
0.642513 0.092580 0.147321
0.699019 0.098635 0.153376
0.744427 0.103680 0.161448
0.778734 0.107716 0.171538
0.807366 0.112887 0.182764
0.831583 0.118942 0.194873
0.850755 0.123735 0.208243
0.866900 0.127771 0.222369
0.876108 0.133195 0.232334
0.882162 0.139249 0.240406
0.886703 0.143790 0.248479
0.890739 0.147826 0.256551
0.898054 0.156781 0.267903
0.906127 0.166872 0.280011
0.910668 0.173430 0.286822
0.914704 0.179485 0.292877
0.918740 0.189323 0.300823
0.922776 0.199413 0.308895
0.029515 0.017911 0.027875
0.046766 0.021882 0.041937
0.063883 0.025922 0.055750
0.078987 0.031000 0.065841
0.095140 0.036086 0.076330
0.118641 0.041229 0.089610
0.145340 0.046530 0.102830
0.185897 0.052519 0.115784
0.232265 0.059274 0.127730
0.296063 0.068322 0.136649
0.366228 0.076130 0.142496
0.450402 0.081208 0.141584
0.533820 0.087409 0.143285
0.615976 0.095481 0.149339
0.684632 0.103127 0.157672
0.735931 0.110222 0.168934
0.776130 0.116309 0.180132
0.805230 0.121387 0.191264
0.829240 0.126428 0.202945
0.849290 0.131441 0.215054
0.864296 0.137145 0.229075
0.876274 0.143265 0.244243
0.882748 0.147191 0.253101
0.886719 0.150121 0.259090
0.891520 0.155443 0.268204
0.896598 0.161562 0.278359
0.903262 0.170062 0.289256
0.910293 0.179110 0.300323
0.913792 0.187362 0.307003
0.916787 0.195499 0.313058
0.919782 0.202538 0.319051
0.922776 0.209504 0.325040
0.035443 0.028001 0.043515
0.055494 0.030019 0.055624
0.075219 0.032290 0.067623
0.090062 0.038344 0.077974
0.107134 0.044650 0.089301
0.139814 0.052723 0.107464
0.175192 0.060038 0.123710
0.222260 0.064075 0.131653
0.275414 0.069120 0.138586
0.346828 0.077192 0.142492
0.426014 0.084675 0.145869
0.522297 0.090859 0.148082
0.606447 0.097727 0.151760
0.670375 0.105735 0.157880
0.726329 0.113742 0.168442
0.772029 0.121749 0.184717
0.806857 0.128715 0.198909
0.830814 0.134639 0.211018
0.850267 0.139538 0.223126
0.866216 0.143639 0.235235
0.877202 0.150222 0.249866
0.885209 0.158295 0.266011
0.889233 0.160996 0.273965
0.891447 0.161257 0.278197
0.896492 0.167327 0.288336
0.902481 0.175335 0.300445
0.908418 0.183342 0.310755
0.914342 0.191349 0.320650
0.916848 0.201236 0.327127
0.918866 0.211392 0.333117
0.920945 0.215872 0.337153
0.923028 0.219973 0.341059
0.039479 0.038092 0.051588
0.057447 0.040110 0.063696
0.075935 0.042380 0.075955
0.102235 0.048434 0.090473
0.130115 0.054741 0.105446
0.169044 0.062813 0.123609
0.211453 0.070129 0.139465
0.268936 0.074165 0.145324
0.333027 0.079210 0.150173
0.416941 0.087283 0.151996
0.501791 0.095416 0.154918
0.588699 0.103684 0.160256
0.663084 0.111463 0.166278
0.716596 0.118429 0.173439
0.761678 0.125395 0.185498
0.795921 0.132360 0.203857
0.822937 0.137764 0.219090
0.842728 0.141605 0.231199
0.858600 0.146178 0.243307
0.871424 0.151321 0.255416
0.880587 0.158295 0.270047
0.887553 0.166367 0.286192
0.893400 0.171933 0.296294
0.898738 0.176360 0.303651
0.903783 0.182691 0.314571
0.908731 0.189657 0.326680
0.912779 0.196622 0.334451
0.916620 0.203588 0.341222
0.918866 0.214256 0.346397
0.920884 0.225453 0.351345
0.923940 0.230975 0.353363
0.927065 0.236118 0.355186
0.043263 0.048182 0.059912
0.059147 0.050200 0.071891
0.076326 0.052471 0.084272
0.112912 0.058525 0.102695
0.150800 0.064848 0.121053
0.197802 0.073050 0.138956
0.248747 0.080496 0.154185
0.316777 0.084663 0.157831
0.391414 0.089838 0.160728
0.485874 0.098041 0.161379
0.574800 0.106711 0.164268
0.651553 0.116411 0.172080
0.715880 0.124744 0.180185
0.759497 0.130798 0.188778
0.794513 0.136795 0.202270
0.818470 0.142720 0.222060
0.838455 0.146821 0.238075
0.854470 0.149099 0.250314
0.867006 0.153648 0.262699
0.876836 0.159963 0.275198
0.884225 0.167295 0.289732
0.890149 0.175237 0.305486
0.897460 0.183358 0.317436
0.905403 0.191561 0.327656
0.910415 0.198250 0.339195
0.914451 0.204434 0.351174
0.916742 0.210725 0.355535
0.918630 0.217039 0.358139
0.920632 0.228310 0.362111
0.922650 0.240288 0.366277
0.926682 0.247201 0.366659
0.930849 0.253776 0.366790
0.045281 0.058273 0.070003
0.059082 0.060291 0.080940
0.074438 0.062561 0.092475
0.113107 0.068615 0.112981
0.155422 0.075068 0.132902
0.223256 0.084313 0.148721
0.293275 0.092800 0.161672
0.372763 0.098008 0.162193
0.455212 0.104225 0.164048
0.546547 0.113469 0.169907
0.628443 0.121879 0.175725
0.689572 0.128454 0.181454
0.741790 0.134834 0.189819
0.779157 0.140889 0.202579
0.809746 0.146430 0.217047
0.831620 0.151313 0.233713
0.850043 0.155935 0.248686
0.865016 0.160297 0.261966
0.875924 0.166929 0.276565
0.883671 0.175326 0.292189
0.889628 0.182789 0.305941
0.894511 0.189689 0.318571
0.900780 0.198201 0.330260
0.907681 0.207445 0.341523
0.912433 0.215176 0.352541
0.916470 0.222402 0.363478
0.917914 0.230580 0.358335
0.918760 0.238978 0.349481
0.920632 0.249597 0.352931
0.922650 0.260534 0.358139
0.927659 0.271288 0.359564
0.932867 0.282029 0.360735
0.046542 0.069120 0.080472
0.059042 0.071138 0.090367
0.073319 0.073421 0.101043
0.114267 0.079670 0.123438
0.160569 0.086351 0.144799
0.244353 0.096051 0.158925
0.329772 0.105104 0.169805
0.422279 0.111354 0.166615
0.513468 0.118466 0.166648
0.600702 0.128166 0.176348
0.675628 0.136218 0.184339
0.723477 0.140644 0.188570
0.765198 0.145535 0.197196
0.796706 0.151199 0.213146
0.823173 0.156236 0.228383
0.843159 0.160467 0.242705
0.859922 0.165708 0.256734
0.873463 0.171958 0.270470
0.882902 0.180368 0.286806
0.889152 0.190458 0.305164
0.894262 0.198026 0.318355
0.898689 0.204080 0.328446
0.903966 0.212775 0.339118
0.909630 0.222670 0.350055
0.914073 0.231784 0.360796
0.918109 0.240638 0.371473
0.919025 0.250338 0.357765
0.919220 0.260233 0.338430
0.920669 0.269445 0.338406
0.922296 0.278559 0.341140
0.927707 0.291823 0.343386
0.933371 0.305364 0.345600
0.044524 0.083247 0.092580
0.059107 0.085265 0.101434
0.075532 0.087612 0.111199
0.119605 0.094904 0.134635
0.167991 0.102235 0.156907
0.246566 0.109852 0.171034
0.331465 0.117408 0.180742
0.443762 0.124699 0.171302
0.547711 0.132072 0.166127
0.626612 0.139688 0.173744
0.694833 0.146959 0.180628
0.739556 0.153469 0.185901
0.777762 0.158881 0.194787
0.805104 0.162461 0.209695
0.828772 0.166782 0.224802
0.847716 0.172055 0.240166
0.862396 0.178337 0.253674
0.872812 0.185629 0.265327
0.881470 0.194494 0.281338
0.888761 0.204585 0.300738
0.895564 0.212153 0.314319
0.902074 0.218207 0.324410
0.906570 0.226186 0.330785
0.910151 0.235039 0.335472
0.914073 0.247018 0.346995
0.918109 0.260038 0.360796
0.919871 0.269673 0.342597
0.921108 0.278526 0.317013
0.920864 0.283051 0.300713
0.920408 0.286957 0.285740
0.923736 0.296966 0.287856
0.927317 0.307382 0.291111
0.044020 0.098382 0.106203
0.059904 0.100400 0.114275
0.077648 0.102781 0.123275
0.123283 0.110593 0.146190
0.172580 0.118152 0.168007
0.247510 0.123946 0.182134
0.331888 0.130119 0.190914
0.457205 0.137931 0.176527
0.570203 0.145303 0.166990
0.646240 0.151357 0.172002
0.711677 0.158042 0.177422
0.753797 0.166115 0.183737
0.789203 0.172112 0.192981
0.813420 0.174651 0.207107
0.834533 0.178728 0.221775
0.851654 0.184782 0.237139
0.864642 0.191846 0.250126
0.873495 0.199918 0.260738
0.881470 0.208686 0.275707
0.888761 0.217995 0.294065
0.896541 0.225759 0.308069
0.904613 0.232594 0.319462
0.908523 0.240459 0.323022
0.910541 0.248792 0.323022
0.914073 0.262202 0.334545
0.918109 0.277306 0.349908
0.920294 0.286485 0.327559
0.922052 0.294297 0.296506
0.920278 0.293906 0.266080
0.917999 0.292344 0.235743
0.919505 0.298837 0.235678
0.921263 0.305868 0.237631
0.048056 0.116545 0.124365
0.062899 0.118563 0.132438
0.079471 0.120878 0.141112
0.121981 0.127649 0.158820
0.168674 0.134167 0.176079
0.244646 0.138919 0.190206
0.328503 0.144050 0.198791
0.446529 0.150820 0.183362
0.557443 0.157412 0.172002
0.647021 0.163466 0.172849
0.721442 0.170151 0.175729
0.762520 0.178223 0.183086
0.797276 0.185002 0.192981
0.821493 0.189624 0.207107
0.840783 0.194873 0.220408
0.853738 0.200927 0.232647
0.866204 0.207990 0.245114
0.878183 0.216063 0.257808
0.885767 0.223073 0.269587
0.889933 0.229258 0.280654
0.896541 0.237802 0.295180
0.904613 0.247762 0.311780
0.908523 0.257320 0.316968
0.910541 0.266694 0.316968
0.914073 0.277241 0.326147
0.918109 0.288177 0.338386
0.919448 0.295729 0.312911
0.920164 0.302499 0.278734
0.917348 0.296510 0.240626
0.914028 0.288698 0.201956
0.914492 0.290895 0.193559
0.915208 0.293760 0.187179
0.053354 0.135969 0.142528
0.066829 0.138313 0.149624
0.081762 0.140767 0.156976
0.118543 0.144868 0.168174
0.160028 0.149002 0.179412
0.234437 0.153363 0.190934
0.315291 0.158165 0.197452
0.424074 0.164870 0.182284
0.530789 0.171087 0.170078
0.631303 0.175839 0.166758
0.713935 0.181527 0.166693
0.757227 0.189274 0.173789
0.794220 0.196508 0.183155
0.820716 0.202888 0.196305
0.840604 0.208983 0.208117
0.851996 0.214712 0.218207
0.864593 0.221613 0.229665
0.878394 0.229685 0.242489
0.886117 0.235853 0.251872
0.889111 0.240540 0.258577
0.895280 0.249866 0.273094
0.903352 0.261975 0.292299
0.907038 0.272024 0.298748
0.908731 0.281138 0.299399
0.912181 0.289471 0.306153
0.916217 0.297544 0.314942
0.917503 0.304770 0.293157
0.918154 0.311800 0.264318
0.914704 0.302084 0.221580
0.910668 0.289976 0.176856
0.910720 0.289219 0.160573
0.911046 0.289219 0.146186
0.061426 0.158169 0.160691
0.072818 0.161554 0.164662
0.085082 0.164593 0.168499
0.110406 0.162445 0.170322
0.140954 0.161240 0.172316
0.208072 0.166644 0.175506
0.280463 0.172682 0.175839
0.375704 0.181470 0.163796
0.473566 0.188208 0.152891
0.579288 0.188794 0.145405
0.668430 0.191292 0.141499
0.721096 0.197998 0.145470
0.766683 0.204971 0.151711
0.800470 0.212393 0.161737
0.826282 0.218618 0.171791
0.841841 0.223305 0.181881
0.856000 0.229685 0.191256
0.868759 0.237757 0.199914
0.877784 0.245097 0.208645
0.883903 0.251868 0.217434
0.891243 0.261975 0.230779
0.899316 0.274083 0.246859
0.902286 0.281985 0.253764
0.902937 0.287974 0.256498
0.906127 0.295525 0.260648
0.910163 0.303598 0.265270
0.913141 0.313363 0.262170
0.915876 0.323518 0.257287
0.912686 0.314193 0.216632
0.908649 0.302084 0.170867
0.909679 0.301328 0.147683
0.911046 0.301328 0.126005
0.068742 0.182638 0.181124
0.078832 0.184721 0.181190
0.089329 0.186345 0.180925
0.105930 0.181072 0.175717
0.127445 0.177117 0.170713
0.183366 0.182390 0.167132
0.244414 0.188273 0.161745
0.327677 0.196801 0.148530
0.416489 0.202693 0.135705
0.521951 0.200675 0.124052
0.613966 0.201301 0.116549
0.676397 0.207746 0.118177
0.730235 0.214362 0.121489
0.769750 0.221263 0.127608
0.801291 0.227252 0.135294
0.822579 0.232069 0.144994
0.840058 0.238319 0.152676
0.853729 0.246001 0.158339
0.864910 0.253682 0.165614
0.874155 0.261364 0.174142
0.882911 0.271080 0.185193
0.891374 0.282017 0.197758
0.895092 0.288478 0.204727
0.896655 0.292905 0.209154
0.900365 0.300066 0.212946
0.904792 0.308139 0.216527
0.908902 0.319173 0.224762
0.912938 0.330891 0.234071
0.911278 0.325862 0.203507
0.908804 0.318441 0.167246
0.910175 0.316878 0.139286
0.911803 0.315706 0.111878
0.074796 0.210891 0.205342
0.084886 0.207767 0.200199
0.095123 0.204638 0.194856
0.107557 0.201448 0.186524
0.123214 0.199055 0.178264
0.161428 0.202245 0.170517
0.206330 0.205655 0.160183
0.280219 0.210017 0.138635
0.359657 0.212783 0.118519
0.455745 0.210765 0.102699
0.544570 0.211717 0.092007
0.617416 0.219204 0.092593
0.678936 0.225299 0.093300
0.721576 0.229075 0.094212
0.758521 0.234218 0.098513
0.788141 0.241118 0.107171
0.811870 0.247889 0.113811
0.829708 0.254529 0.118433
0.844469 0.261169 0.122909
0.856838 0.267809 0.127270
0.867417 0.275182 0.134155
0.876921 0.282994 0.142553
0.883830 0.289195 0.148937
0.889559 0.294663 0.154405
0.895092 0.302084 0.161582
0.900561 0.310157 0.169329
0.904866 0.320345 0.176653
0.908902 0.331021 0.183879
0.910887 0.336799 0.176751
0.912580 0.341877 0.167571
0.913235 0.338166 0.138374
0.913821 0.333869 0.107842
0.080850 0.242677 0.232208
0.091396 0.236167 0.224135
0.101857 0.229880 0.215880
0.111036 0.226951 0.204878
0.122087 0.224241 0.193477
0.146239 0.223069 0.179285
0.177190 0.222496 0.162921
0.237603 0.224514 0.137141
0.305046 0.226206 0.112468
0.393582 0.226922 0.091116
0.478334 0.229937 0.075866
0.554762 0.238010 0.074043
0.621400 0.243983 0.072147
0.671722 0.246456 0.070129
0.715237 0.250582 0.071728
0.750001 0.256832 0.077978
0.779296 0.263211 0.082893
0.803122 0.269721 0.086473
0.821749 0.275206 0.088918
0.836331 0.279893 0.090481
0.849531 0.286005 0.094566
0.861900 0.292970 0.100164
0.871941 0.298683 0.105450
0.880925 0.303826 0.110593
0.888053 0.311508 0.118421
0.894563 0.320036 0.127144
0.899804 0.328352 0.133329
0.904752 0.336620 0.138927
0.908902 0.348248 0.144925
0.912938 0.360357 0.150979
0.913617 0.356719 0.128349
0.914073 0.352032 0.103806
0.086904 0.279002 0.262479
0.098492 0.271451 0.254407
0.109799 0.264058 0.246021
0.116895 0.259045 0.232936
0.124951 0.253601 0.218541
0.139729 0.245138 0.194974
0.159548 0.238640 0.171189
0.201212 0.240658 0.146451
0.253292 0.243913 0.120736
0.336620 0.250879 0.092092
0.416164 0.258191 0.070528
0.487383 0.266263 0.064539
0.555844 0.272627 0.060038
0.619707 0.276142 0.058020
0.671295 0.279031 0.057797
0.707100 0.281114 0.059880
0.741082 0.285931 0.062191
0.773241 0.293483 0.064730
0.796100 0.297666 0.066133
0.811724 0.299228 0.066654
0.828568 0.305470 0.069698
0.846145 0.314518 0.074255
0.859247 0.319450 0.077782
0.870314 0.322509 0.080842
0.878744 0.330452 0.085806
0.886296 0.340021 0.091404
0.893424 0.345148 0.096157
0.900455 0.349249 0.100714
0.904866 0.360357 0.106581
0.908902 0.372466 0.112635
0.910558 0.371758 0.106605
0.912055 0.370195 0.099770
0.091950 0.318355 0.292751
0.105621 0.305596 0.279470
0.118751 0.293125 0.265877
0.123763 0.284987 0.247583
0.129801 0.276744 0.228436
0.143017 0.267760 0.203307
0.159613 0.260937 0.178545
0.190861 0.263476 0.155369
0.235129 0.268033 0.129394
0.318457 0.278644 0.095022
0.398001 0.288299 0.068542
0.469220 0.295851 0.059428
0.538658 0.302084 0.053170
0.605125 0.306121 0.051673
0.657949 0.308163 0.050375
0.693234 0.307642 0.049334
0.727737 0.311418 0.049822
0.761458 0.319490 0.051840
0.785586 0.323022 0.052723
0.802252 0.323022 0.052723
0.820138 0.328352 0.055245
0.838756 0.336880 0.059282
0.853257 0.342007 0.062647
0.865887 0.345587 0.065706
0.875099 0.353660 0.069498
0.883171 0.363229 0.073535
0.891243 0.367933 0.077148
0.899316 0.371513 0.080663
0.903401 0.379822 0.085944
0.906916 0.388806 0.091478
0.910493 0.393273 0.094692
0.914073 0.397440 0.097752
0.095986 0.360735 0.323022
0.112782 0.338601 0.299326
0.128711 0.317082 0.275446
0.131640 0.304778 0.248820
0.136637 0.293670 0.223163
0.156102 0.290936 0.204284
0.177385 0.289386 0.184990
0.206550 0.292966 0.163897
0.250558 0.298565 0.138443
0.339094 0.310218 0.099904
0.423846 0.320263 0.069909
0.500273 0.326773 0.058712
0.569841 0.332356 0.051543
0.627975 0.336392 0.051087
0.675201 0.337979 0.049464
0.708402 0.336416 0.046339
0.739259 0.339671 0.045786
0.767773 0.347744 0.047804
0.790208 0.351276 0.048687
0.807915 0.351276 0.048687
0.824239 0.354653 0.051209
0.839733 0.360056 0.055245
0.853974 0.366354 0.060043
0.867645 0.373060 0.065185
0.877117 0.381132 0.069498
0.885189 0.389660 0.073535
0.893261 0.396707 0.076301
0.901334 0.403412 0.078775
0.904507 0.406643 0.083015
0.906981 0.409377 0.087507
0.913422 0.421266 0.092609
0.920127 0.433765 0.097752
0.100022 0.406521 0.355564
0.118771 0.379114 0.326139
0.136620 0.352171 0.296148
0.140982 0.332185 0.257674
0.147720 0.314404 0.221405
0.171091 0.312061 0.200573
0.196805 0.311682 0.179973
0.232676 0.319820 0.160378
0.280524 0.328657 0.136763
0.364308 0.339594 0.101088
0.446688 0.349554 0.072778
0.525979 0.357366 0.060669
0.593773 0.362884 0.052222
0.642403 0.364576 0.049879
0.684909 0.365158 0.047051
0.719542 0.364312 0.043601
0.749098 0.367925 0.042592
0.773575 0.375997 0.044024
0.795489 0.381177 0.045639
0.815410 0.384106 0.047397
0.830977 0.387361 0.049846
0.843932 0.390812 0.052711
0.856887 0.397842 0.057365
0.869842 0.406501 0.062834
0.879135 0.413401 0.067228
0.887207 0.419716 0.071264
0.895756 0.427459 0.074137
0.904414 0.435531 0.076741
0.907775 0.438078 0.080598
0.910379 0.439836 0.084634
0.917560 0.452335 0.091112
0.925047 0.465550 0.097752
0.104058 0.454955 0.389872
0.123849 0.425465 0.358363
0.142935 0.395918 0.325508
0.151463 0.365516 0.272452
0.162107 0.338101 0.222382
0.187561 0.331591 0.193217
0.217507 0.329194 0.166042
0.266918 0.344623 0.147488
0.321797 0.358408 0.126737
0.393082 0.367262 0.099395
0.467194 0.376766 0.076814
0.547528 0.387703 0.064705
0.612066 0.393611 0.054696
0.650280 0.391137 0.048186
0.688750 0.390287 0.043471
0.727549 0.391524 0.041062
0.757626 0.396178 0.040053
0.778978 0.404251 0.040443
0.801283 0.412360 0.043361
0.824329 0.420497 0.048243
0.839766 0.425054 0.050562
0.850637 0.427463 0.051344
0.861509 0.434884 0.054631
0.872381 0.444584 0.059058
0.881153 0.449402 0.063192
0.889225 0.452591 0.067228
0.898620 0.459748 0.070947
0.908320 0.467821 0.074592
0.912722 0.473102 0.078580
0.916368 0.477985 0.082616
0.922638 0.485797 0.090070
0.929083 0.493804 0.097752
0.109356 0.512219 0.429225
0.128235 0.476739 0.391076
0.146727 0.441577 0.351939
0.159422 0.411176 0.297971
0.174623 0.382263 0.244760
0.207368 0.363775 0.196846
0.243458 0.351426 0.154511
0.294040 0.365683 0.136348
0.349278 0.379207 0.117322
0.418479 0.390535 0.095709
0.489247 0.402920 0.077676
0.563461 0.417633 0.067521
0.623442 0.426779 0.058391
0.659703 0.426649 0.050969
0.696619 0.428598 0.045912
0.734377 0.433220 0.043894
0.764323 0.438916 0.042885
0.786457 0.445687 0.042885
0.808298 0.452494 0.044825
0.829911 0.459329 0.048276
0.844323 0.463154 0.049976
0.854413 0.465172 0.050627
0.865399 0.474083 0.053606
0.876791 0.486126 0.057642
0.885694 0.489674 0.061678
0.893766 0.490390 0.065714
0.901891 0.496554 0.069751
0.910029 0.503976 0.073787
0.915147 0.510201 0.078393
0.919834 0.516255 0.083080
0.925193 0.524140 0.090330
0.930596 0.532148 0.097752
0.115410 0.574780 0.471605
0.132206 0.530968 0.424082
0.149006 0.488384 0.376612
0.165867 0.464232 0.329935
0.186015 0.438705 0.279979
0.229176 0.403551 0.207067
0.272557 0.376490 0.144420
0.316890 0.384497 0.126257
0.368482 0.394636 0.108273
0.441850 0.411172 0.090827
0.512227 0.428439 0.076635
0.576025 0.447318 0.069604
0.630668 0.461412 0.062817
0.670054 0.467532 0.056438
0.706905 0.474819 0.051966
0.740496 0.483608 0.049948
0.769921 0.490345 0.048939
0.795180 0.495033 0.048939
0.816045 0.497999 0.048536
0.833492 0.499626 0.047820
0.846341 0.501498 0.048609
0.856431 0.503516 0.050302
0.868849 0.514575 0.053606
0.882325 0.529743 0.057642
0.891748 0.532510 0.061678
0.899820 0.531143 0.065714
0.905407 0.536070 0.069751
0.910419 0.542450 0.073787
0.916059 0.548545 0.079304
0.921787 0.554599 0.085033
0.926235 0.565414 0.091372
0.930596 0.576546 0.097752
0.124239 0.624854 0.511210
0.141816 0.581302 0.457177
0.159340 0.539040 0.403433
0.176071 0.516125 0.354022
0.196691 0.490671 0.300607
0.244540 0.447444 0.219167
0.291363 0.413995 0.149457
0.333743 0.422914 0.130578
0.383659 0.433070 0.111846
0.456180 0.446936 0.093553
0.524511 0.462104 0.078861
0.583621 0.480137 0.072090
0.635701 0.494434 0.065857
0.676063 0.502507 0.060519
0.711954 0.511775 0.056320
0.742095 0.522582 0.053585
0.771000 0.530720 0.051860
0.798667 0.536188 0.051144
0.820256 0.540192 0.050501
0.837117 0.543056 0.049915
0.850194 0.545391 0.050957
0.861000 0.547410 0.052975
0.873105 0.558647 0.056873
0.885799 0.574076 0.061625
0.894490 0.576957 0.065303
0.901847 0.575655 0.068624
0.907087 0.580912 0.071944
0.911839 0.587682 0.075264
0.917104 0.593199 0.080976
0.922443 0.598537 0.087031
0.927231 0.608209 0.092414
0.931984 0.618169 0.097752
0.134330 0.669252 0.549554
0.153990 0.629867 0.490313
0.173337 0.591446 0.431231
0.187984 0.567489 0.374528
0.207042 0.540603 0.314604
0.256974 0.493210 0.232122
0.305490 0.457157 0.161371
0.347870 0.470242 0.141450
0.397004 0.481960 0.121155
0.466401 0.489576 0.099737
0.531932 0.499472 0.082571
0.588960 0.514379 0.074759
0.639738 0.526724 0.068265
0.680100 0.534796 0.063969
0.714623 0.544521 0.059900
0.741639 0.556369 0.056124
0.770023 0.566069 0.053358
0.799774 0.573620 0.051600
0.822860 0.580879 0.051673
0.840762 0.587910 0.053170
0.854881 0.591808 0.054993
0.866729 0.593826 0.057011
0.877727 0.604348 0.061625
0.888338 0.618735 0.067419
0.895727 0.622136 0.070577
0.902042 0.621876 0.072855
0.907933 0.628174 0.075134
0.913727 0.635986 0.077412
0.918211 0.640722 0.082994
0.922508 0.645019 0.089049
0.928208 0.651696 0.093455
0.934002 0.658531 0.097752
0.144420 0.701542 0.581843
0.164601 0.667885 0.521300
0.184502 0.635014 0.460639
0.200191 0.613921 0.398209
0.220030 0.589607 0.332848
0.268920 0.542735 0.246981
0.316589 0.506567 0.173138
0.358970 0.516788 0.151394
0.407518 0.525186 0.129341
0.474571 0.528116 0.106361
0.538328 0.533812 0.087551
0.594835 0.545595 0.077917
0.645287 0.556279 0.070674
0.685649 0.565133 0.067419
0.720515 0.575752 0.064164
0.748312 0.588642 0.060909
0.775784 0.599514 0.058663
0.802931 0.608368 0.057426
0.824146 0.616342 0.057581
0.840746 0.623634 0.058818
0.855027 0.629094 0.060543
0.867917 0.633455 0.062561
0.878345 0.642382 0.066280
0.887655 0.653384 0.070772
0.895695 0.656721 0.073408
0.903311 0.657502 0.075426
0.909658 0.664207 0.077445
0.915713 0.672280 0.079463
0.921368 0.678187 0.085012
0.926967 0.683786 0.091067
0.931528 0.687615 0.095229
0.936020 0.691325 0.099265
0.154511 0.729795 0.612115
0.174692 0.702388 0.551572
0.194722 0.675636 0.490585
0.212495 0.658710 0.422947
0.233896 0.638301 0.352508
0.280703 0.593513 0.262475
0.326680 0.558062 0.184856
0.369060 0.563074 0.161029
0.417088 0.566525 0.137153
0.482057 0.565288 0.113132
0.544382 0.567143 0.092955
0.600889 0.575801 0.081237
0.651342 0.584923 0.073083
0.691704 0.594819 0.070869
0.727480 0.606480 0.068656
0.757361 0.620411 0.066443
0.783792 0.632324 0.065238
0.806772 0.642220 0.065043
0.824992 0.650064 0.065067
0.839509 0.656314 0.065263
0.853660 0.663336 0.066597
0.867592 0.670823 0.068615
0.877629 0.677862 0.070902
0.885897 0.684697 0.073311
0.895239 0.687773 0.075426
0.904939 0.689596 0.077445
0.911677 0.696497 0.079463
0.917731 0.704569 0.081481
0.925209 0.712300 0.087031
0.932891 0.719982 0.093085
0.935629 0.721011 0.097247
0.938038 0.721597 0.101283
0.171160 0.758049 0.637467
0.190495 0.729275 0.574385
0.209703 0.701501 0.510746
0.227020 0.688742 0.438745
0.248186 0.672133 0.363864
0.296294 0.628581 0.268818
0.343805 0.593317 0.187053
0.388724 0.593968 0.162835
0.437500 0.594164 0.139465
0.497848 0.592992 0.118633
0.556731 0.594709 0.100527
0.612392 0.602781 0.088418
0.660728 0.612245 0.079459
0.696859 0.624028 0.075748
0.730426 0.636096 0.072778
0.760698 0.648530 0.070760
0.786087 0.659369 0.069751
0.806593 0.668614 0.069751
0.824463 0.677492 0.069751
0.840282 0.686085 0.069751
0.854515 0.693295 0.070483
0.867795 0.699674 0.071655
0.876913 0.704667 0.072827
0.884139 0.709028 0.073998
0.893514 0.712902 0.075805
0.903604 0.716613 0.077823
0.909728 0.724555 0.082592
0.914936 0.733474 0.087995
0.923391 0.740171 0.093968
0.932309 0.746550 0.100022
0.934759 0.747743 0.103391
0.936777 0.748589 0.106581
0.189323 0.786302 0.661684
0.207616 0.754403 0.595478
0.225783 0.723961 0.528649
0.242058 0.715368 0.452482
0.262573 0.702535 0.373304
0.312765 0.660024 0.273050
0.362554 0.624826 0.187053
0.410598 0.621310 0.162835
0.460416 0.618641 0.140506
0.515555 0.618511 0.123841
0.570532 0.620944 0.108599
0.625151 0.629016 0.096490
0.670884 0.639262 0.086750
0.701806 0.653128 0.080956
0.732444 0.665456 0.076814
0.762716 0.675807 0.074796
0.787063 0.685084 0.073787
0.805486 0.693286 0.073787
0.823617 0.703466 0.073787
0.841519 0.715184 0.073787
0.855882 0.722264 0.073868
0.868121 0.726561 0.073998
