其他预设/【236】赛博朋克风调色预设/【后期菌】视频调色预设/CUBE/Miami 10_S.cube
# LUT by SparkleStock. Enhanced with VOXCOLOR algorithms.
LUT_3D_SIZE 8
DOMAIN_MIN 0.000000 0.000000 0.000000
DOMAIN_MAX 0.903226 0.903226 0.903226
0.019550 0.019550 0.015640
0.044777 0.027623 0.023965
0.156907 0.058273 0.058273
0.418503 0.117933 0.109356
0.561410 0.151610 0.150601
0.612367 0.168007 0.176962
0.641882 0.184404 0.207864
0.666099 0.206855 0.239902
0.027623 0.031281 0.027623
0.116936 0.052930 0.049273
0.367249 0.115439 0.105885
0.528889 0.158217 0.141869
0.589916 0.171477 0.165228
0.645666 0.186845 0.202278
0.685271 0.219061 0.260083
0.703849 0.258671 0.323388
0.031785 0.045533 0.036704
0.147602 0.074133 0.065588
0.468472 0.169398 0.134016
0.537881 0.205818 0.141617
0.592320 0.222622 0.159190
0.653649 0.245651 0.186837
0.703365 0.273888 0.238937
0.707922 0.307805 0.233135
0.053101 0.119320 0.078706
0.113962 0.113477 0.069087
0.403799 0.201822 0.109047
0.531598 0.263236 0.118795
0.588345 0.291225 0.123918
0.648819 0.314453 0.139778
0.693006 0.325166 0.176079
0.708801 0.343630 0.201350
0.090058 0.266641 0.185287
0.135436 0.249878 0.146056
0.351532 0.258414 0.073518
0.516092 0.315763 0.089163
0.594440 0.350527 0.092698
0.660330 0.366118 0.100274
0.709993 0.371709 0.114906
0.728709 0.373019 0.138639
0.093968 0.466812 0.326428
0.237761 0.378329 0.174102
0.512866 0.375692 0.088833
0.621432 0.385095 0.096971
0.669285 0.404808 0.098635
0.709460 0.416457 0.105893
0.740154 0.421673 0.113880
0.758427 0.425632 0.125627
0.084886 0.635954 0.473244
0.343553 0.494923 0.224823
0.624647 0.481752 0.101902
0.671734 0.460127 0.103639
0.719819 0.470986 0.110491
0.746587 0.475608 0.113392
0.770914 0.482786 0.114320
0.784662 0.488075 0.120781
0.187431 0.715164 0.564690
0.452201 0.573303 0.230784
0.685625 0.555860 0.110971
0.703365 0.527554 0.109104
0.729368 0.532603 0.111248
0.757288 0.533848 0.111939
0.778303 0.538580 0.112078
0.794163 0.550392 0.118519
0.023965 0.023713 0.023713
0.052393 0.031801 0.031818
0.154413 0.055274 0.063224
0.426450 0.116370 0.128430
0.562419 0.143790 0.177336
0.627125 0.164268 0.229982
0.667963 0.197269 0.293507
0.694503 0.231085 0.345498
0.028599 0.028868 0.029120
0.127810 0.060151 0.064834
0.373859 0.118970 0.131335
0.501309 0.157371 0.177484
0.579834 0.175254 0.222602
0.659572 0.195814 0.270245
0.717134 0.221702 0.321094
0.739062 0.274632 0.395830
0.040142 0.058655 0.053638
0.083483 0.074218 0.068184
0.468656 0.193876 0.197949
0.519946 0.227765 0.231695
0.586426 0.248967 0.260111
0.665360 0.265135 0.282152
0.740265 0.296262 0.341906
0.765370 0.341193 0.422022
0.056303 0.153445 0.114267
0.088295 0.191259 0.154577
0.341971 0.240472 0.164640
0.508980 0.296799 0.193917
0.580709 0.324707 0.214965
0.656204 0.343057 0.236060
0.723672 0.366349 0.271635
0.758367 0.408098 0.339754
0.076183 0.342125 0.254594
0.094474 0.410530 0.317632
0.267754 0.366968 0.187019
0.497453 0.369665 0.118506
0.589125 0.394760 0.122295
0.664415 0.407677 0.126810
0.725695 0.408820 0.133077
0.760221 0.408663 0.146108
0.062219 0.564238 0.426539
0.106417 0.584598 0.460420
0.400795 0.471426 0.203014
0.595799 0.428328 0.108485
0.649469 0.458820 0.114364
0.706115 0.468593 0.117939
0.751963 0.464308 0.124538
0.785082 0.477826 0.134822
0.102150 0.665875 0.550563
0.219751 0.652331 0.515049
0.553346 0.550706 0.190606
0.674293 0.486357 0.112454
0.710542 0.499373 0.114042
0.745041 0.504942 0.116426
0.770819 0.515326 0.119580
0.797403 0.530594 0.123832
0.238490 0.718911 0.604156
0.404945 0.632858 0.491521
0.675105 0.612815 0.173194
0.708906 0.543255 0.117222
0.732401 0.546064 0.117525
0.762036 0.546669 0.118124
0.780752 0.556745 0.118844
0.800019 0.576984 0.139295
0.032290 0.028380 0.037209
0.066345 0.037176 0.046258
0.171844 0.067102 0.093020
0.433554 0.116557 0.174492
0.567338 0.152114 0.246094
0.647342 0.177324 0.311202
0.698067 0.215741 0.368669
0.719632 0.264652 0.422971
0.043800 0.044305 0.053166
0.113833 0.061674 0.081483
0.372076 0.131962 0.182516
0.508244 0.169294 0.265382
0.581415 0.184167 0.308142
0.665291 0.204963 0.345589
0.729543 0.237599 0.387743
0.763232 0.287212 0.443372
0.050892 0.071382 0.077375
0.103407 0.107773 0.130724
0.446624 0.209939 0.270704
0.516728 0.244658 0.316940
0.590281 0.263191 0.339680
0.670470 0.275492 0.360646
0.742483 0.300676 0.389872
0.783478 0.353875 0.464522
0.065238 0.194901 0.177410
0.111783 0.252679 0.240580
0.281116 0.310627 0.311742
0.517250 0.332741 0.348275
0.596496 0.352365 0.362570
0.674669 0.372658 0.376028
0.751089 0.399253 0.403636
0.788386 0.430992 0.449066
0.063188 0.409890 0.337987
0.117868 0.461927 0.412020
0.204594 0.493041 0.421772
0.461832 0.445304 0.283226
0.597312 0.440575 0.269415
0.666419 0.456931 0.276811
0.739102 0.474237 0.293580
0.795752 0.468526 0.259460
0.078148 0.584602 0.496200
0.148401 0.597892 0.529129
0.260199 0.619117 0.544898
0.543088 0.540922 0.226188
0.643577 0.489073 0.152940
0.700379 0.501036 0.158238
0.757695 0.514313 0.165659
0.810328 0.523555 0.177084
0.159890 0.656261 0.583149
0.262832 0.677473 0.603086
0.391137 0.678494 0.589317
0.670943 0.572056 0.203514
0.708212 0.525566 0.131938
0.737699 0.536768 0.132658
0.767705 0.565919 0.146123
0.813727 0.586734 0.160257
0.314722 0.716275 0.637793
0.413504 0.720575 0.634015
0.571767 0.660469 0.476596
0.717880 0.598225 0.185268
0.738991 0.557541 0.128083
0.765014 0.564524 0.129667
0.777817 0.598662 0.141839
0.810304 0.633447 0.175318
0.053101 0.045281 0.067859
0.098614 0.054769 0.087291
0.201224 0.081762 0.127014
0.456994 0.140364 0.245366
0.589916 0.172800 0.332034
0.663080 0.207486 0.393916
0.710160 0.245708 0.437887
0.726984 0.281651 0.471568
0.068615 0.069169 0.114877
0.146312 0.106510 0.181885
0.383351 0.156378 0.267092
0.528175 0.191413 0.355481
0.601304 0.208319 0.396577
0.674423 0.223151 0.424106
0.735247 0.264711 0.461224
0.763823 0.320184 0.501551
0.094696 0.116854 0.174187
0.160900 0.181607 0.279967
0.376068 0.244956 0.380976
0.532987 0.264618 0.405227
0.597734 0.276097 0.423244
0.674582 0.293190 0.438017
0.749793 0.328161 0.471917
0.787379 0.382155 0.525496
0.127751 0.246631 0.290273
0.179285 0.295899 0.353289
0.330394 0.373461 0.441846
0.523834 0.364734 0.441476
0.603254 0.373411 0.447858
0.677984 0.386628 0.456580
0.751503 0.412685 0.473449
0.809799 0.449421 0.519283
0.144900 0.421689 0.429566
0.204725 0.465574 0.477109
0.280650 0.503784 0.496597
0.429274 0.519994 0.490183
0.610845 0.492359 0.477563
0.676627 0.496621 0.465910
0.748680 0.512464 0.469437
0.815893 0.530751 0.482974
0.159304 0.565943 0.547410
0.256029 0.597058 0.581562
0.351001 0.627204 0.595038
0.436019 0.636785 0.572106
0.628977 0.559474 0.324984
0.704292 0.536069 0.261828
0.756172 0.552256 0.271030
0.822982 0.564620 0.294256
0.237334 0.652603 0.614088
0.345932 0.675373 0.634867
0.435595 0.693674 0.652288
0.541362 0.697316 0.637588
0.695989 0.586945 0.247415
0.729624 0.568420 0.170592
0.766459 0.605603 0.205145
0.828367 0.629682 0.232832
0.375782 0.713740 0.664638
0.469441 0.728794 0.682274
0.553707 0.721048 0.673306
0.677460 0.700971 0.554852
0.747527 0.586036 0.181101
0.760232 0.597349 0.161105
0.774857 0.644277 0.196883
0.821993 0.687648 0.263476
0.096112 0.084382 0.169773
0.179176 0.106894 0.210192
0.330960 0.134334 0.241537
0.500729 0.179289 0.325659
0.618918 0.216315 0.401223
0.679111 0.246892 0.454199
0.718570 0.279885 0.489251
0.738344 0.317696 0.522582
0.128784 0.128532 0.252010
0.195544 0.173797 0.327046
0.450682 0.208321 0.385712
0.575740 0.224322 0.430804
0.628479 0.238527 0.475376
0.688314 0.260231 0.501228
0.735036 0.305306 0.524513
0.766098 0.375896 0.564813
0.173935 0.208373 0.350120
0.231599 0.260188 0.413128
0.351145 0.322170 0.490383
0.548695 0.291443 0.484957
0.629673 0.308037 0.513997
0.690407 0.327075 0.527420
0.750073 0.371989 0.557233
0.783461 0.423674 0.588496
0.208243 0.324467 0.423056
0.273352 0.386607 0.476248
0.351663 0.437178 0.530658
0.495931 0.446180 0.561473
0.624752 0.406392 0.542076
0.691995 0.422727 0.554406
0.754707 0.444130 0.569787
0.813085 0.473170 0.588273
0.225759 0.450382 0.495545
0.292828 0.497145 0.535489
0.376270 0.539539 0.573031
0.484080 0.558615 0.589606
0.627543 0.550633 0.591410
0.693828 0.531687 0.575492
0.754897 0.535714 0.571349
0.824952 0.549160 0.582755
0.258675 0.572323 0.585261
0.346715 0.604759 0.611867
0.436882 0.631024 0.637492
0.508795 0.650308 0.644423
0.608675 0.664656 0.645079
0.699933 0.609009 0.483531
0.755184 0.595812 0.438555
0.822432 0.601230 0.437367
0.334602 0.657774 0.642476
0.425879 0.677391 0.661571
0.513472 0.695765 0.683055
0.575136 0.709639 0.692196
0.645593 0.713222 0.675535
0.715567 0.642444 0.377195
0.765500 0.629856 0.290184
0.832348 0.650765 0.315626
0.433554 0.717581 0.683273
0.512984 0.731758 0.698218
0.578822 0.737467 0.705499
0.647758 0.730198 0.689997
0.719307 0.730829 0.618148
0.749849 0.665464 0.317138
0.775986 0.676588 0.281682
0.826379 0.729070 0.387820
0.176710 0.151988 0.334122
0.259269 0.186015 0.389969
0.449275 0.212979 0.424607
0.557826 0.225051 0.409084
0.645003 0.255436 0.454199
0.691830 0.279031 0.496693
0.722968 0.313513 0.528742
0.748019 0.351332 0.562732
0.207909 0.198657 0.396394
0.284510 0.245190 0.453910
0.535796 0.279892 0.525975
0.610002 0.268173 0.483333
0.667853 0.285842 0.525333
0.709513 0.315993 0.550292
0.738629 0.368305 0.575340
0.763895 0.419447 0.601764
0.251164 0.289166 0.463191
0.310788 0.339716 0.503401
0.404107 0.398082 0.559429
0.612023 0.368477 0.574078
0.672690 0.355056 0.575260
0.716541 0.394187 0.602493
0.753409 0.440945 0.620035
0.781860 0.468262 0.638978
0.278380 0.393395 0.506173
0.350358 0.446884 0.548378
0.428090 0.501049 0.591101
0.533822 0.538507 0.642010
0.668296 0.482861 0.631730
0.721722 0.481509 0.633692
0.757893 0.499991 0.647060
0.804002 0.509859 0.654056
0.312069 0.498650 0.555807
0.396584 0.547003 0.596900
0.485817 0.590057 0.635408
0.557016 0.618802 0.663721
0.646537 0.630048 0.691751
0.723478 0.587719 0.668799
0.767301 0.572254 0.664317
0.823451 0.572183 0.666901
0.367070 0.596922 0.621644
0.453801 0.618522 0.645128
0.529341 0.643171 0.668526
0.594699 0.669941 0.692404
0.664025 0.689247 0.712003
0.702835 0.680534 0.698208
0.757368 0.657052 0.671153
0.827294 0.653205 0.667902
0.440642 0.660391 0.667218
0.516720 0.678821 0.686593
0.577254 0.695386 0.700683
0.629347 0.711845 0.712073
0.665534 0.723623 0.719746
0.695957 0.726207 0.689801
0.762248 0.687102 0.510571
0.828842 0.689530 0.508064
0.499154 0.712450 0.703365
0.565536 0.729132 0.716206
0.613781 0.734572 0.719940
0.662089 0.745397 0.728698
0.706747 0.751617 0.731111
0.743258 0.755974 0.651451
0.773428 0.736419 0.510901
0.825937 0.751790 0.520778
0.260839 0.213288 0.447640
0.339741 0.241891 0.491041
0.562370 0.267569 0.538877
0.610813 0.263655 0.485398
0.652237 0.274978 0.496465
0.702063 0.309888 0.540094
0.731813 0.354140 0.572176
0.757093 0.395999 0.599953
0.283502 0.261022 0.484344
0.361272 0.312244 0.529778
0.489125 0.362477 0.588917
0.647719 0.340907 0.565197
0.700600 0.344857 0.559365
0.722981 0.383410 0.585315
0.748274 0.427398 0.614857
0.772778 0.463928 0.638489
0.318734 0.357021 0.535749
0.385222 0.401859 0.570635
0.489243 0.477055 0.623760
0.669430 0.478400 0.659505
0.707975 0.450571 0.623582
0.740211 0.471082 0.637046
0.763479 0.507620 0.658505
0.780861 0.527530 0.676499
0.355975 0.461006 0.571663
0.439181 0.517393 0.615880
0.519111 0.566233 0.652926
0.600192 0.604369 0.688775
0.720027 0.573784 0.692795
0.753139 0.560019 0.679257
0.769122 0.558588 0.693642
0.803220 0.559067 0.706398
0.407050 0.550701 0.612758
0.493512 0.594367 0.649606
0.565151 0.626061 0.680848
0.628891 0.657908 0.712185
0.682794 0.675567 0.733828
0.742628 0.639868 0.720856
0.773941 0.612872 0.723350
0.814929 0.606565 0.729528
0.471222 0.618971 0.657347
0.542406 0.645249 0.681522
0.600399 0.671480 0.704842
0.647627 0.688409 0.721808
0.688855 0.709097 0.739349
0.716789 0.708273 0.747018
0.768076 0.680394 0.741116
0.821047 0.672260 0.745680
0.536733 0.671694 0.694271
0.589414 0.685975 0.708730
0.635526 0.705319 0.720134
0.670448 0.718317 0.728998
0.702022 0.732407 0.743221
0.722813 0.742850 0.750733
0.754840 0.740778 0.725509
0.821888 0.734987 0.708532
0.576733 0.719778 0.723867
0.610826 0.724909 0.726264
0.651553 0.740539 0.735842
0.685316 0.751032 0.745849
0.720799 0.763855 0.760055
0.743653 0.768257 0.753805
0.773209 0.775446 0.714951
0.819853 0.777447 0.680484
0.342572 0.260839 0.522436
0.430966 0.294390 0.563152
0.593757 0.322847 0.611895
0.647432 0.301474 0.543845
0.675608 0.318306 0.549855
0.711820 0.358965 0.581461
0.742429 0.400381 0.609560
0.766792 0.439185 0.637972
0.362351 0.331448 0.554953
0.439802 0.374982 0.589944
0.540435 0.426157 0.638539
0.684872 0.419582 0.642525
0.706372 0.398410 0.603964
0.731883 0.438424 0.625908
0.756022 0.481014 0.655662
0.774244 0.508233 0.673769
0.398705 0.424485 0.600613
0.479112 0.483561 0.638172
0.554694 0.531715 0.668344
0.637675 0.564007 0.702074
0.731121 0.535631 0.693312
0.748231 0.515951 0.667894
0.770133 0.549319 0.690012
0.785206 0.573601 0.703060
0.446704 0.523770 0.631865
0.526270 0.569617 0.666278
0.595866 0.610474 0.698613
0.656028 0.638662 0.725482
0.740563 0.640264 0.747371
0.763342 0.610731 0.716274
0.779859 0.616507 0.718374
0.795860 0.622715 0.728038
0.510494 0.601491 0.667255
0.576770 0.633029 0.695338
0.634105 0.662930 0.726227
0.672460 0.680676 0.743993
0.706790 0.699183 0.759900
0.766595 0.685883 0.757859
0.782548 0.664666 0.748733
0.806957 0.655187 0.758862
0.559209 0.650833 0.695040
0.612827 0.672015 0.716930
0.655056 0.691821 0.734222
0.687024 0.707930 0.753512
0.719844 0.722785 0.768087
0.745720 0.731403 0.776115
0.779676 0.715556 0.780795
0.813608 0.704463 0.783210
0.606838 0.687541 0.718643
0.642500 0.702042 0.730020
0.678069 0.717691 0.742479
0.710477 0.730939 0.757593
0.733522 0.741866 0.768263
0.755413 0.756838 0.777901
0.771484 0.762382 0.780745
0.812027 0.755959 0.785335
0.621917 0.720462 0.738246
0.655709 0.733075 0.747671
0.687009 0.745955 0.758607
0.713093 0.755498 0.765865
0.739331 0.766833 0.775827
0.762499 0.778161 0.785183
0.781717 0.786951 0.783556
0.810623 0.794659 0.779328
