其他预设/【236】赛博朋克风调色预设/【后期菌】视频调色预设/CUBE/Miami 07_S.cube
# LUT by SparkleStock. Enhanced with VOXCOLOR algorithms.
LUT_3D_SIZE 32
0.000000 0.000000 0.000000
0.016145 0.004036 0.014127
0.032037 0.007820 0.028001
0.044146 0.007820 0.038092
0.056759 0.008325 0.048182
0.072904 0.012361 0.058273
0.090941 0.017532 0.068742
0.117176 0.027623 0.080850
0.150475 0.036704 0.093463
0.204963 0.042758 0.107590
0.270804 0.048813 0.117302
0.361618 0.054867 0.117302
0.463028 0.063192 0.117302
0.582096 0.075300 0.117302
0.672027 0.083877 0.121717
0.724498 0.087913 0.131807
0.763851 0.090941 0.140889
0.790086 0.092959 0.148961
0.811781 0.097247 0.158169
0.829944 0.103301 0.168259
0.846845 0.106833 0.182134
0.862990 0.108851 0.198278
0.873585 0.110869 0.208873
0.881657 0.112887 0.216946
0.888216 0.116419 0.225018
0.894270 0.120455 0.233091
0.900325 0.127771 0.242803
0.906379 0.135843 0.252893
0.914199 0.140384 0.259452
0.922272 0.144420 0.265506
0.926560 0.154132 0.269669
0.930596 0.164223 0.273705
0.008072 0.010090 0.016145
0.024217 0.012043 0.027147
0.040240 0.014005 0.038157
0.054432 0.016088 0.049289
0.069519 0.018676 0.060421
0.090871 0.024795 0.071553
0.114897 0.031268 0.082868
0.150507 0.039276 0.094977
0.195524 0.046795 0.106288
0.268761 0.052849 0.115207
0.350421 0.059554 0.120687
0.450610 0.067692 0.118604
0.544598 0.075365 0.118474
0.628252 0.082266 0.121599
0.693250 0.088369 0.128227
0.734263 0.093447 0.139359
0.766325 0.096995 0.148961
0.789435 0.099013 0.157033
0.810348 0.103301 0.166241
0.829553 0.109356 0.176331
0.845543 0.112887 0.189555
0.859605 0.114906 0.204658
0.870981 0.116208 0.215644
0.881137 0.117184 0.224758
0.888997 0.122018 0.236215
0.896093 0.128137 0.248454
0.904035 0.135843 0.261486
0.912173 0.143916 0.274702
0.918431 0.151191 0.282562
0.924420 0.158352 0.289658
0.927602 0.166306 0.291933
0.930596 0.174313 0.293886
0.015893 0.020055 0.031659
0.032037 0.020120 0.039796
0.048211 0.020433 0.048194
0.064811 0.024469 0.060498
0.082681 0.029018 0.072794
0.109437 0.037156 0.085033
0.139696 0.044903 0.097186
0.185136 0.050957 0.108969
0.242115 0.057011 0.118767
0.333711 0.063066 0.122608
0.430230 0.070402 0.124068
0.537579 0.080557 0.120293
0.623275 0.087661 0.120179
0.672882 0.089679 0.126168
0.713858 0.093406 0.134834
0.743739 0.099330 0.146943
0.768705 0.103269 0.157033
0.788756 0.105222 0.165106
0.808770 0.109445 0.174277
0.828755 0.115434 0.184302
0.843940 0.118982 0.197013
0.856244 0.121066 0.211335
0.868458 0.121806 0.222748
0.880632 0.121936 0.232838
0.889827 0.128023 0.247714
0.898030 0.136096 0.264184
0.907714 0.144115 0.280178
0.917739 0.152122 0.296063
0.922524 0.162123 0.305339
0.926560 0.172409 0.313672
0.928643 0.178667 0.314132
0.930596 0.184656 0.314067
0.019929 0.028127 0.037713
0.036074 0.029234 0.046892
0.052703 0.030524 0.056462
0.076594 0.034560 0.071891
0.101886 0.039239 0.087181
0.136974 0.048418 0.101503
0.177129 0.057011 0.114373
0.239234 0.063066 0.120948
0.311837 0.069120 0.126058
0.415932 0.075174 0.126774
0.512907 0.082836 0.127388
0.594216 0.094033 0.127779
0.658560 0.101788 0.129879
0.694625 0.103806 0.134826
0.725251 0.106622 0.142907
0.748882 0.110462 0.155015
0.769681 0.112839 0.165106
0.787649 0.113750 0.173178
0.804994 0.116932 0.181763
0.821855 0.121879 0.190747
0.837821 0.125688 0.205020
0.853249 0.128813 0.222467
0.867156 0.131311 0.234856
0.880372 0.133524 0.244947
0.891390 0.140132 0.263728
0.901676 0.148204 0.285407
0.910904 0.155377 0.298992
0.919887 0.162343 0.310710
0.924542 0.174948 0.323112
0.928578 0.188359 0.335611
0.929685 0.193835 0.335354
0.930596 0.198783 0.334248
0.023713 0.036704 0.044272
0.039597 0.038592 0.054232
0.056397 0.040614 0.064705
0.086929 0.044650 0.082868
0.119332 0.049443 0.100779
0.164837 0.059534 0.116924
0.216628 0.068916 0.130346
0.295660 0.075231 0.131974
0.382780 0.081513 0.132755
0.494166 0.087698 0.130997
0.588585 0.095693 0.131050
0.645678 0.107671 0.135087
0.690296 0.115915 0.139220
0.714123 0.117933 0.143517
0.735243 0.119894 0.150947
0.752886 0.121782 0.162404
0.769779 0.122921 0.172169
0.785924 0.123312 0.180242
0.801080 0.125753 0.188680
0.815467 0.129789 0.197404
0.832133 0.133825 0.212962
0.850165 0.137861 0.232623
0.865513 0.141898 0.245883
0.879639 0.145934 0.256234
0.892448 0.152900 0.278302
0.904817 0.160842 0.304277
0.913800 0.167779 0.314860
0.922003 0.174484 0.321891
0.926446 0.189107 0.337010
0.930352 0.204862 0.353285
0.930840 0.210118 0.352777
0.931101 0.214675 0.351149
0.025731 0.048813 0.054363
0.039532 0.049659 0.063281
0.054509 0.050705 0.072778
0.087124 0.054741 0.090941
0.124475 0.059534 0.108851
0.194979 0.069624 0.124996
0.270596 0.079398 0.137833
0.368376 0.087795 0.136336
0.462267 0.095900 0.135294
0.544488 0.103127 0.135620
0.615276 0.111512 0.137105
0.660911 0.122449 0.141141
0.697197 0.130041 0.146056
0.717898 0.132059 0.152436
0.735439 0.133565 0.158759
0.748914 0.134411 0.165008
0.763725 0.136592 0.172169
0.779869 0.140107 0.180242
0.796197 0.143916 0.191610
0.812668 0.147952 0.205541
0.829463 0.151988 0.220449
0.846455 0.156024 0.235943
0.861476 0.160061 0.249333
0.875603 0.164097 0.261767
0.889974 0.170281 0.282794
0.904426 0.177182 0.306686
0.914647 0.188155 0.310108
0.923891 0.200069 0.308806
0.927553 0.212608 0.323795
0.930417 0.225238 0.341112
0.932793 0.234205 0.343598
0.935137 0.242929 0.345095
0.026992 0.060543 0.064453
0.039491 0.060738 0.072525
0.053402 0.061198 0.081265
0.088491 0.065625 0.100014
0.130448 0.070735 0.118388
0.220481 0.080630 0.134143
0.315336 0.090599 0.145930
0.431084 0.100885 0.140526
0.532184 0.110666 0.137027
0.589342 0.118934 0.139241
0.639441 0.127649 0.141841
0.674009 0.137349 0.145291
0.702205 0.144168 0.150328
0.719782 0.146186 0.158010
0.734255 0.147492 0.163470
0.744736 0.147883 0.166074
0.757853 0.151105 0.171217
0.773608 0.157160 0.178899
0.790827 0.162079 0.192257
0.809185 0.166115 0.210029
0.826282 0.170151 0.224261
0.842622 0.174187 0.236370
0.857574 0.178492 0.249597
0.871896 0.182919 0.263334
0.887586 0.188420 0.283270
0.903730 0.194279 0.305274
0.914797 0.208178 0.302206
0.924693 0.223932 0.293353
0.927695 0.234218 0.305746
0.929713 0.243722 0.321175
0.933440 0.255302 0.325740
0.937281 0.267020 0.329581
0.024974 0.070633 0.074544
0.039556 0.071870 0.082616
0.055681 0.073437 0.091551
0.094936 0.079947 0.113425
0.140018 0.086750 0.134273
0.225885 0.095603 0.147944
0.320089 0.104921 0.156671
0.450419 0.116248 0.143977
0.560633 0.127071 0.135270
0.610500 0.136380 0.138525
0.652656 0.145161 0.140864
0.677850 0.152777 0.141190
0.699015 0.158295 0.143493
0.713467 0.160313 0.149091
0.727094 0.162530 0.154747
0.739658 0.165004 0.160476
0.752776 0.169268 0.166139
0.766447 0.175322 0.171738
0.783340 0.180242 0.183012
0.802740 0.184278 0.198701
0.820878 0.188314 0.212153
0.838260 0.192350 0.224261
0.854254 0.198087 0.236057
0.869618 0.204597 0.247710
0.885567 0.209838 0.266344
0.901712 0.214655 0.287307
0.911933 0.226666 0.280658
0.920787 0.240337 0.267638
0.923659 0.247628 0.266751
0.925677 0.254008 0.267598
0.928428 0.263439 0.270275
0.931227 0.273074 0.273074
0.024974 0.082742 0.086652
0.040598 0.084760 0.094464
0.057845 0.087124 0.103236
0.099444 0.094676 0.126412
0.146121 0.102325 0.148204
0.228342 0.110658 0.160313
0.321195 0.119747 0.166648
0.460119 0.132116 0.147964
0.576517 0.143786 0.134635
0.625342 0.153355 0.137369
0.664341 0.161908 0.138862
0.681723 0.168222 0.137625
0.697030 0.173024 0.138366
0.708878 0.175302 0.142402
0.721495 0.178350 0.147749
0.735101 0.182386 0.154779
0.748088 0.187431 0.160834
0.760457 0.193485 0.165911
0.777074 0.198258 0.175347
0.796995 0.202034 0.188172
0.815817 0.206135 0.200711
0.833980 0.210432 0.213080
0.851113 0.217145 0.224241
0.867779 0.224957 0.234852
0.883859 0.230133 0.251860
0.899743 0.234429 0.270999
0.909069 0.244650 0.261047
0.916881 0.256238 0.244381
0.919395 0.259167 0.231190
0.921153 0.260860 0.218496
0.923399 0.267801 0.218130
0.925677 0.275092 0.218585
0.031028 0.100905 0.104815
0.044569 0.102923 0.111585
0.059668 0.105157 0.119121
0.098142 0.110625 0.138130
0.141824 0.116582 0.156277
0.221963 0.125956 0.168385
0.311365 0.136087 0.174330
0.440914 0.149498 0.153563
0.554709 0.161428 0.137369
0.621241 0.168914 0.134895
0.671437 0.176360 0.133785
0.685694 0.183716 0.135672
0.698657 0.189559 0.138366
0.709464 0.192879 0.142402
0.720584 0.196512 0.145926
0.732106 0.200549 0.148790
0.744573 0.205594 0.154844
0.757984 0.211648 0.164089
0.774470 0.215835 0.172417
0.793349 0.218569 0.180034
0.811781 0.222931 0.191272
0.829944 0.228269 0.204683
0.848509 0.234592 0.217601
0.867258 0.241362 0.230295
0.883077 0.247059 0.244699
0.897920 0.252397 0.259672
0.906204 0.261120 0.247246
0.912975 0.270625 0.228497
0.914447 0.265091 0.205932
0.915164 0.257409 0.182821
0.918321 0.260835 0.175945
0.921641 0.265002 0.170151
0.036452 0.121591 0.122978
0.048561 0.123934 0.128381
0.061979 0.126282 0.134252
0.095050 0.128690 0.147142
0.133540 0.131937 0.159690
0.209968 0.141051 0.169846
0.294415 0.151166 0.174179
0.413613 0.165618 0.153282
0.523420 0.177890 0.135933
0.605056 0.183619 0.129228
0.665981 0.190080 0.125370
0.681345 0.198152 0.127779
0.695463 0.205077 0.130920
0.707507 0.210090 0.135282
0.718696 0.214675 0.138020
0.728786 0.218712 0.138671
0.741058 0.223594 0.144400
0.755510 0.229323 0.155207
0.771866 0.233331 0.162205
0.789704 0.236000 0.166241
0.807948 0.240785 0.176177
0.826436 0.246839 0.189653
0.845865 0.252222 0.203128
0.865720 0.257300 0.216604
0.881523 0.262377 0.228810
0.895975 0.267455 0.240593
0.904662 0.275760 0.231695
0.912018 0.284808 0.218024
0.912653 0.273863 0.188688
0.912328 0.260062 0.157115
0.915481 0.260481 0.143240
0.918866 0.261848 0.130546
0.040488 0.147826 0.141141
0.052597 0.151211 0.144461
0.065364 0.154210 0.147728
0.088019 0.151410 0.150202
0.116484 0.149710 0.152855
0.185620 0.155699 0.156761
0.261800 0.163470 0.156797
0.368499 0.178964 0.140067
0.471275 0.191756 0.125322
0.562285 0.196443 0.116533
0.632910 0.202188 0.109616
0.658690 0.210261 0.106817
0.681662 0.218358 0.107094
0.699955 0.226495 0.112497
0.714660 0.232838 0.116732
0.724750 0.236874 0.119467
0.737542 0.241236 0.124154
0.753036 0.245923 0.130794
0.769262 0.250647 0.135969
0.786058 0.255399 0.140006
0.804563 0.260966 0.148640
0.824093 0.267020 0.160032
0.843130 0.270254 0.171425
0.861944 0.272207 0.182817
0.878268 0.274160 0.193721
0.893762 0.276113 0.204463
0.906029 0.286371 0.212295
0.917552 0.298545 0.219456
0.917796 0.288902 0.189079
0.916429 0.276142 0.153339
0.917564 0.274673 0.131392
0.918866 0.273957 0.110365
0.046038 0.172548 0.161574
0.057365 0.175021 0.162030
0.068921 0.177035 0.162180
0.083894 0.172153 0.157754
0.104140 0.168288 0.153734
0.161297 0.171543 0.152562
0.225181 0.177141 0.148302
0.318209 0.192895 0.130660
0.412197 0.205720 0.114417
0.509066 0.209756 0.102374
0.587706 0.215298 0.092446
0.626246 0.224151 0.087173
0.659243 0.233176 0.085562
0.683005 0.242485 0.090054
0.702494 0.249658 0.094346
0.716491 0.254085 0.098382
0.731952 0.258121 0.102223
0.748878 0.261767 0.105869
0.765804 0.266987 0.109514
0.782730 0.273432 0.113160
0.801446 0.278901 0.120345
0.821236 0.283783 0.129655
0.840176 0.285309 0.138964
0.858730 0.285309 0.148273
0.875184 0.285602 0.157583
0.890938 0.285992 0.166892
0.905053 0.296592 0.183765
0.918789 0.309546 0.202384
0.920107 0.303988 0.179021
0.919651 0.295786 0.149661
0.919623 0.291917 0.123596
0.919623 0.288336 0.097752
0.054110 0.194747 0.185791
0.063355 0.193054 0.182081
0.072761 0.191357 0.178260
0.084610 0.189600 0.172792
0.099648 0.188208 0.167470
0.137015 0.189380 0.163173
0.181889 0.193091 0.154617
0.259293 0.207803 0.127600
0.341563 0.219847 0.103025
0.438432 0.223883 0.085773
0.522281 0.230076 0.072916
0.577486 0.241012 0.069726
0.622462 0.250558 0.067855
0.650390 0.257784 0.068180
0.676780 0.264241 0.070129
0.701192 0.269709 0.074165
0.722903 0.273745 0.077485
0.741912 0.276349 0.080089
0.760921 0.281700 0.082693
0.779930 0.289186 0.085297
0.798777 0.293092 0.090790
0.817526 0.294850 0.098016
0.836856 0.295399 0.105242
0.856451 0.295399 0.112468
0.872385 0.296474 0.119694
0.887097 0.297906 0.126921
0.900170 0.306161 0.140018
0.912865 0.315991 0.154470
0.917698 0.319157 0.151549
0.921409 0.321370 0.146145
0.921641 0.314246 0.122555
0.921641 0.306499 0.097752
0.060417 0.224892 0.213540
0.069401 0.219944 0.206574
0.078482 0.215278 0.199694
0.089028 0.214822 0.194096
0.100909 0.214138 0.187870
0.122132 0.211860 0.177259
0.150532 0.212145 0.163010
0.210033 0.223537 0.132999
0.278307 0.233774 0.104306
0.372897 0.240544 0.079568
0.458678 0.249268 0.061361
0.525080 0.262288 0.057520
0.580838 0.272696 0.054363
0.618857 0.278750 0.052344
0.653087 0.284804 0.052377
0.682447 0.290859 0.055046
0.708129 0.294895 0.057162
0.730133 0.296913 0.058724
0.751624 0.301055 0.060287
0.772717 0.306849 0.061849
0.793117 0.309591 0.065934
0.813103 0.310503 0.071533
0.833223 0.310474 0.077131
0.853404 0.310018 0.082730
0.869728 0.311418 0.088670
0.884766 0.313436 0.094725
0.896313 0.319263 0.104587
0.907054 0.325968 0.115329
0.914492 0.333072 0.123735
0.921458 0.340233 0.131807
0.921893 0.334638 0.114735
0.921893 0.328193 0.095986
0.064453 0.265254 0.245830
0.075520 0.258223 0.236781
0.086620 0.251538 0.228013
0.098207 0.250041 0.223456
0.109567 0.247795 0.216840
0.119332 0.240308 0.195813
0.134517 0.235190 0.174077
0.173186 0.240333 0.149274
0.224534 0.247445 0.121883
0.313916 0.260465 0.086729
0.397419 0.274136 0.060059
0.467988 0.289239 0.052052
0.532990 0.300949 0.046290
0.588716 0.307003 0.044272
0.631995 0.313058 0.042938
0.659272 0.319112 0.042482
0.685995 0.323148 0.042514
0.712165 0.325166 0.043035
0.736651 0.326379 0.043556
0.759827 0.326965 0.044077
0.783613 0.329056 0.047120
0.807765 0.332051 0.051677
0.829187 0.331957 0.056234
0.849368 0.330460 0.060791
0.867254 0.331599 0.066471
0.884375 0.333617 0.072525
0.893774 0.336905 0.079849
0.901391 0.340485 0.087466
0.910261 0.345376 0.095481
0.919310 0.350454 0.103554
0.919875 0.352541 0.098199
0.919875 0.354429 0.091950
0.069498 0.307634 0.279128
0.082649 0.294354 0.264351
0.095636 0.281712 0.250017
0.106182 0.278652 0.242335
0.116305 0.275104 0.232659
0.123466 0.268139 0.209028
0.134387 0.262858 0.185860
0.161599 0.264876 0.164703
0.204613 0.270556 0.138093
0.295037 0.287221 0.095127
0.380396 0.303236 0.061947
0.454610 0.317818 0.050294
0.523453 0.329007 0.042059
0.583345 0.334541 0.039520
0.628740 0.339391 0.037437
0.655496 0.343362 0.035939
0.682740 0.347138 0.035191
0.710473 0.350718 0.035191
0.735642 0.351149 0.035191
0.758818 0.349131 0.035191
0.783255 0.349921 0.037713
0.808448 0.352394 0.041749
0.829838 0.353570 0.046144
0.849498 0.354156 0.050701
0.867254 0.355426 0.055990
0.884375 0.356923 0.061524
0.893351 0.358843 0.067057
0.900447 0.360861 0.072591
0.909252 0.364190 0.079434
0.918301 0.367705 0.086465
0.920331 0.375554 0.088369
0.921893 0.383691 0.089932
0.075553 0.352032 0.313436
0.090786 0.328336 0.289284
0.105531 0.305799 0.265706
0.112953 0.300656 0.250733
0.121123 0.296067 0.235328
0.134533 0.295351 0.216905
0.150141 0.295147 0.198360
0.175270 0.297165 0.179285
0.218545 0.303106 0.152936
0.316260 0.320813 0.104762
0.407607 0.336567 0.067025
0.484946 0.348025 0.052247
0.552227 0.356870 0.041668
0.602745 0.361362 0.038088
0.643322 0.363803 0.035874
0.671120 0.363608 0.035418
0.698364 0.366863 0.035191
0.725055 0.373568 0.035191
0.748597 0.375367 0.035191
0.769689 0.373348 0.035191
0.792043 0.372185 0.037713
0.815154 0.371534 0.041749
0.835176 0.375314 0.046860
0.853795 0.381108 0.052458
0.869728 0.382898 0.057227
0.884766 0.383354 0.061719
0.895044 0.385079 0.066211
0.904223 0.387097 0.070703
0.911465 0.389514 0.075593
0.918431 0.391987 0.080541
0.923260 0.403677 0.085244
0.927948 0.415981 0.089932
0.079337 0.402106 0.347744
0.096653 0.372681 0.319490
0.113376 0.344350 0.291392
0.121188 0.332437 0.265612
0.130115 0.321753 0.240451
0.146845 0.319669 0.219619
0.166078 0.319234 0.199507
0.196154 0.325939 0.182516
0.242327 0.334923 0.158038
0.336787 0.350742 0.111101
0.427605 0.364955 0.073604
0.510412 0.375631 0.056873
0.578035 0.383598 0.044244
0.620350 0.387048 0.038450
0.657282 0.388618 0.035191
0.687293 0.387772 0.035191
0.715416 0.391092 0.035191
0.741652 0.398579 0.035191
0.764152 0.401378 0.035191
0.783747 0.400532 0.035191
0.804237 0.398953 0.037713
0.825264 0.396935 0.041749
0.843114 0.400646 0.046770
0.859519 0.406960 0.052239
0.873776 0.408539 0.056633
0.887317 0.408539 0.060669
0.897578 0.412083 0.064705
0.907083 0.416445 0.068742
0.913569 0.418243 0.072778
0.919623 0.419675 0.076814
0.925128 0.430811 0.082742
0.930596 0.442595 0.088796
0.081355 0.456595 0.382052
0.100754 0.425087 0.353798
0.119625 0.394152 0.324853
0.130562 0.371823 0.285533
0.142353 0.351113 0.247482
0.160126 0.341738 0.218317
0.182158 0.336941 0.191825
0.222650 0.351979 0.176917
0.273770 0.366171 0.155565
0.356772 0.377824 0.114877
0.441992 0.389497 0.081351
0.532091 0.401215 0.063578
0.601536 0.409442 0.049126
0.636560 0.411851 0.040207
0.670758 0.413747 0.035191
0.703894 0.414984 0.035191
0.733579 0.418825 0.035191
0.759815 0.425270 0.035191
0.781729 0.428785 0.035191
0.800282 0.430022 0.035191
0.819080 0.429225 0.037713
0.838024 0.427207 0.041749
0.853074 0.428769 0.046054
0.866355 0.431959 0.050481
0.879049 0.432756 0.054615
0.891548 0.432756 0.058651
0.900768 0.439685 0.062687
0.909231 0.448213 0.066723
0.915587 0.449621 0.070760
0.921641 0.450012 0.074796
0.926169 0.457177 0.080724
0.930596 0.464794 0.086778
0.084634 0.511084 0.416359
0.103513 0.476190 0.382898
0.122254 0.442245 0.349160
0.138919 0.422519 0.311272
0.156098 0.402444 0.272456
0.176864 0.379919 0.227146
0.201940 0.363803 0.186951
0.245687 0.375456 0.168918
0.297523 0.387207 0.146947
0.373625 0.399250 0.113160
0.454345 0.412331 0.084866
0.545225 0.427695 0.068656
0.615598 0.439030 0.055229
0.651793 0.443652 0.046441
0.687448 0.448274 0.041212
0.722407 0.452897 0.040561
0.752027 0.457584 0.039910
0.776309 0.462336 0.039259
0.797149 0.464818 0.038608
0.815312 0.465534 0.037957
0.832661 0.464134 0.039829
0.849522 0.461465 0.043214
0.863116 0.464257 0.047047
0.875225 0.469530 0.051083
0.885869 0.470360 0.055119
0.896024 0.469709 0.059156
0.904487 0.475140 0.062134
0.912560 0.481976 0.064868
0.918866 0.484539 0.069311
0.924920 0.486492 0.073998
0.928472 0.494121 0.079357
0.931858 0.502128 0.084760
0.088670 0.565572 0.450667
0.105466 0.526512 0.408873
0.122709 0.489312 0.367974
0.146666 0.480003 0.340501
0.170745 0.466958 0.308196
0.195678 0.427768 0.242054
0.223944 0.396158 0.183761
0.266650 0.397395 0.159479
0.316663 0.402115 0.134643
0.388598 0.417283 0.108147
0.465477 0.434140 0.085842
0.553232 0.454711 0.072757
0.623996 0.470864 0.062065
0.666441 0.479653 0.055359
0.706066 0.488441 0.050847
0.742067 0.497230 0.049155
0.770646 0.502958 0.047462
0.791803 0.505628 0.045769
0.811276 0.506026 0.044077
0.829439 0.504659 0.042384
0.845486 0.501827 0.043214
0.860264 0.498117 0.045558
0.873207 0.504163 0.049065
0.885315 0.514644 0.053101
0.893615 0.515995 0.057137
0.900646 0.514302 0.061174
0.908523 0.515307 0.062459
0.916596 0.516935 0.063110
0.922902 0.521581 0.068204
0.928957 0.526659 0.073933
0.931532 0.537413 0.078380
0.933876 0.548545 0.082742
0.096869 0.614511 0.491912
0.113730 0.575582 0.442501
0.131087 0.538483 0.394441
0.155890 0.528848 0.366643
0.181320 0.514868 0.332970
0.211136 0.470470 0.258170
0.243173 0.434555 0.192611
0.284837 0.435401 0.167091
0.333385 0.439177 0.141361
0.402587 0.451741 0.114995
0.475714 0.466197 0.092414
0.557480 0.484816 0.078157
0.626307 0.500505 0.066976
0.673569 0.511312 0.060921
0.714481 0.521805 0.056633
0.747226 0.531895 0.054615
0.776195 0.537950 0.052239
0.801389 0.539968 0.049504
0.821822 0.540924 0.047576
0.838553 0.541054 0.046274
0.853209 0.539476 0.046599
0.866619 0.536872 0.047901
0.879135 0.544382 0.051575
0.891243 0.556491 0.056328
0.898274 0.558542 0.059469
0.903612 0.557240 0.062073
0.910590 0.558159 0.063725
0.917947 0.559591 0.065157
0.924164 0.565068 0.070633
0.930218 0.571122 0.076688
0.932488 0.580838 0.080850
0.934506 0.590799 0.084886
0.106959 0.660928 0.536310
0.124862 0.624081 0.479608
0.143065 0.588610 0.424387
0.165785 0.573767 0.391381
0.190043 0.555230 0.352761
0.225067 0.510832 0.274836
0.261140 0.475698 0.206933
0.301763 0.480711 0.182455
0.349009 0.486309 0.156724
0.416127 0.493665 0.127234
0.485544 0.502914 0.101528
0.560019 0.516324 0.084146
0.625851 0.529149 0.071012
0.677280 0.540997 0.064958
0.718256 0.552076 0.060669
0.745794 0.562167 0.058651
0.775805 0.568221 0.055754
0.808290 0.570239 0.051978
0.830741 0.572953 0.050180
0.845389 0.576208 0.049919
0.858612 0.577103 0.049985
0.870981 0.576583 0.050245
0.883171 0.584744 0.054310
0.895280 0.596853 0.060104
0.901529 0.599685 0.061943
0.905826 0.599424 0.062463
0.911762 0.602232 0.065417
0.918077 0.605747 0.068933
0.924164 0.611484 0.074670
0.930218 0.617539 0.080724
0.932488 0.624325 0.084886
0.934506 0.631161 0.088923
0.118563 0.690695 0.568600
0.135945 0.660618 0.510856
0.153628 0.631511 0.454382
0.175827 0.616928 0.416949
0.199694 0.598912 0.373869
0.235239 0.556857 0.291257
0.271687 0.523384 0.219448
0.312049 0.527094 0.194450
0.358774 0.530219 0.167938
0.424590 0.531586 0.136885
0.492298 0.535578 0.109616
0.564169 0.545343 0.090672
0.627592 0.555987 0.076269
0.676938 0.568095 0.069433
0.718566 0.578979 0.064364
0.750269 0.588288 0.061564
0.780931 0.595905 0.058928
0.810552 0.601829 0.056454
0.831897 0.606252 0.055372
0.846804 0.609507 0.055372
0.859475 0.611704 0.055372
0.870802 0.613266 0.055372
0.883203 0.621005 0.058997
0.896093 0.631551 0.064270
0.902343 0.635360 0.065588
0.906379 0.636922 0.065588
0.913324 0.640494 0.068868
0.920941 0.644531 0.072904
0.926507 0.650333 0.077339
0.931780 0.656387 0.081831
0.934734 0.661709 0.085895
0.937534 0.666982 0.089932
0.130672 0.714912 0.596853
0.147012 0.693168 0.540151
0.163718 0.672003 0.484393
0.185917 0.659504 0.442794
0.209655 0.643701 0.395417
0.244158 0.604771 0.307597
0.279759 0.573250 0.231361
0.320121 0.573836 0.205321
0.366586 0.573055 0.177768
0.431361 0.568172 0.145673
0.498027 0.566891 0.117363
0.568856 0.573531 0.097377
0.630066 0.582222 0.081932
0.675246 0.594330 0.074055
0.717719 0.604759 0.067944
0.756714 0.613026 0.064103
0.787897 0.622726 0.061987
0.811268 0.633858 0.061597
0.830464 0.639974 0.061426
0.846414 0.642187 0.061426
0.858824 0.645296 0.061426
0.869109 0.648941 0.061426
0.881901 0.655899 0.064335
0.895833 0.664362 0.068567
0.902343 0.669212 0.069624
0.906379 0.672857 0.069624
0.915017 0.676820 0.072904
0.924717 0.680856 0.076940
0.929632 0.686658 0.079552
0.933863 0.692713 0.081961
0.937729 0.697058 0.085895
0.941570 0.701290 0.089932
0.146060 0.744048 0.618548
0.159666 0.719636 0.557809
0.173756 0.696151 0.498113
0.195109 0.686581 0.454040
0.218398 0.673838 0.404483
0.255245 0.638879 0.316532
0.293227 0.609999 0.239360
0.336128 0.607460 0.208894
0.383179 0.603831 0.178606
0.442680 0.596930 0.148855
0.505660 0.593814 0.121831
0.576294 0.599022 0.100803
0.636454 0.606500 0.084951
0.679160 0.617762 0.077725
0.718989 0.628740 0.072265
0.755119 0.639351 0.069075
0.785130 0.649442 0.066634
0.809022 0.659011 0.064941
0.828556 0.666237 0.064677
0.844701 0.671641 0.065523
0.857591 0.676719 0.065841
0.868528 0.681601 0.065841
0.879912 0.686931 0.066870
0.891500 0.692465 0.068367
0.898693 0.697510 0.070011
0.904422 0.702392 0.071704
0.913007 0.708650 0.075988
0.922251 0.715225 0.080870
0.927679 0.719864 0.083247
0.932561 0.724225 0.085265
0.936651 0.727488 0.088381
0.940687 0.730678 0.091571
0.162205 0.774320 0.638729
0.172686 0.744699 0.572782
0.183781 0.716527 0.508073
0.204093 0.710082 0.461917
0.226861 0.700594 0.410667
0.266833 0.669802 0.323759
0.307939 0.643721 0.246456
0.353965 0.638057 0.210782
0.401797 0.631824 0.177369
0.455049 0.623882 0.150743
0.513733 0.619723 0.125541
0.584366 0.623890 0.103472
0.643745 0.630327 0.087360
0.684368 0.640547 0.081176
0.720746 0.652306 0.076757
0.751669 0.666042 0.074609
0.780118 0.676133 0.071647
0.806093 0.682578 0.067871
0.826538 0.690780 0.067281
0.842683 0.700350 0.069169
0.856224 0.707641 0.069877
0.868202 0.713565 0.069877
