其他预设/【236】赛博朋克风调色预设/【后期菌】视频调色预设/CUBE/Miami 01_S.cube
# LUT by SparkleStock. Enhanced with VOXCOLOR algorithms.
LUT_3D_SIZE 5
DOMAIN_MIN 0.000000 0.000000 0.000000
DOMAIN_MAX 0.903226 0.903226 0.903226
0.003910 0.000000 0.000000
0.033929 0.006307 0.015640
0.697632 0.085643 0.004793
0.834863 0.116671 0.039857
0.852017 0.140384 0.096995
0.007820 0.010217 0.007820
0.408104 0.067383 0.014216
0.718968 0.144294 0.032416
0.800531 0.168251 0.110096
0.867205 0.203482 0.129700
0.019550 0.104563 0.064453
0.128520 0.120093 0.036183
0.679982 0.241887 0.003910
0.800681 0.273766 0.012503
0.879302 0.299269 0.048666
0.029389 0.515498 0.318481
0.238783 0.409015 0.092991
0.749993 0.510437 0.020055
0.868715 0.523721 0.013748
0.914513 0.560714 0.034243
0.215558 0.736102 0.615142
0.433871 0.698547 0.103301
0.792336 0.763997 0.047824
0.895153 0.787690 0.047962
0.931984 0.805385 0.082400
0.006307 0.003910 0.014127
0.047128 0.012613 0.042876
0.662299 0.074743 0.073608
0.811797 0.104311 0.219310
0.862612 0.163466 0.370049
0.020433 0.022830 0.042677
0.376015 0.089075 0.127648
0.634676 0.163875 0.259078
0.763835 0.203752 0.340959
0.888639 0.277476 0.473081
0.035874 0.186060 0.186979
0.101491 0.309338 0.310730
0.637275 0.309009 0.235921
0.767199 0.354725 0.268660
0.896768 0.391545 0.271589
0.088662 0.609246 0.589822
0.188655 0.666768 0.603823
0.676324 0.623381 0.063005
0.827867 0.649267 0.060117
0.909215 0.673260 0.097373
0.324702 0.768265 0.748935
0.419834 0.755298 0.437308
0.798223 0.792072 0.064437
0.893612 0.822774 0.086649
0.920154 0.843269 0.146854
0.025226 0.013496 0.081481
0.094692 0.025137 0.136405
0.701627 0.079589 0.290912
0.828540 0.151341 0.473277
0.878040 0.264916 0.596475
0.048308 0.065393 0.256392
0.175018 0.153740 0.468142
0.663951 0.205257 0.485992
0.784945 0.273680 0.539352
0.898803 0.392360 0.653736
0.077644 0.341209 0.584097
0.160183 0.491428 0.676491
0.620530 0.425060 0.562951
0.765523 0.447672 0.555771
0.891724 0.510358 0.594969
0.215762 0.704679 0.784207
0.334943 0.739616 0.792622
0.507480 0.745384 0.715713
0.808964 0.690831 0.214362
0.907730 0.693229 0.251381
0.435189 0.798578 0.798557
0.590215 0.809408 0.799078
0.754194 0.815006 0.567779
0.861312 0.840007 0.167792
0.912864 0.853955 0.310063
0.092706 0.097373 0.481695
0.222430 0.126115 0.541054
0.746746 0.158091 0.542682
0.857062 0.270808 0.639616
0.895849 0.407786 0.721096
0.114535 0.245065 0.649499
0.230413 0.356917 0.712382
0.782559 0.321105 0.669098
0.856461 0.433968 0.728389
0.900870 0.549843 0.769589
0.174960 0.556621 0.790025
0.324859 0.655010 0.811608
0.578056 0.677906 0.802247
0.853242 0.609975 0.769564
0.896036 0.594672 0.749656
0.370801 0.756686 0.832214
0.529025 0.782731 0.836353
0.689647 0.797856 0.837745
0.792415 0.763118 0.776333
0.893892 0.721540 0.735238
0.571415 0.813738 0.837292
0.687364 0.822967 0.833192
0.787714 0.839947 0.839021
0.844792 0.845312 0.747300
0.910354 0.852390 0.568837
0.165232 0.251506 0.692334
0.322489 0.295062 0.697799
0.782539 0.300298 0.675433
0.861602 0.425127 0.735032
0.898937 0.557289 0.781086
0.216580 0.438318 0.772281
0.390867 0.551579 0.794089
0.755685 0.599165 0.799855
0.885506 0.600736 0.800192
0.908484 0.669029 0.821381
0.361134 0.687647 0.835892
0.550847 0.731999 0.842105
0.717744 0.769476 0.848056
0.881285 0.743466 0.839715
0.907773 0.730354 0.848849
0.554314 0.784158 0.857094
0.681240 0.799962 0.858580
0.779249 0.818598 0.863971
0.845532 0.826182 0.867901
0.905425 0.794561 0.867634
0.679396 0.829524 0.858071
0.761976 0.839228 0.861013
0.825752 0.846713 0.864099
0.871726 0.859386 0.867675
0.908733 0.866387 0.857149
