其他预设/【236】赛博朋克风调色预设/【后期菌】视频调色预设/CUBE/Miami 02.cube
# LUT by SparkleStock. Enhanced with VOXCOLOR algorithms.
LUT_3D_SIZE 8
DOMAIN_MIN 0.000000 0.000000 0.000000
DOMAIN_MAX 0.903226 0.903226 0.903226
0.023460 0.007820 0.011730
0.083877 0.027623 0.063570
0.190080 0.049443 0.116924
0.460127 0.077318 0.135213
0.744427 0.103680 0.161448
0.850755 0.123735 0.208243
0.886703 0.143790 0.248479
0.910668 0.173430 0.286822
0.043263 0.048182 0.059912
0.150800 0.064848 0.121053
0.391414 0.089838 0.160728
0.715880 0.124744 0.180185
0.838455 0.146821 0.238075
0.884225 0.167295 0.289732
0.910415 0.198250 0.339195
0.920632 0.228310 0.362111
0.044020 0.098382 0.106203
0.172580 0.118152 0.168007
0.570203 0.145303 0.166990
0.789203 0.172112 0.192981
0.864642 0.191846 0.250126
0.896541 0.225759 0.308069
0.914073 0.262202 0.334545
0.920278 0.293906 0.266080
0.068742 0.182638 0.181124
0.127445 0.177117 0.170713
0.416489 0.202693 0.135705
0.730235 0.214362 0.121489
0.840058 0.238319 0.152676
0.882911 0.271080 0.185193
0.900365 0.300066 0.212946
0.911278 0.325862 0.203507
0.091950 0.318355 0.292751
0.129801 0.276744 0.228436
0.235129 0.268033 0.129394
0.538658 0.302084 0.053170
0.727737 0.311418 0.049822
0.820138 0.328352 0.055245
0.875099 0.353660 0.069498
0.903401 0.379822 0.085944
0.109356 0.512219 0.429225
0.174623 0.382263 0.244760
0.349278 0.379207 0.117322
0.623442 0.426779 0.058391
0.764323 0.438916 0.042885
0.844323 0.463154 0.049976
0.885694 0.489674 0.061678
0.915147 0.510201 0.078393
0.144420 0.701542 0.581843
0.220030 0.589607 0.332848
0.407518 0.525186 0.129341
0.645287 0.556279 0.070674
0.775784 0.599514 0.058663
0.855027 0.629094 0.060543
0.895695 0.656721 0.073408
0.921368 0.678187 0.085012
0.212783 0.802195 0.682370
0.280491 0.724335 0.372832
0.482021 0.640043 0.146162
0.676027 0.665253 0.094725
0.785875 0.707722 0.077823
0.854287 0.738816 0.078393
0.890560 0.756608 0.083552
0.917483 0.789158 0.111708
0.039605 0.020307 0.056759
0.080000 0.032273 0.100071
0.182699 0.053541 0.154669
0.473362 0.081888 0.195231
0.758928 0.109478 0.219399
0.854702 0.125114 0.276138
0.891862 0.146048 0.346385
0.912812 0.173317 0.393782
0.040834 0.061662 0.094423
0.153933 0.073940 0.173101
0.407638 0.101468 0.221885
0.717690 0.125897 0.246880
0.849128 0.148578 0.318628
0.896977 0.175206 0.390284
0.911638 0.194416 0.435296
0.921695 0.226320 0.474465
0.060669 0.127047 0.157318
0.113754 0.144516 0.209439
0.654843 0.151800 0.271808
0.825881 0.175263 0.334065
0.886581 0.200615 0.415228
0.908905 0.224600 0.466910
0.920714 0.264481 0.528841
0.931410 0.301423 0.556027
0.085895 0.228822 0.237049
0.127471 0.274344 0.297648
0.381748 0.260504 0.294905
0.799312 0.252177 0.251974
0.876008 0.281549 0.311215
0.898679 0.313749 0.351019
0.907894 0.343146 0.368687
0.917085 0.386216 0.387547
0.111183 0.376315 0.364271
0.136950 0.434763 0.422642
0.216736 0.386529 0.321462
0.518848 0.362489 0.107545
0.763550 0.366324 0.073144
0.837741 0.384302 0.081643
0.880435 0.406753 0.092974
0.905988 0.430075 0.109963
0.127185 0.577185 0.526346
0.160003 0.625504 0.567684
0.266657 0.537684 0.332373
0.620612 0.472037 0.076642
0.764551 0.500240 0.057101
0.839662 0.530518 0.061074
0.886738 0.556313 0.074423
0.914268 0.586982 0.100229
0.175672 0.734308 0.650516
0.208120 0.744143 0.628998
0.343420 0.656159 0.313278
0.650531 0.594719 0.093939
0.771039 0.634420 0.075204
0.850964 0.676338 0.078875
0.888958 0.708439 0.088137
0.917329 0.722141 0.099584
0.253410 0.814417 0.731057
0.302837 0.788580 0.615265
0.443814 0.733704 0.291591
0.677228 0.693156 0.123682
0.783066 0.735723 0.100029
0.847105 0.764238 0.097935
0.888410 0.784531 0.109817
0.912403 0.816639 0.152064
0.047425 0.041119 0.110617
0.077823 0.044744 0.150068
0.183822 0.065458 0.223696
0.471544 0.092454 0.264229
0.763603 0.112005 0.291497
0.861566 0.135628 0.375582
0.900211 0.151496 0.447388
0.914805 0.174720 0.510433
0.059725 0.096210 0.161643
0.120288 0.095134 0.220738
0.399716 0.114080 0.298219
0.742642 0.134623 0.321911
0.853404 0.155853 0.406548
0.894295 0.176677 0.489126
0.912413 0.206729 0.552479
0.925129 0.239085 0.594483
0.079646 0.154633 0.211388
0.128846 0.192842 0.292966
0.598100 0.161733 0.349444
0.825221 0.186224 0.414428
0.884147 0.210341 0.511259
0.907934 0.242875 0.580775
0.920720 0.276642 0.622006
0.926967 0.317903 0.660085
0.112859 0.272948 0.317725
0.148600 0.323829 0.394933
0.265057 0.349000 0.500148
0.827529 0.264215 0.489193
0.896540 0.289616 0.569576
0.909273 0.322883 0.612235
0.917560 0.369930 0.656024
0.918306 0.402327 0.611736
0.131925 0.415830 0.441032
0.168183 0.497549 0.534276
0.203039 0.555220 0.579036
0.487249 0.470916 0.394447
0.843031 0.409513 0.290921
0.871852 0.433019 0.302368
0.891968 0.477938 0.333925
0.907262 0.505725 0.268276
0.159882 0.616656 0.591808
0.198728 0.665787 0.638835
0.251614 0.707509 0.672459
0.422811 0.613581 0.333533
0.763595 0.547037 0.078542
0.838232 0.580680 0.078499
0.881049 0.620609 0.096627
0.908295 0.640640 0.125899
0.212897 0.745021 0.693067
0.264376 0.775532 0.722276
0.325306 0.793255 0.713765
0.549423 0.691096 0.285934
0.776153 0.677743 0.097229
0.842603 0.716543 0.096590
0.879583 0.734969 0.102558
0.910015 0.756181 0.124855
0.301177 0.827925 0.766752
0.354066 0.836530 0.763946
0.454756 0.797690 0.592418
0.639740 0.745282 0.260860
0.788748 0.763001 0.134341
0.849360 0.788972 0.129932
0.883369 0.806878 0.143215
0.905960 0.826367 0.214249
0.057768 0.069498 0.186674
0.093919 0.065442 0.224424
0.186491 0.073465 0.286558
0.499036 0.098801 0.339777
0.772782 0.117542 0.373865
0.861074 0.139981 0.465131
0.893514 0.155561 0.553000
0.917479 0.192692 0.616745
0.082946 0.127771 0.254765
0.126147 0.144796 0.327910
0.371794 0.129804 0.402194
0.747672 0.145105 0.399743
0.851004 0.164340 0.493693
0.895260 0.193096 0.585158
0.920228 0.235864 0.654565
0.927990 0.270202 0.685300
0.110617 0.203507 0.337710
0.151245 0.243933 0.428124
0.303187 0.239141 0.543410
0.803054 0.205191 0.510558
0.886382 0.234860 0.606816
0.913577 0.272664 0.666498
0.919891 0.314645 0.708780
0.921217 0.347862 0.731362
0.140636 0.324788 0.453397
0.166778 0.364261 0.521678
0.284280 0.422921 0.637540
0.752102 0.320872 0.604538
0.885929 0.326546 0.663987
0.906679 0.353645 0.704655
0.909769 0.397114 0.731317
0.914598 0.437513 0.745136
0.164784 0.492758 0.580741
0.201110 0.565836 0.633858
0.250527 0.628158 0.673841
0.401797 0.631300 0.695935
0.847901 0.458552 0.656499
0.882957 0.463917 0.654419
0.892088 0.508021 0.667043
0.900762 0.553733 0.664921
0.207730 0.669033 0.670782
0.266833 0.717453 0.713231
0.329162 0.748135 0.743000
0.393067 0.762427 0.741154
0.728423 0.660869 0.330825
0.867029 0.631045 0.212349
0.889516 0.660651 0.206623
0.908020 0.679850 0.255582
0.260168 0.766333 0.735516
0.324844 0.796701 0.763552
0.389579 0.809471 0.774340
0.487488 0.822017 0.760605
0.726174 0.731761 0.289760
0.840893 0.744934 0.130666
0.879855 0.761896 0.136418
0.906292 0.780242 0.166923
0.348049 0.834232 0.787364
0.423525 0.850822 0.805987
0.492904 0.850841 0.794182
0.638589 0.819213 0.646239
0.786160 0.783138 0.233107
0.849977 0.807560 0.183613
0.880260 0.823771 0.216939
0.902986 0.831448 0.309127
0.086148 0.098887 0.289976
0.122909 0.094273 0.341808
0.232578 0.094476 0.408926
0.500489 0.110226 0.432113
0.769779 0.124500 0.461136
0.861550 0.154027 0.565361
0.904475 0.185035 0.647533
0.925474 0.225523 0.706404
0.113461 0.161961 0.385538
0.143700 0.189327 0.455834
0.337762 0.157518 0.535807
0.751676 0.163216 0.506040
0.851374 0.185442 0.595155
0.895379 0.224465 0.670384
0.916120 0.262578 0.717985
0.930510 0.304937 0.755827
0.148835 0.252901 0.499594
0.183012 0.299086 0.581555
0.271110 0.348664 0.662360
0.699883 0.253520 0.624501
0.884537 0.271672 0.687112
0.903802 0.303585 0.728514
0.915750 0.350293 0.760333
0.921865 0.384302 0.779082
0.173935 0.381755 0.608779
0.220776 0.452412 0.670642
0.281768 0.525469 0.714366
0.480117 0.502844 0.737634
0.858297 0.374458 0.726012
0.897469 0.400922 0.755276
0.905014 0.434092 0.775688
0.909233 0.472268 0.792862
0.203702 0.573210 0.680462
0.253193 0.634384 0.724929
0.319082 0.684120 0.751693
0.448631 0.682267 0.763543
0.772030 0.574145 0.753624
0.871503 0.525480 0.744256
0.885398 0.544018 0.761226
0.890220 0.576266 0.777665
0.264151 0.719086 0.739646
0.325531 0.750805 0.767080
0.392934 0.772131 0.787380
0.469384 0.785950 0.792106
0.626545 0.781885 0.784794
0.855216 0.696520 0.484537
0.891540 0.685926 0.415213
0.905963 0.705606 0.417872
0.327197 0.795864 0.777713
0.392062 0.806364 0.790869
0.477678 0.820823 0.806000
0.549057 0.833911 0.806925
0.646049 0.833574 0.787962
0.820179 0.780056 0.397398
0.887321 0.782403 0.229162
0.909661 0.798906 0.245512
0.412840 0.840181 0.810462
0.485860 0.847534 0.818419
0.569507 0.856646 0.828034
0.644821 0.858545 0.806153
0.752540 0.842222 0.708656
0.831803 0.818588 0.369139
0.878868 0.827448 0.301825
0.901742 0.838565 0.414461
0.114527 0.128780 0.426702
0.148798 0.141690 0.493613
0.254622 0.122831 0.539838
0.559335 0.125130 0.544753
0.777945 0.147289 0.575809
0.863425 0.176067 0.648188
0.904345 0.217401 0.719705
0.924855 0.260136 0.766243
0.147447 0.194918 0.525760
0.192202 0.235409 0.602628
0.328086 0.213681 0.652379
0.689726 0.191004 0.634947
0.851214 0.220316 0.678313
0.890293 0.257617 0.731333
0.909811 0.305048 0.768696
0.920786 0.339468 0.794989
0.193017 0.318213 0.646980
0.243829 0.372700 0.695027
0.313001 0.424615 0.738731
0.645208 0.332106 0.733201
0.870711 0.310937 0.739482
0.893397 0.355961 0.771192
0.909805 0.383482 0.793840
0.917996 0.415045 0.814687
0.221218 0.467426 0.712389
0.274252 0.533158 0.746032
0.337247 0.591296 0.771955
0.474819 0.610121 0.797979
0.808068 0.460637 0.786225
0.884606 0.442563 0.791647
0.897462 0.475946 0.812899
0.905757 0.504994 0.821977
0.257674 0.641166 0.759005
0.321567 0.685956 0.781353
0.402895 0.725444 0.804051
0.497259 0.742233 0.820959
0.670630 0.711851 0.829318
0.856686 0.592299 0.811016
0.884697 0.587784 0.820179
0.890120 0.608425 0.835728
0.335102 0.755526 0.795481
0.396812 0.770753 0.810751
0.477754 0.789646 0.822838
0.564109 0.802127 0.835259
0.678612 0.803389 0.841899
0.792719 0.773772 0.825393
0.875590 0.712907 0.806987
0.892115 0.711835 0.809832
0.406379 0.811764 0.820594
0.483378 0.818984 0.827387
0.558932 0.828056 0.830316
0.628308 0.838535 0.838467
0.692722 0.845987 0.843928
0.776453 0.834496 0.807951
0.880344 0.803323 0.493087
0.906953 0.802463 0.474458
0.478408 0.842296 0.827356
0.553000 0.851756 0.835933
0.618298 0.856442 0.840938
0.684246 0.866449 0.851362
0.750340 0.873699 0.847501
0.825081 0.855069 0.746215
0.870262 0.840908 0.548081
0.902644 0.851714 0.540729
0.152240 0.157033 0.563176
0.194816 0.187472 0.621111
0.318355 0.163202 0.655284
0.635547 0.159178 0.663076
0.777803 0.177617 0.671360
0.863385 0.218333 0.731451
0.903271 0.267235 0.778869
0.917206 0.307150 0.813095
0.196134 0.251001 0.651456
0.250224 0.303984 0.712833
0.333402 0.345289 0.753333
0.628932 0.278916 0.752084
0.847913 0.270952 0.747610
0.882301 0.308681 0.779131
0.903520 0.347859 0.809446
0.918582 0.378861 0.828504
0.250004 0.387569 0.736985
0.300058 0.434246 0.765784
0.387449 0.504178 0.801172
0.605106 0.451117 0.808479
0.824451 0.386595 0.797307
0.885661 0.394939 0.808176
0.905394 0.427342 0.827604
0.915920 0.450283 0.839353
0.277607 0.543113 0.773180
0.346809 0.603671 0.800395
0.428610 0.643813 0.821546
0.541261 0.662259 0.838919
0.773750 0.545732 0.836846
0.879911 0.501261 0.832660
0.894012 0.522217 0.840487
0.906450 0.547837 0.856073
0.330981 0.687745 0.804957
0.407689 0.722004 0.824878
0.499506 0.744603 0.844090
0.591253 0.761891 0.857936
0.687675 0.759930 0.869741
0.833561 0.654690 0.853310
0.887302 0.623855 0.853487
0.890916 0.633360 0.862461
0.409418 0.771748 0.833426
0.495247 0.793065 0.848974
0.569753 0.806440 0.856663
0.638559 0.818190 0.864014
0.707579 0.822396 0.871778
0.777170 0.813399 0.872131
0.871416 0.736329 0.861476
0.897720 0.728882 0.872566
0.507597 0.823845 0.851512
0.566111 0.830581 0.852595
0.628241 0.843943 0.857262
0.689694 0.847012 0.863116
0.739622 0.854437 0.868404
0.796518 0.856020 0.867628
0.858678 0.844826 0.823102
0.906237 0.827164 0.770674
0.569084 0.855979 0.853278
0.617018 0.857165 0.853095
0.674482 0.864670 0.859838
0.724946 0.870424 0.867004
0.778392 0.881012 0.874732
0.827012 0.882163 0.874026
0.872893 0.876888 0.813478
0.906822 0.877353 0.743782
0.202188 0.206098 0.676316
0.258040 0.247331 0.721621
0.357696 0.250676 0.747051
0.653510 0.205867 0.746465
0.806272 0.234779 0.756885
0.866017 0.275524 0.788068
0.896866 0.316671 0.821334
0.917519 0.351947 0.844994
0.259566 0.325004 0.750001
0.321476 0.372088 0.786556
0.398609 0.411186 0.806761
0.629577 0.365145 0.814328
0.840786 0.327261 0.802315
0.881377 0.358152 0.819455
0.901744 0.393323 0.839024
0.916532 0.410330 0.849230
0.312053 0.462930 0.796218
0.384094 0.519615 0.818242
0.470281 0.554488 0.835583
0.576264 0.569421 0.846305
0.776380 0.468780 0.850853
0.879868 0.434886 0.837684
0.897471 0.468418 0.851561
0.912993 0.489815 0.861657
0.348590 0.599522 0.821241
0.433634 0.636937 0.839091
0.538529 0.670862 0.854328
0.629193 0.691602 0.869810
0.752063 0.636937 0.878174
0.856281 0.559590 0.865471
0.897788 0.564370 0.867152
0.908145 0.583135 0.881504
0.419028 0.721617 0.841442
0.508527 0.742399 0.859852
0.601163 0.763499 0.875754
0.669048 0.770499 0.880086
0.723520 0.776984 0.885722
0.824895 0.707846 0.889393
0.884156 0.662543 0.880894
0.900098 0.665018 0.891112
0.501111 0.791156 0.864560
0.583178 0.800624 0.873768
0.646695 0.810051 0.878622
0.701928 0.817425 0.881775
0.755315 0.827055 0.891117
0.800205 0.828649 0.898120
0.865916 0.782005 0.893381
0.907258 0.759022 0.902571
0.584744 0.835042 0.873479
0.636372 0.841538 0.876083
0.687632 0.848996 0.878892
0.738604 0.856447 0.885455
0.780054 0.863518 0.892899
0.820782 0.869550 0.902068
0.862791 0.866058 0.892864
0.911185 0.844289 0.891037
0.633687 0.862192 0.872535
0.685111 0.870821 0.877798
0.729305 0.873097 0.881963
0.766768 0.877966 0.885465
0.811204 0.885897 0.894999
0.848919 0.890861 0.903625
0.882448 0.897254 0.895676
0.918191 0.903726 0.890240
