其他预设/【236】赛博朋克风调色预设/【后期菌】视频调色预设/CUBE/Miami 02.cube
# LUT by SparkleStock. Enhanced with VOXCOLOR algorithms.
LUT_3D_SIZE 5
DOMAIN_MIN 0.000000 0.000000 0.000000
DOMAIN_MAX 0.903226 0.903226 0.903226
0.023460 0.007820 0.011730
0.150222 0.040867 0.099770
0.642513 0.092580 0.147321
0.866900 0.127771 0.222369
0.910668 0.173430 0.286822
0.044524 0.083247 0.092580
0.443762 0.124699 0.171302
0.828772 0.166782 0.224802
0.902074 0.218207 0.324410
0.920864 0.283051 0.300713
0.080850 0.242677 0.232208
0.237603 0.224514 0.137141
0.715237 0.250582 0.071728
0.861900 0.292970 0.100164
0.908902 0.348248 0.144925
0.115410 0.574780 0.471605
0.316890 0.384497 0.126257
0.706905 0.474819 0.051966
0.856431 0.503516 0.050302
0.916059 0.548545 0.079304
0.212783 0.802195 0.682370
0.432756 0.644437 0.166082
0.736399 0.689918 0.083584
0.866395 0.743763 0.079304
0.917483 0.789158 0.111708
0.046921 0.036074 0.098004
0.148798 0.055921 0.185954
0.641019 0.100059 0.245146
0.872324 0.136230 0.368405
0.913894 0.172979 0.481170
0.068237 0.129879 0.179196
0.441498 0.143938 0.303824
0.855070 0.182256 0.416441
0.909144 0.227077 0.552550
0.926772 0.290447 0.622347
0.118238 0.330696 0.353814
0.182467 0.414977 0.462525
0.831904 0.324804 0.362741
0.890492 0.375158 0.425474
0.910427 0.437810 0.391899
0.158287 0.641394 0.602175
0.243417 0.712031 0.651376
0.700336 0.563345 0.085706
0.849973 0.619444 0.073115
0.909793 0.668138 0.113359
0.287441 0.823027 0.757670
0.408276 0.802622 0.609145
0.738776 0.733193 0.130985
0.860919 0.791722 0.126046
0.907327 0.825261 0.196019
0.073030 0.084760 0.227415
0.170277 0.078706 0.321041
0.674277 0.114181 0.384806
0.871835 0.146312 0.539353
0.921828 0.205635 0.661095
0.120402 0.204532 0.385766
0.230058 0.255182 0.557050
0.850983 0.211754 0.582845
0.913850 0.272934 0.698382
0.924143 0.347902 0.756193
0.165033 0.427776 0.589908
0.240883 0.561288 0.684425
0.748828 0.442954 0.690214
0.895142 0.437577 0.742071
0.904088 0.508617 0.778632
0.254028 0.723741 0.727179
0.352451 0.769738 0.764695
0.491210 0.788514 0.764390
0.869454 0.690773 0.225458
0.909863 0.729741 0.224988
0.372966 0.837869 0.799168
0.515379 0.853892 0.819584
0.702820 0.822263 0.644413
0.856713 0.815929 0.222028
0.900003 0.834557 0.359866
0.122600 0.140889 0.465046
0.225767 0.144656 0.569458
0.706888 0.143806 0.581245
0.878203 0.195532 0.690569
0.925962 0.277778 0.782583
0.197151 0.303093 0.652139
0.302234 0.386123 0.730706
0.810533 0.295638 0.723982
0.900764 0.351233 0.783362
0.919770 0.407371 0.821367
0.248527 0.575936 0.753178
0.368348 0.666157 0.796629
0.574896 0.685927 0.825948
0.883369 0.528472 0.817241
0.898511 0.565654 0.838939
0.369084 0.775707 0.815337
0.510436 0.806494 0.836183
0.644060 0.825660 0.849702
0.811881 0.795500 0.825734
0.898558 0.743327 0.825734
0.498979 0.846723 0.834517
0.612746 0.857713 0.844640
0.724801 0.870753 0.858600
0.833805 0.861690 0.771619
0.903537 0.854536 0.575213
0.202188 0.206098 0.676316
0.318441 0.253491 0.739109
0.759204 0.214045 0.748357
0.878126 0.287111 0.796140
0.917519 0.351947 0.844994
0.299554 0.426263 0.786062
0.429115 0.511070 0.826582
0.686943 0.480498 0.844551
0.885338 0.421464 0.838152
0.913314 0.467494 0.857454
0.382703 0.671523 0.834737
0.546054 0.715533 0.864255
0.681335 0.733364 0.878411
0.859616 0.612720 0.874399
0.904070 0.624734 0.887805
0.521683 0.806390 0.869899
0.643817 0.818565 0.879189
0.738455 0.833711 0.886099
0.813551 0.844972 0.903067
0.909276 0.779810 0.903677
0.633687 0.862192 0.872535
0.719193 0.872056 0.880971
0.789955 0.881989 0.890341
0.855473 0.892879 0.904536
0.918191 0.903726 0.890240
