其他预设/【236】赛博朋克风调色预设/【后期菌】视频调色预设/CUBE/Miami 06_S.cube
# LUT by SparkleStock. Enhanced with VOXCOLOR algorithms.
LUT_3D_SIZE 8
DOMAIN_MIN 0.000000 0.000000 0.000000
DOMAIN_MAX 0.903226 0.903226 0.903226
0.019550 0.019550 0.035191
0.064579 0.043263 0.071138
0.170025 0.066597 0.100779
0.447514 0.137357 0.121086
0.749346 0.196639 0.165358
0.871441 0.226658 0.203071
0.933371 0.243938 0.227415
0.974994 0.257686 0.249866
0.039101 0.055750 0.066976
0.127340 0.068790 0.100022
0.369683 0.126001 0.129382
0.666807 0.191012 0.151154
0.783714 0.212910 0.180433
0.863629 0.226324 0.210729
0.944792 0.250651 0.254154
0.986358 0.275597 0.298565
0.035191 0.085643 0.088040
0.145201 0.101031 0.119035
0.528404 0.191915 0.127515
0.693050 0.228074 0.146341
0.761088 0.243559 0.160069
0.847744 0.255290 0.187899
0.928383 0.273062 0.225807
0.968586 0.288714 0.212503
0.025857 0.148330 0.118689
0.095925 0.139151 0.110442
0.380469 0.210078 0.109763
0.660757 0.269689 0.114739
0.748097 0.289597 0.128849
0.833231 0.305498 0.137625
0.913357 0.312553 0.163930
0.965225 0.326607 0.188237
0.006811 0.242929 0.168385
0.047950 0.215314 0.118567
0.224436 0.251022 0.097015
0.551145 0.338536 0.107325
0.706555 0.369943 0.106447
0.810698 0.381779 0.112761
0.900060 0.390767 0.130900
0.957210 0.401826 0.150650
0.000000 0.397818 0.248479
0.087165 0.306499 0.118860
0.377185 0.379081 0.128349
0.697803 0.469277 0.161920
0.797866 0.495663 0.149392
0.870822 0.512723 0.142626
0.926768 0.521553 0.143932
0.965409 0.526789 0.148648
0.000000 0.582474 0.372213
0.157245 0.439287 0.162738
0.525609 0.541835 0.180115
0.760287 0.629733 0.211648
0.864113 0.669781 0.214183
0.915697 0.677402 0.201777
0.947111 0.686146 0.195837
0.968436 0.691126 0.191142
0.031154 0.704065 0.491786
0.287730 0.569344 0.208861
0.631690 0.665041 0.213943
0.787547 0.728644 0.238929
0.869520 0.762667 0.247624
0.922837 0.781570 0.246460
0.954687 0.794196 0.249793
0.973400 0.815561 0.257556
0.039605 0.040110 0.067732
0.071911 0.055229 0.090957
0.158954 0.063127 0.117933
0.443709 0.134029 0.160846
0.721096 0.183395 0.196822
0.847728 0.209549 0.239011
0.932488 0.244861 0.292104
0.975133 0.274335 0.346999
0.040834 0.072855 0.088780
0.137470 0.077411 0.127771
0.355841 0.132074 0.163975
0.601476 0.180324 0.190903
0.721748 0.201704 0.226235
0.827535 0.218683 0.268188
0.918153 0.249919 0.327250
0.973272 0.291753 0.400836
0.050986 0.113079 0.117396
0.102378 0.123336 0.144459
0.535436 0.206501 0.209207
0.640342 0.241547 0.231384
0.713635 0.258443 0.260869
0.804673 0.268552 0.285594
0.902078 0.293227 0.355015
0.973871 0.321678 0.440706
0.030678 0.178272 0.163409
0.068409 0.209205 0.194737
0.295272 0.232543 0.178931
0.612690 0.292451 0.180194
0.695090 0.310933 0.198937
0.788938 0.322481 0.214108
0.888456 0.331375 0.240272
0.966579 0.352935 0.289753
0.004472 0.298618 0.242489
0.016763 0.346887 0.285001
0.140517 0.313632 0.163694
0.472663 0.381189 0.137297
0.670171 0.405254 0.132426
0.777956 0.419005 0.135693
0.877204 0.426958 0.140230
0.948369 0.438551 0.145833
0.002649 0.492083 0.367673
0.001980 0.531492 0.400256
0.222573 0.418185 0.177149
0.643861 0.521164 0.168833
0.754480 0.554830 0.162093
0.836614 0.577791 0.157680
0.905975 0.580424 0.151324
0.950427 0.594956 0.153864
0.001514 0.646394 0.502678
0.024400 0.626775 0.430434
0.369817 0.540851 0.211401
0.742878 0.658056 0.217236
0.840535 0.701277 0.220899
0.903699 0.722505 0.218342
0.941186 0.740725 0.214600
0.959650 0.734710 0.203207
0.058692 0.732672 0.587202
0.182194 0.637267 0.369175
0.532608 0.662162 0.234759
0.784916 0.739229 0.243306
0.859729 0.779224 0.254778
0.915713 0.805348 0.257979
0.948939 0.822155 0.264737
0.966918 0.842478 0.271189
0.052849 0.071895 0.104689
0.085139 0.071358 0.117615
0.169634 0.073848 0.150662
0.426376 0.133207 0.210818
0.701786 0.177088 0.261604
0.845999 0.217523 0.326627
0.935275 0.256425 0.396133
0.979234 0.298780 0.480414
0.067830 0.099900 0.137044
0.117121 0.101993 0.160490
0.336532 0.137841 0.218155
0.590245 0.184906 0.273798
0.699829 0.203450 0.316442
0.809797 0.219220 0.359051
0.907930 0.253048 0.419923
0.974623 0.290517 0.516805
0.074352 0.137853 0.169329
0.119633 0.167335 0.216091
0.455206 0.203058 0.277137
0.614422 0.249257 0.322287
0.704585 0.261726 0.353445
0.797349 0.272643 0.385433
0.889034 0.283235 0.422330
0.965715 0.310967 0.535529
0.071586 0.215221 0.232936
0.117403 0.262346 0.284289
0.226325 0.296361 0.320546
0.607184 0.312979 0.352694
0.707695 0.328341 0.374965
0.791185 0.334544 0.387777
0.879106 0.347422 0.423281
0.958974 0.371406 0.456770
0.037172 0.349982 0.332710
0.067016 0.416848 0.411860
0.111450 0.458206 0.409522
0.390722 0.409272 0.263400
0.688579 0.418192 0.244117
0.773981 0.432336 0.247555
0.856937 0.450988 0.254216
0.935484 0.469351 0.224762
0.007405 0.546274 0.468110
0.012036 0.587608 0.526778
0.069241 0.618395 0.536214
0.407816 0.540797 0.237913
0.730472 0.592692 0.197084
0.809690 0.611138 0.192724
0.873646 0.628583 0.192037
0.930784 0.629170 0.190637
0.006709 0.673321 0.595726
0.055185 0.696130 0.615494
0.233086 0.693859 0.565815
0.609258 0.661251 0.257553
0.825144 0.726914 0.235301
0.887608 0.755542 0.234456
0.904052 0.760236 0.231268
0.940184 0.763292 0.230401
0.120154 0.753357 0.667458
0.277160 0.755212 0.636554
0.445885 0.687336 0.408342
0.726967 0.748073 0.271131
0.860404 0.795828 0.262966
0.909414 0.824687 0.269294
0.918083 0.842159 0.267419
0.942007 0.858317 0.271280
0.078075 0.100779 0.167124
0.109034 0.098138 0.175640
0.177971 0.086302 0.194970
0.441313 0.143810 0.278897
0.716963 0.200284 0.355072
0.863840 0.236496 0.441293
0.945191 0.268367 0.528116
0.981049 0.297454 0.597895
0.095131 0.139705 0.217401
0.146862 0.167432 0.276979
0.324323 0.136740 0.297827
0.606102 0.199837 0.366327
0.721236 0.211547 0.421400
0.822289 0.224059 0.473592
0.921561 0.255964 0.551631
0.973101 0.287427 0.629015
0.112790 0.193445 0.274604
0.159396 0.235986 0.347840
0.280725 0.235846 0.398864
0.610188 0.247498 0.422171
0.704312 0.259200 0.457240
0.798454 0.267995 0.488568
0.892407 0.284184 0.546367
0.963836 0.311605 0.629892
0.141413 0.285834 0.354889
0.180823 0.328654 0.415048
0.263031 0.359316 0.466896
0.569859 0.314230 0.461100
0.700919 0.323770 0.486373
0.791915 0.335023 0.504025
0.870953 0.347390 0.528336
0.952204 0.369075 0.586060
0.130831 0.427927 0.480108
0.140013 0.483571 0.540598
0.195031 0.533486 0.551888
0.356699 0.510869 0.510291
0.708030 0.432996 0.494767
0.782895 0.437610 0.477669
0.854952 0.457076 0.473630
0.931424 0.488128 0.484275
0.034165 0.597028 0.598981
0.085810 0.641617 0.652490
0.183947 0.668659 0.663398
0.323693 0.664215 0.602418
0.669615 0.627932 0.325558
0.816538 0.623448 0.263797
0.857739 0.631785 0.265748
0.930035 0.633762 0.274693
0.027452 0.699398 0.672194
0.135200 0.724054 0.695276
0.294722 0.735842 0.698562
0.472186 0.737442 0.652282
0.750256 0.734686 0.301325
0.859661 0.772214 0.259726
0.879568 0.775833 0.273422
0.931131 0.776419 0.280400
0.193595 0.768859 0.719957
0.359571 0.787846 0.737528
0.501104 0.779265 0.699522
0.664580 0.758323 0.531605
0.843834 0.803730 0.278763
0.890249 0.836753 0.278733
0.894057 0.855963 0.290096
0.927739 0.868646 0.303520
0.124365 0.153754 0.280264
0.169142 0.154946 0.300811
0.244568 0.116549 0.294525
0.459724 0.149946 0.358201
0.737347 0.214297 0.448295
0.889067 0.252714 0.563249
0.961625 0.278246 0.636812
0.982737 0.292421 0.697632
0.143476 0.201562 0.356960
0.177478 0.237773 0.414657
0.335259 0.174730 0.419678
0.652606 0.207551 0.475331
0.767180 0.227446 0.558280
0.864817 0.241344 0.609616
0.938010 0.269294 0.668031
0.984045 0.304480 0.734746
0.169394 0.268281 0.440308
0.204569 0.304221 0.503060
0.272789 0.326315 0.566187
0.588565 0.244756 0.546422
0.757476 0.268437 0.598908
0.830763 0.279071 0.622405
0.920643 0.301943 0.676190
0.975894 0.330717 0.732264
0.201444 0.358843 0.518216
0.239244 0.412792 0.578561
0.285660 0.438398 0.606197
0.435747 0.409432 0.607929
0.737491 0.337039 0.613399
0.822833 0.348562 0.638820
0.892790 0.364555 0.659794
0.951038 0.388309 0.683093
0.213361 0.515568 0.612839
0.249810 0.573754 0.661316
0.296461 0.603929 0.678029
0.423235 0.581785 0.652942
0.704995 0.501462 0.645194
0.813009 0.470570 0.638810
0.862419 0.480710 0.619724
0.931573 0.505038 0.633004
0.139269 0.653352 0.698633
0.206949 0.685786 0.729306
0.314207 0.708774 0.743781
0.433068 0.719292 0.731820
0.625837 0.705236 0.698262
0.808714 0.651458 0.447741
0.860023 0.640710 0.408296
0.926405 0.646349 0.403441
0.137585 0.734438 0.745159
0.274235 0.749794 0.755966
0.424108 0.767755 0.769091
0.555741 0.775546 0.764018
0.682470 0.772566 0.720192
0.808953 0.777119 0.389742
0.869606 0.781738 0.325388
0.928452 0.784326 0.337786
0.295326 0.788487 0.770837
0.427776 0.803567 0.774598
0.571186 0.811030 0.781269
0.682837 0.797246 0.730161
0.791860 0.815073 0.635614
0.850192 0.840929 0.343415
0.880739 0.863713 0.328234
0.923833 0.873623 0.369344
0.178223 0.227667 0.443225
0.215522 0.252055 0.500957
0.298947 0.188111 0.456282
0.526264 0.176002 0.472182
0.768347 0.230210 0.561703
0.899344 0.260054 0.653571
0.964871 0.282754 0.711600
0.985024 0.296091 0.761764
0.192017 0.271101 0.521732
0.232519 0.303734 0.597945
0.367056 0.260805 0.594403
0.670708 0.220829 0.590853
0.840988 0.253147 0.664484
0.912788 0.271069 0.710013
0.967639 0.296735 0.758165
0.990717 0.320894 0.800954
0.214712 0.333149 0.603033
0.257047 0.367450 0.643616
0.312098 0.395918 0.682116
0.637068 0.277514 0.669708
0.843385 0.288411 0.710660
0.905530 0.310345 0.750600
0.962939 0.333723 0.787043
0.981797 0.356042 0.808445
0.244056 0.423020 0.644917
0.290482 0.475723 0.687473
0.345325 0.519723 0.714719
0.467483 0.524248 0.734407
0.793536 0.389239 0.747004
0.899649 0.379548 0.766246
0.929247 0.399599 0.777058
0.956303 0.421808 0.772587
0.288051 0.588349 0.713472
0.338700 0.633248 0.745752
0.411849 0.669991 0.772338
0.513423 0.677367 0.778077
0.682293 0.648574 0.785814
0.860311 0.539595 0.767638
0.891699 0.528002 0.752553
0.933827 0.539558 0.744485
0.269656 0.706685 0.772428
0.355817 0.724409 0.782135
0.463830 0.745543 0.797250
0.588043 0.760947 0.810892
0.719003 0.759796 0.810630
0.793393 0.717659 0.771356
0.857882 0.667868 0.725043
0.922804 0.657349 0.710863
0.305632 0.767745 0.803078
0.424980 0.780597 0.809630
0.555132 0.790831 0.814981
0.662707 0.802580 0.818995
0.745310 0.808998 0.815699
0.792653 0.795997 0.749556
0.862469 0.788757 0.489888
0.928961 0.783366 0.484554
0.398371 0.801942 0.808562
0.530692 0.817534 0.814621
0.642792 0.822359 0.814612
0.737237 0.831775 0.822433
0.814598 0.840880 0.813849
0.849050 0.847519 0.686736
0.872914 0.864115 0.494087
0.919481 0.875108 0.480257
0.225018 0.291489 0.615520
0.259928 0.308684 0.654226
0.375415 0.238319 0.610406
0.635714 0.209423 0.603961
0.779617 0.240280 0.644657
0.902249 0.268297 0.724010
0.967931 0.291445 0.779454
0.990130 0.309579 0.816574
0.230849 0.321159 0.651960
0.273542 0.353432 0.704136
0.360167 0.373951 0.746335
0.670523 0.249962 0.694590
0.889973 0.277395 0.735465
0.949020 0.301677 0.781204
0.977811 0.320216 0.816888
0.989268 0.340795 0.850202
0.255416 0.386157 0.709191
0.301474 0.416969 0.733772
0.387636 0.473054 0.773229
0.657581 0.357946 0.773811
0.875764 0.333407 0.783907
0.957332 0.347530 0.817090
0.979805 0.370148 0.845251
0.987462 0.393777 0.861271
0.293418 0.491867 0.733120
0.356490 0.544043 0.763094
0.431074 0.588275 0.787945
0.555337 0.622625 0.821777
0.837894 0.473347 0.828226
0.947799 0.443568 0.839727
0.950784 0.460161 0.843299
0.963195 0.478420 0.847492
0.352687 0.642614 0.780110
0.421546 0.677980 0.801766
0.520659 0.702485 0.821085
0.623246 0.726066 0.840834
0.732204 0.733094 0.860324
0.879676 0.621587 0.845413
0.913815 0.584085 0.839246
0.941572 0.581717 0.834213
0.396329 0.742596 0.822311
0.492601 0.758117 0.827060
0.594023 0.769511 0.836297
0.680744 0.782740 0.845853
0.760563 0.796421 0.859751
0.809635 0.765936 0.855148
0.879265 0.702956 0.832877
0.933554 0.692607 0.831981
0.458857 0.797988 0.846178
0.568184 0.803927 0.844744
0.668004 0.811092 0.847502
0.743475 0.819479 0.852085
0.802283 0.826423 0.858575
0.832916 0.823934 0.851596
0.866062 0.815099 0.797330
0.930023 0.799806 0.743803
0.542731 0.828808 0.848001
0.628439 0.831544 0.843018
0.722969 0.838872 0.845843
0.785007 0.844760 0.850464
0.839135 0.859800 0.866404
0.873570 0.865651 0.861119
0.894583 0.874513 0.787162
0.931441 0.884037 0.706941
0.261218 0.329455 0.721092
0.307382 0.348891 0.754782
0.411505 0.304383 0.738677
0.690630 0.227683 0.693596
0.838260 0.264343 0.733677
0.918423 0.286127 0.786424
0.970926 0.305152 0.827893
0.984369 0.322811 0.861851
0.278953 0.370045 0.761442
0.334956 0.395159 0.789400
0.418245 0.415041 0.818426
0.689140 0.284109 0.769751
0.894459 0.303975 0.791887
0.953508 0.323140 0.827571
0.975329 0.345840 0.855714
0.986243 0.367080 0.880606
0.305014 0.434274 0.783149
0.372114 0.480823 0.803982
0.466913 0.524957 0.836993
0.611485 0.524991 0.862480
0.857615 0.390794 0.843940
0.957686 0.380385 0.855015
0.975311 0.409701 0.878889
0.983146 0.444045 0.894594
0.355474 0.550872 0.800555
0.429417 0.592782 0.818610
0.540838 0.643108 0.847656
0.653232 0.676007 0.874440
0.830686 0.578226 0.878756
0.934575 0.530023 0.878885
0.968072 0.534306 0.886735
0.975324 0.558877 0.897916
0.436231 0.685088 0.828023
0.522953 0.702714 0.843407
0.625187 0.731893 0.867718
0.708577 0.757518 0.888957
0.777846 0.763262 0.905288
0.900104 0.690701 0.897479
0.940922 0.655769 0.893978
0.964197 0.649640 0.901257
0.520043 0.765238 0.854226
0.610618 0.773095 0.864284
0.688402 0.788836 0.877023
0.751787 0.800152 0.888171
0.810059 0.813448 0.902274
0.857343 0.805433 0.908830
0.907335 0.765638 0.897219
0.950395 0.744332 0.904307
0.602077 0.815060 0.874362
0.675874 0.818743 0.873042
0.740873 0.825948 0.881393
0.801493 0.835880 0.890079
0.840114 0.841915 0.897341
0.878103 0.848895 0.906156
0.899918 0.846838 0.897233
0.940894 0.829642 0.893634
0.653791 0.844786 0.878419
0.723190 0.848410 0.878692
0.780480 0.853498 0.882381
0.824873 0.860199 0.884704
0.861727 0.868493 0.895961
0.895688 0.879282 0.904145
0.919001 0.891583 0.897466
0.944462 0.897766 0.881433
