其他预设/【236】赛博朋克风调色预设/【后期菌】视频调色预设/CUBE/Miami 04.cube
# LUT by SparkleStock. Enhanced with VOXCOLOR algorithms.
LUT_3D_SIZE 8
DOMAIN_MIN 0.000000 0.000000 0.000000
DOMAIN_MAX 0.903226 0.903226 0.903226
0.019550 0.003910 0.007820
0.040614 0.007820 0.031533
0.138366 0.025479 0.040110
0.486488 0.077192 0.039857
0.785293 0.132059 0.054867
0.844449 0.152367 0.103932
0.857819 0.164854 0.146817
0.867657 0.189449 0.184782
0.023460 0.012487 0.027623
0.089346 0.021617 0.048418
0.387614 0.069087 0.058968
0.758513 0.133776 0.072993
0.845393 0.162209 0.127645
0.864593 0.182260 0.196195
0.877621 0.205468 0.250147
0.877873 0.227565 0.273111
0.023460 0.038722 0.041623
0.112127 0.047706 0.072147
0.623121 0.122038 0.053972
0.816757 0.167433 0.076533
0.858714 0.195890 0.137125
0.877279 0.220677 0.206082
0.883102 0.248719 0.235715
0.885087 0.271207 0.166310
0.023460 0.107590 0.079589
0.066671 0.097479 0.070682
0.435515 0.157005 0.036383
0.783483 0.217682 0.022875
0.848680 0.246631 0.052206
0.871441 0.271569 0.089948
0.877662 0.288796 0.116505
0.884664 0.320984 0.115125
0.015640 0.251001 0.160817
0.044984 0.226544 0.100278
0.206001 0.247612 0.056633
0.635091 0.315637 0.007820
0.803045 0.350291 0.000000
0.853331 0.368535 0.001261
0.880246 0.396178 0.011856
0.897143 0.417942 0.032766
0.018163 0.436919 0.276984
0.093614 0.349302 0.117831
0.383634 0.409243 0.057715
0.727643 0.478115 0.008325
0.834810 0.495570 0.002523
0.880046 0.524328 0.006026
0.896683 0.541229 0.013370
0.915334 0.551637 0.030276
0.052092 0.607700 0.406773
0.169801 0.527383 0.160972
0.534678 0.580627 0.058456
0.763224 0.647769 0.022577
0.855247 0.673301 0.017394
0.897281 0.689779 0.016019
0.919497 0.693722 0.028001
0.931048 0.697864 0.037839
0.115788 0.698767 0.520291
0.305588 0.657624 0.174277
0.633228 0.708304 0.067810
0.792483 0.747616 0.044056
0.872246 0.770060 0.042535
0.908271 0.784219 0.043515
0.931028 0.787690 0.050904
0.942326 0.802821 0.075549
0.023965 0.008072 0.032290
0.047962 0.011999 0.047962
0.126473 0.022293 0.072684
0.483510 0.076436 0.093976
0.786237 0.130798 0.119251
0.848359 0.152196 0.192891
0.859837 0.172295 0.265815
0.873963 0.197281 0.324031
0.024201 0.017626 0.042128
0.103183 0.032653 0.088748
0.400809 0.076151 0.114354
0.750126 0.129936 0.145526
0.849437 0.163613 0.238095
0.873651 0.192853 0.328349
0.880604 0.218096 0.376270
0.885934 0.242566 0.412271
0.028127 0.058403 0.081074
0.060891 0.068416 0.110615
0.691389 0.135359 0.172516
0.833705 0.172096 0.250162
0.876514 0.207934 0.349413
0.885899 0.240757 0.409594
0.891968 0.275377 0.458092
0.891854 0.296470 0.475586
0.030573 0.142801 0.137328
0.044152 0.175642 0.183020
0.334300 0.170929 0.162583
0.822342 0.231542 0.149169
0.874988 0.261644 0.208892
0.888553 0.295151 0.256001
0.891867 0.324810 0.282410
0.900218 0.358510 0.305234
0.026679 0.303411 0.244890
0.037241 0.350463 0.299302
0.138982 0.316094 0.158776
0.571452 0.366234 0.036583
0.824414 0.397311 0.008512
0.863119 0.419629 0.013980
0.886303 0.449633 0.028310
0.900645 0.469118 0.051144
0.038047 0.504749 0.385835
0.053201 0.547771 0.423373
0.239087 0.475697 0.160311
0.711390 0.526494 0.017685
0.831813 0.559252 0.010676
0.880845 0.592837 0.014295
0.900792 0.602049 0.026138
0.920188 0.613718 0.050058
0.079813 0.649169 0.522114
0.101138 0.642759 0.457799
0.384439 0.621445 0.150057
0.759025 0.680913 0.040912
0.853545 0.705103 0.030604
0.897714 0.724827 0.033484
0.923309 0.739173 0.045089
0.928824 0.734289 0.057289
0.142227 0.716792 0.613502
0.222477 0.693635 0.403872
0.570341 0.730166 0.138895
0.793186 0.764055 0.062651
0.871375 0.787252 0.060093
0.905102 0.801450 0.066040
0.929492 0.814003 0.074430
0.940044 0.826039 0.109706
0.032290 0.013244 0.070003
0.053101 0.016649 0.082807
0.137536 0.032355 0.127201
0.465729 0.075117 0.170989
0.782897 0.123865 0.205476
0.851927 0.156781 0.302300
0.872840 0.186422 0.386328
0.879489 0.215863 0.435637
0.035728 0.036769 0.101731
0.078288 0.041936 0.135817
0.382094 0.075398 0.184469
0.758902 0.133267 0.242247
0.849522 0.165862 0.336358
0.875940 0.204053 0.420168
0.883471 0.237855 0.473582
0.883952 0.261263 0.506171
0.037144 0.075488 0.132243
0.074446 0.099139 0.197635
0.606114 0.125596 0.265317
0.830596 0.174470 0.353182
0.873658 0.220392 0.442506
0.884291 0.254426 0.500965
0.887106 0.281659 0.536139
0.885807 0.307697 0.556350
0.038848 0.183871 0.231658
0.058758 0.228117 0.291231
0.197772 0.243138 0.368040
0.832829 0.242785 0.426034
0.876670 0.284976 0.498524
0.885084 0.315281 0.528840
0.893479 0.354714 0.568400
0.897772 0.377111 0.523313
0.034926 0.350486 0.349697
0.051869 0.415511 0.435439
0.087803 0.462356 0.478972
0.456564 0.408388 0.268422
0.865708 0.405732 0.193845
0.887519 0.435706 0.217327
0.898663 0.470858 0.243924
0.910753 0.510516 0.182587
0.051173 0.557158 0.496489
0.072942 0.592929 0.558639
0.119812 0.622187 0.585845
0.458989 0.589976 0.188797
0.828651 0.602061 0.025446
0.882683 0.631048 0.035036
0.903269 0.651263 0.049013
0.915261 0.653795 0.072870
0.096743 0.672967 0.623052
0.131070 0.686602 0.640752
0.246235 0.697182 0.579067
0.651064 0.708146 0.162463
0.857191 0.737046 0.056012
0.897717 0.752361 0.056258
0.917404 0.757551 0.060304
0.926655 0.763828 0.080156
0.183549 0.744553 0.689157
0.279313 0.744048 0.650294
0.474776 0.737620 0.401834
0.752120 0.779526 0.152311
0.869085 0.803375 0.086167
0.905952 0.816232 0.095714
0.921170 0.825545 0.105303
0.936044 0.830049 0.150492
0.045281 0.032794 0.146691
0.075378 0.032998 0.166481
0.153685 0.037559 0.192476
0.475010 0.078686 0.246395
0.774503 0.120203 0.307187
0.849469 0.164561 0.398685
0.865513 0.202945 0.476735
0.875440 0.231125 0.516865
0.050355 0.059835 0.195182
0.097681 0.078574 0.274029
0.345342 0.078007 0.296672
0.750394 0.129976 0.340669
0.843846 0.174606 0.430630
0.867020 0.219074 0.504644
0.880571 0.262094 0.558098
0.880471 0.283380 0.577085
0.058175 0.114779 0.262593
0.094292 0.160412 0.352950
0.285693 0.172530 0.432386
0.803250 0.190328 0.452511
0.860540 0.236137 0.526062
0.872674 0.272096 0.570519
0.882906 0.312666 0.606068
0.883859 0.330823 0.619939
0.061678 0.243917 0.373556
0.087437 0.285562 0.432030
0.229083 0.334015 0.533838
0.754974 0.263488 0.526175
0.859782 0.300252 0.577664
0.881196 0.338860 0.612985
0.886885 0.376002 0.636116
0.886073 0.399295 0.646680
0.059705 0.415944 0.504911
0.084043 0.474869 0.576481
0.140668 0.529002 0.629438
0.352598 0.523305 0.621094
0.851024 0.419750 0.576034
0.883112 0.433523 0.572027
0.889243 0.471412 0.580052
0.894302 0.512914 0.577132
0.075805 0.599913 0.627039
0.110442 0.638726 0.686100
0.174339 0.670118 0.713222
0.300966 0.677202 0.671919
0.757182 0.655382 0.257101
0.890846 0.641732 0.149465
0.907270 0.671540 0.145483
0.920396 0.676694 0.180180
0.120581 0.702132 0.711852
0.172984 0.722478 0.728918
0.284887 0.730522 0.712673
0.469329 0.741726 0.653988
0.796284 0.756551 0.196783
0.894192 0.774142 0.088079
0.918124 0.776782 0.093613
0.927643 0.784785 0.116739
0.217845 0.756751 0.746734
0.337009 0.773923 0.746542
0.478715 0.775618 0.698588
0.679646 0.784005 0.511706
0.859514 0.809707 0.150005
0.907575 0.827266 0.126309
0.921775 0.829828 0.153142
0.931150 0.835603 0.220217
0.070507 0.056885 0.285183
0.109417 0.055050 0.310092
0.219086 0.059282 0.320756
0.473818 0.084565 0.353281
0.764111 0.127787 0.400467
0.839855 0.176730 0.489967
0.861110 0.226039 0.554575
0.877621 0.268175 0.598891
0.074735 0.103118 0.369447
0.107740 0.140176 0.435888
0.338151 0.116875 0.437380
0.740816 0.144842 0.443248
0.831323 0.193230 0.523585
0.857582 0.242998 0.572925
0.874191 0.284437 0.613330
0.883573 0.315699 0.635750
0.087026 0.187044 0.447245
0.119104 0.235626 0.524694
0.216640 0.292475 0.599737
0.696109 0.210369 0.547264
0.853715 0.265367 0.595247
0.867600 0.300678 0.625680
0.879960 0.340685 0.647092
0.883363 0.365517 0.666143
0.094920 0.321395 0.549428
0.142587 0.381406 0.613610
0.224473 0.434977 0.661468
0.479105 0.423968 0.664558
0.842654 0.336959 0.632546
0.877503 0.372563 0.663122
0.880942 0.403835 0.676723
0.884879 0.435839 0.691823
0.106211 0.487188 0.656993
0.164764 0.537709 0.693607
0.242140 0.590785 0.718802
0.428796 0.592270 0.717283
0.786420 0.505831 0.677644
0.867854 0.477148 0.664431
0.881197 0.502613 0.677075
0.885218 0.535874 0.692013
0.121928 0.642053 0.733823
0.179850 0.671929 0.758201
0.273884 0.694641 0.768697
0.398339 0.711262 0.758816
0.630373 0.714620 0.722137
0.867884 0.678467 0.412476
0.903543 0.669965 0.340730
0.915649 0.689400 0.341379
0.167262 0.730048 0.778987
0.239268 0.739867 0.778257
0.372461 0.758310 0.775457
0.511296 0.764280 0.753211
0.666157 0.775957 0.709098
0.858306 0.785289 0.312935
0.921296 0.786771 0.164418
0.930459 0.795525 0.174130
0.268643 0.772574 0.788467
0.384768 0.786587 0.781303
0.530179 0.795197 0.774733
0.671043 0.800505 0.713572
0.794597 0.813701 0.611964
0.888170 0.829373 0.268208
0.918262 0.835431 0.210904
0.926371 0.836951 0.306959
0.097499 0.106455 0.455082
0.141735 0.128446 0.503821
0.267646 0.103765 0.472915
0.534866 0.107749 0.460554
0.764974 0.149632 0.497714
0.835327 0.206408 0.563359
0.860309 0.256754 0.609071
0.878882 0.303215 0.648876
0.104392 0.167755 0.529678
0.150625 0.221533 0.596074
0.343419 0.188168 0.584304
0.678691 0.173073 0.552122
0.823818 0.223905 0.582695
0.851948 0.271356 0.622213
0.873630 0.316701 0.654003
0.879879 0.350897 0.675095
0.120854 0.273904 0.615341
0.169761 0.320722 0.659611
0.260662 0.375792 0.689081
0.664937 0.269789 0.626275
0.843457 0.297389 0.633332
0.866014 0.340131 0.662863
0.876828 0.369807 0.681860
0.883863 0.403186 0.702312
0.145791 0.399677 0.679461
0.207368 0.446649 0.709730
0.287709 0.502336 0.732626
0.457608 0.532962 0.743114
0.812623 0.407015 0.691081
0.870638 0.408203 0.695110
0.878733 0.441028 0.706360
0.883029 0.474526 0.718281
0.189941 0.557500 0.743186
0.262051 0.603373 0.760851
0.359259 0.640882 0.777220
0.478283 0.667106 0.783193
0.683703 0.653053 0.772348
0.856044 0.546565 0.729240
0.878142 0.548090 0.734259
0.882393 0.581521 0.746689
0.229278 0.686280 0.793813
0.317536 0.700481 0.797040
0.418379 0.722926 0.799000
0.536879 0.737999 0.797437
0.691836 0.746284 0.795249
0.808657 0.735718 0.769609
0.877929 0.697402 0.738314
0.891918 0.696273 0.739837
0.258821 0.746697 0.814885
0.361274 0.759221 0.811061
0.487758 0.767140 0.803318
0.608024 0.782596 0.797614
0.704118 0.794847 0.796336
0.796765 0.794397 0.745322
0.900403 0.793570 0.418362
0.926344 0.790960 0.399353
0.333157 0.784471 0.812285
0.457051 0.795518 0.806015
0.584307 0.801828 0.798386
0.693242 0.814910 0.802158
0.776299 0.824912 0.785346
0.854103 0.830613 0.662930
0.906233 0.837192 0.444075
0.922433 0.840770 0.424652
0.138997 0.185665 0.604673
0.187317 0.220237 0.638769
0.342735 0.168934 0.595523
0.629997 0.157709 0.565914
0.760457 0.183281 0.575297
0.830843 0.246367 0.623609
0.863287 0.303940 0.660297
0.879765 0.349078 0.685975
0.144351 0.255656 0.651077
0.206544 0.305544 0.686217
0.318213 0.342597 0.704943
0.644428 0.244235 0.640432
0.823367 0.274171 0.640614
0.851107 0.313506 0.664446
0.869903 0.357770 0.689609
0.880241 0.395804 0.713378
0.174130 0.355898 0.708101
0.237671 0.397214 0.724702
0.348681 0.458262 0.751081
0.633688 0.373795 0.705849
0.815452 0.347215 0.684613
0.862652 0.380066 0.699420
0.876681 0.414200 0.717113
0.881701 0.443240 0.732116
0.210761 0.473489 0.750941
0.299367 0.528985 0.771299
0.393880 0.573039 0.780071
0.520838 0.604669 0.789964
0.789396 0.479472 0.744467
0.867607 0.460803 0.732292
0.877737 0.489569 0.739061
0.884709 0.527593 0.755380
0.278876 0.614739 0.792837
0.372075 0.645931 0.803382
0.461332 0.673956 0.810528
0.571514 0.703534 0.818233
0.693459 0.713406 0.818409
0.845059 0.620118 0.778136
0.881809 0.601369 0.770834
0.883812 0.617725 0.776020
0.354771 0.712735 0.819821
0.442507 0.732925 0.822754
0.541500 0.745767 0.823631
0.633332 0.760068 0.826453
0.717349 0.773229 0.828348
0.791297 0.772625 0.821718
0.870377 0.730241 0.796488
0.889772 0.724633 0.798775
0.404324 0.768518 0.838268
0.498427 0.774311 0.827071
0.599113 0.785722 0.822570
0.683974 0.795193 0.820407
0.751290 0.806908 0.825700
0.807797 0.811697 0.821684
0.862389 0.811535 0.768525
0.905264 0.799273 0.702757
0.452433 0.799241 0.837186
0.553119 0.803674 0.824330
0.658497 0.813979 0.821642
0.734859 0.824927 0.824585
0.795998 0.836656 0.830740
0.834501 0.840493 0.822084
0.880913 0.845278 0.746821
0.912899 0.846081 0.662057
0.183016 0.268281 0.686658
0.244922 0.297417 0.704443
0.371497 0.278978 0.687090
0.664703 0.213703 0.633036
0.785895 0.247693 0.640515
0.833723 0.301006 0.671393
0.864272 0.347984 0.698608
0.879765 0.394579 0.718696
0.205936 0.340656 0.723464
0.276543 0.381579 0.739507
0.387499 0.410641 0.745734
0.653511 0.319572 0.695504
0.820583 0.327002 0.684513
0.853685 0.364349 0.703169
0.874793 0.404864 0.728033
0.881618 0.432072 0.739065
0.240207 0.430490 0.758277
0.327519 0.480954 0.773619
0.429968 0.523869 0.782498
0.568474 0.526107 0.777288
0.794669 0.424189 0.734393
0.862392 0.428018 0.729088
0.876514 0.458959 0.746875
0.883288 0.492900 0.760279
0.294716 0.538979 0.790790
0.387559 0.583273 0.799257
0.500407 0.629035 0.812550
0.610891 0.655508 0.819248
0.776226 0.582779 0.795822
0.859295 0.533322 0.770657
0.883411 0.548866 0.773935
0.892065 0.573674 0.784094
0.380326 0.654186 0.819572
0.464069 0.678556 0.824121
0.570089 0.709196 0.835138
0.659985 0.730864 0.840228
0.727170 0.742808 0.841121
0.839524 0.681806 0.816008
0.882861 0.659529 0.801022
0.892793 0.666763 0.804978
0.457978 0.733075 0.838329
0.549171 0.745203 0.839896
0.627779 0.758512 0.841893
0.697547 0.773328 0.845739
0.756711 0.787560 0.849185
0.805990 0.791844 0.847948
0.869661 0.767942 0.833389
0.896773 0.756566 0.832653
0.529877 0.783381 0.847854
0.608172 0.789551 0.845511
0.678831 0.795042 0.843184
0.742890 0.807616 0.850293
0.783884 0.814709 0.849537
0.825365 0.823897 0.850116
0.860126 0.828638 0.845157
0.895701 0.820185 0.833667
0.577982 0.809596 0.849453
0.659417 0.817016 0.842482
0.725358 0.823059 0.847388
0.773419 0.829243 0.848191
0.814847 0.838183 0.850291
0.848662 0.847175 0.855251
0.873545 0.853939 0.846070
0.896507 0.858205 0.830183
