其他预设/【236】赛博朋克风调色预设/【后期菌】视频调色预设/CUBE/Miami 10_S.cube
# LUT by SparkleStock. Enhanced with VOXCOLOR algorithms.
LUT_3D_SIZE 5
DOMAIN_MIN 0.000000 0.000000 0.000000
DOMAIN_MAX 0.903226 0.903226 0.903226
0.019550 0.019550 0.015640
0.113518 0.045660 0.045660
0.511967 0.139501 0.130420
0.622458 0.174061 0.191089
0.666099 0.206855 0.239902
0.031281 0.038470 0.033677
0.398847 0.137223 0.119906
0.566492 0.200260 0.151720
0.668361 0.237757 0.210631
0.708784 0.297682 0.262430
0.067859 0.178854 0.125753
0.284446 0.190417 0.079654
0.551246 0.308537 0.103407
0.663292 0.339134 0.113880
0.720441 0.356028 0.161196
0.087913 0.519282 0.360735
0.505152 0.396361 0.088654
0.664207 0.408161 0.100653
0.729315 0.424204 0.109278
0.768518 0.440670 0.123609
0.187431 0.715164 0.564690
0.676348 0.566488 0.114128
0.717813 0.531497 0.109588
0.765556 0.534955 0.113046
0.794163 0.550392 0.118519
0.031281 0.027370 0.032163
0.129545 0.055921 0.069958
0.506454 0.129736 0.192224
0.655756 0.177585 0.302202
0.715595 0.257540 0.405313
0.043894 0.057434 0.062272
0.357483 0.159880 0.196962
0.548618 0.231727 0.297753
0.688459 0.257500 0.341764
0.774710 0.329446 0.446687
0.064506 0.291001 0.231793
0.175576 0.377541 0.310586
0.549037 0.380513 0.285601
0.683120 0.414469 0.309227
0.777371 0.445006 0.335968
0.074519 0.604344 0.506567
0.261723 0.618539 0.532692
0.637849 0.492506 0.136411
0.724593 0.504874 0.137373
0.806401 0.530568 0.157107
0.293760 0.716552 0.631055
0.532773 0.660127 0.481665
0.722622 0.551426 0.122921
0.769418 0.563935 0.127312
0.808190 0.620233 0.161147
0.067859 0.059156 0.103175
0.218028 0.091824 0.153880
0.555283 0.178329 0.331632
0.682984 0.234067 0.436556
0.735512 0.299078 0.498007
0.120276 0.142134 0.236895
0.315409 0.240843 0.403733
0.577677 0.260986 0.453303
0.700683 0.294769 0.483956
0.781319 0.389992 0.556771
0.179896 0.347589 0.405252
0.291470 0.452425 0.493548
0.564312 0.452477 0.510893
0.702278 0.458987 0.515787
0.819226 0.499366 0.548322
0.231072 0.592406 0.585359
0.376990 0.638572 0.625123
0.523348 0.668832 0.621285
0.719247 0.568657 0.286530
0.825454 0.585902 0.300878
0.397586 0.718232 0.670449
0.538433 0.736976 0.694913
0.694761 0.704815 0.555142
0.751984 0.628285 0.198107
0.824459 0.710853 0.323785
0.202945 0.176205 0.374484
0.431129 0.227870 0.467866
0.618344 0.253288 0.450716
0.703938 0.295501 0.516158
0.751144 0.364743 0.575948
0.256339 0.281289 0.469115
0.413250 0.374221 0.555360
0.658590 0.345635 0.559148
0.729574 0.404317 0.608053
0.778848 0.478277 0.643951
0.311906 0.464733 0.545945
0.456231 0.549904 0.616489
0.608214 0.604987 0.682470
0.740964 0.554852 0.670359
0.816370 0.546869 0.677951
0.411794 0.616452 0.643192
0.548543 0.658896 0.681341
0.649284 0.696885 0.713519
0.710661 0.694157 0.702213
0.826887 0.676689 0.690183
0.518814 0.715575 0.710721
0.611607 0.733556 0.722085
0.688028 0.750329 0.738245
0.744449 0.760584 0.673965
0.824507 0.756717 0.553332
0.342572 0.260839 0.522436
0.541970 0.315003 0.601805
0.662295 0.304733 0.540220
0.718981 0.369251 0.587711
0.766792 0.439185 0.637972
0.388224 0.399470 0.588813
0.526800 0.494365 0.652163
0.707741 0.520948 0.694163
0.752095 0.505915 0.664776
0.782983 0.558711 0.697479
0.476544 0.569462 0.651468
0.602411 0.632572 0.706986
0.682760 0.668479 0.742614
0.770819 0.643689 0.730275
0.802553 0.637024 0.744661
0.567997 0.661119 0.704414
0.648433 0.695553 0.733894
0.708963 0.721092 0.764077
0.752408 0.740469 0.778866
0.815322 0.717679 0.786335
0.621917 0.720462 0.738246
0.678971 0.743276 0.756410
0.726234 0.761137 0.770543
0.768142 0.781285 0.788308
0.810623 0.794659 0.779328
