其他预设/【236】赛博朋克风调色预设/【后期菌】视频调色预设/CUBE/Miami 06_S.cube
# LUT by SparkleStock. Enhanced with VOXCOLOR algorithms.
LUT_3D_SIZE 5
DOMAIN_MIN 0.000000 0.000000 0.000000
DOMAIN_MAX 0.903226 0.903226 0.903226
0.019550 0.019550 0.035191
0.132186 0.056507 0.091697
0.643395 0.176458 0.142150
0.895658 0.232712 0.215180
0.974994 0.257686 0.249866
0.036704 0.077571 0.081481
0.413112 0.153359 0.130932
0.736139 0.229433 0.161826
0.877967 0.250993 0.206469
0.973859 0.285541 0.239893
0.016902 0.190458 0.145177
0.209805 0.200276 0.102923
0.661505 0.315096 0.100002
0.842272 0.342035 0.121355
0.961604 0.360357 0.165590
0.000000 0.446252 0.270678
0.347044 0.383362 0.124752
0.788589 0.532087 0.173414
0.899792 0.551067 0.156427
0.965409 0.566044 0.151577
0.031154 0.704065 0.491786
0.574141 0.641768 0.204438
0.833097 0.751763 0.244695
0.936052 0.786713 0.248479
0.973400 0.815561 0.257556
0.049317 0.064327 0.095607
0.135554 0.067696 0.132906
0.584655 0.153880 0.216116
0.870297 0.221234 0.317464
0.978453 0.294842 0.444202
0.066768 0.117851 0.146691
0.353981 0.169698 0.227349
0.655823 0.240243 0.303053
0.821501 0.259981 0.363325
0.968830 0.307329 0.505485
0.041046 0.259541 0.255469
0.121876 0.341348 0.304992
0.644835 0.355584 0.270913
0.805033 0.377078 0.292882
0.952031 0.401276 0.292813
0.003027 0.572038 0.473464
0.050023 0.606618 0.498576
0.709950 0.617296 0.199674
0.852569 0.650022 0.191294
0.936871 0.661362 0.189087
0.101226 0.747905 0.650174
0.390076 0.682347 0.411909
0.821159 0.769026 0.254028
0.918733 0.826694 0.268941
0.947790 0.854844 0.269133
0.099139 0.120455 0.209630
0.178980 0.100795 0.225665
0.616521 0.185067 0.356374
0.900264 0.250371 0.528160
0.981533 0.292877 0.652290
0.133068 0.213971 0.336734
0.240672 0.258107 0.450752
0.688005 0.243128 0.502141
0.839624 0.261462 0.566246
0.974612 0.312342 0.692927
0.186442 0.386604 0.493543
0.245158 0.480955 0.569064
0.619474 0.388740 0.547610
0.813967 0.389856 0.574306
0.938445 0.427705 0.608758
0.078238 0.654589 0.676759
0.214827 0.698558 0.708353
0.456085 0.710257 0.659903
0.827666 0.676273 0.290913
0.926024 0.686907 0.300505
0.236997 0.778755 0.739719
0.492613 0.803452 0.758544
0.732519 0.785301 0.552140
0.871498 0.845137 0.291882
0.924754 0.871420 0.333672
0.194368 0.247848 0.501750
0.287799 0.239491 0.536892
0.681080 0.210419 0.545330
0.919851 0.267801 0.690874
0.987953 0.301234 0.781228
0.219090 0.331229 0.619976
0.311472 0.383409 0.691720
0.802405 0.277285 0.697937
0.938990 0.312496 0.778299
0.991068 0.356499 0.830566
0.281574 0.519994 0.698108
0.381491 0.606180 0.755939
0.589226 0.625218 0.789703
0.910970 0.460502 0.793647
0.945910 0.485864 0.778218
0.301230 0.734613 0.794627
0.495245 0.766211 0.815999
0.692517 0.787745 0.830636
0.805391 0.740688 0.779701
0.926758 0.693885 0.740467
0.430335 0.810015 0.819759
0.634741 0.825205 0.822100
0.787370 0.841448 0.835662
0.861858 0.853605 0.724109
0.921734 0.876607 0.513853
0.261218 0.329455 0.721092
0.371794 0.327835 0.747873
0.786408 0.250769 0.713463
0.933656 0.291270 0.798728
0.984369 0.322811 0.861851
0.297104 0.413670 0.779324
0.425159 0.486170 0.825528
0.758049 0.381057 0.828312
0.965432 0.369506 0.857432
0.984150 0.420166 0.892280
0.394241 0.626368 0.813148
0.559075 0.685841 0.851039
0.719994 0.717243 0.889384
0.933604 0.603286 0.885574
0.970108 0.605937 0.896701
0.533975 0.779365 0.861192
0.681643 0.793509 0.875848
0.792804 0.816054 0.896823
0.869078 0.817217 0.908230
0.950395 0.767245 0.908127
0.653791 0.844786 0.878419
0.768029 0.852814 0.881394
0.845568 0.864736 0.891489
0.902330 0.882819 0.908377
0.944462 0.897766 0.881433
