其他预设/【236】赛博朋克风调色预设/【后期菌】视频调色预设/CUBE/Miami 04.cube
# LUT by SparkleStock. Enhanced with VOXCOLOR algorithms.
LUT_3D_SIZE 32
0.019550 0.003910 0.007820
0.023587 0.005928 0.015893
0.027749 0.007820 0.023713
0.033803 0.007820 0.027749
0.040614 0.007820 0.031533
0.052723 0.007820 0.033551
0.068237 0.009334 0.035569
0.098508 0.017406 0.037587
0.138366 0.025479 0.040110
0.206981 0.033551 0.044146
0.284426 0.044146 0.045660
0.381295 0.060291 0.041623
0.486488 0.077192 0.039857
0.605556 0.095355 0.041876
0.695488 0.110869 0.044777
0.747958 0.122978 0.048813
0.785293 0.132059 0.054867
0.807492 0.138114 0.062939
0.824015 0.143033 0.074417
0.836124 0.147069 0.088544
0.844449 0.152367 0.103932
0.850503 0.158421 0.120077
0.853782 0.160313 0.130672
0.855800 0.160313 0.138744
0.857819 0.164854 0.146817
0.859837 0.170908 0.154889
0.861855 0.178602 0.164601
0.863873 0.186674 0.174692
0.867657 0.189449 0.184782
0.871693 0.191467 0.194873
0.871945 0.197269 0.197395
0.871945 0.203324 0.199413
0.019550 0.005928 0.013874
0.026711 0.006905 0.020905
0.033933 0.007885 0.027749
0.042071 0.008927 0.031785
0.051486 0.010229 0.035699
0.069844 0.013354 0.038759
0.092780 0.017406 0.041623
0.135550 0.025479 0.043641
0.188428 0.034593 0.045643
0.271626 0.046831 0.047596
0.363653 0.060291 0.048329
0.475104 0.076436 0.046376
0.578084 0.092165 0.045521
0.666945 0.107203 0.046498
0.734873 0.120504 0.051547
0.775886 0.131571 0.061833
0.805409 0.140132 0.072574
0.823442 0.146186 0.083771
0.836384 0.150519 0.096031
0.845368 0.153514 0.109116
0.851870 0.158421 0.125415
0.856883 0.164475 0.143643
0.858404 0.167799 0.153457
0.858339 0.169883 0.159446
0.859837 0.174944 0.167779
0.861855 0.180998 0.176893
0.864719 0.186153 0.188493
0.867779 0.191101 0.200667
0.870782 0.196220 0.210106
0.873776 0.201362 0.219155
0.873963 0.206383 0.219660
0.873963 0.211396 0.219594
0.019676 0.007946 0.019803
0.029702 0.008011 0.025857
0.039756 0.008199 0.031785
0.050237 0.010217 0.035821
0.062549 0.012756 0.039874
0.087677 0.018940 0.044040
0.118482 0.025503 0.047779
0.173882 0.033706 0.049667
0.239893 0.043910 0.051083
0.337739 0.060120 0.051083
0.443640 0.076309 0.051144
0.567265 0.092454 0.051339
0.666917 0.107061 0.051510
0.726614 0.119105 0.051641
0.773237 0.130237 0.058834
0.803053 0.140197 0.075109
0.824927 0.148139 0.090375
0.838858 0.154063 0.104632
0.848285 0.157863 0.117717
0.854210 0.160012 0.129891
0.858994 0.164642 0.147110
0.863096 0.170761 0.167356
0.863079 0.175449 0.176502
0.861192 0.179485 0.180604
0.862233 0.185035 0.189392
0.864251 0.191089 0.199743
0.867750 0.193917 0.212739
0.871591 0.196000 0.226345
0.873837 0.203324 0.235166
0.875855 0.211396 0.243303
0.875981 0.215623 0.241981
0.875981 0.219594 0.240028
0.021695 0.009964 0.023839
0.030678 0.011071 0.029893
0.040146 0.012235 0.035821
0.056877 0.014253 0.039857
0.076480 0.017052 0.044170
0.116191 0.025320 0.050420
0.161578 0.033966 0.055461
0.231561 0.044252 0.055266
0.312415 0.056279 0.055119
0.425884 0.073530 0.055119
0.535041 0.090436 0.056157
0.634709 0.106581 0.059477
0.714310 0.120797 0.062382
0.760466 0.131799 0.064595
0.796283 0.141434 0.073872
0.818807 0.149311 0.092230
0.835473 0.155170 0.109580
0.846280 0.159011 0.125920
0.853168 0.163071 0.140502
0.857009 0.167303 0.153717
0.861664 0.173365 0.171978
0.866806 0.180526 0.193266
0.868548 0.185539 0.203454
0.868743 0.189575 0.208597
0.870306 0.195125 0.220770
0.872324 0.201179 0.235288
0.873284 0.204853 0.242294
0.874000 0.207978 0.247567
0.875855 0.215432 0.256258
0.877873 0.223505 0.265437
0.878000 0.226755 0.265156
0.878000 0.229685 0.264245
0.023460 0.012487 0.027623
0.031533 0.014375 0.033547
0.040496 0.016279 0.039369
0.062826 0.018427 0.043666
0.089346 0.021617 0.048418
0.145201 0.032098 0.056360
0.206636 0.042933 0.062435
0.292242 0.055302 0.060417
0.387614 0.069087 0.058968
0.512280 0.087120 0.059229
0.621851 0.104441 0.061300
0.698214 0.120195 0.067354
0.758513 0.133776 0.072993
0.792039 0.143737 0.077941
0.817790 0.151988 0.089268
0.833544 0.158042 0.108798
0.845393 0.162209 0.127645
0.853335 0.164487 0.145808
0.858018 0.168890 0.162213
0.860166 0.174944 0.177251
0.864593 0.182260 0.196195
0.870387 0.190332 0.217483
0.873585 0.195719 0.228566
0.875603 0.199885 0.235011
0.877621 0.205468 0.250147
0.879639 0.211522 0.268179
0.878378 0.216042 0.268651
0.876360 0.220209 0.265071
0.877873 0.227565 0.273111
0.879892 0.235377 0.282811
0.880140 0.238124 0.283661
0.880270 0.240532 0.283921
0.023460 0.018541 0.029641
0.031533 0.019388 0.034523
0.040561 0.020380 0.039499
0.063932 0.023570 0.045879
0.094749 0.028062 0.052324
0.177686 0.041668 0.059225
0.265421 0.055433 0.064453
0.373943 0.069885 0.062435
0.481553 0.084972 0.061507
0.586429 0.101963 0.063851
0.676535 0.117591 0.067354
0.734149 0.130220 0.073408
0.780386 0.141458 0.081782
0.807663 0.150377 0.094021
0.828532 0.158042 0.107171
0.841161 0.164097 0.121493
0.850926 0.169305 0.137735
0.857827 0.173666 0.155898
0.862640 0.178980 0.176405
0.865830 0.185035 0.198734
0.869345 0.192350 0.215855
0.873056 0.200423 0.229852
0.875603 0.206526 0.240805
0.877621 0.211734 0.250375
0.879639 0.217576 0.265510
0.881657 0.223631 0.282501
0.880396 0.228997 0.272623
0.878378 0.234205 0.256543
0.879892 0.239869 0.260286
0.881910 0.245598 0.266861
0.883134 0.251144 0.269469
0.884306 0.256677 0.271813
0.023460 0.024596 0.032037
0.031338 0.024791 0.036074
0.040297 0.025214 0.040386
0.065491 0.029055 0.048849
0.100506 0.034409 0.056962
0.204276 0.050359 0.062626
0.313196 0.066492 0.066666
0.444438 0.083418 0.063672
0.564629 0.100099 0.062581
0.651667 0.116049 0.067204
0.724445 0.130106 0.072090
0.765849 0.140002 0.077559
0.799831 0.149286 0.087714
0.821444 0.157554 0.105682
0.837931 0.164854 0.120459
0.847826 0.170908 0.131136
0.855703 0.176864 0.145263
0.861562 0.182723 0.162839
0.866505 0.188802 0.186202
0.870737 0.195052 0.214065
0.873585 0.202319 0.229681
0.875603 0.210196 0.237949
0.877487 0.216820 0.248051
0.879310 0.222874 0.258988
0.881425 0.229221 0.274124
0.883639 0.235666 0.290659
0.882573 0.241635 0.271650
0.880750 0.247494 0.244438
0.881946 0.251758 0.242347
0.883574 0.255794 0.243844
0.885384 0.263248 0.247539
0.887207 0.270930 0.251380
0.023460 0.030650 0.036074
0.030296 0.031887 0.040110
0.038604 0.033221 0.044553
0.069006 0.036021 0.055099
0.107797 0.040334 0.064774
0.205317 0.055241 0.068355
0.313261 0.071309 0.069726
0.466376 0.092401 0.061524
0.600629 0.111948 0.057308
0.678293 0.126855 0.065055
0.742998 0.139871 0.071114
0.779194 0.148725 0.073457
0.808749 0.157749 0.081269
0.827238 0.167059 0.098195
0.841511 0.174944 0.113754
0.850365 0.180998 0.127555
0.857200 0.186434 0.141682
0.862018 0.191252 0.156134
0.867091 0.197460 0.176958
0.872364 0.204752 0.202738
0.875603 0.211758 0.218223
0.877621 0.218594 0.227533
0.878789 0.224892 0.233664
0.879570 0.230946 0.238351
0.882207 0.238856 0.253487
0.885462 0.247384 0.272106
0.885437 0.252897 0.249256
0.884656 0.257715 0.216836
0.884160 0.261848 0.202245
0.883704 0.265885 0.190202
0.884408 0.271386 0.192073
0.885189 0.276984 0.194873
0.023460 0.038722 0.041623
0.029775 0.040220 0.045920
0.037791 0.041766 0.050656
0.071317 0.044044 0.061983
0.112127 0.047706 0.072147
0.203918 0.061052 0.074165
0.310039 0.076387 0.073486
0.478257 0.100344 0.061117
0.623121 0.122038 0.053972
0.697921 0.136946 0.062500
0.759273 0.149881 0.068689
0.791042 0.158474 0.069730
0.816757 0.167433 0.076533
0.832381 0.177003 0.092938
0.844587 0.184921 0.108546
0.852399 0.190715 0.123129
0.858714 0.195890 0.137125
0.863531 0.200447 0.150536
0.868605 0.206542 0.168853
0.873878 0.213833 0.190987
0.877279 0.220677 0.206082
0.879558 0.227252 0.216954
0.880270 0.233648 0.220709
0.880270 0.239963 0.221230
0.883102 0.248719 0.235715
0.886878 0.258288 0.254854
0.887374 0.263362 0.228717
0.887114 0.267398 0.192130
0.885087 0.271207 0.166310
0.882809 0.274982 0.142028
0.882911 0.279002 0.141182
0.883171 0.283039 0.141898
0.023460 0.052849 0.051714
0.030817 0.052263 0.057052
0.039613 0.051921 0.062569
0.070015 0.055241 0.070772
0.107570 0.059424 0.078201
0.195194 0.069645 0.080219
0.296954 0.082246 0.079345
0.459964 0.105161 0.065934
0.605088 0.126855 0.056446
0.696554 0.144888 0.058724
0.768713 0.160622 0.061918
0.798399 0.171298 0.067126
0.822030 0.180779 0.076924
0.835571 0.188265 0.094371
0.846149 0.194555 0.107830
0.852920 0.199308 0.116163
0.860276 0.205004 0.129639
0.868218 0.211644 0.148257
0.872901 0.216893 0.164166
0.875050 0.221059 0.177967
0.877930 0.228033 0.191890
0.881250 0.236691 0.205887
0.882288 0.244455 0.212051
0.882288 0.251811 0.214655
0.884339 0.259265 0.226536
0.887073 0.266751 0.241509
0.886528 0.271434 0.213744
0.885226 0.275471 0.176116
0.882158 0.278368 0.142874
0.878838 0.281102 0.110259
0.879851 0.285057 0.104009
0.881153 0.289093 0.099518
0.023460 0.068237 0.061174
0.031207 0.066870 0.065926
0.040093 0.065718 0.070699
0.066068 0.067802 0.075776
0.098944 0.070633 0.080350
0.180124 0.078706 0.081391
0.275060 0.089488 0.079650
0.429607 0.112013 0.065849
0.572388 0.133870 0.054668
0.679868 0.153725 0.051348
0.763708 0.171160 0.051283
0.795542 0.183269 0.058378
0.820712 0.193229 0.069014
0.834773 0.199609 0.085550
0.845474 0.205106 0.097044
0.851854 0.209467 0.102056
0.859763 0.215847 0.114360
0.869203 0.224245 0.133955
0.873882 0.229237 0.147618
0.874858 0.231581 0.156667
0.877747 0.238360 0.169541
0.881783 0.247799 0.184709
0.882821 0.255627 0.192224
0.882496 0.262723 0.196260
0.883928 0.268794 0.205862
0.885946 0.274523 0.217320
0.885478 0.280199 0.194661
0.884436 0.285862 0.164129
0.880774 0.288051 0.126192
0.876738 0.289744 0.087197
0.878378 0.294244 0.075361
0.880396 0.298931 0.065336
0.023460 0.086400 0.069246
0.030166 0.087116 0.069832
0.037620 0.087527 0.070503
0.056303 0.083361 0.072456
0.081367 0.080724 0.073905
0.151089 0.088796 0.071822
0.233786 0.099774 0.067737
0.372710 0.123340 0.054977
0.507418 0.145718 0.043536
0.629480 0.164532 0.036049
0.726927 0.181251 0.032143
0.770218 0.193359 0.036114
0.804892 0.203710 0.042844
0.825203 0.211131 0.054171
0.839875 0.217670 0.064103
0.847297 0.223073 0.072241
0.854686 0.230495 0.081941
0.862042 0.239934 0.093203
0.867567 0.245968 0.104978
0.871669 0.249353 0.117152
0.875729 0.255220 0.129244
0.879765 0.262577 0.141287
0.880087 0.267606 0.147826
0.878720 0.271577 0.151862
0.879892 0.276085 0.159902
0.881910 0.280772 0.169276
0.883981 0.290484 0.166538
0.886064 0.301356 0.161004
0.882793 0.303285 0.124369
0.878756 0.303936 0.083291
0.880396 0.310324 0.065466
0.882414 0.317094 0.049191
0.023460 0.107590 0.079589
0.028734 0.108827 0.076008
0.034511 0.109555 0.072603
0.047857 0.102655 0.071822
0.066671 0.097479 0.070682
0.123763 0.104380 0.067037
0.192611 0.114088 0.061658
0.312395 0.135961 0.048768
0.435515 0.157005 0.036383
0.568644 0.175558 0.025511
0.678501 0.192586 0.018423
0.737156 0.206257 0.019660
0.783483 0.217682 0.022875
0.809262 0.225364 0.029385
0.828662 0.232505 0.036777
0.839859 0.238950 0.045306
0.848680 0.246631 0.052206
0.855125 0.255550 0.057479
0.861131 0.261942 0.066854
0.866794 0.266369 0.079418
0.871441 0.271569 0.089948
0.875477 0.277232 0.099257
0.876425 0.281195 0.105210
0.875969 0.284385 0.109637
0.877662 0.288796 0.116505
0.880071 0.293613 0.124186
0.883167 0.305042 0.133191
0.886422 0.317997 0.142500
0.884664 0.320984 0.115125
0.882190 0.322546 0.082510
0.883562 0.328747 0.060820
0.885189 0.335257 0.039857
0.023460 0.133825 0.093716
0.026650 0.132979 0.085969
0.030345 0.131950 0.078527
0.041607 0.128174 0.075662
0.056775 0.125342 0.072831
0.099286 0.129118 0.070227
0.151598 0.135115 0.065303
0.246383 0.150739 0.050330
0.352057 0.167356 0.035862
0.490394 0.186951 0.022907
0.610666 0.205997 0.013736
0.691195 0.223834 0.012890
0.752755 0.237473 0.013240
0.782701 0.244113 0.015583
0.808090 0.251123 0.018810
0.827620 0.258610 0.023172
0.841129 0.265250 0.026947
0.848615 0.271044 0.030137
0.854490 0.276655 0.036257
0.859112 0.282123 0.044655
0.863368 0.287062 0.052320
0.867405 0.291685 0.059546
0.871217 0.297470 0.065564
0.874928 0.303785 0.071032
0.878443 0.310539 0.077379
0.881893 0.317440 0.084020
0.883492 0.326721 0.091136
0.884664 0.336551 0.098362
0.886292 0.342792 0.093512
0.887984 0.348521 0.086937
0.888639 0.351076 0.064921
0.889225 0.353420 0.041876
0.021695 0.166241 0.111374
0.023713 0.162856 0.099916
0.026235 0.159613 0.088894
0.036326 0.158506 0.084402
0.048988 0.157505 0.079935
0.079650 0.157245 0.075638
0.118246 0.159304 0.069376
0.191223 0.171412 0.054599
0.280019 0.185311 0.039642
0.416274 0.204581 0.024148
0.539671 0.223993 0.012581
0.634782 0.243718 0.009651
0.709240 0.259000 0.007820
0.749277 0.266877 0.007820
0.783190 0.274840 0.008105
0.809230 0.282912 0.008756
0.828109 0.289422 0.009863
0.839827 0.294370 0.011425
0.847480 0.299171 0.014745
0.851972 0.303858 0.019432
0.856748 0.308708 0.024404
0.861696 0.313656 0.029547
0.867405 0.320125 0.034690
0.873459 0.327286 0.039833
0.878683 0.335472 0.045318
0.883631 0.344001 0.050916
0.884929 0.350677 0.056885
0.885384 0.356927 0.062939
0.888973 0.365569 0.070361
0.893009 0.374553 0.077978
0.893261 0.375114 0.061304
0.893261 0.375114 0.043011
0.017658 0.206603 0.133573
0.019676 0.200093 0.118991
0.022199 0.194051 0.104974
0.032290 0.195027 0.099440
0.043910 0.195198 0.093410
0.066239 0.189730 0.083906
0.094745 0.187557 0.073998
0.150015 0.199666 0.062345
0.222666 0.213044 0.048951
0.347463 0.230230 0.030333
0.464611 0.247885 0.015966
0.564930 0.266568 0.010953
0.649283 0.282762 0.007820
0.707027 0.294805 0.007820
0.752723 0.305111 0.006738
0.782929 0.313184 0.004264
0.808058 0.320735 0.003288
0.828109 0.327766 0.003808
0.839993 0.331721 0.004915
0.845527 0.333283 0.006477
0.851996 0.338264 0.008976
0.859027 0.345294 0.012035
0.865386 0.350983 0.015095
0.871441 0.356060 0.018155
0.878227 0.364507 0.022337
0.885258 0.374077 0.026894
0.887793 0.377564 0.032668
0.889290 0.379647 0.038722
0.893009 0.389591 0.045232
0.897045 0.400658 0.051807
0.897298 0.401350 0.047763
0.897298 0.401350 0.043011
0.015640 0.251001 0.160817
0.018700 0.236679 0.138423
0.022232 0.223378 0.116920
0.032843 0.225397 0.108782
0.044984 0.226544 0.100278
0.067834 0.221596 0.089211
0.095005 0.220042 0.078425
0.140901 0.233192 0.068855
0.206001 0.247612 0.056633
0.328714 0.265840 0.036452
0.445081 0.283559 0.020197
0.547483 0.300160 0.012581
0.635091 0.315637 0.007820
0.698043 0.329243 0.007820
0.746668 0.338833 0.006054
0.776875 0.343260 0.002018
0.803045 0.350291 0.000000
0.825179 0.359926 0.000000
0.838854 0.364141 0.000000
0.845950 0.364141 0.000000
0.853331 0.368535 0.001261
0.860882 0.375566 0.003279
0.867405 0.381612 0.005656
0.873459 0.387211 0.008194
0.880246 0.396178 0.011856
0.887276 0.406269 0.015893
0.891081 0.408584 0.021568
0.894140 0.409105 0.027623
0.897143 0.417942 0.032766
0.900138 0.427967 0.037778
0.902278 0.432012 0.040472
0.904361 0.435657 0.043011
0.015640 0.299436 0.193107
0.020783 0.272614 0.158213
0.026333 0.247596 0.124732
0.037986 0.249614 0.112428
0.052210 0.251542 0.100539
0.084435 0.252844 0.091555
0.119027 0.256758 0.082657
0.163881 0.271992 0.074129
0.230023 0.289015 0.062687
0.360027 0.311410 0.042506
0.481081 0.331017 0.025275
0.582442 0.344493 0.014534
0.666665 0.357627 0.007820
0.722325 0.370191 0.007820
0.765027 0.376005 0.006054
0.791067 0.373141 0.002018
0.813070 0.378089 0.000000
0.831038 0.390848 0.000000
0.844062 0.396430 0.000000
0.853241 0.396430 0.000000
0.860752 0.399523 0.001261
0.867262 0.404470 0.003279
0.873459 0.412014 0.006372
0.879513 0.420737 0.009952
0.884737 0.430486 0.013874
0.889685 0.440576 0.017911
0.894791 0.443738 0.023587
0.899934 0.445300 0.029641
0.901375 0.450622 0.032961
0.902286 0.456481 0.035890
0.908202 0.467101 0.039430
0.914451 0.478037 0.043011
0.015640 0.345600 0.221991
0.021109 0.314482 0.180457
0.027285 0.285105 0.140307
0.044081 0.281850 0.120907
0.064123 0.279287 0.102557
0.106894 0.281566 0.091555
0.151398 0.287433 0.081322
0.203413 0.308851 0.074422
0.273526 0.330822 0.064494
0.397932 0.354453 0.045485
0.514261 0.374484 0.028449
0.612823 0.386592 0.015754
0.691903 0.397163 0.007600
0.738515 0.405170 0.007015
0.775585 0.408563 0.005175
0.800388 0.406025 0.001725
0.820569 0.410940 0.000000
0.836128 0.423309 0.000000
0.849270 0.430697 0.000330
0.860532 0.434213 0.000915
0.867807 0.437688 0.002396
0.872690 0.441138 0.004415
0.877975 0.448348 0.007015
0.883444 0.457266 0.009879
0.888277 0.464867 0.013622
0.892899 0.472028 0.017658
0.898685 0.476438 0.023334
0.904739 0.480214 0.029389
0.906009 0.483705 0.031911
0.906595 0.487155 0.033929
0.912551 0.497319 0.037839
0.918866 0.507931 0.041876
0.015640 0.389998 0.248226
0.020067 0.360963 0.204609
0.025788 0.332954 0.161920
0.050916 0.320325 0.133146
0.079682 0.309168 0.105942
0.133911 0.308322 0.089732
0.190263 0.313408 0.075658
0.255819 0.344200 0.070841
0.332181 0.372942 0.062996
0.440963 0.395531 0.046070
0.545249 0.414846 0.030141
0.639644 0.426954 0.016405
0.712214 0.434791 0.007210
0.748410 0.435507 0.005582
0.780077 0.437533 0.003613
0.805922 0.441244 0.001204
0.826103 0.447721 0.000000
0.840620 0.456965 0.000000
0.854478 0.466502 0.000915
0.867824 0.476267 0.002543
0.874578 0.481435 0.004415
0.877377 0.483844 0.006433
0.881295 0.489296 0.007600
0.885722 0.496131 0.008382
0.891077 0.499305 0.011604
0.896740 0.501258 0.015640
0.902721 0.507231 0.021316
0.908776 0.514131 0.027370
0.910956 0.517101 0.029893
0.912584 0.519510 0.031911
0.915676 0.523750 0.035821
0.918866 0.528112 0.039857
0.018163 0.436919 0.276984
0.021548 0.405410 0.229331
0.026650 0.375025 0.182597
0.057508 0.361484 0.149657
0.093614 0.349302 0.117831
0.166461 0.346633 0.093809
0.238526 0.350165 0.073046
0.307207 0.380566 0.066406
0.383634 0.409243 0.057715
0.483302 0.432744 0.042872
0.578190 0.453499 0.028864
0.662559 0.468211 0.016690
0.727643 0.478115 0.008325
0.760584 0.480003 0.006307
0.790021 0.483428 0.004573
0.814954 0.488832 0.003206
0.834810 0.495570 0.002523
0.849587 0.503642 0.002523
0.862534 0.511788 0.003292
0.874057 0.519990 0.004659
0.880046 0.524328 0.006026
0.882715 0.526346 0.007393
0.886772 0.532034 0.008715
0.891459 0.539390 0.010017
0.896683 0.541229 0.013370
0.902087 0.541229 0.017406
0.907490 0.544614 0.022024
0.912893 0.548781 0.026776
0.915334 0.551637 0.030276
0.917353 0.554306 0.033596
0.919981 0.558196 0.036977
0.922650 0.562167 0.040362
0.022199 0.485353 0.307256
0.024543 0.448637 0.254395
0.028929 0.413629 0.202713
0.063953 0.404255 0.168731
0.106569 0.395588 0.134822
0.202331 0.391878 0.101426
0.292429 0.393391 0.072265
0.357985 0.417543 0.061458
0.430767 0.442053 0.050164
0.525227 0.467638 0.037404
0.612302 0.491127 0.025804
0.683131 0.510006 0.016755
0.740142 0.524857 0.010343
0.774124 0.532994 0.008325
0.803236 0.539480 0.007047
0.826086 0.543841 0.006722
0.845421 0.550058 0.006559
0.861240 0.558131 0.006559
0.872299 0.562761 0.006742
0.879656 0.564714 0.007067
0.884733 0.566708 0.007393
0.888444 0.568726 0.007718
0.893542 0.575846 0.010147
0.899271 0.585286 0.013533
0.903974 0.587645 0.017406
0.908336 0.587645 0.021442
0.912698 0.585953 0.024368
0.917060 0.583870 0.027037
0.919371 0.586856 0.032098
0.921389 0.590567 0.037502
0.924994 0.597451 0.040036
0.928704 0.604547 0.042380
0.030398 0.531013 0.341690
0.030984 0.493385 0.282188
0.034116 0.457515 0.223948
0.075455 0.448010 0.184628
0.125208 0.439368 0.145413
0.233860 0.436764 0.106939
0.334382 0.439213 0.073543
0.399677 0.463561 0.062150
0.470246 0.487843 0.050579
0.556633 0.511930 0.038470
0.635270 0.534349 0.027623
0.696855 0.553098 0.019550
0.748479 0.568331 0.013480
0.783503 0.577705 0.010746
0.811663 0.585058 0.009208
0.830997 0.589810 0.009208
0.849453 0.595506 0.009208
0.867030 0.602146 0.009208
0.878126 0.606663 0.009208
0.884180 0.609527 0.009208
0.889421 0.610520 0.009655
0.894173 0.610390 0.010371
0.899820 0.616302 0.013370
0.905875 0.624960 0.017406
0.909878 0.626587 0.020368
0.913198 0.625871 0.022972
0.917100 0.625367 0.025682
0.921136 0.624911 0.028416
0.924033 0.625879 0.033429
0.926768 0.627051 0.038767
0.929380 0.634692 0.040993
0.931984 0.642765 0.043011
0.040488 0.575411 0.378015
0.038991 0.538825 0.311223
0.040626 0.503801 0.245691
0.089256 0.492213 0.199080
0.146430 0.482008 0.153095
0.263415 0.481488 0.111496
0.370903 0.486216 0.075756
0.437240 0.513688 0.065405
0.506246 0.539532 0.054615
0.583259 0.560495 0.042506
0.653173 0.580114 0.031659
0.707466 0.596780 0.023587
0.754924 0.610321 0.017125
0.790989 0.618653 0.013350
0.817912 0.625875 0.011226
0.833081 0.631669 0.011226
0.850495 0.636845 0.011226
0.870155 0.641402 0.011226
0.882162 0.647350 0.011226
0.888216 0.654381 0.011226
0.894108 0.654983 0.012324
0.899902 0.651728 0.014082
0.905875 0.655231 0.017406
0.911929 0.661807 0.021442
0.915151 0.662132 0.022842
0.917430 0.660374 0.023363
0.921136 0.663906 0.026528
0.925173 0.668658 0.030304
0.928981 0.666632 0.034536
0.932757 0.663637 0.038832
0.933481 0.671018 0.040993
0.934002 0.679091 0.043011
0.052092 0.607700 0.406773
0.049293 0.576062 0.335814
0.050164 0.545790 0.265970
0.106085 0.536025 0.212849
0.169801 0.527383 0.160972
0.288088 0.526602 0.117811
0.397122 0.530825 0.080704
0.466063 0.556735 0.069832
0.534678 0.580627 0.058456
0.602317 0.598464 0.045566
0.665216 0.616261 0.034670
0.717687 0.633968 0.028160
0.763224 0.647769 0.022577
0.797206 0.655061 0.018541
0.823185 0.661811 0.016613
0.838874 0.667865 0.017394
0.855247 0.673301 0.017394
0.872303 0.678118 0.016613
0.883610 0.683448 0.015832
0.890446 0.689177 0.015050
0.897281 0.689779 0.016019
0.904117 0.687305 0.018037
0.910415 0.689621 0.021979
0.916470 0.694112 0.026797
0.919497 0.693722 0.028001
0.921515 0.691704 0.028001
0.924538 0.694975 0.030646
0.927793 0.699467 0.033901
0.931048 0.697864 0.037839
0.934303 0.695390 0.041876
0.935239 0.700606 0.044752
0.936020 0.706335 0.047551
0.064201 0.635954 0.433009
0.060360 0.610565 0.358925
0.060710 0.586348 0.285760
0.123922 0.579707 0.226389
0.193888 0.573669 0.168914
0.311133 0.571846 0.124711
0.419907 0.574638 0.086563
0.491973 0.597423 0.074649
0.560588 0.618190 0.062232
0.618853 0.632902 0.048300
0.675307 0.649202 0.037339
0.727777 0.668992 0.032912
0.772143 0.683705 0.028632
0.803000 0.689954 0.024596
0.828133 0.696118 0.023123
0.845905 0.702173 0.024946
0.861236 0.708129 0.024946
0.874126 0.713988 0.023123
0.884196 0.718016 0.021300
0.892073 0.720620 0.019477
0.899950 0.721353 0.020055
0.907828 0.720962 0.022073
0.914451 0.722496 0.026732
0.920506 0.724905 0.032591
0.923533 0.723993 0.034055
0.925551 0.721975 0.034055
0.927728 0.723554 0.035854
0.929941 0.725963 0.038067
0.932155 0.725922 0.041876
0.934368 0.725531 0.045912
0.936215 0.727948 0.049765
0.938038 0.730552 0.053606
0.081229 0.660928 0.465803
0.076346 0.636710 0.381824
0.076281 0.613681 0.299098
0.148477 0.608473 0.235170
0.226703 0.604193 0.173365
0.347138 0.606406 0.126428
0.457344 0.612208 0.086339
0.523225 0.633561 0.075923
0.585916 0.652473 0.064791
0.639038 0.664061 0.051510
0.690634 0.677276 0.041119
0.738873 0.694072 0.037083
0.779422 0.707157 0.033681
0.807154 0.714057 0.031338
0.831071 0.720958 0.030532
0.850080 0.727859 0.031704
0.865216 0.733067 0.031281
0.876478 0.736582 0.029262
0.886422 0.739731 0.027720
0.895341 0.742596 0.026549
0.903730 0.744728 0.027370
0.911803 0.746420 0.029389
0.918488 0.747173 0.033018
0.924542 0.747498 0.037380
0.927569 0.747336 0.039105
0.929587 0.747010 0.039951
0.932293 0.750652 0.043812
0.935157 0.755209 0.048369
0.936541 0.755038 0.052471
0.937713 0.754192 0.056507
0.938884 0.756031 0.059750
0.940056 0.758049 0.062939
0.099391 0.685145 0.500110
0.093467 0.660928 0.404674
0.093012 0.637964 0.310946
0.174582 0.633797 0.242851
0.261531 0.631079 0.177011
0.386132 0.638501 0.126949
0.498161 0.648339 0.084711
0.555710 0.668650 0.076379
0.611110 0.685999 0.067069
0.660065 0.694462 0.054830
0.707169 0.704227 0.045155
0.750200 0.716857 0.041119
0.786322 0.727728 0.038499
0.810930 0.735671 0.038238
0.833544 0.743613 0.038149
0.853595 0.751555 0.038279
0.868731 0.755721 0.037335
0.878952 0.756112 0.035317
0.889026 0.758480 0.034361
0.898986 0.762386 0.034230
0.907767 0.766211 0.035443
0.915839 0.769986 0.037461
