其他预设/【236】赛博朋克风调色预设/【后期菌】视频调色预设/CUBE/Miami 07.cube
# LUT by SparkleStock. Enhanced with VOXCOLOR algorithms.
LUT_3D_SIZE 32
0.000000 0.000000 0.000000
0.016145 0.004036 0.014127
0.032037 0.007820 0.028001
0.044146 0.007820 0.038092
0.056759 0.008325 0.048182
0.072904 0.012361 0.058273
0.090941 0.017532 0.068742
0.117176 0.027623 0.080850
0.150475 0.036704 0.093463
0.204963 0.042758 0.107590
0.271434 0.048813 0.117302
0.364267 0.054867 0.117302
0.466938 0.063192 0.118059
0.586006 0.075300 0.120077
0.677703 0.083877 0.125627
0.734210 0.087913 0.135717
0.775581 0.091950 0.145808
0.801816 0.095986 0.155898
0.823511 0.101157 0.164854
0.841674 0.107212 0.172926
0.856053 0.110743 0.186044
0.868161 0.112761 0.202188
0.877495 0.114779 0.212783
0.885567 0.116798 0.220856
0.890613 0.118816 0.227415
0.894649 0.120834 0.233469
0.900325 0.127771 0.242803
0.906379 0.135843 0.252893
0.914199 0.140384 0.259452
0.922272 0.144420 0.265506
0.926560 0.154132 0.269669
0.930596 0.164223 0.273705
0.008072 0.010090 0.016145
0.024217 0.012043 0.027147
0.040240 0.014005 0.038157
0.054432 0.016088 0.049289
0.069519 0.018676 0.060421
0.090871 0.024795 0.071553
0.114897 0.031268 0.082868
0.150507 0.039276 0.094977
0.195784 0.046795 0.106548
0.270063 0.052849 0.116509
0.354046 0.059880 0.123356
0.459378 0.069059 0.123356
0.558924 0.077384 0.125285
0.648827 0.084284 0.130428
0.719562 0.090843 0.139102
0.765653 0.096962 0.152318
0.798691 0.101519 0.163971
0.818677 0.104514 0.174061
0.837638 0.109230 0.184188
0.855800 0.115284 0.194344
0.868877 0.119467 0.207592
0.878903 0.122526 0.222695
0.885437 0.123438 0.231532
0.890385 0.123373 0.237521
0.894649 0.126432 0.245903
0.898685 0.130534 0.255082
0.905207 0.137015 0.265002
0.912303 0.144046 0.275092
0.918431 0.151191 0.282562
0.924420 0.158352 0.289658
0.927602 0.166306 0.291933
0.930596 0.174313 0.293886
0.015893 0.020055 0.031659
0.032037 0.020120 0.039796
0.048211 0.020433 0.048194
0.064811 0.024469 0.060498
0.082681 0.029018 0.072794
0.109437 0.037156 0.085033
0.139709 0.044903 0.097198
0.185214 0.050957 0.109047
0.242811 0.057011 0.119414
0.336685 0.063066 0.125338
0.437354 0.071012 0.129472
0.552972 0.083120 0.129667
0.648376 0.091445 0.132865
0.710090 0.093463 0.141068
0.760470 0.098073 0.152745
0.796275 0.106015 0.168890
0.821241 0.110963 0.182040
0.835367 0.112916 0.192196
0.851618 0.117139 0.203450
0.869520 0.123129 0.215558
0.881238 0.127938 0.229010
0.889246 0.132039 0.243266
0.893180 0.132068 0.250541
0.895263 0.130245 0.254643
0.898909 0.134330 0.264945
0.903075 0.140384 0.277314
0.910204 0.146438 0.287514
0.918016 0.152493 0.297214
0.922524 0.162193 0.305547
0.926560 0.172413 0.313684
0.928643 0.178667 0.314132
0.930596 0.184656 0.314067
0.019929 0.028127 0.037713
0.036074 0.029234 0.046892
0.052703 0.030524 0.056462
0.076594 0.034560 0.071891
0.101886 0.039239 0.087181
0.136974 0.048418 0.101503
0.177336 0.057011 0.114580
0.240549 0.063066 0.122262
0.315593 0.069120 0.128983
0.426132 0.075174 0.132824
0.531098 0.083120 0.136502
0.623800 0.095229 0.139823
0.699805 0.103554 0.145755
0.747979 0.105572 0.156041
0.787096 0.109270 0.168890
0.814568 0.115129 0.185035
0.835367 0.118515 0.198706
0.849494 0.119426 0.209903
0.863401 0.122608 0.221613
0.877137 0.127555 0.233721
0.886642 0.132625 0.248474
0.893607 0.137768 0.264815
0.897932 0.140270 0.273457
0.901057 0.141572 0.278599
0.906526 0.146438 0.292287
0.912775 0.152493 0.308822
0.916909 0.158547 0.314726
0.920555 0.164601 0.318176
0.924542 0.176124 0.326639
0.928578 0.188428 0.335818
0.929685 0.193835 0.335354
0.930596 0.198783 0.334248
0.023713 0.036704 0.044272
0.039597 0.038592 0.054232
0.056397 0.040614 0.064705
0.086929 0.044650 0.082868
0.119332 0.049443 0.100779
0.164837 0.059534 0.116924
0.217104 0.068892 0.130749
0.298675 0.075077 0.134525
0.390384 0.081261 0.137959
0.512512 0.087446 0.140368
0.618731 0.095400 0.143997
0.689950 0.107248 0.150312
0.747791 0.115410 0.158848
0.783336 0.117428 0.171087
0.812045 0.120272 0.184864
0.831966 0.124178 0.200618
0.848989 0.126327 0.214614
0.863116 0.126717 0.226853
0.874826 0.129232 0.239312
0.884656 0.133398 0.251941
0.891964 0.138663 0.267703
0.897757 0.144587 0.285345
0.902343 0.149303 0.295290
0.906379 0.153469 0.301734
0.913442 0.159051 0.318091
0.921515 0.165106 0.337751
0.923134 0.171689 0.338845
0.923264 0.178394 0.335656
0.926584 0.191252 0.343858
0.930360 0.204988 0.353688
0.930840 0.210118 0.352777
0.931101 0.214675 0.351149
0.025731 0.048813 0.054363
0.039532 0.049659 0.063281
0.054509 0.050705 0.072778
0.087124 0.054741 0.090941
0.124475 0.059534 0.108851
0.194979 0.069624 0.124996
0.271854 0.079178 0.138431
0.376339 0.086404 0.140124
0.479246 0.093630 0.142776
0.577417 0.100856 0.148310
0.663585 0.108876 0.154739
0.723346 0.118641 0.163137
0.771683 0.125501 0.173365
0.800978 0.127519 0.186646
0.825260 0.129907 0.199641
0.843098 0.132771 0.212271
0.859080 0.135961 0.225226
0.873207 0.139477 0.238506
0.883745 0.143944 0.253764
0.891492 0.149152 0.270560
0.896716 0.154157 0.285280
0.900427 0.159039 0.298756
0.904361 0.164146 0.309546
0.908397 0.169354 0.319116
0.915461 0.175196 0.333129
0.923533 0.181251 0.348623
0.925999 0.192065 0.341319
0.927170 0.203979 0.328755
0.928798 0.214753 0.333963
0.930490 0.225364 0.341710
0.932793 0.234205 0.343598
0.935137 0.242929 0.345095
0.026992 0.060543 0.064453
0.039491 0.060738 0.072525
0.053402 0.061198 0.081265
0.088491 0.065625 0.100014
0.130448 0.070735 0.118388
0.220481 0.080630 0.134143
0.317338 0.090184 0.146723
0.443762 0.098256 0.145551
0.557915 0.106329 0.146691
0.635254 0.114401 0.154763
0.703763 0.122351 0.163344
0.752849 0.130033 0.173044
0.792389 0.135664 0.184404
0.816020 0.137878 0.198531
0.836462 0.140091 0.211062
0.852802 0.142305 0.221543
0.867742 0.146341 0.233554
0.881283 0.152200 0.247095
0.890723 0.158278 0.264261
0.896972 0.164528 0.284247
0.900699 0.169516 0.298048
0.902913 0.173748 0.308139
0.906513 0.179501 0.319214
0.910745 0.185946 0.330736
0.917564 0.192098 0.342552
0.925246 0.198152 0.354465
0.928167 0.212088 0.339667
0.929990 0.227842 0.318705
0.930047 0.236362 0.318990
0.929852 0.243848 0.322310
0.933440 0.255302 0.325935
0.937281 0.267020 0.329581
0.024974 0.070633 0.074544
0.039556 0.071870 0.082616
0.055681 0.073437 0.091551
0.094936 0.079947 0.113425
0.140018 0.086750 0.134273
0.225885 0.095603 0.147944
0.322676 0.104311 0.157660
0.466808 0.112383 0.150239
0.592418 0.120455 0.146691
0.662466 0.128528 0.154763
0.723684 0.135827 0.162693
0.765478 0.141426 0.170310
0.799290 0.146145 0.180368
0.819796 0.149400 0.194494
0.838935 0.152655 0.207938
0.856317 0.155910 0.220502
0.870216 0.159947 0.231992
0.880632 0.164764 0.242408
0.889290 0.170973 0.257621
0.896582 0.178264 0.276565
0.901350 0.184294 0.289976
0.904605 0.189567 0.300066
0.909248 0.197078 0.308993
0.914521 0.205606 0.317391
0.920038 0.212279 0.327644
0.925636 0.218333 0.338516
0.927321 0.230576 0.320137
0.928102 0.244247 0.295009
0.927118 0.249772 0.282013
0.925881 0.254134 0.270751
0.928428 0.263439 0.271512
0.931227 0.273074 0.273074
0.024974 0.082742 0.086652
0.040598 0.084760 0.094464
0.057845 0.087124 0.103236
0.099444 0.094676 0.126412
0.146121 0.102292 0.148237
0.228342 0.110365 0.160606
0.324418 0.118437 0.168288
0.480527 0.126510 0.155658
0.614796 0.134517 0.147879
0.683542 0.142329 0.154649
0.741912 0.148961 0.161358
0.777457 0.152997 0.167934
0.806581 0.157033 0.177438
0.825004 0.161070 0.191825
0.842744 0.165106 0.205529
0.859605 0.169142 0.218354
0.872332 0.173308 0.229583
0.880925 0.177605 0.239218
0.888932 0.183733 0.252625
0.896484 0.191284 0.268965
0.902001 0.198063 0.281887
0.906298 0.204377 0.292759
0.911624 0.213646 0.300139
0.917418 0.224257 0.305933
0.921698 0.231256 0.314559
0.925474 0.237049 0.324129
0.926182 0.247762 0.302544
0.926182 0.259611 0.273770
0.923960 0.261035 0.248470
0.921421 0.260970 0.223667
0.923399 0.267801 0.220652
0.925677 0.275092 0.219090
0.031028 0.100905 0.104815
0.044569 0.102923 0.111585
0.059668 0.105157 0.119121
0.098142 0.110625 0.138130
0.141824 0.116419 0.156439
0.221963 0.124492 0.169850
0.315369 0.132564 0.177987
0.466271 0.140636 0.163275
0.600800 0.148383 0.152631
0.686211 0.155154 0.154193
0.755062 0.161070 0.157973
0.787482 0.165106 0.166632
0.815044 0.169142 0.177829
0.834509 0.173178 0.193257
0.850556 0.177214 0.205268
0.862209 0.181251 0.212885
0.873373 0.185938 0.224636
0.884050 0.191276 0.240520
0.891797 0.196687 0.252559
0.897265 0.202156 0.261608
0.902652 0.208804 0.273750
0.907990 0.216160 0.287746
0.912926 0.227187 0.295387
0.917678 0.239881 0.300139
0.920917 0.246619 0.306942
0.923651 0.251371 0.314429
0.924164 0.261043 0.290761
0.924164 0.271849 0.259904
0.920119 0.265852 0.225230
0.915497 0.257454 0.190011
0.918321 0.260835 0.180486
0.921641 0.265002 0.172674
0.036452 0.120960 0.123609
0.048561 0.123303 0.129012
0.061979 0.125651 0.134883
0.095050 0.128060 0.147773
0.133540 0.131095 0.160533
0.209968 0.138517 0.172381
0.298467 0.146182 0.179163
0.439278 0.154905 0.163995
0.570243 0.162717 0.151870
0.671669 0.167795 0.148876
0.751673 0.172548 0.149461
0.784549 0.176584 0.157924
0.813396 0.180864 0.168902
0.835530 0.185551 0.184070
0.851939 0.189811 0.194653
0.860988 0.193522 0.199340
0.871241 0.198404 0.210798
0.882699 0.204459 0.229026
0.890531 0.209744 0.239454
0.895544 0.214431 0.243816
0.901208 0.221234 0.255135
0.907262 0.229307 0.270629
0.911705 0.240646 0.278246
0.915416 0.253471 0.282282
0.918101 0.259704 0.287587
0.920445 0.263740 0.293316
0.921942 0.273225 0.273973
0.923244 0.283966 0.248845
0.918394 0.273518 0.208051
0.912665 0.260042 0.165020
0.915481 0.260481 0.148843
0.918866 0.261848 0.134456
0.040488 0.145177 0.143790
0.052597 0.148562 0.147110
0.065364 0.151561 0.150377
0.088019 0.148762 0.152851
0.116484 0.146980 0.155585
0.185620 0.152318 0.160142
0.264290 0.158681 0.161586
0.384269 0.169488 0.149543
0.503256 0.178081 0.138980
0.619264 0.180034 0.132861
0.711897 0.182638 0.129671
0.753105 0.186674 0.132926
0.789504 0.191736 0.139477
0.817888 0.198506 0.151520
0.839180 0.203482 0.161257
0.851353 0.206151 0.168027
0.862127 0.210513 0.177402
0.871502 0.216567 0.189380
0.880180 0.223024 0.197660
0.888318 0.229795 0.203063
0.895153 0.237379 0.213471
0.901208 0.245451 0.226882
0.904935 0.253927 0.233847
0.907604 0.262585 0.237884
0.910810 0.267777 0.242408
0.914195 0.271813 0.247095
0.919273 0.282990 0.246176
0.924741 0.295814 0.243962
0.921324 0.287449 0.204211
0.916636 0.276057 0.159096
0.917564 0.274673 0.135953
0.918866 0.273957 0.114275
0.046038 0.169394 0.164727
0.057365 0.171868 0.165183
0.068921 0.173882 0.165334
0.083894 0.169000 0.160907
0.104140 0.165134 0.156887
0.161297 0.168389 0.155715
0.226475 0.173085 0.152212
0.326403 0.184021 0.138606
0.432142 0.192224 0.125895
0.555311 0.192224 0.115870
0.656936 0.193729 0.108977
0.711165 0.198547 0.108977
0.757752 0.204145 0.112029
0.791604 0.211046 0.120166
0.818022 0.216152 0.128105
0.834883 0.218952 0.135786
0.848326 0.223183 0.143273
0.858352 0.228847 0.150564
0.868853 0.235865 0.156940
0.879725 0.243938 0.162604
0.887830 0.251278 0.171319
0.894275 0.258178 0.181865
0.898213 0.264497 0.187936
0.901012 0.270552 0.191972
0.904739 0.275092 0.196008
0.908776 0.279128 0.200044
0.916091 0.291046 0.210322
0.924164 0.304782 0.222040
0.922666 0.301429 0.191093
0.919802 0.295635 0.154051
0.919623 0.291917 0.127506
0.919623 0.288336 0.101662
0.054110 0.193611 0.186926
0.063355 0.191919 0.183216
0.072761 0.190222 0.179395
0.084610 0.188464 0.173927
0.099648 0.187073 0.168605
0.137015 0.188245 0.164308
0.182597 0.190662 0.156509
0.263777 0.198474 0.133528
0.354152 0.204333 0.112485
0.472113 0.204333 0.097251
0.576668 0.206489 0.086778
0.651728 0.213390 0.086778
0.712898 0.219118 0.087877
0.750916 0.222894 0.090806
0.782868 0.227154 0.095359
0.807020 0.232037 0.101999
0.826713 0.236789 0.107924
0.841946 0.241411 0.113132
0.855898 0.247974 0.118010
0.868853 0.256046 0.122632
0.878390 0.261433 0.128353
0.885877 0.265209 0.134733
0.891573 0.270552 0.139501
0.896455 0.276606 0.143537
0.900703 0.281147 0.147574
0.904739 0.285183 0.151610
0.912055 0.296254 0.161041
0.920127 0.308948 0.171718
0.921364 0.315491 0.162514
0.921625 0.321155 0.150471
0.921641 0.314246 0.126465
0.921641 0.306499 0.101662
0.060417 0.224892 0.213540
0.069401 0.219944 0.206574
0.078482 0.215278 0.199694
0.089028 0.214822 0.194096
0.100909 0.214138 0.187870
0.122132 0.211860 0.177259
0.150824 0.210802 0.163682
0.211888 0.215033 0.137251
0.285077 0.218891 0.111748
0.394640 0.221625 0.089028
0.497368 0.226027 0.072839
0.585058 0.234100 0.071016
0.657905 0.240243 0.069706
0.706014 0.243173 0.069250
0.745834 0.247270 0.071044
0.774999 0.252869 0.075732
0.799802 0.257686 0.079638
0.820244 0.261722 0.082762
0.837389 0.266491 0.085887
0.851972 0.271829 0.089012
0.864194 0.275947 0.092706
0.875001 0.279332 0.096743
0.882854 0.283925 0.100466
0.889364 0.289068 0.104046
0.895385 0.293723 0.108310
0.901244 0.298215 0.112802
0.907791 0.307785 0.120362
0.914496 0.318526 0.128629
0.918296 0.329268 0.132226
0.921682 0.340009 0.135156
0.921893 0.334638 0.117762
0.921893 0.328193 0.099013
0.064453 0.265254 0.245830
0.075520 0.258223 0.236781
0.086620 0.251538 0.228013
0.098207 0.250041 0.223456
0.109567 0.247795 0.216840
0.119332 0.240308 0.195813
0.134615 0.234238 0.174553
0.173805 0.234303 0.152289
0.227463 0.236598 0.127307
0.324528 0.245582 0.094171
0.419313 0.254281 0.069519
0.509086 0.262353 0.063529
0.589875 0.269278 0.059225
0.655691 0.274291 0.057727
0.706384 0.279104 0.057569
0.737632 0.283661 0.059131
0.766080 0.287958 0.060433
0.791730 0.291994 0.061475
0.811740 0.293247 0.062516
0.827364 0.292336 0.063558
0.843883 0.296063 0.066471
0.860939 0.302573 0.070507
0.871461 0.306710 0.073514
0.879013 0.309770 0.076053
0.888420 0.314685 0.080838
0.898445 0.320219 0.086371
0.903234 0.327445 0.090741
0.906814 0.335062 0.094843
0.912958 0.342678 0.099741
0.919468 0.350295 0.104754
0.919875 0.352541 0.099208
0.919875 0.354429 0.092959
0.069498 0.307634 0.279128
0.082649 0.294354 0.264351
0.095636 0.281712 0.250017
0.106182 0.278652 0.242335
0.116305 0.275104 0.232659
0.123466 0.268139 0.209028
0.134387 0.262296 0.186239
0.161599 0.261320 0.167099
0.205753 0.263744 0.142508
0.300733 0.276374 0.101560
0.394412 0.287254 0.070235
0.485227 0.294285 0.060079
0.567839 0.300754 0.052780
0.636780 0.306287 0.050241
0.690141 0.310027 0.048813
0.723473 0.311459 0.048813
0.753484 0.314974 0.048813
0.780175 0.320573 0.048813
0.800933 0.321045 0.049106
0.817078 0.317529 0.049627
0.834769 0.319954 0.052019
0.853388 0.325943 0.055534
0.865114 0.330635 0.058736
0.873707 0.334736 0.061796
0.884546 0.339911 0.065930
0.896134 0.345445 0.070422
0.900793 0.350978 0.073750
0.903852 0.356512 0.076810
0.910843 0.362045 0.081578
0.918394 0.367579 0.086591
0.920331 0.375554 0.088369
0.921893 0.383691 0.089932
0.075553 0.352032 0.313436
0.090786 0.328336 0.289284
0.105531 0.305799 0.265706
0.112953 0.300656 0.250733
0.121123 0.296067 0.235328
0.134533 0.295351 0.216905
0.150141 0.294976 0.198738
0.175270 0.296083 0.181682
0.219944 0.300331 0.157351
0.323258 0.314002 0.111195
0.422666 0.324947 0.074987
0.513480 0.329894 0.060665
0.591796 0.334671 0.050371
0.649279 0.339163 0.046791
0.697107 0.340038 0.044777
0.732521 0.336262 0.044777
0.762012 0.338736 0.044777
0.785578 0.347459 0.044777
0.804970 0.349884 0.045655
0.821114 0.347410 0.047218
0.836852 0.347622 0.049350
0.852346 0.349445 0.051824
0.863812 0.355698 0.056132
0.873447 0.363966 0.061275
0.883765 0.369402 0.063586
0.894311 0.373894 0.064954
0.900467 0.378386 0.069388
0.905610 0.382877 0.074531
0.911949 0.387369 0.077738
0.918459 0.391861 0.080667
0.923260 0.403677 0.085244
0.927948 0.415981 0.089932
0.079337 0.402106 0.347744
0.096653 0.372681 0.319490
0.113376 0.344350 0.291392
0.121188 0.332437 0.265612
0.130115 0.321753 0.240451
0.146845 0.319669 0.219619
0.166078 0.319234 0.199776
0.196154 0.325939 0.184217
0.243547 0.334061 0.161171
0.342890 0.346430 0.115666
0.440300 0.356744 0.079337
0.533458 0.362538 0.063192
0.610260 0.367013 0.050929
0.659801 0.369292 0.045135
0.703560 0.368950 0.041619
0.739886 0.365239 0.041033
0.769441 0.367843 0.041033
0.792226 0.376762 0.041619
0.810947 0.380188 0.043011
0.826505 0.379342 0.045029
0.841169 0.378658 0.047413
0.855296 0.378072 0.050017
0.866648 0.384021 0.054188
0.876738 0.392939 0.059070
0.885950 0.397757 0.061170
0.894869 0.401207 0.062341
0.901460 0.407038 0.066528
0.907514 0.413418 0.071411
0.913569 0.416721 0.074299
0.919623 0.419586 0.076903
0.925128 0.430811 0.082742
0.930596 0.442595 0.088796
0.081355 0.456595 0.382052
0.100754 0.425087 0.353798
0.119625 0.394152 0.324853
0.130562 0.371823 0.285533
0.142353 0.351113 0.247482
0.160126 0.341738 0.218317
0.182158 0.336941 0.191899
0.222650 0.351979 0.177381
0.274470 0.365569 0.156419
0.360272 0.374813 0.116122
0.449674 0.383956 0.083373
0.546999 0.392874 0.067228
0.624451 0.398131 0.053793
0.668784 0.397285 0.044874
0.709614 0.397008 0.039145
0.745940 0.397464 0.037518
0.776016 0.401110 0.037518
0.799843 0.407945 0.039145
0.818433 0.411631 0.040993
0.832950 0.412868 0.043011
0.847224 0.412315 0.046046
0.861350 0.410687 0.049692
0.872702 0.414878 0.052755
0.882793 0.421714 0.055555
0.890442 0.425229 0.058696
0.897277 0.427638 0.061951
0.903478 0.436658 0.064836
0.909532 0.447204 0.067635
0.915587 0.449206 0.071175
0.921641 0.449987 0.074820
0.926169 0.457177 0.080724
0.930596 0.464794 0.086778
0.084634 0.511084 0.420143
0.103513 0.475539 0.386031
0.122254 0.440943 0.351682
0.138919 0.420566 0.313794
0.156098 0.400003 0.274897
0.176864 0.378129 0.228936
0.202062 0.362542 0.188212
0.246460 0.374195 0.170180
0.299126 0.385604 0.148208
0.376595 0.396280 0.114421
0.459537 0.407994 0.086351
0.554518 0.421990 0.070857
0.630506 0.431446 0.057878
0.674839 0.433334 0.049089
0.715099 0.436418 0.043263
0.750123 0.441040 0.041245
0.779743 0.445727 0.040594
0.803961 0.450480 0.041310
0.822868 0.452962 0.042026
0.837646 0.453678 0.042742
0.851610 0.452278 0.045127
0.865085 0.449609 0.048512
0.876681 0.454280 0.051405
0.887423 0.462287 0.054074
0.894649 0.464338 0.057768
0.900703 0.464403 0.061804
0.906757 0.471080 0.063672
0.912812 0.479282 0.065039
0.918866 0.482586 0.069311
0.924920 0.485190 0.073998
0.928472 0.493470 0.079357
0.931858 0.502128 0.084760
0.088670 0.565572 0.460505
0.105466 0.524820 0.417018
0.122709 0.485927 0.374532
0.146666 0.474925 0.347060
0.170745 0.460611 0.314543
0.195678 0.423113 0.246709
0.224261 0.392878 0.187040
0.268660 0.394115 0.162758
0.320023 0.398754 0.137922
0.392284 0.413597 0.111427
0.469692 0.430128 0.088695
0.558424 0.450374 0.074242
0.631677 0.466079 0.062695
0.679135 0.474217 0.055990
0.720242 0.482639 0.051335
0.753183 0.491428 0.049317
0.781761 0.497156 0.047625
0.805979 0.499826 0.046258
0.825472 0.500224 0.044891
0.841291 0.498857 0.043523
0.854995 0.496025 0.044476
0.867429 0.492315 0.046819
0.879415 0.498808 0.050103
0.891199 0.509940 0.053813
0.898685 0.510429 0.057768
0.904739 0.507369 0.061804
0.910794 0.508382 0.062826
0.916848 0.510335 0.063151
0.922902 0.516503 0.068204
0.928957 0.523274 0.073933
0.931532 0.535720 0.078380
0.933876 0.548545 0.082742
0.096869 0.614511 0.499480
0.113730 0.574280 0.448767
0.131087 0.535879 0.399486
0.155890 0.524942 0.371688
0.181320 0.509985 0.337853
0.211136 0.466889 0.261751
0.243417 0.432032 0.195133
0.286383 0.432878 0.169614
0.335908 0.436654 0.143883
0.405109 0.449218 0.117518
0.478237 0.463675 0.094529
0.560002 0.482293 0.078970
0.629806 0.497982 0.066976
0.679672 0.508789 0.060921
0.720909 0.519282 0.056633
0.751051 0.529373 0.054615
0.780020 0.535427 0.052239
0.807818 0.537445 0.049504
0.828658 0.538401 0.047576
0.844087 0.538532 0.046274
0.857440 0.536953 0.046599
0.869549 0.534349 0.047901
0.881657 0.541860 0.051575
0.893766 0.553968 0.056328
0.900797 0.555043 0.059469
0.906135 0.552439 0.062073
0.912055 0.553114 0.063725
0.918109 0.554546 0.065157
0.924164 0.561162 0.070633
0.930218 0.568518 0.076688
0.932488 0.579536 0.080850
0.934506 0.590799 0.084886
0.106959 0.660928 0.537824
0.124862 0.623821 0.480861
0.143065 0.588089 0.425396
0.165785 0.572986 0.392390
0.190043 0.554253 0.353737
0.225067 0.510115 0.275552
0.261189 0.475193 0.207437
0.302072 0.480206 0.182959
0.349514 0.485805 0.157229
0.416632 0.493161 0.127738
0.486049 0.502409 0.101951
0.560523 0.515820 0.084309
0.626551 0.528645 0.071012
0.678501 0.540493 0.064958
0.719542 0.551572 0.060669
0.746559 0.561662 0.058651
0.776570 0.567717 0.055754
0.809575 0.569735 0.051978
0.832108 0.572449 0.050180
0.846495 0.575704 0.049919
0.859458 0.576599 0.049985
0.871567 0.576078 0.050245
0.883675 0.584240 0.054310
0.895784 0.596349 0.060104
0.902034 0.598985 0.061943
0.906330 0.598464 0.062463
0.912055 0.601223 0.065417
0.918109 0.604738 0.068933
0.924164 0.610703 0.074670
0.930218 0.617018 0.080724
0.932488 0.624065 0.084886
0.934506 0.631161 0.088923
0.118563 0.690695 0.568600
0.135945 0.660618 0.510856
0.153628 0.631511 0.454382
0.175827 0.616928 0.416949
0.199694 0.598912 0.373869
0.235239 0.556857 0.291257
0.271687 0.523384 0.219448
0.312049 0.527094 0.194450
0.358774 0.530219 0.167938
0.424590 0.531586 0.136885
0.492298 0.535578 0.109616
0.564169 0.545343 0.090672
0.627592 0.555987 0.076269
0.676938 0.568095 0.069433
0.718566 0.578979 0.064364
0.750269 0.588288 0.061564
0.780931 0.595905 0.058928
0.810552 0.601829 0.056454
0.831897 0.606252 0.055372
0.846804 0.609507 0.055372
0.859475 0.611704 0.055372
0.870802 0.613266 0.055372
0.883203 0.621005 0.058997
0.896093 0.631551 0.064270
0.902343 0.635360 0.065588
0.906379 0.636922 0.065588
0.913324 0.640494 0.068868
0.920941 0.644531 0.072904
0.926507 0.650333 0.077339
0.931780 0.656387 0.081831
0.934734 0.661709 0.085895
0.937534 0.666982 0.089932
0.130672 0.714912 0.596853
0.147012 0.693168 0.540151
0.163718 0.672003 0.484393
0.185917 0.659504 0.442794
0.209655 0.643701 0.395417
0.244158 0.604771 0.307597
0.279759 0.573250 0.231361
0.320121 0.573836 0.205321
0.366586 0.573055 0.177768
0.431361 0.568172 0.145673
0.498027 0.566891 0.117363
0.568856 0.573531 0.097377
0.630066 0.582222 0.081932
0.675246 0.594330 0.074055
0.717719 0.604759 0.067944
0.756714 0.613026 0.064103
0.787897 0.622726 0.061987
0.811268 0.633858 0.061597
0.830464 0.639974 0.061426
0.846414 0.642187 0.061426
0.858824 0.645296 0.061426
0.869109 0.648941 0.061426
0.881901 0.655899 0.064335
0.895833 0.664362 0.068567
0.902343 0.669212 0.069624
0.906379 0.672857 0.069624
0.915017 0.676820 0.072904
0.924717 0.680856 0.076940
0.929632 0.686658 0.079552
0.933863 0.692713 0.081961
0.937729 0.697058 0.085895
0.941570 0.701290 0.089932
0.147700 0.744048 0.623467
0.161306 0.718789 0.563575
0.175396 0.694458 0.504513
0.196748 0.684042 0.457901
0.220038 0.670664 0.406016
0.256885 0.636552 0.317220
0.294866 0.608201 0.239519
0.337767 0.604816 0.209899
0.384818 0.600763 0.180246
0.444320 0.594709 0.150495
0.507829 0.592174 0.123470
0.580155 0.597382 0.102443
0.641056 0.604860 0.086274
0.682915 0.616123 0.078201
0.722638 0.627100 0.072265
0.759615 0.637711 0.069075
0.789203 0.647802 0.066634
0.811402 0.657372 0.064941
0.830196 0.664122 0.064677
0.846341 0.668679 0.065523
0.859230 0.673968 0.065841
0.870167 0.679697 0.065841
0.881552 0.685291 0.066870
0.893139 0.690825 0.068367
0.900333 0.695870 0.070011
0.906062 0.700753 0.071704
0.913959 0.707698 0.076676
0.922357 0.715119 0.082404
0.927679 0.719864 0.084886
0.932561 0.724225 0.086904
0.936651 0.728282 0.090814
0.940687 0.732318 0.094851
0.165863 0.774320 0.649702
0.176344 0.742811 0.585644
0.187439 0.712751 0.522350
0.207750 0.704419 0.470531
0.230519 0.693514 0.414089
0.270490 0.664610 0.325292
0.311597 0.639709 0.246810
0.357623 0.632158 0.213023
0.405455 0.624980 0.181027
0.458707 0.618926 0.154401
0.518570 0.616066 0.129199
0.592980 0.620232 0.107130
0.654011 0.626669 0.090310
0.692745 0.636890 0.082238
0.728888 0.648648 0.076757
0.761698 0.662384 0.074609
0.789203 0.672475 0.071647
0.811402 0.678920 0.067871
0.830196 0.686060 0.067281
0.846341 0.693742 0.069169
0.859881 0.701505 0.069877
0.871860 0.709317 0.069877
