其他预设/【236】赛博朋克风调色预设/【后期菌】视频调色预设/CUBE/Sunset 09.cube
# LUT by SparkleStock. Enhanced with VOXCOLOR algorithms.
LUT_3D_SIZE 8
DOMAIN_MIN 0.000000 0.000000 0.000000
DOMAIN_MAX 0.903226 0.903226 0.903226
0.011730 0.003910 0.003910
0.088796 0.011982 0.035443
0.195377 0.021064 0.054363
0.396430 0.042885 0.091445
0.633053 0.096869 0.115410
0.748967 0.128906 0.137988
0.809132 0.147700 0.159430
0.851638 0.169520 0.183395
0.040614 0.076814 0.056759
0.196488 0.069246 0.077742
0.398912 0.093561 0.110808
0.639774 0.132340 0.129110
0.748141 0.166689 0.156212
0.802581 0.186332 0.177772
0.847126 0.209923 0.200296
0.872462 0.241704 0.215420
0.069498 0.156150 0.106203
0.305588 0.150475 0.143155
0.589037 0.175961 0.118181
0.718696 0.221234 0.136950
0.769283 0.250118 0.153502
0.815097 0.291274 0.170944
0.842040 0.323136 0.176490
0.858852 0.363514 0.130086
0.140510 0.278750 0.168764
0.359299 0.266593 0.126685
0.628821 0.280670 0.081045
0.736899 0.320268 0.075764
0.782071 0.345864 0.083190
0.824284 0.384717 0.076924
0.853026 0.423675 0.065377
0.878988 0.496058 0.054070
0.225144 0.415981 0.221108
0.411884 0.421539 0.102366
0.623210 0.447912 0.043011
0.733762 0.485272 0.034629
0.775715 0.521939 0.031769
0.817363 0.566781 0.034434
0.853343 0.614841 0.038433
0.876331 0.671844 0.034735
0.309652 0.557248 0.265759
0.581221 0.546995 0.054379
0.718570 0.581917 0.032831
0.778844 0.618507 0.034434
0.813546 0.650113 0.029893
0.840132 0.696944 0.031281
0.856858 0.737994 0.037428
0.875164 0.772745 0.060173
0.435657 0.658783 0.274588
0.686199 0.667584 0.066304
0.763599 0.697632 0.036200
0.794838 0.726101 0.033258
0.821241 0.761857 0.039906
0.842162 0.793711 0.068912
0.860801 0.825448 0.121717
0.874594 0.848737 0.174313
0.555104 0.731435 0.231451
0.723855 0.749952 0.081582
0.779568 0.776793 0.051034
0.808375 0.806756 0.073551
0.828983 0.831864 0.114934
0.849242 0.853278 0.170021
0.875729 0.875981 0.226153
0.903059 0.896036 0.284841
0.031533 0.008072 0.052849
0.119906 0.016413 0.088072
0.228139 0.028884 0.111244
0.452994 0.059233 0.136075
0.672719 0.103993 0.139945
0.763887 0.131636 0.158754
0.822530 0.150979 0.179106
0.859711 0.179371 0.201822
0.033738 0.077050 0.106170
0.230741 0.079300 0.137290
0.471444 0.102248 0.159804
0.674248 0.138162 0.161957
0.774263 0.169940 0.190043
0.826949 0.193013 0.207468
0.857843 0.213372 0.224075
0.880070 0.246744 0.240225
0.089464 0.166872 0.169333
0.234388 0.190924 0.201300
0.679193 0.180819 0.187927
0.767311 0.206143 0.203099
0.818324 0.243148 0.221625
0.844110 0.268238 0.234597
0.865472 0.320148 0.243416
0.878817 0.363034 0.233645
0.162331 0.289414 0.228570
0.270298 0.326590 0.250341
0.630858 0.302015 0.173062
0.762794 0.327583 0.140385
0.807644 0.357236 0.147660
0.842086 0.398854 0.135399
0.870295 0.443799 0.122772
0.894934 0.502467 0.108247
0.252132 0.436980 0.279377
0.358248 0.485800 0.297304
0.605233 0.481520 0.125530
0.744591 0.495291 0.076534
0.792261 0.527362 0.053015
0.829683 0.577914 0.053092
0.855118 0.632081 0.047830
0.873231 0.686652 0.042715
0.336770 0.578348 0.317859
0.460984 0.606274 0.284576
0.707842 0.617730 0.095197
0.779593 0.626435 0.037917
0.814017 0.664077 0.037045
0.839006 0.712128 0.039694
0.854608 0.746358 0.046027
0.871322 0.785224 0.090163
0.471967 0.671397 0.303529
0.590766 0.699363 0.211652
0.749322 0.711884 0.083712
0.805756 0.740104 0.051175
0.819601 0.765621 0.056011
0.841834 0.803116 0.092758
0.859836 0.834680 0.146760
0.873745 0.853024 0.195078
0.577303 0.735850 0.244430
0.682188 0.768038 0.159426
0.772571 0.790235 0.096453
0.809728 0.814683 0.098032
0.833416 0.839086 0.146186
0.855744 0.861110 0.198177
0.882487 0.882686 0.247160
0.908724 0.902910 0.312374
0.023965 0.017658 0.119446
0.130200 0.031533 0.146280
0.265380 0.044964 0.183016
0.509314 0.073856 0.195280
0.699902 0.110617 0.190597
0.789040 0.143448 0.200964
0.833097 0.158547 0.211005
0.871416 0.181580 0.225071
0.047018 0.088105 0.178732
0.198975 0.106927 0.192436
0.510950 0.116948 0.211608
0.712309 0.152291 0.209925
0.791811 0.177047 0.224440
0.837348 0.194679 0.234999
0.868321 0.222972 0.250953
0.886454 0.257260 0.266879
0.090054 0.163906 0.233648
0.236041 0.210420 0.267646
0.678444 0.196301 0.236484
0.782543 0.213301 0.242433
0.831961 0.246881 0.255698
0.855792 0.281812 0.269752
0.871428 0.323533 0.273680
0.882522 0.371400 0.266641
0.187122 0.280166 0.279340
0.289942 0.343600 0.309270
0.534622 0.351063 0.311634
0.807503 0.319356 0.253695
0.840697 0.355592 0.252986
0.859106 0.400995 0.229092
0.888028 0.451797 0.216087
0.902727 0.508748 0.165515
0.274323 0.444731 0.327689
0.381431 0.503416 0.346064
0.499594 0.540241 0.327139
0.754252 0.502643 0.175995
0.837015 0.514095 0.124316
0.853267 0.562084 0.120130
0.874374 0.624047 0.119129
0.881413 0.687578 0.088635
0.368539 0.585627 0.356068
0.478681 0.621853 0.339959
0.605093 0.654292 0.284683
0.770673 0.660035 0.114791
0.819298 0.681741 0.057675
0.835318 0.719893 0.059142
0.851056 0.757341 0.076132
0.862897 0.788653 0.111097
0.497380 0.679538 0.335623
0.593529 0.708227 0.271724
0.697618 0.744836 0.215843
0.794083 0.761288 0.109545
0.822625 0.782030 0.083763
0.843950 0.811473 0.121167
0.855900 0.834245 0.165743
0.877920 0.857851 0.215647
0.598619 0.749574 0.267524
0.668188 0.780915 0.219372
0.755338 0.801265 0.161759
0.809206 0.826190 0.142229
0.839823 0.850510 0.178741
0.861582 0.869521 0.217573
0.884161 0.884306 0.264306
0.908581 0.902321 0.336620
0.023460 0.032037 0.216315
0.151785 0.042185 0.223680
0.310043 0.057670 0.262617
0.550901 0.089659 0.273770
0.724909 0.111935 0.264900
0.801800 0.145926 0.263346
0.843440 0.162457 0.264457
0.879765 0.182565 0.267272
0.048939 0.102545 0.282668
0.179420 0.139786 0.296181
0.509668 0.141311 0.314536
0.732718 0.159238 0.282108
0.806430 0.181254 0.285931
0.848062 0.200562 0.276434
0.878535 0.236130 0.285843
0.893494 0.264482 0.293219
0.102785 0.178183 0.330240
0.232493 0.230123 0.348458
0.511589 0.254146 0.355665
0.790330 0.230910 0.296805
0.845100 0.261516 0.300255
0.865895 0.298677 0.307367
0.878750 0.335386 0.315351
0.888529 0.387479 0.300632
0.198844 0.291091 0.360548
0.299252 0.352135 0.359471
0.504415 0.394701 0.390483
0.783403 0.344138 0.318057
0.838305 0.370358 0.306052
0.861030 0.418129 0.278106
0.889530 0.471751 0.258536
0.901687 0.526560 0.224883
0.292681 0.445931 0.374585
0.401141 0.515836 0.392952
0.515957 0.566701 0.402506
0.709724 0.557126 0.322404
0.852599 0.517130 0.240630
0.875235 0.558261 0.198691
0.892791 0.619888 0.186170
0.898807 0.676887 0.162666
0.404747 0.604563 0.407514
0.516964 0.642551 0.395755
0.625663 0.674038 0.341696
0.717049 0.702393 0.280290
0.820370 0.701636 0.142197
0.852530 0.724016 0.102124
0.852023 0.760767 0.106214
0.863702 0.794300 0.143736
0.526130 0.689600 0.365870
0.616001 0.724773 0.309875
0.694888 0.758053 0.261680
0.759566 0.786416 0.224591
0.817565 0.794004 0.134912
0.844245 0.823670 0.150295
0.861013 0.844818 0.195946
0.880211 0.864412 0.235827
0.616330 0.761707 0.287075
0.682636 0.796990 0.255378
0.739748 0.818677 0.227283
0.796110 0.841406 0.207297
0.842554 0.857478 0.201662
0.871064 0.879185 0.245392
0.890971 0.892218 0.294305
0.915701 0.907238 0.376936
0.032290 0.051966 0.331851
0.153998 0.068359 0.331721
0.352927 0.078458 0.347886
0.588056 0.105377 0.365850
0.740785 0.126518 0.350755
0.813367 0.150568 0.347040
0.859458 0.162180 0.341653
0.892505 0.183570 0.329455
0.059534 0.131559 0.378333
0.148399 0.169146 0.409894
0.498402 0.165521 0.401210
0.743277 0.175284 0.364546
0.814652 0.186592 0.352420
0.856285 0.205995 0.333732
0.880876 0.237893 0.324250
0.900114 0.279895 0.327423
0.125379 0.208869 0.433627
0.211815 0.256205 0.451374
0.390218 0.312325 0.421461
0.754799 0.261776 0.366266
0.850066 0.268954 0.345369
0.868909 0.306906 0.342304
0.886464 0.355910 0.348210
0.892540 0.410620 0.338107
0.204206 0.305868 0.442204
0.328797 0.371475 0.433392
0.463129 0.450189 0.459212
0.676491 0.444057 0.415238
0.832521 0.389428 0.348197
0.867960 0.448462 0.319561
0.884232 0.496861 0.291858
0.904499 0.550383 0.261882
0.306332 0.450769 0.436382
0.428793 0.528946 0.436557
0.542150 0.584047 0.463529
0.710503 0.587552 0.383507
0.833900 0.565575 0.315618
0.875763 0.581447 0.256606
0.896127 0.633452 0.227755
0.904154 0.687508 0.201307
0.437203 0.613913 0.453946
0.549158 0.655061 0.440922
0.644684 0.689459 0.387656
0.718950 0.718197 0.331782
0.793450 0.737719 0.274440
0.851366 0.738574 0.160189
0.861375 0.770308 0.145950
0.869496 0.807465 0.176943
0.558989 0.708101 0.410455
0.638476 0.738380 0.343710
0.707056 0.768816 0.294688
0.757407 0.793321 0.260857
0.798053 0.818505 0.238656
0.840245 0.834297 0.196227
0.865810 0.849125 0.214993
0.885418 0.871568 0.255920
0.640621 0.774242 0.310352
0.695233 0.804739 0.271834
0.744439 0.827379 0.257198
0.792067 0.850274 0.250025
0.834285 0.870689 0.254549
0.870757 0.882604 0.265956
0.897707 0.898459 0.321656
0.923876 0.913033 0.425264
0.036452 0.092202 0.425693
0.116643 0.119076 0.453279
0.338162 0.119967 0.425762
0.617091 0.127157 0.449650
0.748768 0.162172 0.448510
0.815243 0.174525 0.425498
0.863100 0.179737 0.409312
0.895910 0.196574 0.396931
0.066931 0.161070 0.471767
0.151054 0.195870 0.503973
0.430035 0.194156 0.455695
0.717658 0.196170 0.456290
0.816835 0.206655 0.421125
0.854574 0.216002 0.393898
0.880808 0.244231 0.376429
0.901122 0.290940 0.364438
0.136783 0.237399 0.519246
0.233760 0.282586 0.523014
0.367800 0.334532 0.493927
0.727217 0.305629 0.444798
0.844843 0.277536 0.399017
0.866962 0.319424 0.381341
0.884723 0.369433 0.382878
0.894938 0.434202 0.370773
0.220494 0.330069 0.516239
0.343412 0.387815 0.492119
0.471912 0.468822 0.495068
0.616065 0.510006 0.504921
0.816445 0.435077 0.409418
0.866853 0.467438 0.360325
0.887185 0.527324 0.326221
0.907892 0.579442 0.293979
0.333585 0.467231 0.486846
0.463540 0.542181 0.473844
0.578176 0.609048 0.514192
0.696145 0.633720 0.464045
0.797400 0.636075 0.390090
0.882828 0.620147 0.309028
0.904374 0.662149 0.262447
0.908906 0.716095 0.229574
0.470315 0.628357 0.490748
0.580286 0.669008 0.487070
0.670756 0.700540 0.429988
0.732265 0.732016 0.367156
0.793197 0.756088 0.312083
0.842159 0.765078 0.261256
0.875682 0.776364 0.227118
0.887067 0.808149 0.233646
0.587739 0.722354 0.452860
0.661742 0.750933 0.369677
0.718622 0.777056 0.314927
0.760177 0.802517 0.286471
0.793955 0.828377 0.273245
0.831028 0.843679 0.259720
0.868037 0.859710 0.247859
0.895816 0.876108 0.286672
0.663194 0.787624 0.329833
0.709765 0.815158 0.287893
0.750843 0.832617 0.267948
0.793833 0.857225 0.278543
0.834649 0.880442 0.291158
0.874108 0.895719 0.311746
0.903306 0.904499 0.363175
0.930752 0.918708 0.474413
0.049948 0.137483 0.510201
0.114877 0.158238 0.536660
0.340672 0.151150 0.502621
0.667112 0.151313 0.514237
0.754013 0.185917 0.522183
0.815438 0.201969 0.496058
0.860305 0.210603 0.474091
0.892684 0.223273 0.456522
0.081424 0.193990 0.547283
0.163053 0.222316 0.564832
0.304594 0.253458 0.543742
0.679770 0.234203 0.518971
0.816742 0.233694 0.479342
0.851711 0.244684 0.454041
0.880669 0.266680 0.428590
0.907377 0.314440 0.415623
0.154372 0.264245 0.578942
0.247241 0.309412 0.573531
0.392535 0.360294 0.538627
0.658874 0.362848 0.517124
0.815117 0.325829 0.462089
0.869811 0.338402 0.426812
0.886507 0.394379 0.417187
0.898134 0.459333 0.410486
0.244564 0.353627 0.563217
0.368296 0.421826 0.546036
0.503921 0.498102 0.535794
0.608278 0.543072 0.557431
0.795632 0.486910 0.462575
0.868852 0.503079 0.411037
0.891357 0.556267 0.358745
0.912497 0.608453 0.329917
0.354038 0.486590 0.533523
0.495594 0.561763 0.518342
0.603595 0.621856 0.554779
0.704948 0.656395 0.516067
0.778127 0.680127 0.449457
0.874500 0.657786 0.345502
0.906675 0.689007 0.289372
0.908073 0.728276 0.251645
0.496591 0.634265 0.520320
0.616272 0.686217 0.523692
0.694084 0.716342 0.461538
0.743259 0.746523 0.402152
0.786623 0.770169 0.339333
0.826193 0.791231 0.293417
0.877088 0.795748 0.260412
0.893570 0.825516 0.268687
0.616700 0.734544 0.473090
0.678673 0.758333 0.397693
0.730971 0.785904 0.337648
0.767622 0.810866 0.302955
0.804542 0.837373 0.293539
0.839325 0.859391 0.292903
0.874064 0.873897 0.292089
0.905289 0.886194 0.330273
0.684494 0.799420 0.349351
0.721827 0.821007 0.302492
0.763150 0.845444 0.286527
0.805975 0.866036 0.292445
0.845180 0.887237 0.308300
0.878903 0.902061 0.346763
0.911326 0.914642 0.419643
0.937466 0.926290 0.546142
0.064327 0.171286 0.577555
0.127039 0.187089 0.600763
0.266446 0.184607 0.584036
0.661672 0.170062 0.556385
0.773514 0.199715 0.566407
0.825903 0.232012 0.548288
0.862559 0.239165 0.522761
0.893091 0.256132 0.503813
0.093691 0.223859 0.603538
0.173627 0.253045 0.613119
0.295429 0.281864 0.599970
0.651427 0.261025 0.557781
0.815388 0.261379 0.535823
0.849510 0.278518 0.511621
0.881857 0.302448 0.483749
0.907549 0.330487 0.458753
0.168312 0.294468 0.623039
0.280347 0.340869 0.616185
0.413519 0.388156 0.580357
0.560548 0.426111 0.547724
0.773936 0.389677 0.528101
0.870010 0.371629 0.463366
0.888154 0.427854 0.449410
0.897721 0.493441 0.440807
0.271056 0.381710 0.608709
0.393035 0.444675 0.586727
0.533840 0.523908 0.574857
0.631249 0.573665 0.597596
0.775263 0.552703 0.525151
0.861907 0.542769 0.462315
0.894506 0.586516 0.397580
0.917361 0.638523 0.361671
0.374174 0.502177 0.577836
0.529785 0.580087 0.549690
0.632457 0.643829 0.588738
0.712404 0.674892 0.556958
0.772740 0.702079 0.489792
0.863645 0.692062 0.386617
0.903328 0.713770 0.316022
0.913502 0.753241 0.281523
0.531761 0.647558 0.542299
0.633793 0.696102 0.557117
0.709353 0.727329 0.495156
0.753457 0.756195 0.424609
0.789869 0.783732 0.358706
0.826832 0.808566 0.319674
0.871114 0.818329 0.287484
0.898695 0.842577 0.293356
0.636710 0.745509 0.501486
0.697229 0.769287 0.419043
0.741298 0.795773 0.354050
0.776572 0.825281 0.319763
0.815776 0.848766 0.310742
0.846141 0.871072 0.313711
0.878078 0.885621 0.323906
0.917748 0.895307 0.377362
0.698560 0.805519 0.362965
0.734530 0.830620 0.319273
0.773513 0.852158 0.302199
0.816822 0.873996 0.308524
0.857268 0.893858 0.328612
0.890689 0.909963 0.383611
0.922613 0.922047 0.489359
0.945315 0.934589 0.621163
