其他预设/【236】赛博朋克风调色预设/【后期菌】视频调色预设/CUBE/Sunset 10_S.cube
# LUT by SparkleStock. Enhanced with VOXCOLOR algorithms.
LUT_3D_SIZE 8
DOMAIN_MIN 0.000000 0.000000 0.000000
DOMAIN_MAX 0.903226 0.903226 0.903226
0.027370 0.027370 0.027370
0.052597 0.031785 0.031785
0.146943 0.056759 0.057264
0.301328 0.089805 0.092202
0.450036 0.123230 0.119320
0.531391 0.139375 0.139375
0.584744 0.157033 0.157033
0.620944 0.175953 0.173809
0.043768 0.055750 0.047678
0.156378 0.068790 0.068538
0.321122 0.103456 0.100966
0.458992 0.140889 0.118515
0.538454 0.156529 0.125187
0.607241 0.170196 0.141906
0.650390 0.188859 0.167726
0.665139 0.212922 0.190938
0.066093 0.119951 0.086652
0.283572 0.124398 0.113201
0.441651 0.179171 0.130481
0.509473 0.208804 0.132088
0.575797 0.231093 0.124374
0.639522 0.255237 0.132312
0.684710 0.275137 0.153477
0.700887 0.324007 0.162306
0.138870 0.237379 0.163214
0.381856 0.222601 0.119340
0.503573 0.269009 0.130729
0.555124 0.307634 0.121338
0.606748 0.338662 0.114080
0.670522 0.363148 0.112383
0.716340 0.382389 0.125586
0.743507 0.422108 0.144526
0.276227 0.365150 0.228928
0.507487 0.333117 0.109612
0.587145 0.360101 0.111126
0.619544 0.410488 0.103485
0.656127 0.435405 0.093968
0.707250 0.461242 0.099717
0.752727 0.487599 0.119182
0.769702 0.519050 0.142374
0.427963 0.488128 0.261848
0.618421 0.420485 0.117184
0.680462 0.442216 0.123861
0.700114 0.477659 0.124728
0.717540 0.510705 0.125521
0.742661 0.538357 0.134358
0.764876 0.561789 0.155931
0.777790 0.584305 0.180498
0.577303 0.579069 0.301706
0.687094 0.500139 0.143130
0.724498 0.517516 0.141702
0.739634 0.541945 0.148037
0.754000 0.567464 0.163352
0.769637 0.594440 0.183993
0.781717 0.618800 0.207315
0.791400 0.644099 0.241016
0.685902 0.645792 0.319490
0.718834 0.577050 0.166733
0.744882 0.583308 0.162054
0.760771 0.605467 0.183033
0.776037 0.630860 0.210415
0.785924 0.653608 0.244695
0.800303 0.680079 0.289703
0.813506 0.713101 0.381828
0.035443 0.031533 0.039857
0.073189 0.043532 0.051620
0.172389 0.061174 0.073945
0.350799 0.103127 0.117428
0.477911 0.118124 0.144107
0.559473 0.135213 0.163926
0.606720 0.154889 0.180746
0.633557 0.175965 0.194759
0.044240 0.060938 0.061393
0.186852 0.077398 0.088719
0.349803 0.118563 0.129899
0.463014 0.144737 0.152967
0.549497 0.158327 0.167519
0.623969 0.168791 0.176771
0.675268 0.185523 0.189521
0.688733 0.220898 0.210703
0.075426 0.141617 0.113425
0.223504 0.151217 0.132043
0.456888 0.193062 0.172828
0.501898 0.219356 0.172120
0.575037 0.242994 0.178882
0.650459 0.257363 0.185532
0.712869 0.288865 0.202363
0.728801 0.327836 0.226755
0.155345 0.277383 0.212804
0.306704 0.299063 0.213479
0.481386 0.313449 0.183831
0.529917 0.334628 0.167813
0.595531 0.363962 0.167234
0.674253 0.379730 0.165505
0.739200 0.399407 0.168136
0.773927 0.432211 0.179140
0.314254 0.405011 0.280207
0.460244 0.440219 0.265507
0.554701 0.408490 0.156094
0.587808 0.434579 0.140442
0.637008 0.459948 0.135082
0.701037 0.479625 0.137146
0.758902 0.501610 0.142020
0.784328 0.529023 0.154943
0.462271 0.516337 0.323698
0.583945 0.538229 0.301164
0.668109 0.477747 0.159555
0.674544 0.502860 0.138524
0.689722 0.536962 0.145888
0.728493 0.563121 0.154309
0.765208 0.577083 0.172322
0.792275 0.602191 0.193147
0.598407 0.597301 0.343203
0.678403 0.582079 0.286047
0.716189 0.538620 0.169151
0.737923 0.556503 0.165043
0.745911 0.585959 0.176395
0.766230 0.612054 0.198959
0.781979 0.637549 0.228564
0.800455 0.664847 0.251014
0.691818 0.656639 0.351162
0.722744 0.623621 0.257478
0.746708 0.603612 0.203007
0.764312 0.618943 0.205012
0.778727 0.643520 0.237235
0.787295 0.666457 0.272668
0.803399 0.694331 0.326343
0.818160 0.732485 0.434818
0.040110 0.040110 0.057264
0.093496 0.052092 0.073848
0.206029 0.077318 0.107212
0.383549 0.107028 0.162343
0.501241 0.118816 0.194242
0.582132 0.137898 0.216657
0.630851 0.164784 0.233412
0.649425 0.190409 0.235768
0.055848 0.073189 0.089903
0.167185 0.083908 0.111941
0.374773 0.130990 0.180563
0.475076 0.152710 0.222113
0.554941 0.164186 0.242018
0.633539 0.174813 0.249477
0.692350 0.191728 0.253974
0.707940 0.229985 0.251974
0.083995 0.154499 0.149140
0.221267 0.182447 0.191463
0.448009 0.206212 0.231760
0.502246 0.230072 0.247198
0.577637 0.250675 0.256624
0.656884 0.268017 0.264461
0.722618 0.297826 0.267850
0.746777 0.347816 0.274606
0.173109 0.300823 0.250875
0.324754 0.339254 0.266733
0.443775 0.359052 0.277003
0.527829 0.351994 0.265510
0.598073 0.375101 0.266495
0.673695 0.392681 0.264701
0.750033 0.415487 0.267452
0.793259 0.440575 0.244915
0.320988 0.425689 0.329833
0.465214 0.469222 0.334024
0.514190 0.489661 0.312559
0.569259 0.469578 0.237406
0.631022 0.474506 0.219860
0.695375 0.491855 0.218058
0.763545 0.509772 0.221841
0.809625 0.531493 0.211056
0.468993 0.536636 0.379907
0.577206 0.563643 0.364466
0.632631 0.569150 0.344867
0.652754 0.536823 0.202840
0.679381 0.553559 0.186427
0.721882 0.577371 0.199083
0.768540 0.597315 0.213689
0.813998 0.616021 0.229295
0.605853 0.611863 0.387394
0.671857 0.618626 0.371052
0.706861 0.615423 0.331217
0.737690 0.584288 0.213419
0.743680 0.603502 0.201525
0.762052 0.627543 0.225757
0.778161 0.661363 0.250162
0.819807 0.689665 0.281136
0.692961 0.671624 0.395019
0.729267 0.669184 0.364801
0.746327 0.642197 0.287265
0.766838 0.637616 0.246074
0.783216 0.660031 0.270174
0.792271 0.680735 0.299264
0.800906 0.718054 0.357448
0.826869 0.762478 0.451480
0.048434 0.056255 0.091319
0.111374 0.065035 0.117884
0.246741 0.093870 0.147069
0.408730 0.121232 0.212405
0.524018 0.140522 0.251392
0.596584 0.157017 0.274327
0.643395 0.183521 0.280642
0.661522 0.204044 0.280642
0.078026 0.094928 0.144876
0.141941 0.112743 0.166899
0.392892 0.146161 0.236060
0.492007 0.165336 0.289033
0.568665 0.174451 0.317529
0.642703 0.184400 0.324593
0.700227 0.211410 0.323373
0.705042 0.252111 0.303259
0.108880 0.173544 0.201924
0.219258 0.214822 0.252056
0.416031 0.245632 0.307554
0.516219 0.244410 0.326560
0.587068 0.263723 0.342765
0.663530 0.283060 0.350167
0.726046 0.316611 0.347258
0.752535 0.373089 0.335671
0.201452 0.333320 0.304900
0.326735 0.360456 0.327642
0.456634 0.394154 0.359725
0.534508 0.375227 0.358554
0.601112 0.389895 0.356697
0.678334 0.406802 0.351667
0.752398 0.428936 0.349485
0.806298 0.458179 0.333539
0.348696 0.455126 0.383174
0.475308 0.491783 0.393376
0.526075 0.518025 0.391082
0.562658 0.511801 0.374220
0.636936 0.496870 0.338870
0.699208 0.507469 0.327489
0.766798 0.521473 0.331204
0.829458 0.536972 0.321330
0.489861 0.561536 0.443848
0.598433 0.584367 0.423689
0.640791 0.596380 0.412268
0.639520 0.602172 0.383816
0.684750 0.573405 0.275694
0.722849 0.587153 0.265962
0.769975 0.612783 0.293657
0.829106 0.627283 0.308309
0.615724 0.627210 0.435112
0.683847 0.642959 0.418166
0.712685 0.643311 0.396475
0.728656 0.648029 0.369963
0.741160 0.624821 0.259102
0.755472 0.652053 0.270127
0.777620 0.686509 0.308895
0.833817 0.708583 0.342009
0.700028 0.678964 0.429261
0.735739 0.691640 0.421801
0.754272 0.685994 0.390858
0.773378 0.680882 0.344960
0.786176 0.672977 0.300824
0.789626 0.705500 0.342588
0.798358 0.748855 0.413381
0.837117 0.790843 0.499605
0.069498 0.081229 0.155646
0.122787 0.086904 0.166623
0.294525 0.115666 0.194873
0.444531 0.148444 0.245370
0.547788 0.170017 0.294651
0.613702 0.188029 0.316178
0.651330 0.205077 0.314937
0.672328 0.221360 0.317773
0.099843 0.122795 0.208316
0.143610 0.150698 0.241992
0.409735 0.168128 0.279913
0.528997 0.185855 0.335818
0.595001 0.193859 0.368143
0.653340 0.208482 0.373009
0.694274 0.236854 0.367712
0.705403 0.290485 0.352342
0.148965 0.209240 0.276850
0.233596 0.253097 0.316581
0.384797 0.298099 0.373434
0.540033 0.264055 0.388929
0.608966 0.273906 0.408400
0.669595 0.301618 0.415171
0.720943 0.352665 0.404640
0.749267 0.412937 0.388036
0.234604 0.346218 0.350450
0.370463 0.395653 0.385762
0.467338 0.437629 0.425377
0.541989 0.439134 0.444710
0.622276 0.413296 0.431434
0.689179 0.435462 0.425788
0.751003 0.455235 0.415977
0.807759 0.476913 0.403842
0.372307 0.482318 0.433118
0.499754 0.517451 0.447856
0.560176 0.542751 0.453984
0.596169 0.537478 0.442866
0.659186 0.527626 0.423063
0.708175 0.525695 0.399523
0.765693 0.534716 0.410246
0.828502 0.550686 0.408448
0.516719 0.575138 0.485048
0.614390 0.598598 0.464732
0.661073 0.610954 0.458703
0.671059 0.621504 0.441525
0.694198 0.621568 0.416508
0.729498 0.602017 0.340475
0.770674 0.620745 0.370602
0.830443 0.634831 0.385997
0.634530 0.642903 0.480938
0.689869 0.656389 0.458796
0.719049 0.661765 0.441074
0.739747 0.665275 0.416520
0.751670 0.673795 0.401565
0.750664 0.675782 0.349363
0.778559 0.698938 0.378155
0.837948 0.718444 0.420748
0.698446 0.696061 0.458528
0.731020 0.702456 0.447868
0.754204 0.707820 0.437551
0.774184 0.710040 0.415731
0.789102 0.712304 0.396647
0.782183 0.724239 0.395553
0.797461 0.766409 0.477652
0.842479 0.806497 0.566356
0.092328 0.106707 0.221108
0.126371 0.119166 0.249972
0.322371 0.149193 0.280097
0.484141 0.177491 0.296172
0.573970 0.198677 0.327058
0.627027 0.212279 0.343919
0.663182 0.223000 0.349257
0.685523 0.235296 0.358526
0.125041 0.155980 0.282994
0.171367 0.186390 0.319087
0.413773 0.193232 0.336557
0.557149 0.207356 0.352955
0.622862 0.221982 0.379915
0.660545 0.232986 0.382093
0.685186 0.266093 0.380567
0.701717 0.318713 0.380558
0.178586 0.243580 0.341926
0.266928 0.290858 0.372828
0.393248 0.334311 0.409518
0.574473 0.298577 0.408844
0.639861 0.290863 0.424904
0.680406 0.338334 0.435029
0.712044 0.398947 0.425219
0.746799 0.454138 0.428488
0.269502 0.368800 0.398929
0.393726 0.420330 0.432369
0.492925 0.466006 0.465795
0.575683 0.495077 0.496775
0.656623 0.461650 0.477490
0.708847 0.475186 0.452592
0.748393 0.495033 0.447761
0.796046 0.505676 0.450195
0.404356 0.507951 0.478383
0.520386 0.539297 0.494876
0.598539 0.571187 0.499051
0.636309 0.579072 0.494318
0.681555 0.571023 0.476136
0.731634 0.555587 0.437545
0.768843 0.557578 0.457506
0.824503 0.568989 0.473495
0.538918 0.598717 0.531643
0.619554 0.615620 0.509572
0.670569 0.628580 0.493208
0.701456 0.641977 0.474757
0.721742 0.644553 0.454741
0.733145 0.638166 0.455211
0.772887 0.638157 0.468996
0.831269 0.648880 0.488272
0.634660 0.657254 0.517407
0.694928 0.671199 0.486709
0.722111 0.674580 0.465793
0.742670 0.682537 0.454115
0.761056 0.692847 0.451110
0.754107 0.704687 0.455944
0.780439 0.709585 0.451265
0.836961 0.726910 0.502002
0.710863 0.703121 0.484027
0.741953 0.710994 0.468684
0.763769 0.714993 0.455728
0.784696 0.726826 0.462557
0.797416 0.733651 0.459582
0.791038 0.747018 0.477437
0.803183 0.781102 0.556014
0.842006 0.811715 0.633949
0.125753 0.141393 0.305364
0.153530 0.156976 0.327604
0.362481 0.180115 0.367811
0.525841 0.200337 0.355902
0.594204 0.217703 0.370712
0.646187 0.230047 0.388627
0.678000 0.241541 0.391637
0.698210 0.251758 0.393298
0.155898 0.188090 0.355312
0.199861 0.213125 0.383297
0.341140 0.245761 0.414000
0.561092 0.235963 0.388766
0.648828 0.244805 0.390609
0.670608 0.259633 0.394436
0.692888 0.292516 0.405066
0.711421 0.351246 0.424716
0.207372 0.273074 0.396374
0.292216 0.318209 0.425762
0.433810 0.371570 0.460000
0.588081 0.363304 0.446683
0.664570 0.344086 0.438882
0.695079 0.378968 0.438553
0.717049 0.444255 0.450043
0.743641 0.497008 0.456539
0.305067 0.391971 0.442045
0.432623 0.451978 0.482292
0.526271 0.500778 0.510045
0.597659 0.535277 0.524552
0.683641 0.516210 0.494947
0.727222 0.525648 0.468379
0.750167 0.534816 0.463891
0.787537 0.541292 0.476569
0.441057 0.530874 0.517012
0.538614 0.562377 0.534875
0.607701 0.589492 0.537770
0.660242 0.607823 0.527821
0.699164 0.615100 0.501971
0.742819 0.586815 0.455932
0.772347 0.584227 0.476286
0.811378 0.589975 0.499462
0.549489 0.610410 0.559831
0.633231 0.634014 0.545886
0.680578 0.648719 0.525937
0.708066 0.660179 0.506352
0.731541 0.665171 0.482321
0.744027 0.663594 0.486103
0.774619 0.654051 0.500502
0.824028 0.663185 0.532248
0.651549 0.666559 0.539886
0.704982 0.682813 0.513046
0.732663 0.689250 0.486746
0.752153 0.695263 0.473845
0.772989 0.705049 0.469688
0.776036 0.715978 0.482904
0.787621 0.723327 0.508110
0.831013 0.736549 0.567057
0.721817 0.715469 0.509098
0.747997 0.718292 0.486600
0.771459 0.728077 0.481193
0.789665 0.735640 0.480672
0.801673 0.745151 0.485647
0.808769 0.757229 0.529536
0.815337 0.788125 0.619939
0.838423 0.812812 0.690567
0.152114 0.169520 0.374231
0.178097 0.185161 0.391776
0.290248 0.199641 0.412604
0.536395 0.217955 0.409804
0.611708 0.233644 0.409646
0.664899 0.248413 0.428525
0.688571 0.256803 0.424956
0.709317 0.271980 0.430148
0.180368 0.214285 0.412197
0.229189 0.241639 0.431040
0.345885 0.278984 0.462124
0.558501 0.261819 0.436716
0.661121 0.263303 0.426260
0.687244 0.286892 0.433513
0.701773 0.316600 0.441151
0.718718 0.370967 0.457930
0.234002 0.298125 0.451399
0.338197 0.349711 0.480993
0.454236 0.404611 0.507826
0.551356 0.432934 0.516719
0.661912 0.401452 0.490961
0.703195 0.409265 0.472985
0.725664 0.480285 0.487747
0.748289 0.534030 0.484296
0.340339 0.413910 0.480597
0.456499 0.472206 0.518035
0.545177 0.524323 0.547378
0.614005 0.561402 0.558201
0.687693 0.566698 0.545188
0.731085 0.565262 0.503743
0.755241 0.575736 0.471796
0.775224 0.589612 0.463281
0.465969 0.545062 0.541628
0.558540 0.578236 0.561605
0.625652 0.608382 0.567585
0.670561 0.625991 0.556034
0.704239 0.638452 0.535684
0.749509 0.621033 0.480238
0.775437 0.616886 0.463338
0.797610 0.628203 0.483638
0.571183 0.623906 0.584175
0.640743 0.644799 0.569303
0.688940 0.662278 0.549701
0.716898 0.672784 0.526028
0.739955 0.680352 0.503279
0.761185 0.686143 0.490880
0.777409 0.678340 0.493891
0.810353 0.686679 0.515855
0.662315 0.678838 0.564006
0.712717 0.695267 0.534463
0.739269 0.700833 0.509032
0.760453 0.708611 0.496829
0.779720 0.718130 0.490246
0.792035 0.728427 0.487002
0.800063 0.737050 0.517948
0.823864 0.752103 0.594912
0.717902 0.723196 0.530972
0.749648 0.731763 0.513245
0.772157 0.739231 0.503659
0.790387 0.744471 0.498861
0.801392 0.753204 0.511522
0.813834 0.770028 0.573568
0.827128 0.793623 0.651977
0.834669 0.811591 0.718120
