其他预设/【236】赛博朋克风调色预设/【后期菌】视频调色预设/CUBE/Sunset 09.cube
# LUT by SparkleStock. Enhanced with VOXCOLOR algorithms.
LUT_3D_SIZE 32
0.011730 0.003910 0.003910
0.029893 0.005928 0.011982
0.048182 0.007946 0.020055
0.068363 0.009964 0.028127
0.088796 0.011982 0.035443
0.110995 0.014001 0.037461
0.134330 0.016019 0.040236
0.162583 0.018037 0.046290
0.195377 0.021064 0.054363
0.241794 0.027118 0.068489
0.289471 0.032542 0.080093
0.339924 0.036578 0.086148
0.396430 0.042885 0.091445
0.463028 0.052975 0.095481
0.526093 0.066597 0.101283
0.584618 0.084760 0.109356
0.633053 0.096869 0.115410
0.671397 0.102923 0.119446
0.701794 0.111248 0.124618
0.726011 0.121338 0.130672
0.748967 0.128906 0.137988
0.771166 0.134960 0.146060
0.786428 0.139627 0.151357
0.798537 0.143663 0.155394
0.809132 0.147700 0.159430
0.819222 0.151736 0.163466
0.830953 0.157412 0.170782
0.843061 0.163466 0.178854
0.851638 0.169520 0.183395
0.859711 0.175575 0.187431
0.867783 0.179737 0.191467
0.875855 0.183773 0.195503
0.019803 0.020055 0.020055
0.044215 0.021031 0.027086
0.068493 0.022008 0.034051
0.090758 0.022984 0.040041
0.113404 0.024351 0.045924
0.138728 0.028453 0.051067
0.165578 0.031968 0.056381
0.199039 0.032945 0.062435
0.237041 0.035451 0.069726
0.288666 0.042547 0.080728
0.343179 0.049338 0.090184
0.404047 0.055457 0.096238
0.464720 0.063847 0.101536
0.525068 0.076021 0.105572
0.580517 0.089447 0.110918
0.629667 0.104485 0.117949
0.670290 0.115552 0.125045
0.702384 0.122648 0.132206
0.727118 0.129671 0.137573
0.746127 0.136637 0.141544
0.765177 0.144335 0.148078
0.784251 0.152472 0.156150
0.797105 0.156358 0.160732
0.807130 0.158311 0.163726
0.817986 0.161826 0.169065
0.829118 0.165863 0.175184
0.839351 0.171538 0.181198
0.849376 0.177593 0.187187
0.857692 0.183647 0.192379
0.865765 0.189701 0.197456
0.872861 0.193864 0.201558
0.879892 0.197900 0.205594
0.027749 0.036452 0.035821
0.058281 0.036452 0.042006
0.088446 0.036444 0.048048
0.113119 0.036314 0.051954
0.138321 0.036956 0.056413
0.167226 0.043011 0.064746
0.197949 0.047966 0.072627
0.236553 0.048162 0.078551
0.279796 0.050310 0.084980
0.336954 0.058317 0.092922
0.398139 0.066386 0.100254
0.468187 0.074588 0.106243
0.532205 0.084988 0.111549
0.586173 0.099050 0.115715
0.633932 0.112200 0.120708
0.673708 0.124178 0.126762
0.706551 0.134106 0.134769
0.732460 0.141983 0.144729
0.751706 0.147736 0.150259
0.765767 0.151838 0.152342
0.781049 0.159601 0.158169
0.797064 0.169561 0.166241
0.807708 0.172808 0.170196
0.815910 0.173003 0.172279
0.826945 0.176079 0.178805
0.838923 0.180115 0.186813
0.847675 0.185791 0.191593
0.855682 0.191846 0.195630
0.863690 0.198185 0.201318
0.871697 0.204565 0.207242
0.877751 0.208808 0.211335
0.883675 0.212910 0.215306
0.033803 0.056633 0.045912
0.068501 0.056633 0.054179
0.103029 0.056495 0.062044
0.134993 0.054281 0.063867
0.167877 0.053101 0.067025
0.207197 0.059156 0.079524
0.247164 0.064697 0.090399
0.289935 0.068017 0.094240
0.338907 0.072249 0.098586
0.406480 0.079214 0.104445
0.471898 0.087218 0.110019
0.532571 0.097504 0.114967
0.587605 0.108815 0.120402
0.633240 0.121835 0.126652
0.672210 0.133488 0.132816
0.702612 0.143383 0.138870
0.728164 0.150706 0.145836
0.748866 0.155459 0.153713
0.765246 0.160431 0.158917
0.778266 0.165574 0.162042
0.791856 0.172425 0.168259
0.805787 0.180303 0.176331
0.817212 0.185047 0.181002
0.827498 0.188367 0.184127
0.837491 0.192224 0.190133
0.847386 0.196260 0.197098
0.854901 0.201936 0.201684
0.861867 0.207990 0.205720
0.868833 0.218887 0.209585
0.875798 0.230474 0.213426
0.879835 0.236020 0.216413
0.883675 0.241163 0.219342
0.040614 0.076814 0.056759
0.078828 0.076554 0.066329
0.117090 0.076057 0.075317
0.156085 0.072021 0.075577
0.196488 0.069246 0.077742
0.246745 0.075300 0.093235
0.296526 0.081355 0.106203
0.344245 0.087409 0.108221
0.398912 0.093561 0.110808
0.474428 0.100006 0.115105
0.542377 0.108221 0.119361
0.593675 0.120329 0.123527
0.639774 0.132340 0.129110
0.677207 0.144188 0.137052
0.707747 0.154157 0.144168
0.729425 0.161708 0.150222
0.748141 0.166689 0.156212
0.763896 0.169097 0.162136
0.777892 0.173703 0.167144
0.790521 0.180018 0.171441
0.802581 0.186332 0.177772
0.814299 0.192647 0.185323
0.826196 0.198872 0.190548
0.838175 0.205057 0.194714
0.847126 0.209923 0.200296
0.855068 0.214350 0.206351
0.861053 0.220522 0.210025
0.866587 0.227097 0.213150
0.872462 0.241704 0.215420
0.878386 0.257458 0.217568
0.881015 0.264241 0.219350
0.883423 0.270425 0.221108
0.052723 0.096995 0.072904
0.089895 0.094651 0.078307
0.127506 0.092202 0.083519
0.171709 0.088166 0.085863
0.218492 0.085391 0.089199
0.283331 0.091445 0.099485
0.346914 0.097499 0.108221
0.405048 0.103554 0.110239
0.465184 0.110487 0.113347
0.531326 0.120057 0.119727
0.589900 0.130420 0.125741
0.631824 0.142528 0.130949
0.669330 0.153758 0.136791
0.699471 0.163523 0.143692
0.724087 0.170497 0.150222
0.741599 0.173882 0.156277
0.756669 0.178341 0.161745
0.769299 0.183875 0.166628
0.784272 0.191020 0.172352
0.801068 0.199418 0.178732
0.812737 0.207815 0.183240
0.821330 0.216213 0.186625
0.831534 0.223806 0.191264
0.842471 0.231032 0.196472
0.850381 0.238502 0.202315
0.857281 0.246054 0.208369
0.859686 0.256197 0.206119
0.861053 0.266938 0.201952
0.865496 0.279332 0.204223
0.870379 0.291961 0.207413
0.875872 0.299525 0.207307
0.881405 0.306751 0.206981
0.062939 0.116798 0.087535
0.100437 0.113152 0.089944
0.138728 0.109494 0.092515
0.188920 0.105653 0.097528
0.242473 0.103000 0.102549
0.319551 0.108664 0.107627
0.394665 0.114474 0.111948
0.461262 0.120919 0.112989
0.525402 0.128780 0.115642
0.582169 0.140889 0.123129
0.631795 0.152936 0.130228
0.665713 0.164849 0.136478
0.695553 0.175322 0.142581
0.718598 0.183395 0.148440
0.737742 0.188192 0.154299
0.751868 0.188778 0.160158
0.763977 0.193205 0.165106
0.774067 0.201472 0.169142
0.789504 0.210875 0.175339
0.809099 0.221161 0.183216
0.820354 0.231203 0.186292
0.826603 0.241098 0.186487
0.835091 0.249606 0.190308
0.844595 0.257483 0.195776
0.851805 0.267166 0.201684
0.858250 0.277452 0.207738
0.858136 0.290383 0.200199
0.856508 0.303923 0.189522
0.859666 0.314445 0.189669
0.863507 0.324536 0.191361
0.871315 0.332551 0.189941
0.879387 0.340428 0.188314
0.064958 0.134960 0.095607
0.108705 0.133398 0.100099
0.153441 0.131758 0.104949
0.213007 0.128959 0.115170
0.275023 0.126957 0.124097
0.354185 0.130538 0.123967
0.430990 0.135046 0.123080
0.497588 0.143574 0.118913
0.559384 0.152997 0.116879
0.606777 0.165106 0.121241
0.649307 0.176828 0.126518
0.681141 0.187700 0.133809
0.707336 0.197522 0.140172
0.724132 0.205594 0.144990
0.739760 0.211758 0.149807
0.753886 0.215469 0.154625
0.765995 0.221979 0.159051
0.776086 0.231288 0.163088
0.789765 0.241733 0.168698
0.806235 0.253060 0.175534
0.816968 0.262841 0.178870
0.824260 0.271695 0.180107
0.830924 0.279161 0.182105
0.837304 0.285996 0.184449
0.845295 0.296201 0.189575
0.853823 0.307528 0.195630
0.855792 0.318115 0.185551
0.856248 0.328531 0.171750
0.858754 0.338662 0.160569
0.861554 0.348753 0.149763
0.869297 0.355792 0.149514
0.877369 0.362627 0.149970
0.069498 0.156150 0.106203
0.118193 0.155369 0.111476
0.168088 0.154494 0.117302
0.235987 0.152216 0.131429
0.305588 0.150475 0.143155
0.387093 0.152493 0.138077
0.465461 0.155927 0.132389
0.530235 0.165496 0.124056
0.589037 0.175961 0.118181
0.629920 0.189111 0.119678
0.667080 0.201387 0.123067
0.696049 0.211738 0.130619
0.718696 0.221234 0.136950
0.730804 0.229307 0.141247
0.743568 0.236382 0.145429
0.757174 0.242176 0.149466
0.769283 0.250118 0.153502
0.779894 0.260209 0.157538
0.791897 0.270849 0.162270
0.804982 0.281916 0.167543
0.815097 0.291274 0.170944
0.823429 0.299606 0.173223
0.829166 0.306552 0.173577
0.833723 0.312867 0.173056
0.842040 0.323136 0.176490
0.851610 0.334724 0.181242
0.855044 0.343879 0.168381
0.857062 0.352472 0.151455
0.858852 0.363514 0.130086
0.860610 0.374907 0.108082
0.868043 0.383492 0.108111
0.875855 0.391890 0.109608
0.081607 0.186422 0.124365
0.131343 0.182516 0.126514
0.182540 0.178647 0.129411
0.255648 0.175326 0.143537
0.330195 0.172674 0.154743
0.414825 0.174692 0.145498
0.494365 0.177735 0.136230
0.551849 0.185222 0.126855
0.605703 0.195166 0.119678
0.648669 0.212482 0.119092
0.685633 0.227948 0.120398
0.709395 0.239340 0.125867
0.728786 0.249488 0.131286
0.740895 0.257560 0.136625
0.752747 0.264180 0.141393
0.764270 0.268932 0.145429
0.776378 0.276354 0.149466
0.789073 0.286444 0.153502
0.799644 0.294740 0.156476
0.808562 0.301641 0.158624
0.817766 0.310088 0.161505
0.827140 0.319462 0.164825
0.834635 0.327449 0.164072
0.841275 0.334805 0.161468
0.848550 0.343773 0.160476
0.856036 0.353277 0.160020
0.859080 0.363734 0.143643
0.861098 0.374410 0.123592
0.861977 0.390270 0.095453
0.862693 0.406871 0.066158
0.869085 0.424570 0.063778
0.875855 0.442342 0.063192
0.096869 0.216693 0.141267
0.146019 0.212918 0.139965
0.196809 0.209004 0.139404
0.272195 0.203014 0.149950
0.349087 0.197945 0.157623
0.436516 0.199312 0.145189
0.517329 0.201680 0.133256
0.569474 0.208385 0.123491
0.619439 0.217971 0.115500
0.662860 0.236199 0.112830
0.699019 0.252515 0.112155
0.719200 0.264623 0.115866
0.736232 0.275096 0.120211
0.748015 0.282843 0.125615
0.759058 0.288967 0.130420
0.769148 0.293003 0.134456
0.781420 0.300066 0.138004
0.795872 0.310157 0.141064
0.805600 0.317208 0.142219
0.811655 0.321895 0.141894
0.820435 0.330366 0.143684
0.830851 0.341108 0.146744
0.839208 0.349567 0.144701
0.846629 0.356988 0.140339
0.853026 0.365630 0.136710
0.859080 0.374679 0.133325
0.862648 0.387007 0.116769
0.865643 0.400092 0.097174
0.866302 0.420241 0.068123
0.866627 0.441398 0.037721
0.871103 0.465119 0.034845
0.875855 0.489011 0.033803
0.119068 0.246965 0.155394
0.164052 0.250480 0.149925
0.210676 0.253011 0.144742
0.281895 0.240772 0.143830
0.355401 0.229974 0.141348
0.444914 0.229258 0.127873
0.527225 0.230324 0.115288
0.578328 0.239112 0.106565
0.626730 0.248698 0.098834
0.667027 0.260677 0.094082
0.701037 0.272696 0.091649
0.721218 0.284804 0.094318
0.737860 0.294887 0.097231
0.748601 0.301592 0.100551
0.759058 0.307130 0.104184
0.769148 0.311166 0.108221
0.781940 0.318229 0.110206
0.797434 0.328320 0.110141
0.807618 0.336543 0.109344
0.813673 0.343313 0.107976
0.823104 0.353867 0.107423
0.834562 0.366692 0.107358
0.841812 0.374370 0.103623
0.847150 0.379708 0.098220
0.853026 0.390173 0.095892
0.859080 0.402346 0.094590
0.865187 0.417800 0.085196
0.871306 0.434009 0.073933
0.873268 0.457283 0.056861
0.874635 0.481565 0.038958
0.875269 0.504505 0.039792
0.875855 0.527355 0.041876
0.140510 0.278750 0.168764
0.181718 0.286041 0.157957
0.224469 0.292039 0.147199
0.290350 0.278628 0.137174
0.359299 0.266593 0.126685
0.449723 0.264184 0.112948
0.532506 0.263826 0.099908
0.582177 0.272354 0.089883
0.628821 0.280670 0.081045
0.666384 0.288352 0.075772
0.698759 0.297540 0.072656
0.719721 0.310039 0.074283
0.736899 0.320268 0.075764
0.747771 0.326712 0.077001
0.758472 0.332616 0.079121
0.768953 0.337824 0.082376
0.782071 0.345864 0.083190
0.797825 0.356736 0.081562
0.808343 0.365813 0.079935
0.814787 0.373495 0.078307
0.824284 0.384717 0.076924
0.835611 0.398062 0.075687
0.842463 0.406082 0.071675
0.847280 0.411680 0.066402
0.853026 0.423675 0.065377
0.859080 0.437802 0.065767
0.866774 0.454573 0.063460
0.874846 0.471955 0.060531
0.878988 0.496058 0.054070
0.882569 0.521121 0.047104
0.880901 0.543500 0.047157
0.878882 0.565699 0.047678
0.160691 0.313058 0.180872
0.198775 0.318266 0.162774
0.238140 0.322766 0.144856
0.296730 0.316646 0.129622
0.359169 0.310861 0.114706
0.448551 0.307410 0.102012
0.530097 0.305425 0.088841
0.577685 0.309786 0.073608
0.622246 0.314718 0.061385
0.657726 0.321358 0.058195
0.689319 0.330155 0.056185
0.712365 0.343695 0.056771
0.731626 0.354966 0.056820
0.744581 0.362452 0.055974
0.756909 0.370309 0.056010
0.768432 0.378642 0.057182
0.781550 0.389286 0.057475
0.796262 0.402241 0.056889
0.806910 0.411644 0.056303
0.814397 0.418284 0.055717
0.822982 0.427813 0.056027
0.832226 0.439075 0.056873
0.839859 0.449308 0.054944
0.846760 0.459073 0.051754
0.853026 0.472109 0.052031
0.859080 0.486236 0.053463
0.866774 0.501315 0.058122
0.874846 0.516613 0.063525
0.882634 0.537722 0.065397
0.890381 0.559661 0.066764
0.888973 0.581843 0.058549
0.886955 0.604043 0.049696
0.181755 0.347365 0.193864
0.218537 0.350946 0.171665
0.256311 0.354233 0.149547
0.308977 0.353127 0.128650
0.365305 0.351882 0.108453
0.447265 0.349668 0.093154
0.522989 0.348505 0.077660
0.571684 0.351890 0.061320
0.616896 0.355828 0.048447
0.651659 0.361427 0.045973
0.683269 0.369548 0.044272
0.707942 0.383219 0.044272
0.728489 0.395303 0.043515
0.742160 0.404743 0.041497
0.754948 0.414069 0.040362
0.766601 0.423248 0.040362
0.779035 0.434445 0.040590
0.792251 0.447660 0.041046
0.802829 0.457616 0.041245
0.811358 0.465038 0.041245
0.820455 0.474697 0.042506
0.829895 0.485699 0.044524
0.837768 0.496522 0.044081
0.844929 0.507263 0.042518
0.852627 0.521227 0.043641
0.860504 0.536265 0.045660
0.867429 0.550563 0.051645
0.874134 0.564690 0.058545
0.883004 0.582918 0.063509
0.892183 0.601731 0.068196
0.891292 0.620728 0.057809
0.889730 0.639738 0.046416
0.203954 0.381673 0.207990
0.241777 0.384212 0.185791
0.280268 0.386653 0.163283
0.328767 0.387630 0.136136
0.379496 0.388728 0.109559
0.445833 0.390681 0.086970
0.509839 0.393489 0.066333
0.563742 0.399999 0.054159
0.613120 0.406021 0.044150
0.648925 0.410578 0.040635
0.681577 0.417657 0.038218
0.707291 0.430287 0.038218
0.728099 0.442892 0.037461
0.740728 0.455456 0.035443
0.752475 0.465628 0.034308
0.763086 0.472724 0.034308
0.773958 0.481838 0.035056
0.785090 0.492970 0.036554
0.795343 0.503772 0.037209
0.804913 0.514318 0.037209
0.816354 0.526451 0.038470
0.828918 0.539537 0.040488
0.836336 0.548862 0.040761
0.841413 0.556479 0.040240
0.851715 0.571224 0.041623
0.863759 0.588345 0.043641
0.868926 0.603033 0.043702
0.872507 0.617160 0.043312
0.879163 0.632654 0.044630
0.886259 0.648343 0.046193
0.886214 0.660309 0.041469
0.885694 0.672027 0.036326
0.225144 0.415981 0.221108
0.267655 0.416437 0.191097
0.310637 0.416990 0.161102
0.360699 0.419008 0.131351
0.411884 0.421539 0.102366
0.470929 0.427658 0.078734
0.528132 0.433948 0.058033
0.577347 0.440979 0.050025
0.623210 0.447912 0.043011
0.659015 0.454553 0.038975
0.691016 0.462576 0.036037
0.714647 0.473643 0.035516
0.733762 0.485272 0.034629
0.745350 0.497836 0.033132
0.756055 0.507552 0.032062
0.765625 0.513606 0.031541
0.775715 0.521939 0.031769
0.786327 0.532551 0.032745
0.796352 0.543125 0.033173
0.805922 0.553671 0.033173
0.817363 0.566781 0.034434
0.829927 0.581428 0.036452
0.837703 0.591958 0.037441
0.843301 0.600617 0.037961
0.853343 0.614841 0.038433
0.864866 0.630921 0.038889
0.869089 0.645414 0.037388
0.871628 0.659540 0.035435
0.876331 0.671844 0.034735
0.881344 0.683888 0.034214
0.883122 0.693673 0.033266
0.884685 0.703308 0.032290
0.245325 0.450289 0.233217
0.296168 0.447619 0.187582
0.347418 0.445243 0.143004
0.404771 0.447261 0.114295
0.462466 0.450313 0.086872
0.522554 0.460599 0.068449
0.577868 0.469884 0.052759
0.612501 0.474831 0.048919
0.647167 0.481504 0.045029
0.681931 0.493352 0.040993
0.711588 0.504305 0.037730
0.730011 0.513289 0.036167
0.745480 0.522444 0.035020
0.756027 0.531883 0.034564
0.765690 0.539842 0.033624
0.774218 0.545896 0.032062
0.784308 0.554750 0.030727
0.795961 0.566403 0.029620
0.805857 0.575675 0.029136
0.814385 0.583097 0.029136
0.823482 0.595685 0.030398
0.832922 0.611374 0.032416
0.841869 0.625810 0.034121
0.850592 0.639677 0.035683
0.857509 0.652078 0.034072
0.863824 0.663991 0.031403
0.867917 0.677703 0.032701
0.871498 0.691830 0.034914
0.874509 0.700488 0.033824
0.877438 0.708365 0.032261
0.882015 0.720820 0.033201
0.886703 0.733579 0.034308
0.265506 0.486867 0.245325
0.322339 0.483416 0.191683
0.379622 0.480161 0.139188
0.443681 0.479836 0.103904
0.506860 0.480772 0.071305
0.563888 0.490537 0.057504
0.615630 0.499996 0.046022
0.644470 0.508134 0.044589
0.673504 0.517329 0.042799
0.703125 0.529698 0.039935
0.728351 0.540908 0.037518
0.743910 0.549566 0.036086
0.757198 0.557126 0.034971
0.766703 0.562855 0.034385
0.775837 0.568982 0.033173
0.784496 0.575622 0.031154
0.794000 0.585583 0.029429
0.804351 0.598863 0.027997
0.813750 0.609067 0.027700
0.822408 0.616879 0.028286
0.829968 0.628801 0.029035
0.836869 0.643188 0.029881
0.844351 0.657978 0.031130
0.852098 0.672951 0.032562
0.857941 0.683823 0.031211
0.863149 0.693327 0.028933
0.867881 0.705635 0.031309
0.872503 0.718590 0.034759
0.874334 0.726532 0.036501
0.875766 0.733758 0.037998
0.880982 0.745257 0.042181
0.886450 0.757040 0.046542
0.285687 0.525210 0.257434
0.346686 0.522802 0.201708
0.408266 0.520263 0.146479
0.478574 0.515771 0.098696
0.546441 0.512540 0.055681
0.597219 0.518139 0.046046
0.644079 0.525581 0.038145
0.673960 0.541009 0.037754
0.701692 0.554892 0.037266
0.722980 0.564136 0.036484
0.742152 0.573523 0.035825
0.756669 0.583223 0.035435
0.768916 0.589871 0.034580
0.777379 0.591433 0.032953
0.786384 0.595673 0.031154
0.796083 0.603355 0.029136
0.804546 0.614878 0.027932
0.811773 0.630241 0.027541
0.820390 0.643115 0.028286
0.830090 0.654052 0.029913
0.836738 0.665192 0.029751
0.841556 0.676454 0.028514
0.845523 0.688835 0.028396
0.849103 0.701725 0.028786
0.855467 0.711295 0.029519
0.862758 0.719758 0.030365
0.868727 0.730178 0.032481
0.874391 0.741050 0.034890
0.875440 0.750554 0.041969
0.875831 0.759863 0.049716
0.880005 0.767586 0.058195
0.884432 0.775203 0.066723
0.309652 0.557248 0.265759
0.371562 0.553928 0.207299
0.434306 0.550681 0.149376
0.509562 0.548533 0.099509
0.581221 0.546995 0.054379
0.627702 0.549729 0.042400
0.670168 0.554623 0.032668
0.695231 0.568880 0.032668
0.718570 0.581917 0.032831
0.736733 0.591291 0.033482
0.753431 0.600889 0.034133
0.766906 0.610980 0.034784
0.778844 0.618507 0.034434
0.788219 0.621762 0.032416
0.797337 0.627979 0.030967
0.806125 0.638004 0.030251
0.813546 0.650113 0.029893
0.819601 0.664305 0.029893
0.826827 0.676592 0.030662
0.834964 0.687399 0.032029
0.840132 0.696944 0.031281
0.843517 0.705733 0.029262
0.847305 0.716804 0.030870
0.851276 0.728912 0.034125
0.856858 0.737994 0.037428
0.862978 0.746066 0.040749
0.868515 0.754192 0.044598
0.873919 0.762329 0.048569
0.875164 0.772745 0.060173
0.875815 0.783487 0.072867
0.879029 0.789224 0.083120
0.882414 0.794627 0.093211
0.335887 0.585501 0.271813
0.396756 0.580098 0.210228
0.458784 0.575289 0.149636
0.538206 0.579390 0.103936
0.613120 0.583060 0.061670
0.656476 0.583711 0.043442
0.694841 0.585741 0.028632
0.711571 0.593749 0.028632
0.728660 0.602618 0.029055
0.746823 0.614076 0.030748
0.763196 0.625106 0.032440
0.775630 0.635197 0.034133
0.787698 0.644677 0.034434
0.799155 0.653140 0.032416
0.808534 0.663654 0.031879
0.815239 0.676804 0.033246
0.821619 0.688913 0.033929
0.827673 0.699980 0.033929
0.833142 0.709728 0.034112
0.838154 0.718452 0.034438
0.841499 0.725914 0.033299
0.843842 0.732619 0.031281
0.849453 0.743039 0.036468
0.856549 0.755148 0.044931
0.860569 0.764229 0.051099
0.863564 0.772302 0.056503
0.867669 0.777888 0.063281
0.872031 0.782901 0.070377
0.874057 0.793837 0.086017
0.875750 0.805621 0.102878
0.878052 0.810446 0.113392
0.880396 0.814808 0.123482
0.369060 0.612367 0.275092
0.427455 0.608461 0.211099
0.487155 0.605088 0.148330
0.566447 0.609710 0.103932
0.640857 0.613844 0.062740
0.681088 0.614560 0.043991
0.716157 0.616680 0.028892
0.728851 0.624883 0.029608
0.742018 0.633525 0.030292
0.756600 0.643485 0.030878
0.769962 0.653262 0.031687
0.780638 0.662637 0.032989
0.791583 0.672280 0.033583
0.802976 0.682370 0.032998
0.811720 0.693600 0.032924
0.817058 0.706294 0.033510
0.823112 0.716971 0.034161
0.829883 0.725629 0.034877
0.835115 0.734763 0.036802
0.839151 0.744268 0.039666
0.842374 0.751168 0.041717
0.845108 0.756507 0.043279
0.851020 0.766500 0.051197
0.858376 0.778608 0.062004
0.861729 0.787153 0.071394
0.863747 0.794509 0.080313
0.866823 0.799749 0.089708
0.870143 0.804502 0.099212
0.872950 0.813811 0.115040
0.875684 0.823771 0.131771
0.878419 0.828849 0.144290
0.881153 0.833601 0.156529
0.405386 0.638602 0.277110
0.460656 0.637821 0.211034
0.517297 0.637248 0.146312
0.594505 0.639786 0.101914
0.666701 0.642228 0.060982
0.703808 0.643985 0.044317
0.735947 0.647537 0.031106
0.746559 0.658865 0.032863
0.756861 0.669069 0.033807
0.766235 0.675905 0.032310
0.775365 0.683208 0.031362
0.783959 0.691541 0.031622
0.793211 0.700533 0.032347
0.803562 0.710623 0.033844
0.811264 0.720942 0.034031
0.815561 0.731553 0.032534
0.821615 0.740146 0.032664
0.829427 0.746721 0.034422
0.835115 0.756116 0.039145
0.839151 0.767704 0.046176
0.843025 0.774735 0.053044
0.846800 0.779031 0.059815
0.852322 0.788699 0.070076
0.858636 0.800807 0.081924
0.861729 0.808570 0.094700
0.863747 0.814885 0.107785
0.865976 0.820777 0.119654
0.868255 0.826571 0.131242
0.871844 0.833276 0.145507
0.875619 0.840111 0.160154
0.879395 0.845970 0.175473
0.883171 0.851764 0.190837
0.435657 0.658783 0.274588
0.489365 0.661127 0.210334
0.544313 0.663450 0.147468
0.617876 0.665468 0.105413
0.686199 0.667584 0.066304
0.717837 0.670383 0.047816
0.745289 0.674928 0.033173
0.754598 0.687037 0.035191
0.763599 0.697632 0.036200
0.771671 0.703686 0.034182
0.779499 0.710371 0.032794
0.786790 0.718444 0.032794
0.794838 0.726101 0.033258
0.804148 0.733067 0.034495
0.811150 0.741741 0.035675
0.815186 0.752613 0.036781
0.821241 0.761857 0.039906
0.829313 0.769474 0.045049
0.834676 0.777859 0.051401
0.837931 0.786843 0.058692
0.842162 0.793711 0.068912
0.846979 0.799310 0.080891
0.852110 0.808310 0.094033
0.857383 0.818856 0.107704
0.860801 0.825448 0.121717
0.863600 0.830721 0.135843
0.867034 0.836629 0.148330
0.870615 0.842683 0.160439
0.874594 0.848737 0.174313
0.878630 0.854791 0.188440
0.882666 0.859381 0.200797
0.886703 0.863873 0.213036
0.463911 0.676946 0.270552
0.516577 0.682415 0.209423
0.570288 0.687668 0.149681
0.639685 0.689686 0.110751
0.703580 0.691932 0.073986
0.728969 0.695772 0.052373
0.751148 0.701164 0.035191
0.759416 0.713272 0.037209
0.767635 0.723867 0.038218
0.775707 0.729921 0.036200
0.783210 0.736606 0.034812
0.789459 0.744679 0.034812
0.796466 0.750774 0.034885
0.804734 0.753573 0.035081
0.811150 0.760360 0.037498
0.815186 0.772273 0.042771
0.821241 0.783080 0.050062
0.829313 0.792780 0.059371
0.834090 0.799733 0.066959
0.836303 0.804550 0.073209
0.840795 0.811158 0.086294
0.846654 0.818840 0.103481
0.851394 0.827059 0.119682
0.855626 0.835522 0.135436
0.859564 0.840811 0.149970
0.863405 0.845043 0.164097
0.868727 0.850755 0.176584
0.874391 0.856810 0.188692
0.878630 0.862864 0.202567
0.882666 0.868918 0.216693
0.886703 0.871555 0.224168
0.890739 0.873963 0.231199
0.497083 0.695109 0.256677
0.543630 0.701164 0.201212
0.591238 0.707018 0.146975
0.654776 0.709883 0.111170
0.713187 0.712894 0.077172
0.735711 0.716930 0.055819
0.755685 0.722321 0.038690
0.764604 0.733583 0.039862
0.772887 0.743544 0.040659
0.779267 0.749598 0.040334
0.785810 0.756018 0.040374
0.792710 0.763245 0.041221
0.799416 0.770104 0.042702
0.805796 0.776354 0.045240
0.811520 0.784056 0.050428
0.816403 0.793626 0.059021
0.822457 0.801763 0.068363
0.829683 0.808469 0.078454
0.834456 0.814625 0.088654
0.837320 0.820354 0.098940
0.842707 0.827018 0.114149
0.849608 0.834244 0.132312
0.854539 0.841470 0.148505
0.858575 0.848696 0.163804
0.863246 0.853530 0.177589
0.868129 0.857566 0.190869
0.874651 0.863242 0.203197
0.881552 0.869297 0.215306
0.885946 0.874610 0.227699
0.889982 0.879818 0.240134
0.894018 0.882829 0.250554
0.898054 0.885694 0.260839
0.531391 0.713272 0.240532
0.570646 0.719326 0.191317
0.611029 0.725246 0.143135
0.668317 0.729152 0.110454
0.720999 0.733075 0.079320
0.741440 0.737111 0.059009
0.759916 0.742307 0.042531
0.769877 0.752527 0.042661
0.778421 0.761707 0.043198
0.782718 0.767761 0.044956
0.788153 0.773856 0.046754
0.796096 0.780040 0.048642
0.802671 0.788202 0.051946
0.806967 0.799660 0.057609
0.811976 0.808924 0.065922
0.817900 0.815369 0.077640
0.823954 0.819861 0.088544
0.830139 0.822400 0.098635
0.835042 0.827905 0.111764
0.838948 0.835717 0.127258
0.845376 0.842512 0.144420
0.853319 0.848696 0.162583
