其他预设/【236】赛博朋克风调色预设/【后期菌】视频调色预设/CUBE/Sunset 02.cube
# LUT by SparkleStock. Enhanced with VOXCOLOR algorithms.
LUT_3D_SIZE 5
DOMAIN_MIN 0.000000 0.000000 0.000000
DOMAIN_MAX 0.903226 0.903226 0.903226
0.086022 0.070381 0.062561
0.117554 0.078201 0.072778
0.358087 0.109986 0.039479
0.808501 0.183899 0.050957
0.933750 0.228171 0.127897
0.097752 0.107338 0.097752
0.335818 0.116924 0.053406
0.776501 0.182422 0.047372
0.912678 0.231056 0.112485
0.944955 0.283836 0.149099
0.137357 0.223505 0.157790
0.459464 0.233363 0.032399
0.798748 0.351422 0.050253
0.893542 0.458642 0.102480
0.952502 0.624606 0.175786
0.301454 0.496453 0.205342
0.767480 0.581925 0.072407
0.897709 0.726516 0.127519
0.952922 0.837686 0.183065
0.981049 0.917133 0.254374
0.675811 0.812411 0.220351
0.916051 0.889795 0.165789
0.966291 0.941297 0.237904
0.989406 0.974868 0.313184
1.000000 0.990216 0.421563
0.092328 0.088418 0.102545
0.162827 0.103086 0.130167
0.473318 0.145088 0.097805
0.861745 0.214297 0.139526
0.948255 0.252063 0.209756
0.110365 0.126302 0.156024
0.446233 0.151561 0.134172
0.859792 0.222304 0.151988
0.941305 0.263592 0.204801
0.963610 0.311385 0.247502
0.163267 0.265055 0.249919
0.329420 0.321510 0.221832
0.883061 0.355975 0.140489
0.934303 0.473078 0.185545
0.956660 0.652762 0.218232
0.358843 0.557138 0.284804
0.654070 0.674265 0.232309
0.909238 0.773979 0.152578
0.957257 0.869976 0.215241
0.987730 0.940867 0.287164
0.725873 0.833296 0.281830
0.898275 0.908747 0.228541
0.968610 0.953117 0.261624
0.990382 0.982050 0.348599
0.997329 0.986888 0.492410
0.106455 0.109104 0.184782
0.216262 0.142781 0.232928
0.632381 0.199540 0.211974
0.900422 0.249174 0.253638
0.958870 0.278034 0.307781
0.132906 0.162783 0.273505
0.260024 0.191433 0.308730
0.889331 0.252657 0.251888
0.950853 0.290954 0.294771
0.964070 0.354139 0.318050
0.189860 0.304460 0.352822
0.345295 0.400564 0.368380
0.873280 0.409436 0.282645
0.948431 0.506316 0.299722
0.964436 0.685218 0.321900
0.436618 0.633102 0.394823
0.682586 0.723034 0.354820
0.861793 0.833816 0.314572
0.962390 0.888442 0.253120
0.982352 0.950291 0.316389
0.769718 0.861476 0.344505
0.896500 0.928313 0.352556
0.969905 0.965355 0.330577
0.995481 0.988366 0.391885
0.991641 0.978844 0.596879
0.142150 0.161070 0.342446
0.215811 0.188827 0.391125
0.727684 0.250118 0.373886
0.917100 0.282912 0.381221
0.966922 0.312333 0.418031
0.163356 0.226178 0.437985
0.233833 0.254984 0.463125
0.874625 0.274863 0.361382
0.947496 0.320008 0.380047
0.964700 0.402652 0.393291
0.225018 0.375480 0.484267
0.397511 0.465956 0.480611
0.714633 0.558251 0.437257
0.953785 0.590378 0.375589
0.970412 0.747701 0.382790
0.499659 0.683908 0.501547
0.745124 0.780395 0.444728
0.884280 0.870657 0.403320
0.960804 0.909561 0.366301
0.988672 0.952334 0.400114
0.817335 0.887996 0.407782
0.915347 0.939360 0.399433
0.970683 0.971596 0.421627
0.993575 0.985337 0.480938
0.994117 0.973017 0.714029
0.173430 0.233847 0.536941
0.211713 0.242982 0.563030
0.764795 0.302568 0.528681
0.923818 0.321700 0.507080
0.964819 0.336685 0.519282
0.198006 0.319197 0.617750
0.260412 0.335769 0.610474
0.713982 0.342053 0.521416
0.945394 0.362484 0.471559
0.967818 0.459437 0.469293
0.265169 0.466075 0.625570
0.459960 0.549510 0.602749
0.739130 0.645587 0.552242
0.950722 0.680314 0.452663
0.982065 0.806842 0.435233
0.558672 0.734242 0.597297
0.777593 0.812854 0.518333
0.900793 0.888489 0.457767
0.964756 0.940196 0.440074
0.991202 0.960551 0.451595
0.849160 0.907559 0.464086
0.934620 0.952039 0.447969
0.980549 0.977596 0.458640
0.994921 0.978388 0.611003
0.993550 0.967837 0.824584
