其他预设/【236】赛博朋克风调色预设/【后期菌】视频调色预设/CUBE/Sunset 01_S.cube
# LUT by SparkleStock. Enhanced with VOXCOLOR algorithms.
LUT_3D_SIZE 8
DOMAIN_MIN 0.000000 0.000000 0.000000
DOMAIN_MAX 0.903226 0.903226 0.903226
0.007820 0.003910 0.003910
0.012235 0.007820 0.015640
0.045155 0.012739 0.016145
0.223126 0.031911 0.010217
0.636332 0.079337 0.006811
0.805096 0.113266 0.005171
0.843692 0.128149 0.005424
0.854161 0.136852 0.011352
0.015893 0.016145 0.015893
0.048699 0.020592 0.023932
0.248499 0.041245 0.014412
0.630518 0.098635 0.007820
0.757414 0.121021 0.007820
0.811321 0.135636 0.010685
0.846914 0.141743 0.015360
0.866143 0.157802 0.026992
0.020055 0.038722 0.028884
0.152566 0.050802 0.041969
0.577742 0.112830 0.007316
0.709167 0.160817 0.007063
0.747958 0.187187 0.004040
0.802573 0.200496 0.009586
0.850560 0.219733 0.020490
0.880673 0.270051 0.021467
0.033551 0.134078 0.067859
0.257015 0.131998 0.040993
0.658617 0.207120 0.003406
0.732086 0.259240 0.006453
0.757292 0.295973 0.004724
0.808501 0.338276 0.011234
0.862990 0.377507 0.018330
0.899963 0.476202 0.025458
0.076562 0.334248 0.143916
0.418239 0.346804 0.048882
0.697632 0.396675 0.010847
0.755192 0.466995 0.008829
0.776724 0.512841 0.007820
0.819023 0.561443 0.008146
0.872515 0.629334 0.015616
0.911900 0.709557 0.034609
0.221739 0.553085 0.174818
0.677467 0.544688 0.036956
0.806268 0.591214 0.027029
0.830525 0.640311 0.023452
0.840266 0.678997 0.021011
0.865903 0.726837 0.026711
0.888139 0.765901 0.037241
0.902534 0.801503 0.050583
0.457730 0.694605 0.159682
0.776606 0.696216 0.043768
0.843692 0.725312 0.036395
0.861729 0.756161 0.036578
0.874582 0.787942 0.044650
0.887048 0.815565 0.055608
0.898433 0.834106 0.068274
0.909101 0.847171 0.081481
0.660549 0.784410 0.129032
0.808526 0.777701 0.050314
0.843517 0.801666 0.051185
0.862738 0.823295 0.060795
0.878882 0.838598 0.069323
0.896980 0.848485 0.082111
0.907787 0.861350 0.100706
0.917898 0.869801 0.131376
0.008072 0.008072 0.016145
0.024250 0.011982 0.027891
0.060921 0.013968 0.033234
0.313241 0.039381 0.025430
0.679343 0.081041 0.025731
0.799924 0.101283 0.028632
0.844225 0.125501 0.028575
0.861981 0.138618 0.036212
0.016633 0.016885 0.025698
0.073381 0.025528 0.044759
0.342733 0.064280 0.044166
0.625256 0.106894 0.047410
0.720926 0.128093 0.066438
0.786854 0.138651 0.070796
0.840500 0.144660 0.064431
0.872158 0.162612 0.063388
0.028412 0.051966 0.054932
0.090476 0.065415 0.071114
0.635853 0.147736 0.055620
0.663859 0.184642 0.071044
0.704415 0.206346 0.082075
0.771537 0.214377 0.086552
0.845205 0.234452 0.094554
0.886207 0.267051 0.088500
0.047804 0.155569 0.108241
0.137066 0.200313 0.133314
0.608287 0.245685 0.062694
0.671865 0.288324 0.062531
0.709916 0.326931 0.079092
0.779621 0.361452 0.083608
0.849721 0.399576 0.076402
0.904623 0.474713 0.063742
0.112879 0.377389 0.188566
0.290036 0.460346 0.176157
0.624955 0.451281 0.051271
0.700542 0.483410 0.047930
0.728961 0.525970 0.054527
0.790187 0.563106 0.055812
0.856607 0.626161 0.050847
0.903593 0.696091 0.046199
0.276984 0.587808 0.209801
0.510941 0.638451 0.163531
0.777581 0.633999 0.045672
0.785019 0.651502 0.035031
0.795399 0.685955 0.047022
0.833916 0.725447 0.050632
0.874003 0.763772 0.053401
0.900471 0.789346 0.064026
0.527843 0.712165 0.179892
0.711515 0.742623 0.110600
0.827526 0.739438 0.045127
0.858936 0.770465 0.043552
0.855678 0.794392 0.051368
0.876798 0.818569 0.063477
0.894509 0.837662 0.075476
0.906383 0.841926 0.090619
0.689332 0.792861 0.148456
0.782720 0.801435 0.082853
0.841075 0.809287 0.060731
0.865168 0.826095 0.067228
0.883934 0.842634 0.079131
0.898718 0.851956 0.090847
0.910003 0.863990 0.109083
0.918241 0.869777 0.161591
0.012235 0.008325 0.029389
0.032355 0.015421 0.045314
0.098391 0.021064 0.064140
0.403799 0.048825 0.068685
0.703043 0.084130 0.071272
0.805726 0.104184 0.085895
0.842500 0.121534 0.079096
0.861704 0.138569 0.079821
0.023745 0.024250 0.057426
0.064269 0.026312 0.078665
0.401489 0.073100 0.089455
0.637677 0.116956 0.119348
0.704789 0.128793 0.151003
0.775628 0.139467 0.151935
0.838029 0.148782 0.136564
0.872750 0.171399 0.122652
0.033738 0.061983 0.096421
0.093753 0.084658 0.139956
0.607651 0.153632 0.127006
0.644409 0.193079 0.158775
0.697923 0.213744 0.175388
0.767554 0.225053 0.183491
0.839895 0.245602 0.176604
0.890708 0.286058 0.153195
0.060543 0.178699 0.168442
0.153886 0.245092 0.212246
0.488660 0.291667 0.202477
0.652704 0.301809 0.180113
0.704215 0.330306 0.189392
0.775329 0.364584 0.190505
0.844893 0.409371 0.183671
0.904630 0.476801 0.132714
0.140376 0.402208 0.241399
0.328906 0.495128 0.249232
0.508014 0.538896 0.220975
0.674353 0.504328 0.137593
0.725877 0.513669 0.139119
0.783298 0.554986 0.137292
0.845297 0.602279 0.132883
0.901694 0.659981 0.110358
0.326070 0.613881 0.256461
0.541937 0.666798 0.224366
0.692199 0.700862 0.184606
0.757072 0.677239 0.085012
0.777747 0.694905 0.088385
0.817514 0.723240 0.097523
0.856277 0.748200 0.108247
0.896410 0.761095 0.119816
0.566268 0.728017 0.218378
0.717748 0.757871 0.175082
0.791919 0.781170 0.125769
0.851696 0.787541 0.063262
0.852575 0.803571 0.068314
0.868450 0.820945 0.081800
0.873011 0.826297 0.110376
0.903839 0.830553 0.133710
0.719977 0.802699 0.184176
0.787134 0.817676 0.145672
0.832807 0.819811 0.085388
0.866315 0.833626 0.077898
0.886538 0.847127 0.089959
0.899026 0.857831 0.104108
0.896154 0.865595 0.132289
0.912777 0.870675 0.211585
0.019550 0.015640 0.062435
0.037966 0.016853 0.080850
0.137776 0.028477 0.107728
0.472996 0.052975 0.115683
0.734381 0.090367 0.138952
0.814311 0.107321 0.155125
0.844323 0.122600 0.144713
0.861981 0.140384 0.144762
0.028428 0.033600 0.115255
0.055691 0.042917 0.150046
0.427740 0.079143 0.168090
0.665395 0.115821 0.197474
0.721230 0.132128 0.235287
0.783466 0.140718 0.237202
0.842794 0.156159 0.221599
0.872609 0.181786 0.186230
0.042535 0.072302 0.178366
0.091577 0.105491 0.245221
0.452981 0.157233 0.265619
0.660871 0.194880 0.252975
0.702557 0.215239 0.272594
0.771112 0.234591 0.280117
0.842049 0.260283 0.262063
0.893482 0.313061 0.220383
0.079882 0.219383 0.280894
0.167903 0.277608 0.309059
0.473661 0.325534 0.324964
0.664371 0.315319 0.287745
0.712781 0.343588 0.286777
0.778029 0.379313 0.282914
0.844896 0.426215 0.272667
0.904613 0.491153 0.235017
0.173992 0.442167 0.340265
0.360939 0.523014 0.339301
0.528383 0.571023 0.323420
0.652487 0.564940 0.291509
0.739829 0.523119 0.245783
0.784669 0.554766 0.242894
0.840561 0.592404 0.243978
0.904418 0.629992 0.221583
0.382320 0.644657 0.339798
0.594532 0.695813 0.308962
0.710918 0.720528 0.272368
0.735099 0.730268 0.234307
0.790849 0.713524 0.142703
0.815429 0.724421 0.151398
0.840294 0.729285 0.196441
0.898168 0.741460 0.210467
0.609963 0.744634 0.274169
0.747426 0.777233 0.237369
0.801355 0.793877 0.191125
0.826692 0.814666 0.154743
0.849438 0.810271 0.093334
0.853028 0.823221 0.122971
0.860471 0.819731 0.177614
0.905614 0.820018 0.214950
0.747218 0.811077 0.221739
0.804641 0.828961 0.201868
0.835478 0.835754 0.153831
0.866727 0.842059 0.109123
0.890177 0.850047 0.095945
0.889997 0.862618 0.128526
0.884034 0.869984 0.193929
0.913963 0.873923 0.309671
0.024469 0.025479 0.128528
0.045468 0.023017 0.153315
0.189347 0.034812 0.173935
0.560214 0.067147 0.174244
0.776590 0.100030 0.207974
0.832088 0.116924 0.225152
0.856041 0.130936 0.224982
0.865435 0.145604 0.226910
0.040492 0.047617 0.220172
0.059367 0.062459 0.283502
0.426096 0.080024 0.268529
0.726097 0.115946 0.268451
0.762834 0.133083 0.300828
0.810158 0.144875 0.296463
0.853110 0.163145 0.281664
0.876222 0.203418 0.248840
0.062183 0.108981 0.337023
0.098305 0.144404 0.390488
0.286903 0.184033 0.409698
0.697359 0.190759 0.340138
0.743762 0.212325 0.346504
0.794623 0.238099 0.348501
0.854451 0.281826 0.322506
0.895467 0.350860 0.276136
0.097890 0.254061 0.409410
0.217372 0.328200 0.439161
0.426877 0.399305 0.444713
0.652093 0.397003 0.413825
0.750199 0.358857 0.363671
0.802077 0.407748 0.350164
0.856713 0.460742 0.332026
0.908634 0.519780 0.304442
0.202762 0.485556 0.452762
0.403634 0.560996 0.450978
0.577015 0.607499 0.422928
0.695551 0.604160 0.382595
0.778506 0.577163 0.328652
0.812665 0.586938 0.296847
0.848032 0.611309 0.314100
0.905838 0.639360 0.301395
0.437647 0.663894 0.437118
0.634358 0.711555 0.386101
0.745494 0.739665 0.345301
0.776336 0.757792 0.302310
0.812546 0.761618 0.259121
0.827994 0.741794 0.199920
0.843566 0.734405 0.257349
0.901199 0.743597 0.279062
0.661815 0.765238 0.343431
0.764522 0.787456 0.297376
0.812944 0.807709 0.250434
0.838123 0.821521 0.203862
0.851541 0.829823 0.171257
0.842003 0.824809 0.172592
0.857025 0.819129 0.243540
0.904075 0.821333 0.286665
0.755380 0.818942 0.266458
0.804315 0.830949 0.234285
0.832326 0.839861 0.209006
0.858252 0.846883 0.156659
0.879879 0.854445 0.137674
0.876998 0.864429 0.162631
0.881001 0.870094 0.263009
0.914960 0.874818 0.425656
0.035064 0.035064 0.242929
0.049830 0.044317 0.292677
0.204984 0.056560 0.318262
0.632267 0.078730 0.273217
0.807944 0.109197 0.291111
0.841800 0.121493 0.303305
0.858307 0.138854 0.310616
0.867152 0.154324 0.326232
0.053858 0.074535 0.367612
0.072714 0.098460 0.431635
0.350969 0.089826 0.392555
0.765327 0.110780 0.341472
0.817979 0.136562 0.340402
0.840053 0.149537 0.337044
0.864042 0.178818 0.325449
0.875635 0.225653 0.309148
0.076545 0.155215 0.480324
0.122586 0.198719 0.521631
0.267094 0.231958 0.520336
0.755479 0.198839 0.409133
0.809581 0.206831 0.392132
0.843144 0.247995 0.380239
0.877454 0.307612 0.347486
0.901061 0.394478 0.332811
0.118531 0.301958 0.539480
0.241595 0.364880 0.542731
0.429880 0.440138 0.539026
0.652474 0.481632 0.519006
0.815131 0.402258 0.432252
0.855651 0.441206 0.365887
0.882062 0.509133 0.351359
0.912613 0.567070 0.344154
0.249455 0.531505 0.563176
0.450759 0.594563 0.537811
0.636365 0.646475 0.506320
0.740602 0.672393 0.464623
0.816060 0.669647 0.397838
0.859402 0.646867 0.314381
0.871775 0.657071 0.340021
0.912437 0.668887 0.353226
0.487204 0.693160 0.532258
0.657062 0.722805 0.476137
0.765022 0.753759 0.410233
0.817155 0.778976 0.344119
0.847250 0.791735 0.293189
0.842128 0.771614 0.286418
0.858373 0.751249 0.322673
0.904372 0.749454 0.353276
0.680791 0.777204 0.419984
0.776564 0.797599 0.345757
0.820408 0.812126 0.290006
0.842153 0.826080 0.251640
0.857945 0.837084 0.216343
0.841781 0.832100 0.240142
0.860528 0.824764 0.282361
0.907163 0.822835 0.340763
0.778596 0.823507 0.309965
0.818584 0.836173 0.262244
0.841722 0.841454 0.222357
0.868223 0.851890 0.200049
0.886700 0.858776 0.177928
0.884242 0.865981 0.207556
0.885851 0.873226 0.342590
0.914304 0.875326 0.525729
0.052344 0.064705 0.402611
0.068839 0.079308 0.451928
0.233233 0.078763 0.455826
0.693474 0.095229 0.392398
0.813660 0.114527 0.401980
0.845474 0.133068 0.404881
0.863242 0.151069 0.405016
0.871945 0.176006 0.411082
0.067761 0.116391 0.518106
0.089915 0.145107 0.559694
0.192974 0.164330 0.572088
0.726606 0.133489 0.458988
0.847675 0.145821 0.402353
0.863276 0.172009 0.400452
0.871781 0.201464 0.392937
0.883704 0.258191 0.396342
0.094977 0.220673 0.606956
0.141784 0.253103 0.616622
0.301192 0.291995 0.606918
0.734748 0.258953 0.517546
0.852927 0.236212 0.448235
0.878002 0.275044 0.413525
0.891893 0.349980 0.394932
0.904260 0.443308 0.380003
0.142439 0.355182 0.631242
0.286136 0.434353 0.640054
0.470754 0.498679 0.618815
0.655609 0.545831 0.591553
0.858214 0.475559 0.484623
0.898550 0.500579 0.398855
0.901520 0.569079 0.370565
0.917670 0.618287 0.366257
0.292197 0.571236 0.641162
0.485994 0.623772 0.621146
0.655827 0.668723 0.582197
0.766775 0.709341 0.532116
0.833017 0.735360 0.455574
0.885816 0.702209 0.338751
0.890499 0.699936 0.340495
0.911464 0.703172 0.351835
0.519356 0.710920 0.604576
0.687881 0.740787 0.544682
0.777278 0.768802 0.476495
0.821966 0.788983 0.402251
0.851166 0.805478 0.333107
0.856470 0.800425 0.309644
0.875125 0.779643 0.323296
0.906912 0.774021 0.361944
0.712930 0.787185 0.476703
0.793282 0.804235 0.396741
0.831096 0.820087 0.330912
0.851972 0.830480 0.277363
0.870879 0.841270 0.234803
0.870348 0.843515 0.236724
0.875411 0.838093 0.284791
0.910997 0.834660 0.366680
0.797170 0.830175 0.350824
0.826815 0.837920 0.292103
0.850969 0.847525 0.249071
0.872940 0.855756 0.214785
0.893065 0.863267 0.199572
0.904715 0.866226 0.249422
0.900793 0.869589 0.429752
0.916874 0.873641 0.631527
0.072147 0.114023 0.556491
0.085895 0.135111 0.591592
0.163519 0.134330 0.588052
0.668028 0.119898 0.506873
0.820659 0.134757 0.499451
0.853465 0.155577 0.490834
0.869065 0.175489 0.480853
0.876653 0.201220 0.481362
0.086148 0.184302 0.634578
0.104603 0.211311 0.654627
0.188204 0.235221 0.658368
0.666717 0.177536 0.560780
0.849716 0.171831 0.489685
0.867934 0.198661 0.481663
0.876714 0.232642 0.475145
0.886931 0.286486 0.464898
0.106963 0.282514 0.686231
0.171726 0.315473 0.686159
0.327432 0.354229 0.674258
0.562661 0.385131 0.651446
0.837832 0.306750 0.549905
0.883062 0.314463 0.479573
0.896743 0.396580 0.459584
0.910543 0.499524 0.431939
0.175843 0.417478 0.701290
0.322437 0.479643 0.693490
0.507073 0.546586 0.678416
0.680226 0.598305 0.655740
0.848044 0.578880 0.576749
0.903515 0.569497 0.472369
0.916506 0.627829 0.388950
0.923379 0.690496 0.345026
0.334008 0.603432 0.698185
0.531104 0.652891 0.666796
0.687582 0.697630 0.634562
0.774646 0.727708 0.589464
0.829306 0.758402 0.518609
0.896517 0.749731 0.377901
0.908654 0.752818 0.312816
0.917990 0.765572 0.304485
0.565886 0.727208 0.649824
0.701896 0.754419 0.601215
0.787839 0.778054 0.527112
0.832894 0.799188 0.437525
0.859681 0.816178 0.364699
0.878452 0.826416 0.297036
0.891489 0.817726 0.273537
0.912035 0.815400 0.292436
0.727704 0.792861 0.525231
0.804498 0.812317 0.442121
0.838406 0.824586 0.367788
0.859304 0.837263 0.305158
0.877872 0.845695 0.254535
0.891731 0.856772 0.221744
0.899568 0.854503 0.251207
0.917934 0.849506 0.374461
0.799216 0.833056 0.387394
0.830136 0.841634 0.323547
0.852500 0.850605 0.271503
0.875362 0.860219 0.235128
0.895870 0.866400 0.227602
0.911017 0.869868 0.326699
0.918235 0.873274 0.524982
0.922892 0.875516 0.707408
