其他预设/【236】赛博朋克风调色预设/【后期菌】视频调色预设/CUBE/Sunset 05_S.cube
# LUT by SparkleStock. Enhanced with VOXCOLOR algorithms.
LUT_3D_SIZE 5
DOMAIN_MIN 0.000000 0.000000 0.000000
DOMAIN_MAX 0.903226 0.903226 0.903226
0.152493 0.129032 0.101662
0.171412 0.131429 0.109482
0.361871 0.156907 0.137357
0.622584 0.204711 0.189071
0.708731 0.228550 0.207234
0.164223 0.158169 0.111878
0.367620 0.184819 0.144339
0.581953 0.232370 0.146817
0.704048 0.251135 0.163702
0.757272 0.294053 0.201086
0.190332 0.236496 0.148204
0.476040 0.310031 0.158946
0.601679 0.407298 0.141446
0.690756 0.458548 0.144782
0.745647 0.537636 0.186023
0.269921 0.427837 0.194242
0.610146 0.521081 0.158059
0.681520 0.592658 0.166872
0.724445 0.655882 0.164980
0.752719 0.711567 0.172674
0.476776 0.621953 0.235992
0.683558 0.679754 0.172600
0.724962 0.730153 0.181735
0.759815 0.772619 0.186959
0.805136 0.813376 0.205000
0.152493 0.129032 0.117302
0.186467 0.135925 0.133780
0.443241 0.152456 0.192981
0.658019 0.183781 0.227288
0.740675 0.228550 0.253524
0.168133 0.166330 0.141015
0.392513 0.205312 0.206345
0.583994 0.238842 0.242508
0.721263 0.253879 0.250512
0.800787 0.291599 0.257784
0.204259 0.272370 0.187647
0.325558 0.371739 0.220561
0.599758 0.424847 0.235198
0.716448 0.470020 0.230492
0.794561 0.541567 0.217817
0.297409 0.478566 0.240146
0.539492 0.570287 0.227679
0.657064 0.628752 0.183995
0.714714 0.673873 0.182646
0.787824 0.718094 0.191500
0.519986 0.645235 0.255037
0.675779 0.704301 0.206066
0.731114 0.743699 0.190430
0.772042 0.789615 0.197758
0.823658 0.837682 0.231538
0.160313 0.137735 0.153880
0.208479 0.136852 0.180962
0.522940 0.163645 0.273546
0.688945 0.185254 0.312333
0.761727 0.216547 0.313709
0.178602 0.189360 0.212010
0.272550 0.208148 0.295489
0.614158 0.236456 0.370753
0.733070 0.256834 0.379991
0.805650 0.316630 0.335107
0.203629 0.310010 0.253682
0.320834 0.403974 0.321806
0.614701 0.445389 0.370013
0.732477 0.483782 0.365581
0.828882 0.544959 0.336465
0.330871 0.529751 0.314225
0.544252 0.599732 0.296014
0.644743 0.670006 0.274829
0.719266 0.688823 0.269114
0.816103 0.718330 0.307953
0.559038 0.670746 0.282009
0.676283 0.736073 0.260749
0.740668 0.771590 0.227780
0.773455 0.809920 0.240278
0.851132 0.862578 0.341376
0.181881 0.165610 0.266768
0.221621 0.171774 0.312041
0.572493 0.172328 0.364662
0.715998 0.194242 0.399486
0.791758 0.212564 0.410024
0.212035 0.227927 0.347793
0.253291 0.250383 0.377713
0.685936 0.224994 0.418011
0.763171 0.261806 0.410572
0.802268 0.353032 0.377428
0.226312 0.352728 0.366269
0.363595 0.435390 0.392128
0.598765 0.518792 0.417672
0.756840 0.525516 0.375778
0.820741 0.577378 0.402863
0.374712 0.564690 0.382275
0.584571 0.630610 0.354901
0.686870 0.698842 0.294762
0.726899 0.719074 0.329219
0.827691 0.732753 0.413439
0.611269 0.700753 0.307602
0.700679 0.750525 0.267903
0.753813 0.792462 0.255548
0.790332 0.828607 0.283839
0.861585 0.876898 0.466583
0.224261 0.208621 0.459496
0.244727 0.216840 0.478416
0.610223 0.174293 0.511885
0.740834 0.187337 0.516983
0.801393 0.208031 0.510665
0.244276 0.266926 0.490610
0.284646 0.300737 0.501346
0.616853 0.250289 0.527149
0.787279 0.272055 0.462869
0.805740 0.395468 0.418783
0.258085 0.397712 0.463785
0.409399 0.481842 0.483205
0.616179 0.569084 0.477935
0.759499 0.584285 0.372107
0.798642 0.643756 0.337815
0.419610 0.599282 0.458711
0.611310 0.660661 0.407684
0.700184 0.716888 0.325205
0.745785 0.761832 0.276342
0.809389 0.774067 0.334616
0.632890 0.724583 0.339167
0.715405 0.772366 0.291477
0.763020 0.805876 0.267980
0.813371 0.847849 0.312214
0.873037 0.894677 0.565612
