其他预设/【236】赛博朋克风调色预设/【后期菌】视频调色预设/CUBE/Sunset 02.cube
# LUT by SparkleStock. Enhanced with VOXCOLOR algorithms.
LUT_3D_SIZE 32
0.086022 0.070381 0.062561
0.090058 0.074417 0.066597
0.093968 0.078201 0.070381
0.095986 0.078201 0.070381
0.098256 0.078201 0.070381
0.102292 0.078201 0.070381
0.107464 0.078201 0.070760
0.117554 0.078201 0.072778
0.129663 0.079715 0.073787
0.147826 0.085769 0.071769
0.169773 0.090562 0.069120
0.200044 0.092580 0.065084
0.239397 0.096112 0.058777
0.293886 0.102166 0.048687
0.358087 0.109986 0.039479
0.434774 0.120077 0.031407
0.508435 0.129158 0.025352
0.579069 0.137231 0.021316
0.648567 0.147574 0.022956
0.717182 0.159682 0.029010
0.768139 0.171791 0.038848
0.808501 0.183899 0.050957
0.839151 0.190458 0.063066
0.865386 0.194494 0.075174
0.884054 0.200044 0.085769
0.900199 0.206098 0.095860
0.913064 0.213792 0.105950
0.925173 0.221865 0.116041
0.933750 0.228171 0.127897
0.941822 0.234226 0.140006
0.948002 0.236496 0.150222
0.954057 0.238514 0.160313
0.086022 0.076436 0.068615
0.091099 0.078389 0.071610
0.096051 0.080219 0.074417
0.099111 0.080219 0.074417
0.102813 0.080350 0.074417
0.111016 0.081391 0.074417
0.120158 0.082433 0.074405
0.133374 0.083474 0.074340
0.149388 0.085248 0.073006
0.173801 0.089220 0.067863
0.204601 0.093557 0.062740
0.249455 0.098700 0.057662
0.301437 0.104966 0.051095
0.365300 0.113103 0.042046
0.437053 0.122095 0.035248
0.518949 0.132186 0.031342
0.591568 0.141788 0.029454
0.654910 0.150902 0.029584
0.713602 0.161114 0.034804
0.768676 0.172181 0.043983
0.808697 0.182597 0.055644
0.839684 0.192623 0.068794
0.863108 0.197814 0.078364
0.883094 0.200809 0.086306
0.897855 0.206880 0.096641
0.910875 0.213976 0.107773
0.921462 0.221019 0.117213
0.931487 0.228049 0.126261
0.938892 0.232403 0.137988
0.945923 0.236374 0.150096
0.951062 0.239491 0.159336
0.956075 0.242550 0.168385
0.086148 0.082364 0.074544
0.092267 0.082299 0.076627
0.098273 0.082238 0.078568
0.102569 0.082238 0.078372
0.107875 0.082498 0.078210
0.120244 0.084581 0.078275
0.133394 0.086652 0.077900
0.149929 0.088670 0.075622
0.170175 0.090737 0.071911
0.201554 0.092951 0.063904
0.241558 0.097015 0.056527
0.300538 0.105153 0.050538
0.364767 0.114023 0.043841
0.437745 0.124113 0.035964
0.516389 0.134232 0.031590
0.602321 0.144388 0.031720
0.673150 0.154446 0.033933
0.728876 0.164406 0.038230
0.776692 0.174403 0.046848
0.818356 0.184428 0.058826
0.847854 0.193233 0.072147
0.870053 0.201305 0.086274
0.886568 0.205260 0.093553
0.900500 0.207343 0.097719
0.911502 0.213821 0.107745
0.921527 0.221763 0.119723
0.929807 0.228066 0.128528
0.937684 0.233990 0.136600
0.943966 0.236553 0.148204
0.950020 0.238636 0.160313
0.954061 0.242489 0.168515
0.957967 0.246460 0.176458
0.088166 0.086400 0.078580
0.095327 0.085293 0.081705
0.102569 0.084256 0.084427
0.111032 0.084256 0.081106
0.120504 0.084646 0.078340
0.137040 0.087771 0.079446
0.154747 0.090688 0.079137
0.177532 0.092706 0.072692
0.206892 0.095555 0.066117
0.255977 0.100893 0.059151
0.310433 0.107431 0.052816
0.376705 0.116610 0.047869
0.447444 0.126131 0.042994
0.525630 0.136222 0.038242
0.601280 0.146796 0.036537
0.673671 0.157994 0.038751
0.731480 0.167531 0.044089
0.774706 0.175408 0.052552
0.810609 0.183907 0.061821
0.840815 0.192891 0.071716
0.866017 0.201305 0.084256
0.888216 0.209378 0.098382
0.902583 0.214049 0.107094
0.913390 0.217174 0.113343
0.922829 0.222349 0.122327
0.931813 0.228208 0.132222
0.937359 0.232427 0.140636
0.942111 0.236268 0.148709
0.948002 0.239483 0.160313
0.954057 0.242607 0.172421
0.956144 0.245549 0.178671
0.957967 0.248479 0.184530
0.090436 0.090436 0.083120
0.098378 0.088288 0.086636
0.106605 0.086274 0.089569
0.119105 0.086274 0.083776
0.132727 0.086778 0.078861
0.154210 0.090814 0.080097
0.177279 0.094546 0.079259
0.207225 0.096954 0.069429
0.246025 0.100811 0.060543
0.311385 0.109014 0.054489
0.379065 0.117766 0.049106
0.451847 0.127726 0.045200
0.527973 0.137784 0.042148
0.609674 0.148005 0.040521
0.681263 0.158881 0.041371
0.739853 0.170599 0.045407
0.785163 0.179615 0.053545
0.817192 0.185930 0.065784
0.842557 0.193233 0.075898
0.862738 0.201305 0.084361
0.883529 0.209134 0.095957
0.904686 0.216816 0.109433
0.916937 0.222080 0.119284
0.925140 0.226247 0.127486
0.933147 0.230316 0.135689
0.941090 0.234352 0.143891
0.944218 0.236854 0.151565
0.946237 0.239002 0.159117
0.951558 0.242917 0.170314
0.957352 0.247083 0.182032
0.957837 0.249602 0.186792
0.957967 0.252010 0.191089
0.094472 0.094472 0.091193
0.101373 0.091282 0.090542
0.108819 0.088292 0.089700
0.124443 0.088292 0.085989
0.142101 0.088796 0.082116
0.174000 0.092833 0.077103
0.208072 0.097150 0.071577
0.251559 0.102683 0.063831
0.302076 0.109144 0.056507
0.373686 0.118388 0.050452
0.445988 0.127531 0.045395
0.519811 0.136450 0.042531
0.593464 0.146247 0.041302
0.666831 0.157509 0.042799
0.726898 0.167604 0.045407
0.769864 0.176197 0.049443
0.806320 0.184693 0.058102
0.836266 0.193091 0.071382
0.860720 0.201305 0.083710
0.880901 0.209378 0.095298
0.896484 0.215253 0.104811
0.909309 0.219810 0.113079
0.919672 0.224815 0.122018
0.928916 0.230023 0.131262
0.936402 0.234352 0.140506
0.943303 0.238388 0.149750
0.946237 0.241737 0.154234
0.948255 0.244927 0.157619
0.951754 0.249882 0.165561
0.955464 0.255090 0.174155
0.956795 0.260603 0.180673
0.957967 0.266137 0.187053
0.097752 0.099265 0.097752
0.104197 0.095034 0.094106
0.111435 0.091079 0.090574
0.130574 0.091274 0.088752
0.152537 0.091950 0.085822
0.194267 0.095986 0.075146
0.238754 0.100779 0.065190
0.295196 0.108851 0.058354
0.356455 0.117379 0.051811
0.432166 0.127275 0.046148
0.507674 0.136722 0.041684
0.582734 0.145185 0.039862
0.653449 0.154869 0.040236
0.716922 0.166587 0.044272
0.765954 0.175912 0.048479
0.796421 0.182162 0.052906
0.825195 0.190234 0.061987
0.852277 0.200130 0.075723
0.875367 0.208890 0.089350
0.895353 0.216767 0.102891
0.906753 0.221226 0.110857
0.913003 0.223635 0.115479
0.921490 0.228416 0.123592
0.930995 0.234275 0.133292
0.938205 0.239352 0.143285
0.944650 0.244170 0.153376
0.947339 0.248828 0.155268
0.949162 0.253451 0.155268
0.950814 0.260009 0.159711
0.952441 0.266845 0.164788
0.954618 0.274840 0.172491
0.956832 0.282912 0.180368
0.097752 0.107338 0.097752
0.106280 0.102065 0.096189
0.115797 0.097198 0.094676
0.140144 0.098435 0.093895
0.167576 0.100022 0.091486
0.216596 0.104058 0.077685
0.268961 0.108851 0.064408
0.335818 0.116924 0.053406
0.403587 0.125191 0.044260
0.474091 0.134045 0.040679
0.546669 0.143427 0.037974
0.623813 0.153974 0.037192
0.689580 0.164178 0.038218
0.736387 0.173813 0.042254
0.776501 0.182422 0.047372
0.808009 0.189714 0.053882
0.834179 0.197786 0.062964
0.855011 0.206640 0.074617
0.874781 0.214358 0.085574
0.893725 0.221194 0.095990
0.905386 0.226564 0.104738
0.912678 0.231056 0.112485
0.919342 0.235772 0.120142
0.925722 0.240589 0.127759
0.933713 0.248531 0.137231
0.942241 0.257515 0.147321
0.944475 0.265494 0.149213
0.945256 0.273241 0.149213
0.944955 0.283836 0.149099
0.944499 0.294838 0.148969
0.947522 0.303093 0.155369
0.950777 0.311166 0.162205
0.098761 0.116419 0.100779
0.109112 0.110365 0.100258
0.120630 0.104783 0.099721
0.149665 0.106280 0.098940
0.182109 0.108094 0.096206
0.238421 0.112131 0.079800
0.298077 0.116875 0.063871
0.372225 0.124687 0.050005
0.445398 0.132694 0.038905
0.515641 0.141287 0.036106
0.587633 0.151060 0.034426
0.663475 0.163429 0.035207
0.723448 0.174285 0.037404
0.756975 0.182618 0.041961
0.789162 0.190723 0.047828
0.819629 0.198535 0.055380
0.843326 0.206867 0.064461
0.860252 0.215721 0.075073
0.876995 0.222854 0.083963
0.893595 0.228647 0.091514
0.904866 0.234767 0.100815
0.912938 0.241082 0.111166
0.918056 0.246367 0.118563
0.921832 0.251184 0.124618
0.930149 0.261665 0.133309
0.939979 0.274034 0.142878
0.942034 0.285398 0.144673
0.942294 0.296530 0.144673
0.939877 0.310739 0.140685
0.937078 0.325386 0.136128
0.941175 0.336555 0.141763
0.945732 0.347492 0.148078
0.102797 0.128528 0.112887
0.114189 0.122473 0.110283
0.126880 0.116761 0.107598
0.159039 0.116175 0.103692
0.195129 0.116167 0.098093
0.258732 0.120203 0.080647
0.323921 0.124752 0.064067
0.395987 0.131522 0.051242
0.471243 0.139269 0.040142
0.556068 0.149946 0.034218
0.634505 0.161476 0.031366
0.698889 0.174887 0.035272
0.750530 0.186784 0.040203
0.780931 0.196158 0.046844
0.808172 0.204394 0.052971
0.831347 0.211164 0.058439
0.852960 0.220538 0.067521
0.873011 0.232517 0.080215
0.887606 0.240431 0.088845
0.897957 0.245183 0.094314
0.906884 0.251563 0.103485
0.914956 0.258919 0.114877
0.919358 0.266678 0.122600
0.922093 0.274620 0.128654
0.929368 0.286664 0.135782
0.938156 0.300074 0.143269
0.940862 0.315019 0.144673
0.942164 0.330317 0.144673
0.937143 0.346869 0.138862
0.931219 0.363600 0.132222
0.937074 0.385640 0.138704
0.943714 0.408035 0.146060
0.107464 0.142528 0.124365
0.119898 0.136800 0.119027
0.133638 0.131221 0.113583
0.166969 0.127901 0.106552
0.204996 0.125582 0.098089
0.275890 0.130269 0.079601
0.347040 0.135335 0.062370
0.419301 0.142040 0.050587
0.496640 0.150015 0.039894
0.589212 0.161798 0.032473
0.669903 0.174415 0.029161
0.724457 0.188867 0.034890
0.768904 0.201562 0.041375
0.796507 0.211327 0.049122
0.820122 0.219753 0.055388
0.838610 0.226458 0.059750
0.858140 0.236712 0.068668
0.878712 0.250513 0.082144
0.891850 0.259920 0.090859
0.899206 0.265909 0.095872
0.907010 0.273404 0.104913
0.915082 0.281802 0.116370
0.919440 0.291139 0.124337
0.922109 0.300904 0.130717
0.928586 0.314185 0.136852
0.936333 0.328637 0.142907
0.939690 0.346369 0.145100
0.942034 0.364857 0.146402
0.936687 0.385339 0.140640
0.930242 0.406106 0.133870
0.936187 0.437920 0.139794
0.942957 0.470470 0.146565
0.113518 0.160691 0.134456
0.126994 0.156004 0.124951
0.141515 0.151142 0.115406
0.171722 0.143655 0.105250
0.207925 0.137951 0.093923
0.286110 0.144721 0.074393
0.364161 0.151870 0.056511
0.441630 0.160659 0.045769
0.521052 0.169935 0.036379
0.606333 0.180677 0.031040
0.680059 0.192903 0.028835
0.728363 0.208397 0.033522
0.768123 0.221352 0.038966
0.793642 0.230076 0.045672
0.816541 0.238827 0.051807
0.836071 0.247616 0.057211
0.853518 0.258390 0.065609
0.868881 0.271150 0.077001
0.882085 0.283616 0.086563
0.893607 0.295855 0.094700
0.902974 0.306344 0.103611
0.911046 0.315784 0.112985
0.916836 0.324731 0.121017
0.921588 0.333454 0.128438
0.927805 0.347256 0.134834
0.934510 0.362749 0.140889
0.938518 0.381523 0.146467
0.941903 0.401053 0.151935
0.941244 0.428956 0.150340
0.940007 0.458056 0.147736
0.942371 0.497226 0.150015
0.944975 0.537067 0.152619
0.120329 0.179611 0.143033
0.134456 0.175184 0.130143
0.149514 0.170501 0.117204
0.178549 0.161973 0.103533
0.214199 0.155422 0.089146
0.296160 0.162713 0.069747
0.377377 0.170529 0.051872
0.455366 0.180620 0.040610
0.533747 0.191296 0.031350
0.613299 0.203730 0.028095
0.681865 0.216958 0.027240
0.726264 0.231931 0.031667
0.763387 0.245195 0.036851
0.788385 0.255611 0.043296
0.811276 0.265543 0.049399
0.831457 0.274852 0.055062
0.847602 0.285952 0.062549
0.859711 0.298842 0.071858
0.873174 0.313562 0.082046
0.887691 0.329707 0.092918
0.897936 0.342800 0.101552
0.905618 0.354063 0.108843
0.912718 0.363937 0.116940
0.919554 0.373182 0.125403
0.926389 0.388480 0.132938
0.933225 0.405797 0.140164
0.938103 0.427662 0.148395
0.942530 0.450577 0.156858
0.945533 0.482777 0.159967
0.948332 0.516304 0.162311
0.948507 0.558558 0.161725
0.948507 0.601394 0.160943
0.128402 0.199792 0.149087
0.142528 0.194323 0.134114
0.157717 0.188924 0.118962
0.188835 0.184563 0.101125
0.226048 0.181397 0.083352
0.305925 0.186605 0.066036
0.384082 0.192729 0.049268
0.454780 0.202819 0.034881
0.526911 0.215058 0.023798
0.603339 0.233742 0.022626
0.669757 0.250289 0.023530
0.714155 0.262137 0.028998
0.752060 0.275792 0.035223
0.779141 0.292458 0.042710
0.803204 0.304993 0.048943
0.823385 0.312220 0.053565
0.839530 0.323319 0.059489
0.851638 0.338292 0.066715
0.865688 0.353924 0.077164
0.881246 0.370069 0.090119
0.891231 0.385115 0.098232
0.897871 0.399502 0.103440
0.906078 0.412502 0.111602
0.914997 0.424871 0.121106
0.923915 0.443294 0.131246
0.932834 0.463736 0.141597
0.938949 0.492111 0.151260
0.944418 0.522318 0.160764
0.949374 0.553606 0.169472
0.954256 0.585050 0.178065
0.954561 0.623267 0.175916
0.954561 0.661937 0.173052
0.137357 0.223505 0.157790
0.152851 0.216995 0.140278
0.169480 0.210794 0.122543
0.203136 0.209231 0.101450
0.241912 0.208597 0.080862
0.316516 0.214456 0.063806
0.390132 0.221450 0.047177
0.459464 0.233363 0.032399
0.529332 0.247734 0.021430
0.600812 0.269477 0.021886
0.663686 0.288149 0.023949
0.707629 0.300062 0.029547
0.745859 0.315418 0.036074
0.774568 0.336510 0.044146
0.798748 0.351422 0.050253
0.817107 0.358388 0.053834
0.832796 0.370626 0.059107
0.845816 0.388138 0.066072
0.859568 0.405138 0.076041
0.873890 0.421738 0.088345
0.884754 0.439763 0.096621
0.893542 0.458642 0.102480
0.902913 0.474880 0.110934
0.912547 0.489918 0.120569
0.922866 0.511694 0.132059
0.933412 0.535716 0.144168
0.940679 0.565503 0.154637
0.947189 0.596621 0.164727
0.952502 0.624606 0.175786
0.957645 0.652143 0.186983
0.958394 0.683648 0.186035
0.958850 0.715416 0.184278
0.147447 0.251758 0.169899
0.166066 0.244206 0.149262
0.185820 0.237094 0.128467
0.222601 0.236573 0.105291
0.262939 0.237371 0.082620
0.328169 0.247396 0.063481
0.395340 0.258557 0.045745
0.470921 0.274637 0.034092
0.543654 0.291872 0.025727
0.607843 0.312574 0.027224
0.665379 0.331831 0.029677
0.708280 0.347911 0.034234
0.746249 0.366651 0.040110
0.776000 0.389827 0.048182
0.798944 0.406822 0.053834
0.813136 0.415871 0.056373
0.827783 0.430714 0.062166
0.842886 0.451350 0.071215
0.855206 0.470303 0.079752
0.865362 0.487945 0.087889
0.878569 0.510266 0.097206
0.893607 0.535395 0.107232
0.904215 0.555018 0.116273
0.912808 0.572139 0.124866
0.923647 0.597561 0.136096
0.935235 0.625749 0.148204
0.943543 0.650394 0.158673
0.951095 0.674220 0.168764
0.954716 0.695825 0.178000
0.957776 0.717113 0.187114
0.959370 0.738462 0.190918
0.960868 0.759815 0.194368
0.162583 0.282029 0.177971
0.187972 0.272915 0.150564
0.214496 0.264566 0.123356
0.258048 0.267691 0.099139
0.304375 0.272264 0.075882
0.370126 0.286977 0.059347
0.436841 0.302630 0.044606
0.507735 0.322355 0.037640
0.575781 0.342064 0.033050
0.635282 0.361724 0.035589
0.687969 0.380916 0.038433
0.725662 0.399079 0.041949
0.759204 0.419513 0.047368
0.785830 0.443730 0.055962
0.806333 0.461766 0.061906
0.818962 0.471857 0.064445
0.833089 0.488523 0.070499
0.848713 0.511763 0.080069
0.860382 0.531562 0.087661
0.868975 0.548683 0.093716
0.882573 0.572436 0.103554
0.899173 0.600169 0.115662
0.910627 0.623113 0.125712
0.919741 0.643880 0.134826
0.929538 0.669822 0.145796
0.939564 0.697489 0.157383
0.947579 0.717382 0.167331
0.955131 0.735479 0.176901
0.958296 0.752723 0.184705
0.960835 0.769844 0.192257
0.964351 0.786538 0.199869
0.967931 0.803204 0.207486
0.182764 0.314319 0.182007
0.218569 0.303122 0.144184
0.255509 0.293210 0.107212
0.309477 0.302585 0.082994
0.366220 0.313277 0.060649
0.442387 0.333198 0.051405
0.514636 0.353668 0.043759
0.569906 0.376518 0.043043
0.625713 0.398310 0.043401
0.683131 0.416929 0.046982
0.731455 0.435405 0.050217
0.759774 0.453568 0.052690
0.784723 0.474001 0.057849
0.804058 0.498218 0.067484
0.820915 0.516255 0.074470
0.834586 0.526346 0.078051
0.848713 0.544053 0.084105
0.863295 0.569377 0.092633
0.875094 0.588915 0.099770
0.884729 0.603953 0.105824
0.896765 0.626274 0.115662
0.910240 0.652965 0.127771
0.922150 0.679164 0.139253
0.933347 0.705139 0.150450
0.940540 0.728477 0.161159
0.946399 0.750937 0.171705
0.952787 0.766467 0.180612
0.959297 0.780398 0.189140
0.963244 0.795298 0.195902
0.966824 0.810336 0.202412
0.973334 0.827877 0.212889
0.980040 0.845584 0.223631
0.206351 0.353420 0.187179
0.251986 0.343655 0.144213
0.298976 0.335184 0.102272
0.366289 0.346120 0.075711
0.434766 0.358465 0.052007
0.511389 0.380664 0.048296
0.582507 0.403681 0.045879
0.629769 0.430242 0.049069
0.677292 0.454410 0.052764
0.725596 0.471401 0.057972
0.766190 0.489491 0.062732
0.789822 0.509997 0.066508
0.809986 0.530138 0.071773
0.824373 0.549668 0.079520
0.838647 0.566606 0.086156
0.852773 0.580212 0.091364
0.866021 0.599547 0.098004
0.878390 0.624610 0.106076
0.889807 0.645169 0.114002
0.900483 0.662226 0.121814
0.910956 0.682822 0.131579
0.921307 0.705542 0.142516
0.932061 0.729649 0.153856
0.942998 0.754387 0.165378
0.948759 0.773949 0.174509
0.952795 0.791787 0.182841
0.958947 0.806398 0.192391
0.965588 0.820264 0.202221
0.969949 0.833845 0.209260
0.973985 0.847386 0.215900
0.979608 0.861965 0.227118
0.985337 0.876612 0.238640
0.232586 0.397818 0.193233
0.287596 0.392219 0.149225
0.344350 0.387524 0.106048
0.427288 0.396378 0.075321
0.508525 0.406899 0.048491
0.577856 0.429098 0.048947
0.642659 0.452897 0.050306
0.687838 0.483624 0.055579
0.730153 0.510396 0.061357
0.763875 0.525304 0.068648
0.794118 0.543264 0.075817
0.816708 0.567936 0.082718
0.835050 0.587556 0.088373
0.846312 0.598753 0.091954
0.858828 0.613738 0.097158
0.872954 0.633594 0.104449
0.884640 0.655012 0.112131
0.893884 0.677992 0.120203
0.904520 0.700570 0.129887
0.916238 0.722834 0.140823
0.925148 0.741477 0.150458
0.932374 0.757947 0.159312
0.940719 0.775805 0.169284
0.949573 0.794293 0.179765
0.954813 0.809169 0.186292
0.958850 0.822840 0.191500
0.965848 0.839208 0.203002
0.973530 0.856199 0.215957
0.978022 0.869260 0.224298
0.982058 0.881759 0.231980
0.983775 0.890413 0.242286
0.985337 0.898811 0.252767
0.265128 0.446000 0.199287
0.325606 0.440011 0.151634
0.388260 0.435429 0.105267
0.483567 0.451965 0.078185
0.574796 0.468801 0.054660
0.637488 0.487745 0.056027
0.695284 0.507971 0.058151
0.731870 0.533751 0.063554
0.766048 0.557431 0.069787
0.792999 0.574813 0.078511
0.817855 0.594554 0.087031
0.838101 0.619487 0.095103
0.855027 0.639563 0.101637
0.866420 0.651541 0.105608
0.878439 0.667991 0.111374
0.891264 0.690190 0.119446
0.902038 0.711413 0.127844
0.910761 0.731659 0.136568
0.919924 0.751942 0.146463
0.929429 0.772253 0.157269
0.936777 0.787885 0.165553
0.942831 0.800710 0.172324
0.950273 0.816712 0.183167
0.958345 0.834159 0.195861
0.962902 0.846137 0.203039
0.966287 0.856293 0.208377
0.971365 0.869781 0.218740
0.976834 0.884038 0.230263
0.981049 0.895845 0.239336
0.985085 0.907303 0.248059
0.985337 0.913695 0.257454
0.985337 0.919749 0.266894
0.301454 0.496453 0.205342
0.365056 0.487339 0.152480
0.431292 0.480674 0.101751
0.537014 0.510750 0.083002
0.636576 0.538784 0.066638
0.693018 0.552520 0.066963
0.743393 0.566561 0.068046
0.767480 0.581925 0.072407
0.791762 0.599095 0.078120
0.816631 0.621685 0.087885
0.839078 0.644356 0.097121
0.856199 0.667206 0.105193
0.871953 0.688323 0.112900
0.885429 0.706551 0.119996
0.897709 0.726516 0.127519
0.908450 0.748715 0.135591
0.918703 0.768375 0.144510
0.928468 0.785497 0.154275
0.935743 0.800897 0.163454
0.941081 0.814958 0.172177
0.946867 0.826945 0.178378
0.952922 0.837686 0.183065
0.960363 0.854470 0.196122
0.968436 0.874000 0.212983
0.972211 0.884156 0.222764
0.974555 0.891186 0.230185
0.976052 0.899011 0.237554
0.977354 0.907018 0.244910
0.981049 0.917133 0.254374
0.985085 0.927549 0.264139
0.985337 0.933876 0.272623
0.985337 0.939930 0.281020
0.344717 0.545518 0.210009
0.414309 0.539724 0.156236
0.486004 0.536302 0.104815
0.589253 0.568461 0.088670
0.685869 0.597846 0.074812
0.736061 0.607806 0.076960
0.780626 0.619378 0.079731
0.800807 0.637931 0.085200
0.821102 0.656826 0.091465
0.841739 0.676747 0.100124
0.860524 0.696932 0.108823
0.875237 0.717699 0.117611
0.888924 0.737172 0.125863
0.900903 0.754489 0.133219
0.911742 0.773001 0.141202
0.921116 0.793052 0.149990
0.930490 0.810434 0.159430
0.939865 0.825147 0.169520
0.946639 0.838797 0.179684
0.951392 0.851622 0.189905
0.956510 0.861843 0.197155
0.961848 0.870501 0.202624
0.967589 0.884127 0.214358
0.973513 0.900011 0.228940
0.977045 0.908523 0.238640
0.979779 0.914578 0.246713
0.980292 0.920632 0.254309
0.980292 0.926686 0.261796
0.983197 0.935019 0.272187
0.986517 0.943677 0.282994
0.986725 0.949223 0.291908
0.986725 0.954561 0.300697
0.391133 0.593952 0.214045
0.468016 0.594408 0.161314
0.546026 0.596650 0.110869
0.640942 0.625684 0.094725
0.729486 0.651944 0.081257
0.773429 0.658779 0.086530
0.812916 0.669570 0.092230
0.833097 0.697498 0.099782
0.852090 0.721861 0.107089
0.867518 0.735532 0.113665
0.882072 0.750770 0.121257
0.894702 0.769453 0.131087
0.905915 0.786062 0.139599
0.914769 0.799212 0.145914
0.923395 0.814014 0.153766
0.931727 0.830940 0.163596
0.940060 0.845718 0.173557
0.948393 0.858347 0.183647
0.955298 0.871673 0.195569
0.961092 0.885539 0.208914
0.965950 0.894848 0.218638
0.970246 0.901423 0.226190
0.973513 0.910102 0.234995
0.976313 0.919737 0.244369
0.979844 0.926686 0.252767
0.983620 0.932741 0.260839
0.984328 0.938795 0.270128
0.984328 0.944849 0.279698
0.986322 0.951359 0.291261
0.988600 0.957934 0.303110
0.988743 0.962373 0.313066
0.988743 0.966670 0.322896
0.437549 0.640873 0.215054
0.522505 0.647578 0.164927
0.607269 0.655337 0.117070
0.689165 0.678903 0.103269
0.765633 0.700769 0.091950
0.804107 0.710729 0.098004
0.838858 0.723473 0.104583
0.857477 0.748276 0.113437
0.874387 0.769905 0.121395
0.886170 0.782014 0.126668
0.897566 0.795526 0.133447
0.908112 0.812127 0.143537
0.917731 0.825871 0.152407
0.925803 0.834855 0.159243
0.933534 0.846629 0.167844
0.940825 0.861993 0.178716
0.948116 0.874948 0.189587
0.955408 0.885494 0.200459
0.961124 0.895857 0.210965
0.965616 0.906078 0.221185
0.969823 0.914671 0.231528
0.973859 0.922288 0.241944
0.977045 0.929681 0.251286
0.979844 0.936972 0.260140
0.982986 0.942750 0.268993
0.986241 0.948023 0.277847
0.986851 0.953296 0.288975
0.986851 0.958569 0.300628
0.988617 0.963158 0.311996
0.990635 0.967650 0.323323
0.992043 0.971715 0.333491
0.993410 0.975751 0.343581
0.483966 0.687289 0.215054
0.577254 0.700244 0.168052
0.668919 0.713472 0.123320
0.736232 0.730788 0.112643
0.799290 0.747836 0.104058
0.832556 0.763004 0.110113
0.862685 0.778612 0.116887
0.879220 0.796124 0.126782
0.893786 0.812285 0.135262
0.902445 0.824394 0.139493
0.911042 0.837255 0.145555
0.919505 0.851772 0.155646
0.927821 0.862652 0.164906
0.935894 0.867470 0.172784
0.943169 0.876445 0.182426
0.949418 0.890767 0.194340
0.955668 0.902160 0.206253
0.961918 0.910623 0.218166
0.966007 0.917145 0.226198
0.968415 0.922158 0.231211
0.971841 0.930100 0.241554
0.975877 0.939800 0.255094
0.979779 0.947128 0.266129
0.983620 0.953377 0.276024
0.986241 0.958113 0.285919
0.988454 0.962345 0.295814
0.988869 0.966576 0.308830
0.988869 0.970808 0.322566
0.990635 0.973444 0.333283
0.992653 0.975853 0.343569
0.995770 0.979787 0.353672
0.998959 0.983824 0.363762
0.551698 0.733705 0.215054
0.631315 0.746140 0.172869
0.709728 0.758806 0.132796
0.770076 0.774950 0.124398
0.826387 0.790672 0.117701
0.854446 0.803432 0.122909
0.879953 0.816826 0.129032
0.894405 0.832971 0.139123
0.906839 0.847260 0.147911
0.913219 0.855984 0.152794
0.920127 0.865867 0.159568
0.928200 0.878301 0.170505
0.936590 0.888220 0.181002
0.945508 0.893949 0.190767
0.952433 0.901871 0.201187
0.956795 0.912612 0.212450
0.961157 0.921173 0.223289
0.965518 0.927553 0.233705
0.969038 0.933090 0.242436
0.971902 0.937973 0.249858
0.976028 0.945053 0.260941
0.980910 0.953450 0.274222
0.984047 0.959073 0.285891
0.986391 0.963435 0.296827
0.988491 0.968187 0.308399
0.990509 0.973070 0.320182
0.992090 0.976577 0.333182
0.993571 0.979767 0.346462
0.994782 0.981191 0.357692
0.995954 0.982363 0.368629
0.997949 0.984633 0.379566
1.000000 0.986977 0.390502
0.624350 0.780122 0.215054
0.685218 0.790473 0.178077
0.745729 0.801186 0.143017
0.800868 0.817330 0.136702
0.851972 0.832531 0.131697
0.874822 0.841124 0.135864
0.895707 0.851134 0.141141
0.908076 0.867278 0.151231
0.918427 0.880526 0.160280
0.922723 0.885083 0.166204
0.928200 0.891451 0.174020
0.936272 0.901802 0.185999
0.945053 0.911201 0.197928
0.955013 0.919013 0.209777
0.961612 0.926283 0.220913
0.963891 0.932859 0.231133
0.966169 0.938294 0.240410
0.968448 0.942591 0.248743
0.971642 0.947803 0.258907
0.975548 0.953727 0.270495
0.980715 0.959895 0.282489
0.986639 0.966210 0.294728
