其他预设/【236】赛博朋克风调色预设/【后期菌】视频调色预设/CUBE/Sunset 10_S.cube
# LUT by SparkleStock. Enhanced with VOXCOLOR algorithms.
LUT_3D_SIZE 5
DOMAIN_MIN 0.000000 0.000000 0.000000
DOMAIN_MAX 0.903226 0.903226 0.903226
0.027370 0.027370 0.027370
0.114149 0.048687 0.048687
0.383439 0.109104 0.105193
0.549554 0.143411 0.143411
0.620944 0.175953 0.173809
0.059534 0.096743 0.073030
0.391979 0.148412 0.123320
0.533661 0.201684 0.126978
0.646911 0.234730 0.140872
0.689885 0.293507 0.173243
0.197522 0.296535 0.198657
0.530833 0.302048 0.123934
0.603949 0.379907 0.103407
0.703670 0.420489 0.103916
0.764819 0.471332 0.142634
0.468325 0.518399 0.267903
0.676995 0.452339 0.120085
0.726296 0.507678 0.134440
0.754769 0.556845 0.150829
0.780720 0.597325 0.188375
0.685902 0.645792 0.319490
0.739235 0.577156 0.159808
0.769234 0.619304 0.196744
0.789960 0.659858 0.254785
0.813506 0.713101 0.381828
0.039101 0.037587 0.053227
0.164349 0.066723 0.089553
0.435442 0.109734 0.164980
0.591295 0.139998 0.206973
0.645666 0.186422 0.225954
0.069120 0.125968 0.122058
0.398410 0.173920 0.195121
0.532280 0.216693 0.228601
0.668412 0.240932 0.242877
0.734218 0.310258 0.256233
0.244186 0.365292 0.288788
0.456857 0.413647 0.266438
0.573710 0.414467 0.220562
0.705534 0.443307 0.216433
0.800083 0.485231 0.204141
0.496595 0.550193 0.368580
0.653290 0.565014 0.321002
0.686050 0.553695 0.173280
0.742923 0.594866 0.192350
0.810136 0.631958 0.227525
0.690894 0.668516 0.384521
0.740098 0.638260 0.284901
0.771875 0.638139 0.235952
0.794062 0.685540 0.305162
0.825041 0.755388 0.446018
0.057390 0.066093 0.121338
0.230694 0.094346 0.155015
0.487929 0.146060 0.257023
0.620505 0.176506 0.296095
0.667381 0.211270 0.297983
0.115862 0.167429 0.219594
0.343846 0.229634 0.308818
0.559417 0.233139 0.362965
0.678110 0.266366 0.379191
0.737933 0.363675 0.357976
0.282567 0.413637 0.372771
0.473550 0.475083 0.409503
0.591120 0.463249 0.401738
0.708968 0.475657 0.387138
0.823320 0.504096 0.376407
0.539699 0.588907 0.462035
0.660336 0.612093 0.436598
0.682662 0.631545 0.401713
0.737353 0.619891 0.303115
0.829900 0.652221 0.346746
0.691936 0.687436 0.443327
0.744272 0.701546 0.428069
0.776964 0.695626 0.363778
0.781477 0.725671 0.380012
0.840025 0.798954 0.528804
0.102419 0.114779 0.243307
0.267687 0.150820 0.301254
0.544903 0.196008 0.326082
0.643497 0.220351 0.354986
0.691578 0.240439 0.369723
0.169032 0.227305 0.343488
0.359776 0.301395 0.403648
0.622469 0.263305 0.401842
0.688857 0.320277 0.422756
0.733004 0.438220 0.429107
0.346027 0.446789 0.449707
0.531531 0.523747 0.494802
0.637543 0.551117 0.508317
0.735820 0.530195 0.444929
0.812136 0.538581 0.474973
0.574202 0.616554 0.537697
0.680975 0.648617 0.507589
0.729292 0.664100 0.466775
0.741721 0.658559 0.467185
0.833791 0.674204 0.507149
0.719522 0.706050 0.491188
0.763513 0.716718 0.465253
0.795215 0.734182 0.471030
0.794015 0.757417 0.509203
0.840987 0.812214 0.649575
0.152114 0.169520 0.374231
0.237078 0.192350 0.402285
0.582348 0.226027 0.401118
0.672060 0.249520 0.427809
0.709317 0.271980 0.430148
0.216978 0.273339 0.441439
0.397423 0.361361 0.492094
0.613942 0.370330 0.481480
0.701598 0.382773 0.463706
0.740310 0.500056 0.484314
0.413857 0.484617 0.513733
0.569479 0.561761 0.559148
0.666541 0.607285 0.557722
0.750396 0.594843 0.475909
0.790225 0.604215 0.467766
0.594489 0.637121 0.587300
0.690537 0.671919 0.551801
0.735308 0.683900 0.504542
0.772626 0.700368 0.493582
0.814389 0.699894 0.521126
0.717902 0.723196 0.530972
0.767156 0.737700 0.506160
0.796053 0.749567 0.501172
0.817459 0.776689 0.595051
0.834669 0.811591 0.718120
