其他预设/【236】赛博朋克风调色预设/【后期菌】视频调色预设/CUBE/Sunset 08_S.cube
# LUT by SparkleStock. Enhanced with VOXCOLOR algorithms.
LUT_3D_SIZE 5
DOMAIN_MIN 0.000000 0.000000 0.000000
DOMAIN_MAX 0.903226 0.903226 0.903226
0.011730 0.011730 0.023460
0.145429 0.014127 0.058020
0.467316 0.041749 0.092076
0.688424 0.057390 0.114149
0.796519 0.066471 0.123356
0.047804 0.144546 0.106707
0.445117 0.114735 0.116452
0.608441 0.151935 0.089879
0.757678 0.191097 0.107834
0.855800 0.275532 0.147260
0.167881 0.379151 0.239523
0.597451 0.414089 0.141072
0.675193 0.457657 0.120614
0.785277 0.503483 0.128638
0.878988 0.617815 0.177674
0.326049 0.639612 0.290606
0.732342 0.673801 0.182890
0.804323 0.714627 0.198482
0.840486 0.763472 0.255493
0.875192 0.819788 0.310568
0.526976 0.790086 0.274083
0.790212 0.829618 0.185014
0.830428 0.867490 0.203303
0.860056 0.901997 0.216722
0.896415 0.930218 0.337731
0.018667 0.018037 0.113014
0.209081 0.017109 0.192261
0.524002 0.029425 0.226406
0.703820 0.044146 0.213060
0.815186 0.079988 0.228298
0.052552 0.178862 0.241334
0.452666 0.128161 0.267234
0.584647 0.156142 0.222671
0.742911 0.198310 0.231333
0.867461 0.274315 0.259398
0.214655 0.442826 0.395332
0.430544 0.501076 0.367078
0.620167 0.424500 0.230124
0.762319 0.466928 0.230769
0.883696 0.572688 0.230829
0.377267 0.665737 0.397936
0.620902 0.729892 0.359775
0.742431 0.719874 0.232388
0.806963 0.759743 0.268379
0.879237 0.792951 0.288134
0.563302 0.803151 0.319848
0.737136 0.847325 0.216079
0.830195 0.880795 0.205525
0.865338 0.913980 0.237409
0.900924 0.923249 0.392000
0.020433 0.036956 0.286949
0.295021 0.026740 0.370106
0.594383 0.037441 0.380379
0.746241 0.046827 0.347667
0.836018 0.093504 0.325146
0.074365 0.216010 0.440918
0.341240 0.214226 0.483953
0.624362 0.157070 0.375151
0.763926 0.207380 0.372211
0.872987 0.312456 0.355821
0.251664 0.471332 0.542165
0.440895 0.552134 0.528616
0.637206 0.452250 0.402675
0.766814 0.469281 0.383834
0.888395 0.536183 0.382084
0.443730 0.697127 0.500664
0.625490 0.748610 0.452186
0.697913 0.778230 0.386849
0.789251 0.754643 0.352399
0.878252 0.767802 0.361946
0.593427 0.820968 0.361932
0.708450 0.863302 0.303145
0.805585 0.897423 0.233041
0.845333 0.918253 0.297993
0.903983 0.919631 0.486701
0.019550 0.067859 0.480560
0.254390 0.055734 0.548016
0.660692 0.051714 0.516052
0.783100 0.058122 0.450618
0.861761 0.089427 0.406460
0.094489 0.238010 0.592858
0.295641 0.268433 0.629838
0.737941 0.157819 0.472758
0.825656 0.220513 0.433426
0.881352 0.356586 0.414438
0.285988 0.500696 0.648473
0.509495 0.596034 0.642812
0.678482 0.608249 0.582505
0.840145 0.547310 0.445033
0.887402 0.585386 0.487117
0.494211 0.717056 0.591779
0.655912 0.769104 0.516494
0.753847 0.822690 0.442167
0.790909 0.796543 0.447225
0.881485 0.775068 0.511640
0.636116 0.837922 0.398762
0.734959 0.876938 0.322029
0.806512 0.912485 0.281525
0.850953 0.924930 0.371974
0.913875 0.927932 0.636103
0.023460 0.083877 0.631918
0.166876 0.075626 0.659487
0.687143 0.063444 0.626600
0.808819 0.068554 0.548390
0.873540 0.100905 0.489519
0.104648 0.254765 0.702185
0.304399 0.299728 0.717995
0.705323 0.286143 0.649401
0.857777 0.258847 0.494995
0.893328 0.412159 0.467639
0.315727 0.523823 0.729250
0.546534 0.619059 0.715933
0.708375 0.674843 0.653130
0.859961 0.639302 0.495821
0.884898 0.691248 0.514227
0.525304 0.733294 0.656481
0.672393 0.784550 0.566377
0.760421 0.833033 0.471500
0.822716 0.874227 0.409339
0.886536 0.850765 0.516381
0.653575 0.855760 0.431410
0.747203 0.891517 0.349193
0.816511 0.923094 0.310364
0.881377 0.939537 0.471147
0.925744 0.948615 0.743823
