其他预设/【236】赛博朋克风调色预设/【后期菌】视频调色预设/CUBE/Sunset 01_S.cube
# LUT by SparkleStock. Enhanced with VOXCOLOR algorithms.
LUT_3D_SIZE 32
0.007820 0.003910 0.003910
0.009838 0.005928 0.007946
0.011730 0.007820 0.011856
0.011730 0.007820 0.013874
0.012235 0.007820 0.015640
0.016271 0.007820 0.015640
0.021442 0.008199 0.015640
0.031533 0.010217 0.015640
0.045155 0.012739 0.016145
0.069372 0.016775 0.018163
0.101788 0.020812 0.018289
0.152240 0.024848 0.014253
0.223126 0.031911 0.010217
0.328067 0.044020 0.006180
0.436540 0.056128 0.004793
0.549554 0.068237 0.006811
0.636332 0.079337 0.006811
0.696875 0.089427 0.004793
0.743796 0.098382 0.003910
0.780122 0.106455 0.003910
0.805096 0.113266 0.005171
0.823259 0.119320 0.007189
0.833097 0.122600 0.006433
0.839151 0.124618 0.004415
0.843692 0.128149 0.005424
0.847728 0.132186 0.007442
0.850125 0.134582 0.007820
0.852143 0.136600 0.007820
0.854161 0.136852 0.011352
0.856179 0.136852 0.015388
0.858197 0.140636 0.017532
0.860215 0.144673 0.019550
0.009838 0.007946 0.007946
0.010815 0.008923 0.010941
0.011860 0.009838 0.013874
0.013944 0.009838 0.015893
0.016792 0.009968 0.017789
0.024994 0.011010 0.018830
0.034527 0.012235 0.019676
0.049826 0.014253 0.019676
0.071520 0.017036 0.019139
0.112403 0.022114 0.016991
0.165716 0.027842 0.014578
0.246375 0.035003 0.011584
0.334968 0.044410 0.008589
0.436784 0.057561 0.005595
0.531196 0.069799 0.004337
0.616086 0.080866 0.005314
0.682032 0.089883 0.005835
0.729034 0.096848 0.005900
0.764172 0.103851 0.005928
0.790082 0.110882 0.005928
0.809197 0.116651 0.007189
0.824235 0.121664 0.009208
0.833097 0.124618 0.008451
0.839151 0.126636 0.006433
0.845254 0.129386 0.007442
0.851374 0.132381 0.009460
0.854161 0.135428 0.010685
0.856179 0.138488 0.011726
0.858197 0.140693 0.014477
0.860215 0.142776 0.017471
0.861257 0.144738 0.019550
0.862233 0.146691 0.021568
0.011856 0.011856 0.011856
0.011921 0.011921 0.013874
0.012251 0.011982 0.015893
0.016548 0.011982 0.017911
0.021894 0.012243 0.019929
0.034588 0.014326 0.021947
0.048894 0.016409 0.023550
0.070182 0.018492 0.023355
0.100730 0.021634 0.021711
0.159060 0.027948 0.015722
0.233074 0.035504 0.010994
0.341596 0.045790 0.009041
0.445845 0.057443 0.007088
0.542975 0.071374 0.005135
0.622787 0.083540 0.004036
0.680336 0.093435 0.004036
0.725938 0.100400 0.005013
0.759595 0.104437 0.006966
0.783328 0.109571 0.007820
0.799342 0.115561 0.007820
0.812997 0.120289 0.009122
0.825236 0.124260 0.011205
0.833178 0.126843 0.010469
0.839167 0.128796 0.008451
0.846719 0.130847 0.009509
0.854791 0.132930 0.011592
0.857998 0.136547 0.013622
0.860081 0.140518 0.015640
0.862107 0.144660 0.017715
0.864125 0.148827 0.019799
0.864251 0.149087 0.021760
0.864251 0.149087 0.023713
0.013874 0.013874 0.013874
0.014981 0.014981 0.015893
0.016548 0.016019 0.017911
0.025011 0.016019 0.019929
0.035174 0.016409 0.021947
0.057243 0.019534 0.023965
0.082486 0.022659 0.024982
0.121481 0.025784 0.021662
0.172600 0.030748 0.017935
0.260095 0.041229 0.012987
0.351882 0.052625 0.009301
0.453112 0.066036 0.008390
0.542259 0.078470 0.007478
0.611265 0.089277 0.006567
0.668422 0.098317 0.006054
0.710347 0.105088 0.006054
0.742929 0.110491 0.006510
0.766170 0.114527 0.007421
0.784174 0.119076 0.007820
0.798106 0.124024 0.007820
0.812281 0.127710 0.009773
0.826603 0.130639 0.012898
0.834480 0.132181 0.012487
0.839428 0.133093 0.010469
0.846719 0.135664 0.012308
0.854791 0.138789 0.015433
0.858844 0.141755 0.017658
0.861969 0.144685 0.019676
0.864125 0.150519 0.022663
0.866143 0.156769 0.025788
0.866269 0.157160 0.026837
0.866269 0.157160 0.027749
0.015893 0.016145 0.015893
0.018041 0.018033 0.018041
0.020844 0.019811 0.020173
0.033474 0.019941 0.022061
0.048699 0.020592 0.023932
0.082095 0.024889 0.025690
0.120008 0.029283 0.025983
0.177491 0.034100 0.019929
0.248499 0.041245 0.014412
0.360080 0.055372 0.010506
0.465416 0.070007 0.007820
0.557012 0.085761 0.007820
0.630518 0.098635 0.007820
0.673874 0.106707 0.007820
0.710054 0.113014 0.007820
0.737005 0.117050 0.007820
0.757414 0.121021 0.007820
0.771280 0.124927 0.007820
0.784304 0.128906 0.007967
0.796673 0.132942 0.008227
0.811321 0.135636 0.010685
0.827335 0.137524 0.014460
0.835294 0.138293 0.014432
0.839591 0.138553 0.012674
0.846914 0.141743 0.015360
0.855247 0.145909 0.019526
0.859983 0.148436 0.021629
0.863889 0.150584 0.023257
0.866143 0.157802 0.026992
0.868161 0.165745 0.031028
0.868410 0.166729 0.031403
0.868540 0.167250 0.031533
0.017911 0.020181 0.017911
0.021101 0.021027 0.021101
0.025141 0.021894 0.024144
0.041937 0.023066 0.024990
0.063932 0.024889 0.025690
0.122327 0.031268 0.025365
0.185043 0.038527 0.023965
0.266483 0.049594 0.017911
0.352594 0.061426 0.012654
0.452718 0.075553 0.009789
0.542039 0.089211 0.007820
0.607595 0.101841 0.007820
0.661701 0.112761 0.007820
0.696725 0.120834 0.007820
0.723660 0.127140 0.007820
0.740195 0.131176 0.007820
0.754354 0.134627 0.007820
0.766137 0.137491 0.007820
0.779422 0.141015 0.009138
0.793874 0.145051 0.011482
0.808652 0.147093 0.013419
0.823625 0.147940 0.015111
0.832690 0.149815 0.015864
0.839070 0.152159 0.016190
0.848477 0.156651 0.020177
0.858893 0.161859 0.025385
0.863173 0.165427 0.025145
0.866037 0.168617 0.023648
0.868161 0.175054 0.026992
0.870179 0.181954 0.031028
0.871404 0.186780 0.032379
0.872576 0.191467 0.033551
0.019550 0.024596 0.020307
0.024172 0.024791 0.024343
0.029926 0.025112 0.028152
0.052646 0.027326 0.028542
0.082779 0.030296 0.028510
0.164805 0.038564 0.025515
0.250517 0.048382 0.021947
0.352203 0.064917 0.015893
0.450244 0.080850 0.010896
0.537348 0.094977 0.009073
0.610435 0.107842 0.007820
0.652684 0.117933 0.007820
0.688953 0.127193 0.007747
0.715254 0.135070 0.007552
0.733750 0.141438 0.007442
0.742213 0.145865 0.007442
0.751490 0.149185 0.007442
0.761580 0.151398 0.007442
0.775076 0.154527 0.009602
0.791221 0.158368 0.013443
0.806105 0.160052 0.015006
0.820231 0.160443 0.015201
0.830330 0.163340 0.016649
0.838598 0.167376 0.018667
0.849746 0.172926 0.023713
0.861855 0.178980 0.029767
0.866082 0.184030 0.027781
0.868491 0.188847 0.023941
0.870729 0.195772 0.026479
0.872942 0.202998 0.029930
0.874789 0.211384 0.031854
0.876612 0.219847 0.033677
0.019550 0.030650 0.024343
0.027297 0.031887 0.028380
0.036826 0.033250 0.032318
0.073087 0.036505 0.034792
0.117282 0.040517 0.035931
0.217015 0.049826 0.027729
0.317895 0.060881 0.019929
0.423748 0.079499 0.013874
0.519966 0.096995 0.009138
0.587279 0.111122 0.008357
0.643180 0.123987 0.007820
0.673972 0.134078 0.007820
0.699174 0.142947 0.007356
0.715058 0.149783 0.006119
0.728607 0.156476 0.005424
0.739153 0.162986 0.005424
0.749472 0.167868 0.005424
0.759562 0.171123 0.005424
0.773058 0.174122 0.006998
0.789203 0.176921 0.009798
0.804087 0.179517 0.011620
0.818213 0.181991 0.012857
0.829028 0.185539 0.014631
0.838337 0.189575 0.016649
0.849746 0.195125 0.021695
0.861855 0.201179 0.027749
0.867775 0.209614 0.026610
0.872267 0.218598 0.023810
0.875676 0.231512 0.023745
0.878931 0.244988 0.024071
0.879867 0.255717 0.024823
0.880648 0.266263 0.025605
0.020055 0.038722 0.028884
0.030927 0.040220 0.032660
0.044248 0.041876 0.036436
0.094310 0.045912 0.040211
0.152566 0.050802 0.041969
0.268183 0.061674 0.029600
0.381726 0.074242 0.018366
0.486277 0.094163 0.012052
0.577742 0.112830 0.007316
0.629952 0.127738 0.007316
0.672377 0.141304 0.007397
0.693274 0.151915 0.007657
0.709167 0.160817 0.007063
0.716718 0.166872 0.005045
0.725922 0.173581 0.003910
0.737249 0.181133 0.003910
0.747958 0.187187 0.004040
0.758049 0.191744 0.004301
0.771545 0.194873 0.005550
0.787690 0.196891 0.007568
0.802573 0.200496 0.009586
0.816700 0.205053 0.011604
0.828410 0.209431 0.013622
0.839021 0.213727 0.015640
0.850560 0.219733 0.020490
0.862408 0.226308 0.026284
0.869972 0.238225 0.025731
0.876547 0.251375 0.023713
0.880673 0.270051 0.021467
0.884449 0.289516 0.019188
0.885173 0.304281 0.019290
0.885694 0.318734 0.019550
0.022073 0.052849 0.034938
0.036069 0.052263 0.037673
0.053231 0.051966 0.040407
0.117876 0.056002 0.043141
0.190194 0.061284 0.043857
0.316227 0.075280 0.030446
0.434913 0.090192 0.018171
0.521756 0.109071 0.010815
0.599681 0.127738 0.005298
0.650849 0.145771 0.005298
0.690931 0.162136 0.005704
0.706620 0.174830 0.007006
0.718476 0.185035 0.007063
0.723944 0.191089 0.005045
0.730609 0.196887 0.003910
0.738812 0.202355 0.003910
0.747958 0.208409 0.004561
0.758049 0.215050 0.005863
0.771545 0.219090 0.007568
0.787690 0.221108 0.009586
0.802573 0.226015 0.011604
0.816700 0.232655 0.013622
0.829842 0.238400 0.015640
0.842536 0.243738 0.017658
0.853815 0.251567 0.021727
0.864622 0.260225 0.026479
0.873683 0.275918 0.025731
0.882341 0.293235 0.023713
0.885816 0.316988 0.020555
0.888550 0.341661 0.017235
0.891162 0.365541 0.018248
0.893766 0.389367 0.019550
0.024722 0.072021 0.042885
0.041518 0.070979 0.044577
0.061991 0.070113 0.046168
0.137638 0.071870 0.046233
0.220884 0.075508 0.044484
0.357334 0.092304 0.030031
0.481895 0.109478 0.016898
0.554937 0.128292 0.009476
0.621518 0.147122 0.003829
0.668715 0.166001 0.003503
0.704947 0.183293 0.004012
0.717056 0.197094 0.006355
0.726138 0.208357 0.007063
0.730174 0.215387 0.005045
0.735093 0.221108 0.003910
0.741147 0.225144 0.003910
0.749220 0.231687 0.004919
0.759310 0.240736 0.006937
0.772623 0.246379 0.008955
0.788442 0.249374 0.010973
0.803407 0.255745 0.012992
0.817859 0.264143 0.015010
0.831864 0.270930 0.017028
0.845665 0.276984 0.019046
0.856928 0.286554 0.022089
0.867344 0.297295 0.025474
0.877495 0.316235 0.025263
0.887586 0.337067 0.024221
0.890897 0.366102 0.020844
0.893241 0.396308 0.017134
0.896561 0.427491 0.018183
0.899946 0.458739 0.019550
0.028758 0.102292 0.054993
0.047637 0.104376 0.055644
0.070259 0.105983 0.055868
0.149030 0.100449 0.049684
0.236313 0.097967 0.042335
0.383179 0.116846 0.026842
0.515226 0.136104 0.013252
0.583060 0.157001 0.007914
0.643131 0.176352 0.003568
0.679912 0.191064 0.002201
0.708984 0.205167 0.002319
0.721092 0.217926 0.005704
0.730174 0.229709 0.007063
0.734210 0.239865 0.005045
0.739129 0.247343 0.003910
0.745183 0.251380 0.003910
0.753256 0.259485 0.004919
0.763346 0.271658 0.006937
0.776073 0.280426 0.008955
0.790851 0.286546 0.010973
0.806076 0.294740 0.012992
0.821570 0.304180 0.015010
0.835184 0.311292 0.017028
0.847944 0.317346 0.019046
0.859727 0.328478 0.020527
0.871184 0.341303 0.021829
0.881531 0.362326 0.023766
0.891622 0.385241 0.025849
0.895845 0.420005 0.023774
0.899230 0.456461 0.021105
0.900662 0.490964 0.020266
0.901964 0.525337 0.019550
0.033551 0.134078 0.067859
0.055294 0.138895 0.066296
0.080919 0.142976 0.064128
0.164768 0.136010 0.052865
0.257015 0.131998 0.040993
0.408047 0.148664 0.024848
0.542429 0.166221 0.010973
0.604665 0.187639 0.006937
0.658617 0.207120 0.003406
0.687716 0.220791 0.001387
0.711384 0.234096 0.001139
0.723102 0.246595 0.004785
0.732086 0.259240 0.006453
0.736513 0.272130 0.004826
0.741993 0.281488 0.003910
0.748829 0.286306 0.003910
0.757292 0.295973 0.004724
0.767382 0.310490 0.006351
0.779524 0.321163 0.007979
0.793260 0.328844 0.009606
0.808501 0.338276 0.011234
0.824646 0.348757 0.012861
0.838284 0.357000 0.015026
0.850784 0.364226 0.017435
0.862990 0.377507 0.018330
0.875099 0.392805 0.018720
0.884933 0.415350 0.021756
0.894242 0.439567 0.025401
0.899963 0.476202 0.025458
0.905171 0.514611 0.025002
0.905496 0.549969 0.023082
0.905496 0.585123 0.021064
0.039605 0.168385 0.081985
0.065515 0.175286 0.076257
0.095567 0.181841 0.069987
0.187748 0.183208 0.055599
0.286505 0.185315 0.040993
0.431287 0.192606 0.024848
0.559421 0.202156 0.010973
0.615407 0.221491 0.006937
0.663890 0.240451 0.003406
0.689865 0.258288 0.001387
0.711059 0.274783 0.000814
0.721735 0.288324 0.003418
0.730459 0.302402 0.004826
0.735927 0.317375 0.004240
0.742905 0.328816 0.003910
0.751824 0.335717 0.003910
0.761328 0.346946 0.004203
0.771419 0.362505 0.004789
0.782974 0.373047 0.005375
0.795668 0.379688 0.005961
0.810519 0.389379 0.006547
0.826664 0.400902 0.007133
0.841019 0.411619 0.009688
0.854559 0.421970 0.013138
0.867026 0.438375 0.015075
0.879135 0.456799 0.016507
0.887276 0.479929 0.018891
0.894502 0.504147 0.021495
0.902697 0.536225 0.025068
0.911030 0.569426 0.028778
0.911550 0.601528 0.027118
0.911550 0.633557 0.025100
0.048308 0.214171 0.100527
0.082486 0.220876 0.089720
0.120610 0.227541 0.078494
0.217934 0.233595 0.060982
0.319385 0.239259 0.043641
0.449715 0.242188 0.027497
0.566130 0.247889 0.013451
0.622246 0.265596 0.008504
0.670160 0.283694 0.004402
0.693465 0.302963 0.002840
0.712926 0.321195 0.002254
0.723928 0.337145 0.003816
0.733417 0.353167 0.004793
0.740382 0.369312 0.004793
0.747918 0.381925 0.004793
0.756185 0.389998 0.004793
0.765364 0.401879 0.004793
0.775455 0.417568 0.004793
0.786424 0.428093 0.004793
0.798077 0.434603 0.004793
0.812253 0.445467 0.004793
0.827942 0.458943 0.004793
0.842243 0.471792 0.006941
0.855914 0.484356 0.010066
0.869097 0.502975 0.013044
0.882117 0.523611 0.015974
0.890588 0.547157 0.018903
0.898010 0.571375 0.021833
0.906172 0.598497 0.026699
0.914439 0.626034 0.031842
0.914956 0.650581 0.030699
0.914956 0.674928 0.029136
0.060417 0.274714 0.124744
0.108135 0.278294 0.107688
0.159019 0.282029 0.090408
0.257385 0.288084 0.069771
0.356622 0.294008 0.049696
0.461954 0.299021 0.033551
0.559620 0.306218 0.019115
0.624069 0.322884 0.012084
0.677711 0.339680 0.006681
0.698934 0.356866 0.006160
0.717614 0.374968 0.005965
0.730699 0.395084 0.006486
0.742270 0.413710 0.006811
0.751319 0.429855 0.006811
0.758203 0.442468 0.006811
0.762305 0.450541 0.006811
0.769401 0.461901 0.006811
0.779491 0.476548 0.006811
0.789875 0.487204 0.006811
0.800486 0.494756 0.006811
0.813620 0.507963 0.006811
0.828267 0.524564 0.006811
0.841527 0.539105 0.007527
0.854157 0.552711 0.008569
0.868641 0.572371 0.012589
0.883745 0.594050 0.017601
0.895145 0.617791 0.022614
0.905691 0.642008 0.027627
0.910598 0.663662 0.030931
0.914700 0.684950 0.033990
0.914956 0.696411 0.033693
0.914956 0.707218 0.033173
0.076562 0.334248 0.143916
0.148237 0.335224 0.118006
0.221613 0.336453 0.092328
0.320499 0.341466 0.070129
0.418239 0.346804 0.048882
0.507947 0.354421 0.034300
0.591649 0.363734 0.021328
0.649328 0.380400 0.015339
0.697632 0.396675 0.010847
0.717813 0.411778 0.010847
0.734963 0.428447 0.010522
0.745444 0.448563 0.009480
0.755192 0.466995 0.008829
0.763721 0.482619 0.008829
0.769173 0.494711 0.008601
0.770670 0.502263 0.008081
0.776724 0.512841 0.007820
0.787336 0.526447 0.007820
0.797361 0.537820 0.007820
0.806931 0.547454 0.007820
0.819023 0.561443 0.008146
0.832629 0.578043 0.008666
0.845922 0.594375 0.009903
0.859072 0.610585 0.011466
0.872515 0.629334 0.015616
0.886056 0.648929 0.020629
0.898010 0.670587 0.026488
0.909597 0.692721 0.032542
0.911900 0.709557 0.034609
0.912877 0.725637 0.036106
0.913426 0.732379 0.037176
0.913947 0.738498 0.038218
0.096743 0.392773 0.158042
0.202791 0.391666 0.120675
0.308391 0.390812 0.084256
0.407278 0.393741 0.062057
0.504236 0.397647 0.041200
0.587694 0.408389 0.029743
0.662217 0.420436 0.020091
0.698022 0.438143 0.018269
0.729921 0.454679 0.016902
0.750102 0.467699 0.016902
0.764974 0.481634 0.015925
0.768164 0.497584 0.012800
0.772184 0.513021 0.010847
0.777587 0.527603 0.010847
0.780826 0.538654 0.010164
0.781281 0.545164 0.008601
0.787336 0.554701 0.007820
0.798989 0.567265 0.007820
0.808884 0.579939 0.007820
0.817412 0.592699 0.007820
0.828463 0.605906 0.008797
0.841027 0.619382 0.010359
0.855426 0.637602 0.014070
0.870660 0.657978 0.018757
0.880717 0.673862 0.022126
0.889050 0.688249 0.025055
0.899181 0.705546 0.030524
0.909728 0.723513 0.036578
0.910078 0.736183 0.037734
0.908971 0.748097 0.038189
0.910366 0.758484 0.041147
0.911929 0.768770 0.044272
0.129411 0.450162 0.168764
0.255184 0.448144 0.124626
0.379350 0.446232 0.081786
0.479409 0.445906 0.058415
0.575879 0.447062 0.036851
0.647228 0.458585 0.027932
0.710229 0.471462 0.020795
0.737050 0.490211 0.021381
0.761332 0.507153 0.021674
0.777998 0.518676 0.021088
0.789822 0.531196 0.019790
0.790993 0.545908 0.016926
0.792141 0.558643 0.014696
0.793248 0.568083 0.013525
0.794639 0.577067 0.012239
0.796397 0.585465 0.010807
0.802158 0.596011 0.010090
0.811923 0.608705 0.010090
0.821066 0.622205 0.010420
0.829724 0.636332 0.011006
0.839806 0.648831 0.012487
0.850743 0.660354 0.014505
0.863246 0.677203 0.018492
0.876462 0.696472 0.023375
0.884746 0.709932 0.026988
0.891386 0.721454 0.030178
0.899401 0.736257 0.035219
0.907734 0.751815 0.040687
0.907522 0.761051 0.041371
0.906090 0.769384 0.041371
0.907893 0.779609 0.045155
0.909911 0.789960 0.049191
0.171791 0.506669 0.176836
0.305897 0.504651 0.129573
0.438005 0.502478 0.083674
0.540147 0.497986 0.058220
0.636357 0.495366 0.035093
0.691041 0.505847 0.028257
0.740696 0.518074 0.023009
0.768558 0.537864 0.024636
0.792059 0.555327 0.025450
0.802475 0.565808 0.023823
0.810654 0.577937 0.022459
0.813909 0.593692 0.021678
0.814405 0.603953 0.019969
0.810304 0.605060 0.016714
0.810133 0.611179 0.014713
0.815015 0.623743 0.014322
0.820256 0.636894 0.014127
0.825854 0.650630 0.014127
0.833760 0.664586 0.015042
0.843460 0.678712 0.016670
0.852631 0.690560 0.018541
0.861485 0.701041 0.020559
0.869756 0.713984 0.023115
0.877764 0.728046 0.025914
0.885527 0.739422 0.030569
0.893209 0.749903 0.035842
0.898880 0.763664 0.040427
0.904088 0.778181 0.044854
0.904398 0.784553 0.045407
0.904007 0.789761 0.045407
0.905875 0.796861 0.049191
0.907893 0.804087 0.053227
0.221739 0.553085 0.174818
0.353111 0.550416 0.128337
0.482582 0.547780 0.083243
0.583552 0.545632 0.058960
0.677467 0.544688 0.036956
0.721996 0.552174 0.030902
0.762618 0.561186 0.026117
0.786314 0.576810 0.026833
0.806268 0.591214 0.027029
0.814991 0.601955 0.025662
0.822656 0.614182 0.024722
0.827995 0.629676 0.024722
0.830525 0.640311 0.023452
0.828377 0.642850 0.020067
0.829817 0.650744 0.018733
0.835872 0.665521 0.020035
0.840266 0.678997 0.021011
0.843000 0.691171 0.021662
0.849506 0.703711 0.023082
0.858946 0.716535 0.025100
0.865903 0.726837 0.026711
0.871372 0.735626 0.028078
0.876795 0.745802 0.030341
0.882199 0.756608 0.033010
0.888139 0.765901 0.037241
0.894258 0.774690 0.041994
0.898156 0.785171 0.045635
0.901541 0.796043 0.049020
0.902534 0.801503 0.050583
0.903185 0.806190 0.051885
0.905118 0.811549 0.055140
0.907136 0.816952 0.058525
0.276227 0.593447 0.166745
0.398225 0.589737 0.123389
0.518713 0.586514 0.081420
0.616558 0.590616 0.060262
0.706957 0.594619 0.040993
0.745236 0.597939 0.034938
0.779414 0.602199 0.029763
0.795819 0.610532 0.028396
0.810564 0.619728 0.027289
0.820329 0.631511 0.026964
0.829362 0.644128 0.026740
0.836783 0.658580 0.026740
0.842959 0.671299 0.025861
0.847061 0.681129 0.023517
0.852017 0.693579 0.023680
0.858071 0.709399 0.027065
0.861423 0.721833 0.029604
0.862074 0.730882 0.031297
0.867083 0.740883 0.033173
0.875481 0.751624 0.035191
0.879444 0.759843 0.036151
0.880746 0.766548 0.036476
0.884152 0.774641 0.039129
0.888513 0.783365 0.042840
0.891850 0.790574 0.045769
0.894844 0.797280 0.048438
0.897310 0.803139 0.050843
0.899653 0.808802 0.053187
0.901427 0.814523 0.056442
0.903120 0.820252 0.059827
0.905118 0.824699 0.062236
0.907136 0.829061 0.064579
0.337653 0.631035 0.164223
0.453857 0.627714 0.120411
0.568181 0.624891 0.078165
0.654308 0.629513 0.059416
0.734031 0.633720 0.042254
0.768925 0.635022 0.036200
0.799522 0.637752 0.031171
0.811500 0.646671 0.030585
0.822648 0.656029 0.029966
0.831307 0.666705 0.029250
0.839334 0.677789 0.028758
0.845974 0.689767 0.028758
0.852126 0.701526 0.028538
0.857465 0.712918 0.027952
0.862489 0.725137 0.029075
0.867112 0.738417 0.032395
0.870497 0.749093 0.035064
0.872645 0.757166 0.037083
0.876917 0.766373 0.039503
0.882841 0.776464 0.042238
0.885063 0.783584 0.043711
0.885063 0.788922 0.044427
0.887838 0.795648 0.047425
0.891874 0.803004 0.051462
0.894397 0.808847 0.053447
0.896415 0.814185 0.054749
0.898433 0.817884 0.057215
0.900451 0.821204 0.059949
0.903096 0.826290 0.063822
0.905830 0.831628 0.067859
0.907221 0.835746 0.070674
0.908523 0.839782 0.073408
0.402233 0.667360 0.164223
0.514270 0.665082 0.118327
0.623711 0.663104 0.074259
0.694214 0.665643 0.057593
0.760006 0.667897 0.042254
0.792816 0.668158 0.036200
0.821135 0.670823 0.031561
0.829988 0.683908 0.033059
0.838272 0.695870 0.033742
0.844847 0.704463 0.031984
0.850792 0.713138 0.030776
0.855349 0.721991 0.030776
0.859808 0.731407 0.031338
0.864105 0.741757 0.032835
0.867632 0.751567 0.034674
0.870171 0.760681 0.036952
0.874077 0.769274 0.039101
0.879350 0.777347 0.041119
0.883232 0.786554 0.044126
0.886031 0.796645 0.047901
0.887081 0.803114 0.050416
0.887081 0.807411 0.052174
0.889856 0.813095 0.055498
0.893892 0.819410 0.059534
0.896415 0.824211 0.060738
0.898433 0.828507 0.060999
0.900451 0.831164 0.064115
0.902469 0.833443 0.067891
0.906025 0.837487 0.071895
0.909801 0.841784 0.075931
0.910281 0.845836 0.079723
0.910541 0.849872 0.083499
0.457730 0.694605 0.159682
0.561695 0.693368 0.114828
0.662836 0.692334 0.071866
0.721621 0.694352 0.057284
0.776606 0.696216 0.043768
0.804990 0.696997 0.037713
0.829419 0.700134 0.033173
0.836710 0.713480 0.035191
0.843692 0.725312 0.036395
0.849746 0.732603 0.035158
0.854926 0.740138 0.034552
0.858181 0.748211 0.035333
0.861729 0.756161 0.036578
0.865765 0.763908 0.038596
0.868918 0.771797 0.040614
0.870936 0.779869 0.042632
0.874582 0.787942 0.044650
0.879855 0.796014 0.046669
0.883297 0.803464 0.049382
0.885315 0.810430 0.052637
0.887048 0.815565 0.055608
0.888611 0.819601 0.058407
0.891874 0.824487 0.062057
0.895910 0.829760 0.066093
0.898433 0.834106 0.068274
0.900451 0.838142 0.069836
0.903104 0.841173 0.073408
0.905903 0.843973 0.077445
0.909101 0.847171 0.081481
0.912356 0.850426 0.085517
0.913292 0.853681 0.088821
0.914073 0.856936 0.092076
0.510201 0.718822 0.153628
0.604791 0.718627 0.110857
0.696493 0.718570 0.069978
0.744862 0.720588 0.057479
0.790082 0.722581 0.045786
0.813258 0.724404 0.039731
0.833260 0.728192 0.035191
0.839509 0.740496 0.037209
0.845710 0.751286 0.038673
0.851764 0.757536 0.038478
0.856618 0.764355 0.038914
0.858832 0.772428 0.040736
0.861729 0.779206 0.042632
0.865765 0.783828 0.044650
0.868918 0.789960 0.046669
0.870936 0.798032 0.048687
0.874061 0.806105 0.050705
0.878293 0.814177 0.052723
0.881279 0.819283 0.054851
0.883297 0.822083 0.057064
0.886332 0.825655 0.060295
0.889978 0.829691 0.064136
0.893892 0.833862 0.068111
0.897928 0.838093 0.072147
0.900451 0.842178 0.075890
0.902469 0.846214 0.079536
0.905968 0.850092 0.083499
0.909809 0.853933 0.087535
0.912226 0.856350 0.091571
0.914439 0.858563 0.095607
0.916286 0.860777 0.097935
0.918109 0.862990 0.100148
0.562671 0.743039 0.142654
0.636039 0.742193 0.105352
0.707669 0.741473 0.069624
0.753239 0.742644 0.057516
0.795677 0.744028 0.046376
0.816183 0.746892 0.042014
0.833662 0.751173 0.038848
0.838024 0.761589 0.040867
0.842597 0.770703 0.042592
0.847805 0.775911 0.043438
0.852281 0.782014 0.044650
0.855145 0.790086 0.046669
0.858449 0.796645 0.048687
0.862485 0.800681 0.050705
0.866009 0.806113 0.052723
0.868873 0.813339 0.054741
0.872324 0.819296 0.056759
0.876360 0.823983 0.058777
0.880689 0.827645 0.061271
0.885246 0.830509 0.064136
0.889478 0.834106 0.067732
0.893514 0.838142 0.071769
0.896386 0.842178 0.075805
0.898730 0.846214 0.079841
0.902099 0.849616 0.083877
0.905809 0.852806 0.087913
0.909785 0.856683 0.091950
0.913821 0.860720 0.095986
0.915351 0.862249 0.100022
0.916522 0.863421 0.104058
0.916901 0.864593 0.109376
0.917226 0.865765 0.114779
0.615142 0.767256 0.130546
0.664553 0.765368 0.099493
0.713659 0.763607 0.069624
0.758187 0.763737 0.057516
0.799452 0.764339 0.046636
0.817876 0.768245 0.044358
0.833272 0.772981 0.042885
0.835550 0.781314 0.044903
0.838301 0.788605 0.046888
0.842467 0.792771 0.048776
0.846552 0.798158 0.050705
0.850458 0.806231 0.052723
0.854413 0.812790 0.054741
0.858449 0.816826 0.056759
0.862428 0.821802 0.058777
0.866334 0.827986 0.060795
0.870306 0.831339 0.062813
0.874342 0.831860 0.064831
0.880429 0.834285 0.067912
0.888110 0.838191 0.071818
0.893514 0.842178 0.075805
0.897550 0.846214 0.079841
