其他预设/【236】赛博朋克风调色预设/【后期菌】视频调色预设/CUBE/Sunset 07.cube
# LUT by SparkleStock. Enhanced with VOXCOLOR algorithms.
LUT_3D_SIZE 5
DOMAIN_MIN 0.000000 0.000000 0.000000
DOMAIN_MAX 0.903226 0.903226 0.903226
0.023460 0.113392 0.011730
0.136726 0.114906 0.027370
0.438306 0.119068 0.082616
0.732192 0.128402 0.142150
0.859080 0.138618 0.171665
0.035191 0.164475 0.058903
0.407514 0.138618 0.095184
0.704553 0.150890 0.154710
0.839135 0.171909 0.198152
0.895890 0.249492 0.236443
0.033046 0.289597 0.140384
0.526382 0.349042 0.180152
0.743218 0.455334 0.251054
0.817029 0.534243 0.291693
0.872136 0.636377 0.340998
0.092706 0.547788 0.241289
0.685336 0.652400 0.307659
0.780028 0.712719 0.346971
0.823031 0.773713 0.379301
0.861318 0.826758 0.413047
0.350519 0.746697 0.332986
0.751974 0.803415 0.383166
0.803834 0.853616 0.416843
0.850629 0.893860 0.447009
0.895617 0.925929 0.478835
0.028884 0.117302 0.066723
0.184982 0.116374 0.094391
0.528095 0.119357 0.127193
0.759965 0.117302 0.167124
0.871441 0.125952 0.189502
0.035146 0.166916 0.135843
0.469164 0.131080 0.143028
0.757392 0.138818 0.176789
0.863354 0.169116 0.216334
0.910830 0.226417 0.255029
0.044919 0.316768 0.226800
0.328148 0.391007 0.233005
0.802748 0.385327 0.264452
0.849877 0.509123 0.307947
0.870900 0.646523 0.354514
0.103310 0.576806 0.277236
0.490544 0.663872 0.321099
0.776602 0.729802 0.354492
0.816975 0.785753 0.382792
0.856676 0.838008 0.416478
0.412290 0.764734 0.353167
0.687620 0.819548 0.388041
0.808159 0.865448 0.424574
0.863236 0.907702 0.459859
0.898308 0.926019 0.490924
0.041749 0.121212 0.195251
0.254838 0.113392 0.231524
0.615321 0.114275 0.240606
0.796079 0.121212 0.245374
0.888700 0.127287 0.245179
0.064779 0.172495 0.293939
0.284821 0.150745 0.313127
0.788674 0.139192 0.240797
0.869278 0.159760 0.248283
0.907873 0.250398 0.292477
0.079768 0.330370 0.357309
0.288983 0.430873 0.348801
0.780609 0.407272 0.325381
0.857548 0.519842 0.354966
0.873250 0.649427 0.380492
0.135811 0.618076 0.346454
0.490337 0.682872 0.361075
0.670362 0.759745 0.381572
0.822118 0.794011 0.390640
0.850320 0.850511 0.421396
0.466604 0.786196 0.376376
0.660045 0.839933 0.410980
0.786872 0.882115 0.437695
0.871589 0.913970 0.465508
0.900868 0.928179 0.518182
0.084130 0.128402 0.379529
0.230576 0.120581 0.403864
0.683631 0.121212 0.409219
0.829288 0.124064 0.370626
0.912340 0.130167 0.340021
0.108615 0.180754 0.445015
0.224246 0.172353 0.451513
0.795364 0.139656 0.351761
0.876948 0.157710 0.305592
0.910374 0.280326 0.332995
0.129931 0.358624 0.473891
0.329194 0.441687 0.462142
0.649782 0.534573 0.429477
0.859310 0.573646 0.399034
0.871521 0.683432 0.406280
0.178752 0.648290 0.429778
0.533363 0.719350 0.412326
0.690808 0.789674 0.417180
0.804504 0.814043 0.417084
0.862173 0.860744 0.439156
0.529438 0.808347 0.404662
0.686012 0.852867 0.424416
0.786790 0.899273 0.453779
0.870834 0.924246 0.483409
0.915340 0.935245 0.572372
0.120834 0.131176 0.514615
0.201602 0.121212 0.521951
0.729291 0.125122 0.535911
0.863466 0.129032 0.488571
0.925339 0.136682 0.434229
0.140185 0.200687 0.558143
0.243865 0.199628 0.553585
0.701169 0.168531 0.515890
0.893333 0.168156 0.380924
0.918387 0.314847 0.380922
0.161700 0.393822 0.571985
0.372089 0.469086 0.556467
0.654271 0.589494 0.514098
0.842544 0.630353 0.449888
0.876918 0.725660 0.435081
0.248576 0.672690 0.509127
0.561350 0.743265 0.455476
0.707102 0.801100 0.435203
0.802132 0.856879 0.448662
0.880937 0.883487 0.464803
0.569401 0.827043 0.428553
0.717718 0.872325 0.442575
0.808626 0.910794 0.468159
0.879334 0.932168 0.522335
0.930795 0.943677 0.660990
