其他预设/【236】赛博朋克风调色预设/【后期菌】视频调色预设/CUBE/Sunset 10.cube
# LUT by SparkleStock. Enhanced with VOXCOLOR algorithms.
LUT_3D_SIZE 5
DOMAIN_MIN 0.000000 0.000000 0.000000
DOMAIN_MAX 0.903226 0.903226 0.903226
0.027370 0.027370 0.027370
0.114149 0.048687 0.048687
0.382556 0.113014 0.109104
0.545644 0.147321 0.147321
0.620944 0.175953 0.173809
0.059534 0.096743 0.073030
0.399710 0.146015 0.128113
0.561374 0.192981 0.171123
0.636828 0.235857 0.189307
0.677829 0.298048 0.184469
0.197522 0.296535 0.198657
0.541734 0.295941 0.128186
0.655358 0.356248 0.137715
0.711726 0.407986 0.139200
0.756621 0.471332 0.149950
0.474884 0.515120 0.271182
0.683554 0.449060 0.123364
0.734478 0.501734 0.139753
0.756763 0.551674 0.156631
0.779239 0.597325 0.191654
0.692334 0.643648 0.323779
0.744353 0.572868 0.161953
0.773038 0.617160 0.198889
0.792104 0.657713 0.256929
0.812537 0.710957 0.386116
0.039101 0.037587 0.053227
0.164349 0.066723 0.087157
0.431532 0.128654 0.153249
0.576285 0.165854 0.204190
0.643522 0.188566 0.225954
0.069120 0.125968 0.122058
0.439324 0.162803 0.188814
0.599347 0.207946 0.230588
0.661883 0.253091 0.256943
0.695357 0.330239 0.263292
0.245411 0.364951 0.289129
0.506063 0.405782 0.274081
0.675046 0.383264 0.216298
0.728868 0.436612 0.209324
0.763354 0.497462 0.196358
0.503398 0.547796 0.370976
0.659841 0.563550 0.323398
0.736657 0.527603 0.162577
0.759775 0.574055 0.182922
0.776386 0.617644 0.225690
0.697327 0.666372 0.386665
0.745216 0.636116 0.284901
0.775679 0.635994 0.235952
0.796206 0.681191 0.306264
0.812180 0.733494 0.477220
0.057390 0.066093 0.121338
0.230694 0.094346 0.155015
0.491839 0.161017 0.235813
0.614198 0.194922 0.280707
0.665721 0.212930 0.296323
0.115862 0.167429 0.219594
0.363284 0.230717 0.288804
0.627491 0.239104 0.307895
0.678767 0.292466 0.332225
0.710391 0.388918 0.341725
0.283250 0.413637 0.372087
0.509188 0.478916 0.404002
0.677613 0.468637 0.371255
0.737327 0.494609 0.331063
0.763503 0.540881 0.319126
0.548292 0.588907 0.462035
0.666565 0.612093 0.436598
0.715974 0.624523 0.394206
0.763286 0.594586 0.238111
0.773295 0.631635 0.265282
0.705432 0.683526 0.443327
0.754984 0.697636 0.428069
0.783901 0.691716 0.362211
0.797278 0.699480 0.368320
0.809814 0.752670 0.561012
0.102419 0.114779 0.243307
0.267687 0.150820 0.301254
0.544903 0.196008 0.326082
0.643497 0.220453 0.354884
0.691578 0.240439 0.369723
0.169032 0.227305 0.343488
0.360013 0.301632 0.403174
0.638080 0.267460 0.376301
0.689652 0.330839 0.397230
0.725351 0.447187 0.419021
0.352081 0.446789 0.446680
0.535730 0.523747 0.491775
0.652316 0.559750 0.496266
0.745822 0.544929 0.402778
0.769071 0.578636 0.379158
0.575789 0.616554 0.537169
0.682032 0.648617 0.507060
0.730048 0.664100 0.466122
0.758367 0.652529 0.408135
0.782840 0.669752 0.387892
0.720905 0.705704 0.490842
0.764550 0.716373 0.464907
0.795829 0.733837 0.470685
0.805651 0.743537 0.490396
0.816975 0.778497 0.637670
0.152114 0.169520 0.374231
0.237078 0.192350 0.402285
0.582348 0.226027 0.401118
0.672060 0.249520 0.427809
0.709317 0.271980 0.430148
0.218061 0.273339 0.439274
0.398505 0.362444 0.489930
0.615024 0.371413 0.479316
0.701598 0.383856 0.461542
0.739228 0.501138 0.482149
0.413857 0.484617 0.513733
0.569479 0.561761 0.559148
0.666541 0.607285 0.557722
0.750396 0.594843 0.475909
0.780421 0.617473 0.430745
0.599884 0.637121 0.585501
0.694830 0.671919 0.548204
0.738498 0.683900 0.500945
0.774714 0.700368 0.484300
0.798610 0.703779 0.454710
0.729669 0.720254 0.525088
0.775981 0.734759 0.500276
0.801671 0.746626 0.495289
0.820401 0.773748 0.589836
0.830228 0.805537 0.706487
