其他预设/【236】赛博朋克风调色预设/【后期菌】视频调色预设/CUBE/Sunset 01_S.cube
# LUT by SparkleStock. Enhanced with VOXCOLOR algorithms.
LUT_3D_SIZE 5
DOMAIN_MIN 0.000000 0.000000 0.000000
DOMAIN_MAX 0.903226 0.903226 0.903226
0.007820 0.003910 0.003910
0.031533 0.010217 0.015640
0.436540 0.056128 0.004793
0.823259 0.119320 0.007189
0.854161 0.136852 0.011352
0.019550 0.030650 0.024343
0.423748 0.079499 0.013874
0.728607 0.156476 0.005424
0.818213 0.181991 0.012857
0.875676 0.231512 0.023745
0.048308 0.214171 0.100527
0.622246 0.265596 0.008504
0.747918 0.381925 0.004793
0.827942 0.458943 0.004793
0.906172 0.598497 0.026699
0.276227 0.593447 0.166745
0.795819 0.610532 0.028396
0.852017 0.693579 0.023680
0.880746 0.766548 0.036476
0.901427 0.814523 0.056442
0.660549 0.784410 0.129032
0.840539 0.795742 0.049622
0.870810 0.830428 0.064831
0.900105 0.852521 0.086148
0.917898 0.869801 0.131376
0.011730 0.009334 0.025857
0.065661 0.018037 0.053480
0.555266 0.060238 0.057390
0.816842 0.106463 0.066479
0.861981 0.138618 0.068721
0.028839 0.046587 0.072399
0.467948 0.112982 0.098563
0.668408 0.181238 0.138966
0.786125 0.202120 0.153442
0.884432 0.245215 0.129858
0.086001 0.280927 0.200907
0.413590 0.401800 0.188595
0.686186 0.398046 0.137743
0.797070 0.465750 0.138421
0.904622 0.583525 0.099119
0.369052 0.641385 0.233611
0.713861 0.711956 0.153859
0.793296 0.714460 0.065047
0.840817 0.763993 0.080274
0.898714 0.787800 0.107045
0.712589 0.799998 0.176331
0.822628 0.816435 0.087238
0.874333 0.837189 0.078462
0.900114 0.859173 0.105425
0.914513 0.870143 0.195333
0.020433 0.017406 0.086148
0.113538 0.026740 0.127844
0.678777 0.083983 0.154983
0.831600 0.116435 0.191691
0.862864 0.141666 0.186548
0.045859 0.074706 0.227362
0.255864 0.126384 0.317914
0.700647 0.182699 0.297365
0.799707 0.211779 0.307122
0.888001 0.289629 0.246546
0.123893 0.343215 0.376986
0.415555 0.480548 0.392915
0.714857 0.439917 0.332373
0.800660 0.489930 0.307418
0.907657 0.574885 0.278107
0.483347 0.687037 0.365182
0.733576 0.746797 0.294846
0.790665 0.773872 0.229716
0.828081 0.759466 0.183882
0.899892 0.764844 0.245573
0.741611 0.814808 0.242404
0.819832 0.836783 0.200897
0.870212 0.846353 0.120615
0.873866 0.866085 0.161034
0.911640 0.874103 0.365423
0.041119 0.041119 0.281273
0.139493 0.059652 0.363604
0.764262 0.099660 0.308818
0.849872 0.129891 0.324462
0.869170 0.161289 0.351752
0.072786 0.143301 0.493214
0.215178 0.199880 0.538417
0.816973 0.171464 0.389920
0.859337 0.232267 0.381029
0.895756 0.355557 0.344712
0.177845 0.419500 0.574796
0.493939 0.551977 0.559313
0.759180 0.609135 0.504812
0.873625 0.580624 0.337898
0.912454 0.630004 0.360476
0.564869 0.722781 0.524576
0.770913 0.773060 0.419567
0.843628 0.808639 0.304779
0.841927 0.789126 0.286821
0.903622 0.772596 0.356237
0.789272 0.825720 0.317126
0.840551 0.840900 0.236547
0.881147 0.857610 0.193361
0.887774 0.865803 0.237406
0.914804 0.874415 0.554142
0.072147 0.114023 0.556491
0.119007 0.133972 0.591145
0.783129 0.127791 0.500363
0.858608 0.158897 0.488099
0.876653 0.201220 0.481362
0.099802 0.255660 0.674920
0.241911 0.311307 0.674940
0.761204 0.285220 0.582203
0.881693 0.290316 0.478914
0.904176 0.438695 0.446019
0.245472 0.520039 0.704044
0.556672 0.619394 0.671913
0.782546 0.686561 0.605792
0.910287 0.681051 0.398520
0.921819 0.734551 0.319852
0.615427 0.746477 0.627820
0.785213 0.787553 0.513491
0.851139 0.817034 0.365924
0.880031 0.838329 0.269125
0.912946 0.824686 0.288705
0.799216 0.833056 0.387394
0.847297 0.848814 0.283682
0.886754 0.862732 0.223069
0.913730 0.869975 0.369142
0.922892 0.875516 0.707408
