其他预设/【236】赛博朋克风调色预设/【后期菌】视频调色预设/CUBE/Sunset 08.cube
# LUT by SparkleStock. Enhanced with VOXCOLOR algorithms.
LUT_3D_SIZE 5
DOMAIN_MIN 0.000000 0.000000 0.000000
DOMAIN_MAX 0.903226 0.903226 0.903226
0.011730 0.011730 0.023460
0.145429 0.014127 0.058020
0.468199 0.041749 0.095986
0.688424 0.057390 0.118059
0.796519 0.066471 0.123356
0.047804 0.144546 0.106707
0.455244 0.110869 0.120317
0.671596 0.134729 0.119357
0.793492 0.182402 0.142882
0.854718 0.280072 0.157404
0.167881 0.379151 0.239523
0.614459 0.414089 0.144009
0.765596 0.468232 0.164886
0.833300 0.536245 0.173886
0.878988 0.628642 0.186841
0.332608 0.639612 0.297165
0.742181 0.673801 0.186170
0.817819 0.716031 0.204914
0.847122 0.768217 0.262658
0.875192 0.823067 0.317126
0.533409 0.790086 0.278372
0.797959 0.829618 0.187158
0.834716 0.867490 0.205447
0.863999 0.901997 0.218520
0.896415 0.930218 0.340843
0.018667 0.018037 0.113014
0.209081 0.017109 0.192261
0.542922 0.036074 0.230316
0.713044 0.051966 0.214574
0.815186 0.079988 0.228298
0.052552 0.178862 0.241334
0.516680 0.108368 0.278738
0.723153 0.112780 0.234578
0.818530 0.189476 0.250734
0.862835 0.289975 0.272589
0.215538 0.442826 0.396215
0.484520 0.520757 0.401980
0.793906 0.428516 0.248812
0.855539 0.511611 0.248067
0.880523 0.629475 0.239194
0.382060 0.665737 0.400332
0.627603 0.730279 0.361475
0.813871 0.737758 0.238309
0.843156 0.786546 0.279960
0.872259 0.841413 0.314944
0.569735 0.803151 0.321993
0.744375 0.847325 0.216079
0.834484 0.880795 0.205525
0.870595 0.915083 0.237409
0.900154 0.929682 0.416379
0.020433 0.036956 0.286949
0.295021 0.026740 0.370106
0.613051 0.041351 0.375586
0.754582 0.053276 0.340729
0.836018 0.093504 0.325146
0.074365 0.216010 0.440918
0.365825 0.214590 0.496235
0.759229 0.125358 0.347032
0.833302 0.205443 0.340686
0.870139 0.329056 0.344321
0.252348 0.471332 0.542165
0.477371 0.573641 0.545033
0.773874 0.471189 0.393721
0.865384 0.517622 0.348705
0.883502 0.627928 0.352987
0.449784 0.697127 0.501152
0.631719 0.748996 0.452186
0.737422 0.798028 0.385575
0.845899 0.799125 0.325300
0.865355 0.856490 0.316517
0.605157 0.820968 0.361533
0.720591 0.863302 0.300960
0.813405 0.897423 0.229221
0.875225 0.923588 0.279093
0.905756 0.931692 0.515922
0.019550 0.067859 0.480560
0.254390 0.055734 0.548016
0.660692 0.051714 0.516052
0.783202 0.058122 0.450516
0.861761 0.089427 0.406460
0.094489 0.238010 0.592858
0.295878 0.268670 0.629838
0.766856 0.153289 0.458430
0.842997 0.222483 0.413653
0.880270 0.362961 0.404564
0.289015 0.500696 0.648473
0.515549 0.599062 0.642812
0.698573 0.625785 0.576886
0.875348 0.572040 0.412211
0.881202 0.665596 0.415961
0.494740 0.717056 0.591779
0.656970 0.769633 0.516494
0.755602 0.823422 0.441513
0.829396 0.832145 0.397529
0.871405 0.862735 0.417835
0.637154 0.837922 0.398416
0.735997 0.876938 0.321895
0.807281 0.912485 0.280911
0.871820 0.931017 0.344724
0.920023 0.942720 0.626688
0.023460 0.083877 0.631918
0.166876 0.075626 0.659487
0.687143 0.063444 0.626600
0.808819 0.068554 0.548390
0.873540 0.100905 0.489519
0.105731 0.254765 0.701103
0.305481 0.300392 0.716913
0.706405 0.287226 0.648319
0.858860 0.258847 0.492831
0.893328 0.413241 0.465475
0.315727 0.523823 0.729250
0.546534 0.619059 0.715933
0.708375 0.674843 0.653130
0.859961 0.639302 0.495821
0.882781 0.716890 0.481316
0.530699 0.733294 0.654682
0.675990 0.786348 0.563477
0.763612 0.834831 0.468310
0.826313 0.879622 0.400348
0.884503 0.885138 0.452410
0.663996 0.855760 0.424729
0.756622 0.891517 0.342228
0.823304 0.923094 0.301719
0.884318 0.939537 0.465108
0.926920 0.951935 0.733597
