其他预设/【236】赛博朋克风调色预设/【后期菌】视频调色预设/CUBE/Sunset 05.cube
# LUT by SparkleStock. Enhanced with VOXCOLOR algorithms.
LUT_3D_SIZE 5
DOMAIN_MIN 0.000000 0.000000 0.000000
DOMAIN_MAX 0.903226 0.903226 0.903226
0.152493 0.129032 0.101662
0.171412 0.131429 0.109482
0.357960 0.164727 0.142150
0.621953 0.209252 0.193611
0.708731 0.228550 0.207234
0.164223 0.158169 0.111878
0.372954 0.183350 0.152070
0.615089 0.229774 0.196386
0.708093 0.254020 0.213154
0.747360 0.297279 0.214456
0.190332 0.236496 0.148204
0.484543 0.303923 0.165053
0.637447 0.384721 0.190710
0.689478 0.451090 0.194966
0.736964 0.541148 0.196366
0.273200 0.424558 0.197522
0.614694 0.517801 0.162608
0.688298 0.588370 0.173304
0.724648 0.655781 0.171514
0.749439 0.711567 0.175953
0.481065 0.617665 0.238136
0.687847 0.677610 0.174745
0.727106 0.728009 0.183879
0.759815 0.770475 0.189103
0.803961 0.813376 0.207144
0.152493 0.129032 0.117302
0.186467 0.138321 0.132312
0.434449 0.182223 0.184620
0.650585 0.214179 0.225775
0.738531 0.230694 0.253524
0.168133 0.166330 0.141015
0.432228 0.196068 0.198237
0.665617 0.238467 0.246385
0.740244 0.264384 0.258367
0.776110 0.303154 0.262369
0.205142 0.271487 0.187647
0.343960 0.348697 0.214873
0.692635 0.380322 0.229567
0.731811 0.462019 0.219627
0.750838 0.561163 0.206432
0.299806 0.476170 0.240146
0.542960 0.567354 0.227679
0.692869 0.613409 0.171825
0.720413 0.668268 0.169819
0.745427 0.724043 0.174118
0.524275 0.643090 0.255037
0.680067 0.702157 0.206066
0.733258 0.741554 0.190430
0.773490 0.787470 0.196656
0.810423 0.826185 0.227310
0.160313 0.137735 0.153880
0.208479 0.136852 0.180962
0.526850 0.181629 0.252136
0.686549 0.202929 0.296315
0.760067 0.218207 0.312049
0.178602 0.189360 0.212010
0.278625 0.203896 0.267026
0.696977 0.235980 0.302727
0.754407 0.267284 0.313959
0.790656 0.329622 0.310405
0.204312 0.309327 0.252999
0.330445 0.392749 0.299754
0.692625 0.420376 0.302151
0.757728 0.486826 0.263814
0.769616 0.586443 0.230674
0.336437 0.526724 0.311198
0.549905 0.597004 0.292899
0.666495 0.666406 0.247600
0.729159 0.686205 0.176401
0.744461 0.733467 0.172181
0.570768 0.666836 0.277615
0.683086 0.732692 0.256839
0.744203 0.767679 0.222721
0.783754 0.797279 0.201199
0.823410 0.840836 0.275367
0.181881 0.165610 0.266768
0.221621 0.171774 0.312041
0.572493 0.172328 0.364662
0.715998 0.194344 0.399384
0.791758 0.212564 0.410024
0.212035 0.227927 0.347793
0.253291 0.250383 0.377003
0.703326 0.222565 0.390502
0.770841 0.263115 0.380630
0.798403 0.356898 0.362028
0.229339 0.349701 0.360215
0.364767 0.435390 0.386373
0.606191 0.520430 0.396246
0.767031 0.532746 0.314761
0.778795 0.620583 0.252234
0.375240 0.564161 0.381217
0.585100 0.630610 0.353843
0.687483 0.698842 0.293330
0.732172 0.726178 0.222662
0.768344 0.755059 0.201589
0.612306 0.700407 0.306910
0.701371 0.750391 0.267211
0.754159 0.792116 0.254857
0.799492 0.821127 0.238512
0.843013 0.864693 0.369974
0.224261 0.208621 0.459496
0.244727 0.216840 0.478416
0.610223 0.174293 0.511885
0.740834 0.187337 0.516983
0.801393 0.208031 0.510665
0.245358 0.266926 0.487363
0.284646 0.300737 0.499182
0.616853 0.250289 0.524984
0.787453 0.272055 0.459797
0.805740 0.396551 0.415536
0.258085 0.397712 0.463785
0.409399 0.481842 0.483205
0.616179 0.569084 0.477935
0.759499 0.584285 0.372107
0.789502 0.657298 0.285448
0.423207 0.597484 0.455114
0.613805 0.660661 0.402985
0.701982 0.716888 0.319809
0.745785 0.763631 0.261665
0.793265 0.788383 0.227596
0.640747 0.722439 0.329373
0.721597 0.769424 0.281029
0.768239 0.805078 0.259155
0.816312 0.847849 0.303389
0.870456 0.894677 0.538992
