其他预设/【236】赛博朋克风调色预设/【后期菌】视频调色预设/CUBE/Sunset 04.cube
# LUT by SparkleStock. Enhanced with VOXCOLOR algorithms.
LUT_3D_SIZE 32
0.007820 0.019550 0.039101
0.015893 0.025605 0.047173
0.023839 0.031533 0.054993
0.029893 0.035569 0.059029
0.035947 0.039605 0.063570
0.042002 0.043641 0.071643
0.049570 0.048056 0.079337
0.063696 0.054110 0.085391
0.078327 0.060165 0.091950
0.094472 0.066219 0.100022
0.113770 0.071012 0.106833
0.140006 0.073030 0.110869
0.174566 0.078832 0.114149
0.223000 0.090941 0.116167
0.285561 0.106581 0.118185
0.366285 0.126762 0.120203
0.453063 0.148961 0.120203
0.545896 0.173178 0.118185
0.638729 0.192855 0.127519
0.731561 0.208999 0.145682
0.796645 0.223883 0.157538
0.845079 0.238010 0.165610
0.874089 0.246587 0.172295
0.894270 0.252641 0.178350
0.908397 0.257182 0.184404
0.920506 0.261218 0.190458
0.935894 0.263614 0.194873
0.952039 0.265632 0.198909
0.959354 0.269416 0.202945
0.965409 0.273453 0.206981
0.971463 0.277489 0.211018
0.977517 0.281525 0.215054
0.013874 0.033677 0.049191
0.021947 0.037648 0.057264
0.029958 0.041623 0.065084
0.037054 0.045660 0.069120
0.044671 0.049956 0.073791
0.055933 0.056076 0.082905
0.067537 0.061597 0.091250
0.080622 0.064526 0.096263
0.096295 0.067977 0.101519
0.119731 0.072989 0.107509
0.148599 0.079345 0.112887
0.189417 0.088654 0.116924
0.238168 0.100185 0.119422
0.300144 0.115418 0.119357
0.376701 0.134183 0.120659
0.472008 0.157489 0.123718
0.562952 0.178647 0.128926
0.649535 0.197656 0.136283
0.724986 0.213882 0.146202
0.791779 0.227944 0.158116
0.838634 0.240093 0.168279
0.873528 0.251095 0.177393
0.895442 0.257263 0.182256
0.911457 0.261234 0.185185
0.924542 0.264473 0.189677
0.936651 0.267467 0.194690
0.947807 0.269669 0.198063
0.958744 0.271687 0.201057
0.965409 0.275471 0.204963
0.971463 0.279507 0.208999
0.974588 0.281590 0.212059
0.977517 0.283543 0.215054
0.019676 0.047425 0.059029
0.027879 0.049574 0.067102
0.036094 0.051840 0.074934
0.044492 0.055876 0.079166
0.053866 0.060392 0.084113
0.070076 0.068270 0.094074
0.085627 0.074682 0.102899
0.098321 0.074747 0.106805
0.115687 0.075903 0.110776
0.147065 0.080329 0.114942
0.185909 0.088479 0.118987
0.241179 0.104819 0.122762
0.304041 0.121892 0.124439
0.379557 0.140185 0.122616
0.469172 0.161753 0.123499
0.576912 0.187533 0.127860
0.670493 0.207421 0.137984
0.749915 0.221417 0.153868
0.808135 0.234279 0.164223
0.849864 0.246257 0.170277
0.879224 0.255753 0.178773
0.901163 0.263761 0.188733
0.916343 0.267650 0.191890
0.928452 0.269669 0.191955
0.940414 0.271687 0.194999
0.952327 0.273705 0.199035
0.959375 0.275723 0.201379
0.965299 0.277741 0.203332
0.971223 0.281582 0.207107
0.977147 0.285683 0.211144
0.977517 0.286001 0.213288
0.977517 0.286066 0.215306
0.021695 0.055498 0.065084
0.031980 0.059729 0.073156
0.042474 0.063949 0.081184
0.056080 0.067985 0.088540
0.070141 0.072110 0.095961
0.087393 0.076863 0.103839
0.105547 0.080931 0.110580
0.127616 0.082038 0.112403
0.156439 0.085537 0.115333
0.205525 0.096214 0.121582
0.260449 0.109637 0.125757
0.328218 0.129101 0.125366
0.403970 0.148908 0.125610
0.493027 0.169284 0.126912
0.581599 0.188835 0.131832
0.669549 0.207323 0.141401
0.742819 0.222524 0.152045
0.801409 0.234437 0.163763
0.844656 0.245215 0.172295
0.875969 0.255111 0.178350
0.898819 0.263175 0.185543
0.916592 0.270141 0.193420
0.930470 0.273705 0.196643
0.942579 0.275723 0.197749
0.952197 0.277741 0.201053
0.960986 0.279759 0.205089
0.965754 0.281777 0.206587
0.969595 0.283795 0.207498
0.973436 0.288548 0.211144
0.977277 0.293690 0.215180
0.977517 0.295049 0.217324
0.977517 0.296156 0.219342
0.023713 0.063822 0.071390
0.036082 0.069747 0.079593
0.048821 0.075553 0.087897
0.067114 0.079589 0.097727
0.085619 0.083405 0.107037
0.105604 0.085684 0.112700
0.127860 0.088011 0.117400
0.159955 0.090550 0.117921
0.200463 0.096621 0.120166
0.266214 0.113286 0.127588
0.336298 0.131640 0.131551
0.415916 0.153709 0.127905
0.502784 0.175485 0.127336
0.601736 0.196773 0.131893
0.687444 0.214102 0.140465
0.756124 0.226340 0.154202
0.810125 0.237440 0.165106
0.849445 0.247400 0.173178
0.879062 0.256225 0.180115
0.901130 0.264168 0.186170
0.917991 0.270849 0.191899
0.931727 0.276773 0.197432
0.943987 0.280011 0.200549
0.955574 0.282029 0.202567
0.962914 0.284145 0.206196
0.968838 0.286294 0.210362
0.971483 0.288548 0.210932
0.973371 0.290826 0.210672
0.975373 0.296408 0.213943
0.977391 0.302463 0.217719
0.977639 0.305099 0.219847
0.977769 0.307508 0.221865
0.025731 0.073913 0.079463
0.040183 0.078795 0.088707
0.054940 0.083625 0.097857
0.074275 0.087661 0.105604
0.095514 0.091738 0.112700
0.130082 0.096100 0.115239
0.166920 0.100901 0.118181
0.213597 0.107606 0.122868
0.267386 0.117843 0.126937
0.342511 0.138675 0.129150
0.421319 0.159568 0.130509
0.508228 0.180596 0.129988
0.593793 0.198986 0.132934
0.677121 0.212983 0.141658
0.747206 0.226666 0.151207
0.800262 0.239946 0.161818
0.842284 0.251046 0.171160
0.873272 0.259965 0.179232
0.898657 0.267748 0.186170
0.919684 0.274649 0.192224
0.934201 0.280288 0.195349
0.944812 0.285171 0.196716
0.953231 0.288084 0.198531
0.960652 0.290102 0.200549
0.966169 0.292999 0.204959
0.971052 0.296189 0.210167
0.972655 0.300331 0.209240
0.973501 0.304692 0.206896
0.975373 0.310535 0.208084
0.977391 0.316589 0.209777
0.978616 0.322155 0.211774
0.979787 0.327689 0.213792
0.027370 0.084382 0.087535
0.044101 0.088223 0.097430
0.061145 0.092076 0.107085
0.082889 0.096112 0.113140
0.107887 0.100425 0.118486
0.155670 0.106674 0.118877
0.205980 0.113901 0.120415
0.267240 0.125358 0.126925
0.333918 0.139908 0.131351
0.416856 0.163735 0.129529
0.502580 0.186117 0.129272
0.594436 0.205321 0.132462
0.677235 0.220425 0.138777
0.744939 0.228692 0.150300
0.800254 0.239352 0.160313
0.839639 0.253088 0.168385
0.870952 0.263895 0.176262
0.894193 0.271772 0.183944
0.915493 0.278624 0.190491
0.935283 0.284678 0.196154
0.947750 0.289471 0.197139
0.955823 0.293507 0.195316
0.960986 0.296425 0.195866
0.964827 0.298833 0.197493
0.968961 0.302902 0.202294
0.973192 0.307524 0.208153
0.973985 0.314103 0.206131
0.973985 0.321134 0.202290
0.975239 0.327994 0.201126
0.976671 0.334830 0.200345
0.978835 0.343008 0.201822
0.981049 0.351276 0.203450
0.027370 0.096490 0.095607
0.047226 0.099290 0.104461
0.067720 0.102166 0.113140
0.097796 0.106203 0.119194
0.130997 0.110646 0.124801
0.186072 0.117937 0.127275
0.245040 0.127376 0.128943
0.320882 0.146125 0.127120
0.398758 0.165623 0.125558
0.482737 0.187366 0.124776
0.567550 0.206688 0.127189
0.654198 0.220685 0.136629
0.727883 0.232924 0.145678
0.779963 0.242233 0.154075
0.824211 0.252568 0.162331
0.858388 0.264221 0.170403
0.884493 0.273465 0.177239
0.902526 0.280300 0.182837
0.920376 0.286696 0.187301
0.938083 0.292751 0.190881
0.949768 0.297544 0.191736
0.957841 0.301580 0.190955
0.962288 0.305929 0.190397
0.965087 0.310421 0.189941
0.969742 0.317354 0.193441
0.975015 0.325101 0.198258
0.976004 0.336498 0.196887
0.976004 0.348737 0.194087
0.974523 0.359893 0.189408
0.972830 0.370895 0.184461
0.975776 0.380310 0.183724
0.979031 0.389619 0.183269
0.026866 0.109104 0.103680
0.049846 0.110861 0.111492
0.073791 0.112778 0.119178
0.112200 0.117074 0.124972
0.153831 0.121940 0.130481
0.218020 0.130794 0.133996
0.286395 0.142528 0.135388
0.372913 0.166745 0.127576
0.459643 0.189758 0.121977
0.547007 0.209158 0.123019
0.631706 0.225649 0.127824
0.710542 0.235739 0.140909
0.774267 0.245927 0.151455
0.812806 0.256278 0.157770
0.847045 0.266287 0.164626
0.875754 0.275857 0.172177
0.897172 0.283930 0.177971
0.911298 0.290505 0.182007
0.925974 0.296640 0.184615
0.941077 0.302434 0.186113
0.951624 0.307618 0.186837
0.959436 0.312435 0.187097
0.963264 0.318819 0.185970
0.965282 0.325915 0.184213
0.970132 0.335257 0.186214
0.975926 0.345347 0.189469
0.976801 0.360569 0.187805
0.976541 0.376974 0.185006
0.972976 0.393208 0.178048
0.968940 0.409418 0.170497
0.972228 0.423065 0.168621
0.976004 0.436540 0.167124
0.024848 0.123230 0.111752
0.050953 0.123946 0.118523
0.078348 0.124951 0.125167
0.125090 0.130290 0.129919
0.175835 0.136458 0.134257
0.254606 0.148436 0.135689
0.334634 0.162709 0.135583
0.420111 0.186926 0.128813
0.508663 0.209158 0.125037
0.606443 0.225433 0.130245
0.693421 0.239775 0.136612
0.756633 0.249866 0.145531
0.807858 0.260445 0.153864
0.839106 0.271837 0.161220
0.866509 0.281521 0.167750
0.888969 0.289007 0.173219
0.907262 0.297080 0.177971
0.921389 0.305738 0.182007
0.933721 0.312199 0.183444
0.944658 0.316952 0.182858
0.952991 0.323698 0.183452
0.959761 0.331640 0.184754
0.963264 0.341864 0.184668
0.965282 0.353127 0.183952
0.969351 0.363510 0.183871
0.974103 0.373601 0.184001
0.973937 0.389668 0.179212
0.972635 0.407115 0.173288
0.968940 0.430771 0.167763
0.964904 0.455313 0.162294
0.967215 0.482175 0.162502
0.969949 0.509192 0.163088
0.024091 0.137357 0.119825
0.052019 0.137682 0.124577
0.081481 0.138325 0.129223
0.133951 0.143729 0.132283
0.191573 0.150466 0.134960
0.285252 0.166546 0.134960
0.377625 0.184152 0.133886
0.464338 0.208369 0.128157
0.554713 0.229982 0.126042
0.656074 0.243783 0.134765
0.741444 0.256425 0.142553
0.791636 0.266515 0.148282
0.832600 0.277485 0.154767
0.858185 0.289919 0.162514
0.880237 0.299277 0.168495
0.897749 0.304680 0.172206
0.913406 0.312590 0.175916
0.927207 0.323006 0.179627
0.937786 0.330566 0.180299
0.945858 0.335904 0.178606
0.952466 0.344619 0.178826
0.958195 0.355361 0.180193
0.961372 0.367758 0.180396
0.963390 0.380908 0.180071
0.966922 0.392984 0.178476
0.970958 0.404702 0.176458
0.970604 0.422715 0.170578
0.969237 0.442180 0.163808
0.965819 0.472809 0.160569
0.962109 0.505034 0.157835
0.962853 0.541713 0.161387
0.963895 0.578690 0.165358
0.026109 0.151484 0.127897
0.052995 0.152851 0.128483
0.081481 0.154340 0.129028
0.133951 0.157660 0.128963
0.193526 0.163356 0.128906
0.302829 0.185686 0.128906
0.409068 0.208369 0.128027
0.502031 0.232586 0.123340
0.594229 0.253939 0.122526
0.684132 0.266698 0.133333
0.759347 0.278624 0.142227
0.802248 0.288714 0.146914
0.837874 0.300074 0.152358
0.861375 0.313550 0.159064
0.881344 0.322583 0.164003
0.896773 0.325903 0.166672
0.910867 0.333292 0.169341
0.923627 0.344749 0.172010
0.933750 0.355108 0.172812
0.941822 0.364613 0.172161
0.947779 0.376193 0.171469
0.952466 0.389017 0.170753
0.955318 0.399917 0.169590
0.957336 0.409943 0.168222
0.960868 0.425144 0.166367
0.964904 0.442070 0.164349
0.966243 0.464444 0.161855
0.966959 0.488075 0.159251
0.964713 0.524694 0.160179
0.962044 0.563168 0.161611
0.959924 0.602191 0.171282
0.957841 0.641251 0.181503
0.028127 0.166367 0.135969
0.054363 0.167995 0.132389
0.082408 0.169817 0.128857
0.137613 0.174570 0.126058
0.200947 0.181910 0.123657
0.321187 0.207364 0.124048
0.436679 0.232513 0.123828
0.531594 0.256339 0.120964
0.622588 0.277432 0.121550
0.701815 0.290322 0.132487
0.768265 0.302581 0.141511
0.806609 0.313452 0.146329
0.838752 0.325691 0.151170
0.860561 0.340209 0.156053
0.878838 0.349770 0.159682
0.892574 0.352960 0.161700
0.905496 0.361390 0.163523
0.917605 0.375061 0.165151
0.927443 0.388293 0.165863
0.935515 0.401183 0.165863
0.940821 0.415090 0.164601
0.944467 0.429607 0.162583
0.947799 0.441573 0.161102
0.950989 0.452380 0.159865
0.954813 0.471096 0.158921
0.958850 0.492449 0.158075
0.960929 0.517451 0.159820
0.962556 0.543296 0.162164
0.962361 0.581217 0.167356
0.961905 0.620863 0.172954
0.958825 0.659349 0.186914
0.955570 0.697758 0.201432
0.030145 0.182512 0.144042
0.056381 0.183098 0.136295
0.084882 0.184400 0.128727
0.147378 0.196443 0.123845
0.217483 0.209903 0.119751
0.340847 0.233274 0.121184
0.457901 0.256535 0.122396
0.547609 0.279320 0.122657
0.632353 0.300152 0.124805
0.702205 0.315125 0.132617
0.762211 0.329467 0.140144
0.800555 0.342422 0.147045
0.832307 0.356353 0.152017
0.853074 0.371912 0.153774
0.870310 0.383427 0.155646
0.883004 0.389741 0.157664
0.895406 0.401818 0.158966
0.907514 0.419655 0.159552
0.917353 0.435881 0.159808
0.925425 0.450854 0.159808
0.930080 0.466193 0.158547
0.932684 0.481752 0.156529
0.937839 0.499057 0.156480
0.944153 0.517154 0.157326
0.948759 0.540037 0.159247
0.952795 0.564515 0.161525
0.954028 0.589257 0.168934
0.954614 0.614060 0.177528
0.957934 0.645471 0.187146
0.961645 0.677825 0.196911
0.960778 0.710973 0.212108
0.959606 0.744174 0.227667
0.034812 0.202188 0.151231
0.062870 0.202188 0.141141
0.093508 0.203311 0.131246
0.162839 0.221279 0.124280
0.238803 0.240003 0.118608
0.361191 0.264025 0.121993
0.477244 0.287705 0.125379
0.565845 0.309904 0.128764
0.647871 0.331046 0.132588
0.710172 0.349013 0.137731
0.764132 0.366208 0.143505
0.799741 0.381702 0.150666
0.829394 0.398123 0.155312
0.849120 0.416091 0.155768
0.865114 0.430726 0.156907
0.876311 0.441077 0.158925
0.887964 0.456571 0.160162
0.900073 0.477207 0.160618
0.909398 0.495574 0.161330
0.916559 0.512174 0.162241
0.921360 0.529914 0.162746
0.924745 0.548337 0.163006
0.931040 0.567790 0.165102
0.938656 0.587711 0.168031
0.944271 0.612025 0.173158
0.949219 0.637805 0.179017
0.950887 0.660464 0.189583
0.951799 0.682403 0.201236
0.956014 0.706278 0.212092
0.960701 0.730430 0.222833
0.960994 0.755620 0.236077
0.960994 0.780879 0.249488
0.042885 0.226406 0.157286
0.075109 0.226406 0.147195
0.110043 0.227789 0.137170
0.185624 0.249923 0.128121
0.266275 0.272814 0.121017
0.382414 0.301002 0.127527
0.494170 0.328067 0.134037
0.586937 0.350266 0.140547
0.670786 0.372449 0.146194
0.727879 0.394583 0.149254
0.776305 0.415619 0.152944
0.805665 0.434237 0.158022
0.831022 0.454174 0.161757
0.849705 0.476308 0.163255
0.864202 0.495566 0.164980
0.873316 0.511124 0.166998
0.883928 0.529743 0.168755
0.896036 0.551421 0.170253
0.904190 0.570829 0.172592
0.909268 0.588471 0.175587
0.915241 0.609857 0.180128
0.921751 0.633488 0.185596
0.928306 0.650988 0.190751
0.934881 0.665700 0.195764
0.941798 0.687932 0.204536
0.948828 0.712670 0.214561
0.952580 0.730902 0.225063
0.955574 0.747633 0.235674
0.957316 0.762655 0.243665
0.958878 0.777432 0.251282
0.958976 0.791295 0.258471
0.958976 0.805096 0.265632
0.046921 0.252641 0.163340
0.096853 0.255766 0.150645
0.149201 0.260404 0.138374
0.237802 0.287746 0.132450
0.329455 0.315715 0.128536
0.442468 0.348069 0.138691
0.549538 0.378520 0.148261
0.630847 0.400719 0.155292
0.704410 0.423553 0.161200
0.754733 0.448291 0.163739
0.796877 0.471767 0.166420
0.821029 0.492469 0.169415
0.841959 0.514099 0.172238
0.857517 0.537274 0.174777
0.869345 0.557118 0.176860
0.876376 0.572677 0.178358
0.885685 0.591295 0.180636
0.897273 0.612973 0.183696
0.904906 0.632381 0.187598
0.909463 0.650023 0.192155
0.915566 0.671409 0.198583
0.922597 0.695040 0.206135
0.928957 0.711824 0.214089
0.935011 0.725495 0.222227
0.941407 0.744341 0.231780
0.947917 0.764913 0.241806
0.952417 0.779402 0.251461
0.956453 0.792487 0.261031
0.956958 0.801584 0.266613
0.956958 0.810112 0.271626
0.956958 0.819190 0.276211
0.956958 0.828304 0.280768
0.046921 0.280894 0.169394
0.128101 0.290269 0.151492
0.210981 0.301157 0.134859
0.319372 0.334748 0.137267
0.428342 0.368706 0.141165
0.541355 0.405227 0.155487
0.643347 0.439063 0.168052
0.697575 0.461262 0.172999
0.748744 0.484356 0.177605
0.790733 0.510136 0.181185
0.825846 0.534654 0.183932
0.845832 0.556397 0.184843
0.862205 0.577897 0.186756
0.872556 0.598989 0.190336
0.880543 0.615382 0.192550
0.885490 0.625733 0.193005
0.893237 0.641227 0.195805
0.903783 0.661864 0.200947
0.911546 0.680230 0.206347
0.917145 0.696830 0.211945
0.922337 0.714570 0.218113
0.927284 0.732993 0.224623
0.932993 0.750298 0.235117
0.939047 0.767094 0.247421
0.943100 0.781253 0.254891
0.946485 0.794533 0.260750
0.950399 0.805962 0.268778
0.954435 0.816964 0.277306
0.954940 0.823067 0.280935
0.954940 0.828471 0.283864
0.954940 0.839306 0.289296
0.954940 0.850503 0.294895
0.052597 0.314824 0.177719
0.161509 0.331033 0.158124
0.271516 0.348647 0.140278
0.397940 0.387316 0.148676
0.521077 0.425652 0.157749
0.621200 0.461653 0.171551
0.710058 0.495834 0.183851
0.750094 0.522135 0.189644
0.788243 0.547540 0.194852
0.820728 0.570260 0.198303
0.847822 0.592634 0.201041
0.863055 0.614247 0.202213
0.875823 0.633565 0.203800
0.884481 0.649059 0.206078
0.891117 0.662588 0.207872
0.895153 0.673590 0.209044
0.901338 0.688302 0.212950
0.909671 0.706726 0.219590
0.916722 0.723208 0.226231
0.922776 0.738181 0.232871
0.926837 0.752422 0.238779
0.929701 0.766223 0.244247
0.933550 0.781009 0.253654
0.937847 0.796242 0.264851
0.941313 0.806739 0.270678
0.944503 0.815658 0.274714
0.947905 0.825529 0.281553
0.951355 0.835619 0.289040
0.951786 0.840412 0.291229
0.951786 0.844449 0.292661
0.951237 0.853306 0.297328
0.950651 0.862485 0.302210
0.062687 0.353167 0.187809
0.196598 0.376669 0.169256
0.331082 0.401378 0.152647
0.474172 0.444214 0.165212
0.609027 0.485674 0.177410
0.686235 0.517508 0.187044
0.755693 0.549672 0.196545
0.791563 0.583263 0.205464
0.823983 0.612575 0.212755
0.846052 0.629045 0.215164
0.864357 0.646797 0.217837
0.874382 0.667369 0.221092
0.884286 0.682911 0.222809
0.893986 0.690072 0.221963
0.901208 0.701192 0.222911
0.905244 0.717402 0.226166
0.909866 0.733156 0.231634
0.915074 0.748455 0.239316
0.920758 0.762398 0.246998
0.926812 0.775288 0.254679
0.929571 0.786143 0.260327
0.930352 0.795778 0.264754
0.931402 0.805682 0.270254
0.932574 0.815707 0.276244
0.936821 0.823340 0.280768
0.942095 0.830175 0.284804
0.945040 0.839656 0.290798
0.947449 0.849746 0.297243
0.947750 0.854539 0.298390
0.947750 0.858575 0.298780
0.946224 0.862551 0.301429
0.944597 0.866522 0.304229
0.101788 0.396557 0.196639
0.240516 0.423443 0.179778
0.379948 0.451668 0.164935
0.529938 0.499972 0.180364
0.669350 0.545697 0.194873
0.734710 0.573364 0.202945
0.792906 0.601312 0.210908
0.820052 0.630477 0.218394
0.844465 0.656371 0.224676
0.860675 0.672450 0.227345
0.874545 0.688998 0.230645
0.883269 0.706575 0.235332
0.891772 0.720051 0.238237
0.899910 0.726691 0.238172
0.906538 0.738087 0.240186
0.911225 0.755599 0.244874
0.915261 0.770117 0.250602
0.918646 0.781639 0.257373
0.922801 0.792393 0.264143
0.927553 0.802549 0.270914
0.929335 0.810589 0.275568
0.929335 0.817359 0.278953
0.929783 0.825024 0.282786
0.930434 0.833097 0.286822
0.934161 0.839167 0.289882
0.938913 0.844571 0.292616
0.940386 0.851667 0.296990
0.941102 0.859153 0.301743
0.941191 0.863621 0.303476
0.941191 0.867657 0.304778
0.939910 0.869801 0.306751
0.938543 0.871819 0.308769
0.158295 0.442973 0.204711
0.289732 0.470901 0.189933
0.422393 0.500493 0.177174
0.573425 0.555047 0.194686
0.713097 0.605719 0.211018
0.773250 0.629220 0.219090
0.825065 0.651635 0.226271
0.840754 0.669342 0.229591
0.855792 0.687423 0.233009
0.868877 0.706628 0.236720
0.880925 0.724022 0.241061
0.890690 0.737432 0.246790
0.898673 0.749866 0.251518
0.903686 0.760673 0.254578
0.909012 0.773958 0.258805
0.914740 0.790428 0.264534
0.918777 0.802341 0.269742
0.921120 0.809697 0.274429
0.923647 0.816871 0.279116
0.926316 0.823901 0.283803
0.927317 0.829468 0.287026
0.927317 0.834155 0.289369
0.928481 0.841169 0.292877
0.930173 0.849242 0.296913
0.932598 0.854531 0.298410
0.935267 0.858893 0.299061
0.934657 0.862408 0.301352
0.933290 0.865728 0.304021
0.933119 0.869675 0.307317
0.933119 0.873711 0.310702
0.932814 0.875855 0.312805
0.932488 0.877873 0.314824
0.224514 0.489389 0.219721
0.353672 0.521223 0.204878
0.483188 0.554196 0.192008
0.618076 0.604258 0.208739
0.742701 0.650748 0.224298
0.795498 0.672231 0.231654
0.840530 0.692469 0.238412
0.851923 0.707311 0.242579
0.863136 0.722236 0.246355
0.873813 0.737404 0.248959
0.884082 0.751392 0.252417
0.893457 0.762785 0.257755
0.901098 0.774177 0.262605
0.905850 0.785570 0.266641
0.910232 0.797788 0.271247
0.914138 0.811069 0.276585
0.917458 0.820378 0.281273
0.920192 0.825716 0.285309
0.922524 0.831860 0.288942
0.924542 0.838630 0.292262
0.925299 0.843244 0.294321
0.925299 0.846564 0.295623
0.926686 0.852659 0.298805
0.928704 0.860016 0.302841
0.929648 0.864345 0.304387
0.930234 0.867665 0.305103
0.929286 0.869927 0.307459
0.927984 0.871945 0.310193
0.928448 0.875729 0.314067
0.929164 0.879765 0.318103
0.928537 0.881910 0.320247
0.927821 0.883928 0.322265
0.295147 0.535806 0.237884
0.424305 0.572847 0.221999
0.552325 0.610117 0.208023
0.663255 0.650805 0.222670
0.765877 0.688961 0.236276
0.810340 0.709403 0.242591
0.848408 0.728990 0.249089
0.858758 0.744874 0.256380
0.868670 0.758757 0.261979
0.877263 0.766634 0.262499
0.885775 0.775284 0.264200
0.894108 0.785635 0.268497
0.901488 0.795986 0.272696
0.907282 0.806337 0.276732
0.910883 0.816146 0.280882
0.911664 0.825260 0.285179
0.913943 0.831966 0.289345
0.917719 0.836262 0.293381
0.920506 0.842536 0.296429
0.922524 0.850348 0.298707
0.923281 0.854702 0.299724
0.923281 0.856980 0.299985
0.924668 0.862034 0.302841
0.926686 0.868348 0.306877
0.926068 0.871636 0.309205
0.924570 0.873915 0.310962
0.924078 0.875981 0.314360
0.923818 0.878000 0.318136
0.925323 0.881783 0.322139
0.927081 0.885820 0.326175
0.925543 0.887964 0.328320
0.923785 0.889982 0.330338
0.359726 0.576168 0.251506
0.482635 0.614511 0.236142
0.603689 0.652611 0.222622
0.696912 0.687049 0.236748
0.783291 0.719412 0.249671
0.821765 0.737249 0.254163
0.854478 0.754330 0.259033
0.862225 0.768131 0.265543
0.870053 0.780386 0.270816
0.878126 0.788003 0.272378
0.885710 0.795904 0.274714
0.892220 0.804432 0.278750
0.898559 0.812668 0.282493
0.904613 0.820415 0.285748
0.908361 0.827962 0.289003
0.909142 0.835253 0.292258
0.911160 0.841308 0.295513
0.914415 0.846125 0.298768
0.916535 0.851455 0.300888
0.917772 0.857184 0.302125
0.918724 0.861082 0.303565
0.919505 0.863881 0.305128
0.920599 0.868381 0.308391
0.921836 0.873654 0.312427
0.921804 0.876486 0.315536
0.921348 0.878504 0.318335
0.921263 0.881157 0.322139
0.921263 0.883956 0.326175
0.923028 0.887838 0.329528
0.925047 0.891874 0.332783
0.924013 0.894018 0.334146
0.922776 0.896036 0.335383
0.422287 0.614511 0.263614
0.536863 0.652855 0.249292
0.649128 0.690630 0.236748
0.726728 0.719859 0.250875
0.798785 0.747275 0.263537
0.832051 0.761987 0.265946
0.859947 0.775943 0.268733
0.864569 0.786620 0.273160
0.870053 0.797052 0.277391
0.878126 0.806752 0.281037
0.885059 0.815434 0.284804
0.889486 0.821879 0.288841
0.894523 0.827641 0.292193
0.900577 0.832263 0.294407
0.904780 0.837597 0.296620
0.906603 0.843846 0.298833
0.908621 0.849901 0.301047
0.910834 0.855760 0.303260
0.911913 0.859788 0.304338
0.912108 0.862392 0.304534
0.913320 0.865769 0.306885
0.915143 0.869610 0.310531
0.915847 0.873719 0.314445
0.916042 0.877951 0.318481
0.917312 0.880522 0.322371
0.918939 0.882540 0.326212
0.919244 0.886039 0.330212
0.919244 0.889880 0.334248
0.921010 0.893892 0.336689
0.923028 0.897928 0.338902
0.922971 0.900073 0.339224
0.922776 0.902091 0.339419
0.488128 0.651216 0.272443
0.588447 0.685328 0.260856
0.686475 0.718863 0.250611
0.750143 0.743731 0.260506
0.809360 0.767151 0.269522
0.837418 0.780431 0.272387
0.861131 0.792955 0.275629
0.866013 0.802199 0.280512
0.871270 0.811020 0.284971
0.877650 0.818571 0.288161
0.883033 0.825391 0.291351
0.886223 0.830599 0.294541
0.890169 0.836002 0.297291
0.895377 0.841731 0.299309
0.899930 0.847232 0.301328
0.903641 0.852440 0.303346
0.906082 0.857225 0.305364
0.907254 0.861586 0.307382
0.908243 0.865106 0.309217
0.909089 0.867970 0.310909
0.910668 0.871567 0.314067
0.912686 0.875603 0.318103
0.913316 0.879057 0.322139
0.913316 0.882247 0.326175
0.915465 0.885828 0.329577
0.918329 0.889539 0.332767
0.918866 0.892826 0.335269
0.918866 0.896016 0.337613
0.920632 0.899206 0.339671
0.922650 0.902396 0.341690
0.922776 0.903694 0.343402
0.922776 0.904866 0.345095
0.554725 0.687541 0.280516
0.639420 0.716446 0.272053
0.721955 0.744838 0.264412
0.772082 0.765539 0.269099
0.818799 0.785183 0.273689
0.841649 0.797422 0.277595
0.861326 0.808904 0.281879
0.867250 0.817107 0.287803
0.872767 0.824365 0.292783
0.877064 0.828792 0.294931
0.880689 0.833138 0.297080
0.882837 0.837304 0.299228
0.885742 0.842837 0.301328
0.889909 0.850649 0.303346
0.894787 0.856866 0.305364
0.900581 0.861033 0.307382
0.903543 0.864255 0.309400
0.903673 0.866534 0.311418
0.904792 0.869728 0.314425
0.906680 0.873634 0.318201
0.908649 0.877621 0.322139
0.910668 0.881657 0.326175
