其他预设/【236】赛博朋克风调色预设/【后期菌】视频调色预设/CUBE/Sunset 09.cube
# LUT by SparkleStock. Enhanced with VOXCOLOR algorithms.
LUT_3D_SIZE 5
DOMAIN_MIN 0.000000 0.000000 0.000000
DOMAIN_MAX 0.903226 0.903226 0.903226
0.011730 0.003910 0.003910
0.162583 0.018037 0.046290
0.526093 0.066597 0.101283
0.771166 0.134960 0.146060
0.851638 0.169520 0.183395
0.064958 0.134960 0.095607
0.497588 0.143574 0.118913
0.739760 0.211758 0.149807
0.824260 0.271695 0.180107
0.858754 0.338662 0.160569
0.181755 0.347365 0.193864
0.571684 0.351890 0.061320
0.754948 0.414069 0.040362
0.829895 0.485699 0.044524
0.883004 0.582918 0.063509
0.335887 0.585501 0.271813
0.711571 0.593749 0.028632
0.808534 0.663654 0.031879
0.843842 0.732619 0.031281
0.874057 0.793837 0.086017
0.555104 0.731435 0.231451
0.771903 0.769307 0.049391
0.817330 0.822229 0.092182
0.857314 0.859332 0.186361
0.903059 0.896036 0.284841
0.028001 0.014127 0.101283
0.219631 0.037542 0.157204
0.600674 0.087067 0.175233
0.798040 0.144050 0.190971
0.868161 0.180115 0.218333
0.069661 0.141609 0.199243
0.554981 0.173179 0.225222
0.797778 0.209736 0.233428
0.858658 0.261513 0.260809
0.882215 0.335851 0.266653
0.225108 0.361403 0.293723
0.443864 0.447993 0.303160
0.813925 0.406672 0.162473
0.863836 0.484574 0.139018
0.895439 0.602423 0.120520
0.385205 0.611358 0.351495
0.611441 0.665466 0.253925
0.811154 0.691421 0.056395
0.838914 0.749727 0.060462
0.866273 0.809661 0.136092
0.592890 0.746644 0.263163
0.739170 0.794761 0.161707
0.823397 0.833386 0.139277
0.866407 0.873459 0.227170
0.908202 0.901465 0.329949
0.025226 0.037839 0.268281
0.285923 0.061353 0.291689
0.675718 0.107443 0.306194
0.821147 0.147118 0.302479
0.885083 0.179989 0.296807
0.095140 0.175196 0.368771
0.362738 0.248900 0.380756
0.822754 0.225372 0.321936
0.869667 0.282998 0.319757
0.893847 0.363770 0.327213
0.251160 0.363111 0.397777
0.450130 0.496994 0.430974
0.805134 0.456734 0.328224
0.877798 0.509403 0.258757
0.909429 0.612307 0.225720
0.461844 0.641581 0.433798
0.630227 0.693238 0.354795
0.751673 0.747898 0.266303
0.845539 0.766010 0.121243
0.865621 0.825431 0.178611
0.628219 0.766626 0.298699
0.724944 0.817253 0.249471
0.816109 0.854811 0.226892
0.877375 0.883885 0.263782
0.917724 0.909106 0.397867
0.038470 0.108347 0.449910
0.255306 0.135070 0.462902
0.707267 0.154621 0.478229
0.828003 0.183574 0.440275
0.897928 0.205753 0.413271
0.120101 0.224412 0.529027
0.323542 0.299325 0.510844
0.799016 0.263942 0.434409
0.875364 0.303577 0.394023
0.901082 0.402659 0.390617
0.284174 0.394872 0.511259
0.502275 0.528380 0.507894
0.716005 0.586001 0.485669
0.885835 0.562647 0.329142
0.914749 0.656077 0.278107
0.520442 0.662340 0.498495
0.670248 0.723341 0.428399
0.765032 0.772016 0.325378
0.842574 0.796885 0.250651
0.889182 0.835766 0.257097
0.669444 0.792767 0.331851
0.741510 0.829817 0.276430
0.818601 0.872237 0.290698
0.883302 0.900862 0.327402
0.934093 0.920943 0.491775
0.064327 0.171286 0.577555
0.210021 0.186821 0.591848
0.740118 0.184384 0.561915
0.834171 0.235332 0.542429
0.893091 0.256132 0.503813
0.146796 0.273538 0.619768
0.345612 0.346938 0.596234
0.695102 0.371758 0.556174
0.874487 0.351896 0.471444
0.899837 0.449896 0.448154
0.322160 0.440430 0.595803
0.555170 0.568381 0.574602
0.722035 0.635059 0.566428
0.880835 0.623142 0.406179
0.920717 0.699730 0.314309
0.570496 0.679847 0.553496
0.700139 0.739241 0.479188
0.776566 0.786219 0.357235
0.835394 0.835713 0.309583
0.902017 0.857810 0.301928
0.698560 0.805519 0.362965
0.763559 0.847639 0.303599
0.837465 0.884439 0.314660
0.898350 0.914694 0.405831
0.945315 0.934589 0.621163
