其他预设/【236】赛博朋克风调色预设/【后期菌】视频调色预设/CUBE/Sunset 10_S.cube
# LUT by SparkleStock. Enhanced with VOXCOLOR algorithms.
LUT_3D_SIZE 32
0.027370 0.027370 0.027370
0.033425 0.029389 0.029389
0.039479 0.031281 0.031281
0.045533 0.031281 0.031281
0.052597 0.031785 0.031785
0.066723 0.035821 0.035821
0.083877 0.040614 0.040614
0.114149 0.048687 0.048687
0.146943 0.056759 0.057264
0.187305 0.064831 0.067354
0.226406 0.072904 0.076814
0.262731 0.080976 0.084886
0.301328 0.089805 0.092202
0.343708 0.099896 0.098256
0.383439 0.109104 0.105193
0.419765 0.117176 0.113266
0.450036 0.123230 0.119320
0.474253 0.127266 0.123356
0.495065 0.131303 0.128528
0.513228 0.135339 0.134582
0.531391 0.139375 0.139375
0.549554 0.143411 0.143411
0.563554 0.147447 0.147447
0.575663 0.151484 0.151484
0.584744 0.157033 0.157033
0.592817 0.163088 0.163088
0.602529 0.169142 0.167502
0.612619 0.175196 0.171538
0.620944 0.175953 0.173809
0.629016 0.175953 0.175827
0.637089 0.179737 0.179737
0.645161 0.183773 0.183773
0.031407 0.031407 0.033425
0.040586 0.033425 0.034401
0.049830 0.035382 0.035382
0.060051 0.036423 0.036423
0.071931 0.038230 0.038230
0.095433 0.045391 0.045391
0.120203 0.052528 0.052528
0.150475 0.059558 0.059558
0.184050 0.067110 0.067094
0.227537 0.076224 0.076143
0.270088 0.085338 0.084886
0.310580 0.094452 0.092959
0.349436 0.102760 0.099884
0.385567 0.109726 0.104896
0.419504 0.116720 0.109881
0.450622 0.123751 0.114828
0.477248 0.129285 0.120362
0.499382 0.133321 0.126481
0.519282 0.137357 0.131392
0.537445 0.141393 0.135363
0.554957 0.146080 0.140026
0.572078 0.151158 0.145104
0.583605 0.154804 0.150182
0.592589 0.157798 0.155259
0.600889 0.163869 0.160288
0.608962 0.170965 0.165301
0.616135 0.176368 0.170367
0.623101 0.181381 0.175444
0.631035 0.183830 0.178756
0.639107 0.185913 0.181816
0.646203 0.188851 0.183838
0.653234 0.191846 0.185791
0.035443 0.035821 0.039353
0.047812 0.037774 0.039353
0.060331 0.039739 0.039495
0.075109 0.041888 0.041774
0.092108 0.045021 0.045029
0.124658 0.055046 0.055119
0.156842 0.064339 0.064453
0.187439 0.070459 0.070507
0.221975 0.077587 0.077066
0.268326 0.087743 0.085139
0.313924 0.097857 0.093150
0.357867 0.107883 0.101027
0.396561 0.115687 0.107439
0.426507 0.119788 0.111411
0.454744 0.124687 0.114527
0.480784 0.130611 0.116545
0.503862 0.135591 0.121460
0.523978 0.139627 0.129272
0.542995 0.143627 0.133898
0.561158 0.147598 0.136047
0.577978 0.152871 0.140677
0.593993 0.158925 0.146796
0.603249 0.162250 0.152826
0.609434 0.164333 0.158816
0.617083 0.170810 0.163486
0.625220 0.178752 0.167718
0.629920 0.183521 0.173378
0.633826 0.187557 0.179367
0.641263 0.191821 0.183647
0.649206 0.196118 0.187683
0.655256 0.198400 0.187997
0.661180 0.200549 0.188062
0.039479 0.045912 0.043389
0.056014 0.046823 0.043389
0.073091 0.047942 0.043792
0.098285 0.052174 0.050237
0.124919 0.056999 0.057137
0.161635 0.065983 0.067228
0.198181 0.074625 0.076562
0.233986 0.081786 0.082616
0.272167 0.089956 0.089175
0.317476 0.101153 0.097247
0.360080 0.111659 0.104282
0.396732 0.120642 0.109034
0.428915 0.128186 0.113103
0.453653 0.133329 0.116033
0.477594 0.137902 0.118563
0.500509 0.141743 0.120581
0.521504 0.145682 0.123413
0.540578 0.149718 0.127059
0.559140 0.153131 0.131034
0.577303 0.156061 0.135266
0.592821 0.160943 0.141328
0.606752 0.166998 0.148489
0.616790 0.171038 0.154128
0.625058 0.174163 0.159076
0.634009 0.179338 0.165830
0.643188 0.185197 0.173186
0.646390 0.189575 0.178586
0.648213 0.193611 0.183533
0.653567 0.201521 0.187683
0.659426 0.209984 0.191719
0.663393 0.214480 0.193009
0.667234 0.218712 0.194116
0.043768 0.055750 0.047678
0.064079 0.055620 0.047547
0.085314 0.055892 0.048064
0.120402 0.062207 0.058285
0.156378 0.068790 0.068538
0.198563 0.077253 0.079019
0.240333 0.085716 0.088646
0.280304 0.094179 0.094570
0.321122 0.103456 0.100966
0.364479 0.115174 0.108778
0.403502 0.125712 0.114739
0.432992 0.133654 0.116627
0.458992 0.140889 0.118515
0.479173 0.146943 0.120402
0.499297 0.151288 0.122290
0.519347 0.153437 0.124178
0.538454 0.156529 0.125187
0.556617 0.160565 0.125317
0.574780 0.163539 0.128780
0.592943 0.165688 0.134834
0.607241 0.170196 0.141906
0.619219 0.176120 0.149588
0.630078 0.180657 0.154853
0.640429 0.184563 0.159019
0.650390 0.188859 0.167726
0.660220 0.193286 0.177947
0.662063 0.197607 0.182931
0.662063 0.201904 0.186707
0.665139 0.212922 0.190938
0.668654 0.224900 0.195235
0.671010 0.231691 0.197395
0.673289 0.238136 0.199413
0.049822 0.063822 0.053732
0.071175 0.062651 0.052560
0.093777 0.062077 0.052165
0.135115 0.070475 0.063428
0.178382 0.079271 0.074983
0.235149 0.090859 0.088589
0.288181 0.102447 0.100559
0.325028 0.114035 0.105442
0.361419 0.124874 0.110536
0.396443 0.133467 0.116265
0.427784 0.141531 0.120468
0.451025 0.148432 0.121314
0.473118 0.155015 0.122160
0.493299 0.161070 0.123006
0.512968 0.165871 0.123853
0.531977 0.169061 0.124699
0.550563 0.172674 0.125708
0.568726 0.176710 0.126880
0.586889 0.180270 0.130798
0.605052 0.183460 0.136852
0.618698 0.187708 0.141971
0.629635 0.192590 0.146528
0.641601 0.196085 0.151532
0.654035 0.198950 0.156740
0.662954 0.205329 0.166489
0.670701 0.212881 0.177751
0.672153 0.219481 0.181238
0.672153 0.225860 0.182931
0.671584 0.236228 0.188725
0.670933 0.247164 0.195105
0.674981 0.256819 0.197395
0.679343 0.266389 0.199413
0.055498 0.074544 0.060921
0.079064 0.071940 0.058513
0.104205 0.070129 0.057060
0.152965 0.080219 0.069950
0.204036 0.090790 0.083173
0.271284 0.104721 0.098732
0.332283 0.118726 0.112057
0.366200 0.133048 0.115703
0.398457 0.145352 0.119397
0.425734 0.151602 0.123238
0.450101 0.157790 0.125879
0.468069 0.163844 0.125879
0.486720 0.169972 0.125806
0.506511 0.176222 0.125610
0.525589 0.181503 0.125415
0.543752 0.185539 0.125220
0.561719 0.189575 0.126034
0.579492 0.193611 0.127856
0.597484 0.197867 0.131840
0.615647 0.202294 0.137503
0.629008 0.206477 0.141133
0.639489 0.210513 0.143541
0.652208 0.213162 0.148188
0.665944 0.215180 0.153852
0.674066 0.223399 0.164349
0.680315 0.233685 0.176458
0.681804 0.242648 0.178728
0.682195 0.251306 0.178728
0.678883 0.261218 0.184766
0.675042 0.271308 0.191667
0.680112 0.283108 0.194173
0.685776 0.295021 0.196386
0.059534 0.096743 0.073030
0.090391 0.091014 0.068538
0.123149 0.086274 0.065393
0.184408 0.096364 0.082449
0.245504 0.106805 0.098928
0.305461 0.119694 0.111362
0.360145 0.133048 0.121757
0.391979 0.148412 0.123320
0.421372 0.161757 0.125191
0.443441 0.169048 0.127991
0.463903 0.175953 0.129915
0.480829 0.182007 0.129915
0.498048 0.188526 0.129451
0.515755 0.195817 0.128214
0.533661 0.201684 0.126978
0.551824 0.205720 0.125741
0.568750 0.209756 0.125513
0.584439 0.213792 0.126294
0.601520 0.219220 0.128650
0.619683 0.225730 0.132230
0.634347 0.230694 0.136380
0.646911 0.234730 0.140872
0.658849 0.237379 0.144738
0.670501 0.239397 0.148318
0.678883 0.248397 0.158295
0.686174 0.259725 0.170403
0.689551 0.271422 0.172674
0.692025 0.283205 0.172674
0.689885 0.293507 0.173243
0.687086 0.303598 0.173894
0.690267 0.314421 0.176987
0.693848 0.325292 0.180242
0.066093 0.119951 0.086652
0.103200 0.110837 0.079817
0.142467 0.102956 0.074653
0.214142 0.113567 0.094574
0.283572 0.124398 0.113201
0.337279 0.136767 0.122770
0.386348 0.149746 0.130497
0.415318 0.165370 0.130237
0.441651 0.179171 0.130481
0.460074 0.187504 0.132238
0.477704 0.195288 0.133365
0.493588 0.201863 0.133105
0.509473 0.208804 0.132088
0.525357 0.216356 0.129809
0.542010 0.222369 0.127531
0.559652 0.226406 0.125252
0.575797 0.231093 0.124374
0.590445 0.236431 0.124894
0.606630 0.242721 0.126111
0.624012 0.249752 0.127869
0.639522 0.255237 0.132312
0.653909 0.259794 0.138366
0.665521 0.263142 0.142003
0.675872 0.265942 0.144542
0.684710 0.275137 0.153477
0.693042 0.286464 0.164544
0.697884 0.299643 0.166196
0.701920 0.313249 0.165675
0.700887 0.324007 0.162306
0.699129 0.334358 0.158531
0.701400 0.344953 0.161346
0.703938 0.355564 0.164601
0.080219 0.146186 0.104815
0.120451 0.132906 0.094855
0.162909 0.121249 0.086697
0.238750 0.133943 0.105576
0.311434 0.146727 0.123031
0.362017 0.160138 0.130517
0.407571 0.173573 0.136356
0.431332 0.187114 0.135054
0.454020 0.199613 0.134257
0.473484 0.208987 0.134973
0.491505 0.218138 0.135058
0.506348 0.226796 0.133756
0.521191 0.234258 0.131697
0.536033 0.239727 0.128377
0.551189 0.244568 0.125057
0.566748 0.248605 0.121737
0.582893 0.255896 0.121379
0.599624 0.266442 0.123983
0.614963 0.272667 0.125525
0.629220 0.275532 0.126241
0.644209 0.280756 0.130294
0.659638 0.287396 0.136348
0.672292 0.293544 0.141418
0.683684 0.299468 0.146040
0.693563 0.307101 0.152371
0.702938 0.315304 0.159271
0.707975 0.326204 0.158449
0.712011 0.337727 0.155845
0.711889 0.349135 0.153127
0.711173 0.360528 0.150393
0.715461 0.373141 0.150344
0.720083 0.385835 0.150475
0.096238 0.174313 0.123609
0.141222 0.160447 0.109873
0.188151 0.148127 0.097988
0.264253 0.158999 0.113872
0.336937 0.170277 0.128568
0.385697 0.184404 0.134948
0.428976 0.198091 0.139753
0.448506 0.209874 0.137735
0.467955 0.221234 0.136140
0.487160 0.231325 0.135815
0.504777 0.241313 0.134960
0.518904 0.251078 0.132942
0.532909 0.259183 0.130290
0.546710 0.264522 0.126579
0.560511 0.269290 0.122868
0.574312 0.273326 0.119157
0.590131 0.282082 0.118995
0.607969 0.295558 0.122380
0.622950 0.301637 0.123678
0.635710 0.301962 0.123352
0.650585 0.307130 0.126607
0.666730 0.315202 0.132011
0.679876 0.322603 0.137638
0.691659 0.329699 0.143366
0.701684 0.336258 0.147826
0.711124 0.342638 0.151862
0.716702 0.351768 0.150662
0.721389 0.361533 0.148253
0.722545 0.373918 0.146471
0.723196 0.386678 0.144778
0.728912 0.400109 0.142475
0.734967 0.413584 0.140132
0.116419 0.206603 0.143790
0.169736 0.200028 0.124846
0.223956 0.193892 0.107622
0.291725 0.194348 0.116216
0.357248 0.196512 0.124662
0.407050 0.210639 0.132084
0.450785 0.224131 0.137735
0.468232 0.234873 0.135717
0.485337 0.245451 0.133862
0.501416 0.255542 0.132495
0.516886 0.265205 0.130924
0.531013 0.273929 0.128906
0.544627 0.282945 0.126644
0.557386 0.292450 0.123975
0.570146 0.299562 0.121306
0.582905 0.303598 0.118637
0.597683 0.311312 0.117953
0.614479 0.322705 0.119255
0.630176 0.328458 0.119056
0.645019 0.329825 0.117689
0.660675 0.335383 0.119251
0.676820 0.343455 0.122571
0.689250 0.348708 0.126831
0.699992 0.352679 0.131518
0.708194 0.359238 0.135717
0.715551 0.366659 0.139753
0.722431 0.375139 0.142785
0.729201 0.383862 0.145584
0.732440 0.397940 0.145364
0.735174 0.412783 0.144713
0.741021 0.424391 0.141499
0.747075 0.435783 0.138114
0.138870 0.237379 0.163214
0.199739 0.236923 0.139062
0.260640 0.235996 0.116476
0.322029 0.227988 0.117387
0.381856 0.222601 0.119340
0.430746 0.235556 0.128585
0.473350 0.248047 0.135644
0.488714 0.258528 0.133235
0.503573 0.269009 0.130729
0.516918 0.279491 0.127930
0.530020 0.289341 0.125374
0.542584 0.297804 0.123356
0.555124 0.307634 0.121338
0.567623 0.319743 0.119320
0.580122 0.328149 0.117302
0.592622 0.331794 0.115284
0.606748 0.338662 0.114080
0.622502 0.348753 0.113689
0.638476 0.354742 0.112822
0.654621 0.357541 0.111585
0.670522 0.363148 0.112383
0.686276 0.370439 0.114401
0.698405 0.374105 0.117807
0.708886 0.376123 0.121843
0.716340 0.382389 0.125586
0.722785 0.390071 0.129232
0.730552 0.398705 0.135469
0.738625 0.407559 0.142305
0.743507 0.422108 0.144526
0.747934 0.437472 0.146088
0.752788 0.448258 0.142036
0.757670 0.458739 0.137609
0.165106 0.265632 0.181377
0.232224 0.269343 0.152017
0.298789 0.271996 0.124028
0.357053 0.258781 0.116606
0.413625 0.248446 0.111659
0.458349 0.258276 0.124028
0.497177 0.268424 0.133431
0.510457 0.279946 0.129980
0.523233 0.291469 0.126172
0.534495 0.302992 0.121289
0.544863 0.313884 0.117302
0.553260 0.323388 0.115284
0.563587 0.333869 0.113266
0.577128 0.345978 0.111248
0.590669 0.353928 0.109230
0.604209 0.356532 0.107212
0.618336 0.362880 0.105486
0.633049 0.372970 0.104054
0.648567 0.380131 0.103904
0.664712 0.385014 0.104750
0.679961 0.390100 0.106329
0.694674 0.395308 0.108347
0.707193 0.398322 0.111752
0.718716 0.400341 0.115788
0.727212 0.405825 0.118751
0.734698 0.412465 0.121355
0.742661 0.422597 0.129089
0.750733 0.433533 0.138008
0.756527 0.446521 0.144135
0.761995 0.459801 0.149864
0.763985 0.471434 0.145096
0.765743 0.482957 0.139627
0.197522 0.296535 0.198657
0.269066 0.301222 0.164544
0.339472 0.304635 0.131722
0.392789 0.288946 0.118246
0.444340 0.276057 0.107822
0.483530 0.282762 0.118759
0.517813 0.290395 0.127059
0.530833 0.302048 0.123934
0.543007 0.313815 0.120305
0.552642 0.325923 0.115162
0.561443 0.337828 0.110995
0.568408 0.349286 0.108977
0.577718 0.360817 0.107130
0.590933 0.372470 0.105568
0.603949 0.379907 0.103407
0.616709 0.381925 0.100478
0.630152 0.387752 0.098460
0.644278 0.397387 0.097353
0.659028 0.404751 0.097748
0.674261 0.410350 0.099310
0.689088 0.415541 0.101442
0.703670 0.420489 0.103916
0.716238 0.423736 0.107464
0.727891 0.426210 0.111500
0.737200 0.431711 0.115048
0.745729 0.438221 0.118433
0.752776 0.448539 0.126156
0.759481 0.459736 0.134879
0.764819 0.471332 0.142634
0.769962 0.482985 0.150251
0.770711 0.493356 0.146333
0.771166 0.503642 0.141645
0.237884 0.330842 0.214802
0.311512 0.332405 0.176523
0.383415 0.332954 0.139599
0.429440 0.318306 0.122998
0.473700 0.305937 0.108929
0.505599 0.309518 0.112574
0.534349 0.314417 0.115341
0.549452 0.325028 0.114299
0.562928 0.336014 0.112753
0.571521 0.348122 0.109693
0.580257 0.361004 0.106959
0.589305 0.375586 0.104941
0.599136 0.388680 0.103485
0.610268 0.399291 0.102964
0.620745 0.406143 0.100478
0.630380 0.408161 0.095465
0.642260 0.413466 0.093447
0.656387 0.422060 0.094423
0.669964 0.428382 0.095144
0.683115 0.432939 0.095664
0.697811 0.439043 0.098057
0.713435 0.446073 0.101572
0.725613 0.450687 0.105446
0.736224 0.454203 0.109482
0.746054 0.460745 0.115373
0.755624 0.468297 0.121883
0.760327 0.477118 0.127653
0.763908 0.486232 0.133252
0.767033 0.496656 0.139705
0.770092 0.507267 0.146280
0.771687 0.513667 0.145226
0.773184 0.519787 0.143663
0.276227 0.365150 0.228928
0.354543 0.359942 0.182837
0.430417 0.354339 0.138655
0.469672 0.342817 0.123096
0.507487 0.333117 0.109612
0.535220 0.336176 0.110654
0.560389 0.340457 0.111500
0.574450 0.350026 0.111500
0.587145 0.360101 0.111126
0.595738 0.371688 0.109628
0.603986 0.384049 0.107806
0.611472 0.398111 0.105267
0.619544 0.410488 0.103485
0.628593 0.420058 0.102964
0.637215 0.426779 0.100478
0.645287 0.429839 0.095465
0.656127 0.435405 0.093968
0.669732 0.443477 0.095986
0.682203 0.449865 0.096869
0.693791 0.454943 0.096869
0.707250 0.461242 0.099717
0.721833 0.468272 0.104274
0.733327 0.474677 0.108473
0.743418 0.480796 0.112509
0.752727 0.487599 0.119182
0.761776 0.494630 0.126733
0.765535 0.502507 0.132275
0.768074 0.510579 0.137353
0.769702 0.519050 0.142374
0.771199 0.527578 0.147386
0.774161 0.533360 0.149164
0.777221 0.538959 0.150727
0.312553 0.399458 0.241037
0.398160 0.383834 0.183488
0.480479 0.368791 0.128890
0.513484 0.362477 0.118539
0.545701 0.357594 0.109873
0.572392 0.362737 0.112997
0.595933 0.368515 0.115536
0.605829 0.377043 0.115536
0.615659 0.386076 0.115422
0.625294 0.396622 0.114967
0.632630 0.406964 0.113534
0.634908 0.416860 0.109954
0.638944 0.426242 0.107130
0.645910 0.434770 0.105568
0.653360 0.441817 0.103407
0.661432 0.446960 0.100478
0.671751 0.453568 0.100022
0.684315 0.461640 0.102040
0.695744 0.469200 0.102923
0.706290 0.476361 0.102923
0.717406 0.482139 0.106422
0.728864 0.487086 0.112021
0.739381 0.495704 0.116545
0.749472 0.505990 0.120581
0.757219 0.512272 0.126473
0.764184 0.517219 0.132983
0.768400 0.524706 0.140022
0.771980 0.532778 0.147183
0.772826 0.538515 0.150641
0.773282 0.543919 0.153571
0.778132 0.552434 0.158148
0.783275 0.561158 0.162835
0.350014 0.430360 0.249740
0.437639 0.410765 0.188351
0.521496 0.391922 0.130147
0.548838 0.384371 0.119731
0.575748 0.378373 0.111048
0.599640 0.383256 0.114499
0.621115 0.388956 0.117522
0.632117 0.398200 0.118694
0.642452 0.407510 0.119572
0.650784 0.417014 0.119572
0.656879 0.426254 0.118494
0.658051 0.434913 0.115044
0.660175 0.443132 0.112131
0.663886 0.450618 0.110113
0.669505 0.457991 0.108351
0.677577 0.465217 0.106919
0.686789 0.472866 0.106919
0.697140 0.480938 0.108351
0.707344 0.489011 0.109637
0.717434 0.497083 0.110808
0.726426 0.502633 0.113933
0.734759 0.506669 0.118230
0.743898 0.515047 0.123153
0.753402 0.525398 0.128361
0.759880 0.531013 0.134643
0.765348 0.535049 0.141283
0.769653 0.542364 0.149087
0.773689 0.550437 0.157160
0.774706 0.555490 0.160447
0.775292 0.560112 0.163051
0.779906 0.568762 0.168340
0.784789 0.577681 0.173809
0.388358 0.458613 0.255794
0.473899 0.440060 0.196488
0.555478 0.421803 0.139977
0.577612 0.408002 0.125395
0.599445 0.396276 0.112936
0.619170 0.399075 0.115345
0.638236 0.403473 0.117912
0.654446 0.414801 0.121167
0.667906 0.425412 0.123609
0.673114 0.433875 0.123609
0.677711 0.442725 0.122856
0.680966 0.452425 0.120447
0.682830 0.460904 0.118185
0.682374 0.467349 0.116167
0.685649 0.475047 0.114861
0.693722 0.484356 0.114470
0.701371 0.493047 0.114470
0.708597 0.501119 0.114861
0.717434 0.509192 0.116863
0.727525 0.517264 0.120118
0.734564 0.522814 0.122071
0.739772 0.526850 0.123242
0.747218 0.533079 0.128621
0.755681 0.540306 0.135913
0.761117 0.545139 0.143497
0.765543 0.549175 0.151178
0.769653 0.556491 0.159178
0.773689 0.564563 0.167250
0.775618 0.570528 0.171449
0.777245 0.576192 0.175095
0.779971 0.582954 0.179473
0.782770 0.589790 0.183899
0.427963 0.488128 0.261848
0.502958 0.466710 0.202022
0.574650 0.445784 0.145006
0.596784 0.432244 0.130163
0.618421 0.420485 0.117184
0.636584 0.421201 0.117249
0.654015 0.423565 0.117937
0.668272 0.433070 0.121322
0.680462 0.442216 0.123861
0.686451 0.450289 0.123861
0.692033 0.458992 0.124044
0.696720 0.469082 0.124630
0.700114 0.477659 0.124728
0.701351 0.483713 0.124011
0.705009 0.491533 0.123893
0.711779 0.501624 0.124544
0.717540 0.510705 0.125521
0.722293 0.518778 0.126823
0.728949 0.526118 0.129297
0.737087 0.532888 0.132682
0.742661 0.538357 0.134358
0.746697 0.543044 0.135009
0.753060 0.549566 0.140762
0.760482 0.556922 0.148835
0.764876 0.561789 0.155931
0.768261 0.565825 0.162701
0.771647 0.571554 0.168943
0.775032 0.577673 0.175062
0.777790 0.584305 0.180498
0.780459 0.591010 0.185836
0.782518 0.597105 0.190564
0.784536 0.603160 0.195251
0.468325 0.518399 0.267903
0.527696 0.491773 0.205993
0.584936 0.466226 0.147154
0.610194 0.456851 0.134395
0.634566 0.448478 0.122848
0.652729 0.447111 0.119788
0.668988 0.447001 0.117741
0.676995 0.452339 0.120085
0.685279 0.458361 0.121843
0.694393 0.466433 0.121843
0.702449 0.475136 0.123328
0.708178 0.485227 0.128080
0.714175 0.493804 0.131563
0.720620 0.499858 0.132930
0.726296 0.507678 0.134440
0.730983 0.517769 0.136132
0.734662 0.526850 0.138671
0.737331 0.534923 0.142056
0.741318 0.541091 0.144856
0.746331 0.545778 0.147199
0.750733 0.551116 0.149136
0.754769 0.556845 0.150829
0.760417 0.565125 0.156907
0.766797 0.574564 0.164980
0.770149 0.579951 0.170513
0.772493 0.583988 0.175200
0.774836 0.587178 0.178512
0.777180 0.590172 0.181507
0.780720 0.597325 0.188375
0.784431 0.605072 0.195796
0.786554 0.611232 0.201631
0.788573 0.617286 0.207360
0.508687 0.541734 0.279507
0.558879 0.513480 0.216230
0.607395 0.486354 0.156061
0.630766 0.476133 0.142520
0.653307 0.467117 0.130078
0.670038 0.466531 0.125326
0.684901 0.467080 0.121977
0.691671 0.472549 0.124711
0.698555 0.478310 0.126941
0.705782 0.484950 0.127657
0.712642 0.492445 0.129370
0.718696 0.501819 0.133276
0.724970 0.509949 0.136743
0.731610 0.516003 0.139477
0.736798 0.523196 0.142211
0.740118 0.531855 0.144945
0.743503 0.540220 0.148330
0.746953 0.548292 0.152367
0.750733 0.554900 0.156073
0.754769 0.560369 0.159523
0.758358 0.566203 0.162526
0.761678 0.572257 0.165260
0.766386 0.579610 0.170680
0.771724 0.587552 0.177320
0.774035 0.593102 0.182544
0.775337 0.597854 0.187297
0.777803 0.601548 0.191573
0.780537 0.604999 0.195739
0.783784 0.612493 0.203324
0.787104 0.620566 0.211396
0.789875 0.626746 0.218919
0.792609 0.632800 0.226406
0.549049 0.561915 0.293634
0.592992 0.533661 0.229315
0.635388 0.506340 0.168039
0.654593 0.492994 0.152415
0.673228 0.481504 0.138020
0.687875 0.483001 0.132226
0.701241 0.485634 0.128227
0.709053 0.493185 0.132002
0.715677 0.499988 0.135274
0.718736 0.504545 0.137031
0.722732 0.510282 0.138484
0.728786 0.518615 0.139265
0.734279 0.526093 0.141169
0.738836 0.532148 0.144945
0.742396 0.538430 0.148721
0.744675 0.545005 0.152497
0.748581 0.552329 0.156403
0.754114 0.560401 0.160439
0.758806 0.568181 0.165317
0.762842 0.575732 0.170851
0.765779 0.582348 0.175286
0.768058 0.588402 0.179062
0.771724 0.593606 0.183374
0.776020 0.598424 0.187931
0.777290 0.603973 0.193416
0.777550 0.609767 0.199210
0.780667 0.615350 0.206221
0.784443 0.620883 0.213512
0.786908 0.628638 0.221486
0.789187 0.636710 0.229559
0.792869 0.642891 0.239035
0.796645 0.648945 0.248605
0.577303 0.579069 0.301706
0.616558 0.551596 0.238689
0.654397 0.525007 0.178455
0.670998 0.511662 0.159967
0.687094 0.500139 0.143130
0.699658 0.501376 0.137857
0.711234 0.503748 0.134330
0.718525 0.511039 0.138366
0.724498 0.517516 0.141702
0.726516 0.521553 0.142939
0.729551 0.526850 0.144278
0.734824 0.534923 0.145840
0.739634 0.541945 0.148037
0.743670 0.547218 0.151292
0.747165 0.553175 0.154889
0.749964 0.560010 0.158925
0.754000 0.567464 0.163352
0.759273 0.575537 0.168170
0.763411 0.582291 0.173243
0.766666 0.588020 0.178516
0.769637 0.594440 0.183993
0.772436 0.601276 0.189592
0.776086 0.607261 0.195190
0.780122 0.612859 0.200789
0.781717 0.618800 0.207315
0.782498 0.624854 0.214151
0.785289 0.630908 0.222626
0.788544 0.636963 0.231479
0.791400 0.644099 0.241016
0.794200 0.651391 0.250651
0.797426 0.656790 0.259981
0.800681 0.662063 0.269290
0.601520 0.595213 0.307760
0.636609 0.568783 0.246827
0.670412 0.543235 0.188351
0.684929 0.530931 0.166737
0.698942 0.520190 0.147297
0.709423 0.520385 0.143065
0.719111 0.521715 0.140384
0.725360 0.527965 0.144420
0.730552 0.533661 0.147496
0.732570 0.537697 0.147692
0.735280 0.542995 0.148965
0.739512 0.551067 0.152611
0.743670 0.557699 0.155719
0.747706 0.561931 0.157933
0.751657 0.567757 0.160943
0.755498 0.575634 0.164980
0.759534 0.583609 0.169927
0.763765 0.591682 0.175786
0.766862 0.596678 0.180730
0.769075 0.599282 0.184961
0.772306 0.605182 0.191349
0.776147 0.613059 0.199031
0.780122 0.620802 0.206713
0.784158 0.628483 0.214395
0.786534 0.634945 0.222223
0.788357 0.640999 0.230100
0.790497 0.647053 0.239617
0.792710 0.653108 0.249512
0.796348 0.659333 0.261002
0.800189 0.665582 0.272720
0.802504 0.669940 0.281203
0.804717 0.674171 0.289471
0.630656 0.612998 0.308895
0.655655 0.587609 0.250891
0.679815 0.563103 0.195125
0.691403 0.551840 0.172926
0.702697 0.541774 0.152891
0.711942 0.540082 0.148009
0.720746 0.540000 0.144640
0.727647 0.546901 0.147830
0.733327 0.553085 0.150434
0.735345 0.557122 0.151280
0.737994 0.561890 0.153388
0.742030 0.568270 0.158270
0.746384 0.574406 0.162396
0.751266 0.580135 0.165260
0.756149 0.586518 0.169378
0.761031 0.593745 0.175107
0.764644 0.600547 0.180575
0.766988 0.606927 0.185783
0.769624 0.611806 0.191760
0.772489 0.615516 0.198335
0.776086 0.621953 0.206375
0.780122 0.630026 0.215294
0.784158 0.638098 0.224213
0.788194 0.646170 0.233131
0.791351 0.652094 0.242685
0.794216 0.657302 0.252450
0.796393 0.663886 0.263167
0.798411 0.670786 0.274104
0.802195 0.676946 0.286806
0.806231 0.683001 0.299761
0.809169 0.689543 0.319246
0.812033 0.696118 0.339167
0.660928 0.631161 0.308895
0.674468 0.606813 0.254016
0.687692 0.583349 0.201179
0.696155 0.573128 0.178980
0.704585 0.563713 0.158816
0.712788 0.559937 0.152891
0.720942 0.558359 0.148481
0.728884 0.566301 0.150629
0.735345 0.573266 0.152712
0.737363 0.577303 0.154600
0.740012 0.581420 0.157749
0.744048 0.585717 0.163674
0.748792 0.591332 0.168841
0.754716 0.599144 0.172747
0.760641 0.606244 0.178362
0.766565 0.612428 0.186174
0.769657 0.617669 0.192163
0.769917 0.621965 0.196329
0.772228 0.627104 0.203608
0.776134 0.632898 0.213308
0.780122 0.640116 0.223171
0.784158 0.648188 0.233131
