其他预设/【236】赛博朋克风调色预设/【后期菌】视频调色预设/CUBE/Sunset 04_S.cube
# LUT by SparkleStock. Enhanced with VOXCOLOR algorithms.
LUT_3D_SIZE 32
0.007820 0.019550 0.039101
0.015893 0.025605 0.047173
0.023839 0.031533 0.054993
0.029893 0.035569 0.059029
0.035947 0.039605 0.063570
0.042002 0.043641 0.071643
0.049570 0.048056 0.079337
0.063696 0.054110 0.085391
0.078327 0.060165 0.091950
0.094472 0.066219 0.100022
0.113770 0.071012 0.106203
0.140006 0.073030 0.108221
0.175322 0.078075 0.110995
0.225775 0.088166 0.115032
0.288588 0.102671 0.117302
0.367294 0.122852 0.117302
0.451045 0.144042 0.117302
0.539842 0.166241 0.117302
0.630908 0.185035 0.125248
0.723741 0.201179 0.139375
0.790086 0.217324 0.150979
0.840539 0.233469 0.161070
0.868792 0.242677 0.168385
0.886955 0.248731 0.174440
0.903604 0.254785 0.182007
0.919749 0.260839 0.190080
0.935894 0.263614 0.194873
0.952039 0.265632 0.198909
0.959354 0.269416 0.202945
0.965409 0.273453 0.206981
0.971463 0.277489 0.211018
0.977517 0.281525 0.215054
0.013874 0.033677 0.049191
0.021947 0.037648 0.057264
0.029958 0.041623 0.065084
0.037054 0.045660 0.069120
0.044671 0.049956 0.073791
0.055933 0.056076 0.082905
0.067537 0.061597 0.091250
0.080622 0.064526 0.096263
0.096555 0.067977 0.101259
0.121033 0.072989 0.106207
0.150617 0.079019 0.110239
0.191435 0.087287 0.112257
0.239771 0.097019 0.113469
0.300640 0.109193 0.113339
0.373869 0.125326 0.113722
0.462991 0.146548 0.114763
0.548305 0.165134 0.118930
0.629810 0.181084 0.126221
0.702453 0.195971 0.134427
0.768204 0.210033 0.143346
0.816582 0.222793 0.152346
0.854535 0.234771 0.161395
0.880315 0.244109 0.169101
0.900561 0.252246 0.176197
0.917731 0.258040 0.183244
0.933876 0.263053 0.190275
0.946635 0.267325 0.195719
0.958614 0.271426 0.200797
0.965409 0.275471 0.204963
0.971463 0.279507 0.208999
0.974588 0.281590 0.212059
0.977517 0.283543 0.215054
0.019676 0.047425 0.059029
0.027879 0.049574 0.067102
0.036094 0.051840 0.074934
0.044492 0.055876 0.079166
0.053866 0.060392 0.084113
0.070076 0.068270 0.094074
0.085627 0.074682 0.102899
0.098321 0.074747 0.106805
0.116175 0.075903 0.110239
0.149506 0.080329 0.112257
0.189612 0.087828 0.114214
0.244621 0.102085 0.116037
0.305661 0.116342 0.115687
0.376750 0.130599 0.111716
0.459488 0.148131 0.110479
0.557203 0.169874 0.112757
0.642744 0.185759 0.120830
0.716112 0.195784 0.134696
0.770658 0.206872 0.143033
0.810564 0.218785 0.147069
0.841885 0.228298 0.153628
0.868056 0.236370 0.161700
0.891451 0.245696 0.169728
0.913585 0.255591 0.177735
0.931178 0.261140 0.184327
0.947258 0.265242 0.190446
0.956832 0.270930 0.196512
0.964904 0.276984 0.202567
0.971154 0.281444 0.206969
0.977143 0.285675 0.211136
0.977517 0.286001 0.213288
0.977517 0.286066 0.215306
0.021695 0.055498 0.065084
0.031980 0.059729 0.073156
0.042474 0.063949 0.081184
0.056080 0.067985 0.088540
0.070141 0.072110 0.095961
0.087393 0.076863 0.103839
0.105547 0.080931 0.110580
0.127616 0.082038 0.112403
0.156667 0.085537 0.114275
0.206664 0.096214 0.116293
0.260831 0.108660 0.117274
0.324174 0.125000 0.115972
0.393155 0.141340 0.114059
0.471536 0.157680 0.111130
0.550172 0.173194 0.112302
0.629139 0.187647 0.118746
0.694890 0.199365 0.126819
0.747425 0.208348 0.136519
0.788756 0.217222 0.143033
0.821371 0.226011 0.147069
0.849307 0.234352 0.153628
0.874435 0.242424 0.161700
0.896789 0.249602 0.169012
0.917881 0.256372 0.175977
0.934433 0.261922 0.183090
0.949471 0.267065 0.190251
0.958850 0.272948 0.196512
0.966922 0.279002 0.202567
0.972260 0.286196 0.208792
0.977208 0.293552 0.215042
0.977517 0.295049 0.217324
0.977517 0.296156 0.219342
0.023713 0.063822 0.071390
0.036082 0.069747 0.079593
0.048821 0.075553 0.087897
0.067114 0.079589 0.097727
0.085619 0.083405 0.107037
0.105604 0.085684 0.112700
0.127836 0.088036 0.117351
0.159800 0.090705 0.117611
0.200048 0.096840 0.118213
0.265148 0.113376 0.119841
0.332099 0.130379 0.119699
0.403124 0.148412 0.115662
0.478615 0.166200 0.112627
0.561553 0.183582 0.111260
0.634607 0.196891 0.114621
0.694955 0.204963 0.124060
0.741892 0.212971 0.131742
0.775418 0.220913 0.137666
0.804917 0.227720 0.142675
0.831282 0.233644 0.146971
0.856142 0.240829 0.153384
0.880099 0.248771 0.161066
0.901281 0.253939 0.167539
0.921202 0.257845 0.173463
0.936972 0.263557 0.181291
0.951359 0.269872 0.189754
0.960510 0.276081 0.196049
0.968452 0.282265 0.201843
0.973090 0.291982 0.209516
0.977257 0.302202 0.217458
0.977639 0.305099 0.219847
0.977769 0.307508 0.221865
0.025731 0.073913 0.079463
0.040183 0.078795 0.088707
0.054940 0.083625 0.097857
0.074275 0.087661 0.105604
0.095514 0.091738 0.112700
0.130082 0.096100 0.115239
0.166701 0.101121 0.117741
0.212206 0.108998 0.120085
0.263651 0.119821 0.121468
0.332917 0.139481 0.119971
0.403709 0.158307 0.117680
0.477858 0.175298 0.113644
0.549835 0.190092 0.112562
0.618190 0.201224 0.116403
0.675294 0.211018 0.120415
0.717935 0.219090 0.124646
0.752894 0.226576 0.129203
0.780171 0.233477 0.134086
0.807521 0.239242 0.139810
0.834928 0.244125 0.146190
0.858876 0.250269 0.151431
0.880750 0.257169 0.155988
0.899849 0.261295 0.160769
0.917686 0.264160 0.165651
0.934498 0.271174 0.175562
0.950969 0.279572 0.187150
0.959663 0.287018 0.192338
0.966564 0.294244 0.196049
0.971984 0.305002 0.202550
0.977192 0.316264 0.209451
0.978616 0.322155 0.211774
0.979787 0.327689 0.213792
0.027370 0.084382 0.087535
0.044101 0.088223 0.097430
0.061145 0.092076 0.107085
0.082889 0.096112 0.113140
0.107887 0.100425 0.118486
0.155670 0.106674 0.118877
0.205529 0.114279 0.119694
0.264379 0.127755 0.122364
0.326533 0.143314 0.123308
0.398599 0.165122 0.119076
0.471621 0.184917 0.115211
0.546746 0.200280 0.112151
0.613791 0.212226 0.112973
0.667369 0.218476 0.120264
0.709696 0.225523 0.124451
0.737559 0.233595 0.124646
0.762297 0.240365 0.126664
0.783910 0.245834 0.130505
0.809148 0.250716 0.136397
0.837206 0.255143 0.143883
0.860463 0.260465 0.148074
0.880840 0.266324 0.150287
0.898172 0.269811 0.153620
0.914122 0.272220 0.157461
0.931878 0.280390 0.168723
0.950236 0.290480 0.182459
0.958756 0.299724 0.186674
0.965006 0.308773 0.188692
0.970743 0.321012 0.193729
0.976406 0.333707 0.199198
0.978835 0.342617 0.201432
0.981049 0.351276 0.203450
0.027370 0.096490 0.095607
0.047226 0.099290 0.104461
0.067720 0.102166 0.113140
0.097796 0.106203 0.119194
0.130997 0.110646 0.124801
0.186072 0.117937 0.127275
0.244198 0.127755 0.128418
0.315548 0.148522 0.123796
0.386295 0.169028 0.119011
0.455236 0.188753 0.113738
0.523506 0.205814 0.110784
0.590298 0.217011 0.112932
0.646276 0.226743 0.115447
0.684229 0.234034 0.118572
0.716857 0.241667 0.120870
0.742636 0.249740 0.122107
0.764770 0.254948 0.124125
0.783259 0.257291 0.126925
0.806544 0.261979 0.130603
0.833561 0.268489 0.134964
0.857078 0.273941 0.138635
0.878496 0.278758 0.141890
0.895438 0.283352 0.144831
0.910346 0.287844 0.147631
0.928623 0.296535 0.157070
0.948023 0.306625 0.168723
0.957584 0.320101 0.172548
0.964876 0.334358 0.174566
0.968920 0.349982 0.176869
0.972500 0.365801 0.179212
0.975776 0.377836 0.181251
0.979031 0.389619 0.183269
0.026866 0.109104 0.103680
0.049846 0.110861 0.111492
0.073791 0.112778 0.119178
0.112200 0.117074 0.124972
0.153799 0.121973 0.130448
0.217727 0.131087 0.133703
0.284511 0.143411 0.134456
0.363673 0.169647 0.124365
0.440279 0.193734 0.115544
0.509220 0.211376 0.110532
0.574398 0.226027 0.108733
0.631295 0.234100 0.114006
0.676108 0.242172 0.117400
0.700781 0.250244 0.117660
0.724799 0.258089 0.118576
0.747975 0.265641 0.120333
0.767635 0.269807 0.122091
0.783780 0.270588 0.123849
0.805161 0.275178 0.125606
0.830615 0.282729 0.127364
0.853709 0.288409 0.130546
0.875387 0.292966 0.134582
0.892411 0.299090 0.137589
0.907319 0.305925 0.140128
0.925986 0.315397 0.147744
0.945907 0.325748 0.157054
0.955989 0.342658 0.160016
0.963801 0.361081 0.161513
0.966544 0.381099 0.162156
0.968562 0.401346 0.162677
0.972228 0.418784 0.164601
0.976004 0.436036 0.166619
0.024848 0.123230 0.111752
0.050953 0.123946 0.118523
0.078348 0.124951 0.125167
0.125090 0.130290 0.129919
0.175672 0.136620 0.134094
0.253141 0.149901 0.134224
0.329756 0.165610 0.132438
0.402668 0.191846 0.122347
0.476931 0.215412 0.114568
0.555246 0.230971 0.113722
0.622311 0.244190 0.113811
0.664626 0.252262 0.115959
0.697982 0.260335 0.117790
0.716405 0.268407 0.119092
0.735085 0.275340 0.120138
0.754094 0.280809 0.120854
0.771671 0.285496 0.121570
0.787816 0.289402 0.122286
0.807439 0.294187 0.123002
0.829769 0.299655 0.123718
0.850389 0.305856 0.126510
0.869984 0.312496 0.130546
0.888505 0.321419 0.134985
0.906538 0.331379 0.139607
0.925205 0.342414 0.145401
0.944084 0.353806 0.151585
0.953125 0.371758 0.152269
0.959895 0.391222 0.151683
0.962507 0.418662 0.153888
0.964526 0.447241 0.156492
0.967215 0.476918 0.158547
0.969949 0.506669 0.160565
0.024091 0.137988 0.119194
0.052019 0.138313 0.123946
0.081481 0.138956 0.128593
0.133951 0.144359 0.131653
0.191321 0.151309 0.134118
0.282982 0.169081 0.132426
0.370688 0.188379 0.129280
0.441256 0.214289 0.119841
0.514396 0.237253 0.113347
0.595250 0.251380 0.115691
0.660521 0.263716 0.117302
0.691508 0.272114 0.117302
0.715929 0.280512 0.117937
0.729405 0.288910 0.119629
0.743763 0.295257 0.120581
0.759257 0.298968 0.120581
0.775076 0.304013 0.120581
0.791221 0.310393 0.120581
0.809270 0.316004 0.120581
0.828800 0.321016 0.120581
0.847476 0.328145 0.122697
0.865639 0.336543 0.126082
0.884965 0.347044 0.131079
0.904821 0.358502 0.136808
0.923163 0.371180 0.141267
0.941000 0.384265 0.145303
0.950057 0.404438 0.145478
0.957088 0.426246 0.144762
0.959733 0.460985 0.148774
0.961751 0.497571 0.153461
0.962853 0.535500 0.157782
0.963895 0.573519 0.162079
0.026109 0.154132 0.125248
0.052995 0.155499 0.125834
0.081481 0.156989 0.126379
0.133951 0.160309 0.126314
0.193274 0.166086 0.126176
0.300559 0.189067 0.125525
0.402131 0.212401 0.123617
0.478949 0.237269 0.116260
0.553651 0.259452 0.111590
0.622006 0.273579 0.114975
0.677382 0.286241 0.117302
0.704203 0.295680 0.117302
0.725238 0.305120 0.117546
0.736631 0.314559 0.118197
0.748906 0.321037 0.118563
0.762317 0.323706 0.118563
0.777095 0.328751 0.118563
0.793239 0.336172 0.118563
0.810117 0.343997 0.118563
0.827563 0.352134 0.118563
0.845458 0.361085 0.119377
0.863621 0.370525 0.120679
0.882231 0.379919 0.124308
0.901045 0.389294 0.128996
0.918345 0.403795 0.133195
0.935141 0.420005 0.137231
0.946542 0.444995 0.140791
0.956697 0.472012 0.144241
0.959733 0.513781 0.150597
0.961751 0.557659 0.157367
0.959924 0.595067 0.168654
0.957841 0.632044 0.180242
0.028127 0.169520 0.132816
0.054363 0.171148 0.129236
0.082408 0.172971 0.125704
0.137613 0.177723 0.122905
0.200744 0.185063 0.120504
0.319356 0.210517 0.120895
0.430571 0.235813 0.120223
0.509733 0.260420 0.114950
0.583459 0.282505 0.111809
0.640877 0.297023 0.115064
0.687432 0.310401 0.117302
0.710086 0.321273 0.117302
0.728176 0.331998 0.117156
0.738657 0.342479 0.116765
0.750192 0.349599 0.116545
0.763082 0.352398 0.116545
0.777404 0.358225 0.116350
0.793158 0.367079 0.115959
0.809132 0.376848 0.115788
0.825277 0.387329 0.115788
0.842683 0.397810 0.116033
0.860846 0.408291 0.116423
0.879277 0.418727 0.119589
0.897831 0.429143 0.124015
0.913992 0.446834 0.128735
0.929355 0.466950 0.133553
0.941757 0.495317 0.140644
0.953475 0.525589 0.148261
0.958073 0.569360 0.157985
0.961653 0.615061 0.168011
0.958825 0.650874 0.184139
0.955570 0.686028 0.200675
0.030145 0.183647 0.142907
0.056381 0.184233 0.135160
0.084882 0.185535 0.127592
0.147378 0.197578 0.122709
0.217410 0.211038 0.118616
0.340188 0.234409 0.120048
0.454007 0.258207 0.120614
0.529003 0.283856 0.117424
0.597520 0.306983 0.115325
0.646606 0.322542 0.116496
0.686130 0.337287 0.117302
0.704618 0.350242 0.117302
0.720494 0.362660 0.116765
0.732017 0.374183 0.115333
0.745049 0.382800 0.114527
0.760022 0.387683 0.114527
0.774865 0.395592 0.113811
0.789577 0.406529 0.112379
0.805096 0.417795 0.111752
0.821241 0.429318 0.111752
0.838647 0.440841 0.112647
0.856810 0.452364 0.114080
0.875957 0.467422 0.118287
0.895552 0.484088 0.123755
0.910411 0.507247 0.130298
0.923692 0.532571 0.137198
0.934856 0.561915 0.148066
0.945533 0.592186 0.159849
0.953646 0.629578 0.174651
0.961393 0.667987 0.189884
0.960778 0.700415 0.207315
0.959606 0.732444 0.224892
0.034812 0.202188 0.151231
0.062870 0.202188 0.141141
0.093508 0.203311 0.131246
0.162839 0.221279 0.124280
0.238803 0.240003 0.118608
0.361191 0.264025 0.121993
0.474852 0.288377 0.124622
0.550693 0.314156 0.123971
0.618104 0.337983 0.123369
0.660224 0.355950 0.122913
0.693657 0.372860 0.122457
0.707979 0.387443 0.122001
0.721471 0.401781 0.120960
0.733579 0.415712 0.118942
0.746656 0.426596 0.117607
0.760978 0.433562 0.117152
0.774975 0.443555 0.116142
0.788646 0.456575 0.114580
0.803708 0.469595 0.114409
0.819853 0.482615 0.115321
0.837259 0.496489 0.118063
0.855422 0.510876 0.121904
0.874972 0.528620 0.127893
0.895153 0.547890 0.134859
0.909622 0.573897 0.144022
0.922186 0.602151 0.153917
0.933111 0.630933 0.167620
0.943657 0.659837 0.182203
0.952209 0.690280 0.199121
0.960477 0.720942 0.216372
0.960994 0.745684 0.230633
0.960994 0.770031 0.244695
0.042885 0.226406 0.157286
0.075109 0.226406 0.147195
0.110043 0.227789 0.137170
0.185624 0.249923 0.128121
0.266275 0.272814 0.121017
0.382414 0.301002 0.127527
0.492363 0.328543 0.133280
0.575496 0.353281 0.135754
0.647074 0.377368 0.137235
0.683985 0.399502 0.135738
0.712536 0.419602 0.134240
0.722691 0.435226 0.132743
0.733579 0.451778 0.131050
0.745688 0.469875 0.129032
0.756942 0.484014 0.127242
0.767098 0.493063 0.125745
0.778490 0.505139 0.124736
0.791120 0.520243 0.124215
0.805726 0.535346 0.125671
0.821871 0.550449 0.128666
0.839277 0.568360 0.134794
0.857440 0.587955 0.142801
0.876991 0.605894 0.151524
0.897172 0.623080 0.160573
0.912421 0.648567 0.173382
0.926027 0.676820 0.187443
0.937993 0.703064 0.202774
0.949581 0.728843 0.218398
0.954618 0.751604 0.233624
0.958719 0.773933 0.248792
0.958976 0.785460 0.254134
0.958976 0.796267 0.258821
0.046921 0.252641 0.163340
0.096853 0.255766 0.150645
0.149201 0.260404 0.138374
0.237802 0.287746 0.132450
0.329455 0.315715 0.128536
0.442468 0.348069 0.138691
0.548122 0.378801 0.147602
0.621880 0.402497 0.151117
0.684994 0.426324 0.153249
0.716177 0.450541 0.151231
0.739813 0.472561 0.149051
0.746843 0.489747 0.146512
0.755192 0.507471 0.144363
0.765739 0.526089 0.142866
0.774291 0.540293 0.140913
0.780280 0.548821 0.138374
0.789590 0.561158 0.137625
0.802219 0.577303 0.138667
0.816240 0.593155 0.141686
0.831343 0.608779 0.146243
0.847708 0.627861 0.153933
0.864829 0.649018 0.163503
0.882980 0.667088 0.174863
0.901598 0.683753 0.187036
0.916067 0.706766 0.201407
0.929152 0.731895 0.216510
0.940597 0.754590 0.231190
0.951664 0.776724 0.245773
0.954813 0.793561 0.258589
0.956832 0.809640 0.271154
0.956958 0.814918 0.272427
0.956958 0.819475 0.272948
0.046921 0.280894 0.169394
0.128101 0.290269 0.151492
0.210981 0.301157 0.134859
0.319372 0.334748 0.137267
0.428342 0.368706 0.141165
0.541355 0.405227 0.155487
0.642126 0.439148 0.167588
0.689844 0.461803 0.170062
0.731866 0.484848 0.171412
0.756800 0.509066 0.169394
0.775487 0.531737 0.166888
0.780435 0.551006 0.163307
0.786310 0.568860 0.160899
0.793732 0.584354 0.160443
0.798704 0.595433 0.158620
0.800526 0.600836 0.155040
0.808273 0.611610 0.154812
0.821944 0.627755 0.157937
0.835249 0.643021 0.162453
0.848269 0.657604 0.168052
0.862551 0.674993 0.175481
0.877589 0.694068 0.184009
0.892940 0.712202 0.197908
0.908434 0.729909 0.214248
0.920559 0.748495 0.228098
0.931561 0.767374 0.241118
0.940923 0.785513 0.252869
0.949907 0.803480 0.264326
0.952795 0.816150 0.274018
0.954813 0.828064 0.283458
0.954940 0.834057 0.285512
0.954940 0.839656 0.287075
0.052597 0.314824 0.177719
0.161509 0.331033 0.158124
0.271516 0.348647 0.140278
0.397940 0.387316 0.148676
0.521077 0.425652 0.157749
0.621200 0.461653 0.171551
0.709252 0.495834 0.183582
0.744992 0.522135 0.187944
0.776614 0.547182 0.190857
0.795884 0.568469 0.189425
0.810027 0.589228 0.187545
0.812891 0.608823 0.184681
0.815634 0.624830 0.181792
0.818173 0.634855 0.178862
0.820370 0.643798 0.176474
0.822127 0.651350 0.174781
0.829191 0.662319 0.176246
0.841560 0.676706 0.180868
0.853123 0.690617 0.186296
0.864060 0.704158 0.192350
0.875892 0.718757 0.199666
0.888261 0.733990 0.207738
0.900630 0.750029 0.220734
0.912999 0.766434 0.235967
0.923220 0.781326 0.247978
0.932724 0.795713 0.258915
0.940589 0.811052 0.269640
0.948076 0.826611 0.280317
0.950265 0.835847 0.286664
0.951697 0.844180 0.292393
0.951237 0.849278 0.294643
0.950651 0.854161 0.296661
0.062687 0.353167 0.187809
0.196598 0.376669 0.169256
0.331082 0.401378 0.152647
0.474172 0.444214 0.165212
0.609027 0.485674 0.177410
0.686235 0.517508 0.187044
0.755473 0.549672 0.196472
0.790172 0.583263 0.205000
0.819711 0.612477 0.211298
0.833772 0.628557 0.210908
0.843684 0.645409 0.210395
0.844465 0.663963 0.209614
0.843562 0.676584 0.206074
0.839851 0.679318 0.197937
0.839900 0.686894 0.194441
0.844782 0.700696 0.196915
0.851846 0.713227 0.200984
0.861090 0.724490 0.206648
0.870114 0.736448 0.212531
0.878968 0.748947 0.218585
0.888066 0.759900 0.225901
0.897310 0.769925 0.233973
0.906554 0.782189 0.243389
0.915798 0.795469 0.253414
0.924457 0.807236 0.262560
0.932920 0.818498 0.271414
0.939743 0.832405 0.282595
0.946188 0.846922 0.294313
0.947335 0.853294 0.297145
0.947726 0.858502 0.298707
0.946224 0.861452 0.300697
0.944597 0.864251 0.302715
0.100527 0.397818 0.195377
0.238604 0.424704 0.178516
0.377344 0.452888 0.163674
0.526032 0.500542 0.179102
0.664386 0.545697 0.193611
0.730398 0.573364 0.201684
0.789000 0.601312 0.209646
0.815495 0.630477 0.217133
0.838557 0.656371 0.223073
0.851317 0.672450 0.224375
0.860903 0.688571 0.225881
0.863507 0.704781 0.227834
0.864573 0.716132 0.226979
0.863075 0.719387 0.221446
0.864882 0.727997 0.220099
0.870936 0.743491 0.224135
0.876698 0.755957 0.228529
0.882166 0.765397 0.233282
0.888367 0.775239 0.238766
0.895137 0.785395 0.244821
0.901501 0.793435 0.250916
0.907620 0.800205 0.257035
0.913739 0.809303 0.263602
0.919859 0.819458 0.270372
0.925978 0.828589 0.276655
0.932098 0.837377 0.282774
0.936577 0.847329 0.291115
0.940679 0.857550 0.299969
0.941191 0.862359 0.301645
0.941191 0.866395 0.302296
0.939910 0.869150 0.305449
0.938543 0.871819 0.308769
0.155015 0.446252 0.201432
0.284760 0.474180 0.186654
0.415623 0.503666 0.173894
0.563270 0.556528 0.191406
0.700191 0.605719 0.207738
0.762036 0.629220 0.215811
0.814910 0.651635 0.222992
0.828906 0.669342 0.226312
0.842854 0.687423 0.229648
0.856655 0.706628 0.233034
0.868259 0.723920 0.236948
0.875029 0.737005 0.242026
0.881434 0.748357 0.245858
0.887227 0.756820 0.247616
0.893135 0.767903 0.250371
0.899190 0.782355 0.254407
0.902868 0.793781 0.257759
0.904170 0.802178 0.260428
0.907376 0.809807 0.265002
0.912063 0.816838 0.271056
0.915692 0.822404 0.275198
0.918687 0.827091 0.278193
0.921682 0.833390 0.282351
0.924676 0.840421 0.287038
0.927671 0.847207 0.290456
0.930665 0.853913 0.293450
0.932020 0.858396 0.296974
0.932997 0.862367 0.300620
0.933119 0.866395 0.302556
0.933119 0.870432 0.304249
0.932814 0.874163 0.309420
0.932488 0.877873 0.314824
0.221991 0.491912 0.217198
0.349847 0.523746 0.202355
0.477980 0.556638 0.189486
0.610264 0.605397 0.206216
0.732774 0.650748 0.221775
0.786872 0.672231 0.229132
0.832718 0.692469 0.235890
0.842809 0.707311 0.240056
0.853371 0.722236 0.243832
0.865350 0.737404 0.246436
0.876108 0.751392 0.249894
0.884180 0.762785 0.255233
0.891984 0.773689 0.260083
0.899340 0.783780 0.264119
0.905187 0.794696 0.268155
0.909093 0.806674 0.272191
0.911762 0.815984 0.275576
0.913194 0.822624 0.278311
0.915688 0.829337 0.282107
0.919008 0.836108 0.286729
0.921067 0.840722 0.289276
0.922369 0.844042 0.290578
0.924164 0.849242 0.293760
0.926182 0.855296 0.297796
0.927126 0.860276 0.300318
0.927712 0.864898 0.302337
0.927821 0.867405 0.304937
0.927821 0.869423 0.307671
0.928448 0.873207 0.310405
0.929164 0.877243 0.313139
0.928537 0.880608 0.317643
0.927821 0.883928 0.322265
0.294643 0.536310 0.237379
0.423541 0.573352 0.221495
0.551283 0.610605 0.207518
0.661693 0.651032 0.222166
0.763891 0.688961 0.235772
0.808615 0.709403 0.242087
0.846845 0.728990 0.248584
0.856936 0.744874 0.255876
0.866717 0.758757 0.261474
0.875571 0.766634 0.261995
0.884180 0.775284 0.263696
0.892252 0.785635 0.267992
0.899666 0.795888 0.272191
0.905980 0.805979 0.276227
0.909874 0.815528 0.280264
0.910655 0.824382 0.284300
0.912804 0.831087 0.288206
0.916319 0.835644 0.291982
0.919139 0.842032 0.295062
0.921417 0.849844 0.297601
0.922434 0.854197 0.298715
0.922695 0.856476 0.298976
0.924164 0.861350 0.301832
0.926182 0.867405 0.305868
0.925563 0.870822 0.308391
0.924066 0.873361 0.310409
0.923785 0.875477 0.313855
0.923785 0.877495 0.317631
0.925323 0.881279 0.321407
0.927081 0.885315 0.325183
0.925543 0.887704 0.327799
0.923785 0.889982 0.330338
0.359726 0.576168 0.251506
0.482635 0.614511 0.236142
0.603689 0.652611 0.222622
0.696912 0.687049 0.236748
0.783291 0.719412 0.249671
0.821765 0.737249 0.254163
0.854478 0.754330 0.259033
0.862225 0.768131 0.265543
0.870053 0.780386 0.270816
0.878126 0.788003 0.272378
0.885710 0.795904 0.274714
0.892220 0.804432 0.278750
0.898559 0.812668 0.282493
0.904613 0.820415 0.285748
0.908361 0.827962 0.289003
0.909142 0.835253 0.292258
0.911160 0.841308 0.295513
0.914415 0.846125 0.298768
0.916535 0.851455 0.300888
0.917772 0.857184 0.302125
0.918724 0.861082 0.303565
0.919505 0.863881 0.305128
0.920599 0.868381 0.308391
0.921836 0.873654 0.312427
0.921804 0.876486 0.315536
0.921348 0.878504 0.318335
0.921263 0.881157 0.322139
0.921263 0.883956 0.326175
0.923028 0.887838 0.329528
0.925047 0.891874 0.332783
0.924013 0.894018 0.334146
0.922776 0.896036 0.335383
0.422287 0.614511 0.263614
0.536863 0.652855 0.249292
0.649128 0.690630 0.236748
0.726728 0.719859 0.250875
0.798785 0.747275 0.263537
0.832051 0.761987 0.265946
0.859947 0.775943 0.268733
0.864569 0.786620 0.273160
0.870053 0.797052 0.277391
0.878126 0.806752 0.281037
0.885059 0.815434 0.284804
0.889486 0.821879 0.288841
0.894523 0.827641 0.292193
0.900577 0.832263 0.294407
0.904780 0.837597 0.296620
0.906603 0.843846 0.298833
0.908621 0.849901 0.301047
0.910834 0.855760 0.303260
0.911913 0.859788 0.304338
0.912108 0.862392 0.304534
0.913320 0.865769 0.306885
0.915143 0.869610 0.310531
0.915847 0.873719 0.314445
0.916042 0.877951 0.318481
0.917312 0.880522 0.322371
0.918939 0.882540 0.326212
0.919244 0.886039 0.330212
0.919244 0.889880 0.334248
0.921010 0.893892 0.336689
0.923028 0.897928 0.338902
0.922971 0.900073 0.339224
0.922776 0.902091 0.339419
0.483209 0.652855 0.269164
0.582682 0.686968 0.258423
0.679864 0.720449 0.248918
0.742685 0.744471 0.257967
0.801267 0.767151 0.266243
0.830171 0.780431 0.269107
0.854730 0.792955 0.272350
0.860459 0.802199 0.277232
0.866351 0.811020 0.281692
0.872731 0.818571 0.284882
0.878113 0.825391 0.288336
0.881303 0.830599 0.292372
0.885567 0.836002 0.295652
0.891622 0.841731 0.297670
0.896280 0.847232 0.299318
0.899145 0.852440 0.300489
0.901163 0.857225 0.302084
0.902335 0.861586 0.304102
0.904276 0.865106 0.305937
0.906814 0.867970 0.307630
0.909028 0.871567 0.310787
0.911046 0.875603 0.314824
0.911677 0.879057 0.318860
0.911677 0.882247 0.322896
0.913825 0.885828 0.326297
0.916689 0.889539 0.329487
0.917914 0.892826 0.332677
0.918760 0.896016 0.335867
0.920632 0.899206 0.338032
0.922650 0.902396 0.340050
0.922776 0.903694 0.340969
0.922776 0.904866 0.341816
0.543752 0.691199 0.273200
0.626559 0.720104 0.266625
0.707206 0.748377 0.260636
0.755445 0.767191 0.263435
0.800746 0.785183 0.266373
0.825484 0.797422 0.270279
0.847049 0.808904 0.274563
0.854861 0.817107 0.280487
0.861794 0.824365 0.285468
0.866090 0.828792 0.287616
0.869716 0.833138 0.290354
0.871864 0.837304 0.294390
0.875477 0.842837 0.297670
0.881531 0.850649 0.299688
0.886646 0.856866 0.300880
0.890552 0.861033 0.301010
0.892570 0.864255 0.302084
0.892700 0.866534 0.304102
0.895943 0.869728 0.307109
0.901606 0.873634 0.310885
0.904992 0.877621 0.314824
0.907010 0.881657 0.318860
