其他预设/【236】赛博朋克风调色预设/【后期菌】视频调色预设/CUBE/Sunset 10.cube
# LUT by SparkleStock. Enhanced with VOXCOLOR algorithms.
LUT_3D_SIZE 8
DOMAIN_MIN 0.000000 0.000000 0.000000
DOMAIN_MAX 0.903226 0.903226 0.903226
0.027370 0.027370 0.027370
0.052597 0.031785 0.031785
0.146943 0.056759 0.057264
0.301328 0.090562 0.092959
0.446126 0.127140 0.123230
0.527481 0.143285 0.143285
0.582348 0.159430 0.159430
0.620944 0.175953 0.173809
0.043768 0.055750 0.047678
0.156378 0.068790 0.068538
0.322196 0.103204 0.102480
0.471430 0.141344 0.136425
0.544761 0.163657 0.158299
0.598330 0.178944 0.176592
0.634497 0.196582 0.188973
0.660574 0.215066 0.195365
0.066093 0.119951 0.086652
0.283604 0.124365 0.113233
0.459374 0.173748 0.140823
0.545672 0.196065 0.170053
0.601150 0.219118 0.179245
0.636584 0.252246 0.186296
0.661868 0.279047 0.191947
0.686634 0.329784 0.176331
0.142024 0.234226 0.166367
0.385010 0.219448 0.122494
0.528392 0.256270 0.143216
0.600405 0.287327 0.156529
0.643774 0.319364 0.160496
0.679738 0.352940 0.160195
0.703853 0.381925 0.155308
0.734967 0.423838 0.152725
0.276227 0.365150 0.228928
0.507487 0.333117 0.109612
0.600259 0.354807 0.115915
0.665204 0.388037 0.123344
0.696859 0.409792 0.123230
0.725918 0.444214 0.129337
0.748312 0.482415 0.137988
0.767557 0.519050 0.146109
0.430486 0.486867 0.263110
0.622124 0.419224 0.118445
0.683668 0.440613 0.125464
0.715038 0.470075 0.131799
0.736301 0.496884 0.137377
0.752401 0.529149 0.146215
0.764876 0.558367 0.163088
0.777221 0.584305 0.181759
0.577303 0.579069 0.301706
0.687094 0.500139 0.143130
0.724498 0.517516 0.141702
0.739634 0.541945 0.148037
0.754000 0.567464 0.163352
0.769637 0.594440 0.183993
0.781717 0.618800 0.207315
0.791400 0.644099 0.241016
0.692334 0.643648 0.323779
0.725267 0.572762 0.168878
0.749171 0.579020 0.164198
0.765059 0.603322 0.185177
0.778181 0.628715 0.212560
0.788068 0.651464 0.246839
0.800303 0.677935 0.291847
0.812537 0.710957 0.386116
0.035443 0.031533 0.039857
0.073189 0.043532 0.051620
0.171884 0.061678 0.073693
0.346889 0.108802 0.117127
0.472992 0.135026 0.144799
0.547662 0.153835 0.170062
0.596251 0.165415 0.184404
0.631413 0.178110 0.194759
0.044240 0.060938 0.061393
0.187139 0.077380 0.088703
0.364371 0.118059 0.130121
0.489358 0.149086 0.162174
0.567282 0.174322 0.190226
0.612807 0.188154 0.202533
0.642366 0.203802 0.207938
0.666131 0.229463 0.219122
0.075426 0.141617 0.113425
0.225242 0.146802 0.132312
0.507288 0.176282 0.182190
0.573315 0.195139 0.197121
0.625489 0.228517 0.218455
0.655756 0.255371 0.231265
0.681230 0.304740 0.241777
0.695004 0.342101 0.245032
0.155548 0.277180 0.212804
0.311560 0.298087 0.214029
0.542250 0.293142 0.198708
0.620208 0.300804 0.190457
0.665045 0.341922 0.200496
0.695854 0.375120 0.194446
0.720435 0.404047 0.189514
0.745603 0.441283 0.189686
0.314758 0.404759 0.280459
0.462043 0.439795 0.266007
0.602932 0.391719 0.160257
0.669114 0.402159 0.144194
0.711264 0.424437 0.140397
0.735663 0.457805 0.141781
0.753579 0.495783 0.147666
0.765303 0.532008 0.158702
0.462271 0.516337 0.323698
0.583945 0.538229 0.301164
0.681950 0.473098 0.159533
0.719329 0.479288 0.138809
0.737842 0.509511 0.149256
0.751548 0.542730 0.161228
0.765204 0.567356 0.177530
0.776224 0.596845 0.201236
0.598407 0.597301 0.343203
0.678403 0.582079 0.286047
0.716189 0.538620 0.169151
0.743394 0.553488 0.165043
0.756736 0.578615 0.178637
0.771873 0.606279 0.201201
0.782036 0.631583 0.231784
0.789998 0.653344 0.261536
0.698250 0.654495 0.353306
0.729177 0.621476 0.259484
0.750997 0.601468 0.203007
0.768601 0.616799 0.205012
0.780871 0.641376 0.237753
0.789439 0.664313 0.274674
0.803399 0.691854 0.328629
0.814682 0.727440 0.442144
0.040110 0.040110 0.057264
0.093496 0.052092 0.073848
0.206029 0.077823 0.102797
0.382987 0.120370 0.149352
0.496827 0.143790 0.181503
0.569141 0.165610 0.209089
0.616725 0.183704 0.230511
0.647281 0.192554 0.235768
0.055848 0.073189 0.089903
0.167736 0.083639 0.111152
0.397859 0.131429 0.164512
0.518790 0.165358 0.205136
0.581237 0.188151 0.229409
0.627759 0.205589 0.243701
0.657957 0.219733 0.252391
0.675905 0.246349 0.251292
0.083995 0.154499 0.148701
0.226121 0.178667 0.187712
0.513801 0.189872 0.223305
0.587866 0.210132 0.238877
0.636275 0.242431 0.255745
0.666812 0.276753 0.270581
0.688550 0.324030 0.274712
0.705138 0.372423 0.279375
0.173109 0.300823 0.250875
0.334179 0.336213 0.266953
0.511089 0.349202 0.282900
0.641659 0.322638 0.271988
0.677999 0.361187 0.276473
0.702425 0.398168 0.271426
0.731798 0.437632 0.272974
0.749805 0.462107 0.239268
0.324263 0.425689 0.329833
0.472294 0.468969 0.334439
0.568130 0.483650 0.322645
0.668473 0.442036 0.226876
0.720458 0.442965 0.192347
0.737240 0.471701 0.186617
0.756252 0.506236 0.195969
0.767275 0.539435 0.189813
0.477390 0.533067 0.383476
0.585567 0.562545 0.367872
0.652557 0.565259 0.348284
0.714656 0.511454 0.190832
0.738809 0.521828 0.160986
0.752100 0.552360 0.174850
0.765175 0.579606 0.194965
0.771785 0.603110 0.215159
0.612115 0.609775 0.389481
0.677984 0.616538 0.373139
0.711036 0.613336 0.331217
0.743720 0.581368 0.212895
0.759233 0.592122 0.198315
0.771880 0.616129 0.222284
0.778041 0.635304 0.248352
0.788673 0.660012 0.288966
0.698564 0.669757 0.396886
0.734870 0.667317 0.366548
0.750062 0.640329 0.287265
0.770573 0.635748 0.246074
0.785084 0.658164 0.270174
0.794766 0.676784 0.299866
0.801700 0.697910 0.367157
0.810552 0.735588 0.488212
0.048434 0.056255 0.091319
0.111374 0.065035 0.117884
0.246741 0.094375 0.142907
0.412640 0.136873 0.192708
0.523766 0.165049 0.227931
0.588260 0.183387 0.256038
0.633936 0.199287 0.271939
0.659378 0.206188 0.280227
0.078026 0.094928 0.141926
0.142173 0.112730 0.165781
0.415175 0.150291 0.211267
0.536607 0.181694 0.248804
0.599774 0.202737 0.273606
0.641918 0.218704 0.286346
0.674368 0.242710 0.300512
0.682871 0.266434 0.294212
0.108880 0.173544 0.201924
0.223298 0.214576 0.247421
0.464400 0.240299 0.283910
0.603031 0.235639 0.285395
0.651719 0.266311 0.302460
0.679480 0.304574 0.318666
0.697193 0.354637 0.320569
0.713695 0.404263 0.321968
0.204605 0.333320 0.304290
0.332700 0.360456 0.327351
0.515963 0.395871 0.352029
0.638384 0.366816 0.338849
0.678170 0.392463 0.328284
0.709874 0.427019 0.318535
0.733417 0.465221 0.314466
0.753729 0.496669 0.303546
0.350323 0.455126 0.383174
0.478562 0.491783 0.393340
0.577634 0.518075 0.390659
0.648063 0.509978 0.367711
0.722503 0.482669 0.305447
0.746186 0.500841 0.274002
0.760424 0.528503 0.274176
0.769034 0.552904 0.268428
0.494670 0.560519 0.443848
0.603161 0.584367 0.423689
0.661185 0.594047 0.414404
0.689597 0.593427 0.381611
0.738559 0.552471 0.240135
0.756808 0.561149 0.211394
0.765347 0.588024 0.223993
0.772228 0.612639 0.246313
0.619386 0.625989 0.435112
0.687509 0.641738 0.418166
0.715126 0.642091 0.396475
0.738661 0.643664 0.369589
0.757309 0.614356 0.248832
0.774116 0.629422 0.247773
0.777274 0.648746 0.273570
0.786143 0.666636 0.313034
0.702641 0.678208 0.429261
0.738010 0.690883 0.421801
0.756084 0.685237 0.390858
0.774891 0.680125 0.344960
0.786933 0.672220 0.300156
0.797706 0.692411 0.338580
0.802321 0.713549 0.417358
0.810544 0.748446 0.539512
0.069498 0.081229 0.155646
0.122787 0.086904 0.166623
0.294525 0.116041 0.194498
0.445093 0.152102 0.238811
0.549940 0.183639 0.278128
0.612766 0.200390 0.303818
0.647810 0.210375 0.309640
0.672328 0.221360 0.317773
0.099843 0.122795 0.208316
0.143610 0.150698 0.241968
0.420587 0.171346 0.265721
0.562438 0.197841 0.294173
0.622424 0.216620 0.314916
0.654342 0.235223 0.325971
0.678423 0.257679 0.336997
0.696701 0.297512 0.345315
0.148965 0.209240 0.276850
0.233896 0.253097 0.316117
0.405210 0.304892 0.351683
0.600276 0.266554 0.338692
0.660717 0.283370 0.346343
0.683035 0.327217 0.358955
0.702502 0.387076 0.364268
0.721598 0.441561 0.365177
0.235361 0.346218 0.349693
0.372059 0.395804 0.385213
0.497813 0.444968 0.411600
0.607683 0.458779 0.415243
0.684284 0.429666 0.381588
0.717168 0.465978 0.368035
0.738338 0.496436 0.356592
0.756363 0.522490 0.342920
0.372307 0.482318 0.433118
0.500171 0.517451 0.447718
0.586687 0.545277 0.449847
0.653785 0.543269 0.423339
0.718264 0.532486 0.382997
0.743336 0.530567 0.335149
0.757331 0.551080 0.323744
0.768449 0.577251 0.323562
0.516719 0.575138 0.485048
0.614390 0.598598 0.464732
0.665940 0.610954 0.458449
0.692963 0.619738 0.436022
0.723760 0.617593 0.399786
0.758985 0.585988 0.274436
0.768025 0.601780 0.266710
0.772359 0.625424 0.280407
0.635701 0.642513 0.480938
0.691041 0.655999 0.458406
0.719830 0.661375 0.440684
0.740528 0.664884 0.416129
0.758803 0.670168 0.396301
0.772802 0.653192 0.310579
0.778963 0.657922 0.304206
0.787923 0.678475 0.349398
0.710672 0.692607 0.458528
0.741383 0.699001 0.447315
0.764122 0.704366 0.436998
0.781093 0.706586 0.413334
0.793110 0.708439 0.393193
0.797397 0.704322 0.380978
0.803821 0.726034 0.463964
0.811162 0.761177 0.586804
0.092328 0.106707 0.221108
0.126371 0.119166 0.249972
0.322371 0.149193 0.280097
0.484141 0.177491 0.296172
0.573970 0.199361 0.325691
0.627027 0.214073 0.342125
0.663182 0.223000 0.349257
0.685523 0.235296 0.358526
0.125041 0.155980 0.282994
0.171367 0.186390 0.319087
0.414136 0.193232 0.335851
0.564448 0.211241 0.339041
0.634474 0.231063 0.351662
0.661711 0.244069 0.355619
0.682317 0.270757 0.369908
0.701623 0.318807 0.380464
0.178586 0.243580 0.341926
0.266928 0.290858 0.372828
0.396922 0.337004 0.403536
0.596670 0.303104 0.382007
0.664313 0.296212 0.381307
0.687095 0.352421 0.395676
0.706325 0.411241 0.405626
0.730089 0.473571 0.406196
0.271015 0.368800 0.398172
0.395240 0.420330 0.431612
0.499044 0.468922 0.460018
0.599131 0.507880 0.478770
0.687342 0.476336 0.442375
0.723089 0.493652 0.410721
0.740696 0.523152 0.394724
0.757174 0.546722 0.378715
0.405007 0.507951 0.478058
0.521037 0.539297 0.494550
0.599951 0.571441 0.498472
0.652501 0.581731 0.485271
0.703911 0.579051 0.453292
0.748817 0.563968 0.390159
0.764425 0.576701 0.370175
0.774328 0.601197 0.366424
0.541481 0.598717 0.530789
0.621263 0.615620 0.508718
0.672278 0.628580 0.492354
0.703694 0.641977 0.473555
0.729755 0.644553 0.447271
0.752346 0.636498 0.409424
0.769560 0.633523 0.374655
0.775548 0.650304 0.370530
0.638444 0.655992 0.516145
0.698712 0.670711 0.485448
0.724634 0.674092 0.464531
0.745192 0.682049 0.452854
0.764628 0.691838 0.447119
0.774714 0.690431 0.417160
0.781906 0.679800 0.362265
0.791465 0.695541 0.406244
0.716674 0.701668 0.482574
0.746311 0.709541 0.467231
0.767940 0.713540 0.454275
0.787601 0.725374 0.461104
0.798869 0.732199 0.458130
0.803276 0.733871 0.462813
0.809038 0.748857 0.531959
0.815564 0.773961 0.626992
0.125753 0.141393 0.305364
0.153530 0.156976 0.327604
0.362481 0.180115 0.367811
0.525841 0.200337 0.355902
0.594204 0.217703 0.370712
0.646187 0.230047 0.388627
0.678000 0.241541 0.391637
0.698210 0.251758 0.393298
0.155898 0.188090 0.355312
0.199861 0.213125 0.383297
0.341140 0.245761 0.414000
0.561092 0.235963 0.388766
0.648828 0.244805 0.390609
0.670608 0.259633 0.394436
0.692888 0.292516 0.405066
0.711421 0.351246 0.424716
0.207372 0.273074 0.396374
0.292216 0.318209 0.425762
0.433810 0.371570 0.460000
0.588081 0.363304 0.446683
0.667196 0.344395 0.433780
0.695288 0.380691 0.434897
0.716929 0.445189 0.448605
0.738981 0.503657 0.446593
0.306580 0.391971 0.440996
0.434137 0.451978 0.481535
0.527283 0.501130 0.509288
0.598415 0.536033 0.523795
0.687644 0.518779 0.489870
0.729438 0.528731 0.459422
0.747432 0.550028 0.430182
0.763871 0.572394 0.415017
0.443075 0.530874 0.516003
0.540632 0.562377 0.533865
0.609719 0.589492 0.536761
0.662065 0.607823 0.526812
0.700173 0.615100 0.500571
0.749110 0.591311 0.431088
0.771477 0.600372 0.403577
0.776114 0.617899 0.395684
0.556678 0.610410 0.557435
0.640266 0.634014 0.543489
0.685371 0.648719 0.523540
0.712395 0.660179 0.503955
0.734556 0.665171 0.478688
0.753218 0.665299 0.453846
0.773060 0.656653 0.415852
0.784026 0.671636 0.414160
0.651549 0.666559 0.539886
0.704982 0.682813 0.513046
0.732663 0.689250 0.486746
0.752153 0.695263 0.473845
0.772989 0.705049 0.469688
0.784502 0.711832 0.459556
0.790559 0.709741 0.439923
0.800038 0.722068 0.480010
0.727073 0.714155 0.507784
0.751940 0.716977 0.485286
0.775232 0.726763 0.479879
0.792293 0.734326 0.479358
0.802987 0.743837 0.484333
0.811548 0.754450 0.524949
0.819202 0.773079 0.599155
0.822658 0.791581 0.670166
0.152114 0.169520 0.374231
0.178097 0.185161 0.391776
0.290248 0.199641 0.412604
0.536395 0.217955 0.409804
0.611708 0.233644 0.409646
0.664899 0.248413 0.428525
0.688571 0.256803 0.424956
0.709317 0.271980 0.430148
0.180368 0.214285 0.412197
0.229189 0.241639 0.431040
0.345885 0.278984 0.462124
0.558501 0.261819 0.436716
0.661121 0.263303 0.426260
0.687244 0.286892 0.433513
0.701773 0.316600 0.441151
0.718718 0.370967 0.457930
0.235540 0.298125 0.448323
0.339735 0.349810 0.477917
0.455774 0.406149 0.504750
0.552894 0.434472 0.513643
0.663450 0.402990 0.487885
0.703195 0.410803 0.469909
0.725664 0.481823 0.484671
0.746751 0.535568 0.481220
0.340339 0.413910 0.480597
0.456499 0.472206 0.518035
0.545177 0.524323 0.547378
0.614005 0.561402 0.558201
0.687693 0.566698 0.545188
0.731085 0.565262 0.503743
0.755081 0.576981 0.468984
0.770979 0.596382 0.448381
0.465969 0.545062 0.541628
0.558540 0.578236 0.561605
0.625652 0.608382 0.567585
0.670561 0.625991 0.556034
0.704239 0.638452 0.535684
0.749687 0.621212 0.479524
0.774946 0.622688 0.438191
0.783653 0.641774 0.430008
0.573258 0.623906 0.583483
0.642818 0.644799 0.567920
0.690323 0.662278 0.548317
0.718281 0.672784 0.524644
0.740647 0.680352 0.501895
0.762345 0.686143 0.486953
0.777431 0.680818 0.455133
0.793467 0.693581 0.448940
0.662315 0.678838 0.564006
0.712717 0.695267 0.534463
0.739269 0.700833 0.509032
0.760453 0.708611 0.496829
0.779720 0.718130 0.490246
0.792727 0.728427 0.484770
0.800869 0.734585 0.492356
0.811996 0.748318 0.549205
0.729669 0.720254 0.525088
0.758473 0.728821 0.507362
0.780602 0.736290 0.497776
0.796270 0.741529 0.492977
0.805644 0.750262 0.505639
0.816776 0.767086 0.567941
0.827128 0.790820 0.646327
0.830228 0.805537 0.706487
