其他预设/【236】赛博朋克风调色预设/【后期菌】视频调色预设/CUBE/Sunset 04.cube
# LUT by SparkleStock. Enhanced with VOXCOLOR algorithms.
LUT_3D_SIZE 8
DOMAIN_MIN 0.000000 0.000000 0.000000
DOMAIN_MAX 0.903226 0.903226 0.903226
0.007820 0.019550 0.039101
0.035947 0.039605 0.063570
0.078327 0.060165 0.091950
0.174566 0.078832 0.114149
0.453063 0.148961 0.120203
0.796645 0.223883 0.157538
0.908397 0.257182 0.184404
0.959354 0.269416 0.202945
0.023713 0.063822 0.071390
0.085619 0.083405 0.107037
0.200463 0.096621 0.120166
0.502784 0.175485 0.127336
0.810125 0.237440 0.165106
0.917991 0.270849 0.191899
0.962914 0.284145 0.206196
0.975373 0.296408 0.213943
0.026866 0.109104 0.103680
0.153831 0.121940 0.130481
0.459643 0.189758 0.121977
0.774267 0.245927 0.151455
0.897172 0.283930 0.177971
0.951624 0.307618 0.186837
0.970132 0.335257 0.186214
0.972976 0.393208 0.178048
0.028127 0.166367 0.135969
0.200947 0.181910 0.123657
0.622588 0.277432 0.121550
0.838752 0.325691 0.151170
0.905496 0.361390 0.163523
0.940821 0.415090 0.164601
0.954813 0.471096 0.158921
0.962361 0.581217 0.167356
0.046921 0.252641 0.163340
0.329455 0.315715 0.128536
0.704410 0.423553 0.161200
0.841959 0.514099 0.172238
0.885685 0.591295 0.180636
0.915566 0.671409 0.198583
0.941407 0.744341 0.231780
0.956958 0.801584 0.266613
0.101788 0.396557 0.196639
0.669350 0.545697 0.194873
0.844465 0.656371 0.224676
0.891772 0.720051 0.238237
0.915261 0.770117 0.250602
0.929335 0.810589 0.275568
0.934161 0.839167 0.289882
0.941191 0.863621 0.303476
0.359726 0.576168 0.251506
0.783291 0.719412 0.249671
0.870053 0.780386 0.270816
0.898559 0.812668 0.282493
0.911160 0.841308 0.295513
0.918724 0.861082 0.303565
0.921804 0.876486 0.315536
0.923028 0.887838 0.329528
0.605430 0.715038 0.286822
0.825049 0.799684 0.279621
0.873182 0.832015 0.297519
0.886613 0.853603 0.307471
0.903226 0.870432 0.316968
0.908967 0.881910 0.328446
0.915155 0.897823 0.339545
0.922398 0.908523 0.351227
0.016397 0.043768 0.075300
0.052377 0.067716 0.103192
0.093085 0.075268 0.120736
0.244792 0.099693 0.150902
0.569344 0.175192 0.155715
0.841133 0.239983 0.192810
0.931479 0.265982 0.222272
0.969571 0.275609 0.235739
0.036183 0.084618 0.104168
0.110378 0.095670 0.138698
0.277002 0.124258 0.159540
0.611781 0.200896 0.163664
0.852355 0.253309 0.204057
0.939938 0.281154 0.232037
0.969473 0.290413 0.233017
0.977867 0.306450 0.242015
0.046546 0.129223 0.140417
0.124690 0.142860 0.164603
0.658293 0.225307 0.174074
0.856744 0.265105 0.204617
0.935272 0.298260 0.231622
0.967656 0.313999 0.233268
0.977163 0.347495 0.241070
0.979220 0.386147 0.237349
0.043515 0.199812 0.180136
0.130435 0.221754 0.197720
0.630923 0.287215 0.165659
0.879773 0.330933 0.179395
0.937971 0.375601 0.186581
0.952820 0.428478 0.178997
0.964961 0.493253 0.174437
0.967445 0.586751 0.178108
0.066784 0.296978 0.203197
0.198802 0.350729 0.221116
0.651394 0.446044 0.173842
0.846025 0.521673 0.170559
0.895798 0.603178 0.180358
0.919085 0.686181 0.204335
0.939469 0.762704 0.242576
0.950134 0.811600 0.272718
0.155141 0.442387 0.238604
0.387096 0.524660 0.254754
0.809780 0.677924 0.236848
0.891051 0.731395 0.241142
0.911055 0.777799 0.255200
0.922640 0.815806 0.276428
0.929399 0.843683 0.291699
0.931731 0.865004 0.303406
0.422959 0.606537 0.280923
0.651011 0.697418 0.269251
0.844334 0.775325 0.271243
0.896711 0.823417 0.287275
0.904162 0.839706 0.293337
0.914568 0.865655 0.307366
0.917138 0.877392 0.319765
0.916442 0.886772 0.329515
0.641918 0.729441 0.303460
0.790204 0.799661 0.288046
0.866848 0.837360 0.301309
0.886267 0.859209 0.311256
0.898271 0.873374 0.323245
0.907108 0.885856 0.331925
0.916691 0.900956 0.342065
0.923595 0.909623 0.367692
0.032290 0.068489 0.104689
0.068302 0.087503 0.140352
0.127018 0.089053 0.160000
0.321024 0.125822 0.191158
0.671376 0.202058 0.203576
0.883260 0.258785 0.245126
0.947233 0.273326 0.266137
0.976862 0.282436 0.283547
0.051938 0.111598 0.148302
0.107474 0.116238 0.176252
0.350830 0.143196 0.198665
0.723456 0.225925 0.219370
0.886999 0.269749 0.253243
0.953816 0.288102 0.272281
0.977078 0.301068 0.277274
0.985284 0.319603 0.280840
0.070947 0.156395 0.184025
0.135063 0.176556 0.217699
0.675195 0.233969 0.223810
0.877785 0.275065 0.246970
0.951334 0.305323 0.268699
0.971108 0.329370 0.271502
0.981767 0.361157 0.272357
0.981925 0.410678 0.272480
0.079015 0.226910 0.233847
0.153361 0.263250 0.256050
0.484243 0.296757 0.250195
0.921583 0.343209 0.247785
0.957934 0.381913 0.252272
0.968719 0.431694 0.244741
0.974203 0.507223 0.236659
0.971272 0.595994 0.207893
0.075414 0.336018 0.259065
0.237378 0.394426 0.275912
0.457214 0.473667 0.283934
0.845397 0.532192 0.208520
0.920346 0.582488 0.182833
0.932028 0.663405 0.200201
0.945778 0.746311 0.235297
0.948985 0.809862 0.271408
0.221385 0.482273 0.282786
0.429988 0.558601 0.302029
0.644912 0.653915 0.303946
0.867010 0.741675 0.250495
0.913371 0.789881 0.261381
0.921746 0.823701 0.279368
0.923576 0.846994 0.293977
0.921506 0.865354 0.303374
0.483575 0.637764 0.319718
0.655764 0.709130 0.315186
0.779829 0.775676 0.302181
0.880636 0.826762 0.288810
0.902692 0.848477 0.299964
0.907862 0.864819 0.308568
0.910629 0.875793 0.318986
0.913225 0.887561 0.329421
0.670261 0.749195 0.331221
0.772958 0.798115 0.316328
0.840634 0.836685 0.300495
0.882020 0.864875 0.314923
0.901885 0.880480 0.327293
0.910147 0.890780 0.337247
0.914584 0.898541 0.342745
0.919637 0.905117 0.386846
0.048434 0.100779 0.162457
0.088117 0.112159 0.194698
0.171327 0.102264 0.212881
0.414532 0.151085 0.240825
0.763070 0.232964 0.276699
0.907616 0.274319 0.312427
0.956958 0.289976 0.338113
0.973229 0.300030 0.346987
0.070459 0.142199 0.208951
0.119241 0.158139 0.247214
0.407210 0.164987 0.266663
0.782503 0.247646 0.288376
0.910923 0.285147 0.315155
0.959228 0.300310 0.331334
0.978911 0.318663 0.338713
0.981694 0.332235 0.331225
0.100457 0.193921 0.261991
0.153390 0.222252 0.299348
0.470707 0.233082 0.310833
0.889335 0.295657 0.307615
0.957930 0.322396 0.320036
0.974522 0.346627 0.320925
0.983228 0.384777 0.317204
0.979287 0.435414 0.303902
0.132963 0.277383 0.316044
0.186533 0.303069 0.322193
0.474421 0.336901 0.328780
0.891369 0.371574 0.301694
0.954401 0.404244 0.299425
0.966508 0.454876 0.289088
0.967866 0.535501 0.274437
0.972140 0.614972 0.267558
0.114137 0.385811 0.332962
0.278231 0.437374 0.339865
0.484826 0.516659 0.351184
0.768085 0.588622 0.323689
0.943850 0.581680 0.260037
0.956012 0.655335 0.243059
0.954848 0.737005 0.261905
0.955433 0.796851 0.276649
0.284450 0.532392 0.349257
0.497940 0.603112 0.362437
0.669817 0.679933 0.355989
0.781565 0.743244 0.334147
0.905423 0.797005 0.276443
0.925472 0.826008 0.281538
0.920930 0.846388 0.292197
0.918927 0.864202 0.304424
0.530553 0.663198 0.358843
0.685495 0.730512 0.352337
0.778827 0.784203 0.341491
0.837352 0.821077 0.323336
0.889720 0.849785 0.301994
0.905308 0.868224 0.311434
0.907106 0.877108 0.322919
0.912399 0.890491 0.332826
0.699487 0.765580 0.353131
0.787066 0.810436 0.347178
0.834473 0.839689 0.333726
0.872419 0.869606 0.324137
0.898861 0.882044 0.330228
0.911809 0.896400 0.340492
0.914352 0.902776 0.355371
0.919956 0.905525 0.434428
0.070507 0.132186 0.238893
0.120834 0.143354 0.269555
0.227577 0.120590 0.286843
0.535321 0.184139 0.316292
0.821839 0.265877 0.363392
0.926727 0.302052 0.403355
0.966531 0.310649 0.423777
0.980312 0.324585 0.424277
0.096238 0.182894 0.299370
0.131779 0.206196 0.351271
0.419891 0.174449 0.343950
0.839530 0.280701 0.380903
0.926544 0.307113 0.398380
0.967882 0.321680 0.398419
0.979989 0.341017 0.400210
0.985994 0.359131 0.389363
0.136974 0.247087 0.370818
0.178988 0.276927 0.401190
0.312534 0.288721 0.402941
0.857265 0.312958 0.380945
0.961419 0.341471 0.382452
0.975366 0.367746 0.376734
0.979440 0.412040 0.359975
0.978567 0.473578 0.341619
0.180209 0.327803 0.404812
0.247420 0.361756 0.409293
0.398827 0.393478 0.403274
0.748533 0.436133 0.378369
0.944592 0.435585 0.345257
0.964963 0.499844 0.327852
0.968328 0.570463 0.318270
0.975898 0.649143 0.310892
0.166745 0.446236 0.415073
0.332912 0.489667 0.410114
0.524437 0.559934 0.416368
0.773197 0.627691 0.383836
0.931308 0.644724 0.336354
0.964047 0.681593 0.306935
0.961490 0.747905 0.303884
0.957092 0.800193 0.306389
0.361696 0.577229 0.413910
0.552086 0.635909 0.419485
0.700005 0.703669 0.407273
0.788937 0.755097 0.378278
0.870227 0.799299 0.347704
0.920735 0.831985 0.292886
0.922036 0.850336 0.296681
0.915962 0.866270 0.307765
0.588126 0.695223 0.409939
0.711178 0.748141 0.386739
0.793547 0.796155 0.370169
0.839399 0.826701 0.353820
0.870750 0.851531 0.338231
0.897489 0.869902 0.319099
0.907582 0.880385 0.326083
0.910806 0.888782 0.335044
0.725430 0.781102 0.379142
0.797117 0.818764 0.366578
0.838464 0.845548 0.358471
0.868704 0.871273 0.341634
0.889726 0.888356 0.340200
0.907896 0.895649 0.342117
0.914504 0.902044 0.375558
0.920636 0.904992 0.495079
0.107968 0.180872 0.353798
0.136319 0.202359 0.384033
0.257003 0.187895 0.396768
0.637361 0.212336 0.409446
0.864451 0.288788 0.460619
0.940646 0.315287 0.495053
0.978384 0.331709 0.512740
0.987604 0.347492 0.511584
0.129960 0.233550 0.422450
0.166356 0.260091 0.464947
0.364505 0.211268 0.443295
0.820693 0.285801 0.460002
0.942974 0.325983 0.483190
0.972262 0.340121 0.474393
0.981327 0.360557 0.472625
0.989825 0.386442 0.451590
0.170692 0.300949 0.483929
0.213996 0.325555 0.496042
0.314622 0.338931 0.494060
0.829004 0.336611 0.450036
0.962757 0.362029 0.452891
0.973807 0.393162 0.432652
0.975941 0.440972 0.404621
0.976151 0.514547 0.380302
0.218443 0.382153 0.487355
0.289623 0.408024 0.485129
0.415912 0.443232 0.480138
0.663673 0.490387 0.470500
0.928112 0.488727 0.413938
0.958785 0.539886 0.371089
0.966692 0.610790 0.362654
0.975439 0.675311 0.348724
0.229054 0.505302 0.496054
0.397439 0.546273 0.481532
0.580520 0.604392 0.480063
0.746373 0.671913 0.461060
0.880166 0.703335 0.414944
0.964102 0.718214 0.354215
0.967158 0.772396 0.340306
0.959676 0.823583 0.340612
0.429237 0.622779 0.480153
0.596287 0.663790 0.476347
0.732857 0.722469 0.451873
0.807553 0.771814 0.415858
0.870521 0.811672 0.388228
0.904095 0.835421 0.352204
0.925803 0.855595 0.335176
0.922405 0.871423 0.329700
0.631222 0.714139 0.453332
0.737969 0.763620 0.417372
0.805734 0.804052 0.393257
0.841225 0.832703 0.382565
0.867474 0.853941 0.366530
0.888721 0.872621 0.344331
0.905325 0.884306 0.331111
0.913661 0.893349 0.348057
0.747006 0.795188 0.403994
0.808444 0.828560 0.383284
0.843675 0.850230 0.369145
0.871180 0.874591 0.367063
0.892120 0.891646 0.357641
0.908019 0.903316 0.361619
0.915358 0.903677 0.420923
0.926555 0.907327 0.560659
0.145303 0.237379 0.483209
0.166367 0.258260 0.522224
0.298728 0.242318 0.515140
0.715168 0.236329 0.513440
0.881039 0.288348 0.560767
0.955603 0.316874 0.581339
0.986310 0.338707 0.587772
0.993157 0.358266 0.587519
0.161798 0.282310 0.540558
0.196604 0.307990 0.571503
0.276663 0.322715 0.580490
0.753249 0.274217 0.542992
0.952406 0.332997 0.560946
0.973602 0.356336 0.559462
0.986424 0.380566 0.543294
0.992760 0.419858 0.529412
0.201248 0.349453 0.576168
0.244719 0.369239 0.575639
0.348677 0.391588 0.577007
0.750853 0.355390 0.536004
0.944608 0.392008 0.534711
0.976004 0.422035 0.504854
0.974685 0.476243 0.456967
0.973756 0.549091 0.423498
0.254024 0.429261 0.562627
0.339886 0.468667 0.568337
0.466494 0.505619 0.560124
0.647468 0.543385 0.548587
0.908022 0.542383 0.487836
0.957153 0.583254 0.424228
0.966522 0.645343 0.402707
0.974850 0.704954 0.386873
0.297796 0.563632 0.572900
0.459712 0.589954 0.550226
0.625186 0.635308 0.541435
0.761958 0.698002 0.524193
0.851707 0.743795 0.481704
0.952641 0.753284 0.397586
0.967427 0.792468 0.373039
0.955993 0.830300 0.358421
0.479767 0.654035 0.535220
0.654506 0.694245 0.530021
0.763784 0.748815 0.502918
0.820633 0.786972 0.456964
0.858315 0.818168 0.420110
0.886150 0.841406 0.385258
0.924910 0.862772 0.354606
0.925274 0.879374 0.347930
0.674713 0.736985 0.491794
0.759233 0.775252 0.452876
0.817806 0.813350 0.418795
0.848399 0.839224 0.402355
0.872046 0.860019 0.383130
0.891025 0.878499 0.367876
0.908308 0.890139 0.351142
0.916986 0.897957 0.380591
0.769075 0.807871 0.430559
0.820506 0.834067 0.402857
0.853131 0.857621 0.384331
0.876283 0.878126 0.373275
0.896754 0.896588 0.373659
0.910411 0.903050 0.404244
0.919712 0.907343 0.498278
0.937215 0.910824 0.646444
0.165610 0.290354 0.607700
0.187923 0.304342 0.631755
0.264587 0.305986 0.631673
0.700570 0.237033 0.594204
0.890129 0.287880 0.629171
0.959794 0.318477 0.643513
0.983970 0.342719 0.641975
0.992189 0.367966 0.645580
0.185917 0.330944 0.637821
0.215738 0.349633 0.651605
0.286939 0.374537 0.654129
0.696387 0.278405 0.606465
0.954344 0.336440 0.623627
0.977220 0.367014 0.619776
0.989247 0.401651 0.609033
0.991834 0.440514 0.584129
0.224164 0.394970 0.646097
0.285411 0.415697 0.639619
0.386931 0.444607 0.642485
0.570550 0.425335 0.615585
0.911115 0.430798 0.604003
0.975235 0.457564 0.563851
0.975694 0.512938 0.519777
0.971453 0.590342 0.471351
0.289614 0.483156 0.629847
0.383737 0.519619 0.625391
0.517364 0.554896 0.617162
0.677227 0.593376 0.607573
0.879514 0.611046 0.564974
0.948075 0.627610 0.488264
0.970492 0.678090 0.445445
0.977631 0.735086 0.424790
0.348619 0.604974 0.626766
0.512704 0.622581 0.598931
0.668739 0.669977 0.593501
0.774889 0.716387 0.573953
0.847344 0.760143 0.530450
0.939132 0.779313 0.444267
0.960462 0.810468 0.399410
0.957442 0.846796 0.381617
0.534467 0.682110 0.585937
0.682447 0.713427 0.575154
0.778745 0.761270 0.542893
0.828508 0.797033 0.486634
0.860653 0.827091 0.443920
0.884168 0.849592 0.411490
0.915409 0.869112 0.370917
0.924369 0.884402 0.363029
0.702551 0.754411 0.533596
0.775323 0.789969 0.480638
0.826759 0.820914 0.444359
0.854008 0.848706 0.418747
0.876953 0.868529 0.397971
0.896155 0.884970 0.380429
0.909423 0.895528 0.381581
0.921382 0.902341 0.441417
0.786347 0.815862 0.451554
0.829044 0.842729 0.424225
0.859104 0.866648 0.399934
0.881373 0.883806 0.383683
0.904616 0.898659 0.386825
0.914472 0.905542 0.454908
0.930333 0.911962 0.586541
0.948826 0.917218 0.722382
