其他预设/【236】赛博朋克风调色预设/【后期菌】视频调色预设/CUBE/Sunset 08.cube
# LUT by SparkleStock. Enhanced with VOXCOLOR algorithms.
LUT_3D_SIZE 8
DOMAIN_MIN 0.000000 0.000000 0.000000
DOMAIN_MAX 0.903226 0.903226 0.903226
0.011730 0.011730 0.023460
0.076562 0.011730 0.043515
0.180242 0.016649 0.064579
0.377132 0.029641 0.094598
0.546905 0.050831 0.088923
0.664207 0.053354 0.107968
0.739381 0.062561 0.120329
0.796519 0.066471 0.123356
0.035695 0.073156 0.067985
0.187944 0.048955 0.088984
0.381954 0.058020 0.114336
0.555336 0.072652 0.107085
0.663959 0.076130 0.120516
0.738002 0.091022 0.135554
0.794334 0.111500 0.143074
0.832845 0.151874 0.145165
0.053354 0.171791 0.122852
0.290444 0.136096 0.152236
0.529507 0.137105 0.107704
0.650711 0.154356 0.109356
0.724376 0.171315 0.122124
0.789634 0.210297 0.142817
0.828613 0.254716 0.161997
0.863669 0.333519 0.159080
0.121717 0.309274 0.205468
0.382401 0.304839 0.179322
0.618409 0.294781 0.116627
0.725845 0.321256 0.127140
0.778608 0.355861 0.151024
0.826066 0.413743 0.172950
0.861354 0.450919 0.178439
0.891223 0.528331 0.190312
0.220351 0.465929 0.272822
0.486220 0.528173 0.185421
0.666359 0.539716 0.166241
0.741009 0.557992 0.147057
0.783629 0.585737 0.146951
0.818067 0.623446 0.150548
0.845055 0.667173 0.174956
0.871665 0.711352 0.213792
0.308391 0.609340 0.297165
0.645999 0.656782 0.189673
0.741416 0.661432 0.186837
0.792373 0.677687 0.180848
0.820358 0.708479 0.195703
0.841393 0.739312 0.231410
0.858120 0.771183 0.269624
0.874281 0.801064 0.314002
0.411566 0.708101 0.301958
0.715221 0.745602 0.200182
0.786750 0.756202 0.210834
0.816321 0.778401 0.223798
0.833475 0.806219 0.246676
0.850234 0.831677 0.267020
0.869549 0.857900 0.277578
0.878305 0.884758 0.279194
0.533409 0.790086 0.278372
0.738600 0.818201 0.169899
0.804795 0.834940 0.189779
0.827584 0.856720 0.202656
0.843895 0.877776 0.210688
0.857945 0.894836 0.214679
0.876108 0.918309 0.241122
0.896415 0.930218 0.340843
0.023460 0.011982 0.068237
0.096682 0.011982 0.096665
0.215998 0.013968 0.137324
0.435482 0.033152 0.180775
0.582153 0.042824 0.158925
0.674001 0.048011 0.168259
0.749122 0.061833 0.177088
0.806381 0.076171 0.182260
0.021520 0.085627 0.122551
0.224274 0.050371 0.162945
0.446653 0.062803 0.207030
0.585800 0.060528 0.175415
0.685878 0.071448 0.180429
0.761466 0.097068 0.188592
0.806268 0.121968 0.187127
0.839679 0.165321 0.196500
0.066915 0.183045 0.193611
0.214634 0.174348 0.235755
0.601626 0.114266 0.208801
0.689690 0.116834 0.186402
0.766732 0.155150 0.202888
0.807760 0.197651 0.213247
0.839069 0.270058 0.242863
0.868310 0.318236 0.253508
0.139928 0.337275 0.300746
0.267998 0.369740 0.327715
0.603674 0.325126 0.229551
0.739857 0.308739 0.178016
0.792194 0.357030 0.204915
0.834984 0.414314 0.219003
0.870577 0.462139 0.219624
0.899840 0.521631 0.223692
0.254215 0.500110 0.352724
0.376558 0.560408 0.369276
0.639414 0.562667 0.255328
0.739439 0.550956 0.184189
0.795919 0.593433 0.169607
0.819581 0.628521 0.169487
0.842998 0.678129 0.192642
0.865530 0.722995 0.240684
0.340888 0.634729 0.365752
0.464166 0.671586 0.348436
0.727222 0.692527 0.242458
0.793515 0.680870 0.194178
0.816394 0.714561 0.210891
0.836520 0.749471 0.251014
0.852472 0.780137 0.284625
0.870737 0.812916 0.319506
0.445788 0.721694 0.347016
0.609863 0.759786 0.287996
0.766808 0.771751 0.231130
0.818737 0.788471 0.239789
0.830752 0.810149 0.252275
0.851720 0.838950 0.267312
0.869549 0.865937 0.275285
0.876755 0.889990 0.282105
0.555230 0.794362 0.301201
0.693674 0.824792 0.215158
0.789476 0.842951 0.195937
0.826206 0.863171 0.200638
0.844150 0.884149 0.211338
0.861114 0.902925 0.220099
0.881299 0.923119 0.265319
0.900314 0.931897 0.385850
0.015640 0.020559 0.131176
0.114088 0.011982 0.172010
0.264497 0.020999 0.232590
0.484580 0.035288 0.265156
0.611993 0.038726 0.243059
0.703182 0.049443 0.234478
0.767761 0.064774 0.234352
0.818946 0.082266 0.243336
0.031346 0.105071 0.207616
0.191453 0.063662 0.250851
0.484926 0.061418 0.280003
0.630011 0.064189 0.257598
0.710618 0.074270 0.248817
0.770280 0.099298 0.242054
0.815825 0.133129 0.238904
0.845104 0.180954 0.247736
0.069999 0.214667 0.289524
0.205150 0.212475 0.340131
0.608799 0.116448 0.287707
0.710657 0.121827 0.252732
0.777834 0.160741 0.256267
0.819208 0.215376 0.275365
0.841076 0.278927 0.282912
0.871422 0.340138 0.295535
0.158449 0.359250 0.385905
0.288319 0.405533 0.409534
0.540725 0.390917 0.390295
0.763896 0.276152 0.274128
0.812191 0.337033 0.295905
0.837837 0.395978 0.296200
0.873232 0.454993 0.303237
0.895197 0.521264 0.275542
0.277220 0.522297 0.429855
0.398395 0.579208 0.440696
0.529815 0.613540 0.433386
0.738528 0.549482 0.296553
0.820735 0.550017 0.235718
0.840544 0.600899 0.227690
0.852315 0.658418 0.238582
0.859997 0.716881 0.277040
0.368828 0.647883 0.421783
0.479707 0.683398 0.407531
0.619749 0.719990 0.390920
0.773233 0.709190 0.268238
0.817211 0.722554 0.235559
0.834333 0.756188 0.265632
0.849746 0.790241 0.304389
0.864996 0.817700 0.320699
0.478208 0.732192 0.387394
0.602028 0.766967 0.355692
0.697578 0.797175 0.307705
0.805775 0.808930 0.259421
0.833511 0.825546 0.260405
0.849846 0.851516 0.267250
0.862555 0.871634 0.271415
0.876000 0.896606 0.291361
0.575561 0.806129 0.328926
0.667134 0.835091 0.272626
0.757853 0.853189 0.213226
0.819997 0.874709 0.206747
0.846807 0.895337 0.214008
0.868276 0.910798 0.233445
0.881838 0.922985 0.296700
0.900485 0.929431 0.427333
0.016397 0.032037 0.229559
0.134814 0.017764 0.268900
0.324410 0.028477 0.337149
0.529479 0.038490 0.346841
0.648819 0.040867 0.320890
0.725861 0.047914 0.306112
0.785126 0.065124 0.303219
0.829276 0.089553 0.298479
0.036704 0.122396 0.321509
0.145629 0.102038 0.360830
0.507405 0.073896 0.382337
0.653642 0.066436 0.335556
0.732997 0.073440 0.311971
0.782158 0.100633 0.299925
0.826694 0.143747 0.296590
0.846410 0.190544 0.303668
0.082925 0.233624 0.404015
0.198187 0.245869 0.447512
0.521362 0.202352 0.433942
0.726375 0.135609 0.332850
0.795860 0.173981 0.317399
0.828660 0.229965 0.327340
0.851202 0.297584 0.328582
0.866747 0.362266 0.332921
0.185474 0.389135 0.478774
0.301056 0.430635 0.493131
0.534167 0.435004 0.479002
0.747090 0.324032 0.360929
0.812959 0.353531 0.340475
0.843204 0.408047 0.335673
0.873581 0.471128 0.338055
0.888167 0.535051 0.330322
0.298427 0.541526 0.509041
0.414658 0.595799 0.508016
0.547603 0.628915 0.499246
0.685392 0.607884 0.449921
0.830763 0.533692 0.335487
0.858231 0.578117 0.309121
0.867366 0.640308 0.313869
0.865221 0.697929 0.339345
0.401980 0.665721 0.486757
0.515940 0.700003 0.464523
0.631663 0.730857 0.445115
0.703653 0.755262 0.407177
0.812902 0.736769 0.306405
0.840727 0.753996 0.296648
0.849661 0.786246 0.326943
0.863796 0.823740 0.343123
0.498511 0.741945 0.426450
0.617712 0.782317 0.390402
0.689299 0.805475 0.352880
0.751929 0.834715 0.316789
0.825696 0.841805 0.267581
0.849446 0.860270 0.271149
0.863257 0.883908 0.271101
0.878301 0.902675 0.308407
0.594941 0.815023 0.350393
0.671237 0.846682 0.313461
0.738325 0.865122 0.271411
0.796278 0.885145 0.226026
0.845607 0.899789 0.218025
0.870267 0.920174 0.248292
0.886080 0.924961 0.340671
0.905602 0.933815 0.487205
0.023460 0.045029 0.348501
0.146760 0.027619 0.382426
0.366924 0.033429 0.444873
0.562338 0.044386 0.427528
0.674180 0.044280 0.401105
0.752141 0.055066 0.382882
0.805071 0.063066 0.361972
0.843993 0.092853 0.347085
0.036647 0.136417 0.425758
0.108224 0.142931 0.476023
0.497808 0.095942 0.481935
0.678751 0.070282 0.405491
0.748081 0.075153 0.373465
0.797772 0.102362 0.350049
0.833710 0.143348 0.342613
0.861893 0.204709 0.345459
0.105059 0.254142 0.511714
0.186752 0.279561 0.541123
0.385844 0.295640 0.553431
0.712650 0.177144 0.415860
0.808875 0.179189 0.372444
0.838207 0.238430 0.372120
0.861077 0.312851 0.365885
0.873637 0.390321 0.368086
0.197648 0.398941 0.560698
0.330162 0.456843 0.581232
0.494473 0.505260 0.581181
0.665946 0.469940 0.493721
0.809425 0.382919 0.384364
0.849170 0.442354 0.373234
0.874491 0.496876 0.368360
0.891140 0.559549 0.365775
0.321712 0.563025 0.581095
0.443499 0.612537 0.577402
0.561948 0.648693 0.560188
0.692542 0.634680 0.509124
0.813362 0.590726 0.417282
0.858073 0.600277 0.360588
0.867370 0.651545 0.361457
0.862450 0.703394 0.390209
0.429636 0.677988 0.552223
0.544477 0.708009 0.512970
0.645190 0.742048 0.491688
0.706128 0.772003 0.449333
0.777940 0.780808 0.416703
0.839778 0.773488 0.347679
0.854022 0.795400 0.355157
0.865891 0.835753 0.362370
0.532843 0.760055 0.462649
0.633635 0.787061 0.422890
0.697968 0.818082 0.385963
0.751039 0.839822 0.347938
0.791926 0.862264 0.317301
0.842752 0.875046 0.276984
0.865949 0.887522 0.290376
0.880274 0.905366 0.333861
0.611407 0.826664 0.372079
0.684201 0.851040 0.331184
0.739130 0.874482 0.304045
0.785994 0.892568 0.258019
0.828637 0.912272 0.237440
0.867761 0.920663 0.268255
0.891174 0.929064 0.386184
0.910130 0.937406 0.551787
0.019550 0.059786 0.454325
0.086884 0.058110 0.497307
0.342015 0.051047 0.530309
0.592858 0.046559 0.502893
0.698157 0.054383 0.477122
0.766080 0.057797 0.442118
0.818213 0.059628 0.414357
0.856618 0.083373 0.392138
0.042128 0.150475 0.523103
0.115147 0.161001 0.560324
0.424386 0.118759 0.569105
0.671307 0.086910 0.490699
0.765507 0.084264 0.431511
0.808503 0.104715 0.397932
0.842102 0.143909 0.390724
0.866957 0.205956 0.376774
0.115972 0.264066 0.589521
0.202753 0.287499 0.612003
0.351709 0.322244 0.624066
0.706127 0.218049 0.492491
0.808244 0.187654 0.420695
0.840246 0.249180 0.408547
0.861389 0.324560 0.402314
0.878000 0.412172 0.395954
0.209748 0.411290 0.627108
0.340033 0.459694 0.637725
0.481692 0.520465 0.639246
0.638293 0.546245 0.594570
0.804742 0.432986 0.459757
0.853040 0.463238 0.404297
0.878076 0.528544 0.399239
0.891333 0.585334 0.391523
0.346954 0.582136 0.636332
0.471503 0.627187 0.626497
0.588618 0.667151 0.608716
0.683853 0.686099 0.575779
0.770316 0.671888 0.511339
0.859614 0.637963 0.413621
0.866339 0.675698 0.410237
0.865644 0.730126 0.439812
0.455419 0.696875 0.603172
0.560665 0.720254 0.563286
0.660064 0.752467 0.523728
0.722915 0.783536 0.485316
0.779168 0.802160 0.449013
0.822758 0.799632 0.427958
0.851354 0.802439 0.430344
0.863121 0.833083 0.430546
0.545501 0.770898 0.506433
0.646038 0.797704 0.447489
0.707981 0.822091 0.407040
0.750155 0.852078 0.372683
0.787446 0.873052 0.341787
0.823750 0.886369 0.311243
0.863985 0.895847 0.305666
0.886714 0.906626 0.387349
0.628886 0.832779 0.395487
0.698694 0.859210 0.347740
0.745675 0.880062 0.311946
0.786400 0.899568 0.288902
0.825893 0.916654 0.275028
0.866075 0.928056 0.313816
0.892595 0.932491 0.442245
0.917398 0.940202 0.609132
0.018037 0.072778 0.553212
0.068237 0.078551 0.588443
0.339537 0.059900 0.606874
0.629143 0.054322 0.586722
0.712401 0.057264 0.545644
0.777204 0.060938 0.503011
0.828141 0.066471 0.471991
0.867657 0.091697 0.441427
0.047271 0.164028 0.604982
0.116519 0.167429 0.627420
0.271816 0.175654 0.649711
0.644065 0.128018 0.591577
0.778056 0.092452 0.485381
0.816087 0.116545 0.451879
0.849365 0.160045 0.431529
0.880063 0.222998 0.422225
0.125065 0.273383 0.656961
0.209150 0.296587 0.666339
0.369336 0.343168 0.680342
0.676444 0.295721 0.605230
0.799538 0.235813 0.496497
0.846760 0.264837 0.449631
0.870960 0.348134 0.440570
0.884594 0.438698 0.429733
0.228212 0.414968 0.674379
0.361246 0.477316 0.688584
0.500110 0.541671 0.689618
0.631144 0.579890 0.655464
0.789331 0.490920 0.525797
0.856764 0.504001 0.450958
0.879430 0.559880 0.429203
0.893573 0.618460 0.427292
0.371798 0.597736 0.687061
0.491248 0.647542 0.668631
0.605515 0.676632 0.643498
0.689044 0.707605 0.613617
0.756206 0.720883 0.565687
0.848941 0.678850 0.463479
0.870137 0.703694 0.451699
0.865815 0.747903 0.468126
0.479453 0.704773 0.641801
0.591082 0.733340 0.597531
0.675646 0.768003 0.555655
0.730228 0.795819 0.510727
0.774539 0.819934 0.469139
0.814016 0.833672 0.434053
0.852305 0.823226 0.446149
0.874156 0.852243 0.458539
0.574817 0.780537 0.533344
0.658630 0.807297 0.477553
0.716964 0.833480 0.425182
0.759338 0.858421 0.387805
0.796747 0.882426 0.357615
0.827595 0.896789 0.333367
0.865790 0.905482 0.350670
0.895093 0.912096 0.453949
0.650386 0.848485 0.412954
0.708517 0.865893 0.361928
0.760650 0.888814 0.321975
0.795422 0.905484 0.296398
0.833482 0.924990 0.294666
0.865795 0.932190 0.366791
0.898783 0.939771 0.518469
0.922139 0.945807 0.672048
0.023460 0.083877 0.631918
0.061060 0.092352 0.662580
0.235605 0.071818 0.664256
0.608966 0.064022 0.649995
0.728709 0.060970 0.601471
0.794497 0.068359 0.555161
0.838866 0.074942 0.521500
0.873540 0.100905 0.489519
0.048561 0.172686 0.675445
0.121385 0.179057 0.687847
0.246114 0.193103 0.700326
0.613336 0.157199 0.670104
0.785802 0.109803 0.545729
0.828633 0.133634 0.509290
0.860389 0.179696 0.481321
0.885882 0.236974 0.462104
0.130827 0.285362 0.709793
0.235511 0.307991 0.716600
0.381750 0.357723 0.724364
0.558592 0.398464 0.717192
0.782880 0.304990 0.585616
0.854064 0.290837 0.495785
0.878602 0.381308 0.479144
0.891211 0.476109 0.462175
0.243865 0.427027 0.723741
0.370733 0.481367 0.731818
0.513464 0.552215 0.728164
0.644991 0.600746 0.700888
0.770176 0.566629 0.601902
0.847211 0.554112 0.509264
0.884422 0.591741 0.462470
0.894954 0.647784 0.458448
0.384538 0.601618 0.723033
0.516877 0.652716 0.703004
0.625568 0.692941 0.681293
0.695866 0.720863 0.645791
0.750110 0.744813 0.599913
0.838565 0.718273 0.520750
0.871148 0.733212 0.491947
0.875327 0.777364 0.507428
0.502251 0.716238 0.675058
0.600340 0.741790 0.631547
0.682866 0.775027 0.584404
0.738516 0.804193 0.531454
0.776574 0.832723 0.478359
0.813715 0.853338 0.440791
0.855314 0.852804 0.445792
0.878948 0.869102 0.461087
0.588813 0.789582 0.561683
0.670493 0.819178 0.495559
0.724939 0.843139 0.441002
0.766076 0.869355 0.397224
0.802887 0.891079 0.361790
0.830721 0.909594 0.337739
0.864801 0.917771 0.373159
0.901400 0.920281 0.515172
0.663996 0.855760 0.424729
0.718161 0.878413 0.373296
0.766895 0.895710 0.333205
0.803969 0.912962 0.305355
0.841339 0.929289 0.318537
0.874944 0.938019 0.423225
0.908073 0.947140 0.592707
0.926920 0.951935 0.733597
