其他预设/【236】赛博朋克风调色预设/【后期菌】视频调色预设/CUBE/Sunset 07_S.cube
# LUT by SparkleStock. Enhanced with VOXCOLOR algorithms.
LUT_3D_SIZE 5
DOMAIN_MIN 0.000000 0.000000 0.000000
DOMAIN_MAX 0.903226 0.903226 0.903226
0.023460 0.113392 0.011730
0.136726 0.114906 0.027370
0.438306 0.115158 0.081733
0.731561 0.124492 0.138240
0.859080 0.138618 0.171665
0.035191 0.164475 0.058903
0.398314 0.142484 0.091319
0.639432 0.168637 0.117501
0.794232 0.183395 0.147321
0.894576 0.248409 0.221759
0.033046 0.289597 0.140384
0.513627 0.352752 0.173504
0.665322 0.451802 0.185266
0.779853 0.508907 0.217308
0.872136 0.625550 0.322855
0.089427 0.551067 0.238010
0.678777 0.652400 0.301100
0.767793 0.711946 0.334451
0.817025 0.768969 0.366334
0.861318 0.823478 0.406488
0.346230 0.748841 0.328698
0.744711 0.803415 0.378878
0.799546 0.853616 0.412555
0.846686 0.893860 0.442721
0.895617 0.925929 0.474546
0.028884 0.117302 0.066723
0.184982 0.113978 0.096787
0.512003 0.100437 0.140978
0.744821 0.099021 0.175827
0.871441 0.123808 0.189502
0.035146 0.166916 0.135843
0.417581 0.146631 0.157082
0.610856 0.174690 0.194991
0.772331 0.191213 0.217175
0.907315 0.225844 0.248291
0.044919 0.316768 0.226800
0.307108 0.398066 0.230950
0.635302 0.409621 0.245455
0.763503 0.475462 0.266219
0.877686 0.589868 0.317420
0.101300 0.576806 0.277236
0.486776 0.663872 0.320563
0.714366 0.719939 0.330102
0.788076 0.762024 0.352860
0.868260 0.792247 0.365562
0.409316 0.766878 0.351023
0.683331 0.819548 0.385896
0.803870 0.865448 0.422430
0.859778 0.907702 0.455510
0.899419 0.922186 0.455041
0.041749 0.121212 0.195251
0.254838 0.113392 0.231524
0.597337 0.102545 0.259472
0.784459 0.109734 0.260905
0.888700 0.125627 0.246839
0.064779 0.172495 0.293939
0.273567 0.159702 0.328899
0.651191 0.168748 0.316423
0.788030 0.182038 0.322168
0.906323 0.245540 0.313758
0.079768 0.331054 0.357993
0.280057 0.431239 0.360332
0.648332 0.418800 0.367007
0.768454 0.480893 0.390124
0.884443 0.556819 0.403883
0.135811 0.618076 0.346454
0.487222 0.682872 0.361163
0.640611 0.747978 0.387626
0.776579 0.754312 0.403759
0.872977 0.769319 0.428551
0.457018 0.789622 0.376860
0.651582 0.839933 0.410980
0.779161 0.882115 0.437695
0.844388 0.910027 0.461573
0.900974 0.918634 0.493325
0.084130 0.128402 0.379529
0.230576 0.120581 0.403864
0.683631 0.121212 0.409219
0.829187 0.123963 0.370728
0.912340 0.130167 0.340021
0.108615 0.180754 0.445015
0.224246 0.172590 0.451987
0.767334 0.147466 0.375989
0.857965 0.164505 0.339341
0.909234 0.275765 0.344530
0.126904 0.358624 0.476918
0.327339 0.441687 0.465169
0.632733 0.528084 0.445874
0.828560 0.552289 0.437911
0.881454 0.603270 0.488866
0.178223 0.648290 0.430307
0.532834 0.719350 0.412855
0.690030 0.789021 0.417935
0.776315 0.782881 0.470978
0.879153 0.779838 0.531208
0.528746 0.808347 0.405007
0.685321 0.852867 0.424762
0.786177 0.899273 0.454125
0.849676 0.921812 0.499782
0.912149 0.925510 0.599230
0.120834 0.131176 0.514615
0.201602 0.121212 0.521951
0.729291 0.125122 0.535911
0.863466 0.129032 0.488571
0.925339 0.136682 0.434229
0.139102 0.200687 0.560308
0.243865 0.199628 0.555750
0.700087 0.168531 0.518054
0.892251 0.168156 0.384171
0.918387 0.313765 0.384169
0.161700 0.393822 0.571985
0.372089 0.469086 0.556467
0.654271 0.589494 0.514098
0.842544 0.630353 0.449888
0.879035 0.701896 0.469121
0.246778 0.672690 0.512723
0.557753 0.743265 0.459073
0.705304 0.799302 0.438800
0.798536 0.852992 0.457944
0.883956 0.851569 0.526323
0.559779 0.827043 0.434437
0.710207 0.872325 0.448459
0.802563 0.910794 0.474043
0.876392 0.932168 0.528218
0.929620 0.940357 0.677212
