其他预设/【236】赛博朋克风调色预设/【后期菌】视频调色预设/CUBE/Sunset 04_S.cube
# LUT by SparkleStock. Enhanced with VOXCOLOR algorithms.
LUT_3D_SIZE 5
DOMAIN_MIN 0.000000 0.000000 0.000000
DOMAIN_MAX 0.903226 0.903226 0.903226
0.007820 0.019550 0.039101
0.063696 0.054110 0.085391
0.288588 0.102671 0.117302
0.840539 0.233469 0.161070
0.959354 0.269416 0.202945
0.027370 0.096490 0.095607
0.315548 0.148522 0.123796
0.716857 0.241667 0.120870
0.878496 0.278758 0.141890
0.968920 0.349982 0.176869
0.034812 0.202188 0.151231
0.550693 0.314156 0.123971
0.746656 0.426596 0.117607
0.855422 0.510876 0.121904
0.952209 0.690280 0.199121
0.155015 0.446252 0.201432
0.828906 0.669342 0.226312
0.893135 0.767903 0.250371
0.918687 0.827091 0.278193
0.933119 0.866395 0.302556
0.598997 0.717182 0.282534
0.860825 0.826318 0.289325
0.889372 0.864735 0.310303
0.909752 0.885946 0.328193
0.922398 0.908523 0.349082
0.029767 0.061930 0.097121
0.101825 0.086363 0.147663
0.440487 0.129500 0.186621
0.858718 0.220250 0.233713
0.974311 0.275723 0.270983
0.057048 0.134619 0.160817
0.411445 0.186807 0.205157
0.672115 0.246076 0.225995
0.822087 0.263896 0.236510
0.964078 0.341827 0.256225
0.062557 0.272191 0.235109
0.326413 0.361738 0.240166
0.685592 0.420802 0.198758
0.808841 0.482315 0.194205
0.939853 0.637484 0.218362
0.260595 0.511865 0.279499
0.650405 0.668721 0.290837
0.816642 0.767718 0.256583
0.863785 0.801556 0.274021
0.914590 0.814377 0.284602
0.655777 0.746213 0.321183
0.824537 0.828341 0.297593
0.887903 0.870501 0.316740
0.907136 0.894417 0.335103
0.917402 0.902668 0.359016
0.057390 0.116041 0.196512
0.167539 0.113103 0.240947
0.645877 0.198962 0.311585
0.904267 0.264404 0.363323
0.974909 0.306877 0.384110
0.109356 0.205504 0.299615
0.267313 0.223092 0.352405
0.722138 0.267370 0.368377
0.846691 0.289250 0.376298
0.968354 0.386388 0.345465
0.151610 0.349237 0.367095
0.349368 0.430588 0.380066
0.709755 0.458466 0.349356
0.816086 0.499780 0.343643
0.937012 0.587029 0.344064
0.403555 0.592756 0.385331
0.671096 0.701289 0.379018
0.778413 0.774648 0.350383
0.833381 0.783787 0.327224
0.902343 0.771529 0.353200
0.695890 0.775748 0.366578
0.812305 0.834654 0.352789
0.872665 0.877349 0.332852
0.875334 0.896909 0.349782
0.910255 0.898286 0.447758
0.118059 0.194999 0.388106
0.215046 0.219940 0.436398
0.797528 0.267272 0.465567
0.961600 0.324133 0.530764
0.991835 0.353546 0.533979
0.167519 0.296425 0.500302
0.277948 0.331595 0.520435
0.885014 0.332472 0.498128
0.949790 0.373873 0.483343
0.978970 0.472455 0.424245
0.238559 0.448177 0.511841
0.453269 0.516702 0.504218
0.753900 0.606323 0.486355
0.918645 0.615026 0.408067
0.949065 0.645878 0.436863
0.507601 0.652400 0.496501
0.739777 0.739217 0.460810
0.841354 0.812359 0.407458
0.844296 0.809067 0.403323
0.906945 0.783986 0.449935
0.752633 0.800526 0.408572
0.837419 0.847492 0.376999
0.882059 0.886746 0.367633
0.886049 0.899668 0.398400
0.920638 0.901427 0.601633
0.165610 0.290354 0.607700
0.227659 0.310787 0.633106
0.832613 0.271182 0.618527
0.968973 0.324727 0.643904
0.992189 0.367966 0.645580
0.210419 0.374569 0.646382
0.330288 0.417315 0.648684
0.798957 0.382665 0.613900
0.978359 0.440293 0.583088
0.976993 0.544472 0.501620
0.322644 0.552666 0.630152
0.551107 0.602468 0.608600
0.791636 0.682358 0.584046
0.959536 0.713436 0.453628
0.967533 0.768586 0.429992
0.585253 0.698645 0.582983
0.768890 0.768288 0.533832
0.846840 0.823714 0.446868
0.883655 0.861642 0.406933
0.919646 0.854496 0.430562
0.773404 0.815862 0.457437
0.843265 0.861423 0.409927
0.886195 0.892723 0.387599
0.914331 0.907972 0.490155
0.946475 0.915605 0.733253
