其他预设/【236】赛博朋克风调色预设/【后期菌】视频调色预设/CUBE/Sunset 02.cube
# LUT by SparkleStock. Enhanced with VOXCOLOR algorithms.
LUT_3D_SIZE 8
DOMAIN_MIN 0.000000 0.000000 0.000000
DOMAIN_MAX 0.903226 0.903226 0.903226
0.086022 0.070381 0.062561
0.098256 0.078201 0.070381
0.129663 0.079715 0.073787
0.239397 0.096112 0.058777
0.508435 0.129158 0.025352
0.768139 0.171791 0.038848
0.884054 0.200044 0.085769
0.933750 0.228171 0.127897
0.090436 0.090436 0.083120
0.132727 0.086778 0.078861
0.246025 0.100811 0.060543
0.527973 0.137784 0.042148
0.785163 0.179615 0.053545
0.883529 0.209134 0.095957
0.933147 0.230316 0.135689
0.951558 0.242917 0.170314
0.098761 0.116419 0.100779
0.182109 0.108094 0.096206
0.445398 0.132694 0.038905
0.723448 0.174285 0.037404
0.843326 0.206867 0.064461
0.904866 0.234767 0.100815
0.930149 0.261665 0.133309
0.939877 0.310739 0.140685
0.120329 0.179611 0.143033
0.214199 0.155422 0.089146
0.533747 0.191296 0.031350
0.763387 0.245195 0.036851
0.847602 0.285952 0.062549
0.897936 0.342800 0.101552
0.926389 0.388480 0.132938
0.945533 0.482777 0.159967
0.162583 0.282029 0.177971
0.304375 0.272264 0.075882
0.575781 0.342064 0.033050
0.759204 0.419513 0.047368
0.833089 0.488523 0.070499
0.882573 0.572436 0.103554
0.929538 0.669822 0.145796
0.958296 0.752723 0.184705
0.265128 0.446000 0.199287
0.574796 0.468801 0.054660
0.766048 0.557431 0.069787
0.855027 0.639563 0.101637
0.902038 0.711413 0.127844
0.936777 0.787885 0.165553
0.962902 0.846137 0.203039
0.981049 0.895845 0.239336
0.437549 0.640873 0.215054
0.765633 0.700769 0.091950
0.874387 0.769905 0.121395
0.917731 0.825871 0.152407
0.948116 0.874948 0.189587
0.969823 0.914671 0.231528
0.982986 0.942750 0.268993
0.988617 0.963158 0.311996
0.675811 0.812411 0.220351
0.869069 0.859182 0.144270
0.924318 0.899039 0.174871
0.955338 0.929282 0.217019
0.970328 0.951030 0.258899
0.984263 0.968814 0.301075
0.991843 0.983160 0.352789
1.000000 0.990216 0.421563
0.089932 0.078706 0.083120
0.110776 0.090200 0.098289
0.152021 0.094664 0.098980
0.308798 0.116875 0.086196
0.581518 0.149148 0.059025
0.807203 0.188143 0.083535
0.902750 0.217857 0.129565
0.942200 0.238640 0.169028
0.094362 0.095103 0.104168
0.157203 0.098636 0.107525
0.309904 0.121560 0.095152
0.585382 0.152084 0.068638
0.822990 0.198218 0.103680
0.909449 0.230145 0.146486
0.940103 0.243149 0.171478
0.956628 0.257955 0.201565
0.107842 0.129126 0.137296
0.151270 0.125503 0.143639
0.601293 0.163828 0.082905
0.811691 0.201604 0.104186
0.897070 0.234364 0.144823
0.929559 0.252721 0.166327
0.954447 0.287497 0.203151
0.961999 0.318871 0.225791
0.132360 0.196911 0.188509
0.178679 0.208903 0.188059
0.537045 0.208573 0.086111
0.819414 0.256757 0.079227
0.892862 0.305916 0.114943
0.924516 0.357741 0.149317
0.941236 0.414350 0.172727
0.955315 0.493284 0.196643
0.187492 0.316272 0.223757
0.262592 0.357337 0.218387
0.537417 0.366713 0.076615
0.769586 0.434024 0.063697
0.847740 0.511368 0.086225
0.895060 0.593232 0.120105
0.933467 0.694519 0.156648
0.955833 0.777349 0.194174
0.299977 0.486822 0.242099
0.426113 0.544388 0.227816
0.757773 0.606414 0.095591
0.862058 0.661183 0.108826
0.903916 0.734199 0.138055
0.939543 0.809790 0.175763
0.961862 0.861561 0.211871
0.983583 0.910692 0.256359
0.482871 0.673598 0.252543
0.681461 0.737241 0.193522
0.861537 0.791954 0.135767
0.926020 0.844299 0.165548
0.952245 0.883784 0.200202
0.971930 0.924505 0.245468
0.983175 0.952573 0.286363
0.989898 0.969759 0.328931
0.700329 0.822502 0.251380
0.837858 0.873697 0.189765
0.926010 0.909353 0.196658
0.959388 0.935783 0.233157
0.973558 0.957559 0.273312
0.985647 0.976175 0.320000
0.993246 0.985891 0.371903
0.998694 0.988387 0.457962
0.094346 0.090941 0.108599
0.123263 0.098069 0.131587
0.192545 0.112135 0.143041
0.374406 0.139668 0.127771
0.652977 0.173178 0.107212
0.846088 0.213792 0.143790
0.922145 0.239845 0.180941
0.950224 0.257108 0.224013
0.102166 0.103240 0.147830
0.148704 0.105161 0.153396
0.377500 0.144807 0.139460
0.674665 0.180951 0.120543
0.846079 0.217516 0.154804
0.920978 0.242166 0.192028
0.949825 0.259334 0.214212
0.958986 0.273729 0.242321
0.116354 0.138427 0.177149
0.156281 0.148013 0.196972
0.607982 0.173365 0.134627
0.827659 0.215649 0.155057
0.910241 0.245382 0.191520
0.940961 0.272336 0.216700
0.950712 0.296073 0.233160
0.964874 0.340883 0.260253
0.145051 0.208271 0.235865
0.192876 0.239798 0.248757
0.416679 0.247886 0.209101
0.879350 0.273992 0.177289
0.924015 0.316471 0.207479
0.942225 0.364381 0.226739
0.961223 0.427551 0.251685
0.962533 0.507952 0.241006
0.199788 0.338406 0.277359
0.285621 0.395419 0.283758
0.421803 0.442735 0.258805
0.777086 0.450779 0.138312
0.897718 0.499741 0.149361
0.922045 0.589034 0.173932
0.943034 0.683356 0.200820
0.959153 0.784340 0.221791
0.327384 0.519282 0.293886
0.449733 0.579492 0.287394
0.637244 0.654659 0.255916
0.851477 0.703575 0.141569
0.911637 0.757269 0.156430
0.943620 0.824563 0.192980
0.965740 0.881135 0.233921
0.982973 0.920013 0.271027
0.527286 0.698673 0.292222
0.681085 0.757807 0.271008
0.816707 0.823554 0.238819
0.924712 0.872627 0.192609
0.957524 0.901158 0.222131
0.971857 0.935015 0.259840
0.983950 0.957836 0.301854
0.992730 0.973808 0.349233
0.734157 0.837284 0.289675
0.834013 0.884532 0.278881
0.913310 0.917925 0.238039
0.958480 0.948169 0.255016
0.980262 0.967468 0.296434
0.988835 0.980353 0.341087
0.993589 0.986420 0.399527
0.995642 0.986057 0.504415
0.102419 0.099265 0.153880
0.136979 0.113420 0.178553
0.228717 0.136726 0.205159
0.436666 0.166977 0.188021
0.722777 0.197326 0.175404
0.872299 0.234462 0.212381
0.931101 0.256299 0.247762
0.954435 0.272317 0.278551
0.107590 0.121289 0.199617
0.141985 0.130719 0.215509
0.404278 0.169734 0.216937
0.727213 0.200962 0.191542
0.871987 0.240414 0.218859
0.930475 0.260225 0.246517
0.956530 0.276322 0.270338
0.960681 0.282337 0.281719
0.129622 0.156712 0.244332
0.162635 0.173577 0.270631
0.405076 0.192443 0.255088
0.839783 0.234185 0.212535
0.922194 0.264184 0.247503
0.947217 0.288019 0.264395
0.956238 0.322863 0.279778
0.964094 0.366876 0.294430
0.160943 0.237525 0.299794
0.200586 0.261909 0.304962
0.401481 0.288626 0.291728
0.844253 0.292951 0.234881
0.924060 0.336863 0.258442
0.947696 0.389289 0.276440
0.963891 0.457641 0.296070
0.963099 0.541871 0.298322
0.218952 0.367660 0.341161
0.306291 0.425334 0.346990
0.447844 0.486837 0.330604
0.699487 0.516308 0.270086
0.922137 0.505753 0.253626
0.942349 0.586640 0.251323
0.954860 0.689237 0.273463
0.962782 0.774416 0.280939
0.360341 0.570097 0.369304
0.499482 0.621378 0.355606
0.659390 0.686426 0.325603
0.790747 0.756961 0.293373
0.914806 0.784722 0.206855
0.951775 0.830859 0.222395
0.965974 0.885606 0.251983
0.982212 0.924704 0.294633
0.562834 0.724579 0.343545
0.717712 0.783634 0.323042
0.821553 0.840407 0.309301
0.895751 0.888598 0.295441
0.953615 0.917723 0.247325
0.977392 0.945274 0.282449
0.987276 0.966991 0.324921
0.995326 0.981555 0.373318
0.760498 0.858286 0.324410
0.850038 0.902235 0.330112
0.908605 0.930385 0.323611
0.956814 0.956245 0.305211
0.980623 0.972412 0.316375
0.992144 0.984791 0.369692
0.994610 0.986167 0.436949
0.996015 0.984007 0.568798
0.112509 0.125248 0.227162
0.147382 0.136726 0.238705
0.265901 0.162831 0.278628
0.509534 0.193725 0.265311
0.771435 0.230072 0.264640
0.891894 0.256140 0.288271
0.941179 0.274449 0.316817
0.962809 0.288385 0.340070
0.124996 0.144994 0.270368
0.147463 0.160683 0.308054
0.403171 0.192404 0.313639
0.773462 0.231421 0.271587
0.892358 0.259583 0.285901
0.933265 0.272511 0.303880
0.956035 0.284079 0.318051
0.965017 0.303015 0.330561
0.147325 0.194503 0.331233
0.173617 0.213105 0.361202
0.275518 0.229822 0.354032
0.791291 0.245143 0.275498
0.926278 0.277005 0.298784
0.947422 0.304068 0.316703
0.958113 0.347859 0.328304
0.964066 0.395763 0.335282
0.177088 0.266320 0.376376
0.231226 0.300907 0.380667
0.344069 0.346562 0.381870
0.660266 0.357325 0.328157
0.920244 0.362362 0.307268
0.952919 0.424824 0.325524
0.959454 0.489619 0.329325
0.964462 0.586991 0.335858
0.235463 0.398172 0.406757
0.338218 0.467297 0.417335
0.475069 0.524546 0.394278
0.709647 0.562660 0.340659
0.898861 0.577834 0.316834
0.942339 0.623700 0.305064
0.957963 0.717676 0.319223
0.965091 0.793739 0.330386
0.393814 0.605336 0.431475
0.545225 0.653958 0.406304
0.693505 0.714760 0.383032
0.798083 0.780704 0.356709
0.895771 0.829041 0.331929
0.954802 0.850754 0.269900
0.972708 0.894226 0.287791
0.983182 0.933655 0.319885
0.613694 0.757923 0.394298
0.744933 0.807968 0.366880
0.839207 0.862794 0.354047
0.898491 0.897875 0.343481
0.944901 0.930578 0.341294
0.976321 0.953617 0.317871
0.989245 0.968878 0.349360
0.995426 0.980364 0.397437
0.784333 0.870102 0.364588
0.863193 0.910503 0.362497
0.915307 0.938917 0.370788
0.955070 0.958450 0.357219
0.981065 0.974377 0.366871
0.993522 0.987469 0.392707
0.996514 0.986292 0.481075
0.989668 0.974156 0.632812
0.134078 0.150979 0.312175
0.150483 0.160907 0.336905
0.258174 0.190243 0.373401
0.579386 0.231719 0.368698
0.803297 0.252462 0.345567
0.898937 0.274840 0.354010
0.945732 0.292246 0.381152
0.964904 0.305172 0.398762
0.143700 0.178341 0.363620
0.162817 0.195837 0.404476
0.329924 0.213164 0.406525
0.751680 0.251422 0.362597
0.898323 0.275863 0.353657
0.932552 0.282562 0.354843
0.950905 0.295221 0.365054
0.961246 0.321842 0.376359
0.164007 0.231597 0.428415
0.189551 0.252426 0.451295
0.262995 0.266989 0.443343
0.753109 0.268045 0.349458
0.918398 0.289364 0.351822
0.944163 0.324123 0.368470
0.955455 0.368869 0.375076
0.963224 0.423940 0.375757
0.193217 0.307593 0.452803
0.246242 0.333174 0.453423
0.350728 0.384193 0.452992
0.571341 0.426949 0.427927
0.902628 0.406651 0.374770
0.949272 0.451520 0.364073
0.959221 0.528276 0.367082
0.963130 0.632385 0.373088
0.260953 0.442761 0.481695
0.370151 0.502061 0.476323
0.520002 0.570462 0.459625
0.693628 0.632729 0.428189
0.851779 0.672769 0.390761
0.947523 0.683683 0.362697
0.966446 0.756234 0.367461
0.976363 0.832015 0.372214
0.426031 0.643871 0.502198
0.578141 0.685110 0.466094
0.725517 0.743636 0.431432
0.820340 0.808147 0.403160
0.902667 0.856852 0.384064
0.951285 0.875243 0.367298
0.977862 0.898971 0.367863
0.987583 0.933537 0.383287
0.646549 0.784662 0.442973
0.771538 0.827293 0.404006
0.852442 0.871449 0.387894
0.905158 0.911252 0.387869
0.943393 0.935613 0.387316
0.975928 0.957271 0.385983
0.991662 0.973597 0.381200
0.994745 0.977527 0.433157
0.806853 0.882854 0.397692
0.877731 0.921539 0.389058
0.924395 0.942091 0.388875
0.958939 0.961268 0.405647
0.981684 0.978109 0.416855
0.993833 0.985337 0.450994
0.995051 0.981270 0.549237
0.992335 0.973017 0.695708
0.151610 0.189828 0.420900
0.168414 0.197017 0.442664
0.276630 0.220156 0.463691
0.632174 0.266096 0.455924
0.818063 0.281159 0.434066
0.909532 0.293271 0.432520
0.950191 0.312850 0.445540
0.964957 0.322139 0.461282
0.163368 0.219594 0.466645
0.183615 0.237884 0.509614
0.237179 0.247596 0.509558
0.669865 0.271280 0.455340
0.901615 0.290619 0.421813
0.933232 0.298858 0.418139
0.952014 0.314914 0.421963
0.964619 0.349278 0.432153
0.185791 0.282717 0.533397
0.200920 0.294101 0.543844
0.282865 0.313622 0.532485
0.655026 0.307346 0.454001
0.895731 0.316506 0.412289
0.943867 0.344109 0.415291
0.956585 0.396959 0.421399
0.966717 0.459080 0.418463
0.205761 0.350767 0.538869
0.276538 0.390034 0.544056
0.380666 0.430710 0.530063
0.551370 0.472491 0.506315
0.876150 0.456989 0.432761
0.952880 0.494318 0.412508
0.961392 0.575894 0.410256
0.968625 0.676489 0.410978
0.290468 0.492494 0.561260
0.406241 0.548472 0.546149
0.558042 0.606101 0.522359
0.712768 0.675134 0.492398
0.832795 0.734535 0.457384
0.944792 0.735366 0.403982
0.973791 0.795952 0.401225
0.977850 0.847910 0.397305
0.453942 0.666901 0.555970
0.623661 0.716874 0.518236
0.756930 0.774458 0.481162
0.836935 0.829904 0.447535
0.898229 0.872474 0.421102
0.944066 0.899105 0.404719
0.980623 0.915365 0.400654
0.990069 0.942430 0.416491
0.682911 0.804087 0.486757
0.789579 0.839380 0.444657
0.866928 0.883397 0.422729
0.915110 0.918227 0.418439
0.951497 0.943909 0.417632
0.976718 0.960866 0.424716
0.993157 0.974315 0.431170
0.992448 0.975629 0.495061
0.830481 0.898592 0.436772
0.889363 0.925518 0.416830
0.936085 0.950564 0.419331
0.963635 0.965571 0.428545
0.984750 0.979737 0.449748
0.994273 0.983256 0.514108
0.995087 0.976150 0.634969
0.991496 0.968290 0.763822
0.173430 0.233847 0.536941
0.183785 0.244971 0.560047
0.239186 0.246106 0.563957
0.610760 0.285162 0.538727
0.833215 0.311292 0.522464
0.914639 0.319486 0.507992
0.950094 0.327583 0.509737
0.964819 0.336685 0.519282
0.187671 0.275963 0.587051
0.200346 0.288124 0.604873
0.241304 0.296448 0.606090
0.585728 0.290661 0.540142
0.900425 0.310069 0.485929
0.935861 0.319202 0.479116
0.953701 0.335654 0.478488
0.963819 0.372026 0.483724
0.201912 0.335082 0.624276
0.225465 0.342083 0.617939
0.298914 0.357222 0.604741
0.453707 0.372639 0.567352
0.848038 0.358038 0.490413
0.942405 0.374200 0.465458
0.958969 0.429999 0.468283
0.969309 0.501712 0.460203
0.227162 0.400251 0.624024
0.297757 0.436471 0.618814
0.409777 0.479127 0.602205
0.583841 0.535981 0.577936
0.843311 0.538359 0.516797
0.942155 0.553852 0.467235
0.968167 0.623587 0.451590
0.976977 0.719857 0.447800
0.314514 0.532770 0.628532
0.441874 0.589349 0.604099
0.605651 0.652039 0.577836
0.732429 0.709422 0.554396
0.831911 0.767468 0.516802
0.940126 0.780534 0.448208
0.974647 0.819574 0.428649
0.986406 0.871157 0.424826
0.494613 0.700846 0.609210
0.647636 0.744077 0.575617
0.772316 0.795024 0.526272
0.854378 0.843079 0.481835
0.908214 0.885218 0.455749
0.947471 0.915831 0.441084
0.981282 0.929064 0.427263
0.990595 0.950658 0.441504
0.710351 0.821114 0.533450
0.811311 0.858389 0.480656
0.879679 0.892720 0.455842
0.925889 0.928749 0.447174
0.957825 0.950743 0.449513
0.978787 0.966996 0.450969
0.991733 0.974914 0.475988
0.994237 0.972464 0.570252
0.849160 0.907559 0.464086
0.904208 0.933166 0.444997
0.942161 0.956200 0.447742
0.969982 0.969640 0.449042
0.989134 0.981244 0.479027
0.995141 0.979299 0.576393
0.995172 0.973302 0.710483
0.993550 0.967837 0.824584
