其他预设/【236】赛博朋克风调色预设/【后期菌】视频调色预设/CUBE/Sunset 06_S.cube
# LUT by SparkleStock. Enhanced with VOXCOLOR algorithms.
LUT_3D_SIZE 8
DOMAIN_MIN 0.000000 0.000000 0.000000
DOMAIN_MAX 0.903226 0.903226 0.903226
0.007820 0.125122 0.054741
0.053101 0.121212 0.070381
0.129285 0.120708 0.079210
0.267650 0.113392 0.091445
0.482830 0.113392 0.116419
0.695109 0.113392 0.154889
0.815186 0.114906 0.172674
0.890360 0.121212 0.192981
0.016145 0.153502 0.083120
0.134745 0.133398 0.094582
0.270328 0.122473 0.096771
0.480792 0.125928 0.113490
0.660041 0.126196 0.129537
0.781058 0.128149 0.142150
0.869801 0.133980 0.175896
0.925575 0.147712 0.209113
0.020055 0.189701 0.107590
0.209130 0.157444 0.114336
0.420286 0.152244 0.114596
0.586120 0.173430 0.123987
0.692216 0.183651 0.132190
0.787201 0.196460 0.154474
0.873068 0.203657 0.186857
0.913263 0.258093 0.235157
0.027370 0.248479 0.140636
0.226357 0.224282 0.123377
0.466197 0.230287 0.140034
0.625949 0.258484 0.150389
0.705200 0.290549 0.154442
0.780887 0.337535 0.177223
0.858494 0.378561 0.218459
0.899458 0.464541 0.288462
0.039227 0.339671 0.177088
0.273335 0.335452 0.155467
0.495195 0.365911 0.181011
0.630026 0.427402 0.193611
0.688803 0.475893 0.198295
0.763810 0.519966 0.221633
0.836856 0.593651 0.283014
0.876514 0.675705 0.354681
0.073913 0.477407 0.223883
0.477622 0.471442 0.216864
0.652387 0.518741 0.258569
0.732790 0.581416 0.280585
0.771524 0.635555 0.296209
0.815886 0.695838 0.327156
0.851654 0.749537 0.365988
0.884750 0.805031 0.405829
0.154132 0.631161 0.282786
0.614039 0.640747 0.297670
0.738441 0.684067 0.333479
0.780293 0.735939 0.362082
0.817457 0.785016 0.387475
0.850470 0.828540 0.414089
0.871152 0.864837 0.436792
0.893514 0.898002 0.456217
0.373601 0.758049 0.346104
0.680869 0.772656 0.360735
0.765796 0.807923 0.387426
0.808790 0.845710 0.411314
0.839200 0.875127 0.432203
0.866526 0.905114 0.452307
0.897245 0.928725 0.475462
0.924754 0.946070 0.498048
0.015640 0.125374 0.083625
0.069026 0.128292 0.102655
0.146691 0.116578 0.103997
0.313135 0.113091 0.131555
0.532083 0.105320 0.145116
0.713777 0.102752 0.173097
0.829215 0.112411 0.194649
0.898433 0.119068 0.215318
0.012723 0.157900 0.107606
0.153779 0.132721 0.115709
0.314738 0.122506 0.134834
0.493816 0.122775 0.145887
0.649246 0.123234 0.163340
0.768234 0.128337 0.176014
0.860229 0.134714 0.191962
0.928483 0.146002 0.213962
0.024502 0.191467 0.134045
0.136931 0.179601 0.147041
0.483726 0.157192 0.152595
0.585076 0.178553 0.163366
0.678245 0.196240 0.170534
0.770576 0.199348 0.178498
0.864727 0.209694 0.207212
0.932839 0.219571 0.248313
0.031329 0.261926 0.179737
0.120441 0.266850 0.180838
0.438255 0.254320 0.167572
0.600088 0.279185 0.181317
0.674510 0.310322 0.191959
0.763126 0.343242 0.205182
0.848435 0.386316 0.232901
0.910177 0.457489 0.287762
0.046477 0.356199 0.206481
0.134238 0.390087 0.210879
0.441177 0.404442 0.201253
0.583708 0.443666 0.209269
0.659837 0.486584 0.213853
0.746773 0.530669 0.233240
0.821638 0.590520 0.278890
0.874861 0.668502 0.336599
0.088581 0.505444 0.253569
0.227104 0.541021 0.268714
0.616918 0.559115 0.272508
0.700398 0.597916 0.277222
0.733893 0.649781 0.286053
0.787357 0.697879 0.313395
0.842915 0.748274 0.354955
0.883403 0.794407 0.381307
0.192700 0.643871 0.302686
0.473793 0.678372 0.324316
0.710826 0.699517 0.339591
0.785753 0.751627 0.368445
0.804721 0.793320 0.381274
0.839570 0.837368 0.410222
0.865713 0.871605 0.431126
0.895712 0.889224 0.429636
0.404161 0.764469 0.358717
0.623002 0.795274 0.377637
0.753760 0.822857 0.397089
0.808346 0.854435 0.417085
0.842870 0.887731 0.440449
0.874610 0.913947 0.460823
0.904414 0.935523 0.484563
0.926735 0.948797 0.506032
0.012235 0.129537 0.116419
0.080789 0.120708 0.127645
0.175827 0.113327 0.144489
0.357647 0.108066 0.175111
0.562289 0.097752 0.197273
0.739544 0.101825 0.216262
0.844770 0.110995 0.228847
0.912787 0.119296 0.240207
0.023493 0.161070 0.144327
0.128761 0.134360 0.150367
0.344933 0.123324 0.182830
0.523455 0.125806 0.210081
0.647798 0.125683 0.227536
0.763246 0.127626 0.235018
0.859841 0.132719 0.236590
0.930179 0.144305 0.239627
0.025853 0.195939 0.174496
0.118446 0.188936 0.192915
0.471990 0.160526 0.205037
0.580376 0.186174 0.225218
0.675176 0.197273 0.233686
0.764933 0.205103 0.242401
0.855193 0.210859 0.255586
0.931293 0.223336 0.275926
0.043206 0.258821 0.209223
0.118718 0.282732 0.223783
0.363637 0.281631 0.229091
0.603631 0.271327 0.240917
0.682832 0.295730 0.258562
0.763928 0.324262 0.271180
0.852437 0.373408 0.293545
0.911457 0.447738 0.317269
0.056999 0.368421 0.242172
0.139761 0.411633 0.251636
0.325759 0.455241 0.265632
0.564227 0.455587 0.267122
0.676787 0.483209 0.278649
0.743755 0.521976 0.290688
0.819340 0.569661 0.308994
0.877197 0.632453 0.330462
0.094851 0.522509 0.280011
0.232928 0.563629 0.294097
0.461952 0.609834 0.315532
0.653619 0.623595 0.304788
0.720631 0.658054 0.315366
0.771488 0.699226 0.335379
0.829746 0.740681 0.355287
0.881442 0.765530 0.366667
0.224697 0.660675 0.325223
0.455391 0.693836 0.346824
0.619939 0.747176 0.371736
0.768339 0.774343 0.382458
0.802015 0.807717 0.394578
0.831231 0.841834 0.410917
0.850205 0.856172 0.406028
0.896713 0.870662 0.407942
0.441154 0.778283 0.377006
0.600738 0.812130 0.397794
0.729947 0.836407 0.409891
0.806157 0.867767 0.427598
0.852190 0.899870 0.451911
0.879858 0.922195 0.471991
0.895326 0.932854 0.469231
0.924534 0.940915 0.480374
0.017154 0.132942 0.160943
0.091018 0.116798 0.161147
0.207962 0.112887 0.191565
0.395548 0.109482 0.222622
0.607000 0.098142 0.255107
0.757646 0.103411 0.265734
0.860805 0.114906 0.271939
0.920632 0.118653 0.271813
0.028884 0.164980 0.192021
0.089703 0.145272 0.204517
0.359535 0.122713 0.240681
0.558826 0.122939 0.277046
0.675196 0.124292 0.296428
0.776191 0.129036 0.301034
0.874350 0.135831 0.293828
0.928869 0.143515 0.268632
0.034967 0.195784 0.214635
0.099815 0.190106 0.245427
0.360352 0.177238 0.276666
0.598963 0.184531 0.295033
0.684152 0.196491 0.310453
0.766744 0.202751 0.310620
0.859468 0.208910 0.309116
0.928659 0.232041 0.315287
0.057011 0.271329 0.265486
0.123216 0.281279 0.274177
0.356439 0.295051 0.294219
0.600042 0.268806 0.303732
0.688242 0.291635 0.323756
0.767896 0.324536 0.342581
0.845926 0.382776 0.359575
0.912245 0.452436 0.374322
0.071573 0.382418 0.290090
0.149421 0.428359 0.298818
0.338500 0.477281 0.316619
0.523907 0.482739 0.335955
0.700933 0.476098 0.356767
0.753347 0.517891 0.364263
0.816845 0.557827 0.374518
0.890655 0.600682 0.384261
0.106784 0.548915 0.321248
0.275946 0.587882 0.326835
0.480904 0.634126 0.353334
0.582026 0.667076 0.365678
0.719288 0.673034 0.365577
0.775117 0.702883 0.377123
0.818356 0.722380 0.389393
0.882392 0.745648 0.400633
0.252592 0.671185 0.344001
0.493793 0.718381 0.373231
0.618077 0.764026 0.393949
0.706929 0.806174 0.412539
0.789883 0.822365 0.410310
0.819019 0.848959 0.425654
0.842129 0.853838 0.429729
0.900528 0.857265 0.434445
0.477354 0.791221 0.393529
0.619707 0.830177 0.418888
0.713899 0.853591 0.431198
0.791568 0.884884 0.447209
0.856530 0.908224 0.461025
0.879995 0.928011 0.476580
0.886597 0.932873 0.480826
0.922667 0.937155 0.497879
0.030398 0.132942 0.206477
0.097565 0.114336 0.214106
0.235874 0.113018 0.233225
0.443384 0.112830 0.270344
0.660810 0.107590 0.303968
0.799241 0.113717 0.311996
0.882780 0.117302 0.314169
0.931150 0.122978 0.309196
0.041501 0.164101 0.239584
0.072989 0.154730 0.271137
0.368589 0.124039 0.298584
0.621658 0.124695 0.331501
0.728278 0.125118 0.347566
0.815539 0.129993 0.346680
0.885785 0.135327 0.324872
0.938731 0.145953 0.294073
0.061060 0.199914 0.289349
0.101036 0.202092 0.308565
0.248917 0.197946 0.337969
0.616896 0.172862 0.342922
0.729736 0.185677 0.366289
0.797608 0.191855 0.358654
0.877826 0.202608 0.345875
0.929839 0.242349 0.345727
0.076700 0.271813 0.319604
0.144877 0.290122 0.331096
0.311541 0.320694 0.362455
0.534659 0.314216 0.367566
0.722366 0.279748 0.373742
0.797072 0.336457 0.396801
0.858963 0.402043 0.414663
0.906406 0.471595 0.427247
0.086241 0.400332 0.344070
0.179110 0.451323 0.348497
0.357781 0.499143 0.358531
0.554257 0.505048 0.386057
0.715082 0.507426 0.408891
0.776175 0.538967 0.422474
0.823104 0.571456 0.441113
0.890333 0.610143 0.450073
0.132365 0.568233 0.365833
0.320625 0.610264 0.358329
0.520887 0.652465 0.382275
0.617014 0.692678 0.398913
0.710753 0.719932 0.417139
0.783812 0.719142 0.421181
0.820988 0.727924 0.445833
0.887557 0.749658 0.462523
0.311560 0.702160 0.374345
0.513961 0.739958 0.393797
0.635592 0.781591 0.413296
0.716229 0.819505 0.427351
0.776104 0.845783 0.440785
0.808257 0.853457 0.455643
0.840389 0.851074 0.473633
0.903639 0.854892 0.488525
0.508520 0.808221 0.412091
0.630007 0.835838 0.429924
0.716845 0.866469 0.446519
0.783942 0.896971 0.461315
0.839334 0.922224 0.478587
0.865608 0.930665 0.491554
0.883973 0.933660 0.512976
0.924041 0.935106 0.549717
0.050705 0.134204 0.275849
0.078893 0.122140 0.300994
0.229905 0.114491 0.312354
0.496265 0.113905 0.340831
0.710717 0.115683 0.365223
0.824072 0.115508 0.358493
0.899930 0.121700 0.360735
0.938416 0.126127 0.355430
0.059192 0.161322 0.320284
0.094130 0.155020 0.351415
0.314227 0.123407 0.352733
0.648382 0.121994 0.369838
0.794199 0.126265 0.371869
0.861530 0.130901 0.363549
0.910700 0.134001 0.337794
0.938193 0.145734 0.312903
0.085301 0.202262 0.367420
0.120741 0.206359 0.387498
0.215399 0.198362 0.384487
0.654566 0.155820 0.364027
0.801256 0.163193 0.374474
0.852803 0.173870 0.362455
0.905659 0.191062 0.335802
0.934828 0.265462 0.363930
0.096853 0.278490 0.388618
0.162422 0.292046 0.391068
0.294434 0.322504 0.396540
0.516496 0.353811 0.404145
0.779487 0.278927 0.385693
0.853104 0.335409 0.399241
0.879365 0.430910 0.434950
0.901895 0.506799 0.467027
0.109966 0.417051 0.402517
0.223683 0.466016 0.402598
0.400198 0.524247 0.393178
0.579178 0.557463 0.411892
0.707139 0.572862 0.429591
0.815860 0.580954 0.450961
0.840441 0.614190 0.486252
0.891922 0.638570 0.505603
0.159068 0.592227 0.408356
0.348869 0.630249 0.394883
0.552677 0.671570 0.405372
0.659024 0.719666 0.417820
0.738934 0.754987 0.432128
0.785904 0.751658 0.463505
0.831847 0.740920 0.499504
0.894281 0.751245 0.525355
0.334057 0.722386 0.401366
0.546077 0.757587 0.414681
0.648916 0.795062 0.428409
0.722495 0.830266 0.443059
0.775272 0.861513 0.458988
0.802321 0.864943 0.491064
0.847367 0.864110 0.521078
0.909007 0.862162 0.546067
0.543797 0.817957 0.427394
0.654022 0.849567 0.444954
0.731215 0.873072 0.455399
0.794762 0.905244 0.475247
0.846148 0.927850 0.492657
0.873920 0.940045 0.518701
0.892406 0.939006 0.558645
0.929567 0.939511 0.613214
0.073408 0.133825 0.362249
0.093463 0.128373 0.384363
0.248332 0.113587 0.399962
0.564653 0.114613 0.426157
0.738751 0.115915 0.432504
0.841202 0.118075 0.423313
0.908198 0.122140 0.409719
0.945028 0.129032 0.399100
0.082771 0.161574 0.399205
0.114507 0.155316 0.426615
0.207777 0.142289 0.437391
0.612629 0.129925 0.433187
0.842780 0.125627 0.402186
0.893903 0.128451 0.385356
0.924137 0.137038 0.367444
0.946437 0.152314 0.351536
0.107016 0.207555 0.443774
0.138040 0.206302 0.451053
0.233410 0.206661 0.443319
0.615522 0.162058 0.412301
0.836693 0.149459 0.375331
0.902496 0.160240 0.352608
0.924605 0.194031 0.341839
0.936919 0.285821 0.373690
0.115199 0.290435 0.445662
0.184801 0.310060 0.458106
0.311272 0.337612 0.451759
0.511726 0.376259 0.434066
0.807698 0.293405 0.379577
0.893076 0.356234 0.386007
0.894687 0.475768 0.443486
0.905150 0.554675 0.490585
0.137141 0.436894 0.465058
0.258369 0.489442 0.456226
0.430634 0.539355 0.442720
0.602697 0.592131 0.439729
0.708226 0.636150 0.436676
0.827873 0.632401 0.457030
0.856601 0.656445 0.501234
0.891239 0.675099 0.526206
0.182256 0.610520 0.452164
0.409041 0.652525 0.433463
0.581351 0.696792 0.439866
0.670661 0.739904 0.442411
0.739698 0.778127 0.447391
0.785474 0.793949 0.477779
0.844574 0.774102 0.518072
0.899160 0.787243 0.561840
0.386812 0.738543 0.427170
0.568385 0.770663 0.431941
0.667114 0.806758 0.442422
0.736729 0.842597 0.456155
0.793947 0.875591 0.468875
0.828620 0.889888 0.501398
0.866256 0.887938 0.547628
0.915115 0.884433 0.587963
0.572005 0.829240 0.443510
0.670632 0.855935 0.453220
0.750113 0.886456 0.469644
0.808343 0.914855 0.483254
0.857012 0.935300 0.503070
0.895456 0.947407 0.530872
0.910367 0.948096 0.595043
0.937230 0.944838 0.670236
0.095229 0.132942 0.455586
0.113770 0.128275 0.476788
0.209569 0.117302 0.479673
0.565662 0.115158 0.495301
0.767256 0.118311 0.504680
0.862038 0.120642 0.483327
0.917300 0.122726 0.460420
0.949597 0.130798 0.445959
0.109722 0.166859 0.489528
0.132731 0.153779 0.499738
0.200422 0.152378 0.511298
0.565867 0.131220 0.501371
0.847690 0.127964 0.460790
0.902616 0.133215 0.433412
0.927305 0.144159 0.407883
0.947762 0.154526 0.383202
0.126310 0.208597 0.520116
0.168481 0.211535 0.518450
0.255852 0.213356 0.512793
0.437437 0.211796 0.504051
0.802436 0.165898 0.433559
0.909850 0.164639 0.386984
0.928708 0.206059 0.374310
0.940121 0.315856 0.390452
0.144978 0.299204 0.514615
0.204402 0.319876 0.512954
0.335151 0.354693 0.508382
0.535576 0.405010 0.488160
0.780489 0.387097 0.432560
0.886373 0.415155 0.415047
0.908100 0.524987 0.440792
0.908296 0.621633 0.472183
0.160402 0.452026 0.517439
0.300490 0.501587 0.502796
0.476174 0.564513 0.480068
0.618210 0.618344 0.475945
0.710020 0.666791 0.460419
0.830143 0.679145 0.457581
0.876466 0.708965 0.479612
0.896927 0.741051 0.504863
0.232635 0.629895 0.493104
0.424603 0.669936 0.465371
0.600327 0.714317 0.464041
0.691624 0.755815 0.460115
0.752135 0.799881 0.461896
0.805340 0.832679 0.470210
0.860357 0.830371 0.500421
0.906192 0.841362 0.539964
0.419008 0.756787 0.451444
0.590999 0.785950 0.450702
0.686905 0.817226 0.457060
0.750668 0.856687 0.469428
0.810326 0.886391 0.481693
0.851886 0.913039 0.494919
0.887696 0.920201 0.533226
0.925294 0.915993 0.587301
0.590681 0.839741 0.460460
0.685598 0.868145 0.472214
0.758570 0.897524 0.485055
0.821053 0.922528 0.499048
0.868260 0.941291 0.518469
0.906911 0.952464 0.554504
0.933241 0.958029 0.619752
0.950932 0.956319 0.709610
