其他预设/【236】赛博朋克风调色预设/【后期菌】视频调色预设/CUBE/Sunset 06_S.cube
# LUT by SparkleStock. Enhanced with VOXCOLOR algorithms.
LUT_3D_SIZE 5
DOMAIN_MIN 0.000000 0.000000 0.000000
DOMAIN_MAX 0.903226 0.903226 0.903226
0.007820 0.125122 0.054741
0.107590 0.121212 0.075174
0.365781 0.113392 0.101283
0.737489 0.113392 0.164980
0.890360 0.121212 0.192981
0.021064 0.180115 0.102545
0.343907 0.138232 0.110707
0.633431 0.160476 0.124150
0.813648 0.177727 0.158673
0.919204 0.216038 0.228696
0.029136 0.285183 0.159934
0.419354 0.291453 0.152513
0.647822 0.368901 0.169520
0.786270 0.441520 0.202786
0.888070 0.571903 0.316695
0.092076 0.521805 0.238010
0.640962 0.540371 0.259611
0.775691 0.649812 0.314665
0.835416 0.743946 0.367192
0.883643 0.828336 0.414813
0.373601 0.758049 0.346104
0.754696 0.797036 0.380444
0.823511 0.861456 0.423024
0.874403 0.913381 0.458361
0.924754 0.946070 0.498048
0.013244 0.129032 0.110365
0.141763 0.116419 0.128312
0.439982 0.102292 0.169720
0.762101 0.102687 0.206611
0.908198 0.119068 0.233143
0.023460 0.186467 0.157538
0.381296 0.149187 0.182747
0.618167 0.173430 0.210853
0.789346 0.185834 0.224261
0.930686 0.192924 0.254553
0.042433 0.307813 0.218297
0.277116 0.364171 0.227870
0.638948 0.372026 0.244483
0.775498 0.439596 0.268603
0.888342 0.551580 0.319507
0.107464 0.550958 0.280272
0.476606 0.623648 0.316219
0.724414 0.678560 0.318868
0.803844 0.749395 0.354602
0.884204 0.803840 0.379863
0.433082 0.774572 0.372140
0.705868 0.826900 0.402465
0.827486 0.876188 0.433541
0.884821 0.924258 0.474148
0.924502 0.942933 0.483267
0.024343 0.132942 0.184278
0.185665 0.114564 0.200512
0.540472 0.107232 0.263183
0.803537 0.111927 0.291554
0.925551 0.118291 0.291424
0.042832 0.187936 0.241289
0.238209 0.171565 0.298537
0.662840 0.170493 0.330672
0.806705 0.178085 0.335259
0.931093 0.200256 0.313213
0.070487 0.317558 0.303936
0.262575 0.400283 0.334773
0.654715 0.370110 0.361835
0.788314 0.447656 0.396403
0.892947 0.535058 0.412184
0.155410 0.596096 0.343016
0.487985 0.664879 0.368659
0.659017 0.736314 0.400249
0.791021 0.753817 0.412549
0.887591 0.779802 0.436933
0.493092 0.799692 0.402001
0.685689 0.855052 0.437487
0.814332 0.902786 0.461354
0.869550 0.929040 0.483555
0.922469 0.934302 0.519302
0.056759 0.136222 0.298048
0.173430 0.116916 0.333349
0.637121 0.114023 0.378048
0.850959 0.117200 0.376982
0.942453 0.128341 0.367929
0.084911 0.190332 0.376290
0.188609 0.180425 0.394832
0.779041 0.144972 0.374969
0.883325 0.158624 0.357760
0.939701 0.217068 0.340842
0.109608 0.341991 0.405968
0.314516 0.412721 0.409705
0.617686 0.473743 0.419756
0.854800 0.502049 0.442942
0.893358 0.585349 0.503547
0.203075 0.627576 0.407705
0.548181 0.707932 0.417230
0.715918 0.783945 0.435525
0.796410 0.788162 0.486533
0.899586 0.789442 0.544639
0.557793 0.822189 0.430518
0.718351 0.870427 0.454467
0.827493 0.919378 0.486772
0.880594 0.942405 0.531608
0.930674 0.941529 0.631594
0.095229 0.132942 0.455586
0.166180 0.117302 0.477069
0.694312 0.115642 0.506795
0.881503 0.119731 0.477663
0.949597 0.130798 0.445959
0.122632 0.194096 0.513639
0.214569 0.194287 0.515729
0.674404 0.159608 0.480943
0.916241 0.157192 0.392443
0.944614 0.246399 0.377064
0.149107 0.375533 0.515584
0.363553 0.439160 0.502385
0.648658 0.549323 0.478463
0.863940 0.586504 0.453119
0.900086 0.688658 0.492269
0.262581 0.662380 0.476243
0.583682 0.737517 0.464989
0.730274 0.802704 0.463363
0.822544 0.864091 0.485134
0.912423 0.863669 0.550250
0.590681 0.839741 0.460460
0.742490 0.890809 0.481870
0.844964 0.932329 0.506699
0.913679 0.955500 0.568759
0.950932 0.956319 0.709610
