其他预设/【236】赛博朋克风调色预设/【后期菌】视频调色预设/CUBE/Sunset 05.cube
# LUT by SparkleStock. Enhanced with VOXCOLOR algorithms.
LUT_3D_SIZE 8
DOMAIN_MIN 0.000000 0.000000 0.000000
DOMAIN_MAX 0.903226 0.903226 0.903226
0.152493 0.129032 0.101662
0.160565 0.129032 0.109482
0.178980 0.133951 0.110491
0.262984 0.150853 0.124239
0.466938 0.182890 0.163340
0.597736 0.203197 0.187557
0.665973 0.215054 0.202441
0.708731 0.228550 0.207234
0.160565 0.137609 0.105824
0.182345 0.141552 0.114165
0.278750 0.157221 0.129883
0.491794 0.195581 0.171917
0.608079 0.214171 0.197774
0.669973 0.228973 0.208666
0.716454 0.240882 0.212910
0.744553 0.247217 0.216567
0.164727 0.166241 0.114906
0.236411 0.163405 0.131368
0.465803 0.203075 0.170590
0.592691 0.230413 0.192350
0.657648 0.243071 0.200683
0.703308 0.263004 0.212242
0.734141 0.280585 0.216063
0.745407 0.326379 0.214195
0.178223 0.204711 0.135213
0.275296 0.217829 0.134000
0.526753 0.261132 0.176205
0.618275 0.296954 0.189050
0.661798 0.323287 0.198909
0.695899 0.362391 0.204459
0.720795 0.401516 0.202103
0.738820 0.468866 0.202872
0.206477 0.280894 0.163340
0.346478 0.327945 0.135913
0.536314 0.381425 0.166371
0.620370 0.431609 0.183521
0.655740 0.471076 0.186674
0.686711 0.513261 0.186275
0.717032 0.560983 0.181755
0.739731 0.611456 0.184355
0.259074 0.394286 0.191467
0.523201 0.461648 0.150178
0.615736 0.505156 0.167881
0.664964 0.543980 0.178358
0.691651 0.584041 0.175973
0.714883 0.625835 0.171189
0.732997 0.659068 0.172706
0.746510 0.695618 0.175953
0.334248 0.520165 0.216567
0.609019 0.575313 0.161981
0.666856 0.607265 0.168133
0.690487 0.640791 0.167669
0.710876 0.673427 0.172169
0.731797 0.704065 0.175953
0.748040 0.732733 0.180449
0.764913 0.760319 0.182890
0.481065 0.617665 0.238136
0.655781 0.655895 0.175436
0.693396 0.684819 0.175803
0.716336 0.711417 0.181666
0.737489 0.738197 0.184986
0.753760 0.762207 0.187997
0.779743 0.790644 0.193359
0.803961 0.813376 0.207144
0.152493 0.129032 0.109986
0.168637 0.132959 0.117571
0.184469 0.134708 0.122726
0.300880 0.157440 0.146719
0.506913 0.192029 0.180681
0.620395 0.209756 0.204919
0.678208 0.219554 0.218264
0.723224 0.230694 0.233709
0.160817 0.141755 0.114637
0.188183 0.145319 0.129964
0.328511 0.169596 0.155357
0.523250 0.204719 0.189767
0.632011 0.222988 0.214757
0.692098 0.236386 0.235044
0.727448 0.243285 0.230670
0.751691 0.251565 0.235720
0.169175 0.174598 0.131555
0.194484 0.171998 0.143901
0.540575 0.219045 0.199352
0.633473 0.233936 0.219523
0.694357 0.250566 0.242091
0.729669 0.264423 0.240685
0.756949 0.289657 0.249667
0.775591 0.318721 0.249566
0.186092 0.221458 0.156277
0.214225 0.242258 0.171305
0.526018 0.278766 0.196625
0.651777 0.295875 0.206492
0.696147 0.334980 0.218317
0.725437 0.372353 0.215827
0.742734 0.417345 0.217507
0.757129 0.473335 0.216074
0.221295 0.305868 0.187492
0.268035 0.348341 0.197835
0.517187 0.406219 0.178322
0.630767 0.438185 0.194076
0.672258 0.483500 0.194268
0.693498 0.528438 0.185610
0.720275 0.579970 0.183353
0.738887 0.620992 0.180464
0.276057 0.423756 0.214675
0.359057 0.474450 0.215271
0.612859 0.535359 0.176526
0.671733 0.556079 0.178292
0.693997 0.594560 0.174114
0.714427 0.638368 0.169313
0.732068 0.668926 0.172550
0.746335 0.704093 0.175859
0.359767 0.542617 0.235206
0.548250 0.596092 0.216069
0.656342 0.624019 0.173125
0.693339 0.652889 0.172032
0.710717 0.678734 0.170065
0.733607 0.710996 0.178673
0.748213 0.741185 0.181415
0.766688 0.764620 0.182070
0.507072 0.629899 0.244581
0.641870 0.674648 0.207369
0.692865 0.695890 0.185355
0.720814 0.720640 0.186056
0.741321 0.750186 0.190134
0.760372 0.771907 0.193441
0.785928 0.798834 0.198151
0.809958 0.822392 0.220552
0.153502 0.129537 0.118311
0.172800 0.133195 0.126131
0.198722 0.141772 0.139505
0.348846 0.167445 0.176779
0.537437 0.197017 0.203206
0.638476 0.212063 0.231325
0.695866 0.221096 0.243559
0.743495 0.229864 0.259757
0.164003 0.148900 0.134082
0.186177 0.142998 0.140711
0.367657 0.179896 0.186463
0.564870 0.209659 0.221397
0.649295 0.222202 0.242355
0.706335 0.236722 0.254986
0.739646 0.247164 0.256827
0.761774 0.257223 0.260264
0.169581 0.177463 0.154442
0.195386 0.186744 0.171600
0.547116 0.216816 0.222792
0.648654 0.235809 0.246091
0.710436 0.257379 0.263456
0.741839 0.274076 0.266377
0.764682 0.297610 0.269346
0.781692 0.333104 0.270108
0.190304 0.235361 0.182988
0.221156 0.261608 0.203209
0.423906 0.296190 0.239919
0.690733 0.299954 0.258878
0.734020 0.329927 0.261841
0.747394 0.367359 0.255038
0.766169 0.425876 0.248952
0.764840 0.485825 0.230325
0.223240 0.320491 0.205468
0.278740 0.376552 0.233131
0.396447 0.435948 0.243337
0.634135 0.460385 0.222758
0.701008 0.481793 0.212502
0.717293 0.527702 0.201871
0.734145 0.574966 0.196410
0.742734 0.623617 0.183229
0.282392 0.453694 0.240390
0.368180 0.496736 0.250774
0.531294 0.560991 0.238888
0.661940 0.580667 0.184307
0.694691 0.605776 0.169999
0.714160 0.641759 0.169003
0.731992 0.679260 0.171239
0.741074 0.706643 0.170932
0.386926 0.561972 0.256286
0.540046 0.603665 0.248422
0.637140 0.656078 0.227828
0.691843 0.670817 0.182453
0.717543 0.693812 0.177873
0.735262 0.720014 0.182791
0.749136 0.743658 0.179610
0.767349 0.769062 0.180560
0.530052 0.647810 0.258292
0.635949 0.687127 0.242869
0.690083 0.711093 0.203659
0.723896 0.734527 0.194681
0.747434 0.760320 0.195642
0.769694 0.782039 0.196382
0.788034 0.800536 0.198851
0.810254 0.826971 0.230064
0.160313 0.133699 0.139123
0.176759 0.133195 0.145254
0.216608 0.141015 0.169268
0.394079 0.167860 0.205195
0.577303 0.194621 0.245716
0.663324 0.210143 0.268013
0.715164 0.210216 0.283669
0.752841 0.219936 0.289561
0.169093 0.155015 0.168967
0.182266 0.156499 0.186503
0.384890 0.174592 0.223870
0.591646 0.206077 0.260179
0.672417 0.219281 0.278583
0.720424 0.233396 0.285158
0.755759 0.246812 0.295295
0.771540 0.256878 0.292056
0.174468 0.190080 0.195251
0.196326 0.203183 0.216855
0.420060 0.214305 0.258781
0.664710 0.236529 0.277420
0.726369 0.259889 0.296916
0.747623 0.279417 0.298858
0.773882 0.311631 0.301347
0.789811 0.350696 0.292045
0.190564 0.255562 0.224261
0.217211 0.276797 0.234619
0.407459 0.321804 0.286611
0.674503 0.319592 0.297438
0.733274 0.346653 0.295572
0.754932 0.383982 0.275452
0.771459 0.443189 0.267358
0.775906 0.508151 0.249035
0.222679 0.346906 0.238880
0.285921 0.395809 0.262748
0.410888 0.459785 0.292937
0.601558 0.504749 0.283655
0.730244 0.487364 0.255881
0.739768 0.534241 0.230372
0.751370 0.583935 0.214819
0.755762 0.623219 0.199167
0.292340 0.481292 0.274824
0.403504 0.525422 0.293893
0.548925 0.581403 0.281353
0.629607 0.623974 0.250291
0.702077 0.625164 0.192053
0.722311 0.650741 0.175375
0.730913 0.680484 0.169598
0.742030 0.711786 0.169626
0.407107 0.574861 0.284678
0.560760 0.625837 0.270364
0.639495 0.668919 0.252490
0.684078 0.700687 0.233075
0.716057 0.704401 0.188207
0.738880 0.733280 0.185344
0.752125 0.753579 0.182020
0.770088 0.776088 0.179084
0.558615 0.660008 0.269542
0.644721 0.705242 0.262334
0.691427 0.731532 0.241082
0.729332 0.753821 0.222406
0.754665 0.769727 0.201095
0.778213 0.792705 0.200545
0.795056 0.809207 0.208466
0.818938 0.836917 0.256826
0.162331 0.142781 0.180115
0.177149 0.137101 0.188945
0.243568 0.137992 0.215432
0.440117 0.166103 0.254785
0.603798 0.189441 0.294516
0.684986 0.198730 0.318123
0.735345 0.204837 0.334109
0.770255 0.216840 0.335257
0.174631 0.167380 0.214488
0.186235 0.181523 0.243462
0.374041 0.168994 0.282297
0.616661 0.200274 0.308897
0.691166 0.212665 0.324618
0.734540 0.224909 0.325804
0.761936 0.241780 0.326411
0.783637 0.259558 0.326946
0.191589 0.209378 0.257938
0.204581 0.226240 0.277415
0.286336 0.243901 0.306312
0.648504 0.237018 0.323226
0.735757 0.253923 0.327105
0.758237 0.278172 0.328499
0.781246 0.323589 0.328091
0.790662 0.370303 0.315733
0.198840 0.274657 0.278681
0.227796 0.305843 0.289547
0.344840 0.355891 0.325966
0.583042 0.387336 0.347892
0.733324 0.361713 0.323122
0.764142 0.413659 0.301797
0.772170 0.469261 0.288231
0.777861 0.534485 0.263209
0.222866 0.370683 0.280634
0.294903 0.422438 0.309731
0.430106 0.482997 0.339671
0.599849 0.529139 0.323154
0.717151 0.527414 0.299403
0.744825 0.554192 0.253250
0.756113 0.598693 0.226037
0.762179 0.639657 0.209829
0.306458 0.502897 0.315886
0.433742 0.546167 0.329708
0.562539 0.595436 0.315727
0.632717 0.637549 0.284442
0.688867 0.664574 0.248140
0.729615 0.668603 0.191937
0.737599 0.691643 0.179664
0.745679 0.721454 0.175941
0.441423 0.600523 0.319340
0.573389 0.640852 0.294962
0.651741 0.685071 0.274228
0.690123 0.715760 0.255135
0.720486 0.738210 0.234837
0.741814 0.745329 0.197233
0.756524 0.759985 0.183611
0.777450 0.781736 0.183887
0.584016 0.677219 0.286436
0.658174 0.716554 0.270287
0.698589 0.744427 0.257530
0.731774 0.766586 0.242167
0.758834 0.787222 0.228145
0.781047 0.797095 0.207331
0.801083 0.818160 0.220936
0.829729 0.848236 0.300126
0.175827 0.157538 0.244568
0.185755 0.166790 0.267451
0.246245 0.155174 0.292641
0.470030 0.163600 0.326822
0.626819 0.179001 0.359389
0.695166 0.192000 0.380245
0.750969 0.201777 0.393216
0.786615 0.211457 0.394595
0.192224 0.188818 0.297832
0.207162 0.204560 0.328804
0.309586 0.174852 0.353480
0.601717 0.183712 0.364358
0.703915 0.204748 0.380937
0.745031 0.216423 0.379155
0.768738 0.235314 0.369473
0.788674 0.259904 0.360829
0.209919 0.235560 0.335456
0.224653 0.248933 0.346002
0.274264 0.265179 0.360402
0.634245 0.232691 0.377569
0.738513 0.243733 0.368478
0.766420 0.275122 0.369485
0.784766 0.327514 0.357564
0.793818 0.391493 0.341068
0.214911 0.293878 0.342446
0.244530 0.323551 0.344872
0.335646 0.371434 0.373028
0.527189 0.425010 0.399612
0.725326 0.398038 0.376438
0.763095 0.434447 0.329484
0.772655 0.493460 0.308351
0.781395 0.556958 0.282314
0.233668 0.405068 0.344265
0.322168 0.452714 0.362614
0.462525 0.509217 0.387468
0.587165 0.562706 0.368911
0.681040 0.580937 0.347017
0.752423 0.581570 0.286701
0.766536 0.625367 0.245512
0.769935 0.664664 0.221444
0.324788 0.531546 0.359669
0.463457 0.569098 0.375161
0.580622 0.613233 0.347611
0.648561 0.653631 0.314759
0.697743 0.685858 0.276773
0.729694 0.697431 0.234278
0.753770 0.711745 0.208576
0.759199 0.733039 0.198156
0.467882 0.623577 0.360483
0.593348 0.656529 0.318383
0.663833 0.694981 0.291168
0.696733 0.727311 0.271529
0.725332 0.750595 0.252271
0.748162 0.765215 0.231238
0.766012 0.772321 0.196526
0.788706 0.792986 0.198916
0.602020 0.694352 0.303785
0.671698 0.729279 0.280776
0.707661 0.753955 0.261209
0.738210 0.780130 0.256039
0.766058 0.797928 0.246137
0.791422 0.814537 0.233858
0.813057 0.833723 0.253567
0.839084 0.861264 0.350896
0.200044 0.186800 0.353546
0.210708 0.194564 0.371050
0.260669 0.183704 0.385103
0.515124 0.166957 0.411904
0.640128 0.175184 0.437891
0.711506 0.185808 0.449186
0.763139 0.195503 0.455171
0.797276 0.208800 0.452526
0.217703 0.213190 0.397623
0.227789 0.228149 0.420490
0.256758 0.234130 0.435563
0.566210 0.186763 0.452333
0.717064 0.198028 0.435023
0.755702 0.211180 0.436086
0.780483 0.234214 0.418827
0.799775 0.263473 0.408796
0.233721 0.256299 0.413263
0.243161 0.267569 0.415346
0.295240 0.298398 0.431693
0.583452 0.248969 0.456028
0.729435 0.248023 0.429756
0.773494 0.279597 0.407750
0.794254 0.343461 0.396500
0.797103 0.420477 0.372056
0.237167 0.320202 0.403242
0.270187 0.350026 0.411176
0.361819 0.403053 0.432344
0.506637 0.453263 0.452364
0.707264 0.428683 0.422244
0.764833 0.466195 0.366013
0.777514 0.523090 0.334421
0.784423 0.578658 0.305659
0.248088 0.435873 0.405272
0.343676 0.482328 0.415311
0.484806 0.535457 0.436861
0.597828 0.583026 0.413079
0.668452 0.619559 0.377561
0.750172 0.611586 0.316720
0.775386 0.645251 0.266485
0.774649 0.681815 0.230180
0.344334 0.549883 0.402371
0.502854 0.590246 0.416575
0.603711 0.634808 0.383240
0.660116 0.671239 0.340784
0.698551 0.700911 0.301144
0.727884 0.722358 0.255938
0.756934 0.730283 0.223016
0.771975 0.753721 0.211997
0.504427 0.636837 0.388574
0.606866 0.670719 0.340711
0.673563 0.708333 0.307282
0.708079 0.737400 0.280242
0.736204 0.762898 0.262342
0.760539 0.783743 0.247403
0.782033 0.792930 0.224190
0.801792 0.810442 0.227541
0.624024 0.710172 0.320194
0.682556 0.739690 0.289131
0.720173 0.765773 0.270557
0.745354 0.787653 0.260414
0.775326 0.807537 0.253456
0.799014 0.826726 0.260596
0.826472 0.852431 0.307956
0.853939 0.876313 0.438404
0.224261 0.208621 0.459496
0.234340 0.214675 0.471226
0.257324 0.216368 0.483233
0.507572 0.172080 0.497030
0.656281 0.176962 0.517972
0.728530 0.186231 0.517700
0.773709 0.193937 0.514510
0.801393 0.208031 0.510665
0.240154 0.237115 0.487233
0.248396 0.249505 0.499299
0.269620 0.260754 0.512823
0.522521 0.194794 0.535629
0.722065 0.196719 0.497869
0.764917 0.209659 0.492575
0.792259 0.236963 0.472195
0.807315 0.264274 0.454512
0.247018 0.279181 0.482708
0.262068 0.299140 0.486931
0.314117 0.324284 0.498865
0.436459 0.327434 0.515359
0.708437 0.266568 0.500144
0.781379 0.288711 0.452120
0.798691 0.359501 0.433890
0.799939 0.452232 0.395087
0.254533 0.343655 0.468020
0.289345 0.374040 0.466923
0.388659 0.429725 0.491738
0.531288 0.484428 0.506097
0.692559 0.492233 0.480180
0.758552 0.507953 0.412617
0.782140 0.551637 0.364859
0.790591 0.605147 0.329361
0.264237 0.455586 0.466909
0.368672 0.503090 0.464826
0.518569 0.561197 0.478502
0.608300 0.603637 0.460917
0.669787 0.640857 0.414589
0.744720 0.641468 0.344660
0.779106 0.665231 0.287321
0.783967 0.703904 0.247830
0.369239 0.571248 0.449971
0.518498 0.609389 0.459895
0.616035 0.648854 0.417898
0.674738 0.687066 0.364673
0.706579 0.714392 0.317138
0.733040 0.738386 0.276067
0.760876 0.751539 0.239623
0.784193 0.773649 0.227096
0.525316 0.655577 0.418870
0.623404 0.685365 0.363485
0.685930 0.720854 0.323038
0.719259 0.750452 0.293300
0.745563 0.774625 0.268419
0.769742 0.796316 0.258726
0.791779 0.810499 0.247580
0.818555 0.831652 0.264743
0.640747 0.722439 0.329373
0.693366 0.751610 0.297755
0.728053 0.774720 0.276619
0.754321 0.796766 0.264904
0.782140 0.813705 0.260141
0.809435 0.840581 0.289308
0.839388 0.867242 0.382381
0.870456 0.894677 0.538992
