其他预设/【236】赛博朋克风调色预设/【后期菌】视频调色预设/CUBE/Sunset 07_S.cube
# LUT by SparkleStock. Enhanced with VOXCOLOR algorithms.
LUT_3D_SIZE 32
0.023460 0.113392 0.011730
0.035569 0.115410 0.017785
0.047804 0.117302 0.023460
0.061930 0.117302 0.023460
0.076309 0.117302 0.023713
0.092454 0.117302 0.025731
0.110491 0.116924 0.027370
0.136726 0.114906 0.027370
0.165989 0.113897 0.029389
0.204333 0.115915 0.037461
0.243307 0.116671 0.045533
0.283669 0.114653 0.053606
0.329329 0.113392 0.062435
0.383817 0.113392 0.072525
0.438306 0.115158 0.081733
0.492795 0.119194 0.089805
0.542238 0.121212 0.097878
0.586636 0.121212 0.105950
0.625359 0.121212 0.114023
0.659666 0.121212 0.122095
0.695235 0.122473 0.130167
0.731561 0.124492 0.138240
0.754013 0.125122 0.143537
0.770157 0.125122 0.147574
0.787816 0.128149 0.153123
0.805979 0.132186 0.159178
0.825781 0.134582 0.163592
0.845962 0.136600 0.167628
0.859080 0.138618 0.171665
0.871188 0.140636 0.175701
0.881405 0.140762 0.179737
0.891496 0.140762 0.183773
0.025479 0.121464 0.017785
0.042795 0.121399 0.021756
0.059977 0.121338 0.025544
0.075146 0.121338 0.026585
0.090957 0.121338 0.027879
0.111268 0.121338 0.030939
0.133276 0.120960 0.033620
0.162636 0.118942 0.034662
0.195544 0.117412 0.037201
0.239096 0.117347 0.044231
0.283930 0.117322 0.051913
0.331583 0.117387 0.061027
0.380627 0.117038 0.070117
0.431991 0.115996 0.079166
0.482900 0.116720 0.087787
0.533222 0.119715 0.095860
0.577978 0.121212 0.103411
0.617168 0.121212 0.110442
0.653612 0.121798 0.118059
0.687920 0.122840 0.126131
0.718932 0.124492 0.133553
0.747966 0.126510 0.140583
0.768139 0.128572 0.146272
0.784284 0.130656 0.151349
0.802724 0.133422 0.157160
0.821928 0.136417 0.163214
0.838541 0.138618 0.169321
0.854555 0.140636 0.175440
0.866241 0.141743 0.179737
0.877308 0.142720 0.183773
0.887459 0.143757 0.187809
0.897550 0.144799 0.191846
0.027497 0.129411 0.023713
0.049826 0.127393 0.025796
0.071797 0.125492 0.027875
0.088398 0.125362 0.029893
0.106015 0.125248 0.032155
0.130753 0.125248 0.036126
0.156968 0.124870 0.039768
0.189583 0.122852 0.041981
0.226202 0.120866 0.045188
0.274832 0.118978 0.051372
0.325272 0.118311 0.058736
0.379696 0.120329 0.068697
0.431702 0.120858 0.077900
0.479681 0.118905 0.085842
0.526834 0.118689 0.093842
0.572925 0.120708 0.101914
0.612961 0.121684 0.108912
0.646943 0.121619 0.114836
0.680962 0.122726 0.121932
0.715010 0.124744 0.129940
0.741733 0.126762 0.136767
0.764062 0.128780 0.142886
0.782185 0.132141 0.148961
0.798394 0.136112 0.155015
0.817485 0.138569 0.161167
0.837536 0.140522 0.167352
0.851186 0.142634 0.175017
0.863360 0.144782 0.183025
0.873711 0.145165 0.187728
0.883802 0.145295 0.191960
0.893709 0.147134 0.195947
0.903604 0.149087 0.199918
0.029515 0.135465 0.027749
0.053927 0.133447 0.030874
0.078307 0.131417 0.033929
0.102199 0.129203 0.035947
0.127238 0.127266 0.038079
0.160309 0.127266 0.041009
0.194271 0.126888 0.044390
0.232094 0.124870 0.049728
0.273400 0.123405 0.055799
0.325154 0.123600 0.064067
0.377417 0.124365 0.072212
0.430799 0.126384 0.080089
0.479421 0.127303 0.087210
0.520108 0.126392 0.093069
0.560881 0.126762 0.099896
0.601764 0.128780 0.107968
0.636593 0.129236 0.113925
0.665367 0.128129 0.117766
0.694763 0.128780 0.123364
0.724644 0.130798 0.130330
0.751107 0.132816 0.137418
0.775520 0.134834 0.144579
0.795009 0.137479 0.150979
0.812261 0.140408 0.157033
0.830049 0.141824 0.164748
0.848017 0.142736 0.173015
0.862123 0.146345 0.180225
0.875339 0.150576 0.187191
0.885820 0.153042 0.194498
0.895910 0.155255 0.201855
0.902888 0.156248 0.205061
0.909658 0.157160 0.207990
0.031533 0.141519 0.032290
0.058029 0.139241 0.036196
0.084785 0.136852 0.039984
0.115447 0.132816 0.042002
0.147533 0.129268 0.044036
0.189587 0.129138 0.046184
0.231825 0.128752 0.049492
0.274856 0.127254 0.057825
0.320687 0.126603 0.066532
0.374915 0.128491 0.076362
0.428228 0.130460 0.084972
0.479527 0.132609 0.090896
0.524454 0.133951 0.096161
0.558761 0.133951 0.100327
0.593439 0.134834 0.105918
0.628593 0.136852 0.113339
0.658279 0.136983 0.118124
0.682496 0.135225 0.120272
0.707995 0.135664 0.124764
0.734491 0.137813 0.131079
0.760417 0.139798 0.138329
0.786001 0.141686 0.146141
0.806841 0.143753 0.152834
0.825525 0.145901 0.159019
0.842304 0.146438 0.168231
0.858449 0.146438 0.178451
0.872743 0.151252 0.185287
0.886609 0.157176 0.191341
0.896830 0.161448 0.201041
0.906530 0.165484 0.211262
0.911164 0.166225 0.214037
0.915461 0.166745 0.216315
0.033551 0.147574 0.040362
0.062130 0.143212 0.043226
0.091034 0.138870 0.046038
0.124821 0.134834 0.048056
0.161334 0.131156 0.050221
0.216929 0.129984 0.053410
0.271146 0.129533 0.057955
0.319385 0.132202 0.068371
0.368600 0.134415 0.078120
0.420745 0.135262 0.085867
0.469696 0.136840 0.092719
0.511621 0.140030 0.097601
0.550689 0.142024 0.102606
0.584997 0.142024 0.107814
0.615573 0.142907 0.111712
0.641353 0.144925 0.113925
0.666351 0.146097 0.116627
0.690569 0.146422 0.119817
0.717239 0.148359 0.125936
0.745818 0.151549 0.134334
0.769270 0.153274 0.141064
0.789647 0.154120 0.146792
0.811724 0.156578 0.153551
0.834574 0.159768 0.160777
0.852395 0.160565 0.171030
0.868540 0.160565 0.182292
0.881141 0.164532 0.189323
0.892924 0.169415 0.195377
0.900150 0.173557 0.205989
0.906725 0.177593 0.217251
0.913117 0.182239 0.222044
0.919497 0.186926 0.226406
0.035191 0.154385 0.048813
0.066048 0.148330 0.050831
0.097381 0.142378 0.052837
0.135856 0.137951 0.054660
0.177894 0.133801 0.056808
0.244882 0.131587 0.061235
0.309258 0.130961 0.067102
0.362314 0.137210 0.079210
0.414329 0.142044 0.089708
0.463219 0.142630 0.095371
0.507430 0.144294 0.100466
0.541347 0.148330 0.104306
0.574898 0.150999 0.108758
0.607839 0.151390 0.114226
0.634485 0.152493 0.116590
0.653038 0.154511 0.114963
0.674228 0.156627 0.116167
0.698055 0.158840 0.120203
0.725177 0.161969 0.127425
0.754863 0.165810 0.137125
0.776330 0.167250 0.143285
0.792865 0.167250 0.147321
0.815398 0.169891 0.154132
0.840657 0.173732 0.162205
0.859519 0.175131 0.173451
0.876250 0.175717 0.185755
0.887268 0.180534 0.193457
0.896968 0.186328 0.200097
0.901541 0.193660 0.211864
0.905382 0.201212 0.224363
0.913190 0.209435 0.230820
0.921263 0.217703 0.236874
0.035191 0.164475 0.058903
0.069173 0.158421 0.060921
0.104152 0.152338 0.062862
0.154084 0.145828 0.063643
0.206408 0.139725 0.065141
0.275479 0.136470 0.071651
0.342133 0.135192 0.079210
0.398314 0.142484 0.091319
0.450590 0.148880 0.101296
0.491147 0.152590 0.104876
0.528978 0.156403 0.108212
0.560812 0.160439 0.111012
0.590327 0.163889 0.113640
0.615976 0.166363 0.115984
0.639432 0.168637 0.117501
0.660069 0.170656 0.117957
0.681259 0.173292 0.120203
0.703003 0.176547 0.124239
0.727456 0.179546 0.130290
0.754017 0.182345 0.137906
0.775614 0.183395 0.143285
0.794232 0.183395 0.147321
0.813835 0.185319 0.154132
0.833886 0.188119 0.162205
0.853790 0.191601 0.174232
0.873646 0.195312 0.187577
0.883557 0.208332 0.198014
0.891174 0.223500 0.207779
0.894576 0.248409 0.221759
0.897375 0.274710 0.236341
0.905118 0.285081 0.242929
0.913190 0.294390 0.248983
0.035191 0.175575 0.069498
0.072298 0.169260 0.070996
0.110857 0.162803 0.072416
0.171205 0.154210 0.072676
0.232936 0.146219 0.073913
0.304351 0.142443 0.081985
0.373056 0.140937 0.090668
0.430018 0.149270 0.101995
0.481707 0.157033 0.111061
0.517578 0.163088 0.113339
0.551373 0.168755 0.115536
0.580602 0.173573 0.117554
0.606244 0.178097 0.118913
0.625904 0.182134 0.119174
0.646333 0.185287 0.120089
0.667751 0.187305 0.121847
0.688681 0.190723 0.124744
0.709122 0.195540 0.128780
0.730955 0.198783 0.133805
0.753870 0.200801 0.139599
0.775076 0.202046 0.144457
0.795257 0.202827 0.148753
0.812664 0.206070 0.156183
0.828808 0.210432 0.165037
0.849494 0.216649 0.177454
0.871693 0.223484 0.191060
0.880563 0.243649 0.203450
0.886357 0.266890 0.215558
0.888391 0.305339 0.231882
0.889888 0.345962 0.248808
0.896818 0.360646 0.256274
0.904109 0.373601 0.263110
0.035191 0.189701 0.081607
0.075422 0.182345 0.081021
0.117367 0.174781 0.080553
0.185006 0.164105 0.081855
0.253508 0.154421 0.084003
0.328047 0.151687 0.092076
0.398119 0.151223 0.100173
0.448832 0.160598 0.108375
0.497397 0.169142 0.115357
0.539516 0.175196 0.118677
0.576306 0.181841 0.121591
0.601369 0.189783 0.123609
0.623625 0.196260 0.125358
0.641202 0.200296 0.126660
0.659093 0.203450 0.127706
0.677386 0.205468 0.128422
0.697274 0.210448 0.130798
0.718757 0.218390 0.134834
0.738116 0.223000 0.139273
0.755823 0.225018 0.144026
0.775076 0.228216 0.149144
0.795257 0.232122 0.154482
0.812664 0.242786 0.164386
0.828808 0.256522 0.176364
0.849494 0.267427 0.188001
0.871693 0.277387 0.199523
0.879717 0.301523 0.211522
0.884469 0.328930 0.223631
0.884550 0.368812 0.242689
0.883964 0.410476 0.262740
0.887834 0.435967 0.273330
0.892000 0.460379 0.283291
0.034560 0.206351 0.093716
0.077591 0.199255 0.090721
0.122453 0.191866 0.088040
0.194779 0.180083 0.090058
0.268017 0.169398 0.092914
0.347634 0.166404 0.101637
0.421209 0.165985 0.109921
0.468602 0.176726 0.116301
0.515018 0.186377 0.121932
0.558505 0.192757 0.125317
0.595339 0.200500 0.128377
0.617539 0.211241 0.130721
0.637345 0.220079 0.133064
0.653165 0.225742 0.135408
0.668841 0.229954 0.136441
0.684335 0.232297 0.135790
0.703019 0.239002 0.137483
0.724893 0.250069 0.141519
0.742592 0.256779 0.145555
0.757044 0.260099 0.149592
0.775076 0.265738 0.155296
0.795257 0.272769 0.162001
0.812664 0.287722 0.173809
0.828808 0.306275 0.187936
0.848517 0.320483 0.199523
0.869414 0.333243 0.210265
0.877670 0.359437 0.222911
0.883008 0.388732 0.235996
0.881910 0.428907 0.256201
0.879892 0.470636 0.277424
0.881047 0.503211 0.289797
0.882414 0.535175 0.301580
0.032542 0.228550 0.105824
0.077656 0.224579 0.099705
0.124406 0.220184 0.094094
0.195691 0.209443 0.096112
0.269188 0.199279 0.099229
0.358180 0.193160 0.110035
0.439958 0.190592 0.120207
0.490476 0.203417 0.127629
0.536892 0.214891 0.133520
0.571004 0.222312 0.134822
0.601394 0.231422 0.136775
0.623593 0.244247 0.140160
0.643009 0.256339 0.143545
0.657787 0.267211 0.146931
0.671966 0.274807 0.147639
0.685377 0.278193 0.144904
0.702498 0.286981 0.145555
0.723330 0.301173 0.149592
0.741159 0.311593 0.153628
0.756653 0.319079 0.157664
0.775076 0.328234 0.164670
0.795257 0.338390 0.173459
0.812664 0.350738 0.185917
0.828808 0.364084 0.200044
0.845393 0.378552 0.213194
0.862123 0.393395 0.226019
0.872983 0.417442 0.241594
0.882487 0.443612 0.257804
0.881910 0.481573 0.275666
0.879892 0.521219 0.293764
0.879094 0.552687 0.304965
0.878378 0.583609 0.315706
0.031281 0.248479 0.117933
0.076525 0.248413 0.109470
0.123552 0.247868 0.101711
0.197310 0.240121 0.104510
0.273705 0.232627 0.108522
0.368555 0.226898 0.121021
0.455167 0.225112 0.132617
0.506075 0.240410 0.140299
0.551417 0.254195 0.146255
0.580061 0.263439 0.147036
0.606203 0.274331 0.148713
0.626840 0.288849 0.152358
0.644889 0.303219 0.155711
0.658625 0.317346 0.158575
0.671820 0.327229 0.158933
0.684319 0.331656 0.156069
0.700268 0.341356 0.156655
0.719668 0.356329 0.160691
0.737677 0.368336 0.164727
0.754603 0.378036 0.168764
0.773075 0.388753 0.176340
0.792474 0.400080 0.186040
0.809905 0.410826 0.198783
0.826440 0.421307 0.212910
0.841462 0.435743 0.226157
0.855979 0.451497 0.239112
0.867905 0.473810 0.256933
0.879232 0.497637 0.275878
0.880933 0.531773 0.293056
0.881259 0.567383 0.309982
0.878655 0.596890 0.320133
0.875855 0.625989 0.329833
0.031281 0.264623 0.130041
0.073400 0.269766 0.120537
0.118018 0.274494 0.111931
0.200109 0.272997 0.116814
0.283795 0.271752 0.122779
0.378646 0.272273 0.136319
0.464476 0.276150 0.148566
0.511218 0.294573 0.155207
0.553696 0.311483 0.160903
0.583381 0.323852 0.163767
0.608937 0.337218 0.166550
0.625408 0.352777 0.169154
0.640462 0.367799 0.170684
0.653156 0.381925 0.170424
0.666221 0.392264 0.170391
0.679762 0.397732 0.170651
0.695191 0.406391 0.172800
0.712507 0.418239 0.176836
0.730776 0.428293 0.180872
0.749785 0.436951 0.184908
0.767736 0.445976 0.191833
0.785053 0.455220 0.200492
0.802549 0.466031 0.212910
0.820126 0.477553 0.227036
0.836189 0.491468 0.237940
0.851748 0.506181 0.247771
0.862176 0.527452 0.266698
0.871420 0.550237 0.287726
0.878329 0.577864 0.306987
0.884904 0.606183 0.325996
0.880738 0.632304 0.335302
0.875855 0.658279 0.343960
0.033046 0.289597 0.140384
0.074775 0.296758 0.131661
0.119377 0.303826 0.123918
0.207067 0.309489 0.130884
0.295082 0.315405 0.138801
0.385376 0.323087 0.153384
0.467406 0.333027 0.166538
0.513627 0.352752 0.173504
0.555519 0.371306 0.179623
0.584423 0.386344 0.183204
0.609137 0.401158 0.186011
0.624630 0.415480 0.187118
0.639197 0.429216 0.187224
0.652217 0.441976 0.185661
0.665322 0.451802 0.185266
0.678537 0.457856 0.186373
0.692989 0.465929 0.188945
0.708679 0.476019 0.192981
0.726382 0.484462 0.197273
0.745651 0.491623 0.201765
0.763253 0.499923 0.208780
0.779853 0.508907 0.217308
0.796901 0.520039 0.228745
0.814153 0.532148 0.241505
0.830232 0.547137 0.252800
0.845922 0.563086 0.263606
0.855422 0.582633 0.282558
0.863494 0.603009 0.303390
0.872136 0.625550 0.322855
0.880860 0.648400 0.342125
0.878293 0.668687 0.349188
0.874972 0.688803 0.355438
0.037083 0.325923 0.148456
0.081936 0.331001 0.142858
0.129598 0.336636 0.138175
0.219371 0.350633 0.147224
0.307907 0.364881 0.157094
0.387784 0.380896 0.172718
0.462133 0.397411 0.187110
0.512520 0.416095 0.196158
0.556755 0.434388 0.203580
0.582535 0.451509 0.206119
0.606077 0.466454 0.207559
0.624695 0.476609 0.206583
0.641996 0.486570 0.205777
0.657099 0.496204 0.205256
0.670465 0.504273 0.204536
0.681597 0.510327 0.203560
0.694487 0.518399 0.205089
0.709134 0.528490 0.209126
0.725210 0.535761 0.214004
0.742396 0.540839 0.219538
0.759867 0.549660 0.227594
0.777510 0.560727 0.237163
0.793451 0.572510 0.246778
0.808619 0.584618 0.256413
0.823397 0.602732 0.271613
0.838044 0.622848 0.288670
0.847350 0.639791 0.306255
0.855422 0.656000 0.323962
0.861330 0.675286 0.341213
0.866928 0.695012 0.358400
0.870025 0.706315 0.361427
0.872954 0.717056 0.363510
0.042128 0.361240 0.159556
0.103127 0.368401 0.157082
0.165924 0.376347 0.155491
0.255697 0.396072 0.167144
0.343451 0.415985 0.179359
0.417079 0.437207 0.195503
0.485178 0.457368 0.210220
0.529316 0.472927 0.218748
0.568864 0.488746 0.225519
0.594644 0.505347 0.227016
0.618348 0.519120 0.227577
0.637488 0.526671 0.226080
0.654723 0.534613 0.225144
0.668784 0.543207 0.225144
0.680653 0.550005 0.224033
0.689702 0.554497 0.221495
0.701550 0.561789 0.222504
0.716198 0.571879 0.227061
0.730808 0.578564 0.231581
0.745391 0.582600 0.236073
0.761560 0.591682 0.244389
0.778681 0.603790 0.255001
0.793744 0.617331 0.265299
0.807871 0.631523 0.275454
0.821216 0.649377 0.291957
0.834301 0.668451 0.310576
0.844160 0.683928 0.326761
0.853274 0.698576 0.342385
0.857489 0.714021 0.356642
0.861004 0.729580 0.370704
0.867388 0.737693 0.372559
0.873963 0.745309 0.373601
0.048182 0.395548 0.173683
0.138346 0.408958 0.174334
0.228355 0.422959 0.175868
0.316044 0.445809 0.190645
0.401716 0.468716 0.205594
0.473261 0.492022 0.221739
0.536542 0.512898 0.235869
0.564014 0.523249 0.241273
0.591844 0.534381 0.245439
0.620749 0.547857 0.245895
0.645951 0.559156 0.246066
0.663007 0.565666 0.245610
0.677378 0.573348 0.245325
0.687273 0.582983 0.245325
0.695886 0.589000 0.243759
0.702852 0.590367 0.240178
0.714179 0.596096 0.241187
0.729869 0.606187 0.246786
0.743177 0.612872 0.250004
0.754635 0.616908 0.251371
0.768330 0.625989 0.259167
0.783369 0.638098 0.270820
0.797780 0.654503 0.284308
0.811907 0.672861 0.298630
0.823690 0.687069 0.313831
0.834692 0.699894 0.329325
0.845852 0.715046 0.344078
0.857050 0.730735 0.358660
0.860614 0.741753 0.369141
0.863088 0.752104 0.379037
0.870383 0.762821 0.382585
0.878000 0.773563 0.385709
0.055372 0.433261 0.190080
0.161224 0.451163 0.193856
0.266361 0.469387 0.198331
0.360756 0.492433 0.213304
0.451668 0.515112 0.228131
0.518200 0.535228 0.241932
0.576701 0.553635 0.254342
0.600397 0.564637 0.260721
0.624712 0.575622 0.265799
0.650882 0.586559 0.266971
0.673553 0.595970 0.267960
0.688526 0.602024 0.268546
0.700032 0.608494 0.267813
0.705761 0.615655 0.264884
0.712401 0.620708 0.262239
0.720213 0.623052 0.259961
0.730727 0.629269 0.261556
0.743942 0.639359 0.267024
0.755400 0.647362 0.270735
0.765490 0.653742 0.273078
0.777371 0.663336 0.280793
0.790326 0.674859 0.291729
0.802878 0.689918 0.305038
0.815247 0.706583 0.319425
0.825907 0.718757 0.332738
0.835998 0.729433 0.345693
0.846776 0.743601 0.359600
0.857713 0.758574 0.373727
0.861358 0.766996 0.381531
0.863962 0.774482 0.388431
0.870594 0.784654 0.392097
0.877495 0.795005 0.395548
0.063444 0.473623 0.208243
0.174505 0.494650 0.215143
0.285370 0.515673 0.222418
0.393306 0.536636 0.235308
0.495155 0.556581 0.247791
0.554396 0.569405 0.257426
0.608144 0.582865 0.267231
0.638090 0.599075 0.277778
0.665269 0.613445 0.286501
0.684148 0.622299 0.289756
0.701155 0.630278 0.292502
0.714045 0.636332 0.294130
0.722687 0.640848 0.292096
0.724250 0.642801 0.283958
0.729913 0.646748 0.279751
0.740850 0.653258 0.280597
0.750322 0.661558 0.283234
0.758329 0.671649 0.287661
0.767509 0.681996 0.293259
0.777599 0.692542 0.299769
0.788178 0.703047 0.307744
0.799050 0.713528 0.316598
0.808802 0.723965 0.327107
0.818047 0.734381 0.338369
0.827925 0.745773 0.349339
0.838016 0.757491 0.360210
0.847101 0.770161 0.373727
0.855955 0.783051 0.387854
0.860252 0.790302 0.393835
0.863897 0.796747 0.398652
0.868641 0.803924 0.401211
0.873459 0.811150 0.403620
0.075300 0.512723 0.223883
0.189616 0.532970 0.231304
0.304176 0.553334 0.239100
0.422397 0.575468 0.252511
0.532579 0.595852 0.265173
0.586482 0.603990 0.272594
0.635356 0.613274 0.280528
0.662437 0.627531 0.290684
0.686947 0.640242 0.299472
0.703743 0.648315 0.304159
0.718871 0.656163 0.308419
0.730328 0.663519 0.311739
0.738710 0.669094 0.311739
0.741965 0.671698 0.306206
0.748524 0.677833 0.304831
0.759330 0.688510 0.308802
0.768086 0.698242 0.312805
0.774792 0.707031 0.316842
0.782669 0.716588 0.322050
0.791457 0.726744 0.328169
0.799839 0.735638 0.334695
0.807976 0.743776 0.341466
0.816069 0.752763 0.350071
0.824142 0.762138 0.359511
0.833239 0.772098 0.367974
0.842679 0.782254 0.376111
0.849421 0.791880 0.385941
0.855540 0.801385 0.396162
0.860406 0.808440 0.401541
0.865093 0.815146 0.406228
0.868560 0.821851 0.409634
0.871945 0.828556 0.412954
0.089427 0.551067 0.238010
0.205826 0.568189 0.244389
0.322859 0.585819 0.251339
0.449414 0.611077 0.266833
0.566366 0.633805 0.281187
0.616102 0.638818 0.287567
0.660029 0.644392 0.294069
0.678777 0.652400 0.301100
0.697298 0.660423 0.307805
0.715136 0.668496 0.313534
0.730654 0.676995 0.319161
0.741070 0.686435 0.324564
0.750753 0.694873 0.328600
0.759216 0.701644 0.330358
0.767793 0.711946 0.334451
0.776517 0.726789 0.341547
0.784752 0.737563 0.347113
0.792499 0.744268 0.351149
0.799660 0.751156 0.354600
0.806365 0.758187 0.357594
0.812013 0.763957 0.361647
0.817025 0.768969 0.366334
0.824142 0.778413 0.373572
0.832214 0.789870 0.381970
0.840530 0.798008 0.387829
0.848928 0.805039 0.392842
0.852936 0.810694 0.397008
0.855931 0.816033 0.400979
0.861318 0.823478 0.406488
0.867046 0.831225 0.412217
0.869602 0.838972 0.417641
0.871945 0.846719 0.423044
0.106329 0.585249 0.252136
0.237700 0.602826 0.259623
0.368218 0.620586 0.267606
0.485919 0.641093 0.283034
0.594782 0.659630 0.297381
0.641784 0.664382 0.304151
0.682866 0.669781 0.310922
0.698295 0.677984 0.317692
0.713512 0.686154 0.323925
0.728095 0.694226 0.328547
0.741273 0.702482 0.333393
0.751364 0.711140 0.338732
0.761186 0.719579 0.343581
0.770560 0.727651 0.347618
0.779052 0.738002 0.352793
0.786408 0.751282 0.359433
0.794122 0.761308 0.365130
0.802195 0.768078 0.369882
0.809132 0.775251 0.373902
0.815186 0.782738 0.377352
0.819979 0.788068 0.381169
0.824015 0.792104 0.385205
0.829842 0.801198 0.391524
0.836482 0.812590 0.398880
0.844196 0.819979 0.403209
0.852269 0.826033 0.406529
0.856004 0.830448 0.409373
0.858738 0.834484 0.412107
0.863751 0.842679 0.417747
0.869089 0.851467 0.423801
0.871986 0.858913 0.429184
0.874720 0.866269 0.434522
0.124492 0.617539 0.266263
0.276695 0.637199 0.275833
0.425701 0.656391 0.285704
0.526736 0.668565 0.300091
0.620757 0.679941 0.313656
0.665676 0.685735 0.321468
0.704870 0.692566 0.329280
0.719257 0.703894 0.337092
0.732391 0.714407 0.343586
0.741766 0.722480 0.346124
0.751364 0.730084 0.349213
0.761454 0.736659 0.353509
0.770886 0.743796 0.357708
0.779218 0.751868 0.361744
0.786668 0.760396 0.366008
0.792983 0.769510 0.370565
0.800177 0.777973 0.375741
0.808249 0.785785 0.381535
0.815186 0.794586 0.387182
0.821241 0.804156 0.392716
0.826033 0.810267 0.397313
0.830070 0.814303 0.401350
0.834464 0.822681 0.406952
0.839021 0.833032 0.413267
0.846214 0.840160 0.416555
0.854287 0.846214 0.418833
0.858868 0.850629 0.422328
0.862644 0.854665 0.426104
0.866876 0.863771 0.431873
0.871172 0.873601 0.437928
0.874981 0.880136 0.442334
0.878756 0.886450 0.446631
0.144168 0.642260 0.277363
0.306267 0.662441 0.289015
0.463898 0.681992 0.300774
0.554518 0.692082 0.314120
0.638871 0.701766 0.326708
0.679363 0.708601 0.334000
0.714912 0.716132 0.341291
0.729039 0.726679 0.348582
0.741847 0.736606 0.354555
0.750701 0.744679 0.356573
0.759452 0.752121 0.359466
0.767981 0.758175 0.364283
0.776045 0.764693 0.368808
0.783336 0.771984 0.372844
0.790086 0.779617 0.376880
0.796140 0.787690 0.380916
0.803204 0.795762 0.385962
0.811276 0.803834 0.392016
0.817774 0.812163 0.397631
0.823047 0.820691 0.402904
0.828035 0.827388 0.407404
0.832853 0.832987 0.411440
0.838207 0.840600 0.416327
0.843806 0.849128 0.421600
0.850088 0.855800 0.425603
0.856598 0.861855 0.429184
0.861098 0.866904 0.433135
0.865134 0.871721 0.437171
0.870537 0.879786 0.442289
0.876136 0.888314 0.447562
0.880270 0.893790 0.451676
0.884306 0.899063 0.455712
0.164349 0.664459 0.287453
0.332698 0.684640 0.301189
0.495667 0.704191 0.314836
0.577954 0.714281 0.327140
0.654365 0.724095 0.338687
0.689649 0.731972 0.344936
0.720966 0.739959 0.351186
0.735093 0.748422 0.357436
0.748162 0.756787 0.362627
0.758057 0.764860 0.364645
0.766874 0.772302 0.367864
0.773319 0.778356 0.373723
0.779690 0.784483 0.378898
0.785940 0.790733 0.382934
0.792104 0.797780 0.386971
0.798158 0.805852 0.391007
0.805222 0.813925 0.396052
0.813294 0.821997 0.402106
0.819206 0.829154 0.407135
0.823438 0.835599 0.411367
0.828686 0.842817 0.415476
0.834545 0.850499 0.419513
0.841657 0.857330 0.423683
0.849339 0.863775 0.427914
0.854580 0.869927 0.433220
0.859007 0.875981 0.438884
0.863116 0.881877 0.443225
0.867152 0.887736 0.447261
0.874378 0.894108 0.451468
0.882060 0.900553 0.455700
0.886324 0.904922 0.459748
0.890360 0.909154 0.463785
0.220604 0.694857 0.299183
0.371505 0.712499 0.312464
0.517545 0.729563 0.325565
0.590652 0.737961 0.335981
0.658804 0.746107 0.345746
0.692265 0.752487 0.350954
0.721943 0.759343 0.356321
0.735223 0.768261 0.362375
0.747494 0.776545 0.367632
0.756739 0.782925 0.370496
0.765515 0.789468 0.374093
0.773262 0.796368 0.379301
0.780374 0.803269 0.384387
0.786428 0.810169 0.389269
0.792483 0.817583 0.393782
0.798537 0.825655 0.397818
0.805600 0.832881 0.402440
0.813673 0.839261 0.407648
0.819475 0.845458 0.412197
0.823511 0.851512 0.416233
0.829337 0.858299 0.420798
0.836238 0.865525 0.425681
0.843362 0.872527 0.430563
0.850588 0.879428 0.435446
0.857961 0.885694 0.440572
0.865382 0.891748 0.445780
0.870741 0.897115 0.450036
0.875623 0.902323 0.454072
0.881816 0.906790 0.457368
0.888196 0.911152 0.460558
0.892379 0.913621 0.464541
0.896415 0.915965 0.468578
0.285183 0.727147 0.311292
0.413169 0.741664 0.323531
0.537140 0.755669 0.335525
0.600873 0.761983 0.343858
0.660692 0.768046 0.351670
0.693112 0.772342 0.355837
0.721747 0.777701 0.360357
0.733986 0.787661 0.366411
0.745216 0.796205 0.371928
0.753419 0.800502 0.375834
0.762130 0.805938 0.379822
0.771960 0.813880 0.383988
0.780374 0.821822 0.388814
0.786428 0.829765 0.394738
0.792483 0.837764 0.399836
0.798537 0.845836 0.403872
0.805600 0.852021 0.407974
0.813673 0.856317 0.412140
0.819475 0.861602 0.416233
0.823511 0.867657 0.420269
0.829988 0.873792 0.425485
0.837931 0.879977 0.431410
