其他预设/【236】赛博朋克风调色预设/【后期菌】视频调色预设/CUBE/Sunset 08_S.cube
# LUT by SparkleStock. Enhanced with VOXCOLOR algorithms.
LUT_3D_SIZE 8
DOMAIN_MIN 0.000000 0.000000 0.000000
DOMAIN_MAX 0.903226 0.903226 0.903226
0.011730 0.011730 0.023460
0.076562 0.011730 0.043515
0.180242 0.016649 0.064579
0.377132 0.029641 0.090688
0.544004 0.050831 0.085012
0.664207 0.053354 0.104058
0.739381 0.062561 0.117933
0.796519 0.066471 0.123356
0.035695 0.073156 0.067985
0.187944 0.048955 0.088984
0.376433 0.058810 0.109889
0.528897 0.077774 0.090436
0.627507 0.084642 0.096486
0.716047 0.098004 0.109022
0.788979 0.113897 0.125891
0.832845 0.151736 0.142744
0.053354 0.171791 0.122852
0.290379 0.136128 0.152204
0.504472 0.145934 0.098435
0.584114 0.173500 0.084284
0.653490 0.190100 0.085159
0.738588 0.220099 0.102545
0.815382 0.252193 0.129329
0.865207 0.326961 0.146316
0.118563 0.309274 0.202315
0.379045 0.304839 0.176169
0.583190 0.298341 0.105710
0.643859 0.329959 0.096596
0.693596 0.356309 0.107830
0.764884 0.396194 0.121851
0.842142 0.434229 0.144343
0.889494 0.519376 0.178313
0.220351 0.465929 0.272822
0.486220 0.528173 0.185421
0.648083 0.539211 0.158421
0.677060 0.545196 0.120948
0.712886 0.559636 0.112769
0.773689 0.592638 0.116692
0.833451 0.641947 0.151004
0.871665 0.704919 0.207913
0.305868 0.609340 0.294643
0.642216 0.656782 0.188412
0.737111 0.661432 0.185234
0.770377 0.674525 0.172751
0.789740 0.700207 0.180872
0.823299 0.729165 0.212462
0.851276 0.761629 0.255908
0.874281 0.799802 0.311479
0.411566 0.708101 0.301958
0.715221 0.745602 0.200182
0.786750 0.756202 0.210834
0.816321 0.778401 0.223798
0.833475 0.806219 0.246676
0.850234 0.831677 0.267020
0.869549 0.857900 0.277578
0.878305 0.884758 0.279194
0.526976 0.790086 0.274083
0.732167 0.818201 0.167755
0.796218 0.834940 0.187634
0.823295 0.856720 0.200512
0.840160 0.877776 0.208544
0.855109 0.894836 0.213988
0.874793 0.918309 0.238978
0.896415 0.930218 0.337731
0.023460 0.011982 0.068237
0.096682 0.011982 0.096665
0.215965 0.013968 0.136820
0.429098 0.032192 0.176864
0.566260 0.037717 0.154071
0.667190 0.041371 0.160691
0.749122 0.059282 0.173178
0.806381 0.076171 0.182260
0.021520 0.085627 0.122551
0.223718 0.050641 0.162677
0.418038 0.068084 0.194639
0.521681 0.074243 0.161826
0.613324 0.088219 0.159698
0.711425 0.105807 0.166328
0.794147 0.120458 0.172361
0.843604 0.161288 0.188179
0.066915 0.183045 0.193611
0.213104 0.175039 0.231101
0.521919 0.138715 0.188648
0.558392 0.163810 0.161365
0.636939 0.192485 0.167217
0.722272 0.217318 0.171227
0.810128 0.259488 0.200784
0.870172 0.303818 0.232572
0.139725 0.337275 0.300542
0.262923 0.369675 0.322990
0.517537 0.334101 0.207651
0.586802 0.329047 0.156400
0.651034 0.356762 0.165826
0.737086 0.389275 0.174158
0.828058 0.424996 0.183615
0.898142 0.491922 0.206316
0.253898 0.500110 0.352472
0.374711 0.559798 0.368141
0.578696 0.551376 0.236054
0.623471 0.531913 0.166014
0.676573 0.550740 0.148522
0.745099 0.575213 0.150934
0.819927 0.624849 0.172300
0.869175 0.690408 0.226074
0.340888 0.634729 0.365752
0.464166 0.671586 0.348436
0.711844 0.689526 0.239156
0.730384 0.672261 0.184675
0.743999 0.694588 0.191838
0.794109 0.722983 0.225432
0.839448 0.756668 0.263672
0.874382 0.790448 0.293963
0.445788 0.721694 0.347016
0.609863 0.759786 0.287996
0.766808 0.771751 0.231130
0.812647 0.788441 0.237362
0.816528 0.807713 0.245200
0.842740 0.836399 0.261050
0.865137 0.861523 0.269515
0.878634 0.877547 0.267834
0.548797 0.794362 0.299057
0.687112 0.824792 0.213152
0.782766 0.842951 0.195678
0.821918 0.863171 0.198632
0.840415 0.884149 0.209849
0.858278 0.902925 0.218093
0.879887 0.923011 0.263087
0.900300 0.930576 0.379631
0.015640 0.020559 0.131176
0.114088 0.011982 0.172010
0.263993 0.020999 0.232590
0.470734 0.030621 0.261751
0.589411 0.030906 0.240662
0.687594 0.041623 0.234982
0.765364 0.058663 0.234661
0.818946 0.082266 0.243336
0.031346 0.105071 0.207616
0.190411 0.064150 0.250582
0.442538 0.070727 0.272248
0.535958 0.081562 0.250852
0.614299 0.093707 0.243853
0.709599 0.107638 0.240455
0.796540 0.127848 0.239343
0.852432 0.172651 0.247654
0.069999 0.214667 0.289524
0.200077 0.212690 0.335530
0.505163 0.148437 0.274519
0.553025 0.173452 0.245632
0.634854 0.198572 0.248300
0.722420 0.227665 0.256966
0.807217 0.263414 0.265493
0.874677 0.318433 0.282165
0.158449 0.359250 0.385905
0.279146 0.403790 0.400682
0.452583 0.383901 0.349606
0.576775 0.313447 0.259064
0.648300 0.350926 0.268498
0.730071 0.378493 0.269207
0.821266 0.411251 0.275875
0.894826 0.473363 0.265979
0.274319 0.522297 0.426954
0.394085 0.578597 0.439239
0.472847 0.590567 0.397134
0.598836 0.526317 0.276907
0.672237 0.522015 0.236525
0.742034 0.547880 0.232933
0.814376 0.583590 0.239055
0.873387 0.642783 0.264850
0.361692 0.647883 0.418215
0.472526 0.683398 0.403963
0.599042 0.715811 0.384249
0.690923 0.690715 0.263347
0.728815 0.694121 0.237288
0.775032 0.719570 0.258539
0.824943 0.740675 0.285075
0.876274 0.754569 0.294590
0.474034 0.732192 0.385307
0.597853 0.766967 0.353604
0.691586 0.797175 0.305887
0.797229 0.808157 0.259421
0.809594 0.822251 0.258627
0.833854 0.844795 0.265535
0.843509 0.850103 0.267636
0.881690 0.860223 0.277407
0.569959 0.806129 0.327058
0.661532 0.835091 0.272626
0.750865 0.853189 0.213226
0.816262 0.874709 0.206747
0.843554 0.895337 0.214008
0.862783 0.910106 0.233721
0.869543 0.918589 0.291895
0.901644 0.922597 0.399009
0.016397 0.032037 0.229559
0.134814 0.017764 0.268900
0.323498 0.028070 0.337149
0.507385 0.034580 0.347597
0.622767 0.033608 0.326371
0.711726 0.040606 0.313933
0.782730 0.059282 0.307130
0.829276 0.089553 0.298479
0.036704 0.122396 0.321509
0.145147 0.102051 0.360801
0.462106 0.081171 0.378918
0.562831 0.080001 0.340446
0.639061 0.091929 0.332066
0.722049 0.109457 0.323411
0.807274 0.138117 0.313824
0.850274 0.184400 0.310132
0.082925 0.233624 0.404015
0.194533 0.245738 0.443881
0.447609 0.211008 0.416734
0.574121 0.178214 0.343634
0.646591 0.204718 0.338561
0.730016 0.233905 0.340723
0.815759 0.274181 0.340041
0.873015 0.337106 0.338544
0.182321 0.389135 0.475621
0.295170 0.429325 0.487932
0.461718 0.417810 0.450742
0.582203 0.339197 0.359636
0.654681 0.356100 0.348768
0.734632 0.385517 0.346015
0.818405 0.418129 0.347352
0.891174 0.467310 0.340559
0.297613 0.541526 0.508228
0.412480 0.595208 0.505602
0.491222 0.605585 0.472928
0.572229 0.567669 0.422053
0.686353 0.511345 0.343287
0.746552 0.533659 0.332167
0.813129 0.562182 0.337506
0.878512 0.602286 0.347638
0.398432 0.665721 0.485227
0.512327 0.700003 0.464523
0.610863 0.725226 0.440370
0.645480 0.731021 0.397328
0.733787 0.709590 0.318243
0.774021 0.714339 0.317225
0.811773 0.717380 0.339934
0.876467 0.734475 0.351142
0.494849 0.741945 0.426450
0.612987 0.782317 0.390402
0.686858 0.805475 0.352880
0.741550 0.832693 0.317253
0.801181 0.836122 0.271933
0.817306 0.844771 0.285740
0.830630 0.845686 0.297748
0.886699 0.847313 0.329913
0.592670 0.815023 0.350393
0.668620 0.846682 0.313802
0.736216 0.865122 0.271870
0.794764 0.885145 0.226783
0.844112 0.899789 0.218675
0.855200 0.917204 0.256328
0.862514 0.918343 0.345799
0.904048 0.922198 0.453539
0.023460 0.045029 0.348501
0.146760 0.027619 0.382426
0.366550 0.033429 0.444873
0.555218 0.043825 0.428089
0.660557 0.041379 0.407917
0.742335 0.051482 0.386792
0.803293 0.061288 0.365492
0.843993 0.092853 0.347085
0.036647 0.136417 0.425758
0.108224 0.142931 0.476023
0.476976 0.096845 0.482627
0.615971 0.078196 0.419215
0.678696 0.088101 0.401697
0.752592 0.107228 0.382618
0.819895 0.138176 0.366272
0.861978 0.199929 0.352486
0.105059 0.254142 0.511714
0.186508 0.279537 0.540912
0.362174 0.288829 0.543541
0.608025 0.193943 0.434226
0.687668 0.200325 0.410532
0.760059 0.238853 0.410624
0.832834 0.294740 0.394688
0.876892 0.367786 0.384768
0.196891 0.398941 0.560698
0.328579 0.455719 0.580369
0.458939 0.484832 0.567542
0.573894 0.439789 0.491288
0.687400 0.376003 0.418873
0.759684 0.408364 0.415134
0.829444 0.442730 0.410569
0.892124 0.484099 0.403936
0.321712 0.563025 0.581095
0.443083 0.612398 0.577264
0.534592 0.636375 0.552789
0.615420 0.603374 0.503705
0.715470 0.559343 0.437074
0.773195 0.557658 0.402623
0.818280 0.575350 0.414228
0.877764 0.604792 0.429761
0.429636 0.677988 0.552223
0.544477 0.708009 0.512970
0.640323 0.739741 0.491688
0.679717 0.758803 0.450641
0.733645 0.757106 0.424719
0.781873 0.731783 0.383651
0.816760 0.723615 0.406672
0.878252 0.738946 0.414729
0.531672 0.760055 0.462649
0.632463 0.787061 0.423280
0.697187 0.818082 0.386354
0.750258 0.839822 0.348328
0.781156 0.858240 0.323216
0.803826 0.852594 0.314787
0.829806 0.842668 0.357771
0.888002 0.843130 0.395900
0.601044 0.826664 0.373943
0.673320 0.851040 0.334639
0.729252 0.874482 0.305877
0.779085 0.892568 0.261473
0.820765 0.912272 0.240619
0.843588 0.917648 0.290344
0.861348 0.919657 0.408904
0.907304 0.922525 0.531309
0.019550 0.059786 0.454325
0.086884 0.058110 0.497307
0.342015 0.051047 0.530309
0.592858 0.046559 0.502893
0.697473 0.054383 0.477805
0.764286 0.057797 0.443913
0.818213 0.059628 0.414357
0.856618 0.083373 0.392138
0.042128 0.150475 0.523103
0.115147 0.161001 0.560324
0.423680 0.118759 0.569105
0.656937 0.087780 0.497518
0.738644 0.087105 0.445662
0.788191 0.106509 0.416139
0.838463 0.143738 0.397232
0.866957 0.205862 0.376868
0.115972 0.264066 0.589521
0.202753 0.287499 0.612003
0.347439 0.319507 0.624022
0.668302 0.220465 0.507170
0.753263 0.195706 0.449258
0.805638 0.246962 0.438448
0.852397 0.316764 0.419989
0.879806 0.395430 0.416160
0.208991 0.411290 0.627108
0.338999 0.458938 0.637725
0.474572 0.514656 0.638971
0.605579 0.524607 0.596744
0.745826 0.419793 0.485709
0.811747 0.443766 0.439629
0.851833 0.488064 0.442250
0.893404 0.521804 0.447940
0.346303 0.582136 0.636332
0.470831 0.626861 0.626497
0.587206 0.666319 0.608716
0.663049 0.674354 0.576536
0.734739 0.648241 0.522998
0.817250 0.609548 0.447763
0.832816 0.614000 0.469766
0.877654 0.635110 0.507207
0.454565 0.696875 0.603172
0.558956 0.719399 0.563286
0.658245 0.751613 0.523838
0.719652 0.781987 0.486518
0.767889 0.795257 0.455557
0.785090 0.766597 0.461509
0.820342 0.738417 0.495463
0.878703 0.740175 0.510355
0.541717 0.770898 0.507695
0.642254 0.797704 0.448750
0.705395 0.822091 0.407628
0.747009 0.851305 0.374432
0.781957 0.870432 0.347150
0.790480 0.864560 0.360596
0.831270 0.853326 0.396836
0.890892 0.848085 0.475433
0.624529 0.832779 0.396939
0.692977 0.859210 0.349192
0.741505 0.880062 0.312134
0.783495 0.899568 0.290635
0.822285 0.916654 0.276856
0.848315 0.923076 0.336297
0.865836 0.923084 0.478604
0.912162 0.924914 0.614510
0.018037 0.072778 0.553212
0.068237 0.078551 0.588443
0.339537 0.059900 0.606874
0.629143 0.054322 0.586722
0.712401 0.057264 0.545644
0.777204 0.060938 0.503011
0.828141 0.066471 0.471991
0.867657 0.091697 0.441427
0.047271 0.164028 0.604982
0.116519 0.167429 0.627420
0.271816 0.175654 0.649711
0.644065 0.128018 0.591577
0.778056 0.092452 0.485381
0.816087 0.116545 0.451879
0.849365 0.160045 0.431529
0.880063 0.222998 0.422225
0.125065 0.273383 0.656961
0.209150 0.296587 0.666339
0.369336 0.343168 0.680342
0.676444 0.295721 0.605230
0.794745 0.235813 0.499203
0.844827 0.264837 0.451464
0.870651 0.347390 0.441579
0.884652 0.431564 0.438973
0.227162 0.414968 0.674379
0.359713 0.476560 0.688584
0.498303 0.540855 0.689656
0.630061 0.579133 0.655757
0.782896 0.488351 0.530300
0.849953 0.500618 0.457274
0.867272 0.539992 0.457782
0.894618 0.571833 0.477110
0.369780 0.596727 0.687452
0.489230 0.645955 0.669062
0.603446 0.675623 0.644507
0.687026 0.706161 0.614626
0.755197 0.719874 0.566986
0.833016 0.665513 0.483827
0.847167 0.661603 0.509180
0.874240 0.675669 0.546761
0.473887 0.704773 0.642574
0.585462 0.731667 0.601446
0.670180 0.765606 0.558151
0.725121 0.793422 0.513124
0.771524 0.816919 0.472353
0.793585 0.810655 0.464844
0.831044 0.777048 0.516614
0.881953 0.777060 0.555682
0.574817 0.780537 0.533344
0.658630 0.807297 0.477553
0.716964 0.833480 0.425182
0.759338 0.858421 0.387805
0.796747 0.882426 0.357615
0.813374 0.887231 0.362451
0.844656 0.876119 0.424795
0.895564 0.867446 0.540313
0.646443 0.848485 0.412954
0.704574 0.865893 0.363327
0.755732 0.888814 0.324434
0.792540 0.905484 0.299027
0.831193 0.924990 0.297295
0.861707 0.931075 0.373732
0.882370 0.935064 0.546311
0.917850 0.935701 0.689116
0.023460 0.083877 0.631918
0.061060 0.092352 0.662580
0.235605 0.071818 0.664256
0.608966 0.064022 0.649995
0.728709 0.060970 0.601471
0.794497 0.068359 0.555161
0.838866 0.074942 0.521500
0.873540 0.100905 0.489519
0.048561 0.172686 0.675445
0.121385 0.179057 0.687847
0.246114 0.193103 0.700326
0.613336 0.157199 0.670104
0.785802 0.109803 0.545729
0.828633 0.133634 0.509290
0.860389 0.179696 0.481321
0.885882 0.236974 0.462104
0.129289 0.285362 0.711331
0.235412 0.307991 0.718138
0.380410 0.356185 0.725902
0.557054 0.396926 0.719970
0.781342 0.303849 0.587948
0.852526 0.290837 0.498861
0.877659 0.379770 0.482220
0.891211 0.474571 0.465251
0.243865 0.427027 0.723741
0.370733 0.481367 0.731818
0.513464 0.552215 0.728164
0.644991 0.600746 0.700888
0.770176 0.566629 0.601902
0.847211 0.554112 0.509264
0.884007 0.590335 0.465121
0.895329 0.637322 0.472112
0.384538 0.601618 0.723033
0.516877 0.652716 0.703004
0.625568 0.692941 0.681293
0.695866 0.720863 0.645791
0.750110 0.744813 0.599913
0.838208 0.717916 0.521286
0.865446 0.719886 0.514135
0.878312 0.741720 0.550923
0.500175 0.716238 0.675750
0.598310 0.741745 0.632239
0.681483 0.774335 0.585787
0.736575 0.803501 0.532838
0.775882 0.831852 0.479230
0.812331 0.851263 0.444250
0.847457 0.833421 0.482883
0.882500 0.832907 0.523933
0.588813 0.789582 0.561683
0.670493 0.819178 0.495559
0.724939 0.843139 0.441002
0.766076 0.869355 0.397224
0.802887 0.891079 0.361790
0.830030 0.908902 0.340394
0.858657 0.906688 0.402540
0.901088 0.899470 0.563826
0.653575 0.855760 0.431410
0.709336 0.878413 0.380831
0.757401 0.895710 0.341006
0.797858 0.912962 0.312451
0.836009 0.929289 0.326770
0.872002 0.938019 0.429765
0.904301 0.946685 0.599534
0.925744 0.948615 0.743823
