其他预设/【236】赛博朋克风调色预设/【后期菌】视频调色预设/CUBE/Sunset 10.cube
# LUT by SparkleStock. Enhanced with VOXCOLOR algorithms.
LUT_3D_SIZE 32
0.027370 0.027370 0.027370
0.033425 0.029389 0.029389
0.039479 0.031281 0.031281
0.045533 0.031281 0.031281
0.052597 0.031785 0.031785
0.066723 0.035821 0.035821
0.083877 0.040614 0.040614
0.114149 0.048687 0.048687
0.146943 0.056759 0.057264
0.187305 0.064831 0.067354
0.226406 0.072904 0.076814
0.262731 0.080976 0.084886
0.301328 0.090562 0.092959
0.343708 0.102671 0.101031
0.382556 0.113014 0.109104
0.416864 0.121086 0.117176
0.446126 0.127140 0.123230
0.470343 0.131176 0.127266
0.491155 0.135213 0.132438
0.509318 0.139249 0.138492
0.527481 0.143285 0.143285
0.545644 0.147321 0.147321
0.559644 0.151357 0.151357
0.571753 0.155394 0.155394
0.582348 0.159430 0.159430
0.592438 0.163466 0.163466
0.602529 0.169142 0.167502
0.612619 0.175196 0.171538
0.620944 0.175953 0.173809
0.629016 0.175953 0.175827
0.637089 0.179737 0.179737
0.645161 0.183773 0.183773
0.031407 0.031407 0.033425
0.040586 0.033425 0.034401
0.049830 0.035382 0.035382
0.060051 0.036423 0.036423
0.071931 0.038230 0.038230
0.095433 0.045391 0.045391
0.120203 0.052528 0.052528
0.150475 0.059558 0.059558
0.184050 0.067110 0.067354
0.227537 0.076224 0.077445
0.270088 0.085663 0.087230
0.310580 0.095819 0.096344
0.349436 0.105535 0.104677
0.385567 0.114519 0.111708
0.419077 0.123104 0.118738
0.449218 0.131176 0.125769
0.474835 0.137231 0.132344
0.495928 0.141267 0.138464
0.514786 0.145303 0.143375
0.531908 0.149339 0.147346
0.548378 0.154027 0.152008
0.564458 0.159104 0.157086
0.575659 0.162034 0.160732
0.584643 0.163987 0.163726
0.594457 0.168283 0.166721
0.604547 0.173361 0.169716
0.613791 0.177540 0.172710
0.622840 0.181511 0.175705
0.631035 0.183830 0.178756
0.639107 0.185913 0.181816
0.646203 0.188851 0.183838
0.653234 0.191846 0.185791
0.035443 0.035821 0.039353
0.047812 0.037774 0.039353
0.060331 0.039739 0.039495
0.075109 0.041888 0.041774
0.092108 0.045021 0.045029
0.124658 0.055046 0.055119
0.156842 0.064339 0.064453
0.187439 0.070459 0.070507
0.221991 0.077587 0.077587
0.268407 0.087743 0.087743
0.314091 0.098468 0.097837
0.358164 0.110446 0.107797
0.396939 0.120227 0.116293
0.426885 0.126347 0.122347
0.455094 0.133264 0.128402
0.481069 0.141206 0.134456
0.503072 0.147195 0.141422
0.521105 0.151231 0.149299
0.538039 0.155231 0.153953
0.554119 0.159202 0.156102
0.568897 0.164516 0.160691
0.582893 0.170635 0.166745
0.591474 0.172592 0.169980
0.597594 0.172657 0.171933
0.606691 0.177166 0.174033
0.616782 0.183155 0.176181
0.625127 0.185917 0.178171
0.633069 0.187936 0.180124
0.641125 0.191890 0.183785
0.649197 0.196122 0.187691
0.655256 0.198400 0.187997
0.661180 0.200549 0.188062
0.039479 0.045912 0.043389
0.056014 0.046823 0.043389
0.073091 0.047942 0.043792
0.098285 0.052174 0.050237
0.124919 0.056999 0.057137
0.161635 0.065983 0.067228
0.198181 0.074625 0.076562
0.233986 0.081786 0.082616
0.272443 0.089956 0.089956
0.318860 0.101153 0.101153
0.362916 0.111944 0.111313
0.401781 0.121839 0.119190
0.435348 0.130709 0.126384
0.460086 0.137870 0.132438
0.483542 0.144461 0.138492
0.505351 0.150320 0.144546
0.524230 0.155268 0.149950
0.540179 0.159304 0.154702
0.555616 0.162717 0.159161
0.570654 0.165647 0.163393
0.583739 0.171221 0.168764
0.595653 0.178382 0.174818
0.604299 0.181381 0.177336
0.611460 0.182487 0.178248
0.620818 0.186475 0.181649
0.630908 0.191422 0.185881
0.637561 0.193990 0.187415
0.643420 0.196008 0.188326
0.651216 0.202697 0.190035
0.659288 0.210053 0.191858
0.663393 0.214480 0.193009
0.667234 0.218712 0.194116
0.043768 0.055750 0.047678
0.064079 0.055620 0.047547
0.085314 0.055892 0.048064
0.120402 0.062207 0.058285
0.156378 0.068790 0.068538
0.198563 0.077253 0.079019
0.240382 0.085692 0.088695
0.280614 0.094025 0.094879
0.322196 0.103204 0.102480
0.367831 0.114922 0.114328
0.409642 0.125460 0.124365
0.443038 0.133402 0.130420
0.471430 0.141344 0.136425
0.491481 0.149286 0.142349
0.510648 0.155520 0.148273
0.528681 0.159556 0.154197
0.544761 0.163657 0.158299
0.558888 0.167824 0.160577
0.572941 0.170928 0.164906
0.586937 0.173207 0.170831
0.598330 0.178944 0.176592
0.608160 0.186756 0.182256
0.616871 0.190674 0.184205
0.625074 0.192822 0.184465
0.634497 0.196582 0.188973
0.644327 0.200878 0.194897
0.649344 0.203641 0.195691
0.653250 0.206050 0.195300
0.660574 0.215066 0.195365
0.668386 0.225026 0.195495
0.671010 0.231691 0.197395
0.673289 0.238136 0.199413
0.049822 0.063822 0.053732
0.071175 0.062651 0.052560
0.093777 0.062077 0.052165
0.135115 0.070475 0.063428
0.178382 0.079271 0.074983
0.235149 0.090859 0.088589
0.288621 0.102227 0.100999
0.327811 0.112643 0.108225
0.367050 0.122604 0.116085
0.406436 0.131197 0.125850
0.441671 0.139261 0.134456
0.467776 0.146162 0.140510
0.491220 0.153062 0.146125
0.510229 0.159963 0.151008
0.528356 0.165610 0.155890
0.545347 0.169647 0.160773
0.560906 0.174269 0.165395
0.575032 0.179477 0.169756
0.588500 0.184209 0.174411
0.601455 0.188570 0.179294
0.611155 0.193786 0.182711
0.618902 0.199515 0.185250
0.627678 0.203499 0.187655
0.636922 0.206688 0.189998
0.645043 0.212271 0.194246
0.652790 0.218651 0.199129
0.656570 0.224343 0.197188
0.659434 0.229876 0.193672
0.664805 0.238372 0.194258
0.670534 0.247290 0.195430
0.674981 0.256819 0.197395
0.679343 0.266389 0.199413
0.055498 0.074544 0.060921
0.079064 0.071940 0.058513
0.104205 0.070129 0.057060
0.152965 0.080219 0.069950
0.204036 0.090790 0.083173
0.271284 0.104721 0.098732
0.333113 0.118348 0.112814
0.371457 0.130652 0.120496
0.408498 0.141393 0.128275
0.441634 0.147447 0.136348
0.470783 0.153441 0.143851
0.491159 0.159300 0.150100
0.510632 0.165305 0.155520
0.528600 0.171555 0.159556
0.545684 0.176836 0.163507
0.561634 0.180872 0.167348
0.576379 0.185917 0.172002
0.589920 0.191972 0.177471
0.602545 0.198246 0.182024
0.614459 0.204691 0.185865
0.622832 0.209752 0.187549
0.629082 0.213984 0.187940
0.637569 0.218081 0.190434
0.647074 0.222117 0.193884
0.654137 0.229473 0.197920
0.660387 0.237936 0.202152
0.663515 0.246717 0.198026
0.665924 0.255570 0.191972
0.669757 0.263740 0.191955
0.673793 0.271813 0.192802
0.679721 0.283303 0.194564
0.685776 0.295021 0.196386
0.059534 0.096743 0.073030
0.090391 0.091014 0.068538
0.123149 0.086274 0.065393
0.184408 0.096364 0.082449
0.245504 0.106805 0.098928
0.305461 0.119694 0.111362
0.361366 0.132670 0.122514
0.399710 0.146015 0.128113
0.435189 0.157538 0.134330
0.462076 0.163592 0.142402
0.487253 0.169260 0.150230
0.508671 0.174077 0.157522
0.528404 0.179822 0.163592
0.545330 0.187114 0.167628
0.561374 0.192981 0.171123
0.576281 0.197017 0.173923
0.588943 0.202062 0.176494
0.599359 0.208117 0.178838
0.610032 0.215562 0.181438
0.620903 0.224090 0.184237
0.629537 0.230584 0.186833
0.636828 0.235857 0.189307
0.643493 0.240280 0.190304
0.649873 0.244316 0.190629
0.656936 0.253235 0.194665
0.664227 0.263781 0.199938
0.669244 0.276337 0.196008
0.673736 0.289357 0.189954
0.677829 0.298048 0.184469
0.681865 0.306121 0.179066
0.687794 0.315658 0.179460
0.693848 0.325292 0.180242
0.066093 0.119951 0.086652
0.103200 0.110837 0.079817
0.142467 0.102956 0.074653
0.214142 0.113567 0.094574
0.283604 0.124365 0.113233
0.337572 0.136474 0.123063
0.388415 0.148815 0.131807
0.425717 0.162160 0.135843
0.459374 0.173748 0.140823
0.482094 0.180063 0.148635
0.504488 0.185828 0.156366
0.526167 0.190385 0.163918
0.545672 0.196065 0.170053
0.561557 0.203617 0.173829
0.576444 0.209516 0.176608
0.590050 0.213292 0.178105
0.601150 0.219118 0.179245
0.609743 0.226996 0.180026
0.618739 0.235532 0.181356
0.628048 0.244581 0.183114
0.636584 0.252246 0.186296
0.644657 0.259082 0.190332
0.650312 0.264530 0.190385
0.654869 0.269347 0.188627
0.661868 0.279047 0.191947
0.669680 0.290374 0.196960
0.676063 0.304981 0.192558
0.682118 0.320345 0.185983
0.686634 0.329784 0.176331
0.690931 0.338378 0.166241
0.697119 0.346971 0.165366
0.703434 0.355564 0.165106
0.080219 0.146186 0.104815
0.120451 0.132906 0.094855
0.162909 0.121249 0.086697
0.238750 0.133943 0.105576
0.311597 0.146565 0.123194
0.363482 0.158673 0.131982
0.411851 0.170428 0.139880
0.444987 0.180648 0.143916
0.476040 0.190153 0.148635
0.500843 0.197509 0.155406
0.524018 0.204642 0.161769
0.543613 0.211282 0.167238
0.561426 0.217483 0.171681
0.576269 0.222951 0.174415
0.589659 0.227223 0.175697
0.601182 0.229958 0.175111
0.612282 0.238909 0.176771
0.622958 0.254077 0.180677
0.631108 0.263460 0.182789
0.637292 0.268342 0.183505
0.644657 0.276398 0.186296
0.652729 0.286359 0.190332
0.659817 0.294931 0.191101
0.666457 0.302874 0.190385
0.673195 0.311011 0.190841
0.679965 0.319214 0.191687
0.686154 0.330696 0.184811
0.692208 0.342935 0.176152
0.697636 0.353806 0.166241
0.702974 0.364483 0.156150
0.710204 0.375159 0.154299
0.717561 0.385835 0.152997
0.096869 0.173683 0.124239
0.141853 0.159816 0.110503
0.188782 0.147496 0.098618
0.264884 0.158368 0.114503
0.337779 0.169435 0.129411
0.388232 0.181869 0.137483
0.434778 0.193424 0.144738
0.464399 0.201171 0.148448
0.493010 0.208918 0.152664
0.518595 0.216665 0.158392
0.541758 0.224514 0.163592
0.559595 0.232586 0.167628
0.576041 0.239633 0.170908
0.590168 0.244971 0.172926
0.602387 0.248999 0.173321
0.612152 0.251343 0.171628
0.622926 0.261954 0.173483
0.634709 0.280833 0.178887
0.642500 0.290411 0.181067
0.647188 0.292755 0.180742
0.654194 0.301201 0.182736
0.662592 0.313310 0.186121
0.670318 0.323360 0.186955
0.677740 0.332474 0.186629
0.683892 0.339537 0.185035
0.689621 0.345917 0.183016
0.696143 0.355312 0.175762
0.702848 0.365402 0.167299
0.709269 0.377543 0.158266
0.715648 0.389977 0.149152
0.723310 0.401801 0.146385
0.731057 0.413584 0.144042
0.119068 0.203954 0.146438
0.172385 0.197379 0.127494
0.226605 0.191243 0.110271
0.294374 0.191699 0.118864
0.359979 0.193782 0.127393
0.410431 0.207258 0.135465
0.456587 0.219464 0.142524
0.484124 0.226170 0.145193
0.510652 0.232875 0.148367
0.534154 0.239580 0.153054
0.555559 0.246713 0.157538
0.572355 0.254785 0.161574
0.588150 0.263395 0.164854
0.602277 0.272899 0.166872
0.614039 0.279727 0.167722
0.622763 0.283112 0.167071
0.632495 0.292161 0.168406
0.643237 0.306873 0.171726
0.651745 0.315214 0.172409
0.658515 0.318599 0.171042
0.666954 0.327437 0.171343
0.676393 0.339545 0.172645
0.683013 0.347447 0.172112
0.688351 0.353436 0.170745
0.693201 0.360499 0.168890
0.697888 0.367921 0.166872
0.705908 0.377511 0.163849
0.714696 0.387601 0.160594
0.722289 0.400654 0.154946
0.729710 0.414130 0.148957
0.736460 0.425042 0.145409
0.743165 0.435783 0.142024
0.142024 0.234226 0.166367
0.202892 0.233770 0.142215
0.263793 0.232842 0.119629
0.325183 0.224835 0.120541
0.385010 0.219448 0.122494
0.433900 0.232403 0.131738
0.478395 0.244064 0.139554
0.503850 0.250118 0.141182
0.528392 0.256270 0.143216
0.550201 0.262715 0.146471
0.569995 0.269669 0.149848
0.585359 0.277741 0.153494
0.600405 0.287327 0.156529
0.614922 0.299436 0.158547
0.626620 0.307842 0.159682
0.634692 0.311487 0.159682
0.643774 0.319364 0.160496
0.653864 0.331473 0.162123
0.662820 0.339480 0.162140
0.670892 0.344298 0.160903
0.679738 0.352940 0.160195
0.689047 0.363876 0.159804
0.694999 0.370338 0.158563
0.699426 0.374764 0.156936
0.703853 0.381925 0.155308
0.708280 0.389998 0.153681
0.716991 0.400027 0.154010
0.726691 0.410508 0.154792
0.734967 0.423838 0.152725
0.743039 0.437574 0.150251
0.748487 0.448258 0.145946
0.753760 0.458739 0.141519
0.166241 0.264497 0.182512
0.233359 0.268208 0.153152
0.299924 0.270861 0.125163
0.358188 0.257645 0.117741
0.414760 0.247311 0.112794
0.459484 0.257141 0.125163
0.500204 0.266263 0.135323
0.523575 0.272317 0.135908
0.546295 0.278730 0.136641
0.567062 0.286216 0.137813
0.585489 0.293886 0.139432
0.598769 0.301958 0.142036
0.612904 0.311544 0.144420
0.628463 0.323653 0.146438
0.640747 0.331603 0.147574
0.648819 0.334207 0.147574
0.657901 0.341563 0.147867
0.667991 0.353672 0.148452
0.676946 0.362851 0.149185
0.685019 0.369752 0.150031
0.692562 0.377222 0.149453
0.699788 0.385034 0.148021
0.705806 0.391235 0.147171
0.711274 0.396703 0.146585
0.716743 0.404124 0.145999
0.722211 0.412197 0.145413
0.730271 0.423073 0.147631
0.738930 0.434595 0.150495
0.747075 0.447143 0.152334
0.755148 0.459838 0.154027
0.758643 0.471434 0.149006
0.761833 0.482957 0.143537
0.197522 0.296535 0.198657
0.269066 0.301222 0.164544
0.339472 0.304635 0.131722
0.392789 0.288946 0.118246
0.444340 0.276057 0.107822
0.483530 0.282762 0.118759
0.519535 0.289431 0.127730
0.541734 0.295941 0.128186
0.563314 0.302727 0.128642
0.583040 0.310344 0.129097
0.600812 0.318388 0.130041
0.614288 0.327372 0.132059
0.628422 0.337356 0.134248
0.643656 0.349009 0.136722
0.655358 0.356248 0.137715
0.662519 0.357810 0.136804
0.671372 0.364418 0.136576
0.681918 0.376070 0.137031
0.690560 0.385453 0.138110
0.697721 0.393070 0.139672
0.704760 0.400564 0.139851
0.711726 0.407986 0.139200
0.717439 0.414467 0.138997
0.722581 0.420522 0.138997
0.728750 0.428773 0.139680
0.735260 0.437757 0.140592
0.742299 0.448539 0.143301
0.749460 0.459736 0.146426
0.756621 0.471332 0.149950
0.763782 0.482985 0.153530
0.765694 0.493356 0.149787
0.767256 0.503642 0.145555
0.237884 0.330842 0.214802
0.311512 0.332405 0.176523
0.383415 0.332954 0.139599
0.429440 0.318306 0.122998
0.473700 0.305937 0.108929
0.505599 0.309518 0.112574
0.535679 0.313843 0.115817
0.557878 0.321395 0.117314
0.579199 0.328702 0.118812
0.597882 0.335277 0.120309
0.615915 0.343256 0.121969
0.632516 0.354323 0.123987
0.647822 0.365219 0.126567
0.660972 0.375830 0.130082
0.670591 0.382027 0.130749
0.675669 0.382548 0.127755
0.684002 0.388114 0.127006
0.695589 0.398725 0.128503
0.703515 0.407066 0.129451
0.708593 0.413641 0.129972
0.716153 0.422698 0.131714
0.725202 0.433245 0.134187
0.730133 0.440703 0.134960
0.733193 0.446757 0.134960
0.739621 0.456571 0.137206
0.747173 0.467638 0.140201
0.752715 0.477118 0.141609
0.757792 0.486232 0.142650
0.762870 0.496656 0.145002
0.767948 0.507267 0.147541
0.768754 0.513667 0.147639
0.769274 0.519787 0.147574
0.276227 0.365150 0.228928
0.354543 0.359942 0.182837
0.430417 0.354339 0.138655
0.469672 0.342817 0.123096
0.507487 0.333117 0.109612
0.535220 0.336176 0.110654
0.561426 0.340078 0.111878
0.581022 0.347630 0.113897
0.600259 0.354807 0.115915
0.618421 0.360861 0.117933
0.635771 0.368157 0.119788
0.651330 0.378182 0.121285
0.665204 0.388037 0.123344
0.676271 0.397606 0.126339
0.684490 0.403445 0.126713
0.689047 0.404487 0.123718
0.696859 0.409792 0.123230
0.707926 0.419362 0.125248
0.715038 0.427540 0.126424
0.719074 0.434636 0.126945
0.725918 0.444214 0.129337
0.734446 0.455281 0.132853
0.739215 0.464334 0.134309
0.742274 0.472471 0.134830
0.748312 0.482415 0.137988
0.755343 0.492962 0.142024
0.759941 0.501921 0.143627
0.763977 0.510514 0.144668
0.767557 0.519050 0.146109
0.771073 0.527578 0.147606
0.772269 0.533360 0.151056
0.773311 0.538959 0.154637
0.312553 0.399458 0.241037
0.398160 0.383834 0.183488
0.480479 0.368791 0.128890
0.513484 0.362477 0.118539
0.545701 0.357594 0.109873
0.572392 0.362737 0.112997
0.596776 0.368136 0.115915
0.611163 0.374646 0.117933
0.626494 0.381042 0.119951
0.644657 0.387097 0.121969
0.660378 0.393090 0.123499
0.670729 0.398949 0.123954
0.680568 0.405809 0.124581
0.689551 0.414337 0.125492
0.697054 0.420501 0.125606
0.702653 0.423626 0.124695
0.709944 0.429452 0.125248
0.718928 0.437981 0.127266
0.725128 0.446875 0.129028
0.729165 0.456054 0.130591
0.734055 0.465111 0.132723
0.739459 0.474095 0.135196
0.744683 0.485361 0.137044
0.749826 0.497665 0.138606
0.754822 0.506307 0.142024
0.759770 0.513728 0.146060
0.763977 0.522948 0.149356
0.768013 0.532583 0.152480
0.770682 0.538515 0.153270
0.773156 0.543919 0.153725
0.776240 0.552434 0.160040
0.779365 0.561158 0.166745
0.350014 0.430360 0.249740
0.437639 0.410765 0.188351
0.521496 0.391922 0.130147
0.548838 0.384371 0.119731
0.575748 0.378373 0.111048
0.599640 0.383256 0.114499
0.621652 0.388688 0.117790
0.635518 0.396500 0.120394
0.649726 0.403872 0.122852
0.664960 0.409927 0.124870
0.677955 0.415716 0.126257
0.686028 0.420924 0.126257
0.693880 0.426547 0.126257
0.701367 0.432862 0.126257
0.708227 0.438693 0.126514
0.714281 0.443901 0.127100
0.720466 0.450834 0.128109
0.726780 0.459492 0.129541
0.732473 0.468956 0.131632
0.737681 0.479046 0.134236
0.741424 0.487143 0.136108
0.744288 0.494044 0.137540
0.748943 0.505107 0.140181
0.754411 0.518062 0.143371
0.758806 0.525402 0.147195
0.762842 0.530870 0.151231
0.766878 0.540094 0.155744
0.770914 0.550184 0.160366
0.773184 0.555490 0.161969
0.775203 0.560112 0.163141
0.778563 0.568762 0.169683
0.782014 0.577681 0.176584
0.388358 0.458613 0.255794
0.473899 0.440060 0.196488
0.555478 0.421803 0.139977
0.577612 0.408002 0.125395
0.599445 0.396276 0.112936
0.619170 0.399075 0.115345
0.638383 0.403400 0.117986
0.655374 0.414337 0.121631
0.670624 0.424053 0.124870
0.680649 0.430108 0.126888
0.690064 0.436548 0.128275
0.698136 0.443840 0.128275
0.705598 0.449593 0.128275
0.712043 0.452783 0.128275
0.718317 0.457767 0.128988
0.724372 0.465058 0.130615
0.728994 0.473554 0.131624
0.732184 0.483254 0.132015
0.737681 0.493173 0.134236
0.744972 0.503264 0.137882
0.748194 0.510058 0.139493
0.748975 0.514876 0.139884
0.752263 0.523856 0.143631
0.756690 0.534727 0.148904
0.760824 0.540765 0.153249
0.764860 0.545192 0.157286
0.768896 0.554221 0.162644
0.772932 0.564311 0.168308
0.775203 0.570528 0.171864
0.777221 0.576192 0.175119
0.779605 0.582954 0.179839
0.782014 0.589790 0.184656
0.430486 0.486867 0.263110
0.506132 0.465449 0.203283
0.578434 0.444523 0.146267
0.600568 0.430982 0.131425
0.622124 0.419224 0.118445
0.639636 0.419940 0.118510
0.656538 0.422304 0.119198
0.670794 0.431808 0.122583
0.683668 0.440613 0.125464
0.692391 0.447318 0.126831
0.700708 0.454654 0.128381
0.708129 0.463378 0.130334
0.715038 0.470075 0.131799
0.721092 0.473395 0.132450
0.726862 0.479079 0.133699
0.732265 0.487802 0.135717
0.736301 0.496884 0.137377
0.738970 0.506323 0.138679
0.743580 0.515030 0.141153
0.749700 0.523168 0.144538
0.752401 0.529149 0.146215
0.753052 0.533836 0.146866
0.756478 0.542238 0.151679
0.761165 0.552329 0.158384
0.764876 0.558367 0.163088
0.768261 0.563054 0.167124
0.771647 0.570016 0.171742
0.775032 0.577502 0.176494
0.777221 0.584305 0.181759
0.779239 0.591010 0.187097
0.781867 0.597105 0.191215
0.784536 0.603160 0.195251
0.474884 0.515120 0.271182
0.535948 0.488494 0.209272
0.594774 0.462946 0.150434
0.620033 0.453572 0.137674
0.644193 0.445199 0.126127
0.660663 0.443831 0.123067
0.675547 0.443722 0.121021
0.683554 0.449060 0.123364
0.692001 0.455000 0.125204
0.701766 0.462747 0.125529
0.710473 0.471125 0.127340
0.716853 0.480890 0.132417
0.723110 0.489019 0.136226
0.729165 0.494422 0.137918
0.734478 0.501734 0.139753
0.738840 0.511499 0.141772
0.742876 0.520580 0.144473
0.746587 0.528978 0.147858
0.749895 0.535472 0.150658
0.752890 0.540485 0.153001
0.755070 0.545945 0.154938
0.756763 0.551674 0.156631
0.761231 0.560401 0.162486
0.766959 0.570492 0.170232
0.770149 0.577311 0.175196
0.772493 0.583040 0.179232
0.774836 0.586811 0.182158
0.777180 0.590131 0.184827
0.779239 0.597325 0.191654
0.781257 0.605072 0.199076
0.784862 0.611232 0.203324
0.788573 0.617286 0.207360
0.513733 0.539211 0.282029
0.565227 0.510958 0.218752
0.614963 0.483831 0.158584
0.638334 0.473611 0.145043
0.660712 0.464594 0.132601
0.676141 0.464008 0.127848
0.689946 0.464558 0.124500
0.696716 0.470026 0.127234
0.703601 0.475787 0.129464
0.710827 0.482428 0.130180
0.717687 0.489922 0.131893
0.723741 0.499297 0.135799
0.729527 0.507426 0.139265
0.734865 0.513480 0.141999
0.739320 0.520674 0.144734
0.742640 0.529332 0.147468
0.746677 0.537697 0.150853
0.751429 0.545770 0.154889
0.755046 0.552378 0.158596
0.757780 0.557846 0.162046
0.760067 0.563681 0.165049
0.762085 0.569735 0.167783
0.766386 0.577087 0.173203
0.771724 0.585029 0.179843
0.774035 0.591556 0.185067
0.775337 0.597610 0.189819
0.777803 0.601548 0.194096
0.780537 0.604999 0.198262
0.782644 0.612493 0.205846
0.784662 0.620566 0.213919
0.788573 0.626746 0.220221
0.792609 0.632800 0.226406
0.550058 0.561410 0.294138
0.594261 0.533157 0.229819
0.636902 0.505835 0.168544
0.656106 0.492490 0.152920
0.674709 0.480999 0.138525
0.689096 0.482497 0.132731
0.702250 0.485129 0.128731
0.710062 0.492681 0.132507
0.716686 0.499484 0.135778
0.719746 0.504041 0.137536
0.723741 0.509778 0.138988
0.729795 0.518111 0.139770
0.735191 0.525589 0.141674
0.739487 0.531643 0.145450
0.742901 0.537925 0.149225
0.745179 0.544500 0.153001
0.749215 0.551824 0.156907
0.755009 0.559897 0.160943
0.759668 0.567676 0.165822
0.763444 0.575228 0.171355
0.766121 0.581843 0.175790
0.768139 0.587898 0.179566
0.771724 0.593102 0.183879
0.776020 0.597919 0.188436
0.777290 0.603664 0.193921
0.777550 0.609718 0.199715
0.780667 0.615350 0.206725
0.784443 0.620883 0.214016
0.786681 0.628638 0.221991
0.788699 0.636710 0.230063
0.792609 0.642891 0.239295
0.796645 0.648945 0.248605
0.577303 0.579069 0.301706
0.616558 0.551596 0.238689
0.654397 0.525007 0.178455
0.670998 0.511662 0.159967
0.687094 0.500139 0.143130
0.699658 0.501376 0.137857
0.711234 0.503748 0.134330
0.718525 0.511039 0.138366
0.724498 0.517516 0.141702
0.726516 0.521553 0.142939
0.729551 0.526850 0.144278
0.734824 0.534923 0.145840
0.739634 0.541945 0.148037
0.743670 0.547218 0.151292
0.747165 0.553175 0.154889
0.749964 0.560010 0.158925
0.754000 0.567464 0.163352
0.759273 0.575537 0.168170
0.763411 0.582291 0.173243
0.766666 0.588020 0.178516
0.769637 0.594440 0.183993
0.772436 0.601276 0.189592
0.776086 0.607261 0.195190
0.780122 0.612859 0.200789
0.781717 0.618800 0.207315
0.782498 0.624854 0.214151
0.785289 0.630908 0.222626
0.788544 0.636963 0.231479
0.791400 0.644099 0.241016
0.794200 0.651391 0.250651
0.797426 0.656790 0.259981
0.800681 0.662063 0.269290
0.601520 0.595213 0.307760
0.636609 0.568783 0.246827
0.670412 0.543235 0.188351
0.684929 0.530931 0.166737
0.698942 0.520190 0.147297
0.709423 0.520385 0.143065
0.719111 0.521715 0.140384
0.725360 0.527965 0.144420
0.730552 0.533661 0.147496
0.732570 0.537697 0.147692
0.735280 0.542995 0.148965
0.739512 0.551067 0.152611
0.743670 0.557699 0.155719
0.747706 0.561931 0.157933
0.751657 0.567757 0.160943
0.755498 0.575634 0.164980
0.759534 0.583609 0.169927
0.763765 0.591682 0.175786
0.766862 0.596678 0.180730
0.769075 0.599282 0.184961
0.772306 0.605182 0.191349
0.776147 0.613059 0.199031
0.780122 0.620802 0.206713
0.784158 0.628483 0.214395
0.786534 0.634945 0.222223
0.788357 0.640999 0.230100
0.790497 0.647053 0.239617
0.792710 0.653108 0.249512
0.796348 0.659333 0.261002
0.800189 0.665582 0.272720
0.802504 0.669940 0.281203
0.804717 0.674171 0.289471
0.635575 0.611358 0.312175
0.660574 0.585969 0.253324
0.684734 0.561410 0.196765
0.696322 0.549302 0.174566
0.707617 0.538495 0.154531
0.716861 0.536802 0.149649
0.725507 0.536721 0.146280
0.731561 0.543622 0.149470
0.736606 0.549806 0.152074
0.738625 0.553842 0.152920
0.741273 0.558875 0.155027
0.745309 0.566101 0.159910
0.749663 0.572766 0.164036
0.754546 0.578495 0.166900
0.759058 0.584879 0.171018
0.763094 0.592105 0.176746
0.766284 0.598908 0.182215
0.768627 0.605288 0.187423
0.771264 0.610166 0.193400
0.774128 0.613877 0.199975
0.777725 0.620313 0.208015
0.781761 0.628386 0.216934
0.785216 0.636458 0.225852
0.788406 0.644531 0.234771
0.791351 0.650455 0.244324
0.794216 0.655663 0.254089
0.796393 0.662246 0.265494
0.798411 0.669147 0.277277
0.801454 0.675307 0.290086
0.804644 0.681361 0.303040
0.807529 0.687904 0.322526
0.810393 0.694479 0.342446
0.671901 0.627503 0.316211
0.685442 0.603156 0.259444
0.698665 0.579573 0.204837
0.707128 0.567464 0.182638
0.715559 0.556397 0.162473
0.723761 0.552622 0.156549
0.731561 0.551043 0.152139
0.737615 0.558985 0.154287
0.742661 0.565951 0.156370
0.744679 0.569987 0.158258
0.747328 0.574695 0.161407
0.751364 0.580879 0.167331
0.756108 0.587674 0.172499
0.762032 0.595486 0.176405
0.767130 0.602586 0.182020
0.771166 0.608770 0.189832
0.773315 0.614011 0.195821
0.773575 0.618308 0.199987
0.775886 0.623446 0.207266
0.779792 0.629240 0.216966
0.783780 0.636458 0.226829
0.787816 0.644531 0.236789
