其他预设/【236】赛博朋克风调色预设/【后期菌】视频调色预设/CUBE/Sunset 07.cube
# LUT by SparkleStock. Enhanced with VOXCOLOR algorithms.
LUT_3D_SIZE 8
DOMAIN_MIN 0.000000 0.000000 0.000000
DOMAIN_MAX 0.903226 0.903226 0.903226
0.023460 0.113392 0.011730
0.076309 0.117302 0.023713
0.165989 0.113897 0.029389
0.329329 0.117302 0.062435
0.542238 0.125122 0.101788
0.697884 0.126384 0.134078
0.787816 0.130546 0.155520
0.859080 0.138618 0.171665
0.031533 0.141519 0.032290
0.147533 0.129268 0.044036
0.322298 0.126351 0.067826
0.548651 0.134155 0.113770
0.696936 0.139949 0.144612
0.792751 0.143204 0.170538
0.851569 0.149942 0.191817
0.896830 0.161448 0.205606
0.035191 0.175575 0.069498
0.232968 0.146186 0.073945
0.505424 0.147700 0.121273
0.675278 0.156683 0.149563
0.771166 0.165374 0.177479
0.833260 0.182911 0.203523
0.873207 0.207636 0.223126
0.890031 0.308163 0.250928
0.031281 0.245325 0.121086
0.276858 0.229473 0.111675
0.581872 0.242099 0.160101
0.718761 0.286232 0.202042
0.785098 0.326220 0.226463
0.829850 0.394815 0.252775
0.863490 0.449743 0.279340
0.880933 0.540729 0.311939
0.042128 0.361240 0.159556
0.343451 0.415985 0.179359
0.583735 0.488746 0.233843
0.709521 0.540037 0.268603
0.763464 0.578438 0.288714
0.798443 0.618906 0.312785
0.829919 0.673215 0.341136
0.857489 0.719900 0.366257
0.076562 0.511462 0.225144
0.535102 0.595852 0.267695
0.690154 0.640242 0.302678
0.756527 0.671742 0.327420
0.793081 0.704549 0.344464
0.815284 0.745786 0.365500
0.836486 0.779255 0.384338
0.860406 0.809702 0.404063
0.144168 0.642260 0.277363
0.638871 0.701766 0.326708
0.741847 0.736606 0.354555
0.776045 0.764693 0.368808
0.803204 0.795762 0.385962
0.828035 0.827388 0.407404
0.850088 0.855800 0.425603
0.870537 0.879786 0.442289
0.350519 0.746697 0.332986
0.678322 0.785143 0.365870
0.760372 0.809942 0.387805
0.794574 0.839692 0.407441
0.815943 0.865464 0.424004
0.840539 0.886894 0.440955
0.872018 0.912002 0.462576
0.895617 0.925929 0.478835
0.031281 0.113644 0.036452
0.092503 0.120724 0.055766
0.188566 0.113425 0.058240
0.392647 0.118970 0.090871
0.591051 0.123861 0.124744
0.720921 0.120960 0.142610
0.803708 0.122571 0.161603
0.861729 0.130570 0.178085
0.027623 0.142008 0.069482
0.183010 0.125168 0.076640
0.389062 0.125346 0.094173
0.583033 0.125614 0.124017
0.723155 0.130473 0.153152
0.808672 0.141105 0.175743
0.859379 0.145111 0.193797
0.894557 0.159852 0.212464
0.040175 0.179989 0.106520
0.167067 0.163798 0.117874
0.589058 0.138675 0.140823
0.719369 0.144734 0.165524
0.801170 0.158995 0.191130
0.856447 0.179641 0.217554
0.892451 0.206330 0.241109
0.917589 0.259354 0.263096
0.038393 0.258618 0.165252
0.142619 0.266271 0.164283
0.555620 0.241261 0.178860
0.758054 0.248276 0.210087
0.816292 0.303999 0.241135
0.852710 0.383343 0.265188
0.875488 0.453526 0.293509
0.894291 0.537386 0.326392
0.048117 0.381238 0.205150
0.143905 0.431584 0.218719
0.541157 0.477607 0.232262
0.703809 0.528256 0.266138
0.776617 0.580392 0.291982
0.804998 0.628655 0.317948
0.829045 0.681392 0.345600
0.853505 0.729687 0.367720
0.085680 0.538112 0.256136
0.229821 0.582748 0.270513
0.658619 0.649384 0.306844
0.757598 0.672856 0.327920
0.786799 0.710541 0.344167
0.813332 0.753300 0.366625
0.834422 0.785705 0.384886
0.858807 0.818766 0.405955
0.181303 0.654873 0.291209
0.474962 0.712917 0.328759
0.708482 0.737327 0.353090
0.780328 0.779505 0.373991
0.801489 0.799399 0.388239
0.827718 0.834369 0.410952
0.852898 0.865840 0.431309
0.870070 0.886073 0.445257
0.385254 0.755022 0.343455
0.620564 0.795027 0.371780
0.743218 0.819070 0.391125
0.795372 0.846082 0.411623
0.820777 0.873645 0.431500
0.850865 0.894401 0.449613
0.878533 0.916440 0.467767
0.899635 0.929701 0.487291
0.027875 0.118311 0.079337
0.105511 0.117302 0.102260
0.235044 0.117302 0.111122
0.449109 0.120553 0.133011
0.632678 0.121212 0.150727
0.750607 0.118148 0.173699
0.816391 0.120638 0.181308
0.873182 0.125073 0.195052
0.031565 0.144957 0.129289
0.151196 0.125861 0.134834
0.433636 0.125753 0.142215
0.633199 0.125830 0.158036
0.748698 0.129252 0.175705
0.818550 0.133865 0.184442
0.871526 0.146801 0.202664
0.898050 0.157817 0.217448
0.041054 0.177397 0.163397
0.142561 0.169236 0.188464
0.587456 0.132304 0.158030
0.730242 0.137110 0.178688
0.809148 0.153743 0.201951
0.862367 0.182093 0.227013
0.887617 0.212095 0.252191
0.913485 0.276354 0.276425
0.047116 0.257588 0.222776
0.142478 0.280308 0.231666
0.460051 0.264458 0.217709
0.788805 0.223051 0.235286
0.853729 0.266331 0.262007
0.878832 0.348965 0.286024
0.893745 0.445984 0.320708
0.889943 0.538195 0.340287
0.053089 0.390999 0.252124
0.140668 0.449649 0.258090
0.360718 0.502224 0.273974
0.695629 0.504379 0.280258
0.805508 0.540389 0.299924
0.825707 0.597499 0.323769
0.841659 0.662806 0.349371
0.853284 0.721147 0.369005
0.090924 0.548618 0.279938
0.244200 0.596094 0.294577
0.480521 0.647381 0.321480
0.722541 0.682527 0.330074
0.787732 0.719995 0.348855
0.808728 0.757843 0.367631
0.832808 0.793368 0.388338
0.852731 0.819979 0.406358
0.219562 0.669688 0.312484
0.446456 0.713337 0.339252
0.610739 0.758104 0.365497
0.757638 0.788417 0.379485
0.804379 0.813816 0.395805
0.827305 0.841277 0.414319
0.849388 0.863482 0.430378
0.870458 0.890670 0.448633
0.418654 0.767484 0.355462
0.582452 0.802139 0.377779
0.708862 0.827710 0.394473
0.787084 0.857237 0.417141
0.829655 0.883364 0.439550
0.858583 0.902978 0.455033
0.878663 0.916224 0.467566
0.898388 0.925314 0.492295
0.032794 0.121212 0.152240
0.119951 0.117253 0.175953
0.280699 0.114206 0.192602
0.502173 0.120309 0.199772
0.664138 0.120903 0.212613
0.766223 0.121212 0.214911
0.832340 0.123019 0.222329
0.881873 0.125464 0.227667
0.042584 0.142528 0.209960
0.117746 0.132908 0.226824
0.454452 0.125680 0.222818
0.663727 0.126680 0.216872
0.767210 0.129264 0.220990
0.830608 0.135221 0.220268
0.880448 0.141951 0.222705
0.899609 0.152865 0.227416
0.054013 0.177902 0.254997
0.122059 0.168920 0.272070
0.449076 0.146677 0.252608
0.744424 0.142003 0.216968
0.823259 0.150969 0.220314
0.864239 0.176530 0.243071
0.887822 0.220171 0.272134
0.909573 0.295873 0.299278
0.068742 0.264749 0.297544
0.133921 0.282337 0.300341
0.435253 0.284909 0.281778
0.760090 0.228170 0.258479
0.843948 0.276910 0.281212
0.877672 0.359406 0.308352
0.886739 0.466349 0.340169
0.884370 0.553062 0.362014
0.067411 0.406944 0.326346
0.144529 0.469022 0.317051
0.367119 0.524409 0.320531
0.613899 0.533200 0.320452
0.813663 0.523561 0.336313
0.845256 0.586537 0.350818
0.856238 0.657557 0.364572
0.863240 0.707877 0.374423
0.100124 0.571358 0.330220
0.272616 0.620481 0.328222
0.498427 0.660253 0.345721
0.618451 0.703461 0.357321
0.776110 0.719595 0.360379
0.820064 0.755742 0.374919
0.831504 0.789661 0.387910
0.848363 0.822878 0.407171
0.239767 0.680771 0.335550
0.479490 0.731231 0.360108
0.599649 0.768992 0.374657
0.696804 0.803569 0.393737
0.788855 0.822666 0.402283
0.829473 0.850308 0.420262
0.849043 0.872772 0.432814
0.872403 0.896484 0.451723
0.450594 0.780879 0.368303
0.593801 0.816383 0.393246
0.683639 0.839126 0.408636
0.764191 0.869111 0.425232
0.828487 0.889400 0.443556
0.865497 0.912569 0.461825
0.884333 0.921417 0.476211
0.900084 0.928476 0.508405
0.055876 0.122221 0.250749
0.134830 0.114336 0.269290
0.324039 0.113897 0.289610
0.549346 0.117302 0.287579
0.701155 0.118311 0.287966
0.788918 0.121538 0.283490
0.849596 0.125122 0.277350
0.895959 0.128198 0.267573
0.065149 0.141837 0.303472
0.098285 0.136083 0.329032
0.451079 0.127201 0.329581
0.703879 0.127701 0.296176
0.787831 0.128637 0.276816
0.842140 0.135719 0.263486
0.881392 0.141667 0.256238
0.903371 0.153928 0.255248
0.086148 0.189063 0.354172
0.123315 0.187534 0.373140
0.292740 0.179486 0.358467
0.717247 0.144019 0.277802
0.832613 0.150469 0.258780
0.865740 0.167980 0.260564
0.888247 0.222680 0.289200
0.908116 0.324060 0.324457
0.094932 0.267638 0.378898
0.162360 0.294821 0.388285
0.357198 0.332341 0.377382
0.638631 0.331465 0.330423
0.839068 0.280162 0.306382
0.877121 0.396117 0.336955
0.880427 0.491023 0.364851
0.878439 0.582063 0.380302
0.088133 0.422389 0.397541
0.181339 0.483013 0.388412
0.371263 0.539757 0.369544
0.621796 0.561011 0.360558
0.788472 0.567483 0.368883
0.836932 0.609042 0.372455
0.855501 0.665727 0.376372
0.861087 0.713529 0.384737
0.119406 0.588813 0.385026
0.313960 0.634787 0.361080
0.513059 0.679819 0.373182
0.622710 0.718018 0.380418
0.729042 0.750794 0.387915
0.816509 0.767006 0.385473
0.836519 0.798175 0.396935
0.850811 0.833457 0.416077
0.293752 0.703548 0.362603
0.495385 0.742773 0.378382
0.610712 0.784305 0.394014
0.690082 0.809982 0.406309
0.755814 0.841281 0.420275
0.815955 0.859258 0.425489
0.854526 0.879982 0.439190
0.877144 0.901821 0.456824
0.484344 0.795278 0.385001
0.606304 0.822001 0.401490
0.688647 0.850698 0.419051
0.755130 0.876649 0.433348
0.810385 0.898730 0.450618
0.863968 0.913372 0.463543
0.888082 0.922841 0.485998
0.905090 0.930599 0.533089
0.078075 0.126384 0.355312
0.112904 0.118563 0.372978
0.307475 0.118059 0.382104
0.590233 0.119076 0.385986
0.732717 0.121538 0.382397
0.806764 0.123413 0.359559
0.869532 0.123324 0.342353
0.905179 0.128149 0.324593
0.086481 0.143285 0.391882
0.118239 0.141126 0.412929
0.370330 0.126378 0.404646
0.692756 0.123735 0.380195
0.804708 0.131008 0.343057
0.849803 0.131850 0.312228
0.883292 0.140080 0.298777
0.902831 0.150860 0.281309
0.108420 0.195451 0.434990
0.144109 0.192827 0.445088
0.258510 0.188197 0.430116
0.705303 0.148317 0.353486
0.837252 0.149966 0.312050
0.867199 0.170187 0.293512
0.887765 0.222748 0.307185
0.908919 0.350263 0.348977
0.120817 0.281004 0.455838
0.178396 0.300104 0.454653
0.314592 0.335139 0.450833
0.569688 0.388110 0.418033
0.822713 0.318176 0.348873
0.876223 0.414591 0.359987
0.876340 0.524107 0.386630
0.875335 0.607225 0.399954
0.118962 0.436255 0.466633
0.233151 0.496514 0.453481
0.413439 0.562267 0.427670
0.594499 0.605814 0.413029
0.729769 0.627066 0.400396
0.838185 0.643810 0.395862
0.858185 0.687729 0.395389
0.866225 0.738409 0.401619
0.148806 0.609621 0.438501
0.337961 0.651697 0.405115
0.538716 0.693062 0.404029
0.646273 0.736555 0.407967
0.729389 0.768028 0.407210
0.792842 0.783919 0.406815
0.838063 0.801260 0.412127
0.857600 0.832816 0.426136
0.308293 0.720336 0.391654
0.525587 0.759748 0.397107
0.629883 0.790598 0.405127
0.695282 0.820707 0.416928
0.753687 0.849332 0.430006
0.800010 0.869595 0.436069
0.853105 0.888472 0.446449
0.883701 0.903909 0.464921
0.519152 0.803008 0.399519
0.625712 0.834944 0.413572
0.701366 0.857241 0.426082
0.759823 0.885003 0.442884
0.811172 0.906868 0.459924
0.861800 0.920844 0.477403
0.891124 0.927181 0.501576
0.911999 0.933834 0.561868
0.100779 0.129032 0.437423
0.126257 0.124715 0.459313
0.313416 0.119320 0.456204
0.636755 0.122726 0.468659
0.756157 0.123344 0.463394
0.830322 0.125122 0.431637
0.881954 0.128105 0.402440
0.920485 0.132942 0.382377
0.110715 0.151105 0.469810
0.137785 0.144418 0.484025
0.237202 0.141443 0.487632
0.649558 0.134125 0.469571
0.823174 0.130621 0.408017
0.864136 0.135749 0.375015
0.889905 0.142420 0.348500
0.911685 0.158329 0.329506
0.132564 0.203999 0.504273
0.162831 0.204702 0.503366
0.275236 0.202886 0.499569
0.650951 0.166245 0.454961
0.829956 0.154394 0.379837
0.878484 0.172180 0.334836
0.895538 0.235862 0.334254
0.911268 0.371841 0.373040
0.141055 0.295688 0.511625
0.204308 0.323166 0.517773
0.338107 0.359476 0.506415
0.539001 0.410330 0.486884
0.807299 0.362190 0.396385
0.876333 0.442118 0.389776
0.876501 0.555736 0.411316
0.877743 0.633869 0.421085
0.142793 0.463911 0.530280
0.269290 0.515861 0.510237
0.441820 0.573639 0.481075
0.602851 0.629947 0.459699
0.702867 0.666816 0.435812
0.824072 0.674814 0.416009
0.861982 0.711709 0.415123
0.866157 0.753025 0.413149
0.181247 0.619601 0.492746
0.388647 0.673767 0.447637
0.562474 0.714924 0.436182
0.656032 0.751308 0.429736
0.719778 0.786574 0.425107
0.778863 0.809272 0.423853
0.838333 0.816290 0.424118
0.866848 0.851702 0.442717
0.359153 0.739471 0.419647
0.541200 0.768376 0.415515
0.646825 0.803649 0.421661
0.708212 0.829743 0.427743
0.765434 0.857094 0.438684
0.807146 0.882078 0.449749
0.855663 0.898794 0.461502
0.889778 0.910981 0.482680
0.546527 0.815744 0.416286
0.648062 0.840456 0.423408
0.722294 0.867334 0.436018
0.771226 0.892533 0.450636
0.820959 0.913492 0.468301
0.863302 0.925845 0.491253
0.893766 0.933664 0.530695
0.918760 0.939756 0.607766
0.120834 0.131176 0.514615
0.141645 0.126522 0.529890
0.248767 0.121717 0.520617
0.626945 0.123393 0.526850
0.777823 0.126131 0.531419
0.850055 0.129032 0.498467
0.894921 0.130546 0.459622
0.925339 0.136682 0.434229
0.130810 0.159051 0.542604
0.154396 0.146695 0.542516
0.231829 0.152534 0.545947
0.607024 0.138676 0.527315
0.833822 0.133184 0.475744
0.880136 0.138736 0.432187
0.901741 0.148961 0.398649
0.920265 0.163458 0.372303
0.143993 0.220152 0.562977
0.190330 0.218077 0.560249
0.287267 0.223281 0.550133
0.484844 0.227994 0.545129
0.801097 0.176224 0.462790
0.887741 0.180964 0.373577
0.902545 0.248663 0.365891
0.914729 0.408295 0.400836
0.160618 0.311691 0.566582
0.225156 0.336898 0.563375
0.359033 0.378344 0.558242
0.557602 0.436842 0.541741
0.777795 0.448276 0.473836
0.861504 0.486497 0.435449
0.879389 0.583603 0.438117
0.882366 0.660583 0.442921
0.161440 0.477834 0.577128
0.301731 0.528047 0.554798
0.487357 0.594780 0.529176
0.619755 0.646273 0.502625
0.697825 0.692304 0.467507
0.810128 0.702201 0.438614
0.861322 0.735051 0.431841
0.871981 0.777033 0.430154
0.225075 0.641312 0.533539
0.402925 0.685136 0.491037
0.576146 0.725295 0.462939
0.668440 0.762717 0.445695
0.723496 0.797960 0.437317
0.781252 0.829406 0.440443
0.837473 0.840152 0.441380
0.873383 0.865933 0.455017
0.384460 0.754843 0.447554
0.563586 0.781683 0.433759
0.659127 0.810721 0.432892
0.723403 0.844896 0.440080
0.777587 0.870341 0.449102
0.814391 0.895739 0.462241
0.856794 0.909545 0.477359
0.897961 0.917486 0.505167
0.569401 0.827043 0.428553
0.663022 0.853237 0.435328
0.730958 0.877076 0.445157
0.786265 0.900431 0.459492
0.835972 0.918703 0.478285
0.872173 0.929543 0.511009
0.903048 0.939788 0.570669
0.930795 0.943677 0.660990
