其他预设/【236】赛博朋克风调色预设/【后期菌】视频调色预设/CUBE/Sunset 05.cube
# LUT by SparkleStock. Enhanced with VOXCOLOR algorithms.
LUT_3D_SIZE 32
0.152493 0.129032 0.101662
0.156529 0.131050 0.105698
0.160313 0.132816 0.109482
0.160313 0.130798 0.109482
0.160565 0.129032 0.109482
0.162583 0.129032 0.109482
0.165358 0.129411 0.109482
0.171412 0.131429 0.109482
0.178980 0.133951 0.110491
0.191089 0.137988 0.114527
0.206981 0.142024 0.117933
0.231199 0.146060 0.119951
0.262984 0.150853 0.124239
0.307382 0.156907 0.132312
0.357960 0.164727 0.142150
0.416485 0.174818 0.154259
0.466938 0.182890 0.163340
0.509318 0.188945 0.169394
0.543752 0.193864 0.175449
0.572005 0.197900 0.181503
0.597736 0.203197 0.187557
0.621953 0.209252 0.193611
0.639233 0.212531 0.196891
0.653360 0.214549 0.198909
0.665973 0.215054 0.202441
0.678082 0.215054 0.206477
0.688550 0.219973 0.207234
0.698641 0.226027 0.207234
0.708731 0.228550 0.207234
0.718822 0.230568 0.207234
0.728912 0.232586 0.209126
0.739003 0.234604 0.211144
0.156529 0.131050 0.103680
0.159523 0.132027 0.106674
0.162396 0.132881 0.109482
0.163438 0.131905 0.109482
0.164731 0.131181 0.109612
0.167791 0.132222 0.110654
0.171803 0.133447 0.111695
0.179940 0.135465 0.112737
0.191414 0.137988 0.114527
0.212897 0.142024 0.118563
0.238815 0.147036 0.123271
0.274490 0.154197 0.129455
0.315780 0.161334 0.136738
0.366428 0.168430 0.145852
0.417332 0.176836 0.155821
0.468565 0.186926 0.166888
0.511727 0.193957 0.175449
0.546816 0.197928 0.181503
0.574544 0.201936 0.186385
0.596548 0.205972 0.190356
0.618633 0.211270 0.194979
0.640767 0.217324 0.199991
0.655248 0.218455 0.202229
0.666250 0.217349 0.203206
0.678082 0.219415 0.204914
0.690190 0.222540 0.206867
0.699813 0.227199 0.207234
0.708862 0.232212 0.207234
0.718822 0.233693 0.209056
0.728912 0.234669 0.211140
0.737050 0.235646 0.212185
0.745057 0.236622 0.213162
0.160313 0.133068 0.105572
0.162331 0.133134 0.107655
0.164361 0.133195 0.109608
0.166575 0.133195 0.109608
0.169057 0.133455 0.109868
0.173418 0.135538 0.111952
0.178952 0.137609 0.114023
0.189563 0.139627 0.116041
0.205285 0.142215 0.118628
0.236337 0.146512 0.122925
0.272293 0.152598 0.129032
0.319035 0.162624 0.139123
0.369219 0.171917 0.149189
0.425140 0.179989 0.159214
0.475763 0.188831 0.169211
0.519575 0.198661 0.179171
0.555413 0.204617 0.187146
0.583276 0.206701 0.193135
0.604547 0.209882 0.196891
0.620692 0.213919 0.198909
0.639197 0.219135 0.202148
0.659117 0.225059 0.206119
0.670982 0.224314 0.207360
0.679184 0.220538 0.207360
0.690267 0.224038 0.207409
0.702311 0.229962 0.207474
0.711075 0.234246 0.207486
0.719082 0.238152 0.207486
0.728799 0.238754 0.210961
0.738759 0.238884 0.214932
0.745057 0.238954 0.215180
0.751112 0.239019 0.215180
0.160313 0.135087 0.105572
0.162331 0.136193 0.108697
0.164557 0.137231 0.111626
0.169895 0.137231 0.111626
0.175762 0.137621 0.112017
0.185332 0.140746 0.115142
0.196659 0.143663 0.118059
0.215603 0.145682 0.120077
0.240699 0.149311 0.123706
0.284251 0.157774 0.132169
0.330427 0.166400 0.141141
0.382377 0.175383 0.151231
0.432301 0.184025 0.160907
0.478847 0.192098 0.169891
0.520096 0.199116 0.178390
0.554534 0.204780 0.186267
0.582560 0.209174 0.192680
0.604173 0.212299 0.197627
0.622710 0.215937 0.200927
0.638855 0.219973 0.202945
0.654755 0.223887 0.205533
0.670510 0.227728 0.208462
0.682504 0.229197 0.209378
0.692790 0.229587 0.209378
0.703613 0.232566 0.210208
0.714615 0.236407 0.211315
0.722337 0.238608 0.211522
0.729303 0.240431 0.211522
0.737066 0.242595 0.214085
0.744943 0.244809 0.217015
0.751112 0.245984 0.217198
0.757166 0.247091 0.217198
0.160565 0.137609 0.105824
0.162713 0.139367 0.109730
0.165232 0.141015 0.113400
0.173304 0.141015 0.113530
0.182345 0.141552 0.114165
0.198164 0.145848 0.118331
0.216254 0.149815 0.122217
0.244182 0.152354 0.124886
0.278750 0.157221 0.129883
0.333239 0.169069 0.141861
0.387951 0.179696 0.153127
0.443156 0.187639 0.162827
0.491794 0.195581 0.171917
0.529487 0.203523 0.179989
0.561825 0.208930 0.187065
0.587279 0.211079 0.192859
0.608079 0.214171 0.197774
0.624224 0.218207 0.201810
0.640368 0.222243 0.204711
0.656513 0.226279 0.206729
0.669973 0.228973 0.208666
0.681821 0.230861 0.210554
0.693848 0.234226 0.211233
0.705957 0.238262 0.211363
0.716454 0.240882 0.212910
0.726414 0.243030 0.214928
0.732884 0.243539 0.215094
0.738547 0.243669 0.214834
0.744553 0.247217 0.216567
0.750607 0.251253 0.218585
0.756783 0.253642 0.219078
0.762968 0.255920 0.219468
0.162583 0.143663 0.107842
0.165773 0.143338 0.110707
0.169268 0.143033 0.113465
0.177341 0.143033 0.114637
0.188074 0.143830 0.116313
0.217434 0.150210 0.121521
0.249064 0.156651 0.127230
0.290533 0.163356 0.135107
0.335257 0.170826 0.143749
0.389746 0.180591 0.154686
0.441203 0.189461 0.164259
0.485992 0.196362 0.170835
0.526167 0.203263 0.177971
0.558652 0.210163 0.186044
0.585326 0.215440 0.192208
0.604531 0.218630 0.195918
0.622205 0.222243 0.199792
0.638350 0.226279 0.203828
0.654495 0.230316 0.206729
0.670640 0.234352 0.208747
0.682797 0.236394 0.210033
0.692562 0.237241 0.210879
0.703938 0.240280 0.211949
0.716047 0.244316 0.213121
0.725763 0.247718 0.214928
0.734682 0.250908 0.216946
0.738417 0.252458 0.215420
0.740956 0.253630 0.213076
0.746571 0.257308 0.214549
0.752625 0.261344 0.216567
0.759778 0.265685 0.219989
0.767004 0.270047 0.223505
0.164223 0.150096 0.109860
0.168454 0.147687 0.111878
0.173036 0.145454 0.113921
0.182866 0.145844 0.116330
0.196635 0.147195 0.119194
0.237973 0.155268 0.125248
0.281619 0.163755 0.132474
0.335261 0.174041 0.144778
0.388822 0.183724 0.156431
0.442139 0.191601 0.166131
0.489841 0.198970 0.174122
0.525190 0.205220 0.178354
0.557439 0.211323 0.183806
0.584521 0.217182 0.191292
0.606105 0.222158 0.196386
0.620623 0.225999 0.198404
0.635758 0.229937 0.201334
0.651513 0.233973 0.205175
0.667267 0.238120 0.208100
0.683021 0.242351 0.210314
0.694096 0.244060 0.211266
0.702364 0.244255 0.211461
0.712869 0.247091 0.212775
0.724392 0.251127 0.214598
0.733327 0.255310 0.216567
0.741399 0.259541 0.218585
0.743072 0.262768 0.216002
0.743267 0.265763 0.212356
0.748076 0.270523 0.213154
0.753545 0.275536 0.214586
0.761271 0.281525 0.219802
0.769148 0.287579 0.225270
0.164223 0.158169 0.111878
0.169496 0.153677 0.113897
0.175640 0.149620 0.116069
0.194844 0.152094 0.120561
0.217467 0.155268 0.125248
0.264013 0.163340 0.131303
0.313062 0.172023 0.138724
0.372954 0.183350 0.152070
0.429640 0.193554 0.163983
0.476707 0.200390 0.171600
0.518485 0.207368 0.178484
0.548626 0.214659 0.183757
0.575276 0.221023 0.188688
0.596108 0.225840 0.193050
0.615089 0.229774 0.196386
0.631690 0.232574 0.198404
0.646825 0.235992 0.200813
0.660496 0.240028 0.203612
0.674167 0.244760 0.206668
0.687838 0.250033 0.209923
0.698783 0.252783 0.211917
0.708093 0.254020 0.213154
0.716775 0.257182 0.214077
0.725173 0.261218 0.214858
0.733327 0.266182 0.216567
0.741399 0.271455 0.218585
0.743918 0.279108 0.217694
0.745155 0.287311 0.216132
0.747360 0.297279 0.214456
0.749704 0.307500 0.212763
0.756258 0.313815 0.214854
0.763094 0.319869 0.217198
0.164727 0.166241 0.114906
0.170521 0.160447 0.116403
0.177690 0.155251 0.118218
0.205488 0.159027 0.124793
0.236411 0.163405 0.131368
0.289207 0.171998 0.137943
0.344017 0.181153 0.145787
0.407554 0.192741 0.159133
0.465803 0.203075 0.170590
0.508183 0.209650 0.176384
0.545273 0.216531 0.182178
0.570728 0.224082 0.187972
0.592691 0.230413 0.192350
0.608835 0.234710 0.194368
0.625521 0.237896 0.196386
0.642903 0.239653 0.198404
0.657648 0.243071 0.200683
0.669757 0.248149 0.203222
0.681426 0.253483 0.206310
0.692753 0.259017 0.209825
0.703308 0.263004 0.212242
0.713398 0.266064 0.214000
0.720714 0.270153 0.214549
0.726768 0.274710 0.214549
0.734141 0.280585 0.216063
0.741953 0.286900 0.218081
0.744634 0.298768 0.218248
0.746131 0.311918 0.217987
0.745407 0.326379 0.214195
0.744366 0.341026 0.209899
0.749488 0.349571 0.209874
0.755022 0.357708 0.210135
0.166745 0.174313 0.120960
0.171498 0.169561 0.120374
0.178081 0.165277 0.120366
0.212128 0.168011 0.129024
0.249691 0.171738 0.137682
0.311862 0.182414 0.146341
0.373507 0.192871 0.155292
0.432878 0.202376 0.165513
0.488002 0.211669 0.174366
0.530382 0.220327 0.179119
0.566496 0.227988 0.183871
0.588825 0.233457 0.188623
0.608835 0.238876 0.192350
0.624980 0.244214 0.194368
0.640299 0.247531 0.196386
0.654556 0.248247 0.198404
0.667739 0.253227 0.201725
0.679847 0.262471 0.206347
0.689759 0.268456 0.209174
0.697961 0.271906 0.210607
0.707344 0.277717 0.211591
0.717434 0.284943 0.212307
0.724750 0.291766 0.212531
0.730804 0.298406 0.212531
0.737396 0.305583 0.214045
0.744166 0.312940 0.216063
0.744960 0.328389 0.215383
0.744374 0.345705 0.214081
0.739743 0.362509 0.209248
0.734535 0.379240 0.203909
0.737445 0.395727 0.204796
0.740895 0.412197 0.206098
0.169394 0.183016 0.126384
0.173756 0.179957 0.124365
0.180242 0.177214 0.123023
0.218585 0.179232 0.131811
0.260998 0.182512 0.140844
0.331892 0.194621 0.151585
0.399905 0.206033 0.161826
0.455435 0.214431 0.169899
0.507190 0.223090 0.176962
0.547617 0.232529 0.180998
0.581616 0.240585 0.184933
0.601471 0.245598 0.188644
0.619813 0.251245 0.191842
0.635632 0.257951 0.194185
0.649543 0.261865 0.196386
0.661001 0.262190 0.198404
0.672784 0.268245 0.202115
0.684893 0.280028 0.207518
0.693596 0.286867 0.210065
0.699650 0.289862 0.210391
0.708227 0.297495 0.210310
0.718317 0.307911 0.209984
0.725409 0.316716 0.209882
0.731138 0.324788 0.209882
0.736867 0.333104 0.211152
0.742596 0.341502 0.212844
0.743352 0.359474 0.212051
0.742962 0.379655 0.210684
0.736419 0.398355 0.205500
0.728998 0.416843 0.199772
0.730121 0.438811 0.200695
0.731813 0.461010 0.202062
0.173430 0.193107 0.130420
0.178834 0.193172 0.128402
0.186296 0.193359 0.126799
0.224640 0.195377 0.131421
0.267964 0.198657 0.137068
0.346149 0.210765 0.149893
0.419500 0.222373 0.161826
0.471906 0.231813 0.169899
0.519754 0.240732 0.176962
0.553932 0.248088 0.180998
0.583308 0.255688 0.184607
0.602122 0.263826 0.187276
0.619422 0.272207 0.190214
0.634200 0.280996 0.193599
0.646614 0.286538 0.196386
0.655988 0.287905 0.198404
0.666730 0.293959 0.201074
0.678838 0.304701 0.204394
0.687541 0.312842 0.206615
0.693596 0.318961 0.207982
0.702173 0.328417 0.207641
0.712263 0.339875 0.206273
0.718639 0.349005 0.205846
0.723326 0.357078 0.205846
0.728013 0.366175 0.206334
0.732700 0.375615 0.206985
0.737493 0.393782 0.207689
0.742311 0.413963 0.208405
0.738242 0.433574 0.204394
0.732904 0.453104 0.199706
0.733181 0.475136 0.198742
0.733832 0.497335 0.198026
0.178223 0.204711 0.135213
0.184278 0.207120 0.132413
0.192375 0.209602 0.129866
0.231109 0.213182 0.131103
0.275296 0.217829 0.134000
0.357647 0.229937 0.148518
0.433725 0.241667 0.161753
0.482615 0.251758 0.169435
0.526753 0.261132 0.176205
0.556633 0.268358 0.180242
0.582975 0.276480 0.183769
0.601528 0.286570 0.186178
0.618275 0.296954 0.189050
0.632011 0.307825 0.192696
0.643440 0.314824 0.195459
0.651903 0.316842 0.197086
0.661798 0.323287 0.198909
0.673126 0.334158 0.200927
0.681707 0.343675 0.202945
0.688152 0.352138 0.204963
0.695899 0.362391 0.204459
0.704427 0.373719 0.202441
0.710672 0.383077 0.201810
0.715880 0.391540 0.201810
0.720795 0.401516 0.202103
0.725613 0.411998 0.202494
0.732440 0.429725 0.203889
0.739731 0.449125 0.205517
0.738820 0.468866 0.202872
0.736737 0.488657 0.199617
0.736606 0.509607 0.197155
0.736606 0.530634 0.194747
0.184278 0.218838 0.141267
0.190332 0.222288 0.136384
0.198494 0.226007 0.131754
0.238270 0.233754 0.130908
0.283238 0.242046 0.132112
0.364548 0.254154 0.147671
0.438998 0.265885 0.161558
0.483721 0.275975 0.168198
0.524474 0.286131 0.174187
0.553313 0.296482 0.178223
0.579264 0.306751 0.182077
0.598859 0.316842 0.185527
0.615866 0.328006 0.188660
0.628561 0.340961 0.191264
0.639860 0.349131 0.192985
0.649364 0.351149 0.193571
0.658739 0.358636 0.194873
0.667983 0.371591 0.196891
0.676238 0.382605 0.198909
0.683725 0.392109 0.200927
0.689258 0.401451 0.200423
0.693620 0.410696 0.198404
0.700712 0.420119 0.197774
0.709045 0.429623 0.197774
0.716303 0.440642 0.198848
0.723204 0.452164 0.200280
0.728729 0.468394 0.201025
0.733937 0.485711 0.201611
0.737323 0.504281 0.200659
0.740447 0.523030 0.199487
0.740643 0.540985 0.196179
0.740643 0.558888 0.192729
0.190332 0.236496 0.148204
0.197298 0.239621 0.141239
0.206465 0.243323 0.134554
0.248649 0.255692 0.132080
0.295082 0.268086 0.131648
0.371249 0.280650 0.145515
0.441252 0.292921 0.158087
0.484543 0.303923 0.165053
0.523847 0.315088 0.171286
0.551189 0.326741 0.175322
0.576436 0.338190 0.179501
0.597073 0.349192 0.183993
0.614511 0.361366 0.187557
0.626620 0.375493 0.189575
0.637447 0.384721 0.190710
0.646626 0.387650 0.190710
0.655480 0.396178 0.191492
0.664008 0.410305 0.193054
0.672023 0.421649 0.194616
0.679640 0.430828 0.196179
0.685182 0.440739 0.196073
0.689478 0.451090 0.194966
0.696818 0.460322 0.193994
0.705542 0.469045 0.193083
0.713777 0.481333 0.194026
0.721849 0.494809 0.195589
0.727012 0.509713 0.196252
0.731504 0.524946 0.196708
0.736964 0.541148 0.196366
0.742563 0.557488 0.195910
0.743340 0.571509 0.192952
0.743796 0.585375 0.189828
0.196386 0.258695 0.156277
0.205435 0.259737 0.147228
0.216816 0.261812 0.138525
0.263167 0.279389 0.135009
0.311943 0.296469 0.133016
0.377694 0.310075 0.141674
0.439624 0.323584 0.150405
0.484999 0.336669 0.159454
0.525345 0.349135 0.167250
0.550604 0.359747 0.171286
0.574743 0.371131 0.175790
0.596422 0.384216 0.181324
0.614511 0.397692 0.185539
0.626620 0.411818 0.187557
0.636536 0.421958 0.188692
0.643631 0.426971 0.188692
0.651964 0.436540 0.188953
0.661534 0.450667 0.189474
0.669419 0.460839 0.189994
0.675994 0.467935 0.190515
0.684400 0.480320 0.191321
0.693905 0.495879 0.192297
0.700724 0.504590 0.190544
0.706323 0.510189 0.187549
0.713777 0.524039 0.187191
0.721849 0.540639 0.187712
0.727859 0.554436 0.189026
0.733392 0.567587 0.190523
0.738071 0.579882 0.189400
0.742628 0.592056 0.187903
0.744317 0.600934 0.186833
0.745814 0.609592 0.185791
0.206477 0.280894 0.163340
0.223338 0.283498 0.152208
0.242367 0.287233 0.141552
0.293926 0.307935 0.138036
0.346478 0.327945 0.135913
0.405980 0.343114 0.143529
0.461661 0.357696 0.151219
0.500786 0.369739 0.159226
0.536314 0.381425 0.166371
0.561052 0.392036 0.170928
0.584183 0.403746 0.175465
0.603778 0.417873 0.179957
0.620370 0.431609 0.183521
0.631958 0.444694 0.185539
0.641353 0.454931 0.186674
0.647928 0.461506 0.186674
0.655740 0.471076 0.186674
0.664789 0.483640 0.186674
0.671860 0.493128 0.186381
0.677394 0.500224 0.185860
0.686711 0.513261 0.186275
0.698299 0.529861 0.187252
0.705411 0.539972 0.185498
0.710489 0.547133 0.182504
0.717032 0.560983 0.181755
0.724062 0.577063 0.181755
0.730300 0.589916 0.183395
0.736354 0.602024 0.185413
0.739731 0.611456 0.184355
0.742726 0.620505 0.182858
0.745781 0.628211 0.182764
0.748841 0.635828 0.182764
0.220604 0.303093 0.169394
0.251005 0.310905 0.156179
0.283120 0.319588 0.143635
0.340929 0.341331 0.141161
0.398689 0.362513 0.140339
0.456107 0.379765 0.151081
0.507361 0.395259 0.160528
0.531904 0.403136 0.164369
0.556755 0.411957 0.168650
0.582535 0.423610 0.174248
0.604755 0.436036 0.178525
0.619142 0.450162 0.179892
0.632088 0.463117 0.181503
0.642635 0.474119 0.183521
0.651899 0.483640 0.184656
0.659516 0.491257 0.184656
0.666807 0.499785 0.184656
0.673773 0.509224 0.184656
0.679347 0.518517 0.183777
0.683839 0.527696 0.182215
0.692115 0.539561 0.180937
0.702661 0.553037 0.179831
0.710880 0.566468 0.178858
0.718041 0.579878 0.177947
0.723542 0.592166 0.177719
0.728489 0.604079 0.177719
0.734336 0.616151 0.179359
0.740390 0.628260 0.181377
0.741945 0.635868 0.181230
0.742856 0.642834 0.180775
0.747734 0.653339 0.180746
0.752877 0.664081 0.180746
0.233595 0.330968 0.176584
0.274608 0.342231 0.162457
0.317135 0.354103 0.149014
0.382365 0.375131 0.145824
0.445626 0.395507 0.144180
0.495102 0.411326 0.153359
0.538926 0.425864 0.161525
0.558261 0.434848 0.165301
0.578442 0.444466 0.169500
0.601162 0.455989 0.174968
0.620566 0.467959 0.178911
0.632674 0.480914 0.179497
0.643806 0.492136 0.180400
0.653311 0.500468 0.181832
0.661933 0.509200 0.182638
0.669419 0.518444 0.182638
0.675897 0.527395 0.182052
0.681365 0.536054 0.180880
0.686687 0.546177 0.179562
0.691895 0.557439 0.178130
0.699422 0.568498 0.176331
0.708341 0.579435 0.174313
0.715469 0.592341 0.173683
0.721784 0.606142 0.173683
0.727269 0.617160 0.174562
0.732477 0.627251 0.175733
0.737420 0.638981 0.177117
0.742303 0.651089 0.178549
0.743426 0.657901 0.178728
0.744012 0.663955 0.178728
0.748626 0.674037 0.178728
0.753508 0.684388 0.178728
0.245704 0.363258 0.184656
0.295049 0.376603 0.170529
0.345909 0.390299 0.156956
0.419472 0.409243 0.151683
0.488462 0.427276 0.147565
0.525438 0.438929 0.151537
0.559498 0.451058 0.156057
0.580916 0.465249 0.162957
0.601097 0.478513 0.169240
0.617567 0.488995 0.173666
0.632674 0.499598 0.177218
0.644783 0.510469 0.178846
0.655524 0.519217 0.180010
0.663987 0.524425 0.180400
0.671567 0.532310 0.180620
0.678012 0.543638 0.180620
0.683448 0.554151 0.178992
0.687875 0.563851 0.175737
0.693913 0.575602 0.174094
0.701204 0.588947 0.173703
0.708211 0.599486 0.172295
0.715046 0.608339 0.170277
0.719375 0.617730 0.169647
0.722565 0.627365 0.169647
0.728831 0.637341 0.172088
0.736122 0.647432 0.175343
0.739764 0.659162 0.176270
0.742563 0.671270 0.176661
0.744337 0.678082 0.176710
0.745965 0.684136 0.176710
0.748691 0.691289 0.176710
0.751490 0.698515 0.176710
0.259074 0.394286 0.191467
0.316101 0.409064 0.177341
0.374398 0.424135 0.163637
0.451737 0.443600 0.156281
0.523201 0.461648 0.150178
0.553537 0.469786 0.152847
0.581493 0.478937 0.156163
0.599136 0.492477 0.162282
0.615736 0.505156 0.167881
0.629212 0.515246 0.171917
0.642260 0.525337 0.175322
0.654369 0.535427 0.177341
0.664964 0.543980 0.178358
0.673036 0.549969 0.177707
0.680226 0.559205 0.177341
0.686280 0.572615 0.177341
0.691651 0.584041 0.175973
0.696338 0.593480 0.173239
0.702197 0.604458 0.172043
0.708967 0.616631 0.172043
0.714883 0.625835 0.171189
0.720287 0.633256 0.169821
0.724258 0.641573 0.169842
0.727578 0.650296 0.170493
0.732997 0.659068 0.172706
0.739117 0.667857 0.175440
0.741904 0.677756 0.175953
0.743922 0.687912 0.175953
0.746510 0.695618 0.175953
0.749179 0.702974 0.175953
0.751238 0.708500 0.175953
0.753256 0.713903 0.175953
0.273200 0.424558 0.197522
0.337519 0.440377 0.183395
0.402717 0.456554 0.169561
0.481097 0.478102 0.160122
0.553081 0.497584 0.152326
0.580293 0.502596 0.156037
0.604344 0.508427 0.159613
0.614694 0.517801 0.162608
0.625566 0.527355 0.165863
0.638000 0.537445 0.169899
0.650333 0.547536 0.173304
0.662441 0.557626 0.175322
0.673036 0.567351 0.175949
0.681109 0.576465 0.174256
0.688298 0.588370 0.173304
0.694352 0.603863 0.173304
0.700244 0.615809 0.172979
0.705973 0.624207 0.172328
0.711116 0.632971 0.172043
0.715803 0.642020 0.172043
0.720287 0.649401 0.171840
0.724648 0.655781 0.171514
0.729726 0.664488 0.172576
0.735129 0.674253 0.174269
0.738726 0.681723 0.175180
0.741721 0.688428 0.175831
0.743922 0.695398 0.175953
0.745940 0.702429 0.175953
0.749439 0.711567 0.175953
0.753150 0.721007 0.175953
0.755274 0.725686 0.175953
0.757292 0.730048 0.175953
0.292877 0.457604 0.204963
0.366635 0.474465 0.189404
0.440165 0.491391 0.174187
0.510278 0.509294 0.164097
0.574727 0.525463 0.155683
0.599530 0.529499 0.159003
0.621465 0.534695 0.162079
0.630969 0.544915 0.164097
0.640588 0.554746 0.166261
0.650548 0.563404 0.168865
0.660509 0.572510 0.171062
0.670469 0.582600 0.172364
0.679453 0.592422 0.172421
0.686809 0.601797 0.170403
0.693282 0.613193 0.169581
0.698621 0.627190 0.170298
0.704675 0.638224 0.171014
0.711445 0.646296 0.171730
0.716678 0.654369 0.172446
0.720714 0.662441 0.173162
0.724750 0.669252 0.173430
0.728786 0.675307 0.173430
0.733718 0.684136 0.174818
0.739056 0.694226 0.176836
0.741904 0.700753 0.176803
0.743922 0.706091 0.176087
0.746522 0.712593 0.176535
0.749256 0.719363 0.177251
0.753130 0.727785 0.177341
0.757166 0.736444 0.177341
0.760653 0.742111 0.178012
0.764103 0.747580 0.178728
0.315076 0.491912 0.213036
0.399250 0.509814 0.195394
0.481764 0.527326 0.178223
0.539378 0.538979 0.168133
0.592630 0.549680 0.159589
0.615350 0.553716 0.161867
0.635982 0.559498 0.164097
0.647570 0.572843 0.166115
0.657970 0.584496 0.167759
0.664805 0.591071 0.168279
0.671641 0.598745 0.168719
0.678476 0.608835 0.168979
0.685116 0.618267 0.168385
0.691431 0.626600 0.166367
0.696863 0.636043 0.166001
0.701159 0.646915 0.167759
0.707214 0.656387 0.169516
0.715026 0.664459 0.171274
0.720714 0.672532 0.173032
0.724750 0.680604 0.174789
0.728786 0.687415 0.175449
0.732823 0.693470 0.175449
0.737038 0.702299 0.176836
0.741334 0.712389 0.178854
0.743922 0.718134 0.178040
0.745940 0.722431 0.176283
0.749386 0.729584 0.177381
0.753162 0.737396 0.179139
0.757166 0.744125 0.179359
0.761202 0.750701 0.179359
0.766642 0.758191 0.181006
0.772175 0.765743 0.182764
0.334248 0.520165 0.216567
0.425713 0.537547 0.199967
0.514526 0.554522 0.183676
0.563546 0.565393 0.172023
0.609019 0.575313 0.161981
0.629655 0.578568 0.163218
0.648254 0.583569 0.164601
0.658019 0.596133 0.166619
0.666856 0.607265 0.168133
0.672910 0.614100 0.168133
0.678964 0.621953 0.168133
0.685019 0.632044 0.168133
0.690487 0.640791 0.167669
0.694979 0.647301 0.166432
0.699613 0.655036 0.166961
0.704431 0.664345 0.169760
0.710876 0.673427 0.172169
0.718948 0.682280 0.174187
0.724311 0.690255 0.175326
0.727566 0.697546 0.175782
0.731797 0.704065 0.175953
0.736615 0.710119 0.175953
0.740895 0.717874 0.177878
0.744931 0.726402 0.180677
0.748040 0.732733 0.180449
0.750839 0.738332 0.179212
0.755278 0.745940 0.180620
0.760095 0.754013 0.182638
0.764913 0.760319 0.182890
0.769730 0.766373 0.182890
0.774975 0.772855 0.184050
0.780248 0.779365 0.185287
0.352411 0.546401 0.218585
0.450126 0.562741 0.204068
0.544342 0.578804 0.189600
0.586071 0.590717 0.175864
0.624903 0.601418 0.163869
0.643456 0.603632 0.164064
0.659776 0.607395 0.164601
0.666416 0.617876 0.166619
0.672910 0.627706 0.168133
0.678964 0.635583 0.168133
0.685019 0.644152 0.168133
0.691073 0.654243 0.168133
0.695760 0.662209 0.168060
0.698169 0.666636 0.167864
0.702087 0.672743 0.169435
0.707946 0.681011 0.173276
0.714912 0.690092 0.176205
0.722984 0.699988 0.178223
0.727761 0.707832 0.178191
0.729974 0.714082 0.176563
0.734466 0.720209 0.175953
0.740325 0.726264 0.175953
0.744931 0.732587 0.178594
0.748967 0.739031 0.182435
0.752857 0.746404 0.183248
0.756698 0.754086 0.183053
0.762179 0.762085 0.184656
0.768038 0.770157 0.186674
0.773897 0.776464 0.186926
0.779756 0.782518 0.186926
0.784089 0.787047 0.187110
0.788320 0.791474 0.187305
0.393529 0.570996 0.225523
0.481414 0.585448 0.208857
0.566065 0.599648 0.192403
0.602195 0.610064 0.179123
0.635974 0.619748 0.167396
0.653291 0.624305 0.166550
0.668496 0.629899 0.166241
0.674550 0.639990 0.168259
0.680393 0.649153 0.169773
0.685601 0.655533 0.169773
0.690809 0.662543 0.170037
0.696017 0.670941 0.170883
0.700663 0.678655 0.171730
0.704374 0.685230 0.172576
0.709480 0.692090 0.174448
0.716381 0.699316 0.177638
0.722598 0.706705 0.179395
0.728131 0.714257 0.179721
0.732163 0.720966 0.179680
0.735028 0.727020 0.179355
0.739886 0.734133 0.179761
0.745940 0.741880 0.180608
0.751189 0.749045 0.183065
0.756071 0.755945 0.186255
0.760954 0.762455 0.187053
0.765836 0.768835 0.187053
0.771671 0.775902 0.188005
0.777725 0.783129 0.189177
0.783780 0.788589 0.190064
0.789834 0.793797 0.190910
0.793203 0.797906 0.192550
0.796393 0.801942 0.194242
0.439946 0.595213 0.233595
0.514290 0.607582 0.213805
0.585920 0.619699 0.194486
0.616843 0.628032 0.182247
0.645934 0.636283 0.171302
0.662209 0.643965 0.169415
0.676568 0.652099 0.168259
0.682622 0.662189 0.170277
0.688205 0.670831 0.171791
0.692371 0.675128 0.171791
0.696537 0.680055 0.172381
0.700704 0.686370 0.174269
0.705481 0.693954 0.176157
0.711274 0.703654 0.178044
0.718008 0.711816 0.180046
0.725950 0.718000 0.182195
0.731126 0.723306 0.182390
0.733535 0.727732 0.180632
0.736785 0.733075 0.180852
0.740691 0.739129 0.182610
0.745940 0.747543 0.184449
0.751994 0.757373 0.186337
