其他预设/【236】赛博朋克风调色预设/【后期菌】视频调色预设/CUBE/Sunset 07_S.cube
# LUT by SparkleStock. Enhanced with VOXCOLOR algorithms.
LUT_3D_SIZE 8
DOMAIN_MIN 0.000000 0.000000 0.000000
DOMAIN_MAX 0.903226 0.903226 0.903226
0.023460 0.113392 0.011730
0.076309 0.117302 0.023713
0.165989 0.113897 0.029389
0.329329 0.113392 0.062435
0.542238 0.121212 0.097878
0.695235 0.122473 0.130167
0.787816 0.128149 0.153123
0.859080 0.138618 0.171665
0.031533 0.141519 0.032290
0.147533 0.129268 0.044036
0.320687 0.126603 0.066532
0.524454 0.133951 0.096161
0.658279 0.136983 0.118124
0.760417 0.139798 0.138329
0.842304 0.146438 0.168231
0.896830 0.161448 0.201041
0.035191 0.175575 0.069498
0.232936 0.146219 0.073913
0.481707 0.157033 0.111061
0.606244 0.178097 0.118913
0.688681 0.190723 0.124744
0.775076 0.202046 0.144457
0.849494 0.216649 0.177454
0.888391 0.305339 0.231882
0.031281 0.248479 0.117933
0.273705 0.232627 0.108522
0.551417 0.254195 0.146255
0.644889 0.303219 0.155711
0.700268 0.341356 0.156655
0.773075 0.388753 0.176340
0.841462 0.435743 0.226157
0.880933 0.531773 0.293056
0.042128 0.361240 0.159556
0.343451 0.415985 0.179359
0.568864 0.488746 0.225519
0.654723 0.534613 0.225144
0.701550 0.561789 0.222504
0.761560 0.591682 0.244389
0.821216 0.649377 0.291957
0.857489 0.714021 0.356642
0.075300 0.512723 0.223883
0.532579 0.595852 0.265173
0.686947 0.640242 0.299472
0.738710 0.669094 0.311739
0.768086 0.698242 0.312805
0.799839 0.735638 0.334695
0.833239 0.772098 0.367974
0.860406 0.808440 0.401541
0.144168 0.642260 0.277363
0.638871 0.701766 0.326708
0.741847 0.736606 0.354555
0.776045 0.764693 0.368808
0.803204 0.795762 0.385962
0.828035 0.827388 0.407404
0.850088 0.855800 0.425603
0.870537 0.879786 0.442289
0.346230 0.748841 0.328698
0.671751 0.785143 0.361582
0.754216 0.809942 0.383516
0.790285 0.839692 0.403152
0.812208 0.865464 0.419716
0.837703 0.886894 0.436666
0.870704 0.912002 0.458288
0.895617 0.925929 0.474546
0.031281 0.113644 0.036452
0.092503 0.120724 0.055766
0.188566 0.112668 0.058492
0.391589 0.110141 0.091425
0.579069 0.107968 0.125183
0.710200 0.106329 0.139204
0.801312 0.116012 0.159361
0.861729 0.128426 0.178085
0.027623 0.142008 0.069482
0.182708 0.125185 0.076657
0.372221 0.125897 0.098382
0.527442 0.126432 0.123591
0.644661 0.127836 0.143790
0.750147 0.135745 0.157044
0.834446 0.140390 0.176016
0.894072 0.156194 0.204184
0.040175 0.179989 0.106520
0.166086 0.165061 0.117904
0.516858 0.158108 0.136217
0.584944 0.183537 0.148800
0.664635 0.199853 0.158556
0.757392 0.211201 0.174458
0.847401 0.222120 0.201162
0.913490 0.258396 0.241946
0.038393 0.258821 0.165252
0.141597 0.270023 0.164030
0.485784 0.271233 0.166646
0.608168 0.295059 0.176108
0.669538 0.338533 0.185874
0.751598 0.378956 0.201561
0.834817 0.426139 0.234032
0.892963 0.508111 0.287357
0.048117 0.381303 0.205150
0.143246 0.431771 0.218296
0.498460 0.480191 0.216287
0.606191 0.520883 0.225931
0.670083 0.550637 0.229176
0.742295 0.579465 0.246981
0.810325 0.633954 0.283315
0.859409 0.698476 0.334648
0.085680 0.538112 0.256136
0.229821 0.582748 0.270513
0.644608 0.649042 0.300207
0.700801 0.667310 0.299324
0.724983 0.695435 0.296217
0.777788 0.728018 0.318825
0.824160 0.765219 0.351357
0.864064 0.796962 0.372937
0.181303 0.654873 0.291209
0.474962 0.712917 0.328759
0.708482 0.737327 0.353090
0.774732 0.779475 0.372909
0.789198 0.796962 0.378574
0.820288 0.831818 0.400434
0.847112 0.862199 0.419320
0.873116 0.875030 0.416258
0.380965 0.757166 0.341311
0.616276 0.795027 0.369636
0.737183 0.819070 0.388981
0.791084 0.846082 0.409090
0.817042 0.873645 0.427350
0.848721 0.894401 0.445463
0.877121 0.916386 0.463101
0.900665 0.928594 0.477595
0.027875 0.118311 0.079337
0.105511 0.117302 0.102260
0.234978 0.112887 0.115536
0.439677 0.107309 0.146101
0.606187 0.097752 0.167376
0.729669 0.098256 0.186438
0.809889 0.108025 0.188119
0.873182 0.122929 0.195328
0.031565 0.144957 0.129289
0.150881 0.125893 0.135579
0.400642 0.126481 0.157001
0.544293 0.126507 0.187936
0.643859 0.126953 0.205794
0.745494 0.131132 0.212301
0.836937 0.142027 0.218618
0.897534 0.153886 0.223893
0.041054 0.177397 0.163836
0.141360 0.173496 0.192028
0.496756 0.159426 0.182199
0.573769 0.184397 0.207860
0.658722 0.202096 0.226273
0.752239 0.213676 0.238216
0.836116 0.227112 0.251262
0.908818 0.271808 0.270419
0.047116 0.257588 0.222776
0.142006 0.284851 0.232111
0.400696 0.294241 0.227876
0.597903 0.289204 0.241181
0.676072 0.320179 0.254831
0.758055 0.362908 0.266416
0.835555 0.412371 0.288267
0.890736 0.490948 0.313038
0.053089 0.391373 0.252124
0.140415 0.449673 0.258114
0.339298 0.501427 0.269934
0.577185 0.502780 0.268074
0.671397 0.522049 0.276594
0.740839 0.555824 0.288961
0.809468 0.593731 0.306391
0.868190 0.652428 0.330669
0.089663 0.548618 0.279938
0.242768 0.596094 0.294577
0.467464 0.646975 0.318371
0.655549 0.674423 0.315630
0.711154 0.698180 0.323189
0.760575 0.722486 0.335969
0.814511 0.746819 0.350846
0.867754 0.761100 0.357752
0.217475 0.669688 0.312484
0.442282 0.713337 0.339118
0.606564 0.758104 0.363409
0.751145 0.787954 0.376684
0.784687 0.810571 0.386563
0.813036 0.834927 0.400995
0.833450 0.845407 0.395679
0.878519 0.857305 0.396233
0.416786 0.769352 0.353595
0.578717 0.802139 0.377658
0.705127 0.827710 0.392605
0.783349 0.857237 0.415274
0.826402 0.883364 0.437682
0.853693 0.902889 0.451359
0.868827 0.913080 0.445970
0.899103 0.920749 0.451563
0.032794 0.121212 0.152240
0.119951 0.117253 0.175953
0.280601 0.110548 0.196358
0.488929 0.108579 0.219322
0.640425 0.101296 0.236887
0.748691 0.103680 0.237371
0.826790 0.113559 0.234478
0.881873 0.123320 0.229811
0.042584 0.142528 0.212910
0.117542 0.132925 0.227664
0.423263 0.126040 0.244376
0.576283 0.126548 0.261565
0.665459 0.126818 0.277724
0.756922 0.132694 0.275953
0.848290 0.139966 0.260357
0.897467 0.150448 0.243843
0.054013 0.177902 0.254997
0.121807 0.172702 0.276485
0.398531 0.171244 0.277997
0.591236 0.184458 0.277998
0.669588 0.198517 0.291493
0.756010 0.210958 0.303110
0.839145 0.232609 0.312619
0.906818 0.287036 0.315357
0.068742 0.265360 0.297544
0.133738 0.285907 0.301417
0.387558 0.304680 0.303467
0.597290 0.286919 0.304908
0.680953 0.322640 0.327118
0.759310 0.367424 0.341894
0.829878 0.422068 0.356003
0.890388 0.488306 0.366851
0.067411 0.406944 0.326346
0.144276 0.469022 0.317438
0.347099 0.519871 0.328676
0.532259 0.522521 0.339045
0.682948 0.513804 0.351652
0.746308 0.546388 0.361024
0.809448 0.578254 0.370385
0.878446 0.615556 0.373669
0.099107 0.571358 0.330220
0.270842 0.620481 0.328222
0.485737 0.659911 0.345853
0.575580 0.692116 0.361239
0.709193 0.699160 0.364279
0.764761 0.716211 0.375261
0.805192 0.723939 0.381201
0.871123 0.740439 0.391617
0.237326 0.680771 0.335550
0.477049 0.731231 0.360108
0.597208 0.768992 0.374657
0.686141 0.803195 0.393737
0.769811 0.818141 0.400035
0.800367 0.836725 0.413158
0.823308 0.838640 0.415773
0.883671 0.844524 0.421411
0.448738 0.781635 0.368303
0.591941 0.816703 0.393246
0.682082 0.839126 0.408636
0.762677 0.869111 0.425232
0.827080 0.889400 0.443556
0.850651 0.911462 0.457171
0.863395 0.916299 0.456986
0.899893 0.919712 0.471075
0.055876 0.122221 0.250749
0.134830 0.114336 0.269290
0.323665 0.113522 0.289984
0.545127 0.113644 0.294138
0.686785 0.108599 0.304489
0.778177 0.112761 0.297816
0.846581 0.121603 0.282648
0.895959 0.128198 0.267573
0.065149 0.141837 0.303472
0.098285 0.136083 0.329044
0.435601 0.127510 0.340538
0.642303 0.128392 0.335143
0.711774 0.127684 0.337668
0.789571 0.132797 0.322878
0.861296 0.140371 0.297031
0.901745 0.152439 0.263001
0.086148 0.189063 0.354172
0.123315 0.187745 0.373555
0.284223 0.188446 0.375051
0.617978 0.172773 0.340427
0.711128 0.186590 0.348156
0.779739 0.198776 0.346949
0.853518 0.230298 0.345872
0.907689 0.310930 0.351397
0.094737 0.268395 0.379655
0.162360 0.294972 0.389396
0.342094 0.337664 0.390919
0.558390 0.345379 0.380249
0.712660 0.314646 0.377876
0.780313 0.387874 0.397618
0.836714 0.444886 0.413500
0.885620 0.509398 0.423094
0.088133 0.422389 0.397541
0.181200 0.483013 0.388412
0.360496 0.536907 0.376712
0.564733 0.548337 0.389160
0.701494 0.548520 0.404822
0.765877 0.569761 0.417467
0.813731 0.591179 0.432659
0.878028 0.619085 0.436190
0.119406 0.588813 0.385026
0.313960 0.634787 0.361080
0.510498 0.679565 0.375235
0.602318 0.712003 0.388437
0.694782 0.731536 0.403140
0.770032 0.729944 0.415740
0.807964 0.728550 0.439653
0.874024 0.743767 0.454068
0.292970 0.703548 0.362994
0.494604 0.742773 0.378773
0.609931 0.784305 0.394404
0.689301 0.809982 0.406699
0.748221 0.838334 0.424231
0.783600 0.841348 0.440129
0.823188 0.840194 0.461137
0.886810 0.842985 0.476122
0.476125 0.796588 0.387146
0.598170 0.822001 0.402043
0.681738 0.850698 0.419604
0.748221 0.876649 0.433901
0.805406 0.898730 0.451171
0.841252 0.910536 0.467576
0.862058 0.915579 0.490077
0.903536 0.920544 0.523607
0.078075 0.126384 0.355312
0.112904 0.118563 0.372978
0.307475 0.118059 0.382104
0.590233 0.119076 0.385986
0.732033 0.120854 0.383081
0.804970 0.121619 0.361354
0.869532 0.123324 0.342353
0.905179 0.128149 0.324593
0.086481 0.143285 0.391882
0.118239 0.141126 0.412929
0.369966 0.126378 0.405010
0.677679 0.123954 0.390582
0.777102 0.131283 0.368751
0.828024 0.132218 0.342488
0.878694 0.140185 0.312361
0.902831 0.150860 0.281496
0.108420 0.195451 0.434990
0.144109 0.192827 0.445088
0.257573 0.191143 0.436097
0.671506 0.156927 0.381031
0.781171 0.166961 0.364304
0.827378 0.182630 0.346104
0.878268 0.224516 0.334213
0.908272 0.339729 0.372982
0.120061 0.281004 0.456595
0.178396 0.300104 0.455410
0.312811 0.336933 0.456610
0.544914 0.386553 0.442289
0.766996 0.329200 0.395222
0.831395 0.407742 0.404242
0.854418 0.491400 0.436979
0.882512 0.542524 0.459801
0.118637 0.436255 0.466958
0.232826 0.496514 0.453807
0.412860 0.562014 0.428503
0.581872 0.599426 0.425105
0.702396 0.612747 0.427775
0.800717 0.615944 0.436740
0.827600 0.629477 0.468533
0.879420 0.646892 0.489694
0.147952 0.609621 0.439356
0.337107 0.651697 0.405969
0.537862 0.693062 0.404884
0.644724 0.735354 0.409516
0.719582 0.762030 0.416453
0.764284 0.755648 0.448443
0.813184 0.742329 0.488297
0.876255 0.746946 0.513826
0.306544 0.720336 0.392915
0.523064 0.759748 0.398368
0.627360 0.790598 0.406389
0.692909 0.820707 0.418189
0.749696 0.847704 0.433578
0.773823 0.850845 0.467413
0.825991 0.848977 0.503615
0.891105 0.848302 0.531213
0.516247 0.803008 0.400971
0.622807 0.834944 0.415025
0.698461 0.857241 0.427535
0.756918 0.885003 0.444336
0.809720 0.906868 0.461377
0.843572 0.918231 0.489414
0.867404 0.920610 0.528373
0.909219 0.923492 0.583583
0.100779 0.129032 0.437423
0.126257 0.124715 0.459313
0.313416 0.119320 0.456204
0.636755 0.122726 0.468659
0.756157 0.123344 0.463394
0.830322 0.125122 0.431637
0.881954 0.128105 0.402440
0.920485 0.132942 0.382377
0.110715 0.151105 0.469810
0.137785 0.144418 0.484025
0.237202 0.141443 0.487632
0.649558 0.134125 0.469571
0.823174 0.130621 0.408017
0.864136 0.135749 0.375015
0.889905 0.142420 0.348500
0.911685 0.158329 0.329506
0.132564 0.203999 0.504273
0.162831 0.204702 0.503366
0.275236 0.202886 0.499569
0.650951 0.166245 0.454961
0.824774 0.154704 0.385019
0.876551 0.172389 0.338701
0.895109 0.235547 0.335503
0.911327 0.367310 0.382987
0.140299 0.295688 0.512382
0.203551 0.323166 0.518530
0.337351 0.359476 0.507172
0.538244 0.409947 0.487698
0.800864 0.362987 0.403113
0.870356 0.440194 0.398732
0.867033 0.536569 0.444448
0.882699 0.588116 0.477181
0.142402 0.463911 0.531289
0.268281 0.515861 0.511271
0.440811 0.573589 0.482474
0.601842 0.628937 0.461717
0.701757 0.665807 0.437830
0.809465 0.661477 0.440499
0.842731 0.671157 0.482464
0.876072 0.683495 0.507431
0.178850 0.619601 0.495142
0.385477 0.673767 0.450806
0.557681 0.714924 0.439561
0.653636 0.748225 0.434529
0.716190 0.783759 0.430518
0.765002 0.791094 0.457540
0.821523 0.774275 0.502272
0.877772 0.779397 0.545173
0.359153 0.739471 0.419647
0.541200 0.768376 0.415515
0.646825 0.803649 0.421661
0.708212 0.829743 0.427743
0.765434 0.857094 0.438684
0.795621 0.872995 0.472324
0.838003 0.871695 0.522323
0.893330 0.869488 0.562700
0.542584 0.815744 0.418914
0.644204 0.840456 0.426036
0.719496 0.867334 0.438647
0.768597 0.892533 0.451951
0.818669 0.913492 0.469615
0.859059 0.925421 0.496188
0.879936 0.929376 0.557720
0.916114 0.931634 0.638056
0.120834 0.131176 0.514615
0.141645 0.126522 0.529890
0.248767 0.121717 0.520617
0.626945 0.123393 0.526850
0.777823 0.126131 0.531419
0.850055 0.129032 0.498467
0.894921 0.130546 0.459622
0.925339 0.136682 0.434229
0.130810 0.159051 0.542604
0.154396 0.146695 0.542516
0.231829 0.152534 0.545947
0.607024 0.138676 0.527315
0.833822 0.133184 0.475744
0.880136 0.138736 0.432187
0.901741 0.148961 0.398649
0.920265 0.163458 0.372303
0.142455 0.220152 0.566053
0.190330 0.218077 0.563325
0.287267 0.223281 0.553209
0.484546 0.227994 0.548205
0.799162 0.176224 0.465866
0.886203 0.180964 0.378191
0.901602 0.248663 0.369562
0.914729 0.406757 0.405450
0.160618 0.311691 0.566582
0.225156 0.336898 0.563375
0.359033 0.378344 0.558242
0.557602 0.436842 0.541741
0.777795 0.448276 0.473836
0.861504 0.486497 0.435449
0.878974 0.582198 0.440928
0.883522 0.651331 0.457251
0.161440 0.477834 0.577128
0.301731 0.528047 0.554798
0.487357 0.594780 0.529176
0.619755 0.646273 0.502625
0.697825 0.692304 0.467507
0.809949 0.701844 0.439328
0.856298 0.721499 0.456267
0.875171 0.745350 0.480921
0.224383 0.641312 0.534923
0.401541 0.685136 0.492420
0.574763 0.725295 0.464322
0.667190 0.762025 0.447078
0.722804 0.797268 0.438700
0.779869 0.827555 0.444370
0.830859 0.822646 0.479087
0.877313 0.830086 0.517644
0.384460 0.754843 0.447554
0.563586 0.781683 0.433759
0.659127 0.810721 0.432892
0.723403 0.844896 0.440080
0.777587 0.870341 0.449102
0.813432 0.895048 0.464472
0.851822 0.901346 0.503028
0.899144 0.897993 0.554092
0.559779 0.827043 0.434437
0.654197 0.853237 0.441211
0.724380 0.877076 0.451040
0.780382 0.900431 0.465375
0.830051 0.918703 0.484168
0.869231 0.929543 0.516893
0.899651 0.939333 0.578814
0.929620 0.940357 0.677212
