其他预设/【236】赛博朋克风调色预设/【后期菌】视频调色预设/CUBE/Sunset 05_S.cube
# LUT by SparkleStock. Enhanced with VOXCOLOR algorithms.
LUT_3D_SIZE 32
0.152493 0.129032 0.101662
0.156529 0.131050 0.105698
0.160313 0.132816 0.109482
0.160313 0.130798 0.109482
0.160565 0.129032 0.109482
0.162583 0.129032 0.109482
0.165358 0.129411 0.109482
0.171412 0.131429 0.109482
0.178980 0.133951 0.110491
0.191089 0.137988 0.114527
0.207612 0.141393 0.117302
0.233847 0.143411 0.117302
0.266894 0.146186 0.120329
0.311292 0.150222 0.128402
0.361871 0.156907 0.137357
0.420395 0.166998 0.147447
0.470848 0.175070 0.156529
0.513228 0.181124 0.164601
0.547662 0.186044 0.170403
0.575915 0.190080 0.174440
0.600385 0.196639 0.180998
0.622584 0.204711 0.189071
0.640621 0.208621 0.192981
0.656765 0.210639 0.194999
0.668369 0.212657 0.200044
0.678460 0.214675 0.206098
0.688550 0.219973 0.207234
0.698641 0.226027 0.207234
0.708731 0.228550 0.207234
0.718822 0.230568 0.207234
0.728912 0.232586 0.209126
0.739003 0.234604 0.211144
0.156529 0.131050 0.103680
0.159523 0.132027 0.106674
0.162396 0.132881 0.109482
0.163438 0.131905 0.109482
0.164731 0.131181 0.109612
0.167791 0.132222 0.110654
0.171803 0.133447 0.111695
0.179940 0.135465 0.112737
0.191675 0.137727 0.114267
0.214199 0.140722 0.117261
0.241139 0.144388 0.120622
0.277790 0.149531 0.124789
0.319299 0.154649 0.129639
0.368905 0.159727 0.135628
0.419224 0.166086 0.142956
0.470457 0.174094 0.152004
0.513619 0.180083 0.160044
0.548708 0.184054 0.167075
0.577022 0.188062 0.171250
0.600067 0.192098 0.173203
0.621933 0.197355 0.178329
0.643090 0.203344 0.185360
0.657937 0.206603 0.189661
0.669916 0.208621 0.192720
0.681259 0.213764 0.197245
0.692391 0.219948 0.202258
0.700985 0.226027 0.204890
0.708992 0.232081 0.206973
0.718822 0.233693 0.209056
0.728912 0.234669 0.211140
0.737050 0.235646 0.212185
0.745057 0.236622 0.213162
0.160313 0.133068 0.105572
0.162331 0.133134 0.107655
0.164361 0.133195 0.109608
0.166575 0.133195 0.109608
0.169057 0.133455 0.109868
0.173418 0.135538 0.111952
0.178952 0.137609 0.114010
0.189563 0.139627 0.115963
0.205773 0.141710 0.117982
0.238779 0.143989 0.120195
0.276036 0.148058 0.124199
0.322648 0.156065 0.132141
0.371994 0.163340 0.138594
0.425896 0.169394 0.142565
0.475385 0.175363 0.148302
0.519197 0.181222 0.156309
0.555067 0.185193 0.163275
0.582995 0.187276 0.169199
0.605430 0.190385 0.171827
0.623593 0.194291 0.171892
0.642936 0.198278 0.175660
0.662986 0.202315 0.181649
0.674936 0.205098 0.186296
0.683204 0.207311 0.190332
0.694304 0.215286 0.194466
0.706347 0.225181 0.198632
0.713472 0.231850 0.202693
0.719461 0.237774 0.206729
0.728868 0.238685 0.210822
0.738763 0.238880 0.214924
0.745057 0.238954 0.215180
0.751112 0.239019 0.215180
0.160313 0.135087 0.105572
0.162331 0.136193 0.108697
0.164557 0.137231 0.111626
0.169895 0.137231 0.111626
0.175762 0.137621 0.112017
0.185332 0.140746 0.115142
0.196659 0.143663 0.117851
0.215603 0.145682 0.118763
0.240927 0.148806 0.120781
0.285390 0.155251 0.126119
0.331501 0.161859 0.131620
0.381238 0.168825 0.137479
0.429021 0.175449 0.142239
0.473550 0.181503 0.145169
0.513663 0.186105 0.149864
0.548101 0.188839 0.156830
0.576680 0.191768 0.162233
0.599400 0.194893 0.166074
0.619557 0.197286 0.168377
0.637720 0.199108 0.169484
0.655760 0.202315 0.172991
0.673728 0.206351 0.177939
0.687175 0.211282 0.182260
0.698568 0.216620 0.186296
0.709667 0.223033 0.191992
0.720669 0.229803 0.198242
0.726752 0.234193 0.202693
0.731700 0.238034 0.206729
0.738242 0.241419 0.211734
0.745012 0.244739 0.216877
0.751112 0.245984 0.217198
0.757166 0.247091 0.217198
0.160565 0.137609 0.105824
0.162713 0.139367 0.109730
0.165232 0.141015 0.113400
0.173304 0.141015 0.113530
0.182345 0.141552 0.114165
0.198164 0.145848 0.118331
0.216230 0.149815 0.121814
0.244027 0.152354 0.122335
0.278400 0.156749 0.124646
0.332498 0.166709 0.132328
0.385681 0.175449 0.138789
0.436849 0.181503 0.142565
0.482208 0.187508 0.145682
0.517883 0.193432 0.147700
0.549143 0.196765 0.151256
0.574727 0.196765 0.156789
0.596601 0.198848 0.160500
0.614764 0.203014 0.162388
0.633073 0.204910 0.164495
0.651496 0.205041 0.166774
0.668333 0.207531 0.170151
0.684217 0.211437 0.174187
0.698983 0.218028 0.178223
0.713240 0.225840 0.182260
0.724274 0.230820 0.189421
0.734234 0.234856 0.197623
0.739276 0.237359 0.202229
0.743182 0.239507 0.206005
0.746974 0.245073 0.212002
0.750749 0.251127 0.218317
0.756783 0.253642 0.219078
0.762968 0.255920 0.219468
0.162583 0.143663 0.107842
0.165773 0.143338 0.110707
0.169268 0.143033 0.113465
0.177341 0.143033 0.114637
0.188074 0.143830 0.116313
0.217434 0.150210 0.121521
0.248845 0.156651 0.126632
0.289142 0.163356 0.131319
0.332108 0.170615 0.135974
0.383081 0.179534 0.140531
0.430860 0.187557 0.144192
0.471613 0.193611 0.145885
0.508508 0.199226 0.147700
0.538975 0.204109 0.149718
0.565027 0.206855 0.151451
0.585404 0.206855 0.152818
0.604673 0.209459 0.153925
0.622836 0.214667 0.154771
0.642317 0.217605 0.157595
0.662824 0.218777 0.161957
0.679139 0.221006 0.166115
0.692941 0.223871 0.170151
0.707771 0.228704 0.174187
0.723070 0.234433 0.178223
0.733583 0.238893 0.186166
0.742502 0.242929 0.195410
0.746502 0.246277 0.198518
0.749366 0.249467 0.200211
0.751205 0.255163 0.207771
0.752898 0.261218 0.216169
0.759778 0.265685 0.219989
0.767004 0.270047 0.223505
0.164223 0.150096 0.109860
0.168454 0.147687 0.111878
0.173036 0.145454 0.113921
0.182866 0.145844 0.116330
0.196635 0.147195 0.119194
0.237973 0.155268 0.125248
0.281167 0.163792 0.131644
0.332401 0.174273 0.139521
0.382593 0.184152 0.145885
0.429660 0.192224 0.147708
0.471804 0.199727 0.148900
0.503117 0.205976 0.148705
0.532087 0.211396 0.149193
0.557150 0.215432 0.150820
0.578568 0.217788 0.150853
0.595299 0.217983 0.148835
0.612550 0.221010 0.147826
0.630323 0.226869 0.147826
0.650365 0.230678 0.151121
0.672174 0.232891 0.156980
0.688164 0.234860 0.161944
0.700663 0.236683 0.166371
0.715400 0.240028 0.170395
0.731154 0.244064 0.174236
0.741294 0.248100 0.182764
0.749561 0.252136 0.192855
0.752910 0.256807 0.195064
0.755123 0.261625 0.195455
0.755058 0.268208 0.203820
0.754668 0.275043 0.213325
0.761662 0.281330 0.219411
0.769148 0.287579 0.225270
0.164223 0.158169 0.111878
0.169496 0.153677 0.113897
0.175640 0.149620 0.116069
0.194844 0.152094 0.120561
0.217467 0.155268 0.125248
0.264013 0.163340 0.131303
0.312220 0.172255 0.137503
0.367620 0.184819 0.144339
0.419114 0.196260 0.149661
0.458890 0.204333 0.150442
0.494394 0.212161 0.150593
0.520499 0.219452 0.149356
0.543870 0.225523 0.148412
0.562684 0.229559 0.147956
0.581953 0.232370 0.146817
0.601809 0.233607 0.144799
0.619581 0.236634 0.143790
0.635270 0.241452 0.143790
0.653230 0.245390 0.146499
0.672955 0.248645 0.151317
0.689466 0.250354 0.157192
0.704048 0.251135 0.163702
0.718004 0.254154 0.167661
0.731675 0.258191 0.170460
0.742075 0.262227 0.178728
0.751384 0.266263 0.188818
0.755774 0.274319 0.192720
0.759029 0.283303 0.195194
0.757272 0.294053 0.201086
0.754798 0.305055 0.207466
0.758732 0.312578 0.212381
0.763094 0.319869 0.217198
0.164727 0.166241 0.114906
0.170521 0.160447 0.116403
0.177690 0.155251 0.118218
0.205488 0.159027 0.124793
0.236378 0.163438 0.131303
0.288914 0.172291 0.137357
0.342279 0.182134 0.143362
0.399242 0.196260 0.149156
0.450671 0.208938 0.153372
0.485499 0.217271 0.152851
0.515974 0.225441 0.151862
0.536872 0.233253 0.149844
0.555327 0.239747 0.147728
0.569714 0.244044 0.145450
0.587064 0.247343 0.143285
0.608221 0.249361 0.141267
0.626124 0.252779 0.140388
0.640771 0.257597 0.140649
0.656957 0.261828 0.142886
0.674338 0.265604 0.146662
0.691110 0.267345 0.152635
0.707515 0.267866 0.159926
0.720966 0.270983 0.164308
0.733075 0.275279 0.167368
0.743670 0.279576 0.175310
0.753760 0.283873 0.184880
0.758509 0.295151 0.189954
0.762024 0.308041 0.193990
0.757792 0.322469 0.197798
0.752454 0.337116 0.201574
0.753768 0.347308 0.205594
0.755526 0.357204 0.209630
0.166745 0.174313 0.120960
0.171498 0.169561 0.120374
0.178081 0.165277 0.120366
0.212128 0.168011 0.129024
0.249528 0.171901 0.137357
0.310397 0.183879 0.143411
0.369361 0.196260 0.149221
0.420074 0.210387 0.153974
0.467337 0.223326 0.156887
0.504248 0.232700 0.154283
0.534528 0.241261 0.151862
0.550217 0.248031 0.149844
0.565808 0.254264 0.147338
0.581237 0.259603 0.144017
0.597349 0.263488 0.141267
0.614341 0.265506 0.139249
0.631201 0.270486 0.138891
0.647932 0.278429 0.140193
0.663271 0.283441 0.142300
0.677528 0.286176 0.145035
0.693779 0.288828 0.148664
0.711226 0.291432 0.152830
0.725002 0.295916 0.159100
0.737111 0.301254 0.166326
0.747706 0.306592 0.173748
0.757796 0.311931 0.181234
0.760852 0.325943 0.185917
0.762284 0.341958 0.189954
0.753235 0.358599 0.192851
0.742689 0.375330 0.195585
0.742701 0.392488 0.199540
0.743418 0.409674 0.203576
0.168764 0.183647 0.125753
0.173125 0.180587 0.123735
0.179611 0.177845 0.122392
0.217955 0.179863 0.131181
0.260156 0.183354 0.139749
0.329357 0.197155 0.146780
0.394164 0.211018 0.153249
0.439929 0.225144 0.157286
0.483188 0.238262 0.159304
0.518928 0.248352 0.155268
0.547385 0.257588 0.151862
0.559819 0.264945 0.149844
0.573523 0.271935 0.147191
0.589342 0.278315 0.143480
0.604278 0.282929 0.140510
0.618080 0.285272 0.138492
0.633899 0.291327 0.138329
0.651736 0.301092 0.140022
0.666534 0.306682 0.141898
0.678969 0.309026 0.143916
0.694780 0.313037 0.145730
0.712617 0.318050 0.147423
0.726292 0.323555 0.154665
0.738075 0.329284 0.164430
0.748101 0.335501 0.171412
0.757540 0.341881 0.177467
0.759839 0.357834 0.182675
0.760490 0.375997 0.187687
0.749350 0.394730 0.190080
0.736525 0.413544 0.192098
0.735724 0.435226 0.195092
0.735724 0.457100 0.198152
0.170782 0.195756 0.127771
0.176185 0.195821 0.125753
0.183647 0.196008 0.124150
0.221991 0.198026 0.128772
0.265234 0.201387 0.134086
0.342768 0.214146 0.144241
0.413955 0.227162 0.153249
0.457637 0.241289 0.157286
0.497250 0.254407 0.159304
0.524657 0.264497 0.155268
0.547711 0.275035 0.151862
0.561186 0.286558 0.149844
0.575150 0.296543 0.147582
0.589928 0.303964 0.144913
0.603823 0.309620 0.142528
0.616582 0.313005 0.140510
0.631360 0.319059 0.139827
0.648156 0.327783 0.140478
0.663084 0.333503 0.141898
0.676560 0.336888 0.143916
0.692111 0.343244 0.145079
0.708906 0.351381 0.145730
0.721540 0.357147 0.151931
0.732281 0.361834 0.160655
0.740484 0.368572 0.167376
0.747840 0.375993 0.173430
0.751441 0.392142 0.181177
0.754175 0.410305 0.189315
0.746941 0.430860 0.192098
0.738283 0.451757 0.194116
0.737742 0.472593 0.194181
0.737742 0.493425 0.194116
0.175070 0.207864 0.132059
0.181124 0.210273 0.129260
0.189221 0.212755 0.126713
0.227956 0.216335 0.127950
0.272142 0.220982 0.130643
0.354494 0.233091 0.143533
0.429058 0.245651 0.154617
0.469875 0.260168 0.157872
0.506039 0.273872 0.159304
0.528238 0.285134 0.155268
0.547792 0.297291 0.151862
0.561528 0.311418 0.149844
0.575411 0.323567 0.147679
0.589537 0.332421 0.145271
0.602952 0.338996 0.143033
0.615451 0.342642 0.141015
0.629383 0.348891 0.140006
0.644746 0.357745 0.140006
0.659634 0.364328 0.141141
0.674151 0.369145 0.143159
0.688709 0.376526 0.144160
0.703292 0.385445 0.144550
0.715323 0.391544 0.149685
0.726195 0.396361 0.156976
0.734039 0.403913 0.163633
0.740875 0.412376 0.170078
0.745118 0.428085 0.179167
0.748764 0.445467 0.188867
0.745631 0.466380 0.192187
0.741530 0.487798 0.194596
0.740541 0.507324 0.192855
0.739760 0.526724 0.190837
0.183143 0.219973 0.140132
0.189197 0.223423 0.135249
0.197359 0.227142 0.130619
0.237135 0.234889 0.129773
0.282103 0.243181 0.130904
0.363413 0.255290 0.145877
0.436349 0.268045 0.158262
0.473000 0.283604 0.159434
0.506039 0.298870 0.159304
0.528238 0.313257 0.155268
0.547467 0.327563 0.151862
0.560161 0.341690 0.149844
0.573393 0.354620 0.147289
0.587519 0.365557 0.143838
0.601390 0.372848 0.141015
0.614930 0.375452 0.138997
0.628341 0.382222 0.137988
0.641621 0.393159 0.137988
0.656184 0.401826 0.139123
0.671742 0.408726 0.141141
0.684087 0.414935 0.142793
0.694503 0.420729 0.144225
0.706665 0.427284 0.148253
0.719619 0.434184 0.153461
0.729547 0.443038 0.160378
0.738466 0.452543 0.167864
0.742254 0.466755 0.176303
0.744858 0.482053 0.184961
0.746152 0.500883 0.189063
0.747258 0.520218 0.192513
0.744642 0.537661 0.190837
0.741778 0.554977 0.188818
0.190332 0.236496 0.148204
0.197298 0.239621 0.141239
0.206465 0.243323 0.134554
0.248649 0.255692 0.132080
0.295082 0.268086 0.131648
0.371249 0.280650 0.145515
0.439909 0.293886 0.157123
0.476040 0.310031 0.158946
0.508459 0.326175 0.159304
0.529747 0.342320 0.155268
0.548309 0.358119 0.151862
0.560873 0.373157 0.149844
0.574023 0.387097 0.147411
0.588150 0.399205 0.144286
0.601679 0.407298 0.141446
0.614438 0.410228 0.138972
0.627100 0.417519 0.137507
0.639664 0.429172 0.137052
0.653730 0.438554 0.137988
0.668963 0.446171 0.140006
0.680860 0.452689 0.142309
0.690756 0.458548 0.144782
0.702933 0.465302 0.147704
0.716149 0.472463 0.150829
0.726679 0.482847 0.157664
0.736313 0.494304 0.165736
0.740130 0.507560 0.173809
0.742604 0.521231 0.181881
0.745647 0.537636 0.186023
0.748772 0.554432 0.189604
0.746892 0.568482 0.187936
0.744679 0.582348 0.185917
0.196386 0.258695 0.156277
0.205435 0.259737 0.147228
0.216816 0.261812 0.138525
0.263167 0.279389 0.135009
0.311943 0.296469 0.133016
0.377694 0.310075 0.141674
0.438672 0.324157 0.149832
0.478969 0.340302 0.155821
0.513993 0.356447 0.159304
0.533197 0.372592 0.155268
0.550652 0.389042 0.151862
0.564258 0.406163 0.149844
0.578059 0.421404 0.148192
0.592186 0.433513 0.147150
0.604348 0.442517 0.145027
0.613982 0.447530 0.141511
0.625603 0.455342 0.139005
0.639209 0.465953 0.137507
0.652558 0.474294 0.137988
0.665708 0.480869 0.140006
0.679428 0.489601 0.142960
0.693490 0.499626 0.146475
0.705537 0.506250 0.148290
0.716670 0.511328 0.149331
0.725897 0.523534 0.155646
0.734491 0.538117 0.163718
0.738958 0.551112 0.171791
0.742474 0.563742 0.179863
0.743824 0.577282 0.183094
0.744866 0.590953 0.185633
0.746762 0.599925 0.183899
0.748715 0.608583 0.181881
0.206477 0.280894 0.163340
0.223338 0.283498 0.152208
0.242367 0.287233 0.141552
0.293926 0.307935 0.138036
0.346478 0.327945 0.135913
0.405980 0.343114 0.143529
0.461002 0.358172 0.150841
0.496611 0.372754 0.156830
0.527859 0.387597 0.160703
0.546022 0.403221 0.158230
0.562598 0.419476 0.155735
0.575683 0.437118 0.153197
0.588378 0.452685 0.151219
0.600421 0.464794 0.150178
0.610955 0.474253 0.148054
0.619549 0.480308 0.144538
0.630388 0.487859 0.142032
0.643473 0.496908 0.140535
0.655716 0.504566 0.140429
0.667303 0.511141 0.141405
0.681414 0.520849 0.143643
0.697038 0.532437 0.146638
0.708858 0.540623 0.148290
0.718948 0.547263 0.149331
0.727134 0.559860 0.155255
0.734686 0.574442 0.162807
0.739381 0.587015 0.169935
0.743418 0.599123 0.176966
0.743466 0.609865 0.180067
0.742946 0.620411 0.182605
0.747673 0.628211 0.180872
0.752751 0.635828 0.178854
0.220604 0.303093 0.169394
0.251005 0.310905 0.156179
0.283120 0.319588 0.143635
0.340929 0.341331 0.141161
0.398689 0.362513 0.140339
0.456107 0.379765 0.151081
0.506897 0.395930 0.160150
0.528966 0.407388 0.161973
0.550058 0.419626 0.163503
0.568221 0.434209 0.164154
0.584146 0.449422 0.163482
0.595148 0.466022 0.159902
0.604978 0.480938 0.156492
0.612855 0.493047 0.153367
0.621502 0.502507 0.150527
0.631136 0.508561 0.148054
0.641455 0.515071 0.146589
0.652457 0.522037 0.146133
0.663202 0.529369 0.145311
0.673748 0.536985 0.144205
0.686817 0.546433 0.144359
0.701400 0.556979 0.145271
0.712894 0.568421 0.147704
0.722984 0.580269 0.150829
0.730389 0.591824 0.156492
0.736899 0.603282 0.163002
0.741399 0.615268 0.168243
0.745436 0.627377 0.173190
0.744573 0.635384 0.176942
0.743011 0.642805 0.180522
0.749626 0.653339 0.178854
0.756787 0.664081 0.176836
0.233595 0.330968 0.176584
0.274608 0.342231 0.162457
0.317135 0.354103 0.149014
0.382365 0.375131 0.145824
0.445626 0.395507 0.144180
0.495102 0.411326 0.153359
0.538658 0.426401 0.161257
0.556560 0.438249 0.163600
0.574088 0.450520 0.165863
0.590494 0.464061 0.167881
0.604742 0.478050 0.168373
0.614247 0.493023 0.165509
0.622018 0.506262 0.161985
0.626901 0.516613 0.157363
0.634062 0.525597 0.154136
0.644152 0.532823 0.152704
0.653657 0.540049 0.151109
0.662576 0.547275 0.149352
0.672153 0.555637 0.147777
0.682244 0.564881 0.146345
0.694125 0.573922 0.145808
0.707080 0.582840 0.145808
0.716857 0.594131 0.148180
0.725190 0.606500 0.151630
0.732253 0.617160 0.157912
0.738893 0.627251 0.165138
0.742465 0.638981 0.169297
0.745330 0.651089 0.172747
0.744947 0.657901 0.175685
0.744101 0.663955 0.178549
0.749968 0.674037 0.177385
0.756283 0.684388 0.175953
0.245704 0.363258 0.184656
0.295049 0.376603 0.170529
0.345909 0.390299 0.156956
0.419472 0.409243 0.151683
0.488462 0.427276 0.147565
0.525438 0.438929 0.151537
0.559425 0.451204 0.155984
0.580452 0.466177 0.162494
0.599542 0.480532 0.167881
0.612823 0.493031 0.169899
0.624598 0.505652 0.171042
0.633061 0.518542 0.170261
0.639400 0.529308 0.167649
0.642199 0.536534 0.161985
0.648188 0.544671 0.158628
0.658279 0.553981 0.158238
0.666742 0.563290 0.155601
0.673577 0.572599 0.150719
0.682244 0.583044 0.148363
0.692334 0.594371 0.147972
0.702913 0.602891 0.147826
0.713785 0.609727 0.147826
0.720763 0.618218 0.149482
0.725971 0.627462 0.151890
0.733034 0.637341 0.159475
0.740716 0.647432 0.168784
0.742791 0.659162 0.172487
0.743572 0.671270 0.174895
0.744752 0.678082 0.175880
0.745989 0.684136 0.176661
0.749057 0.691289 0.176344
0.752247 0.698515 0.175953
0.257812 0.395548 0.190206
0.314189 0.410325 0.176079
0.371916 0.425396 0.162376
0.449906 0.444861 0.155019
0.521858 0.462910 0.148835
0.551543 0.471047 0.150853
0.579093 0.480198 0.153762
0.597386 0.493739 0.160533
0.613970 0.506759 0.166278
0.625428 0.518216 0.168947
0.636438 0.529674 0.170985
0.646463 0.541131 0.171636
0.654218 0.551051 0.170261
0.658189 0.558407 0.165509
0.664268 0.567530 0.162835
0.673057 0.578922 0.162835
0.680478 0.589664 0.160785
0.686532 0.599754 0.156683
0.694125 0.609881 0.154889
0.702913 0.620037 0.154889
0.711295 0.627629 0.154889
0.719432 0.633683 0.154889
0.725198 0.641573 0.156277
0.729885 0.650296 0.158295
0.735646 0.659068 0.163926
0.741766 0.667857 0.170761
0.743971 0.677756 0.173154
0.745273 0.687912 0.174521
0.747771 0.695618 0.174692
0.750440 0.702974 0.174692
0.751889 0.708500 0.175302
0.753256 0.713903 0.175953
0.269921 0.427837 0.194242
0.332547 0.443656 0.180115
0.396264 0.459834 0.166282
0.476337 0.481382 0.156842
0.549590 0.500863 0.148835
0.575110 0.505876 0.150853
0.598102 0.511706 0.153372
0.610146 0.521081 0.158059
0.621782 0.530715 0.162502
0.632198 0.541131 0.166212
0.643469 0.551547 0.169293
0.656619 0.561963 0.170985
0.667499 0.572013 0.171042
0.674595 0.581453 0.168373
0.681520 0.592658 0.166872
0.688225 0.606134 0.166872
0.694605 0.617917 0.166383
0.700659 0.628007 0.165407
0.707080 0.636377 0.164980
0.713785 0.643408 0.164980
0.719432 0.649828 0.164980
0.724445 0.655882 0.164980
0.729950 0.664488 0.166367
0.735679 0.674253 0.168385
0.739357 0.681723 0.170110
0.742352 0.688428 0.171738
0.745663 0.695398 0.172307
0.749049 0.702429 0.172633
0.752719 0.711567 0.172674
0.756429 0.721007 0.172674
0.756966 0.725686 0.174260
0.757292 0.730048 0.175953
0.290354 0.460127 0.202441
0.362810 0.476988 0.186882
0.435202 0.493914 0.171665
0.506616 0.511816 0.161574
0.572042 0.527985 0.152997
0.595543 0.532022 0.155015
0.616664 0.537217 0.157278
0.627470 0.547438 0.160598
0.637740 0.557268 0.163739
0.646398 0.565926 0.166343
0.655870 0.575032 0.168540
0.667133 0.585123 0.169842
0.676930 0.594945 0.169899
0.684286 0.604319 0.167881
0.690760 0.615146 0.167059
0.696098 0.627841 0.167775
0.702152 0.638875 0.168491
0.708923 0.648249 0.169207
0.714887 0.656159 0.169923
0.720226 0.662930 0.170639
0.724750 0.669252 0.170908
0.728786 0.675307 0.170908
0.733718 0.684136 0.172295
0.739056 0.694226 0.174313
0.741904 0.700753 0.174281
0.743922 0.706091 0.173565
0.747580 0.712593 0.174012
0.751616 0.719363 0.174728
0.755652 0.727785 0.174818
0.759688 0.736444 0.174818
0.761955 0.742111 0.176710
0.764103 0.747580 0.178728
0.314571 0.492416 0.212531
0.398485 0.510319 0.194889
0.480772 0.527831 0.177719
0.538645 0.539484 0.167628
0.592093 0.550184 0.159051
0.614552 0.554221 0.161070
0.635022 0.560002 0.163137
0.646870 0.573348 0.165415
0.657400 0.585001 0.167254
0.663975 0.591576 0.167775
0.670713 0.599250 0.168214
0.677809 0.609340 0.168475
0.684612 0.618771 0.167881
0.690927 0.627104 0.165863
0.696358 0.636434 0.165496
0.700655 0.647045 0.167254
0.706709 0.656517 0.169012
0.714521 0.664850 0.170769
0.720356 0.672890 0.172527
0.724652 0.680702 0.174285
0.728786 0.687415 0.174944
0.732823 0.693470 0.174944
0.737038 0.702299 0.176331
0.741334 0.712389 0.178350
0.743922 0.718134 0.177536
0.745940 0.722431 0.175778
0.749598 0.729584 0.176877
0.753634 0.737396 0.178634
0.757670 0.744125 0.178854
0.761707 0.750701 0.178854
0.766902 0.758191 0.180746
0.772175 0.765743 0.182764
0.334248 0.520165 0.216567
0.425713 0.537547 0.199967
0.514526 0.554522 0.183676
0.563546 0.565393 0.172023
0.609019 0.575313 0.161981
0.629655 0.578568 0.163218
0.648254 0.583569 0.164601
0.658019 0.596133 0.166619
0.666856 0.607265 0.168133
0.672910 0.614100 0.168133
0.678964 0.621953 0.168133
0.685019 0.632044 0.168133
0.690487 0.640791 0.167669
0.694979 0.647301 0.166432
0.699613 0.655036 0.166961
0.704431 0.664345 0.169760
0.710876 0.673427 0.172169
0.718948 0.682280 0.174187
0.724311 0.690255 0.175326
0.727566 0.697546 0.175782
0.731797 0.704065 0.175953
0.736615 0.710119 0.175953
0.740895 0.717874 0.177878
0.744931 0.726402 0.180677
0.748040 0.732733 0.180449
0.750839 0.738332 0.179212
0.755278 0.745940 0.180620
0.760095 0.754013 0.182638
0.764913 0.760319 0.182890
0.769730 0.766373 0.182890
0.774975 0.772855 0.184050
0.780248 0.779365 0.185287
0.352411 0.546401 0.218585
0.450126 0.562741 0.204068
0.544342 0.578804 0.189600
0.586071 0.590717 0.175864
0.624903 0.601418 0.163869
0.643456 0.603632 0.164064
0.659776 0.607395 0.164601
0.666416 0.617876 0.166619
0.672910 0.627706 0.168133
0.678964 0.635583 0.168133
0.685019 0.644152 0.168133
0.691073 0.654243 0.168133
0.695760 0.662209 0.168060
0.698169 0.666636 0.167864
0.702087 0.672743 0.169435
0.707946 0.681011 0.173276
0.714912 0.690092 0.176205
0.722984 0.699988 0.178223
0.727761 0.707832 0.178191
0.729974 0.714082 0.176563
0.734466 0.720209 0.175953
0.740325 0.726264 0.175953
0.744931 0.732587 0.178594
0.748967 0.739031 0.182435
0.752857 0.746404 0.183248
0.756698 0.754086 0.183053
0.762179 0.762085 0.184656
0.768038 0.770157 0.186674
0.773897 0.776464 0.186926
0.779756 0.782518 0.186926
0.784089 0.787047 0.187110
0.788320 0.791474 0.187305
0.390250 0.574276 0.223883
0.478135 0.587881 0.207217
0.562785 0.601288 0.190763
0.598916 0.611704 0.177483
0.632695 0.621388 0.165757
0.650011 0.625945 0.164910
0.665216 0.631539 0.164601
0.671270 0.641630 0.166619
0.677113 0.650792 0.168133
0.682321 0.657172 0.168133
0.687529 0.664183 0.168397
0.692737 0.672581 0.169244
0.697701 0.680295 0.170090
0.702258 0.686870 0.170936
0.707840 0.693730 0.172808
0.714741 0.700956 0.175998
0.720958 0.708345 0.177756
0.726492 0.715897 0.178081
0.731000 0.722606 0.178040
0.734710 0.728660 0.177715
0.739886 0.735772 0.178122
0.745940 0.743519 0.178968
0.751189 0.750684 0.181426
0.756071 0.757585 0.184615
0.760954 0.764095 0.185413
0.765836 0.770475 0.185413
0.772359 0.776855 0.186365
0.779259 0.783234 0.187537
0.784679 0.788589 0.188424
0.789887 0.793797 0.189270
0.793996 0.797906 0.190910
0.798032 0.801942 0.192602
0.432630 0.602529 0.229937
0.506974 0.613010 0.210147
0.578605 0.623357 0.190828
0.609527 0.631690 0.178590
0.638619 0.639941 0.167645
0.654894 0.647623 0.165757
0.669252 0.655756 0.164601
0.675307 0.665847 0.166619
0.680889 0.674489 0.168133
0.685055 0.678785 0.168133
0.689222 0.683713 0.168723
0.693388 0.690027 0.170611
0.698873 0.697612 0.172499
0.706555 0.707311 0.174387
0.714350 0.715473 0.176388
0.722293 0.721658 0.178537
0.727468 0.726964 0.178732
0.729877 0.731390 0.176974
0.734190 0.736733 0.177194
0.739984 0.742787 0.178952
0.745940 0.751201 0.180791
0.751994 0.761031 0.182679
