其他预设/【236】赛博朋克风调色预设/【后期菌】视频调色预设/CUBE/Sunset 05_S.cube
# LUT by SparkleStock. Enhanced with VOXCOLOR algorithms.
LUT_3D_SIZE 8
DOMAIN_MIN 0.000000 0.000000 0.000000
DOMAIN_MAX 0.903226 0.903226 0.903226
0.152493 0.129032 0.101662
0.160565 0.129032 0.109482
0.178980 0.133951 0.110491
0.266894 0.146186 0.120329
0.470848 0.175070 0.156529
0.600385 0.196639 0.180998
0.668369 0.212657 0.200044
0.708731 0.228550 0.207234
0.160565 0.137609 0.105824
0.182345 0.141552 0.114165
0.278400 0.156749 0.124646
0.482208 0.187508 0.145682
0.596601 0.198848 0.160500
0.668333 0.207531 0.170151
0.724274 0.230820 0.189421
0.746974 0.245073 0.212002
0.164727 0.166241 0.114906
0.236378 0.163438 0.131303
0.450671 0.208938 0.153372
0.555327 0.239747 0.147728
0.626124 0.252779 0.140388
0.691110 0.267345 0.152635
0.743670 0.279576 0.175310
0.757792 0.322469 0.197798
0.175070 0.207864 0.132059
0.272142 0.220982 0.130643
0.506039 0.273872 0.159304
0.575411 0.323567 0.147679
0.629383 0.348891 0.140006
0.688709 0.376526 0.144160
0.734039 0.403913 0.163633
0.745631 0.466380 0.192187
0.206477 0.280894 0.163340
0.346478 0.327945 0.135913
0.527859 0.387597 0.160703
0.588378 0.452685 0.151219
0.630388 0.487859 0.142032
0.681414 0.520849 0.143643
0.727134 0.559860 0.155255
0.743466 0.609865 0.180067
0.257812 0.395548 0.190206
0.521858 0.462910 0.148835
0.613970 0.506759 0.166278
0.654218 0.551051 0.170261
0.680478 0.589664 0.160785
0.711295 0.627629 0.154889
0.735646 0.659068 0.163926
0.747771 0.695618 0.174692
0.334248 0.520165 0.216567
0.609019 0.575313 0.161981
0.666856 0.607265 0.168133
0.690487 0.640791 0.167669
0.710876 0.673427 0.172169
0.731797 0.704065 0.175953
0.748040 0.732733 0.180449
0.764913 0.760319 0.182890
0.476776 0.621953 0.235992
0.651492 0.658039 0.173292
0.689108 0.686964 0.173658
0.712462 0.713561 0.179521
0.735345 0.740342 0.182841
0.753760 0.764351 0.185852
0.779743 0.792788 0.191215
0.805136 0.813376 0.205000
0.152493 0.129032 0.109986
0.168637 0.132959 0.117571
0.184973 0.133951 0.122758
0.305750 0.147553 0.146467
0.510823 0.170021 0.176079
0.628215 0.183395 0.197522
0.684612 0.205118 0.213036
0.725369 0.228550 0.233709
0.160817 0.141755 0.114637
0.188134 0.145320 0.129980
0.321165 0.165433 0.154208
0.493563 0.187207 0.176837
0.601223 0.193819 0.186825
0.685767 0.202045 0.201811
0.740588 0.215691 0.205419
0.766216 0.243017 0.225547
0.169175 0.174598 0.131555
0.193743 0.173231 0.143680
0.486765 0.232110 0.187248
0.555534 0.248497 0.190061
0.629594 0.261381 0.193896
0.700789 0.268838 0.195328
0.766605 0.283624 0.209439
0.797889 0.312673 0.231553
0.185889 0.221865 0.156277
0.213202 0.246325 0.171069
0.471062 0.309780 0.185196
0.564097 0.340818 0.181948
0.628703 0.368706 0.181869
0.699003 0.392326 0.182711
0.757835 0.416696 0.189750
0.786237 0.463173 0.201732
0.221043 0.306121 0.187492
0.267287 0.349395 0.197660
0.484475 0.426152 0.173898
0.572046 0.471048 0.179595
0.624623 0.508836 0.173574
0.684807 0.534723 0.168760
0.739556 0.571533 0.172093
0.759331 0.611179 0.175606
0.276057 0.423756 0.214675
0.359057 0.474450 0.215271
0.602833 0.539068 0.176228
0.635548 0.571741 0.172409
0.665419 0.611092 0.168422
0.703690 0.643275 0.163600
0.738822 0.669633 0.167730
0.765132 0.698910 0.172454
0.359767 0.542617 0.235206
0.548250 0.596092 0.216069
0.656342 0.624019 0.173125
0.690170 0.655315 0.172062
0.703951 0.683527 0.169641
0.731879 0.712774 0.177259
0.749884 0.741963 0.180153
0.781165 0.766316 0.178611
0.502784 0.632044 0.242575
0.639458 0.676793 0.207369
0.690323 0.698034 0.185355
0.716941 0.722784 0.186056
0.739177 0.752330 0.190134
0.758920 0.774051 0.193441
0.785981 0.800299 0.198151
0.813499 0.824978 0.218495
0.153502 0.129537 0.118311
0.172800 0.133195 0.126131
0.199226 0.137357 0.143480
0.356724 0.145722 0.186463
0.540843 0.164727 0.216319
0.643648 0.178134 0.238893
0.705773 0.199344 0.246460
0.745362 0.227720 0.259757
0.164003 0.148900 0.134082
0.186130 0.143014 0.141706
0.351353 0.172015 0.199918
0.519272 0.186139 0.240365
0.606415 0.186955 0.255387
0.691436 0.195125 0.263232
0.753325 0.212157 0.262817
0.783575 0.241328 0.262843
0.169142 0.177463 0.154881
0.194027 0.191219 0.175949
0.477471 0.233213 0.238188
0.553037 0.253805 0.257865
0.630668 0.265145 0.267720
0.706144 0.274209 0.269469
0.774067 0.287353 0.272553
0.807349 0.321068 0.270174
0.190304 0.235361 0.182988
0.216951 0.269471 0.207473
0.385579 0.329415 0.248878
0.571877 0.350935 0.266090
0.638750 0.371172 0.268555
0.708190 0.390715 0.264847
0.775956 0.419626 0.260036
0.804530 0.467553 0.244186
0.220339 0.323392 0.205842
0.275505 0.382321 0.233351
0.374262 0.457243 0.249738
0.560796 0.489183 0.241449
0.633062 0.509542 0.240162
0.694264 0.535648 0.235811
0.756264 0.564509 0.230130
0.796801 0.599207 0.212419
0.278823 0.457262 0.240390
0.364567 0.500326 0.250774
0.518699 0.567892 0.240374
0.617439 0.597357 0.201071
0.655534 0.621910 0.196923
0.700277 0.648318 0.196540
0.748481 0.675343 0.200917
0.794439 0.695422 0.202445
0.380664 0.564059 0.256286
0.535871 0.605752 0.248422
0.634783 0.658165 0.227828
0.688020 0.673273 0.183286
0.706214 0.698570 0.183479
0.730489 0.725653 0.190179
0.757316 0.752259 0.197893
0.805438 0.774124 0.204481
0.526317 0.649678 0.258292
0.632214 0.688995 0.242869
0.686348 0.712960 0.203659
0.720522 0.736394 0.194681
0.746049 0.762187 0.195642
0.767476 0.784435 0.197513
0.790238 0.810609 0.207267
0.826468 0.840552 0.239581
0.160313 0.133699 0.139123
0.176759 0.133195 0.145254
0.217015 0.137357 0.173430
0.395865 0.147700 0.225502
0.573197 0.166998 0.269372
0.663568 0.181637 0.286814
0.721007 0.194913 0.294305
0.754985 0.217792 0.293434
0.166143 0.155015 0.171917
0.182239 0.156513 0.187683
0.366281 0.170210 0.251500
0.544630 0.186208 0.306053
0.625741 0.187613 0.330138
0.699594 0.196199 0.331940
0.764259 0.216189 0.325453
0.785562 0.244327 0.303499
0.174468 0.190080 0.195251
0.195601 0.206713 0.224434
0.383361 0.227199 0.293688
0.567038 0.252240 0.330263
0.638460 0.266014 0.351100
0.709244 0.277382 0.350582
0.779413 0.296294 0.342614
0.813091 0.335563 0.316960
0.187411 0.258716 0.229958
0.216175 0.281260 0.239469
0.376578 0.340470 0.315194
0.572059 0.355466 0.342902
0.643963 0.380089 0.350872
0.712110 0.398590 0.342076
0.779658 0.428468 0.334618
0.822917 0.475045 0.306920
0.221865 0.347719 0.239694
0.284557 0.397197 0.264136
0.389742 0.473659 0.310759
0.544138 0.520977 0.325547
0.653032 0.512710 0.320152
0.704748 0.540358 0.315812
0.771591 0.566123 0.312060
0.825007 0.588312 0.294850
0.289304 0.483066 0.276598
0.401649 0.526967 0.295667
0.536299 0.586085 0.290416
0.596571 0.631864 0.275618
0.665405 0.635913 0.244219
0.706110 0.655933 0.247914
0.755360 0.675407 0.270305
0.814267 0.693575 0.274099
0.404666 0.576082 0.285899
0.558319 0.627058 0.271585
0.637054 0.670139 0.253711
0.678154 0.704304 0.237904
0.704129 0.709950 0.204005
0.729223 0.742654 0.220471
0.763188 0.763242 0.252870
0.824693 0.779896 0.269400
0.556345 0.660765 0.270299
0.642888 0.705977 0.263091
0.690275 0.732289 0.241839
0.727964 0.754243 0.223229
0.754216 0.770484 0.201852
0.771907 0.798944 0.214160
0.795744 0.827858 0.249551
0.844750 0.856236 0.301021
0.162331 0.142781 0.180115
0.177149 0.137101 0.188945
0.243568 0.137617 0.215806
0.439555 0.162445 0.261344
0.599888 0.175819 0.313192
0.683021 0.187305 0.332449
0.735345 0.199540 0.339407
0.770255 0.216840 0.335257
0.174631 0.167380 0.214488
0.186235 0.181523 0.243486
0.363800 0.165972 0.299284
0.579938 0.189212 0.351260
0.655223 0.194677 0.383204
0.717069 0.202978 0.383510
0.767384 0.224325 0.365926
0.790526 0.252892 0.335787
0.191589 0.209378 0.257938
0.204557 0.226264 0.278253
0.283064 0.248120 0.337266
0.585239 0.248356 0.386235
0.666167 0.262117 0.405794
0.725973 0.277253 0.406985
0.783145 0.310621 0.387574
0.805997 0.355352 0.349551
0.198083 0.275414 0.279438
0.226937 0.306885 0.291485
0.336312 0.362931 0.353446
0.534813 0.394014 0.406491
0.662597 0.383805 0.406702
0.726553 0.413179 0.397743
0.779934 0.446567 0.386342
0.823001 0.491993 0.363312
0.222866 0.370683 0.280634
0.294764 0.422716 0.310008
0.419810 0.488736 0.358296
0.561638 0.533290 0.371065
0.666381 0.533216 0.373005
0.718317 0.550986 0.359474
0.771394 0.576088 0.371320
0.828381 0.598933 0.361015
0.306458 0.502897 0.315886
0.433742 0.546167 0.329708
0.559978 0.595689 0.318287
0.617319 0.639134 0.304338
0.670115 0.664397 0.290951
0.712958 0.667699 0.287054
0.757980 0.682761 0.331046
0.818656 0.697823 0.341510
0.440642 0.600914 0.319730
0.572608 0.640877 0.295353
0.651011 0.685462 0.275009
0.689417 0.715760 0.255916
0.714462 0.739219 0.245974
0.729107 0.753845 0.263879
0.769573 0.768815 0.310282
0.834468 0.783841 0.338845
0.574206 0.680673 0.291481
0.649522 0.720008 0.274295
0.691680 0.747399 0.261537
0.725534 0.770041 0.246174
0.754826 0.790338 0.234499
0.770969 0.807002 0.242692
0.799451 0.839344 0.298246
0.857568 0.869925 0.382358
0.175827 0.157538 0.244568
0.185755 0.166790 0.267451
0.246245 0.155174 0.292641
0.470030 0.163600 0.326822
0.626819 0.178317 0.360072
0.695166 0.190206 0.382039
0.750969 0.201777 0.393216
0.786615 0.211457 0.394595
0.192224 0.188818 0.297832
0.207162 0.204560 0.328804
0.309222 0.174852 0.353866
0.594077 0.180754 0.380270
0.690386 0.198441 0.408610
0.738486 0.210090 0.406625
0.768804 0.229523 0.382952
0.788674 0.259904 0.361016
0.209919 0.235560 0.335456
0.224653 0.248933 0.346002
0.273967 0.265477 0.369373
0.614078 0.238128 0.408235
0.706720 0.249950 0.420969
0.751166 0.275191 0.416987
0.785777 0.323838 0.386234
0.803696 0.381353 0.375139
0.214155 0.294634 0.343960
0.243773 0.324510 0.346385
0.335304 0.371434 0.383519
0.511483 0.423502 0.433482
0.693032 0.399875 0.430101
0.747329 0.432088 0.392457
0.777199 0.475860 0.388120
0.815121 0.521927 0.389399
0.233343 0.405394 0.345242
0.321843 0.452714 0.363265
0.461946 0.509217 0.388626
0.579514 0.562706 0.387546
0.665090 0.577268 0.383903
0.738899 0.575544 0.357400
0.775674 0.598469 0.385485
0.824849 0.621275 0.400849
0.323934 0.532400 0.361378
0.462602 0.569098 0.376870
0.579768 0.613233 0.349430
0.647012 0.653631 0.317509
0.692600 0.685858 0.294354
0.718693 0.692839 0.320328
0.767285 0.696032 0.376631
0.824405 0.705737 0.406326
0.465359 0.624838 0.363494
0.591282 0.657791 0.320905
0.661735 0.695469 0.293691
0.695078 0.727311 0.274675
0.722643 0.750595 0.259834
0.735161 0.769866 0.306959
0.774728 0.777479 0.349694
0.838268 0.790590 0.392809
0.597663 0.695805 0.306690
0.667434 0.730731 0.285040
0.704756 0.754142 0.264114
0.735586 0.781582 0.258944
0.764605 0.799006 0.249042
0.783335 0.820177 0.269859
0.808874 0.848315 0.342567
0.860173 0.874987 0.450151
0.200044 0.186800 0.353546
0.210708 0.194564 0.371050
0.260669 0.183704 0.385103
0.515124 0.166957 0.411904
0.640128 0.175184 0.437891
0.711506 0.185808 0.449186
0.763139 0.195503 0.455171
0.797276 0.208800 0.452526
0.217703 0.213190 0.397623
0.227789 0.228149 0.420490
0.256758 0.234130 0.435563
0.566210 0.186763 0.452333
0.717064 0.198028 0.435023
0.755702 0.211180 0.436086
0.780483 0.234214 0.418827
0.799775 0.263473 0.408796
0.233721 0.256299 0.413263
0.243161 0.267569 0.415346
0.295240 0.298398 0.431693
0.583452 0.248969 0.456028
0.726730 0.248023 0.436636
0.771870 0.279597 0.411405
0.794374 0.342957 0.398367
0.800541 0.416729 0.385857
0.236411 0.321252 0.404755
0.269430 0.350026 0.412689
0.361063 0.403053 0.434261
0.505880 0.453263 0.453878
0.703260 0.428683 0.431248
0.761994 0.465272 0.379141
0.780068 0.512706 0.384138
0.805741 0.552921 0.393316
0.247079 0.436882 0.407290
0.342667 0.482328 0.417369
0.483797 0.535457 0.438879
0.596819 0.583026 0.415098
0.667443 0.619559 0.379868
0.745830 0.606919 0.353965
0.779732 0.626805 0.376344
0.811817 0.643615 0.392576
0.341165 0.552280 0.407164
0.498061 0.590970 0.422887
0.599127 0.634808 0.388706
0.657719 0.671239 0.345577
0.696155 0.700911 0.307747
0.721827 0.716300 0.313941
0.765726 0.714835 0.364320
0.816660 0.726388 0.411072
0.504427 0.636837 0.388574
0.606866 0.670719 0.340711
0.673563 0.708333 0.307282
0.708079 0.737400 0.280242
0.736204 0.762898 0.262342
0.754330 0.784372 0.289860
0.784474 0.791820 0.346742
0.834655 0.804392 0.400865
0.620082 0.711486 0.322823
0.678783 0.741004 0.291845
0.717544 0.767087 0.273355
0.742980 0.788967 0.264357
0.774012 0.807537 0.257398
0.796659 0.828191 0.271438
0.822729 0.859157 0.369419
0.864749 0.882620 0.511899
0.224261 0.208621 0.459496
0.234340 0.214675 0.471226
0.257324 0.216368 0.483233
0.507572 0.172080 0.497030
0.656281 0.176962 0.517972
0.728530 0.186231 0.517700
0.773709 0.193937 0.514510
0.801393 0.208031 0.510665
0.240154 0.237115 0.487233
0.248396 0.249505 0.499299
0.269620 0.260754 0.512823
0.522521 0.194794 0.535629
0.722065 0.196719 0.497869
0.764917 0.209659 0.492575
0.792259 0.236963 0.472195
0.807315 0.264274 0.454512
0.245480 0.279181 0.487322
0.260629 0.299140 0.490007
0.314117 0.324284 0.501941
0.436459 0.327434 0.518435
0.708040 0.266568 0.503220
0.780338 0.288711 0.455692
0.798691 0.359501 0.438504
0.799939 0.450694 0.399701
0.254533 0.343655 0.468020
0.289345 0.374040 0.466923
0.388659 0.429725 0.491738
0.531288 0.484428 0.506097
0.692559 0.492233 0.480180
0.758552 0.507953 0.412617
0.782300 0.550392 0.369424
0.794648 0.598416 0.349430
0.264237 0.455586 0.466909
0.368672 0.503090 0.464826
0.518569 0.561197 0.478502
0.608300 0.603637 0.460917
0.669787 0.640857 0.414589
0.744542 0.641468 0.345731
0.780327 0.657929 0.323814
0.798964 0.687306 0.328066
0.367856 0.571940 0.451355
0.517114 0.609389 0.461278
0.615254 0.648854 0.420062
0.674047 0.687066 0.366748
0.705887 0.714392 0.319213
0.733040 0.737695 0.282069
0.763219 0.745387 0.300567
0.802531 0.757923 0.335115
0.525316 0.655577 0.418870
0.623404 0.685365 0.363485
0.685930 0.720854 0.323038
0.719259 0.750452 0.293300
0.745563 0.774625 0.268419
0.769318 0.796316 0.262073
0.792609 0.808766 0.290965
0.831301 0.826441 0.354399
0.632890 0.724583 0.339167
0.686686 0.753646 0.307377
0.722169 0.777662 0.287436
0.750167 0.799293 0.273729
0.779404 0.814503 0.269422
0.806493 0.840581 0.298133
0.839388 0.867242 0.396759
0.873037 0.894677 0.565612
