其他预设/【236】赛博朋克风调色预设/【后期菌】视频调色预设/CUBE/Sunset 04_S.cube
# LUT by SparkleStock. Enhanced with VOXCOLOR algorithms.
LUT_3D_SIZE 8
DOMAIN_MIN 0.000000 0.000000 0.000000
DOMAIN_MAX 0.903226 0.903226 0.903226
0.007820 0.019550 0.039101
0.035947 0.039605 0.063570
0.078327 0.060165 0.091950
0.175322 0.078075 0.110995
0.451045 0.144042 0.117302
0.790086 0.217324 0.150979
0.903604 0.254785 0.182007
0.959354 0.269416 0.202945
0.023713 0.063822 0.071390
0.085619 0.083405 0.107037
0.200048 0.096840 0.118213
0.478615 0.166200 0.112627
0.741892 0.212971 0.131742
0.856142 0.240829 0.153384
0.936972 0.263557 0.181291
0.973090 0.291982 0.209516
0.026866 0.109104 0.103680
0.153799 0.121973 0.130448
0.440279 0.193734 0.115544
0.676108 0.242172 0.117400
0.767635 0.269807 0.122091
0.853709 0.288409 0.130546
0.925986 0.315397 0.147744
0.966544 0.381099 0.162156
0.028127 0.169520 0.132816
0.200744 0.185063 0.120504
0.583459 0.282505 0.111809
0.728176 0.331998 0.117156
0.777404 0.358225 0.116350
0.842683 0.397810 0.116033
0.913992 0.446834 0.128735
0.958073 0.569360 0.157985
0.046921 0.252641 0.163340
0.329455 0.315715 0.128536
0.684994 0.426324 0.153249
0.755192 0.507471 0.144363
0.789590 0.561158 0.137625
0.847708 0.627861 0.153933
0.916067 0.706766 0.201407
0.954813 0.793561 0.258589
0.100527 0.397818 0.195377
0.664386 0.545697 0.193611
0.838557 0.656371 0.223073
0.864573 0.716132 0.226979
0.876698 0.755957 0.228529
0.901501 0.793435 0.250916
0.925978 0.828589 0.276655
0.941191 0.862359 0.301645
0.359726 0.576168 0.251506
0.783291 0.719412 0.249671
0.870053 0.780386 0.270816
0.898559 0.812668 0.282493
0.911160 0.841308 0.295513
0.918724 0.861082 0.303565
0.921804 0.876486 0.315536
0.923028 0.887838 0.329528
0.598997 0.717182 0.282534
0.814466 0.799684 0.275332
0.866749 0.832015 0.293231
0.880595 0.853603 0.305327
0.896793 0.870432 0.312679
0.906823 0.881910 0.324157
0.913011 0.897823 0.335257
0.922398 0.908523 0.349082
0.016397 0.043768 0.075300
0.052377 0.067716 0.103192
0.093842 0.074763 0.120736
0.251807 0.093813 0.147952
0.556918 0.153184 0.151992
0.811870 0.209459 0.182512
0.922369 0.250411 0.216120
0.969571 0.271321 0.235739
0.036183 0.084618 0.104168
0.110360 0.095687 0.138682
0.269044 0.123071 0.157902
0.536170 0.177925 0.152999
0.713952 0.204134 0.173248
0.827871 0.226077 0.192792
0.916501 0.246116 0.204424
0.969383 0.289662 0.231530
0.046546 0.129223 0.140417
0.124139 0.144030 0.164113
0.558673 0.225396 0.160887
0.657290 0.253129 0.171164
0.722269 0.268070 0.178045
0.807621 0.278052 0.182540
0.899588 0.309123 0.197933
0.964321 0.361366 0.218747
0.043515 0.200016 0.180136
0.129807 0.225709 0.197173
0.534209 0.301960 0.156195
0.666077 0.339335 0.156411
0.719664 0.363396 0.154930
0.796465 0.392778 0.151118
0.886473 0.440819 0.155395
0.953110 0.541216 0.167577
0.066784 0.297230 0.203197
0.198180 0.351327 0.220856
0.585859 0.448286 0.165485
0.697115 0.507196 0.157046
0.733644 0.551506 0.157681
0.804640 0.605088 0.170561
0.888392 0.683932 0.209641
0.943341 0.764917 0.250896
0.155141 0.442387 0.238604
0.387096 0.524660 0.254754
0.790726 0.674727 0.233365
0.810982 0.714193 0.223486
0.815830 0.743483 0.226940
0.858406 0.774451 0.245445
0.907430 0.812584 0.267897
0.927305 0.833487 0.280304
0.422959 0.606537 0.280923
0.651011 0.697418 0.269251
0.844334 0.775325 0.271243
0.886263 0.822799 0.284415
0.885220 0.834873 0.285529
0.903045 0.859857 0.300122
0.912379 0.872882 0.312286
0.914273 0.874960 0.309345
0.635486 0.731586 0.301315
0.781895 0.799661 0.285902
0.858668 0.837360 0.299182
0.880249 0.859209 0.310730
0.893429 0.873374 0.321100
0.904963 0.885856 0.329780
0.914364 0.900903 0.340470
0.923443 0.908579 0.363593
0.032290 0.068489 0.104689
0.068302 0.087503 0.140352
0.127962 0.085582 0.160943
0.322623 0.111065 0.195670
0.636568 0.164849 0.207990
0.838358 0.215595 0.242062
0.928004 0.246587 0.262731
0.974994 0.278148 0.283547
0.051938 0.111598 0.148302
0.107429 0.116254 0.176537
0.327727 0.137707 0.203365
0.593078 0.190861 0.223162
0.710737 0.203978 0.244625
0.810906 0.219253 0.257753
0.908121 0.244760 0.266008
0.970730 0.289358 0.272147
0.070947 0.156395 0.184025
0.134176 0.180368 0.217699
0.550418 0.233912 0.227167
0.641460 0.257650 0.238808
0.715012 0.270703 0.250401
0.798635 0.281530 0.253970
0.888195 0.308886 0.256038
0.962333 0.371129 0.264965
0.079015 0.226910 0.233847
0.152716 0.267448 0.255830
0.410603 0.311001 0.245377
0.656258 0.347383 0.239636
0.715166 0.364672 0.240559
0.792766 0.389572 0.237919
0.874860 0.434319 0.233639
0.946615 0.518705 0.215461
0.075414 0.338544 0.259065
0.236507 0.394614 0.275659
0.415469 0.472857 0.273538
0.662522 0.511761 0.216901
0.722989 0.534973 0.203851
0.789875 0.578140 0.215024
0.862300 0.631530 0.235122
0.929235 0.701399 0.259411
0.216718 0.485679 0.282786
0.427123 0.558601 0.302029
0.620114 0.652088 0.301090
0.763379 0.715794 0.247051
0.796067 0.742727 0.254003
0.834786 0.762353 0.267488
0.873636 0.778714 0.275629
0.914240 0.785545 0.281354
0.479400 0.639852 0.319718
0.649503 0.709130 0.315186
0.773568 0.775676 0.302181
0.871222 0.825989 0.288406
0.873138 0.842786 0.295789
0.885116 0.853514 0.302292
0.881057 0.851146 0.303534
0.909252 0.851513 0.304748
0.662791 0.751063 0.329353
0.767356 0.798115 0.314581
0.835031 0.836685 0.300495
0.876779 0.864875 0.314923
0.896283 0.880480 0.325425
0.905643 0.890691 0.334427
0.898559 0.896283 0.331701
0.916165 0.900325 0.362752
0.048434 0.100779 0.162457
0.088117 0.112159 0.194698
0.171734 0.098606 0.216637
0.406082 0.134688 0.253166
0.717984 0.197269 0.285895
0.862839 0.236219 0.318473
0.938376 0.266263 0.338577
0.973229 0.296156 0.346987
0.070459 0.142199 0.211900
0.119241 0.157900 0.247670
0.376251 0.156405 0.276368
0.652372 0.208335 0.306011
0.741533 0.220970 0.329297
0.828002 0.231548 0.338115
0.920590 0.265491 0.340818
0.971383 0.309490 0.332190
0.100457 0.193921 0.261991
0.152634 0.222278 0.302170
0.408673 0.232492 0.316948
0.664425 0.271158 0.322494
0.725093 0.277493 0.334800
0.803543 0.293642 0.334047
0.892331 0.324993 0.328244
0.961128 0.392155 0.313518
0.130420 0.277383 0.316044
0.185271 0.303843 0.322406
0.411461 0.340032 0.333541
0.658053 0.361573 0.321000
0.722944 0.379114 0.322484
0.794367 0.400558 0.318822
0.867202 0.441098 0.310385
0.944148 0.512910 0.297847
0.113323 0.385811 0.332962
0.276480 0.437374 0.339901
0.441690 0.509867 0.349733
0.623421 0.549068 0.333303
0.746398 0.536956 0.297233
0.794824 0.569084 0.293865
0.854029 0.604311 0.305685
0.927358 0.649008 0.309350
0.280902 0.532392 0.349257
0.494392 0.603112 0.362437
0.645586 0.676982 0.355780
0.707773 0.719028 0.337511
0.800504 0.750648 0.293930
0.829681 0.758126 0.303466
0.850259 0.747635 0.315020
0.908226 0.752605 0.322839
0.525670 0.663198 0.358843
0.681833 0.730512 0.352337
0.775165 0.784203 0.341491
0.824203 0.817122 0.323799
0.860366 0.841931 0.304087
0.859169 0.849336 0.318244
0.860747 0.839395 0.331032
0.905624 0.836627 0.339602
0.696045 0.766337 0.353131
0.784407 0.810755 0.347178
0.832159 0.839689 0.333726
0.870295 0.869606 0.324137
0.896987 0.882044 0.330228
0.893162 0.895404 0.341664
0.883746 0.898109 0.354459
0.913088 0.899056 0.411993
0.070507 0.132186 0.238893
0.120834 0.143354 0.269555
0.227577 0.120590 0.287217
0.529588 0.177581 0.319755
0.797756 0.246192 0.372356
0.904886 0.281850 0.406940
0.961234 0.303610 0.423777
0.980312 0.324585 0.424277
0.096238 0.182894 0.299370
0.131779 0.206184 0.351271
0.404921 0.170278 0.350989
0.743972 0.250089 0.395782
0.805885 0.258252 0.417287
0.878581 0.269269 0.416382
0.941537 0.301347 0.411956
0.981331 0.348796 0.393219
0.136974 0.247087 0.370818
0.178956 0.276740 0.401377
0.301007 0.281876 0.411331
0.707464 0.292276 0.402832
0.782910 0.302875 0.412164
0.843395 0.318085 0.409486
0.918280 0.365802 0.387650
0.966406 0.433684 0.360290
0.179452 0.327803 0.404812
0.246309 0.361756 0.409444
0.375157 0.388715 0.411731
0.623207 0.410006 0.404487
0.766262 0.402317 0.389654
0.825863 0.438017 0.381101
0.887097 0.479291 0.374543
0.947869 0.537008 0.366227
0.166745 0.446236 0.415073
0.332634 0.489667 0.410253
0.497573 0.552930 0.419904
0.674358 0.592802 0.399898
0.794928 0.594776 0.375025
0.838267 0.606291 0.363325
0.867447 0.623302 0.377749
0.929888 0.653845 0.378898
0.361696 0.577229 0.413910
0.552086 0.635909 0.419485
0.692919 0.703239 0.407526
0.755984 0.743468 0.384332
0.810554 0.770405 0.365914
0.839173 0.771890 0.338583
0.851988 0.751600 0.366448
0.905616 0.752300 0.378606
0.586563 0.695223 0.409939
0.709981 0.748141 0.387129
0.792035 0.796155 0.370509
0.838617 0.826701 0.354210
0.858125 0.847667 0.343095
0.843370 0.846613 0.347329
0.855133 0.836434 0.374301
0.903226 0.831821 0.389864
0.711612 0.783723 0.379696
0.782779 0.818764 0.368545
0.827931 0.845548 0.360540
0.858563 0.871273 0.345088
0.882264 0.888356 0.342825
0.877294 0.894075 0.354258
0.877323 0.897378 0.397658
0.913746 0.899946 0.489983
0.107968 0.180872 0.353798
0.136319 0.202359 0.384033
0.257003 0.187895 0.396768
0.637361 0.212336 0.409446
0.862400 0.287421 0.461303
0.937057 0.311699 0.496847
0.978384 0.331709 0.512740
0.987604 0.347492 0.511584
0.129960 0.233550 0.422450
0.166356 0.260091 0.464947
0.363799 0.210926 0.443636
0.798628 0.278397 0.466309
0.897299 0.305993 0.492886
0.939204 0.318698 0.485754
0.972081 0.350546 0.477272
0.989637 0.386348 0.451684
0.170692 0.300949 0.483929
0.213996 0.325555 0.496042
0.310694 0.336239 0.497095
0.779076 0.326336 0.463992
0.881661 0.341466 0.478211
0.917244 0.369244 0.457887
0.957780 0.422333 0.418465
0.970007 0.483518 0.399629
0.217686 0.382153 0.488112
0.288866 0.407993 0.485886
0.409660 0.440037 0.483438
0.626229 0.472956 0.485351
0.848993 0.462484 0.445461
0.895483 0.502684 0.409543
0.922414 0.550615 0.409920
0.955729 0.582601 0.411179
0.228403 0.505302 0.496379
0.396788 0.546273 0.481857
0.579108 0.603813 0.480926
0.720646 0.657701 0.469546
0.830967 0.678173 0.435995
0.900417 0.673416 0.397057
0.901147 0.677326 0.417291
0.934606 0.686425 0.434062
0.427528 0.622779 0.481008
0.594523 0.663790 0.477201
0.730294 0.720871 0.453472
0.804455 0.770265 0.417407
0.854818 0.802755 0.396153
0.848947 0.793292 0.396080
0.866033 0.768791 0.421534
0.911176 0.759004 0.438151
0.626461 0.714139 0.454593
0.733729 0.763620 0.418633
0.801951 0.804052 0.393845
0.838553 0.832553 0.383732
0.860700 0.851541 0.370285
0.842793 0.851997 0.383745
0.858306 0.843773 0.408511
0.905204 0.838612 0.441769
0.739743 0.795188 0.405447
0.803993 0.828560 0.384737
0.839317 0.850230 0.370597
0.865932 0.874591 0.368516
0.888840 0.891646 0.359093
0.884014 0.900351 0.380953
0.882357 0.898448 0.457560
0.917296 0.900516 0.577219
0.145303 0.237379 0.483209
0.166367 0.258260 0.522224
0.298728 0.242318 0.515140
0.715168 0.236329 0.513440
0.881039 0.288348 0.560767
0.955603 0.316874 0.581339
0.986310 0.338707 0.587772
0.993157 0.358266 0.587519
0.161798 0.282310 0.540558
0.196604 0.307990 0.571503
0.276663 0.322715 0.580490
0.753249 0.274217 0.542992
0.952406 0.332997 0.560946
0.973602 0.356336 0.559462
0.986424 0.380566 0.543294
0.992760 0.419858 0.529412
0.201248 0.349453 0.576168
0.244719 0.369239 0.575639
0.348677 0.391588 0.577007
0.750853 0.355390 0.536004
0.938967 0.389532 0.537417
0.972447 0.420103 0.506787
0.973872 0.475114 0.458166
0.971768 0.538607 0.432878
0.253438 0.429261 0.563676
0.338836 0.467636 0.569112
0.465385 0.504862 0.560941
0.645954 0.542628 0.549807
0.897085 0.535948 0.493848
0.948290 0.575733 0.431948
0.947436 0.614266 0.432401
0.962902 0.641394 0.440511
0.296168 0.563632 0.574300
0.457694 0.589158 0.551235
0.623168 0.633710 0.542444
0.759940 0.696917 0.525202
0.849230 0.742786 0.482814
0.928123 0.731846 0.418870
0.926377 0.729369 0.437549
0.938898 0.730622 0.454330
0.473428 0.654035 0.537616
0.647212 0.694140 0.532417
0.756130 0.747091 0.505314
0.814531 0.784575 0.459360
0.852130 0.815353 0.422750
0.859516 0.817286 0.416978
0.885161 0.803665 0.435582
0.915753 0.791752 0.465965
0.674713 0.736985 0.491794
0.759233 0.775252 0.452876
0.817806 0.813350 0.418795
0.848399 0.839224 0.402355
0.872046 0.860019 0.383130
0.871886 0.868753 0.393147
0.875830 0.863189 0.423107
0.911571 0.853913 0.479287
0.763818 0.807871 0.431873
0.814020 0.834067 0.404256
0.849019 0.857621 0.386960
0.872594 0.878126 0.375649
0.893786 0.896588 0.374973
0.905744 0.902626 0.410494
0.900060 0.905772 0.528290
0.930222 0.906739 0.668284
0.165610 0.290354 0.607700
0.187923 0.304342 0.631755
0.264587 0.305986 0.631673
0.700570 0.237033 0.594204
0.890129 0.287880 0.629171
0.959794 0.318477 0.643513
0.983970 0.342719 0.641975
0.992189 0.367966 0.645580
0.185917 0.330944 0.637821
0.215738 0.349633 0.651605
0.286939 0.374537 0.654129
0.696387 0.278405 0.606465
0.954344 0.336440 0.623627
0.977220 0.367014 0.619776
0.989247 0.401651 0.609033
0.991834 0.440514 0.584129
0.222626 0.393432 0.647635
0.283873 0.414159 0.641157
0.385393 0.443069 0.644023
0.567772 0.424095 0.617421
0.908039 0.429260 0.605541
0.972655 0.456027 0.567423
0.974156 0.510805 0.522853
0.971453 0.587266 0.475271
0.289614 0.483156 0.629847
0.383737 0.519619 0.625391
0.517364 0.554896 0.617162
0.677227 0.593376 0.607573
0.879514 0.611046 0.564974
0.948075 0.627610 0.488264
0.969247 0.674676 0.448095
0.975072 0.722045 0.437177
0.348619 0.604974 0.626766
0.512704 0.622581 0.598931
0.668739 0.669977 0.593501
0.774889 0.716387 0.573953
0.847344 0.760143 0.530450
0.938596 0.778777 0.444803
0.949523 0.791172 0.422082
0.951424 0.803133 0.430618
0.532392 0.682110 0.586628
0.680372 0.713427 0.575891
0.776581 0.760578 0.544277
0.827125 0.796341 0.488017
0.859270 0.826399 0.445125
0.882093 0.847272 0.415640
0.902377 0.845898 0.409307
0.920253 0.843603 0.430257
0.702551 0.754411 0.533596
0.775323 0.789969 0.480638
0.826759 0.820914 0.444359
0.854008 0.848706 0.418747
0.876953 0.868529 0.397971
0.894616 0.884546 0.382660
0.900838 0.886589 0.409736
0.918062 0.881856 0.495339
0.773404 0.815862 0.457437
0.815410 0.842729 0.429414
0.850127 0.866648 0.405772
0.872963 0.883806 0.391333
0.896891 0.898659 0.394269
0.910990 0.905542 0.461448
0.926072 0.911507 0.593856
0.946475 0.915605 0.733253
