其他预设/【236】赛博朋克风调色预设/【后期菌】视频调色预设/CUBE/Sunset 07.cube
# LUT by SparkleStock. Enhanced with VOXCOLOR algorithms.
LUT_3D_SIZE 32
0.023460 0.113392 0.011730
0.035569 0.115410 0.017785
0.047804 0.117302 0.023460
0.061930 0.117302 0.023460
0.076309 0.117302 0.023713
0.092454 0.117302 0.025731
0.110491 0.116924 0.027370
0.136726 0.114906 0.027370
0.165989 0.113897 0.029389
0.204333 0.115915 0.037461
0.243307 0.117302 0.045533
0.283669 0.117302 0.053606
0.329329 0.117302 0.062435
0.383817 0.117302 0.072525
0.438306 0.119068 0.082616
0.492795 0.123104 0.092706
0.542238 0.125122 0.101788
0.586636 0.125122 0.109860
0.626494 0.125122 0.117933
0.662820 0.125122 0.126005
0.697884 0.126384 0.134078
0.732192 0.128402 0.142150
0.754013 0.129032 0.147447
0.770157 0.129032 0.151484
0.787816 0.130546 0.155520
0.805979 0.132564 0.159556
0.825781 0.134582 0.163592
0.845962 0.136600 0.167628
0.859080 0.138618 0.171665
0.871188 0.140636 0.175701
0.881405 0.140762 0.179737
0.891496 0.140762 0.183773
0.025479 0.121464 0.017785
0.042795 0.121399 0.021756
0.059977 0.121338 0.025544
0.075146 0.121338 0.026585
0.090957 0.121338 0.027879
0.111268 0.121338 0.030939
0.133276 0.120960 0.033620
0.162636 0.118942 0.034662
0.195544 0.117672 0.037461
0.239096 0.118649 0.045533
0.284255 0.119646 0.054257
0.332950 0.120687 0.064412
0.383036 0.121338 0.074544
0.435442 0.121338 0.084634
0.488303 0.123104 0.094725
0.541750 0.127140 0.104815
0.588069 0.129158 0.113897
0.627259 0.129158 0.121969
0.663666 0.129744 0.130041
0.697909 0.130786 0.138114
0.727635 0.132438 0.145535
0.754651 0.134456 0.152566
0.772761 0.135087 0.156822
0.786823 0.135087 0.159816
0.803961 0.135819 0.163592
0.822123 0.136795 0.167628
0.838541 0.138618 0.171665
0.854555 0.140636 0.175701
0.866241 0.141743 0.179737
0.877308 0.142720 0.183773
0.887459 0.143757 0.187809
0.897550 0.144799 0.191846
0.027497 0.129411 0.023713
0.049826 0.127393 0.025796
0.071797 0.125492 0.027875
0.088398 0.125362 0.029893
0.106015 0.125248 0.032155
0.130753 0.125248 0.036126
0.156968 0.124870 0.039768
0.189583 0.122852 0.041981
0.226235 0.121355 0.045708
0.274995 0.121420 0.053976
0.326196 0.122095 0.063424
0.382768 0.124113 0.075467
0.436947 0.125399 0.086754
0.487139 0.125464 0.096779
0.538100 0.127238 0.106805
0.590050 0.131209 0.116830
0.633081 0.133162 0.125846
0.667194 0.133097 0.133854
0.700098 0.134204 0.141861
0.732062 0.136222 0.149868
0.756661 0.138240 0.156696
0.776842 0.140258 0.162815
0.791474 0.140933 0.166160
0.803582 0.140998 0.168243
0.820085 0.141015 0.171791
0.838053 0.141015 0.175827
0.851260 0.142707 0.179810
0.863368 0.144791 0.183781
0.873711 0.145165 0.187866
0.883802 0.145295 0.191968
0.893709 0.147134 0.195947
0.903604 0.149087 0.199918
0.029515 0.135465 0.027749
0.053927 0.133447 0.030874
0.078307 0.131417 0.033929
0.102199 0.129203 0.035947
0.127238 0.127266 0.038079
0.160309 0.127266 0.041009
0.194271 0.126888 0.044390
0.232094 0.124870 0.049728
0.273953 0.123633 0.056580
0.327921 0.124740 0.067973
0.383028 0.126131 0.079243
0.440642 0.128149 0.090245
0.493910 0.129826 0.100490
0.539935 0.130932 0.109474
0.584907 0.132837 0.118458
0.628524 0.135766 0.127441
0.665826 0.136677 0.135416
0.696814 0.135571 0.142382
0.725421 0.136222 0.149348
0.752178 0.138240 0.156313
0.774824 0.140258 0.163401
0.795005 0.142276 0.170562
0.809636 0.143668 0.174948
0.821745 0.144774 0.178073
0.835904 0.145051 0.181881
0.850747 0.145051 0.185917
0.863368 0.147590 0.189054
0.875477 0.150715 0.191984
0.885820 0.153042 0.196850
0.895910 0.155255 0.201993
0.902888 0.156248 0.205061
0.909658 0.157160 0.207990
0.031533 0.141519 0.032290
0.058029 0.139241 0.036196
0.084785 0.136852 0.039984
0.115447 0.132816 0.042002
0.147533 0.129268 0.044036
0.189587 0.129138 0.046184
0.231874 0.128727 0.049517
0.275165 0.127100 0.057980
0.322298 0.126351 0.067826
0.380953 0.128239 0.081823
0.439283 0.130167 0.094558
0.496896 0.132186 0.104518
0.548651 0.134155 0.113770
0.590640 0.136043 0.121843
0.629753 0.137931 0.129801
0.665167 0.139819 0.137613
0.696936 0.139949 0.144612
0.725059 0.138321 0.150796
0.749923 0.138891 0.157054
0.772253 0.141169 0.163368
0.792751 0.143204 0.170538
0.812151 0.145092 0.178219
0.826896 0.147159 0.183484
0.839525 0.149307 0.187651
0.851569 0.149942 0.191817
0.863417 0.150072 0.195984
0.875160 0.153376 0.198299
0.886878 0.157412 0.200187
0.896830 0.161448 0.205606
0.906530 0.165484 0.211530
0.911164 0.166225 0.214037
0.915461 0.166745 0.216315
0.033551 0.147574 0.040362
0.062130 0.143212 0.043226
0.091034 0.138870 0.046038
0.124821 0.134834 0.048056
0.161334 0.131156 0.050221
0.216929 0.129984 0.053410
0.271585 0.129313 0.058175
0.322168 0.130810 0.069763
0.375029 0.132145 0.081692
0.434726 0.132991 0.094647
0.491493 0.134204 0.106341
0.541815 0.136222 0.115260
0.587841 0.137800 0.123861
0.626705 0.138647 0.131933
0.660871 0.139493 0.138980
0.688994 0.140339 0.144709
0.716596 0.141511 0.151187
0.743678 0.143008 0.158413
0.768672 0.146117 0.166298
0.792043 0.150479 0.174696
0.809026 0.152643 0.180693
0.822176 0.153490 0.185250
0.837833 0.155947 0.190255
0.854629 0.159137 0.195463
0.866151 0.160813 0.200671
0.875916 0.161985 0.205879
0.884729 0.165484 0.207543
0.893322 0.169520 0.208389
0.900150 0.173557 0.212767
0.906725 0.177593 0.217650
0.913117 0.182239 0.222044
0.919497 0.186926 0.226406
0.035191 0.154385 0.048813
0.066048 0.148330 0.050831
0.097381 0.142378 0.052837
0.135856 0.137951 0.054660
0.177894 0.133801 0.056808
0.244882 0.131587 0.061235
0.310124 0.130546 0.067517
0.367803 0.134582 0.081839
0.425807 0.137707 0.095510
0.484787 0.138097 0.107228
0.539211 0.138936 0.117746
0.583609 0.140758 0.125623
0.624468 0.141971 0.133500
0.659426 0.142166 0.141377
0.689059 0.142361 0.147744
0.711844 0.142557 0.152171
0.735964 0.144673 0.158323
0.761418 0.148709 0.166200
0.785737 0.153770 0.175213
0.809173 0.159629 0.185108
0.823250 0.161948 0.190080
0.831713 0.162144 0.192098
0.847427 0.164980 0.196891
0.866436 0.169016 0.202945
0.877536 0.171978 0.208999
0.885999 0.174582 0.215054
0.892187 0.180095 0.216824
0.897851 0.186280 0.217605
0.901749 0.193831 0.221405
0.905394 0.201578 0.225637
0.913190 0.209630 0.231211
0.921263 0.217703 0.236874
0.035191 0.164475 0.058903
0.069173 0.158421 0.060921
0.104152 0.152338 0.062862
0.154084 0.145828 0.063643
0.206408 0.139725 0.065141
0.275479 0.136470 0.071651
0.343586 0.134582 0.079821
0.407514 0.138618 0.095184
0.468122 0.142264 0.109116
0.518770 0.144738 0.118751
0.567464 0.146682 0.127511
0.611863 0.147464 0.134346
0.649987 0.148416 0.141182
0.677654 0.149653 0.148017
0.704553 0.150890 0.154710
0.730463 0.152126 0.161220
0.754061 0.154763 0.167893
0.775349 0.158799 0.174728
0.795502 0.163275 0.182699
0.814771 0.168092 0.191553
0.828589 0.170672 0.196134
0.839135 0.171909 0.198152
0.851203 0.175070 0.202945
0.863962 0.179106 0.208999
0.875062 0.184412 0.215054
0.885608 0.190141 0.221108
0.890495 0.205549 0.226263
0.894075 0.223191 0.231211
0.895890 0.249492 0.236443
0.897452 0.277029 0.241716
0.905118 0.286318 0.245403
0.913190 0.294390 0.248983
0.035191 0.175575 0.069498
0.072298 0.169260 0.070996
0.110857 0.162803 0.072416
0.171205 0.154210 0.072676
0.232968 0.146186 0.073945
0.304644 0.142150 0.082278
0.375550 0.139627 0.091978
0.443123 0.143663 0.107602
0.505424 0.147700 0.121273
0.551906 0.151736 0.129085
0.597248 0.154755 0.136511
0.640083 0.155536 0.143086
0.675278 0.156683 0.149563
0.697738 0.158441 0.155878
0.722048 0.160199 0.162734
0.748739 0.161957 0.170285
0.771166 0.165374 0.177479
0.789329 0.170452 0.184314
0.805478 0.175091 0.191553
0.820061 0.179387 0.199104
0.833260 0.182911 0.203523
0.845629 0.185970 0.206062
0.854686 0.191850 0.211018
0.862237 0.199011 0.217072
0.873207 0.207636 0.223126
0.885315 0.216750 0.229180
0.888802 0.240622 0.236451
0.890299 0.267899 0.244003
0.890031 0.308163 0.250928
0.889510 0.350283 0.257763
0.896313 0.363168 0.261059
0.903604 0.374105 0.264119
0.035191 0.189701 0.081607
0.075422 0.182345 0.081021
0.117367 0.174781 0.080553
0.185006 0.164105 0.081855
0.253670 0.154259 0.084166
0.329512 0.150222 0.093541
0.403022 0.147700 0.103696
0.466429 0.151736 0.117237
0.527688 0.155772 0.129085
0.582503 0.159808 0.135856
0.631620 0.163804 0.143216
0.668207 0.167710 0.151874
0.699886 0.170420 0.160044
0.723387 0.171136 0.167401
0.745550 0.171852 0.173931
0.765991 0.172568 0.179399
0.785293 0.177548 0.187114
0.803456 0.186792 0.197074
0.816089 0.193839 0.204508
0.824422 0.199178 0.209976
0.835929 0.205696 0.214915
0.849339 0.212922 0.219538
0.857290 0.228696 0.225144
0.862758 0.248356 0.231199
0.873207 0.263232 0.237253
0.885315 0.276512 0.243307
0.887109 0.304550 0.248885
0.886524 0.335993 0.254354
0.884172 0.375867 0.263753
0.881568 0.416945 0.273713
0.885311 0.440507 0.281110
0.889478 0.462902 0.288336
0.034560 0.205720 0.094346
0.077591 0.198624 0.091352
0.122473 0.191235 0.088670
0.195125 0.179452 0.090688
0.268859 0.168556 0.093756
0.350169 0.163869 0.104172
0.427707 0.161000 0.114906
0.488901 0.166013 0.127014
0.549281 0.170700 0.137691
0.607220 0.174411 0.144070
0.656940 0.179363 0.151711
0.688579 0.187044 0.162127
0.717434 0.192700 0.171787
0.741652 0.194979 0.180185
0.762052 0.196403 0.186532
0.777546 0.196728 0.190243
0.794049 0.203759 0.197827
0.811561 0.217495 0.209284
0.821859 0.227826 0.216750
0.826546 0.235507 0.221112
0.837133 0.245305 0.226532
0.851260 0.256372 0.232586
0.858673 0.277464 0.238864
0.863035 0.303114 0.245244
0.872230 0.321635 0.251380
0.883037 0.337779 0.257434
0.884481 0.367359 0.262642
0.883765 0.400039 0.267655
0.880429 0.438587 0.278022
0.876718 0.477972 0.289154
0.877462 0.508813 0.299309
0.878504 0.539085 0.309400
0.032542 0.225901 0.108473
0.077656 0.221930 0.102353
0.124492 0.217536 0.096743
0.197143 0.206794 0.098761
0.271919 0.196549 0.101959
0.361561 0.189779 0.113416
0.446260 0.185804 0.124996
0.509538 0.193941 0.137105
0.569397 0.200711 0.148041
0.619003 0.203381 0.155463
0.662344 0.209244 0.164146
0.691899 0.222133 0.175603
0.719453 0.233778 0.186304
0.743670 0.243348 0.195743
0.763159 0.249329 0.202221
0.776570 0.250696 0.204890
0.790989 0.260852 0.210912
0.806418 0.279796 0.220286
0.816976 0.295334 0.227427
0.823747 0.308224 0.232830
0.835115 0.321928 0.238640
0.849242 0.336119 0.244695
0.857371 0.352460 0.251689
0.862774 0.369776 0.259110
0.869105 0.386214 0.265506
0.875745 0.402359 0.271561
0.879794 0.427707 0.279307
0.883244 0.455179 0.287445
0.881340 0.490341 0.295469
0.878671 0.526602 0.303476
0.876551 0.557248 0.313436
0.874468 0.587519 0.323527
0.031281 0.245325 0.121086
0.076525 0.245260 0.112623
0.123653 0.244715 0.104864
0.199039 0.236968 0.107663
0.276858 0.229473 0.111675
0.371709 0.223745 0.124174
0.460591 0.221202 0.136600
0.523607 0.232464 0.148709
0.581872 0.242099 0.160101
0.625879 0.246851 0.169345
0.664842 0.255041 0.179363
0.692705 0.270796 0.191081
0.718761 0.286232 0.202042
0.741806 0.301140 0.211742
0.760067 0.310922 0.218423
0.772175 0.314112 0.221222
0.785098 0.326220 0.226463
0.798834 0.347247 0.234144
0.809824 0.364869 0.240911
0.818677 0.379842 0.246965
0.829850 0.394815 0.252775
0.842414 0.409788 0.258439
0.851040 0.422792 0.265490
0.857876 0.434901 0.273172
0.863490 0.449743 0.279340
0.868698 0.465498 0.285004
0.874277 0.487176 0.294264
0.879940 0.510221 0.304355
0.880933 0.540729 0.311939
0.881259 0.572302 0.319165
0.876763 0.601190 0.328344
0.871945 0.629899 0.337653
0.031281 0.263488 0.131176
0.073400 0.268631 0.121672
0.118055 0.273359 0.113066
0.200732 0.271862 0.117949
0.284930 0.270617 0.123914
0.379781 0.271137 0.137455
0.467882 0.274258 0.150727
0.526732 0.288645 0.162835
0.581611 0.302446 0.175009
0.624577 0.314490 0.187378
0.662498 0.327368 0.199218
0.689319 0.342080 0.209895
0.713553 0.357647 0.219814
0.733474 0.374638 0.228472
0.749976 0.386958 0.235479
0.762085 0.393273 0.240361
0.774486 0.405382 0.246123
0.787181 0.423284 0.252763
0.798887 0.437781 0.259074
0.809824 0.449629 0.265128
0.819174 0.461478 0.270287
0.827571 0.473326 0.274909
0.836327 0.485353 0.280919
0.845246 0.497462 0.287559
0.853725 0.511523 0.292686
0.862058 0.526236 0.297308
0.867376 0.545180 0.306373
0.871998 0.565101 0.316463
0.878329 0.588838 0.326782
0.884904 0.613120 0.337133
0.878846 0.637646 0.344554
0.871945 0.662189 0.351780
0.033046 0.289597 0.140384
0.074775 0.296758 0.131661
0.119377 0.303826 0.123918
0.207067 0.309489 0.130884
0.295082 0.315405 0.138801
0.385376 0.323087 0.153384
0.469420 0.332441 0.167588
0.526382 0.349042 0.180152
0.579471 0.365642 0.192993
0.620940 0.382243 0.206664
0.657791 0.397785 0.218931
0.684482 0.411001 0.228110
0.708316 0.425559 0.236704
0.727391 0.442354 0.244320
0.743218 0.455334 0.251054
0.754871 0.463406 0.256653
0.766752 0.475287 0.262707
0.778860 0.490976 0.269217
0.790200 0.503003 0.275214
0.800942 0.512182 0.280813
0.809608 0.522786 0.286289
0.817029 0.534243 0.291693
0.825346 0.545522 0.296917
0.834069 0.556719 0.302060
0.843818 0.571139 0.307740
0.853908 0.586632 0.313599
0.859450 0.602443 0.321785
0.863942 0.618328 0.330509
0.872136 0.636377 0.340998
0.880860 0.654735 0.351739
0.876401 0.673704 0.357232
0.871062 0.692713 0.362375
0.037083 0.325923 0.148456
0.081936 0.331001 0.142858
0.129598 0.336636 0.138175
0.219371 0.350633 0.147224
0.307907 0.364881 0.157094
0.387784 0.380896 0.172718
0.463561 0.397216 0.187964
0.521565 0.414858 0.201570
0.574914 0.432500 0.214932
0.614300 0.450142 0.227561
0.650044 0.465750 0.238461
0.677776 0.476882 0.245557
0.703043 0.488966 0.252458
0.724201 0.502637 0.259033
0.740744 0.513859 0.264725
0.751356 0.521931 0.269282
0.762716 0.533291 0.275336
0.774824 0.547939 0.282888
0.784406 0.558338 0.288755
0.792023 0.565434 0.293312
0.801470 0.577209 0.300351
0.812017 0.591792 0.308879
0.819161 0.602614 0.313648
0.824760 0.611728 0.316707
0.833727 0.627971 0.324991
0.843818 0.646589 0.335017
0.850206 0.658755 0.341445
0.855739 0.669431 0.347044
0.861330 0.683184 0.354408
0.866928 0.697376 0.362025
0.868133 0.709248 0.365370
0.869044 0.720966 0.368429
0.042128 0.361240 0.159556
0.103127 0.368401 0.157082
0.165924 0.376347 0.155491
0.255697 0.396072 0.167144
0.343451 0.415985 0.179359
0.417079 0.437207 0.195503
0.486313 0.457368 0.210782
0.536505 0.472927 0.222304
0.583735 0.488746 0.233843
0.622079 0.505347 0.245431
0.657107 0.519750 0.255452
0.684840 0.529320 0.262027
0.709521 0.540037 0.268603
0.729116 0.552666 0.275178
0.744097 0.562391 0.280186
0.753146 0.568380 0.283181
0.763464 0.578438 0.288714
0.775052 0.592565 0.296787
0.783527 0.601858 0.302296
0.789582 0.607391 0.305811
0.798443 0.618906 0.312785
0.808989 0.634009 0.321834
0.816134 0.646427 0.327840
0.821733 0.657624 0.332462
0.829919 0.673215 0.341136
0.838968 0.690272 0.351162
0.846430 0.700875 0.356744
0.853526 0.709989 0.361301
0.857489 0.719900 0.366257
0.861004 0.729926 0.371269
0.865496 0.739585 0.374939
0.870053 0.749220 0.378520
0.048182 0.395548 0.173683
0.138346 0.408958 0.174334
0.228355 0.422959 0.175868
0.316044 0.445809 0.190645
0.401716 0.468716 0.205594
0.473261 0.492022 0.221739
0.537677 0.512898 0.236040
0.571204 0.523249 0.242355
0.605934 0.534381 0.249728
0.644278 0.547857 0.260274
0.678981 0.559787 0.269905
0.705672 0.568315 0.277521
0.727749 0.578772 0.285138
0.742136 0.592443 0.292755
0.753276 0.600930 0.297438
0.760242 0.602753 0.298349
0.768998 0.610727 0.302841
0.779544 0.624854 0.310914
0.787563 0.633561 0.315837
0.793618 0.638053 0.318310
0.800526 0.647875 0.323592
0.807948 0.660895 0.330557
0.816264 0.676959 0.339492
0.824988 0.694405 0.349323
0.832393 0.706872 0.356174
0.839359 0.717679 0.362033
0.848123 0.728803 0.367681
0.857302 0.740000 0.373279
0.860614 0.746526 0.376542
0.863088 0.752385 0.379472
0.868491 0.764713 0.385941
0.874089 0.777473 0.392647
0.055372 0.433261 0.190080
0.161224 0.451163 0.193856
0.266361 0.469387 0.198331
0.360756 0.492433 0.213304
0.451668 0.515112 0.228131
0.518200 0.535228 0.241932
0.577506 0.553635 0.254342
0.605499 0.564637 0.260721
0.634762 0.575622 0.267882
0.667832 0.586559 0.277387
0.698035 0.596601 0.286261
0.721926 0.604673 0.293747
0.740960 0.613478 0.300575
0.751897 0.623503 0.306304
0.761466 0.630424 0.310295
0.769278 0.633354 0.312053
0.777058 0.641589 0.316382
0.784805 0.655130 0.323283
0.791929 0.664972 0.328425
0.798569 0.671938 0.332201
0.804843 0.681385 0.337401
0.810898 0.692322 0.343455
0.818519 0.707198 0.351658
0.826851 0.723863 0.360837
0.833475 0.734084 0.366598
0.839530 0.742156 0.371221
0.848387 0.753032 0.377006
0.857892 0.764555 0.383061
0.861358 0.770039 0.386096
0.863962 0.774661 0.388700
0.869252 0.785997 0.394783
0.874720 0.797780 0.401097
0.063444 0.473623 0.208243
0.174505 0.494650 0.215143
0.285370 0.515673 0.222418
0.393306 0.536636 0.235308
0.495155 0.556581 0.247791
0.554396 0.569405 0.257426
0.608364 0.582865 0.267231
0.639481 0.599075 0.277778
0.668744 0.613445 0.287803
0.692440 0.622299 0.296266
0.714896 0.630908 0.304098
0.734621 0.638981 0.310543
0.750269 0.645051 0.315157
0.759123 0.647786 0.316720
0.768888 0.652884 0.319735
0.779825 0.661021 0.324617
0.787083 0.671340 0.329467
0.790664 0.683839 0.334284
0.796551 0.696155 0.340274
0.804233 0.708329 0.347174
0.810898 0.718427 0.353546
0.816952 0.727281 0.359600
0.822425 0.737209 0.364222
0.827633 0.747625 0.368193
0.833475 0.756283 0.373434
0.839530 0.764355 0.379098
0.847541 0.774385 0.385079
0.856004 0.784866 0.391133
0.860252 0.791132 0.395080
0.863897 0.796795 0.398725
0.868275 0.804290 0.401944
0.872702 0.811907 0.405134
0.076562 0.511462 0.225144
0.190877 0.532359 0.231915
0.305478 0.553334 0.239181
0.424350 0.575468 0.253894
0.535102 0.595852 0.267695
0.589004 0.603990 0.275117
0.637878 0.613274 0.283051
0.664960 0.627531 0.293206
0.690154 0.640242 0.302678
0.709684 0.648315 0.310100
0.727973 0.656590 0.317094
0.743531 0.665314 0.323148
0.756527 0.671742 0.327420
0.765250 0.674346 0.328722
0.774885 0.681080 0.332388
0.785692 0.693124 0.339094
0.793081 0.704549 0.344464
0.797052 0.715355 0.348501
0.802597 0.726199 0.353709
0.809368 0.737070 0.359828
0.815284 0.745786 0.365500
0.820687 0.753207 0.370903
0.825598 0.761971 0.375322
0.830285 0.771345 0.379293
0.836486 0.779255 0.384338
0.843191 0.786676 0.389741
0.849421 0.794680 0.394616
0.855540 0.802817 0.399368
0.860406 0.809702 0.404063
0.865093 0.816407 0.408751
0.868560 0.822502 0.410936
0.871945 0.828556 0.412954
0.092706 0.547788 0.241289
0.209105 0.566602 0.245976
0.326245 0.585819 0.251550
0.454492 0.611077 0.270429
0.572925 0.633805 0.287746
0.622661 0.638818 0.294126
0.666587 0.644392 0.300628
0.685336 0.652400 0.307659
0.704020 0.660423 0.314527
0.722508 0.668496 0.320906
0.738779 0.677097 0.327184
0.750172 0.686862 0.333239
0.760954 0.695504 0.338292
0.770719 0.702274 0.341677
0.780028 0.712719 0.346971
0.788752 0.727887 0.354718
0.796661 0.739833 0.360609
0.803757 0.748556 0.364645
0.809498 0.755559 0.368096
0.814185 0.761222 0.371090
0.818669 0.767334 0.374939
0.823031 0.773713 0.379301
0.828332 0.783584 0.385543
0.834061 0.795042 0.392638
0.841304 0.802691 0.397684
0.849050 0.809071 0.402045
0.852936 0.814340 0.405032
0.855931 0.819353 0.407701
0.861318 0.826758 0.413047
0.867046 0.834505 0.418776
0.869602 0.840665 0.421026
0.871945 0.846719 0.423044
0.108851 0.582726 0.254659
0.240223 0.601605 0.260843
0.370822 0.620586 0.267768
0.489825 0.641093 0.285801
0.599827 0.659630 0.302426
0.646829 0.664382 0.309196
0.687912 0.669781 0.315967
0.703340 0.677984 0.322737
0.718557 0.686154 0.328971
0.733140 0.694226 0.333593
0.746319 0.702482 0.338439
0.756409 0.711140 0.343777
0.766231 0.719579 0.348627
0.775605 0.727651 0.352663
0.784097 0.738002 0.357838
0.791453 0.751282 0.364479
0.799168 0.761959 0.370175
0.807240 0.770031 0.374927
0.813445 0.777042 0.378947
0.818197 0.783226 0.382397
0.822502 0.788882 0.386214
0.826538 0.794220 0.390250
0.831469 0.803720 0.396569
0.836808 0.815113 0.403925
0.844196 0.822502 0.408254
0.852269 0.828556 0.411574
0.856004 0.832971 0.414418
0.858738 0.837007 0.417153
0.863751 0.845201 0.422792
0.869089 0.853990 0.428846
0.871986 0.860215 0.431788
0.874720 0.866269 0.434522
0.124996 0.617034 0.266768
0.277200 0.636955 0.276077
0.426222 0.656391 0.285736
0.527517 0.668565 0.300644
0.621766 0.679941 0.314665
0.666685 0.685735 0.322477
0.705879 0.692566 0.330289
0.720266 0.703894 0.338101
0.733400 0.714407 0.344595
0.742775 0.722480 0.347134
0.752373 0.730084 0.350222
0.762463 0.736659 0.354518
0.771895 0.743796 0.358717
0.780228 0.751868 0.362753
0.787677 0.760396 0.367017
0.793992 0.769510 0.371574
0.801186 0.778104 0.376750
0.809258 0.786176 0.382544
0.816049 0.794944 0.388191
0.821843 0.804253 0.393725
0.826538 0.810430 0.398322
0.830574 0.814726 0.402359
0.834789 0.823185 0.407961
0.839086 0.833536 0.414276
0.846214 0.840665 0.417564
0.854287 0.846719 0.419842
0.858868 0.851134 0.423337
0.862644 0.855170 0.427113
0.866876 0.864276 0.432882
0.871172 0.874106 0.438937
0.874981 0.880396 0.442855
0.878756 0.886450 0.446631
0.144168 0.642260 0.277363
0.306267 0.662441 0.289015
0.463898 0.681992 0.300774
0.554518 0.692082 0.314120
0.638871 0.701766 0.326708
0.679363 0.708601 0.334000
0.714912 0.716132 0.341291
0.729039 0.726679 0.348582
0.741847 0.736606 0.354555
0.750701 0.744679 0.356573
0.759452 0.752121 0.359466
0.767981 0.758175 0.364283
0.776045 0.764693 0.368808
0.783336 0.771984 0.372844
0.790086 0.779617 0.376880
0.796140 0.787690 0.380916
0.803204 0.795762 0.385962
0.811276 0.803834 0.392016
0.817774 0.812163 0.397631
0.823047 0.820691 0.402904
0.828035 0.827388 0.407404
0.832853 0.832987 0.411440
0.838207 0.840600 0.416327
0.843806 0.849128 0.421600
0.850088 0.855800 0.425603
0.856598 0.861855 0.429184
0.861098 0.866904 0.433135
0.865134 0.871721 0.437171
0.870537 0.879786 0.442289
0.876136 0.888314 0.447562
0.880270 0.893790 0.451676
0.884306 0.899063 0.455712
0.164349 0.664459 0.287453
0.332698 0.684640 0.301189
0.495667 0.704191 0.314836
0.577954 0.714281 0.327140
0.654365 0.724095 0.338687
0.689649 0.731972 0.344936
0.720966 0.739959 0.351186
0.735093 0.748422 0.357436
0.748162 0.756787 0.362627
0.758057 0.764860 0.364645
0.766874 0.772302 0.367864
0.773319 0.778356 0.373723
0.779690 0.784483 0.378898
0.785940 0.790733 0.382934
0.792104 0.797780 0.386971
0.798158 0.805852 0.391007
0.805222 0.813925 0.396052
0.813294 0.821997 0.402106
0.819206 0.829154 0.407135
0.823438 0.835599 0.411367
0.828686 0.842817 0.415476
0.834545 0.850499 0.419513
0.841657 0.857330 0.423683
0.849339 0.863775 0.427914
0.854580 0.869927 0.433220
0.859007 0.875981 0.438884
0.863116 0.881877 0.443225
0.867152 0.887736 0.447261
0.874378 0.894108 0.451468
0.882060 0.900553 0.455700
0.886324 0.904922 0.459748
0.890360 0.909154 0.463785
0.223883 0.693217 0.302463
0.375631 0.710859 0.315743
0.522464 0.727977 0.328844
0.595571 0.737221 0.339260
0.663829 0.746107 0.349025
0.698136 0.752487 0.354233
0.728343 0.759343 0.359600
0.740777 0.768261 0.365654
0.752202 0.776545 0.370911
0.760600 0.782925 0.373776
0.768794 0.789468 0.377372
0.776541 0.796368 0.382580
0.783653 0.803269 0.387666
0.789708 0.810169 0.392549
0.795762 0.817583 0.397061
0.801816 0.825655 0.401097
0.808456 0.832881 0.405719
0.815683 0.839261 0.410927
0.821114 0.845458 0.415476
0.825151 0.851512 0.419513
0.831506 0.858299 0.424078
0.839253 0.865525 0.428960
0.846060 0.872527 0.433843
0.852440 0.879428 0.438725
0.858966 0.885694 0.443852
0.865541 0.891748 0.449060
0.870741 0.897115 0.453316
0.875623 0.902323 0.457352
0.881816 0.906790 0.460648
0.888196 0.911152 0.463837
0.892379 0.914415 0.467821
0.896415 0.917605 0.471857
0.292498 0.723489 0.318608
0.422373 0.738006 0.330846
0.548113 0.752129 0.342841
0.611846 0.760331 0.351174
0.671901 0.768046 0.358986
0.706209 0.772342 0.363152
0.736025 0.777701 0.367673
0.746376 0.787661 0.373727
0.755717 0.796205 0.379244
0.762032 0.800502 0.383150
0.769445 0.805938 0.387137
0.779275 0.813880 0.391304
0.787690 0.821822 0.396129
0.793744 0.829765 0.402053
0.799798 0.837764 0.407152
0.805852 0.845836 0.411188
0.811972 0.852021 0.415289
0.818156 0.856317 0.419456
0.823132 0.861602 0.423549
0.827169 0.867657 0.427585
0.834826 0.873792 0.432801
0.844656 0.879977 0.438725
