其他预设/【236】赛博朋克风调色预设/【后期菌】视频调色预设/CUBE/Sunset 08.cube
# LUT by SparkleStock. Enhanced with VOXCOLOR algorithms.
LUT_3D_SIZE 32
0.011730 0.011730 0.023460
0.027875 0.011730 0.029515
0.044020 0.011730 0.035443
0.060165 0.011730 0.039479
0.076562 0.011730 0.043515
0.094725 0.011730 0.047551
0.115158 0.012109 0.051966
0.145429 0.014127 0.058020
0.180242 0.016649 0.064579
0.228676 0.020686 0.072652
0.277741 0.024091 0.080724
0.328193 0.026109 0.088796
0.377132 0.029641 0.094598
0.423549 0.035695 0.096617
0.468199 0.041749 0.095986
0.510579 0.047804 0.091950
0.546905 0.050831 0.088923
0.577177 0.050831 0.086904
0.607448 0.050831 0.090562
0.637720 0.050831 0.098635
0.664207 0.053354 0.107968
0.688424 0.057390 0.118059
0.707092 0.060038 0.119825
0.723237 0.062057 0.117807
0.739381 0.062561 0.120329
0.755526 0.062561 0.124365
0.770031 0.064201 0.125122
0.784158 0.066219 0.125122
0.796519 0.066471 0.123356
0.808627 0.066471 0.121338
0.820736 0.072147 0.121212
0.832845 0.078201 0.121212
0.019803 0.025857 0.035569
0.039072 0.022732 0.040582
0.058342 0.019868 0.045533
0.077611 0.020909 0.049570
0.097654 0.021951 0.053866
0.123108 0.022993 0.059986
0.150247 0.024022 0.065897
0.184685 0.024998 0.070910
0.223924 0.026740 0.076948
0.277566 0.030776 0.086062
0.329886 0.034182 0.093549
0.379297 0.036200 0.097455
0.425632 0.040122 0.099481
0.466840 0.047218 0.098374
0.507194 0.052491 0.096442
0.546449 0.055420 0.093447
0.580171 0.056885 0.094065
0.608359 0.056885 0.098297
0.635376 0.057471 0.103517
0.661481 0.058513 0.109506
0.684453 0.060775 0.116757
0.705546 0.063770 0.124764
0.723237 0.066093 0.125163
0.739381 0.068111 0.122103
0.753964 0.069397 0.123584
0.768025 0.070438 0.126579
0.781294 0.076505 0.127987
0.794379 0.083731 0.129028
0.805698 0.086457 0.129215
0.816765 0.088540 0.129280
0.826855 0.093370 0.127332
0.836881 0.098382 0.125248
0.027623 0.040110 0.047551
0.050082 0.034055 0.051653
0.072570 0.028489 0.055750
0.095485 0.030247 0.059786
0.119638 0.032045 0.064335
0.152448 0.034129 0.072473
0.186345 0.035821 0.079841
0.224949 0.035821 0.083877
0.268468 0.036830 0.089362
0.326733 0.040867 0.099192
0.381844 0.044292 0.105889
0.430018 0.046376 0.105694
0.473700 0.050607 0.104132
0.509896 0.058419 0.100291
0.546006 0.062842 0.097333
0.582006 0.062907 0.095510
0.612994 0.062939 0.099579
0.638969 0.062939 0.109539
0.662746 0.064111 0.116130
0.684815 0.066194 0.120101
0.704484 0.068400 0.125334
0.722712 0.070678 0.131323
0.739373 0.072733 0.130509
0.755323 0.074686 0.126603
0.768440 0.076834 0.127140
0.780614 0.079048 0.129158
0.792629 0.089248 0.131071
0.804607 0.101292 0.132959
0.814877 0.106556 0.135017
0.824902 0.110853 0.137101
0.833036 0.114906 0.133630
0.841043 0.118942 0.129789
0.031659 0.056255 0.057642
0.058285 0.050200 0.062785
0.085395 0.044374 0.067859
0.119768 0.041965 0.071895
0.154987 0.040248 0.076574
0.196130 0.043373 0.085753
0.237578 0.045912 0.093968
0.280349 0.045912 0.098004
0.325952 0.046921 0.102447
0.380050 0.050957 0.108111
0.430995 0.054708 0.110967
0.475002 0.057833 0.107647
0.515299 0.061153 0.105303
0.549411 0.064799 0.104587
0.582071 0.067334 0.104754
0.612864 0.068440 0.106056
0.639164 0.068994 0.110646
0.660972 0.068994 0.118523
0.681756 0.070751 0.123617
0.701741 0.073876 0.126546
0.721279 0.079076 0.130737
0.740549 0.085521 0.135685
0.755388 0.088162 0.135978
0.768212 0.089073 0.134155
0.781330 0.093305 0.135213
0.794545 0.098643 0.137231
0.805063 0.108583 0.137451
0.814958 0.119585 0.137255
0.824056 0.128365 0.139965
0.833040 0.136828 0.143090
0.840132 0.141141 0.142614
0.847097 0.145177 0.141898
0.035695 0.073156 0.067985
0.066357 0.066581 0.073909
0.097894 0.060030 0.079731
0.142553 0.053846 0.084028
0.187944 0.048955 0.088984
0.238461 0.053122 0.098553
0.288210 0.056556 0.107061
0.334626 0.056816 0.110967
0.381954 0.058020 0.114336
0.432016 0.062057 0.116094
0.478843 0.066093 0.115532
0.518554 0.070129 0.109868
0.555336 0.072652 0.107085
0.587235 0.072652 0.109104
0.616371 0.073364 0.111891
0.641955 0.074991 0.115666
0.663959 0.076130 0.120516
0.682382 0.076781 0.126440
0.700659 0.079263 0.130241
0.718822 0.083169 0.132389
0.738002 0.091022 0.135554
0.757792 0.101243 0.139330
0.771093 0.104795 0.140779
0.781444 0.105316 0.141169
0.794334 0.111500 0.143074
0.808070 0.119572 0.145482
0.816993 0.129602 0.144083
0.824805 0.140083 0.141804
0.832845 0.151874 0.145165
0.840917 0.163853 0.149331
0.847342 0.168873 0.151484
0.853656 0.173430 0.153502
0.039731 0.095355 0.080093
0.073518 0.084614 0.084976
0.108115 0.074092 0.089952
0.154857 0.066866 0.096332
0.204154 0.061194 0.102589
0.271337 0.066402 0.107993
0.334626 0.071073 0.112920
0.381042 0.073417 0.115784
0.427589 0.076183 0.117851
0.474526 0.080219 0.117526
0.517578 0.084256 0.116509
0.552081 0.088292 0.113970
0.584435 0.090814 0.113140
0.613209 0.090814 0.115158
0.638310 0.090159 0.117034
0.658686 0.088662 0.118726
0.679127 0.090843 0.122014
0.699634 0.096702 0.126896
0.718822 0.100877 0.130827
0.736985 0.103741 0.134016
0.754212 0.111854 0.136271
0.770878 0.123116 0.137963
0.784634 0.129858 0.140909
0.797068 0.134545 0.144424
0.808135 0.141772 0.149453
0.818746 0.149844 0.154987
0.825391 0.162412 0.152480
0.831119 0.176018 0.148119
0.838899 0.187289 0.152131
0.846971 0.198225 0.157339
0.855349 0.207087 0.159556
0.863747 0.215811 0.161574
0.043768 0.118311 0.092580
0.080679 0.103794 0.096421
0.118458 0.089728 0.100563
0.169236 0.082437 0.109222
0.223684 0.076692 0.117001
0.303822 0.081770 0.118628
0.377710 0.086652 0.119926
0.424517 0.090688 0.119796
0.470526 0.094822 0.119292
0.514143 0.099249 0.117664
0.553468 0.103432 0.116484
0.583349 0.107077 0.116289
0.611570 0.109502 0.117070
0.637024 0.109893 0.119479
0.658576 0.108689 0.120919
0.675111 0.105434 0.121114
0.694186 0.108656 0.123035
0.715799 0.118356 0.126681
0.735471 0.124284 0.130766
0.753634 0.127279 0.135192
0.769274 0.135725 0.137219
0.783401 0.147443 0.137804
0.796991 0.156789 0.141881
0.810336 0.165057 0.147545
0.820020 0.173764 0.155162
0.828483 0.182618 0.163429
0.833666 0.197713 0.160219
0.838093 0.214248 0.154360
0.845539 0.226170 0.157729
0.853416 0.237432 0.162416
0.863002 0.249121 0.164601
0.872702 0.260839 0.166619
0.047804 0.144546 0.106707
0.087840 0.127946 0.109506
0.129329 0.112188 0.112867
0.192606 0.109063 0.124650
0.257601 0.106312 0.134903
0.334614 0.106182 0.134448
0.406354 0.106833 0.131905
0.455244 0.110869 0.120317
0.501774 0.115524 0.111740
0.541225 0.122034 0.112196
0.577034 0.126998 0.112123
0.604832 0.128560 0.110886
0.630188 0.130464 0.111797
0.651476 0.132938 0.116289
0.671596 0.134729 0.119357
0.690215 0.135640 0.120594
0.708768 0.139904 0.121993
0.727256 0.147521 0.123556
0.745562 0.155467 0.127901
0.763725 0.163670 0.134411
0.779365 0.172767 0.139172
0.793492 0.182402 0.142882
0.804217 0.191813 0.146503
0.813396 0.201122 0.150084
0.823600 0.213215 0.157961
0.834147 0.226235 0.167270
0.841413 0.243804 0.165102
0.847923 0.262422 0.160284
0.854718 0.280072 0.157404
0.861554 0.297584 0.154800
0.869122 0.307711 0.156529
0.876738 0.317346 0.158547
0.053354 0.171791 0.122852
0.096515 0.153628 0.124349
0.141633 0.136600 0.126619
0.216108 0.136600 0.140486
0.290444 0.136096 0.152236
0.363811 0.132059 0.149177
0.432785 0.129390 0.142907
0.482716 0.132645 0.122726
0.529507 0.137105 0.107704
0.566874 0.145177 0.108160
0.600844 0.151052 0.108249
0.627340 0.152094 0.107533
0.650711 0.154356 0.109356
0.668874 0.158653 0.115410
0.687464 0.162494 0.119357
0.706603 0.165749 0.120594
0.724376 0.171315 0.122124
0.740781 0.179192 0.123946
0.757589 0.189156 0.128845
0.774710 0.200744 0.136136
0.789634 0.210297 0.142817
0.803240 0.218630 0.149132
0.811834 0.228888 0.152493
0.818148 0.240020 0.154511
0.828613 0.254716 0.161997
0.840461 0.270600 0.171307
0.849453 0.290187 0.169773
0.857786 0.310629 0.165736
0.863669 0.333519 0.159080
0.869203 0.356760 0.152049
0.875469 0.368222 0.153746
0.881783 0.378898 0.156024
0.063444 0.202062 0.145051
0.109730 0.183899 0.144465
0.158234 0.166872 0.144717
0.239999 0.166872 0.157542
0.320064 0.166367 0.167860
0.388224 0.162331 0.160634
0.452575 0.159076 0.150979
0.500424 0.159206 0.130798
0.546693 0.161322 0.114214
0.588227 0.169394 0.108420
0.625387 0.176572 0.105840
0.652924 0.181780 0.110332
0.676946 0.187036 0.115410
0.695109 0.192375 0.121464
0.711877 0.195434 0.124044
0.726850 0.195564 0.122156
0.743059 0.203214 0.125769
0.760506 0.218382 0.134883
0.775426 0.230364 0.141214
0.788381 0.239869 0.145380
0.800441 0.249292 0.151541
0.811964 0.258667 0.158897
0.820622 0.272114 0.162583
0.827978 0.287412 0.164601
0.837922 0.302369 0.169744
0.848729 0.317212 0.175929
0.858372 0.337450 0.173809
0.867746 0.358933 0.169773
0.871937 0.385599 0.166762
0.875387 0.413007 0.163897
0.882500 0.434494 0.166831
0.889856 0.455586 0.170151
0.077318 0.234856 0.166619
0.126078 0.219623 0.162323
0.177133 0.205260 0.159011
0.262609 0.203958 0.170468
0.345718 0.202274 0.179029
0.412250 0.197912 0.167311
0.475010 0.194112 0.154189
0.521427 0.192745 0.134985
0.567013 0.193331 0.118140
0.610109 0.199776 0.108375
0.648262 0.206933 0.104184
0.675539 0.215656 0.112257
0.699398 0.223745 0.119694
0.717561 0.230775 0.126074
0.732932 0.234132 0.128467
0.744715 0.232765 0.125733
0.759200 0.242172 0.130941
0.776387 0.262353 0.144091
0.789765 0.276089 0.151345
0.800181 0.284812 0.154014
0.810597 0.294797 0.159654
0.821013 0.305539 0.167075
0.829594 0.319816 0.170334
0.837341 0.335700 0.171701
0.847089 0.350266 0.175558
0.857505 0.364393 0.180246
0.867657 0.384550 0.178903
0.877747 0.406098 0.176169
0.880205 0.435564 0.175257
0.881572 0.466161 0.174606
0.887394 0.495171 0.176519
0.893514 0.524075 0.178602
0.099518 0.273200 0.186800
0.149319 0.267341 0.175213
0.201090 0.261507 0.164935
0.282400 0.256038 0.174309
0.362644 0.250578 0.180396
0.435425 0.245175 0.163470
0.503264 0.240919 0.146703
0.549680 0.241635 0.130623
0.594225 0.242481 0.116383
0.633154 0.243718 0.107659
0.667466 0.247946 0.104184
0.691618 0.258752 0.112257
0.713524 0.269315 0.120085
0.731687 0.279470 0.127506
0.746603 0.285496 0.132308
0.757345 0.286212 0.133740
0.769746 0.296661 0.139469
0.783808 0.316842 0.149494
0.796405 0.331750 0.156553
0.807862 0.342556 0.161306
0.819320 0.354624 0.166424
0.830778 0.367449 0.171762
0.838968 0.377364 0.172938
0.845673 0.385958 0.172222
0.855943 0.398701 0.177121
0.867400 0.412828 0.183891
0.877747 0.431292 0.186324
0.887838 0.450756 0.187757
0.888473 0.480873 0.185543
0.887756 0.512512 0.182809
0.887590 0.543540 0.178732
0.887459 0.574528 0.174566
0.121717 0.309274 0.205468
0.170997 0.311227 0.186198
0.222215 0.312822 0.168564
0.302483 0.309046 0.175465
0.382401 0.304839 0.179322
0.459870 0.297613 0.161875
0.531224 0.292047 0.144831
0.576078 0.293674 0.129533
0.618409 0.294781 0.116627
0.653173 0.294325 0.110898
0.683888 0.297674 0.109726
0.705696 0.309392 0.118580
0.725845 0.321256 0.127140
0.743226 0.333365 0.135213
0.757418 0.341572 0.141519
0.767509 0.344761 0.145555
0.778608 0.355861 0.151024
0.790717 0.374870 0.157924
0.802825 0.389778 0.163910
0.814934 0.401496 0.169183
0.826066 0.413743 0.172950
0.836612 0.426307 0.175815
0.844607 0.433814 0.175591
0.851443 0.439022 0.173963
0.861354 0.450919 0.178439
0.872291 0.465046 0.184949
0.881588 0.482135 0.188814
0.890507 0.499907 0.192069
0.891223 0.528331 0.190312
0.890767 0.558277 0.187838
0.886955 0.588589 0.180848
0.882919 0.618926 0.173557
0.143916 0.341563 0.221613
0.190072 0.348724 0.194010
0.238620 0.355918 0.168369
0.323055 0.363600 0.172145
0.406879 0.369027 0.174179
0.486431 0.358677 0.164024
0.558696 0.350376 0.152318
0.599384 0.350962 0.133894
0.637549 0.352329 0.120207
0.668146 0.356040 0.120728
0.695671 0.361927 0.124504
0.716438 0.372604 0.135441
0.735154 0.383817 0.145303
0.750452 0.395926 0.153376
0.763472 0.405500 0.159682
0.773563 0.411814 0.163718
0.784662 0.422914 0.167624
0.796771 0.438798 0.171400
0.808880 0.451753 0.174846
0.820988 0.462430 0.178036
0.829516 0.471682 0.179070
0.835896 0.480080 0.178809
0.844021 0.488433 0.178325
0.852940 0.496766 0.177739
0.861029 0.509444 0.179350
0.868841 0.523571 0.181694
0.875013 0.539813 0.183086
0.880807 0.556544 0.184257
0.884778 0.579370 0.185885
0.888489 0.603066 0.187577
0.884937 0.628105 0.182801
0.880901 0.653234 0.177593
0.167881 0.379151 0.239523
0.213646 0.388785 0.205411
0.261804 0.398843 0.173500
0.345848 0.415248 0.174606
0.428964 0.428602 0.174875
0.505587 0.420595 0.169276
0.575203 0.414089 0.161456
0.614459 0.414089 0.144009
0.650508 0.415147 0.131022
0.676938 0.419378 0.131412
0.701273 0.425441 0.134753
0.720999 0.435531 0.144583
0.738795 0.446378 0.153241
0.753378 0.458487 0.159947
0.765596 0.468232 0.164886
0.774775 0.474937 0.167555
0.785875 0.485353 0.170127
0.798895 0.499480 0.172600
0.810377 0.510823 0.174049
0.820663 0.520002 0.174700
0.827897 0.528368 0.174537
0.833300 0.536245 0.173886
0.840986 0.544704 0.173996
0.849710 0.553427 0.174452
0.856773 0.566887 0.175933
0.863283 0.581925 0.177756
0.868523 0.596751 0.179949
0.873471 0.611529 0.182227
0.878988 0.628642 0.186841
0.884587 0.646089 0.191789
0.882007 0.665001 0.192159
0.878882 0.684010 0.192224
0.194116 0.423549 0.259704
0.243006 0.432142 0.221425
0.293703 0.441549 0.185478
0.371497 0.463162 0.184502
0.447973 0.482244 0.183077
0.515222 0.483612 0.178520
0.577612 0.484722 0.172718
0.618950 0.484722 0.161521
0.655520 0.484739 0.151138
0.677785 0.484804 0.143196
0.698930 0.488002 0.139180
0.717614 0.498092 0.143802
0.735150 0.508940 0.148033
0.750774 0.521048 0.151614
0.762667 0.529426 0.153428
0.769763 0.533006 0.152973
0.780862 0.541860 0.154503
0.795965 0.555987 0.158018
0.806015 0.566158 0.158165
0.812135 0.573254 0.155691
0.819759 0.583442 0.156309
0.828288 0.595486 0.158783
0.834802 0.603099 0.160585
0.840400 0.608697 0.162083
0.847464 0.622938 0.166949
0.855015 0.640059 0.172938
0.862144 0.652737 0.180144
0.869174 0.664390 0.187630
0.874041 0.675644 0.194718
0.878598 0.686842 0.201749
0.877906 0.698527 0.211038
0.876864 0.710245 0.220477
0.220351 0.465929 0.272822
0.280699 0.476605 0.229856
0.341844 0.487933 0.189449
0.414951 0.509025 0.187431
0.486220 0.528173 0.185421
0.544614 0.533706 0.183468
0.598737 0.538397 0.180661
0.634347 0.539439 0.174151
0.666359 0.539716 0.166241
0.687582 0.537697 0.154132
0.707523 0.539138 0.145950
0.724644 0.548187 0.146406
0.741009 0.557992 0.147057
0.756112 0.569059 0.148033
0.767256 0.576168 0.147700
0.773311 0.578186 0.145682
0.783629 0.585737 0.146951
0.798211 0.598822 0.151508
0.806862 0.607660 0.151817
0.810898 0.613193 0.148823
0.818067 0.623446 0.150548
0.827116 0.636531 0.155105
0.833435 0.645902 0.160781
0.838512 0.653584 0.166965
0.845055 0.667173 0.174956
0.852086 0.682732 0.183549
0.859963 0.693848 0.194205
0.868035 0.703938 0.205338
0.871665 0.711352 0.213792
0.874659 0.718383 0.221865
0.875823 0.726878 0.238543
0.876864 0.735471 0.255794
0.246587 0.506291 0.278876
0.326725 0.522175 0.230702
0.406228 0.537994 0.185413
0.476211 0.552837 0.183395
0.543703 0.566386 0.181906
0.593765 0.570878 0.184119
0.638578 0.575114 0.185283
0.660647 0.578238 0.181898
0.683025 0.580078 0.176331
0.706331 0.578059 0.164223
0.727053 0.578849 0.155064
0.742091 0.585815 0.152395
0.756372 0.593537 0.150312
0.769392 0.602521 0.149205
0.779365 0.608457 0.147700
0.785419 0.610475 0.145682
0.794175 0.616985 0.147472
0.805633 0.627987 0.153070
0.812916 0.635327 0.155007
0.816952 0.639819 0.154096
0.822819 0.648380 0.157253
0.829785 0.659382 0.162852
0.836885 0.673114 0.174582
0.844046 0.688087 0.189099
0.849547 0.699593 0.199955
0.854494 0.709944 0.209589
0.861981 0.720083 0.222133
0.870053 0.730174 0.235349
0.871860 0.735764 0.244064
0.872771 0.740712 0.252136
0.875758 0.750054 0.274673
0.878882 0.759688 0.298174
0.268281 0.543247 0.286066
0.360007 0.561996 0.237371
0.450398 0.580183 0.191374
0.520771 0.589948 0.185840
0.587564 0.598778 0.181356
0.629293 0.601056 0.184221
0.666445 0.603884 0.186389
0.683762 0.609092 0.185543
0.702364 0.612933 0.182467
0.724823 0.612672 0.172702
0.744313 0.614019 0.164727
0.757268 0.618902 0.160691
0.769905 0.624101 0.157412
0.782014 0.629830 0.155394
0.791217 0.635217 0.154145
0.796686 0.640165 0.153884
0.803586 0.647391 0.156781
0.811919 0.656896 0.162835
0.818494 0.664642 0.167791
0.823702 0.671022 0.171892
0.829073 0.678257 0.176848
0.834541 0.686003 0.182317
0.840591 0.699703 0.195304
0.846906 0.716108 0.211709
0.852391 0.725824 0.224257
0.857599 0.733311 0.235520
0.864182 0.742913 0.249585
0.871083 0.753004 0.264298
0.872458 0.758309 0.273200
0.873044 0.762931 0.281273
0.876315 0.772680 0.301429
0.879765 0.782770 0.322391
0.286444 0.577555 0.294138
0.383378 0.597345 0.248568
0.478847 0.616249 0.205110
0.552345 0.621847 0.193327
0.620830 0.626640 0.183114
0.654226 0.625794 0.183895
0.684998 0.626474 0.184762
0.704398 0.633765 0.185999
0.723782 0.639949 0.185527
0.743116 0.642814 0.179928
0.759806 0.645658 0.174818
0.770678 0.648457 0.170782
0.782014 0.650792 0.167502
0.794122 0.652355 0.165484
0.802870 0.657677 0.165602
0.807297 0.667832 0.168467
0.812114 0.677142 0.172926
0.817322 0.685605 0.178980
0.823702 0.695239 0.188037
0.830993 0.705786 0.199430
0.836494 0.711978 0.206469
0.840921 0.715559 0.210896
0.844497 0.725808 0.221409
0.847687 0.739088 0.234690
0.853953 0.747242 0.248019
0.861244 0.753687 0.261364
0.866526 0.763094 0.276667
0.871343 0.773184 0.292421
0.873369 0.779402 0.301454
0.874997 0.785065 0.309526
0.877357 0.794879 0.320894
0.879765 0.804970 0.332482
0.308391 0.609340 0.297165
0.404023 0.626266 0.252116
0.498467 0.642631 0.209244
0.575089 0.650573 0.199023
0.645999 0.656782 0.189673
0.676922 0.650858 0.186418
0.705464 0.647436 0.184152
0.723692 0.654857 0.186170
0.741416 0.661432 0.186837
0.757626 0.665468 0.183452
0.771923 0.669688 0.181084
0.782014 0.674310 0.180954
0.792373 0.677687 0.180848
0.803179 0.678989 0.180783
0.811309 0.685304 0.183366
0.815996 0.698063 0.189356
0.820358 0.708479 0.195703
0.824394 0.716552 0.202408
0.829968 0.725063 0.211823
0.836738 0.733917 0.223346
0.841393 0.739312 0.231410
0.844778 0.742632 0.237399
0.848566 0.751994 0.247148
0.852537 0.764103 0.258606
0.858120 0.771183 0.269624
0.864239 0.776586 0.280496
0.868137 0.784740 0.293007
0.871522 0.793528 0.305897
0.874281 0.801064 0.314002
0.876950 0.808420 0.321423
0.879009 0.817119 0.327624
0.881027 0.825907 0.333743
0.332608 0.639612 0.297165
0.423032 0.651330 0.251074
0.512789 0.663202 0.207616
0.592536 0.677394 0.203645
0.666311 0.688290 0.199112
0.698275 0.676116 0.190649
0.727077 0.667421 0.184152
0.742181 0.673801 0.186170
0.756779 0.679595 0.187097
0.769864 0.683631 0.184754
0.782014 0.689153 0.185055
0.792104 0.697941 0.191174
0.801682 0.704703 0.196146
0.810405 0.708089 0.199206
0.817819 0.716031 0.204914
0.823547 0.729832 0.214028
0.828430 0.740769 0.222459
0.832466 0.748841 0.230206
0.836869 0.754423 0.237733
0.841556 0.758069 0.245089
0.844778 0.762813 0.253544
0.847122 0.768217 0.262658
0.852733 0.778230 0.272667
0.859829 0.790338 0.283083
0.863848 0.796637 0.289935
0.866843 0.800998 0.295599
0.869309 0.807264 0.302902
0.871652 0.813970 0.310584
0.875192 0.823067 0.317126
0.878903 0.832507 0.323506
0.881027 0.839383 0.326712
0.883045 0.846088 0.329707
0.359600 0.665721 0.299940
0.449113 0.677959 0.251375
0.537807 0.690129 0.205765
0.614235 0.701261 0.204463
0.685145 0.709504 0.202331
0.717434 0.697526 0.194389
0.745916 0.689197 0.188717
0.757894 0.696684 0.192883
0.769368 0.703666 0.196040
0.779328 0.709134 0.196171
0.789329 0.715376 0.197888
0.799420 0.723318 0.203096
0.808216 0.730064 0.207864
0.814857 0.734816 0.211900
0.820927 0.742730 0.218585
0.826265 0.754708 0.228676
0.831311 0.764734 0.238473
0.836063 0.772806 0.247978
0.840412 0.778279 0.255139
0.844449 0.781729 0.260477
0.847224 0.786807 0.266548
0.849242 0.792861 0.273058
0.855422 0.802093 0.281045
0.863494 0.812769 0.289703
0.867026 0.818466 0.293821
0.869044 0.822502 0.296425
0.871062 0.829341 0.299505
0.873080 0.836828 0.302695
0.876238 0.845340 0.307138
0.879558 0.853998 0.311760
0.881657 0.860215 0.313941
0.883675 0.866269 0.315959
0.387854 0.689938 0.303976
0.478408 0.705301 0.252287
0.567688 0.719945 0.203812
0.637866 0.723786 0.203551
0.703308 0.726040 0.202721
0.735597 0.717186 0.197904
0.763493 0.711787 0.195357
0.772346 0.721357 0.202648
0.780695 0.730422 0.208930
0.787531 0.737974 0.212185
0.795384 0.744671 0.214749
0.805474 0.749488 0.215790
0.813490 0.754672 0.217955
0.818047 0.760466 0.221991
0.822490 0.767598 0.228676
0.826786 0.776452 0.238766
0.831831 0.784915 0.249606
0.837625 0.792987 0.261193
0.842431 0.799631 0.268680
0.846467 0.805165 0.272976
0.849242 0.811024 0.275401
0.851260 0.817078 0.276703
0.857440 0.824878 0.281631
0.865513 0.833471 0.288206
0.869044 0.838647 0.290240
0.871062 0.842683 0.290761
0.873080 0.851215 0.290065
0.875099 0.860785 0.289089
0.877344 0.867734 0.291188
0.879623 0.874309 0.293727
0.881657 0.880396 0.295778
0.883675 0.886450 0.297796
0.411566 0.708101 0.301958
0.503162 0.725027 0.253394
0.592980 0.741070 0.207620
0.656127 0.743869 0.203714
0.715221 0.745602 0.200182
0.745948 0.739874 0.199271
0.772281 0.737111 0.199605
0.779572 0.747201 0.205334
0.786750 0.756202 0.210834
0.793585 0.761930 0.215652
0.800950 0.767618 0.219452
0.809478 0.773217 0.221014
0.816321 0.778401 0.223798
0.820358 0.782893 0.228615
0.824394 0.789293 0.233689
0.828430 0.798146 0.239092
0.833475 0.806219 0.246676
0.839530 0.813510 0.256441
0.844009 0.819666 0.262544
0.847264 0.824939 0.265799
0.850234 0.831677 0.267020
0.853034 0.839294 0.267020
0.858921 0.846149 0.271182
0.866212 0.852659 0.277236
0.869549 0.857900 0.277578
0.871567 0.862717 0.276016
0.873585 0.870550 0.274718
0.875603 0.879078 0.273481
0.878305 0.884758 0.279194
0.881104 0.890031 0.285899
0.883903 0.894572 0.291139
0.886703 0.899063 0.296282
0.433765 0.724246 0.297922
0.526403 0.742213 0.254565
0.616741 0.759298 0.213349
0.672597 0.763139 0.204235
0.725051 0.766174 0.196667
0.753695 0.763570 0.199922
0.778140 0.763346 0.203055
0.784390 0.773437 0.205659
0.791046 0.781656 0.209077
0.798923 0.784260 0.214936
0.806353 0.788450 0.220103
0.812798 0.796132 0.223749
0.818339 0.801837 0.228224
0.822376 0.804245 0.234083
0.826412 0.809929 0.237009
0.830448 0.819825 0.236162
0.835493 0.827897 0.239059
0.841548 0.834147 0.245700
0.845441 0.839261 0.249850
0.847655 0.843492 0.252063
0.850885 0.851142 0.252893
0.854726 0.860842 0.252893
0.860223 0.866916 0.257055
0.866473 0.871343 0.263110
0.869549 0.876844 0.261889
0.871567 0.882703 0.258244
0.873585 0.889038 0.257401
0.875603 0.895483 0.257206
0.879216 0.899991 0.268517
0.883057 0.904223 0.281472
0.886898 0.906745 0.291009
0.890739 0.909154 0.300318
0.469082 0.746949 0.292246
0.551759 0.760881 0.249866
0.632463 0.774299 0.209398
0.683566 0.780028 0.197615
0.731708 0.785000 0.188021
0.759115 0.784675 0.193750
0.782677 0.785985 0.198942
0.789577 0.794383 0.201806
0.796348 0.801397 0.205045
0.802728 0.804262 0.209406
0.809006 0.808489 0.213666
0.815060 0.815715 0.217703
0.820358 0.821623 0.221543
0.824394 0.825334 0.225059
0.828800 0.831465 0.227264
0.833683 0.840709 0.227785
0.838305 0.847089 0.230226
0.842667 0.850605 0.234588
0.846186 0.854889 0.237155
0.849050 0.859772 0.238327
0.853176 0.867380 0.239295
0.858059 0.876624 0.240142
0.862583 0.882870 0.241659
0.866945 0.887752 0.243482
0.870818 0.892879 0.246623
0.874529 0.898087 0.250204
0.877552 0.903983 0.256376
0.880416 0.910037 0.263146
0.884306 0.912844 0.280797
0.888342 0.915188 0.300001
0.893172 0.917226 0.317802
0.898054 0.919244 0.335509
0.507426 0.771166 0.286192
0.577604 0.779890 0.243812
0.646329 0.788556 0.203214
0.693266 0.796368 0.189347
0.737632 0.803423 0.178191
0.763997 0.805181 0.186003
0.786908 0.807793 0.193083
0.794851 0.814108 0.196989
0.801881 0.819821 0.200488
0.806178 0.823727 0.202766
0.811024 0.828345 0.205594
0.817078 0.834529 0.209630
0.822376 0.840567 0.212299
0.826412 0.846361 0.212690
0.831274 0.853209 0.214504
0.837198 0.861411 0.218150
0.841299 0.865708 0.221112
0.843578 0.866098 0.223391
0.846772 0.869602 0.224461
0.850678 0.875526 0.224591
0.855845 0.882874 0.225820
0.861769 0.891077 0.227708
