其他预设/【236】赛博朋克风调色预设/【后期菌】视频调色预设/CUBE/Sunset 08_S.cube
# LUT by SparkleStock. Enhanced with VOXCOLOR algorithms.
LUT_3D_SIZE 32
0.011730 0.011730 0.023460
0.027875 0.011730 0.029515
0.044020 0.011730 0.035443
0.060165 0.011730 0.039479
0.076562 0.011730 0.043515
0.094725 0.011730 0.047551
0.115158 0.012109 0.051966
0.145429 0.014127 0.058020
0.180242 0.016649 0.064579
0.228676 0.020686 0.072652
0.277741 0.024091 0.080093
0.328193 0.026109 0.086148
0.377132 0.029641 0.090688
0.423549 0.035695 0.092706
0.467316 0.041749 0.092076
0.507678 0.047804 0.088040
0.544004 0.050831 0.085012
0.576294 0.050831 0.082994
0.607448 0.050831 0.086652
0.637720 0.050831 0.094725
0.664207 0.053354 0.104058
0.688424 0.057390 0.114149
0.707092 0.060038 0.115915
0.723237 0.062057 0.113897
0.739381 0.062561 0.117933
0.755526 0.062561 0.123987
0.770031 0.064201 0.125122
0.784158 0.066219 0.125122
0.796519 0.066471 0.123356
0.808627 0.066471 0.121338
0.820736 0.072147 0.121212
0.832845 0.078201 0.121212
0.019803 0.025857 0.035569
0.039072 0.022732 0.040582
0.058342 0.019868 0.045533
0.077611 0.020909 0.049570
0.097654 0.021951 0.053866
0.123108 0.022993 0.059986
0.150247 0.024022 0.065897
0.184685 0.024998 0.070910
0.223663 0.026740 0.076688
0.276264 0.030776 0.084760
0.327542 0.034182 0.090900
0.375912 0.036200 0.092788
0.421205 0.040122 0.093162
0.461372 0.047218 0.091014
0.500257 0.052491 0.088040
0.537494 0.055420 0.084003
0.570695 0.056885 0.084101
0.599860 0.056885 0.088333
0.627889 0.057471 0.093553
0.655036 0.058513 0.099542
0.679050 0.060775 0.106792
0.701184 0.063770 0.114800
0.720633 0.066093 0.116631
0.738861 0.068111 0.115654
0.753964 0.069397 0.119170
0.768025 0.070438 0.124182
0.781294 0.076505 0.126815
0.794379 0.083731 0.128898
0.805698 0.086457 0.129215
0.816765 0.088540 0.129280
0.826855 0.093370 0.127332
0.836881 0.098382 0.125248
0.027623 0.040110 0.047551
0.050082 0.034055 0.051653
0.072570 0.028489 0.055750
0.095485 0.030247 0.059786
0.119638 0.032045 0.064335
0.152448 0.034129 0.072473
0.186332 0.035821 0.079829
0.224872 0.035821 0.083800
0.267821 0.036847 0.088731
0.324003 0.040948 0.096543
0.377010 0.044419 0.101202
0.423036 0.046502 0.098924
0.464594 0.050758 0.095302
0.498707 0.058635 0.089443
0.532762 0.063094 0.084467
0.566744 0.063159 0.080626
0.596723 0.063192 0.083686
0.622698 0.063192 0.093646
0.647684 0.064364 0.100201
0.671901 0.066447 0.104107
0.693677 0.068611 0.109356
0.713988 0.070825 0.115410
0.734076 0.072859 0.117347
0.754061 0.074812 0.117412
0.768286 0.076912 0.120504
0.780590 0.079060 0.124605
0.792629 0.089248 0.128601
0.804607 0.101292 0.132572
0.814877 0.106556 0.134948
0.824902 0.110853 0.137097
0.833036 0.114906 0.133630
0.841043 0.118942 0.129789
0.031659 0.056255 0.057642
0.058285 0.050200 0.062785
0.085395 0.044374 0.067859
0.119768 0.041965 0.071895
0.154987 0.040248 0.076574
0.196130 0.043373 0.085753
0.237371 0.045912 0.093760
0.279035 0.045912 0.096690
0.323026 0.047197 0.099798
0.373999 0.052340 0.103444
0.421474 0.056853 0.103936
0.461250 0.059977 0.097491
0.497730 0.063713 0.092438
0.528718 0.068465 0.089704
0.558737 0.071622 0.087852
0.587511 0.072729 0.087136
0.612803 0.073282 0.090717
0.634611 0.073282 0.098594
0.657774 0.075040 0.103065
0.681992 0.078165 0.104888
0.705070 0.082673 0.109356
0.727464 0.088011 0.115410
0.746054 0.090306 0.118063
0.762915 0.091217 0.119170
0.778702 0.094619 0.123303
0.794130 0.098850 0.128446
0.805063 0.108583 0.131791
0.814958 0.119585 0.134720
0.824056 0.128365 0.138789
0.833040 0.136828 0.143021
0.840132 0.141141 0.142614
0.847097 0.145177 0.141898
0.035695 0.073156 0.067985
0.066357 0.066581 0.073909
0.097894 0.060030 0.079731
0.142553 0.053846 0.084028
0.187944 0.048955 0.088984
0.238461 0.053122 0.098553
0.287783 0.056580 0.106683
0.331920 0.056971 0.108571
0.376433 0.058810 0.109889
0.422068 0.064994 0.109498
0.463919 0.070507 0.106198
0.497445 0.074544 0.096499
0.528897 0.077774 0.090436
0.556890 0.079662 0.090436
0.582946 0.081550 0.091148
0.606512 0.083438 0.092776
0.627507 0.084642 0.096486
0.645930 0.085163 0.102280
0.667613 0.087588 0.104962
0.691830 0.091494 0.105222
0.716047 0.098004 0.109022
0.740264 0.106076 0.114946
0.757634 0.108868 0.118274
0.771891 0.109258 0.120423
0.788979 0.113897 0.125891
0.807012 0.119951 0.132466
0.816846 0.129496 0.135127
0.824788 0.139847 0.136885
0.832845 0.151736 0.142744
0.840917 0.163844 0.149189
0.847342 0.168873 0.151484
0.853656 0.173430 0.153502
0.039731 0.095355 0.080093
0.073518 0.084614 0.084976
0.108115 0.074092 0.089952
0.154857 0.066866 0.096332
0.204154 0.061194 0.102589
0.271337 0.066402 0.107993
0.333808 0.071293 0.112542
0.375863 0.074808 0.113388
0.417250 0.079251 0.113144
0.456636 0.086477 0.109628
0.492237 0.092706 0.105157
0.519514 0.096743 0.098582
0.546278 0.099583 0.094472
0.572188 0.100429 0.094472
0.594794 0.101275 0.093817
0.613152 0.102122 0.092320
0.632585 0.104888 0.093427
0.653091 0.109575 0.097137
0.675685 0.113237 0.100079
0.699902 0.116102 0.102423
0.724119 0.122221 0.106353
0.748337 0.130294 0.111236
0.766422 0.135233 0.114954
0.781721 0.138748 0.118144
0.798289 0.144168 0.126998
0.815280 0.150222 0.137739
0.824072 0.161460 0.139489
0.830973 0.173894 0.139163
0.838899 0.186044 0.147496
0.846971 0.198152 0.157066
0.855349 0.207087 0.159556
0.863747 0.215811 0.161574
0.043768 0.118311 0.092580
0.080679 0.103794 0.096421
0.118458 0.089728 0.100563
0.169236 0.082437 0.109222
0.223684 0.076692 0.117001
0.303822 0.081770 0.118628
0.376502 0.087067 0.119511
0.416864 0.093317 0.117168
0.455419 0.100071 0.113994
0.488555 0.108339 0.108330
0.518151 0.115284 0.103114
0.539960 0.119320 0.098883
0.562305 0.121989 0.096311
0.585546 0.122380 0.096507
0.605056 0.122770 0.095022
0.619768 0.123161 0.091376
0.638126 0.127197 0.090367
0.660130 0.134879 0.091994
0.683269 0.139814 0.095197
0.707291 0.142614 0.099623
0.731313 0.148587 0.103928
0.755335 0.156464 0.108160
0.774076 0.163088 0.112257
0.790416 0.169142 0.116293
0.806609 0.175782 0.127897
0.822754 0.182618 0.142024
0.831176 0.195695 0.143192
0.837817 0.210212 0.141369
0.845710 0.223647 0.150711
0.853782 0.236927 0.161647
0.863197 0.248926 0.164406
0.872702 0.260839 0.166619
0.047804 0.144546 0.106707
0.087840 0.127946 0.109506
0.129329 0.112188 0.112867
0.192606 0.109063 0.124650
0.257601 0.106312 0.134903
0.334614 0.106182 0.134448
0.404755 0.107443 0.131294
0.445117 0.114735 0.116452
0.482110 0.122530 0.104424
0.508997 0.131840 0.100844
0.533645 0.139501 0.096735
0.553370 0.143537 0.091461
0.572461 0.146988 0.088630
0.590494 0.149461 0.089866
0.608441 0.151935 0.089879
0.626278 0.154409 0.088316
0.645678 0.158445 0.087307
0.666640 0.164044 0.086852
0.688738 0.170411 0.090314
0.711718 0.177377 0.096824
0.734698 0.184261 0.102561
0.757678 0.191097 0.107834
0.776810 0.197395 0.112257
0.794191 0.203450 0.116293
0.810645 0.213215 0.127897
0.826790 0.224217 0.142024
0.837751 0.239767 0.144038
0.847516 0.256368 0.143257
0.855800 0.275532 0.147260
0.863873 0.295062 0.151947
0.870358 0.306474 0.155292
0.876738 0.317346 0.158547
0.053354 0.171791 0.122852
0.096515 0.153628 0.124349
0.141633 0.136600 0.126619
0.216108 0.136600 0.140486
0.290379 0.136128 0.152204
0.363225 0.132352 0.148884
0.429786 0.130652 0.141645
0.469106 0.137943 0.117428
0.504472 0.145934 0.098435
0.527973 0.156024 0.095115
0.549725 0.164386 0.091347
0.567627 0.168943 0.086595
0.584114 0.173500 0.084284
0.598240 0.178057 0.086042
0.614560 0.182158 0.086689
0.633700 0.185673 0.085908
0.653490 0.190100 0.085159
0.673931 0.195438 0.084443
0.695069 0.203157 0.088377
0.716747 0.212726 0.095929
0.738588 0.220099 0.102545
0.760527 0.226153 0.108599
0.780048 0.232924 0.113624
0.798472 0.240020 0.118181
0.815382 0.252193 0.129329
0.831787 0.266060 0.142675
0.844912 0.283840 0.145177
0.857281 0.302524 0.145177
0.865207 0.326961 0.146316
0.872499 0.352219 0.147618
0.877226 0.365699 0.151484
0.881783 0.378394 0.155520
0.063444 0.202062 0.145051
0.109730 0.183899 0.144465
0.158234 0.166872 0.144717
0.239999 0.166872 0.157542
0.319739 0.166530 0.167698
0.385294 0.163796 0.159169
0.445150 0.162355 0.147700
0.480304 0.166522 0.123482
0.513846 0.172169 0.103188
0.542556 0.182260 0.094659
0.567562 0.191272 0.088939
0.584423 0.197912 0.089394
0.600259 0.204552 0.089948
0.614385 0.211193 0.090664
0.628882 0.215554 0.089358
0.643855 0.216986 0.085452
0.662083 0.222976 0.085745
0.683566 0.233522 0.090237
0.703987 0.242347 0.095278
0.723582 0.249833 0.100746
0.743991 0.256425 0.106581
0.764888 0.262479 0.112635
0.784801 0.272114 0.119092
0.804266 0.283376 0.125733
0.822217 0.295810 0.135058
0.839664 0.308635 0.145279
0.853831 0.327913 0.147195
0.867242 0.348680 0.147195
0.872564 0.377023 0.152891
0.876730 0.406448 0.159401
0.883216 0.429953 0.163592
0.889856 0.453063 0.167628
0.076688 0.234856 0.165989
0.125448 0.219623 0.161692
0.176502 0.205260 0.158380
0.261979 0.203958 0.169838
0.344623 0.202485 0.178187
0.407445 0.199816 0.164776
0.464602 0.198087 0.149522
0.497217 0.200431 0.126282
0.529263 0.204304 0.105905
0.559600 0.212767 0.094122
0.585399 0.221413 0.087181
0.601219 0.230462 0.090892
0.616159 0.239267 0.093455
0.629635 0.247665 0.094106
0.642655 0.252531 0.092393
0.655089 0.252857 0.087641
0.671755 0.260083 0.088975
0.692652 0.274209 0.096397
0.712194 0.283978 0.101914
0.730682 0.290358 0.105950
0.750229 0.296941 0.111044
0.770410 0.303647 0.116773
0.790591 0.314559 0.123666
0.810772 0.327384 0.131087
0.829439 0.340160 0.139729
0.847602 0.352919 0.148778
0.862485 0.372820 0.151532
0.876612 0.394368 0.152834
0.879859 0.425884 0.160972
0.881552 0.458825 0.170086
0.887699 0.489568 0.172609
0.894144 0.520165 0.174692
0.096869 0.273200 0.184152
0.146670 0.267341 0.172564
0.198441 0.261507 0.162286
0.279751 0.256038 0.171661
0.359661 0.250659 0.177666
0.429774 0.245907 0.160089
0.493051 0.242681 0.142036
0.526708 0.246066 0.121920
0.557972 0.249418 0.104148
0.582059 0.252673 0.093406
0.603237 0.258716 0.086856
0.618015 0.270889 0.089525
0.631523 0.282038 0.092218
0.642915 0.291477 0.094952
0.655219 0.297385 0.096234
0.668695 0.298752 0.095648
0.683798 0.306499 0.098024
0.700529 0.320626 0.103363
0.718834 0.330981 0.107968
0.738364 0.338402 0.112005
0.758301 0.346678 0.116448
0.778482 0.355466 0.121135
0.798663 0.364165 0.126270
0.818844 0.372824 0.131608
0.837511 0.386120 0.142073
0.855674 0.400963 0.154246
0.870558 0.419561 0.160972
0.884685 0.439026 0.166440
0.887020 0.472105 0.172364
0.887671 0.507129 0.178354
0.888871 0.538979 0.174822
0.890108 0.570618 0.170656
0.118563 0.309274 0.202315
0.167844 0.311227 0.183045
0.219061 0.312822 0.165411
0.299330 0.309046 0.172312
0.379045 0.304839 0.176169
0.454886 0.297613 0.158722
0.522501 0.292352 0.140994
0.554465 0.295607 0.122050
0.583190 0.298341 0.105710
0.602199 0.299513 0.097182
0.619317 0.304489 0.091950
0.632271 0.317834 0.093968
0.643859 0.329959 0.096596
0.653169 0.340050 0.100242
0.664756 0.346609 0.103175
0.679274 0.348627 0.105193
0.693596 0.356309 0.107830
0.707722 0.369654 0.111085
0.725255 0.379814 0.114560
0.745436 0.387496 0.118205
0.764884 0.396194 0.121851
0.783893 0.405504 0.125497
0.803977 0.413381 0.129679
0.824548 0.420607 0.134106
0.842142 0.434229 0.144343
0.858742 0.449983 0.156517
0.873015 0.468329 0.165358
0.886751 0.487273 0.173430
0.889494 0.519376 0.178313
0.890666 0.553358 0.182740
0.888847 0.584289 0.176547
0.886829 0.615016 0.169647
0.142781 0.341563 0.220477
0.188936 0.348724 0.192875
0.237485 0.355918 0.167234
0.321919 0.363600 0.171010
0.405671 0.369027 0.173044
0.484637 0.358677 0.162888
0.553618 0.350486 0.150694
0.579333 0.351658 0.129667
0.602590 0.353611 0.112806
0.618474 0.357908 0.108444
0.632467 0.364381 0.106076
0.642297 0.375643 0.108094
0.651150 0.386466 0.110332
0.658377 0.396557 0.112936
0.669248 0.403115 0.115284
0.684807 0.405134 0.117302
0.699650 0.411774 0.118897
0.713777 0.423036 0.120069
0.731309 0.431698 0.122046
0.751490 0.438339 0.124650
0.768986 0.445345 0.127254
0.784870 0.452571 0.129858
0.804693 0.461945 0.134431
0.826306 0.472296 0.139900
0.841035 0.485919 0.146491
0.853469 0.500631 0.153457
0.866115 0.520474 0.161322
0.878809 0.541502 0.169394
0.884156 0.568396 0.175188
0.888452 0.596129 0.180657
0.886829 0.622763 0.177459
0.884811 0.649324 0.173683
0.167881 0.379151 0.239523
0.213646 0.388785 0.205411
0.261804 0.398843 0.173500
0.345848 0.415248 0.174606
0.428964 0.428602 0.174875
0.505587 0.420595 0.169276
0.572518 0.414089 0.160992
0.597451 0.414089 0.141072
0.619113 0.415033 0.124829
0.630961 0.418809 0.119621
0.641630 0.424273 0.116244
0.649702 0.433452 0.116895
0.657530 0.442631 0.117888
0.664952 0.451810 0.119450
0.675193 0.457657 0.120614
0.689059 0.459219 0.121265
0.703283 0.465274 0.121818
0.717866 0.475820 0.122274
0.735085 0.483839 0.123096
0.754354 0.489894 0.124203
0.770694 0.496518 0.126164
0.785277 0.503483 0.128638
0.804156 0.513358 0.133573
0.824988 0.524555 0.139627
0.838105 0.539317 0.145535
0.848652 0.555266 0.151394
0.860467 0.575183 0.160162
0.872576 0.596015 0.169602
0.878988 0.617815 0.177674
0.884587 0.639754 0.185551
0.883899 0.659984 0.187142
0.882793 0.680100 0.188314
0.194116 0.423549 0.259704
0.243006 0.432142 0.221425
0.293703 0.441549 0.185478
0.371497 0.463162 0.184502
0.447973 0.482244 0.183077
0.515222 0.483612 0.178520
0.575708 0.484722 0.172059
0.606891 0.484722 0.157347
0.631938 0.484364 0.143187
0.638578 0.482932 0.130688
0.645666 0.484165 0.121322
0.653738 0.491261 0.118848
0.662738 0.498357 0.117497
0.673284 0.505453 0.118018
0.683005 0.509672 0.117229
0.691663 0.510193 0.114755
0.703804 0.516247 0.114267
0.719428 0.527835 0.115764
0.735931 0.536310 0.115870
0.753117 0.542364 0.114893
0.769327 0.550290 0.116724
0.784951 0.559339 0.120240
0.802008 0.568433 0.125501
0.819715 0.577547 0.131555
0.832832 0.594912 0.140588
0.844420 0.615028 0.150613
0.856431 0.633187 0.162701
0.868540 0.650894 0.175265
0.874041 0.667747 0.187374
0.878598 0.684478 0.199418
0.879798 0.695593 0.208104
0.880774 0.706335 0.216567
0.220351 0.465929 0.272822
0.280699 0.476605 0.229856
0.341844 0.487933 0.189449
0.414951 0.509025 0.187431
0.486220 0.528173 0.185421
0.544614 0.533706 0.183468
0.597321 0.538397 0.180001
0.625379 0.539439 0.169976
0.648083 0.539211 0.158421
0.654723 0.535175 0.142276
0.661485 0.534129 0.129590
0.668516 0.539663 0.124512
0.677060 0.545196 0.120948
0.688127 0.550730 0.119906
0.696773 0.553842 0.117554
0.702307 0.553842 0.113518
0.712886 0.559636 0.112769
0.728510 0.571224 0.115308
0.743548 0.579113 0.115577
0.758130 0.584126 0.114080
0.773689 0.592638 0.116692
0.789834 0.603249 0.121770
0.805621 0.613905 0.129667
0.821245 0.624582 0.138846
0.833451 0.641947 0.151004
0.844518 0.661542 0.164154
0.856008 0.677064 0.178944
0.867596 0.691647 0.194112
0.871665 0.704919 0.207913
0.874659 0.718004 0.221519
0.877715 0.724986 0.236162
0.880774 0.731561 0.250875
0.246587 0.506291 0.278876
0.326725 0.522175 0.230702
0.406228 0.537994 0.185413
0.476211 0.552837 0.183395
0.543703 0.566386 0.181906
0.593765 0.570878 0.184119
0.637357 0.575114 0.184819
0.652916 0.578238 0.178960
0.667548 0.579573 0.170529
0.679396 0.575537 0.154385
0.689088 0.574166 0.141047
0.694035 0.578658 0.133886
0.700496 0.583149 0.128239
0.709480 0.587641 0.125114
0.716499 0.590168 0.121591
0.720991 0.590168 0.117554
0.730528 0.595441 0.117326
0.745110 0.605987 0.120907
0.757935 0.612249 0.122217
0.769392 0.615179 0.121761
0.783780 0.623560 0.126066
0.799924 0.635213 0.133227
0.814995 0.649775 0.146072
0.829577 0.665660 0.161501
0.839961 0.680421 0.176783
0.848945 0.694808 0.192017
0.859198 0.706815 0.208890
0.869744 0.718273 0.226141
0.871860 0.729332 0.239291
0.872771 0.740333 0.251856
0.877650 0.748162 0.271316
0.882793 0.755778 0.291237
0.268281 0.543247 0.286066
0.360007 0.561996 0.237371
0.450398 0.580183 0.191374
0.520771 0.589948 0.185840
0.587564 0.598778 0.181356
0.629293 0.601056 0.184221
0.665639 0.603884 0.186121
0.678659 0.609092 0.183842
0.691956 0.612575 0.178830
0.706083 0.610882 0.165614
0.716873 0.610614 0.154189
0.720323 0.613478 0.146703
0.724848 0.616123 0.140071
0.731162 0.618401 0.134863
0.736480 0.620964 0.131193
0.740517 0.623894 0.129500
0.748719 0.630111 0.130965
0.761088 0.639616 0.135587
0.772505 0.646227 0.139257
0.783181 0.650589 0.142187
0.795811 0.658328 0.147964
0.809612 0.668093 0.155451
0.822429 0.682020 0.169472
0.834798 0.697839 0.186463
0.843944 0.710876 0.203258
0.852017 0.722984 0.219989
0.861253 0.733929 0.238836
0.870757 0.744606 0.258170
0.872458 0.753744 0.270157
0.873044 0.762663 0.281094
0.877658 0.771337 0.298744
0.882540 0.779996 0.316842
0.286444 0.577555 0.294138
0.383378 0.597345 0.248568
0.478847 0.616249 0.205110
0.552345 0.621847 0.193327
0.620830 0.626640 0.183114
0.654226 0.625794 0.183895
0.684779 0.626474 0.184689
0.703007 0.633765 0.185535
0.720209 0.639852 0.184168
0.734336 0.642325 0.176161
0.744801 0.644270 0.168642
0.747210 0.645051 0.162197
0.749911 0.645222 0.155434
0.753101 0.644376 0.148143
0.756661 0.647460 0.145124
0.760698 0.655598 0.147598
0.767338 0.663898 0.151667
0.776582 0.672361 0.157330
0.787218 0.680860 0.164386
0.798936 0.689389 0.172523
0.809352 0.696086 0.179603
0.818986 0.701684 0.186048
0.828353 0.711445 0.198311
0.837597 0.723098 0.213219
0.845962 0.735093 0.230275
0.854035 0.747201 0.248047
0.862424 0.758993 0.268782
0.870887 0.770711 0.290200
0.873369 0.778157 0.300624
0.874997 0.784992 0.309477
0.877723 0.794513 0.320162
0.880522 0.804213 0.330968
0.305868 0.609340 0.294643
0.401500 0.626266 0.250244
0.495903 0.642631 0.207982
0.571875 0.650573 0.197762
0.642216 0.656782 0.188412
0.673138 0.650858 0.185157
0.701680 0.647436 0.182890
0.719908 0.654857 0.184908
0.737111 0.661432 0.185234
0.751238 0.665468 0.180482
0.762191 0.669260 0.176746
0.766162 0.672515 0.175249
0.770377 0.674525 0.172751
0.774999 0.674460 0.168585
0.779650 0.679408 0.168861
0.784337 0.690800 0.174850
0.789740 0.700207 0.180872
0.795860 0.707629 0.186926
0.804616 0.715453 0.194885
0.815422 0.723591 0.204324
0.823299 0.729165 0.212462
0.829419 0.733201 0.219818
0.836433 0.741399 0.230487
0.843855 0.751490 0.242660
0.851276 0.761629 0.255908
0.858697 0.771785 0.269514
0.865061 0.781940 0.285870
0.871180 0.792096 0.302861
0.874281 0.799802 0.311479
0.876950 0.807159 0.318900
0.879009 0.816468 0.326322
0.881027 0.825907 0.333743
0.326049 0.639612 0.290606
0.416473 0.651330 0.246208
0.506124 0.663202 0.204337
0.584179 0.677394 0.200366
0.656472 0.688290 0.195833
0.688437 0.676116 0.187370
0.717239 0.667421 0.180872
0.732342 0.673801 0.182890
0.747201 0.679595 0.183737
0.761328 0.683631 0.181067
0.773258 0.689051 0.181043
0.780354 0.697514 0.186837
0.788084 0.703951 0.191239
0.796873 0.707010 0.193323
0.804323 0.714627 0.198482
0.810051 0.728103 0.207596
0.814413 0.738031 0.215180
0.817408 0.744410 0.221234
0.823625 0.750021 0.228607
0.832348 0.755034 0.237005
0.837491 0.759436 0.246054
0.840486 0.763472 0.255493
0.845808 0.771671 0.264664
0.852187 0.781761 0.273713
0.858567 0.789557 0.280711
0.864947 0.796588 0.287026
0.868576 0.803619 0.295245
0.871571 0.810650 0.303903
0.875192 0.819788 0.310568
0.878903 0.829227 0.316947
0.881027 0.837690 0.323327
0.883045 0.846088 0.329707
0.354555 0.665721 0.294895
0.444067 0.677959 0.247632
0.532681 0.690129 0.203242
0.607806 0.701261 0.201940
0.677577 0.709504 0.199808
0.709867 0.697526 0.191866
0.738348 0.689197 0.186194
0.750326 0.696684 0.190361
0.762126 0.703666 0.193518
0.773388 0.709134 0.193648
0.783877 0.715376 0.195365
0.792666 0.723318 0.200573
0.801137 0.730064 0.205342
0.809079 0.734816 0.209378
0.815882 0.742730 0.216063
0.821220 0.754708 0.226153
0.825614 0.764083 0.235300
0.829065 0.770853 0.243502
0.834309 0.776488 0.250826
0.840950 0.781241 0.257466
0.844701 0.785993 0.264025
0.846719 0.790745 0.270535
0.852004 0.798675 0.277627
0.858775 0.808050 0.284983
0.863934 0.814397 0.288775
0.868556 0.819735 0.291379
0.871062 0.826819 0.294459
0.873080 0.834305 0.297649
0.876238 0.842817 0.302092
0.879558 0.851475 0.306715
0.881657 0.858913 0.311337
0.883675 0.866269 0.315959
0.386845 0.689938 0.302967
0.477399 0.705301 0.251538
0.566663 0.719945 0.203307
0.636580 0.723786 0.203047
0.701794 0.726040 0.202217
0.734084 0.717186 0.197399
0.761979 0.711787 0.194852
0.770833 0.721357 0.202144
0.779247 0.730422 0.208426
0.786343 0.737974 0.211681
0.794293 0.744671 0.214244
0.804123 0.749488 0.215286
0.812074 0.754672 0.217450
0.816891 0.760466 0.221486
0.821481 0.767598 0.228171
0.825777 0.776452 0.238262
0.830692 0.784785 0.248971
0.836226 0.792597 0.260298
0.841210 0.799273 0.267817
0.845767 0.805067 0.272374
0.848737 0.810861 0.274897
0.850755 0.816655 0.276199
0.856757 0.824194 0.280947
0.864569 0.832527 0.287262
0.868426 0.837833 0.289231
0.870965 0.842129 0.289752
0.873080 0.850710 0.289056
0.875099 0.860280 0.288080
0.877344 0.867230 0.290179
0.879623 0.873805 0.292718
0.881657 0.880136 0.295257
0.883675 0.886450 0.297796
0.411566 0.708101 0.301958
0.503162 0.725027 0.253394
0.592980 0.741070 0.207620
0.656127 0.743869 0.203714
0.715221 0.745602 0.200182
0.745948 0.739874 0.199271
0.772281 0.737111 0.199605
0.779572 0.747201 0.205334
0.786750 0.756202 0.210834
0.793585 0.761930 0.215652
0.800950 0.767618 0.219452
0.809478 0.773217 0.221014
0.816321 0.778401 0.223798
0.820358 0.782893 0.228615
0.824394 0.789293 0.233689
0.828430 0.798146 0.239092
0.833475 0.806219 0.246676
0.839530 0.813510 0.256441
0.844009 0.819666 0.262544
0.847264 0.824939 0.265799
0.850234 0.831677 0.267020
0.853034 0.839294 0.267020
0.858921 0.846149 0.271182
0.866212 0.852659 0.277236
0.869549 0.857900 0.277578
0.871567 0.862717 0.276016
0.873585 0.870550 0.274718
0.875603 0.879078 0.273481
0.878305 0.884758 0.279194
0.881104 0.890031 0.285899
0.883903 0.894572 0.291139
0.886703 0.899063 0.296282
0.433765 0.724246 0.297922
0.526403 0.742213 0.254565
0.616741 0.759298 0.213349
0.672597 0.763139 0.204235
0.725051 0.766174 0.196667
0.753695 0.763570 0.199922
0.778140 0.763346 0.203055
0.784390 0.773437 0.205659
0.791046 0.781656 0.209077
0.798923 0.784260 0.214936
0.806353 0.788450 0.220103
0.812798 0.796132 0.223749
0.818339 0.801837 0.228224
0.822376 0.804245 0.234083
0.826412 0.809929 0.237009
0.830448 0.819825 0.236162
0.835493 0.827897 0.239059
0.841548 0.834147 0.245700
0.845441 0.839261 0.249850
0.847655 0.843492 0.252063
0.850885 0.851142 0.252893
0.854726 0.860842 0.252893
0.860223 0.866916 0.257055
0.866473 0.871343 0.263110
0.869549 0.876844 0.261889
0.871567 0.882703 0.258244
0.873585 0.889038 0.257401
0.875603 0.895483 0.257206
0.879216 0.899991 0.268517
0.883057 0.904223 0.281472
0.886898 0.906745 0.291009
0.890739 0.909154 0.300318
0.464163 0.746949 0.288967
0.546840 0.760881 0.247433
0.627544 0.774299 0.207758
0.678647 0.780028 0.195975
0.726789 0.785000 0.186381
0.754196 0.784675 0.192110
0.777599 0.785985 0.197302
0.783653 0.794383 0.200166
0.789789 0.801397 0.203405
0.796169 0.804262 0.207767
0.802976 0.808489 0.212027
0.810723 0.815715 0.216063
0.817078 0.821623 0.219904
0.821114 0.825334 0.223419
0.825521 0.831465 0.225624
0.830403 0.840709 0.226145
0.835449 0.847089 0.228586
0.840657 0.850605 0.232948
0.844546 0.854889 0.235992
0.847411 0.859772 0.238010
0.851007 0.867380 0.238766
0.855044 0.876624 0.238766
0.859885 0.882870 0.240020
0.865093 0.887752 0.241842
0.869813 0.892879 0.244983
0.874370 0.898087 0.248564
0.877552 0.903983 0.254736
0.880416 0.910037 0.261507
0.884306 0.912844 0.278416
0.888342 0.915188 0.296775
0.892379 0.917226 0.312936
0.896415 0.919244 0.328950
0.496453 0.771166 0.278876
0.566630 0.779890 0.238384
0.635356 0.788556 0.199556
0.682293 0.796368 0.185690
0.726658 0.803423 0.174533
0.753024 0.805181 0.182345
0.775581 0.807793 0.189425
0.781635 0.814108 0.193331
0.787250 0.819821 0.196830
0.791547 0.823727 0.199108
0.797573 0.828345 0.201936
0.807403 0.834529 0.205972
0.815060 0.840567 0.208641
0.819096 0.846361 0.209032
0.823958 0.853209 0.210847
0.829883 0.861411 0.214492
0.834928 0.865708 0.217454
0.839094 0.866098 0.219733
0.843114 0.869602 0.221865
0.847020 0.875526 0.223883
0.851007 0.882874 0.224640
0.855044 0.891077 0.224640
