其他预设/【236】赛博朋克风调色预设/【后期菌】视频调色预设/CUBE/Sunset 06_S.cube
# LUT by SparkleStock. Enhanced with VOXCOLOR algorithms.
LUT_3D_SIZE 32
0.007820 0.125122 0.054741
0.015893 0.125122 0.058777
0.024343 0.124996 0.062813
0.038470 0.122978 0.066850
0.053101 0.121212 0.070381
0.071264 0.121212 0.070381
0.089427 0.121212 0.071138
0.107590 0.121212 0.075174
0.129285 0.120708 0.079210
0.161574 0.118689 0.083247
0.194494 0.116671 0.086652
0.228802 0.114653 0.088670
0.267650 0.113392 0.091445
0.314067 0.113392 0.095481
0.365781 0.113392 0.101283
0.424305 0.113392 0.109356
0.482830 0.113392 0.116419
0.541355 0.113392 0.122473
0.596475 0.113392 0.131933
0.648945 0.113392 0.144042
0.695109 0.113392 0.154889
0.737489 0.113392 0.164980
0.768770 0.113392 0.168133
0.795005 0.113392 0.168133
0.815186 0.114906 0.172674
0.833349 0.116924 0.178728
0.854791 0.118942 0.183143
0.876991 0.120960 0.187179
0.890360 0.121212 0.192981
0.902469 0.121212 0.199035
0.914578 0.123104 0.201305
0.926686 0.125122 0.203324
0.011856 0.135213 0.064831
0.024095 0.132088 0.067826
0.036712 0.129032 0.070756
0.055005 0.127014 0.072709
0.073412 0.125248 0.074808
0.092617 0.125248 0.077933
0.112212 0.124858 0.080838
0.133500 0.122775 0.082791
0.158319 0.120447 0.085004
0.193734 0.117387 0.087999
0.232057 0.115304 0.091014
0.276781 0.115369 0.094074
0.322920 0.115019 0.097499
0.371420 0.113978 0.101536
0.424305 0.113848 0.106426
0.482830 0.114889 0.112415
0.538751 0.114889 0.118958
0.592068 0.113848 0.126054
0.640222 0.113392 0.134212
0.684360 0.113392 0.143196
0.723493 0.113392 0.150918
0.759623 0.113392 0.157884
0.786803 0.114108 0.162925
0.809913 0.115150 0.167091
0.830094 0.116924 0.173455
0.849299 0.118942 0.180551
0.867551 0.121806 0.186853
0.885584 0.124866 0.192973
0.898433 0.126160 0.197212
0.910541 0.127201 0.201183
0.921674 0.128182 0.203324
0.932741 0.129158 0.205342
0.015640 0.144925 0.074544
0.032045 0.139001 0.076627
0.048837 0.133309 0.078584
0.071427 0.131095 0.078649
0.093764 0.129150 0.079446
0.114336 0.129085 0.085371
0.135628 0.128275 0.090172
0.160040 0.124239 0.090107
0.188082 0.120252 0.090611
0.227012 0.116411 0.092824
0.270763 0.114381 0.095587
0.325122 0.116334 0.099558
0.378015 0.116822 0.103505
0.428468 0.114869 0.107411
0.482253 0.114625 0.111431
0.540322 0.116578 0.115597
0.593346 0.116578 0.121619
0.641324 0.114625 0.129496
0.682602 0.113770 0.136275
0.718667 0.113770 0.142199
0.751071 0.113811 0.147024
0.781277 0.113876 0.151191
0.804546 0.115239 0.158042
0.824662 0.117192 0.166115
0.844876 0.119243 0.174236
0.865122 0.121326 0.182374
0.880290 0.124943 0.190405
0.894287 0.128914 0.198413
0.906631 0.131290 0.201407
0.918740 0.133439 0.203686
0.928773 0.133573 0.205659
0.938669 0.133573 0.207612
0.015640 0.148961 0.078580
0.036212 0.145120 0.081705
0.057300 0.141186 0.084703
0.086139 0.135847 0.085810
0.114727 0.131038 0.087258
0.141548 0.129931 0.091099
0.168503 0.128275 0.094013
0.196040 0.124239 0.092906
0.228770 0.121033 0.093410
0.277074 0.120317 0.098749
0.326619 0.120109 0.103334
0.378894 0.121021 0.106264
0.430486 0.121249 0.108778
0.480938 0.120337 0.110601
0.531533 0.120223 0.114360
0.582311 0.121135 0.120610
0.628044 0.121135 0.126111
0.668732 0.120223 0.130863
0.704476 0.119825 0.135103
0.736375 0.119825 0.138944
0.766565 0.120516 0.144290
0.795729 0.121623 0.150540
0.817957 0.122595 0.158042
0.837031 0.123507 0.166115
0.857766 0.126078 0.175017
0.879053 0.129203 0.184196
0.892724 0.132169 0.191577
0.904638 0.135099 0.198543
0.916722 0.139168 0.205053
0.928830 0.143399 0.211498
0.935934 0.143663 0.212755
0.942705 0.143663 0.213666
0.016145 0.153502 0.083120
0.040622 0.151223 0.086896
0.065731 0.148591 0.090562
0.100299 0.140649 0.092580
0.134745 0.133398 0.094582
0.168336 0.130989 0.096470
0.201501 0.128349 0.097699
0.232814 0.124703 0.096071
0.270328 0.122473 0.096771
0.326444 0.124492 0.104453
0.380668 0.125879 0.110324
0.430730 0.125879 0.112212
0.480792 0.125928 0.113490
0.530854 0.126058 0.113750
0.577982 0.126131 0.117200
0.621339 0.126131 0.124752
0.660041 0.126196 0.129537
0.694088 0.126327 0.131555
0.724876 0.126530 0.133793
0.753130 0.126790 0.136201
0.781058 0.128149 0.142150
0.808790 0.130167 0.150222
0.830123 0.130888 0.158205
0.848546 0.131018 0.166147
0.869801 0.133980 0.175896
0.892000 0.137886 0.186247
0.904149 0.140258 0.193213
0.913980 0.142276 0.199397
0.925575 0.147712 0.209113
0.937424 0.153636 0.219334
0.942070 0.154250 0.220339
0.946237 0.154511 0.220730
0.020181 0.161574 0.091193
0.046742 0.157212 0.092885
0.073933 0.152692 0.094598
0.110585 0.145791 0.096617
0.148155 0.139062 0.098488
0.192163 0.133528 0.099334
0.235353 0.128935 0.100303
0.274999 0.128414 0.101800
0.317981 0.128528 0.104062
0.370972 0.130546 0.108619
0.422072 0.131933 0.112017
0.469009 0.131933 0.112863
0.515946 0.132373 0.114271
0.562883 0.133545 0.116614
0.604608 0.134204 0.119414
0.639632 0.134204 0.122799
0.673126 0.134790 0.125501
0.705090 0.135961 0.127519
0.734967 0.137792 0.131514
0.763220 0.140136 0.137048
0.788544 0.142276 0.144168
0.812110 0.144294 0.152240
0.833573 0.145730 0.159507
0.854079 0.146902 0.166408
0.875855 0.149343 0.177459
0.898054 0.152208 0.189893
0.908511 0.154385 0.198095
0.916258 0.156403 0.205321
0.925771 0.160927 0.216079
0.935536 0.165810 0.227341
0.941029 0.168312 0.231341
0.946237 0.170656 0.234856
0.023082 0.170025 0.098508
0.052312 0.163775 0.098704
0.082209 0.157526 0.099013
0.122115 0.151276 0.101031
0.163592 0.144750 0.102797
0.216063 0.136287 0.102797
0.267545 0.129899 0.103481
0.314742 0.132503 0.107126
0.362558 0.135009 0.110365
0.412229 0.137223 0.112383
0.460192 0.138927 0.113831
0.504395 0.139513 0.114027
0.548085 0.140636 0.115589
0.590921 0.142654 0.119430
0.627377 0.143875 0.121676
0.655630 0.144070 0.121871
0.684404 0.145372 0.123076
0.713699 0.147781 0.125289
0.742299 0.150995 0.130688
0.770357 0.154836 0.138565
0.793858 0.157416 0.146565
0.814625 0.159239 0.154637
0.836108 0.161196 0.161322
0.857916 0.163214 0.167376
0.880018 0.165085 0.179338
0.902217 0.166908 0.193270
0.911457 0.169842 0.202599
0.917706 0.173032 0.210867
0.924867 0.178671 0.222837
0.932159 0.184660 0.235336
0.938290 0.189551 0.241977
0.944345 0.194368 0.248226
0.021064 0.180115 0.102545
0.055502 0.172824 0.103782
0.090802 0.165533 0.105067
0.139041 0.158242 0.107085
0.187809 0.150544 0.108851
0.240280 0.139998 0.108851
0.292543 0.132503 0.109144
0.343907 0.138232 0.110707
0.393806 0.143342 0.112383
0.439311 0.146597 0.114401
0.484084 0.149994 0.116175
0.527245 0.153705 0.117412
0.567159 0.156781 0.119235
0.601662 0.158799 0.122034
0.633431 0.160476 0.124150
0.661684 0.161712 0.125387
0.687855 0.164577 0.127633
0.711942 0.169069 0.130888
0.737677 0.172609 0.136157
0.764693 0.175408 0.142992
0.789757 0.176946 0.150601
0.813648 0.177727 0.158673
0.834676 0.179359 0.165358
0.854401 0.181377 0.171412
0.875981 0.182467 0.182593
0.898181 0.183248 0.195483
0.908267 0.191064 0.205464
0.915558 0.200504 0.214773
0.919204 0.216038 0.228696
0.922329 0.232444 0.243279
0.928200 0.241891 0.251026
0.934254 0.250875 0.258317
0.020055 0.189701 0.107590
0.058399 0.181889 0.109087
0.097833 0.174061 0.110617
0.153624 0.165989 0.112635
0.209130 0.157444 0.114336
0.262642 0.145596 0.113815
0.316093 0.137434 0.113441
0.369280 0.145246 0.113701
0.420286 0.152244 0.114596
0.464749 0.156801 0.117396
0.508317 0.161989 0.119951
0.549916 0.168564 0.121969
0.586120 0.173430 0.123987
0.613331 0.175449 0.126005
0.640657 0.177467 0.127795
0.668129 0.179485 0.129293
0.692216 0.183651 0.132190
0.712918 0.189966 0.136486
0.736293 0.193717 0.141625
0.761747 0.195475 0.147419
0.787201 0.196460 0.154474
0.812655 0.196980 0.162286
0.833455 0.199247 0.169427
0.852139 0.202306 0.176262
0.873068 0.203657 0.186857
0.894747 0.204438 0.198706
0.905158 0.217755 0.209549
0.912970 0.233965 0.220160
0.913263 0.258093 0.235157
0.912482 0.283352 0.250781
0.917621 0.297503 0.259814
0.923155 0.310914 0.268407
0.022073 0.197774 0.115662
0.060417 0.191003 0.115076
0.100177 0.184152 0.114653
0.161175 0.176079 0.116671
0.221759 0.167665 0.118112
0.279438 0.156858 0.115508
0.335298 0.149348 0.113636
0.383276 0.156118 0.114938
0.432459 0.162856 0.117396
0.485255 0.169496 0.123320
0.533576 0.176767 0.128023
0.572050 0.185425 0.130041
0.604738 0.191593 0.132059
0.627784 0.193611 0.134078
0.651399 0.195630 0.134956
0.675746 0.197648 0.134370
0.699312 0.202335 0.136747
0.722097 0.209691 0.142085
0.744626 0.213312 0.147093
0.766955 0.214028 0.151846
0.789285 0.215924 0.157859
0.811614 0.218528 0.164630
0.832869 0.224310 0.173593
0.853636 0.231536 0.183554
0.873524 0.236272 0.194149
0.893119 0.240178 0.204955
0.902294 0.260852 0.217296
0.909064 0.285394 0.229990
0.906493 0.314209 0.243425
0.902587 0.343634 0.256966
0.905578 0.362928 0.267821
0.909028 0.381547 0.278498
0.024091 0.209630 0.123735
0.061458 0.204227 0.120740
0.100527 0.198616 0.118038
0.165106 0.189893 0.119731
0.229425 0.181080 0.120870
0.291921 0.171640 0.118136
0.351206 0.165106 0.116354
0.396581 0.171160 0.118698
0.444999 0.177638 0.122311
0.502548 0.185384 0.129732
0.553362 0.193660 0.135465
0.589362 0.203100 0.137483
0.619553 0.210122 0.139379
0.640059 0.213117 0.141072
0.661021 0.215969 0.141283
0.682569 0.218638 0.139591
0.704964 0.224497 0.141772
0.728204 0.233546 0.147826
0.749541 0.238421 0.152745
0.769396 0.240048 0.156781
0.789659 0.243995 0.162486
0.810165 0.249333 0.169191
0.831388 0.257491 0.179163
0.852936 0.266930 0.190621
0.871945 0.275052 0.201541
0.890108 0.282733 0.212283
0.898962 0.307447 0.226568
0.905667 0.336091 0.241672
0.901777 0.367640 0.254724
0.896374 0.399604 0.267484
0.896708 0.423939 0.278412
0.897424 0.447766 0.289219
0.026109 0.229811 0.131807
0.060352 0.226491 0.125688
0.096490 0.222703 0.119991
0.161070 0.211896 0.120642
0.226170 0.201521 0.121391
0.294915 0.194165 0.122823
0.359865 0.189323 0.124622
0.408364 0.195377 0.128007
0.458345 0.201594 0.131880
0.512768 0.208300 0.137219
0.561109 0.215208 0.141519
0.596068 0.222565 0.143537
0.625997 0.229457 0.145043
0.647546 0.235577 0.145694
0.668182 0.241098 0.145775
0.687647 0.245850 0.145124
0.707438 0.254313 0.147826
0.727553 0.266487 0.153880
0.746937 0.275658 0.158799
0.765751 0.282493 0.162835
0.786274 0.290997 0.169842
0.807822 0.300502 0.178630
0.827938 0.308529 0.187822
0.847403 0.315886 0.197196
0.865891 0.327392 0.209158
0.884054 0.340282 0.221983
0.894600 0.361740 0.239198
0.903389 0.385176 0.257426
0.901582 0.415163 0.272692
0.898262 0.446086 0.287534
0.894820 0.475238 0.294687
0.891369 0.504273 0.301328
0.027370 0.248479 0.140636
0.060051 0.247242 0.131392
0.094773 0.245398 0.122726
0.160134 0.234462 0.122726
0.226357 0.224282 0.123377
0.298618 0.219399 0.128585
0.366643 0.216714 0.133427
0.416314 0.223549 0.136682
0.466197 0.230287 0.140034
0.516715 0.236732 0.143680
0.562167 0.243421 0.146817
0.596475 0.250647 0.148835
0.625949 0.258484 0.150389
0.647367 0.267337 0.151170
0.667702 0.274795 0.151610
0.686646 0.280459 0.151610
0.705200 0.290549 0.154442
0.723363 0.305067 0.160105
0.741745 0.316874 0.165073
0.760299 0.326574 0.169500
0.780887 0.337535 0.177223
0.802695 0.349253 0.186922
0.822266 0.357615 0.196309
0.840819 0.364450 0.205553
0.858494 0.378561 0.218459
0.875876 0.395096 0.232586
0.887968 0.414911 0.251632
0.898840 0.435482 0.271813
0.899458 0.464541 0.288462
0.898612 0.494813 0.304607
0.893615 0.525878 0.310498
0.888342 0.556996 0.315706
0.027370 0.264623 0.150727
0.061092 0.265470 0.138358
0.096922 0.265775 0.126762
0.164365 0.257963 0.126762
0.232281 0.250908 0.127803
0.303500 0.249150 0.136136
0.370289 0.249394 0.143126
0.417877 0.258313 0.144298
0.464895 0.266873 0.145828
0.510205 0.274360 0.148432
0.552076 0.282741 0.150853
0.586384 0.293092 0.152871
0.615077 0.303663 0.155207
0.634412 0.314600 0.158071
0.654487 0.322774 0.159682
0.675514 0.327396 0.159682
0.695109 0.337487 0.161993
0.713272 0.353045 0.166615
0.732241 0.364723 0.171713
0.751836 0.373381 0.177182
0.772163 0.383301 0.184644
0.792930 0.393977 0.193302
0.812891 0.403445 0.204512
0.832487 0.412364 0.216881
0.848859 0.427776 0.230568
0.864158 0.445353 0.244695
0.877552 0.466210 0.263740
0.890507 0.487823 0.283921
0.894120 0.517012 0.300571
0.896398 0.547283 0.316716
0.893550 0.575419 0.325537
0.890360 0.603412 0.333869
0.029136 0.285183 0.159934
0.064811 0.286289 0.146263
0.102488 0.287034 0.133447
0.170192 0.282347 0.133447
0.237920 0.278359 0.134537
0.305819 0.279271 0.143261
0.370203 0.281818 0.150690
0.419354 0.291453 0.152513
0.466812 0.301039 0.154385
0.509192 0.310478 0.156403
0.549049 0.321037 0.158563
0.583357 0.334057 0.161037
0.611439 0.346906 0.163926
0.629147 0.359470 0.167506
0.647822 0.368901 0.169520
0.667743 0.374305 0.169520
0.687240 0.385079 0.171766
0.706315 0.401223 0.176258
0.725499 0.412315 0.181116
0.744768 0.419476 0.186259
0.765177 0.429607 0.193803
0.786270 0.441520 0.202786
0.806422 0.452807 0.215619
0.826147 0.463809 0.230202
0.841674 0.481549 0.245126
0.855800 0.501534 0.260164
0.869557 0.522948 0.279751
0.883228 0.544692 0.300388
0.888070 0.571903 0.316695
0.891650 0.599896 0.332384
0.891691 0.621969 0.340689
0.891496 0.643648 0.348501
0.033173 0.311418 0.168007
0.071972 0.310442 0.155377
0.112448 0.309428 0.143537
0.178069 0.307866 0.143537
0.243193 0.306873 0.144237
0.304843 0.309868 0.149836
0.365321 0.313912 0.155508
0.420721 0.322505 0.161497
0.472866 0.332091 0.166493
0.515246 0.344656 0.168511
0.555104 0.358013 0.170997
0.589411 0.373117 0.174513
0.617103 0.387658 0.177662
0.633769 0.401264 0.180201
0.649580 0.412649 0.181629
0.664293 0.421177 0.181629
0.682228 0.433513 0.184396
0.703385 0.449658 0.189929
0.722309 0.459577 0.194071
0.739495 0.464655 0.197131
0.760425 0.476609 0.205195
0.783600 0.492689 0.216262
0.803688 0.506710 0.230462
0.822372 0.519795 0.246086
0.837638 0.541180 0.262833
0.851764 0.565332 0.279954
0.864674 0.586681 0.300778
0.877304 0.607383 0.322457
0.881104 0.629908 0.337983
0.883643 0.652693 0.352630
0.887525 0.664675 0.355987
0.891496 0.675937 0.358591
0.039227 0.339671 0.177088
0.090005 0.337133 0.164980
0.141743 0.334752 0.153660
0.207885 0.334752 0.154181
0.273335 0.335452 0.155467
0.333943 0.341051 0.162107
0.392988 0.347211 0.168723
0.445264 0.355804 0.175233
0.495195 0.365911 0.181011
0.538096 0.380558 0.184591
0.576684 0.395674 0.187988
0.605784 0.411818 0.190983
0.630026 0.427402 0.193611
0.646170 0.442049 0.195630
0.660321 0.454247 0.196309
0.671909 0.463296 0.195267
0.688803 0.475893 0.198295
0.711002 0.492038 0.205390
0.729209 0.501958 0.209923
0.744313 0.507035 0.212462
0.763810 0.519966 0.221633
0.785944 0.537608 0.234783
0.804990 0.554623 0.249992
0.822632 0.571354 0.266137
0.836856 0.593651 0.283014
0.849941 0.617803 0.300135
0.861387 0.637882 0.319690
0.872454 0.657022 0.339806
0.876514 0.675705 0.354681
0.879574 0.694324 0.368808
0.886418 0.703605 0.370179
0.893514 0.712263 0.370700
0.047299 0.369943 0.187179
0.118909 0.366362 0.175070
0.190373 0.363006 0.163816
0.259639 0.363006 0.165378
0.328344 0.364096 0.168227
0.393119 0.372820 0.180075
0.453206 0.381714 0.190336
0.492982 0.391349 0.193721
0.533800 0.402497 0.197937
0.577742 0.418186 0.204642
0.613791 0.434018 0.209537
0.632475 0.450162 0.210448
0.650207 0.466136 0.211774
0.666351 0.481825 0.213792
0.680047 0.493698 0.213561
0.690593 0.500664 0.210436
0.706966 0.512219 0.213463
0.729165 0.528364 0.222642
0.746201 0.539455 0.228672
0.759221 0.546616 0.232252
0.775333 0.559677 0.243116
0.793300 0.576277 0.258349
0.810328 0.596548 0.274209
0.826929 0.618487 0.290354
0.839330 0.638961 0.305669
0.850332 0.658946 0.320707
0.859694 0.676552 0.336486
0.868678 0.693608 0.352435
0.874301 0.709297 0.366790
0.879444 0.724791 0.380916
0.888371 0.738759 0.383264
0.897550 0.752625 0.384826
0.054236 0.402485 0.198404
0.140819 0.399620 0.188054
0.226882 0.396862 0.178439
0.305132 0.395690 0.179871
0.381486 0.395779 0.182671
0.444568 0.404698 0.195040
0.502804 0.414386 0.206237
0.540041 0.427406 0.212356
0.577604 0.441061 0.218964
0.616143 0.456619 0.227036
0.647419 0.472545 0.232769
0.662718 0.489275 0.233355
0.677235 0.504248 0.233599
0.690451 0.516292 0.233274
0.702299 0.527253 0.232606
0.712389 0.536823 0.231500
0.726776 0.549973 0.235699
0.745460 0.566704 0.245203
0.761104 0.580212 0.252291
0.774385 0.591214 0.257499
0.788357 0.604698 0.268078
0.802744 0.619671 0.281879
0.816728 0.638582 0.296486
0.830529 0.659284 0.311459
0.841987 0.677642 0.325797
0.852663 0.695219 0.339924
0.862176 0.712108 0.354050
0.871420 0.728839 0.368177
0.876848 0.743291 0.380253
0.881731 0.757418 0.392036
0.889298 0.771240 0.395763
0.897045 0.785041 0.398953
0.060291 0.436792 0.210513
0.157290 0.436011 0.203287
0.253963 0.435075 0.196537
0.345754 0.431820 0.196927
0.433175 0.429827 0.198425
0.490008 0.436662 0.207669
0.544142 0.445634 0.217694
0.586588 0.463862 0.231105
0.625452 0.481162 0.243181
0.653575 0.495679 0.251253
0.678342 0.511214 0.257312
0.695724 0.528986 0.258939
0.709590 0.541876 0.258272
0.717597 0.546628 0.253780
0.726516 0.556222 0.253048
0.736606 0.572042 0.257149
0.747869 0.588838 0.263431
0.760303 0.606610 0.271894
0.774385 0.623503 0.279698
0.789748 0.639713 0.286989
0.802549 0.653848 0.295745
0.813811 0.666738 0.305380
0.823954 0.680702 0.317253
0.833589 0.695154 0.330142
0.844786 0.711169 0.343960
0.856504 0.727704 0.358087
0.867905 0.745244 0.372213
0.879232 0.763017 0.386340
0.883098 0.777599 0.394770
0.885897 0.791726 0.402387
0.889429 0.801641 0.407807
0.893009 0.811276 0.413080
0.073913 0.477407 0.223883
0.176771 0.474803 0.217178
0.279580 0.472313 0.211054
0.381657 0.471531 0.213658
0.477622 0.471442 0.216864
0.530809 0.476194 0.224286
0.581005 0.483473 0.232855
0.618242 0.501701 0.246395
0.652387 0.518741 0.258569
0.677256 0.532217 0.266641
0.700028 0.547564 0.273636
0.718191 0.567029 0.278258
0.732790 0.581416 0.280585
0.741448 0.587340 0.279088
0.751018 0.598904 0.281464
0.761759 0.617718 0.288820
0.771524 0.635555 0.296209
0.780313 0.652416 0.303630
0.791775 0.668178 0.311418
0.805315 0.683086 0.319490
0.815886 0.695838 0.327156
0.824675 0.707295 0.334577
0.832971 0.720991 0.344326
0.841043 0.735703 0.355133
0.851654 0.749537 0.365988
0.863112 0.763078 0.376860
0.872454 0.777200 0.387731
0.881307 0.791457 0.398603
0.884750 0.805031 0.405829
0.887419 0.818506 0.412535
0.889478 0.826916 0.418630
0.891496 0.834989 0.424684
0.092076 0.521805 0.238010
0.198059 0.515035 0.230263
0.304318 0.508964 0.223423
0.414728 0.513391 0.230194
0.517724 0.517598 0.236915
0.568827 0.520267 0.243295
0.615183 0.525267 0.250236
0.640962 0.540371 0.259611
0.666774 0.554807 0.268660
0.692684 0.567241 0.276732
0.716173 0.582523 0.285028
0.734336 0.604071 0.293817
0.750497 0.622104 0.301482
0.763322 0.634277 0.307276
0.775691 0.649812 0.314665
0.787474 0.669667 0.324104
0.796718 0.686984 0.332014
0.803423 0.701762 0.338394
0.811630 0.713683 0.345726
0.821005 0.723383 0.353798
0.828711 0.733530 0.360813
0.835416 0.743946 0.367192
0.843061 0.760181 0.375183
0.851134 0.779060 0.383907
0.860964 0.790810 0.390335
0.871380 0.800185 0.395999
0.876295 0.808448 0.401663
0.879940 0.816456 0.407327
0.883643 0.828336 0.414813
0.887354 0.840770 0.422560
0.889478 0.849116 0.428720
0.891496 0.857188 0.434774
0.110239 0.562041 0.253524
0.228656 0.556117 0.248316
0.346332 0.550852 0.243848
0.452901 0.555474 0.250489
0.552813 0.559860 0.257145
0.606130 0.562594 0.263915
0.653209 0.567733 0.271064
0.673260 0.583292 0.279853
0.693425 0.597809 0.288462
0.713931 0.609202 0.296535
0.732810 0.623300 0.305014
0.748109 0.643351 0.314388
0.762699 0.660911 0.323006
0.776110 0.674322 0.330362
0.788324 0.690068 0.338601
0.799001 0.708817 0.347976
0.808082 0.724897 0.355690
0.815569 0.738307 0.361744
0.823788 0.749923 0.368934
0.832576 0.760144 0.377006
0.839208 0.769836 0.383817
0.844546 0.779210 0.389872
0.850287 0.793553 0.396821
0.856211 0.810153 0.404177
0.864723 0.819821 0.409044
0.874098 0.827177 0.413080
0.878077 0.835221 0.417116
0.880811 0.843423 0.421152
0.885311 0.853164 0.428093
0.890063 0.863124 0.435450
0.892252 0.871315 0.441585
0.894270 0.879387 0.447640
0.128402 0.600385 0.269669
0.263484 0.597585 0.268627
0.396199 0.595120 0.267935
0.493393 0.597659 0.272492
0.585623 0.600352 0.277456
0.643107 0.604128 0.285268
0.692985 0.610504 0.293459
0.709911 0.628146 0.303289
0.725649 0.643965 0.312679
0.737823 0.654316 0.320752
0.749671 0.666722 0.328906
0.760803 0.683648 0.337238
0.772399 0.698865 0.344814
0.784768 0.711234 0.351129
0.795485 0.725482 0.358327
0.804079 0.742148 0.366659
0.813160 0.756665 0.373853
0.822730 0.769034 0.379907
0.832446 0.781953 0.387097
0.842276 0.795298 0.395169
0.848648 0.805511 0.401980
0.852944 0.813844 0.408035
0.856211 0.824280 0.414268
0.859011 0.835672 0.420583
0.865960 0.843257 0.425188
0.874293 0.849571 0.429225
0.878923 0.859959 0.433261
0.882699 0.871286 0.437297
0.888241 0.878683 0.443327
0.894035 0.885519 0.449642
0.896289 0.893514 0.455712
0.898307 0.901586 0.461766
0.154132 0.631161 0.282786
0.295725 0.633049 0.285130
0.434250 0.634993 0.287628
0.526757 0.637793 0.292445
0.614039 0.640747 0.297670
0.664752 0.644783 0.305742
0.708837 0.651321 0.314193
0.724201 0.668703 0.324283
0.738441 0.684067 0.333479
0.749313 0.693376 0.339989
0.759941 0.705065 0.346987
0.770031 0.721991 0.355059
0.780293 0.735939 0.362082
0.790839 0.744923 0.367355
0.800303 0.756698 0.373511
0.808375 0.772062 0.380802
0.817457 0.785016 0.387475
0.827547 0.795563 0.393529
0.836319 0.806805 0.400280
0.844066 0.818588 0.407571
0.850470 0.828540 0.414089
0.856069 0.837393 0.420143
0.860817 0.847097 0.426197
0.865179 0.857188 0.432252
0.871152 0.864837 0.436792
0.877662 0.871673 0.440829
0.882797 0.881523 0.445500
0.887614 0.892069 0.450317
0.893514 0.898002 0.456217
0.899568 0.903275 0.462271
0.902571 0.909707 0.468325
0.905370 0.916217 0.474380
0.182386 0.659414 0.294895
0.327103 0.666510 0.300363
0.468362 0.673402 0.305856
0.557744 0.677243 0.311715
0.640991 0.681109 0.317851
0.681288 0.685145 0.325923
0.716714 0.691488 0.334374
0.731036 0.707828 0.344464
0.744756 0.722150 0.353139
0.756669 0.730418 0.357566
0.768013 0.741717 0.363132
0.778104 0.759684 0.371204
0.787584 0.772721 0.377836
0.796047 0.777538 0.382068
0.804339 0.786514 0.387182
0.812411 0.800836 0.393432
0.821493 0.812228 0.399584
0.831583 0.820691 0.405638
0.838598 0.829264 0.411802
0.843220 0.837922 0.418052
0.849754 0.847354 0.424179
0.857436 0.857249 0.430234
0.864984 0.867278 0.436288
0.872470 0.877369 0.442342
0.877662 0.885799 0.446883
0.882089 0.893676 0.450919
0.887679 0.902030 0.456436
0.893538 0.910493 0.462295
0.899568 0.915253 0.468325
0.905622 0.919485 0.474380
0.909602 0.923899 0.480434
0.913442 0.928326 0.486488
0.243433 0.694226 0.310283
0.371810 0.700606 0.315491
0.497238 0.706839 0.320699
0.578418 0.710876 0.325907
0.654031 0.714912 0.331367
0.690682 0.718948 0.338593
0.722952 0.725255 0.346356
0.736232 0.741399 0.356447
0.748796 0.755315 0.365024
0.759212 0.762541 0.369060
0.770056 0.772391 0.374093
0.781839 0.788015 0.381319
0.792230 0.799928 0.387666
0.800303 0.805657 0.392549
0.808375 0.813949 0.397944
0.816448 0.825537 0.403998
0.825106 0.834521 0.409206
0.834350 0.840901 0.413568
0.841617 0.849185 0.419358
0.847346 0.858950 0.426258
0.854010 0.868918 0.432630
0.861236 0.879009 0.438684
0.868462 0.887354 0.444157
0.875689 0.894905 0.449365
0.882426 0.902213 0.454329
0.889001 0.909439 0.459211
0.895841 0.915977 0.464358
0.902742 0.922357 0.469566
0.908161 0.926686 0.474774
0.913369 0.930722 0.479982
0.917479 0.933965 0.485984
0.921515 0.937155 0.492038
0.312049 0.730552 0.326428
0.419594 0.734849 0.330594
0.524905 0.739129 0.334760
0.596711 0.743165 0.338927
0.663861 0.747201 0.343346
0.698429 0.751238 0.349530
0.728811 0.757544 0.356447
0.741050 0.773689 0.366537
0.752312 0.787344 0.375114
0.760645 0.793528 0.379151
0.770707 0.801686 0.383858
0.784573 0.814185 0.390043
0.796267 0.824927 0.396129
0.804339 0.832739 0.402053
0.812411 0.840836 0.408035
0.820484 0.849299 0.414089
0.828621 0.855678 0.418255
0.836824 0.859975 0.420534
0.844807 0.868519 0.425998
0.852619 0.880368 0.433940
0.859414 0.891117 0.440703
0.865598 0.901208 0.446757
