其他预设/【236】赛博朋克风调色预设/【后期菌】视频调色预设/CUBE/Sunset 04.cube
# LUT by SparkleStock. Enhanced with VOXCOLOR algorithms.
LUT_3D_SIZE 5
DOMAIN_MIN 0.000000 0.000000 0.000000
DOMAIN_MAX 0.903226 0.903226 0.903226
0.007820 0.019550 0.039101
0.063696 0.054110 0.085391
0.285561 0.106581 0.118185
0.845079 0.238010 0.165610
0.959354 0.269416 0.202945
0.027370 0.096490 0.095607
0.320882 0.146125 0.127120
0.824211 0.252568 0.162331
0.957841 0.301580 0.190955
0.974523 0.359893 0.189408
0.034812 0.202188 0.151231
0.565845 0.309904 0.128764
0.865114 0.430726 0.156907
0.924745 0.548337 0.163006
0.956014 0.706278 0.212092
0.158295 0.442973 0.204711
0.840754 0.669342 0.229591
0.909012 0.773958 0.258805
0.927317 0.834155 0.289369
0.933119 0.869675 0.307317
0.605430 0.715038 0.286822
0.868088 0.826318 0.293613
0.894144 0.864735 0.312932
0.911896 0.885946 0.332482
0.922398 0.908523 0.351227
0.029767 0.061930 0.097121
0.100897 0.087832 0.147663
0.447497 0.154438 0.184225
0.896053 0.260477 0.239137
0.975625 0.280011 0.270983
0.057048 0.134619 0.160817
0.474621 0.185294 0.205185
0.899688 0.279509 0.245887
0.972034 0.317367 0.263342
0.981106 0.374902 0.268378
0.062557 0.271308 0.235109
0.355283 0.352911 0.246218
0.922613 0.429920 0.195588
0.949241 0.551255 0.185899
0.958781 0.723676 0.220523
0.265002 0.509468 0.279499
0.657642 0.668871 0.291224
0.906951 0.792552 0.264947
0.919292 0.840209 0.291601
0.921254 0.873028 0.311057
0.663524 0.744069 0.323327
0.830970 0.828341 0.298423
0.892488 0.870501 0.317867
0.911485 0.894417 0.338349
0.920347 0.906359 0.380674
0.057390 0.116041 0.196512
0.167539 0.113103 0.240947
0.673931 0.218712 0.300538
0.931024 0.293068 0.359413
0.974909 0.308537 0.384110
0.109356 0.205504 0.299615
0.278567 0.225479 0.345303
0.926865 0.307984 0.344445
0.975415 0.345020 0.353611
0.981712 0.419256 0.335688
0.152293 0.349237 0.367095
0.370046 0.433526 0.376002
0.902181 0.491811 0.314187
0.964351 0.586181 0.285969
0.970209 0.727707 0.294377
0.409609 0.592756 0.385331
0.677412 0.701289 0.379018
0.829389 0.792742 0.341858
0.915087 0.845697 0.292898
0.910420 0.870405 0.311386
0.713191 0.771923 0.366578
0.824035 0.834654 0.352202
0.880794 0.877349 0.332059
0.910354 0.898964 0.341442
0.917805 0.903332 0.461291
0.118059 0.194999 0.388106
0.215046 0.219940 0.436398
0.797528 0.267272 0.465567
0.961804 0.324336 0.530663
0.991835 0.353546 0.533979
0.167519 0.296425 0.500302
0.278184 0.331832 0.520198
0.929260 0.345022 0.483658
0.978400 0.391445 0.466384
0.981846 0.487297 0.414545
0.241586 0.448177 0.508813
0.456296 0.520224 0.501191
0.780398 0.621752 0.475728
0.967897 0.653888 0.369536
0.972614 0.760945 0.351760
0.508659 0.652400 0.495972
0.741364 0.739866 0.459957
0.842842 0.813114 0.406822
0.901787 0.852351 0.343313
0.917571 0.880438 0.335901
0.754362 0.800526 0.408226
0.838590 0.847492 0.376653
0.882751 0.886746 0.367287
0.910037 0.903137 0.376869
0.929984 0.908239 0.582125
0.165610 0.290354 0.607700
0.227659 0.310787 0.633106
0.832613 0.271182 0.618527
0.968973 0.324727 0.643904
0.992189 0.367966 0.645580
0.211502 0.375651 0.645300
0.331371 0.418397 0.647602
0.800284 0.382910 0.611980
0.979616 0.441376 0.580016
0.976993 0.546636 0.498862
0.322644 0.552666 0.630152
0.551107 0.602468 0.608600
0.791636 0.682358 0.584046
0.959536 0.713436 0.453628
0.972087 0.800111 0.397878
0.590648 0.698645 0.581184
0.774285 0.769390 0.530235
0.850437 0.825513 0.443272
0.889050 0.865819 0.396143
0.923155 0.890544 0.363334
0.786347 0.815862 0.451554
0.852398 0.861423 0.403840
0.893180 0.892723 0.379950
0.917401 0.907972 0.484115
0.948826 0.917218 0.722382
