其他预设/【236】赛博朋克风调色预设/【后期菌】视频调色预设/CUBE/Tokyo 06.cube
# LUT by SparkleStock. Enhanced with VOXCOLOR algorithms.
LUT_3D_SIZE 5
DOMAIN_MIN 0.000000 0.000000 0.000000
DOMAIN_MAX 0.903226 0.903226 0.903226
0.097752 0.039101 0.066471
0.107338 0.043011 0.070381
0.468451 0.063066 0.053858
0.763346 0.178097 0.016902
0.842052 0.247343 0.011730
0.098382 0.045407 0.072778
0.122160 0.046921 0.071309
0.495659 0.072599 0.061137
0.772184 0.187675 0.016515
0.850755 0.261071 0.014127
0.120960 0.167502 0.156529
0.125578 0.171933 0.161102
0.708015 0.216486 0.033889
0.868983 0.312362 0.009964
0.913695 0.351255 0.009964
0.388610 0.483209 0.394917
0.454601 0.479803 0.352183
0.912291 0.480369 0.015608
0.969721 0.529499 0.018289
0.979218 0.556837 0.025161
0.756787 0.680226 0.427333
0.811248 0.686764 0.392321
0.986220 0.652457 0.048394
0.998896 0.692302 0.048056
1.000000 0.724412 0.057133
0.095986 0.045407 0.075174
0.107041 0.048390 0.077030
0.463695 0.063607 0.057878
0.758199 0.171294 0.018558
0.839656 0.248804 0.014127
0.089093 0.049317 0.079967
0.115559 0.051741 0.080730
0.488571 0.076739 0.069728
0.766368 0.183398 0.022744
0.846988 0.259623 0.017451
0.119336 0.186853 0.172763
0.128391 0.191789 0.179810
0.708220 0.219578 0.041717
0.868200 0.325620 0.014363
0.917083 0.359989 0.013158
0.389249 0.499874 0.419260
0.417463 0.507927 0.420154
0.919414 0.491397 0.017793
0.971242 0.532870 0.020299
0.979686 0.560917 0.024189
0.756104 0.679595 0.428089
0.780273 0.686935 0.422149
0.984560 0.650820 0.047084
0.998896 0.693559 0.048964
0.994354 0.719970 0.053907
0.056885 0.096112 0.154385
0.056885 0.096653 0.154926
0.228973 0.101780 0.170615
0.637073 0.124386 0.169870
0.753504 0.192790 0.140994
0.056885 0.103070 0.161973
0.063955 0.109885 0.168821
0.260399 0.118548 0.186818
0.651389 0.131411 0.174486
0.763127 0.207536 0.157281
0.013488 0.391890 0.484104
0.011421 0.409495 0.512447
0.262526 0.339035 0.443096
0.772854 0.331805 0.292882
0.864685 0.441714 0.312186
0.242681 0.618596 0.650239
0.240964 0.616385 0.649604
0.562217 0.683900 0.628291
0.978343 0.576538 0.032452
0.986710 0.605526 0.032981
0.548585 0.749618 0.716088
0.559234 0.755172 0.721804
0.894895 0.791966 0.578961
0.990860 0.747867 0.184027
0.987396 0.784368 0.368670
0.003153 0.238893 0.426197
0.002767 0.242904 0.440788
0.033518 0.236940 0.451664
0.235987 0.294146 0.536900
0.561943 0.282127 0.502792
0.002767 0.245997 0.443416
0.002231 0.252832 0.456248
0.033418 0.258359 0.485960
0.253922 0.309116 0.549354
0.568067 0.296820 0.517612
0.015372 0.465363 0.672487
0.016987 0.469232 0.672703
0.095336 0.539032 0.726862
0.544823 0.563598 0.704469
0.730735 0.567029 0.679473
0.206904 0.695614 0.775378
0.217815 0.697887 0.782497
0.442867 0.769953 0.824338
0.832123 0.816709 0.781077
0.954873 0.774267 0.655863
0.509322 0.781448 0.786620
0.509917 0.780659 0.785167
0.699163 0.850350 0.826641
0.929394 0.867655 0.748246
0.985065 0.857745 0.677165
0.000000 0.302841 0.589664
0.000000 0.299814 0.587572
0.012613 0.317285 0.620041
0.181950 0.345412 0.628955
0.411985 0.434058 0.679424
0.001314 0.313595 0.600271
0.001888 0.318688 0.608469
0.013586 0.329488 0.630881
0.198104 0.356839 0.635501
0.428410 0.448870 0.687047
0.033087 0.503789 0.746990
0.035777 0.507951 0.747824
0.189315 0.587055 0.796506
0.551073 0.628900 0.788296
0.653407 0.701848 0.822621
0.321797 0.725320 0.841580
0.334699 0.729187 0.844014
0.529064 0.807674 0.883955
0.684819 0.873083 0.917443
0.851129 0.851086 0.871388
0.473338 0.810186 0.855719
0.485017 0.814829 0.860235
0.664314 0.873134 0.887532
0.837573 0.908100 0.897379
0.945171 0.890969 0.826767
