其他预设/【236】赛博朋克风调色预设/【后期菌】视频调色预设/CUBE/Tokyo 08.cube
# LUT by SparkleStock. Enhanced with VOXCOLOR algorithms.
LUT_3D_SIZE 8
DOMAIN_MIN 0.000000 0.000000 0.000000
DOMAIN_MAX 0.903226 0.903226 0.903226
0.097752 0.070381 0.097752
0.101662 0.074291 0.097752
0.114527 0.080724 0.103175
0.236118 0.140258 0.157538
0.533661 0.314319 0.307382
0.733075 0.417999 0.384196
0.823889 0.458109 0.408161
0.877243 0.478794 0.412701
0.105572 0.078201 0.101662
0.105588 0.078454 0.101662
0.114967 0.080944 0.103712
0.241541 0.148583 0.165911
0.538527 0.319055 0.313062
0.733246 0.419602 0.384538
0.825907 0.462369 0.408511
0.878895 0.482704 0.414606
0.099644 0.080219 0.107590
0.106959 0.084130 0.111785
0.131653 0.097764 0.119137
0.276411 0.176921 0.195784
0.562033 0.337906 0.326424
0.759526 0.436451 0.399441
0.840388 0.471662 0.417494
0.891243 0.489995 0.423020
0.057137 0.127140 0.157664
0.061096 0.131148 0.162380
0.079239 0.146495 0.177849
0.446452 0.305575 0.303582
0.689604 0.423077 0.388895
0.818742 0.483233 0.424843
0.867238 0.494646 0.419053
0.910468 0.510217 0.420827
0.069624 0.274462 0.294895
0.072591 0.282668 0.303102
0.093561 0.282554 0.288832
0.418943 0.356776 0.277131
0.743401 0.429595 0.258671
0.845836 0.467748 0.263395
0.906330 0.485821 0.246147
0.942599 0.502857 0.241134
0.196891 0.455460 0.447892
0.201017 0.458072 0.450081
0.276565 0.476992 0.446415
0.677854 0.507939 0.347483
0.839005 0.538759 0.320101
0.927484 0.562586 0.297979
0.961279 0.572701 0.278941
0.975816 0.582165 0.268603
0.419765 0.586636 0.536058
0.429196 0.591177 0.539085
0.501119 0.608652 0.534418
0.777729 0.600006 0.410012
0.902030 0.623064 0.372453
0.962617 0.645776 0.359238
0.989292 0.655459 0.337727
0.995806 0.665289 0.326859
0.594835 0.674928 0.572636
0.592036 0.673276 0.569080
0.656281 0.677500 0.550258
0.844847 0.673614 0.459280
0.932187 0.694178 0.429400
0.976004 0.710371 0.406651
0.993528 0.723940 0.394811
0.998305 0.745936 0.423581
0.101914 0.074544 0.097752
0.105336 0.078218 0.101662
0.113958 0.080659 0.100242
0.243336 0.147525 0.168511
0.538198 0.316903 0.310031
0.729869 0.415216 0.380322
0.828585 0.462959 0.411342
0.875477 0.480824 0.414492
0.102134 0.071358 0.098240
0.105366 0.078247 0.101692
0.118374 0.084349 0.106915
0.249254 0.153536 0.171065
0.545087 0.324288 0.317525
0.735511 0.424104 0.390390
0.824764 0.458990 0.408652
0.875527 0.478964 0.412508
0.103334 0.084130 0.108632
0.103379 0.083910 0.108410
0.133732 0.098806 0.117843
0.285008 0.181946 0.200872
0.578739 0.349258 0.337906
0.754697 0.434480 0.397698
0.840274 0.475263 0.421103
0.886753 0.487662 0.421164
0.063794 0.133943 0.165476
0.061536 0.134304 0.165598
0.084876 0.152440 0.183419
0.445564 0.309310 0.310208
0.702560 0.434400 0.396138
0.814563 0.479600 0.421415
0.871490 0.497965 0.420365
0.912479 0.509597 0.420847
0.076623 0.287262 0.306686
0.077379 0.288140 0.308513
0.099612 0.288964 0.295966
0.423237 0.362056 0.279896
0.748225 0.437028 0.268166
0.848050 0.471934 0.267907
0.909541 0.490850 0.251830
0.941334 0.500713 0.236899
0.210334 0.466804 0.457938
0.201060 0.458061 0.450250
0.282299 0.481177 0.449672
0.667423 0.502164 0.337754
0.840503 0.539470 0.322562
0.926086 0.562927 0.300029
0.959526 0.571694 0.277243
0.975800 0.584512 0.271454
0.419301 0.586327 0.538145
0.424534 0.588023 0.539605
0.483810 0.594273 0.523443
0.779320 0.601564 0.412754
0.899914 0.620191 0.370818
0.960839 0.644840 0.358473
0.989040 0.654697 0.336518
0.990806 0.657796 0.320471
0.591165 0.671258 0.566960
0.592027 0.671747 0.567559
0.651921 0.675097 0.548586
0.839514 0.667246 0.457963
0.932278 0.696357 0.432468
0.974535 0.707674 0.405345
0.992190 0.722573 0.395451
0.999758 0.743400 0.420604
0.096238 0.075805 0.104184
0.102577 0.082331 0.107557
0.116619 0.087535 0.110552
0.234771 0.150418 0.175042
0.527001 0.320512 0.318608
0.727309 0.425388 0.399152
0.824325 0.466433 0.420591
0.875404 0.485129 0.426730
0.102358 0.081672 0.110336
0.096460 0.075567 0.104406
0.117034 0.087544 0.113519
0.244659 0.160050 0.184668
0.535951 0.328999 0.329678
0.725001 0.425146 0.399174
0.823845 0.469366 0.422785
0.870568 0.483472 0.425073
0.094659 0.085448 0.112375
0.094566 0.088288 0.118592
0.128917 0.100156 0.128541
0.275234 0.187429 0.212817
0.571880 0.356207 0.350248
0.747738 0.441429 0.410688
0.829333 0.472357 0.425266
0.880639 0.490126 0.430081
0.058256 0.138744 0.173671
0.055911 0.138465 0.175264
0.078463 0.154176 0.190687
0.432171 0.312191 0.320768
0.697224 0.440913 0.410101
0.808157 0.483456 0.432875
0.868613 0.502789 0.435637
0.900124 0.509601 0.431612
0.072017 0.293243 0.317456
0.077453 0.296398 0.320838
0.090554 0.309955 0.328128
0.390359 0.381843 0.326283
0.753721 0.451365 0.289544
0.850328 0.482809 0.288717
0.905996 0.495085 0.265612
0.942273 0.506238 0.249739
0.203828 0.468651 0.463516
0.194425 0.458957 0.455709
0.230766 0.479259 0.469226
0.620977 0.522095 0.389988
0.837820 0.542592 0.329018
0.923474 0.563915 0.305976
0.960300 0.575616 0.291286
0.973477 0.584664 0.276496
0.413649 0.586990 0.540598
0.414562 0.586979 0.542191
0.452140 0.604765 0.552149
0.742771 0.618631 0.459495
0.898763 0.622439 0.377548
0.959468 0.646710 0.365101
0.982758 0.654847 0.340874
0.989082 0.661105 0.329479
0.591230 0.678387 0.582022
0.589280 0.680707 0.580867
0.617903 0.684972 0.576465
0.816160 0.684275 0.493215
0.930391 0.701406 0.439983
0.975377 0.716040 0.417280
0.988424 0.723110 0.398344
0.991912 0.743444 0.424599
0.058777 0.099139 0.159934
0.058981 0.099343 0.160341
0.068152 0.103456 0.167405
0.197395 0.173662 0.233408
0.481480 0.337735 0.368006
0.692688 0.442570 0.444588
0.793907 0.481984 0.473745
0.842105 0.489641 0.472866
0.061727 0.103049 0.161399
0.061947 0.102970 0.161759
0.072818 0.108418 0.172140
0.196990 0.180827 0.243097
0.488867 0.345200 0.375419
0.689271 0.439063 0.442559
0.796037 0.483271 0.475097
0.843451 0.491508 0.476030
0.056800 0.107745 0.174020
0.057594 0.111665 0.175590
0.075738 0.124663 0.191660
0.237071 0.215934 0.274109
0.529770 0.375447 0.400221
0.715577 0.452831 0.453619
0.802723 0.485088 0.478412
0.850589 0.497318 0.481728
0.036558 0.187809 0.258947
0.033830 0.182730 0.251511
0.055444 0.201895 0.271605
0.330480 0.325939 0.374608
0.653842 0.455876 0.462329
0.770750 0.494636 0.484685
0.832798 0.515796 0.493571
0.874831 0.523661 0.490925
0.070231 0.328844 0.375330
0.074247 0.332461 0.375786
0.087240 0.353137 0.396745
0.181218 0.414843 0.444497
0.755235 0.518474 0.456146
0.847681 0.538770 0.447323
0.898175 0.550546 0.439608
0.937212 0.547180 0.382800
0.181291 0.492803 0.506181
0.170665 0.483411 0.501163
0.192387 0.496198 0.511476
0.343142 0.549593 0.542268
0.818041 0.581500 0.406544
0.923243 0.582512 0.349463
0.958063 0.593129 0.332086
0.972704 0.603717 0.319811
0.336640 0.590839 0.579992
0.349003 0.599820 0.586891
0.370378 0.608847 0.591601
0.555684 0.667380 0.604063
0.890729 0.654424 0.437669
0.963011 0.670090 0.407648
0.982229 0.678195 0.384838
0.988745 0.688772 0.378605
0.473871 0.686585 0.644531
0.476205 0.690289 0.648243
0.503964 0.698185 0.647264
0.737829 0.733745 0.598704
0.928745 0.723940 0.478304
0.975917 0.742541 0.459767
0.986436 0.753302 0.459187
0.988112 0.767768 0.481560
0.026361 0.163592 0.278119
0.022639 0.156081 0.275275
0.033299 0.164731 0.286200
0.119878 0.204866 0.311894
0.408515 0.362965 0.429697
0.650300 0.476764 0.515413
0.747682 0.508663 0.540725
0.806581 0.520845 0.546575
0.025417 0.160508 0.276231
0.025422 0.160548 0.276443
0.038628 0.176539 0.295122
0.127667 0.217207 0.325270
0.414231 0.366699 0.432421
0.650693 0.472049 0.510846
0.741185 0.496702 0.529674
0.808676 0.523385 0.549542
0.029018 0.183647 0.301954
0.028595 0.182044 0.299627
0.037453 0.195047 0.312459
0.136106 0.240365 0.347714
0.467768 0.401940 0.460721
0.668859 0.481732 0.519535
0.757732 0.507797 0.540562
0.813505 0.525447 0.550758
0.034951 0.268098 0.372649
0.037798 0.272186 0.379108
0.046656 0.282790 0.387740
0.116550 0.335106 0.434573
0.571986 0.467580 0.513130
0.726878 0.522387 0.554164
0.789731 0.541727 0.562826
0.836216 0.554542 0.573481
0.076529 0.400560 0.473969
0.078698 0.401998 0.474275
0.084904 0.414702 0.486416
0.124727 0.455830 0.524683
0.545398 0.535650 0.568963
0.792506 0.574587 0.568613
0.849767 0.589012 0.568610
0.886060 0.597924 0.564217
0.144729 0.523005 0.565027
0.142506 0.523906 0.564113
0.150506 0.530439 0.569694
0.230504 0.564486 0.599408
0.471532 0.633389 0.628976
0.907137 0.629042 0.470991
0.957105 0.627096 0.415648
0.974954 0.637639 0.407405
0.289158 0.619256 0.628085
0.287544 0.616638 0.626981
0.307547 0.626779 0.633474
0.435491 0.665220 0.657529
0.680646 0.732329 0.664996
0.951466 0.705435 0.483781
0.980349 0.706858 0.442285
0.985953 0.718038 0.444337
0.437415 0.697070 0.676841
0.435832 0.696213 0.676336
0.450393 0.701807 0.678126
0.552405 0.738998 0.696700
0.838279 0.791065 0.652735
0.970242 0.765769 0.519982
0.982084 0.776866 0.523165
0.986691 0.790392 0.549848
0.020812 0.230316 0.378772
0.018505 0.227756 0.376213
0.028017 0.236854 0.385652
0.097255 0.262410 0.402668
0.340754 0.372128 0.474221
0.547047 0.459639 0.537714
0.665749 0.505200 0.567794
0.747710 0.532587 0.586697
0.018252 0.226495 0.374952
0.023284 0.230153 0.378685
0.026282 0.233827 0.382970
0.096936 0.263534 0.404105
0.338194 0.371462 0.475431
0.541848 0.453238 0.533736
0.660739 0.502852 0.567783
0.746014 0.532115 0.586258
0.026093 0.248100 0.391438
0.023872 0.243119 0.389006
0.030486 0.253854 0.399917
0.106262 0.285387 0.425627
0.371989 0.392858 0.491015
0.570092 0.469577 0.547542
0.674617 0.510736 0.574086
0.757948 0.538924 0.591342
0.048300 0.323156 0.456082
0.046091 0.323465 0.456147
0.051038 0.328748 0.461974
0.103274 0.376847 0.500552
0.439638 0.456107 0.544311
0.631134 0.518218 0.582097
0.719788 0.547235 0.600092
0.787476 0.570658 0.614732
0.085464 0.448669 0.550079
0.085756 0.446791 0.547696
0.090752 0.457213 0.558756
0.112690 0.493130 0.589625
0.283359 0.536264 0.628094
0.701581 0.591072 0.629136
0.808438 0.619480 0.641162
0.850837 0.634085 0.648280
0.105893 0.561691 0.639485
0.104215 0.556480 0.631742
0.107699 0.562625 0.640322
0.153504 0.586711 0.660518
0.335889 0.644332 0.699098
0.674210 0.684651 0.691955
0.889389 0.692361 0.647687
0.936917 0.694209 0.626270
0.182182 0.636930 0.675022
0.183136 0.634125 0.674915
0.192879 0.639591 0.676804
0.348784 0.669079 0.695472
0.538456 0.726923 0.726675
0.797378 0.776567 0.710002
0.971876 0.739922 0.542957
0.984988 0.741129 0.523385
0.361805 0.696554 0.702860
0.369097 0.700370 0.706514
0.380492 0.701931 0.705304
0.493305 0.739627 0.729471
0.672196 0.795972 0.753587
0.898295 0.824607 0.698942
0.970267 0.808436 0.616813
0.985147 0.810999 0.612798
0.025857 0.275218 0.442468
0.025702 0.276268 0.443673
0.027301 0.275080 0.444922
0.082071 0.307467 0.468537
0.338272 0.383415 0.506140
0.499809 0.451770 0.555970
0.584834 0.490362 0.585717
0.663597 0.522688 0.607574
0.021064 0.270425 0.437830
0.022870 0.272323 0.441913
0.029017 0.278489 0.448038
0.082444 0.308480 0.469935
0.335541 0.382368 0.505183
0.497405 0.450557 0.555674
0.582908 0.487828 0.584497
0.666515 0.523527 0.607317
0.028184 0.283360 0.451997
0.026622 0.279341 0.446793
0.037268 0.291565 0.456428
0.084131 0.325271 0.485085
0.366003 0.403053 0.522846
0.524441 0.466653 0.569824
0.603033 0.503294 0.595472
0.674155 0.527456 0.610895
0.054570 0.356317 0.503679
0.054147 0.354501 0.504164
0.058669 0.361170 0.509652
0.097352 0.402013 0.542548
0.379655 0.454396 0.574566
0.583022 0.518434 0.610125
0.643431 0.543034 0.625429
0.711207 0.567066 0.640989
0.083348 0.479046 0.602049
0.081247 0.474192 0.598277
0.086958 0.484508 0.607235
0.110672 0.517776 0.641849
0.258061 0.565334 0.684841
0.621898 0.591666 0.669932
0.742772 0.626690 0.679446
0.797801 0.642112 0.686535
0.093825 0.582913 0.691118
0.092688 0.584653 0.691034
0.099739 0.588209 0.696298
0.142963 0.612657 0.716668
0.306803 0.656801 0.746859
0.528776 0.693588 0.757437
0.825237 0.716931 0.724809
0.900785 0.729454 0.712865
0.133272 0.656098 0.728534
0.127018 0.654153 0.728087
0.135814 0.661426 0.735603
0.240389 0.681387 0.743003
0.438093 0.729181 0.773354
0.666891 0.775200 0.779561
0.914828 0.801825 0.712345
0.979055 0.773726 0.632264
0.253768 0.710550 0.749240
0.244313 0.703641 0.742563
0.280070 0.711174 0.746686
0.420554 0.745015 0.766184
0.610918 0.797681 0.801319
0.783684 0.834617 0.800066
0.940426 0.841474 0.726084
0.972423 0.838299 0.708115
0.029515 0.300318 0.480182
0.030914 0.300066 0.481695
0.032794 0.303748 0.481467
0.074686 0.332193 0.505912
0.345746 0.398371 0.541530
0.520344 0.474502 0.590856
0.588516 0.501917 0.612587
0.651085 0.531220 0.632674
0.029136 0.300294 0.481809
0.027615 0.298337 0.478421
0.034521 0.306961 0.484452
0.077051 0.334554 0.506960
0.345267 0.397926 0.540351
0.517768 0.471275 0.590030
0.590020 0.502339 0.613062
0.647821 0.528993 0.630717
0.033880 0.313310 0.490524
0.034090 0.314519 0.488235
0.042127 0.321244 0.496585
0.082605 0.353367 0.521825
0.373961 0.416276 0.557783
0.535286 0.482099 0.598803
0.605378 0.514560 0.624927
0.659716 0.538677 0.640480
0.054273 0.382882 0.544797
0.054030 0.385675 0.546167
0.061980 0.394860 0.554679
0.091325 0.433422 0.590994
0.348444 0.483198 0.628124
0.588273 0.531898 0.639727
0.647637 0.556225 0.657654
0.696702 0.577239 0.672110
0.073787 0.501469 0.652021
0.073215 0.497784 0.646271
0.079668 0.510087 0.658449
0.107343 0.543958 0.694865
0.245647 0.587116 0.736171
0.604186 0.609523 0.718488
0.708903 0.635128 0.723776
0.764700 0.655277 0.732079
0.082107 0.601137 0.737550
0.080427 0.600792 0.737811
0.087453 0.607509 0.743384
0.134759 0.633448 0.762805
0.300102 0.672446 0.788340
0.494204 0.712524 0.813932
0.727606 0.725349 0.792901
0.839627 0.743786 0.786635
0.098329 0.671848 0.777095
0.096438 0.671018 0.775416
0.104281 0.672850 0.778243
0.206440 0.700681 0.793512
0.414597 0.742497 0.821295
0.586350 0.780113 0.837395
0.806720 0.813425 0.812742
0.925616 0.818187 0.782598
0.170912 0.717312 0.788870
0.163962 0.717658 0.791050
0.188661 0.723770 0.792408
0.323857 0.750109 0.804550
0.556091 0.801407 0.833910
0.731563 0.841635 0.850424
0.880072 0.861176 0.825103
0.944432 0.863830 0.799246
