其他预设/【236】赛博朋克风调色预设/【后期菌】视频调色预设/CUBE/Tokyo 02_S.cube
# LUT by SparkleStock. Enhanced with VOXCOLOR algorithms.
LUT_3D_SIZE 5
DOMAIN_MIN 0.000000 0.000000 0.000000
DOMAIN_MAX 0.903226 0.903226 0.903226
0.082111 0.039101 0.089932
0.086904 0.039101 0.093842
0.361240 0.110113 0.140510
0.712515 0.264119 0.286949
0.764229 0.331599 0.328067
0.083625 0.043011 0.098635
0.102952 0.052210 0.093886
0.409943 0.157033 0.119572
0.717939 0.271931 0.226137
0.777725 0.338496 0.319796
0.019929 0.118816 0.167376
0.033425 0.135681 0.163214
0.589505 0.340534 0.189335
0.750827 0.419244 0.224595
0.806841 0.451993 0.291807
0.066093 0.433261 0.372339
0.111317 0.478627 0.380697
0.776480 0.508496 0.111830
0.845885 0.565422 0.093516
0.870273 0.589598 0.087848
0.659036 0.778734 0.589664
0.708101 0.773848 0.560991
0.858681 0.682854 0.220835
0.893420 0.719705 0.239019
0.906587 0.750017 0.301901
0.081229 0.043011 0.098635
0.090814 0.043011 0.102545
0.379745 0.097788 0.164854
0.711885 0.227305 0.286839
0.765543 0.328625 0.334175
0.079174 0.044480 0.104941
0.125223 0.084653 0.132337
0.433474 0.185199 0.204463
0.715209 0.266650 0.278128
0.797386 0.324434 0.323620
0.020271 0.132796 0.183016
0.066359 0.197621 0.199704
0.565740 0.385062 0.254899
0.741158 0.443074 0.279350
0.832153 0.463320 0.299443
0.069649 0.439844 0.388761
0.093831 0.468862 0.403662
0.741465 0.548541 0.144607
0.820105 0.588244 0.122913
0.880758 0.620346 0.131359
0.662209 0.778934 0.591775
0.688367 0.778938 0.584854
0.855963 0.683683 0.227111
0.890731 0.723378 0.248758
0.904973 0.766334 0.300537
0.048182 0.059534 0.202188
0.047551 0.057137 0.199991
0.262418 0.058956 0.225869
0.643395 0.186784 0.350616
0.744907 0.305718 0.412193
0.044614 0.062671 0.206640
0.079438 0.089643 0.248698
0.351796 0.144037 0.323100
0.671808 0.229101 0.404119
0.776860 0.315938 0.439605
0.000684 0.160651 0.289589
0.037766 0.209394 0.322493
0.349248 0.313996 0.421205
0.745444 0.475124 0.516964
0.869463 0.535714 0.549216
0.029926 0.438953 0.464196
0.033130 0.437721 0.462900
0.320379 0.610766 0.552938
0.816652 0.641183 0.285339
0.894429 0.668800 0.323917
0.290712 0.678016 0.643981
0.323220 0.684558 0.649595
0.840413 0.824573 0.635529
0.876565 0.790263 0.435379
0.911278 0.827621 0.496591
0.049570 0.061930 0.356068
0.051966 0.064681 0.359592
0.193233 0.053024 0.353501
0.423268 0.101890 0.417043
0.623528 0.174537 0.476272
0.046290 0.067850 0.359869
0.047392 0.068561 0.366305
0.226216 0.076974 0.399159
0.471396 0.129783 0.460976
0.635159 0.186798 0.494868
0.019204 0.187875 0.468753
0.022535 0.185110 0.469976
0.122288 0.268734 0.541627
0.613990 0.377081 0.609538
0.817783 0.499768 0.670375
0.032668 0.439262 0.540269
0.036188 0.444609 0.543014
0.109567 0.540783 0.605156
0.808080 0.777810 0.750817
0.915935 0.753960 0.707940
0.121037 0.612685 0.627222
0.131898 0.614611 0.629693
0.619575 0.785462 0.755501
0.892324 0.867899 0.748141
0.925576 0.861166 0.679352
0.085643 0.060795 0.458487
0.085212 0.059282 0.455692
0.225124 0.053081 0.477049
0.447803 0.095485 0.502006
0.575028 0.165020 0.551739
0.082417 0.068921 0.465677
0.087840 0.071630 0.472007
0.227252 0.062981 0.488658
0.455775 0.101917 0.510131
0.582237 0.172903 0.558434
0.052597 0.201432 0.553126
0.051323 0.203559 0.550978
0.156051 0.286111 0.606220
0.603307 0.351496 0.636819
0.749897 0.487595 0.706913
0.073441 0.463536 0.593797
0.076481 0.465540 0.594070
0.296754 0.608520 0.684824
0.764111 0.805197 0.830765
0.908104 0.807854 0.845167
0.119491 0.609047 0.651260
0.133735 0.615380 0.654822
0.571899 0.765100 0.766415
0.879727 0.885388 0.849923
0.937717 0.882351 0.821712
