其他预设/【236】赛博朋克风调色预设/【后期菌】视频调色预设/CUBE/Tokyo 10.cube
# LUT by SparkleStock. Enhanced with VOXCOLOR algorithms.
LUT_3D_SIZE 8
DOMAIN_MIN 0.000000 0.000000 0.000000
DOMAIN_MAX 0.903226 0.903226 0.903226
0.113392 0.062561 0.058651
0.117302 0.062561 0.062561
0.133573 0.063570 0.058651
0.241037 0.088923 0.056255
0.468830 0.174313 0.067480
0.593826 0.239397 0.080598
0.671397 0.289093 0.096869
0.718696 0.328067 0.105572
0.121212 0.066471 0.062561
0.120976 0.066235 0.062797
0.129695 0.064075 0.059375
0.246208 0.096946 0.061125
0.473891 0.183529 0.075113
0.599258 0.243738 0.083588
0.675559 0.296437 0.101129
0.720348 0.331623 0.111008
0.111878 0.064579 0.069498
0.116008 0.067985 0.069498
0.138639 0.070442 0.066646
0.273383 0.111500 0.073002
0.487737 0.192981 0.080984
0.618548 0.263020 0.099806
0.690487 0.314616 0.114641
0.731435 0.346230 0.126005
0.119446 0.109230 0.114653
0.123454 0.110035 0.116370
0.136177 0.117933 0.123739
0.385608 0.171221 0.099652
0.572245 0.256803 0.113461
0.675205 0.327579 0.142797
0.719628 0.360695 0.150304
0.762878 0.392626 0.163031
0.240154 0.228424 0.228298
0.243120 0.236883 0.233855
0.260266 0.229319 0.217304
0.475185 0.248637 0.116305
0.696582 0.324410 0.078580
0.753435 0.379781 0.096564
0.788332 0.419765 0.120378
0.812383 0.448999 0.144441
0.435405 0.412323 0.368555
0.438782 0.416286 0.372177
0.480267 0.420269 0.350413
0.721149 0.399600 0.148867
0.795762 0.457026 0.168837
0.842809 0.512443 0.203140
0.865435 0.538613 0.224294
0.881722 0.561540 0.240789
0.614007 0.541481 0.443099
0.614890 0.540851 0.442118
0.650882 0.545391 0.421669
0.812078 0.509656 0.243433
0.864089 0.564425 0.270828
0.899820 0.609088 0.311243
0.917686 0.641963 0.349925
0.930596 0.662515 0.372486
0.740264 0.607070 0.465298
0.739003 0.603412 0.461628
0.776061 0.601674 0.426653
0.872181 0.600547 0.335672
0.906806 0.651089 0.379325
0.931858 0.695423 0.425192
0.950651 0.726390 0.465750
0.963264 0.752751 0.506665
0.117302 0.062561 0.058903
0.120976 0.066235 0.066235
0.129126 0.063570 0.055937
0.242404 0.092987 0.057166
0.469904 0.176014 0.069433
0.595042 0.238002 0.080634
0.670823 0.293943 0.100205
0.717044 0.328092 0.107362
0.117302 0.062797 0.062813
0.120754 0.066030 0.062813
0.133101 0.067557 0.062372
0.250499 0.097533 0.065324
0.478620 0.186695 0.077872
0.603610 0.247036 0.088484
0.673902 0.292099 0.098066
0.720922 0.328596 0.107859
0.115569 0.067798 0.069531
0.115599 0.065051 0.069783
0.142516 0.074422 0.070219
0.278614 0.113549 0.074454
0.505086 0.205163 0.087935
0.617381 0.264607 0.101188
0.694609 0.323078 0.121586
0.729966 0.344037 0.123818
0.126860 0.113034 0.121660
0.126558 0.113250 0.119530
0.141310 0.124186 0.132456
0.384430 0.178294 0.106803
0.585066 0.270719 0.124419
0.680294 0.332855 0.146169
0.726490 0.366415 0.153967
0.768663 0.400779 0.177622
0.246208 0.241224 0.241098
0.246375 0.240337 0.242985
0.269169 0.238825 0.227029
0.479258 0.252787 0.118442
0.703135 0.331420 0.084807
0.755592 0.381899 0.101435
0.790409 0.422814 0.122430
0.810410 0.446472 0.141122
0.450659 0.425099 0.377556
0.438879 0.416581 0.372339
0.484773 0.427953 0.356028
0.719298 0.396434 0.148529
0.796852 0.459830 0.170617
0.842617 0.515699 0.205345
0.864266 0.538344 0.222746
0.882272 0.563278 0.242620
0.613698 0.543569 0.445186
0.615394 0.541591 0.445042
0.641787 0.538901 0.415581
0.816027 0.513952 0.248137
0.861256 0.560907 0.268403
0.896876 0.606515 0.308950
0.916098 0.639864 0.347278
0.925274 0.658134 0.367093
0.738360 0.603021 0.459622
0.737464 0.603758 0.459879
0.772172 0.598287 0.424812
0.867864 0.596181 0.329615
0.907395 0.651342 0.379578
0.927268 0.690186 0.422402
0.949230 0.724476 0.463751
0.962266 0.750860 0.504983
0.107968 0.064075 0.069498
0.114779 0.066536 0.069246
0.122416 0.067920 0.069173
0.233286 0.096181 0.068937
0.447798 0.176352 0.080350
0.589700 0.244695 0.093085
0.664126 0.298357 0.114023
0.713325 0.334756 0.120183
0.110902 0.066536 0.071960
0.107966 0.063381 0.068632
0.128073 0.070223 0.067855
0.242621 0.104140 0.076773
0.459480 0.188887 0.092454
0.588261 0.245413 0.095403
0.669407 0.303406 0.118108
0.713578 0.335704 0.122654
0.104563 0.069433 0.077119
0.108033 0.072684 0.079931
0.135285 0.079085 0.080216
0.264252 0.114321 0.084223
0.488087 0.204958 0.101447
0.608177 0.267920 0.114366
0.681420 0.321214 0.130594
0.725878 0.349927 0.136157
0.122697 0.120525 0.132845
0.121027 0.117814 0.133047
0.134264 0.129228 0.145517
0.368614 0.180362 0.124644
0.570779 0.274170 0.142068
0.666215 0.333762 0.159574
0.722864 0.374825 0.178098
0.757325 0.400978 0.188563
0.244939 0.248214 0.249602
0.247287 0.249046 0.252984
0.264397 0.259308 0.259431
0.447239 0.267990 0.162187
0.709017 0.340557 0.092362
0.761129 0.388723 0.107236
0.795108 0.427648 0.127283
0.814563 0.452432 0.146694
0.443677 0.424883 0.383712
0.434484 0.417515 0.376184
0.456705 0.431892 0.384327
0.694293 0.428998 0.218700
0.799919 0.463389 0.176345
0.840891 0.513801 0.204783
0.866371 0.542918 0.230159
0.883505 0.566094 0.248487
0.604258 0.543040 0.450667
0.605923 0.543191 0.449264
0.631056 0.558337 0.459327
0.803297 0.542984 0.307401
0.864293 0.563537 0.275190
0.896883 0.607983 0.314380
0.913348 0.638412 0.347893
0.923407 0.660878 0.374649
0.741273 0.612847 0.474656
0.741616 0.613251 0.474897
0.753254 0.614795 0.466664
0.868964 0.610740 0.365581
0.912798 0.661785 0.394277
0.933624 0.701038 0.435633
0.945625 0.725430 0.467365
0.957085 0.747659 0.504348
0.090688 0.081985 0.110869
0.090892 0.081635 0.110568
0.094249 0.087226 0.119515
0.190145 0.105637 0.109274
0.374471 0.178866 0.134423
0.514607 0.243755 0.153681
0.597651 0.297837 0.173764
0.650259 0.336355 0.189486
0.093638 0.084935 0.114779
0.093668 0.085010 0.113956
0.099253 0.091778 0.123415
0.191874 0.112296 0.118574
0.386873 0.193391 0.143182
0.525161 0.251986 0.162398
0.606294 0.305742 0.184419
0.654883 0.341555 0.193065
0.091388 0.089427 0.122416
0.095335 0.093964 0.123815
0.104477 0.105212 0.139979
0.215704 0.131061 0.137432
0.412758 0.213592 0.161446
0.547386 0.270578 0.178652
0.613810 0.320551 0.199684
0.666152 0.360109 0.216811
0.120077 0.161468 0.204626
0.117317 0.157116 0.199538
0.135230 0.175055 0.216832
0.269224 0.201131 0.220614
0.489379 0.282393 0.225148
0.597338 0.352039 0.252499
0.664342 0.403590 0.277271
0.711724 0.430328 0.283217
0.253418 0.297999 0.320829
0.251680 0.297524 0.320504
0.274512 0.319598 0.344156
0.347803 0.377472 0.384145
0.653865 0.402396 0.257927
0.741265 0.451806 0.258472
0.792325 0.481229 0.261063
0.827438 0.496936 0.230492
0.438473 0.462312 0.442879
0.428925 0.454278 0.435099
0.447264 0.469506 0.448931
0.535904 0.518109 0.469217
0.807160 0.507495 0.251475
0.853751 0.537552 0.238240
0.878347 0.566067 0.263399
0.892765 0.591267 0.287001
0.573690 0.563054 0.515376
0.579009 0.569953 0.520930
0.590377 0.575607 0.523345
0.689290 0.613273 0.518304
0.874511 0.598181 0.334204
0.909670 0.637690 0.360795
0.921453 0.667446 0.392076
0.928228 0.681847 0.413236
0.690963 0.658889 0.583715
0.693711 0.661720 0.588095
0.705867 0.664256 0.583148
0.836051 0.672567 0.504576
0.921642 0.684381 0.438572
0.944938 0.726998 0.484089
0.952193 0.748046 0.510197
0.960859 0.768859 0.546913
0.101788 0.119446 0.177341
0.098065 0.115845 0.173553
0.102048 0.121729 0.177227
0.131242 0.134444 0.197945
0.259293 0.198221 0.242762
0.411493 0.266389 0.272085
0.487827 0.304306 0.283140
0.564934 0.353965 0.296351
0.100844 0.117558 0.175453
0.100860 0.120174 0.175420
0.111003 0.130538 0.191731
0.141037 0.146334 0.208870
0.270546 0.205907 0.247014
0.422542 0.271862 0.273689
0.503465 0.312254 0.282108
0.569949 0.361144 0.304188
0.110503 0.136356 0.204337
0.109096 0.134583 0.202489
0.120733 0.146812 0.217742
0.152912 0.162243 0.225099
0.296291 0.237309 0.281113
0.438203 0.290107 0.293102
0.517660 0.332911 0.304422
0.578481 0.374899 0.318842
0.163901 0.219285 0.289642
0.168969 0.225284 0.296475
0.182593 0.237950 0.311534
0.244161 0.297096 0.377740
0.369556 0.313713 0.350612
0.504987 0.376011 0.367062
0.577934 0.417199 0.376097
0.629056 0.460539 0.392853
0.305962 0.401301 0.447213
0.306577 0.402160 0.449776
0.321260 0.417414 0.460442
0.372706 0.462010 0.504206
0.469348 0.493774 0.508747
0.630096 0.501206 0.433360
0.700356 0.531895 0.436244
0.749010 0.563277 0.446753
0.455724 0.534630 0.544057
0.454441 0.534740 0.542967
0.467460 0.541693 0.548367
0.509819 0.574284 0.576629
0.607670 0.619045 0.587217
0.858820 0.586553 0.355138
0.889889 0.602330 0.337226
0.907778 0.623504 0.354806
0.561841 0.609279 0.591657
0.559552 0.605751 0.585871
0.567301 0.613887 0.593573
0.614114 0.637182 0.602665
0.770596 0.689879 0.593032
0.922061 0.683386 0.445725
0.933864 0.699602 0.451216
0.941829 0.714374 0.472991
0.668536 0.671535 0.620025
0.666770 0.672586 0.619587
0.673324 0.679284 0.625825
0.735777 0.707500 0.639872
0.895228 0.738640 0.580724
0.953966 0.751120 0.535329
0.960274 0.775093 0.566403
0.963788 0.792790 0.599938
0.130041 0.148330 0.255037
0.131392 0.149681 0.252478
0.140311 0.159682 0.265470
0.170350 0.184729 0.287534
0.238388 0.259305 0.345473
0.329455 0.324117 0.386552
0.405007 0.351540 0.392895
0.472809 0.377625 0.399258
0.130131 0.148420 0.251217
0.132433 0.150974 0.254002
0.137287 0.155501 0.262635
0.172264 0.184360 0.287678
0.242206 0.264130 0.349291
0.330881 0.321661 0.384920
0.407611 0.354379 0.394327
0.470612 0.378796 0.400959
0.147972 0.172621 0.276626
0.143949 0.168356 0.272454
0.153919 0.178679 0.283673
0.192131 0.208633 0.315710
0.260447 0.284360 0.369950
0.353416 0.347596 0.409277
0.421834 0.372222 0.412716
0.488506 0.400630 0.417223
0.225161 0.270694 0.377023
0.223516 0.270513 0.376086
0.234741 0.281798 0.387899
0.297201 0.349973 0.451438
0.344200 0.373678 0.452548
0.417489 0.431281 0.480425
0.483158 0.459246 0.485585
0.540321 0.482310 0.488253
0.371424 0.443949 0.518945
0.370042 0.441055 0.515724
0.382967 0.453884 0.526683
0.436736 0.501526 0.565749
0.494960 0.550261 0.603657
0.527324 0.551115 0.572591
0.607160 0.572461 0.563359
0.667429 0.595358 0.566302
0.495863 0.581030 0.614959
0.489908 0.575135 0.608949
0.499966 0.584454 0.617333
0.535975 0.621626 0.652008
0.580664 0.667970 0.686027
0.651048 0.685292 0.671771
0.790360 0.668386 0.580968
0.853435 0.685582 0.563036
0.568457 0.661351 0.668414
0.568350 0.659253 0.663180
0.572819 0.663094 0.668007
0.602160 0.686611 0.681708
0.670584 0.713790 0.693364
0.829654 0.739910 0.650763
0.942861 0.730002 0.526688
0.948538 0.738813 0.534293
0.639664 0.691822 0.666848
0.642382 0.694149 0.667979
0.644741 0.693416 0.665428
0.694564 0.720560 0.687733
0.804191 0.766953 0.706161
0.934622 0.790288 0.642566
0.964636 0.800242 0.625140
0.968122 0.816578 0.645241
0.183521 0.200044 0.323400
0.183057 0.199678 0.323034
0.189771 0.202315 0.331668
0.238429 0.254240 0.383610
0.266768 0.282798 0.387829
0.335163 0.351939 0.440987
0.379952 0.392610 0.473794
0.422108 0.432524 0.496127
0.176486 0.192855 0.316366
0.178616 0.194985 0.318587
0.192963 0.208229 0.334572
0.239488 0.255269 0.386651
0.266313 0.280563 0.386464
0.334669 0.351143 0.442841
0.378827 0.391425 0.473217
0.422698 0.434344 0.497263
0.194873 0.211327 0.340990
0.193204 0.209638 0.338292
0.209374 0.228306 0.356566
0.257667 0.276501 0.408050
0.285591 0.303896 0.410357
0.353526 0.369648 0.459606
0.397866 0.411575 0.490010
0.437088 0.447961 0.507505
0.291774 0.332807 0.452844
0.289246 0.330031 0.451951
0.300381 0.341631 0.464812
0.352997 0.388415 0.506495
0.377917 0.397471 0.504336
0.425357 0.444616 0.522424
0.467372 0.487284 0.546390
0.504582 0.521575 0.571603
0.428582 0.487888 0.569609
0.423148 0.482022 0.567468
0.435572 0.493914 0.574616
0.486803 0.539223 0.616386
0.537591 0.585569 0.661808
0.537718 0.570699 0.621497
0.560436 0.593091 0.631743
0.581555 0.614624 0.643161
0.529275 0.603188 0.660073
0.531414 0.605107 0.662262
0.537761 0.611063 0.669084
0.566697 0.646207 0.700962
0.599180 0.686333 0.731183
0.636971 0.714202 0.750628
0.696736 0.703635 0.696090
0.765031 0.712897 0.669410
0.581420 0.685613 0.714407
0.581931 0.685136 0.711579
0.587530 0.691570 0.721494
0.609047 0.715139 0.738398
0.650222 0.748381 0.771109
0.743520 0.773974 0.764953
0.915474 0.776826 0.653652
0.957909 0.767594 0.598636
0.631214 0.731057 0.737868
0.624380 0.724277 0.728354
0.631174 0.729118 0.734695
0.667373 0.750831 0.751909
0.761334 0.795257 0.783823
0.851568 0.816570 0.772118
0.958605 0.819901 0.685787
0.968124 0.829162 0.692197
0.229937 0.241667 0.389872
0.229433 0.241301 0.389505
0.236142 0.249740 0.398221
0.276280 0.291091 0.440377
0.298756 0.308265 0.428370
0.355434 0.362749 0.471475
0.398563 0.405247 0.503935
0.431117 0.437968 0.523192
0.227907 0.239751 0.389961
0.224397 0.234743 0.384607
0.237631 0.252838 0.401166
0.278961 0.293793 0.441287
0.299937 0.308136 0.427334
0.353640 0.359739 0.470116
0.398630 0.405669 0.503527
0.429413 0.435468 0.522273
0.243889 0.260034 0.408238
0.244512 0.261129 0.407636
0.255739 0.272298 0.420893
0.298058 0.317192 0.462008
0.318932 0.326238 0.448548
0.369106 0.375160 0.483356
0.414364 0.422327 0.516235
0.447972 0.454508 0.535585
0.339167 0.366285 0.503605
0.339307 0.366064 0.503661
0.348919 0.377713 0.510896
0.403272 0.428849 0.553879
0.445596 0.458530 0.572480
0.453591 0.463380 0.555366
0.483762 0.497378 0.573814
0.513819 0.524703 0.591793
0.479221 0.523493 0.617840
0.472037 0.518957 0.612143
0.486769 0.533230 0.625337
0.532974 0.579214 0.673206
0.574983 0.622356 0.718509
0.569510 0.602134 0.676100
0.578747 0.610741 0.672169
0.593782 0.631887 0.685999
0.559010 0.632292 0.705830
0.558725 0.630981 0.706237
0.567244 0.640587 0.714691
0.591230 0.674901 0.746566
0.630134 0.713255 0.785825
0.668666 0.748528 0.817580
0.682424 0.750479 0.804128
0.692181 0.746403 0.790463
0.604946 0.708951 0.754664
0.604065 0.708000 0.754378
0.609427 0.713690 0.761219
0.635823 0.740795 0.789899
0.682106 0.782143 0.833899
0.734045 0.823236 0.870133
0.826421 0.821277 0.812960
0.889109 0.813850 0.757790
0.638143 0.754306 0.789496
0.637805 0.753905 0.789842
0.643723 0.759089 0.795433
0.674052 0.782338 0.814527
0.751376 0.825076 0.845219
0.826277 0.853193 0.865929
0.901361 0.850094 0.805488
0.950430 0.850049 0.766430
