其他预设/【236】赛博朋克风调色预设/【后期菌】视频调色预设/CUBE/Tokyo 08_S.cube
# LUT by SparkleStock. Enhanced with VOXCOLOR algorithms.
LUT_3D_SIZE 32
0.097752 0.070381 0.097752
0.101788 0.074417 0.097752
0.105446 0.078075 0.097752
0.103428 0.076057 0.097752
0.101662 0.074291 0.097752
0.101662 0.074291 0.097752
0.102419 0.074670 0.098130
0.106455 0.076688 0.100148
0.114527 0.080724 0.103175
0.134708 0.090814 0.109230
0.159304 0.101536 0.117807
0.193611 0.113644 0.131933
0.239271 0.136348 0.153628
0.303850 0.176710 0.187936
0.377259 0.218838 0.224009
0.462019 0.263236 0.262353
0.532652 0.302589 0.295652
0.589159 0.336897 0.323905
0.641125 0.363258 0.344212
0.689559 0.383439 0.358339
0.730426 0.404881 0.373727
0.766752 0.427080 0.389872
0.790591 0.438180 0.396304
0.808754 0.444234 0.398322
0.823889 0.453316 0.403368
0.838016 0.463406 0.409422
0.853782 0.470217 0.412197
0.869927 0.476272 0.414215
0.877243 0.478794 0.412701
0.883297 0.480812 0.410683
0.893135 0.480938 0.408665
0.903226 0.480938 0.406647
0.101788 0.074417 0.099770
0.103741 0.075329 0.098728
0.105446 0.076122 0.097752
0.103428 0.075146 0.097752
0.101792 0.074552 0.098012
0.102834 0.076635 0.100095
0.104241 0.078315 0.101776
0.107236 0.078250 0.101711
0.114527 0.080203 0.102655
0.134708 0.088210 0.106626
0.160280 0.098476 0.114096
0.197713 0.113709 0.129264
0.245325 0.136413 0.150047
0.309904 0.171567 0.180189
0.382401 0.210310 0.213007
0.465078 0.253666 0.249268
0.535191 0.291978 0.281004
0.592740 0.325244 0.308216
0.643989 0.350563 0.327481
0.690341 0.369703 0.340567
0.728473 0.388802 0.354262
0.761674 0.407876 0.368324
0.785969 0.421579 0.378402
0.806215 0.432842 0.386670
0.823434 0.444788 0.394058
0.839643 0.456961 0.401154
0.854954 0.467548 0.407510
0.870057 0.477769 0.413694
0.878154 0.480812 0.413613
0.885250 0.482830 0.412636
0.893200 0.481004 0.408730
0.901208 0.478920 0.404629
0.105572 0.078201 0.101662
0.105572 0.076248 0.099709
0.105450 0.074417 0.097878
0.103497 0.074417 0.097878
0.102032 0.074914 0.098374
0.103985 0.078885 0.102345
0.105962 0.081733 0.105181
0.108046 0.079715 0.103098
0.114686 0.079747 0.102073
0.134997 0.085932 0.104221
0.161554 0.095860 0.110703
0.201851 0.114023 0.126717
0.251278 0.136751 0.146540
0.315922 0.167087 0.172710
0.387516 0.202636 0.202412
0.468045 0.244886 0.236655
0.537409 0.281960 0.266731
0.595608 0.313859 0.292641
0.646081 0.338068 0.310787
0.690544 0.356296 0.322896
0.726260 0.373344 0.335127
0.756726 0.389684 0.347431
0.781509 0.405756 0.360898
0.803708 0.421706 0.374895
0.822880 0.436288 0.384546
0.841043 0.450415 0.392748
0.855979 0.464594 0.402538
0.870171 0.478786 0.412693
0.879009 0.482497 0.414191
0.887081 0.484710 0.414451
0.893261 0.481065 0.408791
0.899316 0.477028 0.402737
0.105572 0.078201 0.101662
0.105572 0.077290 0.100750
0.105515 0.076436 0.099896
0.104603 0.076436 0.099896
0.103920 0.076802 0.100262
0.104831 0.079731 0.103192
0.106158 0.081733 0.104986
0.109283 0.079715 0.101861
0.117225 0.080268 0.100575
0.139619 0.088536 0.104807
0.167283 0.099896 0.112070
0.206538 0.118059 0.126001
0.255705 0.141177 0.144131
0.321391 0.172556 0.169260
0.392203 0.207779 0.197920
0.469607 0.247946 0.231121
0.534805 0.280854 0.258073
0.587796 0.306503 0.278774
0.636576 0.328564 0.294643
0.682081 0.347833 0.306751
0.720140 0.367225 0.320935
0.753732 0.386690 0.336364
0.779491 0.401590 0.349375
0.801690 0.414414 0.361289
0.820862 0.428216 0.371981
0.839025 0.442342 0.382267
0.854808 0.457368 0.393293
0.870041 0.472602 0.404491
0.879009 0.479177 0.409764
0.887081 0.484515 0.414191
0.893261 0.481065 0.408791
0.899316 0.477028 0.402737
0.105572 0.078201 0.101662
0.105572 0.078201 0.101532
0.105572 0.078201 0.101410
0.105572 0.078201 0.101410
0.105588 0.078454 0.101662
0.105718 0.080472 0.103680
0.106630 0.081782 0.104587
0.110926 0.080024 0.100681
0.120171 0.081261 0.099233
0.144258 0.091482 0.105157
0.172881 0.104225 0.113054
0.211485 0.122518 0.125293
0.260538 0.146060 0.142073
0.327005 0.178350 0.166420
0.396833 0.213060 0.193843
0.470982 0.250883 0.225222
0.532469 0.280015 0.249048
0.581294 0.300457 0.265323
0.628618 0.320752 0.279328
0.674774 0.340933 0.291567
0.714704 0.362131 0.307427
0.750900 0.383939 0.325459
0.777562 0.397692 0.338032
0.799892 0.407782 0.348122
0.819292 0.421095 0.360019
0.837715 0.435482 0.372518
0.854075 0.450980 0.384594
0.869960 0.466734 0.396573
0.878895 0.475995 0.405475
0.886837 0.484328 0.413938
0.893375 0.481431 0.409158
0.899820 0.477785 0.403494
0.105572 0.078201 0.101662
0.105572 0.078201 0.100490
0.105572 0.078201 0.099391
0.105572 0.078201 0.099391
0.105718 0.078454 0.099644
0.106890 0.080472 0.101662
0.109038 0.082172 0.102764
0.115418 0.082498 0.099900
0.125964 0.085558 0.098972
0.149010 0.096820 0.103855
0.177568 0.110605 0.111362
0.218256 0.129940 0.124642
0.268220 0.154132 0.142463
0.333646 0.186422 0.167852
0.401065 0.219310 0.192672
0.471047 0.252966 0.216759
0.532013 0.281057 0.237460
0.583963 0.303582 0.254777
0.631482 0.324788 0.269823
0.675555 0.344969 0.283104
0.714053 0.364214 0.298703
0.749207 0.382898 0.315694
0.776260 0.395674 0.327941
0.799631 0.405764 0.338032
0.820854 0.420640 0.352272
0.841360 0.437110 0.367896
0.856419 0.450459 0.379712
0.870220 0.463089 0.390649
0.877983 0.473781 0.402155
0.884884 0.484197 0.413743
0.894287 0.484360 0.412087
0.903856 0.483839 0.409548
0.105193 0.078201 0.102040
0.105389 0.078397 0.100217
0.105584 0.078580 0.098521
0.105779 0.078580 0.098716
0.106178 0.078808 0.099090
0.108001 0.080630 0.100718
0.111105 0.082636 0.101698
0.119764 0.085436 0.099876
0.131856 0.090660 0.099615
0.154250 0.103159 0.104042
0.182890 0.118059 0.111317
0.225270 0.138240 0.124858
0.276048 0.163108 0.143012
0.340823 0.195788 0.168857
0.406224 0.227329 0.191341
0.472431 0.257405 0.209504
0.532681 0.284357 0.227569
0.586974 0.308183 0.245537
0.634676 0.329849 0.261454
0.677252 0.349835 0.275776
0.714538 0.367298 0.290871
0.748650 0.383248 0.306430
0.775825 0.395035 0.318363
0.799847 0.404930 0.328649
0.822502 0.420733 0.344696
0.844701 0.438505 0.362664
0.859019 0.450036 0.374390
0.871518 0.460127 0.384676
0.878549 0.471812 0.398493
0.884798 0.483726 0.412815
0.895992 0.486545 0.414260
0.907514 0.488759 0.414846
0.103175 0.078201 0.104058
0.104412 0.079438 0.103277
0.105649 0.080598 0.102622
0.106886 0.080598 0.103859
0.108066 0.080696 0.104884
0.108847 0.081477 0.104429
0.111691 0.083418 0.103912
0.123474 0.090383 0.103131
0.138171 0.099253 0.104172
0.161607 0.113835 0.110682
0.190963 0.130167 0.118413
0.233343 0.150348 0.128829
0.284511 0.175998 0.144249
0.350327 0.210761 0.168011
0.415403 0.243018 0.189323
0.479527 0.272053 0.207486
0.538214 0.297442 0.225030
0.591466 0.319185 0.241956
0.639298 0.339354 0.258003
0.682915 0.358298 0.273367
0.719941 0.374720 0.286900
0.753012 0.389628 0.299334
0.779145 0.400373 0.311007
0.802126 0.409227 0.322334
0.824520 0.423207 0.337861
0.846719 0.438896 0.354787
0.862730 0.450036 0.367164
0.877312 0.460127 0.378491
0.885515 0.470901 0.393350
0.892806 0.481773 0.408714
0.901134 0.485504 0.413153
0.909532 0.488759 0.416864
0.099644 0.080219 0.107590
0.101401 0.081977 0.107850
0.103175 0.083641 0.108221
0.105193 0.083902 0.110239
0.106959 0.084130 0.111752
0.106959 0.084130 0.109734
0.109657 0.086119 0.107948
0.124044 0.096730 0.107167
0.141800 0.108986 0.108794
0.169663 0.126172 0.117648
0.202550 0.144782 0.126746
0.246493 0.166526 0.136380
0.298736 0.193445 0.150434
0.364812 0.228989 0.171852
0.428781 0.261116 0.191504
0.490040 0.288849 0.208886
0.546775 0.312936 0.225519
0.598985 0.333377 0.241403
0.646215 0.351951 0.256848
0.689572 0.369072 0.271951
0.725686 0.384159 0.284084
0.757455 0.398025 0.294435
0.782823 0.407908 0.306173
0.805283 0.415981 0.318542
0.827156 0.428008 0.333548
0.848835 0.441354 0.349432
0.866017 0.451843 0.362037
0.882162 0.461673 0.373886
0.891243 0.471731 0.389949
0.899316 0.481821 0.406615
0.905740 0.486236 0.412844
0.912055 0.490272 0.418377
0.091571 0.088292 0.115662
0.092287 0.089008 0.116964
0.093085 0.089761 0.118311
0.095103 0.091063 0.120329
0.096869 0.092202 0.121843
0.096869 0.092202 0.119825
0.099762 0.094582 0.117453
0.115190 0.107277 0.113547
0.137373 0.122136 0.113612
0.179818 0.143489 0.125590
0.224684 0.166916 0.138789
0.274877 0.194909 0.154674
0.330244 0.224562 0.171461
0.394237 0.256982 0.189754
0.454756 0.286440 0.206282
0.510807 0.312089 0.220538
0.564417 0.335656 0.235088
0.615586 0.357139 0.249931
0.660016 0.373825 0.262577
0.699206 0.386779 0.273514
0.732456 0.399653 0.284735
0.762142 0.412478 0.296128
0.787576 0.422035 0.308908
0.811077 0.430108 0.322318
0.831648 0.439791 0.336803
0.851243 0.450012 0.351646
0.868035 0.459069 0.363209
0.884180 0.467857 0.374016
0.893261 0.477785 0.391772
0.901334 0.487876 0.410521
0.908735 0.492290 0.414927
0.916091 0.496326 0.418377
0.081607 0.098256 0.124996
0.082258 0.098907 0.127340
0.082954 0.099603 0.129622
0.084321 0.100970 0.130989
0.085558 0.102166 0.131974
0.085883 0.102166 0.130281
0.089053 0.104876 0.128015
0.104547 0.119328 0.123263
0.128471 0.135815 0.122661
0.177686 0.158405 0.134509
0.232517 0.185551 0.149978
0.299700 0.222723 0.173414
0.365028 0.257430 0.194116
0.427263 0.288027 0.210261
0.484515 0.315121 0.224213
0.535358 0.337710 0.235345
0.585029 0.359616 0.247486
0.633529 0.380839 0.260636
0.674814 0.395800 0.270747
0.710489 0.405890 0.278494
0.741322 0.416632 0.288560
0.769250 0.427764 0.300017
0.793732 0.436345 0.312862
0.816647 0.443766 0.326338
0.836242 0.451920 0.340546
0.854730 0.460318 0.354998
0.871315 0.468451 0.366965
0.887459 0.476524 0.378357
0.896256 0.485508 0.396300
0.904003 0.494622 0.415179
0.912055 0.498365 0.417336
0.920127 0.501750 0.418377
0.067480 0.112383 0.137105
0.070214 0.115117 0.140490
0.072733 0.117636 0.143619
0.072017 0.116920 0.142903
0.071561 0.116293 0.142195
0.072928 0.116293 0.141544
0.076554 0.119198 0.140905
0.089964 0.134692 0.140319
0.109722 0.150658 0.141019
0.148522 0.168039 0.145576
0.208886 0.196488 0.159287
0.316691 0.249284 0.193139
0.407017 0.294146 0.220351
0.468211 0.325785 0.236496
0.522598 0.351186 0.249081
0.568233 0.368568 0.257088
0.612176 0.386307 0.266104
0.654426 0.404405 0.276130
0.691805 0.417999 0.284288
0.725397 0.428089 0.290993
0.754798 0.436878 0.299366
0.781684 0.444885 0.308741
0.802976 0.451058 0.319503
0.821725 0.456396 0.330895
0.841059 0.464810 0.345364
0.860589 0.474249 0.360857
0.877369 0.482578 0.376404
0.893514 0.490651 0.391963
0.901399 0.496900 0.406781
0.908104 0.502889 0.421494
0.916091 0.504484 0.420461
0.924164 0.505786 0.418377
0.057137 0.130294 0.154511
0.060783 0.133939 0.157766
0.064099 0.137255 0.160764
0.062472 0.135628 0.159918
0.061300 0.134301 0.159226
0.063318 0.135082 0.159617
0.067155 0.138525 0.160093
0.078873 0.153498 0.160939
0.095734 0.168064 0.160695
0.128023 0.181409 0.157180
0.191968 0.210013 0.166888
0.325553 0.272183 0.205688
0.433505 0.323002 0.235259
0.498735 0.354901 0.249451
0.554310 0.379537 0.260424
0.597471 0.394836 0.267260
0.637833 0.409971 0.274128
0.675396 0.424944 0.281029
0.708894 0.436731 0.286794
0.739231 0.446041 0.291676
0.766760 0.452583 0.297820
0.792605 0.457466 0.304721
0.812049 0.461766 0.313277
0.828585 0.465803 0.322587
0.847561 0.473501 0.335851
0.867352 0.482419 0.350433
0.884180 0.490333 0.366973
0.900325 0.498015 0.383964
0.908324 0.502849 0.396341
0.915159 0.507275 0.408059
0.922056 0.507186 0.403909
0.928957 0.506795 0.398701
0.053101 0.154511 0.180746
0.055705 0.157115 0.181918
0.058110 0.159519 0.183159
0.057524 0.158933 0.185437
0.057264 0.158779 0.187610
0.059282 0.161643 0.189042
0.062923 0.166192 0.189779
0.073600 0.178040 0.187500
0.089679 0.189742 0.182569
0.121969 0.201004 0.169679
0.186239 0.227850 0.171640
0.320866 0.288979 0.206273
0.434156 0.338756 0.231288
0.511885 0.369613 0.240272
0.575403 0.395031 0.249227
0.620647 0.413454 0.258146
0.661009 0.428590 0.264493
0.696489 0.440438 0.268269
0.726146 0.449686 0.270910
0.751274 0.456912 0.272667
0.776199 0.460721 0.275686
0.801003 0.462478 0.279462
0.820838 0.465803 0.285610
0.838415 0.469839 0.292836
0.856871 0.475193 0.302455
0.875619 0.480987 0.312871
0.892252 0.487469 0.326090
0.908397 0.494109 0.339956
0.918219 0.499724 0.351031
0.927138 0.505192 0.361708
0.931235 0.504191 0.354563
0.935011 0.502759 0.346230
0.053480 0.186674 0.213162
0.055498 0.189148 0.214073
0.057390 0.191496 0.215151
0.057390 0.191951 0.218732
0.057585 0.192570 0.221889
0.059147 0.194328 0.222085
0.062223 0.197477 0.221316
0.071858 0.206656 0.216368
0.087043 0.216291 0.208572
0.118877 0.227293 0.192232
0.180596 0.251640 0.187813
0.308061 0.305347 0.209622
0.421221 0.350608 0.225694
0.510539 0.381791 0.232204
0.582682 0.406964 0.237090
0.632743 0.424411 0.239889
0.674700 0.438636 0.242982
0.708552 0.449638 0.246367
0.736362 0.457344 0.247592
0.759473 0.462487 0.247136
0.783275 0.465554 0.248511
0.807492 0.467377 0.250985
0.827860 0.469469 0.254354
0.846479 0.471682 0.258130
0.865439 0.475946 0.265811
0.884514 0.480894 0.274795
0.900467 0.486370 0.285577
0.915701 0.491969 0.296775
0.926035 0.496770 0.305010
0.935670 0.501457 0.312822
0.938164 0.500285 0.303423
0.940182 0.498723 0.292877
0.059534 0.229054 0.253524
0.061552 0.232570 0.256518
0.063444 0.235959 0.259485
0.063444 0.237456 0.262023
0.063509 0.238335 0.263749
0.064030 0.234885 0.259777
0.066064 0.233412 0.255233
0.074657 0.240508 0.248202
0.088800 0.249101 0.239885
0.119593 0.262186 0.227712
0.175062 0.283083 0.218671
0.284821 0.321167 0.216523
0.390820 0.357444 0.218012
0.490553 0.390710 0.225563
0.572200 0.414321 0.223745
0.630595 0.425518 0.209878
0.676198 0.437659 0.206200
0.709008 0.450744 0.212710
0.737534 0.458190 0.214716
0.762728 0.461250 0.213219
0.787311 0.466140 0.214854
0.811528 0.472130 0.218370
0.832613 0.472659 0.218484
0.852273 0.470706 0.217052
0.873056 0.475490 0.224994
0.894214 0.482521 0.236061
0.908865 0.487542 0.245541
0.922015 0.492099 0.254655
0.931178 0.494036 0.258073
0.939771 0.495598 0.260677
0.942200 0.495208 0.249976
0.944218 0.494687 0.238388
0.069624 0.274462 0.294895
0.071643 0.277977 0.297889
0.073502 0.281334 0.300790
0.072981 0.282310 0.302288
0.072591 0.282668 0.303102
0.073111 0.278697 0.299130
0.075243 0.276606 0.294488
0.084357 0.282660 0.286936
0.101495 0.291123 0.278620
0.142703 0.306812 0.268009
0.204520 0.326245 0.255485
0.311674 0.353912 0.238754
0.414484 0.382898 0.229958
0.510050 0.414081 0.234384
0.588899 0.434241 0.226935
0.646252 0.440231 0.204215
0.691073 0.450028 0.196630
0.723363 0.463634 0.204182
0.751661 0.470722 0.206058
0.776855 0.472740 0.203519
0.801438 0.478216 0.204764
0.825655 0.485768 0.208279
0.847097 0.486427 0.207319
0.867278 0.483953 0.204324
0.887801 0.488608 0.210704
0.908438 0.495639 0.220209
0.921722 0.499813 0.228127
0.933310 0.503329 0.235678
0.940455 0.502857 0.235255
0.946965 0.501815 0.233693
0.949752 0.503703 0.225661
0.952291 0.505786 0.217198
0.083751 0.322896 0.337275
0.085769 0.325370 0.338186
0.087564 0.327620 0.339069
0.086001 0.326513 0.339525
0.084829 0.325569 0.339948
0.086392 0.325764 0.340143
0.089761 0.327058 0.339081
0.100958 0.333113 0.332571
0.125126 0.342357 0.324776
0.188208 0.361171 0.313123
0.268969 0.381124 0.298256
0.388623 0.403583 0.276317
0.492213 0.426971 0.261531
0.569031 0.451904 0.258667
0.632776 0.466726 0.246660
0.679713 0.468549 0.222898
0.719326 0.475743 0.214273
0.751616 0.488307 0.220783
0.778742 0.494939 0.221617
0.801853 0.496957 0.218036
0.825655 0.501783 0.218240
0.849872 0.508293 0.220713
0.871315 0.510775 0.220860
0.891496 0.511426 0.219948
0.909675 0.515299 0.222943
0.927187 0.520247 0.227240
0.939039 0.523184 0.233335
0.949585 0.525658 0.239845
0.953865 0.523233 0.236557
0.957251 0.520108 0.231870
0.960819 0.525772 0.230478
0.964399 0.532022 0.229307
0.110365 0.370195 0.378520
0.111797 0.372213 0.379106
0.113050 0.373979 0.379618
0.111618 0.371961 0.379033
0.110690 0.370447 0.378626
0.113294 0.372466 0.379472
0.118559 0.375460 0.379574
0.135355 0.382686 0.376449
0.166554 0.392419 0.370785
0.240964 0.409670 0.357505
0.331587 0.426922 0.339159
0.457881 0.444173 0.309668
0.559909 0.461962 0.287648
0.621493 0.480645 0.278079
0.673138 0.491924 0.263895
0.712003 0.493682 0.243779
0.747287 0.500029 0.235577
0.778991 0.510966 0.239287
0.805348 0.517545 0.238970
0.827547 0.520735 0.235520
0.850275 0.525349 0.234022
0.873320 0.530817 0.233697
0.892785 0.533108 0.233595
0.910623 0.533954 0.233595
0.926312 0.537193 0.235548
0.941285 0.541229 0.238152
0.951339 0.543626 0.243083
0.960257 0.545644 0.248552
0.963138 0.542877 0.243938
0.965156 0.539427 0.237884
0.968517 0.545131 0.238299
0.971967 0.551446 0.239145
0.146691 0.416611 0.418882
0.147081 0.418630 0.420509
0.147423 0.420395 0.421933
0.147032 0.418377 0.420306
0.147146 0.416864 0.418727
0.150792 0.418882 0.417490
0.158466 0.422267 0.416876
0.183594 0.431576 0.418959
0.221824 0.441569 0.416681
0.299358 0.453613 0.401317
0.392781 0.465656 0.378609
0.521158 0.477700 0.339745
0.619801 0.489890 0.309522
0.668886 0.502324 0.293703
0.710766 0.511454 0.279194
0.743381 0.516337 0.266369
0.775020 0.523205 0.259729
0.805682 0.532058 0.259273
0.831583 0.538898 0.257719
0.853782 0.544171 0.255310
0.875208 0.548915 0.251599
0.896171 0.553342 0.247107
0.912120 0.553875 0.245704
0.925791 0.552638 0.245704
0.938876 0.555356 0.248438
0.951766 0.559392 0.252083
0.959737 0.561789 0.256364
0.966572 0.563807 0.260791
0.969192 0.561951 0.256046
0.971211 0.559543 0.249992
0.973595 0.562383 0.248454
0.976004 0.565572 0.247217
0.195630 0.456721 0.445369
0.195630 0.458088 0.446086
0.195752 0.459366 0.446793
0.197705 0.459301 0.447379
0.199755 0.459333 0.447558
0.202489 0.460049 0.444889
0.209886 0.462157 0.443111
0.237489 0.470295 0.445194
0.276402 0.478595 0.443209
0.349249 0.487383 0.429017
0.439083 0.496375 0.406016
0.566289 0.505815 0.363636
0.662685 0.515010 0.331802
0.707735 0.523799 0.317546
0.747173 0.532245 0.305966
0.779397 0.540253 0.297828
0.809343 0.547967 0.291449
0.837011 0.555388 0.286827
0.861236 0.560942 0.282204
0.882784 0.565044 0.277582
0.901444 0.567884 0.272472
0.918370 0.569967 0.267069
0.931536 0.571916 0.265828
0.942994 0.573804 0.266479
0.952498 0.575350 0.266739
0.961352 0.576782 0.266869
0.966873 0.579219 0.268586
0.971626 0.581888 0.270670
0.975125 0.582165 0.267341
0.978445 0.582100 0.263240
0.979934 0.582767 0.259871
0.981301 0.583483 0.256551
0.252136 0.493047 0.463532
0.252136 0.493373 0.462165
0.252454 0.493869 0.461181
0.257532 0.496929 0.465933
0.262056 0.499435 0.469627
0.262707 0.498068 0.465917
0.268216 0.497897 0.462706
0.294777 0.502910 0.461665
0.330566 0.508346 0.458117
0.394038 0.515051 0.447050
0.476451 0.522285 0.426197
0.600531 0.530683 0.383817
0.695366 0.538446 0.354327
0.741456 0.545151 0.346320
0.782848 0.553793 0.339623
0.818197 0.564926 0.334610
0.847622 0.573681 0.327709
0.871123 0.580061 0.318921
0.892940 0.583402 0.310132
0.913447 0.584378 0.301344
0.928460 0.584093 0.295322
0.940178 0.583052 0.290960
0.951001 0.588321 0.290761
0.961417 0.596458 0.292454
0.966755 0.596442 0.288287
0.970401 0.593708 0.282168
0.973253 0.596210 0.280174
0.975922 0.599921 0.279133
0.980984 0.603062 0.278148
0.986387 0.606122 0.277171
0.987030 0.605031 0.272045
0.987355 0.603664 0.266641
0.312805 0.526598 0.488632
0.312805 0.526598 0.488047
0.313050 0.526761 0.487697
0.316956 0.529365 0.490887
0.320463 0.531480 0.493352
0.321179 0.530178 0.490748
0.327351 0.530549 0.488523
0.357167 0.538165 0.487937
0.392874 0.544496 0.484438
0.446256 0.546970 0.472199
0.519413 0.550075 0.449869
0.636072 0.554567 0.405341
0.726121 0.559644 0.374435
0.771821 0.565699 0.366232
0.811541 0.573148 0.358913
0.843570 0.582393 0.352728
0.871042 0.590758 0.346739
0.893957 0.598245 0.340945
0.914126 0.602728 0.333540
0.932159 0.604877 0.324882
0.944780 0.605316 0.319560
0.954154 0.604730 0.316239
0.963529 0.609515 0.314128
0.972903 0.616741 0.312565
0.976760 0.616595 0.306121
0.978778 0.613991 0.298048
0.980797 0.616782 0.294895
0.982815 0.620818 0.292877
0.986485 0.624228 0.291998
0.990391 0.627548 0.291282
0.991810 0.626535 0.286904
0.993063 0.625233 0.282282
0.375367 0.558888 0.516886
0.375367 0.558888 0.518383
0.375415 0.558920 0.519726
0.376197 0.559441 0.518749
0.377100 0.559864 0.517830
0.378858 0.559604 0.517309
0.386853 0.561797 0.517167
0.421876 0.574621 0.518664
0.458886 0.583556 0.515946
0.501852 0.580822 0.500582
0.564917 0.578719 0.475128
0.672202 0.578003 0.427475
0.756002 0.579825 0.393444
0.800661 0.585880 0.382117
0.837060 0.591507 0.371672
0.862839 0.596584 0.362363
0.887708 0.603908 0.357936
0.911664 0.613478 0.358392
0.930531 0.620631 0.354893
0.945439 0.625904 0.348318
0.956238 0.628817 0.344428
0.964570 0.630314 0.342149
0.972903 0.632886 0.336783
0.981236 0.635946 0.330012
0.984833 0.636320 0.322265
0.986851 0.635799 0.314193
0.988869 0.638981 0.311040
0.990887 0.643017 0.309022
0.991823 0.645515 0.307231
0.992604 0.647794 0.305474
0.995537 0.647692 0.302984
0.998613 0.647432 0.300445
0.419765 0.586636 0.536058
0.424452 0.588980 0.538857
0.428846 0.591177 0.541404
0.428846 0.591177 0.540167
0.429196 0.591177 0.539085
0.431995 0.591177 0.539085
0.439763 0.592947 0.539024
0.469058 0.602387 0.538698
0.501119 0.608652 0.534418
0.541481 0.605397 0.518273
0.600316 0.602285 0.492282
0.699788 0.599486 0.444629
0.777729 0.600006 0.410012
0.819784 0.606061 0.397122
0.854376 0.611574 0.385799
0.879375 0.616391 0.376490
0.902030 0.623064 0.372453
0.922341 0.631592 0.373690
0.938734 0.637850 0.370386
0.952079 0.642342 0.363551
0.962617 0.645776 0.359238
0.971471 0.648575 0.356439
0.979250 0.651374 0.350551
0.986542 0.654174 0.343260
0.989292 0.655459 0.337727
0.990529 0.656240 0.332779
0.992877 0.659666 0.330212
0.995481 0.663703 0.328193
0.995806 0.665289 0.326859
0.995806 0.666526 0.325622
0.997835 0.667336 0.324385
1.000000 0.668117 0.323148
0.458109 0.612872 0.552203
0.469045 0.618340 0.556043
0.479299 0.623467 0.559632
0.479299 0.623467 0.559437
0.479779 0.623467 0.559266
0.483620 0.623467 0.559266
0.490476 0.624065 0.558619
0.510396 0.627255 0.555169
0.535427 0.629094 0.548545
0.575789 0.626880 0.532400
0.632345 0.624158 0.506734
0.724526 0.620318 0.460123
0.796738 0.620187 0.425766
0.835668 0.626242 0.411835
0.868959 0.632210 0.400381
0.894999 0.638069 0.392114
0.915570 0.644221 0.388077
0.930674 0.650666 0.388273
0.944202 0.654841 0.383927
0.956506 0.657250 0.376050
0.967305 0.660553 0.370696
0.977200 0.664394 0.366855
0.984589 0.668235 0.361358
0.990838 0.672076 0.355108
0.992547 0.674403 0.352960
0.992742 0.676226 0.352179
0.995529 0.679847 0.350393
0.998915 0.683884 0.348374
0.999338 0.684559 0.347951
0.999338 0.684754 0.347756
0.999658 0.686475 0.347561
1.000000 0.688298 0.347365
0.501372 0.637467 0.556869
0.510095 0.641829 0.560059
0.518220 0.645865 0.562997
0.517374 0.645019 0.562151
0.517138 0.644278 0.561304
0.521174 0.644278 0.560458
0.528018 0.644815 0.558855
0.547027 0.647680 0.553972
0.571586 0.649747 0.546909
0.612794 0.649421 0.533303
0.666595 0.647407 0.510237
0.748101 0.641678 0.466360
0.811834 0.640051 0.433957
0.845946 0.645259 0.420676
0.876242 0.651207 0.410415
0.901631 0.658108 0.404035
0.920542 0.663739 0.399576
0.932977 0.668101 0.397037
0.945228 0.672096 0.392337
0.957336 0.675807 0.385958
0.968183 0.680250 0.381042
0.978274 0.685133 0.377006
0.985008 0.688270 0.371001
0.990216 0.690613 0.364100
0.992152 0.693982 0.364279
0.992999 0.697693 0.366818
0.994824 0.702356 0.370468
0.996874 0.707238 0.374374
0.998426 0.707849 0.372641
0.999907 0.707849 0.370102
1.000000 0.710534 0.369943
1.000000 0.713398 0.369943
0.545770 0.661684 0.558888
0.550327 0.663963 0.561036
0.554481 0.665981 0.562932
0.552593 0.664093 0.561044
0.551446 0.662441 0.559156
0.555482 0.662441 0.557268
0.562521 0.663174 0.554623
0.582572 0.667080 0.548699
0.608172 0.670449 0.541636
0.650422 0.672206 0.531155
0.701359 0.670973 0.511214
0.771406 0.663161 0.470461
0.826025 0.659841 0.440401
0.854930 0.664008 0.428163
0.881840 0.669826 0.419399
0.906188 0.677768 0.415102
0.923537 0.682879 0.410122
0.933888 0.685157 0.404458
0.945228 0.689413 0.399563
0.957336 0.695207 0.395267
0.968183 0.701082 0.391133
0.978274 0.707006 0.387097
