其他预设/【236】赛博朋克风调色预设/【后期菌】视频调色预设/CUBE/Tokyo 09_S.cube
# LUT by SparkleStock. Enhanced with VOXCOLOR algorithms.
LUT_3D_SIZE 8
DOMAIN_MIN 0.000000 0.000000 0.000000
DOMAIN_MAX 0.903226 0.903226 0.903226
0.086022 0.097752 0.109482
0.086022 0.101410 0.113392
0.097878 0.108094 0.120329
0.186170 0.170656 0.186296
0.523319 0.427080 0.416233
0.772302 0.611863 0.581970
0.831079 0.691578 0.645540
0.858071 0.736480 0.681739
0.089932 0.101662 0.113392
0.089948 0.101898 0.113628
0.102577 0.108599 0.115850
0.205720 0.177992 0.175672
0.503776 0.365154 0.336392
0.734885 0.498902 0.444287
0.815760 0.611749 0.552186
0.857932 0.720779 0.665383
0.089427 0.103175 0.115410
0.092833 0.107118 0.119792
0.122364 0.130997 0.127091
0.244007 0.214647 0.180872
0.519522 0.379924 0.305604
0.725308 0.499622 0.397960
0.812090 0.591645 0.493275
0.860113 0.697986 0.627832
0.085139 0.131933 0.149087
0.089097 0.132942 0.153095
0.107688 0.165793 0.156069
0.380644 0.354775 0.288141
0.645182 0.509570 0.372592
0.750631 0.577950 0.416485
0.825281 0.646805 0.515885
0.867331 0.731687 0.657884
0.160061 0.227541 0.247974
0.165618 0.235813 0.253467
0.182797 0.244711 0.242192
0.432939 0.389888 0.286668
0.716039 0.566439 0.381571
0.789130 0.628492 0.422527
0.848941 0.685487 0.518753
0.879155 0.739170 0.641719
0.396304 0.453694 0.447514
0.407664 0.461018 0.453657
0.452583 0.479555 0.463447
0.801043 0.656822 0.532494
0.832299 0.718045 0.556629
0.859625 0.745057 0.603859
0.880966 0.759990 0.654296
0.894018 0.777477 0.700976
0.699524 0.679595 0.634440
0.706140 0.682875 0.637565
0.767000 0.711917 0.653372
0.874260 0.751238 0.660468
0.887207 0.770259 0.696257
0.898181 0.784016 0.716836
0.906839 0.792861 0.729372
0.915155 0.796539 0.736407
0.836250 0.765617 0.704065
0.836917 0.765731 0.704317
0.856582 0.769047 0.706941
0.877027 0.780211 0.704821
0.890438 0.788601 0.718492
0.907828 0.801942 0.734336
0.918235 0.806158 0.738067
0.926308 0.811150 0.750774
0.086274 0.098004 0.109734
0.089696 0.101678 0.113644
0.094912 0.104656 0.120329
0.194649 0.170481 0.194291
0.512776 0.376559 0.383183
0.744427 0.525345 0.516300
0.825053 0.652168 0.614764
0.856305 0.726516 0.677451
0.086510 0.098476 0.110206
0.089995 0.101693 0.113675
0.115536 0.109089 0.120757
0.225553 0.163032 0.177234
0.487872 0.312008 0.304611
0.706073 0.412209 0.393363
0.800208 0.516465 0.480698
0.853709 0.662950 0.612730
0.089899 0.103680 0.116452
0.090391 0.107984 0.116230
0.138569 0.143106 0.130395
0.260475 0.218408 0.184496
0.506768 0.344054 0.290237
0.688425 0.417501 0.353530
0.792865 0.507899 0.427767
0.858501 0.639909 0.569321
0.088845 0.135892 0.159198
0.089553 0.140414 0.158939
0.124581 0.190849 0.164367
0.361055 0.342407 0.261356
0.598680 0.459102 0.333065
0.711773 0.509315 0.363824
0.802129 0.565041 0.432145
0.864811 0.666319 0.573962
0.168576 0.240593 0.256612
0.169703 0.241069 0.259716
0.194487 0.274629 0.240855
0.417065 0.396863 0.275517
0.659921 0.540896 0.342756
0.747543 0.588863 0.376770
0.826138 0.641327 0.452419
0.875730 0.700482 0.562867
0.424305 0.475478 0.473163
0.411666 0.461262 0.457680
0.457961 0.493372 0.460519
0.740488 0.637628 0.476160
0.772502 0.694719 0.487993
0.820359 0.722108 0.533790
0.863781 0.742011 0.594406
0.891968 0.755042 0.621420
0.701611 0.679286 0.634286
0.703749 0.679786 0.635972
0.749055 0.696010 0.641307
0.867953 0.752687 0.652533
0.863439 0.764194 0.660037
0.885798 0.779959 0.687860
0.898540 0.787388 0.703014
0.905860 0.784869 0.664400
0.834484 0.765478 0.704065
0.835379 0.765746 0.704793
0.854664 0.768667 0.708496
0.877027 0.780577 0.705299
0.891502 0.790386 0.718864
0.905911 0.800681 0.735256
0.916493 0.805042 0.739258
0.923089 0.811264 0.733512
0.085517 0.099265 0.115410
0.088923 0.102419 0.115158
0.102866 0.108534 0.129728
0.201977 0.162302 0.206770
0.488278 0.345990 0.386491
0.741725 0.503300 0.532473
0.819475 0.616656 0.610211
0.857241 0.729999 0.683961
0.088451 0.105385 0.118344
0.085800 0.099709 0.116199
0.122734 0.113425 0.146573
0.236543 0.167303 0.215729
0.477753 0.294301 0.335444
0.687034 0.377637 0.411059
0.791417 0.477048 0.491057
0.853283 0.622188 0.602379
0.085387 0.106382 0.123975
0.087124 0.111244 0.130953
0.138435 0.151166 0.163840
0.268400 0.221089 0.232160
0.495992 0.338222 0.332569
0.682391 0.401740 0.392103
0.784432 0.468790 0.440436
0.857184 0.604939 0.566444
0.088894 0.142683 0.167405
0.090094 0.154203 0.173979
0.132977 0.200221 0.193788
0.349948 0.339533 0.296450
0.584494 0.451852 0.376944
0.698510 0.494117 0.401953
0.790802 0.526309 0.435894
0.862718 0.617688 0.540351
0.166733 0.251111 0.267256
0.172349 0.255332 0.271912
0.196319 0.294124 0.271433
0.380638 0.393358 0.302045
0.640785 0.535941 0.376473
0.724343 0.572689 0.395529
0.805324 0.598750 0.424031
0.871300 0.638193 0.485586
0.418251 0.485805 0.475336
0.411014 0.476870 0.467274
0.437215 0.507462 0.478813
0.695899 0.642709 0.489259
0.747465 0.686542 0.495374
0.796937 0.706324 0.521807
0.839517 0.710882 0.531116
0.883277 0.710521 0.522487
0.682012 0.677943 0.631332
0.683056 0.677292 0.632655
0.728567 0.706585 0.653649
0.862857 0.759131 0.675467
0.854543 0.766120 0.659192
0.872623 0.777941 0.673028
0.868900 0.771935 0.611737
0.898182 0.769186 0.572213
0.837939 0.766829 0.714179
0.838853 0.767226 0.712931
0.848403 0.768554 0.715774
0.877859 0.782193 0.719055
0.894829 0.792096 0.729885
0.905813 0.802431 0.733538
0.897555 0.808149 0.683965
0.913290 0.816188 0.649669
0.062561 0.122600 0.157664
0.062260 0.123006 0.157518
0.077192 0.126355 0.172336
0.184005 0.190796 0.255774
0.432915 0.351162 0.423744
0.717882 0.531468 0.580171
0.815141 0.654877 0.656261
0.852159 0.740696 0.704244
0.065714 0.125549 0.163613
0.066403 0.122865 0.158860
0.096836 0.130832 0.194128
0.217583 0.187478 0.274537
0.434103 0.301583 0.396309
0.668084 0.395221 0.486950
0.793976 0.524048 0.576577
0.847289 0.662068 0.661347
0.065714 0.129439 0.165513
0.066723 0.134808 0.177086
0.113997 0.165313 0.218089
0.249482 0.236458 0.298109
0.464256 0.341225 0.400836
0.671558 0.414642 0.466933
0.781771 0.494709 0.528418
0.852821 0.616341 0.619559
0.077949 0.184445 0.225523
0.075241 0.180937 0.221626
0.121831 0.228661 0.263900
0.303322 0.337994 0.357967
0.561024 0.459015 0.454084
0.695677 0.504258 0.487680
0.787397 0.524926 0.507658
0.860078 0.588436 0.567884
0.194551 0.307711 0.336860
0.193940 0.306260 0.337474
0.225970 0.352440 0.361506
0.327496 0.425457 0.404357
0.660360 0.598600 0.506831
0.725068 0.598381 0.502839
0.797036 0.597586 0.503178
0.873879 0.610627 0.517447
0.462169 0.558171 0.561821
0.445560 0.541033 0.548438
0.463695 0.567719 0.551052
0.574274 0.649923 0.580708
0.763041 0.707546 0.575832
0.785728 0.705470 0.562490
0.817543 0.687817 0.526236
0.883354 0.688753 0.524796
0.663609 0.700073 0.665888
0.675605 0.709134 0.674704
0.696178 0.717974 0.683019
0.811218 0.766052 0.716907
0.855322 0.776403 0.691987
0.851845 0.779934 0.664443
0.849962 0.769441 0.594848
0.896700 0.765670 0.557508
0.810068 0.768444 0.736065
0.814741 0.770721 0.737153
0.824749 0.776704 0.742160
0.874909 0.794757 0.756366
0.896207 0.798662 0.745003
0.892679 0.810934 0.725755
0.880864 0.819381 0.665822
0.906883 0.827718 0.626000
0.053858 0.178223 0.242803
0.050322 0.174623 0.239202
0.058907 0.186564 0.251762
0.128353 0.235918 0.304615
0.354482 0.389603 0.473440
0.670807 0.612241 0.652697
0.805108 0.719453 0.717585
0.839298 0.758728 0.740362
0.051970 0.172425 0.237005
0.052055 0.175192 0.239860
0.075454 0.191259 0.273338
0.168660 0.225907 0.330290
0.371946 0.334763 0.465246
0.643179 0.480721 0.595975
0.785633 0.602333 0.663060
0.840091 0.723856 0.727205
0.058273 0.193750 0.259078
0.060523 0.192301 0.258492
0.087188 0.207070 0.294247
0.194910 0.257251 0.359718
0.410839 0.366550 0.489481
0.656608 0.476119 0.579085
0.785042 0.572273 0.639745
0.843684 0.662317 0.690965
0.093854 0.262536 0.325968
0.096741 0.267332 0.330999
0.119820 0.283592 0.352068
0.228266 0.352798 0.432489
0.508003 0.479892 0.549442
0.709403 0.553922 0.601477
0.792534 0.574691 0.619972
0.859228 0.598632 0.636249
0.259118 0.422365 0.471405
0.261670 0.422064 0.469684
0.287718 0.447877 0.490680
0.374816 0.520992 0.549188
0.624291 0.634894 0.623695
0.752305 0.647923 0.631572
0.802885 0.624015 0.606028
0.871465 0.629839 0.614183
0.522533 0.637386 0.642126
0.518763 0.635044 0.641872
0.534029 0.649770 0.651787
0.609735 0.699707 0.676299
0.742015 0.739482 0.698073
0.798787 0.729066 0.654361
0.820309 0.697734 0.606927
0.885589 0.692742 0.600244
0.703816 0.740342 0.717500
0.702032 0.739606 0.715924
0.723006 0.747903 0.723314
0.797946 0.769789 0.746803
0.859400 0.799936 0.759920
0.839737 0.785777 0.692106
0.844205 0.773199 0.636403
0.897386 0.767815 0.609721
0.799623 0.776029 0.746494
0.800932 0.778790 0.746074
0.811140 0.781092 0.751242
0.846444 0.796446 0.764812
0.884176 0.816343 0.767145
0.879137 0.816499 0.728186
0.873864 0.825972 0.681677
0.910049 0.839539 0.654252
0.065084 0.241920 0.325292
0.065002 0.243018 0.323832
0.068379 0.254891 0.340408
0.122844 0.321675 0.398363
0.334354 0.472634 0.549859
0.550685 0.634831 0.670766
0.759900 0.742042 0.736431
0.823576 0.770406 0.762651
0.065002 0.240577 0.320211
0.065002 0.242080 0.324103
0.067693 0.252106 0.338239
0.132300 0.313578 0.403398
0.340941 0.429903 0.546337
0.549365 0.573576 0.654888
0.758808 0.709980 0.729982
0.822705 0.769571 0.762182
0.069840 0.262137 0.342194
0.066613 0.259490 0.342358
0.078121 0.274084 0.361624
0.161249 0.333390 0.440872
0.373235 0.444998 0.571289
0.588778 0.583309 0.666296
0.767181 0.695594 0.727991
0.834614 0.709260 0.744019
0.119406 0.348627 0.428216
0.114383 0.344722 0.427855
0.127401 0.355385 0.443654
0.231421 0.430150 0.538403
0.475749 0.558936 0.645340
0.702154 0.652065 0.702666
0.801465 0.664588 0.716195
0.857664 0.647790 0.714062
0.342056 0.548313 0.605125
0.341322 0.544984 0.599858
0.365124 0.568643 0.619992
0.462712 0.643419 0.674244
0.644040 0.706291 0.722096
0.800632 0.721803 0.733513
0.823173 0.682086 0.711360
0.874750 0.659953 0.701319
0.583707 0.716747 0.714672
0.576858 0.710792 0.711282
0.599631 0.719690 0.718230
0.689227 0.754916 0.747066
0.795379 0.776654 0.763853
0.815617 0.766523 0.742162
0.829709 0.730252 0.703747
0.884154 0.712804 0.688082
0.732269 0.764339 0.749061
0.731678 0.764283 0.748079
0.739324 0.766510 0.749997
0.806929 0.783321 0.762677
0.852807 0.803371 0.773722
0.833555 0.802750 0.746318
0.849054 0.783183 0.702364
0.899277 0.775760 0.685152
0.806906 0.779422 0.757792
0.809372 0.781339 0.760698
0.814071 0.781916 0.761816
0.852798 0.800186 0.777356
0.878521 0.822491 0.784127
0.878716 0.833555 0.764906
0.878359 0.836423 0.729878
0.910309 0.843636 0.716818
0.078201 0.319490 0.409422
0.079560 0.320849 0.412140
0.080541 0.328181 0.423549
0.136555 0.398485 0.505200
0.339293 0.527847 0.605922
0.510502 0.660330 0.692098
0.667466 0.734299 0.740606
0.788320 0.767509 0.764628
0.073408 0.317094 0.405064
0.075306 0.319079 0.406085
0.084056 0.335442 0.425843
0.135033 0.398948 0.506200
0.338010 0.527077 0.604787
0.512903 0.661163 0.692986
0.668478 0.733080 0.737798
0.792826 0.769759 0.766594
0.084829 0.333743 0.426633
0.081006 0.330135 0.422178
0.093090 0.350843 0.445166
0.150086 0.414829 0.524232
0.368583 0.555458 0.629924
0.552339 0.680466 0.708465
0.710419 0.746362 0.749124
0.806025 0.754019 0.768196
0.155849 0.429721 0.533360
0.156438 0.432861 0.535187
0.173294 0.445170 0.548487
0.259852 0.533619 0.613216
0.485127 0.664814 0.704506
0.716850 0.744650 0.756957
0.802626 0.726617 0.763838
0.852529 0.702533 0.767039
0.392622 0.640307 0.680201
0.384029 0.633351 0.675347
0.410334 0.649087 0.684769
0.518208 0.712900 0.726946
0.712258 0.771244 0.773104
0.836157 0.772794 0.777103
0.841631 0.734727 0.770941
0.872649 0.706699 0.765968
0.626710 0.744679 0.746664
0.627514 0.744204 0.748733
0.647654 0.751653 0.752094
0.742679 0.775510 0.772033
0.830142 0.798032 0.782896
0.842152 0.792853 0.781189
0.846857 0.767149 0.771136
0.886335 0.746497 0.766060
0.761759 0.779617 0.771211
0.758405 0.778674 0.767932
0.772408 0.781457 0.772622
0.823344 0.793492 0.777041
0.864019 0.811359 0.784297
0.858575 0.819755 0.785999
0.867695 0.809226 0.773687
0.902611 0.797805 0.762068
0.817550 0.792051 0.774877
0.811253 0.785347 0.769463
0.820192 0.788971 0.773472
0.852898 0.805220 0.780529
0.877190 0.828079 0.791977
0.893358 0.840400 0.799081
0.894669 0.845209 0.784507
0.913911 0.847509 0.776965
0.087787 0.380286 0.499354
0.087535 0.380033 0.498825
0.092405 0.388863 0.504802
0.163556 0.451513 0.565410
0.346629 0.581717 0.654971
0.525829 0.694153 0.720645
0.667190 0.746107 0.753728
0.775239 0.772847 0.776757
0.088129 0.380375 0.499419
0.085935 0.376566 0.491484
0.098831 0.393506 0.512510
0.163648 0.455616 0.567599
0.349478 0.581378 0.654596
0.521900 0.693706 0.721971
0.666337 0.746077 0.754168
0.771434 0.769760 0.775959
0.101060 0.394290 0.514339
0.104183 0.394557 0.515413
0.114382 0.407455 0.530492
0.184618 0.475442 0.586865
0.380778 0.610897 0.679489
0.563809 0.708774 0.735574
0.703921 0.752110 0.765150
0.796289 0.772791 0.781069
0.183537 0.496994 0.592349
0.184492 0.497948 0.596760
0.203148 0.517129 0.610351
0.301126 0.605359 0.669663
0.534943 0.725751 0.746361
0.733050 0.769760 0.771406
0.813455 0.784317 0.781383
0.851029 0.782564 0.785266
0.424480 0.685243 0.717251
0.418271 0.678678 0.713481
0.447380 0.698540 0.724956
0.577765 0.746985 0.758949
0.760802 0.790477 0.783889
0.859757 0.811909 0.789849
0.864519 0.797952 0.797825
0.876607 0.779048 0.803826
0.673801 0.765934 0.768326
0.673985 0.765649 0.768685
0.693419 0.772928 0.774722
0.778451 0.789313 0.781644
0.849657 0.809439 0.788310
0.871292 0.824889 0.801132
0.875226 0.816211 0.809536
0.891116 0.800545 0.813466
0.793313 0.789887 0.779869
0.790487 0.789057 0.779093
0.800973 0.790557 0.779262
0.844257 0.804180 0.785254
0.868422 0.820782 0.792630
0.884819 0.835655 0.802244
0.891659 0.835449 0.808412
0.906669 0.828015 0.814112
0.818177 0.800217 0.782604
0.816950 0.800217 0.780059
0.825971 0.801075 0.783164
0.850079 0.810486 0.787050
0.869612 0.829264 0.799875
0.895633 0.845514 0.806841
0.910382 0.853032 0.810695
0.921014 0.854336 0.812692
