其他预设/【236】赛博朋克风调色预设/【后期菌】视频调色预设/CUBE/Tokyo 01.cube
# LUT by SparkleStock. Enhanced with VOXCOLOR algorithms.
LUT_3D_SIZE 32
0.070381 0.039101 0.070381
0.074417 0.041119 0.074417
0.077949 0.042885 0.078201
0.073913 0.040867 0.078201
0.070381 0.039101 0.078201
0.070381 0.039101 0.078201
0.071138 0.039101 0.078201
0.075174 0.039101 0.078201
0.081229 0.039605 0.076688
0.093337 0.041623 0.070633
0.108599 0.043641 0.065841
0.130798 0.045660 0.063822
0.165863 0.050705 0.064075
0.222369 0.060795 0.068111
0.290354 0.074417 0.073913
0.373096 0.092580 0.081985
0.444739 0.112761 0.091067
0.505282 0.134960 0.101157
0.549932 0.150348 0.108977
0.582222 0.160439 0.115032
0.609466 0.174313 0.126131
0.633683 0.190458 0.140258
0.657901 0.199666 0.147447
0.682118 0.205720 0.151484
0.698767 0.214802 0.158547
0.712894 0.224892 0.166619
0.723741 0.233343 0.173052
0.733832 0.241415 0.179106
0.738625 0.249488 0.185161
0.742661 0.257560 0.191215
0.748589 0.265632 0.195377
0.754643 0.273705 0.199413
0.074417 0.041119 0.074417
0.076370 0.041054 0.076370
0.078079 0.040932 0.078201
0.076126 0.039955 0.078201
0.074417 0.039231 0.078332
0.074417 0.040272 0.079373
0.074784 0.040923 0.080024
0.076737 0.039882 0.078983
0.080968 0.039345 0.076427
0.092035 0.040321 0.069331
0.106906 0.041949 0.064148
0.130147 0.045009 0.063171
0.166644 0.051095 0.064075
0.225234 0.062227 0.068111
0.294390 0.076436 0.074369
0.377132 0.094598 0.083483
0.449296 0.115300 0.093606
0.510880 0.138541 0.104738
0.555987 0.154385 0.112428
0.588276 0.164475 0.117440
0.614218 0.177699 0.128149
0.636352 0.192802 0.142276
0.658486 0.200968 0.148749
0.680620 0.205980 0.151744
0.697530 0.214802 0.158547
0.712698 0.224892 0.166619
0.723741 0.233343 0.173052
0.733832 0.241415 0.179106
0.738625 0.250399 0.186983
0.742661 0.259513 0.195121
0.747612 0.265697 0.197460
0.752625 0.271687 0.199413
0.078201 0.043011 0.078201
0.078201 0.041058 0.078266
0.078201 0.039227 0.078323
0.078201 0.039227 0.078258
0.078201 0.039471 0.078454
0.078201 0.041424 0.080472
0.078201 0.042632 0.081733
0.078201 0.040614 0.079715
0.080708 0.039117 0.076200
0.090733 0.039182 0.068192
0.105214 0.040488 0.062708
0.129496 0.044524 0.062773
0.167376 0.051563 0.064327
0.227919 0.063607 0.068363
0.298174 0.078327 0.074991
0.380916 0.096490 0.084951
0.453503 0.117648 0.095986
0.515934 0.141800 0.108094
0.561410 0.158042 0.115662
0.593700 0.168133 0.119699
0.618503 0.180746 0.130001
0.638814 0.194873 0.144062
0.659125 0.202152 0.149933
0.679436 0.206318 0.152082
0.696574 0.214928 0.158722
0.712654 0.225018 0.166859
0.723814 0.233416 0.173199
0.733840 0.241423 0.179123
0.738682 0.251253 0.188692
0.742783 0.261344 0.198783
0.746762 0.265759 0.199413
0.750733 0.269795 0.199413
0.078201 0.043011 0.078201
0.078201 0.042099 0.079308
0.078201 0.041245 0.080276
0.078201 0.041245 0.079170
0.078201 0.041359 0.078454
0.078201 0.042270 0.080472
0.078201 0.042632 0.081733
0.078201 0.040614 0.079715
0.080447 0.039377 0.076460
0.089431 0.040484 0.069494
0.103521 0.042506 0.065051
0.128845 0.046542 0.066158
0.167376 0.053191 0.068363
0.227919 0.064193 0.072399
0.298174 0.078327 0.078116
0.380916 0.096490 0.085993
0.452461 0.117127 0.095986
0.512809 0.140238 0.108094
0.557374 0.156024 0.115662
0.589664 0.166115 0.119699
0.615769 0.178728 0.129350
0.638163 0.192855 0.142370
0.660557 0.201566 0.149348
0.682952 0.207815 0.153579
0.699829 0.216946 0.161521
0.714867 0.227036 0.170700
0.724986 0.234588 0.175542
0.733970 0.241554 0.179383
0.739593 0.251253 0.188692
0.744736 0.261344 0.198783
0.747804 0.265759 0.199413
0.750733 0.269795 0.199413
0.078201 0.043011 0.078201
0.078201 0.042881 0.080089
0.078201 0.042758 0.081741
0.078201 0.042758 0.079853
0.078201 0.042775 0.078454
0.078201 0.042905 0.080472
0.078226 0.042657 0.081733
0.078356 0.040769 0.079715
0.080472 0.039857 0.076720
0.088544 0.041876 0.070796
0.102374 0.044524 0.067313
0.128870 0.048561 0.069201
0.168133 0.054965 0.071944
0.228676 0.065316 0.076110
0.298760 0.078913 0.081045
0.381112 0.096686 0.086970
0.451680 0.116736 0.096051
0.510465 0.139066 0.108290
0.554347 0.154657 0.116134
0.586636 0.165008 0.120561
0.613718 0.177475 0.129464
0.637675 0.191211 0.141051
0.661900 0.201232 0.149014
0.686248 0.209565 0.155329
0.703027 0.219216 0.164475
0.717284 0.229307 0.174566
0.726304 0.236118 0.178203
0.734116 0.242172 0.180351
0.740276 0.251530 0.189107
0.746201 0.261360 0.198807
0.748707 0.266003 0.199658
0.750985 0.270299 0.199918
0.078201 0.043011 0.078201
0.078201 0.041839 0.079048
0.078201 0.040740 0.079788
0.078201 0.040740 0.078942
0.078201 0.040887 0.078454
0.078201 0.042059 0.080472
0.078421 0.042852 0.081733
0.079593 0.042006 0.079715
0.082490 0.041876 0.076981
0.090562 0.043894 0.072098
0.105043 0.046542 0.069006
0.133622 0.050579 0.069852
0.174187 0.057764 0.072334
0.234730 0.070198 0.077542
0.303447 0.083601 0.082608
0.382674 0.098248 0.087490
0.452722 0.117257 0.096572
0.513590 0.140628 0.109852
0.558383 0.157847 0.119910
0.590673 0.170281 0.127462
0.616452 0.181576 0.134932
0.638326 0.192187 0.142353
0.662616 0.202664 0.150446
0.688005 0.213080 0.158844
0.705826 0.223252 0.168511
0.721125 0.233343 0.178602
0.728648 0.240154 0.183086
0.734377 0.246208 0.186275
0.739365 0.253744 0.192427
0.744248 0.261490 0.199003
0.748642 0.267956 0.201611
0.753004 0.274335 0.203954
0.077445 0.042632 0.078580
0.077445 0.041005 0.078775
0.077469 0.039479 0.078958
0.077860 0.039479 0.078958
0.078201 0.039707 0.079137
0.078201 0.041530 0.080569
0.078616 0.043011 0.081391
0.080830 0.043011 0.079568
0.084557 0.043564 0.077339
0.092824 0.045778 0.073888
0.107968 0.048561 0.071455
0.138240 0.052597 0.071260
0.179936 0.060417 0.073335
0.240675 0.074544 0.079194
0.308733 0.087958 0.084427
0.386202 0.100457 0.088853
0.455728 0.118620 0.097935
0.517313 0.142447 0.111671
0.562639 0.160817 0.123356
0.595319 0.174944 0.133447
0.620431 0.185531 0.139998
0.641003 0.193994 0.144424
0.664931 0.204695 0.152476
0.690385 0.216413 0.162176
0.708858 0.227203 0.172316
0.725002 0.237684 0.182601
0.731468 0.244727 0.187968
0.735699 0.250977 0.192200
0.739589 0.256885 0.196260
0.743430 0.262744 0.200296
0.749346 0.270495 0.203966
0.755400 0.278372 0.207612
0.073408 0.040614 0.080598
0.073408 0.041070 0.081835
0.073563 0.041497 0.082994
0.076037 0.041497 0.082994
0.078201 0.041595 0.082783
0.078201 0.042376 0.081090
0.078812 0.043011 0.079568
0.082067 0.043011 0.078787
0.086835 0.043825 0.078120
0.096145 0.047080 0.077794
0.112005 0.050579 0.077184
0.142276 0.054615 0.075947
0.184363 0.062435 0.076981
0.246143 0.076562 0.081798
0.316610 0.090888 0.087356
0.398245 0.105470 0.093866
0.467251 0.123633 0.102948
0.523628 0.145376 0.114600
0.567847 0.162835 0.125374
0.602610 0.176962 0.135465
0.629806 0.188851 0.143318
0.652461 0.199397 0.149828
0.674176 0.209317 0.157098
0.695463 0.218952 0.164715
0.712894 0.230784 0.175115
0.729039 0.243348 0.186442
0.736350 0.251628 0.192851
0.741623 0.258919 0.198124
0.744732 0.264046 0.202315
0.747531 0.268863 0.206351
0.753382 0.275572 0.208068
0.759436 0.282408 0.209630
0.068868 0.041119 0.085139
0.068868 0.042876 0.086896
0.069104 0.044524 0.088544
0.072879 0.044524 0.088544
0.076183 0.044524 0.088105
0.076183 0.044524 0.084589
0.077038 0.044524 0.081733
0.081595 0.044524 0.081733
0.088056 0.045468 0.081847
0.100230 0.049244 0.082303
0.118710 0.053345 0.082229
0.151065 0.058163 0.080993
0.195040 0.066374 0.081635
0.258382 0.080240 0.085411
0.330525 0.095445 0.091295
0.413983 0.112371 0.099888
0.481427 0.130924 0.109750
0.532856 0.151105 0.120883
0.575203 0.167588 0.130843
0.610487 0.181194 0.139892
0.639017 0.194026 0.148656
0.663495 0.206395 0.157249
0.683452 0.215990 0.164276
0.701355 0.224322 0.170590
0.717353 0.236415 0.180469
0.732717 0.249760 0.191536
0.740728 0.259033 0.198742
0.747043 0.267366 0.205057
0.749598 0.271939 0.209150
0.751616 0.275975 0.212926
0.757906 0.282880 0.214627
0.764481 0.289976 0.216189
0.062813 0.049191 0.097247
0.062813 0.049907 0.097963
0.062984 0.050579 0.098635
0.065718 0.050579 0.098635
0.068111 0.050579 0.098456
0.068111 0.050579 0.097023
0.069356 0.050579 0.095860
0.075996 0.050579 0.095860
0.086103 0.051262 0.094411
0.106609 0.053996 0.088617
0.133422 0.058358 0.085224
0.174110 0.066300 0.087112
0.224465 0.076073 0.089317
0.290932 0.088898 0.092051
0.362554 0.104884 0.098260
0.440804 0.124935 0.108937
0.503561 0.145051 0.121924
0.550823 0.165232 0.137223
0.589004 0.180543 0.146662
0.620122 0.192065 0.151545
0.647741 0.204768 0.160048
0.673260 0.218179 0.170725
0.692827 0.228814 0.179119
0.709688 0.238189 0.186475
0.723082 0.248198 0.193489
0.735321 0.258418 0.200390
0.743592 0.267952 0.207661
0.750949 0.277326 0.215017
0.753634 0.282029 0.218329
0.755652 0.286066 0.221063
0.763896 0.296876 0.228558
0.772554 0.308139 0.236370
0.058020 0.056002 0.107464
0.058346 0.056653 0.108115
0.058736 0.057243 0.108705
0.060104 0.056918 0.108379
0.061340 0.056633 0.108094
0.061666 0.056633 0.108094
0.063322 0.056816 0.108217
0.070743 0.057793 0.108868
0.082217 0.058785 0.107077
0.105849 0.059827 0.097963
0.140262 0.064103 0.092450
0.198396 0.075496 0.094859
0.260217 0.087523 0.097609
0.328181 0.100608 0.100929
0.398082 0.117680 0.108522
0.470474 0.139880 0.121607
0.527729 0.160744 0.136417
0.569849 0.180274 0.152952
0.603986 0.194677 0.162604
0.631913 0.205093 0.166900
0.658580 0.218032 0.175876
0.684490 0.232484 0.187659
0.702567 0.243043 0.195996
0.717085 0.251831 0.202766
0.728282 0.260083 0.207486
0.738372 0.268155 0.211522
0.747352 0.278925 0.219631
0.756075 0.290317 0.228680
0.759216 0.295273 0.231007
0.761560 0.299309 0.232374
0.770861 0.312195 0.242896
0.780626 0.325671 0.254028
0.056002 0.060038 0.113518
0.057369 0.062773 0.116252
0.058606 0.065251 0.118730
0.057890 0.063883 0.117363
0.057434 0.062687 0.116167
0.058802 0.062687 0.116167
0.060913 0.063456 0.116680
0.066251 0.067558 0.119414
0.074080 0.070113 0.119967
0.089378 0.068029 0.113978
0.129781 0.071459 0.108986
0.225413 0.087018 0.106186
0.309888 0.102821 0.107244
0.375769 0.119031 0.114731
0.441309 0.137861 0.126034
0.506409 0.160061 0.142243
0.556373 0.179883 0.156012
0.591202 0.197330 0.167340
0.621563 0.211408 0.178813
0.648449 0.222866 0.190401
0.674074 0.236846 0.201460
0.698942 0.252340 0.212202
0.713113 0.260359 0.217349
0.722423 0.264981 0.219953
0.732318 0.272191 0.223631
0.742408 0.280264 0.227667
0.753081 0.294419 0.238315
0.763887 0.309978 0.250489
0.768200 0.315454 0.251384
0.771585 0.319490 0.250668
0.779975 0.330423 0.258130
0.788699 0.341816 0.266137
0.057011 0.067859 0.122600
0.058639 0.071114 0.126245
0.060063 0.074088 0.129586
0.058435 0.072851 0.128349
0.057361 0.071769 0.127218
0.060161 0.071769 0.126827
0.063045 0.072611 0.127047
0.066300 0.077103 0.129911
0.071557 0.079658 0.130757
0.082819 0.076403 0.125549
0.126428 0.079719 0.120443
0.241200 0.097491 0.115561
0.341982 0.115996 0.115414
0.419451 0.135721 0.123161
0.487806 0.156016 0.134781
0.544443 0.177044 0.151382
0.588484 0.195434 0.163914
0.619927 0.211188 0.172377
0.647562 0.225331 0.184282
0.672235 0.238221 0.198864
0.694914 0.252657 0.209907
0.716397 0.268021 0.218825
0.727541 0.275015 0.222418
0.733986 0.278205 0.223590
0.742579 0.285350 0.226910
0.751889 0.293813 0.230946
0.763155 0.309839 0.243181
0.774873 0.327612 0.257308
0.780211 0.334732 0.259358
0.784638 0.340331 0.259684
0.791018 0.348309 0.262817
0.797528 0.356447 0.266137
0.063066 0.081985 0.136726
0.063652 0.083157 0.139330
0.064164 0.084309 0.141824
0.063578 0.085155 0.142671
0.063676 0.085895 0.143232
0.068558 0.085895 0.141800
0.072745 0.085956 0.140588
0.073917 0.086282 0.140327
0.078393 0.086233 0.138049
0.092780 0.085061 0.129716
0.134956 0.089484 0.123438
0.238270 0.106215 0.121680
0.344782 0.125631 0.121143
0.456624 0.149522 0.122640
0.539756 0.170794 0.128922
0.585977 0.188696 0.141357
0.626372 0.205004 0.152326
0.660940 0.219717 0.161830
0.687598 0.234576 0.171848
0.708105 0.249549 0.182264
0.724665 0.263464 0.189791
0.738856 0.276744 0.195585
0.748438 0.285236 0.200349
0.755925 0.291550 0.204646
0.763216 0.300257 0.208747
0.770442 0.309762 0.212783
0.780472 0.325138 0.225018
0.791148 0.341869 0.239145
0.797267 0.352504 0.246664
0.802736 0.362269 0.253239
0.805275 0.365626 0.249927
0.807618 0.368555 0.245956
0.074417 0.096995 0.150853
0.073962 0.096995 0.152871
0.073620 0.097121 0.154861
0.074987 0.099139 0.156423
0.076655 0.100848 0.157538
0.080431 0.100392 0.155520
0.083755 0.099644 0.153331
0.085122 0.097626 0.150401
0.090640 0.096340 0.146023
0.108607 0.097251 0.137300
0.149807 0.102638 0.131018
0.242119 0.117872 0.130106
0.348663 0.137402 0.128267
0.478928 0.164093 0.124882
0.572054 0.185372 0.125399
0.617429 0.199694 0.130932
0.657595 0.215286 0.139428
0.692554 0.232147 0.150886
0.716271 0.247323 0.159670
0.731244 0.261189 0.166375
0.743450 0.274527 0.171982
0.753996 0.287547 0.176930
0.762842 0.297792 0.182951
0.770914 0.306776 0.189461
0.778498 0.317957 0.195825
0.785920 0.329870 0.202140
0.794769 0.343740 0.213320
0.803948 0.358062 0.225624
0.809994 0.368853 0.234795
0.815593 0.379138 0.243519
0.816370 0.380208 0.238205
0.816826 0.380664 0.231955
0.092580 0.113140 0.164980
0.091083 0.113140 0.166998
0.089960 0.113266 0.168922
0.094452 0.115284 0.169443
0.098203 0.116863 0.169647
0.096771 0.115365 0.167628
0.096450 0.113770 0.165049
0.100942 0.111752 0.160036
0.109844 0.110987 0.154877
0.131978 0.113982 0.149278
0.172788 0.120150 0.144494
0.254683 0.133300 0.141499
0.353936 0.151919 0.137186
0.482118 0.179652 0.130676
0.579085 0.199694 0.124878
0.635917 0.209850 0.119996
0.680250 0.226483 0.124846
0.712084 0.249593 0.139428
0.730332 0.264575 0.147822
0.738014 0.273233 0.151402
0.748137 0.285919 0.157139
0.759725 0.301022 0.164170
0.768896 0.313351 0.171559
0.776968 0.324418 0.179110
0.786896 0.339244 0.189640
0.797442 0.355324 0.201163
0.805185 0.366590 0.209935
0.812281 0.376746 0.218073
0.817155 0.383370 0.223989
0.821712 0.389489 0.229587
0.823401 0.391275 0.227984
0.824898 0.392773 0.225901
0.118816 0.141393 0.188188
0.117839 0.141393 0.189685
0.117172 0.141487 0.191089
0.121143 0.142984 0.191089
0.124374 0.144172 0.190967
0.122421 0.143196 0.189990
0.122262 0.141926 0.187964
0.129879 0.139387 0.181389
0.144249 0.139013 0.175709
0.178883 0.145132 0.172714
0.229913 0.152798 0.167604
0.317017 0.163865 0.157839
0.412494 0.180400 0.149099
0.521927 0.206050 0.142069
0.608347 0.225376 0.135066
0.665180 0.236573 0.128101
0.707429 0.254508 0.132950
0.735097 0.279181 0.149616
0.749765 0.293967 0.158335
0.754322 0.301063 0.160874
0.763273 0.313164 0.167197
0.774861 0.328267 0.175790
0.784748 0.342385 0.185100
0.793862 0.356056 0.194734
0.804050 0.372315 0.206957
0.814596 0.389436 0.220042
0.821493 0.399629 0.227415
0.827547 0.408222 0.233469
0.830924 0.411916 0.235935
0.833919 0.414911 0.237888
0.837463 0.420896 0.241916
0.841043 0.427080 0.246082
0.153123 0.181755 0.220477
0.154230 0.181755 0.220933
0.155255 0.181784 0.221360
0.155060 0.182239 0.221360
0.155166 0.182776 0.221499
0.157379 0.183883 0.222605
0.161192 0.184111 0.222076
0.171933 0.180530 0.214460
0.193856 0.180416 0.208519
0.249321 0.190702 0.207608
0.321183 0.200581 0.200349
0.429119 0.209565 0.179127
0.524336 0.222845 0.164007
0.598354 0.243287 0.159060
0.659841 0.262418 0.155963
0.705216 0.279865 0.155247
0.739133 0.299362 0.163743
0.761593 0.320910 0.181450
0.774568 0.335501 0.191211
0.780166 0.344680 0.194791
0.788857 0.356260 0.202156
0.799404 0.369280 0.211791
0.810397 0.384896 0.223574
0.821594 0.401691 0.236333
0.829960 0.417169 0.247775
0.837381 0.432207 0.258777
0.843692 0.442855 0.265759
0.849746 0.452490 0.271813
0.851300 0.454492 0.270633
0.852212 0.455403 0.268419
0.858555 0.469070 0.279999
0.865260 0.483587 0.292498
0.194242 0.224387 0.257308
0.196846 0.225559 0.258480
0.199125 0.226621 0.259541
0.196521 0.226035 0.258956
0.194893 0.225628 0.258549
0.200101 0.226475 0.259395
0.208031 0.227614 0.259448
0.227756 0.230023 0.256063
0.260160 0.234270 0.252498
0.330598 0.244035 0.248397
0.412856 0.251807 0.235182
0.521117 0.255192 0.201916
0.608750 0.263899 0.180270
0.662002 0.281476 0.177992
0.706282 0.300192 0.178874
0.739027 0.320373 0.183822
0.764612 0.340554 0.194498
0.783035 0.360735 0.210904
0.796149 0.377547 0.222658
0.805132 0.391739 0.230796
0.814075 0.404263 0.239055
0.822994 0.415786 0.247388
0.832897 0.430262 0.258899
0.843248 0.446081 0.271854
0.849937 0.458874 0.281781
0.855406 0.470657 0.290700
0.860874 0.481541 0.299196
0.866343 0.492217 0.307593
0.867026 0.494577 0.307675
0.867026 0.495749 0.306568
0.873495 0.510103 0.319438
0.880396 0.525337 0.333239
0.240658 0.268786 0.297670
0.244304 0.272041 0.300925
0.247494 0.274991 0.303875
0.243848 0.273363 0.302247
0.241570 0.271784 0.300668
0.248861 0.270547 0.299431
0.261022 0.272142 0.299354
0.294289 0.286009 0.304302
0.339452 0.297808 0.305164
0.420306 0.303407 0.293772
0.504842 0.305710 0.271638
0.597480 0.300762 0.225873
0.671832 0.303870 0.197587
0.715709 0.320406 0.198433
0.748792 0.338536 0.203352
0.767997 0.358717 0.213508
0.785248 0.378898 0.225226
0.800547 0.399079 0.238506
0.815223 0.419993 0.252995
0.829415 0.441476 0.268424
0.839009 0.456082 0.277464
0.845844 0.466564 0.282672
0.852948 0.477850 0.291774
0.860174 0.489503 0.302646
0.865301 0.498129 0.310490
0.869728 0.505746 0.317326
0.874155 0.516695 0.328816
0.878581 0.528413 0.341380
0.879135 0.532725 0.346539
0.879135 0.535980 0.350641
0.883651 0.545583 0.359930
0.888468 0.555608 0.369565
0.321130 0.327058 0.339293
0.322562 0.328491 0.341376
0.323856 0.329992 0.343407
0.323075 0.332531 0.344643
0.323075 0.334419 0.345392
0.328543 0.331750 0.342723
0.339932 0.332376 0.341580
0.376974 0.347284 0.347048
0.422039 0.358172 0.347129
0.491175 0.357000 0.331050
0.565011 0.352451 0.304025
0.649185 0.340473 0.252922
0.714489 0.338553 0.221495
0.748341 0.353395 0.222862
0.775272 0.372852 0.230922
0.793304 0.398241 0.247587
0.809384 0.421677 0.262300
0.823511 0.443160 0.275060
0.837674 0.464716 0.289394
0.851866 0.486330 0.304953
0.860158 0.500334 0.314531
0.864910 0.509774 0.320520
0.870110 0.520108 0.330671
0.875514 0.530850 0.342715
0.878915 0.537099 0.349778
0.881649 0.541852 0.355182
0.884912 0.549936 0.365028
0.888298 0.558790 0.375900
0.889290 0.564567 0.383695
0.889941 0.569906 0.391052
0.892545 0.575366 0.396638
0.895280 0.580834 0.402106
0.422035 0.393656 0.381673
0.419301 0.390921 0.380632
0.417014 0.388972 0.380058
0.421441 0.398803 0.386503
0.425477 0.406940 0.391678
0.426779 0.403229 0.387967
0.434392 0.402033 0.385197
0.469351 0.411733 0.386499
0.506604 0.416632 0.382674
0.550742 0.407127 0.363470
0.606089 0.394897 0.333971
0.686097 0.376669 0.281826
0.744890 0.370061 0.249357
0.768326 0.382821 0.249683
0.792133 0.404751 0.260347
0.816415 0.438473 0.284304
0.835619 0.467117 0.303183
0.849746 0.490683 0.316984
0.862152 0.510807 0.329430
0.873219 0.528254 0.340823
0.879037 0.540045 0.350791
0.881706 0.548443 0.359905
0.885539 0.559168 0.373182
0.889901 0.570951 0.388350
0.891479 0.575899 0.395413
0.892130 0.578568 0.399775
0.894157 0.582031 0.405195
0.896500 0.585676 0.410858
0.898274 0.592626 0.419826
0.899967 0.600047 0.429265
0.900683 0.601731 0.431076
0.901334 0.603033 0.432378
0.500741 0.453316 0.425441
0.498853 0.451428 0.424139
0.497283 0.450101 0.423244
0.500472 0.457197 0.428452
0.503532 0.463170 0.432683
0.505680 0.461282 0.430079
0.512919 0.460993 0.427963
0.542214 0.467634 0.427963
0.572729 0.469408 0.422023
0.606907 0.456583 0.398261
0.652314 0.440564 0.365305
0.722427 0.417519 0.312118
0.773547 0.409267 0.279950
0.793012 0.425673 0.282815
0.814185 0.448600 0.294964
0.837556 0.479913 0.319051
0.855589 0.506246 0.338516
0.868283 0.527599 0.353359
0.878305 0.545217 0.366334
0.886247 0.559929 0.377857
0.890487 0.570939 0.388484
0.892505 0.579728 0.398575
0.895910 0.590306 0.411843
0.899946 0.601699 0.426556
0.900955 0.605524 0.433261
0.900955 0.606826 0.437297
0.902013 0.609291 0.441333
0.903315 0.612025 0.445369
0.905870 0.619431 0.454703
0.908605 0.627503 0.464794
0.908776 0.628679 0.465424
0.908776 0.629395 0.465424
0.569356 0.509822 0.469839
0.570593 0.511059 0.469578
0.571692 0.512207 0.469399
0.570715 0.512011 0.470441
0.570520 0.511995 0.471287
0.575793 0.513232 0.470767
0.584203 0.515092 0.470343
0.606207 0.519649 0.470343
0.630473 0.519600 0.463101
0.661526 0.505733 0.434132
0.700879 0.487697 0.397269
0.758492 0.460485 0.343040
0.801409 0.451973 0.311784
0.819833 0.474628 0.318815
0.838598 0.497881 0.331941
0.857802 0.521903 0.352903
0.872710 0.542507 0.371326
0.883321 0.559693 0.387211
0.890674 0.574316 0.401813
0.895491 0.586946 0.415419
0.898559 0.597825 0.426828
0.900577 0.607656 0.436919
0.903983 0.617844 0.448755
0.908019 0.628195 0.461384
0.909028 0.630978 0.467569
0.909028 0.631238 0.471605
0.909239 0.634355 0.475641
0.909500 0.638130 0.479677
0.912836 0.645666 0.489011
0.916612 0.653738 0.499101
0.916848 0.655891 0.499732
0.916848 0.657648 0.499732
0.615268 0.546653 0.499101
0.620411 0.548671 0.499883
0.625155 0.550534 0.500664
0.623918 0.550079 0.501445
0.623398 0.549737 0.502031
0.627889 0.550193 0.501250
0.634884 0.550880 0.499883
0.652721 0.552573 0.495977
0.673081 0.550506 0.486065
0.701009 0.537160 0.458137
0.736016 0.520865 0.423130
0.786599 0.498080 0.372547
0.825024 0.491456 0.343667
0.843187 0.511767 0.350958
0.859641 0.531879 0.363889
0.873898 0.551735 0.384070
0.884900 0.569344 0.401842
0.892647 0.584708 0.417206
0.898307 0.598240 0.432313
0.902343 0.610349 0.447221
0.905118 0.620708 0.458629
0.907136 0.630017 0.467939
0.910004 0.639864 0.478636
0.913259 0.649954 0.489963
0.914659 0.653649 0.496994
0.915440 0.655211 0.502592
0.915587 0.658783 0.506921
0.915587 0.662820 0.510958
0.918435 0.668337 0.518241
0.921690 0.674066 0.525988
0.921893 0.676316 0.527204
0.921893 0.678334 0.527985
0.653612 0.576924 0.523319
0.662921 0.578942 0.525141
0.671637 0.580936 0.526964
0.671441 0.582564 0.528787
0.671572 0.583784 0.530154
0.673980 0.582157 0.528331
0.678696 0.580566 0.525141
0.693409 0.579134 0.516027
0.710644 0.574983 0.502991
0.735447 0.562680 0.478188
0.766679 0.549379 0.446956
0.812053 0.533885 0.401582
0.847224 0.529865 0.375566
0.865386 0.544968 0.381816
0.879562 0.560784 0.394160
0.888611 0.577514 0.414341
0.895446 0.593041 0.431593
0.900068 0.607363 0.445915
0.904361 0.620440 0.461152
0.908397 0.632548 0.477102
0.911172 0.642256 0.488250
0.913190 0.650524 0.496518
0.915343 0.660045 0.506173
0.917556 0.670135 0.516459
0.919476 0.675392 0.524791
0.921299 0.679038 0.532473
0.921641 0.683001 0.537193
0.921641 0.687037 0.541229
0.923578 0.689820 0.545778
0.925791 0.692424 0.550400
0.925929 0.694479 0.552398
0.925929 0.696497 0.554221
0.701794 0.597358 0.536058
0.708500 0.599376 0.537230
0.714733 0.601288 0.538401
0.713887 0.601613 0.539573
0.713610 0.601752 0.540240
0.717321 0.600580 0.537376
0.722508 0.599250 0.533633
0.734096 0.597231 0.526081
0.748630 0.592902 0.514363
0.772000 0.581640 0.490146
0.799827 0.570276 0.461474
0.837454 0.558688 0.422999
0.866196 0.556426 0.402493
0.880128 0.569706 0.411932
0.891125 0.584610 0.426071
0.898351 0.601601 0.446252
0.903559 0.616314 0.462560
0.906749 0.628748 0.474994
0.910415 0.641475 0.489515
0.914451 0.654430 0.505660
0.917226 0.665391 0.517818
0.919244 0.675156 0.527583
0.920681 0.682818 0.535244
0.921853 0.689523 0.541949
0.923659 0.694861 0.549045
0.925677 0.699744 0.556271
0.926743 0.704626 0.562281
0.927589 0.709509 0.568010
0.928721 0.711144 0.570776
0.929892 0.712316 0.573120
0.929966 0.713488 0.573572
0.929966 0.714660 0.573897
0.752247 0.615520 0.546148
0.754786 0.617539 0.546278
0.757048 0.619321 0.546409
0.755160 0.617563 0.546539
0.754232 0.616009 0.546165
0.760026 0.615878 0.542259
0.766321 0.615394 0.538255
0.774784 0.613376 0.533828
0.786713 0.609307 0.524454
0.809042 0.599087 0.500236
0.833548 0.589415 0.473843
0.862843 0.580952 0.442660
0.884424 0.580253 0.428273
0.893148 0.592491 0.441878
0.900760 0.607265 0.458361
0.906945 0.625298 0.478542
0.911111 0.639489 0.493808
0.913259 0.649840 0.504159
0.916470 0.662242 0.517769
0.920506 0.676238 0.533914
0.923281 0.688892 0.547373
0.925299 0.700740 0.559221
