其他预设/【236】赛博朋克风调色预设/【后期菌】视频调色预设/CUBE/Tokyo 09.cube
# LUT by SparkleStock. Enhanced with VOXCOLOR algorithms.
LUT_3D_SIZE 5
DOMAIN_MIN 0.000000 0.000000 0.000000
DOMAIN_MAX 0.903226 0.903226 0.903226
0.086022 0.097752 0.109482
0.090814 0.102545 0.115788
0.320499 0.286444 0.297670
0.805096 0.663703 0.629773
0.858071 0.736480 0.681739
0.089932 0.101662 0.113392
0.102500 0.111789 0.124447
0.351528 0.313994 0.320084
0.797552 0.658800 0.619549
0.858323 0.739959 0.689612
0.106581 0.170025 0.193485
0.116114 0.180872 0.206277
0.683188 0.527029 0.482326
0.843818 0.700358 0.626335
0.873817 0.749472 0.681129
0.467947 0.510201 0.497714
0.500513 0.522358 0.510368
0.867925 0.725918 0.628732
0.892985 0.774320 0.693697
0.898054 0.782579 0.716267
0.846971 0.765617 0.712642
0.859365 0.767614 0.715469
0.890234 0.783002 0.719286
0.915115 0.805979 0.748748
0.926308 0.811150 0.759351
0.087535 0.099265 0.113392
0.093797 0.105572 0.120240
0.313147 0.286139 0.297564
0.792625 0.654015 0.619589
0.857387 0.737257 0.688424
0.088463 0.101662 0.115788
0.102483 0.115113 0.129030
0.351694 0.320145 0.327980
0.779997 0.647404 0.609417
0.846657 0.729453 0.679704
0.112688 0.183663 0.209268
0.122341 0.190456 0.219462
0.678602 0.532461 0.487908
0.834220 0.697955 0.624067
0.861008 0.741204 0.672568
0.488380 0.528726 0.515498
0.517376 0.551117 0.534834
0.861375 0.723797 0.626930
0.884118 0.763676 0.686618
0.891402 0.775939 0.712116
0.847602 0.765869 0.715290
0.853547 0.767208 0.717228
0.890588 0.782620 0.718370
0.913740 0.803607 0.747373
0.919897 0.805332 0.752631
0.059912 0.149970 0.203450
0.060795 0.151394 0.205557
0.244162 0.307121 0.349554
0.755367 0.690349 0.672581
0.843334 0.755148 0.726430
0.060453 0.153648 0.208300
0.067444 0.164526 0.219419
0.273624 0.335327 0.379106
0.749584 0.681327 0.660556
0.841120 0.752263 0.726073
0.133606 0.277029 0.322489
0.146451 0.290647 0.339810
0.449331 0.519306 0.551014
0.836141 0.750524 0.727836
0.855153 0.772823 0.747796
0.549615 0.636475 0.631808
0.546096 0.637390 0.631180
0.764396 0.745726 0.713415
0.879469 0.774196 0.716476
0.887922 0.776186 0.725005
0.813376 0.770324 0.743922
0.819653 0.776032 0.747591
0.882934 0.805998 0.766807
0.912390 0.806018 0.755593
0.917180 0.812804 0.755281
0.069120 0.266137 0.351528
0.069860 0.271670 0.356178
0.212910 0.396793 0.481634
0.571973 0.668142 0.692965
0.822469 0.774637 0.769812
0.070247 0.271561 0.355295
0.071112 0.278633 0.361031
0.226347 0.415235 0.501690
0.597646 0.679924 0.693887
0.825244 0.773823 0.766871
0.218366 0.453820 0.539276
0.227920 0.458477 0.541998
0.436487 0.638875 0.674302
0.827145 0.774915 0.765172
0.857098 0.791827 0.769624
0.635950 0.740842 0.731533
0.650435 0.744054 0.738429
0.799595 0.785318 0.772912
0.877345 0.812835 0.778018
0.890505 0.811214 0.768493
0.818250 0.782742 0.764388
0.817751 0.782770 0.763151
0.869821 0.812790 0.782639
0.903601 0.830921 0.782473
0.921801 0.829033 0.774136
0.087787 0.380286 0.499354
0.087588 0.382483 0.497494
0.263236 0.525210 0.618841
0.560723 0.711795 0.730019
0.775239 0.772847 0.776757
0.097259 0.388244 0.503687
0.101328 0.395970 0.513403
0.271455 0.537393 0.628190
0.578704 0.719805 0.736418
0.785106 0.774399 0.777762
0.299521 0.598432 0.665953
0.306060 0.601325 0.666872
0.507618 0.721049 0.745493
0.830812 0.792633 0.783041
0.864107 0.810600 0.786256
0.720746 0.776716 0.775487
0.724516 0.777637 0.776847
0.838143 0.805979 0.786176
0.878928 0.833215 0.804424
0.895754 0.841169 0.806453
0.832088 0.799420 0.780838
0.834346 0.799420 0.781045
0.868844 0.818944 0.789190
0.901761 0.846014 0.805987
0.922190 0.853367 0.809673
