其他预设/【236】赛博朋克风调色预设/【后期菌】视频调色预设/CUBE/Tokyo 03_S.cube
# LUT by SparkleStock. Enhanced with VOXCOLOR algorithms.
LUT_3D_SIZE 32
0.195503 0.039101 0.046921
0.197522 0.043137 0.048939
0.199413 0.046795 0.050831
0.199413 0.044777 0.050831
0.199413 0.043011 0.050831
0.199413 0.043011 0.050831
0.202441 0.043011 0.050831
0.218585 0.043011 0.050831
0.244821 0.044020 0.051840
0.301328 0.048056 0.055876
0.360357 0.050200 0.058651
0.424936 0.048182 0.058651
0.487245 0.049948 0.060921
0.545770 0.058020 0.066976
0.595466 0.063444 0.071264
0.633809 0.065462 0.073282
0.665090 0.067480 0.074291
0.689307 0.069498 0.074291
0.706713 0.072652 0.075426
0.718822 0.076688 0.077445
0.728408 0.084508 0.083247
0.736480 0.094598 0.091319
0.744553 0.097752 0.091067
0.752625 0.097752 0.087031
0.759184 0.103806 0.086022
0.765238 0.111878 0.086022
0.771293 0.119951 0.087661
0.777347 0.128023 0.089679
0.781635 0.132564 0.089932
0.785671 0.136600 0.089932
0.791600 0.138744 0.088040
0.797654 0.140762 0.086022
0.197522 0.043137 0.048939
0.198498 0.044048 0.049915
0.199413 0.044842 0.050831
0.199413 0.043865 0.050831
0.199544 0.043141 0.050961
0.200585 0.044183 0.052003
0.204263 0.044834 0.052849
0.219367 0.043792 0.052849
0.244040 0.043759 0.053337
0.297422 0.046754 0.055290
0.354954 0.048833 0.056958
0.421616 0.048898 0.058000
0.484836 0.051185 0.059750
0.542320 0.057174 0.062679
0.590518 0.062337 0.065666
0.626779 0.066439 0.068725
0.657018 0.069498 0.070255
0.681235 0.071516 0.070255
0.699813 0.074670 0.071390
0.714005 0.078706 0.073408
0.725023 0.085875 0.078559
0.734137 0.094924 0.085590
0.743251 0.097752 0.085729
0.752365 0.097752 0.082734
0.759184 0.104587 0.083548
0.765238 0.113701 0.085631
0.771293 0.121969 0.087661
0.777347 0.130041 0.089679
0.781635 0.134582 0.090843
0.785671 0.138618 0.091885
0.790623 0.138809 0.089081
0.795636 0.138744 0.086022
0.199413 0.046921 0.050957
0.199479 0.044968 0.050957
0.199536 0.043137 0.050953
0.199470 0.043137 0.050888
0.199674 0.043381 0.051083
0.201757 0.045334 0.053101
0.206086 0.046542 0.054741
0.220148 0.044524 0.054741
0.243307 0.043548 0.054741
0.293760 0.045696 0.054741
0.349868 0.047824 0.055372
0.418418 0.049907 0.057390
0.482403 0.052747 0.058651
0.538780 0.056849 0.058651
0.585530 0.061747 0.060388
0.619902 0.067671 0.064359
0.649165 0.071675 0.066345
0.673317 0.073758 0.066345
0.693002 0.076903 0.067480
0.709212 0.080875 0.069498
0.721678 0.087368 0.073998
0.731899 0.095376 0.079988
0.742030 0.097923 0.080516
0.752121 0.097988 0.078563
0.759233 0.105474 0.081151
0.765352 0.115434 0.085253
0.771419 0.123861 0.087661
0.777473 0.131933 0.089679
0.781704 0.136474 0.091697
0.785676 0.140510 0.093716
0.789708 0.138870 0.090058
0.793744 0.136852 0.086022
0.199413 0.046921 0.052975
0.200520 0.046009 0.052975
0.201489 0.045155 0.052906
0.200382 0.045155 0.051799
0.199804 0.045269 0.051083
0.202929 0.046180 0.053101
0.207909 0.046542 0.054741
0.220929 0.044524 0.054741
0.243307 0.044069 0.054741
0.293760 0.048300 0.054741
0.349542 0.052186 0.055372
0.417051 0.055311 0.057390
0.479604 0.059192 0.058651
0.533897 0.064335 0.058651
0.579931 0.068908 0.059933
0.615345 0.072749 0.062862
0.644608 0.076232 0.064327
0.667718 0.079357 0.064327
0.687533 0.082372 0.065462
0.704785 0.085301 0.067480
0.718944 0.090753 0.071329
0.731248 0.097719 0.076277
0.742030 0.100657 0.077196
0.752121 0.101763 0.076285
0.760014 0.107948 0.079914
0.767175 0.115825 0.085057
0.773437 0.123861 0.087661
0.779491 0.131933 0.089679
0.782811 0.136474 0.091697
0.785741 0.140510 0.093716
0.789708 0.138870 0.090058
0.793744 0.136852 0.086022
0.199413 0.046921 0.054489
0.201301 0.046791 0.054489
0.202953 0.046669 0.054371
0.201065 0.046669 0.052483
0.199951 0.046685 0.051083
0.204247 0.046815 0.053101
0.210009 0.046616 0.054717
0.222117 0.044988 0.054586
0.243844 0.045314 0.054554
0.294427 0.051498 0.054814
0.349892 0.057052 0.055543
0.416099 0.061218 0.057300
0.477154 0.066044 0.058399
0.529625 0.071968 0.058399
0.574804 0.076240 0.059339
0.610609 0.078389 0.061487
0.639742 0.081481 0.062431
0.662201 0.085517 0.062170
0.682317 0.088491 0.063338
0.700610 0.090640 0.065617
0.716218 0.095066 0.068912
0.730214 0.100860 0.072818
0.741705 0.104148 0.074129
0.752055 0.106296 0.074259
0.760795 0.111179 0.078734
0.768998 0.116972 0.084658
0.775455 0.124406 0.087409
0.781509 0.132218 0.089427
0.783918 0.136612 0.091559
0.785806 0.140518 0.093707
0.789830 0.139237 0.090302
0.793996 0.137609 0.086526
0.199413 0.046921 0.052471
0.200260 0.045749 0.052471
0.201000 0.044650 0.052418
0.200154 0.044650 0.051571
0.200211 0.044797 0.051083
0.206591 0.045969 0.053101
0.214045 0.047202 0.054521
0.226153 0.048699 0.053349
0.248141 0.051628 0.053056
0.299765 0.058854 0.055400
0.354970 0.065450 0.056910
0.418052 0.070658 0.056584
0.477154 0.075744 0.056381
0.529625 0.080626 0.056381
0.572982 0.084768 0.057776
0.604620 0.087958 0.060966
0.632711 0.091571 0.061389
0.657254 0.095607 0.059046
0.678867 0.099168 0.060474
0.698202 0.102358 0.064836
0.713549 0.105873 0.068261
0.726504 0.109584 0.071126
0.739101 0.112936 0.072827
0.751535 0.116126 0.073998
0.761576 0.119707 0.077953
0.770821 0.123417 0.082836
0.777473 0.128768 0.085391
0.783527 0.134497 0.087409
0.785025 0.137719 0.090452
0.785871 0.140583 0.093642
0.790806 0.142166 0.092255
0.796014 0.143663 0.090562
0.199035 0.046921 0.051209
0.199230 0.045098 0.051209
0.199413 0.043401 0.051221
0.199413 0.043597 0.051417
0.200398 0.043971 0.051791
0.208275 0.045598 0.053419
0.217349 0.047824 0.054436
0.231605 0.052641 0.052808
0.255220 0.058273 0.052548
0.306910 0.066345 0.056389
0.361183 0.073787 0.058399
0.421140 0.079841 0.056381
0.478070 0.085285 0.055046
0.529955 0.089712 0.054851
0.571501 0.094053 0.056336
0.599754 0.098285 0.059982
0.626998 0.102419 0.059982
0.653234 0.106455 0.056336
0.675954 0.110491 0.058147
0.695939 0.114527 0.064201
0.711246 0.117180 0.067610
0.723745 0.119003 0.069433
0.737363 0.122347 0.071659
0.751490 0.126384 0.074068
0.762736 0.128760 0.077550
0.773022 0.130582 0.081391
0.780028 0.134204 0.083751
0.786278 0.138240 0.085769
0.786888 0.140168 0.089724
0.786693 0.141796 0.093956
0.792173 0.145498 0.094037
0.798032 0.149339 0.093842
0.197017 0.046921 0.053227
0.198254 0.046140 0.053227
0.199413 0.045485 0.053305
0.199413 0.046721 0.054542
0.200268 0.047747 0.055567
0.207103 0.047291 0.055111
0.217479 0.048605 0.054826
0.243193 0.057589 0.055282
0.274360 0.066345 0.056324
0.321883 0.074417 0.059123
0.372315 0.081859 0.060417
0.429147 0.087913 0.058399
0.482952 0.094139 0.056674
0.531712 0.100649 0.055437
0.571501 0.106618 0.055425
0.599754 0.111891 0.056987
0.626998 0.116545 0.056987
0.653234 0.120581 0.055425
0.675368 0.124618 0.058147
0.694312 0.128654 0.064201
0.710530 0.130656 0.066959
0.725112 0.131437 0.067741
0.739381 0.134456 0.071073
0.753508 0.138492 0.075565
0.765535 0.140087 0.078787
0.776863 0.140868 0.081587
0.784911 0.144294 0.083751
0.792202 0.148330 0.085769
0.792031 0.148436 0.090635
0.790794 0.147980 0.095909
0.795233 0.150576 0.095079
0.800050 0.153376 0.093842
0.187936 0.048434 0.057264
0.189693 0.048434 0.057264
0.191374 0.048544 0.057373
0.191894 0.050302 0.059131
0.193042 0.051653 0.060449
0.198575 0.050155 0.058692
0.209162 0.051258 0.057496
0.241647 0.063627 0.058732
0.279389 0.074922 0.060165
0.332901 0.082994 0.062183
0.386556 0.090599 0.062939
0.440524 0.097174 0.060921
0.491074 0.104506 0.059099
0.535928 0.113099 0.057601
0.573291 0.120354 0.056531
0.601023 0.125887 0.056010
0.627877 0.131193 0.056141
0.653852 0.136271 0.056922
0.675433 0.140323 0.059937
0.693596 0.143578 0.064689
0.710497 0.145450 0.066959
0.726642 0.146491 0.067741
0.741578 0.149055 0.072147
0.755966 0.152310 0.078201
0.768448 0.153123 0.081033
0.780297 0.153123 0.082791
0.789289 0.156403 0.085183
0.797621 0.160439 0.087722
0.796897 0.158950 0.093109
0.794879 0.156671 0.098903
0.798537 0.159153 0.097862
0.802573 0.161953 0.096364
0.157664 0.054489 0.067354
0.158380 0.054489 0.067354
0.159214 0.054533 0.067399
0.161818 0.055250 0.068115
0.164528 0.055949 0.068652
0.167978 0.056535 0.067936
0.175506 0.059526 0.067000
0.200699 0.072936 0.065112
0.242087 0.085012 0.064201
0.332055 0.093085 0.066219
0.410122 0.101340 0.066976
0.462007 0.109999 0.064958
0.508911 0.119414 0.063916
0.547515 0.130090 0.064502
0.580452 0.137605 0.063692
0.606101 0.141055 0.061088
0.631393 0.147403 0.061739
0.656326 0.156647 0.065645
0.677451 0.160764 0.067098
0.695614 0.160895 0.066642
0.712515 0.164198 0.068912
0.728660 0.169406 0.072818
0.744313 0.171123 0.078201
0.759741 0.171254 0.084256
0.771703 0.171286 0.086306
0.782510 0.171286 0.087022
0.792153 0.174566 0.090912
0.801527 0.178602 0.095534
0.800933 0.176201 0.100270
0.798915 0.172881 0.105023
0.802573 0.178228 0.105869
0.806609 0.184152 0.106455
0.126762 0.065588 0.079337
0.127087 0.066239 0.079988
0.127604 0.066829 0.080557
0.130989 0.066504 0.079906
0.134204 0.066430 0.079337
0.136222 0.068123 0.079337
0.141401 0.072208 0.078824
0.160280 0.086660 0.076090
0.201000 0.099192 0.074137
0.307243 0.105962 0.074527
0.401952 0.113465 0.074063
0.471283 0.122579 0.071720
0.527237 0.133060 0.070890
0.560893 0.145820 0.072582
0.589993 0.154307 0.071626
0.613234 0.157302 0.067265
0.636475 0.164691 0.067785
0.659715 0.176474 0.073189
0.680100 0.181043 0.074015
0.698263 0.180001 0.071280
0.715368 0.184453 0.073836
0.731838 0.192200 0.079564
0.747637 0.193233 0.085517
0.763131 0.191215 0.091571
0.774572 0.190710 0.093573
0.784662 0.190710 0.094224
0.794753 0.193990 0.099794
0.804843 0.198026 0.106500
0.804624 0.194999 0.110015
0.802931 0.190963 0.113075
0.806914 0.198278 0.115768
0.811276 0.206351 0.118437
0.094472 0.087787 0.095481
0.095839 0.090522 0.098216
0.097202 0.092999 0.100608
0.098504 0.091632 0.097874
0.099896 0.090517 0.095481
0.101914 0.091168 0.095481
0.106312 0.094602 0.095750
0.121025 0.110096 0.097182
0.151589 0.122368 0.097052
0.229709 0.124972 0.092234
0.323962 0.128634 0.087865
0.453706 0.134623 0.084479
0.546637 0.143932 0.082608
0.578210 0.158775 0.083259
0.604771 0.169801 0.081261
0.624887 0.175921 0.075858
0.645003 0.184351 0.074816
0.665119 0.195092 0.078136
0.684136 0.200964 0.080394
0.702299 0.203047 0.081827
0.720055 0.208019 0.085293
0.737567 0.214724 0.089980
0.752259 0.215432 0.095607
0.765670 0.213414 0.101662
0.776590 0.212910 0.105226
0.786681 0.212910 0.107960
0.796771 0.216189 0.115614
0.806862 0.220225 0.124402
0.807553 0.217198 0.125444
0.806902 0.213162 0.125379
0.811927 0.220477 0.129830
0.817330 0.228550 0.134582
0.071264 0.117554 0.120708
0.073282 0.120809 0.123963
0.075174 0.123784 0.126860
0.075174 0.122547 0.124386
0.075426 0.121513 0.122270
0.077445 0.121904 0.122661
0.081355 0.124882 0.123295
0.093463 0.139074 0.124988
0.116997 0.149620 0.122872
0.174806 0.149230 0.109331
0.266528 0.150833 0.098517
0.432858 0.156822 0.093699
0.550510 0.165448 0.088784
0.587031 0.178468 0.083706
0.615691 0.189152 0.078543
0.634245 0.196834 0.073270
0.652603 0.205525 0.071447
0.670766 0.215225 0.073075
0.688709 0.221958 0.075618
0.706481 0.226385 0.078873
0.724498 0.231097 0.082128
0.742661 0.235979 0.085383
0.756661 0.236118 0.089757
0.768770 0.234100 0.094639
0.779658 0.233595 0.098887
0.790139 0.233595 0.102923
0.799985 0.236874 0.110609
0.809685 0.240911 0.119137
0.811581 0.238909 0.119121
0.812362 0.236044 0.117884
0.816989 0.242335 0.121285
0.821871 0.249235 0.124996
0.063192 0.159934 0.161070
0.065210 0.161106 0.162241
0.067102 0.162258 0.163446
0.067102 0.163104 0.165138
0.067354 0.164024 0.166798
0.069372 0.165456 0.168231
0.073282 0.168304 0.168540
0.085391 0.177288 0.163983
0.107102 0.183667 0.153534
0.157619 0.182235 0.125411
0.243352 0.184750 0.103920
0.406558 0.195947 0.097019
0.528506 0.204703 0.085724
0.581693 0.209390 0.067106
0.620183 0.214932 0.055237
0.639778 0.221572 0.052047
0.658657 0.229221 0.050745
0.676820 0.237879 0.051331
0.694178 0.244743 0.052247
0.710908 0.250212 0.053419
0.728534 0.253361 0.054590
0.746697 0.255119 0.055762
0.760698 0.254281 0.057337
0.772806 0.252262 0.059095
0.784475 0.251758 0.062561
0.795998 0.251758 0.066597
0.805193 0.255037 0.070898
0.813852 0.259074 0.075260
0.817440 0.259806 0.076545
0.820305 0.260066 0.077392
0.822132 0.263622 0.075064
0.823889 0.267398 0.072525
0.062183 0.207612 0.205846
0.063745 0.208068 0.206302
0.065210 0.208593 0.206924
0.065210 0.210155 0.210049
0.065405 0.211660 0.212922
0.066968 0.212767 0.214028
0.070251 0.214631 0.213329
0.080993 0.219774 0.204801
0.100653 0.223468 0.189665
0.147069 0.222817 0.154706
0.227297 0.226784 0.125586
0.381909 0.240911 0.109311
0.503882 0.249569 0.088446
0.571456 0.249113 0.059933
0.619691 0.250309 0.041815
0.643062 0.253630 0.037062
0.663829 0.259098 0.034686
0.681992 0.266715 0.034686
0.699019 0.272940 0.034686
0.715164 0.278083 0.034686
0.732285 0.280866 0.034686
0.749993 0.282233 0.034686
0.764164 0.281273 0.034686
0.776728 0.279255 0.034686
0.789293 0.279775 0.037713
0.801857 0.281142 0.041749
0.810772 0.283197 0.043776
0.818844 0.285411 0.045338
0.822986 0.287054 0.047299
0.826566 0.288617 0.049317
0.827217 0.290606 0.044622
0.827673 0.292624 0.039479
0.070255 0.262101 0.256299
0.070776 0.263598 0.257796
0.071264 0.265034 0.259265
0.071264 0.265555 0.260306
0.071329 0.265889 0.261096
0.071850 0.264912 0.260119
0.073701 0.264693 0.257532
0.081318 0.267752 0.247962
0.098635 0.270665 0.232826
0.145051 0.273139 0.200992
0.220396 0.279255 0.168161
0.359385 0.293381 0.133138
0.475889 0.301649 0.098602
0.554920 0.300152 0.064880
0.612790 0.298028 0.041098
0.643452 0.295098 0.030097
0.667865 0.296921 0.024596
0.686028 0.303496 0.024596
0.703056 0.308094 0.024596
0.719200 0.311154 0.024596
0.735671 0.315108 0.024596
0.752336 0.319600 0.024596
0.766898 0.319617 0.024596
0.780504 0.317598 0.024596
0.794110 0.320463 0.027623
0.807716 0.324955 0.031659
0.816826 0.324210 0.032839
0.824898 0.322257 0.033360
0.828129 0.322469 0.035191
0.830668 0.322990 0.037209
0.832230 0.324914 0.034466
0.833727 0.326932 0.031407
0.082364 0.316589 0.305742
0.082884 0.318087 0.307760
0.083340 0.319490 0.309620
0.082819 0.319490 0.309099
0.082429 0.319368 0.308521
0.082950 0.318392 0.307545
0.084508 0.317879 0.304762
0.090562 0.319377 0.294150
0.110353 0.322290 0.278494
0.171351 0.329451 0.247701
0.253955 0.336510 0.208589
0.384090 0.343346 0.151170
0.493694 0.346470 0.102443
0.569080 0.343411 0.068200
0.624899 0.339269 0.042986
0.655561 0.333735 0.029380
0.680234 0.333996 0.022577
0.698918 0.340050 0.022577
0.715587 0.344420 0.022870
0.730690 0.347479 0.023391
0.746445 0.352085 0.023912
0.762589 0.357619 0.024433
0.777705 0.359035 0.024954
0.792352 0.358579 0.025474
0.805437 0.362615 0.028632
0.818002 0.368149 0.032668
0.826916 0.366753 0.033848
0.834989 0.363758 0.034369
0.837764 0.362017 0.034833
0.839782 0.360455 0.035288
0.844241 0.366155 0.035378
0.848863 0.372339 0.035443
0.098508 0.371078 0.354177
0.100071 0.371534 0.356195
0.101438 0.371961 0.357989
0.099876 0.371961 0.356427
0.098704 0.372099 0.355198
0.100266 0.373206 0.356304
0.102671 0.374191 0.355019
0.108725 0.374646 0.343366
0.135807 0.378341 0.326668
0.225970 0.391751 0.294834
0.327974 0.398550 0.246867
0.456025 0.390803 0.163409
0.557297 0.384033 0.099969
0.613934 0.378890 0.069893
0.656017 0.374032 0.047478
0.679388 0.369540 0.034914
0.700936 0.370321 0.028632
0.720661 0.376376 0.028632
0.736615 0.381917 0.029511
0.749635 0.387060 0.031073
0.764608 0.391796 0.032635
0.780752 0.396288 0.034198
0.796584 0.399527 0.035760
0.812273 0.402196 0.037323
0.823275 0.406232 0.040740
0.832714 0.410724 0.044777
0.841043 0.410826 0.046803
0.849116 0.409914 0.048365
0.851890 0.405699 0.046225
0.853908 0.401012 0.043556
0.863250 0.414329 0.047356
0.873080 0.428846 0.051588
0.135087 0.423296 0.400341
0.139448 0.425640 0.402945
0.143265 0.427727 0.405223
0.138903 0.425970 0.402619
0.135485 0.424611 0.400446
0.138675 0.426043 0.401293
0.144489 0.427866 0.400479
0.161676 0.431381 0.392472
0.198539 0.437468 0.378101
0.294431 0.451269 0.344639
0.398257 0.453413 0.287783
0.519539 0.429912 0.179456
0.610866 0.413173 0.101597
0.652269 0.407705 0.074515
0.683875 0.403889 0.054753
0.702885 0.402196 0.044402
0.722187 0.404670 0.039227
0.741782 0.411310 0.039227
0.758155 0.418939 0.041021
0.772021 0.427337 0.044211
0.786213 0.433009 0.047035
0.800600 0.437045 0.049639
0.814987 0.439873 0.051437
0.829374 0.442151 0.052869
0.839025 0.444869 0.055815
0.847097 0.447733 0.059265
0.855646 0.449699 0.063456
0.864304 0.451456 0.067818
0.867665 0.449967 0.066882
0.870269 0.448014 0.065190
0.879586 0.461075 0.070760
0.889351 0.475136 0.076814
0.187557 0.473749 0.444739
0.196085 0.480259 0.448384
0.203547 0.486057 0.451574
0.195019 0.481174 0.447929
0.188216 0.476951 0.444584
0.193489 0.477342 0.443347
0.204707 0.479490 0.442208
0.241684 0.489255 0.441492
0.290265 0.498987 0.432069
0.373658 0.508622 0.396524
0.465636 0.502694 0.330749
0.576501 0.462527 0.198465
0.656631 0.435763 0.106414
0.685535 0.431336 0.081416
0.709199 0.429929 0.064193
0.726125 0.432402 0.056967
0.743865 0.437480 0.053354
0.762419 0.445162 0.053354
0.780093 0.455590 0.056320
0.797084 0.468154 0.061593
0.810495 0.475389 0.065849
0.821757 0.479425 0.069494
0.833020 0.480104 0.070902
0.844282 0.479258 0.071293
0.853152 0.479632 0.073197
0.861224 0.480414 0.075606
0.870619 0.484527 0.082986
0.880319 0.489410 0.091514
0.884721 0.494691 0.094745
0.888367 0.500029 0.097219
0.893843 0.506710 0.103049
0.899442 0.513480 0.109104
0.256425 0.522940 0.471479
0.263260 0.528409 0.474213
0.269445 0.533360 0.476687
0.265864 0.530561 0.475254
0.263325 0.528112 0.473668
0.268078 0.528112 0.470998
0.279043 0.529649 0.468842
0.316931 0.537852 0.468907
0.362420 0.545371 0.460525
0.430710 0.550840 0.426804
0.510270 0.540297 0.361305
0.614625 0.494532 0.225897
0.689173 0.463927 0.131209
0.714041 0.458589 0.104388
0.735662 0.459061 0.088646
0.753109 0.467003 0.087149
0.770263 0.475010 0.086074
0.787124 0.483083 0.085423
0.803619 0.493096 0.087812
0.819829 0.504619 0.092564
0.831807 0.511462 0.096869
0.841247 0.515498 0.100905
0.850686 0.517610 0.105747
0.860126 0.518847 0.110955
0.868051 0.519156 0.111817
0.875473 0.519156 0.111231
0.883476 0.523546 0.117204
0.891614 0.528950 0.124691
0.896732 0.536119 0.131437
0.901419 0.543540 0.138077
0.904886 0.546567 0.142337
0.908271 0.549302 0.146438
0.335131 0.571375 0.487623
0.336758 0.572677 0.488274
0.338711 0.574048 0.489056
0.345547 0.576456 0.491790
0.351861 0.578564 0.493718
0.354531 0.578564 0.490008
0.361850 0.578930 0.486419
0.389322 0.580883 0.483359
0.422833 0.582673 0.473676
0.474457 0.583975 0.444120
0.541258 0.570894 0.384415
0.641447 0.526171 0.258382
0.713781 0.495435 0.167991
0.739691 0.488014 0.137003
0.762809 0.490048 0.122107
0.782339 0.504240 0.127901
0.799493 0.515372 0.129952
0.814271 0.523445 0.128259
0.828096 0.531114 0.129020
0.841181 0.538471 0.131689
0.851337 0.543752 0.135213
0.859735 0.547788 0.139249
0.868133 0.553480 0.149820
0.876531 0.559925 0.163360
0.883415 0.561536 0.163181
0.889795 0.561536 0.158429
0.895064 0.565080 0.160235
0.900077 0.569442 0.163556
0.905716 0.575569 0.173426
0.911445 0.581949 0.184233
0.914000 0.582958 0.185824
0.916343 0.583609 0.186800
0.402737 0.608709 0.510705
0.402737 0.608709 0.510705
0.403144 0.608872 0.510868
0.409654 0.611476 0.513472
0.415692 0.613755 0.515336
0.418426 0.613755 0.512016
0.425054 0.614292 0.508695
0.448555 0.617156 0.505375
0.475816 0.618230 0.495106
0.514355 0.613934 0.463988
0.570858 0.597105 0.405243
0.666880 0.552707 0.285720
0.735927 0.523542 0.201057
0.760014 0.519766 0.174496
0.781765 0.523453 0.162148
0.800514 0.536733 0.168072
0.816594 0.548484 0.172889
0.830005 0.558704 0.176600
0.842280 0.566582 0.180164
0.853673 0.572636 0.183615
0.862990 0.577429 0.186536
0.871062 0.581465 0.189140
0.878642 0.587784 0.199084
0.885999 0.595140 0.212364
0.891841 0.596979 0.212218
0.897180 0.596979 0.207596
0.901460 0.600259 0.208369
0.905496 0.604295 0.210387
0.910672 0.609470 0.218728
0.916010 0.614808 0.227972
0.918235 0.615813 0.228550
0.920254 0.616529 0.228550
0.465298 0.640999 0.536941
0.465298 0.640999 0.536941
0.465380 0.641032 0.536973
0.466682 0.641552 0.537494
0.468293 0.642008 0.537665
0.472069 0.642008 0.535386
0.479348 0.643326 0.533108
0.501807 0.650357 0.530829
0.525422 0.652994 0.520300
0.552504 0.642447 0.485015
0.599827 0.621322 0.425034
0.691683 0.576924 0.310718
0.756954 0.550103 0.232435
0.777916 0.552577 0.214207
0.796999 0.557956 0.205179
0.813664 0.567070 0.207978
0.828182 0.578300 0.215400
0.840551 0.591645 0.227443
0.851785 0.600889 0.235825
0.862136 0.606944 0.241358
0.871062 0.611737 0.243759
0.879135 0.615773 0.244280
0.885999 0.621375 0.250708
0.892313 0.627690 0.259822
0.897115 0.629269 0.260197
0.901411 0.629269 0.257658
0.905496 0.632548 0.258821
0.909532 0.636584 0.260839
0.913796 0.640848 0.265535
0.918093 0.645145 0.270613
0.920254 0.647061 0.270930
0.922272 0.648819 0.270930
0.497588 0.661180 0.548040
0.499150 0.662742 0.549603
0.500615 0.664207 0.551067
0.500615 0.664207 0.551067
0.501119 0.664207 0.550815
0.505156 0.664207 0.548797
0.512011 0.665135 0.546339
0.531086 0.670082 0.541978
0.551446 0.671352 0.530406
0.575663 0.661587 0.497205
0.619471 0.642464 0.441504
0.706380 0.602753 0.336303
0.768265 0.579447 0.265083
0.788446 0.583483 0.250501
0.806178 0.589627 0.244548
0.820760 0.598481 0.249691
0.834106 0.608799 0.257373
0.846214 0.620582 0.267594
0.856309 0.628264 0.274152
0.864837 0.632756 0.277863
0.873569 0.636963 0.279743
0.882422 0.640999 0.280524
0.889351 0.646960 0.285781
0.895406 0.653795 0.293072
0.899946 0.656676 0.296311
0.903983 0.658238 0.298199
0.908019 0.661176 0.299558
0.912055 0.664431 0.300795
0.915408 0.667002 0.303114
0.918663 0.669476 0.305588
0.921490 0.671523 0.306474
0.924290 0.673541 0.307256
0.519787 0.677325 0.554095
0.523432 0.680970 0.557740
0.526850 0.684388 0.561158
0.526850 0.684388 0.561158
0.527355 0.684388 0.560906
0.531391 0.684388 0.558888
0.537466 0.684535 0.555844
0.552373 0.685316 0.548358
0.569609 0.684242 0.535484
0.593826 0.677601 0.506449
0.636007 0.662580 0.456868
0.717707 0.629118 0.362082
0.776338 0.609718 0.298154
0.796519 0.613755 0.285655
0.813339 0.620354 0.282697
0.825838 0.630249 0.292006
0.838142 0.639526 0.299167
0.850251 0.648184 0.304180
0.859173 0.653327 0.306702
0.865618 0.655736 0.307288
0.874220 0.659162 0.308647
0.884115 0.663198 0.310470
0.891369 0.669875 0.315336
0.897424 0.677752 0.321586
0.901964 0.682455 0.328470
0.906001 0.686101 0.335566
0.910037 0.688583 0.337055
0.914073 0.690796 0.337251
0.916514 0.691415 0.337617
0.918728 0.691805 0.338007
0.922467 0.693722 0.339741
0.926308 0.695740 0.341563
0.545265 0.695109 0.551950
0.548455 0.698299 0.554294
0.551393 0.701237 0.556438
0.550547 0.700390 0.555592
0.550311 0.699650 0.554705
0.554347 0.699650 0.553533
0.559958 0.699491 0.550591
0.572392 0.698645 0.539980
0.588618 0.696497 0.525170
0.616220 0.690442 0.497763
0.657514 0.678305 0.454142
0.728929 0.652786 0.374850
0.781131 0.638668 0.322339
0.801312 0.643550 0.314461
0.817221 0.649971 0.313334
0.827637 0.658368 0.320886
0.838053 0.665757 0.326257
0.848469 0.672137 0.329447
0.857383 0.677492 0.331318
0.865130 0.682049 0.332165
0.874342 0.686809 0.335330
0.884432 0.691692 0.339887
0.891748 0.697022 0.343728
0.897802 0.702555 0.347243
0.902978 0.706966 0.354811
0.907860 0.711002 0.363730
0.911367 0.714774 0.369528
0.914557 0.718484 0.374606
0.916722 0.718948 0.375240
0.918740 0.718948 0.375240
0.921857 0.719253 0.374752
0.925047 0.719579 0.374231
0.571501 0.713272 0.547914
0.573649 0.715420 0.548175
0.575545 0.717316 0.548301
0.573657 0.715429 0.546413
0.572510 0.713777 0.544745
0.576546 0.713777 0.544614
0.581766 0.713423 0.541933
0.592117 0.711535 0.528197
0.607822 0.708605 0.511303
0.639591 0.702551 0.484938
0.680169 0.693018 0.447241
0.740126 0.675832 0.384615
0.785167 0.667312 0.344473
0.805348 0.673236 0.341803
0.820345 0.679331 0.342239
0.828678 0.685645 0.346666
0.837011 0.690951 0.349953
0.845344 0.695248 0.352101
0.854519 0.701448 0.354103
0.864349 0.709130 0.355991
0.874342 0.715713 0.361500
0.884432 0.721638 0.369182
