其他预设/【236】赛博朋克风调色预设/【后期菌】视频调色预设/CUBE/Tokyo 06_S.cube
# LUT by SparkleStock. Enhanced with VOXCOLOR algorithms.
LUT_3D_SIZE 32
0.097752 0.039101 0.066471
0.101788 0.041119 0.068489
0.105320 0.043011 0.070381
0.101283 0.043011 0.070381
0.097752 0.043011 0.070381
0.097752 0.043011 0.070381
0.099265 0.043011 0.070381
0.107338 0.043011 0.070381
0.122473 0.043011 0.069372
0.158799 0.043011 0.065336
0.199540 0.043011 0.061300
0.249992 0.043011 0.057264
0.311040 0.046038 0.054741
0.389746 0.054110 0.054741
0.467569 0.062183 0.053858
0.544256 0.070255 0.051840
0.604799 0.082364 0.047804
0.649197 0.098508 0.041749
0.684514 0.116924 0.034560
0.712768 0.137105 0.026488
0.738498 0.156024 0.020938
0.762716 0.174187 0.016902
0.778608 0.186800 0.014253
0.790717 0.196891 0.012235
0.801312 0.206981 0.010217
0.811402 0.217072 0.008199
0.823132 0.227162 0.009460
0.835241 0.237253 0.011478
0.842052 0.247343 0.011730
0.848106 0.257434 0.011730
0.857945 0.267524 0.011730
0.868035 0.277615 0.011730
0.101788 0.041119 0.068489
0.101658 0.042095 0.069466
0.101414 0.043011 0.070381
0.099461 0.043011 0.070381
0.098012 0.043141 0.070511
0.100095 0.044183 0.071553
0.102911 0.044834 0.072204
0.108900 0.043792 0.071162
0.121953 0.042750 0.069112
0.156195 0.041709 0.064034
0.196805 0.041318 0.059282
0.251424 0.042360 0.055245
0.315857 0.045647 0.051942
0.396646 0.052678 0.049858
0.473362 0.061076 0.048259
0.544842 0.071232 0.047283
0.602781 0.083861 0.044288
0.647179 0.098964 0.039276
0.683082 0.116338 0.032542
0.712377 0.135477 0.024469
0.737847 0.152704 0.019571
0.761023 0.168784 0.016576
0.776590 0.182178 0.014253
0.788699 0.194352 0.012235
0.800856 0.205744 0.010998
0.813030 0.216877 0.010021
0.824304 0.228009 0.010632
0.835371 0.239141 0.011608
0.842964 0.249361 0.011730
0.850059 0.259452 0.011730
0.858010 0.265636 0.010754
0.866017 0.271561 0.009712
0.105572 0.043011 0.070381
0.101666 0.043076 0.070381
0.098004 0.043133 0.070381
0.098004 0.043068 0.070381
0.098492 0.043263 0.070633
0.102398 0.045281 0.072652
0.106341 0.046542 0.073913
0.110442 0.044524 0.071895
0.121623 0.042539 0.068868
0.154043 0.040651 0.062813
0.194559 0.040024 0.057410
0.252889 0.042173 0.053439
0.320325 0.045810 0.049468
0.402936 0.051929 0.045497
0.478570 0.060612 0.043235
0.545233 0.072591 0.043169
0.600665 0.085578 0.041054
0.644868 0.099575 0.036887
0.681235 0.115915 0.030560
0.711506 0.134078 0.022553
0.736855 0.149718 0.018289
0.759249 0.163844 0.016271
0.774661 0.177926 0.014253
0.786900 0.191988 0.012235
0.800506 0.204536 0.011730
0.814568 0.216580 0.011730
0.825403 0.228676 0.011730
0.835493 0.240785 0.011730
0.843818 0.251184 0.011787
0.851890 0.261340 0.011852
0.858071 0.263867 0.009903
0.864125 0.265885 0.007820
0.105572 0.043011 0.070381
0.103749 0.044117 0.070381
0.102040 0.045086 0.070381
0.102040 0.043979 0.070381
0.102268 0.043263 0.070633
0.104091 0.045281 0.072652
0.106536 0.046542 0.073913
0.111679 0.044524 0.071895
0.124162 0.043060 0.068868
0.158665 0.043255 0.062813
0.199637 0.044711 0.057736
0.254842 0.048943 0.054806
0.319543 0.054273 0.051877
0.400072 0.061434 0.048947
0.474990 0.069791 0.046815
0.542694 0.079686 0.045708
0.597085 0.090591 0.042030
0.638163 0.102504 0.035781
0.673162 0.117933 0.029128
0.703434 0.136096 0.022162
0.730735 0.151736 0.018289
0.756254 0.165863 0.016271
0.774076 0.179228 0.014253
0.788398 0.192248 0.012235
0.801743 0.203755 0.011730
0.814763 0.214757 0.011730
0.825403 0.226658 0.011730
0.835493 0.238766 0.011730
0.843818 0.250078 0.012699
0.851890 0.261275 0.013805
0.858071 0.263867 0.010945
0.864125 0.265885 0.007820
0.105572 0.043011 0.070381
0.105442 0.044899 0.070381
0.105320 0.046551 0.070381
0.105320 0.044663 0.070381
0.105352 0.043263 0.070617
0.105613 0.045281 0.072505
0.106984 0.046616 0.073661
0.113168 0.044988 0.071643
0.126921 0.044305 0.068648
0.163377 0.046453 0.062724
0.204837 0.049822 0.057980
0.257308 0.055876 0.055831
0.319617 0.062736 0.053732
0.398322 0.070939 0.051714
0.472329 0.079084 0.049639
0.540293 0.087157 0.047490
0.593643 0.096433 0.042380
0.632377 0.106915 0.034308
0.666351 0.121570 0.027444
0.696623 0.139473 0.021520
0.725470 0.154771 0.018037
0.753463 0.168507 0.016019
0.773400 0.181124 0.014090
0.789675 0.193233 0.012202
0.803021 0.203828 0.011828
0.815390 0.213919 0.011958
0.825907 0.225331 0.011877
0.835998 0.237049 0.011746
0.844095 0.249109 0.013382
0.851907 0.261218 0.015270
0.858193 0.264355 0.011970
0.864377 0.266894 0.008325
0.105572 0.043011 0.070381
0.104400 0.043857 0.070381
0.103301 0.044598 0.070381
0.103301 0.043751 0.070381
0.103594 0.043263 0.070487
0.105938 0.045281 0.071333
0.109197 0.047202 0.071643
0.116423 0.048699 0.069624
0.131217 0.050619 0.066890
0.168715 0.053809 0.062008
0.210891 0.057894 0.057654
0.263362 0.063949 0.054464
0.325671 0.071199 0.051714
0.404377 0.080443 0.049696
0.476105 0.089175 0.047165
0.538861 0.097247 0.043975
0.591169 0.108086 0.038344
0.633028 0.121692 0.030271
0.668369 0.136543 0.023993
0.698641 0.152362 0.019111
0.726186 0.164927 0.016019
0.752096 0.175538 0.014001
0.772098 0.187179 0.012788
0.789415 0.199287 0.011942
0.804583 0.209882 0.012609
0.819035 0.219973 0.013781
0.829944 0.228847 0.013048
0.840034 0.237440 0.011877
0.846308 0.249109 0.012471
0.852037 0.261218 0.013317
0.859169 0.268261 0.012882
0.866395 0.274966 0.012361
0.104437 0.043389 0.070760
0.102809 0.043389 0.070760
0.101296 0.043401 0.070772
0.101491 0.043597 0.070967
0.102142 0.043971 0.071114
0.105983 0.045598 0.070918
0.110873 0.047751 0.070345
0.120313 0.052178 0.068131
0.136881 0.056604 0.065511
0.174834 0.061031 0.061670
0.217385 0.066089 0.057768
0.270051 0.072534 0.053732
0.332482 0.080346 0.050452
0.411188 0.090436 0.048434
0.480808 0.099815 0.045448
0.538747 0.108278 0.041216
0.589721 0.120484 0.035260
0.633728 0.136433 0.027578
0.670119 0.151357 0.021727
0.700586 0.165484 0.017300
0.727147 0.175949 0.014379
0.751364 0.184217 0.012361
0.771284 0.194588 0.011864
0.789252 0.205915 0.012060
0.806145 0.216608 0.013329
0.822681 0.227089 0.014957
0.833980 0.233973 0.013940
0.844070 0.240028 0.012312
0.849034 0.250867 0.012109
0.853266 0.262390 0.012109
0.860732 0.272387 0.013817
0.868414 0.282282 0.015640
0.098382 0.045407 0.072778
0.098838 0.045407 0.072778
0.099343 0.045485 0.072855
0.100579 0.046721 0.074092
0.102012 0.047747 0.075020
0.104811 0.047291 0.073783
0.110222 0.048141 0.072167
0.126953 0.054651 0.068912
0.148469 0.061161 0.065771
0.184339 0.067671 0.062972
0.225783 0.074812 0.059786
0.279491 0.083340 0.055750
0.342572 0.092454 0.052471
0.421278 0.102545 0.050452
0.489532 0.112835 0.047010
0.544346 0.123381 0.041737
0.592715 0.136108 0.036301
0.634640 0.151016 0.030703
0.670705 0.165484 0.024592
0.702213 0.179611 0.018082
0.729165 0.190727 0.014379
0.753382 0.200036 0.012361
0.772586 0.207868 0.012581
0.789512 0.215029 0.013817
0.807708 0.226243 0.013785
0.826326 0.238807 0.013329
0.838016 0.246082 0.013614
0.848106 0.252136 0.014070
0.853982 0.260241 0.014127
0.859255 0.268639 0.014127
0.864833 0.277464 0.014859
0.870432 0.286318 0.015640
0.091824 0.049443 0.077318
0.093581 0.049443 0.077318
0.095355 0.049553 0.077428
0.097373 0.051311 0.079186
0.099391 0.052662 0.080504
0.101410 0.051165 0.078747
0.107016 0.051559 0.076513
0.128174 0.060152 0.072216
0.153921 0.068485 0.068229
0.193436 0.076037 0.065169
0.238120 0.084545 0.061886
0.294171 0.095156 0.058110
0.357545 0.105669 0.054896
0.433127 0.116020 0.052617
0.498483 0.127026 0.048573
0.550693 0.138875 0.042258
0.596979 0.152383 0.037213
0.637341 0.167551 0.033437
0.673016 0.181694 0.026951
0.705045 0.195040 0.018358
0.731866 0.206513 0.014525
0.755563 0.216864 0.013549
0.774425 0.223232 0.014273
0.791091 0.227789 0.015770
0.809807 0.238547 0.014827
0.829207 0.251371 0.013069
0.841678 0.259118 0.014167
0.852550 0.265693 0.015925
0.858978 0.271129 0.016145
0.864772 0.276402 0.016145
0.869162 0.284544 0.016145
0.873459 0.292877 0.016145
0.083751 0.059534 0.089427
0.084467 0.059534 0.089427
0.085265 0.059579 0.089472
0.087283 0.060295 0.090188
0.089301 0.060995 0.090725
0.091319 0.061581 0.090009
0.096145 0.064058 0.088426
0.113136 0.074735 0.083088
0.140966 0.084109 0.077278
0.201314 0.089578 0.070052
0.262272 0.097304 0.064229
0.324572 0.109999 0.061495
0.387166 0.122205 0.058541
0.450248 0.133597 0.055221
0.508118 0.144734 0.050135
0.559286 0.155540 0.042779
0.605052 0.170611 0.037734
0.645414 0.189946 0.034999
0.680502 0.204154 0.027798
0.711490 0.214374 0.017121
0.736619 0.225327 0.015111
0.758232 0.236720 0.018301
0.777876 0.244845 0.018895
0.796625 0.251485 0.018309
0.813518 0.258858 0.017626
0.829793 0.266475 0.016910
0.844217 0.274938 0.017357
0.858213 0.283596 0.018073
0.864121 0.286558 0.018163
0.868873 0.288706 0.018163
0.874175 0.297629 0.018163
0.879513 0.307003 0.018163
0.078201 0.072778 0.100905
0.078527 0.073103 0.101556
0.078917 0.073388 0.102126
0.080285 0.073063 0.101475
0.081774 0.072989 0.100946
0.084117 0.074682 0.101271
0.088609 0.078389 0.100523
0.102410 0.090823 0.095119
0.129476 0.101157 0.088544
0.196333 0.105193 0.078454
0.267382 0.112078 0.070275
0.347650 0.125228 0.066304
0.418007 0.138476 0.062431
0.471845 0.151886 0.058720
0.523489 0.164129 0.053244
0.572314 0.174871 0.045497
0.616094 0.191016 0.040126
0.654829 0.212564 0.037131
0.688437 0.226715 0.029926
0.718057 0.235113 0.019445
0.741981 0.245830 0.018688
0.762488 0.257938 0.023766
0.782547 0.266825 0.024189
0.802402 0.274246 0.022496
0.818449 0.279373 0.021829
0.833227 0.283734 0.021503
0.848322 0.291957 0.020913
0.863490 0.301071 0.020262
0.869203 0.302780 0.020181
0.873565 0.303431 0.020181
0.879818 0.312016 0.020791
0.886198 0.321130 0.021442
0.078201 0.092959 0.110995
0.079568 0.094326 0.113730
0.080805 0.095522 0.116122
0.080089 0.094155 0.113388
0.079886 0.093040 0.111166
0.083271 0.093691 0.112533
0.088414 0.096747 0.113022
0.101174 0.110222 0.109702
0.121208 0.121338 0.104689
0.163067 0.125374 0.094598
0.230600 0.131282 0.084467
0.354616 0.141308 0.074247
0.451534 0.154165 0.066858
0.503288 0.171742 0.064189
0.551482 0.187240 0.059754
0.595099 0.200064 0.053048
0.633671 0.216209 0.046636
0.667198 0.235674 0.040517
0.697355 0.249500 0.034873
0.724893 0.258939 0.029600
0.748687 0.270047 0.028843
0.770235 0.282156 0.030796
0.789903 0.289610 0.030959
0.808717 0.294948 0.030308
0.826066 0.300335 0.029120
0.842927 0.305738 0.027753
0.855874 0.311617 0.025275
0.867917 0.317607 0.022541
0.874151 0.320748 0.022199
0.879554 0.323482 0.022199
0.886849 0.329268 0.024762
0.894270 0.335257 0.027497
0.084256 0.114653 0.123356
0.085883 0.116671 0.126611
0.087307 0.118486 0.129484
0.085680 0.117249 0.126619
0.084760 0.116167 0.124317
0.088796 0.116167 0.125944
0.093907 0.118669 0.126888
0.103672 0.132015 0.124870
0.118433 0.142642 0.119955
0.148184 0.145116 0.106349
0.214106 0.150072 0.093191
0.359604 0.160488 0.081017
0.472829 0.175005 0.070747
0.532266 0.196358 0.063652
0.582673 0.214720 0.056840
0.621473 0.229237 0.050396
0.655813 0.245187 0.043527
0.685694 0.262569 0.036236
0.712865 0.276069 0.032131
0.737929 0.286550 0.030503
0.761202 0.296583 0.029893
0.783401 0.306348 0.029893
0.802557 0.311369 0.029893
0.820329 0.314234 0.029893
0.837515 0.318319 0.028672
0.854507 0.322811 0.027045
0.866526 0.327250 0.024412
0.877397 0.331676 0.021548
0.883712 0.335420 0.021190
0.889376 0.339065 0.021190
0.895833 0.342345 0.023509
0.902343 0.345600 0.025983
0.100400 0.138870 0.139501
0.100986 0.140889 0.140673
0.101499 0.142833 0.141788
0.100913 0.143680 0.142048
0.100905 0.144420 0.142349
0.104941 0.144420 0.142935
0.108880 0.146532 0.143033
0.112395 0.157794 0.141015
0.124813 0.165818 0.133756
0.163938 0.164125 0.110776
0.231422 0.168170 0.092800
0.361297 0.184835 0.085834
0.473741 0.204430 0.073742
0.557134 0.228908 0.053105
0.619195 0.249484 0.038222
0.653828 0.265042 0.030735
0.685564 0.280471 0.024388
0.714403 0.295770 0.019180
0.739361 0.308944 0.016572
0.761300 0.320467 0.015986
0.783401 0.326985 0.015766
0.805600 0.330500 0.015766
0.824040 0.331420 0.015766
0.840770 0.331160 0.015766
0.855353 0.331339 0.015327
0.869219 0.331664 0.014741
0.882345 0.336168 0.014843
0.895300 0.341637 0.015103
0.900964 0.344599 0.015136
0.905586 0.347203 0.015136
0.908072 0.348464 0.013549
0.910415 0.349636 0.011856
0.120960 0.167502 0.156529
0.120960 0.169520 0.157440
0.121017 0.171510 0.158392
0.121928 0.173072 0.159955
0.123059 0.174383 0.161208
0.125728 0.173927 0.160297
0.128495 0.175021 0.158836
0.131685 0.182833 0.154995
0.144494 0.188139 0.145393
0.186158 0.185926 0.118506
0.251359 0.190568 0.097622
0.368344 0.210293 0.089940
0.478640 0.232973 0.074714
0.577787 0.260575 0.046917
0.648282 0.282168 0.027151
0.681939 0.296034 0.017711
0.711982 0.309347 0.011429
0.738413 0.322107 0.008304
0.761072 0.333731 0.006937
0.780797 0.344473 0.006937
0.800929 0.349355 0.006937
0.821306 0.350722 0.006937
0.838773 0.350075 0.006937
0.854918 0.348513 0.006937
0.868377 0.347976 0.006937
0.880941 0.347780 0.006937
0.894035 0.351182 0.008207
0.907250 0.355413 0.009769
0.912035 0.356911 0.009964
0.915615 0.358017 0.009964
0.915412 0.358087 0.007035
0.914956 0.358087 0.003910
0.147195 0.201810 0.174692
0.147195 0.203828 0.177686
0.147382 0.205753 0.180526
0.150377 0.206273 0.181047
0.152940 0.206542 0.181129
0.152485 0.205045 0.178134
0.154079 0.204316 0.174199
0.164561 0.206920 0.166192
0.181275 0.209362 0.154246
0.216689 0.211315 0.130485
0.274665 0.218496 0.109144
0.382275 0.237180 0.093130
0.488665 0.260380 0.073087
0.593020 0.291107 0.046331
0.667812 0.312179 0.025784
0.704594 0.320837 0.013219
0.734116 0.329984 0.006416
0.756381 0.339619 0.005375
0.776631 0.348118 0.004919
0.795314 0.355735 0.004919
0.812452 0.361399 0.004919
0.828662 0.365890 0.004919
0.844827 0.366936 0.004919
0.860972 0.366415 0.004919
0.875212 0.369263 0.004919
0.888818 0.373235 0.004919
0.900414 0.374032 0.005342
0.911546 0.374097 0.005863
0.915159 0.373251 0.005928
0.917698 0.372274 0.005928
0.916453 0.372213 0.004952
0.914956 0.372213 0.003910
0.169394 0.244190 0.207990
0.169915 0.246208 0.210985
0.170558 0.248068 0.213792
0.173032 0.247547 0.213792
0.175074 0.246969 0.213483
0.174098 0.245993 0.211009
0.176051 0.245004 0.206815
0.190698 0.243962 0.195162
0.213792 0.244060 0.178919
0.262227 0.247575 0.148908
0.330781 0.256319 0.119202
0.443600 0.276565 0.090168
0.547580 0.299570 0.063159
0.636833 0.327172 0.039528
0.701534 0.345119 0.021194
0.734670 0.350653 0.009671
0.761328 0.357716 0.004170
0.781509 0.366310 0.004691
0.799383 0.372889 0.004626
0.815463 0.377901 0.004105
0.830322 0.383240 0.003910
0.844449 0.388773 0.003910
0.859605 0.391218 0.004268
0.875229 0.392260 0.004789
0.889339 0.396280 0.004919
0.902945 0.401293 0.004919
0.912425 0.401016 0.004919
0.920953 0.399519 0.004919
0.923785 0.397110 0.004463
0.925803 0.394571 0.003943
0.925502 0.396854 0.004887
0.925047 0.399458 0.005928
0.187557 0.294643 0.256425
0.189120 0.296661 0.257336
0.190544 0.298455 0.258191
0.189893 0.296893 0.258191
0.189461 0.295664 0.258272
0.190568 0.296771 0.258923
0.194409 0.297084 0.256681
0.210098 0.293959 0.241903
0.242046 0.292234 0.219411
0.322770 0.294708 0.173776
0.419708 0.304037 0.127795
0.552316 0.328450 0.081054
0.655386 0.350543 0.044931
0.709224 0.368771 0.026508
0.749447 0.380990 0.013382
0.772167 0.385481 0.007067
0.793618 0.392545 0.004691
0.813799 0.402180 0.006254
0.829329 0.408043 0.006058
0.841242 0.410972 0.004496
0.854539 0.414878 0.003910
0.868666 0.419370 0.003910
0.883106 0.422922 0.004984
0.897688 0.426047 0.006547
0.910757 0.429025 0.006937
0.923321 0.431955 0.006937
0.930067 0.432134 0.006937
0.935471 0.431678 0.006937
0.937912 0.428488 0.005570
0.939930 0.424908 0.004008
0.942558 0.432008 0.006840
0.945228 0.439820 0.009964
0.212531 0.350771 0.311670
0.215135 0.352789 0.312256
0.217414 0.354555 0.312769
0.214810 0.352537 0.312183
0.213150 0.350730 0.311410
0.218097 0.350405 0.309327
0.226792 0.349384 0.304277
0.251725 0.345347 0.286375
0.294431 0.342825 0.258659
0.390453 0.344843 0.201501
0.499699 0.352964 0.141881
0.638037 0.374512 0.076846
0.735801 0.392179 0.031464
0.765942 0.403376 0.018834
0.790330 0.411696 0.010221
0.807321 0.416319 0.006770
0.824443 0.423382 0.005761
0.841694 0.432886 0.007194
0.855577 0.439828 0.007344
0.866839 0.444775 0.006498
0.879159 0.448787 0.006180
0.892114 0.452237 0.006180
0.904666 0.454479 0.006762
0.917035 0.456172 0.007609
0.928330 0.457669 0.008260
0.939267 0.459101 0.008845
0.945073 0.460798 0.009431
0.949695 0.462556 0.010017
0.951526 0.460782 0.008837
0.952958 0.458503 0.007405
0.956282 0.466173 0.010001
0.959733 0.474506 0.012865
0.242803 0.411314 0.372213
0.246448 0.413332 0.373841
0.249638 0.415098 0.375265
0.245993 0.413080 0.373637
0.244072 0.410752 0.371041
0.254228 0.406261 0.361667
0.270084 0.401854 0.350108
0.310641 0.397818 0.329080
0.365585 0.395295 0.296937
0.463691 0.397313 0.231447
0.572742 0.402831 0.160240
0.705871 0.416046 0.076456
0.794912 0.426551 0.021699
0.810471 0.432541 0.015319
0.825745 0.438387 0.010676
0.840653 0.444051 0.008268
0.854128 0.451114 0.007259
0.866172 0.459577 0.007649
0.878948 0.468993 0.008516
0.892293 0.479148 0.009753
0.904092 0.484462 0.010217
0.914964 0.486871 0.010217
0.924717 0.485923 0.009366
0.933961 0.483449 0.008129
0.942912 0.483123 0.009041
0.951766 0.483514 0.010668
0.958028 0.487554 0.012296
0.963691 0.492437 0.013923
0.964741 0.493788 0.013785
0.965132 0.494634 0.013394
0.967414 0.499569 0.014102
0.969823 0.504777 0.014883
0.303346 0.454199 0.392394
0.305429 0.455566 0.393761
0.307455 0.456965 0.395202
0.308627 0.458853 0.397741
0.310678 0.459667 0.398286
0.318880 0.452962 0.384875
0.333882 0.446757 0.369451
0.378345 0.442721 0.345299
0.434787 0.440686 0.311821
0.527163 0.444657 0.250366
0.629631 0.448913 0.177906
0.754297 0.453796 0.081233
0.836730 0.457384 0.019298
0.848774 0.458817 0.015262
0.862013 0.463410 0.012678
0.876791 0.472069 0.011962
0.888249 0.479783 0.011604
0.896386 0.486553 0.011604
0.907160 0.495228 0.012373
0.919985 0.505383 0.013740
0.929880 0.510860 0.014253
0.938018 0.513529 0.014253
0.944768 0.514274 0.014656
0.950887 0.514143 0.015242
0.956518 0.513623 0.015437
0.961987 0.512972 0.015502
0.966344 0.517769 0.016625
0.970446 0.523823 0.017992
0.972667 0.526915 0.019302
0.974620 0.529584 0.020604
0.976024 0.531704 0.019465
0.977391 0.533787 0.018163
0.382052 0.486488 0.388358
0.381010 0.486814 0.388684
0.380627 0.487627 0.389603
0.390132 0.495765 0.399433
0.398693 0.501917 0.406098
0.400646 0.494170 0.390604
0.409983 0.487119 0.372901
0.451322 0.483083 0.345624
0.502816 0.481829 0.312667
0.584777 0.488925 0.262670
0.676828 0.492726 0.195158
0.791079 0.489275 0.089110
0.868174 0.486094 0.021316
0.883342 0.483359 0.017280
0.898795 0.487432 0.015608
0.914614 0.500257 0.016975
0.925030 0.509013 0.017658
0.930043 0.513700 0.017658
0.938278 0.519705 0.017841
0.949020 0.526736 0.018167
0.956181 0.531692 0.018289
0.961193 0.535403 0.018289
0.964819 0.540769 0.021556
0.967813 0.546889 0.026309
0.969538 0.547149 0.025202
0.970840 0.545457 0.022142
0.971878 0.550058 0.021833
0.972854 0.556113 0.022158
0.977419 0.560116 0.025161
0.982497 0.563827 0.028546
0.983120 0.563082 0.025584
0.983445 0.562041 0.022199
0.453820 0.522940 0.409296
0.452518 0.522940 0.409296
0.451786 0.523347 0.409784
0.459598 0.529857 0.417596
0.466612 0.534813 0.422951
0.468045 0.528889 0.411102
0.476105 0.523856 0.396312
0.512886 0.522684 0.368775
0.560686 0.524002 0.335086
0.641540 0.532791 0.282941
0.728457 0.534703 0.211693
0.828711 0.521488 0.098419
0.896350 0.511983 0.025841
0.909630 0.508663 0.021088
0.923537 0.512349 0.018985
0.938250 0.525044 0.020287
0.947982 0.533409 0.021654
0.952734 0.537445 0.023086
0.959281 0.543422 0.024115
0.967223 0.550909 0.024832
0.972277 0.556686 0.025548
0.975597 0.561439 0.026264
0.978883 0.567489 0.029173
0.982154 0.574129 0.033079
0.982032 0.574276 0.031565
0.980779 0.572257 0.028245
0.981562 0.576798 0.027623
0.982816 0.582852 0.027623
0.986390 0.587141 0.030528
0.990296 0.591177 0.033848
0.990540 0.590880 0.030943
0.990540 0.590294 0.027623
0.522436 0.561284 0.441585
0.522175 0.561284 0.441585
0.522029 0.561365 0.441683
0.523591 0.562667 0.443246
0.525398 0.563457 0.443913
0.528913 0.560657 0.438314
0.537689 0.558944 0.428797
0.569263 0.561939 0.402302
0.613938 0.566643 0.367310
0.697917 0.576473 0.306833
0.782099 0.575846 0.227903
0.866729 0.552215 0.108379
0.923041 0.536591 0.031504
0.932155 0.534312 0.025710
0.942807 0.537673 0.022565
0.955436 0.548284 0.022826
0.964648 0.555608 0.024714
0.970442 0.559644 0.028229
0.975686 0.566793 0.030756
0.980504 0.576363 0.032513
0.983734 0.583573 0.034271
0.986013 0.589367 0.036029
0.990227 0.594310 0.037115
0.995321 0.598867 0.037896
0.994287 0.598493 0.036383
0.991212 0.596475 0.034104
0.993134 0.601015 0.033677
0.996210 0.607070 0.033677
0.997278 0.611358 0.035671
0.998059 0.615394 0.037949
0.998108 0.617050 0.035956
0.998108 0.618548 0.033677
0.559266 0.587519 0.458739
0.560828 0.589082 0.461083
0.562293 0.590546 0.463280
0.562293 0.590546 0.463280
0.562895 0.590294 0.462385
0.567713 0.588276 0.455224
0.577449 0.587247 0.444047
0.608502 0.590502 0.415468
0.652591 0.596051 0.380151
0.735789 0.608486 0.324621
0.816260 0.607615 0.246163
0.890735 0.577474 0.117265
0.940015 0.558464 0.035020
0.947307 0.558009 0.030528
0.955680 0.561825 0.028343
0.965445 0.571134 0.029124
0.972964 0.577807 0.030752
0.978237 0.581843 0.033225
0.982375 0.587967 0.035003
0.985630 0.595714 0.036240
0.988112 0.602891 0.037477
0.990130 0.609727 0.038714
0.994039 0.615175 0.039101
0.998808 0.619992 0.039101
0.998377 0.621440 0.038759
0.996212 0.621766 0.038303
0.997565 0.626111 0.038218
0.999729 0.631385 0.038218
1.000000 0.635575 0.039984
1.000000 0.639612 0.042002
1.000000 0.641756 0.041701
1.000000 0.643774 0.041245
0.585501 0.609718 0.470848
0.589147 0.613364 0.476316
0.592565 0.616782 0.481443
0.592565 0.616782 0.481443
0.593297 0.616529 0.480027
0.599156 0.614511 0.468700
0.609934 0.613287 0.453552
0.642028 0.615500 0.421848
0.686378 0.621050 0.386531
0.767492 0.636609 0.340375
0.843928 0.636259 0.265108
0.910069 0.600910 0.125794
0.953752 0.579427 0.037819
0.960001 0.581054 0.035410
0.966422 0.585587 0.034853
0.973062 0.593854 0.036676
0.978498 0.600006 0.037782
0.982729 0.604043 0.038173
0.985825 0.608408 0.038454
0.988039 0.613030 0.038649
0.990130 0.619687 0.038844
0.992148 0.627564 0.039040
0.995341 0.634054 0.039101
0.999068 0.639913 0.039101
0.999744 0.643965 0.040321
0.999402 0.647415 0.041949
0.999616 0.651500 0.042254
0.999957 0.655732 0.042254
1.000000 0.659793 0.044020
1.000000 0.663829 0.046038
1.000000 0.665973 0.047690
1.000000 0.667991 0.049317
0.633053 0.635197 0.455082
0.636243 0.638387 0.461136
0.639180 0.641324 0.466653
0.638334 0.640478 0.464114
0.638456 0.639697 0.460696
0.645357 0.639371 0.451127
0.657811 0.639644 0.438249
0.694332 0.642508 0.411037
0.738096 0.647635 0.380164
0.803586 0.659548 0.338304
0.865883 0.657180 0.266438
0.921153 0.623393 0.128556
0.958284 0.603351 0.041623
0.965185 0.606215 0.039605
0.971345 0.611358 0.039353
0.976553 0.619431 0.041371
0.980329 0.625485 0.041957
0.982672 0.629521 0.041111
0.984833 0.633557 0.040740
0.986851 0.637593 0.040740
0.988869 0.644152 0.041269
0.990887 0.652225 0.042116
0.993509 0.657746 0.042380
0.996406 0.662108 0.042380
0.997131 0.666860 0.043259
0.997131 0.671742 0.044431
0.997131 0.676625 0.046026
0.997131 0.681507 0.047718
0.998426 0.684909 0.048215
0.999907 0.688099 0.048540
1.000000 0.690190 0.049659
1.000000 0.692208 0.050831
0.685523 0.661432 0.432882
0.687672 0.663581 0.438937
0.689568 0.665477 0.444259
0.687680 0.663589 0.438595
0.687021 0.662156 0.432834
0.694963 0.663914 0.426389
0.709240 0.666075 0.417222
0.750969 0.669981 0.396260
0.793951 0.674586 0.370854
0.840693 0.681292 0.332120
0.886520 0.676320 0.263704
0.930332 0.645658 0.129988
0.960693 0.627959 0.045660
0.968635 0.631865 0.043641
0.974925 0.637593 0.043389
0.979092 0.645666 0.045407
0.981305 0.651720 0.045472
0.981566 0.655756 0.043584
0.982815 0.659793 0.042758
0.984833 0.663829 0.042758
0.986851 0.670388 0.043938
0.988869 0.678460 0.045826
