其他预设/【236】赛博朋克风调色预设/【后期菌】视频调色预设/CUBE/Tokyo 05.cube
# LUT by SparkleStock. Enhanced with VOXCOLOR algorithms.
LUT_3D_SIZE 32
0.144673 0.058651 0.039101
0.146691 0.060669 0.041119
0.148456 0.062435 0.043011
0.146438 0.060417 0.043011
0.144673 0.058651 0.043011
0.144673 0.058651 0.043011
0.146186 0.059029 0.042632
0.154259 0.061048 0.040614
0.165863 0.063570 0.039101
0.188062 0.067606 0.039101
0.215306 0.073535 0.038470
0.253650 0.083625 0.036452
0.301832 0.096743 0.034434
0.366411 0.114906 0.032416
0.422161 0.133068 0.033929
0.466559 0.151231 0.039984
0.503894 0.167376 0.043011
0.534166 0.181503 0.043011
0.559897 0.193359 0.044146
0.582096 0.203450 0.046164
0.599250 0.214802 0.050705
0.613376 0.226910 0.056759
0.626115 0.233469 0.057264
0.638224 0.237505 0.055245
0.650333 0.246082 0.056255
0.662441 0.256173 0.058273
0.676190 0.266263 0.061930
0.690316 0.276354 0.065967
0.697380 0.282912 0.068237
0.703434 0.288967 0.070255
0.709488 0.295021 0.072273
0.715543 0.301075 0.074291
0.146691 0.060669 0.041119
0.146626 0.060604 0.042095
0.146503 0.060482 0.043011
0.145527 0.059505 0.043011
0.144803 0.058781 0.043141
0.145844 0.059823 0.044183
0.148009 0.060852 0.044455
0.155040 0.061829 0.041395
0.165081 0.063310 0.038840
0.184156 0.066304 0.037799
0.210879 0.072167 0.037103
0.254431 0.084341 0.037168
0.305478 0.098370 0.036452
0.369015 0.115491 0.034434
0.424179 0.133524 0.035947
0.468578 0.152729 0.042002
0.506433 0.169915 0.045550
0.537746 0.185083 0.046591
0.564519 0.197395 0.048182
0.587759 0.207486 0.050200
0.604002 0.218187 0.054090
0.616045 0.229254 0.059103
0.627417 0.234771 0.058566
0.638484 0.237766 0.055506
0.651114 0.246082 0.057036
0.664264 0.256173 0.060095
0.677361 0.266263 0.063102
0.690446 0.276354 0.066097
0.697380 0.283824 0.069148
0.703434 0.290920 0.072208
0.707535 0.295086 0.072338
0.711506 0.299057 0.072273
0.148583 0.062561 0.043011
0.146630 0.060608 0.043011
0.144799 0.058777 0.043011
0.144799 0.058777 0.043011
0.145043 0.059021 0.043263
0.146996 0.060974 0.045281
0.149718 0.062561 0.046164
0.155772 0.062561 0.042128
0.164382 0.063082 0.038612
0.180657 0.065165 0.036659
0.206941 0.071012 0.035947
0.255245 0.085139 0.037966
0.308920 0.100046 0.038470
0.371546 0.116256 0.036452
0.426169 0.134147 0.037937
0.470502 0.154197 0.043926
0.508748 0.172230 0.047897
0.540908 0.188245 0.049850
0.568600 0.200964 0.051840
0.592817 0.211119 0.053858
0.608327 0.221275 0.057137
0.618613 0.231430 0.061174
0.628764 0.236036 0.059750
0.638855 0.238120 0.055844
0.651924 0.246159 0.057845
0.665985 0.256185 0.061817
0.678460 0.266263 0.064201
0.690569 0.276354 0.066219
0.697437 0.284678 0.070003
0.703556 0.292751 0.074039
0.705830 0.295208 0.072460
0.707849 0.297291 0.070507
0.148583 0.062561 0.043011
0.147671 0.061650 0.043011
0.146817 0.060795 0.043011
0.146817 0.060795 0.043011
0.146931 0.060909 0.043263
0.147842 0.061821 0.045281
0.149718 0.062561 0.046164
0.155772 0.062561 0.042128
0.164902 0.063342 0.038873
0.183261 0.066467 0.037961
0.210326 0.073030 0.037966
0.256547 0.087157 0.039984
0.309310 0.102455 0.040488
0.372978 0.119707 0.038470
0.427731 0.137271 0.039499
0.471023 0.155239 0.044447
0.507707 0.171189 0.047377
0.537783 0.185120 0.048288
0.564563 0.197513 0.049822
0.588781 0.208711 0.051840
0.606244 0.219908 0.055119
0.619654 0.231105 0.059156
0.630782 0.236752 0.059164
0.640873 0.239877 0.057341
0.653160 0.247396 0.059082
0.666180 0.256380 0.062012
0.678460 0.266263 0.064201
0.690569 0.276354 0.066219
0.698348 0.284678 0.070003
0.705509 0.292751 0.074039
0.707849 0.296185 0.073437
0.709867 0.299309 0.072525
0.148583 0.062561 0.043011
0.148452 0.062431 0.043011
0.148330 0.062309 0.043011
0.148330 0.062309 0.043011
0.148363 0.062325 0.043263
0.148623 0.062455 0.045281
0.149970 0.062561 0.046188
0.156024 0.062561 0.042282
0.165610 0.063603 0.039353
0.185791 0.067769 0.039353
0.213581 0.075048 0.039943
0.258109 0.089175 0.041831
0.310157 0.104815 0.042303
0.374736 0.122978 0.040415
0.429318 0.140144 0.041062
0.471047 0.156028 0.044968
0.506364 0.170220 0.046986
0.535268 0.182719 0.047116
0.561536 0.194999 0.048382
0.585753 0.207107 0.050530
0.604681 0.218891 0.053695
0.620435 0.230478 0.057471
0.632475 0.237143 0.058741
0.642826 0.241570 0.058871
0.654593 0.248926 0.060515
0.666831 0.257259 0.062663
0.678753 0.266702 0.064494
0.690601 0.276402 0.066251
0.699032 0.284564 0.069889
0.706974 0.292506 0.073795
0.709728 0.297153 0.074283
0.712137 0.301580 0.074544
0.148583 0.062561 0.043011
0.147411 0.061389 0.043011
0.146312 0.060291 0.043011
0.146312 0.060291 0.043011
0.146605 0.060437 0.043263
0.148949 0.061609 0.045281
0.151988 0.062561 0.046384
0.158042 0.062561 0.043519
0.167628 0.063863 0.041371
0.187809 0.069071 0.041371
0.215924 0.077066 0.041636
0.261494 0.091193 0.042482
0.314193 0.106833 0.042693
0.378772 0.124996 0.041847
0.431076 0.141251 0.042624
0.467597 0.155052 0.045489
0.502914 0.169765 0.047507
0.537026 0.185389 0.048679
0.565572 0.199035 0.050986
0.589790 0.211144 0.054175
0.606764 0.220323 0.056429
0.619394 0.227744 0.058122
0.631889 0.235255 0.059457
0.644323 0.242807 0.060628
0.657392 0.252507 0.063314
0.670672 0.262923 0.066504
0.681096 0.270218 0.066837
0.690861 0.276793 0.066512
0.698120 0.283653 0.068978
0.705021 0.290553 0.071842
0.710640 0.298064 0.074218
0.716173 0.305616 0.076562
0.147447 0.062183 0.043011
0.146015 0.060555 0.043206
0.144685 0.059029 0.043389
0.144880 0.059029 0.043389
0.145531 0.059257 0.043617
0.149372 0.061080 0.045440
0.153738 0.062634 0.046579
0.160378 0.063025 0.044756
0.170501 0.064783 0.043389
0.191073 0.070642 0.043389
0.219782 0.079145 0.043389
0.266393 0.093467 0.043389
0.319450 0.109156 0.043243
0.383248 0.127124 0.042852
0.433517 0.142614 0.043601
0.466393 0.154918 0.045814
0.501709 0.170053 0.047930
0.539467 0.188021 0.049948
0.569609 0.202693 0.053101
0.593826 0.214802 0.057137
0.609336 0.222109 0.058773
0.619622 0.226536 0.058968
0.632280 0.234722 0.060283
0.646016 0.244617 0.062105
0.660338 0.256173 0.065588
0.674855 0.268281 0.069624
0.684136 0.274148 0.069059
0.692208 0.278575 0.067431
0.698515 0.284426 0.068994
0.704569 0.290480 0.071012
0.712149 0.299952 0.074739
0.719831 0.309652 0.078580
0.141393 0.060165 0.043011
0.143086 0.060620 0.044248
0.144750 0.061048 0.045407
0.145987 0.061048 0.045407
0.147419 0.061145 0.045505
0.150218 0.061926 0.046286
0.154324 0.063025 0.046774
0.164089 0.065499 0.045993
0.177076 0.068558 0.045407
0.199731 0.073376 0.045407
0.230198 0.081489 0.045407
0.277851 0.096853 0.045407
0.329996 0.112802 0.044480
0.389628 0.129728 0.042006
0.438920 0.145088 0.042038
0.474921 0.158433 0.045293
0.510237 0.173569 0.047930
0.544871 0.190495 0.049948
0.573645 0.204711 0.053101
0.597862 0.216820 0.057137
0.614023 0.225429 0.059424
0.625351 0.231939 0.060661
0.636902 0.240060 0.061585
0.648555 0.248914 0.062366
0.663918 0.260209 0.065588
0.680519 0.272317 0.069624
0.690190 0.279877 0.070751
0.698263 0.286387 0.071207
0.704569 0.292498 0.073030
0.710623 0.298553 0.075048
0.716250 0.306072 0.077799
0.721849 0.313688 0.080598
0.134834 0.059660 0.046038
0.138350 0.061418 0.047796
0.141788 0.063082 0.049443
0.144066 0.063342 0.049443
0.146312 0.063570 0.049411
0.148330 0.063570 0.049150
0.152143 0.064278 0.048939
0.163731 0.068054 0.048939
0.179908 0.072220 0.048679
0.209854 0.077559 0.047637
0.245659 0.086192 0.046921
0.294354 0.102077 0.046921
0.345587 0.118156 0.045700
0.401053 0.134562 0.042445
0.448458 0.149742 0.042266
0.485499 0.163348 0.046042
0.519775 0.178223 0.049069
0.551283 0.194368 0.051348
0.578544 0.208243 0.054322
0.602500 0.220351 0.057837
0.619052 0.229937 0.060417
0.631161 0.238010 0.062435
0.642419 0.246261 0.063424
0.653291 0.254594 0.063944
0.669045 0.265368 0.066711
0.686427 0.276956 0.070227
0.696456 0.285899 0.072949
0.704789 0.294232 0.075488
0.710672 0.300343 0.077571
0.716206 0.306137 0.079589
0.720824 0.312663 0.082095
0.725381 0.319238 0.084634
0.126762 0.063696 0.058147
0.128194 0.064412 0.058863
0.129744 0.065165 0.059534
0.133064 0.066467 0.059534
0.136222 0.067606 0.059371
0.138240 0.067606 0.058069
0.141662 0.068119 0.057011
0.151166 0.070853 0.057011
0.171510 0.075540 0.055709
0.224371 0.086087 0.050501
0.276256 0.097975 0.046921
0.325992 0.112818 0.046921
0.376315 0.128638 0.046872
0.427613 0.146084 0.046742
0.470396 0.160939 0.047865
0.502230 0.172462 0.050599
0.532339 0.186296 0.053626
0.560723 0.202441 0.056946
0.586030 0.216315 0.059204
0.608945 0.228424 0.060637
0.625106 0.238010 0.062435
0.637215 0.246082 0.064453
0.650622 0.255050 0.066874
0.664618 0.264424 0.069478
0.678810 0.273896 0.071203
0.693067 0.283401 0.072635
0.703357 0.292799 0.076659
0.712731 0.302174 0.081281
0.716922 0.307504 0.083625
0.720372 0.312256 0.085643
0.726813 0.320670 0.090102
0.733453 0.329329 0.094725
0.121212 0.069624 0.068994
0.122189 0.070275 0.069319
0.123295 0.070951 0.069604
0.126355 0.071992 0.069279
0.129244 0.072945 0.068782
0.130936 0.073270 0.067090
0.133825 0.073974 0.065836
0.141898 0.076318 0.066487
0.163153 0.080956 0.064876
0.223956 0.092479 0.056478
0.286102 0.105934 0.050400
0.351202 0.123641 0.049423
0.408832 0.141275 0.049570
0.454011 0.158787 0.051588
0.491643 0.173052 0.053463
0.519571 0.183143 0.055156
0.546490 0.196097 0.058020
0.572400 0.211917 0.062057
0.595673 0.225649 0.064006
0.616896 0.237757 0.064331
0.633236 0.247954 0.066325
0.646646 0.257003 0.069319
0.660818 0.266096 0.072582
0.675335 0.275210 0.075968
0.687802 0.283299 0.076814
0.699585 0.291046 0.076814
0.709728 0.300697 0.081998
0.719493 0.310787 0.088377
0.722765 0.315580 0.090656
0.725108 0.319617 0.092348
0.732823 0.329329 0.098130
0.740895 0.339419 0.104184
0.121212 0.079715 0.077066
0.125313 0.082449 0.078433
0.129154 0.084882 0.079629
0.129089 0.082799 0.078262
0.129114 0.081147 0.076985
0.129765 0.082514 0.076334
0.131807 0.084260 0.076318
0.139880 0.087645 0.079052
0.154885 0.090981 0.078743
0.190690 0.094171 0.069303
0.250297 0.105478 0.061532
0.362269 0.134643 0.057430
0.445288 0.158657 0.055624
0.480051 0.174086 0.057642
0.511369 0.187179 0.059062
0.538255 0.197269 0.059713
0.564132 0.209703 0.062057
0.589000 0.224481 0.066093
0.610060 0.237757 0.068628
0.628158 0.249866 0.069995
0.645930 0.262015 0.074332
0.663507 0.274189 0.080451
0.675400 0.282111 0.083259
0.684710 0.288100 0.084561
0.695093 0.294626 0.084886
0.705834 0.301332 0.084886
0.714936 0.310787 0.090916
0.723660 0.320878 0.098338
0.727712 0.325671 0.099835
0.731097 0.329707 0.100486
0.738877 0.339419 0.106203
0.746949 0.349510 0.112257
0.129537 0.092076 0.085895
0.134810 0.095721 0.087523
0.139627 0.098936 0.088971
0.137609 0.095681 0.087734
0.135843 0.093036 0.086652
0.135843 0.094664 0.086652
0.137210 0.096596 0.087262
0.144502 0.099851 0.090517
0.155308 0.101983 0.090436
0.176661 0.100746 0.080346
0.234266 0.111004 0.071638
0.371627 0.146548 0.065975
0.470856 0.174647 0.062459
0.506531 0.190336 0.062524
0.538076 0.203576 0.062561
0.564311 0.213666 0.062561
0.589147 0.225970 0.064774
0.612583 0.240488 0.069201
0.631258 0.253210 0.072273
0.646231 0.264538 0.074291
0.663483 0.277127 0.079117
0.682101 0.290472 0.085627
0.692351 0.298223 0.088198
0.698796 0.303431 0.088979
0.707096 0.309567 0.089761
0.716014 0.316012 0.090542
0.724563 0.325736 0.097565
0.733026 0.336217 0.106028
0.738299 0.342084 0.108453
0.743116 0.347292 0.110015
0.749521 0.355613 0.113958
0.756031 0.364141 0.118059
0.151736 0.108221 0.095986
0.154926 0.110825 0.096572
0.157790 0.113193 0.097174
0.155772 0.112021 0.098020
0.154006 0.111069 0.098761
0.154006 0.111655 0.098761
0.154983 0.112350 0.098980
0.160191 0.113522 0.100152
0.170216 0.114613 0.098508
0.194694 0.115459 0.088418
0.251192 0.126497 0.080036
0.378137 0.159959 0.075414
0.478277 0.188318 0.070597
0.533743 0.208174 0.065454
0.576420 0.223757 0.062561
0.602655 0.233847 0.062561
0.626449 0.246672 0.065295
0.647802 0.262231 0.070764
0.663808 0.274238 0.074291
0.675657 0.283482 0.076309
0.689132 0.293988 0.078531
0.703584 0.305250 0.080875
0.713248 0.314498 0.083576
0.720734 0.322831 0.086441
0.726951 0.330529 0.089305
0.732745 0.338015 0.092169
0.741554 0.348781 0.100429
0.751059 0.360304 0.109934
0.758285 0.369036 0.116134
0.765185 0.377368 0.121863
0.767814 0.381978 0.121184
0.770157 0.386340 0.120077
0.176584 0.127897 0.111374
0.179513 0.129915 0.111830
0.182162 0.131836 0.112354
0.180600 0.132291 0.113917
0.179119 0.132576 0.115284
0.178207 0.131665 0.115284
0.178480 0.131010 0.115028
0.183883 0.131465 0.113661
0.194722 0.132426 0.110226
0.221869 0.134899 0.100592
0.276520 0.146121 0.091852
0.391682 0.176588 0.085082
0.488803 0.204125 0.077652
0.555856 0.226780 0.069124
0.605251 0.243738 0.063729
0.631942 0.253373 0.062362
0.654922 0.266263 0.064705
0.674192 0.282408 0.070760
0.688298 0.294525 0.074800
0.698389 0.303508 0.077274
0.709740 0.313184 0.079056
0.721849 0.323274 0.080423
0.730870 0.332738 0.082998
0.738486 0.341917 0.086123
0.744101 0.350608 0.090615
0.749049 0.359136 0.095563
0.757434 0.369833 0.103948
0.766613 0.381030 0.113128
0.774027 0.390462 0.120940
0.781188 0.399641 0.128556
0.782063 0.402534 0.125676
0.782518 0.405007 0.122095
0.204837 0.152114 0.133573
0.209850 0.154132 0.135070
0.214517 0.156118 0.136507
0.213996 0.157615 0.137027
0.213166 0.158551 0.137483
0.210171 0.155556 0.137483
0.209337 0.153404 0.136641
0.217865 0.154901 0.132149
0.231569 0.156903 0.126632
0.260799 0.160419 0.118038
0.312651 0.171054 0.108062
0.414272 0.197355 0.095042
0.503321 0.222679 0.083316
0.571415 0.246375 0.073746
0.621851 0.263464 0.066398
0.649584 0.272057 0.061906
0.672044 0.284426 0.062687
0.689230 0.300571 0.068742
0.702425 0.313859 0.073368
0.712515 0.324926 0.076883
0.723867 0.335383 0.081009
0.735976 0.345473 0.085501
0.744280 0.353505 0.087621
0.750855 0.360601 0.088662
0.757772 0.369552 0.094196
0.764803 0.379122 0.101226
0.771887 0.388321 0.108310
0.778982 0.397435 0.115406
0.784313 0.404784 0.122046
0.789390 0.411880 0.128621
0.791111 0.415619 0.126652
0.792609 0.419134 0.124113
0.247217 0.193485 0.168890
0.252751 0.194983 0.170387
0.257873 0.196447 0.171791
0.256832 0.197424 0.171791
0.255676 0.198034 0.171791
0.253723 0.196081 0.171791
0.253931 0.194482 0.170363
0.263500 0.194417 0.162746
0.280850 0.196028 0.154364
0.321537 0.202668 0.143688
0.377686 0.213337 0.129187
0.467849 0.232867 0.106272
0.546222 0.252983 0.088947
0.604942 0.274075 0.080940
0.648738 0.289243 0.074242
0.673346 0.296795 0.069230
0.693461 0.308904 0.069751
0.709085 0.325569 0.075805
0.721304 0.339378 0.081017
0.730874 0.350966 0.085574
0.741705 0.361944 0.091392
0.753292 0.372555 0.097967
0.762866 0.382182 0.102886
0.771524 0.391361 0.107053
0.780134 0.401614 0.114539
0.788727 0.412225 0.123133
0.795257 0.420774 0.129663
0.801312 0.428846 0.135717
0.804233 0.433330 0.139493
0.806707 0.437301 0.142943
0.810707 0.442798 0.143708
0.814808 0.448397 0.144294
0.303724 0.252010 0.217324
0.308216 0.252466 0.217780
0.312232 0.252824 0.218207
0.309107 0.251717 0.218207
0.306649 0.251026 0.218207
0.308863 0.253239 0.218207
0.312260 0.254244 0.216193
0.320788 0.250012 0.205452
0.342564 0.249801 0.193424
0.404084 0.261649 0.177540
0.471625 0.272968 0.155227
0.552414 0.283124 0.118771
0.617506 0.295037 0.094546
0.656436 0.309880 0.090705
0.685910 0.321077 0.087262
0.703226 0.327587 0.084333
0.719176 0.339696 0.085895
0.733758 0.357403 0.091950
0.744935 0.371082 0.097748
0.753463 0.381628 0.103346
0.763253 0.392866 0.110206
0.773799 0.404519 0.117823
0.786628 0.418768 0.128796
0.800494 0.434197 0.141295
0.811187 0.446793 0.151646
0.820821 0.458446 0.161281
0.827547 0.467190 0.168007
0.833601 0.475263 0.174061
0.833789 0.476101 0.173280
0.833138 0.475905 0.171522
0.840848 0.484071 0.176844
0.849116 0.492795 0.182638
0.367042 0.319617 0.275975
0.369906 0.320202 0.277733
0.372413 0.320626 0.279271
0.369548 0.318608 0.277513
0.367400 0.316980 0.275755
0.370264 0.318087 0.273998
0.374984 0.318290 0.270629
0.387744 0.314579 0.260278
0.413214 0.313570 0.245777
0.476817 0.320666 0.218825
0.543410 0.325789 0.184856
0.616582 0.326570 0.135445
0.671909 0.331819 0.104685
0.697494 0.344513 0.105010
0.717809 0.355072 0.105336
0.731350 0.362884 0.105661
0.744890 0.375285 0.109144
0.758431 0.392276 0.115784
0.770544 0.407034 0.123413
0.781546 0.420054 0.131811
0.791612 0.432138 0.140006
0.801116 0.443661 0.148078
0.813172 0.456929 0.159686
0.826387 0.470990 0.172902
0.836380 0.483148 0.183334
0.845299 0.494670 0.192838
0.852842 0.504818 0.201444
0.860069 0.514648 0.209842
0.860231 0.515649 0.209410
0.859385 0.515389 0.207718
0.867144 0.523184 0.214081
0.875477 0.531517 0.220982
0.435657 0.394286 0.342572
0.436439 0.395914 0.347455
0.437122 0.397313 0.351727
0.436341 0.395295 0.346845
0.435755 0.393017 0.341962
0.436536 0.388916 0.337080
0.441126 0.385669 0.331758
0.462218 0.386124 0.324532
0.490813 0.385115 0.308468
0.541917 0.379712 0.265893
0.597964 0.373312 0.217275
0.664887 0.364719 0.155365
0.713183 0.364499 0.118356
0.730434 0.378235 0.122848
0.745607 0.390746 0.127340
0.758106 0.401683 0.131832
0.770605 0.414606 0.137918
0.783104 0.429513 0.145600
0.797691 0.446289 0.156028
0.813900 0.464517 0.168593
0.825269 0.477903 0.178350
0.833732 0.488384 0.186422
0.841881 0.496314 0.194450
0.849889 0.503085 0.202457
0.857017 0.512638 0.210806
0.863853 0.523119 0.219269
0.872698 0.535610 0.231064
0.882007 0.548565 0.243629
0.884253 0.552691 0.247364
0.885490 0.555555 0.249838
0.890450 0.560617 0.254508
0.895658 0.565825 0.259326
0.496705 0.446252 0.381421
0.496705 0.446968 0.385522
0.496827 0.447717 0.389192
0.498780 0.448954 0.386393
0.500326 0.449279 0.383268
0.499024 0.443225 0.377865
0.501652 0.438196 0.371729
0.521313 0.437610 0.362420
0.546685 0.434648 0.344143
0.589196 0.424558 0.298964
0.637789 0.413430 0.246684
0.699764 0.400019 0.178785
0.743552 0.396447 0.138618
0.757027 0.409271 0.144673
0.770475 0.423207 0.152151
0.783885 0.438571 0.161460
0.796970 0.452990 0.170151
0.809730 0.466466 0.178223
0.824430 0.482615 0.188969
0.840640 0.500843 0.201794
0.851764 0.514392 0.212462
0.859837 0.525133 0.221836
0.866522 0.533503 0.232061
0.872576 0.540794 0.242672
0.877654 0.548720 0.249915
0.882406 0.556857 0.256034
0.889380 0.567216 0.266015
0.896866 0.578088 0.276887
0.900138 0.584118 0.284056
0.902807 0.589456 0.290696
0.905537 0.592963 0.293674
0.908271 0.596349 0.296408
0.553212 0.484596 0.403620
0.553212 0.483229 0.404596
0.553529 0.482350 0.405662
0.558607 0.488795 0.408071
0.562627 0.493678 0.409634
0.559242 0.487623 0.405272
0.558810 0.481813 0.399006
0.571179 0.477061 0.384489
0.589521 0.470974 0.363608
0.625782 0.460884 0.323636
0.668776 0.449105 0.274287
0.726585 0.433611 0.204304
0.767378 0.427955 0.162835
0.779812 0.438697 0.168890
0.793585 0.453739 0.178647
0.809079 0.474310 0.193164
0.823727 0.490813 0.204459
0.837528 0.503247 0.212531
0.850926 0.517183 0.222105
0.864011 0.532286 0.232846
0.873963 0.545314 0.244035
0.882036 0.557097 0.255493
0.888721 0.569373 0.271382
0.894775 0.581872 0.289284
0.898290 0.588756 0.296006
0.900960 0.593769 0.299000
0.904158 0.599311 0.304163
0.907478 0.604974 0.309827
0.911140 0.612176 0.319991
0.914850 0.619597 0.330797
0.915692 0.622258 0.332083
0.916343 0.624602 0.332734
0.601394 0.520165 0.427207
0.602110 0.518863 0.427207
0.602981 0.517968 0.427369
0.606170 0.523176 0.429973
0.608726 0.527245 0.431837
0.606838 0.523339 0.428517
0.607733 0.519701 0.423463
0.620688 0.517228 0.410899
0.637549 0.511775 0.391174
0.666128 0.497388 0.349965
0.701644 0.482452 0.300681
0.752422 0.466307 0.233628
0.788967 0.460538 0.193990
0.801792 0.472060 0.200044
0.816069 0.487627 0.210200
0.832214 0.508394 0.225628
0.846992 0.525548 0.238453
0.860402 0.539089 0.248674
0.872275 0.552959 0.260030
0.882951 0.567086 0.272269
0.891105 0.579056 0.283531
0.897745 0.589733 0.294207
0.903490 0.601797 0.309449
0.908828 0.614491 0.326765
0.911677 0.620155 0.332608
0.913695 0.623475 0.334626
0.915713 0.627959 0.338866
0.917731 0.632711 0.343618
0.921515 0.639115 0.352927
0.925551 0.645755 0.362888
0.925803 0.648062 0.364182
0.925803 0.650080 0.364898
0.645792 0.554473 0.451424
0.647550 0.554213 0.451424
0.649136 0.554034 0.451456
0.648160 0.555075 0.451977
0.647460 0.555889 0.452148
0.648697 0.555108 0.449869
0.652912 0.554986 0.446639
0.670034 0.557720 0.439283
0.687936 0.554611 0.422422
0.708182 0.533975 0.377047
0.735365 0.514742 0.326525
0.777811 0.498597 0.264680
0.809539 0.493609 0.228298
0.823405 0.507214 0.234352
0.838268 0.523042 0.244052
0.854413 0.541726 0.258439
0.868670 0.558879 0.272305
0.881039 0.574503 0.285651
0.891284 0.589285 0.300131
0.899877 0.603412 0.315495
0.905948 0.614080 0.326627
0.910505 0.622673 0.335220
0.914883 0.632654 0.346946
0.919179 0.643265 0.360097
0.921767 0.647627 0.364898
0.923785 0.649905 0.366916
0.925803 0.655040 0.372002
0.927821 0.660834 0.377796
0.931605 0.665546 0.384501
0.935642 0.670103 0.391336
0.935894 0.672280 0.393411
0.935894 0.674298 0.395169
0.679595 0.581213 0.471100
0.683176 0.582775 0.471881
0.686455 0.584240 0.472614
0.685218 0.584240 0.472614
0.684193 0.584142 0.472361
0.684649 0.583361 0.470343
0.687985 0.582897 0.466983
0.703804 0.583809 0.457804
0.720209 0.579724 0.440096
0.738372 0.560649 0.396805
0.763228 0.542735 0.349099
0.802809 0.527371 0.291681
0.832259 0.523066 0.258357
0.844823 0.537193 0.265193
0.857928 0.553085 0.275560
0.871730 0.571248 0.290468
0.883903 0.588012 0.305376
0.894450 0.603375 0.320284
0.902725 0.616725 0.334130
0.909235 0.628508 0.347150
0.914199 0.637972 0.357078
0.918235 0.646044 0.365150
0.922809 0.655504 0.375997
0.927626 0.665595 0.388106
0.930344 0.670803 0.394404
0.932362 0.674383 0.398766
0.934380 0.678704 0.403233
0.936398 0.683196 0.407725
0.940182 0.687289 0.412901
0.944218 0.691325 0.418174
0.945203 0.694202 0.421128
0.945984 0.697001 0.423927
0.709867 0.605430 0.489263
0.715530 0.609076 0.491086
0.720828 0.612493 0.492795
0.720633 0.612493 0.492795
0.720258 0.612265 0.492542
0.718631 0.610443 0.490524
0.719689 0.608351 0.486382
0.732383 0.605096 0.473037
0.746445 0.598928 0.453247
0.764608 0.584020 0.414121
0.789138 0.569295 0.370582
0.827677 0.554973 0.317330
0.855695 0.551320 0.287001
0.866176 0.565446 0.294879
0.876742 0.581339 0.306287
0.887419 0.599502 0.322237
0.896988 0.615744 0.338186
0.905451 0.630066 0.354136
0.911644 0.641202 0.366094
0.916071 0.649861 0.374947
0.920254 0.658153 0.383313
0.924290 0.666225 0.391385
0.929579 0.675685 0.402233
0.935438 0.685776 0.414341
0.938416 0.692546 0.422983
0.940435 0.698210 0.430470
0.942453 0.701229 0.433830
0.944471 0.703637 0.436239
0.948255 0.707470 0.440243
0.952291 0.711506 0.444474
0.954252 0.715359 0.448340
0.956075 0.719200 0.452180
0.740138 0.619809 0.494308
0.744500 0.622153 0.495480
0.748536 0.624350 0.496526
0.747690 0.624350 0.495679
0.747014 0.624203 0.494581
0.747535 0.623031 0.491717
0.749911 0.621322 0.486582
0.760327 0.617286 0.471609
0.773103 0.611362 0.451639
0.792959 0.599774 0.416681
0.816476 0.588980 0.379688
0.848049 0.579931 0.338219
0.871250 0.579573 0.315963
0.880494 0.593700 0.325728
0.889738 0.608852 0.338284
0.898982 0.625322 0.354429
0.906794 0.639774 0.369304
0.913174 0.652208 0.382910
0.918711 0.663141 0.393879
0.923594 0.672906 0.402798
0.929005 0.682671 0.413304
0.934734 0.692436 0.424761
0.938941 0.700098 0.434339
0.942457 0.706803 0.443062
0.945484 0.713020 0.451932
0.948348 0.719074 0.460851
0.951213 0.723224 0.466913
0.954077 0.726935 0.472317
0.956486 0.730190 0.475783
0.958829 0.733380 0.478973
0.960868 0.735776 0.482163
0.962886 0.738120 0.485353
0.770410 0.631918 0.496326
0.772688 0.632178 0.496457
0.774706 0.632422 0.496461
0.772818 0.632422 0.494573
0.771622 0.632406 0.492433
0.775268 0.632276 0.488527
0.779792 0.631413 0.482350
0.788125 0.627377 0.466336
0.799859 0.622234 0.446627
0.821798 0.613771 0.415834
0.844143 0.607078 0.385937
0.867384 0.604278 0.358009
0.884986 0.607826 0.344997
0.893188 0.621953 0.356846
0.901391 0.636194 0.370574
0.909593 0.650581 0.386718
0.915843 0.662950 0.400031
0.920140 0.673301 0.410512
0.925352 0.684494 0.420701
0.931276 0.696342 0.430661
0.938380 0.708190 0.444161
0.946192 0.720038 0.459785
