其他预设/【236】赛博朋克风调色预设/【后期菌】视频调色预设/CUBE/Tokyo 10_S.cube
# LUT by SparkleStock. Enhanced with VOXCOLOR algorithms.
LUT_3D_SIZE 8
DOMAIN_MIN 0.000000 0.000000 0.000000
DOMAIN_MAX 0.903226 0.903226 0.903226
0.113392 0.062561 0.058651
0.117302 0.062561 0.062561
0.133573 0.063570 0.058651
0.244947 0.088166 0.056255
0.471731 0.169394 0.063570
0.596475 0.232838 0.077949
0.673793 0.286696 0.096869
0.718696 0.328067 0.105572
0.121212 0.066471 0.062561
0.120976 0.066235 0.062797
0.135404 0.065116 0.058618
0.266922 0.100905 0.052296
0.486183 0.172108 0.062122
0.611069 0.223431 0.067696
0.687598 0.276887 0.090505
0.724775 0.327335 0.108725
0.111878 0.064579 0.069498
0.116008 0.068017 0.069498
0.148347 0.085200 0.061727
0.299395 0.144392 0.056507
0.500481 0.215058 0.056889
0.630693 0.264823 0.071769
0.708101 0.306291 0.092190
0.743820 0.340680 0.117530
0.116293 0.112383 0.111500
0.123454 0.113189 0.113217
0.149478 0.143354 0.111504
0.387125 0.222052 0.078271
0.559884 0.300066 0.079532
0.670790 0.349526 0.102813
0.730894 0.368515 0.121338
0.770662 0.393041 0.153103
0.240154 0.228424 0.228298
0.243120 0.236883 0.233855
0.260380 0.241554 0.208605
0.465990 0.295432 0.097764
0.658491 0.373096 0.061182
0.731813 0.414089 0.076330
0.786440 0.434660 0.105242
0.813974 0.451143 0.140152
0.432882 0.413584 0.366033
0.436259 0.417547 0.369654
0.478664 0.421872 0.347549
0.705981 0.410346 0.141796
0.773058 0.476471 0.155971
0.828218 0.526093 0.186841
0.861415 0.544146 0.214488
0.881722 0.562232 0.239527
0.614007 0.541481 0.443099
0.614890 0.540851 0.442118
0.650882 0.545391 0.421669
0.812078 0.509656 0.243433
0.864089 0.564425 0.270828
0.899820 0.609088 0.311243
0.917686 0.641963 0.349925
0.930596 0.662515 0.372486
0.733832 0.609214 0.461010
0.734576 0.605556 0.457340
0.771773 0.603819 0.422365
0.867893 0.602692 0.329654
0.902518 0.653234 0.375037
0.929713 0.697567 0.420904
0.948507 0.727220 0.461461
0.963264 0.754895 0.502377
0.117302 0.062561 0.058903
0.120976 0.066235 0.066235
0.129883 0.063066 0.056694
0.251282 0.087311 0.062386
0.478098 0.154128 0.078010
0.602944 0.207649 0.087950
0.677382 0.275344 0.102854
0.719188 0.323803 0.107362
0.117302 0.062797 0.062813
0.121008 0.066314 0.063098
0.148585 0.076688 0.071535
0.287312 0.105179 0.082648
0.497564 0.165403 0.098081
0.622432 0.210091 0.104564
0.700119 0.254125 0.105644
0.737843 0.309818 0.110663
0.115569 0.067798 0.069531
0.116106 0.070257 0.070524
0.168084 0.112778 0.083084
0.321916 0.170243 0.095603
0.517984 0.232558 0.108827
0.636103 0.266353 0.114858
0.721174 0.301982 0.126359
0.760225 0.332475 0.124308
0.126656 0.113237 0.121660
0.127014 0.118421 0.119911
0.167439 0.185814 0.132495
0.391476 0.263502 0.117965
0.559665 0.332466 0.128593
0.671237 0.363770 0.139460
0.746073 0.378335 0.146052
0.793162 0.400553 0.168430
0.245956 0.241476 0.241098
0.246062 0.241708 0.242501
0.270190 0.279512 0.214436
0.459314 0.332006 0.122336
0.637412 0.409399 0.105215
0.719222 0.436732 0.114141
0.788045 0.452065 0.126288
0.822897 0.457026 0.139934
0.450659 0.425099 0.377556
0.438879 0.416581 0.372339
0.477581 0.435306 0.349562
0.675347 0.435254 0.147666
0.739651 0.504373 0.165327
0.806204 0.545353 0.193607
0.853761 0.553888 0.212889
0.884827 0.575513 0.230759
0.613698 0.543569 0.445186
0.615394 0.541591 0.445042
0.641787 0.538901 0.415581
0.810401 0.517027 0.245865
0.849039 0.570608 0.263725
0.886976 0.612395 0.302607
0.911550 0.645947 0.340571
0.924074 0.669791 0.348139
0.731927 0.605165 0.455472
0.733037 0.605903 0.455728
0.767884 0.600431 0.420920
0.863575 0.599943 0.327470
0.903107 0.653486 0.377434
0.925124 0.692330 0.420257
0.946903 0.726816 0.460346
0.961014 0.754743 0.495212
0.107968 0.064075 0.069498
0.114779 0.066536 0.069246
0.126831 0.067415 0.073653
0.251603 0.086091 0.090603
0.465835 0.144945 0.113648
0.599628 0.205594 0.120203
0.676934 0.266389 0.127450
0.715469 0.330468 0.122327
0.110902 0.066536 0.071960
0.108267 0.063918 0.069942
0.150992 0.082392 0.101882
0.291524 0.112340 0.137267
0.490687 0.164255 0.162611
0.615402 0.202237 0.162802
0.703873 0.251127 0.162965
0.741459 0.305766 0.142493
0.104563 0.069873 0.077559
0.108794 0.081672 0.088475
0.169959 0.125383 0.126849
0.319989 0.178094 0.161724
0.509267 0.236126 0.183163
0.630620 0.267122 0.189572
0.718634 0.296894 0.188324
0.764828 0.334156 0.164041
0.122697 0.120525 0.132845
0.121692 0.134028 0.140877
0.171160 0.204319 0.177434
0.382134 0.278585 0.189954
0.550201 0.338429 0.205683
0.661368 0.367429 0.213886
0.749140 0.385371 0.218221
0.799574 0.400680 0.210937
0.242038 0.251115 0.249602
0.246913 0.253143 0.252951
0.266176 0.306668 0.261468
0.430559 0.363431 0.200287
0.632477 0.423228 0.167847
0.716198 0.452512 0.179139
0.790315 0.473959 0.188877
0.844107 0.479685 0.185116
0.435442 0.428452 0.380143
0.429632 0.421105 0.374936
0.448342 0.443709 0.379966
0.640837 0.473880 0.229312
0.729580 0.517026 0.202266
0.790786 0.554224 0.223389
0.843674 0.576556 0.242431
0.891492 0.594990 0.254920
0.600084 0.545127 0.448580
0.603702 0.545278 0.447176
0.626882 0.560425 0.457240
0.796744 0.546617 0.307212
0.843363 0.576465 0.275500
0.878136 0.621795 0.311626
0.888028 0.666526 0.331969
0.919829 0.692249 0.348525
0.735671 0.614715 0.472789
0.736013 0.615119 0.473030
0.749519 0.616663 0.464797
0.865228 0.612607 0.365581
0.909063 0.663653 0.392409
0.929396 0.704900 0.432561
0.929477 0.742695 0.447172
0.949429 0.774273 0.465019
0.090688 0.081985 0.110869
0.090892 0.081635 0.110568
0.098411 0.086721 0.124182
0.210452 0.093907 0.140701
0.397932 0.150991 0.174956
0.534670 0.210078 0.189762
0.613417 0.272781 0.194616
0.652404 0.332067 0.191630
0.093638 0.084935 0.117729
0.094140 0.085437 0.115343
0.122109 0.097045 0.162674
0.250593 0.118847 0.200569
0.441947 0.169260 0.242135
0.575993 0.209602 0.252853
0.653519 0.260207 0.241479
0.681954 0.317834 0.215149
0.091388 0.089427 0.122416
0.096043 0.101935 0.132777
0.142557 0.142440 0.201987
0.287954 0.186307 0.243045
0.470709 0.239384 0.273682
0.598546 0.269493 0.284222
0.679996 0.299124 0.276741
0.715330 0.340636 0.254666
0.116924 0.164622 0.207779
0.117927 0.163380 0.204746
0.166982 0.226394 0.257614
0.321846 0.282103 0.293572
0.510388 0.339092 0.307699
0.626467 0.375549 0.324467
0.720100 0.402484 0.335561
0.780286 0.418758 0.327038
0.251791 0.298813 0.320829
0.250667 0.299378 0.320842
0.275280 0.356213 0.353551
0.366462 0.427798 0.390997
0.603858 0.455734 0.316711
0.702197 0.490030 0.325812
0.788195 0.507265 0.330702
0.861851 0.512470 0.303462
0.434925 0.464086 0.442879
0.425972 0.456052 0.435099
0.438136 0.482224 0.446047
0.515861 0.541450 0.458763
0.740489 0.544271 0.287679
0.796110 0.575143 0.288152
0.838315 0.601629 0.321877
0.899804 0.619117 0.338096
0.570028 0.564275 0.514156
0.576567 0.571173 0.519709
0.587935 0.576828 0.522124
0.680934 0.619197 0.515671
0.851080 0.610578 0.339818
0.870151 0.660606 0.366414
0.878666 0.702286 0.394940
0.920361 0.721554 0.407735
0.688693 0.659646 0.582958
0.691489 0.662477 0.587338
0.704353 0.665013 0.582391
0.834537 0.673258 0.504161
0.920129 0.685138 0.438572
0.927516 0.738114 0.479605
0.920744 0.779367 0.490402
0.946814 0.808033 0.509688
0.101788 0.119446 0.177341
0.098065 0.115845 0.173553
0.102423 0.121355 0.178350
0.137800 0.130591 0.207600
0.279727 0.182447 0.262447
0.426828 0.249162 0.289060
0.495521 0.296107 0.288438
0.564934 0.353965 0.296351
0.100844 0.117558 0.175453
0.100872 0.120186 0.175468
0.121846 0.131001 0.212767
0.190050 0.144552 0.266618
0.340338 0.186334 0.322486
0.483394 0.238297 0.339625
0.552657 0.281108 0.327442
0.584123 0.351141 0.316295
0.110503 0.136356 0.204337
0.109283 0.135046 0.203392
0.139827 0.162762 0.258473
0.224579 0.193535 0.310588
0.383831 0.249173 0.372566
0.520852 0.280939 0.380108
0.587016 0.315183 0.366587
0.628553 0.359308 0.351765
0.163145 0.220042 0.290399
0.168937 0.226546 0.297888
0.195826 0.259052 0.341763
0.291327 0.330254 0.421043
0.429698 0.346386 0.417035
0.564690 0.385355 0.430588
0.653953 0.411077 0.434860
0.724875 0.437662 0.441355
0.305962 0.401301 0.447213
0.306438 0.402299 0.449915
0.318461 0.426247 0.465903
0.379961 0.478908 0.509512
0.490690 0.506546 0.516052
0.639243 0.512747 0.470253
0.736685 0.532182 0.480328
0.819287 0.548935 0.485352
0.455724 0.534630 0.544057
0.454441 0.534740 0.542967
0.463441 0.543658 0.548367
0.503512 0.579833 0.573907
0.597730 0.624931 0.579329
0.806464 0.605503 0.405236
0.845556 0.624748 0.418853
0.909162 0.638473 0.433715
0.560670 0.609670 0.591657
0.559137 0.606142 0.585871
0.566910 0.614278 0.593573
0.613724 0.637572 0.602665
0.762255 0.693246 0.591911
0.871201 0.701297 0.462037
0.880991 0.727606 0.481821
0.927550 0.742316 0.499812
0.658173 0.674989 0.618714
0.656546 0.676040 0.618277
0.666415 0.682738 0.622924
0.728975 0.710954 0.636971
0.888177 0.742094 0.580724
0.924073 0.766321 0.534946
0.919825 0.805833 0.559517
0.946880 0.829281 0.577943
0.130041 0.148330 0.255037
0.131392 0.149681 0.252478
0.140311 0.159682 0.265470
0.170350 0.184729 0.287534
0.239755 0.258622 0.346157
0.333043 0.318734 0.388346
0.405007 0.351540 0.392895
0.472809 0.377625 0.399258
0.130131 0.148420 0.251217
0.132433 0.150974 0.254002
0.137651 0.155501 0.263341
0.183219 0.181678 0.304940
0.270229 0.251779 0.376987
0.361170 0.304898 0.411364
0.422430 0.345669 0.405107
0.470799 0.378703 0.401052
0.147972 0.172621 0.276626
0.143949 0.168356 0.272454
0.157251 0.183381 0.292986
0.216741 0.214370 0.352137
0.305478 0.280631 0.416743
0.400524 0.335796 0.449908
0.454335 0.363682 0.434380
0.530085 0.387655 0.440231
0.224404 0.271207 0.377779
0.222792 0.271026 0.376842
0.235293 0.284723 0.395813
0.309982 0.356602 0.475850
0.377116 0.378115 0.490085
0.463629 0.425781 0.512535
0.546683 0.448320 0.522580
0.637783 0.460710 0.534149
0.370773 0.443949 0.518945
0.369717 0.441055 0.516050
0.382358 0.454137 0.527262
0.436052 0.503492 0.570748
0.500564 0.549306 0.608764
0.550214 0.546637 0.587117
0.661087 0.559401 0.594103
0.760191 0.572650 0.600344
0.494154 0.581030 0.614959
0.488254 0.575135 0.608949
0.499112 0.584454 0.617333
0.534773 0.621626 0.652008
0.579112 0.667749 0.685344
0.652051 0.680022 0.669678
0.787896 0.664823 0.608346
0.876214 0.674008 0.603480
0.565162 0.662612 0.668414
0.566284 0.660515 0.663180
0.570459 0.663582 0.668007
0.600898 0.686705 0.681708
0.667956 0.714599 0.693364
0.801186 0.746270 0.653760
0.892631 0.747471 0.567821
0.932920 0.756433 0.582909
0.635307 0.693274 0.666848
0.639477 0.695602 0.667979
0.641836 0.694869 0.665428
0.693111 0.722013 0.687733
0.802363 0.768406 0.706161
0.912577 0.799626 0.644203
0.928245 0.822327 0.632570
0.953406 0.842063 0.648672
0.183521 0.200044 0.323400
0.183057 0.199678 0.323034
0.189771 0.202315 0.331668
0.238429 0.254240 0.383610
0.266768 0.282798 0.387829
0.335163 0.351939 0.440987
0.379952 0.392610 0.473794
0.422108 0.432524 0.496127
0.176486 0.192855 0.316366
0.178616 0.194985 0.318587
0.192963 0.208229 0.334572
0.239488 0.255269 0.386651
0.266313 0.280563 0.386464
0.334669 0.351143 0.442841
0.378827 0.391425 0.473217
0.422698 0.434344 0.497263
0.194873 0.211327 0.340990
0.193204 0.209638 0.338292
0.209374 0.228306 0.356566
0.257667 0.276501 0.408050
0.288527 0.303896 0.415689
0.357181 0.369438 0.464576
0.399619 0.410951 0.491139
0.452410 0.441184 0.514518
0.290261 0.332807 0.453893
0.288489 0.330031 0.453001
0.300126 0.341631 0.465824
0.352997 0.388415 0.507252
0.381858 0.397471 0.510771
0.431854 0.442976 0.527998
0.501102 0.478707 0.568495
0.573922 0.500436 0.605387
0.426564 0.487888 0.570618
0.421195 0.482022 0.568477
0.434563 0.493914 0.575625
0.485989 0.539223 0.617395
0.537591 0.585569 0.662098
0.546250 0.568429 0.632406
0.603296 0.582369 0.661396
0.672003 0.592323 0.680536
0.522086 0.603188 0.661697
0.526621 0.605107 0.663886
0.535364 0.611063 0.670707
0.564300 0.646207 0.700962
0.599180 0.686333 0.731183
0.640212 0.708144 0.753976
0.717618 0.693166 0.716395
0.811256 0.694877 0.707226
0.581420 0.685613 0.714407
0.581931 0.685136 0.711579
0.587530 0.691570 0.721494
0.609047 0.715139 0.738398
0.650222 0.748381 0.771109
0.736237 0.774902 0.766765
0.887011 0.777798 0.679912
0.944198 0.772697 0.652587
0.627271 0.732371 0.737868
0.621752 0.725591 0.728354
0.628546 0.730433 0.734695
0.666059 0.752145 0.751909
0.760019 0.796233 0.783823
0.847748 0.818035 0.772385
0.938831 0.829524 0.696903
0.958986 0.842809 0.709416
0.229937 0.241667 0.389872
0.229433 0.241301 0.389505
0.236142 0.249740 0.398221
0.276280 0.291091 0.440377
0.298756 0.308265 0.428370
0.355434 0.362749 0.471475
0.398563 0.405247 0.503935
0.431117 0.437968 0.523192
0.227907 0.239751 0.389961
0.224397 0.234743 0.384607
0.237631 0.252838 0.401166
0.278961 0.293793 0.441287
0.299937 0.308136 0.427334
0.353640 0.359739 0.470116
0.398630 0.405669 0.503527
0.429413 0.435468 0.522273
0.242351 0.260034 0.412852
0.243073 0.261129 0.412250
0.255739 0.272298 0.425705
0.298356 0.317192 0.465084
0.320470 0.326238 0.452765
0.371140 0.373622 0.486432
0.417440 0.420789 0.519311
0.451892 0.452970 0.538661
0.339167 0.366285 0.503605
0.339307 0.366064 0.503661
0.348919 0.377713 0.510896
0.403272 0.428849 0.553879
0.445596 0.458530 0.572480
0.453591 0.463380 0.555366
0.485998 0.496548 0.576050
0.527547 0.520646 0.600703
0.479221 0.523493 0.617840
0.472037 0.518957 0.612143
0.486769 0.533230 0.625337
0.532974 0.579214 0.673206
0.574983 0.622356 0.718509
0.569688 0.601956 0.676457
0.590389 0.607037 0.683721
0.630395 0.620498 0.710989
0.556935 0.632292 0.706522
0.557341 0.630981 0.706929
0.565950 0.640587 0.715383
0.590539 0.674901 0.747258
0.629621 0.713255 0.785825
0.668666 0.747836 0.818049
0.691997 0.743050 0.812967
0.725192 0.733325 0.806834
0.604946 0.708951 0.754664
0.604065 0.708000 0.754378
0.609427 0.713690 0.761219
0.635823 0.740795 0.789899
0.682106 0.782143 0.833899
0.734045 0.822812 0.870133
0.823635 0.819544 0.820454
0.890672 0.809777 0.778055
0.629318 0.757247 0.792438
0.631176 0.756847 0.792708
0.637840 0.762030 0.797199
0.671110 0.784865 0.816138
0.749306 0.825668 0.845219
0.823335 0.853193 0.865929
0.898558 0.850924 0.807912
0.948609 0.852193 0.775273
