其他预设/【236】赛博朋克风调色预设/【后期菌】视频调色预设/CUBE/Tokyo 08.cube
# LUT by SparkleStock. Enhanced with VOXCOLOR algorithms.
LUT_3D_SIZE 32
0.097752 0.070381 0.097752
0.101788 0.074417 0.097752
0.105446 0.078075 0.097752
0.103428 0.076057 0.097752
0.101662 0.074291 0.097752
0.101662 0.074291 0.097752
0.102419 0.074670 0.098130
0.106455 0.076688 0.100148
0.114527 0.080724 0.103175
0.134708 0.090814 0.109230
0.158673 0.102166 0.118437
0.190963 0.116293 0.134582
0.236118 0.140258 0.157538
0.302715 0.180620 0.191846
0.377259 0.224514 0.229685
0.462019 0.272948 0.272065
0.533661 0.314319 0.307382
0.592186 0.348627 0.335635
0.645035 0.376123 0.355942
0.693470 0.398322 0.370069
0.733075 0.417999 0.384196
0.767382 0.436162 0.398322
0.790591 0.446000 0.404124
0.808754 0.452054 0.406143
0.823889 0.458109 0.408161
0.838016 0.464163 0.410179
0.853782 0.470217 0.412197
0.869927 0.476272 0.414215
0.877243 0.478794 0.412701
0.883297 0.480812 0.410683
0.893135 0.480938 0.408665
0.903226 0.480938 0.406647
0.101788 0.074417 0.099770
0.103741 0.075329 0.098728
0.105446 0.076122 0.097752
0.103428 0.075146 0.097752
0.101792 0.074552 0.098012
0.102834 0.076635 0.100095
0.104241 0.078315 0.101776
0.107236 0.078250 0.101711
0.114006 0.080203 0.102915
0.132104 0.088210 0.107928
0.155613 0.099107 0.117070
0.191028 0.116358 0.135298
0.237745 0.141495 0.159165
0.303301 0.179774 0.192432
0.377714 0.223407 0.230141
0.463516 0.273925 0.273562
0.536721 0.316858 0.309400
0.597329 0.352207 0.337653
0.650504 0.379574 0.357960
0.697896 0.400731 0.372087
0.735809 0.419366 0.385563
0.768033 0.436487 0.398648
0.790591 0.446000 0.404124
0.808754 0.452054 0.406143
0.824670 0.458890 0.408161
0.839839 0.465986 0.410179
0.854954 0.472235 0.412197
0.870057 0.478290 0.414215
0.878154 0.480812 0.413613
0.885250 0.482830 0.412636
0.893200 0.481004 0.408730
0.901208 0.478920 0.404629
0.105572 0.078201 0.101662
0.105572 0.076248 0.099709
0.105450 0.074417 0.097878
0.103497 0.074417 0.097878
0.102032 0.074914 0.098374
0.103985 0.078885 0.102345
0.105950 0.081733 0.105193
0.107968 0.079715 0.103175
0.113551 0.079747 0.102703
0.129826 0.085932 0.106870
0.152957 0.096470 0.116020
0.191170 0.116586 0.136136
0.239320 0.142829 0.160842
0.304029 0.179285 0.193196
0.378365 0.222691 0.230792
0.465078 0.275031 0.275125
0.539553 0.319234 0.311353
0.601788 0.355299 0.339476
0.655199 0.382503 0.359726
0.701745 0.402814 0.373853
0.738201 0.420603 0.386759
0.768603 0.436878 0.398933
0.790591 0.446126 0.404124
0.808754 0.452180 0.406143
0.825403 0.459700 0.408161
0.841548 0.467707 0.410179
0.856053 0.474127 0.412197
0.870179 0.480182 0.414215
0.879009 0.482704 0.414467
0.887081 0.484722 0.414467
0.893261 0.481065 0.408791
0.899316 0.477028 0.402737
0.105572 0.078201 0.101662
0.105572 0.077290 0.100750
0.105515 0.076436 0.099896
0.104603 0.076436 0.099896
0.103920 0.076802 0.100262
0.104831 0.079731 0.103192
0.105950 0.081733 0.105193
0.107968 0.079715 0.103175
0.114071 0.080268 0.103224
0.132430 0.088536 0.109474
0.156342 0.100181 0.119731
0.192472 0.119255 0.138805
0.240101 0.145629 0.163250
0.306894 0.184168 0.196647
0.381946 0.227834 0.234372
0.467617 0.278091 0.277664
0.538967 0.319169 0.312329
0.595995 0.351068 0.338369
0.648298 0.377621 0.357708
0.696928 0.400015 0.371835
0.735467 0.419887 0.385392
0.767952 0.438245 0.398607
0.790591 0.448144 0.404124
0.808754 0.454199 0.406143
0.825403 0.460936 0.408161
0.841548 0.467902 0.410179
0.856053 0.474127 0.412197
0.870179 0.480182 0.414215
0.879009 0.482704 0.414467
0.887081 0.484722 0.414467
0.893261 0.481065 0.408791
0.899316 0.477028 0.402737
0.105572 0.078201 0.101662
0.105572 0.078201 0.101532
0.105572 0.078201 0.101410
0.105572 0.078201 0.101410
0.105588 0.078454 0.101662
0.105718 0.080472 0.103680
0.106227 0.081757 0.104966
0.108375 0.079870 0.103078
0.114967 0.080944 0.103712
0.134887 0.090904 0.111915
0.159426 0.103509 0.123271
0.194124 0.121932 0.141564
0.241541 0.148583 0.165911
0.310157 0.188945 0.200349
0.385608 0.232667 0.238034
0.469847 0.280711 0.279893
0.538527 0.319055 0.313062
0.591649 0.347699 0.337539
0.643050 0.373853 0.356268
0.693112 0.398070 0.370525
0.733246 0.419602 0.384538
0.767423 0.439523 0.398404
0.790770 0.450000 0.404214
0.809193 0.456184 0.406362
0.825907 0.462369 0.408511
0.842052 0.468553 0.410659
0.856346 0.474420 0.412596
0.870212 0.480214 0.414484
0.878895 0.482704 0.414606
0.886837 0.484722 0.414475
0.893375 0.481431 0.409158
0.899820 0.477785 0.403494
0.105572 0.078201 0.101662
0.105572 0.078201 0.100490
0.105572 0.078201 0.099391
0.105572 0.078201 0.099391
0.105718 0.078454 0.099644
0.106890 0.080472 0.101662
0.108440 0.081953 0.103143
0.111630 0.081106 0.102297
0.118482 0.082701 0.103973
0.136319 0.091620 0.113217
0.160402 0.104160 0.125615
0.198225 0.124666 0.144949
0.247596 0.152619 0.170338
0.316211 0.192981 0.205818
0.389839 0.235336 0.242266
0.469912 0.280255 0.279958
0.539113 0.318599 0.312085
0.597443 0.350368 0.338646
0.649364 0.377889 0.358872
0.696301 0.402106 0.374170
0.734613 0.422336 0.387272
0.767749 0.440174 0.399055
0.792202 0.450716 0.404930
0.812708 0.457942 0.408120
0.829944 0.465168 0.411310
0.846088 0.472394 0.414500
0.858689 0.476764 0.415786
0.870472 0.480475 0.416632
0.877983 0.482704 0.415712
0.884884 0.484722 0.414540
0.894287 0.484360 0.412087
0.903856 0.483839 0.409548
0.105193 0.078201 0.102040
0.105389 0.078397 0.100217
0.105584 0.078580 0.098521
0.105779 0.078580 0.098716
0.106178 0.078808 0.099090
0.108001 0.080630 0.100718
0.110349 0.082221 0.102113
0.114971 0.082807 0.102504
0.122522 0.085314 0.105417
0.138862 0.093581 0.115898
0.162648 0.106141 0.129350
0.202815 0.128145 0.149335
0.253870 0.157180 0.175375
0.323071 0.197932 0.211506
0.395377 0.239312 0.246839
0.471674 0.281496 0.281147
0.541103 0.319645 0.312329
0.603664 0.353757 0.340388
0.656228 0.382304 0.361854
0.701017 0.406521 0.378194
0.737750 0.425449 0.390262
0.769649 0.441203 0.399767
0.794476 0.451676 0.405646
0.816089 0.459748 0.409878
0.833748 0.467674 0.413816
0.850088 0.475551 0.417657
0.861509 0.478985 0.418536
0.871795 0.481394 0.418731
0.878549 0.483290 0.417161
0.884798 0.485113 0.415338
0.895992 0.486936 0.415041
0.907514 0.488759 0.414846
0.103175 0.078201 0.104058
0.104412 0.079438 0.103277
0.105649 0.080598 0.102622
0.106886 0.080598 0.103859
0.108066 0.080696 0.104884
0.108847 0.081477 0.104429
0.110934 0.082807 0.104522
0.118681 0.086518 0.106996
0.128837 0.091628 0.111992
0.146219 0.100938 0.124557
0.170395 0.113888 0.139115
0.209520 0.134851 0.158059
0.261096 0.164015 0.183057
0.333422 0.206851 0.218146
0.406574 0.248946 0.252893
0.480788 0.290090 0.287201
0.549175 0.327197 0.317863
0.611737 0.360267 0.344879
0.665472 0.388358 0.366476
0.712344 0.412575 0.383858
0.748556 0.430201 0.394364
0.778372 0.443872 0.400743
0.800400 0.453694 0.406362
0.818889 0.461766 0.411635
0.836547 0.468911 0.415053
0.853929 0.475747 0.417852
0.866391 0.480678 0.419382
0.877719 0.485170 0.420619
0.885515 0.486415 0.420090
0.892806 0.487196 0.419309
0.901134 0.487977 0.418101
0.909532 0.488759 0.416864
0.099644 0.080219 0.107590
0.101401 0.081977 0.107850
0.103175 0.083641 0.108221
0.105193 0.083902 0.110239
0.106959 0.084130 0.111785
0.106959 0.084130 0.110027
0.108802 0.085167 0.109258
0.118633 0.090701 0.112774
0.131653 0.097764 0.119137
0.154242 0.109417 0.134045
0.182487 0.124386 0.150540
0.223175 0.146650 0.170525
0.276411 0.176921 0.195784
0.350559 0.220538 0.229831
0.423598 0.262390 0.263537
0.495208 0.301970 0.296803
0.562033 0.337906 0.326424
0.624073 0.370195 0.352398
0.677581 0.397212 0.373247
0.724453 0.420127 0.390108
0.759526 0.436451 0.399441
0.787519 0.448820 0.404259
0.807366 0.457877 0.409389
0.823511 0.465428 0.414663
0.840388 0.471662 0.417494
0.857509 0.477456 0.419513
0.870558 0.483249 0.421107
0.882666 0.489043 0.422605
0.891243 0.489995 0.423020
0.899316 0.490256 0.423280
0.905740 0.490516 0.421404
0.912055 0.490777 0.419386
0.091571 0.088292 0.115662
0.092287 0.089008 0.116964
0.093085 0.089761 0.118311
0.095103 0.091063 0.120329
0.096869 0.092202 0.122006
0.096869 0.092202 0.121289
0.098517 0.092849 0.120976
0.107305 0.096299 0.122408
0.123971 0.103363 0.127991
0.164268 0.121265 0.146023
0.207616 0.143135 0.166945
0.257678 0.173732 0.194222
0.315991 0.208039 0.223647
0.388057 0.248531 0.256653
0.458101 0.287258 0.287949
0.525544 0.323714 0.317049
0.589244 0.358087 0.344066
0.649202 0.390376 0.368999
0.698283 0.414463 0.386462
0.738905 0.432170 0.398115
0.770983 0.447192 0.407449
0.797935 0.460603 0.415391
0.817457 0.468553 0.419350
0.833601 0.474022 0.421498
0.847354 0.478953 0.423549
0.860309 0.483705 0.425567
0.872576 0.488457 0.425469
0.884685 0.493210 0.424883
0.893261 0.494943 0.425949
0.901334 0.496245 0.427251
0.908735 0.497547 0.425441
0.916091 0.498849 0.423423
0.081607 0.097626 0.125627
0.082258 0.098277 0.127970
0.082954 0.098972 0.130253
0.084321 0.100339 0.131620
0.085517 0.101536 0.132816
0.085517 0.101536 0.132816
0.086970 0.102097 0.133060
0.094716 0.105092 0.134362
0.112586 0.112236 0.139814
0.160825 0.131832 0.157717
0.216429 0.158384 0.181438
0.288234 0.200244 0.217959
0.359722 0.240907 0.252893
0.430681 0.279576 0.285183
0.497852 0.315483 0.314112
0.560153 0.347837 0.338719
0.619264 0.379509 0.362481
0.675185 0.410496 0.385396
0.719717 0.431999 0.400145
0.755392 0.446126 0.408543
0.784557 0.459439 0.416982
0.809815 0.472264 0.425445
0.827689 0.478599 0.427866
0.842207 0.481984 0.427540
0.853892 0.486102 0.428972
0.864634 0.490463 0.430990
0.876486 0.494561 0.430258
0.888595 0.498597 0.428891
0.896602 0.500582 0.429631
0.904023 0.502275 0.430673
0.912055 0.503968 0.428541
0.920127 0.505660 0.426197
0.067480 0.109734 0.139753
0.070214 0.112468 0.143139
0.072733 0.114987 0.146267
0.072017 0.114271 0.145551
0.071390 0.113644 0.144925
0.071390 0.113644 0.144925
0.072648 0.114792 0.145950
0.079353 0.120911 0.151419
0.093056 0.128316 0.158173
0.127755 0.139578 0.168784
0.189347 0.165936 0.191724
0.310108 0.225502 0.241785
0.412583 0.277623 0.285183
0.484584 0.317334 0.317472
0.549151 0.351092 0.344123
0.604160 0.377198 0.363522
0.655459 0.403661 0.382597
0.703047 0.430482 0.401346
0.742762 0.450162 0.414858
0.776354 0.464289 0.424297
0.802785 0.474998 0.429872
0.824919 0.483656 0.433127
0.838236 0.487257 0.433204
0.847545 0.488559 0.431837
0.859491 0.492937 0.433009
0.872316 0.498340 0.435027
0.884558 0.502633 0.435987
0.896667 0.506669 0.436703
0.902851 0.507743 0.434970
0.908190 0.508394 0.432886
0.916091 0.509045 0.429583
0.924164 0.509696 0.426197
0.057137 0.127140 0.157664
0.060783 0.130786 0.160919
0.064099 0.134102 0.163918
0.062472 0.132474 0.163071
0.061096 0.131148 0.162380
0.061487 0.131929 0.162770
0.062866 0.133785 0.164455
0.068530 0.140295 0.171746
0.079239 0.146495 0.177849
0.105084 0.151768 0.180388
0.170273 0.177223 0.199934
0.322021 0.247075 0.256897
0.446452 0.305575 0.303582
0.525353 0.345156 0.333137
0.592150 0.377474 0.356996
0.643383 0.400454 0.373532
0.689604 0.423077 0.388895
0.730813 0.445341 0.403087
0.765686 0.462369 0.414093
0.795632 0.475324 0.422621
0.818742 0.483233 0.424843
0.837751 0.488116 0.423280
0.848391 0.489910 0.421136
0.855227 0.490301 0.418727
0.867238 0.494646 0.419053
0.880974 0.500310 0.420290
0.893070 0.504651 0.421844
0.904788 0.508687 0.423471
0.910468 0.510217 0.420827
0.915286 0.511389 0.417572
0.922056 0.510730 0.412120
0.928957 0.509949 0.406521
0.053101 0.153376 0.181881
0.055705 0.155980 0.183053
0.058110 0.158384 0.184294
0.057524 0.157798 0.186573
0.057190 0.157644 0.188745
0.058623 0.160508 0.190177
0.060653 0.163275 0.192318
0.065275 0.165618 0.197526
0.074942 0.168174 0.199723
0.099745 0.171364 0.192887
0.164544 0.194734 0.204687
0.317334 0.262504 0.257483
0.448665 0.318921 0.298829
0.544232 0.356418 0.321094
0.621314 0.388476 0.341307
0.674631 0.413540 0.358884
0.720331 0.434599 0.372164
0.758415 0.451656 0.381148
0.788406 0.464647 0.387532
0.812102 0.474477 0.391894
0.830916 0.479262 0.389949
0.846800 0.481020 0.384220
0.857896 0.482554 0.380058
0.866815 0.483986 0.376608
0.878565 0.487811 0.375110
0.891260 0.492433 0.374264
0.902314 0.496579 0.374581
0.912991 0.500615 0.375167
0.920363 0.504879 0.374215
0.927264 0.509176 0.373043
0.931235 0.506759 0.363815
0.935011 0.503894 0.354050
0.053480 0.186674 0.213162
0.055498 0.189148 0.214073
0.057390 0.191496 0.215151
0.057390 0.191951 0.218732
0.057585 0.192570 0.221889
0.059147 0.194328 0.222085
0.061174 0.195841 0.222658
0.065210 0.196297 0.224872
0.074291 0.197371 0.224188
0.098508 0.200300 0.214814
0.159812 0.220278 0.220290
0.302707 0.277761 0.258439
0.432907 0.327481 0.288751
0.541949 0.364263 0.306003
0.629118 0.394636 0.319865
0.688164 0.416770 0.329369
0.735850 0.435356 0.337832
0.772175 0.450394 0.345254
0.799420 0.461002 0.348610
0.819601 0.468163 0.348806
0.836852 0.472272 0.345258
0.852346 0.474550 0.339464
0.864438 0.476023 0.333625
0.874985 0.477130 0.327766
0.887386 0.481459 0.326155
0.900406 0.486863 0.325960
0.910676 0.491155 0.325553
0.920310 0.495191 0.325097
0.928179 0.499797 0.323844
0.935796 0.504484 0.322477
0.938164 0.501848 0.311467
0.940182 0.498723 0.299814
0.059534 0.229054 0.253524
0.061552 0.232570 0.256518
0.063444 0.235959 0.259485
0.063444 0.237456 0.262023
0.063509 0.238335 0.263749
0.064030 0.234885 0.259777
0.065210 0.232362 0.256185
0.069246 0.233860 0.254232
0.078327 0.236236 0.251986
0.102545 0.241248 0.248861
0.156362 0.256148 0.249846
0.275300 0.292799 0.259871
0.394042 0.329890 0.271825
0.512459 0.367713 0.286993
0.609458 0.394571 0.291025
0.678920 0.407331 0.280740
0.731813 0.422271 0.280870
0.768139 0.439392 0.291416
0.795384 0.449739 0.293796
0.815565 0.454817 0.289825
0.834769 0.461400 0.287970
0.853388 0.468887 0.287384
0.867173 0.470555 0.280308
0.878760 0.469578 0.270283
0.892985 0.475730 0.270755
0.908088 0.484259 0.274726
0.917902 0.489137 0.274254
0.926495 0.493173 0.272757
0.933322 0.495045 0.268639
0.939897 0.496607 0.264147
0.942200 0.495728 0.253918
0.944218 0.494687 0.243307
0.069624 0.274462 0.294895
0.071643 0.277977 0.297889
0.073502 0.281334 0.300790
0.072981 0.282310 0.302288
0.072591 0.282668 0.303102
0.073111 0.278697 0.299130
0.074584 0.275947 0.295245
0.080183 0.278486 0.291729
0.093561 0.282554 0.288832
0.130277 0.291213 0.287791
0.191223 0.304713 0.284837
0.305474 0.328865 0.277676
0.418943 0.356776 0.277131
0.531110 0.390954 0.287612
0.623910 0.412571 0.284450
0.691810 0.418040 0.263749
0.743401 0.429595 0.258671
0.778685 0.447237 0.269217
0.805474 0.456933 0.270718
0.825655 0.460448 0.265185
0.845836 0.467748 0.263395
0.866017 0.477317 0.263850
0.880648 0.479994 0.256742
0.892757 0.479539 0.246196
0.906330 0.485821 0.246147
0.920392 0.494349 0.249597
0.929587 0.499227 0.249028
0.937660 0.503264 0.247531
0.942599 0.502857 0.241134
0.947091 0.501815 0.234039
0.949752 0.503703 0.227553
0.952291 0.505786 0.221108
0.083751 0.322896 0.337275
0.085769 0.325370 0.338186
0.087564 0.327620 0.339069
0.086001 0.326513 0.339525
0.084829 0.325569 0.339948
0.086392 0.325764 0.340143
0.089297 0.326594 0.339838
0.098020 0.330175 0.337364
0.119991 0.336327 0.334728
0.181706 0.350193 0.331603
0.264395 0.365972 0.325264
0.393228 0.385958 0.311853
0.507609 0.408140 0.304668
0.597903 0.433985 0.307858
0.672475 0.448637 0.300139
0.726833 0.448897 0.278396
0.770613 0.457327 0.271235
0.803814 0.473928 0.278656
0.829691 0.482582 0.279377
0.849872 0.485056 0.274885
0.870053 0.491314 0.271532
0.890234 0.499842 0.268863
0.904866 0.504342 0.262927
0.916974 0.507011 0.255505
0.927423 0.511731 0.252332
0.937318 0.517134 0.250574
0.945732 0.521427 0.249874
0.953804 0.525463 0.249418
0.956010 0.523233 0.241330
0.957377 0.520108 0.232151
0.960819 0.525772 0.232370
0.964399 0.532022 0.233217
0.110365 0.370195 0.378520
0.111797 0.372213 0.379106
0.113050 0.373979 0.379618
0.111618 0.371961 0.379033
0.110690 0.370447 0.378626
0.113294 0.372466 0.379472
0.118291 0.375192 0.380111
0.133654 0.380986 0.379850
0.163779 0.388781 0.378060
0.238189 0.402582 0.371680
0.331782 0.416831 0.360235
0.467581 0.432065 0.337645
0.579650 0.448372 0.322648
0.652172 0.466470 0.320304
0.712361 0.476792 0.311068
0.756694 0.477118 0.292970
0.794712 0.484181 0.285484
0.826416 0.497982 0.288609
0.851968 0.506144 0.288035
0.872735 0.509920 0.284585
0.892037 0.515649 0.280036
0.910460 0.522550 0.274828
0.923334 0.526675 0.269038
0.933684 0.529540 0.262984
0.941887 0.533283 0.258882
0.949374 0.537319 0.255432
0.956384 0.541355 0.254785
0.963285 0.545391 0.254785
0.964660 0.542877 0.246981
0.965246 0.539427 0.238063
0.968517 0.545131 0.239641
0.971967 0.551446 0.241920
0.146691 0.416611 0.418882
0.147081 0.418630 0.420509
0.147423 0.420395 0.421933
0.147032 0.418377 0.420306
0.147146 0.416864 0.418727
0.150792 0.418882 0.417490
0.158392 0.422194 0.417022
0.183130 0.431113 0.419887
0.221067 0.440210 0.419399
0.298601 0.449845 0.408852
0.394669 0.459602 0.390962
0.531509 0.469627 0.356915
0.638761 0.479946 0.333194
0.696700 0.490752 0.326684
0.745497 0.498796 0.318294
0.782539 0.503288 0.307488
0.816391 0.510351 0.301043
0.847053 0.519986 0.298960
0.872735 0.528083 0.296693
0.894543 0.534984 0.294285
0.912283 0.540582 0.288824
0.927581 0.545400 0.281533
0.937330 0.547442 0.275092
0.944556 0.548223 0.269038
0.951196 0.551446 0.265718
0.957641 0.555482 0.263309
0.962764 0.559518 0.262858
0.967581 0.563554 0.262858
0.969607 0.561951 0.256876
0.971235 0.559543 0.250041
0.973595 0.562383 0.248820
0.976004 0.565572 0.247974
0.196891 0.455460 0.447892
0.196891 0.456827 0.448608
0.197013 0.458105 0.449316
0.198966 0.458039 0.449902
0.201017 0.458072 0.450081
0.203751 0.458788 0.447412
0.211026 0.460896 0.445634
0.237977 0.469033 0.447717
0.276565 0.476992 0.446415
0.350063 0.484413 0.434957
0.442257 0.492038 0.414691
0.575582 0.500110 0.375045
0.677854 0.507939 0.347483
0.728371 0.515360 0.340062
0.772082 0.523038 0.332925
0.807041 0.531045 0.326155
0.839005 0.538759 0.320101
0.867974 0.546181 0.314763
0.892037 0.552870 0.309461
0.912283 0.558989 0.304188
0.927484 0.562586 0.297979
0.939657 0.564669 0.291209
0.948519 0.567558 0.286721
0.955875 0.570813 0.283270
0.961279 0.572701 0.278941
0.966031 0.574133 0.274319
0.969673 0.577681 0.272924
0.973058 0.581717 0.272273
0.975816 0.582165 0.268603
0.978485 0.582100 0.264501
0.979934 0.582767 0.260522
0.981301 0.583483 0.256551
0.255416 0.489768 0.470091
0.255416 0.490093 0.468724
0.255733 0.490589 0.467739
0.260811 0.493649 0.472492
0.265335 0.496156 0.476186
0.265986 0.494788 0.472475
0.271178 0.494618 0.469265
0.296046 0.499630 0.468224
0.330989 0.504985 0.464838
0.396154 0.511365 0.454422
0.480666 0.518273 0.434221
0.607741 0.526346 0.392492
0.704935 0.533783 0.364019
0.752328 0.540163 0.357639
0.794737 0.548622 0.352000
0.830737 0.559754 0.347313
0.862180 0.568510 0.341258
0.889067 0.574890 0.333837
0.910460 0.579366 0.324694
0.927581 0.582360 0.314213
0.939657 0.582832 0.307353
0.948706 0.581791 0.302666
0.958024 0.587283 0.301694
0.967463 0.595746 0.302410
0.971825 0.595811 0.295997
0.974494 0.593077 0.287209
0.976899 0.595844 0.284186
0.979242 0.599880 0.282493
0.982782 0.603062 0.281427
0.986493 0.606122 0.280451
0.987030 0.605031 0.273737
0.987355 0.603664 0.266641
0.315328 0.524075 0.493678
0.315328 0.524075 0.493092
0.315572 0.524238 0.492742
0.319478 0.526842 0.495932
0.322985 0.528958 0.498397
0.323702 0.527656 0.495793
0.329630 0.528026 0.493568
0.358144 0.535643 0.492982
0.393200 0.541974 0.489483
0.447884 0.544448 0.477244
0.522342 0.547552 0.454915
0.640303 0.552044 0.410386
0.731167 0.557122 0.379480
0.776867 0.563176 0.371277
0.816586 0.570626 0.363958
0.848615 0.579870 0.357773
0.877389 0.588235 0.352435
0.902908 0.595722 0.347943
0.922752 0.600938 0.340375
0.938180 0.604388 0.330415
0.949011 0.605316 0.324605
0.957084 0.604730 0.321285
0.966051 0.609515 0.319173
0.975426 0.616741 0.317611
0.979283 0.616595 0.310189
0.981301 0.613991 0.300815
0.983319 0.616782 0.297417
0.985337 0.620818 0.295399
0.987868 0.624228 0.294521
0.990472 0.627548 0.293804
0.991810 0.626535 0.288206
0.993063 0.625233 0.282282
0.375871 0.558383 0.517895
0.375871 0.558383 0.519392
0.375920 0.558416 0.520735
0.376701 0.558936 0.519758
0.377604 0.559359 0.518839
0.379362 0.559099 0.518318
0.387308 0.561292 0.518176
0.422072 0.574117 0.519673
0.458951 0.583052 0.516955
0.502177 0.580318 0.501591
0.565503 0.578214 0.476137
0.673049 0.577498 0.428484
0.757011 0.579321 0.394453
0.801670 0.585375 0.383126
0.838069 0.591002 0.372681
0.863848 0.596080 0.363372
0.888977 0.603404 0.359075
0.913455 0.612973 0.359791
0.932256 0.620273 0.356260
0.946643 0.625806 0.349424
0.957084 0.628817 0.345437
0.965156 0.630314 0.343158
0.973408 0.632886 0.337792
0.981740 0.635946 0.331021
0.985337 0.636320 0.323079
0.987355 0.635799 0.314746
0.989373 0.638981 0.311544
0.991392 0.643017 0.309526
0.992100 0.645515 0.307736
0.992620 0.647794 0.305978
0.995537 0.647692 0.303244
0.998613 0.647432 0.300445
0.419765 0.586636 0.536058
0.424452 0.588980 0.538857
0.428846 0.591177 0.541404
0.428846 0.591177 0.540167
0.429196 0.591177 0.539085
0.431995 0.591177 0.539085
0.439763 0.592947 0.539024
0.469058 0.602387 0.538698
0.501119 0.608652 0.534418
0.541481 0.605397 0.518273
0.600316 0.602285 0.492282
0.699788 0.599486 0.444629
0.777729 0.600006 0.410012
0.819784 0.606061 0.397122
0.854376 0.611574 0.385799
0.879375 0.616391 0.376490
0.902030 0.623064 0.372453
0.922341 0.631592 0.373690
0.938734 0.637850 0.370386
0.952079 0.642342 0.363551
0.962617 0.645776 0.359238
0.971471 0.648575 0.356439
0.979250 0.651374 0.350551
0.986542 0.654174 0.343260
0.989292 0.655459 0.337727
0.990529 0.656240 0.332779
0.992877 0.659666 0.330212
0.995481 0.663703 0.328193
0.995806 0.665289 0.326859
0.995806 0.666526 0.325622
0.997835 0.667336 0.324385
1.000000 0.668117 0.323148
0.458109 0.612872 0.552203
0.469045 0.618340 0.556043
0.479299 0.623467 0.559632
0.479299 0.623467 0.559437
0.479779 0.623467 0.559266
0.483620 0.623467 0.559266
0.490476 0.624065 0.558619
0.510396 0.627255 0.555169
0.535427 0.629094 0.548545
0.575789 0.626880 0.532400
0.632345 0.624158 0.506734
0.724526 0.620318 0.460123
0.796738 0.620187 0.425766
0.835668 0.626242 0.411835
0.868959 0.632210 0.400381
0.894999 0.638069 0.392114
0.915570 0.644221 0.388077
0.930674 0.650666 0.388273
0.944202 0.654841 0.383927
0.956506 0.657250 0.376050
0.967305 0.660553 0.370696
0.977200 0.664394 0.366855
0.984589 0.668235 0.361358
0.990838 0.672076 0.355108
0.992547 0.674403 0.352960
0.992742 0.676226 0.352179
0.995529 0.679847 0.350393
0.998915 0.683884 0.348374
0.999338 0.684559 0.347951
0.999338 0.684754 0.347756
0.999658 0.686475 0.347561
1.000000 0.688298 0.347365
0.506291 0.635828 0.561789
0.515014 0.640189 0.564978
0.523087 0.644225 0.567916
0.521394 0.643379 0.567070
0.520417 0.642639 0.566223
0.524454 0.642639 0.565377
0.531297 0.643176 0.563774
0.550307 0.646040 0.558892
0.574866 0.648107 0.551828
0.616074 0.647782 0.538222
0.669875 0.645768 0.514892
0.751380 0.640039 0.470168
0.815113 0.638411 0.437236
0.849225 0.643619 0.423956
0.879521 0.649568 0.413694
0.904910 0.656468 0.407314
0.923822 0.662099 0.402855
0.936256 0.666461 0.400316
0.948507 0.670457 0.395617
0.960616 0.674167 0.389237
0.971463 0.678610 0.384322
0.981553 0.683493 0.380286
0.987705 0.686630 0.374280
0.992067 0.688974 0.367380
0.994268 0.692343 0.367559
0.995749 0.696053 0.370098
0.997693 0.700716 0.373747
0.999744 0.705598 0.377653
1.000000 0.706209 0.375920
1.000000 0.706209 0.373381
1.000000 0.708101 0.371636
1.000000 0.710119 0.369943
0.556743 0.658027 0.569861
0.561300 0.660305 0.572009
0.565336 0.662323 0.573905
0.561561 0.660435 0.572017
0.558761 0.658783 0.570129
0.562798 0.658783 0.568242
0.569837 0.659516 0.565597
0.589887 0.663422 0.559673
0.615488 0.666791 0.552609
0.657738 0.668548 0.542128
0.708674 0.667316 0.521597
0.778722 0.659504 0.478957
0.833341 0.656184 0.447717
0.862245 0.660350 0.435478
0.889156 0.666168 0.426714
0.913503 0.674110 0.422418
0.930853 0.679221 0.417437
0.941204 0.681499 0.411774
0.952543 0.685755 0.406879
0.964652 0.691549 0.402582
0.975499 0.697424 0.398449
0.985590 0.703348 0.394412
