其他预设/【236】赛博朋克风调色预设/【后期菌】视频调色预设/CUBE/Tokyo 10.cube
# LUT by SparkleStock. Enhanced with VOXCOLOR algorithms.
LUT_3D_SIZE 32
0.113392 0.062561 0.058651
0.117428 0.062561 0.060669
0.121086 0.062561 0.062561
0.119068 0.062561 0.062561
0.117302 0.062561 0.062561
0.117302 0.062561 0.062561
0.118437 0.062561 0.062183
0.124492 0.062561 0.060165
0.133573 0.063570 0.058651
0.151736 0.067606 0.058651
0.173683 0.072273 0.058020
0.203954 0.078327 0.056002
0.241037 0.088923 0.056255
0.289471 0.107085 0.060291
0.346735 0.127897 0.063444
0.415350 0.152114 0.065462
0.468830 0.174313 0.067480
0.507174 0.194494 0.069498
0.539842 0.210135 0.071516
0.568095 0.222243 0.073535
0.593826 0.239397 0.080598
0.618043 0.259578 0.090688
0.638098 0.271434 0.093842
0.656261 0.279507 0.093842
0.671397 0.289093 0.096869
0.685523 0.299183 0.100905
0.698010 0.310914 0.103301
0.710119 0.323022 0.105320
0.718696 0.328067 0.105572
0.726768 0.332104 0.105572
0.734841 0.339924 0.113140
0.742913 0.347996 0.121212
0.117428 0.064579 0.060669
0.118340 0.063538 0.061646
0.119133 0.062561 0.062561
0.118156 0.062561 0.062561
0.117432 0.062691 0.062691
0.118474 0.063733 0.063733
0.120065 0.064384 0.064006
0.124036 0.063342 0.060946
0.131294 0.063570 0.058391
0.148416 0.067606 0.057349
0.170623 0.072599 0.056653
0.204019 0.079695 0.056718
0.243445 0.090550 0.057882
0.292921 0.107671 0.060877
0.350315 0.128353 0.063900
0.417889 0.153612 0.066959
0.471369 0.176852 0.070540
0.510754 0.198075 0.074641
0.543878 0.214171 0.076985
0.572131 0.226279 0.077961
0.597211 0.242782 0.084634
0.620387 0.261922 0.094725
0.639400 0.272736 0.096446
0.656521 0.279767 0.094362
0.671397 0.289874 0.096869
0.685523 0.301006 0.100905
0.698010 0.312085 0.103301
0.710119 0.323152 0.105320
0.718696 0.329890 0.108306
0.726768 0.336010 0.111431
0.733864 0.341030 0.115288
0.740895 0.345978 0.119194
0.121212 0.066471 0.062561
0.119259 0.064518 0.062561
0.117428 0.062687 0.062561
0.117428 0.062687 0.062561
0.117672 0.062931 0.062813
0.119625 0.064884 0.064831
0.121591 0.066093 0.065714
0.123609 0.064075 0.061678
0.129175 0.063586 0.058179
0.145385 0.067688 0.056291
0.167860 0.073030 0.055583
0.204121 0.081102 0.057471
0.245704 0.092226 0.059457
0.296156 0.108436 0.061605
0.353700 0.129032 0.064551
0.420363 0.155268 0.068522
0.473777 0.179387 0.073469
0.513944 0.201391 0.079394
0.547446 0.217829 0.081985
0.575765 0.229937 0.081985
0.600340 0.245870 0.088251
0.622669 0.264098 0.098277
0.640747 0.274002 0.098769
0.656891 0.280121 0.094928
0.671523 0.290781 0.096995
0.685649 0.302955 0.101031
0.698084 0.313330 0.103375
0.710127 0.323291 0.105328
0.718753 0.331599 0.110869
0.726890 0.339671 0.116924
0.733014 0.342068 0.117302
0.739003 0.344086 0.117302
0.121212 0.066471 0.062561
0.120301 0.065560 0.062561
0.119446 0.064705 0.062561
0.119446 0.064705 0.062561
0.119560 0.064819 0.062813
0.120472 0.065731 0.064831
0.121591 0.066093 0.065714
0.123609 0.064075 0.061678
0.129435 0.063847 0.058700
0.146687 0.068990 0.058895
0.169553 0.075048 0.058968
0.204772 0.083120 0.058773
0.245704 0.094635 0.060238
0.296156 0.111887 0.064469
0.354156 0.133068 0.068131
0.421860 0.159304 0.071061
0.474233 0.181861 0.074446
0.511275 0.200740 0.078287
0.543996 0.215811 0.079967
0.573356 0.227919 0.079967
0.599624 0.244503 0.085582
0.624036 0.263773 0.094566
0.642765 0.274718 0.096881
0.658910 0.281879 0.096165
0.673541 0.293581 0.099013
0.687668 0.306796 0.103049
0.699255 0.315674 0.104547
0.710257 0.323551 0.105458
0.719664 0.331599 0.110869
0.728843 0.339671 0.116924
0.734055 0.342068 0.117302
0.739003 0.344086 0.117302
0.121212 0.066471 0.062561
0.121082 0.066341 0.062561
0.120960 0.066219 0.062561
0.120960 0.066219 0.062561
0.120976 0.066235 0.062797
0.121106 0.066365 0.064685
0.121591 0.066093 0.065511
0.123609 0.064075 0.061735
0.129695 0.064075 0.059375
0.147989 0.070129 0.061263
0.171327 0.076855 0.061971
0.205765 0.085057 0.060083
0.246208 0.096946 0.061125
0.296661 0.114979 0.067049
0.354661 0.136429 0.071207
0.422365 0.162274 0.073095
0.473891 0.183529 0.075113
0.509241 0.200195 0.077261
0.541660 0.214443 0.078348
0.571802 0.226812 0.078608
0.599258 0.243738 0.083588
0.625102 0.263399 0.091400
0.644457 0.275361 0.095319
0.660863 0.283824 0.097467
0.675559 0.296437 0.101129
0.689686 0.310433 0.105295
0.700427 0.317977 0.105971
0.710387 0.324031 0.105840
0.720348 0.331623 0.111008
0.730308 0.339435 0.116932
0.734959 0.342182 0.117546
0.739255 0.344591 0.117807
0.121212 0.066471 0.062561
0.120040 0.065299 0.062561
0.118942 0.064201 0.062561
0.118942 0.064201 0.062561
0.119088 0.064347 0.062667
0.120260 0.065519 0.063513
0.121591 0.066093 0.063883
0.123609 0.064075 0.062191
0.129956 0.064075 0.061133
0.149291 0.070129 0.061979
0.173671 0.077180 0.062297
0.209150 0.086424 0.061450
0.250244 0.098574 0.062752
0.300697 0.115565 0.067635
0.355507 0.135062 0.070751
0.415920 0.157782 0.071598
0.467967 0.179558 0.073616
0.511649 0.200390 0.076806
0.547129 0.217633 0.079520
0.576229 0.232086 0.081863
0.601341 0.247189 0.086323
0.624061 0.262683 0.092051
0.643871 0.275491 0.096035
0.662360 0.287079 0.099225
0.677577 0.299692 0.103928
0.691704 0.312647 0.109136
0.701599 0.319995 0.109160
0.710518 0.326049 0.107989
0.719436 0.331819 0.112114
0.728355 0.337548 0.116997
0.734893 0.343093 0.119499
0.741273 0.348627 0.121843
0.120455 0.066093 0.062939
0.118828 0.064465 0.062939
0.117302 0.062939 0.062939
0.117302 0.062939 0.062939
0.117554 0.063167 0.062939
0.119572 0.064990 0.062939
0.121664 0.066129 0.062903
0.124072 0.064307 0.062708
0.131022 0.064502 0.062659
0.151593 0.070751 0.063049
0.177027 0.078201 0.063318
0.213158 0.088292 0.063318
0.254879 0.100726 0.064831
0.305917 0.117066 0.068868
0.358465 0.135172 0.071138
0.412954 0.155548 0.071138
0.465131 0.177650 0.073058
0.514998 0.201476 0.076899
0.552707 0.220982 0.080960
0.580960 0.237127 0.085191
0.604291 0.250993 0.089423
0.624667 0.263492 0.093654
0.644640 0.276842 0.097617
0.664431 0.290578 0.101458
0.680120 0.303240 0.106813
0.694442 0.315544 0.112672
0.703686 0.322770 0.112448
0.711759 0.328824 0.110821
0.719831 0.333113 0.113978
0.727903 0.337149 0.117819
0.735793 0.344786 0.121843
0.743670 0.352663 0.125879
0.116419 0.064075 0.064958
0.116875 0.064530 0.064958
0.117302 0.064958 0.064958
0.117302 0.064958 0.064958
0.117554 0.065055 0.064958
0.119572 0.065836 0.064958
0.122054 0.066325 0.064726
0.126546 0.065543 0.063489
0.135579 0.066780 0.063180
0.158234 0.074072 0.065653
0.184774 0.082238 0.067354
0.219863 0.092328 0.067354
0.262105 0.105153 0.068868
0.316268 0.122534 0.072904
0.370574 0.141682 0.075174
0.425062 0.163100 0.075174
0.475678 0.184681 0.076574
0.522419 0.206424 0.079373
0.558761 0.225018 0.083564
0.587015 0.241163 0.088837
0.610996 0.256331 0.094110
0.632414 0.270914 0.099383
0.651281 0.283482 0.102956
0.668988 0.295135 0.105755
0.684937 0.308057 0.110068
0.700301 0.321403 0.114885
0.709740 0.328824 0.116159
0.717813 0.334878 0.116614
0.725885 0.339167 0.119121
0.733958 0.343203 0.121920
0.740870 0.349864 0.125879
0.747706 0.356699 0.129915
0.111878 0.064579 0.069498
0.113636 0.066337 0.069498
0.115300 0.067985 0.069498
0.115561 0.067985 0.069498
0.116008 0.067985 0.069498
0.117766 0.067985 0.069498
0.120427 0.068034 0.069169
0.127002 0.068294 0.067411
0.138639 0.070442 0.066646
0.165460 0.078254 0.068860
0.194946 0.087022 0.070544
0.230295 0.097894 0.071065
0.273383 0.111500 0.073002
0.329369 0.129663 0.077298
0.384586 0.149592 0.079715
0.438815 0.171791 0.079715
0.487737 0.192981 0.080984
0.531354 0.213162 0.083523
0.566183 0.230926 0.087893
0.594176 0.246810 0.093687
0.618548 0.263020 0.099806
0.640747 0.279425 0.106121
0.658783 0.291668 0.109482
0.674928 0.302019 0.111500
0.690487 0.314616 0.114641
0.705851 0.327962 0.118156
0.715290 0.335595 0.121090
0.723363 0.341909 0.123889
0.731435 0.346230 0.126005
0.739507 0.350266 0.128023
0.745932 0.356195 0.131933
0.752247 0.362249 0.135969
0.105824 0.072652 0.081607
0.106540 0.073368 0.081607
0.107293 0.074039 0.081607
0.108595 0.074039 0.081607
0.109824 0.074039 0.081607
0.110540 0.074039 0.081607
0.112745 0.074283 0.081473
0.121403 0.075585 0.080757
0.137206 0.078254 0.078950
0.174444 0.085025 0.073872
0.212393 0.094053 0.071195
0.251908 0.108050 0.073799
0.296819 0.123609 0.077428
0.350722 0.141772 0.082767
0.404312 0.161700 0.085769
0.457498 0.183899 0.085769
0.504338 0.205089 0.088080
0.544830 0.225270 0.092702
0.577705 0.242449 0.097398
0.604657 0.257291 0.102150
0.628638 0.273762 0.108530
0.650837 0.291209 0.115886
0.668874 0.304493 0.119572
0.685019 0.315886 0.121591
0.698234 0.326399 0.123169
0.710473 0.336620 0.124601
0.719326 0.344513 0.129683
0.727399 0.351870 0.135607
0.735471 0.356321 0.138114
0.743544 0.360357 0.140132
0.750945 0.366285 0.144042
0.758301 0.372339 0.148078
0.103554 0.081985 0.092454
0.104205 0.082311 0.093105
0.104901 0.082596 0.093675
0.106268 0.082270 0.093024
0.107464 0.081985 0.092495
0.107464 0.081985 0.092820
0.109234 0.082486 0.093207
0.118673 0.085155 0.093858
0.135388 0.088182 0.092068
0.173927 0.092283 0.082954
0.217226 0.100759 0.077339
0.270999 0.118856 0.079422
0.324161 0.137223 0.083116
0.376306 0.156037 0.089496
0.427740 0.176331 0.093370
0.478257 0.198531 0.094021
0.522362 0.219558 0.097211
0.560055 0.239413 0.102939
0.591120 0.256596 0.108448
0.617030 0.271699 0.113787
0.640010 0.288104 0.120630
0.661233 0.305290 0.128377
0.678069 0.318315 0.131962
0.692912 0.329447 0.133654
0.704679 0.338284 0.133833
0.715420 0.346356 0.133508
0.724258 0.354429 0.139741
0.732656 0.362501 0.147488
0.741054 0.367042 0.149937
0.749451 0.371078 0.151630
0.757544 0.377617 0.156435
0.765617 0.384322 0.161448
0.109608 0.094094 0.100527
0.112342 0.095461 0.103261
0.114861 0.096657 0.105653
0.114145 0.095290 0.102919
0.113518 0.094094 0.100697
0.113518 0.094094 0.102065
0.114897 0.094985 0.103688
0.122254 0.099737 0.106422
0.132719 0.102764 0.106976
0.152509 0.100616 0.100986
0.194311 0.106748 0.095567
0.284540 0.131095 0.091400
0.360097 0.154149 0.091579
0.411200 0.175046 0.099001
0.459313 0.196512 0.104372
0.503581 0.218712 0.107106
0.543520 0.239218 0.110816
0.579130 0.258032 0.115504
0.608697 0.276516 0.122901
0.633565 0.294744 0.132405
0.654202 0.310368 0.140160
0.672300 0.324430 0.146866
0.685295 0.334329 0.149409
0.695972 0.342336 0.150060
0.708259 0.350393 0.149197
0.721084 0.358465 0.147830
0.731158 0.366537 0.153022
0.740598 0.374610 0.159727
0.750037 0.379151 0.161135
0.759477 0.383187 0.161786
0.767635 0.391678 0.169455
0.775707 0.400467 0.177593
0.119446 0.109230 0.114653
0.123092 0.110857 0.117908
0.126408 0.112306 0.120805
0.124780 0.111069 0.118331
0.123454 0.110035 0.116370
0.124235 0.110426 0.117998
0.125712 0.111585 0.119930
0.130204 0.116077 0.123185
0.136177 0.117933 0.123739
0.146593 0.111878 0.116187
0.187484 0.116545 0.108961
0.295420 0.144799 0.102451
0.385608 0.171221 0.099652
0.446216 0.194592 0.103037
0.497283 0.216767 0.106365
0.536082 0.237403 0.109620
0.572245 0.256803 0.113461
0.605772 0.274966 0.117888
0.633622 0.293825 0.125537
0.657058 0.313225 0.135693
0.675205 0.327579 0.142797
0.690178 0.338907 0.148070
0.700407 0.346877 0.150255
0.708479 0.353322 0.151036
0.719628 0.360695 0.150304
0.731801 0.368376 0.149067
0.742600 0.377328 0.154071
0.753081 0.386572 0.160516
0.762878 0.392626 0.163031
0.772578 0.398225 0.164984
0.779288 0.406204 0.172002
0.785798 0.414341 0.179359
0.135591 0.129411 0.138870
0.138195 0.129997 0.140042
0.140600 0.130599 0.141247
0.140014 0.131445 0.142939
0.139859 0.132365 0.144494
0.142724 0.133797 0.145079
0.145112 0.135021 0.145775
0.145437 0.135347 0.146947
0.149848 0.134078 0.143594
0.166514 0.128023 0.126668
0.207470 0.132690 0.114299
0.301865 0.160943 0.111956
0.393745 0.188538 0.107073
0.481435 0.215033 0.097959
0.545912 0.237143 0.093345
0.580545 0.253613 0.094517
0.613584 0.270930 0.097837
0.645027 0.289093 0.103306
0.670794 0.306780 0.108481
0.692147 0.324096 0.113429
0.707560 0.336368 0.117278
0.719408 0.345612 0.120468
0.728660 0.353648 0.123434
0.736733 0.361134 0.126298
0.743975 0.367986 0.127649
0.750941 0.374626 0.128495
0.761609 0.385921 0.134737
0.773132 0.398290 0.142223
0.782148 0.408380 0.149425
0.790806 0.418145 0.156586
0.793545 0.421502 0.157094
0.795888 0.424432 0.157160
0.161448 0.155772 0.165736
0.163010 0.156228 0.166192
0.164504 0.156810 0.166843
0.164959 0.159283 0.170424
0.165749 0.161529 0.173443
0.168873 0.162180 0.172531
0.171290 0.162331 0.171620
0.170639 0.160313 0.170708
0.175082 0.157514 0.164931
0.194808 0.152371 0.144555
0.234063 0.156098 0.128552
0.316284 0.179338 0.122172
0.405756 0.204630 0.112302
0.507312 0.233339 0.096612
0.579760 0.255469 0.086392
0.614784 0.269140 0.083202
0.646976 0.285284 0.084862
0.676336 0.303903 0.091372
0.698995 0.320361 0.095099
0.716442 0.335139 0.096661
0.729576 0.346580 0.099363
0.740122 0.356020 0.102748
0.748654 0.363893 0.106268
0.756271 0.371054 0.109848
0.761544 0.378068 0.112599
0.766036 0.385034 0.115072
0.775976 0.396707 0.122095
0.787173 0.409467 0.130167
0.794838 0.420062 0.138809
0.801999 0.430348 0.147533
0.802874 0.431418 0.144721
0.803330 0.431873 0.141141
0.199792 0.190080 0.196008
0.200313 0.191577 0.197505
0.200895 0.193201 0.199068
0.202392 0.196716 0.201607
0.203832 0.199483 0.203454
0.204874 0.197009 0.200459
0.206184 0.194621 0.197465
0.208658 0.192602 0.194470
0.215184 0.190324 0.188172
0.233868 0.187264 0.171962
0.269152 0.188843 0.154267
0.340957 0.200626 0.133304
0.422747 0.219147 0.114710
0.521178 0.248898 0.100063
0.594603 0.271158 0.087238
0.635876 0.283787 0.076757
0.670152 0.299932 0.075292
0.697428 0.319592 0.082844
0.715661 0.334748 0.086441
0.726858 0.346401 0.086961
0.738299 0.358624 0.091225
0.749887 0.371188 0.097735
0.758028 0.378605 0.101515
0.764604 0.383683 0.104054
0.770397 0.391739 0.107325
0.775931 0.400788 0.110841
0.784374 0.410313 0.118059
0.793488 0.419948 0.126131
0.799070 0.426507 0.132039
0.804148 0.432626 0.137638
0.805869 0.434412 0.135607
0.807366 0.435910 0.133068
0.240154 0.228424 0.228298
0.240154 0.230442 0.230316
0.240247 0.232488 0.232269
0.241745 0.234962 0.233245
0.243120 0.236883 0.233855
0.243641 0.234930 0.231902
0.245016 0.232964 0.229461
0.250094 0.230946 0.224904
0.260266 0.229319 0.217304
0.285720 0.228863 0.200573
0.325821 0.230116 0.178126
0.398147 0.235129 0.143102
0.475185 0.248637 0.116305
0.560076 0.276305 0.103220
0.625200 0.296937 0.091046
0.664911 0.308525 0.080045
0.696582 0.324410 0.078580
0.720213 0.344591 0.086652
0.735093 0.358510 0.090477
0.743165 0.367559 0.090998
0.753435 0.379781 0.096564
0.765023 0.393908 0.105157
0.773880 0.403246 0.110662
0.781497 0.410407 0.114763
0.788332 0.419765 0.120378
0.794908 0.429855 0.126497
0.801853 0.437883 0.133780
0.808884 0.445435 0.141332
0.812383 0.448999 0.144441
0.815377 0.451993 0.146914
0.818433 0.455537 0.147130
0.821493 0.459118 0.147195
0.282534 0.270804 0.262605
0.282534 0.272822 0.264623
0.282562 0.274673 0.266446
0.283018 0.274022 0.265339
0.283612 0.273729 0.264648
0.285175 0.275943 0.266861
0.287787 0.277363 0.267610
0.294948 0.275344 0.262011
0.310328 0.274498 0.252328
0.350364 0.277167 0.230389
0.404072 0.279918 0.200130
0.487855 0.282847 0.151565
0.563070 0.293101 0.117086
0.624004 0.315560 0.106085
0.671551 0.332807 0.097817
0.701888 0.343354 0.093065
0.726268 0.358717 0.094725
0.744691 0.378898 0.102797
0.757292 0.391646 0.107207
0.765364 0.398611 0.108770
0.774983 0.410053 0.115378
0.785529 0.424179 0.125012
0.796210 0.437814 0.133707
0.806951 0.451224 0.141975
0.815349 0.462145 0.151756
0.822966 0.472235 0.162042
0.828414 0.479417 0.169260
0.833361 0.485927 0.175770
0.834777 0.487538 0.176014
0.835689 0.488449 0.175363
0.840567 0.494793 0.179289
0.845710 0.501498 0.183521
0.329455 0.317725 0.301454
0.331212 0.320329 0.303472
0.332750 0.322607 0.305238
0.330993 0.320003 0.303219
0.330000 0.318229 0.301812
0.334362 0.322265 0.304676
0.339529 0.325386 0.305868
0.348187 0.324540 0.299814
0.366432 0.324621 0.288926
0.413434 0.327486 0.263537
0.472947 0.328804 0.226491
0.559986 0.326721 0.163800
0.630888 0.332108 0.121713
0.674896 0.349945 0.113966
0.709846 0.365162 0.110263
0.733152 0.377010 0.111760
0.751999 0.392146 0.115666
0.766386 0.410569 0.121981
0.778539 0.424013 0.128186
0.788955 0.433582 0.134305
0.798435 0.444902 0.142541
0.807354 0.457270 0.152045
0.816854 0.469819 0.160341
0.826619 0.482448 0.168088
0.834676 0.492294 0.177349
0.842162 0.501213 0.187114
0.846845 0.508280 0.193388
0.850881 0.514921 0.198856
0.851899 0.516263 0.198799
0.852484 0.516849 0.197953
0.857098 0.522806 0.202477
0.861981 0.529121 0.207360
0.379907 0.368177 0.343834
0.384790 0.371823 0.345852
0.389062 0.375013 0.347618
0.384179 0.371367 0.345600
0.380973 0.368682 0.343931
0.389501 0.372718 0.344713
0.398249 0.376229 0.344212
0.407949 0.377466 0.338158
0.427235 0.378589 0.326749
0.475279 0.379370 0.299277
0.534532 0.376978 0.256242
0.618446 0.367603 0.178968
0.683098 0.366871 0.129329
0.715648 0.380542 0.125749
0.741875 0.394783 0.127124
0.759973 0.409756 0.134871
0.774653 0.424891 0.140339
0.785916 0.440190 0.143529
0.799045 0.455781 0.152468
0.813628 0.471601 0.165879
0.823368 0.483310 0.176197
0.830204 0.492555 0.184660
0.836189 0.499830 0.189766
0.841788 0.506209 0.193347
0.848021 0.512931 0.198441
0.854466 0.519766 0.204040
0.858954 0.527290 0.208686
0.862990 0.534971 0.213113
0.864919 0.537356 0.214749
0.866546 0.538983 0.215986
0.869272 0.542075 0.218687
0.872071 0.545265 0.221486
0.435405 0.412323 0.368555
0.439506 0.415057 0.369923
0.443176 0.417572 0.371241
0.440377 0.416791 0.371827
0.438782 0.416286 0.372177
0.445618 0.417718 0.370875
0.452941 0.419016 0.368560
0.462381 0.419732 0.361854
0.480267 0.420269 0.350413
0.523493 0.420269 0.324764
0.578865 0.416282 0.281883
0.660956 0.403522 0.201094
0.721149 0.399600 0.148867
0.744846 0.410407 0.144245
0.765523 0.424118 0.147484
0.782319 0.441565 0.160830
0.795762 0.457026 0.168837
0.805852 0.470502 0.171506
0.818616 0.485516 0.180290
0.833459 0.501726 0.193831
0.842809 0.512443 0.203140
0.848863 0.519864 0.209911
0.854873 0.526748 0.215652
0.860862 0.533389 0.220925
0.865435 0.538613 0.224294
0.869537 0.543365 0.227028
0.874114 0.550286 0.231878
0.878801 0.557708 0.237216
0.881722 0.561540 0.240789
0.884392 0.564860 0.244109
0.885840 0.566960 0.245598
0.887207 0.568978 0.246965
0.493930 0.452685 0.382682
0.494906 0.453336 0.383008
0.495972 0.454223 0.383610
0.498381 0.458650 0.388362
0.500692 0.462181 0.392097
0.502320 0.459447 0.388712
0.505217 0.456969 0.384509
0.513615 0.455602 0.376762
0.528636 0.454577 0.365581
0.563530 0.454577 0.344098
0.612847 0.450264 0.305059
0.693897 0.436463 0.227394
0.750705 0.431108 0.175558
0.767110 0.439832 0.166770
0.784142 0.453283 0.169944
0.801979 0.472813 0.188497
0.815943 0.488795 0.199629
0.826033 0.501229 0.203340
0.837625 0.514030 0.210236
0.850385 0.527115 0.219611
0.858954 0.536009 0.226056
0.865008 0.542389 0.230743
0.873166 0.551812 0.239413
0.882280 0.562619 0.249894
0.885291 0.567322 0.253003
0.886267 0.569991 0.253654
0.891105 0.575675 0.259806
0.896834 0.582055 0.267227
0.900797 0.587580 0.272883
0.904507 0.592984 0.278286
0.905045 0.595213 0.278929
0.905370 0.597231 0.279255
0.541355 0.487497 0.403746
0.541355 0.488213 0.404462
0.541473 0.489039 0.405288
0.543361 0.491513 0.407762
0.545103 0.493442 0.409601
0.545819 0.491554 0.406997
0.548317 0.489910 0.403636
0.558538 0.489324 0.396996
0.573917 0.488348 0.386255
0.604775 0.486199 0.363209
0.648978 0.480084 0.323848
0.722541 0.465241 0.248592
0.773815 0.459529 0.199654
0.787942 0.469033 0.194576
0.802895 0.482269 0.198356
0.818909 0.500302 0.213524
0.832678 0.515730 0.223842
0.844200 0.528555 0.229311
0.855650 0.540977 0.237452
0.867042 0.553085 0.247673
0.875099 0.561858 0.254476
0.881153 0.568628 0.259228
0.888505 0.578084 0.269038
0.896447 0.588760 0.281147
0.898433 0.592943 0.284711
0.898433 0.594961 0.285427
0.903352 0.600840 0.292120
0.909406 0.607611 0.300192
0.913068 0.613755 0.307125
0.916388 0.619809 0.313896
0.917267 0.622751 0.315662
0.917983 0.625485 0.317094
0.583735 0.519787 0.427963
0.583735 0.521545 0.429721
0.583658 0.523021 0.431198
0.582421 0.520287 0.428464
0.581559 0.518049 0.426006
0.583316 0.519286 0.425485
0.587247 0.520572 0.424208
0.600592 0.522069 0.419651
0.617795 0.521874 0.409430
0.646569 0.516601 0.382218
0.686085 0.508012 0.340644
0.749232 0.492127 0.267471
0.793996 0.486545 0.222569
0.808123 0.498133 0.224782
0.821708 0.511173 0.229473
0.834598 0.526081 0.237351
0.847846 0.540468 0.245065
0.861452 0.554335 0.252616
0.873227 0.567212 0.263427
0.883578 0.579321 0.276773
0.891243 0.588744 0.285398
0.897298 0.596556 0.291192
0.902502 0.604905 0.301328
0.907319 0.613498 0.313436
0.908523 0.617160 0.317782
0.908523 0.619178 0.319539
0.913442 0.625904 0.326428
0.919497 0.633716 0.334500
0.922247 0.639990 0.342345
0.924526 0.646044 0.350157
0.926316 0.649962 0.353941
0.928074 0.653738 0.357456
0.614007 0.541481 0.443099
0.615569 0.543500 0.445117
0.616957 0.545237 0.446855
0.615720 0.542763 0.444381
0.614890 0.540851 0.442118
0.616908 0.542869 0.441337
0.621050 0.544740 0.439506
0.634395 0.545977 0.433127
0.650882 0.545391 0.421669
0.676792 0.539337 0.394978
0.712792 0.530374 0.354901
0.770991 0.515010 0.285374
0.812078 0.509656 0.243433
0.824642 0.520983 0.247469
0.837690 0.534219 0.253414
0.851361 0.549908 0.261812
0.864089 0.564425 0.270828
0.875872 0.577771 0.280463
0.885384 0.589541 0.290867
0.893131 0.600088 0.301869
0.899820 0.609088 0.311243
0.905875 0.617160 0.319641
0.911078 0.626844 0.331127
0.915896 0.637260 0.344017
0.917686 0.641963 0.349925
0.918467 0.644763 0.353505
0.922898 0.650577 0.359466
0.928171 0.657087 0.365976
0.930596 0.662515 0.372486
0.932614 0.667788 0.378996
0.934632 0.671901 0.383919
0.936651 0.675937 0.388736
0.640242 0.559644 0.455208
0.643888 0.561662 0.457226
0.647293 0.563530 0.459093
0.647098 0.563139 0.458703
0.647179 0.563050 0.458133
0.649197 0.565068 0.456310
0.653144 0.566744 0.453047
0.665448 0.566940 0.443543
0.680372 0.565572 0.430262
0.703157 0.559518 0.405654
0.736033 0.550880 0.368311
0.791107 0.536558 0.302951
0.829459 0.531464 0.263614
0.839940 0.541750 0.267650
0.852729 0.555311 0.274962
0.868483 0.573083 0.286485
0.880689 0.588121 0.298105
0.889347 0.600425 0.309823
0.895735 0.610569 0.318795
0.900357 0.619032 0.325630
0.905875 0.627251 0.335395
0.911929 0.635323 0.346918
0.917849 0.647155 0.360097
0.923708 0.660696 0.374028
0.926540 0.666962 0.381759
0.928363 0.670803 0.387422
0.932142 0.675119 0.392081
0.936374 0.679546 0.396508
0.938669 0.683802 0.400935
0.940687 0.688034 0.405361
0.942705 0.692082 0.411131
0.944723 0.696118 0.416990
0.674676 0.577807 0.460757
0.677866 0.578979 0.461929
0.680804 0.580025 0.463028
0.679957 0.579178 0.463028
0.679575 0.578690 0.462776
0.682439 0.580708 0.460757
0.687037 0.582348 0.457226
0.699145 0.582348 0.447135
0.713988 0.581046 0.433936
0.737034 0.575838 0.411412
0.766996 0.568901 0.378125
0.812175 0.558159 0.321163
0.844514 0.555547 0.288027
0.855451 0.566484 0.294602
0.867185 0.579471 0.302857
0.879944 0.595095 0.313273
0.889937 0.608962 0.324959
0.897163 0.621070 0.337914
0.903547 0.631861 0.348415
0.909276 0.641626 0.357008
0.915208 0.651391 0.367799
0.921263 0.661156 0.379907
0.926735 0.671592 0.391658
0.931943 0.682333 0.403246
0.935393 0.688681 0.412587
0.938258 0.693563 0.421181
0.942074 0.699133 0.428822
0.946110 0.704862 0.436243
0.948381 0.709110 0.439962
0.950399 0.713146 0.443152
0.951624 0.715595 0.446647
0.952795 0.717939 0.450162
0.711002 0.595970 0.464794
0.713150 0.596100 0.464924
0.715046 0.596104 0.465046
0.713158 0.594216 0.465046
0.711995 0.592817 0.464794
0.715901 0.594835 0.462776
0.721345 0.596475 0.459244
0.733453 0.596475 0.449153
0.748556 0.595433 0.436475
0.772643 0.591267 0.416034
0.799741 0.586348 0.387109
0.833463 0.579772 0.339521
0.859031 0.580155 0.313416
0.871009 0.592133 0.323116
0.881507 0.604340 0.332217
0.890100 0.616839 0.340550
0.897489 0.629143 0.351715
0.903673 0.641251 0.365711
0.910773 0.653213 0.378426
0.918585 0.665062 0.390144
0.925299 0.676910 0.402106
0.931353 0.688758 0.414215
