其他预设/【236】赛博朋克风调色预设/【后期菌】视频调色预设/CUBE/Tokyo 03_S.cube
# LUT by SparkleStock. Enhanced with VOXCOLOR algorithms.
LUT_3D_SIZE 8
DOMAIN_MIN 0.000000 0.000000 0.000000
DOMAIN_MAX 0.903226 0.903226 0.903226
0.195503 0.039101 0.046921
0.199413 0.043011 0.050831
0.244821 0.044020 0.051840
0.487245 0.049948 0.060921
0.665090 0.067480 0.074291
0.728408 0.084508 0.083247
0.759184 0.103806 0.086022
0.781635 0.132564 0.089932
0.199413 0.046921 0.054489
0.199951 0.046685 0.051083
0.243844 0.045314 0.054554
0.477154 0.066044 0.058399
0.639742 0.081481 0.062431
0.716218 0.095066 0.068912
0.760795 0.111179 0.078734
0.783918 0.136612 0.091559
0.187936 0.048434 0.057264
0.193042 0.051653 0.060449
0.279389 0.074922 0.060165
0.491074 0.104506 0.059099
0.627877 0.131193 0.056141
0.710497 0.145450 0.066959
0.768448 0.153123 0.081033
0.796897 0.158950 0.093109
0.071264 0.117554 0.120708
0.075426 0.121513 0.122270
0.116997 0.149620 0.122872
0.550510 0.165448 0.088784
0.652603 0.205525 0.071447
0.724498 0.231097 0.082128
0.779658 0.233595 0.098887
0.811581 0.238909 0.119121
0.082364 0.316589 0.305742
0.082429 0.319368 0.308521
0.110353 0.322290 0.278494
0.493694 0.346470 0.102443
0.680234 0.333996 0.022577
0.746445 0.352085 0.023912
0.805437 0.362615 0.028632
0.837764 0.362017 0.034833
0.256425 0.522940 0.471479
0.263325 0.528112 0.473668
0.362420 0.545371 0.460525
0.689173 0.463927 0.131209
0.770263 0.475010 0.086074
0.831807 0.511462 0.096869
0.868051 0.519156 0.111817
0.896732 0.536119 0.131437
0.497588 0.661180 0.548040
0.501119 0.664207 0.550815
0.551446 0.671352 0.530406
0.768265 0.579447 0.265083
0.834106 0.608799 0.257373
0.873569 0.636963 0.279743
0.899946 0.656676 0.296311
0.915408 0.667002 0.303114
0.595970 0.722606 0.547410
0.596361 0.720954 0.541620
0.637394 0.713878 0.500969
0.790627 0.684677 0.368088
0.840412 0.706005 0.370574
0.876108 0.726959 0.384196
0.903173 0.744805 0.404523
0.915753 0.762923 0.441789
0.199413 0.043263 0.047173
0.203324 0.046685 0.054505
0.239177 0.043955 0.053069
0.481976 0.051539 0.072147
0.649010 0.059473 0.083999
0.721426 0.073913 0.089256
0.760795 0.102671 0.092007
0.782014 0.132450 0.095872
0.195992 0.039841 0.047661
0.200154 0.047001 0.054585
0.250354 0.057768 0.068320
0.463832 0.074198 0.081878
0.618161 0.093036 0.099961
0.705407 0.106079 0.102188
0.763930 0.114096 0.099345
0.790437 0.133133 0.096664
0.188945 0.048939 0.057296
0.188580 0.053927 0.058305
0.277061 0.099420 0.078836
0.469790 0.134741 0.095174
0.608075 0.162368 0.108103
0.699304 0.168814 0.109462
0.771186 0.177125 0.114462
0.806509 0.171011 0.107509
0.075020 0.121562 0.131624
0.076294 0.125845 0.131625
0.140233 0.189414 0.140034
0.511907 0.216990 0.119175
0.625904 0.253809 0.117514
0.710346 0.269621 0.123638
0.783781 0.273495 0.130507
0.826487 0.266772 0.136275
0.086209 0.325732 0.315389
0.087714 0.326647 0.316492
0.132078 0.351793 0.275264
0.482934 0.374681 0.123590
0.652847 0.376163 0.072652
0.733266 0.388965 0.071398
0.803476 0.388428 0.060692
0.842337 0.379528 0.047392
0.280426 0.539500 0.488128
0.264772 0.528331 0.477701
0.366543 0.554932 0.457587
0.654793 0.476011 0.133671
0.736750 0.501757 0.102116
0.808501 0.527373 0.112299
0.859670 0.532474 0.118123
0.898339 0.550591 0.136438
0.497181 0.661025 0.547731
0.499500 0.661198 0.549100
0.547157 0.666594 0.522420
0.762848 0.587736 0.273002
0.819491 0.611926 0.247378
0.866821 0.642830 0.272796
0.895125 0.661804 0.288603
0.911798 0.672619 0.281859
0.594066 0.720702 0.543740
0.596837 0.721108 0.544134
0.636906 0.712355 0.501268
0.790177 0.681281 0.365930
0.842094 0.702888 0.371367
0.876079 0.724970 0.381490
0.903624 0.744947 0.406866
0.914690 0.763587 0.435837
0.178728 0.043515 0.057768
0.195031 0.046921 0.060921
0.233558 0.047360 0.066028
0.474168 0.052918 0.098675
0.636466 0.055880 0.121094
0.715128 0.077481 0.127555
0.758610 0.102109 0.120480
0.782722 0.133475 0.107846
0.191186 0.046921 0.063416
0.178934 0.044305 0.058826
0.240346 0.061902 0.096608
0.456599 0.084532 0.140384
0.606504 0.097463 0.165528
0.698629 0.108176 0.166741
0.763753 0.119670 0.151694
0.798859 0.134617 0.128094
0.165114 0.050257 0.068485
0.169211 0.059534 0.079743
0.259548 0.109173 0.119777
0.459240 0.146952 0.161566
0.602268 0.169281 0.183815
0.692844 0.182191 0.185268
0.769579 0.184925 0.172445
0.810439 0.176396 0.147108
0.071964 0.127799 0.140063
0.076651 0.140102 0.150245
0.144967 0.204335 0.183193
0.490620 0.238593 0.196277
0.615031 0.267902 0.201550
0.703471 0.283458 0.206054
0.781650 0.293235 0.205967
0.833375 0.284438 0.189949
0.086514 0.331965 0.327665
0.090132 0.332308 0.327381
0.133481 0.373672 0.325508
0.436599 0.404376 0.219947
0.644392 0.390694 0.135411
0.724700 0.406813 0.139496
0.802961 0.420005 0.134848
0.857637 0.412964 0.111328
0.272334 0.540761 0.490471
0.262818 0.533098 0.484801
0.302004 0.553583 0.486717
0.605599 0.532225 0.257819
0.721421 0.514144 0.147069
0.792807 0.541339 0.154586
0.846280 0.560206 0.169533
0.898640 0.577531 0.185878
0.485247 0.662580 0.551320
0.489106 0.663019 0.552313
0.516360 0.672892 0.555398
0.735914 0.629473 0.359392
0.811691 0.622191 0.265713
0.853508 0.650609 0.286393
0.870804 0.677116 0.289370
0.907559 0.692983 0.294767
0.596222 0.729242 0.559242
0.597169 0.729660 0.559639
0.614212 0.727164 0.546799
0.774360 0.700568 0.413285
0.842937 0.714343 0.388076
0.873861 0.731428 0.394005
0.886605 0.758655 0.397193
0.906922 0.780873 0.414656
0.113392 0.057011 0.119320
0.113799 0.057215 0.119524
0.131498 0.055245 0.129171
0.421864 0.056547 0.171831
0.611175 0.067859 0.217084
0.701534 0.094432 0.219420
0.745057 0.127771 0.213622
0.765543 0.160907 0.207665
0.113343 0.057719 0.125977
0.116873 0.058398 0.121732
0.151139 0.070233 0.168216
0.409031 0.086030 0.222442
0.589363 0.102349 0.267706
0.690710 0.117871 0.265265
0.757016 0.142673 0.256993
0.780504 0.163909 0.228606
0.108261 0.064551 0.131050
0.112585 0.073873 0.144710
0.167965 0.115959 0.204643
0.421868 0.151308 0.259180
0.584933 0.173963 0.294568
0.687128 0.190400 0.293442
0.763016 0.204102 0.289780
0.801864 0.208002 0.268367
0.075068 0.175636 0.243665
0.073213 0.173385 0.240369
0.133681 0.227807 0.284285
0.416305 0.253291 0.320351
0.605897 0.275691 0.326400
0.698074 0.300887 0.333504
0.779068 0.327127 0.344365
0.835841 0.329989 0.329957
0.116728 0.374309 0.407550
0.116111 0.372422 0.406615
0.157725 0.415580 0.423209
0.287585 0.463298 0.438114
0.648997 0.418517 0.316663
0.728227 0.440678 0.310757
0.806334 0.461891 0.317064
0.876566 0.453549 0.262593
0.273957 0.560897 0.546156
0.266165 0.556400 0.541139
0.288185 0.571300 0.542476
0.412423 0.614372 0.535142
0.726350 0.558354 0.270240
0.792346 0.572592 0.251358
0.836629 0.596985 0.281730
0.899621 0.607676 0.291713
0.416184 0.663788 0.603286
0.424727 0.670174 0.608207
0.445494 0.676878 0.611447
0.590767 0.717443 0.597050
0.811247 0.661756 0.357980
0.837377 0.687734 0.354281
0.857558 0.710854 0.365364
0.903653 0.723991 0.373098
0.526289 0.736785 0.640889
0.530802 0.737820 0.645680
0.552677 0.744301 0.642888
0.710508 0.757701 0.566791
0.845810 0.734944 0.441223
0.866127 0.763383 0.452366
0.871813 0.788613 0.454014
0.903543 0.808908 0.470127
0.122347 0.088040 0.249614
0.119568 0.081538 0.245826
0.135717 0.080350 0.250265
0.322103 0.072570 0.282567
0.529121 0.096861 0.347129
0.658047 0.129252 0.353806
0.711014 0.165256 0.347605
0.742885 0.199210 0.343175
0.118437 0.085965 0.247661
0.121240 0.085891 0.247888
0.148265 0.092190 0.278424
0.340350 0.091736 0.330690
0.531789 0.112853 0.380477
0.657481 0.134306 0.385593
0.726702 0.164723 0.374432
0.752944 0.202660 0.357199
0.120964 0.102162 0.265250
0.120646 0.101153 0.262703
0.151438 0.126682 0.310005
0.337026 0.143833 0.364641
0.538989 0.178912 0.417253
0.662702 0.194281 0.414131
0.737681 0.212469 0.400958
0.776159 0.231322 0.388062
0.119206 0.206086 0.351194
0.123567 0.210204 0.357072
0.150400 0.238329 0.385049
0.277568 0.288203 0.446120
0.551948 0.279299 0.454023
0.676635 0.319445 0.463113
0.761547 0.348261 0.469329
0.827508 0.372304 0.476257
0.195479 0.418479 0.501473
0.192014 0.419562 0.497992
0.212782 0.440479 0.509036
0.299857 0.480817 0.536480
0.525696 0.491225 0.542338
0.726995 0.491114 0.508862
0.801996 0.511294 0.511715
0.871616 0.522701 0.513514
0.275495 0.572628 0.592325
0.274364 0.570556 0.592329
0.284174 0.578930 0.595119
0.357517 0.617402 0.613268
0.521256 0.661631 0.613379
0.801646 0.609880 0.413929
0.839098 0.623723 0.410760
0.899698 0.630649 0.418825
0.376860 0.667841 0.640458
0.375507 0.664425 0.638629
0.394372 0.675692 0.644235
0.496847 0.709547 0.660546
0.683757 0.754766 0.647854
0.829029 0.722088 0.465549
0.851911 0.735676 0.462326
0.904497 0.746005 0.475185
0.495618 0.739450 0.665847
0.496629 0.740501 0.665944
0.512171 0.743959 0.668045
0.594454 0.770269 0.681074
0.782109 0.794984 0.620677
0.854203 0.789055 0.518272
0.865206 0.811005 0.528663
0.902300 0.826042 0.546480
0.167755 0.100148 0.339671
0.165285 0.101499 0.340770
0.185120 0.103354 0.351129
0.311670 0.106756 0.378837
0.490809 0.130766 0.429477
0.583862 0.158759 0.459919
0.649669 0.203132 0.466747
0.702425 0.241790 0.472300
0.165061 0.100238 0.338329
0.168882 0.102792 0.339756
0.182960 0.101697 0.348328
0.313844 0.110361 0.391176
0.492703 0.131541 0.451968
0.591504 0.158665 0.476037
0.653498 0.199973 0.476229
0.700781 0.240878 0.474005
0.169899 0.119520 0.354970
0.164748 0.119108 0.350705
0.183866 0.126679 0.371846
0.322209 0.144615 0.423438
0.502988 0.164948 0.475848
0.604190 0.195476 0.498424
0.663589 0.227710 0.495734
0.727383 0.264800 0.503475
0.187407 0.228407 0.431999
0.187721 0.226035 0.431981
0.198932 0.238063 0.442431
0.293471 0.299116 0.505677
0.511330 0.283553 0.524279
0.619130 0.328190 0.545823
0.707089 0.370681 0.565855
0.787740 0.401069 0.577437
0.268806 0.432724 0.550184
0.268003 0.433314 0.548698
0.284723 0.445901 0.559831
0.352427 0.496408 0.594436
0.467955 0.527171 0.624217
0.669751 0.513509 0.615434
0.780752 0.536184 0.628159
0.851442 0.549070 0.631527
0.344969 0.592032 0.638672
0.340078 0.586876 0.633516
0.351172 0.593778 0.638886
0.399678 0.622429 0.657541
0.491497 0.667165 0.678454
0.676043 0.677941 0.670550
0.823449 0.660227 0.633531
0.889712 0.659544 0.622241
0.372811 0.670322 0.669236
0.372475 0.670145 0.667106
0.381309 0.672458 0.671124
0.462418 0.703955 0.683395
0.598986 0.746453 0.703845
0.755891 0.770516 0.674561
0.851980 0.753656 0.570556
0.905299 0.754249 0.568553
0.470962 0.732505 0.687411
0.474119 0.736285 0.688066
0.485335 0.738070 0.690532
0.573174 0.769174 0.707727
0.695941 0.802554 0.715600
0.822878 0.817966 0.659340
0.862298 0.822547 0.612919
0.901863 0.831678 0.618864
0.215684 0.121212 0.404881
0.215530 0.121058 0.404727
0.221234 0.122543 0.409927
0.292665 0.150560 0.445833
0.487623 0.131063 0.459748
0.565084 0.170595 0.493063
0.613087 0.218126 0.514949
0.655020 0.254207 0.530003
0.213133 0.118816 0.402485
0.214802 0.119298 0.402828
0.225029 0.125928 0.413230
0.295785 0.149158 0.446730
0.486688 0.130372 0.458798
0.565063 0.173335 0.494017
0.613790 0.217549 0.512356
0.657831 0.256236 0.531016
0.216189 0.136474 0.417621
0.212385 0.131531 0.412429
0.224180 0.146283 0.426021
0.297005 0.171422 0.459625
0.493953 0.147574 0.472453
0.575083 0.196018 0.506736
0.624139 0.243133 0.526937
0.665956 0.278778 0.544313
0.245614 0.247172 0.482659
0.245357 0.247676 0.482700
0.258062 0.254199 0.487648
0.322085 0.302985 0.525235
0.490031 0.291328 0.542600
0.601718 0.325814 0.564285
0.668660 0.379491 0.597125
0.748528 0.420632 0.633106
0.333442 0.455171 0.595567
0.331220 0.451044 0.591103
0.345163 0.465373 0.600265
0.403226 0.506803 0.628450
0.496938 0.549994 0.661610
0.664289 0.529084 0.654796
0.746422 0.546807 0.679943
0.809243 0.553306 0.692172
0.396081 0.601976 0.664504
0.399179 0.602486 0.665990
0.409819 0.609503 0.669346
0.457223 0.639414 0.687642
0.531476 0.675160 0.708995
0.638367 0.693534 0.724010
0.802997 0.674527 0.714205
0.873863 0.670912 0.711139
0.415098 0.675848 0.691785
0.412285 0.674244 0.692296
0.425275 0.680363 0.696874
0.474319 0.704821 0.705403
0.575666 0.742692 0.724815
0.704493 0.770889 0.733009
0.844998 0.778636 0.696523
0.907392 0.765771 0.662099
0.449532 0.733612 0.708227
0.443034 0.727048 0.704020
0.462864 0.734686 0.708490
0.547835 0.763399 0.724868
0.675400 0.804373 0.746675
0.777993 0.819872 0.742984
0.864499 0.827392 0.696765
0.901967 0.829725 0.692693
0.253398 0.136096 0.448523
0.254773 0.137381 0.449922
0.258996 0.140079 0.453767
0.319743 0.170725 0.481443
0.499325 0.150251 0.499858
0.577612 0.192472 0.529747
0.617738 0.228359 0.546746
0.660252 0.270006 0.562501
0.253019 0.137975 0.450150
0.249492 0.134350 0.446762
0.261984 0.143557 0.455593
0.323257 0.171221 0.482672
0.500671 0.150003 0.497772
0.577372 0.191777 0.528388
0.618990 0.229025 0.546307
0.657217 0.268095 0.559476
0.252820 0.154059 0.460505
0.252699 0.154959 0.461472
0.266706 0.164449 0.470036
0.326080 0.191562 0.496360
0.509961 0.168507 0.513922
0.583997 0.208460 0.540233
0.629842 0.251923 0.559574
0.667157 0.294793 0.576348
0.288247 0.261832 0.514652
0.287777 0.260068 0.514290
0.302992 0.279332 0.523501
0.377486 0.336704 0.568095
0.512964 0.356217 0.594307
0.614839 0.339111 0.587738
0.669891 0.384839 0.610845
0.725715 0.427887 0.633863
0.396479 0.475816 0.630579
0.390783 0.472654 0.627932
0.405710 0.484047 0.635879
0.457330 0.524419 0.665314
0.543262 0.572159 0.696569
0.685166 0.554773 0.685607
0.749734 0.560142 0.697557
0.796525 0.571860 0.717349
0.449092 0.613311 0.694035
0.449466 0.612416 0.694234
0.456310 0.616151 0.696765
0.500212 0.644605 0.712125
0.576176 0.682240 0.735154
0.658164 0.710498 0.752337
0.777981 0.701675 0.758096
0.845897 0.691058 0.761609
0.461115 0.682496 0.715795
0.460381 0.680959 0.714360
0.470593 0.688065 0.717570
0.521070 0.716769 0.733158
0.606344 0.748921 0.753472
0.688949 0.776301 0.766744
0.806768 0.788337 0.756450
0.889818 0.777866 0.750101
0.456233 0.733160 0.727863
0.456184 0.731584 0.728133
0.474038 0.737279 0.730203
0.543787 0.765371 0.743750
0.657407 0.798989 0.765575
0.759100 0.818715 0.774856
0.850052 0.828651 0.759838
0.897554 0.831841 0.746222
