其他预设/【236】赛博朋克风调色预设/【后期菌】视频调色预设/CUBE/Tokyo 08_S.cube
# LUT by SparkleStock. Enhanced with VOXCOLOR algorithms.
LUT_3D_SIZE 5
DOMAIN_MIN 0.000000 0.000000 0.000000
DOMAIN_MAX 0.903226 0.903226 0.903226
0.097752 0.070381 0.097752
0.106455 0.076688 0.100148
0.377259 0.218838 0.224009
0.766752 0.427080 0.389872
0.877243 0.478794 0.412701
0.103175 0.078201 0.104058
0.123474 0.090383 0.103131
0.415403 0.243018 0.189323
0.753012 0.389628 0.299334
0.885515 0.470901 0.393350
0.053480 0.186674 0.213162
0.071858 0.206656 0.216368
0.582682 0.406964 0.237090
0.807492 0.467377 0.250985
0.926035 0.496770 0.305010
0.252136 0.493047 0.463532
0.294777 0.502910 0.461665
0.782848 0.553793 0.339623
0.940178 0.583052 0.290960
0.980984 0.603062 0.278148
0.588402 0.677072 0.566203
0.625578 0.678619 0.552939
0.888806 0.682748 0.433281
0.981806 0.718570 0.400149
0.996248 0.748080 0.419293
0.100779 0.075805 0.100148
0.113302 0.083580 0.106455
0.382088 0.192045 0.236911
0.747344 0.369833 0.373877
0.876559 0.478595 0.418809
0.100193 0.081526 0.104986
0.139394 0.112251 0.133297
0.425988 0.242931 0.248322
0.726658 0.341951 0.320492
0.882593 0.435384 0.383728
0.055677 0.205395 0.239108
0.093306 0.253739 0.242066
0.550311 0.424839 0.283075
0.768833 0.464576 0.292576
0.919419 0.488388 0.306381
0.256474 0.497234 0.474774
0.287221 0.510184 0.483812
0.735082 0.575639 0.331862
0.889872 0.598911 0.288902
0.960982 0.625164 0.273876
0.587287 0.675958 0.569629
0.606561 0.679925 0.565280
0.886019 0.680713 0.436185
0.977340 0.720445 0.406648
0.981258 0.763180 0.396653
0.039479 0.128275 0.219594
0.041876 0.130131 0.222532
0.301759 0.240544 0.349436
0.699288 0.426324 0.489438
0.823214 0.501119 0.512658
0.038165 0.135522 0.231435
0.072902 0.156010 0.269331
0.376689 0.272334 0.398689
0.694155 0.373828 0.472268
0.843595 0.467936 0.507234
0.046648 0.295684 0.370460
0.079658 0.324983 0.393111
0.444134 0.449522 0.470941
0.739145 0.496173 0.495664
0.888146 0.513842 0.501369
0.203417 0.534040 0.546148
0.211507 0.533934 0.545902
0.476063 0.624792 0.572822
0.859813 0.636870 0.406436
0.945891 0.653581 0.403605
0.442322 0.692355 0.654410
0.459369 0.699974 0.659332
0.789704 0.766177 0.617257
0.937973 0.776317 0.486271
0.961226 0.815579 0.492924
0.022830 0.248479 0.402989
0.027480 0.251616 0.406126
0.195125 0.312854 0.439978
0.548675 0.465099 0.549432
0.729352 0.531676 0.593858
0.022333 0.251892 0.405630
0.027151 0.255695 0.411071
0.231359 0.317823 0.471658
0.570529 0.446588 0.564774
0.742544 0.524889 0.599663
0.072053 0.394050 0.523225
0.073957 0.398293 0.523141
0.185527 0.465492 0.585586
0.676850 0.544629 0.628287
0.834711 0.553372 0.651312
0.109278 0.586234 0.661684
0.109927 0.588592 0.665524
0.241959 0.641436 0.704790
0.754505 0.718832 0.696979
0.936103 0.695214 0.639130
0.342039 0.700220 0.712235
0.341473 0.699520 0.711935
0.562898 0.769765 0.757536
0.877918 0.836695 0.712945
0.962696 0.839913 0.644143
0.029515 0.300318 0.480182
0.029083 0.300119 0.479352
0.174859 0.357814 0.519787
0.537986 0.480751 0.596194
0.651085 0.531220 0.632674
0.031765 0.306279 0.486993
0.037465 0.310116 0.489503
0.182053 0.365138 0.530113
0.545461 0.483171 0.601506
0.656093 0.533094 0.637784
0.069100 0.445516 0.598997
0.068733 0.446049 0.599079
0.152550 0.502059 0.661861
0.627994 0.570842 0.673999
0.741133 0.598322 0.714665
0.088357 0.619496 0.748528
0.091710 0.620193 0.750838
0.223169 0.669869 0.784038
0.554992 0.740606 0.833096
0.869378 0.751003 0.809936
0.167970 0.720254 0.790635
0.180437 0.724304 0.792816
0.450562 0.777713 0.818066
0.764554 0.848708 0.850032
0.942081 0.865974 0.806039
