其他预设/【236】赛博朋克风调色预设/【后期菌】视频调色预设/CUBE/Tokyo 04.cube
# LUT by SparkleStock. Enhanced with VOXCOLOR algorithms.
LUT_3D_SIZE 8
DOMAIN_MIN 0.000000 0.000000 0.000000
DOMAIN_MAX 0.903226 0.903226 0.903226
0.089932 0.054741 0.035191
0.093589 0.058651 0.035191
0.105193 0.059156 0.031281
0.196386 0.067859 0.027370
0.478164 0.129411 0.018541
0.688929 0.208243 0.005171
0.767635 0.248479 0.003910
0.822123 0.286822 0.003910
0.097752 0.058651 0.035191
0.097280 0.058887 0.035427
0.100592 0.059188 0.034751
0.197648 0.074971 0.031329
0.480820 0.138057 0.025230
0.691622 0.213585 0.007820
0.771642 0.251420 0.006600
0.823637 0.288588 0.004048
0.087913 0.060669 0.037209
0.092043 0.064075 0.040395
0.111777 0.064954 0.037388
0.233074 0.086022 0.038246
0.510563 0.149352 0.022582
0.707381 0.224461 0.008146
0.783206 0.264863 0.008829
0.835188 0.303167 0.008373
0.073408 0.099896 0.060921
0.073457 0.103855 0.061930
0.093895 0.109258 0.067342
0.374480 0.135668 0.038222
0.644323 0.218699 0.024917
0.769425 0.287738 0.019172
0.823096 0.321468 0.013370
0.865712 0.355112 0.010864
0.131429 0.191215 0.106959
0.137052 0.196708 0.109673
0.164809 0.186178 0.093947
0.488425 0.226060 0.032522
0.777457 0.318481 0.004170
0.840193 0.365634 0.004594
0.884811 0.398701 0.004919
0.915355 0.429196 0.004919
0.313941 0.381042 0.251127
0.319157 0.384493 0.256974
0.411253 0.387296 0.212930
0.785570 0.390519 0.015876
0.878252 0.448775 0.011604
0.934449 0.500586 0.018163
0.959403 0.528018 0.019473
0.973168 0.557944 0.030471
0.577933 0.555356 0.370069
0.588935 0.559701 0.374162
0.640185 0.552605 0.325134
0.881621 0.507597 0.035573
0.949215 0.559860 0.041672
0.985227 0.607180 0.080012
0.990761 0.641080 0.149107
0.994492 0.670282 0.221421
0.764734 0.639738 0.413710
0.765352 0.636182 0.404580
0.810035 0.627426 0.346759
0.948275 0.609377 0.133768
0.982611 0.656338 0.217149
0.995365 0.704069 0.327945
1.000000 0.743849 0.425620
1.000000 0.777807 0.523359
0.093842 0.058651 0.035191
0.097263 0.058887 0.038848
0.101405 0.059123 0.031753
0.197656 0.071923 0.028331
0.478733 0.137101 0.022264
0.687073 0.205549 0.003910
0.768265 0.253019 0.005424
0.820219 0.286709 0.006054
0.090404 0.055465 0.035427
0.097042 0.058887 0.035442
0.104882 0.062610 0.038423
0.201227 0.073510 0.033274
0.488890 0.143200 0.029019
0.691333 0.213703 0.008634
0.769545 0.252981 0.008015
0.822689 0.287601 0.009921
0.091604 0.060669 0.037241
0.088446 0.060921 0.037506
0.115463 0.068864 0.041363
0.239852 0.093268 0.039554
0.525864 0.156764 0.029815
0.702369 0.222693 0.012078
0.786392 0.275660 0.017613
0.832924 0.302330 0.008644
0.076155 0.106854 0.064978
0.073851 0.106966 0.065326
0.093571 0.111024 0.072723
0.364831 0.138554 0.044379
0.655589 0.228912 0.032741
0.771141 0.288974 0.020579
0.834114 0.329287 0.017155
0.872251 0.360845 0.017188
0.139436 0.201114 0.115662
0.134940 0.199218 0.113778
0.171970 0.192905 0.102302
0.490279 0.230374 0.033759
0.781058 0.322074 0.006964
0.844034 0.368897 0.005921
0.889194 0.405645 0.007241
0.913904 0.427060 0.003694
0.323356 0.395080 0.268066
0.318440 0.387585 0.259983
0.416609 0.394032 0.221061
0.783718 0.389359 0.016080
0.881055 0.450405 0.011692
0.935938 0.502848 0.017998
0.962622 0.530908 0.021599
0.975617 0.560535 0.034340
0.581437 0.557598 0.370069
0.584488 0.559048 0.371428
0.629393 0.533970 0.306335
0.887394 0.515696 0.037375
0.947985 0.557435 0.037321
0.982574 0.607445 0.083133
0.990701 0.641378 0.146061
0.991676 0.666043 0.211456
0.764595 0.632158 0.400454
0.762122 0.634790 0.400222
0.809608 0.625424 0.343256
0.943547 0.601677 0.123769
0.981580 0.656435 0.220205
0.994006 0.701546 0.318498
1.000000 0.743218 0.424305
0.999668 0.777828 0.520413
0.084003 0.059660 0.037713
0.087409 0.059408 0.040614
0.096499 0.063066 0.040484
0.188692 0.077416 0.035443
0.464680 0.136600 0.025987
0.681292 0.210208 0.016649
0.761947 0.255025 0.008829
0.813070 0.284959 0.006738
0.087409 0.062374 0.039703
0.084256 0.059469 0.036578
0.101048 0.064262 0.041306
0.193503 0.081732 0.040297
0.471954 0.142683 0.031109
0.682522 0.211542 0.019231
0.763830 0.255668 0.013516
0.816714 0.285609 0.009088
0.076623 0.063062 0.043381
0.082433 0.066284 0.043226
0.105262 0.066963 0.044407
0.217553 0.088842 0.042120
0.513851 0.158120 0.036659
0.699112 0.228217 0.022131
0.773634 0.265719 0.010433
0.827071 0.302984 0.013596
0.071895 0.110336 0.072119
0.068703 0.109943 0.071849
0.084842 0.119425 0.080899
0.347512 0.141581 0.057782
0.630352 0.225266 0.043318
0.762004 0.284671 0.023240
0.829032 0.331235 0.024725
0.862772 0.357214 0.021985
0.124862 0.206591 0.123849
0.129565 0.209875 0.127581
0.153531 0.222785 0.134560
0.436431 0.237574 0.059100
0.785961 0.327083 0.007651
0.848286 0.374488 0.008525
0.894458 0.413073 0.010323
0.919132 0.434259 0.009285
0.304892 0.399604 0.280845
0.300320 0.391590 0.274233
0.342137 0.414479 0.288417
0.738588 0.405327 0.053890
0.881988 0.452158 0.012871
0.936610 0.502205 0.015078
0.963712 0.539665 0.027776
0.975328 0.565865 0.040105
0.569963 0.562728 0.393302
0.572612 0.564592 0.392013
0.604164 0.579214 0.400737
0.863514 0.538262 0.099768
0.949954 0.563046 0.044846
0.985653 0.611000 0.095921
0.987670 0.643192 0.158371
0.989247 0.671809 0.237752
0.761536 0.651216 0.437899
0.761575 0.648355 0.434348
0.780552 0.649134 0.422231
0.932225 0.621670 0.204774
0.983285 0.666725 0.247009
0.995807 0.713113 0.351964
0.994807 0.747439 0.439578
0.992881 0.777001 0.526485
0.060291 0.078075 0.067102
0.060494 0.078279 0.065686
0.061300 0.080724 0.069555
0.135257 0.089659 0.061214
0.345840 0.124813 0.055522
0.581803 0.193974 0.050538
0.703808 0.248645 0.039141
0.766048 0.286298 0.034938
0.060291 0.081985 0.067102
0.060304 0.081821 0.067016
0.067983 0.087679 0.071186
0.135263 0.094769 0.067846
0.357562 0.138896 0.066126
0.582127 0.195058 0.049878
0.710750 0.255698 0.045095
0.769611 0.289840 0.037795
0.056535 0.085517 0.069877
0.059817 0.092329 0.074097
0.065151 0.095702 0.081295
0.155448 0.107171 0.076064
0.394165 0.156383 0.073936
0.617704 0.217830 0.060358
0.725119 0.270968 0.054035
0.778552 0.307295 0.051200
0.048268 0.151207 0.115699
0.048064 0.149109 0.113725
0.060019 0.160566 0.127699
0.200820 0.161677 0.117859
0.526301 0.223752 0.096397
0.688302 0.289976 0.091689
0.772702 0.343820 0.095107
0.826647 0.374315 0.086487
0.081880 0.259049 0.209882
0.082256 0.262414 0.206252
0.102060 0.285238 0.230704
0.181586 0.334401 0.271157
0.727036 0.358501 0.095925
0.837082 0.408547 0.074554
0.899022 0.450946 0.071156
0.935955 0.470649 0.043882
0.220494 0.467357 0.403038
0.213252 0.459844 0.394971
0.227101 0.477076 0.414683
0.385370 0.533969 0.444201
0.886675 0.499048 0.065203
0.951953 0.532062 0.031935
0.972455 0.565586 0.045966
0.980276 0.592194 0.069810
0.430811 0.607741 0.545269
0.437713 0.615473 0.554907
0.467833 0.623426 0.562651
0.680096 0.663056 0.533568
0.957368 0.601616 0.138490
0.988545 0.645448 0.196922
0.990280 0.678443 0.278812
0.989247 0.700869 0.349320
0.634961 0.724803 0.647900
0.636864 0.729682 0.655709
0.664391 0.733595 0.647416
0.875801 0.713797 0.510798
0.983727 0.697127 0.363008
0.997301 0.749447 0.465373
0.991389 0.775156 0.528785
0.989247 0.805788 0.601304
0.038092 0.119446 0.109734
0.037083 0.115658 0.108725
0.038336 0.116301 0.109620
0.060816 0.119377 0.108908
0.172861 0.147659 0.125594
0.409947 0.200410 0.139782
0.560967 0.249488 0.151874
0.657058 0.292568 0.157888
0.037083 0.117306 0.107846
0.037095 0.117281 0.110523
0.041221 0.122039 0.116213
0.065351 0.125901 0.115824
0.183511 0.152257 0.131522
0.421374 0.206913 0.143289
0.573728 0.255742 0.150917
0.664392 0.300349 0.166242
0.032033 0.135982 0.123873
0.034397 0.133711 0.121937
0.039593 0.142610 0.135911
0.065559 0.142932 0.132271
0.201365 0.176003 0.156355
0.452980 0.227675 0.159216
0.593412 0.275995 0.172060
0.674849 0.317306 0.187471
0.009358 0.231048 0.224880
0.009509 0.237570 0.234306
0.013171 0.246618 0.247536
0.024893 0.289022 0.303142
0.294863 0.250797 0.224457
0.547700 0.328012 0.255127
0.668485 0.384083 0.276577
0.749235 0.433437 0.298317
0.025312 0.403124 0.417873
0.024843 0.407353 0.418364
0.030036 0.422347 0.437402
0.046247 0.482229 0.509891
0.283451 0.461437 0.449563
0.714960 0.491109 0.359867
0.814904 0.540739 0.377536
0.867603 0.576534 0.400307
0.093040 0.549936 0.560173
0.084483 0.547717 0.560085
0.089211 0.559158 0.574044
0.143190 0.601662 0.614501
0.418923 0.657512 0.619925
0.947744 0.587557 0.191837
0.978002 0.607757 0.170757
0.986907 0.638499 0.227208
0.271150 0.650626 0.640673
0.261017 0.644960 0.633700
0.290545 0.654858 0.643800
0.468424 0.700646 0.670164
0.784183 0.758196 0.654363
0.985554 0.702611 0.404333
0.989247 0.724003 0.431773
0.988564 0.742898 0.481293
0.540733 0.737965 0.690890
0.542698 0.737684 0.690537
0.576437 0.747533 0.697048
0.689625 0.781959 0.716009
0.925683 0.795392 0.645998
0.995251 0.784308 0.570720
0.989527 0.809629 0.617610
0.989042 0.830986 0.659663
0.015766 0.167881 0.185917
0.015937 0.164024 0.180880
0.015604 0.176421 0.197017
0.025714 0.180323 0.199291
0.048593 0.207494 0.229766
0.142268 0.229787 0.253487
0.325781 0.274637 0.278986
0.492494 0.325105 0.309339
0.015685 0.161664 0.182097
0.015685 0.167965 0.185831
0.014505 0.172705 0.194128
0.025771 0.176711 0.195887
0.049149 0.208548 0.231480
0.153493 0.227068 0.247104
0.324375 0.273912 0.282230
0.492393 0.323974 0.307841
0.010326 0.187919 0.207669
0.010646 0.184155 0.201850
0.009911 0.193581 0.218290
0.021590 0.207580 0.235885
0.054753 0.227588 0.255158
0.174928 0.255367 0.280748
0.338233 0.299008 0.306347
0.510650 0.351505 0.340145
0.000488 0.304347 0.346979
0.000488 0.302429 0.346652
0.000959 0.310156 0.356655
0.011080 0.364611 0.430495
0.067574 0.334593 0.387031
0.230196 0.360276 0.394473
0.422270 0.419329 0.433993
0.587260 0.477486 0.471443
0.024775 0.484271 0.557931
0.023772 0.482829 0.553815
0.028938 0.497430 0.571571
0.037734 0.542757 0.619638
0.051180 0.581044 0.654242
0.392846 0.551207 0.577053
0.682424 0.615492 0.610439
0.777175 0.650860 0.629718
0.052092 0.629549 0.683477
0.045061 0.624775 0.676994
0.049129 0.630727 0.684541
0.063108 0.657626 0.705915
0.122222 0.694715 0.734511
0.535318 0.722056 0.714103
0.880193 0.724976 0.641340
0.937157 0.728939 0.618348
0.086095 0.687794 0.712357
0.093124 0.686573 0.712218
0.097685 0.690385 0.713313
0.219695 0.711582 0.720541
0.504303 0.763054 0.745655
0.853806 0.807985 0.722121
0.989247 0.769015 0.578984
0.988008 0.779450 0.595749
0.393090 0.733945 0.716665
0.399865 0.739223 0.719685
0.419869 0.741850 0.720608
0.585224 0.784432 0.751483
0.761927 0.832298 0.771145
0.952958 0.841109 0.714516
0.989247 0.837526 0.685191
0.988212 0.850119 0.702192
0.000000 0.205468 0.254533
0.000000 0.205102 0.254419
0.000195 0.213231 0.267146
0.001807 0.266853 0.337910
0.023184 0.249235 0.305352
0.043202 0.290464 0.358717
0.082937 0.341185 0.417665
0.184465 0.366212 0.431296
0.000000 0.198278 0.249740
0.000000 0.201989 0.253586
0.000000 0.217021 0.270334
0.001562 0.268127 0.340991
0.022605 0.248196 0.305508
0.043186 0.292275 0.363938
0.082171 0.338592 0.415655
0.190595 0.368082 0.437942
0.000000 0.226279 0.280768
0.000000 0.222825 0.274528
0.000000 0.244961 0.307161
0.003005 0.292306 0.372739
0.023250 0.269806 0.337650
0.048371 0.315656 0.391689
0.090474 0.362976 0.442570
0.192100 0.385151 0.460058
0.006180 0.354258 0.444230
0.005683 0.353787 0.442273
0.006978 0.360855 0.456289
0.015616 0.408252 0.519008
0.025857 0.399548 0.505681
0.060263 0.423711 0.516227
0.103702 0.463038 0.551668
0.192998 0.505516 0.587133
0.036200 0.530622 0.629143
0.033486 0.523853 0.623237
0.037087 0.535185 0.635598
0.042868 0.578263 0.672677
0.056550 0.613252 0.709738
0.089412 0.588089 0.663979
0.302692 0.622424 0.678299
0.519480 0.649683 0.687179
0.054204 0.649259 0.721170
0.053656 0.648749 0.723224
0.055524 0.655872 0.729759
0.061670 0.679586 0.753418
0.066947 0.711713 0.780312
0.165711 0.734102 0.785237
0.710492 0.754439 0.742563
0.848418 0.769114 0.726287
0.065002 0.715876 0.768176
0.064942 0.714026 0.764822
0.065676 0.720933 0.773049
0.093876 0.735931 0.777533
0.254714 0.773171 0.799748
0.605793 0.818524 0.799266
0.949764 0.830064 0.724193
0.988230 0.812339 0.676349
0.152635 0.752772 0.774141
0.150670 0.745392 0.771208
0.173417 0.750979 0.772074
0.323046 0.780161 0.784797
0.638163 0.837704 0.820404
0.826384 0.867547 0.815862
0.974502 0.863169 0.749377
0.985979 0.867815 0.755481
0.003910 0.266515 0.357456
0.003658 0.267801 0.356837
0.000505 0.273501 0.363681
0.004667 0.311776 0.421925
0.012914 0.296738 0.390832
0.028754 0.339537 0.447001
0.039341 0.384835 0.496387
0.064705 0.420355 0.535932
0.001766 0.268257 0.355540
0.001790 0.264770 0.353745
0.003633 0.276734 0.373718
0.006285 0.314210 0.424278
0.012495 0.296874 0.391597
0.029087 0.337507 0.446879
0.039372 0.385573 0.497095
0.062699 0.419544 0.535343
0.003633 0.287681 0.380412
0.003726 0.288875 0.383315
0.003698 0.302438 0.403530
0.007053 0.337036 0.454155
0.017166 0.318765 0.425725
0.030589 0.356855 0.469085
0.043416 0.407716 0.524151
0.069805 0.439978 0.558085
0.009460 0.393440 0.519356
0.011051 0.398101 0.519975
0.018065 0.407635 0.533094
0.026829 0.456913 0.591790
0.039082 0.479111 0.613486
0.046850 0.463054 0.585341
0.061570 0.495844 0.609790
0.081075 0.527490 0.634474
0.043438 0.566931 0.679062
0.041794 0.561199 0.672333
0.044170 0.574756 0.685882
0.053996 0.605376 0.717089
0.063831 0.644155 0.756669
0.068953 0.624332 0.724015
0.097406 0.634835 0.721535
0.207410 0.658864 0.732910
0.059912 0.669061 0.762720
0.059342 0.668699 0.763049
0.060990 0.676522 0.769004
0.064237 0.697351 0.789760
0.071212 0.728461 0.816834
0.081371 0.751543 0.831370
0.273079 0.756357 0.815215
0.582990 0.777426 0.807731
0.064327 0.733579 0.805295
0.064327 0.731999 0.803784
0.063491 0.736468 0.807184
0.068959 0.758144 0.824052
0.100557 0.784909 0.844408
0.237429 0.811514 0.856341
0.774097 0.857904 0.833536
0.917111 0.856454 0.798724
0.072355 0.769527 0.819560
0.072396 0.770765 0.820896
0.085672 0.772607 0.821442
0.159934 0.788580 0.824967
0.459658 0.836335 0.854372
0.708153 0.877088 0.870763
0.896576 0.893772 0.840447
0.961002 0.891028 0.816288
