其他预设/【236】赛博朋克风调色预设/【后期菌】视频调色预设/CUBE/Tokyo 05_S.cube
# LUT by SparkleStock. Enhanced with VOXCOLOR algorithms.
LUT_3D_SIZE 8
DOMAIN_MIN 0.000000 0.000000 0.000000
DOMAIN_MAX 0.903226 0.903226 0.903226
0.144673 0.058651 0.039101
0.144673 0.058651 0.043011
0.165863 0.063570 0.039101
0.301832 0.095986 0.034434
0.503894 0.162457 0.043011
0.599250 0.208243 0.050705
0.652729 0.243686 0.056255
0.697380 0.282912 0.068237
0.148583 0.062561 0.043011
0.148363 0.062325 0.043263
0.166652 0.064644 0.038629
0.320373 0.108725 0.037432
0.507495 0.161139 0.038848
0.611195 0.200097 0.041794
0.668972 0.234954 0.053956
0.703458 0.282282 0.067745
0.134834 0.059660 0.046038
0.146312 0.063603 0.049411
0.185576 0.086913 0.043825
0.354193 0.146381 0.036619
0.518766 0.201684 0.033299
0.625143 0.238351 0.044272
0.688286 0.264863 0.052585
0.724925 0.296937 0.071240
0.126384 0.095229 0.085895
0.135843 0.096189 0.086652
0.163788 0.127869 0.082111
0.450573 0.219782 0.049362
0.566822 0.272443 0.044777
0.655646 0.309534 0.055901
0.719119 0.324157 0.071724
0.746083 0.344228 0.101983
0.247217 0.193485 0.168890
0.255676 0.198034 0.171791
0.279580 0.208507 0.149445
0.520251 0.296063 0.074120
0.651720 0.356447 0.053101
0.720083 0.396178 0.071158
0.778242 0.417897 0.099794
0.805824 0.435474 0.135205
0.492921 0.447514 0.378898
0.497803 0.450541 0.380745
0.543821 0.436251 0.341279
0.725735 0.407192 0.131034
0.771651 0.469460 0.157286
0.834525 0.525394 0.195308
0.872608 0.552992 0.238848
0.900138 0.584118 0.281533
0.679595 0.581213 0.471100
0.684193 0.584142 0.472361
0.720209 0.579724 0.440096
0.832259 0.523066 0.258357
0.883903 0.588012 0.305376
0.914199 0.637972 0.357078
0.930344 0.670803 0.394404
0.940182 0.687289 0.412901
0.786807 0.644405 0.483083
0.785924 0.640987 0.479274
0.820077 0.628186 0.429180
0.887407 0.630477 0.366611
0.917983 0.682118 0.417698
0.938917 0.721784 0.459053
0.954561 0.749146 0.497820
0.970116 0.774275 0.535045
0.148583 0.058903 0.039353
0.148347 0.062325 0.043263
0.161953 0.059156 0.039857
0.310970 0.095131 0.044476
0.508309 0.149278 0.057451
0.606728 0.186926 0.063147
0.660073 0.236146 0.063810
0.697758 0.280654 0.068375
0.144909 0.058887 0.039825
0.148188 0.062420 0.043563
0.175276 0.076169 0.052706
0.329044 0.112072 0.066444
0.514294 0.160447 0.080297
0.621008 0.189434 0.083834
0.682726 0.220809 0.076383
0.714632 0.270761 0.078840
0.142215 0.060197 0.049476
0.142528 0.065401 0.050438
0.194966 0.111760 0.066308
0.363588 0.173074 0.080848
0.524120 0.219086 0.088544
0.628149 0.242113 0.093019
0.705969 0.266259 0.091108
0.741963 0.290991 0.087303
0.135233 0.096035 0.090107
0.136502 0.101756 0.090343
0.178161 0.167461 0.104628
0.434780 0.255513 0.087908
0.560504 0.305070 0.100544
0.655531 0.328678 0.105649
0.735855 0.342612 0.110049
0.772066 0.356018 0.119740
0.257808 0.203002 0.180681
0.261344 0.206875 0.181206
0.286945 0.249179 0.160220
0.502825 0.331469 0.102769
0.628808 0.392946 0.096499
0.707648 0.418882 0.106560
0.778195 0.436930 0.123322
0.815197 0.441438 0.134918
0.504020 0.456469 0.394457
0.500554 0.449787 0.383852
0.544033 0.450066 0.342993
0.688952 0.427923 0.134761
0.737241 0.495272 0.163580
0.806865 0.539429 0.196991
0.863166 0.561765 0.231323
0.901630 0.593443 0.267740
0.681682 0.581213 0.471100
0.681281 0.582716 0.472368
0.710378 0.567980 0.428812
0.828480 0.529881 0.260320
0.865508 0.592041 0.296224
0.902929 0.639776 0.345524
0.924272 0.671587 0.382260
0.933710 0.688459 0.382776
0.785143 0.638590 0.475263
0.787582 0.640896 0.479548
0.816408 0.622562 0.426023
0.884336 0.625241 0.362368
0.918018 0.680136 0.416725
0.938889 0.718554 0.454618
0.954981 0.749830 0.496867
0.966514 0.774763 0.527853
0.130420 0.059156 0.048939
0.140636 0.062057 0.048434
0.157802 0.062561 0.052279
0.313029 0.089903 0.068530
0.499610 0.138118 0.082238
0.605609 0.182260 0.092544
0.662177 0.226658 0.084199
0.696423 0.280719 0.073714
0.136759 0.062089 0.051653
0.131116 0.059440 0.050046
0.177011 0.077294 0.084195
0.336111 0.118496 0.119124
0.507748 0.154222 0.140156
0.616629 0.181012 0.139971
0.688574 0.216742 0.125407
0.723186 0.260604 0.099591
0.125940 0.061548 0.052845
0.129793 0.072936 0.064364
0.191979 0.117237 0.105694
0.358568 0.178211 0.140515
0.518852 0.221743 0.157490
0.625327 0.242214 0.159285
0.708727 0.260335 0.147311
0.747956 0.289950 0.120951
0.134118 0.097849 0.094289
0.132582 0.115269 0.102591
0.179739 0.179295 0.143744
0.422325 0.269430 0.157761
0.549098 0.308957 0.167486
0.652970 0.333292 0.172473
0.739993 0.351935 0.174152
0.784216 0.357486 0.161092
0.252755 0.221096 0.199523
0.255713 0.224739 0.200030
0.277673 0.283203 0.217685
0.468853 0.352242 0.171821
0.622168 0.405162 0.156738
0.701916 0.433932 0.170852
0.779922 0.454983 0.177472
0.837388 0.461779 0.179000
0.496815 0.472313 0.409841
0.486985 0.460553 0.399824
0.507946 0.481996 0.403309
0.658424 0.458092 0.199642
0.725217 0.506995 0.196301
0.791600 0.549682 0.228667
0.849278 0.581298 0.257163
0.899401 0.603368 0.279800
0.667495 0.591796 0.484136
0.670341 0.590906 0.482852
0.694696 0.604425 0.492201
0.827437 0.553122 0.305648
0.859148 0.599201 0.306555
0.891300 0.648693 0.351009
0.898331 0.684861 0.367142
0.927259 0.705569 0.372840
0.789984 0.651745 0.500285
0.792042 0.651658 0.500427
0.799468 0.647494 0.485416
0.884818 0.634756 0.391107
0.919965 0.686818 0.429100
0.939873 0.728133 0.470511
0.938225 0.762117 0.479857
0.953237 0.789458 0.490834
0.089175 0.073408 0.095229
0.089582 0.073612 0.095433
0.105572 0.075243 0.097569
0.269103 0.087262 0.096698
0.452640 0.139949 0.117245
0.561410 0.183505 0.124955
0.619723 0.232879 0.121208
0.656676 0.285435 0.110743
0.093036 0.074165 0.098887
0.093098 0.074798 0.097595
0.128247 0.086452 0.140130
0.294926 0.114603 0.161022
0.472793 0.154710 0.190870
0.586112 0.183716 0.196168
0.657361 0.226811 0.177101
0.680952 0.273287 0.142067
0.089875 0.080289 0.102614
0.091997 0.089486 0.118628
0.147855 0.129175 0.170861
0.325170 0.173131 0.197460
0.489960 0.220502 0.227988
0.602258 0.242696 0.232467
0.678766 0.266849 0.217692
0.715777 0.297145 0.183008
0.113770 0.141137 0.169850
0.117359 0.141722 0.168251
0.162185 0.204998 0.227202
0.348277 0.265329 0.243921
0.522732 0.315007 0.254953
0.625110 0.343035 0.269837
0.716360 0.366838 0.284041
0.777573 0.382582 0.268709
0.264505 0.307984 0.323750
0.265233 0.306175 0.321863
0.288861 0.364970 0.357943
0.386816 0.444800 0.398885
0.602475 0.423126 0.270482
0.694275 0.456001 0.281836
0.779510 0.480803 0.300131
0.860157 0.495278 0.290623
0.500757 0.529784 0.500765
0.495813 0.522011 0.490505
0.499514 0.539425 0.499875
0.563906 0.588431 0.499616
0.744113 0.540816 0.285219
0.797354 0.575139 0.300588
0.841707 0.607086 0.333523
0.905402 0.624939 0.351193
0.638301 0.632426 0.571798
0.644225 0.637670 0.576394
0.657983 0.645719 0.582748
0.748163 0.673582 0.558912
0.871239 0.633437 0.370981
0.878703 0.683390 0.400248
0.883220 0.713544 0.416415
0.924530 0.729789 0.423425
0.744947 0.708190 0.622637
0.748953 0.712563 0.628349
0.762373 0.714078 0.623724
0.869101 0.703738 0.529534
0.929324 0.706152 0.469129
0.937643 0.755273 0.509462
0.925344 0.791844 0.514770
0.950346 0.820036 0.528066
0.093968 0.112635 0.167502
0.093903 0.109034 0.161000
0.095856 0.114918 0.171429
0.167258 0.112806 0.150373
0.300530 0.155377 0.188440
0.421543 0.219721 0.229852
0.493564 0.278233 0.246233
0.545945 0.325720 0.256221
0.093024 0.110747 0.161769
0.093174 0.110837 0.164723
0.115304 0.124743 0.198022
0.205621 0.127004 0.217736
0.354160 0.163750 0.261632
0.471002 0.210514 0.286993
0.542619 0.260774 0.285651
0.566271 0.326076 0.278095
0.103432 0.129659 0.187813
0.102187 0.128308 0.186186
0.130457 0.154601 0.239423
0.227344 0.176188 0.275849
0.382666 0.220216 0.316768
0.508126 0.259863 0.337130
0.580799 0.301734 0.336470
0.613277 0.339699 0.323030
0.177044 0.234352 0.311211
0.184891 0.242268 0.323504
0.205053 0.272221 0.359713
0.297160 0.338248 0.433182
0.423931 0.339255 0.402171
0.554520 0.384804 0.424143
0.647574 0.413319 0.435037
0.724733 0.442685 0.446088
0.375167 0.466502 0.509253
0.378374 0.469849 0.510447
0.382196 0.485004 0.521511
0.430687 0.524801 0.555719
0.518591 0.542057 0.548638
0.647721 0.525499 0.482128
0.744713 0.541506 0.490666
0.826057 0.558001 0.495904
0.515816 0.604958 0.610475
0.514857 0.603429 0.611699
0.518349 0.609276 0.612340
0.546216 0.641656 0.630023
0.641838 0.678177 0.632549
0.810981 0.611758 0.409733
0.851411 0.630790 0.431560
0.911368 0.643896 0.446025
0.620204 0.681589 0.656074
0.621532 0.677041 0.651351
0.628158 0.685156 0.659268
0.682786 0.714407 0.682178
0.811451 0.739518 0.641546
0.879855 0.717068 0.486389
0.885221 0.738577 0.496828
0.928739 0.748943 0.509856
0.713203 0.736802 0.681332
0.716255 0.737852 0.682936
0.727537 0.739443 0.683990
0.784384 0.766264 0.700453
0.907246 0.768534 0.610808
0.929569 0.783848 0.567556
0.918764 0.815813 0.578984
0.945789 0.841467 0.593987
0.131176 0.153376 0.253398
0.132446 0.151996 0.253369
0.142797 0.165915 0.274946
0.169207 0.188001 0.296734
0.226174 0.248951 0.339671
0.301555 0.324483 0.407941
0.362469 0.376278 0.435023
0.433127 0.425249 0.465111
0.129834 0.149555 0.252136
0.132475 0.152272 0.256039
0.140294 0.162021 0.270648
0.179355 0.184975 0.315178
0.254597 0.241599 0.368665
0.327642 0.306401 0.424628
0.381578 0.373411 0.450630
0.431410 0.423634 0.463695
0.151899 0.180278 0.286444
0.150558 0.177783 0.285386
0.167748 0.195874 0.315220
0.216871 0.228112 0.368320
0.293018 0.273822 0.415015
0.381323 0.344147 0.469521
0.421075 0.396893 0.485001
0.495868 0.437384 0.507488
0.255668 0.307760 0.419167
0.254027 0.305053 0.416460
0.265506 0.318734 0.432185
0.345551 0.387127 0.512785
0.391578 0.396322 0.514890
0.475285 0.455206 0.551750
0.548361 0.489828 0.576954
0.633436 0.509902 0.600077
0.443152 0.515665 0.583524
0.439642 0.511869 0.580543
0.452361 0.527850 0.592897
0.487745 0.566024 0.634021
0.546725 0.611481 0.678604
0.587462 0.604628 0.654696
0.679644 0.610447 0.656945
0.775692 0.609900 0.650814
0.540879 0.646646 0.681430
0.536959 0.640555 0.677344
0.544962 0.650815 0.684833
0.579349 0.687771 0.723733
0.626447 0.731097 0.759652
0.701442 0.733494 0.735572
0.810098 0.693704 0.642086
0.884811 0.684901 0.620419
0.593606 0.710229 0.726972
0.596736 0.710138 0.723177
0.600328 0.713545 0.727671
0.649352 0.742579 0.749848
0.744667 0.781651 0.769469
0.822337 0.777145 0.693577
0.895401 0.757291 0.584818
0.933536 0.762754 0.597275
0.689739 0.754956 0.736851
0.698352 0.758659 0.740610
0.702410 0.759292 0.741979
0.766334 0.791140 0.766252
0.845795 0.816366 0.769418
0.914026 0.813152 0.672385
0.927890 0.832989 0.648635
0.950187 0.852616 0.663895
0.193738 0.214171 0.355564
0.193526 0.215318 0.356711
0.199527 0.217759 0.363063
0.257857 0.281024 0.425526
0.273314 0.288954 0.416095
0.333743 0.352065 0.465677
0.389331 0.406781 0.503264
0.447135 0.462576 0.545066
0.186605 0.204585 0.348374
0.188843 0.208393 0.352028
0.204596 0.226099 0.370210
0.258957 0.281582 0.426645
0.271339 0.287410 0.414550
0.335279 0.350733 0.466319
0.388874 0.406265 0.501338
0.452027 0.465599 0.548444
0.210318 0.233078 0.376754
0.206783 0.229437 0.373085
0.226733 0.249834 0.394772
0.281249 0.305633 0.449849
0.298639 0.312761 0.444693
0.360603 0.374264 0.488753
0.421369 0.434507 0.528777
0.480424 0.477516 0.568933
0.316752 0.356903 0.491529
0.314577 0.353816 0.490226
0.328694 0.365840 0.501236
0.383948 0.421218 0.544883
0.426132 0.446679 0.561846
0.477039 0.489177 0.583150
0.542895 0.527084 0.628574
0.607857 0.547023 0.662488
0.479653 0.546604 0.632398
0.475847 0.541864 0.628015
0.489477 0.554721 0.639959
0.527299 0.598982 0.684070
0.580148 0.654990 0.740028
0.603847 0.642313 0.719155
0.655203 0.648152 0.738726
0.718565 0.652564 0.755270
0.562606 0.669456 0.727602
0.567247 0.670872 0.731365
0.573417 0.678487 0.737526
0.604680 0.714051 0.772199
0.650479 0.755029 0.818713
0.701347 0.774453 0.833112
0.765035 0.744868 0.782457
0.844125 0.727976 0.754445
0.612457 0.733327 0.773014
0.609703 0.731382 0.768886
0.617525 0.738144 0.778575
0.647444 0.762724 0.798285
0.719915 0.804232 0.832314
0.797304 0.820755 0.817644
0.888717 0.789721 0.707216
0.942863 0.778572 0.669720
0.664354 0.776171 0.793650
0.657677 0.771467 0.784645
0.671598 0.777674 0.791715
0.734133 0.804044 0.810784
0.828418 0.846195 0.841621
0.873874 0.849026 0.816133
0.932602 0.844876 0.722980
0.953176 0.854768 0.730658
0.233847 0.249488 0.409422
0.235133 0.249007 0.408917
0.240557 0.254936 0.416636
0.291506 0.306731 0.469477
0.305518 0.313989 0.460176
0.368291 0.375037 0.503190
0.421087 0.428907 0.539956
0.469041 0.476862 0.576757
0.233583 0.247571 0.407506
0.230096 0.246090 0.403889
0.243776 0.261440 0.419939
0.294235 0.309533 0.470440
0.305456 0.315300 0.458808
0.365980 0.372682 0.501962
0.420342 0.429432 0.540525
0.466179 0.475099 0.573756
0.251282 0.272370 0.437195
0.252431 0.272030 0.436494
0.268075 0.286364 0.450648
0.317632 0.336555 0.495530
0.329742 0.334366 0.484320
0.387123 0.391867 0.521102
0.449703 0.453760 0.564025
0.494430 0.500184 0.598701
0.351023 0.377132 0.525011
0.352586 0.378114 0.526247
0.366722 0.392993 0.537902
0.431345 0.460711 0.593852
0.486493 0.507843 0.631957
0.496590 0.514618 0.613123
0.538241 0.559526 0.649806
0.578635 0.590645 0.686925
0.510628 0.568648 0.677072
0.507758 0.563773 0.670606
0.518788 0.578565 0.685929
0.559867 0.628645 0.732851
0.607415 0.678870 0.785023
0.632710 0.687822 0.774330
0.659994 0.698126 0.786066
0.703530 0.706952 0.809811
0.590990 0.686085 0.770975
0.590123 0.684575 0.770108
0.597413 0.693448 0.778355
0.625319 0.724853 0.809783
0.680478 0.772806 0.857598
0.724698 0.807169 0.882923
0.758339 0.804655 0.878894
0.804036 0.795817 0.870239
0.630205 0.745257 0.805926
0.628668 0.743529 0.804975
0.634459 0.749560 0.809269
0.668656 0.782469 0.841979
0.736316 0.830501 0.884808
0.783705 0.858396 0.898930
0.855943 0.846378 0.853547
0.900478 0.828635 0.808625
0.656310 0.788320 0.833439
0.655968 0.787014 0.830258
0.666408 0.792010 0.835192
0.720522 0.819296 0.853489
0.803632 0.856810 0.878118
0.857538 0.872552 0.879821
0.908827 0.870559 0.835351
0.943334 0.868973 0.805396
