其他预设/【236】赛博朋克风调色预设/【后期菌】视频调色预设/CUBE/Tokyo 06.cube
# LUT by SparkleStock. Enhanced with VOXCOLOR algorithms.
LUT_3D_SIZE 8
DOMAIN_MIN 0.000000 0.000000 0.000000
DOMAIN_MAX 0.903226 0.903226 0.903226
0.097752 0.039101 0.066471
0.097752 0.043011 0.070381
0.122473 0.043011 0.069372
0.307886 0.046038 0.054741
0.607700 0.086274 0.047804
0.741147 0.159934 0.020938
0.801312 0.209378 0.010217
0.842052 0.247343 0.011730
0.105572 0.043011 0.070381
0.105352 0.043263 0.070617
0.121749 0.042791 0.069405
0.309245 0.053150 0.061804
0.610170 0.088109 0.050452
0.741489 0.159015 0.022118
0.805572 0.213638 0.014224
0.843956 0.251253 0.013382
0.091824 0.049443 0.077318
0.099359 0.052629 0.080504
0.144213 0.049818 0.073587
0.344863 0.060193 0.067887
0.623597 0.100429 0.051974
0.762516 0.183216 0.019103
0.815414 0.230108 0.019355
0.855068 0.270853 0.016421
0.084256 0.111500 0.126510
0.084557 0.113014 0.127470
0.101320 0.116814 0.132596
0.494455 0.110930 0.089858
0.705554 0.180115 0.059237
0.804986 0.252840 0.040110
0.849665 0.298349 0.033758
0.884127 0.332519 0.024648
0.169394 0.244190 0.207990
0.175074 0.246969 0.213483
0.210403 0.231581 0.183838
0.575923 0.251249 0.074454
0.828027 0.304111 0.004170
0.878325 0.337002 0.003910
0.906090 0.370399 0.004919
0.924339 0.393375 0.004463
0.305868 0.452937 0.394917
0.311939 0.458406 0.400808
0.436552 0.439083 0.314522
0.858726 0.446639 0.019298
0.920559 0.461620 0.011604
0.955920 0.497209 0.014253
0.965299 0.506466 0.015437
0.973359 0.525654 0.019302
0.559266 0.587519 0.458739
0.562895 0.590294 0.462385
0.652591 0.596051 0.380151
0.940015 0.558464 0.035020
0.972964 0.577807 0.030752
0.988112 0.602891 0.037477
0.998377 0.621440 0.038759
1.000000 0.635575 0.039984
0.756787 0.680226 0.427333
0.757683 0.678826 0.421734
0.846385 0.687887 0.359348
0.975572 0.645865 0.052886
0.989703 0.665672 0.047678
0.995365 0.685336 0.046038
1.000000 0.704012 0.049370
1.000000 0.724412 0.057133
0.101914 0.039353 0.066723
0.101678 0.046685 0.074039
0.124585 0.039792 0.066691
0.307565 0.050103 0.058806
0.609214 0.087153 0.047804
0.739715 0.153367 0.019506
0.801942 0.210009 0.011730
0.842052 0.249374 0.011730
0.098224 0.039841 0.067195
0.104673 0.046479 0.070603
0.125474 0.046433 0.073123
0.313955 0.051588 0.059380
0.612616 0.091010 0.051840
0.750750 0.164780 0.022543
0.803475 0.211685 0.012143
0.844522 0.251746 0.013949
0.095514 0.049476 0.077823
0.095764 0.049726 0.077617
0.148249 0.053732 0.077184
0.346627 0.064048 0.068556
0.629204 0.104266 0.053334
0.758452 0.179145 0.022540
0.818288 0.235329 0.023762
0.853927 0.269726 0.019778
0.087759 0.116265 0.130469
0.087507 0.115521 0.130675
0.106761 0.122435 0.138230
0.485464 0.110403 0.092095
0.710717 0.188327 0.066786
0.808448 0.256994 0.044598
0.856823 0.306538 0.036575
0.890191 0.340053 0.032009
0.176205 0.254089 0.216946
0.174550 0.253023 0.219720
0.217637 0.242486 0.196355
0.581006 0.254063 0.074732
0.832673 0.311626 0.006507
0.883761 0.342387 0.007137
0.910889 0.374636 0.005913
0.924539 0.391819 0.004749
0.317932 0.465677 0.406818
0.312093 0.458843 0.401533
0.437178 0.444737 0.324435
0.853253 0.439078 0.017544
0.924046 0.462502 0.013405
0.958459 0.499500 0.015052
0.966709 0.509142 0.015908
0.975719 0.527993 0.020523
0.559071 0.587267 0.458275
0.560018 0.588727 0.461960
0.642218 0.586497 0.370602
0.941086 0.562742 0.037899
0.972198 0.576390 0.028472
0.984970 0.600880 0.035804
0.996011 0.620284 0.038113
0.998440 0.632122 0.038035
0.759033 0.674412 0.411314
0.757664 0.677298 0.418720
0.845795 0.687399 0.349103
0.973836 0.644679 0.050074
0.990929 0.665798 0.047797
0.995365 0.680791 0.045391
1.000000 0.703283 0.048126
0.999758 0.722497 0.057155
0.086904 0.048939 0.081733
0.093716 0.048654 0.081668
0.111061 0.051335 0.080594
0.292063 0.055791 0.070324
0.587027 0.087661 0.062191
0.738067 0.162620 0.033840
0.793032 0.207177 0.020755
0.835847 0.248658 0.017105
0.086465 0.051872 0.087380
0.086715 0.048717 0.081039
0.115679 0.049257 0.078926
0.297401 0.060524 0.074480
0.591083 0.092230 0.065234
0.737191 0.160162 0.034216
0.795868 0.213263 0.027720
0.837774 0.247645 0.018034
0.080468 0.055811 0.090937
0.083914 0.058842 0.091002
0.122276 0.056103 0.088541
0.328853 0.068624 0.081773
0.609819 0.102857 0.067466
0.746117 0.174014 0.040952
0.807461 0.227914 0.028809
0.847090 0.267823 0.023424
0.081285 0.125065 0.140018
0.082254 0.124511 0.142452
0.098003 0.128128 0.151307
0.460261 0.117063 0.108310
0.701964 0.185917 0.086586
0.796271 0.255013 0.059939
0.851903 0.310982 0.051011
0.880810 0.337433 0.040550
0.155499 0.269400 0.243299
0.159998 0.272767 0.244180
0.183512 0.288812 0.253617
0.516599 0.264473 0.116755
0.837087 0.323622 0.010897
0.885486 0.350687 0.008420
0.915038 0.382283 0.009807
0.928552 0.398682 0.008361
0.296189 0.479335 0.437374
0.289037 0.471380 0.428066
0.331881 0.483092 0.425493
0.820254 0.474813 0.069403
0.924284 0.467855 0.013021
0.956848 0.501379 0.015746
0.969315 0.520218 0.017874
0.973924 0.532343 0.020302
0.544932 0.591796 0.483013
0.544774 0.595011 0.484086
0.584878 0.612083 0.485506
0.923291 0.601935 0.082390
0.973473 0.579571 0.030138
0.986606 0.605743 0.036293
0.990875 0.620054 0.033835
0.991880 0.636192 0.035850
0.745281 0.686105 0.455513
0.743855 0.685962 0.456236
0.777173 0.694313 0.442234
0.965194 0.670244 0.109913
0.989774 0.674211 0.050475
0.995208 0.689756 0.047023
0.994807 0.703483 0.047154
0.992881 0.721331 0.055315
0.058651 0.074165 0.122600
0.058854 0.074369 0.122803
0.065153 0.079560 0.125248
0.188257 0.074165 0.123039
0.478737 0.091010 0.119161
0.664301 0.129268 0.104254
0.743544 0.178561 0.095860
0.786933 0.222801 0.077119
0.061804 0.080268 0.126306
0.061722 0.077249 0.125483
0.067067 0.084070 0.129935
0.186262 0.079567 0.128635
0.485627 0.096355 0.125471
0.666501 0.129992 0.106207
0.749243 0.189381 0.100850
0.790258 0.228383 0.079776
0.059058 0.086119 0.130587
0.062598 0.087467 0.131804
0.072671 0.093848 0.142013
0.220475 0.091852 0.140592
0.517412 0.109066 0.138711
0.685988 0.147108 0.115033
0.759728 0.202491 0.110142
0.802527 0.246646 0.092210
0.057459 0.199462 0.226092
0.054566 0.189286 0.219137
0.064031 0.209155 0.242869
0.259297 0.171035 0.226038
0.613432 0.169807 0.173276
0.736698 0.224918 0.154429
0.804356 0.294756 0.147964
0.848515 0.341018 0.130541
0.079760 0.376795 0.421364
0.078247 0.378849 0.422010
0.088264 0.403921 0.450715
0.155627 0.443178 0.486714
0.788421 0.369339 0.159001
0.879706 0.425921 0.123711
0.917743 0.458570 0.107756
0.947774 0.457648 0.057727
0.200760 0.554103 0.581363
0.185641 0.545581 0.574356
0.212485 0.561965 0.585200
0.404875 0.608077 0.576262
0.932123 0.530878 0.076841
0.965117 0.529218 0.023158
0.976468 0.548387 0.023334
0.979621 0.559654 0.023196
0.423463 0.657189 0.641426
0.432789 0.662403 0.646550
0.457140 0.670003 0.648877
0.658225 0.701909 0.596231
0.974747 0.620492 0.085595
0.987687 0.633986 0.040143
0.989995 0.650852 0.040309
0.988906 0.662270 0.042124
0.560507 0.733417 0.687379
0.571110 0.739540 0.690460
0.599803 0.744896 0.687468
0.870911 0.765503 0.525501
0.988800 0.702752 0.117595
0.995620 0.723300 0.076336
0.991986 0.732131 0.094015
0.988906 0.758968 0.217827
0.047804 0.126384 0.204837
0.047804 0.122595 0.198205
0.049187 0.128536 0.209268
0.088381 0.119373 0.204259
0.266145 0.140091 0.242257
0.532555 0.146227 0.233994
0.639359 0.147826 0.225510
0.711547 0.166912 0.210619
0.047804 0.124496 0.201061
0.047800 0.127006 0.201045
0.054297 0.136474 0.220653
0.094239 0.130250 0.217035
0.275135 0.146298 0.246567
0.541015 0.144860 0.235594
0.649553 0.144350 0.224521
0.714095 0.170532 0.217783
0.044646 0.155654 0.235243
0.044508 0.151895 0.230484
0.048525 0.166617 0.253205
0.091688 0.158431 0.254217
0.305165 0.177891 0.290848
0.556546 0.157155 0.248050
0.662284 0.159679 0.237491
0.720356 0.180837 0.231915
0.004105 0.318331 0.451041
0.004191 0.324754 0.464440
0.007079 0.336254 0.478585
0.016840 0.373038 0.548066
0.405320 0.250275 0.375400
0.627403 0.246424 0.337564
0.717224 0.272263 0.332670
0.774866 0.313592 0.333035
0.021560 0.513204 0.636308
0.021285 0.511573 0.634070
0.024982 0.525394 0.646670
0.048497 0.554069 0.675670
0.449123 0.561747 0.650976
0.778852 0.473454 0.460320
0.846919 0.511526 0.434871
0.882665 0.553223 0.446395
0.142069 0.623153 0.685230
0.135351 0.621385 0.686054
0.150359 0.627742 0.690933
0.253097 0.664162 0.713886
0.556902 0.731677 0.723896
0.963360 0.603368 0.174021
0.980101 0.596380 0.091351
0.982997 0.604670 0.058586
0.360284 0.701139 0.717272
0.352226 0.696378 0.715762
0.381551 0.707587 0.721423
0.520800 0.743749 0.738764
0.789032 0.797234 0.709512
0.984292 0.693492 0.162828
0.989247 0.685822 0.065348
0.986851 0.697063 0.068806
0.540415 0.760262 0.740761
0.539039 0.759722 0.740408
0.552216 0.765889 0.745232
0.660046 0.801502 0.760673
0.910896 0.830990 0.670442
0.988547 0.765301 0.317303
0.988732 0.785821 0.377408
0.986647 0.812415 0.505345
0.013244 0.202567 0.363636
0.013244 0.203673 0.364454
0.010253 0.218476 0.393363
0.030271 0.218439 0.407038
0.080293 0.248983 0.461168
0.233579 0.260620 0.494650
0.475401 0.247136 0.445776
0.597553 0.246517 0.435088
0.013244 0.200134 0.358554
0.013244 0.200693 0.364057
0.010595 0.212217 0.383907
0.032905 0.217117 0.403894
0.082986 0.248205 0.457308
0.241300 0.256929 0.487431
0.478404 0.254219 0.453785
0.592642 0.248418 0.439941
0.009570 0.243507 0.427353
0.009079 0.238061 0.420316
0.006986 0.251380 0.442117
0.020832 0.258384 0.467418
0.084321 0.274745 0.493006
0.279846 0.283428 0.516065
0.485249 0.280777 0.486230
0.616760 0.273536 0.464034
0.002775 0.381185 0.595246
0.002946 0.381631 0.595586
0.003555 0.388279 0.600926
0.016970 0.432945 0.650008
0.135757 0.388646 0.605100
0.398824 0.415863 0.612506
0.576720 0.416672 0.597587
0.678586 0.421445 0.581159
0.034348 0.542962 0.704842
0.033504 0.543492 0.703355
0.041605 0.550553 0.713035
0.092582 0.591621 0.743649
0.342474 0.666657 0.786885
0.650102 0.636052 0.725624
0.768076 0.615541 0.687472
0.826002 0.643952 0.687926
0.153066 0.669378 0.763920
0.144900 0.662459 0.759116
0.163441 0.671272 0.765965
0.273614 0.709243 0.786720
0.504359 0.779976 0.828618
0.770546 0.814947 0.812850
0.895697 0.754070 0.692502
0.929255 0.750635 0.656121
0.343264 0.736826 0.776826
0.338955 0.733643 0.775338
0.355442 0.739564 0.777845
0.491776 0.776259 0.795120
0.679018 0.832340 0.819771
0.861588 0.841091 0.766551
0.986474 0.761481 0.428160
0.987253 0.752889 0.370435
0.512968 0.775199 0.776334
0.517138 0.779023 0.778214
0.523955 0.778782 0.778356
0.629740 0.817197 0.800422
0.783625 0.864831 0.815978
0.935024 0.862140 0.730724
0.981427 0.843208 0.644739
0.984742 0.848371 0.652057
0.000000 0.276732 0.518021
0.000000 0.276113 0.518762
0.000000 0.274897 0.524865
0.005887 0.317008 0.587015
0.040891 0.283405 0.549265
0.121513 0.316227 0.582254
0.279596 0.365195 0.615097
0.425795 0.402635 0.631962
0.000000 0.267203 0.506348
0.000000 0.268255 0.510281
0.000000 0.281791 0.531576
0.005703 0.316474 0.590096
0.039224 0.282478 0.548340
0.124518 0.317615 0.583697
0.280275 0.366112 0.613052
0.430586 0.403390 0.630751
0.000505 0.294321 0.543544
0.000687 0.288545 0.536320
0.003765 0.311650 0.568419
0.007956 0.340450 0.612511
0.045202 0.302025 0.571876
0.167266 0.341427 0.601121
0.330218 0.393002 0.634960
0.452011 0.428212 0.648355
0.008870 0.410887 0.658861
0.008836 0.411494 0.660985
0.010462 0.417210 0.666864
0.019386 0.449777 0.692564
0.127949 0.430808 0.675996
0.370057 0.474278 0.683359
0.494025 0.534515 0.710402
0.586181 0.575081 0.728768
0.056291 0.563554 0.750721
0.053140 0.560213 0.748040
0.065447 0.570191 0.754888
0.151733 0.617973 0.786030
0.415418 0.701503 0.836452
0.603018 0.712028 0.811219
0.691114 0.733236 0.808390
0.746648 0.729229 0.795792
0.195670 0.679876 0.796673
0.203353 0.684275 0.798796
0.223757 0.690127 0.802899
0.378307 0.739096 0.833308
0.538364 0.804367 0.869138
0.674478 0.845835 0.880640
0.831585 0.809858 0.812822
0.882146 0.795222 0.777979
0.353489 0.758301 0.820476
0.351015 0.755548 0.817136
0.370477 0.763211 0.825685
0.482254 0.796303 0.841800
0.636234 0.849960 0.869878
0.789215 0.871175 0.857935
0.930423 0.848255 0.753037
0.980450 0.822986 0.672768
0.486614 0.800177 0.825708
0.477547 0.794027 0.819985
0.496102 0.801993 0.825198
0.607682 0.838624 0.846151
0.752425 0.880110 0.871190
0.849151 0.889755 0.849949
0.955989 0.873796 0.760790
0.974952 0.872194 0.745077
0.000000 0.302841 0.589664
0.000000 0.302337 0.590787
0.000505 0.305413 0.594278
0.005424 0.333507 0.631808
0.025177 0.302442 0.598395
0.151093 0.337145 0.622706
0.287787 0.377193 0.646463
0.411985 0.434058 0.679424
0.000000 0.300811 0.587609
0.000000 0.300730 0.583784
0.001784 0.309925 0.598776
0.006653 0.336171 0.634057
0.025606 0.305287 0.599005
0.143339 0.334615 0.620065
0.288209 0.376448 0.647431
0.405397 0.431474 0.676646
0.002372 0.325118 0.612493
0.000459 0.324762 0.613315
0.003975 0.333022 0.625635
0.007392 0.360109 0.652129
0.039022 0.318548 0.614291
0.180729 0.352644 0.634999
0.339015 0.406836 0.665938
0.448029 0.465355 0.696110
0.012271 0.421478 0.689181
0.012438 0.421579 0.688960
0.015407 0.431304 0.698038
0.032506 0.470483 0.731836
0.196625 0.487768 0.739300
0.398860 0.492801 0.718276
0.503545 0.553088 0.745265
0.576788 0.602115 0.771960
0.089203 0.586335 0.790184
0.082871 0.581259 0.785121
0.108731 0.595871 0.794684
0.243462 0.652568 0.829089
0.467329 0.730062 0.870663
0.619907 0.747287 0.859648
0.672825 0.761670 0.856559
0.716084 0.780510 0.861528
0.277920 0.700907 0.834419
0.277863 0.700220 0.834749
0.312848 0.713792 0.841413
0.441448 0.760332 0.865986
0.564002 0.817718 0.896016
0.653376 0.856904 0.913195
0.762478 0.859003 0.896315
0.827040 0.843120 0.872690
0.404523 0.771996 0.852269
0.403668 0.770362 0.851490
0.420254 0.776521 0.855978
0.518137 0.815878 0.874824
0.623809 0.863039 0.901969
0.730270 0.886800 0.911017
0.854873 0.884506 0.873276
0.915822 0.864084 0.827524
0.473338 0.810186 0.855719
0.470234 0.809786 0.857165
0.495420 0.818268 0.862357
0.593634 0.851133 0.876844
0.722366 0.886403 0.894270
0.822447 0.906082 0.897379
0.899260 0.898446 0.860660
0.945171 0.890969 0.826767
