其他预设/【236】赛博朋克风调色预设/【后期菌】视频调色预设/CUBE/Tokyo 03_S.cube
# LUT by SparkleStock. Enhanced with VOXCOLOR algorithms.
LUT_3D_SIZE 5
DOMAIN_MIN 0.000000 0.000000 0.000000
DOMAIN_MAX 0.903226 0.903226 0.903226
0.195503 0.039101 0.046921
0.218585 0.043011 0.050831
0.595466 0.063444 0.071264
0.736480 0.094598 0.091319
0.781635 0.132564 0.089932
0.197017 0.046921 0.053227
0.243193 0.057589 0.055282
0.571501 0.106618 0.055425
0.725112 0.131437 0.067741
0.792031 0.148436 0.090635
0.062183 0.207612 0.205846
0.080993 0.219774 0.204801
0.619691 0.250309 0.041815
0.749993 0.282233 0.034686
0.822986 0.287054 0.047299
0.335131 0.571375 0.487623
0.389322 0.580883 0.483359
0.762809 0.490048 0.122107
0.859735 0.547788 0.139249
0.905716 0.575569 0.173426
0.595970 0.722606 0.547410
0.618336 0.718045 0.519946
0.824268 0.695362 0.364877
0.886198 0.733925 0.392268
0.915753 0.762923 0.441789
0.189828 0.044524 0.053227
0.221027 0.045993 0.059534
0.573808 0.049858 0.097626
0.727399 0.079092 0.112517
0.783096 0.131880 0.100327
0.188745 0.046921 0.058606
0.236356 0.084312 0.091922
0.539524 0.139465 0.151624
0.713390 0.161351 0.160768
0.806809 0.159027 0.125985
0.068579 0.221881 0.229738
0.104563 0.265687 0.235371
0.575753 0.309152 0.139497
0.733989 0.337321 0.138343
0.840782 0.330720 0.106458
0.341991 0.576436 0.503020
0.376555 0.588936 0.509210
0.722755 0.527709 0.158909
0.826099 0.567241 0.165772
0.903194 0.607333 0.202935
0.595539 0.724571 0.548923
0.609523 0.723802 0.539805
0.822209 0.693590 0.367208
0.882305 0.735292 0.394234
0.908594 0.775920 0.415238
0.114275 0.070886 0.177971
0.117213 0.067948 0.177971
0.480393 0.074596 0.263216
0.703259 0.120756 0.287600
0.758867 0.183814 0.278075
0.110906 0.074023 0.188188
0.139688 0.099017 0.232967
0.483766 0.146150 0.334094
0.702260 0.177030 0.345644
0.786685 0.206799 0.317547
0.113844 0.307614 0.388948
0.137443 0.333914 0.405247
0.459758 0.355546 0.436678
0.727696 0.402299 0.431419
0.855851 0.436275 0.443004
0.291900 0.595543 0.583341
0.300409 0.595946 0.581085
0.518506 0.666959 0.581121
0.814592 0.625620 0.336444
0.901423 0.651863 0.373307
0.505449 0.739548 0.651362
0.516726 0.742367 0.654494
0.747954 0.778961 0.588216
0.855484 0.785235 0.489119
0.900649 0.817675 0.504825
0.185917 0.110239 0.363889
0.189189 0.114503 0.369422
0.411062 0.120773 0.414894
0.585880 0.173862 0.473981
0.692334 0.246021 0.499447
0.183521 0.117176 0.366916
0.188820 0.118428 0.372689
0.419788 0.141076 0.448796
0.600142 0.191395 0.499384
0.699967 0.256468 0.512960
0.240976 0.335953 0.507349
0.246999 0.341103 0.508059
0.393928 0.428419 0.584504
0.658379 0.437429 0.597272
0.817178 0.486868 0.636085
0.365150 0.617941 0.656184
0.370395 0.620829 0.658747
0.455383 0.672004 0.685353
0.750520 0.713259 0.677816
0.898319 0.685176 0.629433
0.469530 0.733612 0.693661
0.471772 0.733441 0.693278
0.623709 0.787790 0.724314
0.826651 0.820486 0.676978
0.902774 0.833178 0.636402
0.253398 0.136096 0.448523
0.253902 0.135213 0.449406
0.426576 0.160504 0.494455
0.589004 0.200740 0.533979
0.660252 0.270006 0.562501
0.252169 0.146198 0.454483
0.259846 0.150673 0.460737
0.422340 0.172560 0.501453
0.593080 0.206801 0.540219
0.662602 0.280540 0.568989
0.349152 0.370972 0.574170
0.348431 0.375578 0.573453
0.469574 0.464998 0.638231
0.666405 0.449456 0.632620
0.772840 0.506055 0.683306
0.450004 0.634599 0.701196
0.455860 0.634674 0.702325
0.544993 0.683705 0.732461
0.682951 0.734472 0.764267
0.861131 0.714775 0.768379
0.456233 0.733160 0.727863
0.467594 0.734952 0.728934
0.600151 0.784677 0.756004
0.780495 0.821340 0.776462
0.897554 0.831841 0.746222
