其他预设/【236】赛博朋克风调色预设/【后期菌】视频调色预设/CUBE/Tokyo 04.cube
# LUT by SparkleStock. Enhanced with VOXCOLOR algorithms.
LUT_3D_SIZE 32
0.089932 0.054741 0.035191
0.091950 0.056759 0.035191
0.093842 0.058651 0.035191
0.093842 0.058651 0.035191
0.093589 0.058651 0.035191
0.091571 0.058651 0.035191
0.091067 0.058651 0.034812
0.097121 0.058651 0.032794
0.105193 0.059156 0.031281
0.119320 0.061174 0.031281
0.136600 0.062561 0.030650
0.160817 0.062561 0.028632
0.196386 0.067859 0.027370
0.250875 0.081985 0.027370
0.317725 0.096112 0.025605
0.400467 0.110239 0.021568
0.478164 0.129411 0.018541
0.550815 0.153628 0.016523
0.608709 0.174440 0.012235
0.655126 0.192602 0.006180
0.688929 0.208243 0.005171
0.715164 0.222369 0.007189
0.735850 0.232334 0.006433
0.754013 0.240406 0.004415
0.767635 0.248479 0.003910
0.779743 0.256551 0.003910
0.795131 0.267903 0.003910
0.811276 0.280011 0.003910
0.822123 0.286822 0.003910
0.832214 0.292877 0.003910
0.842304 0.302715 0.003910
0.852395 0.312805 0.003910
0.093968 0.056759 0.035191
0.093903 0.057736 0.035191
0.093842 0.058651 0.035191
0.093842 0.058651 0.035191
0.093720 0.058781 0.035321
0.092743 0.059823 0.036362
0.092694 0.060474 0.036830
0.096665 0.059432 0.034812
0.102655 0.058895 0.033038
0.114698 0.059872 0.031997
0.131522 0.061194 0.030650
0.158864 0.063277 0.028632
0.196777 0.069486 0.027370
0.252307 0.082571 0.027370
0.319743 0.097479 0.026060
0.402485 0.114731 0.023066
0.480182 0.134944 0.020559
0.552833 0.158120 0.018541
0.610142 0.177890 0.013667
0.655516 0.195011 0.006571
0.689580 0.210912 0.006473
0.716857 0.226080 0.010575
0.737152 0.234938 0.009037
0.754273 0.240927 0.004935
0.767635 0.248479 0.003910
0.779743 0.256551 0.003910
0.795131 0.267903 0.003910
0.811276 0.280011 0.003910
0.822123 0.287734 0.003910
0.832214 0.294830 0.003910
0.841328 0.302780 0.003910
0.850377 0.310787 0.003910
0.097752 0.058651 0.035191
0.095799 0.058651 0.035191
0.093968 0.058651 0.035191
0.093968 0.058651 0.035191
0.093960 0.058903 0.035443
0.093895 0.060921 0.037461
0.094220 0.062183 0.038722
0.096238 0.060165 0.036704
0.100274 0.058667 0.034686
0.110365 0.058732 0.032668
0.126762 0.060038 0.030670
0.157033 0.064075 0.028717
0.197143 0.071138 0.027497
0.253650 0.083247 0.027497
0.321635 0.098858 0.026614
0.404377 0.118974 0.024596
0.482041 0.140067 0.022545
0.554628 0.162136 0.020462
0.611395 0.180945 0.015046
0.655858 0.197220 0.007039
0.690231 0.213414 0.007698
0.718549 0.229559 0.013557
0.738498 0.237424 0.011360
0.754643 0.241525 0.005501
0.767761 0.248556 0.003987
0.779869 0.256563 0.003922
0.795205 0.267903 0.003910
0.811284 0.280011 0.003910
0.822180 0.288588 0.003910
0.832336 0.296661 0.003910
0.840478 0.302841 0.003910
0.848485 0.308895 0.003910
0.097752 0.058651 0.035191
0.096840 0.058651 0.035191
0.095986 0.058651 0.035191
0.095986 0.058651 0.035191
0.095848 0.058903 0.035443
0.094741 0.060921 0.037461
0.094220 0.062183 0.038722
0.096238 0.060165 0.036704
0.100274 0.058928 0.034686
0.110365 0.060034 0.032668
0.126762 0.062057 0.030996
0.157033 0.066093 0.030084
0.197143 0.073156 0.029515
0.253650 0.085265 0.029515
0.321635 0.100421 0.028632
0.404377 0.119495 0.026614
0.481520 0.139025 0.024042
0.553065 0.159011 0.020917
0.609963 0.178081 0.015632
0.655467 0.196439 0.008666
0.690882 0.213414 0.007763
0.720242 0.229559 0.010497
0.740517 0.238140 0.009472
0.756661 0.243283 0.006738
0.769779 0.249793 0.005224
0.781888 0.256758 0.004118
0.796376 0.267903 0.003910
0.811414 0.280011 0.003910
0.823092 0.288588 0.003910
0.834289 0.296661 0.003910
0.841519 0.302841 0.003910
0.848485 0.308895 0.003910
0.097752 0.058651 0.035191
0.097622 0.058651 0.035191
0.097499 0.058651 0.035191
0.097499 0.058651 0.035191
0.097280 0.058887 0.035427
0.095522 0.060775 0.037315
0.094472 0.061955 0.038494
0.096490 0.060067 0.036607
0.100592 0.059188 0.034751
0.110943 0.061336 0.032993
0.127478 0.064034 0.031704
0.157619 0.067940 0.031443
0.197648 0.074971 0.031329
0.254154 0.087210 0.031460
0.321911 0.101926 0.030536
0.404133 0.119829 0.028257
0.480820 0.138057 0.025230
0.551975 0.156610 0.021455
0.609141 0.176006 0.016324
0.655427 0.196057 0.010139
0.691622 0.213585 0.007820
0.721764 0.229600 0.007820
0.742282 0.238856 0.007820
0.758427 0.245040 0.007820
0.771642 0.251420 0.006600
0.783881 0.257865 0.004972
0.797442 0.268489 0.004455
0.811309 0.280076 0.004195
0.823637 0.288588 0.004048
0.835746 0.296661 0.003918
0.842544 0.303085 0.003910
0.848989 0.309400 0.003910
0.097752 0.058651 0.035191
0.096580 0.058651 0.035191
0.095481 0.058651 0.035191
0.095481 0.058651 0.035191
0.095522 0.058757 0.035296
0.095848 0.059603 0.036143
0.096490 0.060132 0.036672
0.098508 0.059286 0.035825
0.103131 0.059449 0.035272
0.115565 0.062638 0.035597
0.133207 0.065727 0.035089
0.162306 0.068591 0.032745
0.201684 0.075361 0.031720
0.258191 0.088642 0.032892
0.324125 0.103033 0.031643
0.402180 0.118852 0.027281
0.478867 0.137601 0.024254
0.554188 0.159279 0.022561
0.612591 0.179456 0.017756
0.657835 0.198465 0.010530
0.692989 0.214952 0.007820
0.722089 0.229925 0.007820
0.742282 0.239572 0.007820
0.758427 0.246798 0.007820
0.772424 0.255782 0.008943
0.785704 0.265352 0.010440
0.797768 0.273176 0.008817
0.809551 0.280597 0.006473
0.821619 0.288588 0.005155
0.833727 0.296661 0.003983
0.843456 0.305038 0.003910
0.853026 0.313436 0.003910
0.096995 0.058651 0.035191
0.095367 0.058651 0.035191
0.093842 0.058663 0.035203
0.093842 0.058859 0.035398
0.094094 0.059029 0.035545
0.096112 0.059029 0.035349
0.098203 0.059029 0.035191
0.100612 0.059029 0.035191
0.105950 0.060038 0.035695
0.120077 0.064075 0.037713
0.138801 0.067541 0.037961
0.167641 0.069755 0.034316
0.207002 0.076436 0.032648
0.263899 0.090562 0.034275
0.328657 0.104774 0.032542
0.403522 0.119096 0.026488
0.479917 0.138171 0.023363
0.557842 0.161997 0.023167
0.616908 0.182748 0.018651
0.661306 0.201106 0.010774
0.695126 0.216698 0.007820
0.722598 0.230629 0.007820
0.742551 0.240532 0.007820
0.759086 0.248605 0.007820
0.773815 0.259558 0.010554
0.787942 0.271471 0.014200
0.799107 0.277460 0.011921
0.809588 0.282082 0.008276
0.821322 0.289723 0.006225
0.833235 0.297796 0.004402
0.845148 0.307577 0.004105
0.857062 0.317472 0.003910
0.092959 0.058651 0.035191
0.093414 0.058651 0.035191
0.093842 0.058728 0.035268
0.093842 0.059965 0.036505
0.094094 0.061048 0.037432
0.096112 0.061048 0.036196
0.098594 0.061048 0.035191
0.103086 0.061048 0.035191
0.109986 0.062057 0.035695
0.124113 0.066093 0.037713
0.143814 0.069885 0.038612
0.175778 0.073140 0.037050
0.217873 0.080472 0.035903
0.276854 0.094598 0.035447
0.343240 0.109266 0.032542
0.419146 0.124630 0.026488
0.493979 0.143183 0.022842
0.567737 0.164927 0.021605
0.624980 0.185352 0.017219
0.669378 0.204752 0.010383
0.700594 0.220083 0.007820
0.723900 0.232973 0.007820
0.743983 0.242550 0.007820
0.762602 0.250623 0.007820
0.777851 0.260795 0.008992
0.791978 0.271666 0.010554
0.804835 0.279999 0.009578
0.817400 0.287746 0.008015
0.828483 0.295778 0.007137
0.839355 0.303850 0.006355
0.850226 0.312655 0.005147
0.861098 0.321509 0.003910
0.087913 0.060669 0.037209
0.089671 0.060669 0.037209
0.091335 0.060779 0.037319
0.091596 0.062537 0.039076
0.092043 0.064075 0.040395
0.093801 0.064075 0.038637
0.096413 0.064075 0.037209
0.102728 0.064075 0.037209
0.111777 0.064954 0.037388
0.129028 0.068469 0.038104
0.152017 0.072473 0.038678
0.187626 0.077550 0.038938
0.233074 0.086022 0.038246
0.294919 0.100148 0.035968
0.362688 0.115044 0.032151
0.438074 0.130928 0.026357
0.510563 0.149352 0.022582
0.580155 0.170314 0.020824
0.634989 0.190251 0.016503
0.678346 0.209390 0.010188
0.707381 0.224461 0.008146
0.727822 0.237090 0.008666
0.747905 0.246945 0.008829
0.767826 0.255538 0.008829
0.783206 0.264863 0.008829
0.797072 0.274433 0.008829
0.811150 0.284849 0.008829
0.825277 0.295460 0.008829
0.835188 0.303167 0.008373
0.844497 0.310458 0.007853
0.855027 0.318970 0.006172
0.865639 0.327563 0.004415
0.079841 0.068742 0.045281
0.080557 0.068742 0.045281
0.081310 0.068786 0.045326
0.082612 0.069502 0.046042
0.083841 0.070129 0.046579
0.084557 0.070129 0.045863
0.086518 0.070129 0.045281
0.093874 0.070129 0.045281
0.106829 0.070487 0.044158
0.136580 0.071919 0.039666
0.169789 0.075793 0.036985
0.210607 0.085037 0.038287
0.261263 0.096112 0.037856
0.328316 0.110239 0.034536
0.396736 0.124679 0.030589
0.466913 0.139521 0.025837
0.534715 0.158986 0.023102
0.600141 0.183073 0.022386
0.650809 0.202034 0.017935
0.689999 0.217007 0.010579
0.718122 0.231817 0.009448
0.739605 0.246530 0.012052
0.759298 0.258467 0.012865
0.778177 0.269144 0.012865
0.792515 0.277428 0.012865
0.805340 0.284914 0.012865
0.819222 0.296632 0.012865
0.833349 0.309327 0.012865
0.840526 0.314559 0.010587
0.846711 0.318726 0.007983
0.858998 0.328995 0.007149
0.871693 0.339671 0.006433
0.073661 0.077445 0.052092
0.073986 0.078096 0.052418
0.074377 0.078686 0.052703
0.075744 0.078360 0.052377
0.076940 0.078075 0.052133
0.076940 0.078075 0.052458
0.078515 0.078197 0.052784
0.086913 0.078848 0.053109
0.101658 0.079092 0.051498
0.135445 0.078116 0.044077
0.176413 0.081432 0.038995
0.233180 0.094192 0.039060
0.294903 0.107464 0.037709
0.364885 0.121591 0.033998
0.433529 0.136429 0.030288
0.500452 0.152183 0.026577
0.563241 0.172527 0.024396
0.621896 0.197460 0.023745
0.667625 0.215729 0.019652
0.703300 0.228814 0.012882
0.730756 0.244015 0.012255
0.753280 0.260485 0.015315
0.771463 0.272838 0.016047
0.787673 0.283319 0.015722
0.801295 0.290724 0.015640
0.814055 0.297104 0.015640
0.827132 0.309249 0.015640
0.840282 0.322725 0.015640
0.846312 0.326460 0.012109
0.851325 0.328804 0.008072
0.864272 0.339387 0.008430
0.877747 0.350519 0.009081
0.071643 0.087535 0.056128
0.073010 0.090269 0.057496
0.074247 0.092747 0.058692
0.073530 0.091380 0.057325
0.072904 0.090184 0.056299
0.072904 0.090184 0.057666
0.074674 0.090696 0.059033
0.084113 0.093431 0.060401
0.095994 0.094456 0.060091
0.115199 0.090355 0.054753
0.158510 0.092173 0.049150
0.254858 0.107016 0.042966
0.340538 0.121591 0.038100
0.408437 0.135717 0.035431
0.476365 0.152834 0.032762
0.544330 0.173797 0.030092
0.601390 0.194661 0.027391
0.647546 0.215428 0.024657
0.686634 0.233632 0.021996
0.720226 0.249842 0.019392
0.747551 0.266865 0.018374
0.771118 0.284377 0.018309
0.785330 0.293475 0.017349
0.795290 0.298748 0.015982
0.808912 0.305632 0.015640
0.823755 0.313054 0.015640
0.834684 0.323702 0.015640
0.844709 0.335094 0.015640
0.853083 0.339480 0.012109
0.861220 0.342865 0.008072
0.872409 0.350584 0.010383
0.883802 0.358591 0.013118
0.073408 0.099896 0.060921
0.075426 0.103151 0.062549
0.077192 0.106125 0.063997
0.075174 0.104888 0.062760
0.073457 0.103855 0.061930
0.073848 0.104245 0.063949
0.075764 0.105173 0.065893
0.084292 0.108428 0.067521
0.093895 0.109258 0.067342
0.106719 0.102813 0.061743
0.152399 0.103306 0.054985
0.270360 0.119060 0.045676
0.374480 0.135668 0.038222
0.455529 0.153701 0.033860
0.529259 0.174269 0.030353
0.593578 0.198095 0.027944
0.644323 0.218699 0.024917
0.681495 0.236081 0.021271
0.714383 0.253463 0.019896
0.743938 0.270844 0.020287
0.769425 0.287738 0.019172
0.792470 0.304338 0.017154
0.804103 0.311719 0.015404
0.810548 0.314909 0.013777
0.823096 0.321468 0.013370
0.837678 0.329150 0.013370
0.847606 0.339106 0.013370
0.856460 0.349587 0.013370
0.865712 0.355112 0.010864
0.875021 0.359930 0.007999
0.883232 0.364808 0.010506
0.891369 0.369691 0.013370
0.081481 0.116041 0.066976
0.083499 0.117213 0.067562
0.085265 0.118364 0.068164
0.083247 0.119210 0.069010
0.081660 0.120130 0.070003
0.083092 0.121562 0.072021
0.085073 0.122945 0.073771
0.089435 0.124117 0.074356
0.097735 0.123124 0.072355
0.117851 0.115638 0.062590
0.165940 0.115089 0.053618
0.275568 0.129801 0.046392
0.388932 0.149665 0.037896
0.508520 0.178114 0.027285
0.598916 0.204084 0.019807
0.651777 0.226869 0.016356
0.695231 0.245911 0.013329
0.729279 0.261210 0.010725
0.756698 0.276508 0.010392
0.778962 0.291807 0.011824
0.799762 0.305315 0.011100
0.819682 0.317749 0.009081
0.831054 0.325976 0.008048
0.838541 0.332291 0.007462
0.848224 0.338850 0.007316
0.858640 0.345490 0.007316
0.869480 0.356097 0.007316
0.880416 0.367620 0.007316
0.888106 0.375098 0.007543
0.895332 0.381999 0.007804
0.898530 0.384078 0.007576
0.901460 0.385835 0.007316
0.093085 0.135717 0.075679
0.094647 0.136173 0.076134
0.096071 0.136726 0.076659
0.095420 0.138744 0.078222
0.094932 0.140592 0.079727
0.095583 0.141243 0.080834
0.096747 0.141601 0.081562
0.100132 0.140689 0.080651
0.109181 0.138557 0.077282
0.135221 0.132763 0.066540
0.185205 0.132910 0.056552
0.287868 0.146125 0.048219
0.404153 0.167079 0.037371
0.543141 0.200931 0.022333
0.643025 0.229685 0.012308
0.692631 0.251884 0.008727
0.732668 0.270503 0.006156
0.763135 0.285541 0.004594
0.785655 0.299297 0.004789
0.801995 0.312057 0.006351
0.818905 0.322863 0.005961
0.836157 0.332498 0.004398
0.847411 0.340746 0.003910
0.855939 0.348362 0.003910
0.864467 0.355833 0.003910
0.872995 0.363254 0.003910
0.883692 0.373373 0.003910
0.894889 0.384114 0.003910
0.901586 0.392122 0.005277
0.907640 0.399738 0.006840
0.908873 0.400642 0.005045
0.909785 0.401097 0.003027
0.109230 0.159934 0.087787
0.109750 0.161432 0.089285
0.110393 0.162962 0.090721
0.112867 0.164980 0.091242
0.114722 0.166436 0.091575
0.112249 0.163962 0.090599
0.111459 0.161391 0.089244
0.117969 0.158396 0.086249
0.130403 0.156004 0.082099
0.160610 0.155418 0.074483
0.211831 0.158494 0.065015
0.309286 0.169626 0.051474
0.420363 0.188888 0.036590
0.554143 0.221698 0.019469
0.654287 0.249866 0.008727
0.711185 0.272065 0.006189
0.752784 0.291725 0.004659
0.779084 0.308847 0.004138
0.797438 0.321757 0.004203
0.809612 0.331392 0.004724
0.823657 0.340375 0.004594
0.838826 0.348969 0.004073
0.850145 0.356174 0.003910
0.859715 0.362749 0.003910
0.869284 0.372303 0.003910
0.878854 0.382849 0.003910
0.888053 0.391015 0.003910
0.897167 0.398632 0.003910
0.903604 0.405337 0.004366
0.909658 0.411912 0.004887
0.912844 0.413727 0.003027
0.915839 0.415224 0.001009
0.131429 0.191215 0.106959
0.132470 0.193233 0.108457
0.133569 0.195186 0.109860
0.135522 0.196163 0.109860
0.137052 0.196708 0.109673
0.135620 0.194234 0.108176
0.136360 0.191565 0.105910
0.146516 0.188049 0.100311
0.164809 0.186178 0.093947
0.207514 0.189238 0.085289
0.270584 0.195145 0.072664
0.378455 0.207319 0.051311
0.488425 0.226060 0.032522
0.601894 0.255745 0.018004
0.688335 0.280788 0.008500
0.740024 0.299863 0.005440
0.777457 0.318481 0.004170
0.800632 0.336644 0.004691
0.817033 0.349424 0.004919
0.828166 0.358017 0.004919
0.840193 0.365634 0.004594
0.852757 0.372665 0.004073
0.863979 0.380099 0.004268
0.874590 0.387715 0.004789
0.884811 0.398701 0.004919
0.894901 0.410809 0.004919
0.902929 0.417999 0.004919
0.910480 0.424053 0.004919
0.915355 0.429196 0.004919
0.919847 0.434209 0.004919
0.924888 0.438367 0.004492
0.929966 0.442468 0.004036
0.159682 0.229559 0.133195
0.162807 0.231577 0.133650
0.165598 0.233400 0.134078
0.163385 0.232293 0.134078
0.161920 0.231406 0.134021
0.165696 0.232057 0.133565
0.171449 0.232122 0.131559
0.185771 0.229648 0.122836
0.212397 0.229079 0.112826
0.275934 0.234222 0.098960
0.361464 0.242864 0.079499
0.495374 0.259204 0.047731
0.608339 0.278595 0.025165
0.686394 0.303073 0.017939
0.745167 0.322452 0.011624
0.779149 0.335277 0.006482
0.806687 0.350771 0.004691
0.827779 0.368934 0.006254
0.844441 0.382300 0.006937
0.857656 0.391935 0.006937
0.868511 0.398640 0.005961
0.877951 0.403587 0.004398
0.888912 0.412518 0.004984
0.900565 0.423260 0.006547
0.911046 0.435027 0.006937
0.921136 0.447135 0.006937
0.928318 0.454325 0.006937
0.934828 0.460379 0.006937
0.936838 0.463699 0.006937
0.938205 0.466629 0.006937
0.945004 0.474563 0.009439
0.952165 0.482830 0.012109
0.200423 0.278119 0.171917
0.203287 0.280137 0.173089
0.205793 0.281903 0.174151
0.202929 0.279885 0.173565
0.201033 0.278225 0.172906
0.205915 0.279071 0.171734
0.214228 0.279930 0.168890
0.237403 0.280841 0.158799
0.273387 0.282013 0.144998
0.347797 0.283966 0.120065
0.443079 0.290069 0.089740
0.584281 0.305303 0.047556
0.692477 0.322050 0.019676
0.745663 0.341319 0.015640
0.786290 0.357342 0.011490
0.810768 0.369190 0.007194
0.832511 0.383024 0.005761
0.851520 0.398843 0.007194
0.868112 0.412758 0.008479
0.882825 0.425192 0.009651
0.893388 0.433110 0.009195
0.901460 0.438318 0.007763
0.911099 0.446659 0.007495
0.921450 0.456424 0.007755
0.930726 0.466629 0.008699
0.939645 0.476980 0.009871
0.945761 0.485268 0.010567
0.951229 0.493080 0.011152
0.952425 0.496847 0.011738
0.953011 0.500037 0.012324
0.958968 0.507499 0.015046
0.965282 0.515246 0.017911
0.250875 0.334626 0.220351
0.251656 0.336644 0.223606
0.252340 0.338410 0.226556
0.251559 0.336392 0.224929
0.251225 0.334472 0.223098
0.254024 0.333235 0.219843
0.262988 0.333377 0.215306
0.298663 0.339496 0.205216
0.344802 0.342751 0.187508
0.422336 0.337413 0.146951
0.517488 0.336876 0.102630
0.651399 0.346902 0.050029
0.748788 0.358441 0.015640
0.785309 0.372502 0.011604
0.815194 0.386963 0.008821
0.836547 0.401936 0.007649
0.855687 0.415248 0.007259
0.872613 0.426901 0.007649
0.888879 0.441337 0.009651
0.904634 0.457938 0.012906
0.915587 0.468720 0.013883
0.923659 0.476011 0.013492
0.931150 0.482139 0.011401
0.938376 0.487737 0.008536
0.945309 0.494557 0.010261
0.952144 0.501783 0.013516
0.957023 0.512024 0.015449
0.961450 0.522960 0.017077
0.963427 0.528942 0.018704
0.965055 0.534215 0.020332
0.968147 0.537901 0.021166
0.971337 0.541481 0.021947
0.313941 0.381042 0.251127
0.313941 0.382410 0.253861
0.314103 0.383728 0.256461
0.316707 0.384314 0.257047
0.319157 0.384493 0.256974
0.320524 0.381824 0.252287
0.328592 0.380558 0.246098
0.365699 0.385376 0.233404
0.411253 0.387296 0.212930
0.482147 0.380526 0.169118
0.570252 0.377580 0.119304
0.696220 0.383048 0.056287
0.785570 0.390519 0.015876
0.813888 0.401325 0.013142
0.838931 0.415607 0.011604
0.859763 0.434355 0.011604
0.878252 0.448775 0.011604
0.894397 0.458865 0.011604
0.909809 0.472764 0.013508
0.924652 0.489625 0.016893
0.934449 0.500586 0.018163
0.941220 0.508008 0.018163
0.947945 0.515340 0.018073
0.954651 0.522631 0.017943
0.959403 0.528018 0.019473
0.963504 0.532770 0.021556
0.967024 0.541384 0.023587
0.970409 0.550888 0.025605
0.973168 0.557944 0.030471
0.975837 0.564649 0.035744
0.977285 0.566350 0.035463
0.978652 0.567717 0.034812
0.384574 0.421404 0.271308
0.384574 0.421730 0.271959
0.384997 0.422332 0.272867
0.391768 0.427084 0.277619
0.397732 0.430779 0.281061
0.398058 0.427068 0.275332
0.404304 0.423980 0.267516
0.436203 0.423589 0.250655
0.474725 0.422125 0.228098
0.533120 0.417437 0.188452
0.610028 0.414622 0.138248
0.727663 0.415924 0.064815
0.810633 0.420009 0.018676
0.835827 0.428732 0.018025
0.859568 0.443665 0.017658
0.881442 0.466580 0.017658
0.900451 0.483083 0.017658
0.916596 0.493173 0.017658
0.930836 0.505900 0.018977
0.943596 0.520678 0.021320
0.951310 0.530207 0.022199
0.955997 0.536587 0.022199
0.962788 0.547174 0.026406
0.970535 0.559673 0.032526
0.973204 0.564799 0.033274
0.974181 0.567469 0.032233
0.976268 0.572306 0.033677
0.978612 0.577644 0.035695
0.982151 0.585090 0.045118
0.985862 0.592837 0.055599
0.986399 0.593627 0.054668
0.986725 0.593952 0.052975
0.459370 0.470091 0.303976
0.460086 0.470807 0.303976
0.461038 0.471678 0.304220
0.465530 0.474868 0.308126
0.469639 0.477334 0.310966
0.471072 0.474730 0.306344
0.477240 0.472370 0.299452
0.503931 0.471068 0.282721
0.536497 0.468187 0.259334
0.586689 0.460570 0.215977
0.654235 0.453767 0.159743
0.759957 0.448755 0.075178
0.834846 0.449186 0.022325
0.858347 0.458690 0.022325
0.880339 0.473065 0.022012
0.900390 0.493702 0.021296
0.918488 0.510140 0.022012
0.934632 0.522379 0.024160
0.948104 0.535277 0.027444
0.959497 0.548687 0.031610
0.965844 0.557948 0.034068
0.969164 0.564718 0.035500
0.974274 0.575069 0.043466
0.980198 0.587047 0.054403
0.981679 0.592093 0.058309
0.981679 0.594827 0.059872
0.982737 0.600364 0.066459
0.984039 0.606549 0.074206
0.987107 0.613759 0.089529
0.990427 0.621115 0.105934
0.990635 0.622246 0.107753
0.990635 0.622962 0.108599
0.536058 0.522562 0.342320
0.537815 0.524319 0.342320
0.539419 0.525906 0.342369
0.538702 0.524930 0.343150
0.538515 0.524010 0.343516
0.542031 0.523489 0.340977
0.548915 0.523017 0.336168
0.570398 0.522757 0.321521
0.597496 0.519356 0.297873
0.641438 0.506531 0.247225
0.700456 0.493869 0.182398
0.792637 0.481565 0.086375
0.858673 0.478220 0.026361
0.881132 0.489808 0.026361
0.901171 0.503076 0.025592
0.918097 0.518505 0.023835
0.934632 0.533901 0.025592
0.950777 0.549265 0.030866
0.963663 0.562944 0.037274
0.974014 0.575313 0.044565
0.979320 0.584834 0.049496
0.981598 0.592646 0.053012
0.984235 0.601174 0.064494
0.987034 0.610028 0.079597
0.987734 0.615073 0.088451
0.987734 0.618849 0.095221
0.987945 0.627120 0.109555
0.988206 0.636430 0.125635
0.990232 0.643119 0.147468
0.992510 0.649433 0.170123
0.992653 0.651476 0.176238
0.992653 0.653234 0.181251
0.577933 0.555356 0.370069
0.584639 0.558936 0.371631
0.590848 0.562216 0.373145
0.589611 0.560979 0.373926
0.588935 0.559701 0.374162
0.592190 0.558139 0.370582
0.598179 0.556723 0.364731
0.616017 0.555942 0.349042
0.640185 0.552605 0.325134
0.683347 0.541603 0.276569
0.739060 0.529137 0.209838
0.822388 0.513448 0.103139
0.881621 0.507597 0.035573
0.900695 0.518143 0.033229
0.918488 0.530598 0.033079
0.934632 0.545505 0.035748
0.949215 0.559860 0.041672
0.962235 0.573661 0.050851
0.972728 0.586071 0.060726
0.981256 0.597398 0.071142
0.985227 0.607180 0.080012
0.986464 0.616033 0.087954
0.988238 0.625424 0.107443
0.990256 0.635059 0.132181
0.990761 0.641080 0.149107
0.990761 0.645898 0.163429
0.991872 0.655000 0.182142
0.993239 0.665090 0.201867
0.994492 0.670282 0.221421
0.995729 0.674774 0.240951
0.995806 0.678411 0.250777
0.995806 0.681992 0.259956
0.608205 0.581591 0.394286
0.621160 0.587255 0.397932
0.633293 0.592552 0.401464
0.633097 0.592357 0.403286
0.633203 0.591730 0.404173
0.635417 0.588085 0.398510
0.639974 0.584781 0.390576
0.654686 0.582958 0.372803
0.676771 0.579882 0.348635
0.720974 0.573047 0.305278
0.775125 0.562794 0.238872
0.851162 0.545021 0.121757
0.904276 0.537087 0.046510
0.919183 0.545550 0.041041
0.934632 0.557289 0.041867
0.950777 0.573238 0.050786
0.963276 0.586551 0.061918
0.972130 0.597227 0.075264
0.979629 0.607684 0.088719
0.986074 0.617970 0.102260
0.988613 0.628012 0.115557
0.988808 0.637907 0.128707
0.990256 0.649055 0.157701
0.992274 0.660773 0.193896
0.992779 0.668097 0.219936
0.992779 0.673956 0.242591
0.995371 0.683253 0.264558
0.998561 0.693343 0.286367
0.999130 0.696712 0.300713
0.999326 0.699121 0.313994
0.999338 0.704581 0.327335
0.999338 0.710245 0.340680
0.663072 0.602907 0.402106
0.671275 0.607269 0.404450
0.678964 0.611305 0.406720
0.678964 0.610459 0.407892
0.679323 0.609320 0.408161
0.682187 0.606130 0.402106
0.687004 0.603160 0.393940
0.700285 0.601141 0.376624
0.720921 0.598537 0.353464
0.763627 0.594176 0.312777
0.812883 0.586030 0.249711
0.876551 0.569560 0.137414
0.921324 0.562610 0.066544
0.934604 0.571529 0.064722
0.948027 0.583239 0.071073
0.961633 0.598537 0.087934
0.971626 0.610386 0.103851
0.978005 0.618784 0.118824
0.983726 0.629562 0.139033
0.988934 0.642191 0.163316
0.991813 0.654292 0.186540
0.993294 0.666075 0.209130
0.994562 0.676918 0.236732
0.995734 0.687334 0.266613
0.996027 0.695113 0.292881
0.996027 0.702014 0.317944
0.997693 0.712194 0.344806
0.999744 0.723131 0.372083
1.000000 0.726264 0.385347
1.000000 0.728282 0.396610
1.000000 0.734084 0.409764
1.000000 0.740138 0.423044
0.723615 0.623088 0.406143
0.724526 0.625367 0.406403
0.725381 0.627385 0.406655
0.725381 0.625497 0.406785
0.725869 0.623577 0.406143
0.729775 0.621428 0.400088
0.735243 0.619304 0.392118
0.747482 0.617286 0.375843
0.766817 0.615203 0.353985
0.807439 0.612925 0.315381
0.851032 0.606862 0.256352
0.901159 0.592475 0.152387
0.937078 0.587218 0.088678
0.949317 0.597179 0.092064
0.960786 0.609019 0.104990
0.971268 0.623275 0.130184
0.978656 0.633561 0.150788
0.982953 0.639876 0.166802
0.987176 0.651500 0.194498
0.991343 0.667255 0.231280
0.994970 0.681829 0.265702
0.998274 0.695695 0.298707
