其他预设/【236】赛博朋克风调色预设/【后期菌】视频调色预设/CUBE/Tokyo 05_S.cube
# LUT by SparkleStock. Enhanced with VOXCOLOR algorithms.
LUT_3D_SIZE 5
DOMAIN_MIN 0.000000 0.000000 0.000000
DOMAIN_MAX 0.903226 0.903226 0.903226
0.144673 0.058651 0.039101
0.154259 0.061048 0.040614
0.422161 0.129158 0.033929
0.613376 0.222369 0.056759
0.697380 0.282912 0.068237
0.141393 0.060165 0.043011
0.165557 0.071761 0.043597
0.442289 0.163324 0.030939
0.637089 0.231695 0.046290
0.715795 0.288442 0.068489
0.176584 0.127897 0.111374
0.185738 0.144221 0.109409
0.565951 0.293886 0.048089
0.710025 0.355816 0.060384
0.779198 0.392606 0.113624
0.543373 0.487876 0.397061
0.564620 0.480340 0.377930
0.781350 0.460802 0.172845
0.875929 0.562370 0.248430
0.911140 0.612176 0.313432
0.786807 0.644405 0.483083
0.807154 0.634599 0.450679
0.903856 0.655882 0.389347
0.947185 0.732981 0.474286
0.970116 0.774275 0.535045
0.138997 0.060165 0.045407
0.152448 0.061633 0.047462
0.423622 0.113266 0.066435
0.624341 0.192106 0.085643
0.697758 0.280085 0.071695
0.136014 0.059579 0.046335
0.172984 0.096428 0.082825
0.444554 0.182829 0.130375
0.648490 0.230366 0.139885
0.739939 0.279373 0.104742
0.178150 0.139591 0.126725
0.195843 0.197800 0.149091
0.536111 0.340522 0.141409
0.702460 0.387558 0.151319
0.807492 0.408030 0.152712
0.549578 0.497099 0.416611
0.566381 0.507065 0.419301
0.736494 0.501057 0.195180
0.838378 0.576694 0.248625
0.906790 0.631165 0.300892
0.787006 0.643542 0.485931
0.796938 0.640763 0.475304
0.903515 0.652867 0.389138
0.944586 0.734893 0.476615
0.956129 0.784515 0.495947
0.086904 0.090436 0.126131
0.088760 0.091319 0.126672
0.301279 0.115569 0.128874
0.527037 0.209598 0.167551
0.604795 0.295481 0.167750
0.087987 0.097483 0.131665
0.113567 0.121627 0.180982
0.365723 0.176079 0.239511
0.585087 0.235307 0.263230
0.655445 0.301591 0.222663
0.206688 0.279047 0.327136
0.225030 0.323193 0.364068
0.410178 0.383786 0.385672
0.645324 0.433559 0.385665
0.799079 0.474430 0.402931
0.529487 0.592394 0.569169
0.532446 0.589420 0.569123
0.654399 0.649925 0.564252
0.833095 0.627087 0.370725
0.914118 0.664509 0.416065
0.724498 0.724791 0.650898
0.733916 0.727313 0.654116
0.885865 0.737935 0.567674
0.922443 0.780897 0.539438
0.947351 0.829977 0.558020
0.153376 0.173557 0.289723
0.159153 0.181100 0.302304
0.203909 0.221316 0.332185
0.328377 0.355015 0.439449
0.437553 0.450573 0.506384
0.158799 0.183387 0.301596
0.165717 0.190933 0.312151
0.242723 0.240333 0.382819
0.376041 0.357701 0.475732
0.469087 0.456460 0.526517
0.354258 0.418080 0.519238
0.361697 0.420482 0.522248
0.467656 0.516959 0.609612
0.550529 0.548982 0.626071
0.690854 0.572126 0.662942
0.563404 0.678610 0.711051
0.568830 0.681772 0.715539
0.623668 0.739350 0.773676
0.772972 0.744626 0.718967
0.904992 0.701306 0.622372
0.685182 0.760099 0.753386
0.688433 0.759644 0.752825
0.804278 0.813820 0.794732
0.906981 0.817579 0.690921
0.952401 0.854115 0.681558
0.233847 0.249488 0.409422
0.234047 0.247921 0.408791
0.301287 0.313501 0.469420
0.380986 0.388838 0.512760
0.469041 0.476862 0.576757
0.242038 0.261157 0.424338
0.250834 0.268208 0.431389
0.316777 0.329009 0.486566
0.391810 0.396782 0.522084
0.482423 0.488079 0.587274
0.435470 0.474970 0.600092
0.438400 0.479034 0.601467
0.530316 0.576105 0.694114
0.565541 0.599502 0.687551
0.649163 0.653721 0.755088
0.595938 0.705550 0.780154
0.598995 0.706458 0.782516
0.663096 0.765678 0.845467
0.749843 0.828814 0.894836
0.826146 0.810032 0.872150
0.656310 0.788320 0.833439
0.663549 0.790567 0.834124
0.768141 0.841838 0.868485
0.866912 0.876284 0.878303
0.943334 0.868973 0.805396
