其他预设/【236】赛博朋克风调色预设/【后期菌】视频调色预设/CUBE/Tokyo 10_S.cube
# LUT by SparkleStock. Enhanced with VOXCOLOR algorithms.
LUT_3D_SIZE 32
0.113392 0.062561 0.058651
0.117428 0.062561 0.060669
0.121086 0.062561 0.062561
0.119068 0.062561 0.062561
0.117302 0.062561 0.062561
0.117302 0.062561 0.062561
0.118437 0.062561 0.062183
0.124492 0.062561 0.060165
0.133573 0.063570 0.058651
0.151736 0.067606 0.058651
0.174313 0.072273 0.058020
0.206603 0.078327 0.056002
0.244947 0.088166 0.056255
0.293381 0.104311 0.060291
0.350645 0.123987 0.062561
0.419260 0.148204 0.062561
0.471731 0.169394 0.063570
0.508057 0.187557 0.065588
0.540977 0.202315 0.067606
0.571248 0.214423 0.069624
0.596475 0.232838 0.077949
0.618674 0.255037 0.090058
0.639485 0.267524 0.093842
0.659666 0.275597 0.093842
0.673793 0.286696 0.096869
0.685902 0.298805 0.100905
0.698010 0.310914 0.103301
0.710119 0.323022 0.105320
0.718696 0.328067 0.105572
0.726768 0.332104 0.105572
0.734841 0.339924 0.113140
0.742913 0.347996 0.121212
0.117428 0.064579 0.060669
0.118340 0.063538 0.061646
0.119133 0.062561 0.062561
0.118156 0.062561 0.062561
0.117432 0.062691 0.062691
0.118474 0.063733 0.063733
0.120065 0.064384 0.064006
0.124036 0.063342 0.060946
0.131555 0.063570 0.058391
0.149718 0.067606 0.057349
0.173597 0.072599 0.056328
0.210053 0.079695 0.055351
0.251392 0.089793 0.055473
0.300868 0.104896 0.057426
0.357806 0.123076 0.059436
0.424338 0.145210 0.061519
0.476809 0.165879 0.064091
0.515218 0.185083 0.067151
0.548463 0.199711 0.069039
0.577693 0.210778 0.070015
0.602529 0.227500 0.077298
0.624728 0.247616 0.088365
0.644107 0.260168 0.091107
0.662205 0.269282 0.090066
0.675811 0.282204 0.093614
0.687920 0.296396 0.098692
0.699182 0.309742 0.102130
0.710249 0.322892 0.105189
0.718696 0.329890 0.108306
0.726768 0.336010 0.111431
0.733864 0.341030 0.115288
0.740895 0.345978 0.119194
0.121212 0.066471 0.062561
0.119259 0.064518 0.062561
0.117428 0.062687 0.062561
0.117428 0.062687 0.062561
0.117672 0.062931 0.062813
0.119625 0.064884 0.064831
0.121603 0.066093 0.065714
0.123686 0.064075 0.061678
0.129838 0.063603 0.058163
0.148196 0.067769 0.056210
0.173390 0.073156 0.054826
0.213622 0.081229 0.054696
0.257711 0.091596 0.054664
0.308228 0.105787 0.054794
0.364869 0.122600 0.056604
0.429383 0.142781 0.060576
0.481724 0.162864 0.064514
0.521890 0.182850 0.068420
0.555392 0.197269 0.070129
0.583711 0.207360 0.070129
0.608286 0.222496 0.076395
0.630616 0.240658 0.086420
0.648693 0.253272 0.088300
0.664838 0.263362 0.086477
0.678004 0.277944 0.090562
0.690178 0.294024 0.096617
0.700606 0.308464 0.100978
0.710632 0.322526 0.104949
0.718891 0.331461 0.110800
0.726898 0.339663 0.116920
0.733014 0.342068 0.117302
0.739003 0.344086 0.117302
0.121212 0.066471 0.062561
0.120301 0.065560 0.062561
0.119446 0.064705 0.062561
0.119446 0.064705 0.062561
0.119560 0.064819 0.062813
0.120472 0.065731 0.064831
0.121798 0.066093 0.065714
0.124923 0.064075 0.061678
0.132637 0.064123 0.058423
0.154120 0.070373 0.057512
0.180811 0.077192 0.056194
0.218960 0.085265 0.053980
0.262137 0.096022 0.053427
0.313697 0.111256 0.055640
0.370468 0.128654 0.058167
0.433940 0.148835 0.061096
0.484197 0.167356 0.063472
0.521239 0.184217 0.065295
0.553960 0.197269 0.066093
0.583320 0.207360 0.066093
0.609588 0.222496 0.071708
0.634001 0.240658 0.080691
0.652729 0.253272 0.084394
0.668874 0.263362 0.085696
0.682822 0.277163 0.090562
0.696037 0.292201 0.096617
0.705814 0.305600 0.100132
0.714798 0.318620 0.103061
0.722016 0.329247 0.109693
0.728982 0.339533 0.116854
0.734055 0.342068 0.117302
0.739003 0.344086 0.117302
0.121212 0.066471 0.062561
0.121082 0.066341 0.062561
0.120960 0.066219 0.062561
0.120960 0.066219 0.062561
0.120976 0.066235 0.062797
0.121106 0.066365 0.064685
0.121993 0.066142 0.065487
0.126160 0.064384 0.061581
0.135404 0.065116 0.058618
0.159882 0.073319 0.058488
0.188102 0.081521 0.057178
0.224558 0.089724 0.053272
0.266922 0.100905 0.052296
0.319132 0.117050 0.056202
0.375643 0.134903 0.059225
0.437684 0.154954 0.061113
0.486183 0.172108 0.062122
0.521142 0.186365 0.062252
0.553391 0.198352 0.062455
0.583532 0.208572 0.062716
0.611069 0.223431 0.067696
0.637044 0.241073 0.075508
0.656529 0.253613 0.080724
0.673065 0.263834 0.084760
0.687598 0.276887 0.090505
0.701465 0.290883 0.096820
0.710623 0.303346 0.099538
0.718696 0.315454 0.101426
0.724775 0.327335 0.108725
0.730568 0.339183 0.116798
0.734959 0.342182 0.117546
0.739255 0.344591 0.117807
0.121212 0.066471 0.062561
0.120040 0.065299 0.062561
0.118942 0.064201 0.062561
0.118942 0.064201 0.062561
0.119088 0.064347 0.062667
0.120260 0.065519 0.063513
0.122189 0.066532 0.063664
0.127397 0.066858 0.060799
0.137943 0.069413 0.058358
0.164504 0.078657 0.057186
0.194482 0.087901 0.055486
0.231980 0.097145 0.052621
0.274213 0.108977 0.051905
0.324340 0.125122 0.054769
0.377857 0.142520 0.056751
0.435731 0.161529 0.057597
0.484751 0.178683 0.058606
0.524918 0.193982 0.059778
0.558859 0.207010 0.061609
0.587959 0.218272 0.063953
0.613803 0.230918 0.068412
0.637695 0.244394 0.074141
0.658678 0.256348 0.078706
0.678338 0.267610 0.082742
0.692090 0.280142 0.090050
0.703873 0.293096 0.098447
0.712642 0.305364 0.100710
0.720714 0.317472 0.101556
0.724970 0.327530 0.108725
0.728681 0.337295 0.116798
0.734893 0.343093 0.119499
0.741273 0.348627 0.121843
0.120455 0.066093 0.062939
0.118828 0.064465 0.062939
0.117302 0.062939 0.062939
0.117302 0.062939 0.062939
0.117554 0.063167 0.062939
0.119572 0.064990 0.062939
0.122421 0.066923 0.062524
0.128865 0.069331 0.060311
0.140811 0.073758 0.058244
0.169260 0.084239 0.056617
0.200801 0.094720 0.054806
0.239145 0.105202 0.052593
0.281492 0.117880 0.051966
0.330513 0.134220 0.053984
0.381755 0.151357 0.055034
0.435853 0.169520 0.054839
0.484905 0.186577 0.055750
0.528913 0.202526 0.057768
0.564169 0.216315 0.060921
0.592617 0.228424 0.064958
0.617282 0.239271 0.069116
0.639677 0.249361 0.073347
0.661668 0.260705 0.077445
0.683477 0.272618 0.081481
0.696790 0.284678 0.089765
0.707271 0.296787 0.099465
0.715795 0.308578 0.101759
0.723867 0.320296 0.102345
0.726813 0.328653 0.109311
0.729026 0.336530 0.117188
0.736183 0.344591 0.121647
0.743670 0.352663 0.125879
0.116419 0.064075 0.064958
0.116875 0.064530 0.064958
0.117302 0.064958 0.064958
0.117302 0.064958 0.064958
0.117554 0.065055 0.064958
0.119572 0.065836 0.064958
0.122811 0.067313 0.064347
0.131339 0.071805 0.061092
0.145108 0.078315 0.058765
0.174598 0.090880 0.059221
0.206855 0.103444 0.058517
0.245199 0.116008 0.055262
0.288718 0.130379 0.053984
0.340864 0.147761 0.056002
0.392952 0.165484 0.056596
0.444967 0.183647 0.055359
0.491936 0.200182 0.055750
0.533861 0.215090 0.057768
0.568791 0.228424 0.060921
0.598281 0.240532 0.064958
0.623988 0.251380 0.069767
0.647424 0.261470 0.075040
0.668308 0.272098 0.079463
0.688034 0.282969 0.083499
0.702388 0.294769 0.090220
0.714953 0.306877 0.097837
0.723867 0.316976 0.102280
0.731940 0.326611 0.105991
0.735797 0.333796 0.112436
0.739052 0.340632 0.119271
0.743344 0.348627 0.124642
0.747706 0.356699 0.129915
0.111878 0.064579 0.069498
0.113636 0.066337 0.069498
0.115300 0.067985 0.069498
0.115561 0.067985 0.069498
0.116008 0.068017 0.069498
0.117766 0.068278 0.069498
0.121232 0.069771 0.068742
0.132104 0.076606 0.064705
0.148347 0.085200 0.061727
0.180701 0.099066 0.061922
0.215253 0.113258 0.061039
0.254639 0.128166 0.057784
0.299395 0.144392 0.056507
0.353102 0.162815 0.058525
0.405272 0.181011 0.058777
0.455464 0.198913 0.056759
0.500481 0.215058 0.056889
0.540322 0.229445 0.059168
0.574487 0.242257 0.062435
0.604238 0.253845 0.066471
0.630693 0.264823 0.071769
0.655170 0.275434 0.077823
0.675128 0.285508 0.082669
0.693030 0.295338 0.086965
0.708101 0.306291 0.092190
0.722227 0.317619 0.097723
0.731435 0.326302 0.104315
0.739507 0.334374 0.111150
0.743820 0.340680 0.117530
0.747596 0.346735 0.123845
0.750212 0.354437 0.129671
0.752751 0.362249 0.135465
0.105824 0.072652 0.081607
0.106540 0.073368 0.081607
0.107293 0.074039 0.081607
0.108595 0.074039 0.081607
0.109824 0.074202 0.081607
0.110540 0.075504 0.081607
0.113746 0.078429 0.080850
0.127742 0.088390 0.076814
0.148412 0.099066 0.072013
0.189099 0.111891 0.064917
0.230682 0.126343 0.059998
0.274234 0.144376 0.059868
0.320422 0.162945 0.060543
0.371005 0.182410 0.062561
0.420961 0.200736 0.062813
0.470111 0.217597 0.060795
0.513566 0.233742 0.061446
0.551324 0.249170 0.064766
0.583406 0.261267 0.068489
0.611073 0.270771 0.072525
0.637398 0.282270 0.077823
0.662917 0.294964 0.083877
0.682484 0.304973 0.089439
0.699345 0.313762 0.094777
0.714155 0.322111 0.098700
0.728282 0.330313 0.102150
0.737489 0.338410 0.110890
0.745562 0.346483 0.120850
0.748963 0.352789 0.128532
0.751697 0.358843 0.135888
0.756202 0.365569 0.140803
0.760824 0.372339 0.145555
0.102923 0.082616 0.091824
0.103900 0.082941 0.092475
0.104901 0.083226 0.093044
0.106268 0.082901 0.092393
0.107464 0.082828 0.091864
0.107464 0.084520 0.092190
0.110369 0.088288 0.091819
0.125863 0.101047 0.088434
0.147948 0.113319 0.083112
0.189807 0.124125 0.071980
0.235735 0.138472 0.064347
0.290615 0.160606 0.064412
0.342955 0.182007 0.065332
0.391064 0.202188 0.067676
0.438603 0.220888 0.068253
0.485410 0.237684 0.066561
0.526814 0.253992 0.067570
0.562814 0.269811 0.071280
0.593321 0.281822 0.075723
0.619557 0.290871 0.080736
0.645182 0.302280 0.086400
0.670440 0.315104 0.092454
0.688986 0.324214 0.098285
0.704480 0.331636 0.104014
0.719192 0.338032 0.107203
0.733644 0.344086 0.109547
0.742913 0.351516 0.119560
0.750985 0.359262 0.131343
0.754330 0.365244 0.139595
0.756999 0.370972 0.147342
0.763147 0.377617 0.152525
0.769527 0.384322 0.157538
0.106959 0.096743 0.097878
0.111061 0.098110 0.100612
0.114861 0.099306 0.103004
0.114145 0.097939 0.100270
0.113518 0.096824 0.098049
0.113518 0.097475 0.099416
0.116033 0.100787 0.100282
0.129443 0.115630 0.098980
0.146320 0.128422 0.096002
0.173597 0.135062 0.087995
0.217963 0.148497 0.080557
0.299924 0.176881 0.074373
0.368800 0.202188 0.071777
0.415867 0.222369 0.075162
0.460542 0.241981 0.076781
0.502141 0.260860 0.076130
0.540419 0.277688 0.077139
0.575378 0.292466 0.079809
0.605430 0.305779 0.085554
0.631665 0.317952 0.093691
0.655337 0.327929 0.100527
0.677471 0.336587 0.106581
0.693608 0.342963 0.111695
0.707018 0.348301 0.116383
0.721991 0.354177 0.120093
0.737485 0.360231 0.123478
0.746949 0.366814 0.132841
0.755022 0.373519 0.143582
0.760189 0.378459 0.150792
0.764941 0.383146 0.157497
0.772196 0.391678 0.165545
0.779617 0.400467 0.173683
0.116293 0.112383 0.111500
0.121566 0.114010 0.114755
0.126408 0.115459 0.117652
0.124780 0.114222 0.115178
0.123454 0.113189 0.113217
0.124235 0.113579 0.114845
0.126774 0.116631 0.115947
0.136930 0.131213 0.114775
0.149478 0.143354 0.111504
0.169203 0.148172 0.101934
0.212446 0.161574 0.092568
0.307427 0.193864 0.083649
0.387125 0.222052 0.078271
0.441354 0.243405 0.078791
0.487949 0.263903 0.078913
0.524730 0.283303 0.078523
0.559884 0.300066 0.079532
0.593411 0.314193 0.081941
0.622836 0.327880 0.087791
0.649071 0.341226 0.096320
0.670790 0.349526 0.102813
0.689800 0.354799 0.108086
0.704333 0.359222 0.112778
0.716832 0.363258 0.117204
0.730894 0.368515 0.121338
0.745476 0.374178 0.125374
0.755404 0.380794 0.134647
0.764258 0.387630 0.145128
0.770662 0.393041 0.153103
0.776716 0.398249 0.160720
0.783198 0.406204 0.168092
0.789708 0.414341 0.175449
0.134456 0.130546 0.137735
0.137646 0.131132 0.138907
0.140600 0.131734 0.140111
0.140014 0.132580 0.141804
0.139859 0.133500 0.143358
0.142724 0.134932 0.143944
0.145979 0.138049 0.143615
0.150926 0.148465 0.139318
0.160610 0.158002 0.131360
0.184502 0.164902 0.112415
0.227354 0.179737 0.097581
0.311918 0.212027 0.091787
0.392919 0.241387 0.084846
0.467979 0.265864 0.075992
0.524470 0.287209 0.070385
0.557085 0.304526 0.068953
0.589114 0.320247 0.069962
0.620558 0.334374 0.073412
0.649071 0.346889 0.077375
0.675307 0.358152 0.081737
0.695073 0.364369 0.085366
0.710957 0.367559 0.088556
0.725230 0.371330 0.093313
0.738771 0.375367 0.098781
0.749968 0.379842 0.103175
0.760384 0.384464 0.107212
0.771223 0.392577 0.117331
0.782160 0.401496 0.128853
0.788825 0.409902 0.140604
0.794879 0.418235 0.152387
0.797455 0.421502 0.153184
0.799798 0.424432 0.153249
0.161448 0.155772 0.165736
0.163010 0.156228 0.166192
0.164504 0.156810 0.166843
0.164959 0.159283 0.170424
0.165749 0.161529 0.173443
0.168873 0.162180 0.172531
0.171876 0.164052 0.170570
0.174350 0.171213 0.164060
0.182422 0.178602 0.153237
0.207291 0.186674 0.129476
0.247986 0.201175 0.110312
0.323502 0.229819 0.101263
0.403071 0.257902 0.090310
0.489393 0.285048 0.076183
0.551792 0.307182 0.066357
0.583430 0.322872 0.062061
0.614157 0.338007 0.062158
0.643973 0.352590 0.066650
0.670237 0.364133 0.069494
0.693738 0.373312 0.071057
0.711665 0.378870 0.073758
0.726247 0.382255 0.077143
0.740203 0.385461 0.082050
0.753874 0.388586 0.087649
0.763688 0.392736 0.092418
0.772216 0.397228 0.096909
0.782913 0.405158 0.107220
0.794110 0.413881 0.118873
0.800010 0.422206 0.131494
0.805153 0.430474 0.144253
0.806329 0.431418 0.141267
0.807240 0.431873 0.137231
0.199792 0.190080 0.196008
0.200313 0.191577 0.197505
0.200895 0.193201 0.199068
0.202392 0.196716 0.201607
0.203832 0.199483 0.203454
0.204874 0.197009 0.200459
0.206379 0.195951 0.196610
0.209895 0.201029 0.189059
0.217967 0.206855 0.177715
0.239710 0.214928 0.154995
0.275979 0.226825 0.132967
0.344204 0.247136 0.112460
0.418825 0.270792 0.094346
0.504106 0.300021 0.080219
0.567285 0.322872 0.068115
0.602049 0.337519 0.058610
0.633818 0.352655 0.056625
0.662592 0.368279 0.062158
0.684884 0.379106 0.064872
0.702136 0.386202 0.065393
0.718370 0.392931 0.069657
0.733994 0.399441 0.076167
0.747560 0.402192 0.081334
0.760189 0.403233 0.085891
0.770524 0.407644 0.091181
0.780093 0.413177 0.096714
0.789293 0.418764 0.106373
0.798407 0.424362 0.116985
0.802223 0.428651 0.126742
0.805283 0.432752 0.136376
0.808282 0.434412 0.133195
0.811276 0.435910 0.129158
0.240154 0.228424 0.228298
0.240154 0.230442 0.230316
0.240247 0.232488 0.232269
0.241745 0.234962 0.233245
0.243120 0.236883 0.233855
0.243641 0.234930 0.231902
0.245016 0.233904 0.228802
0.250094 0.236899 0.220730
0.260380 0.241554 0.208605
0.286289 0.251188 0.184322
0.325748 0.262207 0.157151
0.395015 0.276268 0.123625
0.465990 0.295432 0.097764
0.539813 0.323099 0.084679
0.595864 0.344615 0.072932
0.629065 0.358221 0.062907
0.658491 0.373096 0.061182
0.684140 0.389241 0.067757
0.703015 0.400003 0.070633
0.716621 0.406578 0.070633
0.731813 0.414089 0.076330
0.747958 0.422161 0.085444
0.762044 0.426474 0.092141
0.775194 0.429078 0.097740
0.786440 0.434660 0.105242
0.797052 0.441236 0.113380
0.804754 0.445748 0.123104
0.811785 0.449784 0.133195
0.813974 0.451143 0.140152
0.815471 0.452119 0.146662
0.820325 0.455537 0.145238
0.825403 0.459118 0.143285
0.282534 0.270804 0.262605
0.282534 0.272822 0.264623
0.282562 0.274673 0.266446
0.283018 0.274022 0.265339
0.283612 0.273729 0.264648
0.285175 0.275943 0.266861
0.287787 0.277912 0.267146
0.294948 0.278823 0.259074
0.309660 0.282697 0.245907
0.347028 0.295456 0.217458
0.397293 0.307321 0.182866
0.475934 0.317216 0.134757
0.544566 0.331823 0.100563
0.596515 0.354282 0.089561
0.637528 0.372413 0.080809
0.664480 0.384977 0.074950
0.688176 0.399332 0.075829
0.708618 0.415476 0.083446
0.724628 0.426824 0.086778
0.737192 0.434441 0.086778
0.751994 0.442342 0.093777
0.768139 0.450415 0.104974
0.783657 0.458308 0.114470
0.798891 0.466120 0.123194
0.811439 0.473786 0.134602
0.823092 0.481402 0.146906
0.829297 0.486110 0.157412
0.834244 0.490146 0.167502
0.835261 0.489682 0.171726
0.835717 0.488575 0.175111
0.842459 0.494793 0.177397
0.849620 0.501498 0.179611
0.329455 0.317725 0.301454
0.331212 0.320329 0.303472
0.332750 0.322607 0.305238
0.330993 0.320003 0.303219
0.330000 0.318229 0.301812
0.334362 0.322265 0.304676
0.339529 0.325655 0.305600
0.348187 0.326240 0.298113
0.365569 0.329333 0.284930
0.409121 0.339944 0.254659
0.464370 0.348297 0.214073
0.545355 0.351682 0.150796
0.609446 0.361146 0.108123
0.645381 0.380741 0.099790
0.675164 0.397830 0.094875
0.697038 0.411696 0.094354
0.716177 0.426116 0.096958
0.732582 0.441089 0.102687
0.747560 0.453499 0.107500
0.761426 0.463915 0.111602
0.775984 0.472500 0.120341
0.790957 0.479986 0.131864
0.804721 0.487249 0.141194
0.817937 0.494410 0.149527
0.829883 0.501376 0.160886
0.841405 0.508276 0.173255
0.846845 0.513326 0.183297
0.850881 0.517948 0.192802
0.851899 0.517785 0.195756
0.852484 0.516939 0.197774
0.858441 0.522806 0.201135
0.864756 0.529121 0.204585
0.379907 0.368177 0.343834
0.384790 0.371823 0.345852
0.389062 0.375013 0.347618
0.384179 0.371367 0.345600
0.380973 0.368682 0.343931
0.389501 0.372718 0.344713
0.398249 0.376302 0.344139
0.407949 0.377930 0.337694
0.426633 0.380241 0.325292
0.472268 0.384603 0.295021
0.527973 0.386055 0.249553
0.605833 0.381108 0.170651
0.663674 0.384973 0.119385
0.688152 0.403526 0.114177
0.709667 0.421396 0.113754
0.727374 0.438387 0.119483
0.742868 0.453328 0.123129
0.756149 0.466218 0.124691
0.771516 0.480060 0.131783
0.788507 0.494642 0.143175
0.802935 0.504138 0.153998
0.815825 0.510583 0.164479
0.825358 0.513940 0.171335
0.833365 0.515893 0.176543
0.843228 0.519994 0.184778
0.853709 0.524812 0.194022
0.858954 0.530317 0.202632
0.862990 0.535980 0.211095
0.864919 0.537771 0.213919
0.866546 0.539008 0.215937
0.869638 0.542075 0.218321
0.872828 0.545265 0.220730
0.432882 0.413584 0.366033
0.436984 0.416319 0.367400
0.440654 0.418833 0.368718
0.437854 0.418052 0.369304
0.436259 0.417547 0.369654
0.443095 0.418979 0.368352
0.450541 0.420277 0.366037
0.460631 0.420994 0.359332
0.478664 0.421872 0.347549
0.520523 0.423239 0.320532
0.573470 0.421046 0.276488
0.650809 0.411021 0.194983
0.705981 0.410346 0.141796
0.724209 0.425254 0.135807
0.741810 0.441870 0.137678
0.758606 0.460684 0.149657
0.773058 0.476471 0.155971
0.785167 0.489231 0.156622
0.799583 0.502796 0.164121
0.815792 0.516988 0.176946
0.828218 0.526093 0.186841
0.838374 0.532148 0.194979
0.846605 0.536725 0.202087
0.853961 0.540631 0.208727
0.861415 0.544146 0.214488
0.868902 0.547532 0.219957
0.874114 0.553085 0.227541
0.878801 0.559140 0.235613
0.881722 0.562232 0.239527
0.884392 0.564901 0.242847
0.885840 0.566960 0.244947
0.887207 0.568978 0.246965
0.487371 0.455964 0.376123
0.488348 0.456615 0.376449
0.489414 0.457502 0.377051
0.491822 0.461929 0.381803
0.494133 0.465461 0.385538
0.495761 0.462727 0.382153
0.498975 0.460249 0.377950
0.509066 0.458882 0.370203
0.525276 0.457938 0.358941
0.559844 0.458263 0.337133
0.608103 0.454378 0.298296
0.686484 0.441227 0.221999
0.741135 0.436646 0.170896
0.756238 0.446346 0.161782
0.772538 0.460489 0.164630
0.790375 0.480344 0.182858
0.805348 0.497173 0.192818
0.817457 0.510974 0.194511
0.830114 0.523237 0.201293
0.843200 0.534304 0.212035
0.852501 0.542238 0.219196
0.859532 0.548292 0.224208
0.868218 0.557166 0.233204
0.877658 0.567322 0.244011
0.882508 0.571619 0.247689
0.885828 0.573962 0.248991
0.891105 0.579321 0.255794
0.896834 0.585375 0.263867
0.900797 0.589379 0.269603
0.904507 0.593089 0.275007
0.905045 0.595213 0.277236
0.905370 0.597231 0.279255
0.536310 0.490020 0.398701
0.536310 0.490736 0.399417
0.536428 0.491562 0.400243
0.538316 0.494036 0.402717
0.540057 0.495964 0.404556
0.540773 0.494076 0.401952
0.543516 0.492433 0.398591
0.555038 0.491847 0.391951
0.571395 0.490870 0.381209
0.602252 0.488722 0.358164
0.646048 0.482607 0.319210
0.718309 0.467764 0.245256
0.768770 0.462051 0.197131
0.782897 0.471556 0.192053
0.797849 0.484792 0.195833
0.813864 0.502824 0.211001
0.828284 0.518904 0.220669
0.841108 0.533031 0.224835
0.853127 0.545290 0.233139
0.864520 0.556096 0.244662
0.872576 0.564380 0.251953
0.878630 0.571151 0.256706
0.885982 0.580607 0.266515
0.893925 0.591283 0.278624
0.896887 0.595466 0.282188
0.898189 0.597484 0.282904
0.903352 0.603363 0.289597
0.909406 0.610133 0.297670
0.913068 0.615138 0.304603
0.916388 0.619890 0.311373
0.917267 0.622751 0.314360
0.917983 0.625485 0.317094
0.582726 0.520291 0.426954
0.582726 0.522049 0.428712
0.582649 0.523526 0.430189
0.581412 0.520792 0.427455
0.580550 0.518554 0.424997
0.582307 0.519791 0.424476
0.586286 0.521077 0.423199
0.599892 0.522574 0.418642
0.617290 0.522379 0.408421
0.646065 0.517106 0.381209
0.685499 0.508516 0.339716
0.748385 0.492632 0.266804
0.792987 0.487050 0.222064
0.807114 0.498637 0.224278
0.820699 0.511678 0.228969
0.833589 0.526586 0.236846
0.846967 0.541103 0.244430
0.860834 0.555230 0.251721
0.872722 0.568075 0.262565
0.883073 0.579923 0.276170
0.890739 0.589249 0.284894
0.896793 0.597061 0.290688
0.901997 0.605410 0.300823
0.906814 0.614003 0.312932
0.908214 0.617665 0.317277
0.908474 0.619683 0.319035
0.913442 0.626408 0.325923
0.919497 0.634220 0.333996
0.922247 0.640267 0.341840
0.924526 0.646060 0.349652
0.926316 0.649962 0.353680
0.928074 0.653738 0.357456
0.614007 0.541481 0.443099
0.615569 0.543500 0.445117
0.616957 0.545237 0.446855
0.615720 0.542763 0.444381
0.614890 0.540851 0.442118
0.616908 0.542869 0.441337
0.621050 0.544740 0.439506
0.634395 0.545977 0.433127
0.650882 0.545391 0.421669
0.676792 0.539337 0.394978
0.712792 0.530374 0.354901
0.770991 0.515010 0.285374
0.812078 0.509656 0.243433
0.824642 0.520983 0.247469
0.837690 0.534219 0.253414
0.851361 0.549908 0.261812
0.864089 0.564425 0.270828
0.875872 0.577771 0.280463
0.885384 0.589541 0.290867
0.893131 0.600088 0.301869
0.899820 0.609088 0.311243
0.905875 0.617160 0.319641
0.911078 0.626844 0.331127
0.915896 0.637260 0.344017
0.917686 0.641963 0.349925
0.918467 0.644763 0.353505
0.922898 0.650577 0.359466
0.928171 0.657087 0.365976
0.930596 0.662515 0.372486
0.932614 0.667788 0.378996
0.934632 0.671901 0.383919
0.936651 0.675937 0.388736
0.640242 0.559644 0.455208
0.643888 0.561662 0.457226
0.647293 0.563530 0.459093
0.647098 0.563139 0.458703
0.647179 0.563050 0.458133
0.649197 0.565068 0.456310
0.653144 0.566744 0.453047
0.665448 0.566940 0.443543
0.680372 0.565572 0.430262
0.703157 0.559518 0.405654
0.736033 0.550880 0.368311
0.791107 0.536558 0.302951
0.829459 0.531464 0.263614
0.839940 0.541750 0.267650
0.852729 0.555311 0.274962
0.868483 0.573083 0.286485
0.880689 0.588121 0.298105
0.889347 0.600425 0.309823
0.895735 0.610569 0.318795
0.900357 0.619032 0.325630
0.905875 0.627251 0.335395
0.911929 0.635323 0.346918
0.917849 0.647155 0.360097
0.923708 0.660696 0.374028
0.926540 0.666962 0.381759
0.928363 0.670803 0.387422
0.932142 0.675119 0.392081
0.936374 0.679546 0.396508
0.938669 0.683802 0.400935
0.940687 0.688034 0.405361
0.942705 0.692082 0.411131
0.944723 0.696118 0.416990
0.669757 0.579447 0.457478
0.672947 0.580619 0.458650
0.675937 0.581664 0.459748
0.675937 0.580818 0.459748
0.676190 0.580330 0.459496
0.678208 0.582348 0.457478
0.682276 0.583988 0.453946
0.695231 0.583988 0.443856
0.710709 0.582686 0.430657
0.733754 0.577478 0.408132
0.763717 0.570540 0.374581
0.808896 0.559799 0.316773
0.841234 0.557187 0.283425
0.852171 0.568124 0.290846
0.863905 0.581111 0.299578
0.876665 0.596735 0.309994
0.886658 0.610601 0.321679
0.893884 0.622710 0.334634
0.900744 0.633500 0.345136
0.907319 0.643265 0.353729
0.913569 0.653030 0.364519
0.919623 0.662795 0.376628
0.925095 0.672650 0.388378
0.930303 0.682545 0.399966
0.933754 0.689315 0.409308
0.936618 0.695044 0.417901
0.941122 0.700773 0.425542
0.946005 0.706502 0.432964
0.948381 0.710750 0.436683
0.950399 0.714786 0.439873
0.952417 0.718029 0.444954
0.954435 0.721218 0.450162
0.700028 0.599628 0.457478
0.702177 0.599758 0.457608
0.704191 0.599762 0.457730
0.704191 0.597874 0.457730
0.704443 0.596475 0.457478
0.706461 0.598493 0.455460
0.710725 0.600132 0.451928
0.724722 0.600132 0.441838
0.741241 0.599091 0.429160
0.765328 0.594924 0.408718
0.792426 0.590005 0.379203
0.826147 0.583430 0.329727
0.851715 0.583813 0.303150
0.863694 0.595791 0.314738
0.874191 0.607997 0.324902
0.882784 0.620497 0.333235
0.890173 0.632800 0.344399
0.896358 0.644909 0.358396
0.904520 0.656871 0.371111
0.914220 0.668719 0.382829
0.921641 0.680568 0.394791
0.927695 0.692416 0.406899
