其他预设/【236】赛博朋克风调色预设/【后期菌】视频调色预设/CUBE/Tokyo 07_S.cube
# LUT by SparkleStock. Enhanced with VOXCOLOR algorithms.
LUT_3D_SIZE 5
DOMAIN_MIN 0.000000 0.000000 0.000000
DOMAIN_MAX 0.903226 0.903226 0.903226
0.187683 0.046921 0.058651
0.205972 0.049317 0.060165
0.579069 0.078706 0.041623
0.788699 0.148078 0.011100
0.848106 0.189449 0.000000
0.189197 0.050831 0.064958
0.227642 0.062427 0.064030
0.562041 0.120114 0.033120
0.766373 0.175827 0.007820
0.859438 0.205826 0.001314
0.129158 0.192855 0.182386
0.134875 0.213931 0.186776
0.683558 0.278742 0.007621
0.821965 0.319820 0.003910
0.913316 0.336205 0.003910
0.465172 0.569987 0.501876
0.544041 0.571928 0.466498
0.920347 0.486330 0.015608
0.962556 0.531065 0.018391
0.982782 0.567778 0.026960
0.835493 0.749976 0.549932
0.864882 0.738258 0.497087
0.983006 0.657734 0.056340
0.994103 0.716267 0.088495
0.997942 0.762756 0.204442
0.182007 0.050831 0.064958
0.205631 0.053227 0.067940
0.553500 0.064868 0.075805
0.768904 0.128528 0.046290
0.845710 0.199182 0.004288
0.175546 0.053227 0.070336
0.218723 0.090646 0.100338
0.528752 0.151359 0.133492
0.743901 0.196408 0.114317
0.861977 0.213202 0.050672
0.108778 0.226332 0.223684
0.142251 0.272370 0.229264
0.626413 0.330712 0.113233
0.790381 0.367986 0.113921
0.916763 0.371337 0.069725
0.463943 0.582734 0.532913
0.511005 0.595735 0.531184
0.855058 0.522499 0.059537
0.919227 0.561778 0.067204
0.965310 0.606328 0.083828
0.834232 0.749797 0.551234
0.847610 0.745563 0.532234
0.980707 0.653473 0.059725
0.991899 0.719160 0.094423
0.981258 0.776413 0.213042
0.066850 0.116167 0.171034
0.068705 0.115626 0.172889
0.326993 0.105796 0.214435
0.647745 0.102516 0.201672
0.744488 0.174399 0.143366
0.065767 0.124296 0.180787
0.093103 0.145590 0.229915
0.388459 0.173720 0.307916
0.668614 0.167671 0.288713
0.776445 0.198592 0.200131
0.011836 0.455891 0.577116
0.044093 0.461783 0.568966
0.338771 0.409822 0.483330
0.727050 0.393572 0.375872
0.882710 0.442380 0.357535
0.244088 0.657193 0.689482
0.252531 0.655391 0.686457
0.580328 0.708123 0.636641
0.892940 0.609452 0.163439
0.952308 0.648584 0.223149
0.648966 0.799082 0.745497
0.660695 0.803077 0.746749
0.912988 0.799145 0.591681
0.954512 0.797151 0.401718
0.964120 0.849481 0.521805
0.001261 0.269416 0.502381
0.000875 0.271670 0.504879
0.029340 0.292722 0.538694
0.188025 0.326037 0.575020
0.431967 0.354587 0.573425
0.000488 0.275747 0.507475
0.000718 0.282338 0.520212
0.068926 0.304294 0.572543
0.259844 0.328854 0.593212
0.455104 0.364134 0.588392
0.023790 0.488856 0.699605
0.026941 0.490927 0.698891
0.110981 0.541148 0.733412
0.464948 0.553485 0.710815
0.682868 0.571437 0.716045
0.215660 0.708504 0.794928
0.230816 0.712935 0.796962
0.395874 0.767461 0.824119
0.749427 0.770581 0.749492
0.938190 0.723761 0.643283
0.543634 0.801914 0.802260
0.542393 0.801796 0.800746
0.707075 0.848698 0.823907
0.915494 0.863712 0.734729
0.964556 0.875977 0.692724
0.003910 0.320247 0.624476
0.003910 0.320447 0.624675
0.019087 0.337926 0.645076
0.167730 0.349607 0.643400
0.333955 0.425441 0.681361
0.005908 0.328206 0.635913
0.006880 0.333279 0.641141
0.023791 0.347911 0.653760
0.183434 0.356867 0.650006
0.346259 0.431632 0.688597
0.038848 0.509843 0.755673
0.039825 0.512939 0.756018
0.119587 0.563234 0.789095
0.427152 0.582334 0.774633
0.554113 0.632564 0.806996
0.267594 0.718509 0.839814
0.273452 0.719878 0.840520
0.415104 0.771183 0.868492
0.578208 0.830028 0.902600
0.761349 0.819553 0.883918
0.439909 0.815101 0.860805
0.446286 0.816391 0.862892
0.596493 0.861968 0.887883
0.794556 0.904798 0.899335
0.945515 0.889355 0.822644
