其他预设/【236】赛博朋克风调色预设/【后期菌】视频调色预设/CUBE/Tokyo 01_S.cube
# LUT by SparkleStock. Enhanced with VOXCOLOR algorithms.
LUT_3D_SIZE 32
0.070381 0.039101 0.070381
0.074417 0.041119 0.074417
0.077949 0.042885 0.078201
0.073913 0.040867 0.078201
0.070381 0.039101 0.078201
0.070381 0.039101 0.078201
0.071138 0.039101 0.078201
0.075174 0.039101 0.078201
0.081229 0.039605 0.076688
0.093337 0.041623 0.070633
0.109230 0.043641 0.065841
0.133447 0.045660 0.063822
0.169773 0.050705 0.064075
0.226279 0.060795 0.068111
0.295147 0.073535 0.073030
0.379907 0.089679 0.079084
0.451550 0.108851 0.087157
0.510075 0.131050 0.097247
0.553842 0.146438 0.105067
0.586132 0.156529 0.111122
0.612115 0.170403 0.122221
0.634314 0.186548 0.136348
0.657901 0.195756 0.143537
0.682118 0.201810 0.147574
0.698767 0.212405 0.156150
0.712894 0.224514 0.166241
0.723741 0.233343 0.173052
0.733832 0.241415 0.179106
0.738625 0.249488 0.185161
0.742661 0.257560 0.191215
0.748589 0.265632 0.195377
0.754643 0.273705 0.199413
0.074417 0.041119 0.074417
0.076370 0.041054 0.076370
0.078079 0.040932 0.078201
0.076126 0.039955 0.078201
0.074417 0.039231 0.078332
0.074417 0.040272 0.079373
0.074784 0.040923 0.080024
0.076737 0.039882 0.078983
0.081489 0.039345 0.076167
0.094639 0.040321 0.068029
0.111899 0.041949 0.062130
0.138199 0.045009 0.061153
0.176999 0.051095 0.061666
0.236630 0.062227 0.064661
0.306344 0.075553 0.069449
0.389021 0.091697 0.076545
0.459622 0.110349 0.085139
0.518147 0.131506 0.095229
0.561915 0.146438 0.102463
0.594204 0.156529 0.107476
0.619536 0.168450 0.117534
0.640694 0.181470 0.130619
0.662523 0.191134 0.138199
0.684657 0.199271 0.143277
0.700785 0.210387 0.152895
0.714912 0.222496 0.164028
0.724913 0.232171 0.171880
0.733962 0.241285 0.178976
0.738625 0.250399 0.186983
0.742661 0.259513 0.195121
0.747612 0.265697 0.197460
0.752625 0.271687 0.199413
0.078201 0.043011 0.078201
0.078201 0.041058 0.078266
0.078201 0.039227 0.078323
0.078201 0.039227 0.078258
0.078201 0.039471 0.078454
0.078201 0.041424 0.080472
0.078214 0.042632 0.081733
0.078279 0.040614 0.079715
0.081859 0.039150 0.075695
0.095986 0.039345 0.065670
0.114588 0.040740 0.058777
0.143037 0.044777 0.058777
0.184278 0.051864 0.059510
0.246839 0.064038 0.061463
0.317261 0.077892 0.066036
0.397789 0.093907 0.073978
0.467251 0.111972 0.082994
0.525646 0.132088 0.093085
0.569356 0.146528 0.099770
0.601646 0.156553 0.103806
0.626449 0.166660 0.112847
0.646760 0.176816 0.124890
0.667072 0.186926 0.132906
0.687383 0.197017 0.139090
0.703056 0.208572 0.149718
0.717182 0.220616 0.161826
0.726284 0.231020 0.170603
0.734226 0.241045 0.178610
0.738751 0.251184 0.188554
0.742787 0.261340 0.198775
0.746762 0.265759 0.199413
0.750733 0.269795 0.199413
0.078201 0.043011 0.078201
0.078201 0.042099 0.079308
0.078201 0.041245 0.080276
0.078201 0.041245 0.079170
0.078201 0.041359 0.078454
0.078201 0.042270 0.080472
0.078409 0.042632 0.081733
0.079516 0.040614 0.079715
0.083877 0.039931 0.075955
0.098004 0.043251 0.066972
0.117583 0.046795 0.060795
0.149156 0.050831 0.060795
0.192350 0.058309 0.061137
0.254911 0.071525 0.062048
0.323966 0.085053 0.065124
0.401370 0.098985 0.070983
0.468228 0.115487 0.078958
0.524539 0.134562 0.089049
0.567338 0.147960 0.095734
0.599628 0.156944 0.099770
0.625733 0.167311 0.108160
0.648127 0.178508 0.119161
0.670522 0.188945 0.128284
0.692916 0.199035 0.136551
0.709110 0.209809 0.147700
0.723237 0.220811 0.159808
0.730646 0.230173 0.167738
0.736505 0.239157 0.174704
0.740769 0.250078 0.186341
0.744805 0.261275 0.198644
0.747804 0.265759 0.199413
0.750733 0.269795 0.199413
0.078201 0.043011 0.078201
0.078201 0.042881 0.080089
0.078201 0.042758 0.081741
0.078201 0.042758 0.079853
0.078201 0.042775 0.078454
0.078201 0.042905 0.080472
0.078629 0.042706 0.081684
0.080907 0.041078 0.079406
0.086213 0.041371 0.075744
0.100600 0.047425 0.067932
0.121293 0.052971 0.062520
0.155862 0.057398 0.062390
0.200878 0.065413 0.062358
0.263309 0.079410 0.062488
0.330924 0.092580 0.064270
0.405203 0.104689 0.068176
0.469652 0.119825 0.075174
0.524271 0.137988 0.085265
0.566256 0.150548 0.092096
0.598415 0.158750 0.096393
0.625530 0.169150 0.104066
0.649617 0.180868 0.113766
0.673883 0.191467 0.123914
0.698230 0.201558 0.134265
0.714814 0.211648 0.146031
0.728811 0.221739 0.158270
0.734820 0.229978 0.165484
0.738987 0.237790 0.171538
0.742697 0.249248 0.184542
0.746343 0.261226 0.198539
0.748707 0.266003 0.199658
0.750985 0.270299 0.199918
0.078201 0.043011 0.078201
0.078201 0.041839 0.079048
0.078201 0.040740 0.079788
0.078201 0.040740 0.078942
0.078201 0.040887 0.078454
0.078201 0.042059 0.080472
0.079019 0.043291 0.081294
0.083381 0.044789 0.076932
0.090770 0.047425 0.072228
0.107240 0.053480 0.066500
0.130017 0.060002 0.062195
0.166668 0.067553 0.061023
0.212596 0.077131 0.060730
0.273986 0.090086 0.061902
0.339647 0.102671 0.063814
0.410801 0.114779 0.066679
0.474209 0.129915 0.073156
0.529869 0.148078 0.083247
0.571724 0.161224 0.091250
0.602842 0.170468 0.097630
0.628915 0.179306 0.104132
0.651960 0.187899 0.110707
0.676617 0.197522 0.121310
0.702006 0.207612 0.133744
0.718069 0.217703 0.146813
0.731024 0.227793 0.160093
0.737685 0.234340 0.167502
0.742893 0.240068 0.173557
0.743999 0.250354 0.185649
0.744520 0.261291 0.198604
0.748642 0.267956 0.201611
0.753004 0.274335 0.203954
0.077445 0.042632 0.078580
0.077445 0.041005 0.078775
0.077469 0.039479 0.078958
0.077860 0.039479 0.078958
0.078201 0.039707 0.079137
0.078201 0.041530 0.080569
0.079410 0.043841 0.080634
0.085855 0.048268 0.074775
0.095327 0.053248 0.069421
0.113880 0.059888 0.065580
0.138618 0.067606 0.062248
0.176962 0.077697 0.060034
0.223631 0.088617 0.059408
0.284174 0.100921 0.061426
0.348419 0.113396 0.063529
0.417425 0.126091 0.065743
0.479791 0.141324 0.071797
0.535517 0.159096 0.081692
0.577144 0.172548 0.090452
0.607806 0.182638 0.098329
0.633301 0.190206 0.104050
0.655695 0.196260 0.108477
0.680327 0.204687 0.119170
0.705977 0.214191 0.132710
0.721617 0.224282 0.146837
0.733921 0.234567 0.161159
0.741306 0.239934 0.169081
0.747555 0.244166 0.175526
0.746571 0.253011 0.186926
0.744553 0.262516 0.199035
0.749736 0.270495 0.203576
0.755400 0.278372 0.207612
0.073408 0.040614 0.080598
0.073408 0.041070 0.081835
0.073563 0.041497 0.082994
0.076037 0.041497 0.082994
0.078201 0.041595 0.082783
0.078201 0.042376 0.081090
0.079800 0.044231 0.078812
0.088328 0.050741 0.073994
0.099884 0.058065 0.069681
0.120520 0.067830 0.066882
0.146691 0.077697 0.063940
0.185035 0.087787 0.060685
0.231703 0.099098 0.059408
0.292246 0.112444 0.061426
0.357403 0.126872 0.063985
0.428492 0.142691 0.067240
0.489816 0.158445 0.073294
0.541376 0.174134 0.082148
0.582352 0.186674 0.089866
0.615097 0.196765 0.096702
0.642024 0.204333 0.103334
0.665460 0.210387 0.109844
0.688270 0.216665 0.119039
0.710794 0.223045 0.129455
0.726435 0.233135 0.143582
0.739780 0.244463 0.158946
0.748206 0.250871 0.168755
0.755498 0.256144 0.177284
0.754643 0.262386 0.188945
0.752625 0.268765 0.201053
0.755856 0.275572 0.205594
0.759436 0.282408 0.209630
0.068868 0.041119 0.085139
0.068868 0.042876 0.086896
0.069104 0.044524 0.088544
0.072879 0.044524 0.088544
0.076216 0.044557 0.088105
0.076476 0.044817 0.084589
0.078726 0.046689 0.080927
0.089598 0.055543 0.076631
0.103692 0.065080 0.072578
0.127454 0.076667 0.069258
0.156260 0.088113 0.065877
0.196167 0.099245 0.062362
0.244007 0.111598 0.060824
0.305071 0.125985 0.062581
0.370635 0.142024 0.065564
0.441984 0.160187 0.070121
0.501355 0.176462 0.076566
0.548748 0.190849 0.084899
0.588341 0.202380 0.091657
0.621868 0.211689 0.097190
0.649901 0.219289 0.104473
0.674639 0.225864 0.112806
0.696065 0.230694 0.121318
0.715986 0.234730 0.129911
0.731366 0.244040 0.143582
0.745232 0.255107 0.158946
0.754391 0.262101 0.170448
0.762463 0.268155 0.181059
0.761707 0.272216 0.192753
0.759688 0.275991 0.204601
0.762187 0.282880 0.210102
0.764986 0.289976 0.215180
0.062813 0.049191 0.097247
0.062813 0.049907 0.097963
0.062984 0.050579 0.098635
0.065718 0.050579 0.098635
0.068274 0.050741 0.098456
0.069576 0.052043 0.097023
0.073258 0.055347 0.094859
0.087254 0.067326 0.089521
0.105254 0.078686 0.083385
0.135266 0.088190 0.074857
0.170322 0.099505 0.068546
0.216478 0.114804 0.067114
0.269005 0.130151 0.066487
0.332152 0.145580 0.067204
0.396610 0.162205 0.070511
0.462751 0.180368 0.077152
0.517435 0.197163 0.085159
0.560661 0.212592 0.094533
0.596674 0.222821 0.100575
0.627076 0.229006 0.104026
0.655240 0.236736 0.111179
0.682061 0.245394 0.120553
0.703422 0.250875 0.130823
0.722301 0.254911 0.141499
0.736639 0.261096 0.153347
0.749464 0.267996 0.165586
0.758427 0.274209 0.178195
0.766500 0.280264 0.190889
0.765743 0.283413 0.201932
0.763725 0.286147 0.212739
0.769152 0.296876 0.222080
0.775076 0.308139 0.231325
0.058020 0.057264 0.106833
0.058346 0.058240 0.107484
0.058736 0.059135 0.108074
0.060104 0.058810 0.107749
0.061593 0.058736 0.107464
0.063936 0.060429 0.107464
0.068746 0.064453 0.106512
0.084239 0.078580 0.101434
0.103786 0.091193 0.094761
0.135489 0.099265 0.083304
0.176002 0.110796 0.075121
0.235894 0.129936 0.074145
0.297299 0.148196 0.073779
0.361228 0.164992 0.074430
0.423846 0.182671 0.078470
0.484779 0.201484 0.086868
0.534613 0.218638 0.095624
0.573348 0.234132 0.104738
0.606187 0.243547 0.110776
0.634440 0.248234 0.114421
0.662490 0.256299 0.122095
0.690418 0.266389 0.132186
0.710737 0.271422 0.142992
0.727598 0.274156 0.154124
0.740895 0.277867 0.164719
0.753004 0.281903 0.175135
0.762362 0.288373 0.189360
0.771085 0.295403 0.204463
0.770694 0.297763 0.214895
0.769002 0.299456 0.224660
0.776464 0.312195 0.235707
0.784536 0.325671 0.246839
0.056002 0.065336 0.110869
0.057369 0.069437 0.113604
0.058606 0.073197 0.116081
0.057890 0.071830 0.114714
0.057687 0.070715 0.113518
0.061072 0.071366 0.113518
0.066337 0.074544 0.113152
0.079747 0.088670 0.111199
0.095648 0.101283 0.107391
0.119019 0.109356 0.098016
0.163242 0.121863 0.090290
0.253341 0.144127 0.086188
0.332844 0.165122 0.084650
0.394689 0.184001 0.087385
0.453857 0.203763 0.093052
0.509582 0.224660 0.102492
0.554208 0.241814 0.110206
0.587735 0.255225 0.116195
0.618295 0.264900 0.123796
0.646549 0.271670 0.132649
0.673948 0.280516 0.142276
0.700834 0.290606 0.152367
0.717963 0.292775 0.161025
0.730658 0.291343 0.169032
0.742913 0.294012 0.179627
0.755022 0.298048 0.191085
0.766072 0.307056 0.208043
0.776879 0.317212 0.226271
0.777660 0.319051 0.236183
0.777009 0.319702 0.244906
0.784536 0.330423 0.252958
0.792609 0.341816 0.260966
0.057011 0.074165 0.119446
0.058639 0.079048 0.123092
0.060063 0.083548 0.126432
0.058435 0.082311 0.125195
0.057565 0.081229 0.124064
0.061991 0.081229 0.123674
0.067639 0.083731 0.123137
0.078576 0.097076 0.121965
0.091710 0.109396 0.118775
0.111435 0.118641 0.109531
0.158075 0.132808 0.101405
0.263928 0.157806 0.095742
0.356304 0.181584 0.092983
0.426222 0.203328 0.095066
0.487139 0.224587 0.100311
0.536485 0.245224 0.109620
0.576684 0.261596 0.116488
0.607737 0.273705 0.120915
0.636556 0.283982 0.129004
0.663637 0.292836 0.139941
0.688970 0.301730 0.150104
0.713252 0.310649 0.159804
0.728314 0.311467 0.166998
0.739186 0.308602 0.173052
0.750400 0.310914 0.183061
0.761727 0.314950 0.194389
0.773689 0.324910 0.213227
0.785798 0.336237 0.233798
0.787995 0.339362 0.244459
0.788776 0.341315 0.253703
0.794928 0.348700 0.258126
0.801438 0.356447 0.262227
0.063066 0.084256 0.135591
0.063652 0.086013 0.138195
0.064164 0.087714 0.140689
0.063578 0.088560 0.141536
0.063749 0.089301 0.142097
0.069218 0.089301 0.140665
0.075125 0.091413 0.138696
0.082937 0.102675 0.134399
0.094769 0.114214 0.128084
0.118661 0.126583 0.115715
0.165561 0.143550 0.105767
0.263081 0.170631 0.101145
0.359625 0.197273 0.097084
0.454540 0.223183 0.093960
0.525874 0.244963 0.095363
0.566887 0.261433 0.102589
0.603961 0.275723 0.108937
0.637097 0.287831 0.114405
0.665070 0.299281 0.121192
0.689026 0.310218 0.129004
0.709932 0.317940 0.137345
0.729006 0.323734 0.146003
0.743873 0.325724 0.152871
0.756828 0.325984 0.158925
0.767000 0.329076 0.167372
0.776244 0.333113 0.176616
0.787816 0.341380 0.195910
0.799924 0.350625 0.217523
0.803944 0.358046 0.231048
0.806809 0.365207 0.243417
0.809185 0.367058 0.243153
0.811528 0.368555 0.242046
0.074417 0.096995 0.150853
0.073962 0.096995 0.152871
0.073620 0.097121 0.154861
0.074987 0.099139 0.156423
0.076655 0.100848 0.157538
0.080431 0.100392 0.155520
0.084720 0.101829 0.152659
0.091230 0.111463 0.146149
0.102899 0.122335 0.137963
0.130045 0.136917 0.124748
0.176580 0.155487 0.113974
0.265767 0.182829 0.108571
0.362546 0.210684 0.102923
0.471979 0.239393 0.096869
0.551023 0.261324 0.094517
0.590994 0.274539 0.096926
0.627678 0.288568 0.101385
0.661074 0.303411 0.107895
0.686890 0.315434 0.113892
0.706811 0.325264 0.119491
0.724372 0.332043 0.126636
0.740517 0.336990 0.134708
0.754961 0.340550 0.142333
0.768632 0.343480 0.149754
0.779471 0.348265 0.158689
0.789366 0.353668 0.168129
0.799949 0.360129 0.186455
0.810690 0.366834 0.206831
0.815166 0.374508 0.220941
0.818746 0.382320 0.234157
0.819825 0.382198 0.231626
0.820736 0.381547 0.228045
0.092580 0.113140 0.164980
0.091083 0.113140 0.166998
0.089960 0.113266 0.168922
0.094452 0.115284 0.169443
0.098203 0.116863 0.169647
0.096771 0.115365 0.167628
0.097023 0.115760 0.164573
0.104575 0.124353 0.157021
0.117546 0.134704 0.148574
0.146776 0.150328 0.137442
0.192139 0.168963 0.127124
0.272993 0.194222 0.118596
0.364955 0.221165 0.110995
0.475429 0.250916 0.104941
0.558704 0.272521 0.098944
0.607009 0.283653 0.093020
0.646817 0.299765 0.093834
0.678130 0.320858 0.101385
0.700106 0.332685 0.107252
0.714818 0.337307 0.111809
0.730426 0.343435 0.118563
0.746571 0.350466 0.126636
0.760299 0.356109 0.136409
0.772928 0.361122 0.146955
0.786632 0.368771 0.159015
0.800693 0.377299 0.171579
0.809518 0.381807 0.187106
0.817135 0.385388 0.203315
0.820309 0.388114 0.215082
0.822848 0.390718 0.226214
0.825814 0.393200 0.224530
0.828808 0.395674 0.221991
0.118816 0.141393 0.188188
0.117839 0.141393 0.189685
0.117172 0.141487 0.191089
0.121143 0.142984 0.191089
0.124374 0.144172 0.190967
0.122421 0.143196 0.189990
0.122543 0.143525 0.187586
0.131657 0.149514 0.178992
0.148273 0.158303 0.170285
0.187398 0.175489 0.161236
0.240866 0.194547 0.150397
0.325887 0.217723 0.135620
0.414984 0.242778 0.124113
0.510876 0.270967 0.118059
0.585721 0.292604 0.111150
0.633504 0.305819 0.103143
0.671230 0.323494 0.103957
0.698897 0.345628 0.113591
0.718106 0.357033 0.119784
0.730735 0.360092 0.123299
0.745236 0.366285 0.130639
0.760860 0.374358 0.140274
0.774784 0.381759 0.152326
0.787934 0.388854 0.165476
0.802158 0.398196 0.179749
0.816740 0.408287 0.194397
0.824394 0.413088 0.208198
0.830448 0.416668 0.221804
0.832515 0.416205 0.230055
0.834012 0.415163 0.237542
0.839355 0.422300 0.240024
0.844953 0.429981 0.242172
0.153123 0.181755 0.220477
0.154230 0.181755 0.220933
0.155255 0.181784 0.221360
0.155060 0.182239 0.221360
0.155166 0.182776 0.221499
0.157379 0.183883 0.222605
0.161277 0.185124 0.221698
0.172474 0.186947 0.212063
0.195080 0.193131 0.203096
0.251913 0.212401 0.196130
0.322762 0.232240 0.183794
0.424448 0.253333 0.159641
0.512634 0.275524 0.142276
0.578320 0.299545 0.136222
0.632072 0.321574 0.131136
0.670481 0.341039 0.127295
0.700915 0.359755 0.131754
0.723375 0.377722 0.144514
0.740891 0.388476 0.151488
0.754562 0.393619 0.153961
0.768802 0.400593 0.162864
0.783385 0.408665 0.175624
0.798415 0.417498 0.190084
0.813648 0.426678 0.205317
0.826050 0.436540 0.220892
0.837507 0.446631 0.236582
0.844575 0.453971 0.249732
0.850629 0.460676 0.262296
0.851785 0.458780 0.265860
0.852240 0.455655 0.268139
0.860447 0.469497 0.278107
0.869170 0.484470 0.288588
0.194242 0.224387 0.257308
0.196846 0.225559 0.258480
0.199125 0.226621 0.259541
0.196521 0.226035 0.258956
0.194893 0.225628 0.258549
0.200101 0.226475 0.259395
0.208031 0.228151 0.259179
0.227756 0.233424 0.254362
0.260013 0.241545 0.248503
0.329866 0.258211 0.239519
0.409381 0.273778 0.222316
0.510156 0.286928 0.187032
0.590839 0.303911 0.162709
0.638037 0.327282 0.156655
0.676775 0.349628 0.153905
0.704638 0.370655 0.155402
0.728074 0.389534 0.162628
0.747083 0.406265 0.175583
0.764335 0.419956 0.185022
0.780219 0.431283 0.191728
0.793907 0.440210 0.201240
0.806276 0.447697 0.212438
0.820032 0.456168 0.226633
0.834419 0.465087 0.242192
0.845144 0.473126 0.257312
0.854649 0.480873 0.272285
0.860874 0.489361 0.286835
0.866343 0.498019 0.301287
0.867026 0.497620 0.304631
0.867026 0.495928 0.306389
0.874838 0.510103 0.318095
0.883171 0.525337 0.330464
0.240658 0.268786 0.297670
0.244304 0.272041 0.300925
0.247494 0.274991 0.303875
0.243848 0.273363 0.302247
0.241570 0.271784 0.300668
0.248861 0.270547 0.299431
0.261022 0.272289 0.299281
0.294289 0.286936 0.303838
0.339045 0.300526 0.303708
0.418272 0.310942 0.289516
0.499675 0.318306 0.264827
0.585867 0.318957 0.217043
0.653921 0.328910 0.184908
0.691744 0.354364 0.178854
0.720197 0.376970 0.178838
0.736602 0.395914 0.186585
0.753268 0.414272 0.195894
0.770194 0.432044 0.206766
0.788292 0.451464 0.219981
0.807301 0.472166 0.235019
0.820207 0.483957 0.244402
0.829451 0.490402 0.250391
0.840083 0.497116 0.262243
0.851345 0.503951 0.276760
0.860508 0.508346 0.290057
0.868971 0.511926 0.302947
0.874155 0.520479 0.320491
0.878581 0.530178 0.339110
0.879135 0.533555 0.345709
0.879135 0.536029 0.350592
0.884017 0.545583 0.359564
0.889225 0.555608 0.368808
0.318608 0.330842 0.336770
0.320040 0.331623 0.338854
0.321334 0.332474 0.340884
0.320552 0.334362 0.342121
0.320634 0.335680 0.342869
0.326753 0.333011 0.340200
0.338671 0.333637 0.339057
0.375712 0.348545 0.344525
0.420436 0.360442 0.344265
0.488205 0.363307 0.326818
0.559616 0.362184 0.298630
0.639038 0.352289 0.246810
0.700077 0.354233 0.212885
0.730479 0.375912 0.208784
0.754586 0.398331 0.212885
0.770601 0.421701 0.227533
0.786030 0.443770 0.240227
0.800872 0.464537 0.250969
0.817619 0.485414 0.264786
0.835847 0.506376 0.280996
0.846507 0.518428 0.290818
0.852627 0.525133 0.296807
0.860134 0.532734 0.308838
0.868271 0.540741 0.323616
0.874895 0.544256 0.334439
0.881015 0.546274 0.343944
0.884912 0.552736 0.357362
0.888298 0.560222 0.371684
0.889290 0.565829 0.380481
0.889941 0.571167 0.388488
0.892545 0.576017 0.395336
0.895280 0.580834 0.402106
0.415476 0.403494 0.375114
0.412742 0.399067 0.374073
0.410455 0.395426 0.373499
0.414882 0.403563 0.379944
0.419130 0.410219 0.385119
0.422125 0.406509 0.381409
0.431113 0.405313 0.378638
0.466071 0.415012 0.379940
0.503243 0.420920 0.376034
0.547056 0.415452 0.356504
0.601345 0.405671 0.327209
0.678684 0.386401 0.276431
0.736078 0.379753 0.244328
0.760230 0.394140 0.243352
0.783556 0.416103 0.252401
0.805820 0.447807 0.274340
0.823332 0.476125 0.291200
0.836091 0.501058 0.302984
0.850169 0.520828 0.315499
0.865273 0.536583 0.328584
0.872808 0.547332 0.339187
0.875802 0.555079 0.348301
0.880184 0.565153 0.362025
0.885197 0.576285 0.377844
0.888696 0.580582 0.385803
0.891691 0.582600 0.391141
0.894157 0.585676 0.396162
0.896500 0.588996 0.401110
0.898274 0.595905 0.411469
0.899967 0.603326 0.422601
0.900683 0.603424 0.427691
0.901334 0.603033 0.432378
0.495696 0.460884 0.420395
0.493808 0.457694 0.419093
0.492237 0.455065 0.418198
0.495427 0.460859 0.423406
0.498650 0.465693 0.427638
0.502100 0.463805 0.425034
0.510396 0.463516 0.422918
0.539691 0.470156 0.422918
0.570207 0.472581 0.416978
0.604384 0.462361 0.393216
0.649385 0.447725 0.360666
0.718195 0.423378 0.308781
0.768990 0.414313 0.277428
0.789757 0.430718 0.280292
0.811093 0.453076 0.291872
0.833162 0.483087 0.314657
0.849893 0.509420 0.332820
0.861285 0.532074 0.346360
0.872202 0.549529 0.359498
0.882748 0.562940 0.372323
0.887964 0.573462 0.383439
0.889982 0.582250 0.393529
0.893388 0.592829 0.406798
0.897424 0.604222 0.421510
0.899409 0.608046 0.428216
0.900711 0.609348 0.432252
0.902013 0.611814 0.435230
0.903315 0.614548 0.437964
0.905870 0.621953 0.448274
0.908605 0.630026 0.459667
0.908776 0.629981 0.462820
0.908776 0.629395 0.465424
0.568347 0.511336 0.468830
0.569584 0.512313 0.468569
0.570683 0.513200 0.468390
0.569706 0.512744 0.469432
0.569544 0.512500 0.470278
0.575077 0.513737 0.469757
0.583699 0.515596 0.469334
0.605703 0.520153 0.469334
0.629969 0.520234 0.462092
0.661021 0.506889 0.433122
0.700293 0.489129 0.396341
0.757646 0.461657 0.342373
0.800498 0.452982 0.311280
0.819182 0.475637 0.318310
0.837979 0.498776 0.331322
0.856923 0.522537 0.352024
0.871571 0.543141 0.370187
0.881922 0.560588 0.385811
0.889453 0.575179 0.400446
0.894791 0.587548 0.414313
0.898054 0.598330 0.425819
0.900073 0.608160 0.435910
0.903478 0.618348 0.447746
0.907514 0.628699 0.460375
0.908719 0.631482 0.466559
0.908979 0.631743 0.470596
0.909239 0.634859 0.474420
0.909500 0.638635 0.478196
0.912836 0.646170 0.487725
0.916612 0.654243 0.498076
0.916848 0.656151 0.499211
0.916848 0.657648 0.499732
0.615268 0.546653 0.499101
0.620411 0.548671 0.499883
0.625155 0.550534 0.500664
0.623918 0.550079 0.501445
0.623398 0.549737 0.502031
0.627889 0.550193 0.501250
0.634884 0.550880 0.499883
0.652721 0.552573 0.495977
0.673081 0.550506 0.486065
0.701009 0.537160 0.458137
0.736016 0.520865 0.423130
0.786599 0.498080 0.372547
0.825024 0.491456 0.343667
0.843187 0.511767 0.350958
0.859641 0.531879 0.363889
0.873898 0.551735 0.384070
0.884900 0.569344 0.401842
0.892647 0.584708 0.417206
0.898307 0.598240 0.432313
0.902343 0.610349 0.447221
0.905118 0.620708 0.458629
0.907136 0.630017 0.467939
0.910004 0.639864 0.478636
0.913259 0.649954 0.489963
0.914659 0.653649 0.496994
0.915440 0.655211 0.502592
0.915587 0.658783 0.506921
0.915587 0.662820 0.510958
0.918435 0.668337 0.518241
0.921690 0.674066 0.525988
0.921893 0.676316 0.527204
0.921893 0.678334 0.527985
0.653612 0.576924 0.523319
0.662921 0.578942 0.525141
0.671637 0.580936 0.526964
0.671441 0.582564 0.528787
0.671572 0.583784 0.530154
0.673980 0.582157 0.528331
0.678696 0.580566 0.525141
0.693409 0.579134 0.516027
0.710644 0.574983 0.502991
0.735447 0.562680 0.478188
0.766679 0.549379 0.446956
0.812053 0.533885 0.401582
0.847224 0.529865 0.375566
0.865386 0.544968 0.381816
0.879562 0.560784 0.394160
0.888611 0.577514 0.414341
0.895446 0.593041 0.431593
0.900068 0.607363 0.445915
0.904361 0.620440 0.461152
0.908397 0.632548 0.477102
0.911172 0.642256 0.488250
0.913190 0.650524 0.496518
0.915343 0.660045 0.506173
0.917556 0.670135 0.516459
0.919476 0.675392 0.524791
0.921299 0.679038 0.532473
0.921641 0.683001 0.537193
0.921641 0.687037 0.541229
0.923578 0.689820 0.545778
0.925791 0.692424 0.550400
0.925929 0.694479 0.552398
0.925929 0.696497 0.554221
0.695235 0.598997 0.531139
0.702787 0.601015 0.532310
0.709814 0.602928 0.533482
0.708967 0.603253 0.534654
0.708691 0.603392 0.535321
0.712401 0.602220 0.532457
0.717748 0.600889 0.528872
0.730182 0.598871 0.522167
0.745139 0.594754 0.510872
0.767663 0.584338 0.485809
0.795172 0.573555 0.456554
0.833646 0.561968 0.418080
0.862917 0.559705 0.397891
0.876848 0.572986 0.408177
0.887846 0.587149 0.422792
0.895072 0.602448 0.442973
0.900280 0.616737 0.459280
0.903470 0.630017 0.471715
0.907612 0.643115 0.485760
0.912494 0.656070 0.501058
0.915587 0.667031 0.512898
0.917605 0.676796 0.522663
0.919041 0.684457 0.530325
0.920213 0.691163 0.537030
0.922019 0.696501 0.544126
0.924037 0.701383 0.551352
0.925791 0.706266 0.557362
0.927484 0.711148 0.563091
0.928721 0.712784 0.565857
0.929892 0.713956 0.568201
0.929966 0.716714 0.570239
0.929966 0.719579 0.572257
0.737615 0.619178 0.535175
0.742042 0.621196 0.535305
0.746074 0.622978 0.535435
0.744187 0.621221 0.535565
0.743259 0.619667 0.535191
0.749053 0.619536 0.531285
0.755701 0.619052 0.527635
0.766052 0.617034 0.525097
0.778926 0.613437 0.516666
0.799367 0.605104 0.490561
0.823165 0.596731 0.462869
0.854348 0.588268 0.431686
0.877109 0.587568 0.418007
0.885832 0.599807 0.433501
0.893445 0.612929 0.451045
0.899629 0.627186 0.471226
0.903795 0.640433 0.486492
0.905944 0.652672 0.496843
0.910216 0.665900 0.509391
0.916140 0.679896 0.523648
0.919623 0.692550 0.536400
0.921641 0.704398 0.548248
