其他预设/【236】赛博朋克风调色预设/【后期菌】视频调色预设/CUBE/Tokyo 07.cube
# LUT by SparkleStock. Enhanced with VOXCOLOR algorithms.
LUT_3D_SIZE 8
DOMAIN_MIN 0.000000 0.000000 0.000000
DOMAIN_MAX 0.903226 0.903226 0.903226
0.187683 0.046921 0.058651
0.191593 0.046921 0.062561
0.227667 0.051840 0.058651
0.461388 0.061678 0.046921
0.680856 0.100779 0.020433
0.775203 0.137861 0.009081
0.815438 0.162457 0.006307
0.848106 0.189449 0.000000
0.191593 0.050831 0.062561
0.191894 0.050831 0.062797
0.230348 0.052564 0.062561
0.462804 0.068742 0.053984
0.679725 0.100592 0.020246
0.777562 0.138122 0.010351
0.817302 0.163214 0.006656
0.849872 0.196525 0.000000
0.180620 0.052849 0.069498
0.182540 0.056035 0.072684
0.256937 0.064514 0.072204
0.487318 0.076350 0.060388
0.687419 0.105731 0.021442
0.787022 0.156964 0.011730
0.826595 0.185734 0.008589
0.860947 0.216718 0.002421
0.105446 0.117680 0.128780
0.104087 0.120203 0.131351
0.127767 0.129610 0.141833
0.569088 0.118311 0.078254
0.749321 0.171640 0.023542
0.818482 0.228204 0.016523
0.853994 0.261551 0.013370
0.887586 0.290224 0.010522
0.161448 0.306877 0.289345
0.167128 0.312370 0.294838
0.234901 0.284052 0.238311
0.666144 0.299488 0.066109
0.853420 0.299318 0.004170
0.888070 0.338695 0.003910
0.914175 0.364129 0.003796
0.931703 0.391027 0.005472
0.355942 0.528364 0.497588
0.364031 0.535517 0.502804
0.526317 0.528726 0.428708
0.896944 0.458345 0.019298
0.937513 0.462796 0.011930
0.963012 0.494239 0.016047
0.968672 0.508704 0.016775
0.976508 0.528368 0.019994
0.666099 0.675937 0.571501
0.671551 0.678867 0.573926
0.757438 0.673919 0.497417
0.954606 0.549346 0.029641
0.976219 0.571362 0.030019
0.993741 0.613738 0.040252
1.000000 0.643135 0.048093
1.000000 0.659382 0.053227
0.841926 0.747832 0.556365
0.838419 0.743922 0.550184
0.891544 0.726691 0.455545
0.987103 0.641630 0.055677
0.995941 0.673948 0.058749
1.000000 0.703121 0.070983
1.000000 0.730752 0.114519
1.000000 0.760612 0.205411
0.195251 0.047173 0.058903
0.195267 0.050595 0.062813
0.225649 0.051840 0.059090
0.461950 0.065035 0.050278
0.680604 0.100592 0.021377
0.775032 0.131376 0.007820
0.818466 0.165639 0.007722
0.848106 0.195276 0.002144
0.188155 0.047645 0.059392
0.192333 0.050625 0.062829
0.233693 0.056000 0.065792
0.464593 0.065845 0.050910
0.684555 0.104677 0.024535
0.781184 0.143733 0.014219
0.819554 0.167177 0.008136
0.848084 0.191526 0.001885
0.182101 0.052882 0.069531
0.181627 0.053134 0.069783
0.257662 0.064705 0.073181
0.489933 0.078075 0.061491
0.695101 0.112656 0.027627
0.785113 0.153278 0.012221
0.830485 0.195453 0.011136
0.857079 0.214216 0.002763
0.109734 0.126249 0.137601
0.107519 0.126326 0.137431
0.133905 0.135271 0.147081
0.571970 0.120363 0.078740
0.754692 0.180050 0.027803
0.820532 0.231076 0.017346
0.859816 0.271310 0.017672
0.890392 0.296887 0.013625
0.164349 0.319865 0.305234
0.163865 0.321276 0.306580
0.242650 0.298233 0.251919
0.671472 0.299787 0.066872
0.859588 0.308143 0.007577
0.895210 0.345836 0.007054
0.919105 0.372007 0.005587
0.931812 0.391021 0.005302
0.384090 0.549806 0.517146
0.364142 0.535837 0.503331
0.530844 0.534572 0.433788
0.890664 0.454335 0.017544
0.939485 0.463540 0.013553
0.963730 0.498324 0.017646
0.968929 0.510662 0.017138
0.977061 0.533018 0.020604
0.668341 0.675783 0.571037
0.670837 0.675864 0.570656
0.753637 0.662323 0.481261
0.956931 0.553285 0.030895
0.975568 0.569595 0.029368
0.993741 0.611436 0.038629
0.999663 0.641765 0.047450
0.994516 0.654171 0.048207
0.839884 0.742132 0.548406
0.842291 0.744276 0.548887
0.891107 0.726362 0.452450
0.984118 0.634920 0.054217
0.994839 0.670831 0.060651
1.000000 0.700598 0.066444
1.000000 0.731391 0.113826
0.999758 0.758002 0.197191
0.169394 0.052344 0.070003
0.182325 0.052564 0.069751
0.214452 0.056564 0.069238
0.445284 0.070674 0.063359
0.664732 0.095725 0.030385
0.765023 0.145429 0.012577
0.812342 0.175701 0.008520
0.842357 0.208373 0.002877
0.172800 0.055278 0.072464
0.169628 0.052155 0.069342
0.216230 0.057825 0.070934
0.450092 0.075451 0.067004
0.667280 0.103326 0.039681
0.768699 0.147082 0.017579
0.813807 0.179538 0.011291
0.846080 0.203746 0.003878
0.150287 0.059282 0.081290
0.154230 0.062533 0.084321
0.229059 0.064102 0.078299
0.472331 0.079191 0.070666
0.680435 0.111918 0.040720
0.777776 0.164896 0.016404
0.822320 0.198774 0.013504
0.855006 0.219538 0.007620
0.097723 0.137426 0.151398
0.098796 0.135472 0.151629
0.118242 0.144765 0.160195
0.534665 0.121858 0.101576
0.735194 0.175725 0.053052
0.809038 0.233255 0.032922
0.858919 0.282986 0.026850
0.885249 0.303522 0.018686
0.144799 0.340660 0.338634
0.145958 0.341574 0.342945
0.170843 0.352688 0.345791
0.596678 0.311173 0.122356
0.865785 0.316606 0.008064
0.899369 0.351757 0.008399
0.924541 0.378664 0.009693
0.934950 0.394099 0.007613
0.342397 0.551971 0.541412
0.329468 0.543945 0.533375
0.383193 0.561403 0.535086
0.862198 0.494843 0.076558
0.940151 0.467594 0.013900
0.964005 0.499850 0.015356
0.969870 0.518147 0.018495
0.976740 0.537564 0.020889
0.657681 0.678781 0.584700
0.659614 0.678766 0.584644
0.692610 0.693383 0.585903
0.940929 0.597818 0.094280
0.976878 0.573883 0.030528
0.992278 0.616359 0.038218
0.992962 0.643174 0.041282
0.990566 0.658181 0.048471
0.837035 0.753659 0.571472
0.835667 0.752410 0.572110
0.851592 0.747059 0.545808
0.978415 0.664302 0.144406
0.994336 0.679956 0.072583
0.999844 0.710747 0.080177
0.992334 0.732960 0.120179
0.992064 0.758598 0.219439
0.076688 0.089805 0.130420
0.076891 0.090009 0.130623
0.085672 0.092552 0.133923
0.320943 0.081420 0.116777
0.548223 0.097361 0.119186
0.691578 0.120447 0.090017
0.751026 0.165317 0.073787
0.788499 0.200134 0.053606
0.080346 0.090562 0.134126
0.077648 0.090814 0.134201
0.087333 0.094466 0.138675
0.313261 0.086385 0.121703
0.552029 0.100692 0.122861
0.696342 0.125717 0.090451
0.758098 0.172310 0.082084
0.791898 0.207009 0.058271
0.076086 0.098899 0.139595
0.076312 0.100475 0.141325
0.095575 0.109256 0.151600
0.340573 0.102591 0.141332
0.566721 0.110785 0.134501
0.706894 0.136205 0.101036
0.762277 0.183581 0.092892
0.796770 0.219869 0.076707
0.046270 0.246245 0.295961
0.043347 0.238246 0.290968
0.056375 0.254635 0.310481
0.313161 0.196250 0.259439
0.626635 0.159771 0.169101
0.737537 0.210253 0.147662
0.804207 0.277249 0.132837
0.851334 0.319790 0.104187
0.068672 0.452738 0.522098
0.065019 0.454492 0.523803
0.074421 0.472284 0.544170
0.157244 0.500275 0.558021
0.803911 0.357289 0.140912
0.886924 0.401039 0.086221
0.926372 0.429311 0.070222
0.944396 0.426663 0.036158
0.243205 0.612131 0.644413
0.224729 0.604098 0.640665
0.256719 0.617702 0.648030
0.448436 0.652514 0.628998
0.943202 0.522097 0.081965
0.967660 0.525252 0.020695
0.975901 0.547094 0.021694
0.982485 0.570040 0.023318
0.517207 0.710583 0.687712
0.525768 0.717452 0.694019
0.549678 0.721770 0.691624
0.749884 0.750099 0.644096
0.982854 0.619855 0.087252
0.991754 0.641779 0.047055
0.989995 0.669633 0.052491
0.987817 0.684730 0.061032
0.691773 0.796824 0.731398
0.697392 0.800303 0.734065
0.721847 0.800714 0.725116
0.910310 0.774560 0.551153
0.991313 0.712159 0.181697
0.997308 0.751263 0.234960
0.991440 0.771280 0.315459
0.990028 0.803509 0.454986
0.047678 0.162583 0.258821
0.046734 0.156016 0.252124
0.049061 0.157046 0.256461
0.103834 0.164052 0.265632
0.304062 0.167360 0.293996
0.518700 0.151882 0.259505
0.620643 0.149958 0.248165
0.687948 0.163234 0.236069
0.047678 0.157798 0.252149
0.050090 0.158030 0.252742
0.049394 0.173541 0.280560
0.109941 0.175257 0.278952
0.319977 0.171289 0.291796
0.524399 0.155258 0.263688
0.625519 0.148954 0.245271
0.693082 0.168558 0.240428
0.037221 0.191479 0.302231
0.037400 0.189421 0.297764
0.038573 0.204037 0.323306
0.103454 0.199788 0.318616
0.330302 0.198648 0.334103
0.531903 0.163759 0.277105
0.638879 0.169748 0.265520
0.703385 0.185976 0.256358
0.004048 0.351939 0.514794
0.004907 0.357707 0.527214
0.007654 0.367387 0.539340
0.017362 0.408026 0.596035
0.358559 0.291345 0.442800
0.587578 0.272775 0.384161
0.695310 0.290872 0.367594
0.759557 0.325316 0.361146
0.032408 0.548528 0.679941
0.031432 0.551858 0.680352
0.035211 0.560245 0.686574
0.065695 0.583209 0.706905
0.324923 0.571250 0.667873
0.746550 0.479616 0.466442
0.831493 0.502207 0.432248
0.876712 0.535229 0.426427
0.145885 0.657323 0.724278
0.147371 0.653369 0.722611
0.158825 0.662553 0.727594
0.286528 0.692090 0.746245
0.536226 0.737382 0.734935
0.961806 0.586203 0.164015
0.981281 0.589516 0.071178
0.985337 0.605013 0.050974
0.415151 0.733266 0.746384
0.406386 0.730241 0.744443
0.440373 0.738706 0.748552
0.565992 0.770960 0.760091
0.811080 0.801970 0.707128
0.987324 0.700417 0.199666
0.989247 0.709799 0.164466
0.986637 0.727508 0.220883
0.629871 0.800246 0.769750
0.629295 0.800161 0.769246
0.641290 0.802740 0.770062
0.728814 0.825312 0.771911
0.928906 0.823971 0.659144
0.990957 0.797073 0.469472
0.989578 0.819895 0.540032
0.986442 0.837403 0.609912
0.005298 0.243181 0.445874
0.002820 0.241720 0.441891
0.002307 0.253540 0.465168
0.017195 0.274148 0.503512
0.073966 0.293926 0.530296
0.178903 0.306255 0.547613
0.379028 0.295977 0.512984
0.507743 0.294956 0.499667
0.005298 0.239450 0.438269
0.005286 0.243184 0.445885
0.002307 0.251164 0.460313
0.016299 0.270585 0.501270
0.078260 0.291765 0.527650
0.193314 0.298016 0.538113
0.374269 0.299808 0.518790
0.505705 0.296440 0.499809
0.000163 0.277310 0.492795
0.000010 0.273606 0.485188
0.000711 0.284939 0.509092
0.013131 0.306970 0.545673
0.085027 0.308959 0.550159
0.221353 0.327437 0.563953
0.381557 0.327197 0.547392
0.515941 0.324469 0.529294
0.007442 0.408144 0.636963
0.006872 0.402512 0.634222
0.007943 0.411900 0.640205
0.019566 0.448656 0.673097
0.132666 0.408193 0.632291
0.316001 0.459828 0.650063
0.452661 0.478531 0.651266
0.565456 0.476028 0.638552
0.045533 0.558350 0.728933
0.043987 0.558636 0.727320
0.056159 0.566798 0.735010
0.110110 0.605778 0.757330
0.246301 0.636081 0.775562
0.480308 0.634493 0.742436
0.657196 0.636289 0.716134
0.743802 0.645025 0.702374
0.169773 0.684612 0.783470
0.163616 0.680201 0.778640
0.186121 0.688943 0.782993
0.289565 0.720760 0.801380
0.418760 0.759679 0.818063
0.625701 0.779113 0.797124
0.870610 0.729479 0.667706
0.925911 0.728799 0.617469
0.357643 0.752719 0.796140
0.362284 0.752109 0.791466
0.372587 0.757349 0.793459
0.474371 0.782172 0.804763
0.630698 0.818901 0.814510
0.858289 0.827954 0.749872
0.988649 0.776298 0.500138
0.985878 0.778511 0.495035
0.559319 0.798594 0.793427
0.559368 0.801198 0.795762
0.567898 0.801331 0.794867
0.664094 0.828977 0.807490
0.798952 0.860851 0.807469
0.942633 0.856086 0.719613
0.982342 0.849235 0.665436
0.984680 0.858771 0.679447
0.000000 0.302589 0.578438
0.000000 0.302280 0.578129
0.002018 0.302027 0.581087
0.010554 0.336311 0.623597
0.051852 0.302361 0.577819
0.128686 0.329219 0.601805
0.243820 0.376042 0.630782
0.325366 0.408844 0.650133
0.000000 0.297796 0.573645
0.001507 0.299549 0.574133
0.001514 0.307490 0.584288
0.010351 0.336364 0.626630
0.049500 0.302719 0.578317
0.130854 0.331137 0.603659
0.247615 0.376997 0.628797
0.338786 0.414427 0.653257
0.000505 0.318355 0.596796
0.000687 0.313493 0.589969
0.004375 0.331584 0.612527
0.012525 0.358491 0.643842
0.056415 0.316543 0.595617
0.166306 0.351975 0.618779
0.276233 0.399497 0.646017
0.351104 0.432279 0.663426
0.013537 0.425648 0.680808
0.014983 0.427539 0.681293
0.014334 0.432047 0.686374
0.026949 0.464705 0.709688
0.114619 0.431829 0.684298
0.295409 0.470125 0.689478
0.401905 0.524002 0.713490
0.473436 0.572162 0.739121
0.071000 0.575512 0.762830
0.065485 0.569452 0.759416
0.078362 0.581172 0.766030
0.134023 0.614095 0.789089
0.275116 0.657405 0.812772
0.465254 0.654735 0.789663
0.527926 0.681421 0.792322
0.573793 0.701842 0.797532
0.203808 0.691118 0.808452
0.202906 0.691075 0.808627
0.219365 0.697553 0.812332
0.310690 0.726816 0.828114
0.418405 0.763663 0.847809
0.528926 0.793415 0.854323
0.712556 0.787099 0.806114
0.828110 0.788783 0.775259
0.344355 0.766121 0.828637
0.344626 0.765986 0.827695
0.358484 0.770824 0.832989
0.434363 0.795456 0.842910
0.535261 0.824336 0.859577
0.711802 0.849317 0.844553
0.937553 0.840794 0.739225
0.985931 0.821937 0.664892
0.476597 0.812139 0.833528
0.471447 0.806347 0.826823
0.487349 0.812063 0.831635
0.564519 0.831315 0.845073
0.725939 0.876287 0.864022
0.833540 0.881706 0.839477
0.962540 0.871697 0.750659
0.977096 0.873870 0.744063
0.003910 0.320247 0.624476
0.005562 0.323185 0.625761
0.004415 0.325996 0.630778
0.009334 0.350319 0.655341
0.041546 0.319568 0.626067
0.145857 0.342251 0.638973
0.239784 0.380851 0.659056
0.333955 0.425441 0.681361
0.005676 0.319983 0.626217
0.004146 0.318372 0.622853
0.005694 0.329095 0.634100
0.010951 0.352375 0.658133
0.043910 0.318954 0.624485
0.143969 0.341246 0.639066
0.239953 0.381420 0.658396
0.329951 0.422561 0.681348
0.006282 0.337076 0.642260
0.006098 0.337702 0.642187
0.007885 0.346873 0.653541
0.011302 0.370930 0.670077
0.059325 0.331855 0.639534
0.171577 0.358943 0.650668
0.270116 0.400186 0.670826
0.355821 0.444283 0.694511
0.016523 0.430722 0.703723
0.016348 0.432415 0.704807
0.019177 0.443014 0.713716
0.034213 0.482250 0.741369
0.144972 0.479354 0.739193
0.302055 0.475232 0.716118
0.405007 0.526321 0.739164
0.465572 0.569879 0.758009
0.086925 0.584968 0.792910
0.085299 0.582771 0.788737
0.099206 0.594968 0.797030
0.160901 0.627767 0.816849
0.295935 0.673007 0.840420
0.461929 0.672213 0.824358
0.528717 0.692877 0.824447
0.565210 0.718075 0.830746
0.229355 0.696114 0.832653
0.227850 0.695992 0.831705
0.245983 0.702018 0.836978
0.333917 0.733511 0.853404
0.439353 0.773777 0.874895
0.530310 0.807875 0.889759
0.618790 0.816713 0.884530
0.684024 0.824114 0.874870
0.360390 0.769401 0.855044
0.358292 0.768640 0.852095
0.370998 0.772624 0.854884
0.441951 0.800191 0.871070
0.524749 0.832907 0.889853
0.619658 0.866763 0.907321
0.801305 0.874948 0.866135
0.904286 0.856438 0.816219
0.445793 0.814303 0.860805
0.438466 0.812665 0.861064
0.454246 0.817232 0.864455
0.520554 0.839887 0.878117
0.657975 0.878091 0.894363
0.772549 0.902173 0.899941
0.886339 0.894874 0.852785
0.947335 0.888918 0.816496
