其他预设/【236】赛博朋克风调色预设/【后期菌】视频调色预设/CUBE/Tokyo 06_S.cube
# LUT by SparkleStock. Enhanced with VOXCOLOR algorithms.
LUT_3D_SIZE 5
DOMAIN_MIN 0.000000 0.000000 0.000000
DOMAIN_MAX 0.903226 0.903226 0.903226
0.097752 0.039101 0.066471
0.107338 0.043011 0.070381
0.467569 0.062183 0.053858
0.762716 0.174187 0.016902
0.842052 0.247343 0.011730
0.098382 0.045407 0.072778
0.126953 0.054651 0.068912
0.489532 0.112835 0.047010
0.753382 0.200036 0.012361
0.853982 0.260241 0.014127
0.120960 0.167502 0.156529
0.131685 0.182833 0.154995
0.648282 0.282168 0.027151
0.821306 0.350722 0.006937
0.912035 0.356911 0.009964
0.382052 0.486488 0.388358
0.451322 0.483083 0.345624
0.898795 0.487432 0.015608
0.961193 0.535403 0.018289
0.977419 0.560116 0.025161
0.750355 0.682370 0.423044
0.804815 0.688908 0.388033
0.980272 0.654601 0.048394
0.993259 0.694100 0.048056
0.997942 0.726557 0.057133
0.095986 0.045407 0.075174
0.109437 0.048390 0.079426
0.463984 0.054904 0.084960
0.747352 0.145051 0.053362
0.839656 0.246660 0.016271
0.089093 0.049317 0.079967
0.139377 0.085239 0.108849
0.479750 0.148841 0.144347
0.732223 0.206320 0.120469
0.858551 0.256087 0.060775
0.118454 0.187736 0.172763
0.149730 0.241502 0.190413
0.600536 0.332690 0.129858
0.783875 0.393285 0.118175
0.913247 0.391319 0.075666
0.384456 0.502271 0.416864
0.415154 0.511396 0.417222
0.841809 0.528374 0.059481
0.916057 0.564105 0.065842
0.962593 0.594085 0.081456
0.749671 0.681739 0.425945
0.774646 0.688250 0.419496
0.980272 0.652965 0.049228
0.991055 0.697774 0.053312
0.981851 0.745993 0.077998
0.056885 0.096112 0.154385
0.056885 0.096653 0.154926
0.250183 0.093077 0.200329
0.641125 0.113254 0.198392
0.755164 0.191130 0.145975
0.056885 0.103070 0.161973
0.086917 0.128351 0.207932
0.338043 0.165094 0.297329
0.665833 0.174458 0.290887
0.783484 0.211930 0.203097
0.013488 0.391890 0.484104
0.041965 0.417140 0.508626
0.336687 0.390310 0.457703
0.733621 0.397319 0.375416
0.882494 0.454220 0.378984
0.239653 0.618596 0.647212
0.241350 0.616385 0.646490
0.551320 0.683932 0.611194
0.891032 0.611762 0.167451
0.953789 0.642690 0.222885
0.537339 0.753528 0.712178
0.553126 0.758838 0.717893
0.887075 0.793798 0.576109
0.954106 0.768343 0.220413
0.964338 0.821826 0.401581
0.003153 0.238893 0.426197
0.002767 0.242904 0.440788
0.033518 0.236940 0.451664
0.236191 0.293943 0.537002
0.561943 0.282127 0.502792
0.002767 0.245997 0.443416
0.002704 0.252832 0.456722
0.072058 0.256912 0.504533
0.294756 0.302844 0.564460
0.581457 0.294810 0.524781
0.015372 0.465363 0.672487
0.020014 0.469232 0.672703
0.120866 0.534203 0.724108
0.566088 0.549671 0.703328
0.787358 0.536037 0.682719
0.206375 0.695614 0.775378
0.218140 0.697887 0.782497
0.442968 0.769828 0.823685
0.800154 0.789237 0.765477
0.936052 0.741104 0.670558
0.508630 0.781794 0.786274
0.509571 0.781005 0.784821
0.698818 0.850350 0.826296
0.906069 0.869767 0.744698
0.966478 0.871250 0.679790
0.000000 0.302841 0.589664
0.000000 0.299814 0.587572
0.012613 0.317285 0.620041
0.181950 0.345412 0.628955
0.411985 0.434058 0.679424
0.001314 0.313595 0.602435
0.002970 0.318688 0.610633
0.015995 0.329488 0.633045
0.200269 0.355931 0.637665
0.431064 0.447299 0.688129
0.033087 0.503789 0.746990
0.035777 0.507951 0.747824
0.189315 0.587055 0.796506
0.551073 0.628900 0.788296
0.674389 0.685022 0.828191
0.318201 0.725320 0.841580
0.334003 0.729187 0.844014
0.529064 0.805875 0.883955
0.684819 0.870704 0.917443
0.859703 0.826142 0.876095
0.467455 0.810983 0.855719
0.482075 0.815627 0.860235
0.661372 0.873134 0.887532
0.834632 0.908100 0.897379
0.942819 0.891406 0.831947
