其他预设/【236】赛博朋克风调色预设/【后期菌】视频调色预设/CUBE/Tokyo 05.cube
# LUT by SparkleStock. Enhanced with VOXCOLOR algorithms.
LUT_3D_SIZE 8
DOMAIN_MIN 0.000000 0.000000 0.000000
DOMAIN_MAX 0.903226 0.903226 0.903226
0.144673 0.058651 0.039101
0.144673 0.058651 0.043011
0.165863 0.063570 0.039101
0.301832 0.096743 0.034434
0.503894 0.167376 0.043011
0.599250 0.214802 0.050705
0.650333 0.246082 0.056255
0.697380 0.282912 0.068237
0.148583 0.062561 0.043011
0.148363 0.062325 0.043263
0.165610 0.063603 0.039353
0.310157 0.104815 0.042303
0.506364 0.170220 0.046986
0.604681 0.218891 0.053695
0.654593 0.248926 0.060515
0.699032 0.284564 0.069889
0.134834 0.059660 0.046038
0.146312 0.063570 0.049411
0.179908 0.072220 0.048679
0.345587 0.118156 0.045700
0.519775 0.178223 0.049069
0.619052 0.229937 0.060417
0.669045 0.265368 0.066711
0.710672 0.300343 0.077571
0.129537 0.092076 0.085895
0.135843 0.093036 0.086652
0.155308 0.101983 0.090436
0.470856 0.174647 0.062459
0.589147 0.225970 0.064774
0.663483 0.277127 0.079117
0.707096 0.309567 0.089761
0.738299 0.342084 0.108453
0.247217 0.193485 0.168890
0.255676 0.198034 0.171791
0.280850 0.196028 0.154364
0.546222 0.252983 0.088947
0.693461 0.308904 0.069751
0.741705 0.361944 0.091392
0.780134 0.401614 0.114539
0.804233 0.433330 0.139493
0.496705 0.446252 0.381421
0.500326 0.449279 0.383268
0.546685 0.434648 0.344143
0.743552 0.396447 0.138618
0.796970 0.452990 0.170151
0.851764 0.514392 0.212462
0.877654 0.548720 0.249915
0.900138 0.584118 0.284056
0.679595 0.581213 0.471100
0.684193 0.584142 0.472361
0.720209 0.579724 0.440096
0.832259 0.523066 0.258357
0.883903 0.588012 0.305376
0.914199 0.637972 0.357078
0.930344 0.670803 0.394404
0.940182 0.687289 0.412901
0.795384 0.642260 0.489515
0.792356 0.638843 0.483563
0.826786 0.626042 0.433468
0.893424 0.628333 0.370899
0.922272 0.679974 0.421986
0.942514 0.719640 0.463341
0.956705 0.747002 0.502938
0.970116 0.772131 0.541477
0.148583 0.058903 0.039353
0.148347 0.062325 0.043263
0.161415 0.059660 0.039101
0.306857 0.100807 0.039255
0.508309 0.171034 0.044964
0.601557 0.215847 0.052092
0.653514 0.249321 0.059493
0.695614 0.282798 0.068237
0.144909 0.058887 0.039825
0.148156 0.062135 0.043277
0.168355 0.067039 0.042819
0.311357 0.105389 0.043788
0.514457 0.174952 0.051010
0.609235 0.223526 0.059600
0.654754 0.250405 0.060578
0.697702 0.285234 0.072233
0.142215 0.060197 0.049476
0.142274 0.060195 0.049665
0.181385 0.073290 0.049500
0.350712 0.123045 0.050906
0.535019 0.188147 0.055759
0.617801 0.230911 0.064206
0.673602 0.269945 0.071403
0.711491 0.297937 0.078468
0.135436 0.095831 0.089903
0.136286 0.096238 0.089857
0.161176 0.108269 0.096651
0.468937 0.176312 0.063893
0.599210 0.236626 0.073059
0.667513 0.281484 0.083165
0.715960 0.318336 0.098085
0.744179 0.349388 0.116701
0.258126 0.202563 0.180681
0.261832 0.205142 0.181429
0.290632 0.206909 0.165563
0.549725 0.257435 0.091788
0.701293 0.316980 0.075734
0.745984 0.364955 0.093528
0.782222 0.407247 0.119594
0.802710 0.430063 0.136142
0.504020 0.456469 0.394457
0.500554 0.449787 0.383852
0.552220 0.442713 0.349107
0.738282 0.393045 0.136136
0.798877 0.454962 0.170220
0.851166 0.513741 0.211866
0.876963 0.549168 0.246737
0.900524 0.585371 0.286554
0.681682 0.581213 0.471100
0.681281 0.582716 0.472368
0.710378 0.567980 0.428812
0.835003 0.526836 0.262716
0.882014 0.584697 0.303299
0.912828 0.635570 0.353541
0.929522 0.668606 0.390732
0.935992 0.680911 0.407206
0.793719 0.636446 0.479551
0.794015 0.638751 0.483837
0.823100 0.620417 0.429914
0.890354 0.623096 0.364512
0.922307 0.677992 0.418869
0.942485 0.716409 0.458768
0.957308 0.747588 0.501587
0.968018 0.771081 0.538776
0.130420 0.059156 0.048939
0.140636 0.062057 0.048434
0.156354 0.063066 0.047295
0.305461 0.103147 0.042197
0.495326 0.166497 0.044524
0.598835 0.217450 0.057605
0.651456 0.253398 0.064465
0.694279 0.282864 0.071569
0.136759 0.062089 0.051653
0.130861 0.058903 0.048497
0.162067 0.067928 0.048780
0.314085 0.111459 0.050509
0.505753 0.172263 0.054350
0.599007 0.218595 0.059332
0.653538 0.255757 0.068277
0.694908 0.284070 0.072517
0.126379 0.061109 0.052405
0.129256 0.063920 0.055567
0.170288 0.070303 0.051624
0.342115 0.122665 0.052482
0.525255 0.189079 0.062382
0.612341 0.233427 0.067771
0.666769 0.265010 0.071663
0.707666 0.298694 0.082702
0.134118 0.097849 0.094289
0.132100 0.098620 0.093987
0.150545 0.109809 0.103355
0.455953 0.178459 0.075959
0.585713 0.234125 0.078810
0.663287 0.285270 0.096510
0.716151 0.325674 0.112562
0.739783 0.346765 0.122924
0.255656 0.215668 0.199149
0.258752 0.218172 0.199656
0.281527 0.234228 0.209359
0.515108 0.265241 0.125767
0.704867 0.323046 0.080130
0.749018 0.369670 0.100430
0.785806 0.411735 0.124286
0.805484 0.436774 0.142337
0.505213 0.468744 0.413409
0.493995 0.456963 0.403414
0.521484 0.473356 0.410505
0.720414 0.415225 0.187554
0.800280 0.458125 0.174928
0.849264 0.514419 0.215980
0.879548 0.555838 0.256403
0.896969 0.587308 0.289573
0.673756 0.589708 0.486224
0.676468 0.588819 0.484940
0.698871 0.602338 0.494288
0.834703 0.549738 0.305837
0.882475 0.587872 0.309571
0.911093 0.638139 0.358951
0.925083 0.667083 0.391775
0.934024 0.683235 0.412565
0.797455 0.649877 0.502153
0.797645 0.649791 0.502295
0.805070 0.645626 0.487284
0.890059 0.632889 0.392974
0.923700 0.684950 0.430967
0.945456 0.725060 0.474275
0.954620 0.746940 0.503471
0.963115 0.768056 0.537568
0.089175 0.073408 0.095229
0.089582 0.073612 0.095433
0.101410 0.075748 0.092902
0.257226 0.098993 0.061361
0.440153 0.163661 0.066919
0.547906 0.213272 0.081558
0.607574 0.254195 0.097202
0.654532 0.287579 0.108599
0.093036 0.074165 0.095937
0.092639 0.074372 0.096192
0.106329 0.078069 0.097411
0.259420 0.107403 0.069801
0.449617 0.172152 0.076070
0.553468 0.219216 0.086503
0.616134 0.261743 0.104555
0.657357 0.290955 0.112316
0.089875 0.080289 0.102614
0.091246 0.081489 0.106437
0.114364 0.088786 0.106202
0.285982 0.123403 0.079718
0.470819 0.189319 0.091024
0.566119 0.234391 0.100915
0.623671 0.274171 0.116034
0.666554 0.306595 0.129928
0.116924 0.137984 0.166697
0.116749 0.136639 0.162402
0.135248 0.154181 0.181634
0.328002 0.183507 0.146881
0.532526 0.251621 0.140429
0.610717 0.302415 0.166259
0.667385 0.350769 0.194076
0.712573 0.381192 0.203867
0.266133 0.307170 0.323750
0.266295 0.304370 0.321524
0.294830 0.335766 0.350938
0.387733 0.409550 0.403294
0.664279 0.360432 0.191395
0.740858 0.405372 0.193970
0.785905 0.448552 0.217573
0.822663 0.480060 0.216966
0.505567 0.528767 0.502027
0.499328 0.520765 0.491767
0.512074 0.533793 0.506736
0.598837 0.579006 0.521383
0.817501 0.507755 0.251352
0.866038 0.545596 0.259961
0.892915 0.583112 0.294965
0.905842 0.611411 0.327537
0.641963 0.631205 0.573018
0.647887 0.636450 0.577615
0.660424 0.644499 0.583969
0.759290 0.669681 0.563941
0.896567 0.623906 0.369428
0.920586 0.667316 0.403316
0.929916 0.689782 0.429483
0.936307 0.702335 0.447719
0.747975 0.707434 0.623393
0.751223 0.711806 0.629105
0.764184 0.713322 0.624481
0.870615 0.702981 0.530291
0.930838 0.705395 0.469471
0.955480 0.746065 0.517876
0.959489 0.766709 0.544501
0.966344 0.789500 0.581806
0.093968 0.112635 0.167502
0.093903 0.109034 0.161000
0.095481 0.115292 0.170680
0.160699 0.116464 0.140156
0.285150 0.166847 0.165106
0.408173 0.234047 0.209976
0.487648 0.285309 0.239157
0.545945 0.325720 0.256221
0.093024 0.110747 0.161769
0.093162 0.110824 0.164699
0.104338 0.124279 0.177336
0.165739 0.125141 0.152502
0.299176 0.177165 0.171765
0.416287 0.238960 0.209445
0.497447 0.288221 0.236616
0.550507 0.334591 0.266073
0.103432 0.129659 0.187813
0.102000 0.127844 0.185291
0.111264 0.139434 0.198447
0.168387 0.145883 0.183533
0.311343 0.201001 0.203788
0.433425 0.262516 0.235992
0.511998 0.317390 0.272169
0.561292 0.354458 0.289803
0.177800 0.233790 0.310454
0.185448 0.241202 0.322091
0.196203 0.255501 0.336524
0.260279 0.318391 0.400136
0.372806 0.311468 0.333492
0.499061 0.383600 0.365850
0.573631 0.430713 0.386589
0.631294 0.474216 0.410575
0.375167 0.466502 0.509253
0.378513 0.469849 0.510447
0.391710 0.482852 0.522668
0.441316 0.528073 0.565614
0.519087 0.552955 0.562918
0.651308 0.531671 0.463105
0.723565 0.565495 0.471612
0.767602 0.592141 0.480683
0.515816 0.604958 0.610475
0.514857 0.603429 0.611699
0.520910 0.609276 0.614305
0.557381 0.642169 0.639188
0.663114 0.684247 0.652847
0.874253 0.600332 0.371349
0.905607 0.624578 0.372843
0.917934 0.645840 0.391415
0.621375 0.681198 0.656464
0.622679 0.677016 0.651741
0.628939 0.685156 0.659658
0.683567 0.714407 0.682568
0.822410 0.738669 0.645614
0.932460 0.704878 0.479297
0.942314 0.721191 0.487828
0.946565 0.732182 0.506793
0.727020 0.733347 0.684787
0.726619 0.734398 0.686391
0.735587 0.735988 0.687445
0.791293 0.762916 0.703907
0.914708 0.765490 0.612952
0.960545 0.771848 0.572801
0.961981 0.790546 0.598990
0.965629 0.811394 0.630729
0.131176 0.153376 0.253398
0.132446 0.151996 0.253369
0.142797 0.165915 0.274946
0.169207 0.188001 0.296734
0.224807 0.249634 0.338988
0.297967 0.328071 0.406147
0.362469 0.376278 0.435023
0.433127 0.425249 0.465111
0.129834 0.149555 0.252136
0.132475 0.152272 0.256039
0.139952 0.162021 0.269942
0.168675 0.185561 0.297965
0.226617 0.252255 0.339152
0.294819 0.324842 0.402120
0.365175 0.382397 0.441711
0.431223 0.423728 0.463601
0.151899 0.180278 0.286444
0.150558 0.177783 0.285386
0.164460 0.193226 0.306248
0.197175 0.223024 0.336461
0.249404 0.277296 0.370209
0.331506 0.360781 0.437231
0.388568 0.408682 0.469324
0.452902 0.455457 0.494310
0.257182 0.307760 0.418410
0.254784 0.305053 0.415703
0.265443 0.316597 0.426408
0.339237 0.387570 0.497383
0.364967 0.398308 0.486307
0.439332 0.470684 0.533166
0.488504 0.517796 0.561079
0.537341 0.556942 0.585996
0.444128 0.515665 0.583524
0.440293 0.511869 0.580543
0.452940 0.527850 0.592897
0.493753 0.569429 0.632568
0.549645 0.624092 0.682703
0.575255 0.624816 0.659524
0.638147 0.655993 0.663740
0.697521 0.671017 0.657323
0.543443 0.646646 0.681430
0.538668 0.640555 0.677344
0.546561 0.650815 0.684833
0.580551 0.688118 0.724080
0.630083 0.734755 0.764691
0.716685 0.755142 0.755809
0.829180 0.720903 0.641242
0.870540 0.716535 0.605002
0.597390 0.710229 0.726972
0.599259 0.710138 0.723177
0.602750 0.713545 0.727671
0.651007 0.742579 0.749848
0.748723 0.782269 0.771832
0.858478 0.778277 0.701378
0.948140 0.751063 0.559089
0.952797 0.758025 0.567278
0.694096 0.753504 0.738303
0.702616 0.757207 0.742063
0.705315 0.757839 0.743431
0.769239 0.789969 0.767705
0.848700 0.816366 0.770496
0.936457 0.806142 0.674915
0.965581 0.814472 0.649644
0.968557 0.831042 0.672733
0.193738 0.214171 0.355564
0.193526 0.215318 0.356711
0.199527 0.217759 0.363063
0.257857 0.281024 0.425526
0.273314 0.288954 0.416095
0.333743 0.352065 0.465677
0.389331 0.406781 0.503264
0.447135 0.462576 0.545066
0.186605 0.204585 0.348374
0.188843 0.208393 0.352028
0.204596 0.226099 0.370210
0.258957 0.281582 0.426645
0.271339 0.287410 0.414550
0.335279 0.350733 0.466319
0.388874 0.406265 0.501338
0.452027 0.465599 0.548444
0.210318 0.233078 0.376754
0.206783 0.229437 0.373085
0.226733 0.249834 0.394772
0.281249 0.305633 0.449849
0.295933 0.312761 0.439591
0.358671 0.375987 0.486820
0.419931 0.435131 0.527964
0.467713 0.483995 0.562734
0.318266 0.356903 0.490773
0.315334 0.353816 0.489469
0.329391 0.365840 0.500479
0.383948 0.421364 0.544126
0.424200 0.447316 0.557344
0.471873 0.492410 0.578134
0.516993 0.542418 0.614687
0.548622 0.580654 0.642132
0.482680 0.546604 0.632007
0.477865 0.541864 0.627624
0.490486 0.554721 0.639569
0.528308 0.599177 0.684070
0.580897 0.655999 0.740028
0.599518 0.652709 0.716372
0.626091 0.681760 0.732956
0.648241 0.704631 0.750108
0.569796 0.669456 0.727602
0.572040 0.670872 0.731365
0.577901 0.678487 0.737526
0.607076 0.714051 0.772199
0.652875 0.756852 0.819332
0.706936 0.788645 0.840412
0.763409 0.775501 0.784085
0.815445 0.768834 0.745703
0.612457 0.733327 0.773014
0.609703 0.731382 0.768886
0.617525 0.738144 0.778575
0.647444 0.762724 0.798285
0.719915 0.804232 0.832314
0.810606 0.824920 0.822359
0.918439 0.793945 0.690035
0.958044 0.782437 0.627597
0.668296 0.774857 0.793650
0.661534 0.770152 0.784645
0.674227 0.776359 0.791715
0.736762 0.804044 0.810784
0.830707 0.846195 0.841621
0.878118 0.848253 0.816133
0.953149 0.835587 0.716759
0.964378 0.842814 0.720946
0.233847 0.249488 0.409422
0.235133 0.249007 0.408917
0.240557 0.254936 0.416636
0.291506 0.306731 0.469477
0.305518 0.313989 0.460176
0.368291 0.375037 0.503190
0.421087 0.428907 0.539956
0.469041 0.476862 0.576757
0.233583 0.247571 0.407506
0.230096 0.246090 0.403889
0.243776 0.261440 0.419939
0.294235 0.309533 0.470440
0.305456 0.315300 0.458808
0.365980 0.372682 0.501962
0.420342 0.429432 0.540525
0.466179 0.475099 0.573756
0.252820 0.272370 0.432581
0.253869 0.272030 0.431979
0.268075 0.286364 0.447572
0.317632 0.336853 0.492454
0.328204 0.334763 0.481244
0.385585 0.393405 0.518026
0.446627 0.455298 0.560949
0.491354 0.501722 0.595625
0.351023 0.377132 0.525011
0.352586 0.378114 0.526247
0.366722 0.392993 0.537902
0.431345 0.460711 0.593852
0.486493 0.507843 0.631957
0.496590 0.514618 0.613123
0.536835 0.560932 0.648561
0.567808 0.598018 0.680382
0.510628 0.568648 0.677072
0.507758 0.563773 0.670606
0.518788 0.578565 0.685929
0.559867 0.628645 0.732851
0.607415 0.678870 0.785023
0.632710 0.688179 0.774152
0.653085 0.708302 0.780324
0.676426 0.731458 0.799224
0.593065 0.686085 0.770975
0.591507 0.684575 0.770108
0.598797 0.693448 0.778355
0.626010 0.724853 0.809783
0.681170 0.773498 0.857598
0.725390 0.809245 0.882923
0.756908 0.820380 0.877868
0.786217 0.822874 0.865531
0.630205 0.745257 0.805926
0.628668 0.743529 0.804975
0.634459 0.749560 0.809269
0.668656 0.782469 0.841979
0.736316 0.830501 0.884808
0.784397 0.858820 0.898930
0.860818 0.852498 0.847745
0.900230 0.836370 0.794646
0.665135 0.787523 0.832470
0.664603 0.786217 0.829290
0.672291 0.791212 0.834348
0.726405 0.818010 0.853489
0.807166 0.856810 0.878118
0.860480 0.872552 0.879821
0.912224 0.870185 0.833757
0.945685 0.866829 0.798603
