其他预设/【236】赛博朋克风调色预设/【后期菌】视频调色预设/CUBE/Tokyo 10.cube
# LUT by SparkleStock. Enhanced with VOXCOLOR algorithms.
LUT_3D_SIZE 5
DOMAIN_MIN 0.000000 0.000000 0.000000
DOMAIN_MAX 0.903226 0.903226 0.903226
0.113392 0.062561 0.058651
0.124492 0.062561 0.060165
0.346735 0.127897 0.063444
0.618043 0.259578 0.090688
0.718696 0.328067 0.105572
0.116419 0.064075 0.064958
0.126546 0.065543 0.063489
0.370574 0.141682 0.075174
0.632414 0.270914 0.099383
0.725885 0.339167 0.119121
0.161448 0.155772 0.165736
0.170639 0.160313 0.170708
0.579760 0.255469 0.086392
0.740122 0.356020 0.102748
0.794838 0.420062 0.138809
0.493930 0.452685 0.382682
0.513615 0.455602 0.376762
0.784142 0.453283 0.169944
0.865008 0.542389 0.230743
0.900797 0.587580 0.272883
0.740264 0.607070 0.465298
0.760698 0.603823 0.442228
0.890759 0.624138 0.355141
0.937912 0.706620 0.439124
0.963264 0.752751 0.506665
0.112509 0.062561 0.064958
0.121212 0.065543 0.065543
0.338268 0.129952 0.068778
0.614764 0.257568 0.094598
0.716531 0.331925 0.113591
0.111040 0.064958 0.068868
0.126888 0.071833 0.071833
0.370419 0.150892 0.088426
0.630352 0.274897 0.108498
0.723424 0.340579 0.123328
0.168528 0.172438 0.187285
0.175617 0.178146 0.192155
0.583272 0.261547 0.097304
0.743818 0.362302 0.111626
0.794069 0.420310 0.143542
0.502137 0.462902 0.394909
0.512137 0.468501 0.399540
0.791516 0.463471 0.184855
0.862943 0.542640 0.229480
0.899665 0.592030 0.279688
0.740915 0.606891 0.465266
0.750351 0.608047 0.458821
0.889595 0.622156 0.352683
0.937196 0.706328 0.441167
0.958040 0.747734 0.503025
0.094725 0.101283 0.140006
0.094725 0.099139 0.140006
0.223781 0.143244 0.163014
0.492542 0.268505 0.221112
0.609820 0.349148 0.249252
0.095807 0.105303 0.148676
0.103041 0.114602 0.156452
0.249089 0.164439 0.183558
0.511180 0.283879 0.235331
0.619631 0.365378 0.266475
0.193046 0.265307 0.314278
0.211111 0.283230 0.333251
0.355605 0.343084 0.374965
0.621807 0.440735 0.365654
0.723834 0.511241 0.392888
0.480625 0.519331 0.505095
0.483445 0.518125 0.500469
0.616649 0.581844 0.518090
0.881448 0.580960 0.297055
0.909628 0.630219 0.350931
0.677618 0.665383 0.602317
0.683573 0.669618 0.605238
0.869225 0.708291 0.542436
0.951030 0.744132 0.518025
0.963093 0.781736 0.571489
0.144168 0.160439 0.275218
0.151215 0.169496 0.280752
0.208149 0.222133 0.322330
0.343581 0.347292 0.415781
0.455362 0.398392 0.429009
0.149095 0.169773 0.279019
0.152941 0.174054 0.283737
0.223523 0.237406 0.340699
0.357998 0.358310 0.424909
0.459776 0.409805 0.441364
0.311467 0.371916 0.468297
0.313009 0.374014 0.469752
0.410344 0.459591 0.544435
0.486753 0.509178 0.547727
0.569586 0.556729 0.564481
0.527176 0.612668 0.644579
0.530126 0.616814 0.648948
0.581145 0.676049 0.698732
0.747629 0.704912 0.658642
0.894480 0.702328 0.552782
0.635107 0.702303 0.683383
0.635690 0.700472 0.681055
0.729514 0.745794 0.712234
0.932797 0.797445 0.664776
0.969034 0.821702 0.656136
0.229937 0.241667 0.389872
0.229307 0.243181 0.391385
0.289870 0.300908 0.441651
0.365720 0.375053 0.479742
0.431117 0.437968 0.523192
0.235898 0.250708 0.398912
0.242704 0.257152 0.406272
0.301750 0.315134 0.452145
0.372940 0.379690 0.484379
0.439207 0.445493 0.529115
0.411420 0.446610 0.563807
0.411469 0.447888 0.564201
0.494762 0.525958 0.630073
0.515727 0.529764 0.605374
0.556221 0.578420 0.636255
0.575350 0.656704 0.719957
0.577410 0.657834 0.724549
0.620884 0.711068 0.777560
0.702110 0.787132 0.849868
0.727988 0.778281 0.813661
0.638143 0.754306 0.789496
0.641847 0.757146 0.793057
0.711247 0.804989 0.831284
0.839992 0.857836 0.865320
0.950430 0.850049 0.766430
