其他预设/【236】赛博朋克风调色预设/【后期菌】视频调色预设/CUBE/Tokyo 01_S.cube
# LUT by SparkleStock. Enhanced with VOXCOLOR algorithms.
LUT_3D_SIZE 5
DOMAIN_MIN 0.000000 0.000000 0.000000
DOMAIN_MAX 0.903226 0.903226 0.903226
0.070381 0.039101 0.070381
0.075174 0.039101 0.078201
0.295147 0.073535 0.073030
0.634314 0.186548 0.136348
0.738625 0.249488 0.185161
0.073408 0.040614 0.080598
0.088328 0.050741 0.073994
0.357403 0.126872 0.063985
0.665460 0.210387 0.109844
0.754643 0.262386 0.188945
0.074417 0.096995 0.150853
0.091230 0.111463 0.146149
0.551023 0.261324 0.094517
0.740517 0.336990 0.134708
0.815166 0.374508 0.220941
0.415476 0.403494 0.375114
0.466071 0.415012 0.379940
0.783556 0.416103 0.252401
0.875802 0.555079 0.348301
0.898274 0.595905 0.411469
0.779996 0.632296 0.548040
0.798390 0.624887 0.529165
0.902974 0.629309 0.477533
0.925677 0.718444 0.569104
0.934506 0.752959 0.606561
0.071012 0.040614 0.080598
0.080598 0.042083 0.084508
0.315617 0.065230 0.101393
0.641890 0.161566 0.157302
0.738372 0.248804 0.193937
0.070084 0.040614 0.085977
0.112400 0.082825 0.113014
0.392540 0.162878 0.162758
0.674605 0.223524 0.197816
0.776399 0.259965 0.211974
0.076073 0.109661 0.164439
0.113264 0.179192 0.182550
0.534349 0.326286 0.187842
0.732238 0.387461 0.217712
0.841698 0.405674 0.247567
0.421185 0.410069 0.389628
0.454197 0.433007 0.404638
0.744813 0.473369 0.267711
0.846784 0.581389 0.342751
0.901150 0.627023 0.381404
0.777652 0.633431 0.549806
0.789444 0.632235 0.545518
0.901989 0.627560 0.477553
0.922370 0.718134 0.567934
0.928558 0.767484 0.564751
0.030398 0.070003 0.156907
0.029226 0.070003 0.157790
0.174033 0.073925 0.183806
0.525459 0.179831 0.259517
0.641650 0.281208 0.293821
0.026488 0.074112 0.164495
0.060936 0.103735 0.212971
0.289325 0.156082 0.291737
0.600769 0.228813 0.341850
0.688792 0.295216 0.339730
0.030105 0.175562 0.265095
0.063456 0.223069 0.304294
0.314497 0.330287 0.377205
0.676683 0.444045 0.443434
0.826078 0.496551 0.471973
0.298284 0.495728 0.501421
0.303307 0.494042 0.498068
0.584408 0.607564 0.551979
0.835296 0.624367 0.451752
0.907124 0.668579 0.492971
0.677996 0.697441 0.640828
0.691410 0.702701 0.643407
0.877997 0.728131 0.622258
0.897672 0.767946 0.600368
0.924488 0.817059 0.596310
0.026740 0.107590 0.253019
0.025470 0.112627 0.258410
0.040553 0.134692 0.271797
0.126131 0.241012 0.349209
0.325264 0.337246 0.420867
0.025470 0.115410 0.259326
0.024712 0.117290 0.264408
0.079485 0.157591 0.324853
0.188912 0.254884 0.398006
0.347510 0.353496 0.451357
0.042506 0.267968 0.408226
0.043767 0.268746 0.410626
0.115621 0.366785 0.491332
0.298505 0.465255 0.550902
0.630120 0.540491 0.628620
0.165537 0.552858 0.602830
0.176993 0.559543 0.608884
0.389008 0.657045 0.684051
0.744547 0.724302 0.698063
0.902926 0.706720 0.661461
0.633252 0.724502 0.707063
0.632688 0.725406 0.708118
0.771722 0.787860 0.754283
0.897357 0.808875 0.706093
0.927364 0.836899 0.698458
0.031281 0.152114 0.337275
0.030451 0.151915 0.337076
0.049570 0.199625 0.386425
0.086119 0.272887 0.430995
0.162917 0.375236 0.494475
0.032448 0.159589 0.349709
0.034251 0.162595 0.355808
0.054318 0.211193 0.401590
0.094695 0.281235 0.441732
0.177872 0.389207 0.504199
0.078832 0.325333 0.486024
0.077383 0.326501 0.485149
0.157831 0.441086 0.578430
0.292940 0.501420 0.595289
0.488059 0.581680 0.677351
0.338194 0.617510 0.693095
0.347746 0.618814 0.696770
0.506769 0.699114 0.757892
0.638029 0.767991 0.812553
0.764145 0.774299 0.820608
0.559949 0.753130 0.774027
0.571781 0.756350 0.777702
0.708523 0.808536 0.809351
0.853954 0.853052 0.835418
0.929630 0.849005 0.791725
