其他预设/【236】赛博朋克风调色预设/【后期菌】视频调色预设/CUBE/Tokyo 07_S.cube
# LUT by SparkleStock. Enhanced with VOXCOLOR algorithms.
LUT_3D_SIZE 32
0.187683 0.046921 0.058651
0.189701 0.048939 0.060669
0.191593 0.050705 0.062561
0.191593 0.048687 0.062561
0.191593 0.046921 0.062561
0.191593 0.046921 0.062561
0.193864 0.047299 0.062183
0.205972 0.049317 0.060165
0.227667 0.051840 0.058651
0.278119 0.055876 0.058651
0.332986 0.058651 0.056759
0.397566 0.058651 0.050705
0.460631 0.061678 0.046921
0.521174 0.069751 0.046921
0.579069 0.078706 0.041623
0.633557 0.088796 0.029515
0.676946 0.096869 0.020433
0.709236 0.102923 0.014379
0.734714 0.111248 0.010595
0.754895 0.121338 0.008577
0.772554 0.133951 0.009081
0.788699 0.148078 0.011100
0.799294 0.152493 0.010343
0.807366 0.152493 0.008325
0.815438 0.160061 0.006307
0.823511 0.170151 0.004288
0.833223 0.178602 0.002270
0.843313 0.186674 0.000252
0.848106 0.189449 0.000000
0.852143 0.191467 0.000000
0.858071 0.191593 0.000000
0.864125 0.191593 0.000000
0.189701 0.048939 0.060669
0.190678 0.049915 0.061646
0.191593 0.050770 0.062561
0.191593 0.049793 0.062561
0.191724 0.048939 0.062691
0.192765 0.048939 0.063733
0.195882 0.049122 0.064201
0.207990 0.050099 0.062183
0.228383 0.051840 0.060409
0.273627 0.055876 0.059367
0.325891 0.058651 0.056434
0.393595 0.058651 0.049338
0.458613 0.061288 0.044122
0.519156 0.068318 0.042038
0.576139 0.077143 0.036480
0.628545 0.088276 0.026455
0.670371 0.096348 0.018936
0.701619 0.101361 0.013923
0.727228 0.109816 0.010595
0.748451 0.120948 0.008577
0.766500 0.132649 0.009081
0.782644 0.144693 0.011100
0.795388 0.149173 0.010343
0.806585 0.150214 0.008325
0.816220 0.158042 0.006307
0.825334 0.168133 0.004288
0.834395 0.177430 0.002270
0.843444 0.186544 0.000252
0.848106 0.192183 0.000000
0.852143 0.197326 0.000000
0.857094 0.193742 0.000000
0.862107 0.189575 0.000000
0.191593 0.050831 0.062561
0.191593 0.050831 0.062561
0.191593 0.050831 0.062561
0.191593 0.050831 0.062561
0.191846 0.050831 0.062813
0.193864 0.050831 0.064831
0.197774 0.050831 0.066093
0.209882 0.050831 0.064075
0.229087 0.051872 0.062057
0.269579 0.056039 0.060038
0.319429 0.058944 0.056149
0.389868 0.059074 0.048141
0.456571 0.061426 0.041648
0.517049 0.067480 0.037677
0.573112 0.076155 0.031854
0.623499 0.088198 0.023652
0.663796 0.096238 0.017500
0.694003 0.100274 0.013398
0.719741 0.108778 0.010506
0.742006 0.120756 0.008553
0.760567 0.131596 0.009081
0.776907 0.141751 0.011100
0.791681 0.146267 0.010343
0.805743 0.148220 0.008325
0.816875 0.156228 0.006307
0.827030 0.166253 0.004288
0.835493 0.176331 0.002270
0.843566 0.186422 0.000252
0.848163 0.194747 0.000000
0.852265 0.202819 0.000000
0.856244 0.195756 0.000000
0.860215 0.187683 0.000000
0.191593 0.050831 0.062561
0.191593 0.050831 0.062561
0.191593 0.050831 0.062561
0.191593 0.050831 0.062561
0.191846 0.050831 0.062813
0.193864 0.050831 0.064831
0.197774 0.050831 0.066093
0.209882 0.050831 0.064075
0.229608 0.052393 0.062057
0.272183 0.058643 0.060038
0.322489 0.063631 0.056474
0.389802 0.065845 0.049509
0.454162 0.069498 0.044056
0.513598 0.075553 0.041127
0.568620 0.083771 0.034979
0.617966 0.094773 0.024693
0.657221 0.102292 0.016979
0.686386 0.106329 0.011836
0.712255 0.113661 0.009073
0.735561 0.123556 0.008162
0.756466 0.134265 0.009081
0.775931 0.145462 0.011100
0.790965 0.149588 0.010343
0.803985 0.150499 0.008325
0.815638 0.157465 0.006307
0.826835 0.166448 0.004288
0.835493 0.176331 0.002270
0.843566 0.186422 0.000252
0.849075 0.194747 0.000000
0.854218 0.202819 0.000000
0.857286 0.195756 0.000000
0.860215 0.187683 0.000000
0.191593 0.050831 0.062561
0.191593 0.050831 0.062561
0.191593 0.050831 0.062561
0.191593 0.050831 0.062561
0.191894 0.050831 0.062797
0.194303 0.050831 0.064685
0.198482 0.050904 0.065841
0.210330 0.051295 0.063822
0.230348 0.053606 0.061804
0.274877 0.061678 0.059786
0.325671 0.068530 0.056547
0.390250 0.072696 0.050623
0.452461 0.077571 0.046164
0.510726 0.083625 0.044146
0.564519 0.091388 0.037656
0.612562 0.101348 0.025417
0.650776 0.108477 0.016336
0.679160 0.112774 0.010412
0.705200 0.119267 0.007820
0.729417 0.127470 0.007820
0.752291 0.137788 0.009000
0.774360 0.149376 0.010888
0.789850 0.153266 0.010180
0.802349 0.153656 0.008292
0.814653 0.159711 0.006502
0.826892 0.167653 0.004744
0.835746 0.176917 0.002563
0.843818 0.186487 0.000285
0.850011 0.194519 0.000000
0.855935 0.202331 0.000000
0.858441 0.195984 0.000000
0.860720 0.188692 0.000000
0.191593 0.050831 0.062561
0.191593 0.050831 0.062561
0.191593 0.050831 0.062561
0.191593 0.050831 0.062561
0.192285 0.050831 0.062667
0.197819 0.050831 0.063513
0.204145 0.051490 0.063822
0.213910 0.055005 0.061804
0.232627 0.059660 0.059786
0.278197 0.067732 0.057768
0.329707 0.074910 0.054855
0.394286 0.080118 0.049972
0.455716 0.085643 0.046164
0.511898 0.091697 0.044146
0.563152 0.099005 0.037201
0.608071 0.107924 0.023920
0.645243 0.115573 0.014839
0.674668 0.121953 0.009956
0.701164 0.129944 0.007820
0.725381 0.139188 0.007820
0.747604 0.147293 0.008349
0.768632 0.154714 0.009195
0.785944 0.159450 0.008878
0.801568 0.162966 0.008032
0.815434 0.169020 0.008064
0.828715 0.175921 0.008390
0.837764 0.181605 0.004907
0.845836 0.187008 0.000545
0.851117 0.192696 0.000000
0.856000 0.198425 0.000000
0.860394 0.197806 0.000000
0.864756 0.196765 0.000000
0.191215 0.050831 0.062939
0.191215 0.050831 0.062939
0.191215 0.050843 0.062952
0.191215 0.051038 0.063147
0.192224 0.051185 0.063293
0.200296 0.050990 0.063098
0.208698 0.052076 0.062598
0.218528 0.058716 0.060775
0.237407 0.065763 0.058854
0.283433 0.074031 0.056641
0.334952 0.081729 0.053858
0.398554 0.088174 0.049822
0.458666 0.094472 0.046323
0.512959 0.100527 0.043719
0.562041 0.107549 0.036244
0.604421 0.115817 0.022508
0.640747 0.123792 0.013622
0.671018 0.131474 0.009586
0.697994 0.140730 0.007820
0.722407 0.151211 0.007820
0.744174 0.157664 0.007820
0.764355 0.161700 0.007820
0.783015 0.166855 0.007820
0.800982 0.172519 0.007820
0.816069 0.178476 0.009041
0.830196 0.184530 0.010668
0.840038 0.187622 0.006530
0.848892 0.190031 0.001062
0.853188 0.193522 0.000208
0.856834 0.197168 0.000012
0.862555 0.200630 0.000000
0.868414 0.204080 0.000000
0.189197 0.050831 0.064958
0.189197 0.050831 0.064958
0.189197 0.050908 0.065035
0.189197 0.052145 0.066272
0.190206 0.053073 0.067199
0.198278 0.051836 0.065963
0.208438 0.052662 0.064811
0.227642 0.062427 0.064030
0.253031 0.072078 0.062630
0.296974 0.081387 0.059375
0.345433 0.090452 0.055876
0.403827 0.098980 0.051840
0.460294 0.106581 0.047169
0.513545 0.112635 0.041440
0.562041 0.120114 0.033120
0.604421 0.129423 0.021467
0.640747 0.136877 0.013622
0.671018 0.142475 0.009586
0.698580 0.151992 0.007820
0.724034 0.164557 0.007820
0.746192 0.171791 0.007820
0.766373 0.175827 0.007820
0.784317 0.179550 0.007820
0.801243 0.183130 0.007820
0.816069 0.188566 0.007478
0.830196 0.194621 0.007023
0.843423 0.199405 0.005033
0.856443 0.203897 0.002689
0.859438 0.205826 0.001314
0.861000 0.207388 0.000077
0.865614 0.207791 0.000000
0.870432 0.208117 0.000000
0.180620 0.052849 0.069498
0.180880 0.052849 0.069498
0.181141 0.052959 0.069608
0.181401 0.054717 0.071366
0.182540 0.056067 0.072684
0.189832 0.054570 0.070926
0.200480 0.055673 0.069401
0.225673 0.068042 0.068880
0.257182 0.079776 0.067285
0.307634 0.089606 0.062468
0.359267 0.099518 0.057813
0.413495 0.109608 0.053516
0.466478 0.118576 0.047804
0.517386 0.125671 0.039731
0.564108 0.133850 0.031004
0.605446 0.143419 0.021434
0.641381 0.151134 0.014501
0.671913 0.156993 0.010204
0.700028 0.166916 0.008178
0.726264 0.180001 0.007918
0.748552 0.187919 0.007820
0.768473 0.192737 0.007820
0.786156 0.195451 0.007820
0.802821 0.197208 0.007820
0.817583 0.201993 0.006502
0.831709 0.207787 0.004744
0.846841 0.213369 0.004415
0.862205 0.218903 0.004415
0.864581 0.219367 0.002421
0.865102 0.219106 0.000142
0.869406 0.217686 0.000000
0.873963 0.216189 0.000000
0.152367 0.060921 0.081607
0.153669 0.060921 0.081607
0.154971 0.060966 0.081652
0.156273 0.061682 0.082368
0.157933 0.062382 0.082905
0.162099 0.062968 0.082189
0.169427 0.065959 0.081119
0.190454 0.079369 0.078515
0.226910 0.091624 0.074576
0.309652 0.100413 0.066634
0.383158 0.109608 0.059505
0.436345 0.119699 0.054167
0.486334 0.130228 0.047804
0.530992 0.141491 0.039731
0.572375 0.151101 0.031915
0.609548 0.158588 0.024429
0.643920 0.168906 0.018016
0.675494 0.182056 0.012678
0.704065 0.192826 0.009610
0.730300 0.201745 0.008308
0.751937 0.210053 0.007820
0.770816 0.217995 0.007820
0.789606 0.220970 0.007820
0.808355 0.221686 0.007820
0.823637 0.225429 0.007283
0.837764 0.230181 0.006567
0.850356 0.233876 0.006433
0.862595 0.237326 0.006433
0.866404 0.236618 0.003528
0.869008 0.235316 0.000208
0.875396 0.235784 0.000000
0.882036 0.236370 0.000000
0.127897 0.073408 0.094346
0.130241 0.074059 0.094997
0.132503 0.074629 0.095567
0.133545 0.073978 0.094916
0.134708 0.073661 0.094387
0.136726 0.075679 0.094712
0.141588 0.080028 0.094403
0.158775 0.094480 0.091343
0.195459 0.106931 0.086363
0.290635 0.113376 0.075622
0.377551 0.120960 0.065836
0.446297 0.131050 0.058155
0.504643 0.142899 0.050204
0.545656 0.157676 0.041806
0.583593 0.169207 0.034007
0.617575 0.176563 0.026976
0.650223 0.189160 0.020433
0.681536 0.206998 0.014379
0.709443 0.218207 0.010778
0.734702 0.224261 0.009086
0.755933 0.232635 0.008654
0.774747 0.242400 0.008980
0.793829 0.245451 0.008858
0.813034 0.245451 0.008532
0.828430 0.248234 0.008451
0.842557 0.251945 0.008451
0.854197 0.254810 0.008715
0.865264 0.257479 0.009041
0.869895 0.255192 0.005550
0.873605 0.252197 0.001514
0.881405 0.254207 0.001261
0.889478 0.256551 0.001261
0.111752 0.095607 0.108473
0.115137 0.098342 0.111207
0.118181 0.100734 0.113599
0.116098 0.098000 0.110865
0.114527 0.095860 0.108644
0.116545 0.097878 0.110011
0.120822 0.102423 0.111134
0.134883 0.117916 0.111199
0.161411 0.129846 0.108042
0.225340 0.131083 0.095217
0.307048 0.135087 0.082372
0.427874 0.145177 0.069482
0.519551 0.157806 0.057886
0.562647 0.174667 0.048447
0.601300 0.189193 0.038694
0.634241 0.200715 0.028538
0.664805 0.214875 0.020433
0.692994 0.231671 0.014379
0.717776 0.242424 0.011364
0.739910 0.248479 0.010713
0.761271 0.256201 0.011323
0.782168 0.264924 0.012690
0.799753 0.267650 0.012178
0.815833 0.267650 0.010811
0.830448 0.269652 0.010469
0.844575 0.272321 0.010469
0.858754 0.276683 0.011580
0.872946 0.281435 0.012947
0.877056 0.276675 0.009586
0.879725 0.270556 0.005550
0.887459 0.273347 0.005298
0.895532 0.276732 0.005298
0.105446 0.120834 0.125627
0.108701 0.124870 0.129272
0.111500 0.128475 0.132535
0.107464 0.125610 0.130062
0.104087 0.123356 0.128198
0.105324 0.125374 0.130607
0.108453 0.129895 0.132723
0.119780 0.145258 0.133569
0.140059 0.155593 0.129598
0.187191 0.150841 0.111175
0.266670 0.151581 0.093585
0.417311 0.164406 0.077831
0.530602 0.179232 0.062443
0.581640 0.197395 0.047665
0.624134 0.213109 0.034910
0.655642 0.225673 0.024754
0.683928 0.239442 0.017235
0.708992 0.254415 0.012353
0.731089 0.264371 0.010217
0.750880 0.270425 0.010217
0.771443 0.277009 0.011234
0.792470 0.283909 0.012861
0.809022 0.286066 0.012251
0.823539 0.286066 0.010624
0.837764 0.287579 0.010217
0.851890 0.289597 0.010217
0.867339 0.294895 0.011539
0.883094 0.300949 0.013166
0.887171 0.296693 0.010522
0.889579 0.290964 0.007267
0.895833 0.294024 0.006697
0.902343 0.297670 0.006307
0.115536 0.151105 0.147826
0.116708 0.155141 0.150430
0.117554 0.158942 0.152977
0.113518 0.159202 0.154669
0.109881 0.159682 0.156582
0.109034 0.161700 0.160032
0.110080 0.165830 0.162408
0.119324 0.179110 0.160130
0.139863 0.186060 0.150951
0.194287 0.174016 0.121070
0.276500 0.172023 0.095929
0.419850 0.192139 0.081216
0.535224 0.211522 0.061792
0.603969 0.229685 0.034515
0.655512 0.243576 0.017007
0.684937 0.251974 0.012060
0.710619 0.262097 0.008707
0.732558 0.273945 0.006949
0.752702 0.282534 0.006180
0.771451 0.288588 0.006180
0.789671 0.293219 0.006547
0.807574 0.296994 0.007133
0.823865 0.298174 0.006913
0.839424 0.298174 0.006327
0.853908 0.299688 0.006180
0.868035 0.301706 0.006180
0.882638 0.307003 0.006656
0.897351 0.313058 0.007242
0.902209 0.314270 0.006290
0.905659 0.314791 0.005118
0.908072 0.317265 0.003703
0.910415 0.319869 0.002270
0.129158 0.192855 0.182386
0.129158 0.196891 0.184860
0.129020 0.200772 0.187374
0.126807 0.202335 0.190499
0.124618 0.203783 0.193510
0.122600 0.204434 0.195723
0.123157 0.206379 0.195825
0.134875 0.213931 0.186776
0.157611 0.216356 0.171250
0.213402 0.203401 0.136291
0.294561 0.202062 0.106276
0.431532 0.226279 0.087136
0.546995 0.248397 0.062309
0.626612 0.267016 0.028001
0.683558 0.278742 0.007621
0.711356 0.281606 0.005147
0.734434 0.288084 0.003910
0.752792 0.298174 0.003910
0.770528 0.305994 0.003910
0.787779 0.312049 0.003910
0.804909 0.316435 0.003910
0.821965 0.319820 0.003910
0.838081 0.320565 0.003910
0.853770 0.320109 0.003910
0.867946 0.321509 0.003568
0.881617 0.323527 0.003113
0.894917 0.328084 0.003397
0.908133 0.333227 0.003853
0.913316 0.336205 0.003910
0.917353 0.338874 0.003910
0.917605 0.341360 0.002018
0.917605 0.343834 0.000000
0.147321 0.249361 0.232838
0.147321 0.253398 0.236354
0.147443 0.257214 0.239714
0.149396 0.257735 0.240756
0.150853 0.257881 0.241423
0.148835 0.255408 0.239470
0.150955 0.252861 0.234039
0.171005 0.249996 0.213532
0.198429 0.246432 0.190194
0.247970 0.240768 0.158360
0.323205 0.244442 0.126912
0.454968 0.268660 0.096315
0.567957 0.291168 0.064327
0.649657 0.310828 0.030019
0.707320 0.319950 0.009183
0.734076 0.315523 0.005668
0.754550 0.318355 0.003910
0.768741 0.328446 0.003910
0.783483 0.336266 0.003910
0.798651 0.342320 0.003910
0.816301 0.348659 0.003910
0.835440 0.355169 0.003910
0.851492 0.356174 0.003910
0.866139 0.354677 0.003910
0.879273 0.355816 0.002787
0.891902 0.357834 0.001290
0.903315 0.360699 0.002226
0.914447 0.363758 0.003723
0.919371 0.363742 0.003910
0.923407 0.363286 0.003910
0.923659 0.366554 0.002018
0.923659 0.370069 0.000000
0.161448 0.306877 0.289345
0.161448 0.310393 0.292860
0.161635 0.313656 0.296124
0.164630 0.313135 0.295603
0.167128 0.312370 0.294838
0.166151 0.309896 0.292364
0.170485 0.306568 0.285435
0.197827 0.299537 0.259200
0.234885 0.293499 0.229351
0.301092 0.290440 0.188664
0.387133 0.295416 0.145433
0.516813 0.318070 0.096608
0.623617 0.337845 0.055376
0.692298 0.352818 0.026797
0.740130 0.358164 0.009183
0.761157 0.351133 0.005668
0.778246 0.352663 0.004170
0.791396 0.362753 0.004691
0.804803 0.370574 0.004626
0.818409 0.376628 0.004105
0.835473 0.382967 0.003910
0.854612 0.389477 0.003910
0.869948 0.390840 0.004268
0.883553 0.389864 0.004789
0.895646 0.391133 0.003796
0.907234 0.393151 0.002299
0.916758 0.395169 0.003658
0.925807 0.397187 0.005676
0.929559 0.394762 0.005472
0.932553 0.391703 0.004952
0.934205 0.397248 0.004004
0.935768 0.403368 0.003027
0.171538 0.365402 0.351906
0.171538 0.367876 0.354380
0.171595 0.370098 0.356601
0.172507 0.368535 0.355039
0.173443 0.367249 0.353753
0.174549 0.367900 0.354404
0.181747 0.367502 0.350014
0.215339 0.362554 0.323779
0.266979 0.357558 0.288723
0.372767 0.352415 0.227203
0.486346 0.354982 0.161839
0.617067 0.374512 0.088015
0.713976 0.388427 0.035455
0.754533 0.392984 0.018334
0.781989 0.393383 0.007621
0.792601 0.388435 0.005147
0.805523 0.391007 0.004691
0.820756 0.401097 0.006254
0.834488 0.408917 0.006058
0.847053 0.414972 0.004496
0.862424 0.419358 0.003910
0.879481 0.422743 0.003910
0.893449 0.424562 0.004984
0.906013 0.425669 0.006547
0.917064 0.427459 0.006595
0.927610 0.429477 0.006140
0.935247 0.431495 0.007694
0.942213 0.433513 0.009712
0.943881 0.429265 0.008597
0.944792 0.424122 0.007035
0.949243 0.433444 0.007975
0.953931 0.443730 0.009081
0.206603 0.423927 0.411062
0.212462 0.426531 0.413080
0.217589 0.428810 0.414846
0.211730 0.426206 0.412828
0.207441 0.424033 0.410948
0.214146 0.424879 0.410036
0.228273 0.425249 0.405036
0.274559 0.423557 0.382316
0.338878 0.420920 0.346446
0.457295 0.415452 0.271125
0.576770 0.413523 0.188460
0.698572 0.419382 0.089639
0.782437 0.423044 0.024213
0.803074 0.423044 0.014448
0.817587 0.422304 0.008072
0.824227 0.420611 0.006054
0.834741 0.424517 0.005761
0.849128 0.434022 0.007194
0.862563 0.442245 0.007674
0.875257 0.449471 0.007413
0.888277 0.452343 0.006949
0.901493 0.452604 0.006364
0.913141 0.454072 0.007165
0.924078 0.456091 0.008597
0.933941 0.457669 0.008955
0.943445 0.459101 0.008955
0.949671 0.461486 0.010595
0.955139 0.464090 0.012613
0.956335 0.462194 0.011612
0.956921 0.459655 0.010180
0.960986 0.468102 0.011433
0.965282 0.477281 0.012865
0.261092 0.482452 0.467569
0.277367 0.486098 0.469587
0.291607 0.489287 0.471352
0.275332 0.485642 0.469334
0.262971 0.482297 0.466804
0.278010 0.481060 0.460684
0.302227 0.480519 0.452624
0.366220 0.482993 0.436154
0.441736 0.483742 0.402888
0.551820 0.479315 0.319234
0.660358 0.471267 0.223029
0.765495 0.455252 0.099208
0.833866 0.445243 0.019721
0.840962 0.445243 0.014123
0.848314 0.446326 0.010090
0.855996 0.448799 0.008072
0.865468 0.454268 0.007259
0.876730 0.462731 0.007649
0.889384 0.471670 0.009431
0.903120 0.480979 0.012296
0.913276 0.482680 0.012353
0.921283 0.479815 0.010725
0.929872 0.480308 0.010485
0.938726 0.482326 0.010876
0.947286 0.483123 0.010973
0.955749 0.483514 0.010973
0.960933 0.486549 0.012613
0.965360 0.490195 0.014631
0.967337 0.493897 0.014542
0.968965 0.497608 0.014151
0.970165 0.501563 0.014493
0.971337 0.505534 0.014883
0.352158 0.529625 0.493804
0.365829 0.532359 0.495171
0.378036 0.534955 0.496571
0.368271 0.535476 0.498458
0.361508 0.535598 0.499020
0.375765 0.532929 0.490297
0.398152 0.530785 0.479584
0.455765 0.530915 0.460249
0.523111 0.530329 0.425843
0.619654 0.527595 0.346226
0.715709 0.516316 0.247832
0.810690 0.486240 0.108127
0.871787 0.466954 0.019298
0.876409 0.465652 0.015262
0.883110 0.467255 0.012678
0.892484 0.472593 0.011962
0.900915 0.480275 0.011930
0.908401 0.490301 0.012581
0.918158 0.498898 0.014037
0.929681 0.506384 0.016120
0.936972 0.507890 0.016047
0.941724 0.505807 0.014680
0.947864 0.508781 0.015148
0.954634 0.514054 0.016450
0.960917 0.515860 0.016775
0.967036 0.516511 0.016775
0.970405 0.519384 0.017886
0.973139 0.522769 0.019253
0.975816 0.529629 0.019994
0.978485 0.536985 0.020645
0.978652 0.538727 0.020686
0.978652 0.540094 0.020686
0.465172 0.569987 0.501876
0.468427 0.570638 0.502202
0.471910 0.571737 0.503015
0.478810 0.579549 0.511153
0.485849 0.585920 0.517053
0.493857 0.582210 0.507288
0.507259 0.578047 0.494166
0.544041 0.571928 0.466498
0.591596 0.567176 0.428708
0.671474 0.566525 0.360548
0.754118 0.553749 0.266776
0.842850 0.514298 0.116655
0.901602 0.488372 0.021316
0.910391 0.484987 0.017280
0.920347 0.486330 0.015608
0.931805 0.493751 0.016975
0.939194 0.504037 0.018505
0.942514 0.517187 0.020197
0.948104 0.524808 0.020352
0.955460 0.528128 0.019310
0.959887 0.530024 0.018716
0.962556 0.531065 0.018391
0.966613 0.538597 0.020616
0.971300 0.549078 0.024002
0.974718 0.552967 0.024848
0.977712 0.554660 0.024848
0.978803 0.556882 0.025112
0.979454 0.559225 0.025438
0.982782 0.567778 0.026960
0.986493 0.577217 0.028652
0.986725 0.578112 0.028758
0.986725 0.578438 0.028758
0.549049 0.610349 0.526598
0.549765 0.610349 0.526598
0.550880 0.610756 0.527005
0.557976 0.617266 0.533515
0.565031 0.622637 0.538218
0.571802 0.620033 0.530276
0.583247 0.616940 0.518281
0.614951 0.611732 0.488726
0.655606 0.607110 0.450236
0.723114 0.604246 0.384940
0.793736 0.587243 0.289211
0.871205 0.539134 0.126526
0.923407 0.508626 0.023603
0.933497 0.507454 0.020283
0.942904 0.509387 0.018985
0.951432 0.515311 0.020287
0.957780 0.525337 0.022305
0.961946 0.539463 0.025039
0.966772 0.548793 0.025906
0.972110 0.554392 0.025320
0.976156 0.558647 0.025995
0.979427 0.562098 0.027427
0.982240 0.570516 0.030158
0.984844 0.581192 0.033478
0.986471 0.585375 0.033771
0.987773 0.587393 0.033055
0.988018 0.589993 0.033502
0.988018 0.592727 0.034218
0.990296 0.600645 0.036074
0.992900 0.609303 0.038092
0.993063 0.610516 0.038218
0.993063 0.611232 0.038218
0.619683 0.650711 0.558888
0.621440 0.650711 0.558888
0.623076 0.650792 0.558969
0.622881 0.652094 0.560271
0.623686 0.653169 0.560808
0.631498 0.652648 0.555991
0.644181 0.652029 0.546730
0.677968 0.650988 0.518216
0.717581 0.648449 0.480247
0.774674 0.641418 0.413910
0.833902 0.618946 0.313233
0.897831 0.562505 0.137007
0.941570 0.528352 0.026012
0.951660 0.531346 0.023733
0.958789 0.534255 0.022565
0.962109 0.537055 0.022826
0.967414 0.545518 0.024844
0.974706 0.559644 0.028620
0.980312 0.571903 0.031114
0.984609 0.582710 0.032611
0.989404 0.590221 0.035370
0.994498 0.595754 0.038885
0.996448 0.603392 0.041550
0.996969 0.611985 0.043829
0.997294 0.615647 0.043080
0.997555 0.617665 0.041322
0.997604 0.621111 0.042421
0.997604 0.624887 0.044178
0.998059 0.631112 0.046164
0.998580 0.637687 0.048182
0.998613 0.639746 0.048308
0.998613 0.641503 0.048308
0.666099 0.675937 0.571501
0.669680 0.677500 0.573063
0.672959 0.678964 0.574528
0.671722 0.678964 0.574528
0.671551 0.678867 0.573926
0.678842 0.678086 0.569108
0.690613 0.677304 0.560190
0.721796 0.676523 0.533499
0.757438 0.673919 0.497417
0.806459 0.665847 0.433163
0.858103 0.642252 0.331151
0.915522 0.584508 0.146072
0.954606 0.549346 0.029641
0.963134 0.551820 0.027623
0.969156 0.555803 0.026829
0.971955 0.561728 0.027611
0.976219 0.571362 0.030019
0.981948 0.584708 0.034055
0.986285 0.596039 0.036517
0.989540 0.605804 0.037754
0.993741 0.613738 0.040252
0.998510 0.620574 0.043507
1.000000 0.628797 0.045912
1.000000 0.637650 0.047930
1.000000 0.643135 0.048093
1.000000 0.647497 0.047637
1.000000 0.651594 0.049191
1.000000 0.655630 0.051209
1.000000 0.659382 0.053227
1.000000 0.663092 0.055245
1.000000 0.665216 0.056104
1.000000 0.667234 0.056885
0.704443 0.696118 0.577555
0.710107 0.699764 0.581201
0.715404 0.703182 0.584618
0.715209 0.703182 0.584618
0.715819 0.702954 0.583886
0.722069 0.701131 0.578027
0.732212 0.699308 0.568653
0.759229 0.697485 0.544045
0.789923 0.694100 0.510307
0.831652 0.686028 0.449178
0.876982 0.662759 0.347036
0.930234 0.606057 0.154665
0.965933 0.570764 0.033677
0.972378 0.571155 0.031659
0.977684 0.576245 0.031321
0.981525 0.587377 0.033144
0.984747 0.599095 0.036074
0.987351 0.611399 0.040110
0.989736 0.620517 0.041985
0.991949 0.627157 0.042181
0.995108 0.634570 0.043637
0.998835 0.642447 0.045851
1.000000 0.651712 0.047930
1.000000 0.661607 0.049948
1.000000 0.669696 0.051673
1.000000 0.677182 0.053301
1.000000 0.681865 0.055245
1.000000 0.685902 0.057264
1.000000 0.686919 0.059282
1.000000 0.687505 0.061300
1.000000 0.689433 0.063135
1.000000 0.691451 0.064958
0.750985 0.717939 0.568852
0.754501 0.719436 0.569503
0.757744 0.720840 0.570166
0.756897 0.720840 0.571012
0.756914 0.720694 0.571102
0.762968 0.719522 0.565894
0.772171 0.718191 0.557280
0.795021 0.716173 0.533909
0.820980 0.711795 0.500611
0.856264 0.700338 0.437529
0.894803 0.676918 0.337055
0.940504 0.627181 0.154320
0.970385 0.597048 0.039353
0.973900 0.599587 0.037335
0.978384 0.606313 0.037453
0.984113 0.618421 0.040317
0.987140 0.628837 0.042921
0.987465 0.637561 0.045265
0.988743 0.645259 0.046766
0.990761 0.652160 0.047613
0.992799 0.660321 0.049191
0.994850 0.669240 0.051209
0.996073 0.677219 0.053227
0.996919 0.684771 0.055245
0.997131 0.692713 0.057898
0.997131 0.700785 0.060763
0.997131 0.706266 0.067065
0.997131 0.711148 0.074161
0.998426 0.713240 0.080516
0.999907 0.714932 0.086766
1.000000 0.717723 0.090635
1.000000 0.720588 0.094346
0.799420 0.740138 0.556743
0.799810 0.738511 0.553228
0.800059 0.736985 0.550050
0.798171 0.736985 0.551938
0.797276 0.736969 0.553069
0.803330 0.736838 0.548903
0.811752 0.736354 0.541331
0.830436 0.734336 0.519002
0.851707 0.728917 0.485703
0.880742 0.713293 0.419496
0.912380 0.689612 0.321106
0.949748 0.648209 0.151911
0.973249 0.624455 0.045407
0.973640 0.630119 0.043389
0.977277 0.638602 0.043963
0.985089 0.650711 0.047869
0.988116 0.659044 0.049952
0.986358 0.663601 0.050212
0.986725 0.670062 0.051388
0.988743 0.678004 0.053276
0.989642 0.687208 0.055245
0.989870 0.697168 0.057264
