其他预设/【236】赛博朋克风调色预设/【后期菌】视频调色预设/CUBE/Tokyo 02_S.cube
# LUT by SparkleStock. Enhanced with VOXCOLOR algorithms.
LUT_3D_SIZE 32
0.082111 0.039101 0.089932
0.084130 0.041119 0.091950
0.085895 0.042885 0.093842
0.083877 0.040867 0.093842
0.082111 0.039101 0.093842
0.082111 0.039101 0.093842
0.082868 0.039101 0.093842
0.086904 0.039101 0.093842
0.095481 0.040614 0.093842
0.117680 0.046669 0.093842
0.144294 0.052092 0.094472
0.180620 0.056128 0.096490
0.226027 0.066219 0.103806
0.286570 0.086400 0.119951
0.361240 0.110113 0.140510
0.454072 0.138366 0.166745
0.527733 0.162583 0.188945
0.582222 0.182764 0.207107
0.626494 0.204080 0.226406
0.662820 0.226279 0.246587
0.690316 0.245956 0.266768
0.712515 0.264119 0.286949
0.725002 0.273957 0.294643
0.733075 0.280011 0.296661
0.739634 0.287579 0.301706
0.745688 0.295652 0.307760
0.753382 0.308643 0.315454
0.761454 0.322770 0.323527
0.764229 0.331599 0.328067
0.766247 0.339671 0.332104
0.773941 0.349636 0.339924
0.782014 0.359726 0.347996
0.084130 0.041119 0.091950
0.084064 0.042095 0.092926
0.083942 0.042885 0.093842
0.082966 0.040867 0.093842
0.082242 0.039231 0.093972
0.083283 0.040272 0.095013
0.084691 0.041119 0.095664
0.087686 0.041119 0.094623
0.095481 0.042112 0.093581
0.117680 0.046083 0.092540
0.145596 0.051376 0.092454
0.186088 0.059579 0.094472
0.234490 0.071101 0.101397
0.296075 0.088158 0.116501
0.369963 0.109657 0.135563
0.459671 0.136869 0.159715
0.532290 0.160565 0.181393
0.587820 0.180746 0.200597
0.631376 0.201476 0.219179
0.665619 0.222634 0.237277
0.692334 0.240618 0.254724
0.714533 0.256697 0.271780
0.727020 0.265885 0.281362
0.735093 0.271939 0.287547
0.742433 0.282632 0.295196
0.749529 0.294870 0.303333
0.755725 0.308643 0.313111
0.761715 0.322770 0.323266
0.765141 0.333422 0.330802
0.768200 0.343577 0.337963
0.774006 0.350742 0.342072
0.779996 0.357708 0.345978
0.086022 0.043011 0.093842
0.084069 0.043011 0.093907
0.082238 0.042889 0.093964
0.082238 0.040936 0.093899
0.082482 0.039471 0.094094
0.084435 0.041424 0.096112
0.086412 0.043011 0.097373
0.088495 0.043011 0.095355
0.095640 0.043532 0.093321
0.117969 0.045615 0.091238
0.147195 0.050831 0.090456
0.191593 0.062939 0.092540
0.242803 0.075854 0.099090
0.305364 0.090111 0.113087
0.378491 0.109608 0.130672
0.465205 0.135843 0.152871
0.536652 0.158954 0.173963
0.592833 0.178940 0.193949
0.635649 0.199035 0.211738
0.668068 0.219216 0.227817
0.694100 0.235572 0.242758
0.716299 0.249634 0.257015
0.728876 0.258235 0.268363
0.737078 0.264355 0.278388
0.745232 0.277944 0.288609
0.753370 0.294024 0.298894
0.758069 0.308464 0.310608
0.761975 0.322526 0.322652
0.765995 0.334992 0.333157
0.770031 0.347231 0.343443
0.774067 0.351780 0.344086
0.778104 0.355816 0.344086
0.086022 0.043011 0.093842
0.085110 0.043011 0.094948
0.084256 0.042954 0.095917
0.084256 0.042042 0.094810
0.084370 0.041359 0.094094
0.085281 0.042270 0.096112
0.086607 0.043011 0.097373
0.089732 0.043011 0.095355
0.098179 0.043792 0.093060
0.122591 0.046917 0.089936
0.153249 0.052849 0.088764
0.197648 0.064958 0.091889
0.248857 0.078653 0.098309
0.311418 0.094993 0.110222
0.384090 0.115662 0.126636
0.469762 0.141898 0.148835
0.538084 0.163446 0.168365
0.589057 0.180307 0.185226
0.630766 0.199035 0.201061
0.665269 0.219216 0.216099
0.692082 0.234921 0.231951
0.714281 0.247941 0.248291
0.728290 0.256933 0.259574
0.738576 0.264094 0.268558
0.748031 0.277163 0.280862
0.757211 0.292201 0.294272
0.760413 0.305600 0.305726
0.762235 0.318620 0.316728
0.765995 0.332779 0.329837
0.770031 0.347101 0.343248
0.774067 0.351780 0.344086
0.778104 0.355816 0.344086
0.086022 0.043011 0.093842
0.085891 0.043011 0.095730
0.085769 0.043011 0.097381
0.085769 0.043011 0.095494
0.085786 0.043011 0.094094
0.085916 0.043011 0.096112
0.086827 0.043060 0.097373
0.091124 0.043320 0.095355
0.100970 0.044655 0.092833
0.127466 0.049212 0.088796
0.159475 0.056088 0.087242
0.203612 0.068066 0.091148
0.254708 0.082413 0.097422
0.317399 0.100706 0.107643
0.389518 0.122360 0.122876
0.473757 0.148334 0.144555
0.539280 0.168450 0.162457
0.586087 0.182707 0.176584
0.626925 0.200223 0.190930
0.663121 0.220274 0.205447
0.690487 0.235198 0.221999
0.712556 0.247046 0.239771
0.727956 0.256299 0.250965
0.740325 0.264371 0.259167
0.750790 0.276984 0.273522
0.760620 0.291111 0.289927
0.762569 0.303386 0.301096
0.762699 0.315235 0.311056
0.766133 0.330842 0.326542
0.770039 0.346987 0.342817
0.774189 0.352024 0.344200
0.778356 0.356321 0.344591
0.086022 0.043011 0.093842
0.084850 0.043011 0.094688
0.083751 0.043011 0.095428
0.083751 0.043011 0.094582
0.083898 0.043011 0.094094
0.085069 0.043011 0.096112
0.087218 0.043450 0.097373
0.093598 0.045794 0.095355
0.105527 0.049732 0.092833
0.134106 0.058456 0.088796
0.166896 0.067871 0.086917
0.208951 0.078808 0.089781
0.259135 0.092894 0.095795
0.322867 0.112228 0.107057
0.393749 0.133557 0.121053
0.473822 0.157448 0.138565
0.538825 0.177044 0.154385
0.588756 0.192342 0.168511
0.630375 0.209728 0.184615
0.665529 0.228737 0.202258
0.691854 0.241969 0.218028
0.712882 0.251734 0.232676
0.729388 0.260335 0.243608
0.743841 0.268407 0.252852
0.753264 0.281020 0.269030
0.761011 0.295147 0.287518
0.763415 0.305730 0.298231
0.764587 0.315495 0.307150
0.767240 0.330842 0.323417
0.770104 0.346987 0.340733
0.775166 0.353977 0.345111
0.780374 0.360357 0.348627
0.085643 0.043011 0.094598
0.083820 0.043011 0.094598
0.082124 0.043023 0.094598
0.082319 0.043218 0.094598
0.082718 0.043365 0.094802
0.084540 0.043169 0.096429
0.087718 0.043877 0.097337
0.096767 0.048499 0.095123
0.111122 0.055042 0.092552
0.141393 0.067346 0.088906
0.174879 0.079141 0.087031
0.215436 0.089818 0.089049
0.265002 0.103985 0.094777
0.329581 0.123971 0.106691
0.399201 0.144925 0.119572
0.475303 0.167124 0.133699
0.539492 0.186393 0.147826
0.591767 0.202734 0.161953
0.633936 0.219989 0.179265
0.668243 0.237957 0.199055
0.693722 0.249862 0.214289
0.713903 0.258130 0.226788
0.731175 0.265995 0.237363
0.747124 0.273676 0.247063
0.755799 0.286045 0.264623
0.762048 0.299977 0.284804
0.765177 0.309306 0.295464
0.767586 0.317574 0.303927
0.769653 0.332051 0.320707
0.771671 0.347414 0.338675
0.777107 0.356125 0.345840
0.782770 0.364393 0.352285
0.083625 0.043011 0.098635
0.082844 0.043011 0.098635
0.082189 0.043088 0.098635
0.083426 0.044325 0.098635
0.084606 0.045253 0.098578
0.085387 0.044016 0.098122
0.088695 0.044463 0.097141
0.102952 0.052210 0.093886
0.121212 0.061357 0.091055
0.151484 0.074702 0.089492
0.185295 0.088190 0.089049
0.226894 0.101991 0.091067
0.277110 0.117721 0.096405
0.341690 0.136665 0.107277
0.409943 0.157033 0.119572
0.482920 0.179232 0.133699
0.545025 0.199023 0.147826
0.596259 0.216405 0.161953
0.637972 0.233530 0.178093
0.672280 0.250456 0.195800
0.697758 0.262622 0.211555
0.717939 0.271931 0.226137
0.734495 0.278689 0.235931
0.749403 0.284288 0.243547
0.758598 0.295355 0.260587
0.765889 0.308244 0.280768
0.770906 0.318225 0.293121
0.775398 0.327534 0.303667
0.777725 0.338496 0.319796
0.779743 0.349693 0.336722
0.783226 0.359120 0.345775
0.786807 0.368429 0.354303
0.079589 0.044524 0.105193
0.079589 0.044524 0.105193
0.079731 0.044650 0.105193
0.082010 0.046669 0.105193
0.084036 0.048247 0.104941
0.084296 0.046750 0.102923
0.087865 0.047523 0.100478
0.105767 0.058134 0.096181
0.127478 0.069429 0.092633
0.160614 0.082775 0.091331
0.197045 0.097320 0.091230
0.240728 0.114507 0.093768
0.292441 0.132450 0.099334
0.357541 0.151655 0.109946
0.424379 0.172055 0.121981
0.493450 0.193994 0.135847
0.552821 0.214305 0.150235
0.602492 0.232989 0.165142
0.643229 0.249658 0.180160
0.677016 0.264762 0.195263
0.702136 0.276732 0.210692
0.722057 0.286822 0.226316
0.737994 0.293109 0.236256
0.752121 0.297666 0.243612
0.761902 0.307300 0.259806
0.770235 0.318628 0.278945
0.776928 0.329373 0.292795
0.783242 0.339985 0.305425
0.785342 0.347691 0.321358
0.786839 0.354982 0.337763
0.789313 0.365630 0.348004
0.791852 0.376502 0.357834
0.069498 0.050579 0.119320
0.069498 0.050579 0.119320
0.069706 0.050705 0.119320
0.073026 0.052723 0.119320
0.076094 0.054562 0.119068
0.077396 0.055148 0.117050
0.081615 0.058004 0.114409
0.098476 0.070699 0.109071
0.122270 0.082775 0.103440
0.166863 0.092995 0.096930
0.212800 0.106695 0.093899
0.261690 0.128048 0.098521
0.317440 0.150157 0.106170
0.384623 0.173528 0.118864
0.449898 0.195817 0.131616
0.512719 0.216714 0.144441
0.567403 0.237546 0.159869
0.613950 0.258313 0.177902
0.652147 0.273550 0.191943
0.683851 0.284487 0.202880
0.707539 0.294895 0.215444
0.726418 0.304985 0.228985
0.742030 0.312704 0.241855
0.756157 0.319344 0.254419
0.766719 0.327156 0.268790
0.776094 0.335359 0.283763
0.783828 0.347211 0.298524
0.791185 0.359905 0.313237
0.791592 0.365138 0.330342
0.791006 0.369304 0.347789
0.795302 0.382686 0.357118
0.799924 0.396683 0.365907
0.058147 0.059786 0.129663
0.058472 0.060112 0.130314
0.058968 0.060502 0.130884
0.062028 0.061869 0.130233
0.064998 0.063318 0.129492
0.067342 0.065336 0.128125
0.072212 0.069563 0.126062
0.088031 0.083365 0.120984
0.112037 0.095734 0.114897
0.160602 0.103806 0.105783
0.214354 0.117331 0.101308
0.279519 0.142850 0.107037
0.346100 0.168882 0.116281
0.415041 0.195768 0.131384
0.478570 0.220148 0.145319
0.535142 0.241305 0.157754
0.584814 0.262495 0.173085
0.627584 0.283718 0.191313
0.662775 0.297727 0.204011
0.692070 0.306125 0.212409
0.714407 0.315784 0.223126
0.732570 0.326200 0.235235
0.747511 0.334333 0.249894
0.760986 0.341429 0.265714
0.771923 0.348232 0.279238
0.782014 0.354937 0.291998
0.790200 0.367144 0.308301
0.797947 0.380619 0.325423
0.797719 0.384354 0.342601
0.796352 0.386698 0.359787
0.801332 0.401370 0.368124
0.806735 0.416864 0.375871
0.044020 0.075931 0.131681
0.045387 0.077298 0.134415
0.046664 0.078535 0.136808
0.046599 0.077819 0.134073
0.046966 0.077445 0.131771
0.050351 0.079463 0.132487
0.055872 0.083495 0.132702
0.070650 0.096254 0.130749
0.090749 0.107842 0.127787
0.126815 0.115915 0.121798
0.184668 0.130741 0.119145
0.290456 0.160427 0.123832
0.382816 0.189844 0.133597
0.452799 0.218813 0.151825
0.514180 0.245732 0.167974
0.564502 0.270014 0.181450
0.608445 0.291204 0.194177
0.646008 0.309302 0.206155
0.677162 0.322530 0.216706
0.703332 0.331969 0.226145
0.724498 0.342670 0.237253
0.742661 0.354128 0.249361
0.756169 0.360438 0.263305
0.767561 0.364409 0.278083
0.777977 0.371994 0.292909
0.788068 0.380782 0.307752
0.795408 0.391686 0.326985
0.802113 0.403079 0.347231
0.803578 0.407465 0.362066
0.804294 0.410850 0.376127
0.807452 0.423634 0.383292
0.810772 0.437045 0.389998
0.032920 0.089805 0.138240
0.034548 0.091433 0.141495
0.035972 0.092881 0.144367
0.034344 0.091645 0.141503
0.033376 0.090766 0.139200
0.037022 0.092393 0.140828
0.042413 0.095986 0.141930
0.055368 0.108094 0.140758
0.072342 0.119487 0.138480
0.101377 0.128731 0.132881
0.161721 0.145543 0.130660
0.290944 0.179005 0.135868
0.401858 0.212295 0.146691
0.482257 0.245301 0.166872
0.547104 0.274832 0.183891
0.591958 0.299895 0.196846
0.630758 0.320499 0.207164
0.663503 0.336644 0.214846
0.690353 0.349164 0.223004
0.712617 0.358864 0.231532
0.731830 0.369093 0.242054
0.749211 0.379639 0.253772
0.761580 0.384322 0.266340
0.771671 0.386340 0.279295
0.781468 0.393241 0.293764
0.791168 0.401769 0.308737
0.798224 0.412201 0.328946
0.804668 0.423073 0.350364
0.807240 0.428305 0.363636
0.809258 0.432732 0.375745
0.810910 0.442163 0.379614
0.812537 0.451928 0.382934
0.026866 0.099896 0.152367
0.027452 0.100482 0.153538
0.027965 0.101084 0.154653
0.027379 0.101930 0.154914
0.027191 0.102744 0.155215
0.029795 0.103330 0.155801
0.033754 0.106076 0.155471
0.043584 0.118185 0.151174
0.058736 0.130359 0.145511
0.089854 0.142728 0.135746
0.150003 0.162665 0.131636
0.274018 0.199251 0.139969
0.391442 0.237228 0.152745
0.497881 0.277525 0.172926
0.575553 0.309791 0.188578
0.616241 0.331729 0.198409
0.650874 0.350771 0.206644
0.679453 0.366916 0.213284
0.701550 0.378849 0.218642
0.718606 0.387508 0.223004
0.734564 0.394742 0.231312
0.749862 0.401122 0.241989
0.761580 0.404503 0.252083
0.771671 0.406521 0.261914
0.780687 0.410297 0.273257
0.789346 0.414658 0.285105
0.797052 0.426002 0.303036
0.804538 0.438957 0.322371
0.807240 0.445361 0.335383
0.809258 0.450830 0.347492
0.809933 0.454467 0.344525
0.810519 0.457983 0.340554
0.019929 0.118816 0.167376
0.019929 0.118816 0.168288
0.019957 0.118942 0.169240
0.020413 0.120960 0.170802
0.021007 0.122669 0.172055
0.022569 0.122213 0.171144
0.025352 0.124028 0.169268
0.033425 0.135681 0.163214
0.047324 0.148408 0.155760
0.078702 0.164357 0.144107
0.137402 0.186308 0.137967
0.256209 0.221462 0.143956
0.377238 0.260595 0.155268
0.501970 0.306361 0.175449
0.589505 0.340534 0.189335
0.629216 0.359804 0.195129
0.661961 0.376827 0.200142
0.687741 0.391605 0.204373
0.706966 0.402098 0.207872
0.721092 0.409259 0.210802
0.735789 0.414752 0.216783
0.750827 0.419244 0.224595
0.762463 0.421722 0.231959
0.772554 0.423284 0.239120
0.781473 0.424847 0.246428
0.790001 0.426409 0.253784
0.797418 0.435588 0.266589
0.804579 0.446525 0.280650
0.806841 0.451993 0.291807
0.808404 0.456681 0.302548
0.808928 0.456973 0.294370
0.809384 0.456973 0.284930
0.011856 0.149087 0.183521
0.011856 0.149087 0.186516
0.011950 0.149213 0.189356
0.013447 0.151231 0.189876
0.014822 0.152810 0.189958
0.015343 0.151313 0.186963
0.017280 0.152086 0.183395
0.025352 0.162697 0.177341
0.038730 0.175685 0.170147
0.068025 0.195800 0.159536
0.123666 0.218337 0.151183
0.237265 0.246200 0.147797
0.358164 0.281948 0.153249
0.491228 0.330838 0.173430
0.584818 0.365858 0.185039
0.627653 0.383044 0.185624
0.661440 0.397464 0.185950
0.686178 0.409117 0.186015
0.704947 0.417071 0.188863
0.719074 0.422149 0.193876
0.735073 0.427512 0.197383
0.752194 0.433045 0.199987
0.764481 0.435132 0.204292
0.774572 0.435653 0.209370
0.784272 0.436174 0.211469
0.793842 0.436695 0.212576
0.799762 0.439755 0.216592
0.804839 0.443400 0.221279
0.805930 0.445223 0.228529
0.806451 0.446785 0.236146
0.807887 0.446883 0.224843
0.809384 0.446883 0.212279
0.007820 0.184404 0.206729
0.008341 0.184925 0.210245
0.008890 0.185474 0.213508
0.009867 0.186450 0.212987
0.010786 0.187183 0.212222
0.011307 0.186206 0.209748
0.013244 0.187207 0.206798
0.021316 0.196777 0.201786
0.035996 0.211066 0.195373
0.070499 0.239515 0.184762
0.137532 0.266153 0.172503
0.276130 0.288808 0.156618
0.406403 0.318957 0.152501
0.522802 0.361598 0.167995
0.604966 0.391963 0.175599
0.643115 0.406545 0.173060
0.673516 0.418361 0.170261
0.696171 0.427410 0.167201
0.714029 0.433639 0.168096
0.728156 0.437675 0.172067
0.744154 0.442647 0.173231
0.761275 0.448181 0.172710
0.773563 0.450626 0.173890
0.783653 0.451668 0.175843
0.793744 0.453100 0.175599
0.803834 0.454662 0.174623
0.809006 0.454955 0.174440
0.813042 0.454955 0.174440
0.813091 0.453133 0.177914
0.812570 0.451049 0.181885
0.815894 0.454337 0.170354
0.819475 0.457983 0.157790
0.007820 0.224766 0.237001
0.009383 0.226328 0.239474
0.010778 0.227724 0.241696
0.009671 0.226617 0.240134
0.008898 0.225787 0.238848
0.010461 0.226894 0.239499
0.013244 0.229392 0.239478
0.021316 0.237920 0.236549
0.039121 0.254553 0.231439
0.086123 0.295501 0.219786
0.179001 0.329756 0.201928
0.372803 0.349286 0.170420
0.521955 0.371623 0.153022
0.596690 0.398640 0.159141
0.649950 0.418849 0.161017
0.675600 0.430307 0.157436
0.698189 0.439519 0.153074
0.717719 0.446484 0.147932
0.734210 0.451802 0.145572
0.748337 0.455838 0.145376
0.763033 0.460159 0.144327
0.778071 0.464651 0.142764
0.789708 0.468203 0.140754
0.799798 0.471328 0.138541
0.809889 0.475625 0.138818
0.819979 0.480312 0.139924
0.825151 0.481191 0.140132
0.829187 0.481191 0.140132
0.828324 0.475722 0.139961
0.826762 0.469473 0.139766
0.832950 0.479335 0.130904
0.839656 0.490272 0.121464
0.012361 0.273074 0.275218
0.014379 0.275092 0.277236
0.016145 0.276895 0.279002
0.014127 0.275462 0.276984
0.012686 0.274388 0.275324
0.015290 0.275821 0.276170
0.019249 0.279047 0.276919
0.029079 0.290049 0.277245
0.054696 0.311516 0.274901
0.127673 0.364377 0.264550
0.244491 0.401818 0.240142
0.457759 0.405333 0.184807
0.608066 0.413560 0.149441
0.653441 0.429640 0.147358
0.687537 0.442843 0.144420
0.707132 0.452347 0.140384
0.725133 0.461006 0.135339
0.741538 0.468818 0.129285
0.756332 0.474835 0.125830
0.769873 0.479457 0.124398
0.782681 0.483713 0.121867
0.795050 0.487750 0.118677
0.805047 0.490577 0.115308
0.813966 0.492856 0.111858
0.822445 0.496648 0.111630
0.830778 0.500944 0.112477
0.836096 0.503178 0.113587
0.840718 0.504936 0.114759
0.840042 0.500656 0.113140
0.838610 0.495513 0.111122
0.844441 0.505689 0.105625
0.850755 0.516886 0.099896
0.020433 0.327563 0.319617
0.022451 0.329581 0.321635
0.024217 0.331448 0.323400
0.022199 0.331058 0.321382
0.020889 0.330765 0.319462
0.024535 0.331156 0.318225
0.029926 0.334512 0.318062
0.042881 0.350722 0.322554
0.079955 0.378959 0.324117
0.189388 0.443278 0.316890
0.328665 0.480458 0.285191
0.533600 0.457934 0.199649
0.671279 0.447152 0.142671
0.696863 0.455940 0.133296
0.719371 0.464586 0.126257
0.737925 0.473049 0.122221
0.753842 0.482749 0.117176
0.767122 0.493686 0.111122
0.779963 0.501656 0.108253
0.792462 0.507320 0.107863
0.802927 0.511967 0.104420
0.812171 0.516003 0.099147
0.819759 0.516682 0.095843
0.826595 0.515836 0.093435
0.832210 0.516503 0.091905
0.837418 0.517675 0.090668
0.842996 0.521862 0.093081
0.848660 0.526744 0.096336
0.849026 0.527412 0.094977
0.848635 0.527477 0.092959
0.851602 0.533096 0.091368
0.854791 0.539085 0.089805
0.039857 0.380790 0.350140
0.041225 0.382157 0.351507
0.042543 0.383602 0.352866
0.043129 0.386206 0.354103
0.044065 0.388484 0.354933
0.047450 0.388484 0.352915
0.053703 0.392500 0.351922
0.072387 0.413918 0.355373
0.121245 0.445833 0.357586
0.260624 0.509241 0.356089
0.413003 0.540708 0.321330
0.593980 0.501909 0.213394
0.713659 0.478465 0.140417
0.731171 0.480613 0.125704
0.748682 0.486492 0.116517
0.766194 0.497169 0.114434
0.780679 0.507910 0.110365
0.792137 0.518717 0.104311
0.803228 0.526484 0.100929
0.814035 0.531887 0.099627
0.822319 0.536843 0.096576
0.829089 0.541530 0.092475
0.835367 0.543845 0.090253
0.841421 0.545082 0.088886
0.845474 0.545391 0.087031
0.848859 0.545391 0.085012
0.853355 0.549253 0.086327
0.858107 0.554005 0.088410
0.859271 0.557504 0.088044
0.859922 0.560824 0.087328
0.861855 0.562985 0.086673
0.863873 0.565068 0.086022
0.066093 0.433261 0.372339
0.066418 0.433586 0.372665
0.067020 0.434315 0.373373
0.071773 0.441085 0.379818
0.076224 0.447009 0.385205
0.078568 0.447009 0.383187
0.085342 0.452001 0.381413
0.111317 0.478627 0.380697
0.172153 0.512365 0.381608
0.337572 0.567440 0.387402
0.497437 0.589924 0.352122
0.645084 0.540708 0.226479
0.743540 0.508411 0.140872
0.760010 0.504309 0.121993
0.776480 0.508496 0.111830
0.792950 0.523339 0.112871
0.806394 0.535122 0.110365
0.816810 0.543845 0.104311
0.826274 0.550115 0.099758
0.834997 0.554477 0.096372
0.841198 0.559693 0.094493
0.845885 0.565422 0.093516
0.851512 0.571643 0.092987
0.857566 0.578088 0.092662
0.860838 0.579699 0.091067
0.863181 0.579699 0.089049
0.865789 0.581868 0.087824
0.868458 0.584537 0.086782
0.870273 0.589598 0.087848
0.871966 0.595002 0.089215
0.873963 0.594363 0.087714
0.875981 0.593321 0.086022
0.115915 0.500993 0.416738
0.116631 0.500993 0.416738
0.117501 0.501319 0.417063
0.120691 0.506527 0.422271
0.124272 0.511352 0.426844
0.130587 0.513501 0.426975
0.143566 0.520275 0.426433
0.185425 0.547096 0.422983
0.257702 0.577286 0.420802
0.421234 0.617583 0.422430
0.570728 0.628219 0.380094
0.689340 0.573600 0.241041
0.768721 0.537730 0.146296
0.782718 0.533108 0.125399
0.797027 0.536005 0.113587
0.811740 0.548569 0.113457
0.823783 0.559246 0.111081
0.833158 0.568034 0.106459
0.841397 0.574955 0.101763
0.848753 0.580423 0.097011
0.854035 0.585810 0.095677
0.858071 0.591149 0.096393
0.863002 0.597382 0.097601
0.868340 0.604022 0.099033
0.871188 0.605145 0.097341
0.873207 0.604429 0.094607
0.875225 0.606516 0.093036
0.877243 0.609251 0.091734
0.878634 0.614263 0.093337
0.879936 0.619601 0.095355
0.881910 0.618714 0.094261
0.883928 0.617412 0.092959
0.176458 0.575663 0.471226
0.178215 0.575663 0.471226
0.179802 0.575728 0.471291
0.178826 0.576770 0.472333
0.179542 0.578340 0.473651
0.192106 0.583613 0.476906
0.213874 0.592536 0.478513
0.275524 0.617274 0.472980
0.358998 0.641475 0.466893
0.507947 0.664065 0.459146
0.638952 0.661550 0.406785
0.730483 0.603807 0.256274
0.791766 0.566765 0.153978
0.802638 0.564226 0.132039
0.814279 0.566016 0.118274
0.826908 0.573372 0.115019
0.837389 0.581965 0.112123
0.845722 0.591796 0.109584
0.852920 0.600344 0.105214
0.859234 0.607896 0.099420
0.864125 0.613413 0.098346
0.868161 0.617709 0.100103
0.872377 0.622185 0.103070
0.876673 0.626742 0.106585
0.879261 0.626563 0.104632
0.881279 0.624805 0.100856
0.883297 0.627544 0.099937
0.885315 0.631319 0.099676
0.885795 0.635551 0.101410
0.886056 0.639848 0.103428
0.887964 0.639872 0.103310
0.889982 0.639612 0.103049
0.255163 0.624602 0.506039
0.259525 0.625383 0.506820
0.263928 0.626262 0.507601
0.268940 0.628606 0.508382
0.274604 0.631218 0.509082
0.284825 0.635710 0.509212
0.306788 0.643607 0.509648
0.379635 0.666262 0.511405
0.462588 0.685841 0.508443
0.575862 0.696192 0.491322
0.677785 0.685507 0.429912
0.754733 0.628545 0.271068
0.806609 0.591893 0.163466
0.816700 0.589094 0.141267
0.826990 0.590852 0.127698
0.837536 0.598468 0.125224
0.846845 0.606541 0.123369
0.854918 0.615069 0.122132
0.860976 0.622022 0.118185
0.865468 0.627751 0.112131
0.869675 0.632422 0.111610
0.873711 0.636458 0.114409
0.877747 0.641032 0.116985
0.881783 0.645849 0.119458
0.884306 0.647297 0.120565
0.886324 0.647623 0.121216
0.888342 0.650329 0.121338
0.890360 0.653584 0.121338
0.890613 0.656155 0.123104
0.890613 0.658629 0.125122
0.892505 0.659516 0.125248
0.894523 0.660297 0.125248
0.339924 0.664964 0.534292
0.347410 0.666787 0.536115
0.355328 0.668837 0.537938
0.369715 0.674306 0.539760
0.382930 0.679392 0.540721
0.387943 0.681800 0.535643
0.407237 0.687615 0.533800
0.488417 0.708186 0.545973
0.566944 0.723599 0.548480
0.637512 0.723534 0.521984
0.706819 0.706339 0.451851
0.773351 0.651460 0.285716
0.818718 0.615720 0.173557
0.828808 0.611879 0.151357
0.838187 0.613962 0.138700
0.846650 0.623662 0.138309
0.854918 0.631734 0.138016
0.862990 0.638179 0.137821
0.867877 0.642464 0.134330
0.870285 0.645068 0.128275
0.873711 0.648567 0.128406
0.877747 0.652603 0.132247
0.881783 0.657892 0.133715
0.885820 0.663751 0.134106
0.888342 0.667804 0.139379
0.890360 0.671254 0.146280
0.892379 0.673700 0.147574
0.894397 0.675913 0.147574
0.894649 0.676531 0.149339
0.894649 0.676922 0.151357
0.896541 0.678655 0.151484
0.898559 0.680478 0.151484
0.460757 0.711885 0.557626
0.469676 0.713903 0.559644
0.478412 0.715962 0.561557
0.484401 0.718631 0.561882
0.491098 0.721324 0.561939
0.502751 0.724189 0.560116
0.522655 0.728554 0.558745
0.578316 0.739426 0.559331
0.633163 0.746652 0.551861
0.685568 0.742941 0.520222
0.737811 0.724685 0.450622
0.789695 0.674428 0.297507
0.825907 0.641503 0.193803
0.835998 0.637467 0.172450
0.845205 0.639612 0.161920
0.853278 0.649702 0.165305
0.860081 0.656505 0.166151
0.865614 0.660020 0.164459
0.870122 0.663646 0.162217
0.873833 0.667356 0.159548
0.878276 0.672328 0.162127
0.883159 0.678057 0.167856
0.886296 0.682846 0.168483
0.888639 0.687208 0.166790
0.891374 0.691325 0.174326
0.894238 0.695362 0.184937
0.896415 0.699133 0.193803
0.898433 0.702844 0.202266
0.898685 0.704048 0.203608
0.898685 0.704895 0.203934
0.900577 0.705253 0.201574
0.902595 0.705578 0.199035
0.589916 0.760319 0.579825
0.599876 0.762337 0.581843
0.608807 0.764136 0.583626
0.602297 0.762638 0.581868
0.599229 0.761816 0.580753
0.620256 0.765722 0.584138
0.641528 0.768786 0.583874
0.663857 0.768200 0.567794
0.690581 0.766312 0.546783
0.730487 0.760518 0.510978
0.769254 0.742457 0.444047
0.805515 0.697408 0.308639
0.831962 0.667739 0.216392
0.842052 0.663703 0.196081
0.851260 0.665847 0.187960
0.859332 0.675937 0.195512
0.864573 0.681178 0.197399
0.866981 0.681568 0.193624
0.871294 0.684998 0.192814
0.877088 0.690792 0.194311
0.882963 0.697848 0.199755
0.888888 0.705660 0.207567
