其他预设/【236】赛博朋克风调色预设/【后期菌】视频调色预设/CUBE/Tokyo 09.cube
# LUT by SparkleStock. Enhanced with VOXCOLOR algorithms.
LUT_3D_SIZE 8
DOMAIN_MIN 0.000000 0.000000 0.000000
DOMAIN_MAX 0.903226 0.903226 0.903226
0.086022 0.097752 0.109482
0.086022 0.101410 0.113392
0.097878 0.108094 0.120329
0.182260 0.174566 0.190206
0.524328 0.441838 0.432882
0.778860 0.635449 0.605556
0.833475 0.703560 0.655126
0.858071 0.736480 0.681739
0.089932 0.101662 0.113392
0.089948 0.101898 0.113628
0.098065 0.108347 0.120801
0.187228 0.186345 0.201277
0.520934 0.438314 0.427402
0.770959 0.627719 0.595303
0.824870 0.698865 0.650430
0.857932 0.736480 0.683505
0.089427 0.103175 0.115410
0.092833 0.107085 0.119825
0.113095 0.124760 0.137874
0.222032 0.216132 0.230161
0.557732 0.462145 0.446753
0.783328 0.645503 0.608384
0.831892 0.704305 0.656179
0.860113 0.743214 0.694251
0.085139 0.131933 0.152240
0.089097 0.132739 0.153298
0.095705 0.149803 0.173630
0.400503 0.365642 0.371343
0.732314 0.603147 0.572371
0.821265 0.702315 0.651098
0.847354 0.731984 0.683212
0.867331 0.757003 0.708479
0.160061 0.227541 0.247974
0.165618 0.235813 0.253467
0.179652 0.237525 0.248869
0.455008 0.381413 0.346857
0.798773 0.606288 0.524934
0.847203 0.682455 0.583662
0.868515 0.723440 0.629220
0.879155 0.747193 0.662055
0.401350 0.453694 0.451298
0.411367 0.461018 0.457523
0.455448 0.479555 0.469696
0.827730 0.663145 0.567017
0.871441 0.731940 0.630457
0.886605 0.762211 0.675209
0.889746 0.769197 0.693156
0.894018 0.778738 0.707283
0.699524 0.679595 0.634440
0.706140 0.682875 0.637565
0.767000 0.711917 0.653372
0.874260 0.751238 0.660468
0.887207 0.770259 0.696257
0.898181 0.784016 0.716836
0.906839 0.792861 0.729372
0.915155 0.796539 0.736407
0.846971 0.765617 0.712642
0.847362 0.765731 0.712894
0.864882 0.769047 0.715795
0.884774 0.780211 0.713398
0.894726 0.788601 0.729214
0.909972 0.801942 0.743605
0.920380 0.806158 0.748788
0.926308 0.811150 0.759351
0.086274 0.098004 0.109734
0.089696 0.101678 0.113644
0.094187 0.104909 0.120329
0.186373 0.182386 0.200471
0.524633 0.439181 0.427455
0.769356 0.625945 0.593610
0.832495 0.701851 0.653417
0.856305 0.735093 0.686028
0.086510 0.098476 0.110206
0.089741 0.101692 0.113658
0.101725 0.108615 0.124681
0.191712 0.185264 0.203379
0.516988 0.432684 0.421201
0.767163 0.623741 0.590345
0.820751 0.687612 0.642707
0.851920 0.730821 0.679636
0.089899 0.103680 0.116452
0.089885 0.103491 0.116450
0.119877 0.125443 0.138944
0.225057 0.220174 0.234423
0.567645 0.470455 0.452405
0.770945 0.633732 0.600138
0.823938 0.701489 0.654682
0.854970 0.736099 0.685917
0.088845 0.135689 0.159198
0.089097 0.135938 0.159273
0.100756 0.154903 0.178827
0.387651 0.358450 0.364438
0.733589 0.605259 0.574483
0.813273 0.694479 0.644417
0.839802 0.724593 0.676708
0.861279 0.751000 0.703735
0.168576 0.240341 0.256864
0.169825 0.240194 0.260453
0.189906 0.248626 0.260222
0.457386 0.380405 0.344186
0.798196 0.607968 0.522638
0.841354 0.679195 0.580813
0.861559 0.718880 0.624467
0.873129 0.739657 0.652222
0.424305 0.475478 0.473163
0.411666 0.461262 0.457680
0.466667 0.489891 0.477628
0.815471 0.646255 0.553279
0.862624 0.724604 0.622271
0.879688 0.758801 0.671685
0.885409 0.766533 0.690252
0.892313 0.777456 0.707059
0.701611 0.679286 0.634286
0.703749 0.679786 0.635972
0.749055 0.696010 0.641307
0.876469 0.752717 0.661638
0.884160 0.767169 0.689803
0.897371 0.782355 0.714774
0.904015 0.788565 0.727134
0.906719 0.788587 0.729321
0.845205 0.765478 0.710497
0.845823 0.765746 0.711226
0.862965 0.768667 0.714947
0.884774 0.780577 0.711732
0.895790 0.790386 0.726888
0.908747 0.800681 0.742380
0.918958 0.804945 0.748751
0.924404 0.809992 0.755389
0.085517 0.099265 0.115410
0.088923 0.102419 0.115158
0.098891 0.109543 0.129158
0.183492 0.185637 0.205032
0.497868 0.430124 0.426722
0.771581 0.636584 0.611810
0.830265 0.705578 0.663450
0.857241 0.738576 0.690394
0.088451 0.105385 0.118344
0.085531 0.099660 0.115424
0.103936 0.114373 0.130798
0.195078 0.197371 0.216085
0.506840 0.436146 0.430120
0.756845 0.620091 0.592790
0.817806 0.693652 0.648527
0.847866 0.730583 0.680516
0.085826 0.105942 0.123535
0.086372 0.109258 0.126917
0.112078 0.129841 0.147304
0.226029 0.229613 0.245420
0.552528 0.467349 0.453893
0.766631 0.637012 0.605890
0.815770 0.695861 0.651098
0.848080 0.731830 0.684262
0.088894 0.142683 0.167405
0.089392 0.142355 0.170761
0.098466 0.159439 0.185513
0.376577 0.358621 0.369748
0.726932 0.610196 0.580504
0.809193 0.694874 0.648550
0.836439 0.723861 0.678377
0.856063 0.747976 0.701063
0.169634 0.248210 0.267256
0.172422 0.251576 0.272148
0.191755 0.262091 0.282932
0.414156 0.369029 0.349861
0.798676 0.615005 0.532132
0.838377 0.683258 0.589984
0.855858 0.715316 0.623963
0.864554 0.733503 0.649634
0.426649 0.483498 0.480328
0.416089 0.474563 0.472197
0.450409 0.501613 0.497766
0.786262 0.653298 0.569839
0.859816 0.722382 0.620162
0.877351 0.753768 0.669334
0.882152 0.763200 0.691275
0.884054 0.767904 0.700476
0.690361 0.677943 0.635506
0.689317 0.677292 0.636964
0.733011 0.706585 0.657823
0.872770 0.759594 0.683138
0.884586 0.768746 0.692265
0.894911 0.781519 0.716698
0.897034 0.781906 0.721862
0.898957 0.781566 0.724745
0.847276 0.766829 0.719782
0.847950 0.767226 0.718654
0.854005 0.768554 0.721377
0.884606 0.782193 0.726164
0.898564 0.792096 0.735488
0.912185 0.801666 0.746323
0.915583 0.802012 0.745246
0.918062 0.804252 0.751355
0.062561 0.122600 0.157664
0.062260 0.123006 0.157518
0.073437 0.130110 0.168581
0.168975 0.212617 0.246021
0.432903 0.425245 0.444543
0.740948 0.649889 0.630624
0.820691 0.724453 0.686866
0.852159 0.751417 0.708947
0.065714 0.125549 0.160663
0.065931 0.122865 0.157991
0.077145 0.132667 0.173595
0.174572 0.221394 0.254352
0.433061 0.427193 0.446816
0.719415 0.630322 0.609843
0.814769 0.716617 0.680883
0.845084 0.745891 0.705881
0.065714 0.129439 0.165513
0.065940 0.131027 0.169513
0.083461 0.150112 0.189860
0.201490 0.250246 0.284260
0.486896 0.470252 0.488276
0.748967 0.657161 0.630797
0.813642 0.717656 0.682916
0.845405 0.746259 0.708513
0.077949 0.181902 0.222369
0.074745 0.176155 0.219785
0.096849 0.202567 0.246639
0.292837 0.355248 0.386532
0.673156 0.615517 0.605840
0.799907 0.709123 0.677728
0.833329 0.736163 0.704804
0.848225 0.752664 0.723172
0.196179 0.306898 0.336860
0.194815 0.304757 0.337487
0.225528 0.335843 0.368094
0.327059 0.420831 0.447712
0.817470 0.714809 0.664158
0.846837 0.740087 0.692627
0.857130 0.755881 0.712139
0.862072 0.753999 0.705566
0.469021 0.558171 0.563595
0.449156 0.541033 0.550228
0.476225 0.564064 0.566829
0.631384 0.660604 0.637592
0.863572 0.744946 0.666454
0.872654 0.759833 0.686356
0.875461 0.761596 0.700628
0.880075 0.766462 0.708377
0.669712 0.700073 0.668329
0.679266 0.709134 0.677145
0.700903 0.717974 0.685460
0.827237 0.766890 0.730903
0.886259 0.780732 0.720561
0.897575 0.787598 0.733296
0.896517 0.785522 0.729434
0.898897 0.784744 0.732688
0.813852 0.768103 0.737579
0.818454 0.770379 0.739402
0.827117 0.776362 0.744035
0.877368 0.794415 0.757946
0.897809 0.798320 0.746517
0.912477 0.806617 0.754057
0.913495 0.804750 0.753626
0.915855 0.808875 0.752995
0.053858 0.178223 0.242803
0.050322 0.174623 0.239202
0.058533 0.186939 0.251388
0.124695 0.243039 0.299179
0.349168 0.422609 0.475946
0.677638 0.662030 0.667958
0.806886 0.742384 0.724661
0.839298 0.758728 0.740362
0.051970 0.172425 0.237005
0.052043 0.175192 0.239836
0.064522 0.197916 0.260734
0.132831 0.252593 0.308839
0.352163 0.422550 0.475822
0.664818 0.650922 0.650726
0.796268 0.731173 0.711301
0.839903 0.758295 0.740938
0.058273 0.193750 0.259078
0.060149 0.192114 0.258109
0.067425 0.204412 0.273097
0.145466 0.274440 0.331484
0.398155 0.468569 0.521149
0.695001 0.667793 0.663132
0.804146 0.735427 0.716116
0.836353 0.756533 0.739569
0.093854 0.262536 0.325968
0.096590 0.267030 0.330645
0.103199 0.275116 0.341337
0.190231 0.365360 0.430393
0.552555 0.596600 0.615231
0.787732 0.728280 0.708509
0.826854 0.747390 0.730866
0.843975 0.764663 0.746696
0.259118 0.422365 0.471405
0.261809 0.422064 0.469684
0.290271 0.446519 0.494505
0.387852 0.541128 0.578977
0.703424 0.717332 0.703434
0.845275 0.764397 0.742457
0.855162 0.774954 0.748138
0.859023 0.783690 0.753768
0.522533 0.637386 0.642126
0.518763 0.635044 0.641872
0.538896 0.650112 0.654094
0.636361 0.709303 0.694947
0.793061 0.766230 0.743236
0.874984 0.779896 0.734195
0.877117 0.775931 0.727094
0.883371 0.778520 0.730042
0.705769 0.740342 0.717890
0.703204 0.739606 0.716315
0.724178 0.747903 0.723704
0.799118 0.769789 0.747194
0.871957 0.803110 0.771779
0.895170 0.796665 0.750200
0.897685 0.792850 0.742052
0.900266 0.791818 0.739670
0.813994 0.774718 0.751539
0.813695 0.777480 0.751119
0.823090 0.779613 0.754696
0.856473 0.795135 0.771249
0.892387 0.816343 0.775774
0.912062 0.809880 0.760049
0.913338 0.808866 0.756104
0.918213 0.816213 0.757637
0.065084 0.241920 0.325292
0.065002 0.243018 0.323832
0.068379 0.254891 0.340408
0.122844 0.321675 0.398363
0.334354 0.475368 0.549859
0.550685 0.640214 0.670766
0.759900 0.742042 0.736431
0.823576 0.770406 0.762651
0.065002 0.240577 0.320211
0.065002 0.242080 0.324103
0.067671 0.252447 0.337875
0.122711 0.324298 0.396887
0.331830 0.466632 0.542282
0.544989 0.633500 0.662091
0.760432 0.741210 0.736336
0.822705 0.769946 0.762276
0.069840 0.262137 0.342194
0.066613 0.259490 0.342358
0.074447 0.274426 0.356238
0.142108 0.348019 0.427097
0.359054 0.500958 0.569322
0.591512 0.666674 0.682281
0.772284 0.747814 0.740710
0.829581 0.769169 0.760961
0.119650 0.348627 0.428216
0.114383 0.344722 0.427627
0.126376 0.355789 0.440979
0.219631 0.448360 0.534139
0.483739 0.619536 0.659497
0.727341 0.733049 0.729135
0.820405 0.764065 0.754753
0.846533 0.777619 0.761268
0.343358 0.548638 0.605125
0.341973 0.545614 0.599858
0.365703 0.569222 0.619992
0.471673 0.657461 0.678543
0.669398 0.741159 0.741355
0.846415 0.783089 0.766136
0.861346 0.794534 0.770642
0.863512 0.802416 0.772579
0.587125 0.717601 0.714672
0.579422 0.712446 0.711282
0.602084 0.720544 0.718230
0.692325 0.756465 0.748091
0.810570 0.785213 0.770998
0.867131 0.807969 0.777525
0.877953 0.806461 0.768758
0.883182 0.806674 0.764132
0.738576 0.764339 0.750322
0.736000 0.764283 0.749291
0.743071 0.766510 0.751258
0.810169 0.783321 0.764955
0.860618 0.803989 0.777388
0.880919 0.815882 0.777303
0.898182 0.804908 0.755764
0.903154 0.803574 0.751482
0.812716 0.779422 0.759245
0.816447 0.781339 0.762150
0.819881 0.781916 0.763269
0.855703 0.800186 0.778808
0.881426 0.822491 0.785579
0.903715 0.829929 0.781629
0.914482 0.824256 0.768403
0.919890 0.824909 0.769512
0.078201 0.319490 0.409422
0.079560 0.320849 0.412140
0.080541 0.328181 0.423549
0.136555 0.398485 0.505200
0.339293 0.527847 0.605922
0.510502 0.660330 0.692098
0.667466 0.734299 0.740606
0.788320 0.767509 0.764628
0.073408 0.317094 0.405064
0.075306 0.319079 0.406085
0.084056 0.335442 0.425843
0.135033 0.398948 0.506200
0.338010 0.527077 0.604787
0.512903 0.661163 0.692986
0.668478 0.733080 0.737798
0.792826 0.769759 0.766594
0.084829 0.333743 0.426633
0.081006 0.330135 0.422178
0.093090 0.350843 0.445166
0.150086 0.414829 0.524232
0.368583 0.560789 0.629694
0.552339 0.685954 0.708465
0.710419 0.748734 0.749244
0.804545 0.772893 0.768785
0.156606 0.430478 0.532603
0.157146 0.433617 0.533996
0.173294 0.446368 0.547535
0.259852 0.534433 0.613216
0.485981 0.673819 0.704506
0.720839 0.757904 0.757107
0.809651 0.774025 0.768090
0.846514 0.787108 0.775774
0.395649 0.641316 0.680201
0.386626 0.634360 0.675347
0.412811 0.650096 0.684769
0.519292 0.713909 0.726946
0.713267 0.772253 0.773104
0.853445 0.799090 0.780691
0.866592 0.807677 0.781454
0.865057 0.807751 0.779372
0.635445 0.747926 0.746664
0.636272 0.745982 0.748733
0.653861 0.754049 0.752094
0.747472 0.779215 0.772033
0.836746 0.800848 0.783515
0.868588 0.815886 0.787004
0.879309 0.821417 0.784125
0.885917 0.823567 0.782664
0.761759 0.779617 0.771211
0.758405 0.778674 0.767932
0.772408 0.781457 0.772622
0.823344 0.793492 0.777041
0.864019 0.811359 0.784297
0.880739 0.828052 0.790638
0.899455 0.829598 0.784173
0.907689 0.825094 0.774714
0.822807 0.792051 0.774877
0.817739 0.785347 0.769463
0.824304 0.788971 0.773472
0.855526 0.805220 0.780529
0.880793 0.828079 0.791977
0.898026 0.840051 0.800203
0.915216 0.839403 0.790317
0.920096 0.837903 0.787091
0.087787 0.380286 0.499354
0.087535 0.380033 0.498825
0.092405 0.388863 0.504802
0.163556 0.451513 0.565410
0.346629 0.581717 0.654971
0.525829 0.694153 0.720645
0.667190 0.746107 0.753728
0.775239 0.772847 0.776757
0.088129 0.380375 0.499419
0.085935 0.376566 0.491484
0.098831 0.393506 0.512510
0.163648 0.455616 0.567599
0.349478 0.581378 0.654596
0.521900 0.693706 0.721971
0.666337 0.746077 0.754168
0.771434 0.769760 0.775959
0.102598 0.395828 0.509725
0.104183 0.396095 0.512337
0.112844 0.408993 0.526077
0.183080 0.478816 0.585327
0.380778 0.613972 0.676413
0.563809 0.714430 0.732994
0.703921 0.758262 0.763612
0.795594 0.778248 0.779531
0.183537 0.496994 0.592349
0.184492 0.497948 0.596760
0.203148 0.517129 0.610351
0.301126 0.605359 0.669663
0.534943 0.725751 0.746361
0.733050 0.769760 0.771406
0.814124 0.787382 0.781222
0.849092 0.799421 0.782405
0.424480 0.685243 0.717251
0.418271 0.678678 0.713481
0.447380 0.698540 0.724956
0.577765 0.746985 0.758949
0.760802 0.790477 0.783889
0.860114 0.812623 0.789849
0.870546 0.818056 0.793888
0.874012 0.821871 0.793491
0.677260 0.766626 0.768326
0.676751 0.766341 0.768685
0.696007 0.773620 0.774722
0.779834 0.790563 0.781644
0.851040 0.810130 0.788310
0.874304 0.826964 0.800909
0.888258 0.836598 0.804113
0.891218 0.837133 0.803935
0.793313 0.789887 0.779869
0.790487 0.789057 0.779093
0.800973 0.790557 0.779262
0.844257 0.804180 0.785254
0.868422 0.820782 0.792630
0.885934 0.836079 0.802244
0.899439 0.842695 0.803949
0.908873 0.841866 0.805096
0.832088 0.799420 0.780838
0.831418 0.799420 0.778293
0.836891 0.800277 0.781398
0.860707 0.809843 0.785130
0.876049 0.829264 0.798110
0.898832 0.845514 0.805075
0.914609 0.852657 0.809646
0.922190 0.853367 0.809673
