其他预设/【236】赛博朋克风调色预设/【后期菌】视频调色预设/CUBE/Tokyo 05_S.cube
# LUT by SparkleStock. Enhanced with VOXCOLOR algorithms.
LUT_3D_SIZE 32
0.144673 0.058651 0.039101
0.146691 0.060669 0.041119
0.148456 0.062435 0.043011
0.146438 0.060417 0.043011
0.144673 0.058651 0.043011
0.144673 0.058651 0.043011
0.146186 0.059029 0.042632
0.154259 0.061048 0.040614
0.165863 0.063570 0.039101
0.188062 0.067606 0.039101
0.215306 0.073535 0.038470
0.253650 0.083625 0.036452
0.301832 0.095986 0.034434
0.366411 0.112131 0.032416
0.422161 0.129158 0.033929
0.466559 0.147321 0.039984
0.503894 0.162457 0.043011
0.534166 0.174566 0.043011
0.559897 0.185539 0.044146
0.582096 0.195630 0.046164
0.599250 0.208243 0.050705
0.613376 0.222369 0.056759
0.627503 0.229559 0.057264
0.641630 0.233595 0.055245
0.652729 0.243686 0.056255
0.662820 0.255794 0.058273
0.676190 0.266263 0.061930
0.690316 0.276354 0.065967
0.697380 0.282912 0.068237
0.703434 0.288967 0.070255
0.709488 0.295021 0.072273
0.715543 0.301075 0.074291
0.146691 0.060669 0.041119
0.146626 0.060604 0.042095
0.146503 0.060482 0.043011
0.145527 0.059505 0.043011
0.144803 0.058781 0.043141
0.145844 0.059823 0.044183
0.148009 0.060852 0.044455
0.155040 0.061829 0.041395
0.165342 0.063310 0.038840
0.185458 0.066304 0.037799
0.213223 0.071842 0.036777
0.257816 0.082974 0.035801
0.309123 0.095595 0.034434
0.371619 0.110698 0.032416
0.425742 0.126685 0.033474
0.469098 0.143806 0.038486
0.506433 0.158942 0.041513
0.537746 0.172092 0.042555
0.565105 0.183521 0.044146
0.589387 0.193611 0.046164
0.606671 0.204923 0.050054
0.619756 0.216966 0.055066
0.632125 0.224221 0.055245
0.644169 0.229298 0.053227
0.655528 0.239649 0.055018
0.666661 0.251758 0.058077
0.678533 0.263919 0.061930
0.690577 0.276093 0.065967
0.697380 0.283824 0.069148
0.703434 0.290920 0.072208
0.707535 0.295086 0.072338
0.711506 0.299057 0.072273
0.148583 0.062561 0.043011
0.146630 0.060608 0.043011
0.144799 0.058777 0.043011
0.144799 0.058777 0.043011
0.145043 0.059021 0.043263
0.146996 0.060974 0.045281
0.149718 0.062561 0.046164
0.155772 0.062561 0.042128
0.164902 0.063098 0.038596
0.183261 0.065246 0.036578
0.211608 0.070528 0.035211
0.261930 0.082701 0.035276
0.316085 0.095632 0.034536
0.376628 0.109824 0.032452
0.429196 0.124813 0.033046
0.471511 0.140828 0.037083
0.508781 0.155801 0.040077
0.541005 0.169732 0.042030
0.569824 0.181503 0.043983
0.595995 0.191593 0.045936
0.613539 0.201725 0.049191
0.625908 0.211880 0.053227
0.636755 0.219216 0.053191
0.646911 0.225270 0.051303
0.658482 0.235817 0.053858
0.670526 0.247860 0.057894
0.680983 0.261596 0.061878
0.691073 0.275723 0.065849
0.697575 0.284609 0.069934
0.703564 0.292747 0.074035
0.705830 0.295208 0.072460
0.707849 0.297291 0.070507
0.148583 0.062561 0.043011
0.147671 0.061650 0.043011
0.146817 0.060795 0.043011
0.146817 0.060795 0.043011
0.146931 0.060909 0.043263
0.147842 0.061821 0.045281
0.149718 0.062561 0.046164
0.155772 0.062561 0.042128
0.165684 0.063619 0.038596
0.187167 0.067850 0.036578
0.217011 0.074889 0.035536
0.265250 0.088105 0.036643
0.318103 0.102077 0.036163
0.378646 0.117310 0.033038
0.430759 0.131974 0.033046
0.472032 0.145905 0.037083
0.508260 0.158274 0.039556
0.539443 0.169081 0.040468
0.567220 0.179485 0.041379
0.592349 0.189575 0.042291
0.612107 0.200357 0.045155
0.628642 0.211555 0.049191
0.641508 0.219216 0.050587
0.652705 0.225270 0.050782
0.663755 0.235035 0.053858
0.674757 0.246037 0.057894
0.685019 0.259578 0.061031
0.695109 0.273705 0.063961
0.700700 0.283502 0.068827
0.705647 0.292681 0.073970
0.707849 0.296185 0.073437
0.709867 0.299309 0.072525
0.148583 0.062561 0.043011
0.148452 0.062431 0.043011
0.148330 0.062309 0.043011
0.148330 0.062309 0.043011
0.148363 0.062325 0.043263
0.148623 0.062455 0.045281
0.149970 0.062610 0.046164
0.156024 0.062870 0.042128
0.166652 0.064644 0.038629
0.190999 0.070959 0.036741
0.222243 0.079715 0.035992
0.268660 0.093842 0.037750
0.320373 0.108725 0.037432
0.380916 0.124870 0.033657
0.432402 0.139135 0.033185
0.472243 0.150983 0.036961
0.507495 0.161139 0.038848
0.538157 0.169602 0.038848
0.565267 0.178980 0.038995
0.589615 0.189071 0.039255
0.611195 0.200097 0.041794
0.631116 0.211685 0.045700
0.645845 0.219558 0.048308
0.658214 0.225742 0.050326
0.668972 0.234954 0.053956
0.679192 0.245175 0.058122
0.689096 0.258146 0.060437
0.698926 0.271752 0.062325
0.703458 0.282282 0.067745
0.707234 0.292372 0.073669
0.709728 0.297153 0.074283
0.712137 0.301580 0.074544
0.148583 0.062561 0.043011
0.147411 0.061389 0.043011
0.146312 0.060291 0.043011
0.146312 0.060291 0.043011
0.146605 0.060437 0.043263
0.148949 0.061609 0.045281
0.151988 0.063001 0.046164
0.158042 0.065344 0.042128
0.168930 0.069201 0.038889
0.194319 0.077599 0.038043
0.226279 0.087787 0.037359
0.272696 0.101914 0.037034
0.324410 0.116798 0.036196
0.384953 0.132942 0.034503
0.434616 0.146296 0.034291
0.470290 0.156061 0.035984
0.505021 0.166737 0.036830
0.538808 0.178325 0.036830
0.567871 0.189071 0.038149
0.593260 0.199161 0.040492
0.613930 0.207584 0.043161
0.631767 0.215005 0.046026
0.647277 0.222292 0.048308
0.661729 0.229518 0.050326
0.673789 0.239771 0.054737
0.685051 0.251034 0.059945
0.693457 0.260815 0.061609
0.701204 0.270254 0.062455
0.703654 0.280264 0.066833
0.705346 0.290354 0.071716
0.710640 0.298064 0.074218
0.716173 0.305616 0.076562
0.147447 0.062183 0.043011
0.146015 0.060555 0.043206
0.144685 0.059029 0.043389
0.144880 0.059029 0.043389
0.145531 0.059257 0.043617
0.149372 0.061080 0.045440
0.153774 0.063428 0.046201
0.160610 0.068050 0.042360
0.172344 0.074039 0.039430
0.198775 0.084130 0.039235
0.231512 0.095603 0.038531
0.278123 0.110121 0.036708
0.329666 0.125175 0.035349
0.389428 0.141125 0.034763
0.437342 0.153884 0.034519
0.470022 0.162542 0.034715
0.504330 0.173837 0.034910
0.540265 0.187769 0.035105
0.570744 0.199430 0.037461
0.596979 0.209325 0.041497
0.616908 0.215680 0.044272
0.633053 0.219912 0.046290
0.649063 0.226650 0.048174
0.665013 0.234527 0.049997
0.678521 0.245431 0.054993
0.691215 0.257344 0.061048
0.698673 0.264656 0.062500
0.704923 0.270905 0.062891
0.705704 0.280174 0.066471
0.705704 0.289874 0.070507
0.712540 0.299757 0.074544
0.719831 0.309652 0.078580
0.141393 0.060165 0.043011
0.143086 0.060620 0.044248
0.144750 0.061048 0.045407
0.145987 0.061048 0.045407
0.147419 0.061145 0.045505
0.150218 0.061926 0.046286
0.154556 0.064014 0.046396
0.165557 0.071761 0.043597
0.180677 0.080093 0.041188
0.208149 0.090184 0.039951
0.241928 0.102309 0.038857
0.289581 0.118909 0.038075
0.340213 0.134875 0.036196
0.395808 0.149783 0.032485
0.442289 0.163324 0.030939
0.477053 0.175107 0.032176
0.511360 0.187443 0.033413
0.545212 0.200333 0.034649
0.574780 0.210952 0.037461
0.601015 0.219806 0.041497
0.620944 0.226422 0.044272
0.637089 0.231695 0.046290
0.652383 0.238042 0.047458
0.667291 0.244878 0.048239
0.682883 0.254740 0.052975
0.698702 0.265612 0.059029
0.707592 0.273575 0.062175
0.714883 0.280866 0.064648
0.715795 0.288442 0.068489
0.715795 0.296059 0.072525
0.718724 0.304835 0.076562
0.721849 0.313688 0.080598
0.134834 0.059660 0.046038
0.138350 0.061418 0.047796
0.141788 0.063082 0.049443
0.144066 0.063342 0.049443
0.146312 0.063603 0.049411
0.148330 0.063863 0.049150
0.152619 0.066015 0.048512
0.166745 0.076366 0.046233
0.185576 0.086913 0.043825
0.218516 0.098045 0.041025
0.256299 0.111374 0.039019
0.304733 0.129537 0.038759
0.354193 0.146381 0.036619
0.405361 0.161029 0.031346
0.449694 0.175221 0.029262
0.485239 0.188827 0.031281
0.518766 0.201684 0.033299
0.550274 0.213792 0.035317
0.578816 0.223631 0.038177
0.605052 0.231703 0.041692
0.625143 0.238351 0.044272
0.641548 0.244145 0.046290
0.656745 0.250118 0.047458
0.671393 0.256173 0.048239
0.688286 0.264863 0.052585
0.705928 0.274433 0.058118
0.716006 0.282786 0.062647
0.724339 0.290859 0.066943
0.724925 0.296937 0.071240
0.724404 0.302731 0.075536
0.725104 0.310905 0.079833
0.725885 0.319238 0.084130
0.126762 0.063696 0.058147
0.128194 0.064412 0.058863
0.129744 0.065165 0.059534
0.133064 0.066467 0.059534
0.136222 0.067769 0.059371
0.138240 0.069071 0.058069
0.142528 0.072265 0.056389
0.156655 0.083658 0.053069
0.180172 0.096027 0.049098
0.231862 0.111325 0.043174
0.282534 0.127519 0.038694
0.330968 0.145682 0.037392
0.378475 0.163307 0.035772
0.424436 0.180038 0.033624
0.464472 0.194490 0.033299
0.496892 0.206013 0.035317
0.527294 0.217829 0.037335
0.555677 0.229937 0.039353
0.582852 0.239775 0.041041
0.609088 0.247848 0.042474
0.629830 0.253845 0.044272
0.647277 0.258598 0.046290
0.664232 0.264245 0.049606
0.680962 0.270299 0.053512
0.696814 0.277428 0.057076
0.712373 0.284914 0.060527
0.722907 0.292877 0.065511
0.732281 0.300949 0.070849
0.731175 0.306116 0.076187
0.728571 0.310869 0.081526
0.732070 0.319954 0.086864
0.735976 0.329329 0.092202
0.120581 0.070255 0.068994
0.121883 0.070906 0.069319
0.123295 0.071582 0.069604
0.126355 0.072623 0.069279
0.129244 0.073787 0.068782
0.130936 0.075805 0.067090
0.134899 0.079776 0.065080
0.148701 0.092210 0.061694
0.173650 0.105669 0.056975
0.232045 0.122205 0.048251
0.290989 0.140164 0.041420
0.351141 0.161257 0.038751
0.403775 0.181129 0.037083
0.443876 0.198966 0.037083
0.479392 0.213414 0.037681
0.509013 0.223505 0.039048
0.536941 0.234604 0.040740
0.563176 0.246713 0.042758
0.588862 0.256551 0.043825
0.614121 0.264623 0.044150
0.635555 0.270580 0.046144
0.654694 0.275267 0.049138
0.672491 0.280223 0.053789
0.689677 0.285301 0.059192
0.704325 0.290867 0.062057
0.718126 0.296596 0.064075
0.728383 0.303964 0.070166
0.737823 0.311711 0.077196
0.736041 0.315926 0.082803
0.732656 0.319637 0.088206
0.738425 0.329329 0.094220
0.744805 0.339419 0.100274
0.118563 0.082364 0.077066
0.124032 0.085098 0.078433
0.129154 0.087531 0.079629
0.129089 0.085448 0.078262
0.129114 0.083877 0.076985
0.129765 0.085895 0.076334
0.132686 0.090062 0.075561
0.145446 0.103537 0.074259
0.164666 0.116476 0.070581
0.203271 0.127803 0.059774
0.260327 0.145112 0.050859
0.357977 0.175579 0.046107
0.431312 0.200919 0.043137
0.464122 0.217715 0.043137
0.494626 0.231577 0.042824
0.522163 0.241667 0.042107
0.549049 0.252767 0.042758
0.575285 0.264876 0.044777
0.599213 0.274714 0.046429
0.621347 0.282786 0.047796
0.643562 0.290045 0.052133
0.665826 0.296815 0.058252
0.682451 0.300274 0.062447
0.696513 0.302227 0.065767
0.709598 0.306230 0.068111
0.722358 0.310918 0.070129
0.730727 0.317244 0.078759
0.738083 0.323950 0.088914
0.737864 0.327123 0.093089
0.736562 0.329793 0.096409
0.743438 0.339419 0.102292
0.750859 0.349510 0.108347
0.126384 0.095229 0.085895
0.133284 0.098875 0.087523
0.139627 0.102089 0.088971
0.137609 0.098834 0.087734
0.135843 0.096189 0.086652
0.135843 0.097817 0.086652
0.137894 0.101715 0.086506
0.148831 0.115451 0.085724
0.163788 0.127869 0.082111
0.190804 0.136332 0.070003
0.246241 0.153624 0.059786
0.364202 0.190340 0.053732
0.450573 0.219782 0.049362
0.484295 0.237098 0.047800
0.514742 0.251253 0.046209
0.540977 0.261344 0.044581
0.566822 0.272443 0.044777
0.592276 0.284552 0.046795
0.614324 0.294171 0.048813
0.633724 0.301852 0.050831
0.655646 0.309534 0.055901
0.679082 0.317216 0.062801
0.694999 0.320154 0.066614
0.707499 0.320935 0.069022
0.719119 0.324157 0.071724
0.730446 0.328193 0.074523
0.737807 0.334187 0.084886
0.744252 0.340632 0.096995
0.746083 0.344228 0.101983
0.747254 0.347418 0.105954
0.753431 0.355613 0.110047
0.759941 0.364141 0.114149
0.150601 0.109356 0.095986
0.154376 0.111960 0.096572
0.157790 0.114328 0.097174
0.155772 0.113156 0.098020
0.154006 0.112204 0.098761
0.154006 0.112790 0.098761
0.155471 0.115646 0.098224
0.163283 0.128341 0.095359
0.176417 0.140238 0.090184
0.205517 0.149742 0.078075
0.259782 0.168076 0.067859
0.369410 0.205834 0.061804
0.456042 0.237098 0.055872
0.504346 0.257540 0.050143
0.542995 0.273453 0.046664
0.569230 0.283543 0.046079
0.594033 0.294643 0.046795
0.617404 0.306751 0.048813
0.637370 0.315784 0.050831
0.654686 0.322424 0.052849
0.674525 0.329064 0.055966
0.695878 0.335704 0.059741
0.711860 0.339749 0.063293
0.725401 0.342613 0.066744
0.735719 0.346356 0.071268
0.744964 0.350393 0.076151
0.752780 0.357232 0.086904
0.760266 0.364719 0.099013
0.764962 0.371180 0.108558
0.769258 0.377495 0.117737
0.771724 0.381978 0.117274
0.774067 0.386340 0.116167
0.176584 0.127897 0.111374
0.179513 0.129915 0.111830
0.182162 0.131836 0.112354
0.180600 0.132291 0.113917
0.179119 0.132576 0.115284
0.178207 0.131665 0.115284
0.178773 0.133024 0.114356
0.185738 0.144221 0.109409
0.198531 0.155483 0.102671
0.228802 0.166941 0.090562
0.280984 0.186231 0.079491
0.381368 0.222752 0.070703
0.465469 0.254073 0.062012
0.522432 0.276728 0.053484
0.565951 0.293886 0.048089
0.592186 0.303976 0.046721
0.615948 0.315304 0.047275
0.637235 0.327868 0.049749
0.655887 0.337027 0.052222
0.672487 0.343537 0.054696
0.690756 0.349762 0.057455
0.710025 0.355816 0.060384
0.725446 0.360170 0.063761
0.739117 0.363750 0.067342
0.749272 0.367673 0.073461
0.758256 0.371709 0.080427
0.766129 0.378284 0.090831
0.773746 0.385445 0.102028
0.779198 0.392606 0.113624
0.784341 0.399767 0.125277
0.785517 0.402534 0.122221
0.786428 0.405007 0.118185
0.204837 0.152114 0.133573
0.209850 0.154132 0.135070
0.214517 0.156118 0.136507
0.213996 0.157615 0.137027
0.213166 0.158551 0.137483
0.210171 0.155556 0.137483
0.209435 0.154832 0.136165
0.218484 0.163946 0.129134
0.232838 0.174427 0.120834
0.263110 0.189010 0.108725
0.312036 0.209146 0.095701
0.402005 0.241501 0.080663
0.479986 0.270608 0.067676
0.537990 0.294305 0.058106
0.582096 0.312049 0.050758
0.608331 0.322139 0.046266
0.631051 0.333987 0.045778
0.650255 0.347593 0.049293
0.668581 0.357794 0.052808
0.686223 0.365345 0.056324
0.703580 0.371961 0.060775
0.720767 0.378015 0.065788
0.734820 0.381653 0.069100
0.747450 0.384192 0.071638
0.758907 0.387854 0.079060
0.769974 0.391890 0.088109
0.777392 0.396772 0.097211
0.783967 0.401850 0.106325
0.787466 0.406928 0.116749
0.790526 0.412006 0.127360
0.793524 0.415619 0.124239
0.796519 0.419134 0.120203
0.247217 0.193485 0.168890
0.252751 0.194983 0.170387
0.257873 0.196447 0.171791
0.256832 0.197424 0.171791
0.255676 0.198034 0.171791
0.253723 0.196081 0.171791
0.253833 0.195422 0.169984
0.262882 0.200370 0.160349
0.279580 0.208507 0.149445
0.319226 0.226214 0.134733
0.371505 0.246383 0.116989
0.451578 0.271967 0.092576
0.520251 0.296063 0.074120
0.569922 0.317676 0.065592
0.607973 0.334248 0.058602
0.631083 0.344338 0.053590
0.651720 0.356447 0.053101
0.669883 0.370574 0.057137
0.687167 0.381295 0.061174
0.703768 0.389367 0.065210
0.720083 0.396178 0.071158
0.736228 0.402233 0.078254
0.751030 0.407660 0.084366
0.765222 0.412803 0.090029
0.778242 0.417897 0.099794
0.790871 0.422975 0.110926
0.798158 0.428053 0.119572
0.804213 0.433131 0.127645
0.805824 0.435474 0.135205
0.806801 0.437427 0.142691
0.812598 0.442798 0.141816
0.818718 0.448397 0.140384
0.303724 0.252010 0.217324
0.308216 0.252466 0.217780
0.312232 0.252824 0.218207
0.309107 0.251717 0.218207
0.306649 0.251026 0.218207
0.308863 0.253239 0.218207
0.311967 0.254793 0.215815
0.318933 0.253491 0.203055
0.338756 0.257723 0.188505
0.397151 0.278555 0.168585
0.459390 0.297942 0.143354
0.530089 0.314152 0.106443
0.586262 0.330435 0.081347
0.618226 0.346841 0.075943
0.643583 0.360483 0.071622
0.660444 0.370574 0.068693
0.677955 0.382682 0.069246
0.696118 0.396809 0.073282
0.711645 0.407530 0.077318
0.725120 0.415602 0.081355
0.740264 0.422414 0.088605
0.756409 0.428468 0.097784
0.774076 0.438192 0.109559
0.792434 0.449585 0.122514
0.807277 0.457804 0.135664
0.820948 0.464965 0.148880
0.828430 0.472126 0.157916
0.834484 0.479287 0.165989
0.834273 0.478245 0.168991
0.833166 0.476032 0.171270
0.842740 0.484071 0.174952
0.853026 0.492795 0.178728
0.367042 0.319617 0.275975
0.369906 0.320202 0.277733
0.372413 0.320626 0.279271
0.369548 0.318608 0.277513
0.367400 0.316980 0.275755
0.370264 0.318087 0.273998
0.374716 0.318559 0.270360
0.386043 0.316280 0.258577
0.409577 0.317924 0.242139
0.469729 0.331335 0.211738
0.530980 0.342507 0.175213
0.594648 0.348757 0.125216
0.641544 0.358620 0.093113
0.660488 0.374504 0.090835
0.677068 0.388110 0.089696
0.690609 0.398786 0.090021
0.706168 0.410895 0.092495
0.723745 0.424436 0.097117
0.739235 0.436548 0.102728
0.753101 0.447550 0.109108
0.768025 0.455826 0.117440
0.783584 0.462466 0.126945
0.800307 0.471837 0.139806
0.817558 0.482448 0.154193
0.831148 0.491155 0.167946
0.843517 0.499227 0.181487
0.852183 0.508252 0.192965
0.859995 0.517496 0.203966
0.860231 0.517171 0.206367
0.859385 0.515478 0.207539
0.868487 0.523184 0.212739
0.878252 0.531517 0.218207
0.435657 0.394286 0.342572
0.436439 0.395914 0.347455
0.437122 0.397313 0.351727
0.436341 0.395295 0.346845
0.435755 0.393017 0.341962
0.436536 0.388916 0.337080
0.441052 0.385742 0.331684
0.461754 0.386588 0.324068
0.489454 0.386670 0.307109
0.538149 0.384456 0.262125
0.589895 0.381632 0.211343
0.648355 0.377466 0.147805
0.688481 0.381990 0.108412
0.698051 0.401000 0.109258
0.708902 0.416819 0.111699
0.721402 0.428537 0.116191
0.735919 0.440646 0.121269
0.752454 0.453145 0.126933
0.769246 0.467731 0.135343
0.786237 0.483941 0.145889
0.801682 0.494821 0.155133
0.816199 0.502503 0.163596
0.829016 0.507902 0.173984
0.841059 0.512264 0.185246
0.851003 0.519408 0.197436
0.860248 0.527481 0.209935
0.870867 0.538198 0.225449
0.881804 0.549525 0.241659
0.884253 0.553106 0.246534
0.885490 0.555580 0.249789
0.890816 0.560617 0.254142
0.896415 0.565825 0.258569
0.492921 0.447514 0.378898
0.492921 0.448230 0.383000
0.493084 0.448978 0.386670
0.495688 0.450215 0.383870
0.497803 0.450541 0.380745
0.496501 0.444486 0.375342
0.499130 0.439458 0.369206
0.518790 0.438872 0.359897
0.543821 0.436251 0.341279
0.584964 0.427528 0.294732
0.630908 0.418194 0.241289
0.687415 0.407518 0.172674
0.725735 0.407192 0.131034
0.733742 0.424118 0.134354
0.744113 0.440361 0.140295
0.757524 0.455724 0.149604
0.771651 0.469460 0.157286
0.786493 0.481569 0.163340
0.802838 0.496351 0.172800
0.820349 0.513212 0.184908
0.834525 0.525394 0.195308
0.846699 0.534768 0.204683
0.856545 0.541323 0.216339
0.865334 0.546596 0.229034
0.872608 0.552992 0.238848
0.879379 0.559762 0.247701
0.887842 0.568754 0.260416
0.896695 0.578259 0.274022
0.900138 0.584118 0.281533
0.902807 0.589456 0.288173
0.905537 0.592963 0.292372
0.908271 0.596349 0.296408
0.543373 0.487876 0.397061
0.543373 0.486509 0.398038
0.543797 0.485630 0.399104
0.550567 0.492075 0.401512
0.556068 0.496957 0.403075
0.552683 0.490903 0.398713
0.552251 0.485093 0.392447
0.564620 0.480340 0.377930
0.582881 0.474335 0.356968
0.618816 0.464570 0.316671
0.661180 0.453218 0.267524
0.717687 0.438375 0.198909
0.757178 0.433493 0.158051
0.768310 0.445211 0.163454
0.781350 0.460802 0.172845
0.796844 0.481374 0.187362
0.810971 0.497714 0.197648
0.823731 0.509822 0.203702
0.838577 0.523432 0.213162
0.855048 0.538210 0.225270
0.866880 0.550913 0.236972
0.875929 0.562370 0.248430
0.883366 0.573157 0.263602
0.890072 0.583638 0.280463
0.895263 0.589773 0.287412
0.899950 0.594461 0.291058
0.903791 0.599677 0.296872
0.907437 0.605015 0.303187
0.911140 0.612176 0.313432
0.914850 0.619597 0.324239
0.915692 0.622258 0.328698
0.916343 0.624602 0.332734
0.593826 0.522688 0.422161
0.594542 0.521386 0.422161
0.595494 0.520491 0.422324
0.599986 0.525699 0.424928
0.603680 0.529767 0.426791
0.601792 0.525861 0.423471
0.602688 0.522224 0.418418
0.615643 0.519750 0.405854
0.632503 0.514298 0.386128
0.661082 0.499911 0.344920
0.696598 0.484975 0.296042
0.747376 0.468830 0.230291
0.783922 0.463060 0.191467
0.796747 0.474583 0.197522
0.811024 0.490150 0.207677
0.827169 0.510917 0.223106
0.841295 0.528071 0.235280
0.853404 0.541612 0.244198
0.866172 0.555482 0.255717
0.879452 0.569609 0.269258
0.888582 0.581579 0.281008
0.895223 0.592255 0.291685
0.900968 0.603424 0.306031
0.906306 0.614817 0.322046
0.910130 0.620155 0.327563
0.913451 0.623475 0.329581
0.915713 0.627959 0.333821
0.917731 0.632711 0.338573
0.921515 0.639115 0.347882
0.925551 0.645755 0.357842
0.925803 0.648062 0.361578
0.925803 0.650080 0.364898
0.644278 0.554977 0.450415
0.646036 0.554717 0.450415
0.647639 0.554538 0.450447
0.646923 0.555580 0.450968
0.646451 0.556393 0.451139
0.647688 0.555612 0.448860
0.651903 0.555490 0.445630
0.669025 0.558224 0.438274
0.686927 0.555116 0.421413
0.707173 0.534479 0.376038
0.734356 0.515246 0.325598
0.776802 0.499101 0.264013
0.808530 0.494113 0.227793
0.822396 0.507719 0.233847
0.837259 0.523546 0.243547
0.853404 0.542230 0.257934
0.867531 0.559384 0.271670
0.879639 0.575008 0.284756
0.890063 0.589790 0.299269
0.899177 0.603916 0.314893
0.905443 0.614585 0.326122
0.910000 0.623178 0.334716
0.914378 0.632979 0.346263
0.918675 0.643330 0.359153
0.921458 0.647627 0.363889
0.923736 0.649905 0.365907
0.925803 0.655040 0.370993
0.927821 0.660834 0.376787
0.931605 0.665546 0.383492
0.935642 0.670103 0.390327
0.935894 0.672280 0.392891
0.935894 0.674298 0.395169
0.679595 0.581213 0.471100
0.683176 0.582775 0.471881
0.686455 0.584240 0.472614
0.685218 0.584240 0.472614
0.684193 0.584142 0.472361
0.684649 0.583361 0.470343
0.687985 0.582897 0.466983
0.703804 0.583809 0.457804
0.720209 0.579724 0.440096
0.738372 0.560649 0.396805
0.763228 0.542735 0.349099
0.802809 0.527371 0.291681
0.832259 0.523066 0.258357
0.844823 0.537193 0.265193
0.857928 0.553085 0.275560
0.871730 0.571248 0.290468
0.883903 0.588012 0.305376
0.894450 0.603375 0.320284
0.902725 0.616725 0.334130
0.909235 0.628508 0.347150
0.914199 0.637972 0.357078
0.918235 0.646044 0.365150
0.922809 0.655504 0.375997
0.927626 0.665595 0.388106
0.930344 0.670803 0.394404
0.932362 0.674383 0.398766
0.934380 0.678704 0.403233
0.936398 0.683196 0.407725
0.940182 0.687289 0.412901
0.944218 0.691325 0.418174
0.945203 0.694202 0.421128
0.945984 0.697001 0.423927
0.709867 0.605430 0.489263
0.715530 0.609076 0.491086
0.720828 0.612493 0.492795
0.720633 0.612493 0.492795
0.720258 0.612265 0.492542
0.718631 0.610443 0.490524
0.719689 0.608351 0.486382
0.732383 0.605096 0.473037
0.746445 0.598928 0.453247
0.764608 0.584020 0.414121
0.789138 0.569295 0.370582
0.827677 0.554973 0.317330
0.855695 0.551320 0.287001
0.866176 0.565446 0.294879
0.876742 0.581339 0.306287
0.887419 0.599502 0.322237
0.896988 0.615744 0.338186
0.905451 0.630066 0.354136
0.911644 0.641202 0.366094
0.916071 0.649861 0.374947
0.920254 0.658153 0.383313
0.924290 0.666225 0.391385
0.929579 0.675685 0.402233
0.935438 0.685776 0.414341
0.938416 0.692546 0.422983
0.940435 0.698210 0.430470
0.942453 0.701229 0.433830
0.944471 0.703637 0.436239
0.948255 0.707470 0.440243
0.952291 0.711506 0.444474
0.954252 0.715359 0.448340
0.956075 0.719200 0.452180
0.733579 0.621449 0.489389
0.737941 0.623792 0.490561
0.742030 0.625989 0.491660
0.742030 0.625989 0.491660
0.742095 0.625843 0.491302
0.742616 0.624671 0.488437
0.744992 0.622962 0.483302
0.755408 0.618926 0.468329
0.767972 0.613002 0.448360
0.786982 0.601414 0.413401
0.810182 0.590620 0.376408
0.842601 0.581571 0.334939
0.866648 0.581213 0.312683
0.876738 0.595339 0.322448
0.886458 0.610491 0.335005
0.895703 0.626962 0.351149
0.903515 0.641414 0.366025
0.909894 0.653848 0.379631
0.915432 0.664781 0.390600
0.920315 0.674546 0.399519
0.926255 0.684311 0.410024
0.932830 0.694076 0.421482
0.937302 0.701737 0.431060
0.940817 0.708443 0.439783
0.943844 0.714660 0.448018
0.946709 0.720714 0.456091
0.950261 0.724864 0.461994
0.953971 0.728575 0.467398
0.956486 0.731830 0.470864
0.958829 0.735020 0.474054
0.960868 0.738210 0.478037
0.962886 0.741399 0.482074
0.755778 0.635575 0.485353
0.758057 0.635836 0.485483
0.760193 0.636080 0.485605
0.760193 0.636080 0.485605
0.760649 0.636064 0.485117
0.764294 0.635933 0.481211
0.768819 0.635071 0.475035
0.777152 0.631035 0.459020
0.788414 0.625892 0.439311
0.808465 0.617429 0.408519
0.830102 0.610736 0.378622
0.855231 0.607936 0.350694
0.874720 0.611484 0.337682
0.884811 0.625611 0.349530
0.894075 0.639852 0.363258
0.902278 0.654239 0.379403
0.908527 0.666608 0.392716
0.912824 0.676959 0.403197
0.918036 0.688152 0.413385
0.923960 0.700000 0.423345
0.932244 0.711848 0.436845
0.941944 0.723696 0.452469
