其他预设/【236】赛博朋克风调色预设/【后期菌】视频调色预设/CUBE/Tokyo 07_S.cube
# LUT by SparkleStock. Enhanced with VOXCOLOR algorithms.
LUT_3D_SIZE 8
DOMAIN_MIN 0.000000 0.000000 0.000000
DOMAIN_MAX 0.903226 0.903226 0.903226
0.187683 0.046921 0.058651
0.191593 0.046921 0.062561
0.227667 0.051840 0.058651
0.460631 0.061678 0.046921
0.676946 0.096869 0.020433
0.772554 0.133951 0.009081
0.815438 0.160061 0.006307
0.848106 0.189449 0.000000
0.191593 0.050831 0.062561
0.191894 0.050831 0.062797
0.230348 0.053606 0.061804
0.452461 0.077571 0.046164
0.650776 0.108477 0.016336
0.752291 0.137788 0.009000
0.814653 0.159711 0.006502
0.850011 0.194519 0.000000
0.180620 0.052849 0.069498
0.182540 0.056067 0.072684
0.257182 0.079776 0.067285
0.466478 0.118576 0.047804
0.641381 0.151134 0.014501
0.748552 0.187919 0.007820
0.817583 0.201993 0.006502
0.864581 0.219367 0.002421
0.105446 0.120834 0.125627
0.104087 0.123356 0.128198
0.140059 0.155593 0.129598
0.530602 0.179232 0.062443
0.683928 0.239442 0.017235
0.771443 0.277009 0.011234
0.837764 0.287579 0.010217
0.887171 0.296693 0.010522
0.161448 0.306877 0.289345
0.167128 0.312370 0.294838
0.234885 0.293499 0.229351
0.623617 0.337845 0.055376
0.778246 0.352663 0.004170
0.835473 0.382967 0.003910
0.895646 0.391133 0.003796
0.929559 0.394762 0.005472
0.352158 0.529625 0.493804
0.361508 0.535598 0.499020
0.523111 0.530329 0.425843
0.871787 0.466954 0.019298
0.900915 0.480275 0.011930
0.936972 0.507890 0.016047
0.960917 0.515860 0.016775
0.975816 0.529629 0.019994
0.666099 0.675937 0.571501
0.671551 0.678867 0.573926
0.757438 0.673919 0.497417
0.954606 0.549346 0.029641
0.976219 0.571362 0.030019
0.993741 0.613738 0.040252
1.000000 0.643135 0.048093
1.000000 0.659382 0.053227
0.835493 0.749976 0.549932
0.833992 0.746066 0.543752
0.885112 0.728835 0.451257
0.980670 0.643774 0.055677
0.990460 0.676092 0.058749
0.994103 0.705265 0.070983
0.996248 0.732896 0.114519
0.997942 0.762756 0.204442
0.195251 0.047173 0.058903
0.195267 0.050595 0.062813
0.225649 0.051807 0.059847
0.456477 0.060368 0.055498
0.663703 0.087665 0.035313
0.758004 0.115483 0.022956
0.818466 0.155268 0.014591
0.848106 0.193131 0.004288
0.188155 0.047645 0.059392
0.192333 0.050911 0.063113
0.237617 0.065208 0.074954
0.448241 0.082932 0.073553
0.630526 0.113693 0.066801
0.738391 0.140493 0.058255
0.810542 0.159935 0.040722
0.852360 0.185863 0.014946
0.182101 0.052882 0.069531
0.181456 0.058372 0.070524
0.258174 0.104062 0.086050
0.454807 0.148290 0.088286
0.621790 0.181755 0.078584
0.727139 0.203764 0.067952
0.814507 0.221197 0.056731
0.862989 0.223523 0.022602
0.109734 0.126453 0.137601
0.108039 0.131401 0.137602
0.161178 0.192763 0.143672
0.504707 0.229708 0.101140
0.651301 0.281024 0.079662
0.745723 0.305990 0.072892
0.829964 0.316606 0.061678
0.893140 0.315947 0.036483
0.164097 0.320117 0.305168
0.163877 0.322399 0.306018
0.247117 0.332268 0.236820
0.593274 0.367638 0.088134
0.733532 0.393960 0.058391
0.806979 0.415729 0.056558
0.880794 0.416064 0.043259
0.928733 0.409044 0.022989
0.384090 0.549806 0.517146
0.364142 0.535837 0.503331
0.522610 0.538613 0.425048
0.822239 0.482963 0.033160
0.851715 0.503975 0.040581
0.902442 0.530707 0.044680
0.946526 0.529915 0.033342
0.969355 0.548154 0.035236
0.668341 0.675783 0.571037
0.670837 0.675864 0.570656
0.753637 0.662323 0.481261
0.948908 0.556329 0.031574
0.959022 0.579335 0.034625
0.979242 0.617316 0.044508
0.990313 0.647847 0.049875
0.986105 0.665714 0.056317
0.833451 0.744276 0.544118
0.837874 0.746420 0.544599
0.884675 0.728506 0.448438
0.977685 0.637064 0.054355
0.990135 0.672975 0.060789
0.994103 0.702742 0.066582
0.995934 0.733815 0.114018
0.995620 0.761823 0.197389
0.169394 0.052344 0.070003
0.182325 0.052564 0.069751
0.215396 0.056059 0.073718
0.440365 0.062097 0.085684
0.641141 0.079076 0.075675
0.744589 0.121806 0.059245
0.809946 0.159178 0.036647
0.842357 0.206229 0.005298
0.172800 0.055278 0.072464
0.169663 0.052692 0.070652
0.225556 0.071073 0.104965
0.432070 0.093791 0.131585
0.608840 0.115406 0.133028
0.720940 0.140851 0.120654
0.803260 0.166107 0.090465
0.854245 0.193821 0.043525
0.149848 0.059721 0.081729
0.154421 0.071740 0.092776
0.236624 0.114636 0.124866
0.439520 0.157514 0.152830
0.607153 0.185539 0.149655
0.717797 0.215646 0.136056
0.806527 0.226897 0.116278
0.864855 0.230055 0.066133
0.097723 0.137426 0.151398
0.099966 0.148307 0.158670
0.158162 0.212370 0.189768
0.473385 0.246501 0.173465
0.633801 0.286644 0.157877
0.733676 0.313761 0.147357
0.823892 0.333691 0.135537
0.889069 0.331456 0.088998
0.141898 0.343935 0.338634
0.146178 0.345191 0.342620
0.185919 0.383465 0.334894
0.527874 0.391680 0.173054
0.719705 0.411646 0.121864
0.791723 0.431602 0.124642
0.862686 0.442293 0.118367
0.925339 0.436575 0.092491
0.337568 0.555376 0.537844
0.324798 0.547280 0.529785
0.378942 0.565747 0.520866
0.776993 0.526275 0.113316
0.831372 0.518497 0.083172
0.878591 0.543951 0.087291
0.917654 0.558935 0.093832
0.955973 0.575985 0.100336
0.651419 0.680869 0.580525
0.655439 0.680718 0.580470
0.688435 0.693383 0.581998
0.931978 0.601202 0.097689
0.950875 0.587429 0.049061
0.967500 0.629898 0.059355
0.955993 0.668848 0.084154
0.969365 0.689173 0.105059
0.831433 0.755526 0.567737
0.831811 0.754278 0.568375
0.845989 0.748926 0.543941
0.972812 0.666170 0.146274
0.990601 0.681824 0.074451
0.991900 0.714095 0.084233
0.971245 0.751281 0.136464
0.977280 0.782372 0.229140
0.076688 0.089805 0.130420
0.076891 0.090009 0.130623
0.089834 0.092047 0.138183
0.328446 0.072843 0.144294
0.544761 0.084622 0.162506
0.686532 0.102410 0.133406
0.753004 0.153925 0.099725
0.788914 0.197989 0.057894
0.080346 0.090562 0.137076
0.078120 0.091238 0.135588
0.113575 0.099733 0.176561
0.337126 0.101445 0.201038
0.542731 0.112215 0.228309
0.680686 0.128937 0.206171
0.763493 0.161869 0.164684
0.802837 0.197614 0.094329
0.076086 0.098899 0.139595
0.077186 0.105870 0.150030
0.133781 0.145703 0.209392
0.364313 0.165917 0.244266
0.548847 0.183740 0.261078
0.681208 0.195389 0.243127
0.769627 0.216577 0.210852
0.817757 0.230004 0.144586
0.046270 0.249398 0.298504
0.045887 0.244795 0.294218
0.104434 0.287947 0.330968
0.345079 0.282433 0.319396
0.579924 0.274246 0.278328
0.695831 0.301788 0.270350
0.792264 0.334199 0.258241
0.870092 0.347640 0.207107
0.067859 0.452738 0.521284
0.065593 0.454793 0.522403
0.106326 0.480963 0.519928
0.232858 0.509950 0.507426
0.690451 0.430214 0.248751
0.780000 0.460375 0.232916
0.853331 0.478562 0.233705
0.927423 0.471051 0.197709
0.240414 0.612131 0.642639
0.223467 0.604098 0.638891
0.258627 0.619838 0.636968
0.441161 0.653292 0.593878
0.843613 0.554835 0.160538
0.873177 0.565488 0.138400
0.896234 0.594243 0.179555
0.950069 0.607949 0.185941
0.513545 0.710583 0.685271
0.523327 0.717452 0.691578
0.547237 0.721770 0.689340
0.738847 0.750473 0.637882
0.953132 0.630780 0.111134
0.942696 0.663718 0.102733
0.929172 0.701679 0.157627
0.957961 0.723454 0.192134
0.689503 0.797166 0.729885
0.695148 0.800644 0.732552
0.720334 0.801056 0.723602
0.908730 0.774902 0.550396
0.989799 0.712915 0.182112
0.975827 0.760361 0.245524
0.954942 0.796378 0.334734
0.967976 0.831413 0.442604
0.047678 0.162583 0.258821
0.046734 0.156016 0.252124
0.049435 0.156671 0.256836
0.112928 0.160394 0.274531
0.317944 0.156639 0.312671
0.525259 0.142423 0.277415
0.624162 0.146438 0.255241
0.687948 0.163234 0.236069
0.047678 0.157798 0.252149
0.050102 0.158030 0.252766
0.063969 0.170908 0.295386
0.162332 0.167649 0.326086
0.373437 0.163229 0.356210
0.556387 0.150461 0.331537
0.651326 0.147993 0.295562
0.701958 0.167172 0.253863
0.037221 0.191479 0.302231
0.037887 0.189632 0.298391
0.067993 0.212201 0.351202
0.184824 0.221861 0.378303
0.401215 0.227049 0.408726
0.575184 0.201628 0.368952
0.675661 0.196781 0.338064
0.734996 0.199279 0.297601
0.004048 0.351939 0.514794
0.006169 0.357858 0.527365
0.044747 0.372270 0.538823
0.130573 0.405577 0.576461
0.418860 0.333899 0.477403
0.611071 0.323557 0.444993
0.726401 0.331489 0.431103
0.810220 0.351277 0.421330
0.032408 0.548528 0.679941
0.031710 0.551858 0.680214
0.056737 0.557589 0.676034
0.138516 0.572189 0.670435
0.384069 0.560587 0.627532
0.711785 0.499384 0.490426
0.808757 0.514812 0.475981
0.890039 0.531707 0.474264
0.145885 0.657323 0.724278
0.147371 0.653369 0.722611
0.161132 0.662553 0.725034
0.296088 0.688485 0.729193
0.534926 0.724929 0.704586
0.881089 0.606492 0.266459
0.900992 0.617562 0.262903
0.951844 0.627207 0.265520
0.414370 0.733266 0.745993
0.405630 0.730241 0.744052
0.439983 0.738706 0.748162
0.565601 0.770960 0.759700
0.801561 0.802100 0.702342
0.928323 0.715179 0.262241
0.919541 0.735781 0.292971
0.955051 0.750702 0.354971
0.619508 0.801556 0.766296
0.621161 0.801471 0.765792
0.634453 0.804050 0.766608
0.722458 0.826622 0.768457
0.922416 0.825692 0.657000
0.959663 0.807680 0.475925
0.943414 0.839334 0.538524
0.961504 0.859757 0.585268
0.005298 0.243181 0.445874
0.002820 0.241720 0.441891
0.002307 0.253540 0.465168
0.017195 0.274148 0.503512
0.075333 0.293243 0.530980
0.182492 0.302666 0.547613
0.379028 0.295977 0.512984
0.507743 0.294956 0.499667
0.005298 0.239450 0.438269
0.005286 0.243184 0.445885
0.003013 0.250822 0.460677
0.034228 0.264498 0.508228
0.120181 0.276957 0.539136
0.237290 0.283017 0.550106
0.389680 0.293812 0.524972
0.505892 0.296440 0.499902
0.000163 0.277310 0.492795
0.000010 0.273606 0.485188
0.007420 0.284939 0.512336
0.053575 0.303257 0.557669
0.157356 0.301687 0.567873
0.290396 0.318851 0.577876
0.414380 0.323061 0.556967
0.553162 0.318987 0.540511
0.007442 0.408144 0.636963
0.007628 0.402512 0.634222
0.015087 0.411624 0.640139
0.065281 0.442608 0.672122
0.201218 0.407406 0.636906
0.376725 0.449970 0.649483
0.521207 0.462289 0.651548
0.654845 0.455961 0.643382
0.045533 0.558350 0.728933
0.044008 0.558636 0.727320
0.056992 0.566798 0.734756
0.128263 0.601992 0.751447
0.281723 0.624219 0.761293
0.511360 0.614966 0.726099
0.693363 0.603104 0.696388
0.806002 0.601330 0.683930
0.168918 0.684612 0.783470
0.163616 0.680201 0.778640
0.186231 0.688943 0.782993
0.290766 0.720413 0.799831
0.423992 0.755801 0.812712
0.628351 0.755625 0.772353
0.839348 0.703222 0.665598
0.918759 0.697070 0.634868
0.355120 0.752719 0.795367
0.361023 0.752109 0.790205
0.372099 0.757349 0.793296
0.473883 0.782172 0.803597
0.628643 0.818282 0.811528
0.823727 0.819856 0.736050
0.926259 0.778282 0.550933
0.955554 0.779538 0.560554
0.554961 0.798594 0.791974
0.556463 0.801198 0.794309
0.566446 0.801331 0.793414
0.662642 0.828977 0.806038
0.797124 0.860851 0.806016
0.919320 0.859304 0.714553
0.944437 0.861299 0.665241
0.963037 0.872459 0.673257
0.000000 0.302589 0.578438
0.000000 0.302280 0.578129
0.002018 0.302027 0.581087
0.010554 0.336311 0.623597
0.051852 0.302361 0.577819
0.128686 0.329219 0.601805
0.243820 0.376042 0.630782
0.325366 0.408844 0.650133
0.000000 0.297796 0.573645
0.001507 0.299549 0.574133
0.001514 0.307490 0.584288
0.010351 0.336364 0.626630
0.049500 0.302719 0.578317
0.130854 0.331137 0.603659
0.247615 0.376997 0.628797
0.338786 0.414427 0.653257
0.000505 0.318355 0.596796
0.000687 0.313493 0.589969
0.004375 0.331584 0.612527
0.012525 0.358491 0.643842
0.061826 0.316543 0.598014
0.170381 0.351975 0.620503
0.278339 0.398992 0.646521
0.367442 0.427589 0.666415
0.013537 0.425648 0.680808
0.015465 0.427539 0.681293
0.015091 0.432047 0.686374
0.028837 0.464559 0.709688
0.123549 0.431829 0.686230
0.303609 0.468644 0.691654
0.439545 0.511830 0.718914
0.548824 0.542442 0.745810
0.070609 0.575512 0.762830
0.065485 0.569452 0.759416
0.079371 0.581172 0.766030
0.135032 0.614020 0.789089
0.276125 0.656396 0.812772
0.478872 0.645866 0.788427
0.579077 0.653155 0.789263
0.665751 0.656371 0.792007
0.201411 0.691118 0.808452
0.202182 0.691075 0.808627
0.219574 0.697553 0.812332
0.312313 0.726816 0.828114
0.420228 0.761840 0.847190
0.540808 0.779747 0.846040
0.727440 0.756321 0.799870
0.852738 0.745007 0.777010
0.344355 0.766121 0.828637
0.344626 0.765986 0.827695
0.358484 0.770824 0.832989
0.434363 0.795456 0.842910
0.535261 0.824336 0.859577
0.705370 0.843263 0.840234
0.905075 0.828208 0.748763
0.964147 0.810064 0.697482
0.473969 0.812139 0.833528
0.468904 0.806347 0.826823
0.486035 0.812063 0.831635
0.563205 0.831315 0.845073
0.724625 0.876287 0.862708
0.830878 0.882055 0.839053
0.943242 0.875859 0.754317
0.964812 0.879798 0.750597
0.003910 0.320247 0.624476
0.005562 0.323185 0.625761
0.004415 0.325996 0.630778
0.009334 0.350319 0.655341
0.041546 0.319568 0.626067
0.145857 0.342251 0.638973
0.239784 0.380851 0.659056
0.333955 0.425441 0.681361
0.005676 0.319983 0.626217
0.004146 0.318372 0.622853
0.005694 0.329095 0.634100
0.010951 0.352375 0.658133
0.043910 0.318954 0.624485
0.143969 0.341246 0.639066
0.239953 0.381420 0.658396
0.329951 0.422561 0.681348
0.006282 0.337076 0.645336
0.007636 0.337702 0.645263
0.009622 0.346873 0.653541
0.014378 0.369392 0.671615
0.062401 0.331855 0.642213
0.175150 0.358447 0.650668
0.274730 0.398648 0.672364
0.360435 0.442745 0.696049
0.016523 0.430722 0.703723
0.016348 0.432415 0.704807
0.019177 0.443014 0.713716
0.034213 0.482250 0.741369
0.144972 0.479354 0.739193
0.302055 0.475232 0.716118
0.407243 0.525076 0.740248
0.479675 0.564650 0.761878
0.086925 0.584968 0.792910
0.085299 0.582771 0.788737
0.099206 0.594968 0.797030
0.160901 0.627767 0.816849
0.295935 0.673007 0.840420
0.462286 0.672034 0.824358
0.543458 0.684067 0.827891
0.604918 0.696015 0.838566
0.228664 0.696114 0.832653
0.227203 0.695992 0.831705
0.245983 0.702018 0.836978
0.333917 0.733511 0.853404
0.439353 0.773598 0.874895
0.531693 0.806023 0.889759
0.634075 0.803653 0.885213
0.717276 0.799479 0.879577
0.360390 0.769401 0.855044
0.358292 0.768640 0.852095
0.370998 0.772624 0.854884
0.441951 0.800191 0.871070
0.524749 0.832907 0.889853
0.620082 0.866339 0.907321
0.799234 0.869215 0.869374
0.904274 0.846311 0.828774
0.439909 0.815101 0.860805
0.434778 0.813462 0.861064
0.451304 0.818030 0.864455
0.518975 0.839887 0.878117
0.656874 0.878091 0.894363
0.771752 0.902173 0.899941
0.883844 0.894874 0.853240
0.945515 0.889355 0.822644
