其他预设/【236】赛博朋克风调色预设/【后期菌】视频调色预设/CUBE/Tokyo 01.cube
# LUT by SparkleStock. Enhanced with VOXCOLOR algorithms.
LUT_3D_SIZE 5
DOMAIN_MIN 0.000000 0.000000 0.000000
DOMAIN_MAX 0.903226 0.903226 0.903226
0.070381 0.039101 0.070381
0.075174 0.039101 0.078201
0.290354 0.074417 0.073913
0.633683 0.190458 0.140258
0.738625 0.249488 0.185161
0.073408 0.040614 0.080598
0.082067 0.043011 0.078787
0.316610 0.090888 0.087356
0.652461 0.199397 0.149828
0.744732 0.264046 0.202315
0.074417 0.096995 0.150853
0.085122 0.097626 0.150401
0.572054 0.185372 0.125399
0.753996 0.287547 0.176930
0.809994 0.368853 0.234795
0.422035 0.393656 0.381673
0.469351 0.411733 0.386499
0.792133 0.404751 0.260347
0.881706 0.548443 0.359905
0.898274 0.592626 0.419826
0.788573 0.630152 0.554473
0.803509 0.622742 0.534284
0.907262 0.625989 0.481821
0.927821 0.716299 0.575537
0.934506 0.750815 0.612994
0.071012 0.040614 0.080598
0.078201 0.042083 0.082111
0.286102 0.076672 0.075536
0.630160 0.189433 0.143672
0.737542 0.253093 0.193937
0.070084 0.040614 0.085977
0.082635 0.045435 0.084894
0.315063 0.095581 0.095770
0.652122 0.205148 0.158356
0.744101 0.263501 0.205037
0.076415 0.107354 0.164439
0.084083 0.112546 0.169551
0.572881 0.192057 0.142178
0.761092 0.300043 0.197248
0.816410 0.374984 0.246826
0.425591 0.407286 0.391637
0.456357 0.428853 0.407963
0.800036 0.419390 0.272173
0.880880 0.549565 0.364045
0.896968 0.599603 0.429020
0.786229 0.631287 0.552780
0.795876 0.630091 0.548493
0.906278 0.623756 0.479697
0.926719 0.713785 0.574215
0.930080 0.747630 0.606801
0.030398 0.070003 0.156907
0.029226 0.070003 0.157790
0.139916 0.081745 0.153892
0.505530 0.200296 0.234620
0.639990 0.282868 0.292161
0.026488 0.074112 0.164495
0.032131 0.081788 0.170525
0.164865 0.099835 0.167299
0.532390 0.217400 0.249661
0.649637 0.303700 0.314735
0.030105 0.174195 0.264412
0.035874 0.185674 0.277672
0.211669 0.233550 0.309145
0.651705 0.407077 0.405200
0.762301 0.503911 0.462372
0.303850 0.492701 0.501421
0.303816 0.490928 0.498068
0.595913 0.593090 0.560260
0.890215 0.589543 0.438245
0.903484 0.638951 0.495888
0.691093 0.693531 0.644738
0.699914 0.698791 0.647317
0.885333 0.724221 0.625793
0.928782 0.745714 0.617066
0.929980 0.773962 0.642508
0.026740 0.107590 0.253019
0.025470 0.112627 0.258410
0.040553 0.134692 0.271797
0.125928 0.241114 0.349005
0.325264 0.337246 0.420867
0.025470 0.115410 0.259326
0.024238 0.117053 0.263460
0.044079 0.149336 0.288892
0.133003 0.255159 0.365809
0.320920 0.357283 0.438837
0.042506 0.264941 0.402171
0.040740 0.264163 0.405060
0.084814 0.356995 0.475326
0.222840 0.461537 0.524693
0.489180 0.567066 0.595024
0.166066 0.552329 0.602301
0.176669 0.559014 0.608680
0.388252 0.656943 0.684051
0.759585 0.730690 0.695585
0.895723 0.709431 0.632295
0.634290 0.724156 0.707063
0.633379 0.725060 0.708118
0.772068 0.787515 0.754283
0.914367 0.798060 0.706968
0.933848 0.809904 0.696703
0.031281 0.152114 0.337275
0.030451 0.151915 0.337076
0.049570 0.199625 0.386425
0.086119 0.272887 0.430995
0.162917 0.375236 0.494475
0.032448 0.158506 0.345380
0.033168 0.162595 0.352142
0.052153 0.211193 0.397505
0.091448 0.281235 0.438485
0.172949 0.390778 0.502034
0.078832 0.325333 0.486024
0.077383 0.326501 0.485149
0.157831 0.441086 0.578430
0.292940 0.501420 0.595289
0.447415 0.590249 0.658115
0.341791 0.617510 0.691297
0.348442 0.618814 0.694972
0.506769 0.699114 0.756093
0.637739 0.769789 0.810754
0.737095 0.786181 0.804839
0.567599 0.750188 0.771882
0.576350 0.753408 0.775069
0.711465 0.806078 0.807585
0.856896 0.853052 0.833652
0.930806 0.845893 0.782882
