其他预设/【236】赛博朋克风调色预设/【后期菌】视频调色预设/CUBE/Tokyo 04.cube
# LUT by SparkleStock. Enhanced with VOXCOLOR algorithms.
LUT_3D_SIZE 5
DOMAIN_MIN 0.000000 0.000000 0.000000
DOMAIN_MAX 0.903226 0.903226 0.903226
0.089932 0.054741 0.035191
0.097121 0.058651 0.032794
0.317725 0.096112 0.025605
0.715164 0.222369 0.007189
0.822123 0.286822 0.003910
0.092959 0.058651 0.035191
0.103086 0.061048 0.035191
0.343240 0.109266 0.032542
0.723900 0.232973 0.007820
0.828483 0.295778 0.007137
0.093085 0.135717 0.075679
0.100132 0.140689 0.080651
0.643025 0.229685 0.012308
0.836157 0.332498 0.004398
0.901586 0.392122 0.005277
0.384574 0.421404 0.271308
0.436203 0.423589 0.250655
0.859568 0.443665 0.017658
0.955997 0.536587 0.022199
0.982151 0.585090 0.045118
0.764734 0.639738 0.413710
0.790863 0.631267 0.373466
0.965913 0.630298 0.161066
0.998896 0.720018 0.364076
1.000000 0.777807 0.523359
0.089049 0.058651 0.035191
0.096238 0.061048 0.036659
0.311076 0.098419 0.029714
0.709496 0.219973 0.011100
0.816049 0.285057 0.006054
0.085525 0.058651 0.037587
0.100804 0.064399 0.040370
0.340379 0.116059 0.039931
0.722404 0.235997 0.016687
0.824708 0.294619 0.010449
0.093028 0.149645 0.092291
0.100484 0.154669 0.096907
0.641521 0.234482 0.021450
0.840671 0.340865 0.010570
0.903799 0.396036 0.009154
0.382572 0.433277 0.289732
0.418048 0.453542 0.301037
0.868512 0.455235 0.020112
0.957598 0.538746 0.022822
0.985288 0.595701 0.061813
0.764986 0.640588 0.414528
0.777103 0.639665 0.403205
0.963195 0.627945 0.156942
0.998896 0.722021 0.367759
0.993813 0.775894 0.520691
0.048182 0.098256 0.089553
0.048182 0.097715 0.089553
0.159548 0.109608 0.083898
0.550530 0.203893 0.081908
0.716169 0.284528 0.082990
0.047641 0.103106 0.093032
0.051220 0.108341 0.099007
0.179843 0.129179 0.102696
0.570926 0.216087 0.088116
0.729031 0.301209 0.101344
0.029999 0.257202 0.235528
0.032595 0.275170 0.253760
0.226300 0.277398 0.243545
0.723371 0.400128 0.232148
0.845264 0.482388 0.254726
0.192350 0.534670 0.503439
0.192610 0.536749 0.502722
0.527984 0.623889 0.538631
0.975576 0.586565 0.087380
0.986935 0.645359 0.208667
0.599746 0.737510 0.674843
0.613200 0.743702 0.679773
0.906470 0.752717 0.576095
0.993656 0.774853 0.541806
0.989247 0.821093 0.633690
0.009712 0.179989 0.208117
0.009956 0.187146 0.213650
0.027891 0.195678 0.219123
0.114210 0.260644 0.297755
0.428240 0.334089 0.342540
0.006046 0.186682 0.211917
0.004814 0.190156 0.220972
0.026290 0.210850 0.243195
0.128123 0.272635 0.314021
0.424789 0.344589 0.358336
0.010973 0.408006 0.482188
0.011459 0.412530 0.486270
0.032619 0.488927 0.582113
0.284376 0.485214 0.538158
0.633320 0.582238 0.594364
0.054110 0.650056 0.699296
0.053293 0.654305 0.706091
0.087088 0.704662 0.747232
0.744166 0.765583 0.712782
0.965603 0.741778 0.613087
0.351621 0.738568 0.729360
0.357905 0.741592 0.729539
0.640898 0.810657 0.776446
0.948543 0.849423 0.734107
0.988105 0.855154 0.712587
0.003910 0.266515 0.357456
0.000000 0.266715 0.354828
0.008618 0.300026 0.405219
0.030967 0.350018 0.455464
0.064705 0.420355 0.535932
0.003080 0.277102 0.368043
0.003137 0.286253 0.381843
0.009277 0.315045 0.427443
0.031119 0.359717 0.471309
0.067207 0.429190 0.546945
0.028758 0.484450 0.611716
0.028799 0.484694 0.609629
0.046074 0.559625 0.678493
0.060112 0.541361 0.649900
0.103501 0.590693 0.683034
0.061930 0.686313 0.770597
0.061150 0.688996 0.773959
0.068526 0.730000 0.814931
0.101161 0.776363 0.849109
0.695834 0.806679 0.821967
0.072355 0.769527 0.819560
0.080794 0.771566 0.820736
0.315729 0.812637 0.838640
0.751346 0.884249 0.872907
0.961002 0.891028 0.816288
