其他预设/【236】赛博朋克风调色预设/【后期菌】视频调色预设/CUBE/Tokyo 08.cube
# LUT by SparkleStock. Enhanced with VOXCOLOR algorithms.
LUT_3D_SIZE 5
DOMAIN_MIN 0.000000 0.000000 0.000000
DOMAIN_MAX 0.903226 0.903226 0.903226
0.097752 0.070381 0.097752
0.106455 0.076688 0.100148
0.377259 0.224514 0.229685
0.767382 0.436162 0.398322
0.877243 0.478794 0.412701
0.103175 0.078201 0.104058
0.118681 0.086518 0.106996
0.406574 0.248946 0.252893
0.778372 0.443872 0.400743
0.885515 0.486415 0.420090
0.053480 0.186674 0.213162
0.065210 0.196297 0.224872
0.629118 0.394636 0.319865
0.852346 0.474550 0.339464
0.928179 0.499797 0.323844
0.255416 0.489768 0.470091
0.296046 0.499630 0.468224
0.794737 0.548622 0.352000
0.948706 0.581791 0.302666
0.982782 0.603062 0.281427
0.594835 0.674928 0.572636
0.629867 0.676474 0.559372
0.893095 0.680604 0.437570
0.986094 0.716425 0.404438
0.998305 0.745936 0.423581
0.100779 0.075805 0.100148
0.110906 0.083580 0.104986
0.371151 0.226768 0.239218
0.761471 0.437187 0.401105
0.876559 0.482883 0.420953
0.100193 0.081526 0.104986
0.120160 0.089852 0.112953
0.408309 0.259747 0.269347
0.772794 0.443605 0.404978
0.877470 0.485508 0.422328
0.055677 0.204512 0.239450
0.065462 0.211811 0.245545
0.637610 0.405231 0.335550
0.851646 0.480773 0.354233
0.926573 0.502653 0.334658
0.258870 0.494837 0.477171
0.287613 0.507102 0.487281
0.796167 0.554286 0.355227
0.943566 0.582253 0.304897
0.980955 0.607546 0.289801
0.593720 0.673813 0.573917
0.610849 0.677781 0.569568
0.890308 0.678569 0.438329
0.983136 0.717198 0.409894
0.993760 0.742837 0.420938
0.039479 0.128275 0.219594
0.041876 0.130131 0.222532
0.285541 0.268114 0.339273
0.702315 0.472174 0.492465
0.823214 0.506100 0.512658
0.038165 0.135522 0.231435
0.047090 0.145197 0.241619
0.332503 0.303830 0.370322
0.708803 0.471704 0.489212
0.834550 0.510587 0.517145
0.046648 0.295001 0.370460
0.057011 0.306027 0.385608
0.447462 0.450384 0.485650
0.796465 0.538300 0.537906
0.879337 0.563309 0.541297
0.206444 0.531013 0.548687
0.211120 0.530819 0.548441
0.479780 0.618161 0.590700
0.945602 0.620637 0.386891
0.976939 0.639155 0.368664
0.450142 0.688445 0.658320
0.463808 0.696064 0.663242
0.797215 0.762376 0.620793
0.978007 0.759192 0.492171
0.988013 0.777142 0.512218
0.022830 0.248479 0.402989
0.027480 0.251616 0.406126
0.195125 0.312854 0.439978
0.548675 0.465302 0.549432
0.729352 0.531676 0.593858
0.022333 0.251892 0.405630
0.026677 0.255695 0.410597
0.211195 0.326284 0.454410
0.560131 0.469757 0.553682
0.736149 0.536772 0.596359
0.072053 0.394050 0.520198
0.070930 0.398293 0.520114
0.167639 0.466453 0.578271
0.678846 0.563495 0.621161
0.803831 0.602767 0.642499
0.109278 0.586234 0.661684
0.109603 0.588592 0.665524
0.241203 0.641436 0.704813
0.779683 0.731710 0.704099
0.958415 0.707668 0.615854
0.342731 0.699874 0.712235
0.341819 0.699174 0.711935
0.563243 0.769497 0.757882
0.897673 0.831014 0.717472
0.984842 0.818160 0.631460
0.029515 0.300318 0.480182
0.029083 0.300119 0.479352
0.174859 0.357814 0.519787
0.537986 0.480751 0.596194
0.651085 0.531220 0.632674
0.031765 0.306279 0.484828
0.036382 0.310116 0.487338
0.180970 0.366220 0.527949
0.544553 0.484254 0.599342
0.655010 0.534177 0.636702
0.069100 0.445516 0.598997
0.068733 0.446049 0.599079
0.152550 0.502059 0.661861
0.627994 0.570842 0.673999
0.726423 0.612063 0.699510
0.088357 0.619496 0.746729
0.090607 0.620193 0.749039
0.221370 0.669869 0.784038
0.551395 0.742404 0.831297
0.862933 0.765162 0.794296
0.170912 0.717312 0.788870
0.179844 0.721362 0.791050
0.450562 0.775255 0.816699
0.765351 0.848708 0.850032
0.944432 0.863830 0.799246
