其他预设/【236】赛博朋克风调色预设/【后期菌】视频调色预设/CUBE/Tokyo 09_S.cube
# LUT by SparkleStock. Enhanced with VOXCOLOR algorithms.
LUT_3D_SIZE 32
0.086022 0.097752 0.109482
0.088040 0.099770 0.111500
0.089805 0.101662 0.113392
0.087787 0.101662 0.113392
0.086022 0.101410 0.113392
0.086022 0.099391 0.113392
0.086778 0.098508 0.113770
0.090814 0.102545 0.115788
0.097878 0.108094 0.120329
0.114023 0.118185 0.132438
0.131429 0.129537 0.145177
0.151610 0.143663 0.159304
0.186170 0.170656 0.186296
0.244695 0.219090 0.234730
0.323527 0.280768 0.291111
0.428468 0.359474 0.357708
0.523319 0.427080 0.416233
0.608079 0.483587 0.466686
0.676946 0.532148 0.510327
0.733453 0.574528 0.548671
0.772302 0.611863 0.581970
0.800555 0.646170 0.612241
0.814934 0.663829 0.625863
0.823006 0.673919 0.631918
0.831079 0.691578 0.645540
0.839151 0.711759 0.661684
0.847224 0.722101 0.669631
0.855296 0.730174 0.675685
0.858071 0.736480 0.681739
0.860089 0.742535 0.687794
0.862107 0.746697 0.691956
0.864125 0.750733 0.695992
0.088040 0.099770 0.111500
0.087975 0.100746 0.112477
0.087852 0.101662 0.113392
0.086876 0.101662 0.113392
0.086152 0.101670 0.113522
0.087193 0.101735 0.114564
0.088601 0.102154 0.115593
0.091596 0.104107 0.116570
0.097878 0.107574 0.119808
0.114023 0.115581 0.129834
0.132080 0.126152 0.141466
0.154344 0.142361 0.156635
0.190206 0.169093 0.182325
0.248731 0.213361 0.225551
0.326196 0.270417 0.276724
0.428012 0.343915 0.338113
0.521300 0.405793 0.390909
0.606061 0.456050 0.435112
0.671999 0.500119 0.473676
0.723298 0.539374 0.507853
0.760193 0.574886 0.538938
0.788446 0.608152 0.568168
0.804974 0.631930 0.588626
0.816171 0.651395 0.605096
0.827368 0.673740 0.626010
0.838565 0.697046 0.648404
0.847224 0.713899 0.662600
0.855296 0.729262 0.674904
0.858071 0.736480 0.682651
0.860089 0.742535 0.689747
0.861131 0.745720 0.692998
0.862107 0.748715 0.695992
0.089932 0.101662 0.113392
0.087979 0.101662 0.113392
0.086148 0.101662 0.113392
0.086148 0.101662 0.113392
0.086392 0.101914 0.113644
0.088345 0.103932 0.115662
0.090322 0.105572 0.117290
0.092405 0.105572 0.117225
0.098004 0.107118 0.119194
0.114149 0.113302 0.127266
0.132857 0.123251 0.137882
0.157204 0.141479 0.154092
0.194344 0.167958 0.178529
0.252804 0.208190 0.216677
0.328836 0.260725 0.262772
0.427463 0.329080 0.319084
0.518928 0.385197 0.366249
0.603233 0.429074 0.404267
0.666408 0.468704 0.437818
0.713150 0.505029 0.467894
0.748418 0.538914 0.496912
0.776802 0.571334 0.525296
0.795384 0.600755 0.552113
0.809510 0.628813 0.578218
0.823637 0.655602 0.605983
0.837764 0.681967 0.634302
0.847077 0.705106 0.654633
0.855280 0.727501 0.673122
0.858071 0.735996 0.682952
0.860089 0.742506 0.691545
0.860276 0.744805 0.693974
0.860341 0.746823 0.695992
0.089932 0.101662 0.113392
0.089020 0.101662 0.113392
0.088166 0.101662 0.113392
0.088166 0.101662 0.113392
0.088280 0.101914 0.113644
0.089191 0.103932 0.115662
0.090517 0.105572 0.117095
0.093642 0.105572 0.115988
0.100022 0.107639 0.117176
0.116167 0.115906 0.125248
0.135526 0.127612 0.136189
0.161957 0.146882 0.153441
0.200008 0.173231 0.177357
0.257426 0.211380 0.212381
0.331050 0.260921 0.255351
0.425510 0.325109 0.308537
0.511247 0.374976 0.351536
0.588260 0.410521 0.384346
0.651175 0.446505 0.413861
0.703125 0.482830 0.440812
0.741648 0.518017 0.469961
0.772114 0.552520 0.500428
0.791347 0.580444 0.526464
0.805474 0.605377 0.550486
0.819601 0.632947 0.578511
0.833727 0.661396 0.607871
0.844733 0.687464 0.632630
0.855019 0.712983 0.656326
0.858071 0.728249 0.674098
0.860089 0.742050 0.691024
0.861253 0.744805 0.693974
0.862359 0.746823 0.695992
0.089932 0.101662 0.113392
0.089932 0.101662 0.113392
0.089932 0.101662 0.113392
0.089932 0.101662 0.113392
0.089948 0.101898 0.113628
0.090078 0.103786 0.115516
0.090989 0.105393 0.116745
0.095286 0.105783 0.115117
0.102577 0.108599 0.115850
0.118852 0.118689 0.123662
0.138830 0.131852 0.134586
0.166953 0.151772 0.152358
0.205720 0.177992 0.175672
0.262227 0.214708 0.208222
0.333345 0.261450 0.248149
0.423248 0.321081 0.297560
0.503776 0.365154 0.336392
0.574931 0.393668 0.364645
0.637626 0.426576 0.390775
0.693742 0.462902 0.415253
0.734885 0.498902 0.444287
0.767045 0.534707 0.476056
0.786986 0.561068 0.501246
0.801373 0.583137 0.523445
0.815760 0.611749 0.552186
0.830147 0.642541 0.583109
0.842577 0.671059 0.611757
0.854555 0.699052 0.639880
0.857932 0.720779 0.665383
0.860081 0.741611 0.690512
0.862107 0.744927 0.694096
0.864125 0.747075 0.696244
0.089932 0.101662 0.113392
0.089932 0.101662 0.113392
0.089932 0.101662 0.113392
0.089932 0.101662 0.113392
0.090078 0.101768 0.113498
0.091250 0.102614 0.114344
0.093398 0.103961 0.115312
0.099778 0.107476 0.116810
0.108892 0.112635 0.119365
0.126209 0.122726 0.125094
0.146577 0.135237 0.133610
0.173658 0.153074 0.148257
0.211774 0.179163 0.170399
0.268281 0.219005 0.205032
0.336209 0.264314 0.242485
0.418821 0.316655 0.283563
0.497787 0.358123 0.318229
0.573108 0.388720 0.346483
0.635868 0.422540 0.373784
0.688860 0.458865 0.400345
0.728180 0.492262 0.427556
0.759298 0.523900 0.455159
0.780345 0.548244 0.479046
0.796816 0.569271 0.501246
0.813286 0.600747 0.533893
0.829756 0.635706 0.570024
0.841731 0.663312 0.598802
0.852668 0.689222 0.625884
0.856826 0.715246 0.657636
0.860016 0.741286 0.690056
0.862107 0.745904 0.695073
0.864125 0.749093 0.698263
0.089932 0.101662 0.113392
0.089932 0.101662 0.113392
0.089944 0.101674 0.113404
0.090139 0.101869 0.113599
0.090538 0.102040 0.113770
0.092361 0.102040 0.113770
0.095428 0.103249 0.114527
0.103891 0.109693 0.118563
0.114877 0.117196 0.122648
0.133431 0.127873 0.126880
0.154446 0.140319 0.133634
0.180876 0.156659 0.145938
0.218732 0.182764 0.167104
0.275629 0.225144 0.203039
0.341100 0.269205 0.238176
0.417592 0.315426 0.272289
0.494898 0.354486 0.303374
0.573018 0.386385 0.331432
0.635356 0.420664 0.359380
0.685417 0.456794 0.387243
0.722866 0.487758 0.412461
0.752747 0.515620 0.436093
0.774706 0.538068 0.458739
0.793064 0.558053 0.480938
0.811276 0.591515 0.516467
0.829439 0.629468 0.556438
0.841202 0.656102 0.585566
0.851488 0.680124 0.612192
0.856305 0.709443 0.649071
0.860341 0.739520 0.687415
0.862485 0.746099 0.694877
0.864504 0.751112 0.700281
0.089932 0.101662 0.113392
0.089932 0.101662 0.113392
0.090009 0.101739 0.113469
0.091246 0.102976 0.114706
0.092426 0.104058 0.115788
0.093207 0.104058 0.115788
0.095819 0.105657 0.116545
0.106365 0.114185 0.120581
0.119434 0.124032 0.124927
0.140071 0.137833 0.130200
0.162844 0.152753 0.137996
0.190316 0.170135 0.151341
0.229604 0.196891 0.172377
0.288584 0.239271 0.206229
0.354771 0.282876 0.239739
0.430221 0.328055 0.272810
0.505444 0.365553 0.302853
0.580440 0.395369 0.329870
0.640238 0.428150 0.356191
0.688217 0.463239 0.381970
0.723582 0.492510 0.404454
0.751380 0.518290 0.424961
0.773404 0.539370 0.446631
0.792804 0.558314 0.468830
0.811276 0.589952 0.502796
0.829439 0.625823 0.540684
0.842048 0.651220 0.571114
0.853375 0.674200 0.599823
0.858323 0.702478 0.636963
0.862359 0.731512 0.675307
0.864504 0.742909 0.689604
0.866522 0.753130 0.702299
0.089427 0.103175 0.115410
0.089427 0.103175 0.115410
0.089537 0.103301 0.115552
0.091295 0.105320 0.117831
0.092833 0.107118 0.119792
0.092833 0.107378 0.119532
0.095103 0.109433 0.119882
0.107212 0.119263 0.122876
0.122364 0.130997 0.127091
0.146646 0.148444 0.134969
0.172657 0.166603 0.144961
0.202473 0.186328 0.159609
0.244007 0.214647 0.180872
0.305071 0.257287 0.213162
0.371973 0.300241 0.245224
0.446383 0.343598 0.276992
0.519522 0.379924 0.305604
0.591393 0.409219 0.331058
0.647920 0.440308 0.355230
0.692513 0.472793 0.378406
0.725308 0.499622 0.397960
0.751022 0.523058 0.415342
0.773111 0.543406 0.437110
0.793553 0.562350 0.460871
0.812090 0.591645 0.493275
0.829992 0.624390 0.528559
0.843187 0.648355 0.559770
0.855296 0.670294 0.590042
0.860113 0.697986 0.627832
0.863889 0.726500 0.666697
0.866261 0.741037 0.685422
0.868540 0.754643 0.702803
0.087409 0.109230 0.123482
0.087409 0.109230 0.123482
0.087454 0.109356 0.123690
0.088170 0.111374 0.127010
0.088796 0.113302 0.129752
0.088796 0.114604 0.128450
0.091067 0.117310 0.127173
0.103175 0.126099 0.126001
0.120411 0.138354 0.128914
0.153026 0.161009 0.144083
0.186719 0.184701 0.159739
0.222784 0.210676 0.176470
0.269005 0.243291 0.199035
0.332152 0.286973 0.231325
0.399771 0.328690 0.262475
0.473139 0.367880 0.292161
0.544195 0.404206 0.318168
0.612941 0.437667 0.340497
0.664000 0.466478 0.360959
0.701302 0.491672 0.379968
0.730060 0.513814 0.396007
0.753691 0.534125 0.410264
0.775845 0.555645 0.435352
0.797328 0.577714 0.465363
0.815345 0.603103 0.496204
0.832206 0.629598 0.527322
0.845205 0.651545 0.557752
0.857314 0.672442 0.588024
0.861220 0.700915 0.627637
0.863954 0.730471 0.668585
0.867238 0.743121 0.684510
0.870558 0.754643 0.698767
0.085391 0.115284 0.130924
0.085716 0.115935 0.131575
0.086022 0.116610 0.132377
0.086022 0.117652 0.135436
0.086022 0.118816 0.137902
0.086022 0.120834 0.136210
0.088109 0.124170 0.134261
0.099241 0.133219 0.131201
0.116606 0.146076 0.133219
0.152672 0.170359 0.150471
0.193538 0.199055 0.170448
0.244967 0.237464 0.196423
0.301328 0.277631 0.224278
0.365907 0.320727 0.255265
0.433875 0.361289 0.284487
0.506201 0.398591 0.311438
0.573222 0.434103 0.334191
0.634937 0.467825 0.352744
0.679184 0.493564 0.369394
0.709846 0.513094 0.384562
0.735626 0.531566 0.398428
0.758476 0.549403 0.411513
0.780207 0.570955 0.438294
0.801430 0.594196 0.471300
0.818600 0.616412 0.501473
0.834419 0.638285 0.530703
0.847224 0.659312 0.561837
0.859332 0.680144 0.593411
0.862612 0.707812 0.633301
0.864630 0.736456 0.674379
0.868845 0.746485 0.687078
0.873207 0.755274 0.697884
0.083373 0.121338 0.136979
0.084740 0.124072 0.139713
0.086022 0.126506 0.142272
0.086022 0.124422 0.142207
0.086022 0.122852 0.142069
0.086022 0.124870 0.141418
0.087523 0.128792 0.140901
0.095530 0.140966 0.140966
0.108729 0.154604 0.142984
0.137503 0.172637 0.150861
0.184424 0.205175 0.172206
0.271268 0.269624 0.223179
0.349762 0.324503 0.265095
0.414341 0.363433 0.291917
0.481854 0.403018 0.316972
0.553138 0.443445 0.339757
0.611826 0.476353 0.357822
0.657917 0.501742 0.371168
0.692399 0.522663 0.383781
0.717854 0.540110 0.395824
0.742982 0.557150 0.410472
0.767915 0.573946 0.426682
0.788149 0.593024 0.451574
0.806247 0.613140 0.480414
0.821855 0.633793 0.511889
0.836633 0.654625 0.544244
0.849242 0.677150 0.579349
0.861350 0.700065 0.615089
0.864630 0.723436 0.651854
0.866648 0.746872 0.688766
0.871839 0.752670 0.697298
0.877243 0.757292 0.703938
0.085139 0.131933 0.149087
0.087157 0.135188 0.152342
0.089049 0.138061 0.155316
0.089049 0.135196 0.154079
0.089097 0.132942 0.153095
0.089488 0.134960 0.153876
0.090941 0.139102 0.154669
0.096995 0.152448 0.155516
0.107688 0.165793 0.156069
0.132295 0.179139 0.155744
0.181926 0.212564 0.175233
0.286607 0.290163 0.238315
0.380644 0.354775 0.288141
0.456941 0.397741 0.315873
0.528880 0.439425 0.339619
0.595217 0.479461 0.358237
0.645182 0.509570 0.372592
0.678773 0.529751 0.382682
0.705517 0.547222 0.392333
0.726935 0.562586 0.401643
0.750631 0.577950 0.416485
0.775695 0.593313 0.434648
0.794895 0.610333 0.458629
0.811431 0.628105 0.485255
0.825281 0.646805 0.515885
0.838236 0.665814 0.547849
0.850820 0.688103 0.585314
0.863320 0.711148 0.624049
0.867331 0.731687 0.657884
0.870131 0.751868 0.691020
0.875249 0.754655 0.696509
0.880522 0.756283 0.700155
0.093211 0.150096 0.171286
0.095229 0.151268 0.172458
0.097121 0.152383 0.173609
0.097121 0.152643 0.174456
0.097300 0.153123 0.175554
0.098732 0.155141 0.178419
0.101031 0.158893 0.180319
0.107085 0.170155 0.178040
0.118038 0.181417 0.174688
0.143688 0.192680 0.168113
0.190454 0.222068 0.180376
0.283677 0.291335 0.234083
0.382271 0.357379 0.281566
0.489816 0.418052 0.318673
0.574320 0.466962 0.345868
0.629200 0.500749 0.360320
0.669789 0.527733 0.372592
0.696090 0.547914 0.382682
0.718472 0.564214 0.391161
0.737807 0.577494 0.398388
0.758769 0.590774 0.412449
0.780708 0.604055 0.430612
0.799648 0.619707 0.455309
0.817225 0.636438 0.482977
0.828991 0.652534 0.509180
0.838822 0.668418 0.534894
0.851667 0.687582 0.572034
0.865207 0.707503 0.611810
0.871172 0.727651 0.643041
0.876055 0.747832 0.673053
0.879350 0.749643 0.677370
0.882540 0.750229 0.679974
0.106581 0.170025 0.193485
0.108143 0.170025 0.193485
0.109665 0.170208 0.193640
0.110576 0.173138 0.196114
0.111455 0.175725 0.198555
0.112106 0.175921 0.200768
0.113856 0.177886 0.201895
0.120366 0.187521 0.198315
0.131693 0.197383 0.193107
0.157473 0.207929 0.183016
0.200606 0.233510 0.188936
0.281916 0.292165 0.230080
0.380339 0.356166 0.272541
0.507284 0.429078 0.317200
0.600877 0.483534 0.347817
0.651590 0.514261 0.360381
0.687818 0.539943 0.371481
0.709561 0.560580 0.381116
0.729547 0.576420 0.388993
0.748166 0.588528 0.395503
0.767191 0.600922 0.408726
0.786461 0.613486 0.425978
0.804656 0.628199 0.450480
0.822363 0.643888 0.478277
0.833870 0.659089 0.503585
0.843309 0.674127 0.528063
0.855076 0.690963 0.564706
0.867380 0.708215 0.604156
0.873817 0.726833 0.633809
0.879415 0.745647 0.662063
0.881657 0.746396 0.663157
0.883675 0.745940 0.662441
0.126762 0.192224 0.215684
0.127283 0.192224 0.215684
0.127958 0.192537 0.215904
0.130953 0.197550 0.219420
0.133264 0.201440 0.222251
0.130790 0.197469 0.220298
0.130196 0.195853 0.218236
0.137748 0.204447 0.215697
0.149596 0.213788 0.211270
0.174334 0.225376 0.201179
0.212844 0.247441 0.201891
0.281655 0.292555 0.226369
0.373829 0.350047 0.260367
0.504940 0.428167 0.310234
0.603156 0.486008 0.344237
0.659076 0.517777 0.357842
0.697388 0.544500 0.368942
0.718090 0.566179 0.377535
0.738205 0.582474 0.385543
0.757866 0.594583 0.393094
0.775980 0.607627 0.405406
0.793166 0.621233 0.420574
0.809994 0.635555 0.443709
0.826660 0.650202 0.470465
0.840250 0.666705 0.499419
0.852814 0.683827 0.529104
0.861782 0.699361 0.565031
0.869919 0.714529 0.602399
0.874924 0.730153 0.631791
0.879481 0.745843 0.660045
0.881657 0.745419 0.655280
0.883675 0.743922 0.648315
0.160061 0.227541 0.247974
0.160061 0.228062 0.247974
0.160248 0.228798 0.248161
0.163242 0.232769 0.251156
0.165618 0.235813 0.253467
0.163665 0.232362 0.250993
0.163397 0.230682 0.248507
0.170428 0.236671 0.245968
0.182797 0.244711 0.242192
0.211180 0.258903 0.234706
0.256266 0.283897 0.236069
0.338097 0.332657 0.256901
0.432939 0.389888 0.286668
0.549468 0.461238 0.331326
0.635608 0.513676 0.361032
0.682675 0.541799 0.371513
0.716039 0.566439 0.381571
0.735699 0.587597 0.391206
0.754480 0.603664 0.400255
0.772578 0.615773 0.408848
0.789130 0.628492 0.422527
0.804754 0.641577 0.439258
0.820378 0.655378 0.462523
0.836002 0.669505 0.488759
0.848941 0.685487 0.518753
0.860984 0.702087 0.550001
0.869008 0.715408 0.582836
0.876104 0.727973 0.616037
0.879155 0.739170 0.641719
0.881629 0.750172 0.666327
0.883675 0.750432 0.660358
0.885694 0.749976 0.652351
0.206477 0.275975 0.290354
0.206477 0.277538 0.290354
0.206534 0.278990 0.290411
0.207445 0.278795 0.291322
0.208519 0.278844 0.292201
0.210733 0.280601 0.292852
0.213459 0.282371 0.292710
0.218406 0.284194 0.289129
0.231296 0.290151 0.285874
0.268013 0.308509 0.283596
0.330871 0.342878 0.291469
0.451241 0.412469 0.321675
0.557671 0.475690 0.351442
0.640869 0.528291 0.380477
0.698234 0.566537 0.398204
0.722386 0.586327 0.401394
0.743772 0.605760 0.409369
0.762390 0.624834 0.422129
0.778372 0.639990 0.433131
0.792304 0.652099 0.442765
0.806642 0.663515 0.460090
0.821224 0.674517 0.482029
0.835807 0.687668 0.506921
0.850389 0.701794 0.533157
0.859942 0.715433 0.561589
0.867820 0.728908 0.590754
0.876755 0.739105 0.618120
0.885934 0.748544 0.645072
0.886511 0.753882 0.663593
0.885860 0.758635 0.680909
0.887712 0.761434 0.678391
0.889730 0.764103 0.674550
0.265380 0.332356 0.341816
0.267138 0.336132 0.344159
0.268676 0.339435 0.346210
0.266918 0.335660 0.343866
0.265811 0.332714 0.341995
0.269262 0.335578 0.343427
0.273591 0.338565 0.344493
0.281728 0.342080 0.343972
0.298361 0.349762 0.344021
0.340481 0.369943 0.345779
0.413422 0.407864 0.356976
0.554168 0.484812 0.388940
0.661054 0.547357 0.415045
0.711506 0.585896 0.431385
0.745554 0.614381 0.440833
0.758509 0.629940 0.441419
0.772603 0.645629 0.448775
0.787836 0.661448 0.462902
0.800653 0.674521 0.475417
0.811589 0.685458 0.486679
0.823421 0.694401 0.503841
0.835790 0.702148 0.524543
0.847757 0.712670 0.547035
0.859540 0.724453 0.570341
0.867466 0.735162 0.596039
0.874106 0.745513 0.622535
0.882121 0.754489 0.646227
0.890454 0.763147 0.669273
0.890242 0.764970 0.681438
0.888810 0.765816 0.692050
0.890613 0.769104 0.691919
0.892631 0.772554 0.691073
0.333996 0.394917 0.400341
0.338878 0.401818 0.406851
0.343150 0.407856 0.412547
0.338268 0.400955 0.406037
0.334297 0.395015 0.400389
0.336705 0.395796 0.400780
0.341555 0.398261 0.402171
0.356984 0.408026 0.407900
0.379867 0.420395 0.413418
0.425111 0.440576 0.418300
0.502153 0.477521 0.430344
0.649149 0.551344 0.458141
0.747832 0.608030 0.477736
0.765995 0.636153 0.483660
0.780968 0.658324 0.487705
0.791840 0.672841 0.489332
0.802288 0.685926 0.497209
0.812314 0.697579 0.511336
0.821680 0.707657 0.525023
0.830534 0.716511 0.538369
0.839631 0.722069 0.552406
0.848875 0.725649 0.566858
0.857001 0.732005 0.583817
0.864617 0.739621 0.601915
0.872283 0.746945 0.623967
0.879965 0.754171 0.647338
0.885637 0.763407 0.668752
0.890845 0.773107 0.689714
0.891154 0.773237 0.696151
0.890763 0.772000 0.700513
0.892631 0.774181 0.701945
0.894649 0.776590 0.703182
0.396304 0.453694 0.447514
0.401057 0.458511 0.452982
0.405581 0.462971 0.457970
0.406688 0.462059 0.455757
0.407664 0.461018 0.453657
0.407729 0.459065 0.452355
0.410822 0.459016 0.452201
0.427032 0.467219 0.457018
0.452583 0.479555 0.463447
0.506161 0.504293 0.474709
0.584171 0.541970 0.490244
0.715933 0.608111 0.515177
0.801043 0.656822 0.532494
0.808400 0.676483 0.537116
0.816382 0.693437 0.542307
0.825171 0.706913 0.548231
0.832299 0.718045 0.556629
0.837768 0.726833 0.567501
0.844701 0.734487 0.579471
0.852773 0.741257 0.592296
0.859625 0.745057 0.603859
0.865744 0.747075 0.614666
0.870924 0.750973 0.626905
0.875676 0.755725 0.639795
0.880966 0.759990 0.654296
0.886434 0.764091 0.669334
0.890210 0.770414 0.683261
0.893595 0.777249 0.696932
0.894018 0.777477 0.700976
0.894018 0.776761 0.703645
0.895910 0.778608 0.708146
0.897928 0.780626 0.712768
0.454829 0.510201 0.487876
0.457498 0.509810 0.489178
0.460786 0.510103 0.490846
0.473350 0.520649 0.498007
0.483961 0.529243 0.503850
0.480902 0.524165 0.500464
0.480869 0.520405 0.497641
0.493954 0.522358 0.497250
0.520027 0.531830 0.501856
0.585062 0.563860 0.521451
0.662161 0.603294 0.542063
0.765800 0.659019 0.564913
0.834114 0.698486 0.582490
0.843554 0.710855 0.591279
0.851797 0.723253 0.601548
0.858502 0.735687 0.613722
0.862506 0.745257 0.622641
0.863808 0.751962 0.628304
0.868918 0.757532 0.636824
0.876991 0.762219 0.647566
0.881889 0.765238 0.657046
0.884884 0.767256 0.665770
0.887655 0.769722 0.673777
0.890324 0.772391 0.681459
0.891968 0.773791 0.686064
0.893270 0.774767 0.689645
0.895418 0.776273 0.692961
0.897761 0.777900 0.696216
0.898054 0.779300 0.699870
0.898054 0.780667 0.703580
0.899946 0.782644 0.712052
0.901964 0.784662 0.720840
0.541103 0.573645 0.542112
0.543121 0.572343 0.542112
0.545619 0.571692 0.542519
0.555319 0.580806 0.549029
0.563750 0.588382 0.554400
0.563294 0.585192 0.551796
0.566134 0.583540 0.550107
0.583255 0.588553 0.552386
0.610744 0.599099 0.557854
0.669334 0.626246 0.572892
0.732318 0.657054 0.587930
0.804970 0.695919 0.602968
0.853624 0.723456 0.616151
0.862282 0.732115 0.626242
0.869174 0.741029 0.637471
0.873797 0.750273 0.650166
0.876824 0.758281 0.659247
0.878256 0.765051 0.664716
0.882215 0.769881 0.671576
0.888139 0.773201 0.679518
0.891622 0.775260 0.686646
0.893640 0.776562 0.693286
0.895658 0.778848 0.699524
0.897676 0.781582 0.705578
0.898181 0.782266 0.707092
0.898181 0.782266 0.707092
0.900402 0.782266 0.707674
0.903136 0.782266 0.708390
0.904105 0.784658 0.710758
0.904821 0.787393 0.713362
0.906086 0.788784 0.719628
0.907388 0.790086 0.726138
0.639990 0.640242 0.602655
0.642008 0.639982 0.602655
0.643920 0.639852 0.602736
0.644246 0.641674 0.604038
0.645125 0.643391 0.605113
0.649877 0.644368 0.604592
0.658316 0.647468 0.605768
0.682728 0.659772 0.614296
0.712039 0.673183 0.621847
0.756047 0.689913 0.626469
0.798915 0.707377 0.631092
0.839277 0.726451 0.635714
0.866969 0.740838 0.642386
0.873544 0.747413 0.652477
0.878354 0.753333 0.662795
0.880892 0.758411 0.673407
0.883920 0.764856 0.682488
0.887435 0.772668 0.690040
0.890548 0.777367 0.696053
0.893347 0.779646 0.700871
0.895658 0.780663 0.705525
0.897676 0.780923 0.710082
0.899694 0.783600 0.715669
0.901712 0.787376 0.721723
0.902217 0.788320 0.723237
0.902217 0.788320 0.723237
0.905285 0.788320 0.724665
0.909060 0.788320 0.726422
0.911070 0.791624 0.727098
0.912828 0.795400 0.727619
0.913182 0.795880 0.728872
0.913442 0.796140 0.730174
0.699524 0.679595 0.634440
0.703886 0.681158 0.636003
0.707897 0.682622 0.637467
0.706660 0.682622 0.637467
0.706140 0.682875 0.637565
0.710632 0.684893 0.638346
0.718614 0.688742 0.640287
0.741725 0.700525 0.647253
0.767000 0.711917 0.653372
0.798769 0.722138 0.656953
0.828991 0.732359 0.659068
0.855813 0.742579 0.657962
0.874260 0.751238 0.660468
0.878752 0.757292 0.668996
0.882162 0.762122 0.677866
0.884180 0.765377 0.687175
0.887207 0.770259 0.696257
0.891243 0.776769 0.705110
0.894144 0.780752 0.710815
0.896162 0.782770 0.714070
0.898181 0.784016 0.716836
0.900199 0.784797 0.719310
0.902754 0.787816 0.723171
0.905553 0.791852 0.727663
0.906839 0.792861 0.729372
0.907620 0.792861 0.730153
0.910411 0.793496 0.732574
0.913666 0.794277 0.735374
0.915155 0.796539 0.736407
0.916392 0.799013 0.737188
0.916470 0.799168 0.737237
0.916470 0.799168 0.737237
0.745940 0.709867 0.656639
0.753427 0.713512 0.660285
0.760433 0.716930 0.663703
0.760238 0.716930 0.663703
0.760368 0.717182 0.663930
0.762777 0.719200 0.665753
0.768286 0.722463 0.667759
0.787230 0.731122 0.670558
0.806516 0.738869 0.674074
0.826827 0.743881 0.679738
0.846894 0.748894 0.681983
0.866424 0.753907 0.676710
0.879533 0.759310 0.675832
0.881942 0.765364 0.682276
0.884180 0.769738 0.689519
0.886198 0.771952 0.697786
0.889225 0.775272 0.706868
0.893261 0.779699 0.716763
0.896162 0.782770 0.722337
0.898181 0.784789 0.724551
0.900199 0.786685 0.725625
0.902217 0.788507 0.726015
0.905488 0.791852 0.727794
0.909329 0.795888 0.730202
0.911656 0.796897 0.732172
0.913479 0.796897 0.733994
0.915619 0.798378 0.737457
0.917833 0.800201 0.741298
0.918280 0.800771 0.743373
0.918475 0.801161 0.745196
0.918488 0.801186 0.745309
0.918488 0.801186 0.745309
0.779239 0.733579 0.672280
0.784772 0.735923 0.675469
0.789907 0.738120 0.678407
0.789061 0.738120 0.677561
0.788890 0.738266 0.677072
0.793447 0.739438 0.679091
0.799603 0.741428 0.680950
0.812688 0.746961 0.682122
0.825985 0.752332 0.684091
0.839916 0.757215 0.688453
0.853583 0.761568 0.689824
0.866668 0.764758 0.684616
0.876238 0.768070 0.682997
0.879948 0.771585 0.687358
0.882919 0.774816 0.692973
0.884937 0.777680 0.700199
0.887541 0.780284 0.707165
0.890731 0.782628 0.713870
0.894214 0.785741 0.718891
0.897924 0.789451 0.722602
0.901635 0.792633 0.725051
0.905346 0.795498 0.726744
0.908698 0.798004 0.727497
0.911888 0.800347 0.727822
0.914199 0.800933 0.730052
0.916217 0.800933 0.732916
0.918235 0.802573 0.737420
0.920254 0.804591 0.742303
0.921246 0.804843 0.743938
0.922093 0.804843 0.745110
0.922145 0.804843 0.743597
0.922145 0.804843 0.741904
0.809510 0.755778 0.686406
0.811919 0.756039 0.688555
0.814059 0.756283 0.690451
0.812171 0.756283 0.688563
0.811480 0.756299 0.687163
0.819161 0.756429 0.689181
0.826684 0.756987 0.690845
0.833520 0.759396 0.690975
0.840827 0.762683 0.691643
0.849551 0.768607 0.693921
0.857684 0.773351 0.694186
0.864520 0.775500 0.690019
0.870965 0.776989 0.688270
0.876759 0.777379 0.690548
0.880901 0.779308 0.694536
0.882919 0.783214 0.700720
0.885002 0.785297 0.705082
0.887150 0.785558 0.707621
0.891349 0.788931 0.711991
0.897143 0.794724 0.717784
0.902937 0.799338 0.722317
0.908731 0.803244 0.726093
