其他预设/【236】赛博朋克风调色预设/【后期菌】视频调色预设/CUBE/Tokyo 09.cube
# LUT by SparkleStock. Enhanced with VOXCOLOR algorithms.
LUT_3D_SIZE 32
0.086022 0.097752 0.109482
0.088040 0.099770 0.111500
0.089805 0.101662 0.113392
0.087787 0.101662 0.113392
0.086022 0.101410 0.113392
0.086022 0.099391 0.113392
0.086778 0.098508 0.113770
0.090814 0.102545 0.115788
0.097878 0.108094 0.120329
0.114023 0.118185 0.132438
0.130798 0.130167 0.145808
0.148961 0.146312 0.161953
0.182260 0.174566 0.190206
0.240785 0.223000 0.238640
0.320499 0.286444 0.297670
0.427459 0.369186 0.370321
0.524328 0.441838 0.432882
0.611106 0.504399 0.485353
0.681992 0.556743 0.532148
0.740517 0.601141 0.574528
0.778860 0.635449 0.605556
0.805096 0.663703 0.629773
0.818844 0.680856 0.641503
0.826916 0.692965 0.647558
0.833475 0.703560 0.655126
0.839530 0.713651 0.663198
0.847224 0.722101 0.669631
0.855296 0.730174 0.675685
0.858071 0.736480 0.681739
0.860089 0.742535 0.687794
0.862107 0.746697 0.691956
0.864125 0.750733 0.695992
0.088040 0.099770 0.111500
0.087975 0.100746 0.112477
0.087852 0.101662 0.113392
0.086876 0.101662 0.113392
0.086152 0.101670 0.113522
0.087193 0.101735 0.114564
0.088601 0.102154 0.115593
0.091596 0.104107 0.116570
0.097357 0.107834 0.120069
0.111419 0.116883 0.131136
0.127738 0.128800 0.144441
0.149026 0.147028 0.162669
0.183887 0.176584 0.191833
0.241370 0.225018 0.239226
0.321411 0.288006 0.297670
0.430453 0.369707 0.370321
0.529405 0.442359 0.433403
0.618267 0.505961 0.486915
0.687135 0.557590 0.532994
0.740451 0.599905 0.573291
0.776842 0.634082 0.603538
0.803078 0.663377 0.627755
0.816826 0.680140 0.639485
0.824898 0.691207 0.645540
0.832238 0.702323 0.654670
0.839334 0.713455 0.664826
0.847224 0.722101 0.670803
0.855296 0.730174 0.675815
0.858071 0.736480 0.682651
0.860089 0.742535 0.689747
0.861131 0.745720 0.692998
0.862107 0.748715 0.695992
0.089932 0.101662 0.113392
0.087979 0.101662 0.113392
0.086148 0.101662 0.113392
0.086148 0.101662 0.113392
0.086392 0.101914 0.113644
0.088345 0.103932 0.115662
0.090310 0.105572 0.117302
0.092328 0.105572 0.117302
0.096885 0.107606 0.119841
0.109059 0.115744 0.129997
0.124976 0.127665 0.143305
0.149128 0.147911 0.163552
0.185462 0.178728 0.193611
0.242099 0.227162 0.240028
0.322404 0.289666 0.297837
0.433139 0.370260 0.370293
0.533751 0.442717 0.433700
0.624240 0.507035 0.488059
0.691293 0.557988 0.533482
0.740118 0.598546 0.571956
0.774824 0.632634 0.601439
0.801060 0.662840 0.625526
0.814763 0.679261 0.637305
0.822770 0.689417 0.643489
0.830875 0.701086 0.654117
0.839013 0.713260 0.666225
0.847150 0.722101 0.671828
0.855288 0.730174 0.675929
0.858071 0.736480 0.683505
0.860089 0.742535 0.691578
0.860276 0.744805 0.693974
0.860341 0.746823 0.695992
0.089932 0.101662 0.113392
0.089020 0.101662 0.113392
0.088166 0.101662 0.113392
0.088166 0.101662 0.113392
0.088280 0.101914 0.113644
0.089191 0.103932 0.115662
0.090310 0.105572 0.117302
0.092328 0.105572 0.117302
0.097145 0.107867 0.120101
0.110361 0.117046 0.131299
0.126668 0.130009 0.145649
0.149779 0.151296 0.166937
0.186243 0.182764 0.197648
0.244963 0.231199 0.244064
0.324617 0.292791 0.300506
0.431186 0.371302 0.369837
0.527111 0.440633 0.430641
0.612392 0.500786 0.482916
0.680681 0.551674 0.528600
0.735756 0.595356 0.569157
0.772806 0.629965 0.598118
0.799041 0.659129 0.620122
0.812029 0.675941 0.632682
0.818995 0.687139 0.640950
0.827620 0.699849 0.652099
0.836799 0.713065 0.664207
0.845978 0.722101 0.670656
0.855158 0.730174 0.675799
0.858071 0.736480 0.683505
0.860089 0.742535 0.691578
0.861253 0.744805 0.693974
0.862359 0.746823 0.695992
0.089932 0.101662 0.113392
0.089932 0.101662 0.113392
0.089932 0.101662 0.113392
0.089932 0.101662 0.113392
0.089948 0.101898 0.113628
0.090078 0.103786 0.115516
0.090611 0.105368 0.117123
0.092890 0.105629 0.117514
0.098065 0.108347 0.120801
0.111931 0.118437 0.132780
0.128402 0.132271 0.147911
0.150601 0.154340 0.169980
0.187228 0.186345 0.201277
0.247901 0.234909 0.247954
0.326773 0.295550 0.303061
0.429046 0.371717 0.369007
0.520934 0.438314 0.427402
0.602439 0.495342 0.478245
0.671934 0.546401 0.524401
0.732086 0.592817 0.566911
0.770959 0.627719 0.595303
0.797064 0.655712 0.615223
0.809474 0.672874 0.628475
0.815658 0.685112 0.638696
0.824870 0.698865 0.650430
0.835091 0.713122 0.662669
0.844994 0.722248 0.669777
0.854824 0.730190 0.675701
0.857932 0.736480 0.683505
0.860081 0.742535 0.691578
0.862107 0.744927 0.694096
0.864125 0.747075 0.696244
0.089932 0.101662 0.113392
0.089932 0.101662 0.113392
0.089932 0.101662 0.113392
0.089932 0.101662 0.113392
0.090078 0.101768 0.113498
0.091250 0.102614 0.114344
0.093020 0.103741 0.115691
0.097381 0.106085 0.119206
0.103599 0.110365 0.124577
0.115382 0.120455 0.135514
0.130420 0.133964 0.149604
0.152619 0.154991 0.170631
0.189636 0.186735 0.202058
0.251351 0.236341 0.250818
0.328531 0.295745 0.304819
0.425595 0.367746 0.365557
0.518005 0.434343 0.422910
0.605760 0.495537 0.476878
0.676230 0.548419 0.524987
0.733258 0.594835 0.568539
0.770308 0.628435 0.596019
0.795371 0.654344 0.613856
0.808172 0.671572 0.627173
0.815398 0.684852 0.638436
0.825651 0.699646 0.651212
0.836913 0.714944 0.664492
0.845319 0.723420 0.670949
0.853066 0.730320 0.675832
0.856826 0.736480 0.683505
0.860016 0.742535 0.691578
0.862107 0.745904 0.695073
0.864125 0.749093 0.698263
0.089932 0.101662 0.113392
0.089932 0.101662 0.113392
0.089944 0.101674 0.113404
0.090139 0.101869 0.113599
0.090538 0.102040 0.113770
0.092361 0.102040 0.113770
0.095013 0.102870 0.114942
0.101263 0.107297 0.121192
0.108668 0.113189 0.128499
0.119540 0.123474 0.138980
0.133951 0.136913 0.152554
0.156150 0.157290 0.172930
0.193778 0.189164 0.204658
0.257121 0.240203 0.255306
0.333365 0.298760 0.308432
0.426197 0.366985 0.364743
0.518835 0.433387 0.421152
0.611277 0.497966 0.477659
0.682040 0.552109 0.527025
0.735943 0.598135 0.570837
0.770926 0.630286 0.597480
0.794558 0.654113 0.613820
0.807626 0.671136 0.626982
0.815894 0.685068 0.638700
0.826750 0.700513 0.652078
0.838468 0.716462 0.666010
0.845743 0.724530 0.672377
0.851992 0.730780 0.676999
0.856305 0.737030 0.684469
0.860341 0.743279 0.692347
0.862485 0.747271 0.696440
0.864504 0.751112 0.700281
0.089932 0.101662 0.113392
0.089932 0.101662 0.113392
0.090009 0.101739 0.113469
0.091246 0.102976 0.114706
0.092426 0.104058 0.115788
0.093207 0.104058 0.115788
0.095209 0.105279 0.117156
0.102500 0.111789 0.124447
0.111728 0.119503 0.133056
0.126766 0.130831 0.145621
0.144042 0.145311 0.160952
0.166241 0.166729 0.182369
0.205431 0.200427 0.215139
0.272940 0.254590 0.266829
0.351528 0.313994 0.320084
0.444360 0.380135 0.375354
0.535956 0.445496 0.431243
0.626315 0.510075 0.487750
0.694409 0.563046 0.535358
0.745187 0.606988 0.576045
0.777046 0.637056 0.602167
0.797552 0.658800 0.619549
0.810361 0.674456 0.631604
0.819670 0.687346 0.641239
0.829223 0.701749 0.653315
0.838858 0.716657 0.666205
0.846589 0.725377 0.674916
0.853880 0.732668 0.682663
0.858323 0.739959 0.689612
0.862359 0.747250 0.696448
0.864504 0.750330 0.699499
0.866522 0.753130 0.702299
0.089427 0.103175 0.115410
0.089427 0.103175 0.115410
0.089537 0.103301 0.115552
0.091295 0.105320 0.117831
0.092833 0.107085 0.119825
0.092833 0.107085 0.119825
0.094297 0.108453 0.121192
0.102109 0.115744 0.128483
0.113095 0.124760 0.137874
0.133601 0.138952 0.153563
0.155369 0.156134 0.171774
0.179912 0.179896 0.195536
0.222032 0.216132 0.230161
0.293446 0.273160 0.282892
0.374345 0.333377 0.336506
0.467438 0.397696 0.391255
0.557732 0.462145 0.446753
0.645226 0.526724 0.502999
0.709285 0.577644 0.547857
0.755115 0.617941 0.583857
0.783328 0.645503 0.608384
0.800970 0.665424 0.626026
0.813420 0.679615 0.637268
0.823511 0.691203 0.645601
0.831892 0.704305 0.656179
0.839704 0.717911 0.667507
0.847728 0.727232 0.677829
0.855800 0.735565 0.687920
0.860113 0.743214 0.694251
0.863889 0.750766 0.700045
0.866017 0.753374 0.702787
0.868035 0.755652 0.705326
0.087409 0.109230 0.123482
0.087409 0.109230 0.123482
0.087454 0.109356 0.123690
0.088170 0.111374 0.127010
0.088796 0.113140 0.129915
0.088796 0.113140 0.129915
0.090066 0.113921 0.130696
0.096836 0.118087 0.134863
0.109384 0.126843 0.143472
0.139265 0.149368 0.165411
0.170407 0.174232 0.189872
0.204324 0.204243 0.219883
0.253475 0.245167 0.258805
0.328014 0.304277 0.312578
0.411127 0.365211 0.367233
0.505261 0.428488 0.423024
0.593472 0.492416 0.478522
0.675758 0.556996 0.533726
0.731679 0.603229 0.572856
0.767094 0.635193 0.599481
0.790098 0.658979 0.619190
0.805657 0.677858 0.634749
0.817457 0.690292 0.646056
0.827547 0.699796 0.655431
0.835147 0.710815 0.663926
0.841918 0.722337 0.672129
0.849746 0.732115 0.681865
0.857819 0.741489 0.691956
0.861220 0.747446 0.697376
0.863954 0.752914 0.702128
0.866017 0.756368 0.706758
0.868035 0.759688 0.711380
0.085391 0.115284 0.131555
0.085716 0.115609 0.132206
0.086022 0.116000 0.132987
0.086022 0.117367 0.135721
0.086022 0.118563 0.138154
0.086022 0.118563 0.138480
0.086974 0.119125 0.139306
0.092051 0.122119 0.142300
0.104290 0.130696 0.150454
0.138012 0.156020 0.174086
0.178081 0.187203 0.203800
0.232114 0.231276 0.246896
0.295131 0.281525 0.294020
0.373121 0.342068 0.347858
0.457917 0.403494 0.402721
0.551466 0.466055 0.458902
0.634501 0.527184 0.512284
0.707023 0.586881 0.562867
0.753545 0.627572 0.595982
0.779845 0.653482 0.615512
0.798537 0.673940 0.631462
0.812664 0.691126 0.645263
0.823120 0.701599 0.656066
0.831909 0.709020 0.665505
0.838647 0.718199 0.672406
0.844701 0.727964 0.678460
0.852130 0.737465 0.687265
0.859877 0.746904 0.696704
0.862612 0.751616 0.701701
0.864630 0.755652 0.706062
0.866648 0.759688 0.711706
0.868666 0.763725 0.717434
0.083373 0.121338 0.139627
0.084740 0.122705 0.142361
0.086022 0.123942 0.144835
0.086022 0.123226 0.143403
0.086022 0.122600 0.142321
0.086022 0.122600 0.143688
0.086388 0.123747 0.145946
0.088341 0.129866 0.152065
0.096153 0.138443 0.160480
0.121542 0.154393 0.175778
0.169553 0.188896 0.208552
0.267333 0.264216 0.279771
0.359254 0.333996 0.343691
0.441411 0.394539 0.395446
0.526728 0.455964 0.448681
0.616110 0.518526 0.503821
0.687167 0.571842 0.550433
0.739898 0.615915 0.588516
0.774246 0.649185 0.614992
0.794297 0.674053 0.632438
0.810645 0.692168 0.646956
0.824772 0.706229 0.659715
0.832364 0.714293 0.668760
0.836987 0.719632 0.676116
0.842683 0.727509 0.682496
0.848737 0.736232 0.688550
0.855320 0.743845 0.695663
0.862026 0.751201 0.703019
0.864630 0.755652 0.708666
0.866648 0.759688 0.714070
0.868666 0.763725 0.718802
0.870684 0.767761 0.723489
0.085139 0.131933 0.152240
0.087157 0.133561 0.155495
0.089049 0.135009 0.158368
0.089049 0.133772 0.155504
0.089097 0.132739 0.153298
0.089488 0.133129 0.155707
0.089879 0.134814 0.159031
0.090269 0.142105 0.166322
0.095705 0.149803 0.173630
0.116277 0.158722 0.180986
0.167934 0.193152 0.212572
0.287978 0.283706 0.297462
0.400503 0.365642 0.371343
0.500497 0.433216 0.426873
0.592316 0.497230 0.480580
0.673626 0.556666 0.531944
0.732314 0.603147 0.572371
0.768379 0.636674 0.601862
0.792580 0.664085 0.623186
0.807553 0.686740 0.638159
0.821265 0.702315 0.651098
0.834220 0.713642 0.662816
0.840193 0.720494 0.670908
0.842992 0.725312 0.677353
0.847354 0.731984 0.683212
0.852236 0.739276 0.688876
0.858071 0.745879 0.695492
0.864125 0.752324 0.702327
0.867331 0.757003 0.708479
0.870131 0.761430 0.714533
0.871831 0.764392 0.717231
0.873459 0.767256 0.719705
0.093211 0.150096 0.172421
0.095229 0.150682 0.173593
0.097121 0.151284 0.174708
0.097121 0.152131 0.174968
0.097300 0.153050 0.175628
0.098732 0.154482 0.179078
0.100164 0.156622 0.182858
0.101597 0.161830 0.188066
0.108074 0.167185 0.191988
0.129687 0.172979 0.192053
0.177829 0.201680 0.215371
0.284332 0.280776 0.289846
0.403628 0.362583 0.362294
0.544244 0.448905 0.431365
0.652534 0.519819 0.489043
0.719261 0.570923 0.532074
0.764929 0.612196 0.567294
0.789537 0.643640 0.594701
0.806967 0.667796 0.613356
0.818816 0.686284 0.625204
0.829402 0.698995 0.636320
0.839233 0.708239 0.646996
0.845661 0.715872 0.655480
0.850544 0.722773 0.662966
0.853083 0.728404 0.668304
0.854840 0.733612 0.672926
0.860089 0.740671 0.681040
0.866143 0.748158 0.689958
0.871172 0.753878 0.696371
0.876055 0.759347 0.702425
0.876909 0.759444 0.701216
0.877495 0.759184 0.699524
0.106581 0.170025 0.193485
0.108143 0.170025 0.193485
0.109665 0.170208 0.193640
0.110576 0.173138 0.196114
0.111455 0.175725 0.198555
0.112106 0.175921 0.200768
0.113184 0.176836 0.203153
0.116114 0.180872 0.206277
0.123861 0.185022 0.207954
0.146060 0.189514 0.205285
0.189946 0.212885 0.222044
0.281541 0.277790 0.281545
0.400259 0.354852 0.347150
0.564181 0.452176 0.422926
0.683188 0.527029 0.482326
0.744447 0.572990 0.520670
0.784158 0.611106 0.552732
0.802321 0.641377 0.578511
0.816199 0.663446 0.595209
0.826746 0.679135 0.604844
0.835746 0.690918 0.615333
0.843818 0.700358 0.626335
0.850190 0.708858 0.635323
0.855788 0.716930 0.643395
0.857871 0.723342 0.650150
0.858783 0.729201 0.656464
0.863132 0.736118 0.665106
0.868275 0.743279 0.674285
0.873817 0.749472 0.681129
0.879415 0.755526 0.687639
0.879765 0.754440 0.685116
0.879765 0.752877 0.681992
0.126762 0.192224 0.215684
0.127283 0.192224 0.215684
0.127958 0.192537 0.215904
0.130953 0.197550 0.219420
0.133264 0.201440 0.222251
0.130790 0.197469 0.220298
0.129720 0.194999 0.218907
0.134733 0.199035 0.219948
0.144042 0.203446 0.220844
0.166241 0.208979 0.221299
0.204919 0.227533 0.233697
0.279849 0.274730 0.272366
0.388541 0.341116 0.324169
0.553505 0.439482 0.397863
0.675832 0.514465 0.456091
0.743340 0.559384 0.494434
0.786176 0.596979 0.525975
0.804339 0.627251 0.550713
0.818803 0.648734 0.566370
0.830391 0.663381 0.574963
0.839782 0.676727 0.586364
0.847854 0.689291 0.599449
0.853510 0.698767 0.609088
0.858067 0.706839 0.617160
0.861452 0.716377 0.627820
0.864447 0.726402 0.639343
0.867494 0.732407 0.647269
0.870554 0.737485 0.654365
0.874924 0.743418 0.661859
0.879481 0.749472 0.669411
0.879765 0.749362 0.668907
0.879765 0.748841 0.667865
0.160061 0.227541 0.247974
0.160061 0.228062 0.247974
0.160248 0.228798 0.248161
0.163242 0.232769 0.251156
0.165618 0.235813 0.253467
0.163665 0.232362 0.250993
0.163116 0.230120 0.248885
0.168650 0.233115 0.248365
0.179652 0.237525 0.248869
0.207059 0.246184 0.252450
0.254199 0.267699 0.265693
0.344753 0.317501 0.300196
0.455008 0.381413 0.346857
0.598098 0.468842 0.413780
0.703792 0.534711 0.465465
0.761405 0.572860 0.497559
0.798773 0.606288 0.524934
0.815894 0.634998 0.547589
0.829024 0.655504 0.562627
0.839049 0.669631 0.571741
0.847203 0.682455 0.583662
0.854234 0.694499 0.597268
0.859922 0.704528 0.608144
0.865000 0.713642 0.617779
0.868515 0.723440 0.629220
0.871510 0.733465 0.641263
0.874134 0.739048 0.649287
0.876673 0.743605 0.656383
0.879155 0.747193 0.662055
0.881629 0.750644 0.667523
0.882272 0.752324 0.669330
0.882793 0.753886 0.670892
0.206477 0.275975 0.290354
0.206477 0.277538 0.290354
0.206534 0.278990 0.290411
0.207445 0.278795 0.291322
0.208519 0.278844 0.292201
0.210733 0.280601 0.292852
0.213373 0.282200 0.293088
0.217865 0.283112 0.291526
0.230690 0.287262 0.292030
0.268513 0.301128 0.298736
0.337788 0.333385 0.318034
0.476255 0.406102 0.365036
0.599660 0.475743 0.415212
0.697961 0.540257 0.470677
0.767069 0.587768 0.510449
0.798643 0.613417 0.530044
0.821948 0.639034 0.549607
0.836987 0.664618 0.569137
0.846861 0.683757 0.583980
0.852720 0.697884 0.595177
0.858010 0.708105 0.607228
0.862957 0.715982 0.619793
0.869427 0.726142 0.632491
0.876588 0.737339 0.645251
0.879062 0.744532 0.654349
0.879973 0.750391 0.662226
0.883053 0.756039 0.671161
0.886633 0.761637 0.680340
0.886511 0.760799 0.681715
0.885860 0.759042 0.681975
0.887284 0.763326 0.686386
0.888847 0.768013 0.691073
0.265380 0.332356 0.341816
0.267138 0.336132 0.344159
0.268676 0.339435 0.346210
0.266918 0.335660 0.343866
0.265811 0.332714 0.341995
0.269262 0.335578 0.343427
0.273591 0.338565 0.344761
0.281728 0.342080 0.345673
0.298866 0.349046 0.348814
0.343004 0.366362 0.358644
0.423353 0.403575 0.380335
0.583369 0.484560 0.428118
0.706522 0.552752 0.474046
0.768237 0.599624 0.516882
0.810499 0.634306 0.546901
0.827751 0.653315 0.560442
0.841682 0.672878 0.575708
0.852293 0.692994 0.592699
0.859865 0.709081 0.607603
0.865073 0.722036 0.620883
0.868816 0.729946 0.631966
0.871681 0.734828 0.641731
0.876514 0.742262 0.652078
0.882243 0.750855 0.662689
0.884115 0.756470 0.670322
0.884701 0.761092 0.676963
0.887614 0.766402 0.684978
0.891064 0.771870 0.693311
0.890242 0.769535 0.693612
0.888810 0.766085 0.692766
0.890613 0.770446 0.697290
0.892631 0.775329 0.702173
0.333996 0.394917 0.400341
0.338878 0.401818 0.406851
0.343150 0.407856 0.412547
0.338268 0.400955 0.406037
0.334297 0.395015 0.400389
0.336705 0.395796 0.400780
0.341555 0.398261 0.402245
0.356984 0.408026 0.408364
0.380371 0.420200 0.416192
0.427634 0.439600 0.429147
0.510457 0.477268 0.450382
0.671515 0.555128 0.489833
0.783991 0.616289 0.525475
0.815499 0.649621 0.554770
0.838492 0.675775 0.576717
0.850535 0.692701 0.589216
0.858738 0.707576 0.602920
0.863100 0.720401 0.617827
0.869109 0.732127 0.632992
0.876401 0.742998 0.648355
0.879623 0.748825 0.657616
0.880404 0.751624 0.663214
0.881722 0.754110 0.667963
0.883285 0.756454 0.672324
0.884896 0.761287 0.679176
0.886524 0.766951 0.686858
0.888786 0.771610 0.692530
0.891195 0.776037 0.697738
0.891154 0.774482 0.699471
0.890763 0.772074 0.700708
0.892631 0.774548 0.703410
0.894649 0.777347 0.706209
0.401350 0.453694 0.451298
0.405451 0.458511 0.456766
0.409365 0.462971 0.461754
0.410472 0.462059 0.459541
0.411367 0.461018 0.457523
0.410781 0.459065 0.456872
0.413344 0.459016 0.457246
0.429554 0.467219 0.462063
0.455448 0.479555 0.469696
0.510392 0.504293 0.485776
0.592312 0.542824 0.506962
0.733579 0.611700 0.539382
0.827730 0.663145 0.567017
0.843354 0.685540 0.586677
0.856272 0.704630 0.603603
0.865712 0.719473 0.617014
0.871441 0.731940 0.630457
0.873459 0.742030 0.643933
0.877784 0.750656 0.656346
0.883903 0.758142 0.667934
0.886605 0.762211 0.675209
0.887256 0.764229 0.679896
0.887907 0.765307 0.684091
0.888558 0.765958 0.688062
0.889746 0.769197 0.693156
0.891113 0.773298 0.698625
0.892480 0.776289 0.701872
0.893847 0.779023 0.704606
0.894018 0.778738 0.707283
0.894018 0.778022 0.709952
0.895910 0.779259 0.711401
0.897928 0.780626 0.712768
0.467947 0.510201 0.497714
0.468923 0.509810 0.499016
0.470624 0.510103 0.500684
0.483188 0.520649 0.507845
0.493588 0.529243 0.513899
0.488836 0.524165 0.512207
0.487428 0.520405 0.510758
0.500513 0.522358 0.510368
0.526667 0.531830 0.514876
0.592027 0.563860 0.534080
0.671018 0.603497 0.555462
0.779996 0.659874 0.581632
0.851231 0.699992 0.602627
0.859564 0.713012 0.614996
0.867925 0.725918 0.628732
0.876323 0.738677 0.644225
0.881531 0.750102 0.658189
0.883549 0.760193 0.670624
0.886117 0.766475 0.678480
0.889111 0.769795 0.682777
0.891292 0.772302 0.687969
0.892985 0.774320 0.693697
0.894677 0.776114 0.700366
0.896370 0.777807 0.707462
0.897037 0.778962 0.710212
0.897363 0.779939 0.711514
0.897688 0.780651 0.712288
0.898014 0.781302 0.712939
0.898054 0.782579 0.716267
0.898054 0.783946 0.719977
0.899946 0.784337 0.720515
0.901964 0.784662 0.720840
0.551194 0.573645 0.549680
0.551910 0.572343 0.549680
0.553187 0.571692 0.550087
0.562887 0.580806 0.556597
0.571155 0.588382 0.562130
0.569397 0.585192 0.560828
0.571179 0.583540 0.560198
0.588301 0.588553 0.562476
0.615789 0.599099 0.567619
0.674379 0.626246 0.581355
0.738177 0.657054 0.595905
0.813433 0.695919 0.612245
0.862738 0.723456 0.626242
0.868792 0.732115 0.636332
0.874789 0.741029 0.648131
0.880713 0.750273 0.662128
0.885043 0.759583 0.674464
0.887777 0.768957 0.685141
0.890108 0.774194 0.691350
0.892126 0.776212 0.694084
0.894144 0.777782 0.698446
0.896162 0.779084 0.703784
0.898181 0.781371 0.710509
0.900199 0.784105 0.717866
0.900703 0.784789 0.719705
0.900703 0.784789 0.719705
0.901867 0.784789 0.720287
0.903299 0.784789 0.721003
0.904105 0.787181 0.723371
0.904821 0.789915 0.725975
0.906086 0.790086 0.726138
0.907388 0.790086 0.726138
0.642008 0.640242 0.604169
0.643766 0.639982 0.604169
0.645434 0.639852 0.604250
0.645759 0.641674 0.605552
0.646606 0.643391 0.606659
0.651098 0.644368 0.606398
0.659325 0.647468 0.607786
0.683737 0.659772 0.616314
0.713048 0.673183 0.623800
0.757056 0.689913 0.628162
0.800087 0.707377 0.632687
0.840970 0.726451 0.637569
0.868792 0.740838 0.644405
0.874846 0.747413 0.654495
0.879477 0.753333 0.664927
0.882276 0.758411 0.675799
0.885563 0.765116 0.685531
0.889339 0.773449 0.694125
0.892126 0.778230 0.700008
0.894144 0.780248 0.703784
0.896162 0.781167 0.707885
0.898181 0.781428 0.712182
0.900199 0.784105 0.717866
0.902217 0.787881 0.724180
0.902721 0.788825 0.725759
0.902721 0.788825 0.725759
0.905578 0.788825 0.727187
0.909093 0.788825 0.728945
0.911070 0.792129 0.729620
0.912828 0.795904 0.730141
0.913182 0.796140 0.730174
0.913442 0.796140 0.730174
0.699524 0.679595 0.634440
0.703886 0.681158 0.636003
0.707897 0.682622 0.637467
0.706660 0.682622 0.637467
0.706140 0.682875 0.637565
0.710632 0.684893 0.638346
0.718614 0.688742 0.640287
0.741725 0.700525 0.647253
0.767000 0.711917 0.653372
0.798769 0.722138 0.656953
0.828991 0.732359 0.659068
0.855813 0.742579 0.657962
0.874260 0.751238 0.660468
0.878752 0.757292 0.668996
0.882162 0.762122 0.677866
0.884180 0.765377 0.687175
0.887207 0.770259 0.696257
0.891243 0.776769 0.705110
0.894144 0.780752 0.710815
0.896162 0.782770 0.714070
0.898181 0.784016 0.716836
0.900199 0.784797 0.719310
0.902754 0.787816 0.723171
0.905553 0.791852 0.727663
0.906839 0.792861 0.729372
0.907620 0.792861 0.730153
0.910411 0.793496 0.732574
0.913666 0.794277 0.735374
0.915155 0.796539 0.736407
0.916392 0.799013 0.737188
0.916470 0.799168 0.737237
0.916470 0.799168 0.737237
0.745940 0.709867 0.656639
0.753427 0.713512 0.660285
0.760433 0.716930 0.663703
0.760238 0.716930 0.663703
0.760368 0.717182 0.663930
0.762777 0.719200 0.665753
0.768286 0.722463 0.667759
0.787230 0.731122 0.670558
0.806516 0.738869 0.674074
0.826827 0.743881 0.679738
0.846894 0.748894 0.681983
0.866424 0.753907 0.676710
0.879533 0.759310 0.675832
0.881942 0.765364 0.682276
0.884180 0.769738 0.689519
0.886198 0.771952 0.697786
0.889225 0.775272 0.706868
0.893261 0.779699 0.716763
0.896162 0.782770 0.722337
0.898181 0.784789 0.724551
0.900199 0.786685 0.725625
0.902217 0.788507 0.726015
0.905488 0.791852 0.727794
0.909329 0.795888 0.730202
0.911656 0.796897 0.732172
0.913479 0.796897 0.733994
0.915619 0.798378 0.737457
0.917833 0.800201 0.741298
0.918280 0.800771 0.743373
0.918475 0.801161 0.745196
0.918488 0.801186 0.745309
0.918488 0.801186 0.745309
0.787437 0.733579 0.678838
0.792971 0.735923 0.682028
0.798106 0.738120 0.684966
0.797259 0.738120 0.684120
0.796877 0.738266 0.683631
0.799741 0.739438 0.685649
0.804681 0.741428 0.687509
0.818612 0.746961 0.688681
0.832332 0.752332 0.690861
0.845417 0.757215 0.696069
0.858767 0.761568 0.697758
0.872698 0.764758 0.691704
0.882162 0.768070 0.689555
0.884180 0.771585 0.693917
0.886198 0.774816 0.699902
0.888216 0.777680 0.707975
0.890820 0.780284 0.715363
0.894010 0.782628 0.722069
0.897017 0.785741 0.726614
0.899881 0.789451 0.729478
0.903275 0.792633 0.732139
0.906985 0.795498 0.734678
0.910338 0.798004 0.735695
0.913528 0.800347 0.736021
0.915839 0.800933 0.738250
0.917857 0.800933 0.741115
0.919188 0.802573 0.744931
0.920359 0.804591 0.748967
0.921246 0.804843 0.750497
0.922093 0.804843 0.751669
0.922939 0.804843 0.751742
0.923785 0.804843 0.751742
0.827799 0.755778 0.701037
0.830208 0.756039 0.703186
0.832348 0.756283 0.705082
0.830460 0.756283 0.703194
0.829297 0.756299 0.701794
0.833203 0.756429 0.703812
0.838012 0.756987 0.705476
0.846735 0.759396 0.705607
0.854987 0.762683 0.706746
0.861822 0.768607 0.710912
0.869248 0.773351 0.711885
0.877971 0.775500 0.705830
0.884180 0.776989 0.702901
0.886198 0.777379 0.705179
0.888216 0.779308 0.709993
0.890234 0.783214 0.718065
0.892317 0.785297 0.723371
0.894466 0.785558 0.725910
0.897603 0.788931 0.729218
0.901509 0.794724 0.733124
0.906595 0.799338 0.738128
0.912389 0.803244 0.743792
