其他预设/【236】赛博朋克风调色预设/【后期菌】视频调色预设/CUBE/Tokyo 05.cube
# LUT by SparkleStock. Enhanced with VOXCOLOR algorithms.
LUT_3D_SIZE 5
DOMAIN_MIN 0.000000 0.000000 0.000000
DOMAIN_MAX 0.903226 0.903226 0.903226
0.144673 0.058651 0.039101
0.154259 0.061048 0.040614
0.422161 0.133068 0.033929
0.613376 0.226910 0.056759
0.697380 0.282912 0.068237
0.141393 0.060165 0.043011
0.164089 0.065499 0.045993
0.438920 0.145088 0.042038
0.625351 0.231939 0.060661
0.704569 0.292498 0.073030
0.176584 0.127897 0.111374
0.183883 0.131465 0.113661
0.605251 0.243738 0.063729
0.721849 0.323274 0.080423
0.774027 0.390462 0.120940
0.553212 0.484596 0.403620
0.571179 0.477061 0.384489
0.793585 0.453739 0.178647
0.882036 0.557097 0.255493
0.911140 0.612176 0.319991
0.795384 0.642260 0.489515
0.813587 0.632455 0.454968
0.908145 0.653738 0.393635
0.949675 0.730837 0.478574
0.970116 0.772131 0.541477
0.138997 0.060165 0.045407
0.152448 0.061633 0.045065
0.420054 0.133068 0.036956
0.615142 0.225783 0.058517
0.695614 0.282229 0.069551
0.136014 0.059579 0.046335
0.160415 0.067591 0.049896
0.442950 0.150412 0.051073
0.626680 0.238186 0.066270
0.703076 0.292100 0.075833
0.179033 0.137825 0.126725
0.188045 0.146550 0.132004
0.608230 0.250301 0.070442
0.727016 0.332042 0.088702
0.774673 0.392423 0.123340
0.556381 0.494703 0.419008
0.571860 0.503833 0.422383
0.798852 0.462912 0.188308
0.879167 0.553848 0.254521
0.908356 0.617001 0.326655
0.795583 0.641398 0.488905
0.803370 0.638619 0.477769
0.907803 0.650723 0.391282
0.949281 0.731647 0.480964
0.964298 0.767318 0.536072
0.086904 0.090436 0.126131
0.088760 0.091319 0.126672
0.286322 0.127983 0.093105
0.512138 0.230694 0.137910
0.603135 0.297141 0.166090
0.087987 0.097483 0.131665
0.095398 0.104717 0.141340
0.315763 0.148001 0.110260
0.526776 0.242940 0.146993
0.612836 0.313643 0.184798
0.207372 0.278364 0.326452
0.223969 0.304753 0.351052
0.387083 0.339503 0.344280
0.620749 0.419127 0.331438
0.723326 0.494977 0.369667
0.538080 0.592394 0.571708
0.538099 0.589420 0.572048
0.683424 0.646251 0.579322
0.901164 0.606533 0.335246
0.920661 0.656855 0.392769
0.740138 0.720881 0.654808
0.744332 0.723403 0.658026
0.893685 0.734025 0.571119
0.959311 0.764106 0.554106
0.965987 0.797376 0.605871
0.153376 0.173557 0.289723
0.159153 0.181100 0.302304
0.203909 0.221316 0.332185
0.328173 0.355218 0.439348
0.437553 0.450573 0.506384
0.158799 0.183387 0.301596
0.165480 0.190696 0.311441
0.222506 0.241910 0.356158
0.344695 0.370732 0.454707
0.450555 0.465253 0.520121
0.360312 0.418080 0.516210
0.364425 0.420482 0.519221
0.467746 0.522305 0.605445
0.529758 0.566011 0.619050
0.592913 0.630159 0.658222
0.564991 0.678610 0.711051
0.569888 0.681772 0.715539
0.624298 0.739571 0.773800
0.802332 0.763920 0.728610
0.903773 0.721921 0.586041
0.686219 0.759754 0.753732
0.689125 0.759298 0.753171
0.804970 0.813820 0.795078
0.930306 0.809804 0.693304
0.970163 0.835559 0.683823
0.233847 0.249488 0.409422
0.234047 0.247921 0.408791
0.301287 0.313501 0.469420
0.380986 0.388838 0.512760
0.469041 0.476862 0.576757
0.243120 0.261157 0.421091
0.250834 0.268208 0.429224
0.316533 0.329846 0.484402
0.390728 0.397865 0.519920
0.480259 0.489161 0.585110
0.435470 0.474970 0.600092
0.438400 0.479034 0.601467
0.530316 0.576105 0.694114
0.565541 0.599502 0.687551
0.626766 0.671458 0.743359
0.601333 0.705550 0.780154
0.602592 0.706458 0.782516
0.664895 0.766084 0.845467
0.751642 0.834209 0.894836
0.812647 0.835982 0.867442
0.665135 0.787523 0.832470
0.669432 0.789770 0.833155
0.773540 0.841838 0.868485
0.869854 0.876284 0.878303
0.945685 0.866829 0.798603
