其他预设/【236】赛博朋克风调色预设/【后期菌】视频调色预设/CUBE/Tokyo 01.cube
# LUT by SparkleStock. Enhanced with VOXCOLOR algorithms.
LUT_3D_SIZE 8
DOMAIN_MIN 0.000000 0.000000 0.000000
DOMAIN_MAX 0.903226 0.903226 0.903226
0.070381 0.039101 0.070381
0.070381 0.039101 0.078201
0.081229 0.039605 0.076688
0.165863 0.050705 0.064075
0.444739 0.112761 0.091067
0.609466 0.174313 0.126131
0.698767 0.214802 0.158547
0.738625 0.249488 0.185161
0.078201 0.043011 0.078201
0.078201 0.042775 0.078454
0.080472 0.039857 0.076720
0.168133 0.054965 0.071944
0.451680 0.116736 0.096051
0.613718 0.177475 0.129464
0.703027 0.219216 0.164475
0.740276 0.251530 0.189107
0.068868 0.041119 0.085139
0.076183 0.044524 0.088105
0.088056 0.045468 0.081847
0.195040 0.066374 0.081635
0.481427 0.130924 0.109750
0.639017 0.194026 0.148656
0.717353 0.236415 0.180469
0.749598 0.271939 0.209150
0.057011 0.067859 0.122600
0.057361 0.071769 0.127218
0.071557 0.079658 0.130757
0.341982 0.115996 0.115414
0.588484 0.195434 0.163914
0.694914 0.252657 0.209907
0.742579 0.285350 0.226910
0.780211 0.334732 0.259358
0.118816 0.141393 0.188188
0.124374 0.144172 0.190967
0.144249 0.139013 0.175709
0.412494 0.180400 0.149099
0.707429 0.254508 0.132950
0.763273 0.313164 0.167197
0.804050 0.372315 0.206957
0.830924 0.411916 0.235935
0.321130 0.327058 0.339293
0.323075 0.334419 0.345392
0.422039 0.358172 0.347129
0.714489 0.338553 0.221495
0.809384 0.421677 0.262300
0.860158 0.500334 0.314531
0.878915 0.537099 0.349778
0.889290 0.564567 0.383695
0.615268 0.546653 0.499101
0.623398 0.549737 0.502031
0.673081 0.550506 0.486065
0.825024 0.491456 0.343667
0.884900 0.569344 0.401842
0.905118 0.620708 0.458629
0.914659 0.653649 0.496994
0.918435 0.668337 0.518241
0.788573 0.630152 0.554473
0.787336 0.628386 0.552316
0.813974 0.617339 0.521785
0.893424 0.601972 0.455191
0.916897 0.658279 0.517138
0.925803 0.704191 0.563428
0.931048 0.728534 0.587772
0.934506 0.750815 0.612994
0.078201 0.039353 0.070886
0.077729 0.042775 0.081875
0.080219 0.039573 0.076655
0.170887 0.054818 0.068847
0.455143 0.116419 0.093020
0.611692 0.173007 0.123727
0.699552 0.218138 0.161155
0.738625 0.249650 0.187354
0.071358 0.039353 0.071846
0.077760 0.042569 0.081670
0.081399 0.040252 0.077355
0.171319 0.056807 0.069945
0.462332 0.124183 0.100914
0.620512 0.182029 0.132684
0.698983 0.217437 0.161270
0.740828 0.252036 0.187804
0.069372 0.044305 0.088357
0.069417 0.044366 0.088198
0.091420 0.048939 0.082795
0.201959 0.068406 0.083845
0.491838 0.137898 0.116968
0.636819 0.195442 0.150661
0.719647 0.244621 0.190409
0.749153 0.271107 0.208715
0.059961 0.071818 0.130265
0.060547 0.072166 0.130296
0.072918 0.082022 0.132897
0.340285 0.120190 0.122722
0.594233 0.206424 0.174220
0.697603 0.256047 0.213917
0.749887 0.293813 0.232610
0.785157 0.342107 0.268003
0.125627 0.147569 0.194177
0.124020 0.149030 0.197887
0.148868 0.145487 0.183119
0.415155 0.182513 0.149356
0.713036 0.261853 0.139626
0.770540 0.323145 0.174465
0.804680 0.378412 0.210334
0.830656 0.411944 0.236024
0.333735 0.342365 0.352158
0.324523 0.333603 0.343237
0.424782 0.361311 0.350458
0.706611 0.331635 0.218809
0.811417 0.424451 0.265258
0.861620 0.502596 0.318364
0.882858 0.539567 0.353599
0.889840 0.568705 0.386759
0.617510 0.548895 0.498792
0.622624 0.550490 0.500299
0.662014 0.540180 0.473533
0.827393 0.494610 0.348071
0.885406 0.567421 0.398567
0.903878 0.618252 0.458498
0.912485 0.651452 0.494129
0.913354 0.662426 0.511318
0.788536 0.628109 0.546514
0.785650 0.626743 0.549167
0.811832 0.613728 0.518075
0.892056 0.597605 0.447690
0.916903 0.660879 0.518148
0.924444 0.700960 0.558143
0.929982 0.729120 0.588357
0.933400 0.749955 0.610121
0.065462 0.040110 0.084634
0.068803 0.043515 0.088040
0.077388 0.043011 0.083495
0.160353 0.057109 0.078397
0.436434 0.117815 0.102553
0.606187 0.181377 0.144078
0.692770 0.222931 0.173614
0.736305 0.254460 0.200300
0.068396 0.043043 0.087568
0.065385 0.039918 0.084457
0.081461 0.044566 0.084695
0.166038 0.062307 0.084162
0.446845 0.124353 0.109375
0.607811 0.183990 0.145594
0.698961 0.228127 0.178390
0.739949 0.256637 0.202442
0.063444 0.043381 0.096735
0.064144 0.046197 0.098980
0.084377 0.047283 0.089964
0.186085 0.068315 0.089082
0.481238 0.146406 0.127443
0.630059 0.203574 0.164389
0.710619 0.242887 0.197245
0.747014 0.273166 0.218658
0.059408 0.074698 0.134358
0.056255 0.074783 0.133810
0.066233 0.086810 0.147575
0.322985 0.120722 0.132930
0.585476 0.210241 0.187156
0.692140 0.265409 0.228312
0.751116 0.308245 0.257684
0.780206 0.338371 0.274326
0.117168 0.152989 0.205956
0.117144 0.153934 0.210945
0.135034 0.169363 0.222450
0.381509 0.195766 0.180751
0.720908 0.272890 0.160157
0.776937 0.333920 0.188726
0.812576 0.387621 0.223910
0.835967 0.420430 0.245992
0.324589 0.351528 0.359999
0.318301 0.340870 0.351680
0.355543 0.368754 0.373153
0.673980 0.356021 0.262631
0.812140 0.429357 0.271424
0.862220 0.502993 0.322000
0.883897 0.547345 0.363134
0.889763 0.571781 0.392895
0.612286 0.548406 0.504651
0.618268 0.550295 0.505995
0.643600 0.567085 0.516504
0.820022 0.523259 0.386849
0.886029 0.570298 0.403890
0.903614 0.621247 0.463793
0.908586 0.649703 0.493432
0.910738 0.665591 0.517484
0.784667 0.638806 0.562594
0.785183 0.639273 0.561574
0.798955 0.636923 0.555970
0.885883 0.612342 0.479799
0.917870 0.665298 0.526890
0.925462 0.707043 0.568169
0.927452 0.727996 0.589168
0.929098 0.747488 0.607279
0.034434 0.057011 0.130420
0.033880 0.057215 0.131030
0.038401 0.059758 0.138757
0.108351 0.062142 0.116147
0.338992 0.115915 0.145120
0.542348 0.182740 0.188652
0.634819 0.234055 0.227577
0.694495 0.268045 0.248116
0.037538 0.060921 0.134126
0.037407 0.060836 0.134257
0.042632 0.063983 0.142788
0.109071 0.066231 0.121287
0.346824 0.125447 0.155661
0.550302 0.189700 0.193265
0.640433 0.243961 0.236071
0.697438 0.271264 0.255600
0.035919 0.062630 0.138423
0.039508 0.065514 0.140385
0.043315 0.071489 0.151762
0.125978 0.074210 0.127784
0.390714 0.147666 0.172052
0.571976 0.209872 0.214385
0.649788 0.257314 0.253044
0.708259 0.295127 0.279625
0.034898 0.106516 0.193904
0.032131 0.104359 0.192571
0.040771 0.111694 0.200653
0.177559 0.125176 0.190958
0.492778 0.215883 0.240461
0.629249 0.287050 0.290665
0.707173 0.344866 0.329220
0.757416 0.382627 0.346346
0.080561 0.192704 0.260506
0.078434 0.191585 0.260766
0.097206 0.215397 0.282977
0.161313 0.269449 0.324077
0.669325 0.341443 0.301639
0.773925 0.399676 0.324748
0.819418 0.446968 0.349242
0.849132 0.473215 0.337155
0.269233 0.414475 0.428989
0.254672 0.398962 0.419934
0.287716 0.426089 0.439038
0.446966 0.498594 0.486364
0.824203 0.485306 0.347253
0.875612 0.537955 0.371119
0.888081 0.574800 0.404365
0.892056 0.596935 0.432414
0.548284 0.580790 0.558383
0.553569 0.585737 0.562841
0.567922 0.593216 0.568136
0.714058 0.637039 0.584937
0.893342 0.606612 0.459299
0.912305 0.653366 0.509568
0.913173 0.673451 0.533612
0.911980 0.688048 0.547056
0.704838 0.681414 0.627881
0.708453 0.687579 0.632373
0.724437 0.691818 0.631901
0.861068 0.690617 0.597560
0.921824 0.688389 0.559469
0.926768 0.731407 0.596652
0.928839 0.750725 0.615582
0.929615 0.770613 0.634862
0.027370 0.085139 0.181124
0.023648 0.081416 0.177524
0.026996 0.084894 0.183912
0.048316 0.088809 0.188452
0.178293 0.117387 0.199885
0.386332 0.189522 0.255941
0.503870 0.249842 0.305087
0.582376 0.299436 0.337177
0.026174 0.084195 0.179171
0.026076 0.084211 0.181853
0.027477 0.091250 0.189348
0.054389 0.094902 0.198874
0.186954 0.124282 0.205720
0.397467 0.197660 0.258374
0.514975 0.256028 0.305078
0.587126 0.307929 0.344439
0.023460 0.093838 0.199161
0.022964 0.091966 0.197819
0.028806 0.097534 0.204633
0.055102 0.107052 0.213409
0.219009 0.145671 0.230073
0.426687 0.222315 0.283095
0.535691 0.283476 0.331375
0.594575 0.327106 0.360455
0.020559 0.149937 0.257263
0.020311 0.154522 0.266010
0.025094 0.161131 0.273915
0.042415 0.194412 0.310156
0.280240 0.226921 0.307532
0.491308 0.323886 0.376776
0.590078 0.390785 0.422429
0.656399 0.454007 0.464050
0.040456 0.299318 0.379899
0.039724 0.298603 0.378680
0.046450 0.315229 0.395979
0.073910 0.374243 0.442950
0.281216 0.424136 0.469420
0.645289 0.498986 0.485427
0.730157 0.552390 0.518688
0.784375 0.584464 0.543084
0.162551 0.467898 0.498263
0.160225 0.466918 0.498214
0.169490 0.478748 0.510910
0.265132 0.537868 0.559778
0.529790 0.620898 0.608544
0.877293 0.588692 0.463960
0.893010 0.608310 0.472670
0.899301 0.626735 0.492206
0.489377 0.616607 0.608156
0.479414 0.612113 0.602637
0.499245 0.624405 0.611294
0.625032 0.678012 0.650265
0.797995 0.718276 0.652924
0.914606 0.683301 0.563301
0.916698 0.703968 0.574961
0.916783 0.716147 0.584325
0.679799 0.706355 0.663519
0.679468 0.704085 0.662161
0.690321 0.710699 0.665804
0.763599 0.745920 0.688896
0.900083 0.756660 0.656592
0.931475 0.749829 0.626160
0.930584 0.767986 0.640431
0.928452 0.782740 0.656136
0.024722 0.101536 0.236874
0.022162 0.104066 0.238144
0.025063 0.110023 0.244658
0.033811 0.118242 0.251974
0.058684 0.157021 0.281692
0.150796 0.202119 0.314697
0.275580 0.262101 0.355910
0.398632 0.325854 0.401793
0.023460 0.102886 0.235613
0.024640 0.104337 0.239358
0.024014 0.108139 0.244291
0.032965 0.115337 0.251808
0.060428 0.157821 0.284036
0.154610 0.199952 0.310579
0.275816 0.264172 0.356712
0.395886 0.325883 0.402298
0.024217 0.117412 0.253434
0.023438 0.114597 0.250961
0.024263 0.121572 0.262000
0.036704 0.136665 0.277056
0.064210 0.174591 0.301552
0.172994 0.232105 0.339520
0.278480 0.292224 0.380890
0.404934 0.361360 0.431962
0.025967 0.181352 0.323779
0.025795 0.180806 0.323964
0.025649 0.186606 0.334014
0.041372 0.235444 0.383846
0.081278 0.266432 0.386211
0.193186 0.344573 0.432773
0.342704 0.422891 0.483450
0.471998 0.488352 0.527037
0.061678 0.345600 0.450866
0.061094 0.343228 0.448928
0.067637 0.359151 0.459630
0.097837 0.418076 0.509564
0.165961 0.483990 0.562622
0.334069 0.534704 0.573620
0.576844 0.598729 0.609959
0.669072 0.630459 0.625302
0.137162 0.518021 0.576391
0.130708 0.511303 0.569883
0.144454 0.524281 0.579969
0.224216 0.573646 0.620419
0.404619 0.651030 0.677916
0.632731 0.699734 0.692649
0.816203 0.697014 0.647918
0.861415 0.699733 0.635943
0.368869 0.638428 0.650646
0.375051 0.637184 0.649996
0.388388 0.641676 0.655956
0.536123 0.693465 0.685187
0.705902 0.751299 0.728591
0.848613 0.766022 0.699569
0.923000 0.730995 0.618616
0.924692 0.738599 0.620959
0.638651 0.716604 0.693653
0.641682 0.719347 0.698572
0.650111 0.722772 0.699457
0.735859 0.763286 0.728511
0.828448 0.795197 0.745197
0.917736 0.794156 0.696831
0.934025 0.795405 0.676016
0.931742 0.804564 0.687414
0.027370 0.126636 0.287579
0.027216 0.129354 0.287368
0.028070 0.128825 0.292246
0.035528 0.160061 0.331977
0.046542 0.183143 0.334020
0.067606 0.243071 0.382792
0.095400 0.300282 0.422422
0.148497 0.359454 0.455134
0.027370 0.121843 0.282843
0.027317 0.125352 0.285103
0.028749 0.132530 0.295756
0.037258 0.161459 0.333454
0.046252 0.182054 0.333144
0.067009 0.246739 0.384048
0.094026 0.299765 0.420436
0.151598 0.361644 0.459387
0.027061 0.136405 0.300949
0.025291 0.134823 0.297113
0.028739 0.148480 0.312745
0.037672 0.178484 0.353589
0.050698 0.200785 0.351702
0.077975 0.265360 0.401215
0.107518 0.327243 0.440858
0.159244 0.387122 0.474739
0.033673 0.217023 0.385156
0.033718 0.216581 0.381098
0.036703 0.222608 0.389450
0.054045 0.262694 0.425482
0.084355 0.300226 0.446595
0.127413 0.371409 0.479331
0.198715 0.437902 0.522327
0.296337 0.497985 0.564712
0.086274 0.378874 0.499492
0.080806 0.369164 0.492419
0.090405 0.384644 0.506954
0.126463 0.447924 0.558534
0.243631 0.531371 0.623388
0.347592 0.557105 0.618853
0.456681 0.611302 0.654633
0.529071 0.641331 0.676343
0.189567 0.541856 0.620200
0.195266 0.546742 0.622810
0.217652 0.558692 0.631743
0.335409 0.614021 0.678063
0.460694 0.677548 0.722690
0.575955 0.725087 0.754117
0.704763 0.730728 0.725956
0.778208 0.740479 0.715591
0.390913 0.664594 0.697884
0.383297 0.662306 0.696585
0.411877 0.674196 0.706468
0.501581 0.712551 0.731450
0.623401 0.761544 0.770361
0.756652 0.793711 0.778578
0.904090 0.783639 0.702560
0.928431 0.765804 0.658434
0.603119 0.746225 0.746298
0.588824 0.736989 0.737374
0.616859 0.748791 0.746694
0.693952 0.776877 0.765965
0.798676 0.817268 0.793378
0.865492 0.826578 0.784299
0.932040 0.815914 0.725034
0.935565 0.820188 0.725211
0.031281 0.152114 0.337275
0.032794 0.153514 0.338675
0.031785 0.155772 0.341942
0.040956 0.187773 0.383528
0.054615 0.208544 0.384700
0.080781 0.264619 0.422532
0.109596 0.315462 0.457014
0.162917 0.375236 0.494475
0.032908 0.152342 0.337389
0.031258 0.150247 0.335423
0.033064 0.159129 0.346780
0.040568 0.189452 0.384465
0.054455 0.208402 0.384649
0.080875 0.260156 0.419012
0.111177 0.315984 0.457583
0.159114 0.372540 0.491721
0.033880 0.163470 0.353143
0.033469 0.164629 0.352441
0.035526 0.173238 0.366384
0.045386 0.206861 0.397556
0.060556 0.224290 0.399669
0.090287 0.279122 0.435642
0.129527 0.343618 0.475531
0.185462 0.403616 0.511243
0.048272 0.242892 0.422918
0.049818 0.242617 0.421219
0.054110 0.254036 0.431453
0.074892 0.300928 0.474068
0.129903 0.370813 0.524860
0.170641 0.398290 0.520313
0.246055 0.457232 0.558529
0.323136 0.507101 0.591657
0.113595 0.418979 0.554444
0.108834 0.413301 0.547018
0.125105 0.435504 0.565407
0.204655 0.501426 0.621702
0.358238 0.580727 0.681165
0.433930 0.599518 0.679342
0.499866 0.635184 0.694764
0.554115 0.666438 0.720732
0.293682 0.585937 0.671832
0.294980 0.584521 0.669911
0.316943 0.594920 0.681353
0.421856 0.646066 0.720088
0.521796 0.701309 0.760892
0.599021 0.744106 0.793129
0.648131 0.758745 0.794861
0.694129 0.768841 0.795267
0.450899 0.687057 0.734767
0.449414 0.686160 0.734033
0.469075 0.695040 0.740752
0.540226 0.734468 0.772776
0.618865 0.776790 0.803331
0.700282 0.812457 0.827974
0.830071 0.823882 0.805552
0.883068 0.816030 0.778182
0.567599 0.750188 0.771882
0.562343 0.747644 0.771614
0.583285 0.757172 0.777716
0.649204 0.784784 0.796005
0.758012 0.826630 0.820270
0.843592 0.847497 0.829920
0.897681 0.850121 0.806701
0.930806 0.845893 0.782882
