其他预设/【236】赛博朋克风调色预设/【后期菌】视频调色预设/CUBE/Tokyo 02_S.cube
# LUT by SparkleStock. Enhanced with VOXCOLOR algorithms.
LUT_3D_SIZE 8
DOMAIN_MIN 0.000000 0.000000 0.000000
DOMAIN_MAX 0.903226 0.903226 0.903226
0.082111 0.039101 0.089932
0.082111 0.039101 0.093842
0.095481 0.040614 0.093842
0.226027 0.066219 0.103806
0.527733 0.162583 0.188945
0.690316 0.245956 0.266768
0.739634 0.287579 0.301706
0.764229 0.331599 0.328067
0.086022 0.043011 0.093842
0.085786 0.043011 0.094094
0.100970 0.044655 0.092833
0.254708 0.082413 0.097422
0.539280 0.168450 0.162457
0.690487 0.235198 0.221999
0.750790 0.276984 0.273522
0.766133 0.330842 0.326542
0.079589 0.044524 0.105193
0.084036 0.048247 0.104941
0.127478 0.069429 0.092633
0.292441 0.132450 0.099334
0.552821 0.214305 0.150235
0.702136 0.276732 0.210692
0.761902 0.307300 0.259806
0.785342 0.347691 0.321358
0.032920 0.089805 0.138240
0.033376 0.090766 0.139200
0.072342 0.119487 0.138480
0.401858 0.212295 0.146691
0.630758 0.320499 0.207164
0.731830 0.369093 0.242054
0.781468 0.393241 0.293764
0.807240 0.428305 0.363636
0.007820 0.184404 0.206729
0.010786 0.187183 0.212222
0.035996 0.211066 0.195373
0.406403 0.318957 0.152501
0.673516 0.418361 0.170261
0.744154 0.442647 0.173231
0.793744 0.453100 0.175599
0.813091 0.453133 0.177914
0.039857 0.380790 0.350140
0.044065 0.388484 0.354933
0.121245 0.445833 0.357586
0.713659 0.478465 0.140417
0.780679 0.507910 0.110365
0.822319 0.536843 0.096576
0.845474 0.545391 0.087031
0.859271 0.557504 0.088044
0.255163 0.624602 0.506039
0.274604 0.631218 0.509082
0.462588 0.685841 0.508443
0.806609 0.591893 0.163466
0.846845 0.606541 0.123369
0.869675 0.632422 0.111610
0.884306 0.647297 0.120565
0.890613 0.656155 0.123104
0.659036 0.778734 0.589664
0.659512 0.775479 0.586181
0.730398 0.768086 0.534186
0.842630 0.686569 0.250659
0.870887 0.697534 0.230926
0.888277 0.711632 0.230946
0.897371 0.729165 0.248645
0.906587 0.750017 0.301901
0.082364 0.039353 0.090184
0.085786 0.042775 0.097516
0.096206 0.040549 0.091380
0.233624 0.064909 0.109181
0.536180 0.150283 0.195247
0.690145 0.220559 0.256795
0.746725 0.276760 0.298736
0.764229 0.327311 0.327713
0.082347 0.039825 0.090908
0.086055 0.043312 0.094363
0.118738 0.058244 0.103035
0.279296 0.094818 0.120613
0.544359 0.165281 0.186056
0.689986 0.219267 0.235875
0.755197 0.257257 0.265950
0.777161 0.317268 0.312329
0.080598 0.045029 0.105226
0.080771 0.050566 0.105981
0.147883 0.100905 0.113425
0.324389 0.162817 0.134155
0.559628 0.231464 0.188253
0.695648 0.274582 0.226156
0.768741 0.308152 0.266303
0.798831 0.339096 0.311775
0.035870 0.087661 0.148400
0.037429 0.095902 0.145559
0.100148 0.164314 0.150051
0.403578 0.258981 0.172439
0.620119 0.349697 0.231894
0.718955 0.381253 0.253622
0.785979 0.404013 0.288198
0.821086 0.431546 0.345118
0.011730 0.194808 0.216628
0.015095 0.191678 0.217222
0.064888 0.253809 0.200390
0.413561 0.360070 0.171271
0.653544 0.451715 0.192781
0.733876 0.465877 0.191586
0.794647 0.470204 0.184915
0.821713 0.464273 0.174721
0.047507 0.392268 0.365402
0.044027 0.387606 0.358883
0.133570 0.456723 0.361292
0.682913 0.493494 0.140945
0.751299 0.535724 0.128906
0.802290 0.557164 0.111691
0.841926 0.559337 0.095361
0.864194 0.572270 0.094412
0.257251 0.624447 0.505729
0.263664 0.625338 0.507435
0.438502 0.670398 0.495733
0.802146 0.598044 0.167287
0.832385 0.612690 0.121133
0.861701 0.635900 0.116181
0.879189 0.649711 0.117837
0.888867 0.662300 0.119062
0.662014 0.777070 0.588138
0.657685 0.775600 0.584779
0.727405 0.765872 0.532566
0.837505 0.679021 0.244045
0.869302 0.695272 0.229676
0.885694 0.706555 0.224738
0.897220 0.727478 0.248148
0.907701 0.751090 0.297646
0.077192 0.044020 0.105193
0.080818 0.044240 0.104941
0.097064 0.044264 0.109413
0.241358 0.060291 0.134049
0.522704 0.137874 0.217585
0.686479 0.211811 0.283633
0.748349 0.267581 0.314331
0.766325 0.329129 0.339448
0.079654 0.047206 0.111313
0.077302 0.045017 0.106062
0.130582 0.060637 0.133382
0.287451 0.097337 0.171134
0.539496 0.163401 0.243433
0.686360 0.208315 0.282321
0.760738 0.253191 0.310483
0.786540 0.305584 0.331404
0.072143 0.049818 0.116724
0.077510 0.059562 0.121847
0.150857 0.110556 0.154942
0.323414 0.170046 0.196191
0.556152 0.236809 0.256815
0.691917 0.276382 0.293963
0.772171 0.303507 0.312385
0.803322 0.335232 0.336210
0.031814 0.089875 0.152843
0.033956 0.107048 0.161043
0.108793 0.182616 0.198110
0.392819 0.270590 0.232090
0.610601 0.352809 0.296470
0.715598 0.386263 0.319901
0.790467 0.410884 0.340485
0.833135 0.429194 0.366295
0.008699 0.200288 0.226519
0.017736 0.202235 0.229878
0.066883 0.271510 0.247003
0.372827 0.389865 0.239261
0.651461 0.462918 0.254075
0.729688 0.482809 0.251723
0.796380 0.492623 0.240991
0.847095 0.488946 0.219615
0.043999 0.392321 0.368124
0.041746 0.389417 0.362546
0.078805 0.430877 0.377527
0.633971 0.547067 0.231698
0.739816 0.548533 0.166091
0.787588 0.566698 0.152671
0.834199 0.586457 0.150112
0.874484 0.597874 0.151566
0.234828 0.613181 0.509936
0.242499 0.613234 0.507773
0.344138 0.656793 0.535032
0.787365 0.648533 0.288303
0.828506 0.620940 0.143063
0.854669 0.645434 0.133343
0.861237 0.673867 0.155182
0.891992 0.690855 0.167253
0.652461 0.780057 0.599099
0.651719 0.779914 0.598899
0.692084 0.782852 0.594329
0.837630 0.714795 0.347131
0.872355 0.706421 0.255646
0.888338 0.719385 0.249766
0.886475 0.745768 0.264377
0.903952 0.772149 0.307815
0.053984 0.052344 0.156907
0.053431 0.052548 0.156403
0.063009 0.054236 0.165610
0.195735 0.051588 0.181544
0.451228 0.108701 0.248088
0.646130 0.194832 0.322611
0.726512 0.263989 0.361696
0.757976 0.325707 0.381384
0.053935 0.056206 0.162807
0.054482 0.055809 0.160922
0.096730 0.072538 0.202804
0.244726 0.086648 0.232464
0.484372 0.138333 0.299317
0.656363 0.193660 0.351739
0.745407 0.255527 0.380343
0.774796 0.315940 0.388398
0.049065 0.058680 0.167852
0.056386 0.068897 0.177774
0.114008 0.115077 0.232678
0.284759 0.155128 0.268347
0.518779 0.214636 0.327224
0.674805 0.263769 0.373707
0.758389 0.299908 0.398552
0.797694 0.337750 0.409811
0.015156 0.106833 0.212425
0.018161 0.110991 0.214288
0.085143 0.178192 0.268426
0.311074 0.242999 0.319518
0.575443 0.324400 0.376124
0.703783 0.383752 0.417091
0.787881 0.417881 0.441186
0.845946 0.448274 0.460697
0.002384 0.212621 0.274689
0.003073 0.212217 0.276448
0.056256 0.276705 0.312038
0.188821 0.373390 0.369537
0.666005 0.501645 0.421533
0.746266 0.536013 0.428639
0.812679 0.549042 0.424172
0.869417 0.543150 0.377904
0.028758 0.397431 0.419513
0.026708 0.391917 0.410829
0.046883 0.417803 0.423496
0.208935 0.529337 0.472412
0.752565 0.591203 0.271506
0.791987 0.594934 0.230116
0.832311 0.619241 0.250922
0.885890 0.627214 0.252762
0.094932 0.541986 0.529499
0.102167 0.550739 0.536293
0.132474 0.567429 0.548445
0.530226 0.716807 0.608207
0.837035 0.666706 0.255047
0.850433 0.687663 0.242442
0.858616 0.712227 0.271724
0.899123 0.727173 0.294445
0.367355 0.691647 0.643916
0.385013 0.695603 0.649832
0.456258 0.721434 0.656280
0.808069 0.806253 0.608811
0.881405 0.736284 0.349907
0.886295 0.759745 0.353340
0.881863 0.785521 0.378516
0.910236 0.813612 0.430058
0.040110 0.062561 0.250623
0.039101 0.058838 0.247526
0.045533 0.058277 0.250883
0.131530 0.051588 0.241277
0.329373 0.069633 0.294516
0.553883 0.120740 0.347492
0.671799 0.199149 0.391727
0.725149 0.268448 0.427654
0.039101 0.061430 0.244890
0.039239 0.061300 0.247725
0.063270 0.070654 0.277469
0.180950 0.073834 0.298229
0.380813 0.093886 0.349007
0.584371 0.139526 0.390702
0.693759 0.202455 0.419874
0.739687 0.267427 0.439816
0.035191 0.074796 0.260591
0.034840 0.072989 0.261515
0.075006 0.102410 0.306517
0.212387 0.126886 0.341035
0.425691 0.160360 0.397708
0.611693 0.198596 0.427201
0.716176 0.244280 0.451147
0.764574 0.285283 0.464892
0.015962 0.122669 0.320386
0.017817 0.127840 0.323676
0.054940 0.168744 0.362104
0.164076 0.225958 0.430647
0.472361 0.253215 0.444572
0.658421 0.322745 0.491165
0.762826 0.383293 0.525268
0.835683 0.431130 0.554766
0.001497 0.230015 0.365203
0.001091 0.230388 0.365208
0.028727 0.271568 0.392773
0.109930 0.346421 0.460755
0.406119 0.436499 0.547395
0.741406 0.542601 0.578068
0.820727 0.583358 0.588715
0.886622 0.606684 0.599977
0.016124 0.396508 0.461201
0.016329 0.392736 0.458100
0.023022 0.408894 0.470189
0.076615 0.472754 0.513680
0.340449 0.604739 0.590912
0.820148 0.654226 0.436212
0.843606 0.653409 0.402622
0.898092 0.659374 0.404955
0.056344 0.518766 0.544964
0.053896 0.517606 0.542712
0.065328 0.530408 0.553400
0.214375 0.615675 0.616175
0.739859 0.799287 0.699708
0.854983 0.740654 0.426195
0.862246 0.744428 0.416285
0.907693 0.756470 0.441500
0.226458 0.656631 0.640010
0.226116 0.656109 0.639117
0.272464 0.671078 0.649944
0.570861 0.764497 0.711247
0.869016 0.843562 0.681227
0.883659 0.796608 0.486310
0.884154 0.821716 0.518912
0.913654 0.838785 0.556213
0.045533 0.059912 0.331851
0.045533 0.059831 0.329292
0.050973 0.061768 0.341022
0.116134 0.050729 0.338727
0.269270 0.069266 0.350539
0.408425 0.091474 0.391849
0.554660 0.137499 0.426653
0.647940 0.179289 0.458109
0.044272 0.059831 0.328031
0.044188 0.059831 0.331925
0.050741 0.058885 0.338563
0.130622 0.053858 0.355403
0.301665 0.075555 0.381283
0.436725 0.096846 0.416435
0.562118 0.135004 0.440661
0.645698 0.178407 0.457901
0.043263 0.072814 0.352268
0.040967 0.073253 0.350704
0.051874 0.080770 0.365562
0.150039 0.086289 0.398308
0.336974 0.111695 0.422479
0.480228 0.139553 0.460385
0.588010 0.163298 0.468486
0.682065 0.211931 0.497662
0.026093 0.125997 0.417645
0.027134 0.125817 0.416708
0.031742 0.135649 0.428030
0.098671 0.186373 0.489167
0.368837 0.196368 0.503487
0.537873 0.252819 0.532745
0.660354 0.308129 0.564711
0.772495 0.368560 0.596532
0.008691 0.253658 0.463089
0.008066 0.252045 0.459935
0.014425 0.262791 0.471664
0.059422 0.321926 0.514320
0.216895 0.416819 0.593645
0.653045 0.505706 0.650614
0.796702 0.581864 0.677948
0.879484 0.613671 0.694439
0.024596 0.401895 0.514685
0.021033 0.395141 0.506996
0.025334 0.410187 0.518157
0.056105 0.459774 0.554686
0.191937 0.562156 0.619862
0.703028 0.728376 0.731453
0.862870 0.742990 0.715122
0.912307 0.734950 0.703221
0.048813 0.508040 0.562671
0.048351 0.506531 0.562062
0.054837 0.511751 0.565373
0.117410 0.569840 0.603064
0.479904 0.715697 0.706631
0.834476 0.829918 0.748509
0.876182 0.779761 0.591834
0.913056 0.777590 0.585030
0.135815 0.618544 0.625920
0.146064 0.622690 0.631092
0.174494 0.634255 0.638426
0.451863 0.724235 0.706463
0.771664 0.842249 0.782478
0.889999 0.861799 0.728730
0.896350 0.847953 0.654570
0.922559 0.856542 0.657065
0.057768 0.061048 0.408791
0.057963 0.060893 0.409841
0.062927 0.061678 0.412140
0.112127 0.073661 0.440703
0.293609 0.058777 0.405524
0.404487 0.087189 0.448303
0.492595 0.132645 0.489723
0.570850 0.167356 0.519640
0.057670 0.058651 0.401756
0.060757 0.058988 0.403897
0.064770 0.063170 0.415141
0.111600 0.073506 0.445698
0.291927 0.058161 0.405924
0.401179 0.087014 0.450621
0.492964 0.133503 0.488623
0.570136 0.166778 0.519024
0.055441 0.072009 0.419020
0.053683 0.065536 0.414175
0.061248 0.076164 0.429193
0.110109 0.084098 0.458394
0.310556 0.067901 0.430851
0.428789 0.107407 0.471526
0.515845 0.150691 0.508011
0.592270 0.189229 0.538651
0.037880 0.131718 0.478241
0.038453 0.132021 0.479982
0.041862 0.135199 0.483810
0.074369 0.157291 0.516692
0.316267 0.155246 0.533364
0.500022 0.216688 0.546663
0.603489 0.291086 0.595068
0.704050 0.358058 0.640324
0.027497 0.267134 0.519685
0.027050 0.259990 0.516931
0.031480 0.269934 0.523077
0.057684 0.325757 0.558585
0.202903 0.431335 0.626469
0.647502 0.515768 0.693287
0.757785 0.579125 0.725404
0.833707 0.608264 0.744940
0.041054 0.414748 0.549489
0.042458 0.415314 0.550789
0.050436 0.425410 0.558878
0.093673 0.486364 0.590839
0.272943 0.596787 0.665875
0.639096 0.723780 0.764783
0.850845 0.763101 0.796364
0.908353 0.758798 0.788076
0.062651 0.512056 0.583276
0.059064 0.511674 0.580617
0.072014 0.521713 0.590524
0.130519 0.580424 0.630913
0.464675 0.704396 0.719820
0.774429 0.822139 0.799920
0.894812 0.832328 0.767622
0.925111 0.810361 0.723969
0.101747 0.596003 0.627987
0.095224 0.586369 0.621233
0.111229 0.599649 0.630638
0.321027 0.680308 0.691741
0.731912 0.829277 0.802731
0.871615 0.880833 0.821072
0.911188 0.869508 0.763037
0.931558 0.867193 0.751841
0.085643 0.060795 0.458487
0.085391 0.062195 0.457983
0.088467 0.061853 0.460656
0.127193 0.070398 0.485406
0.315678 0.056759 0.462824
0.428142 0.087022 0.495562
0.505091 0.123417 0.525630
0.575028 0.165020 0.551739
0.083499 0.060771 0.458487
0.081647 0.059066 0.454622
0.089583 0.063786 0.463857
0.128474 0.071529 0.487420
0.315554 0.056396 0.460774
0.427548 0.084105 0.494467
0.504515 0.123672 0.524884
0.571098 0.163109 0.550928
0.081229 0.075528 0.472235
0.083292 0.075483 0.473451
0.091091 0.077750 0.483070
0.129947 0.088330 0.503549
0.332120 0.066813 0.482663
0.446971 0.099108 0.511410
0.527435 0.146178 0.543106
0.590280 0.184928 0.565463
0.060364 0.125627 0.516959
0.059765 0.129723 0.519661
0.064562 0.138736 0.526338
0.102662 0.168044 0.557137
0.321301 0.181153 0.579329
0.518692 0.209386 0.571229
0.590658 0.264778 0.592894
0.665714 0.328223 0.629730
0.048105 0.278673 0.569531
0.045523 0.277084 0.563467
0.053551 0.292531 0.572585
0.088715 0.351125 0.604580
0.292731 0.481207 0.678971
0.675673 0.555489 0.735006
0.765243 0.597751 0.748543
0.825053 0.629350 0.774407
0.066280 0.432874 0.586441
0.063000 0.430327 0.584976
0.072384 0.441296 0.590648
0.140148 0.516541 0.632230
0.445149 0.650725 0.722752
0.700313 0.766333 0.810273
0.856893 0.793374 0.843837
0.898014 0.785460 0.839525
0.093317 0.538328 0.617465
0.092592 0.537524 0.616740
0.102163 0.546349 0.623484
0.218122 0.616181 0.672289
0.577441 0.742992 0.763802
0.779837 0.827543 0.830044
0.890979 0.861505 0.842004
0.927101 0.850185 0.837314
0.119491 0.609047 0.651260
0.119330 0.606703 0.649954
0.146726 0.620484 0.658103
0.349843 0.692171 0.712299
0.717355 0.823277 0.811235
0.861976 0.878227 0.848209
0.916645 0.887559 0.835502
0.937717 0.882351 0.821712
