其他预设/【236】赛博朋克风调色预设/【后期菌】视频调色预设/CUBE/Tokyo 06_S.cube
# LUT by SparkleStock. Enhanced with VOXCOLOR algorithms.
LUT_3D_SIZE 8
DOMAIN_MIN 0.000000 0.000000 0.000000
DOMAIN_MAX 0.903226 0.903226 0.903226
0.097752 0.039101 0.066471
0.097752 0.043011 0.070381
0.122473 0.043011 0.069372
0.311040 0.046038 0.054741
0.604799 0.082364 0.047804
0.738498 0.156024 0.020938
0.801312 0.206981 0.010217
0.842052 0.247343 0.011730
0.105572 0.043011 0.070381
0.105352 0.043263 0.070617
0.126921 0.044305 0.068648
0.319617 0.062736 0.053732
0.593643 0.096433 0.042380
0.725470 0.154771 0.018037
0.803021 0.203828 0.011828
0.844095 0.249109 0.013382
0.091824 0.049443 0.077318
0.099391 0.052662 0.080504
0.153921 0.068485 0.068229
0.357545 0.105669 0.054896
0.596979 0.152383 0.037213
0.731866 0.206513 0.014525
0.809807 0.238547 0.014827
0.858978 0.271129 0.016145
0.084256 0.114653 0.123356
0.084760 0.116167 0.124317
0.118433 0.142642 0.119955
0.472829 0.175005 0.070747
0.655813 0.245187 0.043527
0.761202 0.296583 0.029893
0.837515 0.318319 0.028672
0.883712 0.335420 0.021190
0.169394 0.244190 0.207990
0.175074 0.246969 0.213483
0.213792 0.244060 0.178919
0.547580 0.299570 0.063159
0.761328 0.357716 0.004170
0.830322 0.383240 0.003910
0.889339 0.396280 0.004919
0.923785 0.397110 0.004463
0.303346 0.454199 0.392394
0.310678 0.459667 0.398286
0.434787 0.440686 0.311821
0.836730 0.457384 0.019298
0.888249 0.479783 0.011604
0.929880 0.510860 0.014253
0.956518 0.513623 0.015437
0.972667 0.526915 0.019302
0.559266 0.587519 0.458739
0.562895 0.590294 0.462385
0.652591 0.596051 0.380151
0.940015 0.558464 0.035020
0.972964 0.577807 0.030752
0.988112 0.602891 0.037477
0.998377 0.621440 0.038759
1.000000 0.635575 0.039984
0.750355 0.682370 0.423044
0.751250 0.680970 0.417446
0.839953 0.690031 0.355336
0.969140 0.648009 0.052886
0.985415 0.667816 0.047678
0.990557 0.686028 0.046038
0.996248 0.706156 0.049370
0.997942 0.726557 0.057133
0.101914 0.039353 0.066723
0.101678 0.046685 0.074039
0.125342 0.039792 0.067448
0.310922 0.045436 0.064026
0.600132 0.077127 0.057577
0.729246 0.132267 0.037371
0.799546 0.199385 0.018753
0.842052 0.247229 0.013874
0.098224 0.039841 0.067195
0.104926 0.046780 0.070888
0.143605 0.056556 0.079306
0.337097 0.073015 0.078125
0.586136 0.105955 0.082189
0.718920 0.157226 0.062645
0.798372 0.192794 0.045991
0.848928 0.236385 0.025456
0.095514 0.049476 0.077823
0.096317 0.055170 0.078138
0.173402 0.096657 0.089932
0.367813 0.139658 0.093864
0.586360 0.178573 0.090493
0.714515 0.218917 0.074699
0.805931 0.247673 0.062546
0.861861 0.270507 0.042761
0.087759 0.116468 0.130469
0.088228 0.120655 0.130862
0.139918 0.183370 0.138163
0.455020 0.223347 0.107700
0.630201 0.287233 0.096845
0.742351 0.323482 0.084817
0.830558 0.342294 0.070674
0.893051 0.351189 0.050597
0.175953 0.254342 0.216946
0.174562 0.254520 0.219484
0.224733 0.285863 0.187843
0.530236 0.336988 0.091295
0.718432 0.398069 0.057321
0.799567 0.415193 0.056641
0.876174 0.419098 0.045040
0.921490 0.410426 0.023924
0.317932 0.465677 0.406818
0.312093 0.458843 0.401533
0.432130 0.452112 0.319019
0.792900 0.471437 0.036818
0.841434 0.508413 0.042253
0.896080 0.531999 0.042583
0.942350 0.529273 0.035770
0.968533 0.544346 0.036452
0.559071 0.587267 0.458275
0.560018 0.588727 0.461960
0.642218 0.586497 0.370602
0.932599 0.565787 0.038547
0.953296 0.583774 0.035930
0.974211 0.607483 0.040165
0.988358 0.626427 0.040576
0.987334 0.644946 0.047271
0.750595 0.676556 0.409170
0.751231 0.679304 0.416576
0.839380 0.689422 0.346958
0.967430 0.646823 0.050212
0.986640 0.667942 0.047936
0.990557 0.682842 0.045529
0.995934 0.705761 0.048415
0.995620 0.727732 0.059942
0.086904 0.048939 0.081733
0.093716 0.048654 0.081668
0.115475 0.050831 0.085073
0.302784 0.051026 0.092649
0.580594 0.073913 0.096873
0.724193 0.132942 0.073445
0.791140 0.186743 0.047804
0.835847 0.246513 0.019526
0.086465 0.051872 0.087380
0.087269 0.049254 0.082335
0.144591 0.063066 0.109987
0.329296 0.085344 0.136616
0.568889 0.110422 0.152082
0.704174 0.151629 0.128756
0.790632 0.189216 0.101275
0.847775 0.233551 0.055033
0.080468 0.056250 0.091376
0.085208 0.068050 0.099550
0.160681 0.111109 0.135604
0.357463 0.155024 0.163669
0.574990 0.185426 0.166531
0.703944 0.219400 0.150422
0.795887 0.243472 0.126296
0.860388 0.269122 0.076841
0.081285 0.125065 0.140018
0.086196 0.141214 0.152826
0.142867 0.203291 0.183050
0.433670 0.243906 0.182211
0.618831 0.294183 0.178286
0.729206 0.327424 0.162815
0.821720 0.351338 0.149171
0.886039 0.356420 0.103262
0.152598 0.272301 0.243299
0.160194 0.276831 0.244302
0.198750 0.331267 0.258130
0.478526 0.362008 0.170312
0.705432 0.416123 0.124600
0.786477 0.434224 0.124672
0.860908 0.446188 0.118531
0.920831 0.442993 0.092131
0.289052 0.482904 0.433806
0.285618 0.474970 0.424476
0.328915 0.494039 0.418946
0.743949 0.513176 0.106073
0.822019 0.521702 0.082293
0.874388 0.545549 0.087680
0.914745 0.561005 0.093343
0.954105 0.573483 0.100083
0.538670 0.593883 0.480926
0.540600 0.597098 0.481999
0.582521 0.614170 0.483688
0.913877 0.605259 0.085584
0.946815 0.591569 0.046699
0.961960 0.619687 0.055034
0.953906 0.650364 0.078100
0.971402 0.674184 0.094399
0.739678 0.687973 0.453645
0.738253 0.687830 0.454248
0.773197 0.696181 0.440367
0.959953 0.672112 0.111781
0.986039 0.676078 0.052343
0.988443 0.693707 0.051153
0.974966 0.723715 0.069101
0.978248 0.752747 0.089947
0.058651 0.074165 0.122600
0.058854 0.074369 0.122803
0.069315 0.079056 0.129508
0.210497 0.066345 0.153709
0.488392 0.078271 0.164821
0.662921 0.110214 0.146626
0.746233 0.165484 0.119402
0.787348 0.220656 0.081823
0.061804 0.080268 0.129256
0.062194 0.077675 0.127073
0.097061 0.092453 0.171446
0.246574 0.095460 0.207786
0.503944 0.111418 0.230641
0.662636 0.132478 0.218945
0.757946 0.176321 0.180926
0.802206 0.218963 0.113496
0.059058 0.086119 0.130587
0.066626 0.095529 0.140692
0.118806 0.135572 0.202941
0.293183 0.163760 0.245105
0.526261 0.186200 0.265646
0.674261 0.203926 0.250266
0.768666 0.228484 0.222820
0.824828 0.250939 0.158092
0.057459 0.202616 0.229246
0.056253 0.195018 0.224528
0.110994 0.251988 0.279432
0.314700 0.268885 0.301866
0.576113 0.281493 0.282469
0.697541 0.312445 0.275425
0.794208 0.344371 0.268348
0.868958 0.362530 0.227333
0.078946 0.377608 0.421364
0.078821 0.380618 0.421961
0.117848 0.426083 0.443047
0.235782 0.475108 0.461245
0.684962 0.440115 0.259819
0.777996 0.480398 0.255992
0.851919 0.498372 0.252135
0.929557 0.495043 0.212377
0.198986 0.555120 0.579589
0.184461 0.546598 0.572582
0.217888 0.566435 0.576005
0.404730 0.616234 0.549284
0.837481 0.562979 0.156673
0.871670 0.570027 0.142329
0.894864 0.595229 0.182708
0.949972 0.602318 0.188635
0.419801 0.658409 0.640206
0.430427 0.663624 0.645329
0.455920 0.671224 0.647657
0.649495 0.705436 0.591950
0.943959 0.632469 0.107545
0.938629 0.655870 0.096074
0.929172 0.690804 0.150372
0.960815 0.709498 0.182390
0.558237 0.734173 0.686622
0.569596 0.740297 0.689704
0.598748 0.745653 0.686711
0.869732 0.766179 0.525020
0.987286 0.703255 0.118205
0.974139 0.734305 0.095704
0.954614 0.765895 0.151481
0.967976 0.797914 0.270883
0.047804 0.126384 0.204837
0.047804 0.122595 0.198205
0.049561 0.128162 0.210017
0.098598 0.115715 0.214476
0.282929 0.129370 0.264583
0.539113 0.135485 0.251904
0.642879 0.141405 0.233709
0.711547 0.166912 0.210619
0.047804 0.124496 0.201061
0.047812 0.127018 0.201081
0.068733 0.137125 0.239153
0.152411 0.131715 0.278671
0.340469 0.144305 0.324712
0.569308 0.142199 0.312675
0.671530 0.144033 0.278884
0.722279 0.169249 0.232844
0.044646 0.155654 0.235243
0.044971 0.152456 0.231322
0.076757 0.180222 0.291984
0.179839 0.190613 0.334015
0.386543 0.210610 0.382088
0.592292 0.197351 0.353690
0.693137 0.188716 0.319401
0.749067 0.193955 0.278077
0.004105 0.318331 0.451041
0.005453 0.325056 0.464742
0.044171 0.344648 0.486322
0.130011 0.383039 0.545306
0.449840 0.309949 0.439240
0.639092 0.308603 0.418160
0.740729 0.321985 0.410862
0.819954 0.344193 0.404253
0.021560 0.513204 0.636308
0.021563 0.511573 0.633932
0.046638 0.525394 0.637383
0.125668 0.550006 0.645008
0.472248 0.557442 0.618734
0.734569 0.497654 0.491005
0.817625 0.523432 0.482584
0.893537 0.547052 0.487064
0.142069 0.623153 0.685230
0.135351 0.621385 0.686054
0.152920 0.627742 0.688626
0.267271 0.663650 0.700108
0.552647 0.720682 0.697482
0.882046 0.619658 0.274926
0.899812 0.621778 0.275651
0.952347 0.629724 0.272847
0.359503 0.701139 0.716881
0.351835 0.696378 0.715372
0.381160 0.707587 0.721032
0.520409 0.743749 0.738373
0.779542 0.797364 0.704726
0.925291 0.709438 0.233789
0.919541 0.720633 0.229098
0.957031 0.734075 0.268966
0.532197 0.763717 0.737306
0.532215 0.763176 0.736953
0.548762 0.768203 0.741778
0.656030 0.804095 0.757219
0.903772 0.832711 0.667326
0.958141 0.778801 0.339817
0.942568 0.813856 0.417872
0.962678 0.844167 0.516848
0.013244 0.202567 0.363636
0.013244 0.203673 0.364454
0.010253 0.218476 0.393363
0.030271 0.218439 0.407038
0.081660 0.248300 0.461852
0.237167 0.257031 0.496444
0.475401 0.247136 0.445776
0.597553 0.246517 0.435088
0.013244 0.200134 0.358554
0.013244 0.200693 0.364057
0.011003 0.212217 0.384270
0.048290 0.213916 0.417978
0.126788 0.238420 0.477317
0.280172 0.247634 0.506652
0.488429 0.250068 0.462826
0.592735 0.248418 0.440035
0.009570 0.243507 0.427353
0.009079 0.238061 0.420316
0.013739 0.251380 0.448053
0.060764 0.261165 0.488053
0.158329 0.274928 0.523615
0.338486 0.282788 0.539715
0.509037 0.280561 0.503573
0.643572 0.272543 0.482729
0.002775 0.381185 0.595246
0.003703 0.381631 0.595586
0.010765 0.388279 0.603062
0.063602 0.430367 0.651141
0.206569 0.392776 0.614629
0.445327 0.414542 0.621803
0.617788 0.414473 0.610362
0.738264 0.417079 0.601848
0.034348 0.542962 0.704842
0.033525 0.543492 0.703355
0.042692 0.550553 0.712781
0.111870 0.588766 0.738411
0.367484 0.651985 0.771691
0.651148 0.619253 0.714460
0.772168 0.592569 0.679469
0.857399 0.601738 0.678974
0.152212 0.669378 0.763920
0.144900 0.662459 0.759116
0.164295 0.671272 0.765965
0.274650 0.708895 0.786207
0.505470 0.774612 0.821936
0.747963 0.785782 0.784648
0.856914 0.720736 0.682482
0.920819 0.710880 0.658515
0.341515 0.736826 0.776826
0.337744 0.733643 0.775338
0.354953 0.739564 0.776647
0.491287 0.776259 0.793859
0.675645 0.831722 0.816789
0.826082 0.831788 0.751721
0.924857 0.769647 0.507010
0.958345 0.765029 0.488559
0.510063 0.776651 0.774881
0.514327 0.779117 0.778120
0.522503 0.780234 0.776903
0.628288 0.817197 0.798969
0.781798 0.864831 0.814525
0.912594 0.865359 0.725418
0.943394 0.856778 0.649465
0.965459 0.865000 0.654467
0.000000 0.276732 0.518021
0.000000 0.276113 0.518762
0.000000 0.274897 0.524865
0.005887 0.317008 0.587015
0.040891 0.283405 0.549265
0.121513 0.316227 0.582254
0.279596 0.365195 0.615097
0.425795 0.402635 0.631962
0.000000 0.267203 0.506348
0.000000 0.268255 0.510281
0.000000 0.281791 0.531576
0.005703 0.316474 0.590096
0.039224 0.282478 0.548340
0.124518 0.317615 0.583697
0.280275 0.366112 0.613052
0.430586 0.403390 0.630751
0.000505 0.294321 0.543544
0.000687 0.288545 0.536320
0.003765 0.311650 0.568419
0.007956 0.340450 0.612511
0.050613 0.302025 0.574272
0.173960 0.341427 0.602844
0.331965 0.392497 0.635344
0.464858 0.424296 0.651653
0.008870 0.410887 0.659154
0.009593 0.411494 0.661278
0.011474 0.417210 0.667119
0.021274 0.449777 0.692564
0.136816 0.430591 0.677929
0.377933 0.472354 0.685536
0.523981 0.522513 0.717653
0.640120 0.547465 0.738614
0.056291 0.563554 0.750721
0.053179 0.560213 0.748040
0.066456 0.570191 0.754888
0.152667 0.617778 0.786030
0.415418 0.700654 0.836292
0.606668 0.700232 0.808399
0.707889 0.693461 0.802923
0.790478 0.676533 0.792161
0.193274 0.679876 0.796673
0.202630 0.684275 0.798796
0.223967 0.690127 0.802899
0.378307 0.738782 0.833308
0.538364 0.801551 0.868365
0.671777 0.826629 0.872705
0.820705 0.775170 0.806719
0.889739 0.752532 0.779341
0.353489 0.758301 0.820476
0.351015 0.755548 0.817136
0.370477 0.763211 0.825685
0.482254 0.796303 0.841800
0.636234 0.849960 0.869878
0.778241 0.864579 0.853142
0.900701 0.834173 0.759775
0.960900 0.810572 0.705005
0.482672 0.800177 0.825708
0.473774 0.794111 0.819985
0.493643 0.801993 0.825198
0.607428 0.838624 0.846151
0.751450 0.880110 0.869876
0.845755 0.890104 0.849525
0.936105 0.876734 0.763643
0.963295 0.878122 0.752693
0.000000 0.302841 0.589664
0.000000 0.302337 0.590787
0.000505 0.305413 0.594278
0.005424 0.333507 0.631808
0.025177 0.302442 0.598395
0.151093 0.337145 0.622706
0.287787 0.377193 0.646463
0.411985 0.434058 0.679424
0.000000 0.300811 0.587609
0.000000 0.300730 0.583784
0.001784 0.309925 0.598776
0.006653 0.336171 0.634057
0.025606 0.305287 0.599005
0.143339 0.334615 0.620065
0.288209 0.376448 0.647431
0.405397 0.431474 0.676646
0.002372 0.325118 0.615569
0.001997 0.324762 0.616391
0.005712 0.333022 0.628711
0.010468 0.358869 0.653965
0.043239 0.318548 0.617367
0.183805 0.352148 0.638075
0.342091 0.405298 0.667476
0.451799 0.463122 0.697648
0.012271 0.421478 0.689181
0.012438 0.421579 0.688960
0.015407 0.431304 0.698038
0.032506 0.470483 0.731836
0.196625 0.487768 0.739300
0.398860 0.492801 0.718276
0.505620 0.551682 0.746095
0.587428 0.595158 0.775642
0.089203 0.586335 0.790184
0.082871 0.581259 0.785121
0.108731 0.595871 0.794684
0.243462 0.652568 0.829089
0.467329 0.730062 0.870663
0.619907 0.746930 0.859648
0.679118 0.748734 0.858326
0.738684 0.753335 0.865893
0.276537 0.700907 0.834419
0.277171 0.700220 0.834749
0.312848 0.713792 0.841413
0.441448 0.760198 0.865986
0.564002 0.817026 0.896016
0.653376 0.855276 0.913195
0.764532 0.842274 0.896574
0.839239 0.814640 0.877397
0.404523 0.771996 0.852269
0.403668 0.770362 0.851490
0.420254 0.776521 0.855978
0.518137 0.815878 0.874824
0.623809 0.863039 0.901969
0.729578 0.886376 0.911017
0.849998 0.877943 0.875620
0.914613 0.853831 0.837593
0.467455 0.810983 0.855719
0.464540 0.810583 0.857165
0.492479 0.819065 0.862357
0.590692 0.851133 0.876844
0.719425 0.886403 0.894270
0.819505 0.906082 0.897379
0.896172 0.898446 0.861490
0.942819 0.891406 0.831947
