其他预设/【236】赛博朋克风调色预设/【后期菌】视频调色预设/CUBE/Tokyo 09_S.cube
# LUT by SparkleStock. Enhanced with VOXCOLOR algorithms.
LUT_3D_SIZE 5
DOMAIN_MIN 0.000000 0.000000 0.000000
DOMAIN_MAX 0.903226 0.903226 0.903226
0.086022 0.097752 0.109482
0.090814 0.102545 0.115788
0.323527 0.280768 0.291111
0.800555 0.646170 0.612241
0.858071 0.736480 0.681739
0.089932 0.101662 0.113392
0.106365 0.114185 0.120581
0.354771 0.282876 0.239739
0.751380 0.518290 0.424961
0.858323 0.702478 0.636963
0.106581 0.170025 0.193485
0.120366 0.187521 0.198315
0.600877 0.483534 0.347817
0.786461 0.613486 0.425978
0.873817 0.726833 0.633809
0.454829 0.510201 0.487876
0.493954 0.522358 0.497250
0.851797 0.723253 0.601548
0.884884 0.767256 0.665770
0.898054 0.779300 0.699870
0.836250 0.765617 0.704065
0.851618 0.767614 0.706892
0.885946 0.783002 0.710225
0.912970 0.805979 0.738372
0.926308 0.811150 0.750774
0.087535 0.099265 0.113392
0.096193 0.104644 0.120240
0.322859 0.241830 0.281761
0.766137 0.526883 0.540757
0.857387 0.728681 0.681162
0.088463 0.101662 0.115788
0.118961 0.128609 0.139771
0.362529 0.259187 0.264115
0.710721 0.400425 0.387278
0.853558 0.609477 0.568623
0.112147 0.184546 0.208926
0.135727 0.224133 0.214215
0.533283 0.453507 0.339333
0.737653 0.539227 0.388716
0.867941 0.638518 0.522075
0.481577 0.529112 0.511092
0.511269 0.552039 0.527654
0.772450 0.707337 0.533376
0.831260 0.735210 0.569953
0.890168 0.736244 0.552825
0.836881 0.765869 0.708858
0.846605 0.767208 0.710286
0.886300 0.782620 0.711750
0.907381 0.804709 0.733419
0.915856 0.814382 0.666750
0.059912 0.149970 0.203450
0.060795 0.151394 0.205557
0.256669 0.275841 0.353558
0.742091 0.609181 0.641174
0.843334 0.746847 0.721450
0.060453 0.153648 0.208300
0.085822 0.168568 0.240870
0.314091 0.278087 0.376434
0.701144 0.452099 0.541636
0.846357 0.655774 0.672282
0.133606 0.277029 0.322489
0.154019 0.303297 0.343887
0.421305 0.459249 0.478026
0.738763 0.569406 0.554884
0.868662 0.596695 0.580637
0.540045 0.636475 0.628781
0.538994 0.637390 0.626783
0.714024 0.729088 0.669942
0.802848 0.728805 0.608811
0.889439 0.711101 0.566813
0.794708 0.772090 0.736501
0.806849 0.777798 0.738807
0.874430 0.807674 0.757464
0.875159 0.815023 0.702108
0.907864 0.836066 0.633161
0.069120 0.266137 0.351528
0.069860 0.271670 0.356178
0.212910 0.396793 0.481634
0.571973 0.667836 0.692965
0.822469 0.774637 0.769812
0.070247 0.271561 0.355295
0.071349 0.278633 0.361504
0.239519 0.393135 0.510368
0.598141 0.624394 0.687414
0.826713 0.747467 0.761016
0.215827 0.453820 0.539276
0.227920 0.458477 0.541998
0.431596 0.618096 0.670029
0.795417 0.712356 0.741853
0.867978 0.656228 0.721310
0.633834 0.740313 0.731533
0.648848 0.743525 0.738429
0.797988 0.784562 0.771770
0.823320 0.772745 0.745493
0.890891 0.737199 0.710459
0.816867 0.782742 0.764042
0.816502 0.782770 0.762805
0.869130 0.812790 0.782294
0.878325 0.835783 0.768615
0.912826 0.844224 0.732856
0.087787 0.380286 0.499354
0.087588 0.382483 0.497494
0.263236 0.525210 0.618841
0.560723 0.711795 0.730019
0.775239 0.772847 0.776757
0.096177 0.387162 0.506934
0.101991 0.394888 0.516231
0.272293 0.534390 0.629517
0.578704 0.716384 0.737675
0.785594 0.770559 0.778845
0.299521 0.598432 0.665953
0.306060 0.601325 0.666872
0.507618 0.721049 0.745493
0.830812 0.792633 0.783041
0.866442 0.774653 0.793252
0.711755 0.774918 0.775487
0.717322 0.775839 0.776847
0.834546 0.804180 0.786176
0.872953 0.827820 0.805933
0.894546 0.809812 0.815896
0.818177 0.800217 0.782604
0.823377 0.800217 0.782811
0.862960 0.818944 0.791573
0.898151 0.846014 0.807753
0.921014 0.854336 0.812692
