其他预设/【236】赛博朋克风调色预设/【后期菌】视频调色预设/CUBE/Tokyo 07.cube
# LUT by SparkleStock. Enhanced with VOXCOLOR algorithms.
LUT_3D_SIZE 32
0.187683 0.046921 0.058651
0.189701 0.048939 0.060669
0.191593 0.050705 0.062561
0.191593 0.048687 0.062561
0.191593 0.046921 0.062561
0.191593 0.046921 0.062561
0.193864 0.047299 0.062183
0.205972 0.049317 0.060165
0.227667 0.051840 0.058651
0.278119 0.055876 0.058651
0.332986 0.058651 0.056759
0.397566 0.058651 0.050705
0.461388 0.061678 0.046921
0.523949 0.069751 0.046921
0.582979 0.079589 0.041623
0.637467 0.091697 0.029515
0.680856 0.100779 0.020433
0.713146 0.106833 0.014379
0.738625 0.115158 0.010595
0.758806 0.125248 0.008577
0.775203 0.137861 0.009081
0.789329 0.151988 0.011100
0.799294 0.156403 0.010343
0.807366 0.156403 0.008325
0.815438 0.162457 0.006307
0.823511 0.170529 0.004288
0.833223 0.178602 0.002270
0.843313 0.186674 0.000252
0.848106 0.189449 0.000000
0.852143 0.191467 0.000000
0.858071 0.191593 0.000000
0.864125 0.191593 0.000000
0.189701 0.048939 0.060669
0.190678 0.049915 0.061646
0.191593 0.050770 0.062561
0.191593 0.049793 0.062561
0.191724 0.048939 0.062691
0.192765 0.048939 0.063733
0.195882 0.049122 0.064201
0.207990 0.050099 0.062183
0.228383 0.051840 0.060409
0.273627 0.055876 0.059367
0.326216 0.058651 0.056759
0.394962 0.058651 0.050705
0.461779 0.061288 0.046530
0.525381 0.068318 0.045489
0.584541 0.078026 0.040061
0.637988 0.091177 0.028994
0.681377 0.100779 0.020954
0.714708 0.106833 0.015941
0.740643 0.115744 0.012027
0.760824 0.126876 0.008968
0.776570 0.139229 0.009081
0.789655 0.152314 0.011100
0.799294 0.156403 0.010343
0.807366 0.156403 0.008325
0.816220 0.162457 0.006307
0.825334 0.170529 0.004288
0.834395 0.178602 0.002270
0.843444 0.186674 0.000252
0.848106 0.192183 0.000000
0.852143 0.197326 0.000000
0.857094 0.193742 0.000000
0.862107 0.189575 0.000000
0.191593 0.050831 0.062561
0.191593 0.050831 0.062561
0.191593 0.050831 0.062561
0.191593 0.050831 0.062561
0.191846 0.050831 0.062813
0.193864 0.050831 0.064831
0.197774 0.050831 0.066093
0.209882 0.050831 0.064075
0.229087 0.051856 0.062073
0.269579 0.055958 0.060120
0.320080 0.058798 0.056906
0.392602 0.058863 0.050916
0.462145 0.061174 0.046416
0.526724 0.067228 0.044398
0.586006 0.076757 0.038791
0.638476 0.090753 0.028571
0.681800 0.100779 0.021410
0.715978 0.106833 0.017308
0.742319 0.116256 0.013280
0.762565 0.128300 0.009309
0.777847 0.140425 0.009122
0.790151 0.152598 0.011205
0.799456 0.156403 0.010424
0.807399 0.156403 0.008341
0.816952 0.162457 0.006307
0.827043 0.170529 0.004288
0.835493 0.178655 0.002270
0.843566 0.186792 0.000252
0.848163 0.194816 0.000000
0.852265 0.202823 0.000000
0.856244 0.195756 0.000000
0.860215 0.187683 0.000000
0.191593 0.050831 0.062561
0.191593 0.050831 0.062561
0.191593 0.050831 0.062561
0.191593 0.050831 0.062561
0.191846 0.050831 0.062813
0.193864 0.050831 0.064831
0.197774 0.050831 0.066093
0.209882 0.050831 0.064075
0.229608 0.052117 0.062333
0.272183 0.057260 0.061422
0.323466 0.061141 0.059249
0.393904 0.062248 0.054302
0.462145 0.065210 0.050452
0.526724 0.071264 0.048434
0.586006 0.079882 0.041916
0.638476 0.091795 0.029612
0.680759 0.100779 0.020889
0.712853 0.106833 0.015746
0.738869 0.115670 0.011848
0.760156 0.126672 0.008919
0.777782 0.139058 0.009773
0.793211 0.152273 0.012898
0.802060 0.156403 0.011726
0.807919 0.156403 0.008601
0.816952 0.162457 0.006307
0.827043 0.170529 0.004288
0.835493 0.179501 0.002270
0.843566 0.188680 0.000252
0.849075 0.195923 0.000000
0.854218 0.202888 0.000000
0.857286 0.195756 0.000000
0.860215 0.187683 0.000000
0.191593 0.050831 0.062561
0.191593 0.050831 0.062561
0.191593 0.050831 0.062561
0.191593 0.050831 0.062561
0.191894 0.050831 0.062797
0.194303 0.050831 0.064685
0.198482 0.050855 0.065865
0.210330 0.050986 0.063977
0.230348 0.052564 0.062561
0.274877 0.058488 0.062561
0.326973 0.063192 0.061300
0.395718 0.065210 0.057264
0.462804 0.068742 0.053984
0.527123 0.074796 0.051966
0.586144 0.082559 0.044593
0.638354 0.092519 0.030337
0.679725 0.100592 0.020246
0.710257 0.106776 0.014322
0.736029 0.115304 0.010668
0.758098 0.125655 0.008780
0.777562 0.138122 0.010351
0.795465 0.151858 0.013996
0.804103 0.156509 0.012629
0.808530 0.157029 0.008984
0.817302 0.163214 0.006656
0.827523 0.171286 0.004769
0.835786 0.180575 0.002563
0.843598 0.190145 0.000285
0.849872 0.196525 0.000000
0.855927 0.202449 0.000000
0.858441 0.195984 0.000000
0.860720 0.188692 0.000000
0.191593 0.050831 0.062561
0.191593 0.050831 0.062561
0.191593 0.050831 0.062561
0.191593 0.050831 0.062561
0.192285 0.050831 0.062667
0.197819 0.050831 0.063513
0.204145 0.051051 0.064042
0.213910 0.052222 0.063196
0.232627 0.054322 0.062561
0.278197 0.059204 0.062561
0.331335 0.063192 0.061300
0.401122 0.065210 0.057264
0.468077 0.068742 0.053984
0.530313 0.074796 0.051966
0.587251 0.082103 0.044138
0.637378 0.091022 0.028839
0.678749 0.099094 0.018749
0.711364 0.106320 0.013866
0.737461 0.116476 0.011254
0.758488 0.128910 0.010408
0.776260 0.140205 0.010416
0.792080 0.150816 0.010937
0.802215 0.157355 0.010741
0.809767 0.162042 0.010221
0.820101 0.169268 0.009456
0.831364 0.177341 0.008609
0.838130 0.183244 0.004907
0.843859 0.188648 0.000545
0.849872 0.193595 0.000000
0.855927 0.198478 0.000000
0.860394 0.197806 0.000000
0.864756 0.196765 0.000000
0.191215 0.050831 0.062939
0.191215 0.050831 0.062939
0.191215 0.050843 0.062952
0.191215 0.051038 0.063147
0.192224 0.051185 0.063293
0.200296 0.050990 0.063098
0.208698 0.051283 0.062976
0.218528 0.053691 0.063171
0.237456 0.056507 0.063269
0.283677 0.060543 0.063074
0.337222 0.063949 0.061739
0.406879 0.065967 0.057898
0.473192 0.069352 0.054594
0.533930 0.075016 0.052186
0.589200 0.081904 0.043853
0.637439 0.090367 0.027903
0.678712 0.098439 0.017813
0.713020 0.106121 0.013581
0.739491 0.117758 0.011730
0.759867 0.132470 0.011730
0.776216 0.143033 0.010591
0.790147 0.151105 0.008768
0.801304 0.159043 0.009452
0.811199 0.166920 0.011275
0.822608 0.174798 0.011437
0.834521 0.182675 0.011047
0.840669 0.186585 0.006530
0.845486 0.189579 0.001062
0.850873 0.193314 0.000208
0.856342 0.197155 0.000012
0.862359 0.200630 0.000000
0.868414 0.204080 0.000000
0.189197 0.050831 0.064958
0.189197 0.050831 0.064958
0.189197 0.050908 0.065035
0.189197 0.052145 0.066272
0.190206 0.053073 0.067199
0.198278 0.051836 0.065963
0.208438 0.051673 0.065190
0.227642 0.056165 0.066426
0.253341 0.060543 0.067045
0.298520 0.064579 0.065808
0.349721 0.067985 0.064083
0.414170 0.070003 0.061284
0.477618 0.072607 0.057849
0.539398 0.076187 0.053358
0.594798 0.082815 0.044309
0.641996 0.093362 0.029401
0.682748 0.101434 0.019310
0.717056 0.107033 0.014037
0.744113 0.119515 0.011730
0.765531 0.137353 0.011730
0.781619 0.149087 0.011242
0.794509 0.157160 0.010461
0.804624 0.164382 0.010754
0.813477 0.171217 0.011535
0.823845 0.178053 0.009875
0.834716 0.184888 0.007401
0.844054 0.192834 0.005033
0.853038 0.201037 0.002689
0.856211 0.204512 0.001314
0.858555 0.207311 0.000077
0.864377 0.207791 0.000000
0.870432 0.208117 0.000000
0.180620 0.052849 0.069498
0.180880 0.052849 0.069498
0.181141 0.052959 0.069608
0.181401 0.054717 0.071366
0.182540 0.056035 0.072684
0.189832 0.054277 0.070926
0.200382 0.053887 0.069828
0.225055 0.059420 0.071586
0.256937 0.064514 0.072204
0.310450 0.068290 0.069405
0.366159 0.071598 0.066687
0.426702 0.073876 0.064148
0.487318 0.076350 0.060388
0.548057 0.079149 0.054594
0.602073 0.085680 0.045269
0.647448 0.097007 0.031403
0.687419 0.105731 0.021442
0.721987 0.111850 0.015388
0.749451 0.125147 0.012446
0.771390 0.144026 0.011926
0.787022 0.156964 0.011730
0.798871 0.166339 0.011730
0.808481 0.173430 0.011551
0.817074 0.179485 0.011291
0.826595 0.185734 0.008589
0.836425 0.192049 0.005074
0.847683 0.202437 0.004415
0.859271 0.213764 0.004415
0.860947 0.216718 0.002421
0.861208 0.218476 0.000142
0.867144 0.217426 0.000000
0.873459 0.216189 0.000000
0.152367 0.060921 0.081607
0.153669 0.060921 0.081607
0.154971 0.060966 0.081652
0.156273 0.061682 0.082368
0.157933 0.062219 0.082905
0.162099 0.061503 0.082189
0.168939 0.061568 0.081741
0.187362 0.065019 0.082457
0.223671 0.068290 0.081513
0.313640 0.071024 0.075589
0.394412 0.073941 0.070072
0.454955 0.077261 0.065450
0.512837 0.081558 0.060779
0.566285 0.087482 0.056027
0.614377 0.094403 0.047743
0.655585 0.102606 0.034918
0.693994 0.113933 0.025479
0.729604 0.128385 0.019424
0.756938 0.142398 0.015311
0.777835 0.156069 0.012707
0.792426 0.170310 0.011730
0.803232 0.184892 0.011730
0.813949 0.193611 0.010835
0.824626 0.199666 0.009533
0.833886 0.206697 0.008133
0.842675 0.214053 0.006701
0.852045 0.222097 0.006433
0.861550 0.230299 0.006433
0.863877 0.231951 0.003528
0.865179 0.232667 0.000208
0.872157 0.234482 0.000000
0.879513 0.236370 0.000000
0.127897 0.072778 0.094977
0.130241 0.073429 0.095628
0.132503 0.073998 0.096197
0.133545 0.073347 0.095546
0.134708 0.072818 0.095018
0.136726 0.073144 0.095343
0.140771 0.073909 0.095791
0.153595 0.076578 0.096767
0.188879 0.078515 0.095319
0.291542 0.078254 0.086595
0.387247 0.079235 0.078197
0.467646 0.082946 0.070516
0.536302 0.088658 0.063835
0.585387 0.097707 0.058822
0.629773 0.105873 0.050420
0.668117 0.112904 0.037660
0.704638 0.126510 0.028253
0.739337 0.146691 0.022199
0.765320 0.161379 0.017646
0.784524 0.171795 0.014261
0.798236 0.186646 0.012992
0.808652 0.204158 0.012992
0.819784 0.213792 0.011604
0.831241 0.219847 0.009586
0.840160 0.227170 0.009081
0.848233 0.234917 0.009081
0.856834 0.242082 0.009081
0.865557 0.249113 0.009081
0.868414 0.249138 0.005550
0.870432 0.248161 0.001514
0.877821 0.252189 0.001261
0.885567 0.256551 0.001261
0.111752 0.092959 0.111122
0.115137 0.095693 0.113856
0.118181 0.098085 0.116248
0.116098 0.095351 0.113514
0.114527 0.093130 0.111293
0.116545 0.094497 0.112660
0.119808 0.096499 0.114539
0.128467 0.101251 0.118641
0.150731 0.102927 0.119015
0.213813 0.095376 0.108208
0.302162 0.091018 0.096751
0.446098 0.093687 0.083861
0.555246 0.099920 0.072753
0.606415 0.112094 0.064616
0.651972 0.123385 0.053545
0.690316 0.133540 0.038702
0.724233 0.148709 0.028253
0.753724 0.168890 0.022199
0.775671 0.184164 0.018818
0.791750 0.195621 0.017516
0.804941 0.209561 0.017028
0.816399 0.224990 0.017028
0.826424 0.233973 0.015640
0.835798 0.240028 0.013622
0.844196 0.246570 0.013118
0.852269 0.253276 0.013118
0.862563 0.262784 0.013118
0.873369 0.272940 0.013118
0.876486 0.270621 0.009586
0.878504 0.266519 0.005550
0.884916 0.271329 0.005298
0.891622 0.276732 0.005298
0.105446 0.117680 0.128780
0.108701 0.121717 0.132426
0.111500 0.125322 0.135689
0.107464 0.122457 0.133215
0.104087 0.120203 0.131351
0.105324 0.122221 0.133760
0.107391 0.124776 0.136706
0.113054 0.129659 0.141979
0.127767 0.129610 0.141833
0.169626 0.114767 0.125427
0.254451 0.105926 0.109348
0.433802 0.110288 0.093984
0.569088 0.118311 0.078254
0.630933 0.132438 0.061914
0.681813 0.145340 0.046685
0.718594 0.156667 0.032884
0.749321 0.171640 0.023542
0.773994 0.190259 0.018659
0.792515 0.204776 0.016523
0.806251 0.216104 0.016523
0.818482 0.228204 0.016523
0.829809 0.240768 0.016523
0.838630 0.248857 0.015404
0.846312 0.254911 0.013777
0.853994 0.261551 0.013370
0.861676 0.268387 0.013370
0.872637 0.279507 0.013370
0.884355 0.291615 0.013370
0.887586 0.290224 0.010522
0.889604 0.286904 0.007267
0.894307 0.291640 0.006697
0.899190 0.296913 0.006307
0.115536 0.149970 0.148961
0.116708 0.154006 0.151565
0.117554 0.157806 0.154112
0.113518 0.158067 0.155805
0.109881 0.158547 0.157717
0.109034 0.160565 0.161167
0.109213 0.162534 0.164569
0.113835 0.164292 0.167759
0.130110 0.160077 0.163185
0.181344 0.137943 0.135323
0.269034 0.126042 0.112017
0.436927 0.136653 0.098736
0.574426 0.148583 0.078059
0.661269 0.162709 0.045053
0.724388 0.174700 0.023184
0.757003 0.183944 0.015632
0.783564 0.195792 0.010977
0.804070 0.210245 0.009220
0.820183 0.221767 0.008451
0.832877 0.231011 0.008451
0.843415 0.239727 0.008451
0.852659 0.248125 0.008451
0.860113 0.254911 0.008048
0.866754 0.260966 0.007462
0.873394 0.269168 0.007316
0.880034 0.278087 0.007316
0.889954 0.289597 0.007316
0.900630 0.301706 0.007316
0.903730 0.306694 0.006290
0.905748 0.310665 0.005118
0.907522 0.313904 0.003703
0.909280 0.317094 0.002270
0.129158 0.192855 0.182386
0.129158 0.196891 0.184860
0.129020 0.200772 0.187374
0.126807 0.202335 0.190499
0.124618 0.203783 0.193510
0.122600 0.204434 0.195723
0.122571 0.204451 0.196875
0.131164 0.201716 0.193424
0.151052 0.193790 0.182715
0.204825 0.170289 0.150230
0.291249 0.158832 0.122404
0.449507 0.173870 0.104827
0.586429 0.189079 0.078120
0.687790 0.204573 0.036196
0.758049 0.214427 0.010648
0.788320 0.217031 0.006156
0.811398 0.224387 0.003910
0.827283 0.236496 0.003910
0.840530 0.246334 0.003910
0.851728 0.254407 0.003910
0.861541 0.262072 0.003910
0.870525 0.269494 0.003910
0.877182 0.275349 0.003910
0.882780 0.280491 0.003910
0.888721 0.289003 0.003568
0.894775 0.298638 0.003113
0.903368 0.309913 0.003397
0.912547 0.321565 0.003853
0.915461 0.328889 0.003910
0.917479 0.335595 0.003910
0.917605 0.337906 0.002018
0.917605 0.339924 0.000000
0.147321 0.249361 0.232838
0.147321 0.253398 0.236354
0.147443 0.257214 0.239714
0.149396 0.257735 0.240756
0.150853 0.257881 0.241423
0.148835 0.255408 0.239470
0.150759 0.251713 0.234893
0.169769 0.242729 0.218943
0.195906 0.231679 0.199902
0.243429 0.214427 0.171583
0.323278 0.207917 0.142715
0.474245 0.225038 0.112639
0.607000 0.242721 0.078511
0.709403 0.261340 0.037628
0.780248 0.267484 0.012210
0.810519 0.257588 0.006677
0.830993 0.258695 0.003910
0.841670 0.270804 0.003910
0.851467 0.280642 0.003910
0.860581 0.288714 0.003910
0.870916 0.298333 0.003910
0.881983 0.308879 0.003910
0.888574 0.314278 0.003910
0.893131 0.317338 0.003910
0.898811 0.324548 0.002787
0.904866 0.333141 0.001290
0.911766 0.343374 0.002226
0.918862 0.353985 0.003723
0.921515 0.358445 0.003910
0.923533 0.362025 0.003910
0.923659 0.364141 0.002018
0.923659 0.366159 0.000000
0.161448 0.306877 0.289345
0.161448 0.310393 0.292860
0.161635 0.313656 0.296124
0.164630 0.313135 0.295603
0.167128 0.312370 0.294838
0.166151 0.309896 0.292364
0.170485 0.305909 0.286192
0.197827 0.295363 0.263993
0.234901 0.284052 0.238311
0.301173 0.270446 0.202180
0.393098 0.266442 0.161432
0.541461 0.283563 0.110524
0.666144 0.299488 0.066109
0.751360 0.313420 0.032517
0.810487 0.314876 0.011429
0.836071 0.300294 0.006416
0.853420 0.299318 0.004170
0.862534 0.311947 0.004691
0.870769 0.321720 0.004626
0.878321 0.329272 0.004105
0.888070 0.338695 0.003910
0.899137 0.349241 0.003910
0.905370 0.354640 0.004268
0.909406 0.357700 0.004789
0.914175 0.364129 0.003796
0.919188 0.371680 0.002299
0.924623 0.380448 0.003658
0.930157 0.389497 0.005676
0.931703 0.391027 0.005472
0.932679 0.391483 0.004952
0.934205 0.395356 0.004004
0.935768 0.399458 0.003027
0.171538 0.365402 0.351906
0.171538 0.367876 0.354380
0.171595 0.370098 0.356601
0.172507 0.368535 0.355039
0.173443 0.367249 0.353753
0.174549 0.367900 0.354404
0.181747 0.367038 0.350771
0.215339 0.359616 0.328572
0.268037 0.350909 0.297942
0.378056 0.338345 0.242021
0.500708 0.334406 0.178553
0.651155 0.349445 0.098480
0.763859 0.359380 0.040915
0.813660 0.360813 0.020865
0.848766 0.356606 0.008304
0.864975 0.345148 0.005375
0.878679 0.346255 0.004691
0.889876 0.359926 0.006254
0.898437 0.369569 0.006058
0.904947 0.376079 0.004496
0.913003 0.383158 0.003910
0.921987 0.390580 0.003910
0.927569 0.396435 0.004984
0.931605 0.401577 0.006547
0.934812 0.407746 0.006595
0.937741 0.414256 0.006140
0.941940 0.421136 0.007694
0.946432 0.428102 0.009712
0.946025 0.426637 0.008597
0.944918 0.423968 0.007035
0.949243 0.431552 0.007975
0.953931 0.439820 0.009081
0.206603 0.423927 0.411062
0.212462 0.426531 0.413080
0.217589 0.428810 0.414846
0.211730 0.426206 0.412828
0.207441 0.424033 0.410948
0.214146 0.424879 0.410036
0.228273 0.424981 0.405573
0.274559 0.421856 0.385717
0.340245 0.416925 0.353216
0.464130 0.406574 0.282778
0.592756 0.400210 0.201497
0.731809 0.402619 0.096360
0.829386 0.402171 0.026451
0.857835 0.396963 0.015254
0.878622 0.391414 0.008072
0.889559 0.385425 0.006054
0.900496 0.388614 0.005761
0.911432 0.400983 0.007194
0.920282 0.410789 0.007674
0.927508 0.418601 0.007413
0.933798 0.423850 0.006949
0.939527 0.427560 0.006364
0.943690 0.432480 0.007165
0.947140 0.437948 0.008597
0.949077 0.443416 0.008955
0.950509 0.448885 0.008955
0.954057 0.454829 0.010595
0.958093 0.460884 0.012613
0.957857 0.460672 0.011612
0.957011 0.459565 0.010180
0.960986 0.466759 0.011433
0.965282 0.474506 0.012865
0.261092 0.482452 0.467569
0.277367 0.486098 0.469587
0.291607 0.489287 0.471352
0.275332 0.485642 0.469334
0.262971 0.482297 0.466804
0.278010 0.481060 0.460684
0.302227 0.480446 0.452770
0.366220 0.482529 0.437081
0.442843 0.482285 0.405101
0.557354 0.475059 0.324247
0.672699 0.464334 0.228969
0.789879 0.445911 0.101959
0.869878 0.431662 0.020332
0.887911 0.424371 0.014342
0.901928 0.420839 0.010090
0.910781 0.422141 0.008072
0.919635 0.427414 0.007259
0.928489 0.436658 0.007649
0.937599 0.446855 0.009431
0.946908 0.457791 0.012296
0.951375 0.461608 0.012353
0.952938 0.461152 0.010725
0.955082 0.464053 0.010485
0.957491 0.468480 0.010876
0.958386 0.472907 0.010973
0.958776 0.477334 0.010973
0.962129 0.483083 0.012613
0.966165 0.489137 0.014631
0.967752 0.493482 0.014542
0.968989 0.497584 0.014151
0.970165 0.501197 0.014493
0.971337 0.504777 0.014883
0.355942 0.528364 0.497588
0.368962 0.531098 0.498955
0.380558 0.533735 0.500354
0.370793 0.534906 0.502242
0.364031 0.535517 0.502804
0.378288 0.532197 0.494080
0.400674 0.529523 0.483245
0.458288 0.529654 0.463260
0.526317 0.528726 0.428708
0.625595 0.524625 0.350458
0.725869 0.511979 0.252169
0.828336 0.480536 0.109795
0.896944 0.458345 0.019298
0.909117 0.451574 0.015262
0.920066 0.450101 0.012678
0.929441 0.455440 0.011962
0.937513 0.462796 0.011930
0.944284 0.472170 0.012581
0.951823 0.481618 0.014037
0.959960 0.491122 0.016120
0.963012 0.494239 0.016047
0.963012 0.493523 0.014680
0.964847 0.497864 0.015148
0.967516 0.504505 0.016450
0.968672 0.508704 0.016775
0.969323 0.512089 0.016775
0.971666 0.516585 0.017886
0.974400 0.521337 0.019253
0.976508 0.528368 0.019994
0.978526 0.535724 0.020645
0.978652 0.538076 0.020686
0.978652 0.540094 0.020686
0.475010 0.566708 0.511714
0.476573 0.567359 0.512040
0.478469 0.568563 0.512854
0.485369 0.578068 0.520991
0.492408 0.585709 0.526891
0.500416 0.580305 0.517126
0.513818 0.574768 0.503687
0.550599 0.568648 0.474327
0.598318 0.563815 0.435348
0.678846 0.562838 0.367514
0.762976 0.549737 0.272806
0.855027 0.509961 0.118974
0.915953 0.483343 0.021316
0.925002 0.478656 0.017280
0.935104 0.479266 0.015608
0.946562 0.486688 0.016975
0.954634 0.496127 0.018505
0.959322 0.507585 0.020197
0.964192 0.515600 0.020352
0.969205 0.520938 0.019310
0.971084 0.523795 0.018716
0.971084 0.525162 0.018391
0.973636 0.533018 0.020616
0.977346 0.543825 0.024002
0.979543 0.548284 0.024848
0.981236 0.550628 0.024848
0.982082 0.553236 0.025112
0.982733 0.555905 0.025438
0.984580 0.564498 0.026960
0.986599 0.573938 0.028652
0.986725 0.576420 0.028758
0.986725 0.578438 0.028758
0.556617 0.607826 0.534166
0.556031 0.607826 0.534166
0.555925 0.608315 0.534573
0.563021 0.616127 0.541083
0.570077 0.622474 0.545786
0.576847 0.618568 0.537844
0.588292 0.614418 0.525605
0.619996 0.609210 0.494748
0.660651 0.604588 0.455281
0.728160 0.601723 0.389986
0.799188 0.584720 0.293442
0.877959 0.536611 0.128153
0.930486 0.506104 0.023603
0.939275 0.504932 0.020283
0.947950 0.506864 0.018985
0.956478 0.512789 0.020287
0.963476 0.522163 0.022305
0.968944 0.534988 0.025039
0.973607 0.544480 0.025906
0.977643 0.551381 0.025320
0.980388 0.556125 0.025995
0.982357 0.559575 0.027427
0.984763 0.567993 0.030158
0.987367 0.578670 0.033478
0.988994 0.582852 0.033771
0.990296 0.584871 0.033055
0.990540 0.587470 0.033502
0.990540 0.590205 0.034218
0.991679 0.598122 0.036074
0.992981 0.606781 0.038092
0.993063 0.609214 0.038218
0.993063 0.611232 0.038218
0.621196 0.650207 0.560401
0.622694 0.650207 0.560401
0.624085 0.650304 0.560482
0.623890 0.651867 0.561784
0.624695 0.653136 0.562322
0.632507 0.652355 0.557504
0.645190 0.651525 0.548195
0.678977 0.650483 0.519421
0.718590 0.647944 0.481256
0.775683 0.640914 0.414919
0.834993 0.618442 0.314079
0.899181 0.562000 0.137333
0.942986 0.527847 0.026012
0.952816 0.530842 0.023733
0.959798 0.533751 0.022565
0.963118 0.536550 0.022826
0.968554 0.544883 0.024844
0.976105 0.558749 0.028620
0.981679 0.571041 0.031114
0.985716 0.582108 0.032611
0.990250 0.589716 0.035370
0.995084 0.595250 0.038885
0.996953 0.602887 0.041550
0.997473 0.611480 0.043829
0.997799 0.615142 0.043080
0.998059 0.617160 0.041322
0.998108 0.620606 0.042421
0.998108 0.624382 0.044178
0.998336 0.630607 0.046164
0.998596 0.637182 0.048182
0.998613 0.639485 0.048308
0.998613 0.641503 0.048308
0.666099 0.675937 0.571501
0.669680 0.677500 0.573063
0.672959 0.678964 0.574528
0.671722 0.678964 0.574528
0.671551 0.678867 0.573926
0.678842 0.678086 0.569108
0.690613 0.677304 0.560190
0.721796 0.676523 0.533499
0.757438 0.673919 0.497417
0.806459 0.665847 0.433163
0.858103 0.642252 0.331151
0.915522 0.584508 0.146072
0.954606 0.549346 0.029641
0.963134 0.551820 0.027623
0.969156 0.555803 0.026829
0.971955 0.561728 0.027611
0.976219 0.571362 0.030019
0.981948 0.584708 0.034055
0.986285 0.596039 0.036517
0.989540 0.605804 0.037754
0.993741 0.613738 0.040252
0.998510 0.620574 0.043507
1.000000 0.628797 0.045912
1.000000 0.637650 0.047930
1.000000 0.643135 0.048093
1.000000 0.647497 0.047637
1.000000 0.651594 0.049191
1.000000 0.655630 0.051209
1.000000 0.659382 0.053227
1.000000 0.663092 0.055245
1.000000 0.665216 0.056104
1.000000 0.667234 0.056885
0.704443 0.696118 0.577555
0.710107 0.699764 0.581201
0.715404 0.703182 0.584618
0.715209 0.703182 0.584618
0.715819 0.702954 0.583886
0.722069 0.701131 0.578027
0.732212 0.699308 0.568653
0.759229 0.697485 0.544045
0.789923 0.694100 0.510307
0.831652 0.686028 0.449178
0.876982 0.662759 0.347036
0.930234 0.606057 0.154665
0.965933 0.570764 0.033677
0.972378 0.571155 0.031659
0.977684 0.576245 0.031321
0.981525 0.587377 0.033144
0.984747 0.599095 0.036074
0.987351 0.611399 0.040110
0.989736 0.620517 0.041985
0.991949 0.627157 0.042181
0.995108 0.634570 0.043637
0.998835 0.642447 0.045851
1.000000 0.651712 0.047930
1.000000 0.661607 0.049948
1.000000 0.669696 0.051673
1.000000 0.677182 0.053301
1.000000 0.681865 0.055245
1.000000 0.685902 0.057264
1.000000 0.686919 0.059282
1.000000 0.687505 0.061300
1.000000 0.689433 0.063135
1.000000 0.691451 0.064958
0.755905 0.716299 0.573771
0.759420 0.717797 0.574422
0.762610 0.719200 0.575085
0.760917 0.719200 0.575932
0.760299 0.719054 0.576021
0.767199 0.717882 0.570813
0.777090 0.716552 0.562041
0.799941 0.714533 0.537824
0.825899 0.710155 0.503890
0.861183 0.698698 0.440808
0.899723 0.675278 0.339806
0.945423 0.625542 0.155377
0.975304 0.595409 0.039353
0.978819 0.597948 0.037335
0.983210 0.604673 0.037453
0.988728 0.616782 0.040317
0.991332 0.627198 0.042921
0.991022 0.635921 0.045265
0.992379 0.643619 0.046766
0.995032 0.650520 0.047613
0.997309 0.658682 0.049191
0.999359 0.667600 0.051209
1.000000 0.675579 0.053227
1.000000 0.683131 0.055245
1.000000 0.691073 0.057898
1.000000 0.699145 0.060763
1.000000 0.704626 0.067065
1.000000 0.709509 0.074161
1.000000 0.711600 0.081257
1.000000 0.713293 0.088353
1.000000 0.714497 0.089895
1.000000 0.715669 0.091067
0.810393 0.736480 0.567717
0.810784 0.734853 0.564201
0.810914 0.733327 0.561024
0.807138 0.733327 0.562912
0.804827 0.733311 0.564043
0.812769 0.733181 0.559876
0.822726 0.732696 0.551950
0.841409 0.730678 0.527733
0.862681 0.725259 0.493019
0.891715 0.709635 0.426812
0.923354 0.685955 0.327241
0.960721 0.644551 0.154271
0.984222 0.620798 0.045407
0.984613 0.626461 0.043389
0.988044 0.634945 0.043963
0.995384 0.647053 0.047869
0.997467 0.655386 0.049952
0.994294 0.659943 0.050212
0.994837 0.666404 0.051388
0.998271 0.674346 0.053276
0.999701 0.683550 0.055245
0.999929 0.693510 0.057264
