其他预设/【236】赛博朋克风调色预设/【后期菌】视频调色预设/CUBE/Tokyo 06.cube
# LUT by SparkleStock. Enhanced with VOXCOLOR algorithms.
LUT_3D_SIZE 32
0.097752 0.039101 0.066471
0.101788 0.041119 0.068489
0.105320 0.043011 0.070381
0.101283 0.043011 0.070381
0.097752 0.043011 0.070381
0.097752 0.043011 0.070381
0.099265 0.043011 0.070381
0.107338 0.043011 0.070381
0.122473 0.043011 0.069372
0.158799 0.043011 0.065336
0.198909 0.043011 0.061300
0.247343 0.043011 0.057264
0.307886 0.046038 0.054741
0.388610 0.054110 0.054741
0.468451 0.063066 0.053858
0.547157 0.073156 0.051840
0.607700 0.086274 0.047804
0.650080 0.102419 0.041749
0.685649 0.120834 0.034560
0.715921 0.141015 0.026488
0.741147 0.159934 0.020938
0.763346 0.178097 0.016902
0.778608 0.190710 0.014253
0.790717 0.200801 0.012235
0.801312 0.209378 0.010217
0.811402 0.217450 0.008199
0.823132 0.227162 0.009460
0.835241 0.237253 0.011478
0.842052 0.247343 0.011730
0.848106 0.257434 0.011730
0.857945 0.267524 0.011730
0.868035 0.277615 0.011730
0.101788 0.041119 0.068489
0.101658 0.042095 0.069466
0.101414 0.043011 0.070381
0.099461 0.043011 0.070381
0.098012 0.043141 0.070511
0.100095 0.044183 0.071553
0.102911 0.044834 0.072204
0.108900 0.043792 0.071162
0.121692 0.042750 0.069372
0.154893 0.041709 0.065336
0.194157 0.041318 0.061300
0.246757 0.042360 0.057264
0.311076 0.045647 0.053960
0.394925 0.052678 0.051877
0.474701 0.061959 0.050733
0.549241 0.074133 0.050798
0.608742 0.088292 0.047804
0.653205 0.104437 0.041749
0.689686 0.122852 0.034560
0.719957 0.143033 0.026488
0.743881 0.161302 0.020938
0.763997 0.178423 0.016902
0.778608 0.190710 0.014253
0.790717 0.200801 0.012235
0.802093 0.210159 0.010998
0.813225 0.219273 0.010021
0.824304 0.229180 0.010632
0.835371 0.239271 0.011608
0.842964 0.249361 0.011730
0.850059 0.259452 0.011730
0.858010 0.265636 0.010754
0.866017 0.271561 0.009712
0.105572 0.043011 0.070381
0.101666 0.043076 0.070381
0.098004 0.043133 0.070381
0.098004 0.043068 0.070381
0.098492 0.043263 0.070633
0.102398 0.045281 0.072652
0.106329 0.046542 0.073913
0.110365 0.044524 0.071895
0.120976 0.042506 0.069372
0.151313 0.040488 0.065336
0.189787 0.039772 0.061340
0.246163 0.041920 0.057434
0.313892 0.045533 0.053504
0.400540 0.051588 0.049533
0.480296 0.061117 0.048125
0.551189 0.075113 0.050013
0.609747 0.090119 0.047897
0.655968 0.106133 0.041778
0.693217 0.124528 0.034560
0.723489 0.144774 0.026488
0.746274 0.162457 0.020978
0.764567 0.178602 0.017007
0.778653 0.190674 0.014379
0.790827 0.200895 0.012361
0.802903 0.210969 0.011808
0.814946 0.220994 0.011742
0.825403 0.231072 0.011730
0.835493 0.241163 0.011730
0.843818 0.251253 0.011787
0.851890 0.261344 0.011852
0.858071 0.263867 0.009903
0.864125 0.265885 0.007820
0.105572 0.043011 0.070381
0.103749 0.044117 0.070381
0.102040 0.045086 0.070381
0.102040 0.043979 0.070381
0.102268 0.043263 0.070633
0.104091 0.045281 0.072652
0.106329 0.046542 0.073913
0.110365 0.044524 0.071895
0.121237 0.042506 0.069372
0.152615 0.040488 0.065336
0.191154 0.040423 0.061991
0.245447 0.044655 0.060169
0.311093 0.049570 0.057931
0.395657 0.055624 0.055001
0.476064 0.064241 0.053268
0.551124 0.076155 0.053073
0.610203 0.089077 0.049395
0.653299 0.103009 0.042234
0.689181 0.121078 0.034560
0.719453 0.142366 0.026488
0.743540 0.160439 0.021629
0.763916 0.176584 0.018700
0.779369 0.190088 0.016397
0.792584 0.202392 0.014379
0.804140 0.212206 0.013044
0.815141 0.221189 0.011938
0.825403 0.231072 0.011730
0.835493 0.241163 0.011730
0.843818 0.251253 0.012699
0.851890 0.261344 0.013805
0.858071 0.263867 0.010945
0.864125 0.265885 0.007820
0.105572 0.043011 0.070381
0.105442 0.044899 0.070381
0.105320 0.046551 0.070381
0.105320 0.044663 0.070381
0.105352 0.043263 0.070617
0.105613 0.045281 0.072505
0.106581 0.046567 0.073685
0.110617 0.044679 0.071797
0.121749 0.042791 0.069405
0.154169 0.040903 0.065499
0.192855 0.041416 0.062773
0.245325 0.047210 0.062642
0.309245 0.053150 0.061804
0.392248 0.059335 0.059786
0.472972 0.067114 0.057711
0.550766 0.076944 0.055563
0.610170 0.088109 0.050452
0.651183 0.100608 0.042380
0.686154 0.118563 0.034381
0.716425 0.140762 0.026439
0.741489 0.159015 0.022118
0.763428 0.174899 0.019969
0.780085 0.189665 0.018000
0.794342 0.203922 0.016112
0.805572 0.213638 0.014224
0.815792 0.221840 0.012336
0.825802 0.231365 0.011877
0.835762 0.241195 0.011746
0.843956 0.251253 0.013382
0.851899 0.261344 0.015270
0.858193 0.264355 0.011970
0.864377 0.266894 0.008325
0.105572 0.043011 0.070381
0.104400 0.043857 0.070381
0.103301 0.044598 0.070381
0.103301 0.043751 0.070381
0.103594 0.043263 0.070487
0.105938 0.045281 0.071333
0.108599 0.046762 0.071862
0.112635 0.045916 0.071016
0.124028 0.045070 0.069665
0.157489 0.044223 0.066801
0.196891 0.044801 0.064465
0.249361 0.048512 0.063293
0.314063 0.053541 0.061804
0.399148 0.060767 0.059786
0.477854 0.068221 0.057255
0.548358 0.075968 0.054066
0.606720 0.087653 0.048434
0.652941 0.103277 0.040362
0.690190 0.122600 0.032949
0.720462 0.144799 0.026048
0.744223 0.161749 0.021467
0.764079 0.175550 0.018277
0.780801 0.190381 0.016698
0.796100 0.205679 0.015852
0.808371 0.216437 0.015006
0.819633 0.225681 0.014159
0.828991 0.233709 0.013048
0.837910 0.241456 0.011877
0.845063 0.251253 0.012471
0.851964 0.261344 0.013317
0.859169 0.268261 0.012882
0.866395 0.274966 0.012361
0.104437 0.043389 0.070760
0.102809 0.043389 0.070760
0.101296 0.043401 0.070772
0.101491 0.043597 0.070967
0.102142 0.043971 0.071114
0.105983 0.045598 0.070918
0.110117 0.046921 0.070723
0.115520 0.046921 0.070528
0.128052 0.046970 0.069926
0.161969 0.047165 0.068103
0.201684 0.047930 0.066219
0.254154 0.049948 0.064201
0.319637 0.054236 0.062256
0.406806 0.062309 0.060433
0.484006 0.069669 0.057557
0.548390 0.076114 0.053325
0.605515 0.088320 0.047271
0.655382 0.106288 0.039394
0.694446 0.126855 0.032212
0.725108 0.149445 0.025572
0.747836 0.165606 0.020681
0.765804 0.177910 0.016841
0.782115 0.192318 0.015775
0.797674 0.207681 0.015970
0.810938 0.219383 0.015872
0.823438 0.229864 0.015677
0.832340 0.237066 0.014159
0.840412 0.243511 0.012336
0.846719 0.252804 0.012109
0.852773 0.262504 0.012109
0.860536 0.272387 0.013817
0.868414 0.282282 0.015640
0.098382 0.045407 0.072778
0.098838 0.045407 0.072778
0.099343 0.045485 0.072855
0.100579 0.046721 0.074092
0.102012 0.047747 0.075020
0.104811 0.047291 0.073783
0.109466 0.046921 0.072546
0.122160 0.046921 0.071309
0.139639 0.047230 0.070186
0.171473 0.048467 0.069405
0.209756 0.049948 0.068237
0.262227 0.051966 0.066219
0.328491 0.056255 0.064665
0.417743 0.064327 0.063883
0.495659 0.072599 0.061137
0.559001 0.081127 0.055864
0.614043 0.093854 0.049810
0.660785 0.110780 0.042974
0.699654 0.132063 0.034491
0.732399 0.156736 0.024726
0.755258 0.174330 0.019314
0.772184 0.187675 0.016515
0.786021 0.199544 0.016491
0.798456 0.210741 0.017728
0.812501 0.222963 0.017109
0.827083 0.235528 0.015872
0.836376 0.244813 0.015006
0.844449 0.253341 0.014224
0.850755 0.261071 0.014127
0.856810 0.268688 0.014127
0.863596 0.277464 0.014859
0.870432 0.286318 0.015640
0.091824 0.049443 0.077318
0.093581 0.049443 0.077318
0.095355 0.049553 0.077428
0.097373 0.051311 0.079186
0.099359 0.052629 0.080504
0.101117 0.050872 0.078747
0.105706 0.049443 0.076989
0.122567 0.049443 0.075231
0.144213 0.049818 0.073587
0.180213 0.051315 0.072285
0.222255 0.053138 0.070841
0.277590 0.055677 0.069083
0.344863 0.060193 0.067887
0.432032 0.068005 0.067627
0.508207 0.076700 0.064604
0.570247 0.086530 0.058029
0.623597 0.100429 0.051974
0.668256 0.118397 0.046441
0.706652 0.140136 0.036916
0.740179 0.164809 0.024286
0.762516 0.183216 0.019103
0.778140 0.197863 0.018387
0.790497 0.208707 0.019192
0.801369 0.217821 0.020690
0.815414 0.230108 0.019355
0.830517 0.243454 0.017077
0.840331 0.254366 0.016649
0.848924 0.264717 0.016649
0.855068 0.270853 0.016421
0.860862 0.276386 0.016161
0.866900 0.284544 0.016145
0.872954 0.292877 0.016145
0.083751 0.059534 0.089427
0.084467 0.059534 0.089427
0.085265 0.059579 0.089472
0.087283 0.060295 0.090188
0.089138 0.060832 0.090725
0.089854 0.060116 0.090009
0.092621 0.059534 0.089293
0.104274 0.059534 0.088577
0.127742 0.059387 0.086412
0.186658 0.058802 0.079902
0.248035 0.059843 0.075203
0.314828 0.064465 0.074487
0.383793 0.069893 0.073551
0.456379 0.076663 0.072249
0.523441 0.084317 0.067728
0.583398 0.093105 0.059070
0.636226 0.110129 0.053016
0.681927 0.135388 0.049566
0.719021 0.156801 0.039780
0.749423 0.175225 0.025068
0.769287 0.192590 0.022358
0.782827 0.209321 0.026850
0.796682 0.223680 0.027851
0.810678 0.236960 0.027265
0.822380 0.247946 0.024628
0.833317 0.258166 0.021308
0.844042 0.269339 0.020686
0.854718 0.280732 0.020686
0.860211 0.285175 0.019546
0.864963 0.288625 0.018244
0.870936 0.297629 0.018163
0.876991 0.307003 0.018163
0.078201 0.072147 0.101536
0.078527 0.072473 0.102187
0.078917 0.072757 0.102756
0.080285 0.072432 0.102105
0.081521 0.072147 0.101576
0.081847 0.072147 0.101902
0.083564 0.072269 0.102227
0.091311 0.072920 0.102553
0.113429 0.072660 0.100437
0.178659 0.069665 0.090998
0.252128 0.069193 0.083796
0.343724 0.074271 0.081517
0.424065 0.080325 0.079337
0.485650 0.088007 0.077318
0.545042 0.096429 0.072053
0.601613 0.105804 0.062614
0.652131 0.124813 0.056234
0.696594 0.153457 0.052914
0.731390 0.174118 0.043479
0.758667 0.188570 0.029287
0.777074 0.205749 0.028196
0.790159 0.224562 0.034967
0.804453 0.240646 0.035695
0.819296 0.255489 0.033677
0.829549 0.265742 0.030145
0.838272 0.274466 0.026109
0.849217 0.285411 0.025088
0.860675 0.296868 0.024762
0.865924 0.300636 0.022671
0.870285 0.303305 0.020327
0.876234 0.312016 0.020791
0.882288 0.321130 0.021442
0.078201 0.090310 0.113644
0.079568 0.091677 0.116378
0.080805 0.092873 0.118771
0.080089 0.091506 0.116037
0.079634 0.090310 0.113815
0.081001 0.090310 0.115182
0.083369 0.090823 0.116549
0.090074 0.093557 0.117916
0.103859 0.094078 0.117103
0.138883 0.087958 0.109746
0.208511 0.084361 0.101698
0.354270 0.086314 0.092129
0.467292 0.092369 0.085391
0.525752 0.105259 0.083373
0.580651 0.118433 0.079019
0.630974 0.131974 0.071663
0.675242 0.150462 0.064241
0.713455 0.173898 0.056755
0.743759 0.192867 0.049012
0.767911 0.208361 0.041070
0.787100 0.227232 0.039719
0.803310 0.248129 0.042323
0.815715 0.261999 0.041749
0.826392 0.272675 0.039731
0.837166 0.283449 0.036200
0.847972 0.294256 0.032163
0.857615 0.303899 0.030296
0.866990 0.313273 0.028929
0.872889 0.318603 0.025796
0.878293 0.323356 0.022411
0.884306 0.329268 0.024762
0.890360 0.335257 0.027497
0.084256 0.111500 0.126510
0.085883 0.113518 0.129765
0.087307 0.115333 0.132637
0.085680 0.114096 0.129773
0.084557 0.113014 0.127470
0.086965 0.113014 0.129097
0.089618 0.113624 0.130871
0.093329 0.116879 0.133280
0.101320 0.116814 0.132596
0.122152 0.106788 0.122636
0.190039 0.100628 0.112106
0.361447 0.102972 0.100323
0.494455 0.110930 0.089858
0.563461 0.128247 0.081591
0.621900 0.145222 0.073950
0.666754 0.161757 0.067114
0.705554 0.180115 0.059237
0.738299 0.200296 0.050318
0.764673 0.218427 0.044585
0.786091 0.234962 0.041330
0.804986 0.252840 0.040110
0.822368 0.271524 0.040110
0.832543 0.282107 0.038722
0.839444 0.289007 0.036704
0.849665 0.298349 0.033758
0.860992 0.308505 0.030503
0.869992 0.317603 0.028888
0.878455 0.326456 0.027651
0.884127 0.332519 0.024648
0.889400 0.338182 0.021393
0.894307 0.341588 0.023509
0.899190 0.344843 0.025983
0.100400 0.137735 0.140636
0.100986 0.139753 0.141808
0.101499 0.141698 0.142923
0.100913 0.142545 0.143183
0.100832 0.143285 0.143484
0.104282 0.143285 0.144070
0.106609 0.143505 0.145193
0.104070 0.144677 0.148644
0.110499 0.141747 0.146137
0.143830 0.126514 0.125761
0.213475 0.118726 0.110023
0.363010 0.127319 0.104490
0.494845 0.140356 0.091681
0.597183 0.160797 0.066748
0.672548 0.179985 0.048821
0.713236 0.197562 0.039902
0.747869 0.216441 0.032546
0.776448 0.236622 0.026752
0.799827 0.255338 0.023558
0.819161 0.272915 0.022386
0.835973 0.285325 0.021947
0.851272 0.294634 0.021947
0.858649 0.300139 0.020559
0.862424 0.303915 0.018541
0.870301 0.308570 0.017158
0.879546 0.313518 0.015986
0.889001 0.323331 0.016454
0.898506 0.334268 0.017300
0.902485 0.339680 0.016381
0.905675 0.344302 0.015209
0.907522 0.345689 0.013549
0.909280 0.346861 0.011856
0.120960 0.167502 0.156529
0.120960 0.169520 0.157440
0.121017 0.171510 0.158392
0.121928 0.173072 0.159955
0.123059 0.174383 0.161208
0.125728 0.173927 0.160297
0.127531 0.173300 0.159800
0.125578 0.171933 0.161102
0.133520 0.166937 0.155976
0.171148 0.151052 0.131563
0.238478 0.143631 0.113010
0.371151 0.154828 0.107346
0.499821 0.171176 0.091282
0.621819 0.196110 0.057886
0.708015 0.216486 0.033889
0.748182 0.231003 0.021975
0.780927 0.247213 0.014456
0.806251 0.265116 0.011331
0.826522 0.281627 0.009964
0.842862 0.297055 0.009964
0.856679 0.306503 0.009964
0.868983 0.312362 0.009964
0.874842 0.315894 0.008890
0.877772 0.318367 0.007328
0.884900 0.322550 0.006937
0.893428 0.327302 0.006937
0.902115 0.336551 0.008207
0.910838 0.346836 0.009769
0.913695 0.351255 0.009964
0.915713 0.354836 0.009964
0.915412 0.354632 0.007035
0.914956 0.354177 0.003910
0.147195 0.201810 0.174692
0.147195 0.203828 0.177686
0.147382 0.205753 0.180526
0.150377 0.206273 0.181047
0.152940 0.206542 0.181129
0.152485 0.205045 0.178134
0.153506 0.202986 0.174773
0.160927 0.198494 0.169826
0.174338 0.192456 0.161053
0.205716 0.181780 0.140807
0.265494 0.177288 0.122514
0.387752 0.186402 0.108518
0.510693 0.203791 0.088027
0.634774 0.234974 0.056714
0.723965 0.255220 0.032066
0.768298 0.261405 0.015986
0.802085 0.270844 0.007425
0.825326 0.283539 0.006384
0.842341 0.294256 0.005928
0.854515 0.303435 0.005928
0.864166 0.313143 0.005928
0.872303 0.323169 0.005928
0.878293 0.328718 0.005570
0.883305 0.332234 0.005049
0.891736 0.341364 0.004919
0.901305 0.352366 0.004919
0.907649 0.359401 0.005342
0.913247 0.365520 0.005863
0.915713 0.368507 0.005928
0.917731 0.371046 0.005928
0.916453 0.369801 0.004952
0.914956 0.368303 0.003910
0.169394 0.244190 0.207990
0.169915 0.246208 0.210985
0.170558 0.248068 0.213792
0.173032 0.247547 0.213792
0.175074 0.246969 0.213483
0.174098 0.245993 0.211009
0.175770 0.244064 0.207193
0.188920 0.238010 0.197558
0.210403 0.231581 0.183838
0.256885 0.224029 0.157863
0.328836 0.222337 0.131075
0.456823 0.233534 0.102496
0.575923 0.251249 0.074454
0.680214 0.279828 0.047307
0.756678 0.296559 0.025686
0.797365 0.298056 0.011169
0.828027 0.304111 0.004170
0.848664 0.314722 0.004691
0.862489 0.322477 0.004626
0.871018 0.328010 0.004105
0.878325 0.337002 0.003910
0.884900 0.348069 0.003910
0.891475 0.355019 0.004268
0.898050 0.360097 0.004789
0.906090 0.370399 0.004919
0.914618 0.382442 0.004919
0.919074 0.387980 0.004919
0.922589 0.392016 0.004919
0.924339 0.393375 0.004463
0.925836 0.394351 0.003943
0.925502 0.394962 0.004887
0.925047 0.395548 0.005928
0.187557 0.294643 0.256425
0.189120 0.296661 0.257336
0.190544 0.298455 0.258191
0.189893 0.296893 0.258191
0.189461 0.295664 0.258272
0.190568 0.296771 0.258923
0.194323 0.296535 0.257060
0.209557 0.290480 0.244300
0.241716 0.284312 0.224331
0.324654 0.277802 0.182732
0.428504 0.278779 0.138691
0.578365 0.296225 0.089281
0.695512 0.313550 0.050562
0.758138 0.330671 0.029665
0.806154 0.340501 0.014749
0.835383 0.340957 0.007523
0.858754 0.347011 0.004691
0.876266 0.358664 0.006254
0.886967 0.366289 0.006058
0.892370 0.370781 0.004496
0.899157 0.378080 0.003910
0.906774 0.387064 0.003910
0.914390 0.394795 0.004984
0.922007 0.401956 0.006547
0.927964 0.409654 0.006937
0.933367 0.417531 0.006937
0.936390 0.422287 0.006937
0.938864 0.426324 0.006937
0.939572 0.425860 0.005570
0.940028 0.424753 0.004008
0.942558 0.430116 0.006840
0.945228 0.435910 0.009964
0.212531 0.350771 0.311670
0.215135 0.352789 0.312256
0.217414 0.354555 0.312769
0.214810 0.352537 0.312183
0.213150 0.350730 0.311410
0.218097 0.350405 0.309327
0.226792 0.349115 0.304546
0.251725 0.343647 0.288076
0.295294 0.338471 0.262296
0.394766 0.334175 0.208589
0.511328 0.336246 0.150263
0.665485 0.352325 0.081778
0.775845 0.365378 0.033701
0.813213 0.373385 0.019640
0.843545 0.378658 0.010221
0.864833 0.380416 0.006770
0.882670 0.386470 0.005761
0.897058 0.396821 0.007194
0.906941 0.405597 0.007344
0.913320 0.413149 0.006498
0.920026 0.420294 0.006180
0.926926 0.427194 0.006180
0.933424 0.432886 0.006762
0.939739 0.438029 0.007609
0.943905 0.443416 0.008260
0.947355 0.448885 0.008845
0.950118 0.454142 0.009431
0.952722 0.459350 0.010017
0.953048 0.459260 0.008837
0.953048 0.458414 0.007405
0.956282 0.464830 0.010001
0.959733 0.471731 0.012865
0.242803 0.411314 0.372213
0.246448 0.413332 0.373841
0.249638 0.415098 0.375265
0.245993 0.413080 0.373637
0.244072 0.410752 0.371041
0.254228 0.406261 0.361667
0.270084 0.401781 0.350181
0.310641 0.397354 0.329544
0.366187 0.393741 0.298296
0.466702 0.392569 0.235214
0.581050 0.394510 0.164910
0.725832 0.403299 0.078718
0.825647 0.409060 0.022309
0.850515 0.409776 0.015539
0.871538 0.412315 0.010676
0.887618 0.417197 0.008268
0.901289 0.423252 0.007259
0.912551 0.430478 0.007649
0.923411 0.441402 0.008516
0.933957 0.455204 0.009753
0.940923 0.463390 0.010217
0.945740 0.468207 0.010217
0.949439 0.469668 0.009366
0.952629 0.469603 0.008129
0.955233 0.472907 0.009041
0.957641 0.477334 0.010668
0.961055 0.484088 0.012296
0.964701 0.491379 0.013923
0.965156 0.493373 0.013785
0.965156 0.494609 0.013394
0.967414 0.499203 0.014102
0.969823 0.504020 0.014883
0.305868 0.452937 0.394917
0.307951 0.454304 0.396284
0.309937 0.455704 0.397724
0.310458 0.457592 0.400263
0.311939 0.458406 0.400808
0.320141 0.451700 0.387398
0.335143 0.445496 0.371973
0.379606 0.441459 0.347821
0.436552 0.439083 0.314522
0.530947 0.441687 0.253784
0.637142 0.444149 0.181185
0.769295 0.446297 0.082494
0.858726 0.446639 0.019298
0.876954 0.443970 0.015262
0.893672 0.446256 0.012678
0.908450 0.454915 0.011962
0.920559 0.461620 0.011604
0.929998 0.466372 0.011604
0.939840 0.476068 0.012373
0.949996 0.489609 0.013740
0.955920 0.497209 0.014253
0.959305 0.501246 0.014253
0.961751 0.503357 0.014656
0.963769 0.504594 0.015242
0.965299 0.506466 0.015437
0.966666 0.508549 0.015502
0.969144 0.514969 0.016625
0.971878 0.522391 0.017992
0.973359 0.525654 0.019302
0.974661 0.528323 0.020604
0.976024 0.531053 0.019465
0.977391 0.533787 0.018163
0.388610 0.483209 0.394917
0.387569 0.483534 0.395242
0.387080 0.484348 0.396162
0.394892 0.492486 0.405992
0.401972 0.498637 0.412657
0.403925 0.490891 0.397163
0.413263 0.483839 0.379460
0.454601 0.479803 0.352183
0.506600 0.478469 0.318884
0.590579 0.485239 0.267520
0.685055 0.488612 0.198437
0.802626 0.484511 0.090371
0.881771 0.480556 0.021316
0.896874 0.476845 0.017280
0.912291 0.480369 0.015608
0.928110 0.493193 0.016975
0.940219 0.500940 0.017658
0.948617 0.503609 0.017658
0.956246 0.510050 0.017841
0.963276 0.519425 0.018167
0.967378 0.525463 0.018289
0.969721 0.529499 0.018289
0.971841 0.535191 0.021556
0.973859 0.541636 0.026309
0.974608 0.542466 0.025202
0.974933 0.541424 0.022142
0.975523 0.546413 0.021833
0.976174 0.552793 0.022158
0.979218 0.556837 0.025161
0.982603 0.560548 0.028546
0.983120 0.561390 0.025584
0.983445 0.562041 0.022199
0.458865 0.520417 0.414341
0.457563 0.520417 0.414341
0.456750 0.520824 0.414829
0.463260 0.527334 0.422641
0.469135 0.532290 0.427996
0.470567 0.526366 0.416148
0.478627 0.521333 0.401358
0.515409 0.520161 0.373820
0.563534 0.521479 0.339806
0.645690 0.530268 0.286359
0.733909 0.532180 0.213809
0.835465 0.518965 0.099233
0.903429 0.509460 0.025841
0.915408 0.506140 0.021088
0.928582 0.509827 0.018985
0.943295 0.522521 0.020287
0.954329 0.530235 0.021654
0.961686 0.532970 0.023086
0.967907 0.539109 0.024115
0.973245 0.547898 0.024832
0.976508 0.554164 0.025548
0.978526 0.558916 0.026264
0.981406 0.564966 0.029173
0.984677 0.571606 0.033079
0.984555 0.571753 0.031565
0.983302 0.569735 0.028245
0.984085 0.574276 0.027623
0.985338 0.580330 0.027623
0.987773 0.584618 0.030528
0.990377 0.588654 0.033848
0.990540 0.589578 0.030943
0.990540 0.590294 0.027623
0.523445 0.560779 0.442595
0.523184 0.560779 0.442595
0.523021 0.560861 0.442692
0.524323 0.562163 0.444255
0.525902 0.562952 0.444922
0.529418 0.560153 0.439323
0.538194 0.558440 0.429806
0.569767 0.561435 0.403311
0.614507 0.566138 0.368254
0.698747 0.575968 0.307516
0.783190 0.575342 0.228326
0.868080 0.551710 0.108542
0.924457 0.536086 0.031504
0.933310 0.533808 0.025710
0.943816 0.537169 0.022565
0.956445 0.547780 0.022826
0.965917 0.554973 0.024714
0.972232 0.558749 0.028229
0.977411 0.565931 0.030756
0.981708 0.575761 0.032513
0.984580 0.583068 0.034271
0.986599 0.588862 0.036029
0.990731 0.593806 0.037115
0.995825 0.598363 0.037896
0.994792 0.597988 0.036383
0.991716 0.595970 0.034104
0.993639 0.600511 0.033677
0.996714 0.606565 0.033677
0.997555 0.610854 0.035671
0.998075 0.614890 0.037949
0.998108 0.616790 0.035956
0.998108 0.618548 0.033677
0.559266 0.587519 0.458739
0.560828 0.589082 0.461083
0.562293 0.590546 0.463280
0.562293 0.590546 0.463280
0.562895 0.590294 0.462385
0.567713 0.588276 0.455224
0.577449 0.587247 0.444047
0.608502 0.590502 0.415468
0.652591 0.596051 0.380151
0.735789 0.608486 0.324621
0.816260 0.607615 0.246163
0.890735 0.577474 0.117265
0.940015 0.558464 0.035020
0.947307 0.558009 0.030528
0.955680 0.561825 0.028343
0.965445 0.571134 0.029124
0.972964 0.577807 0.030752
0.978237 0.581843 0.033225
0.982375 0.587967 0.035003
0.985630 0.595714 0.036240
0.988112 0.602891 0.037477
0.990130 0.609727 0.038714
0.994039 0.615175 0.039101
0.998808 0.619992 0.039101
0.998377 0.621440 0.038759
0.996212 0.621766 0.038303
0.997565 0.626111 0.038218
0.999729 0.631385 0.038218
1.000000 0.635575 0.039984
1.000000 0.639612 0.042002
1.000000 0.641756 0.041701
1.000000 0.643774 0.041245
0.585501 0.609718 0.470848
0.589147 0.613364 0.476316
0.592565 0.616782 0.481443
0.592565 0.616782 0.481443
0.593297 0.616529 0.480027
0.599156 0.614511 0.468700
0.609934 0.613287 0.453552
0.642028 0.615500 0.421848
0.686378 0.621050 0.386531
0.767492 0.636609 0.340375
0.843928 0.636259 0.265108
0.910069 0.600910 0.125794
0.953752 0.579427 0.037819
0.960001 0.581054 0.035410
0.966422 0.585587 0.034853
0.973062 0.593854 0.036676
0.978498 0.600006 0.037782
0.982729 0.604043 0.038173
0.985825 0.608408 0.038454
0.988039 0.613030 0.038649
0.990130 0.619687 0.038844
0.992148 0.627564 0.039040
0.995341 0.634054 0.039101
0.999068 0.639913 0.039101
0.999744 0.643965 0.040321
0.999402 0.647415 0.041949
0.999616 0.651500 0.042254
0.999957 0.655732 0.042254
1.000000 0.659793 0.044020
1.000000 0.663829 0.046038
1.000000 0.665973 0.047690
1.000000 0.667991 0.049317
0.637972 0.633557 0.458361
0.641162 0.637593 0.464415
0.644099 0.641272 0.469932
0.643253 0.639579 0.467394
0.643375 0.638057 0.463976
0.650276 0.637732 0.454406
0.662730 0.638004 0.441529
0.699251 0.640869 0.414317
0.743015 0.645995 0.383231
0.808505 0.657909 0.340526
0.870802 0.655541 0.267813
0.926072 0.621754 0.129085
0.963203 0.601711 0.041623
0.970104 0.604576 0.039605
0.975894 0.609718 0.039353
0.980255 0.617791 0.041371
0.983608 0.623845 0.041957
0.985952 0.627881 0.041111
0.988112 0.632394 0.040740
0.990130 0.637276 0.040740
0.992545 0.643623 0.041269
0.995198 0.650849 0.042116
0.997437 0.656106 0.042380
0.999487 0.660468 0.042380
1.000000 0.665220 0.043259
1.000000 0.670103 0.044431
1.000000 0.674985 0.046026
1.000000 0.679868 0.047718
1.000000 0.683269 0.048215
1.000000 0.686459 0.048540
1.000000 0.688550 0.050452
1.000000 0.690569 0.052471
0.696497 0.657774 0.440198
0.698645 0.661811 0.446252
0.700541 0.665359 0.451574
0.698653 0.661583 0.445911
0.697994 0.658499 0.440149
0.705936 0.660256 0.433704
0.720213 0.662417 0.424537
0.761943 0.666323 0.403575
0.804925 0.670929 0.377698
0.851667 0.677634 0.337076
0.897493 0.672662 0.266772
0.941305 0.642000 0.131168
0.971666 0.624301 0.045660
0.979608 0.628207 0.043641
0.985073 0.633936 0.043389
0.987351 0.642008 0.045407
0.988621 0.648062 0.045472
0.988881 0.652099 0.043584
0.990130 0.657197 0.042758
0.992148 0.663121 0.042758
0.995051 0.669208 0.043938
0.998485 0.675392 0.045826
