其他预设/【236】赛博朋克风调色预设/【后期菌】视频调色预设/CUBE/Tokyo 10_S.cube
# LUT by SparkleStock. Enhanced with VOXCOLOR algorithms.
LUT_3D_SIZE 5
DOMAIN_MIN 0.000000 0.000000 0.000000
DOMAIN_MAX 0.903226 0.903226 0.903226
0.113392 0.062561 0.058651
0.124492 0.062561 0.060165
0.350645 0.123987 0.062561
0.618674 0.255037 0.090058
0.718696 0.328067 0.105572
0.116419 0.064075 0.064958
0.131339 0.071805 0.061092
0.392952 0.165484 0.056596
0.647424 0.261470 0.075040
0.735797 0.333796 0.112436
0.161448 0.155772 0.165736
0.174350 0.171213 0.164060
0.551792 0.307182 0.066357
0.726247 0.382255 0.077143
0.800010 0.422206 0.131494
0.487371 0.455964 0.376123
0.509066 0.458882 0.370203
0.772538 0.460489 0.164630
0.859532 0.548292 0.224208
0.900797 0.589379 0.269603
0.733832 0.609214 0.461010
0.755579 0.605967 0.437940
0.886471 0.626282 0.350852
0.935768 0.708764 0.434835
0.963264 0.754895 0.502377
0.112509 0.062561 0.064958
0.123609 0.065543 0.067940
0.361187 0.110149 0.093663
0.625863 0.219981 0.115662
0.718675 0.327636 0.114906
0.111040 0.064958 0.068868
0.147232 0.101239 0.101239
0.412317 0.189154 0.152796
0.657483 0.256712 0.166867
0.758794 0.320878 0.144107
0.167645 0.173321 0.187285
0.189258 0.229740 0.201191
0.530370 0.355743 0.159943
0.717848 0.410040 0.168761
0.823901 0.432503 0.169887
0.495334 0.465298 0.392512
0.508277 0.471969 0.396695
0.733270 0.504912 0.194899
0.828014 0.569925 0.232255
0.902294 0.617513 0.269850
0.734483 0.609035 0.463121
0.745233 0.610191 0.456677
0.885307 0.624300 0.351556
0.932847 0.710676 0.437921
0.952594 0.769254 0.467408
0.094725 0.101283 0.140006
0.094725 0.099139 0.140006
0.245191 0.130432 0.194873
0.511100 0.243498 0.243328
0.611480 0.345827 0.250912
0.095807 0.105303 0.148676
0.120492 0.130794 0.198478
0.331437 0.193360 0.293309
0.579659 0.263977 0.326504
0.662399 0.346539 0.296690
0.192362 0.265990 0.314962
0.215375 0.305786 0.350188
0.397877 0.390861 0.410124
0.653828 0.450878 0.411729
0.802614 0.492768 0.424430
0.474571 0.522358 0.505095
0.480243 0.521240 0.500469
0.598695 0.593557 0.512351
0.824686 0.613833 0.350643
0.909538 0.655051 0.399853
0.665888 0.669293 0.598891
0.675598 0.673528 0.601515
0.861405 0.711143 0.540467
0.916562 0.766161 0.511986
0.947239 0.820950 0.541422
0.144168 0.160439 0.275218
0.151215 0.169496 0.280752
0.208149 0.222133 0.322330
0.343785 0.346987 0.415883
0.455362 0.398392 0.429009
0.149095 0.169773 0.279019
0.153178 0.174528 0.284447
0.243741 0.237153 0.368985
0.388429 0.348000 0.453305
0.479931 0.403409 0.451625
0.308440 0.372405 0.471324
0.312026 0.374502 0.472779
0.415316 0.460023 0.554236
0.518606 0.502729 0.568521
0.678033 0.529129 0.602528
0.526118 0.612668 0.644579
0.529597 0.616814 0.648948
0.580634 0.676049 0.698732
0.733193 0.702849 0.667133
0.899862 0.696581 0.607417
0.634070 0.702649 0.683383
0.634999 0.700818 0.681055
0.729168 0.746140 0.712234
0.909711 0.808606 0.666364
0.954512 0.844169 0.665121
0.229937 0.241667 0.389872
0.229307 0.243181 0.391385
0.289870 0.300908 0.441651
0.365720 0.375053 0.479742
0.431117 0.437968 0.523192
0.234816 0.250708 0.402159
0.242704 0.257152 0.409519
0.302833 0.315134 0.454554
0.374930 0.378608 0.486544
0.441965 0.444411 0.531279
0.411420 0.446610 0.563807
0.411469 0.447888 0.564201
0.494762 0.525958 0.630073
0.515727 0.529764 0.605374
0.585109 0.569764 0.657503
0.569955 0.656704 0.721756
0.573813 0.657834 0.726347
0.619085 0.711068 0.778952
0.702110 0.785334 0.850158
0.755356 0.764596 0.826497
0.629318 0.757247 0.792438
0.635963 0.760088 0.794823
0.708571 0.805786 0.832034
0.837050 0.857836 0.865320
0.948609 0.852193 0.775273
