其他预设/【236】赛博朋克风调色预设/【后期菌】视频调色预设/CUBE/Tokyo 08_S.cube
# LUT by SparkleStock. Enhanced with VOXCOLOR algorithms.
LUT_3D_SIZE 8
DOMAIN_MIN 0.000000 0.000000 0.000000
DOMAIN_MAX 0.903226 0.903226 0.903226
0.097752 0.070381 0.097752
0.101662 0.074291 0.097752
0.114527 0.080724 0.103175
0.239271 0.136348 0.153628
0.532652 0.302589 0.295652
0.730426 0.404881 0.373727
0.823889 0.453316 0.403368
0.877243 0.478794 0.412701
0.105572 0.078201 0.101662
0.105588 0.078454 0.101662
0.120171 0.081261 0.099233
0.260538 0.146060 0.142073
0.532469 0.280015 0.249048
0.714704 0.362131 0.307427
0.819292 0.421095 0.360019
0.878895 0.475995 0.405475
0.099644 0.080219 0.107590
0.106959 0.084130 0.111752
0.141800 0.108986 0.108794
0.298736 0.193445 0.150434
0.546775 0.312936 0.225519
0.725686 0.384159 0.284084
0.827156 0.428008 0.333548
0.891243 0.471731 0.389949
0.057137 0.130294 0.154511
0.061300 0.134301 0.159226
0.095734 0.168064 0.160695
0.433505 0.323002 0.235259
0.637833 0.409971 0.274128
0.766760 0.452583 0.297820
0.847561 0.473501 0.335851
0.908324 0.502849 0.396341
0.069624 0.274462 0.294895
0.072591 0.282668 0.303102
0.101495 0.291123 0.278620
0.414484 0.382898 0.229958
0.691073 0.450028 0.196630
0.801438 0.478216 0.204764
0.887801 0.488608 0.210704
0.940455 0.502857 0.235255
0.195630 0.456721 0.445369
0.199755 0.459333 0.447558
0.276402 0.478595 0.443209
0.662685 0.515010 0.331802
0.809343 0.547967 0.291449
0.901444 0.567884 0.272472
0.952498 0.575350 0.266739
0.975125 0.582165 0.267341
0.419765 0.586636 0.536058
0.429196 0.591177 0.539085
0.501119 0.608652 0.534418
0.777729 0.600006 0.410012
0.902030 0.623064 0.372453
0.962617 0.645776 0.359238
0.989292 0.655459 0.337727
0.995806 0.665289 0.326859
0.588402 0.677072 0.566203
0.587747 0.675421 0.562647
0.651993 0.679644 0.543825
0.840559 0.675758 0.454992
0.927899 0.696322 0.425111
0.971715 0.712515 0.402363
0.990761 0.726085 0.390523
0.996248 0.748080 0.419293
0.101914 0.074544 0.097752
0.105336 0.078218 0.101662
0.114714 0.080154 0.100274
0.251408 0.136425 0.166542
0.536180 0.277049 0.287770
0.719318 0.362330 0.347825
0.825936 0.436764 0.394665
0.875477 0.476536 0.412347
0.102134 0.071358 0.098240
0.105620 0.078311 0.101710
0.136570 0.088609 0.107924
0.283082 0.145350 0.159179
0.532388 0.251905 0.248828
0.702428 0.323147 0.301321
0.811445 0.377806 0.339604
0.877407 0.445646 0.385390
0.103334 0.084130 0.108632
0.103883 0.088644 0.108648
0.159544 0.129008 0.120077
0.322563 0.207887 0.172799
0.548158 0.306406 0.242205
0.703182 0.354811 0.276755
0.816476 0.398875 0.318924
0.888441 0.447820 0.372349
0.063794 0.134147 0.165476
0.062545 0.139331 0.165326
0.118321 0.201230 0.170670
0.421731 0.337042 0.239927
0.614911 0.410745 0.270597
0.735658 0.434286 0.286628
0.834794 0.456134 0.313585
0.908082 0.486462 0.367302
0.076623 0.287514 0.306434
0.077827 0.289263 0.307601
0.119162 0.319251 0.272876
0.413422 0.405871 0.234794
0.658532 0.465199 0.213464
0.771334 0.487216 0.214993
0.871447 0.497727 0.218003
0.936380 0.501860 0.221333
0.210334 0.466804 0.457938
0.201060 0.458061 0.450250
0.281580 0.485354 0.439359
0.627907 0.522336 0.308369
0.770362 0.560616 0.281920
0.865909 0.577559 0.264773
0.934679 0.581421 0.257367
0.967211 0.591307 0.254553
0.419301 0.586327 0.538145
0.424534 0.588023 0.539605
0.483810 0.594273 0.523443
0.773385 0.604021 0.409709
0.883443 0.626802 0.361193
0.948544 0.649046 0.350352
0.982610 0.659697 0.328981
0.983693 0.668025 0.303407
0.584732 0.673402 0.562671
0.587739 0.673891 0.563270
0.647632 0.677242 0.544298
0.835226 0.669391 0.453813
0.927989 0.698501 0.428835
0.970938 0.709818 0.403201
0.989183 0.724997 0.392973
0.995620 0.747207 0.412330
0.096238 0.075805 0.104184
0.102577 0.082331 0.107557
0.121033 0.087096 0.114967
0.250916 0.131653 0.182707
0.524478 0.262109 0.306243
0.712174 0.354502 0.375440
0.818213 0.418951 0.404572
0.875404 0.480841 0.424586
0.102358 0.081672 0.110336
0.096743 0.076088 0.105450
0.139038 0.095075 0.138427
0.290227 0.147817 0.206202
0.526524 0.244523 0.299451
0.690364 0.301947 0.340046
0.806663 0.365076 0.371576
0.874592 0.431481 0.399495
0.094659 0.085887 0.112814
0.095770 0.094220 0.123604
0.160829 0.138692 0.160456
0.320704 0.215348 0.229625
0.541700 0.304728 0.303036
0.696505 0.351935 0.335441
0.805360 0.382970 0.356808
0.885673 0.438846 0.392201
0.058256 0.138744 0.173671
0.060830 0.151172 0.179313
0.123106 0.215792 0.207376
0.408940 0.342711 0.290114
0.604585 0.411473 0.332733
0.725888 0.433720 0.344368
0.824162 0.449374 0.354199
0.900108 0.473562 0.381662
0.072017 0.296144 0.317456
0.078023 0.300242 0.320545
0.118236 0.344284 0.314689
0.388177 0.427039 0.300295
0.649094 0.477629 0.273416
0.756735 0.495625 0.272441
0.848690 0.502661 0.261060
0.929502 0.507881 0.251762
0.200260 0.472219 0.459948
0.193174 0.462547 0.452119
0.232966 0.487602 0.458282
0.577141 0.543383 0.365507
0.751989 0.569537 0.310607
0.843664 0.585016 0.292424
0.905415 0.594599 0.281936
0.951445 0.603424 0.269925
0.409475 0.589078 0.538511
0.412474 0.589066 0.540103
0.450053 0.606852 0.550062
0.736466 0.621551 0.456385
0.874054 0.631142 0.369299
0.934993 0.657195 0.357438
0.944275 0.676611 0.324567
0.967774 0.689941 0.310852
0.585627 0.680254 0.578287
0.585545 0.682574 0.577132
0.614167 0.686839 0.572730
0.812425 0.686142 0.491348
0.926656 0.703274 0.438116
0.969119 0.719201 0.414370
0.968202 0.739288 0.384753
0.977128 0.769033 0.397817
0.058777 0.099139 0.159934
0.058981 0.099343 0.160341
0.072314 0.102952 0.171567
0.216335 0.155752 0.247681
0.487029 0.284943 0.370655
0.685625 0.377495 0.434372
0.791974 0.443897 0.465969
0.842105 0.484938 0.472866
0.061727 0.103049 0.164349
0.062422 0.102999 0.162893
0.098828 0.112220 0.201958
0.250452 0.164042 0.283683
0.496765 0.261299 0.378877
0.671088 0.320137 0.419806
0.789835 0.388297 0.451133
0.847890 0.451230 0.466174
0.056800 0.107745 0.174020
0.061670 0.116723 0.183796
0.116207 0.155744 0.235298
0.293436 0.230632 0.316283
0.521382 0.317684 0.392260
0.680957 0.358938 0.419330
0.790168 0.395867 0.442490
0.860233 0.446313 0.460530
0.036558 0.190963 0.262101
0.035535 0.188539 0.256107
0.100612 0.242744 0.296512
0.348330 0.348067 0.377223
0.587620 0.422011 0.424855
0.706939 0.440794 0.434093
0.802297 0.453052 0.441890
0.883900 0.474450 0.452251
0.070231 0.329658 0.375330
0.074785 0.334151 0.375786
0.111604 0.378392 0.394979
0.245364 0.447129 0.423772
0.654784 0.515249 0.426259
0.750477 0.525980 0.415350
0.834541 0.530353 0.410098
0.921636 0.532378 0.383763
0.179517 0.494577 0.504920
0.169714 0.485185 0.499902
0.197579 0.504920 0.505128
0.349849 0.564741 0.516505
0.743841 0.594748 0.401944
0.833716 0.600511 0.360325
0.877977 0.614201 0.354949
0.942766 0.620407 0.347801
0.334199 0.592060 0.578772
0.347783 0.601041 0.585670
0.369158 0.610068 0.590380
0.550708 0.670997 0.598049
0.864972 0.662101 0.434733
0.913874 0.684950 0.404565
0.920753 0.705687 0.385643
0.956744 0.721654 0.380961
0.472357 0.687342 0.643774
0.474718 0.691046 0.647486
0.503207 0.698941 0.646507
0.736650 0.734502 0.597947
0.926923 0.724697 0.478051
0.955874 0.751749 0.455560
0.946491 0.780714 0.445137
0.965644 0.803578 0.455532
0.026361 0.163592 0.278119
0.022639 0.156081 0.275275
0.033673 0.164357 0.286574
0.126436 0.197745 0.317891
0.414577 0.335721 0.435759
0.650300 0.445821 0.515413
0.747682 0.494548 0.540725
0.806581 0.520845 0.546575
0.025417 0.160508 0.276231
0.025434 0.160548 0.276467
0.053081 0.173532 0.308834
0.174433 0.199672 0.360489
0.439401 0.302796 0.453270
0.646961 0.383626 0.511520
0.746747 0.432286 0.526626
0.813269 0.504661 0.547866
0.029018 0.183647 0.301954
0.029058 0.182255 0.300253
0.067529 0.202950 0.338381
0.205049 0.244698 0.394202
0.482646 0.348796 0.478644
0.658024 0.399890 0.515646
0.759796 0.439361 0.533127
0.826423 0.484007 0.545592
0.034951 0.268660 0.372844
0.038352 0.273050 0.379809
0.074012 0.296648 0.403832
0.192553 0.349592 0.457590
0.547084 0.435377 0.512690
0.693246 0.468470 0.538200
0.782008 0.482771 0.541888
0.857082 0.495732 0.552087
0.076529 0.400560 0.473969
0.078837 0.402136 0.474275
0.100156 0.423258 0.488568
0.180325 0.467465 0.522356
0.532567 0.529008 0.552203
0.738565 0.552868 0.548019
0.814184 0.554061 0.543858
0.892525 0.561134 0.542046
0.144729 0.523005 0.565027
0.142506 0.523906 0.564113
0.152813 0.532404 0.569441
0.243089 0.569281 0.592721
0.476110 0.635541 0.611469
0.834601 0.632608 0.482731
0.877955 0.633753 0.455448
0.942913 0.639095 0.454285
0.288767 0.619646 0.628085
0.287179 0.617028 0.626616
0.307547 0.627169 0.633084
0.435491 0.665535 0.657138
0.674402 0.733077 0.659620
0.893721 0.717068 0.489851
0.909818 0.728589 0.467902
0.952223 0.740222 0.473209
0.430506 0.700525 0.673386
0.431152 0.699667 0.672882
0.446939 0.705261 0.674672
0.548950 0.742452 0.693246
0.830817 0.792929 0.649618
0.938753 0.778370 0.519737
0.934620 0.804955 0.520857
0.959610 0.825498 0.538669
0.020812 0.230316 0.378772
0.018505 0.227756 0.376213
0.028017 0.236854 0.385652
0.097255 0.262410 0.402668
0.341437 0.370761 0.474904
0.547047 0.456050 0.537714
0.665749 0.505200 0.567794
0.747710 0.532587 0.586697
0.018252 0.226495 0.374952
0.023284 0.230153 0.378685
0.026646 0.233507 0.383334
0.107973 0.256952 0.414377
0.355234 0.348580 0.490826
0.550337 0.422572 0.542396
0.665232 0.486790 0.569627
0.746107 0.531928 0.586258
0.026093 0.248100 0.391438
0.023872 0.243119 0.389006
0.036853 0.253898 0.405898
0.132960 0.282323 0.447514
0.395374 0.370169 0.514512
0.579808 0.434980 0.561810
0.681528 0.489434 0.579420
0.771395 0.512745 0.596074
0.048300 0.323156 0.456839
0.046140 0.323465 0.456904
0.057433 0.330950 0.467476
0.132259 0.376237 0.515903
0.451886 0.442566 0.560777
0.632309 0.494376 0.591888
0.729288 0.513062 0.607730
0.816986 0.521126 0.621669
0.085464 0.448669 0.550079
0.085756 0.446791 0.547696
0.091331 0.457213 0.559009
0.129010 0.494715 0.591771
0.310046 0.534560 0.630311
0.689018 0.575482 0.630650
0.796064 0.585278 0.640027
0.870208 0.587269 0.645033
0.105893 0.561691 0.639485
0.104215 0.556480 0.631742
0.108553 0.562625 0.640322
0.155053 0.586711 0.660518
0.342315 0.644111 0.696758
0.665828 0.676293 0.682313
0.847909 0.674337 0.646451
0.922531 0.672576 0.633093
0.180921 0.638192 0.675022
0.183136 0.635386 0.674915
0.192978 0.640852 0.676804
0.349408 0.669473 0.695472
0.537646 0.726923 0.725247
0.770085 0.775381 0.699391
0.910369 0.749683 0.574268
0.952519 0.752790 0.570095
0.358900 0.698006 0.702860
0.367644 0.701823 0.706514
0.379039 0.703384 0.705304
0.493023 0.741079 0.729190
0.670743 0.795972 0.752510
0.877594 0.829555 0.694267
0.929713 0.826868 0.622872
0.962089 0.836700 0.622463
0.025857 0.275218 0.442468
0.025702 0.276268 0.443673
0.027301 0.275080 0.444922
0.082071 0.307467 0.468537
0.338272 0.383415 0.506140
0.499809 0.451770 0.555970
0.584834 0.490362 0.585717
0.663597 0.522688 0.607574
0.021064 0.270425 0.437830
0.022870 0.272323 0.441913
0.029017 0.278489 0.448038
0.082444 0.308480 0.469935
0.335541 0.382368 0.505183
0.497405 0.450557 0.555674
0.582908 0.487828 0.584497
0.666515 0.523527 0.607317
0.028184 0.283360 0.451997
0.026622 0.279341 0.446793
0.037268 0.291565 0.456428
0.084131 0.325271 0.485085
0.368400 0.400657 0.525551
0.526165 0.464930 0.571757
0.603658 0.502361 0.596096
0.680634 0.519726 0.614610
0.054570 0.356317 0.504435
0.054196 0.354501 0.504921
0.059426 0.361170 0.510408
0.098255 0.402013 0.543305
0.382150 0.453898 0.579068
0.585199 0.515351 0.613208
0.655634 0.527821 0.639430
0.743544 0.535710 0.662488
0.083348 0.479046 0.603058
0.081272 0.474192 0.599286
0.087916 0.484508 0.608244
0.111681 0.517776 0.642240
0.259070 0.565334 0.684841
0.623472 0.586482 0.676446
0.748391 0.603848 0.696221
0.825520 0.606593 0.709781
0.093052 0.582913 0.691118
0.092688 0.584653 0.691034
0.100722 0.588209 0.696298
0.145360 0.612657 0.716668
0.309618 0.656801 0.746859
0.537915 0.687974 0.758332
0.811155 0.699381 0.735627
0.900823 0.700545 0.731369
0.133272 0.656098 0.728534
0.127018 0.654153 0.728087
0.135814 0.661426 0.735603
0.240389 0.681387 0.743003
0.438093 0.729181 0.773354
0.663343 0.773953 0.779054
0.884537 0.795337 0.725766
0.956787 0.772257 0.672772
0.252454 0.711864 0.749240
0.243084 0.704956 0.742563
0.280070 0.712488 0.746686
0.420554 0.746329 0.766184
0.610918 0.797681 0.801319
0.780132 0.835390 0.800066
0.920420 0.847658 0.732427
0.959418 0.849907 0.720362
0.029515 0.300318 0.480182
0.030914 0.300066 0.481695
0.032794 0.303748 0.481467
0.074686 0.332193 0.505912
0.345746 0.398371 0.541530
0.520344 0.474502 0.590856
0.588516 0.501917 0.612587
0.651085 0.531220 0.632674
0.029136 0.300294 0.481809
0.027615 0.298337 0.478421
0.034521 0.306961 0.484452
0.077051 0.334554 0.506960
0.345267 0.397926 0.540351
0.517768 0.471275 0.590030
0.590020 0.502339 0.613062
0.647821 0.528993 0.630717
0.033880 0.313310 0.493600
0.034189 0.314519 0.491311
0.043665 0.321244 0.499661
0.085383 0.351829 0.524901
0.375102 0.414738 0.560859
0.535782 0.480561 0.601879
0.606916 0.513022 0.628003
0.661254 0.537139 0.642018
0.054273 0.382882 0.544797
0.054030 0.385675 0.546167
0.061980 0.394860 0.554679
0.091325 0.433422 0.590994
0.348444 0.483198 0.628124
0.588273 0.531898 0.639727
0.648628 0.554980 0.659060
0.703660 0.570468 0.679068
0.073787 0.501469 0.652021
0.073215 0.497784 0.646271
0.079668 0.510087 0.658449
0.107343 0.543958 0.694865
0.245647 0.587116 0.736171
0.604186 0.609345 0.718667
0.712053 0.628320 0.732178
0.781036 0.638802 0.751441
0.082107 0.601137 0.738242
0.080427 0.600792 0.738502
0.088145 0.607509 0.744076
0.135451 0.633448 0.763363
0.300794 0.672446 0.788340
0.495587 0.711832 0.814624
0.730295 0.718735 0.802384
0.849197 0.728715 0.802275
0.098329 0.671848 0.777095
0.096438 0.671018 0.775416
0.104281 0.672850 0.778243
0.206440 0.700681 0.793512
0.414597 0.742497 0.821295
0.586774 0.780113 0.837395
0.802594 0.810862 0.818035
0.922785 0.811316 0.798034
0.167970 0.720254 0.790635
0.163962 0.720600 0.792816
0.189781 0.726712 0.794173
0.325586 0.753051 0.806316
0.555885 0.801998 0.833910
0.730765 0.841635 0.850424
0.877577 0.861551 0.826242
0.942081 0.865974 0.806039
