其他预设/【236】赛博朋克风调色预设/【后期菌】视频调色预设/CUBE/Tokyo 07.cube
# LUT by SparkleStock. Enhanced with VOXCOLOR algorithms.
LUT_3D_SIZE 5
DOMAIN_MIN 0.000000 0.000000 0.000000
DOMAIN_MAX 0.903226 0.903226 0.903226
0.187683 0.046921 0.058651
0.205972 0.049317 0.060165
0.582979 0.079589 0.041623
0.789329 0.151988 0.011100
0.848106 0.189449 0.000000
0.189197 0.050831 0.064958
0.227642 0.056165 0.066426
0.594798 0.082815 0.044309
0.794509 0.157160 0.010461
0.856211 0.204512 0.001314
0.129158 0.192855 0.182386
0.131164 0.201716 0.193424
0.758049 0.214427 0.010648
0.870525 0.269494 0.003910
0.915461 0.328889 0.003910
0.475010 0.566708 0.511714
0.550599 0.568648 0.474327
0.935104 0.479266 0.015608
0.971084 0.525162 0.018391
0.984580 0.564498 0.026960
0.841926 0.747832 0.556365
0.871315 0.736114 0.502206
0.989317 0.655589 0.056340
1.000000 0.714123 0.088495
1.000000 0.760612 0.205411
0.182007 0.050831 0.064958
0.205631 0.053227 0.065543
0.568709 0.076309 0.046416
0.784292 0.150475 0.010217
0.845710 0.201326 0.002144
0.175546 0.053227 0.070336
0.215967 0.058616 0.070932
0.583025 0.086900 0.054115
0.792367 0.163264 0.012361
0.852391 0.207514 0.004960
0.109661 0.225449 0.223684
0.121386 0.230529 0.227110
0.758229 0.219871 0.013207
0.877478 0.282314 0.008064
0.920896 0.337315 0.006807
0.468350 0.580338 0.535309
0.514242 0.595050 0.536121
0.940183 0.486641 0.017848
0.973187 0.530583 0.021700
0.985511 0.575918 0.026561
0.840665 0.747653 0.555523
0.853721 0.743418 0.535717
0.986656 0.651328 0.057581
1.000000 0.715914 0.090074
0.993760 0.756840 0.205691
0.066850 0.116167 0.171034
0.068705 0.115626 0.172889
0.313404 0.116842 0.186288
0.644181 0.113506 0.173150
0.742828 0.176059 0.140046
0.065767 0.124296 0.180787
0.071996 0.132204 0.192350
0.341331 0.134595 0.206527
0.657657 0.126420 0.172798
0.753944 0.189917 0.153128
0.011836 0.455891 0.577116
0.012711 0.461905 0.583878
0.266700 0.370740 0.489623
0.764467 0.328599 0.298099
0.865857 0.425855 0.277624
0.247116 0.657193 0.692509
0.253127 0.655391 0.689572
0.596980 0.711175 0.660701
0.980187 0.573359 0.029021
0.984802 0.617651 0.034199
0.660696 0.797316 0.752434
0.669044 0.801311 0.753687
0.921777 0.797004 0.594443
0.991331 0.781913 0.391741
0.988763 0.824653 0.545916
0.001261 0.269416 0.502381
0.000875 0.271670 0.504879
0.029340 0.292722 0.538694
0.187822 0.326240 0.575020
0.431967 0.354587 0.573425
0.000488 0.275747 0.507475
0.000244 0.282338 0.519975
0.030781 0.308932 0.562003
0.214579 0.337839 0.583277
0.436612 0.368541 0.584006
0.023790 0.488856 0.699605
0.023914 0.490927 0.698891
0.084157 0.546409 0.738352
0.424100 0.569695 0.716500
0.578707 0.621175 0.730615
0.216189 0.708504 0.794928
0.230816 0.712935 0.796962
0.395220 0.767682 0.824828
0.768683 0.793239 0.766393
0.959843 0.749891 0.611108
0.544671 0.801914 0.802606
0.542873 0.801796 0.801092
0.707421 0.848698 0.824253
0.937683 0.861601 0.739496
0.984573 0.864806 0.694359
0.003910 0.320247 0.624476
0.003910 0.320447 0.624675
0.019087 0.337926 0.645076
0.167730 0.349607 0.643400
0.333955 0.425441 0.681361
0.005908 0.328206 0.633748
0.005798 0.333279 0.640303
0.021626 0.348749 0.652433
0.180361 0.357775 0.650006
0.343012 0.432714 0.687515
0.038848 0.509843 0.755673
0.039825 0.512939 0.756018
0.119587 0.563234 0.789095
0.427152 0.582334 0.774633
0.523014 0.648204 0.799793
0.269392 0.718509 0.839814
0.273452 0.719878 0.840520
0.415104 0.771183 0.868492
0.574612 0.833915 0.902600
0.736453 0.843581 0.879210
0.445793 0.814303 0.860805
0.449228 0.815593 0.862892
0.597290 0.861968 0.887883
0.795353 0.904798 0.899335
0.947335 0.888918 0.816496
