其他预设/【236】赛博朋克风调色预设/【后期菌】视频调色预设/CUBE/Tokyo 01_S.cube
# LUT by SparkleStock. Enhanced with VOXCOLOR algorithms.
LUT_3D_SIZE 8
DOMAIN_MIN 0.000000 0.000000 0.000000
DOMAIN_MAX 0.903226 0.903226 0.903226
0.070381 0.039101 0.070381
0.070381 0.039101 0.078201
0.081229 0.039605 0.076688
0.169773 0.050705 0.064075
0.451550 0.108851 0.087157
0.612115 0.170403 0.122221
0.698767 0.212405 0.156150
0.738625 0.249488 0.185161
0.078201 0.043011 0.078201
0.078201 0.042775 0.078454
0.086213 0.041371 0.075744
0.200878 0.065413 0.062358
0.469652 0.119825 0.075174
0.625530 0.169150 0.104066
0.714814 0.211648 0.146031
0.742697 0.249248 0.184542
0.068868 0.041119 0.085139
0.076216 0.044557 0.088105
0.103692 0.065080 0.072578
0.244007 0.111598 0.060824
0.501355 0.176462 0.076566
0.649901 0.219289 0.104473
0.731366 0.244040 0.143582
0.761707 0.272216 0.192753
0.057011 0.074165 0.119446
0.057565 0.081229 0.124064
0.091710 0.109396 0.118775
0.356304 0.181584 0.092983
0.576684 0.261596 0.116488
0.688970 0.301730 0.150104
0.750400 0.310914 0.183061
0.787995 0.339362 0.244459
0.118816 0.141393 0.188188
0.124374 0.144172 0.190967
0.148273 0.158303 0.170285
0.414984 0.242778 0.124113
0.671230 0.323494 0.103957
0.745236 0.366285 0.130639
0.802158 0.398196 0.179749
0.832515 0.416205 0.230055
0.318608 0.330842 0.336770
0.320634 0.335680 0.342869
0.420436 0.360442 0.344265
0.700077 0.354233 0.212885
0.786030 0.443770 0.240227
0.846507 0.518428 0.290818
0.874895 0.544256 0.334439
0.889290 0.565829 0.380481
0.615268 0.546653 0.499101
0.623398 0.549737 0.502031
0.673081 0.550506 0.486065
0.825024 0.491456 0.343667
0.884900 0.569344 0.401842
0.905118 0.620708 0.458629
0.914659 0.653649 0.496994
0.918435 0.668337 0.518241
0.779996 0.632296 0.548040
0.780903 0.630530 0.545884
0.809409 0.619760 0.517219
0.889136 0.606260 0.449174
0.912608 0.658832 0.512850
0.923659 0.706335 0.556996
0.928904 0.730678 0.581339
0.934506 0.752959 0.606561
0.078201 0.039353 0.070886
0.077729 0.042775 0.081875
0.081481 0.039573 0.077412
0.184636 0.050151 0.073563
0.466116 0.101475 0.097622
0.619764 0.153205 0.124402
0.705859 0.207514 0.161310
0.740769 0.247368 0.187354
0.071358 0.039353 0.071846
0.078045 0.042870 0.081719
0.105303 0.050422 0.083833
0.235371 0.077776 0.089747
0.494549 0.129932 0.112953
0.639417 0.169059 0.134612
0.721290 0.200637 0.156613
0.757375 0.241620 0.180403
0.069372 0.044305 0.088357
0.070664 0.049842 0.088719
0.127596 0.096214 0.094721
0.282842 0.148365 0.103896
0.519771 0.202807 0.127315
0.653649 0.232116 0.147343
0.744235 0.257669 0.173683
0.777136 0.272179 0.196865
0.059961 0.072428 0.130265
0.061773 0.083707 0.130529
0.117743 0.152415 0.133853
0.368414 0.235414 0.129613
0.575073 0.301625 0.159015
0.687415 0.330400 0.180070
0.764140 0.338178 0.199862
0.807383 0.355574 0.244616
0.125374 0.148074 0.194177
0.124219 0.151377 0.197651
0.169741 0.204048 0.177248
0.415737 0.291320 0.146243
0.653101 0.373380 0.140666
0.734104 0.410391 0.162195
0.802089 0.426533 0.191536
0.842871 0.429615 0.224429
0.333735 0.342365 0.352158
0.324523 0.333603 0.343237
0.420550 0.372824 0.343833
0.669283 0.382061 0.207900
0.758821 0.483228 0.239319
0.823134 0.541161 0.285084
0.870322 0.556832 0.325383
0.892871 0.581192 0.356138
0.617510 0.548895 0.498792
0.622624 0.550490 0.500299
0.662014 0.540180 0.473533
0.821797 0.500176 0.345211
0.869633 0.577162 0.387392
0.895602 0.624131 0.446462
0.907975 0.656930 0.480687
0.913822 0.674083 0.478408
0.779959 0.630253 0.542226
0.779217 0.628887 0.544879
0.807405 0.616149 0.513545
0.887768 0.601894 0.445546
0.912614 0.663024 0.512509
0.922300 0.703104 0.553855
0.927655 0.731544 0.583594
0.933386 0.752856 0.600098
0.065462 0.040110 0.084634
0.068803 0.043515 0.088040
0.082307 0.042946 0.088414
0.189742 0.051685 0.100722
0.457372 0.098138 0.132820
0.618080 0.152582 0.166188
0.701404 0.202498 0.182821
0.736582 0.250171 0.200577
0.068396 0.043043 0.087568
0.066585 0.040675 0.085753
0.114348 0.058818 0.116228
0.247040 0.090027 0.147940
0.490992 0.129870 0.180579
0.633691 0.165191 0.200435
0.727418 0.203169 0.210384
0.763800 0.242497 0.213344
0.063444 0.043820 0.097174
0.068526 0.055750 0.104717
0.133703 0.106703 0.136645
0.286368 0.160008 0.170021
0.516124 0.210677 0.201539
0.649893 0.239150 0.219554
0.743379 0.259436 0.230932
0.783039 0.274826 0.230084
0.059408 0.074698 0.134358
0.061410 0.094555 0.144442
0.122987 0.174446 0.181425
0.362686 0.253540 0.199769
0.568019 0.312069 0.231909
0.682349 0.340174 0.254615
0.768294 0.355734 0.265971
0.816633 0.360292 0.276923
0.117168 0.161318 0.206330
0.117527 0.163565 0.211539
0.163534 0.236827 0.232715
0.395873 0.321623 0.217202
0.649161 0.397649 0.212872
0.730129 0.431798 0.228916
0.806139 0.458714 0.246385
0.858640 0.464473 0.256488
0.319759 0.357403 0.358738
0.314729 0.346789 0.350511
0.352787 0.384816 0.368396
0.628966 0.419864 0.266793
0.743652 0.498646 0.275437
0.810813 0.553169 0.311182
0.856984 0.584854 0.340762
0.897558 0.603550 0.357839
0.606024 0.550494 0.500477
0.614093 0.552382 0.501955
0.639425 0.569173 0.514416
0.813932 0.526953 0.386195
0.863551 0.584024 0.395331
0.887264 0.634896 0.450174
0.887913 0.675143 0.456212
0.911064 0.698645 0.456334
0.777196 0.640673 0.560727
0.779580 0.641141 0.559706
0.793593 0.638791 0.554103
0.882148 0.616077 0.477931
0.914135 0.667166 0.525023
0.921234 0.710994 0.563526
0.912988 0.746141 0.560461
0.926621 0.772660 0.559244
0.034434 0.057011 0.130420
0.033880 0.057215 0.131030
0.043068 0.059253 0.143423
0.143688 0.057475 0.147427
0.369459 0.098004 0.185230
0.561907 0.156639 0.220807
0.645035 0.215135 0.242587
0.696639 0.265901 0.250261
0.037538 0.060921 0.140026
0.038085 0.061278 0.135834
0.074753 0.075011 0.182776
0.196278 0.088684 0.207851
0.424904 0.131095 0.254842
0.596064 0.171913 0.278430
0.682514 0.217887 0.284347
0.720694 0.256036 0.273632
0.035919 0.062630 0.138423
0.043611 0.073940 0.151740
0.099110 0.121075 0.213919
0.240674 0.157022 0.243734
0.467875 0.209161 0.289079
0.618794 0.241573 0.307616
0.704835 0.266171 0.316903
0.750407 0.291763 0.308008
0.034898 0.109669 0.199601
0.034583 0.112328 0.198575
0.094893 0.179687 0.250475
0.274469 0.244886 0.284572
0.521076 0.310149 0.324075
0.650242 0.349560 0.351587
0.748080 0.380420 0.368265
0.810069 0.396329 0.370356
0.079747 0.195145 0.261320
0.079009 0.194941 0.262492
0.125888 0.269627 0.304753
0.246323 0.362653 0.357511
0.621837 0.430552 0.349800
0.726353 0.472136 0.368021
0.806512 0.499402 0.383615
0.876337 0.509782 0.372842
0.266198 0.416249 0.428989
0.252459 0.400736 0.419934
0.286944 0.439621 0.438631
0.445091 0.530747 0.477292
0.758963 0.534316 0.366749
0.813605 0.580231 0.385713
0.849620 0.614982 0.410334
0.900564 0.629362 0.425856
0.544622 0.582010 0.557162
0.551128 0.586958 0.561620
0.565481 0.594436 0.566916
0.705328 0.642352 0.579761
0.870873 0.619129 0.458065
0.875278 0.672870 0.495226
0.877914 0.708763 0.499637
0.912987 0.727446 0.498784
0.702226 0.682171 0.627125
0.706210 0.688336 0.631616
0.722924 0.692575 0.631144
0.859555 0.691098 0.596803
0.920310 0.689146 0.559020
0.910607 0.741683 0.587132
0.901592 0.780232 0.580664
0.925534 0.807927 0.579524
0.027370 0.085139 0.181124
0.023648 0.081416 0.177524
0.027370 0.084894 0.185035
0.058533 0.085712 0.200447
0.207950 0.108819 0.225633
0.404568 0.177845 0.274881
0.509786 0.244544 0.310385
0.582376 0.299436 0.337177
0.026174 0.084195 0.179171
0.026088 0.084223 0.181901
0.042857 0.095006 0.213504
0.121399 0.102710 0.264259
0.282781 0.128865 0.298386
0.469975 0.185069 0.333854
0.564116 0.233727 0.347934
0.602890 0.301192 0.353748
0.023460 0.093838 0.199161
0.023428 0.092454 0.198917
0.060526 0.121809 0.248018
0.157934 0.156460 0.309102
0.340728 0.195038 0.348374
0.519733 0.241410 0.383136
0.605467 0.282700 0.391567
0.643239 0.318756 0.390550
0.020559 0.151256 0.258020
0.021573 0.156086 0.267777
0.056905 0.193776 0.309355
0.152189 0.260109 0.383449
0.380902 0.297628 0.400164
0.562523 0.359262 0.446055
0.663797 0.401136 0.470871
0.743839 0.441953 0.495591
0.040456 0.299318 0.379899
0.039863 0.298880 0.378958
0.066605 0.336284 0.408756
0.150288 0.413099 0.468284
0.358052 0.462947 0.493517
0.655512 0.519036 0.510124
0.757313 0.551958 0.533510
0.839220 0.570976 0.547156
0.162551 0.467898 0.498263
0.160225 0.466918 0.498214
0.173509 0.481309 0.511164
0.278498 0.548475 0.559217
0.532232 0.628896 0.601527
0.822997 0.612174 0.488804
0.851610 0.634949 0.505379
0.905293 0.647411 0.520069
0.488596 0.616997 0.608156
0.478658 0.612503 0.602637
0.498854 0.624745 0.611294
0.624642 0.678327 0.650190
0.789195 0.721193 0.650046
0.870509 0.704613 0.560831
0.874627 0.734288 0.567726
0.914937 0.749523 0.570604
0.669989 0.709810 0.660618
0.670279 0.707539 0.659260
0.683653 0.714154 0.662903
0.756998 0.749374 0.685442
0.893801 0.760114 0.653138
0.904783 0.766430 0.619193
0.896873 0.800950 0.620358
0.923578 0.824657 0.622760
0.024722 0.101536 0.236874
0.022162 0.104066 0.238144
0.025063 0.110023 0.244658
0.033811 0.118242 0.251974
0.060051 0.156338 0.283059
0.154385 0.200325 0.318286
0.275580 0.262101 0.355910
0.398632 0.325854 0.401793
0.023460 0.102886 0.235613
0.024640 0.104337 0.239358
0.024400 0.108161 0.245041
0.051115 0.115761 0.272385
0.107824 0.157479 0.324552
0.203906 0.195474 0.344893
0.296850 0.259850 0.371189
0.396073 0.325789 0.402391
0.024217 0.117412 0.253434
0.023438 0.114597 0.250961
0.030630 0.125543 0.273411
0.076448 0.152017 0.316981
0.146456 0.192140 0.366357
0.252770 0.240909 0.394919
0.323305 0.292175 0.407770
0.455635 0.353910 0.457427
0.025967 0.182109 0.325292
0.026323 0.181562 0.325445
0.032111 0.192663 0.343327
0.083567 0.254371 0.417162
0.164496 0.292501 0.441905
0.280253 0.358235 0.477667
0.441387 0.421533 0.525389
0.591507 0.469514 0.566276
0.061678 0.346251 0.451192
0.061115 0.343858 0.449253
0.068724 0.359984 0.460463
0.117015 0.427009 0.520064
0.212894 0.494164 0.575782
0.394978 0.537504 0.589940
0.644426 0.584041 0.629192
0.761925 0.599509 0.643907
0.136307 0.518875 0.577246
0.130708 0.512157 0.570737
0.145309 0.525135 0.580079
0.225765 0.574683 0.620419
0.411644 0.652361 0.677695
0.639176 0.694535 0.690104
0.808408 0.689185 0.656088
0.883105 0.688835 0.650575
0.367119 0.639689 0.650646
0.373840 0.638446 0.649996
0.387474 0.642937 0.655956
0.535634 0.693859 0.685187
0.702948 0.751564 0.727708
0.818603 0.770270 0.695404
0.882320 0.751162 0.636207
0.919757 0.758324 0.642064
0.634294 0.718057 0.693653
0.638777 0.720799 0.698572
0.647206 0.724225 0.699457
0.733235 0.764739 0.728511
0.826995 0.796650 0.745197
0.898170 0.802042 0.694524
0.904397 0.819520 0.675801
0.925758 0.836006 0.683615
0.027370 0.126636 0.287579
0.027216 0.129354 0.287368
0.028070 0.128825 0.292246
0.035528 0.160061 0.331977
0.046542 0.183143 0.334020
0.067606 0.243071 0.382792
0.095400 0.300282 0.422422
0.148497 0.359454 0.455134
0.027370 0.121843 0.282843
0.027317 0.125352 0.285103
0.028749 0.132530 0.295756
0.037258 0.161459 0.333454
0.046252 0.182054 0.333144
0.067009 0.246739 0.384048
0.094026 0.299765 0.420436
0.151598 0.361644 0.459387
0.027061 0.136405 0.300949
0.025291 0.134823 0.297113
0.028739 0.148480 0.312745
0.037672 0.178484 0.353589
0.057037 0.201095 0.357572
0.084978 0.265569 0.404871
0.110627 0.327124 0.442296
0.183481 0.384082 0.485091
0.033673 0.217780 0.386670
0.033767 0.217338 0.382641
0.037460 0.223402 0.390964
0.055559 0.263394 0.426905
0.094793 0.302158 0.454540
0.142109 0.372718 0.488203
0.259918 0.435811 0.548814
0.409961 0.484553 0.602442
0.086274 0.379883 0.500892
0.080846 0.370173 0.493793
0.091414 0.385654 0.507912
0.127472 0.448422 0.559543
0.244640 0.531371 0.624397
0.373454 0.556096 0.630534
0.528998 0.598379 0.679975
0.636346 0.616609 0.707367
0.187171 0.544252 0.622596
0.195266 0.549139 0.624483
0.217862 0.561089 0.634139
0.337033 0.614021 0.679687
0.462517 0.677548 0.722690
0.585289 0.719392 0.757910
0.724095 0.716063 0.742414
0.821952 0.719001 0.740250
0.390913 0.664594 0.697884
0.383297 0.662306 0.696585
0.411877 0.674196 0.706468
0.501581 0.712551 0.731450
0.623401 0.761544 0.770361
0.749070 0.793237 0.780139
0.880465 0.784612 0.720509
0.923944 0.773115 0.697234
0.599176 0.746225 0.746298
0.586196 0.738304 0.737374
0.614400 0.748960 0.746694
0.692638 0.778191 0.765965
0.797362 0.817268 0.793378
0.861672 0.828043 0.784723
0.916896 0.827205 0.733111
0.932245 0.837850 0.738597
0.031281 0.152114 0.337275
0.032794 0.153514 0.338675
0.031785 0.155772 0.341942
0.040956 0.187773 0.383528
0.054615 0.208544 0.384700
0.080781 0.264619 0.422532
0.109596 0.315462 0.457014
0.162917 0.375236 0.494475
0.032908 0.152342 0.337389
0.031258 0.150247 0.335423
0.033064 0.159129 0.346780
0.040568 0.189452 0.384465
0.054455 0.208402 0.384649
0.080875 0.260156 0.419012
0.111177 0.315984 0.457583
0.159114 0.372540 0.491721
0.033880 0.165008 0.359295
0.033568 0.164629 0.358593
0.037064 0.173238 0.370998
0.048462 0.206861 0.403708
0.064028 0.224290 0.404680
0.094901 0.279122 0.440256
0.134141 0.343618 0.479550
0.192458 0.401384 0.514319
0.048272 0.242892 0.422918
0.049818 0.242617 0.421219
0.054110 0.254036 0.431453
0.074892 0.300928 0.474068
0.129903 0.370813 0.524860
0.170641 0.398290 0.520313
0.249697 0.457071 0.561020
0.343668 0.503064 0.600507
0.113595 0.418979 0.554444
0.108834 0.413301 0.547018
0.125105 0.435504 0.565407
0.204655 0.501426 0.621702
0.358238 0.580727 0.681165
0.434287 0.599339 0.679699
0.516930 0.630989 0.705147
0.596555 0.651858 0.741397
0.292299 0.585937 0.672524
0.294288 0.585168 0.670603
0.316943 0.594920 0.682044
0.421856 0.646066 0.720779
0.521796 0.701309 0.761405
0.599490 0.743415 0.793821
0.661423 0.751740 0.803722
0.727017 0.753923 0.811447
0.450899 0.687057 0.734767
0.449414 0.686160 0.734033
0.469075 0.695040 0.740752
0.540226 0.734468 0.772776
0.618865 0.776790 0.803331
0.700282 0.812457 0.828398
0.826710 0.821640 0.810361
0.886169 0.812206 0.796004
0.559949 0.753130 0.774027
0.556460 0.749679 0.774504
0.579649 0.760011 0.780658
0.646263 0.787725 0.797771
0.755070 0.827427 0.822036
0.840651 0.847497 0.831686
0.895081 0.850496 0.808888
0.929630 0.849005 0.791725
