其他预设/【245】绿橙森系复古预设3款/2.LR预设文件/绿橙森系复古[]-2.lrtemplate
s = {
	id = "F3B99CE0-F972-4848-8135-28A40808B62E",
	internalName = "2.amara",
	title = "绿橙森系复古[素锦印象]-2",
	type = "Develop",
	value = {
		settings = {
			AutoLateralCA = 0,
			Blacks2012 = -5,
			BlueHue = -11,
			BlueSaturation = 0,
			CameraProfile = "Embedded",
			ChromaticAberrationB = 0,
			ChromaticAberrationR = 0,
			Clarity2012 = 10,
			ColorNoiseReduction = 0,
			ColorNoiseReductionDetail = 50,
			ColorNoiseReductionSmoothness = 50,
			Contrast2012 = -20,
			ConvertToGrayscale = false,
			CropConstrainToWarp = 0,
			Defringe = 0,
			DefringeGreenAmount = 0,
			DefringeGreenHueHi = 60,
			DefringeGreenHueLo = 40,
			DefringePurpleAmount = 0,
			DefringePurpleHueHi = 70,
			DefringePurpleHueLo = 30,
			Dehaze = 0,
			EnableCalibration = true,
			EnableCircularGradientBasedCorrections = true,
			EnableColorAdjustments = true,
			EnableDetail = true,
			EnableEffects = true,
			EnableGradientBasedCorrections = true,
			EnableLensCorrections = true,
			EnableSplitToning = true,
			EnableTransform = true,
			Exposure2012 = 0,
			GrainAmount = 15,
			GrainFrequency = 48,
			GrainSize = 37,
			GreenHue = 44,
			GreenSaturation = 0,
			Highlights2012 = -51,
			HueAdjustmentAqua = 25,
			HueAdjustmentBlue = -28,
			HueAdjustmentGreen = -22,
			HueAdjustmentMagenta = 20,
			HueAdjustmentOrange = -4,
			HueAdjustmentPurple = 20,
			HueAdjustmentRed = 1,
			HueAdjustmentYellow = -15,
			IncrementalTemperature = 15,
			IncrementalTint = -5,
			LensManualDistortionAmount = 0,
			LensProfileEnable = 0,
			LensProfileSetup = "LensDefaults",
			LuminanceAdjustmentAqua = -18,
			LuminanceAdjustmentBlue = 21,
			LuminanceAdjustmentGreen = 41,
			LuminanceAdjustmentMagenta = 0,
			LuminanceAdjustmentOrange = -25,
			LuminanceAdjustmentPurple = 0,
			LuminanceAdjustmentRed = -54,
			LuminanceAdjustmentYellow = 19,
			LuminanceNoiseReductionContrast = 0,
			LuminanceNoiseReductionDetail = 50,
			LuminanceSmoothing = 0,
			ParametricDarks = 0,
			ParametricHighlightSplit = 75,
			ParametricHighlights = 0,
			ParametricLights = 0,
			ParametricMidtoneSplit = 50,
			ParametricShadowSplit = 25,
			ParametricShadows = 0,
			PerspectiveAspect = 0,
			PerspectiveHorizontal = 0,
			PerspectiveRotate = 0,
			PerspectiveScale = 100,
			PerspectiveUpright = 0,
			PerspectiveVertical = 0,
			PerspectiveX = 0,
			PerspectiveY = 0,
			PostCropVignetteAmount = 0,
			PostCropVignetteFeather = 50,
			PostCropVignetteHighlightContrast = 0,
			PostCropVignetteMidpoint = 50,
			PostCropVignetteRoundness = 0,
			PostCropVignetteStyle = 1,
			ProcessVersion = "6.7",
			RedHue = 26,
			RedSaturation = 50,
			Saturation = -31,
			SaturationAdjustmentAqua = 36,
			SaturationAdjustmentBlue = -21,
			SaturationAdjustmentGreen = -72,
			SaturationAdjustmentMagenta = -35,
			SaturationAdjustmentOrange = -29,
			SaturationAdjustmentPurple = -35,
			SaturationAdjustmentRed = -11,
			SaturationAdjustmentYellow = -76,
			ShadowTint = -2,
			Shadows2012 = 51,
			SharpenDetail = 25,
			SharpenEdgeMasking = 0,
			SharpenRadius = 1,
			Sharpness = 50,
			SplitToningBalance = 0,
			SplitToningHighlightHue = 0,
			SplitToningHighlightSaturation = 0,
			SplitToningShadowHue = 0,
			SplitToningShadowSaturation = 0,
			ToneCurveName2012 = "Custom",
			ToneCurvePV2012 = {
				0,
				28,
				54,
				62,
				176,
				164,
				255,
				224,
			},
			ToneCurvePV2012Blue = {
				0,
				0,
				39,
				13,
				87,
				65,
				123,
				124,
				183,
				199,
				255,
				255,
			},
			ToneCurvePV2012Green = {
				0,
				0,
				40,
				14,
				83,
				59,
				123,
				126,
				172,
				185,
				255,
				255,
			},
			ToneCurvePV2012Red = {
				0,
				0,
				40,
				12,
				84,
				58,
				123,
				125,
				186,
				196,
				255,
				255,
			},
			UprightCenterMode = 0,
			UprightCenterNormX = 0.5,
			UprightCenterNormY = 0.5,
			UprightFocalLength35mm = 35,
			UprightFocalMode = 0,
			UprightFourSegmentsCount = 0,
			UprightPreview = false,
			UprightTransformCount = 6,
			UprightVersion = 151388160,
			Vibrance = 21,
			VignetteAmount = 0,
			VignetteMidpoint = 50,
			WhiteBalance = "Custom",
			Whites2012 = 35,
			orientation = "AB",
		},
		uuid = "77709F85-3F0B-4DB2-B1D4-E4BF1E3A45E1",
	},
	version = 0,
}
