其他预设/【213】赛博朋克科幻预设52款/2.LR预设文件/赛博朋克科幻-10 强度1.lrtemplate
s = {
	id = "1D2BEBCE-8327-4E65-A427-37986232CD4D",
	internalName = "赛博朋克科幻[素锦印象]-10 强度1",
	title = "赛博朋克科幻[素锦印象]-10 强度1",
	type = "Develop",
	value = {
		settings = {
			BlueHue = 0,
			BlueSaturation = 10,
			CameraProfile = "Embedded",
			Clarity2012 = 7,
			ConvertToGrayscale = false,
			Dehaze = 0,
			EnableCalibration = true,
			EnableColorAdjustments = true,
			EnableEffects = true,
			GreenHue = 15,
			GreenSaturation = 0,
			HueAdjustmentAqua = 0,
			HueAdjustmentBlue = 0,
			HueAdjustmentGreen = 0,
			HueAdjustmentMagenta = 0,
			HueAdjustmentOrange = 0,
			HueAdjustmentPurple = 0,
			HueAdjustmentRed = 0,
			HueAdjustmentYellow = 0,
			LuminanceAdjustmentAqua = 0,
			LuminanceAdjustmentBlue = -12,
			LuminanceAdjustmentGreen = 4,
			LuminanceAdjustmentMagenta = 0,
			LuminanceAdjustmentOrange = 4,
			LuminanceAdjustmentPurple = -4,
			LuminanceAdjustmentRed = 4,
			LuminanceAdjustmentYellow = 4,
			ParametricDarks = 0,
			ParametricHighlightSplit = 75,
			ParametricHighlights = 0,
			ParametricLights = 0,
			ParametricMidtoneSplit = 50,
			ParametricShadowSplit = 25,
			ParametricShadows = 0,
			ProcessVersion = "6.7",
			RedHue = -10,
			RedSaturation = 20,
			SaturationAdjustmentAqua = 12,
			SaturationAdjustmentBlue = 12,
			SaturationAdjustmentGreen = 0,
			SaturationAdjustmentMagenta = -20,
			SaturationAdjustmentOrange = -20,
			SaturationAdjustmentPurple = 0,
			SaturationAdjustmentRed = -20,
			SaturationAdjustmentYellow = -20,
			ShadowTint = 0,
			ToneCurveName2012 = "Custom",
			ToneCurvePV2012 = {
				2,
				2,
				55,
				59,
				255,
				255,
			},
			ToneCurvePV2012Blue = {
				0,
				0,
				255,
				246,
			},
			ToneCurvePV2012Green = {
				0,
				0,
				255,
				255,
			},
			ToneCurvePV2012Red = {
				0,
				0,
				255,
				255,
			},
		},
		uuid = "6672CECF-DCA0-432A-9D47-7D2CCB6E7D4F",
	},
	version = 0,
}
