其他预设/【213】赛博朋克科幻预设52款/2.LR预设文件/赛博朋克科幻-9 强度2.lrtemplate
s = {
	id = "517E4417-5EF2-48B7-8365-D49357B5E0F0",
	internalName = "赛博朋克科幻[素锦印象]-9 强度2",
	title = "赛博朋克科幻[素锦印象]-9 强度2",
	type = "Develop",
	value = {
		settings = {
			BlueHue = 0,
			BlueSaturation = 0,
			CameraProfile = "Embedded",
			Clarity2012 = 0,
			ConvertToGrayscale = false,
			Dehaze = 0,
			EnableCalibration = true,
			EnableColorAdjustments = true,
			EnableEffects = true,
			GreenHue = 40,
			GreenSaturation = -20,
			HueAdjustmentAqua = 0,
			HueAdjustmentBlue = 0,
			HueAdjustmentGreen = 0,
			HueAdjustmentMagenta = 0,
			HueAdjustmentOrange = -16,
			HueAdjustmentPurple = 0,
			HueAdjustmentRed = 0,
			HueAdjustmentYellow = -40,
			LuminanceAdjustmentAqua = 0,
			LuminanceAdjustmentBlue = 24,
			LuminanceAdjustmentGreen = 8,
			LuminanceAdjustmentMagenta = 0,
			LuminanceAdjustmentOrange = 8,
			LuminanceAdjustmentPurple = 4,
			LuminanceAdjustmentRed = 8,
			LuminanceAdjustmentYellow = 16,
			ParametricDarks = 0,
			ParametricHighlightSplit = 75,
			ParametricHighlights = 0,
			ParametricLights = 0,
			ParametricMidtoneSplit = 50,
			ParametricShadowSplit = 25,
			ParametricShadows = 0,
			ProcessVersion = "6.7",
			RedHue = 40,
			RedSaturation = 20,
			SaturationAdjustmentAqua = -40,
			SaturationAdjustmentBlue = -40,
			SaturationAdjustmentGreen = -24,
			SaturationAdjustmentMagenta = 0,
			SaturationAdjustmentOrange = -16,
			SaturationAdjustmentPurple = -24,
			SaturationAdjustmentRed = 0,
			SaturationAdjustmentYellow = 24,
			ShadowTint = 0,
			ToneCurveName2012 = "Custom",
			ToneCurvePV2012 = {
				0,
				0,
				67,
				63,
				119,
				123,
				250,
				241,
			},
			ToneCurvePV2012Blue = {
				0,
				0,
				255,
				255,
			},
			ToneCurvePV2012Green = {
				0,
				0,
				255,
				255,
			},
			ToneCurvePV2012Red = {
				0,
				0,
				255,
				255,
			},
		},
		uuid = "285280B3-0090-448B-9A11-B0B574451923",
	},
	version = 0,
}
