其他预设/【213】赛博朋克科幻预设52款/2.LR预设文件/赛博朋克科幻-4 强度2.lrtemplate
s = {
	id = "F432749F-B08C-4DD0-968E-E1189CEA341B",
	internalName = "赛博朋克科幻[素锦印象]-4 强度2",
	title = "赛博朋克科幻[素锦印象]-4 强度2",
	type = "Develop",
	value = {
		settings = {
			BlueHue = 0,
			BlueSaturation = 0,
			CameraProfile = "Embedded",
			Clarity2012 = 30,
			ConvertToGrayscale = false,
			Dehaze = 0,
			EnableCalibration = true,
			EnableColorAdjustments = true,
			EnableEffects = true,
			GreenHue = 0,
			GreenSaturation = 20,
			HueAdjustmentAqua = -40,
			HueAdjustmentBlue = -24,
			HueAdjustmentGreen = -40,
			HueAdjustmentMagenta = 0,
			HueAdjustmentOrange = -24,
			HueAdjustmentPurple = 0,
			HueAdjustmentRed = -40,
			HueAdjustmentYellow = -8,
			LuminanceAdjustmentAqua = 0,
			LuminanceAdjustmentBlue = 0,
			LuminanceAdjustmentGreen = 16,
			LuminanceAdjustmentMagenta = 0,
			LuminanceAdjustmentOrange = 16,
			LuminanceAdjustmentPurple = 0,
			LuminanceAdjustmentRed = 0,
			LuminanceAdjustmentYellow = 24,
			ParametricDarks = 0,
			ParametricHighlightSplit = 75,
			ParametricHighlights = 0,
			ParametricLights = 0,
			ParametricMidtoneSplit = 50,
			ParametricShadowSplit = 25,
			ParametricShadows = 0,
			ProcessVersion = "6.7",
			RedHue = -40,
			RedSaturation = 20,
			SaturationAdjustmentAqua = 0,
			SaturationAdjustmentBlue = -20,
			SaturationAdjustmentGreen = 0,
			SaturationAdjustmentMagenta = 0,
			SaturationAdjustmentOrange = -12,
			SaturationAdjustmentPurple = -28,
			SaturationAdjustmentRed = -6,
			SaturationAdjustmentYellow = 0,
			ShadowTint = 0,
			ToneCurveName2012 = "Custom",
			ToneCurvePV2012 = {
				0,
				0,
				65,
				56,
				125,
				126,
				255,
				255,
			},
			ToneCurvePV2012Blue = {
				0,
				0,
				255,
				239,
			},
			ToneCurvePV2012Green = {
				0,
				0,
				255,
				255,
			},
			ToneCurvePV2012Red = {
				0,
				0,
				255,
				255,
			},
		},
		uuid = "5FFAFAA9-D68A-4F85-928D-287462280A58",
	},
	version = 0,
}
