其他预设/【213】赛博朋克科幻预设52款/2.LR预设文件/赛博朋克科幻-9 强度1.lrtemplate
s = {
	id = "CA120901-C4B6-4BDD-B3EE-F6A6CA9F1D5C",
	internalName = "赛博朋克科幻[素锦印象]-9 强度1",
	title = "赛博朋克科幻[素锦印象]-9 强度1",
	type = "Develop",
	value = {
		settings = {
			BlueHue = 0,
			BlueSaturation = 0,
			CameraProfile = "Embedded",
			Clarity2012 = 0,
			ConvertToGrayscale = false,
			Dehaze = 0,
			EnableCalibration = true,
			EnableColorAdjustments = true,
			EnableEffects = true,
			GreenHue = 20,
			GreenSaturation = -10,
			HueAdjustmentAqua = 0,
			HueAdjustmentBlue = 0,
			HueAdjustmentGreen = 0,
			HueAdjustmentMagenta = 0,
			HueAdjustmentOrange = -8,
			HueAdjustmentPurple = 0,
			HueAdjustmentRed = 0,
			HueAdjustmentYellow = -20,
			LuminanceAdjustmentAqua = 0,
			LuminanceAdjustmentBlue = 12,
			LuminanceAdjustmentGreen = 4,
			LuminanceAdjustmentMagenta = 0,
			LuminanceAdjustmentOrange = 4,
			LuminanceAdjustmentPurple = 2,
			LuminanceAdjustmentRed = 4,
			LuminanceAdjustmentYellow = 8,
			ParametricDarks = 0,
			ParametricHighlightSplit = 75,
			ParametricHighlights = 0,
			ParametricLights = 0,
			ParametricMidtoneSplit = 50,
			ParametricShadowSplit = 25,
			ParametricShadows = 0,
			ProcessVersion = "6.7",
			RedHue = 20,
			RedSaturation = 10,
			SaturationAdjustmentAqua = -20,
			SaturationAdjustmentBlue = -20,
			SaturationAdjustmentGreen = -12,
			SaturationAdjustmentMagenta = 0,
			SaturationAdjustmentOrange = -8,
			SaturationAdjustmentPurple = -12,
			SaturationAdjustmentRed = 0,
			SaturationAdjustmentYellow = 12,
			ShadowTint = 0,
			ToneCurveName2012 = "Custom",
			ToneCurvePV2012 = {
				0,
				0,
				68,
				66,
				121,
				122,
				253,
				248,
			},
			ToneCurvePV2012Blue = {
				0,
				0,
				255,
				255,
			},
			ToneCurvePV2012Green = {
				0,
				0,
				255,
				255,
			},
			ToneCurvePV2012Red = {
				0,
				0,
				255,
				255,
			},
		},
		uuid = "8D842D3B-9E62-4138-B84B-6C4732247A23",
	},
	version = 0,
}
