其他预设/【213】赛博朋克科幻预设52款/2.LR预设文件/赛博朋克科幻-4 强度1.lrtemplate
s = {
	id = "5D466045-4D2E-44CB-97B3-9A2F1B016171",
	internalName = "赛博朋克科幻[素锦印象]-4 强度1",
	title = "赛博朋克科幻[素锦印象]-4 强度1",
	type = "Develop",
	value = {
		settings = {
			BlueHue = 0,
			BlueSaturation = 0,
			CameraProfile = "Embedded",
			Clarity2012 = 15,
			ConvertToGrayscale = false,
			Dehaze = 0,
			EnableCalibration = true,
			EnableColorAdjustments = true,
			EnableEffects = true,
			GreenHue = 0,
			GreenSaturation = 10,
			HueAdjustmentAqua = -20,
			HueAdjustmentBlue = -12,
			HueAdjustmentGreen = -20,
			HueAdjustmentMagenta = 0,
			HueAdjustmentOrange = -12,
			HueAdjustmentPurple = 0,
			HueAdjustmentRed = -20,
			HueAdjustmentYellow = -4,
			LuminanceAdjustmentAqua = 0,
			LuminanceAdjustmentBlue = 0,
			LuminanceAdjustmentGreen = 8,
			LuminanceAdjustmentMagenta = 0,
			LuminanceAdjustmentOrange = 8,
			LuminanceAdjustmentPurple = 0,
			LuminanceAdjustmentRed = 0,
			LuminanceAdjustmentYellow = 12,
			ParametricDarks = 0,
			ParametricHighlightSplit = 75,
			ParametricHighlights = 0,
			ParametricLights = 0,
			ParametricMidtoneSplit = 50,
			ParametricShadowSplit = 25,
			ParametricShadows = 0,
			ProcessVersion = "6.7",
			RedHue = -20,
			RedSaturation = 10,
			SaturationAdjustmentAqua = 0,
			SaturationAdjustmentBlue = -10,
			SaturationAdjustmentGreen = 0,
			SaturationAdjustmentMagenta = 0,
			SaturationAdjustmentOrange = -6,
			SaturationAdjustmentPurple = -14,
			SaturationAdjustmentRed = -3,
			SaturationAdjustmentYellow = 0,
			ShadowTint = 0,
			ToneCurveName2012 = "Custom",
			ToneCurvePV2012 = {
				0,
				0,
				65,
				60,
				125,
				125,
				255,
				255,
			},
			ToneCurvePV2012Blue = {
				0,
				0,
				255,
				247,
			},
			ToneCurvePV2012Green = {
				0,
				0,
				255,
				255,
			},
			ToneCurvePV2012Red = {
				0,
				0,
				255,
				255,
			},
		},
		uuid = "E5C3256F-A5AF-446D-8809-26150F6F3963",
	},
	version = 0,
}
