其他预设/【213】赛博朋克科幻预设52款/1.LUT预设（视频调色-PR-AE-PS-FCPX-达芬奇用）/赛博朋克科幻__-3 强度3.cube
# Created by Adobe Lightroom plugin Export LUT (1.17.0)
# www.johnrellis.com/lightroom/exportlut.htm
# Preset: 赛博朋克科幻[素锦印象]-3 强度3
# Color profile: /Library/Application Support/Adobe/Color/Profiles/Recommended/AdobeRGB1998.icc
LUT_3D_SIZE 8
DOMAIN_MIN 0.000000 0.000000 0.000000
DOMAIN_MAX 0.903226 0.903226 0.903226
0.064057 0.075776 0.095705
0.123751 0.065492 0.115602
0.237888 0.000000 0.164553
0.419257 0.000000 0.243870
0.629908 0.000000 0.332952
0.788449 0.000000 0.401068
0.909667 0.000000 0.456489
1.000000 0.000000 0.504143
0.000000 0.154177 0.136416
0.100862 0.141085 0.100587
0.238621 0.000000 0.129580
0.417975 0.000000 0.230045
0.628382 0.000000 0.332311
0.787869 0.000000 0.400855
0.909606 0.000000 0.456428
1.000000 0.000000 0.504234
0.000000 0.305455 0.228122
0.000000 0.298161 0.206973
0.178317 0.265812 0.106172
0.411872 0.115602 0.124361
0.630426 0.000000 0.225040
0.790402 0.000000 0.342077
0.911986 0.000000 0.425208
1.000000 0.000000 0.504417
0.000000 0.512444 0.355993
0.000000 0.508965 0.341253
0.000000 0.500084 0.259556
0.302251 0.448646 0.083742
0.607691 0.314946 0.124727
0.793759 0.000000 0.157259
0.918822 0.000000 0.306310
1.000000 0.000000 0.407080
0.000000 0.700710 0.472267
0.000000 0.699275 0.462287
0.000000 0.693446 0.420539
0.000000 0.691920 0.272618
0.440009 0.630488 0.000000
0.753689 0.507958 0.107820
0.913329 0.180484 0.201053
1.000000 0.000000 0.232761
0.000000 0.832090 0.553491
0.000000 0.831571 0.546746
0.000000 0.829221 0.521202
0.000000 0.826139 0.457984
0.000000 0.830442 0.262486
0.555200 0.770474 0.051148
0.869047 0.672114 0.119600
1.000000 0.418799 0.284520
0.000000 0.937835 0.618433
0.000000 0.937682 0.613672
0.000000 0.936492 0.596857
0.000000 0.931243 0.571954
0.000000 0.932464 0.489815
0.000000 0.938079 0.274113
0.658473 0.884306 0.180087
0.964721 0.816434 0.185885
0.000000 1.000000 0.671778
0.000000 1.000000 0.668177
0.000000 1.000000 0.656275
0.000000 1.000000 0.644617
0.311467 1.000000 0.636927
0.317906 1.000000 0.546715
0.377203 1.000000 0.374884
0.758511 0.978668 0.324315
0.037110 0.074891 0.142763
0.123751 0.056245 0.145388
0.240116 0.000000 0.189456
0.420722 0.000000 0.268742
0.628901 0.000000 0.351141
0.787564 0.000000 0.411139
0.909636 0.000000 0.456641
1.000000 0.000000 0.504295
0.000000 0.135256 0.151400
0.113100 0.131472 0.144442
0.229557 0.092439 0.181765
0.413031 0.000000 0.257206
0.626734 0.000000 0.348180
0.787167 0.000000 0.414405
0.909606 0.000000 0.459113
1.000000 0.000000 0.504387
0.000000 0.293339 0.239963
0.000000 0.282628 0.223117
0.182834 0.257359 0.146731
0.408667 0.101289 0.162295
0.624750 0.000000 0.268162
0.786954 0.000000 0.368841
0.910094 0.000000 0.443458
1.000000 0.000000 0.504631
0.000000 0.502251 0.364050
0.000000 0.497169 0.350500
0.000000 0.487556 0.283726
0.304448 0.442237 0.133425
0.608667 0.296361 0.170413
0.792813 0.000000 0.191867
0.916655 0.000000 0.337255
1.000000 0.000000 0.427161
0.000000 0.695003 0.479530
0.000000 0.693599 0.470314
0.000000 0.687709 0.432105
0.000000 0.685359 0.298894
0.442847 0.626825 0.107820
0.754604 0.499367 0.162203
0.912596 0.185885 0.233768
1.000000 0.000000 0.277623
0.000000 0.829435 0.559777
0.000000 0.828916 0.553368
0.000000 0.826505 0.529259
0.000000 0.822080 0.473579
0.000000 0.826841 0.292851
0.559442 0.768368 0.132326
0.869535 0.667506 0.175906
1.000000 0.426642 0.312169
0.000000 0.936736 0.623682
0.000000 0.936553 0.619135
0.000000 0.935332 0.602960
0.000000 0.929900 0.579187
0.000000 0.929870 0.505394
0.021332 0.936217 0.310857
0.663447 0.883024 0.218570
0.964752 0.813443 0.228275
0.000000 1.000000 0.676081
0.000000 1.000000 0.672541
0.000000 1.000000 0.660883
0.000000 1.000000 0.649317
0.347448 1.000000 0.647242
0.352789 1.000000 0.560693
0.396735 1.000000 0.395911
0.763607 0.977722 0.347539
0.000000 0.070222 0.236698
0.116670 0.038270 0.228183
0.233799 0.000000 0.241764
0.409644 0.000000 0.315007
0.625635 0.000000 0.401495
0.787869 0.000000 0.458869
0.910155 0.000000 0.492714
1.000000 0.000000 0.517388
0.000000 0.155886 0.244602
0.102510 0.120790 0.236454
0.229007 0.056519 0.240360
0.408331 0.000000 0.310521
0.625544 0.000000 0.396521
0.787045 0.000000 0.457008
0.910124 0.000000 0.494881
1.000000 0.000000 0.518944
0.000000 0.252354 0.257420
0.005341 0.247410 0.251560
0.208133 0.235996 0.234867
0.397070 0.183627 0.291661
0.614282 0.000000 0.370581
0.781125 0.000000 0.435859
0.908324 0.000000 0.486793
1.000000 0.000000 0.524804
0.000000 0.481392 0.395026
0.000000 0.475654 0.385016
0.000000 0.458778 0.346441
0.318608 0.423438 0.233982
0.607172 0.265660 0.268345
0.782071 0.000000 0.340337
0.908415 0.000000 0.431250
1.000000 0.000000 0.495644
0.000000 0.683192 0.507134
0.000000 0.680262 0.499184
0.000000 0.671168 0.468971
0.063020 0.662898 0.381598
0.456672 0.614221 0.234257
0.757717 0.472297 0.285954
0.909453 0.221286 0.326604
1.000000 0.000000 0.395422
0.000000 0.822873 0.582330
0.000000 0.821622 0.576654
0.000000 0.817777 0.556329
0.000000 0.809689 0.519219
0.138796 0.813535 0.382666
0.576226 0.760922 0.258640
0.870878 0.653193 0.301335
1.000000 0.456397 0.393500
0.000000 0.933532 0.642298
0.000000 0.933165 0.638178
0.000000 0.931609 0.623896
0.000000 0.925750 0.602930
0.261875 0.920409 0.556268
0.283207 0.927886 0.404578
0.681910 0.878325 0.318242
0.964599 0.803738 0.337774
0.000000 1.000000 0.691432
0.000000 1.000000 0.688075
0.000000 1.000000 0.676936
0.000000 1.000000 0.665187
0.413397 1.000000 0.674372
0.446448 1.000000 0.604181
0.455909 1.000000 0.458808
0.780972 0.974517 0.416358
0.000000 0.037110 0.387518
0.113893 0.000000 0.377081
0.261997 0.000000 0.346868
0.408972 0.000000 0.382391
0.601770 0.000000 0.452094
0.775814 0.000000 0.508080
0.910063 0.000000 0.541131
1.000000 0.000000 0.553948
0.000000 0.112856 0.394476
0.086000 0.092287 0.384863
0.261631 0.000000 0.352728
0.406592 0.000000 0.382452
0.599939 0.000000 0.451575
0.774044 0.000000 0.509819
0.909270 0.000000 0.543389
1.000000 0.000000 0.554864
0.000000 0.324254 0.414466
0.000000 0.317021 0.411322
0.207065 0.227970 0.381903
0.396063 0.107912 0.377539
0.601617 0.000000 0.440528
0.777066 0.000000 0.496376
0.910887 0.000000 0.536950
1.000000 0.000000 0.559472
0.000000 0.429541 0.417243
0.000000 0.425299 0.412696
0.123720 0.411627 0.396826
0.363500 0.388861 0.367834
0.588373 0.344793 0.432258
0.765042 0.266361 0.490578
0.899504 0.037598 0.535027
1.000000 0.000000 0.562219
0.000000 0.661524 0.551537
0.000000 0.658595 0.545892
0.000000 0.648371 0.524773
0.260197 0.627680 0.481636
0.491859 0.590417 0.374060
0.756771 0.460090 0.425452
0.897887 0.358038 0.471901
0.998474 0.307012 0.537835
0.000000 0.811795 0.621210
0.000000 0.810483 0.616693
0.000000 0.805631 0.600702
0.000000 0.795010 0.572412
0.378576 0.787167 0.503868
0.610681 0.746883 0.395483
0.872221 0.637720 0.448798
0.994476 0.506432 0.497780
0.000000 0.928313 0.675135
0.000000 0.927886 0.671687
0.000000 0.926024 0.659693
0.000000 0.920073 0.641108
0.433600 0.904295 0.628534
0.456764 0.911742 0.520562
0.714839 0.869902 0.438239
0.964202 0.790341 0.469642
0.000000 1.000000 0.719081
0.000000 1.000000 0.716121
0.000000 1.000000 0.705745
0.000000 1.000000 0.691676
0.378882 1.000000 0.695094
0.554650 0.995575 0.665034
0.559960 1.000000 0.559319
0.807675 0.969451 0.503471
0.000000 0.000000 0.557733
0.086152 0.000000 0.549676
0.309361 0.000000 0.520806
0.433631 0.000000 0.488441
0.606836 0.000000 0.530785
0.755489 0.000000 0.564904
0.897856 0.000000 0.597131
1.000000 0.000000 0.608179
0.000000 0.040497 0.561578
0.074067 0.000000 0.554009
0.306432 0.000000 0.526360
0.435554 0.000000 0.493050
0.605798 0.000000 0.532860
0.754940 0.000000 0.567376
0.897185 0.000000 0.598810
1.000000 0.000000 0.608942
0.000000 0.359411 0.584527
0.000000 0.325963 0.575158
0.206088 0.204807 0.550866
0.425544 0.000000 0.505089
0.599664 0.000000 0.529625
0.753536 0.000000 0.561364
0.897215 0.000000 0.598779
1.000000 0.000000 0.611139
0.000000 0.501366 0.582513
0.000000 0.498085 0.580896
0.132357 0.488960 0.574609
0.384649 0.394873 0.538201
0.582971 0.252811 0.523064
0.755276 0.000000 0.552819
0.901488 0.000000 0.585840
1.000000 0.000000 0.602350
0.000000 0.605066 0.574701
0.000000 0.602808 0.572076
0.000000 0.594781 0.562371
0.326482 0.579553 0.543206
0.545006 0.552544 0.511315
0.738949 0.529900 0.568933
0.882170 0.489143 0.613367
0.991974 0.398077 0.637263
0.000000 0.789853 0.669642
0.000000 0.791348 0.668757
0.000000 0.787503 0.658350
0.073121 0.775601 0.636378
0.482277 0.756374 0.604242
0.656733 0.725704 0.523369
0.873960 0.636469 0.575952
0.987121 0.569757 0.603357
0.000000 0.920043 0.721248
0.000000 0.919554 0.718624
0.000000 0.917388 0.709255
0.000000 0.911437 0.693202
0.403601 0.898772 0.674464
0.596399 0.889738 0.629633
0.754025 0.858488 0.548455
0.966064 0.776211 0.589654
0.000000 1.000000 0.758999
0.000000 1.000000 0.756619
0.000000 1.000000 0.748135
0.000000 1.000000 0.734005
0.238895 1.000000 0.723201
0.654170 0.983642 0.731746
0.662043 0.990692 0.648890
0.838407 0.963287 0.588190
0.000000 0.000000 0.691798
0.000000 0.000000 0.687221
0.308263 0.000000 0.670649
0.485756 0.000000 0.638758
0.606043 0.000000 0.619623
0.766323 0.000000 0.649378
0.885710 0.000000 0.661463
1.000000 0.000000 0.671412
0.000000 0.000000 0.692622
0.071351 0.000000 0.688258
0.318944 0.000000 0.672358
0.488594 0.000000 0.641291
0.607202 0.000000 0.622400
0.765988 0.000000 0.651179
0.885679 0.000000 0.663050
1.000000 0.000000 0.672206
0.000000 0.286503 0.704952
0.000000 0.224887 0.702358
0.200717 0.158083 0.687037
0.453315 0.000000 0.656519
0.602747 0.000000 0.630335
0.764157 0.000000 0.653071
0.885740 0.000000 0.668330
1.000000 0.000000 0.674556
0.000000 0.545403 0.719387
0.000000 0.545617 0.718837
0.225193 0.518303 0.707485
0.396612 0.386725 0.679438
0.588617 0.234379 0.639216
0.756985 0.000000 0.650599
0.884764 0.000000 0.658137
1.000000 0.000000 0.675288
0.000000 0.642298 0.704250
0.000000 0.641779 0.703548
0.000000 0.642023 0.700679
0.429786 0.647944 0.694606
0.582208 0.573693 0.663416
0.737118 0.423865 0.645106
0.882902 0.242893 0.654261
1.000000 0.000000 0.660578
0.000000 0.738979 0.694423
0.000000 0.738186 0.693202
0.000000 0.735348 0.688502
0.279515 0.729488 0.679103
0.532403 0.718135 0.663325
0.701350 0.692744 0.634180
0.862638 0.682826 0.686091
0.976959 0.647944 0.716884
0.000000 0.888945 0.762844
0.000000 0.889067 0.762112
0.000000 0.892973 0.760800
0.000000 0.897948 0.756466
0.399542 0.884581 0.736599
0.658473 0.866880 0.712398
0.794369 0.842344 0.648524
0.969604 0.773495 0.694118
0.000000 1.000000 0.810666
0.000000 1.000000 0.808957
0.000000 1.000000 0.802579
0.000000 1.000000 0.791012
0.155062 1.000000 0.776516
0.595514 0.986633 0.765347
0.758267 0.975708 0.737026
0.872801 0.955444 0.672724
0.000000 0.000000 0.797757
0.000000 0.000000 0.795346
0.259068 0.000000 0.786404
0.471931 0.000000 0.769070
0.637507 0.000000 0.743954
0.758297 0.000000 0.732753
0.896178 0.000000 0.747158
0.996002 0.000000 0.742306
0.000000 0.000000 0.798459
0.000000 0.000000 0.796078
0.266636 0.000000 0.787411
0.473152 0.000000 0.770382
0.637629 0.000000 0.745418
0.758053 0.000000 0.734340
0.896117 0.000000 0.748501
0.996216 0.000000 0.743221
0.000000 0.162325 0.805417
0.000000 0.141451 0.803067
0.175601 0.000000 0.794522
0.445075 0.000000 0.777584
0.632532 0.000000 0.750362
0.756649 0.000000 0.739712
0.896056 0.000000 0.753323
0.997101 0.000000 0.746212
0.000000 0.534844 0.813626
0.000000 0.526635 0.811093
0.217594 0.471229 0.803464
0.377905 0.343542 0.790890
0.589624 0.139437 0.764950
0.744778 0.000000 0.746395
0.894957 0.000000 0.755947
0.999084 0.000000 0.750515
0.000000 0.666255 0.811521
0.000000 0.668788 0.811246
0.258762 0.681575 0.809964
0.519860 0.693690 0.804288
0.596002 0.572473 0.780819
0.730678 0.397040 0.749416
0.886503 0.000000 0.754543
1.000000 0.000000 0.743282
0.000000 0.754147 0.798886
0.000000 0.754665 0.798611
0.000000 0.758114 0.797421
0.410620 0.767697 0.794827
0.636591 0.781735 0.791958
0.742916 0.721920 0.768124
0.862028 0.582727 0.749142
0.990570 0.386999 0.744320
0.000000 0.847166 0.791501
0.000000 0.847105 0.791012
0.000000 0.846860 0.789029
0.129335 0.846098 0.784848
0.501823 0.843442 0.777493
0.696834 0.836240 0.765499
0.829862 0.813657 0.739284
0.964202 0.808713 0.784298
0.000000 0.980804 0.845670
0.000000 0.981506 0.845579
0.000000 0.983856 0.845212
0.000000 0.986999 0.844205
0.137423 0.995789 0.843717
0.577752 0.979461 0.824613
0.795804 0.963134 0.805447
0.908873 0.944732 0.755215
0.000000 0.000000 0.881224
0.000000 0.000000 0.880095
0.118196 0.000000 0.875944
0.411139 0.000000 0.867887
0.610468 0.000000 0.854643
0.765652 0.000000 0.841123
0.891600 0.000000 0.833219
1.000000 0.000000 0.829892
0.000000 0.000000 0.881834
0.000000 0.000000 0.880735
0.112490 0.000000 0.876677
0.408392 0.000000 0.868681
0.608087 0.000000 0.855619
0.764462 0.000000 0.841947
0.890684 0.000000 0.834073
1.000000 0.000000 0.830838
0.000000 0.000000 0.884306
0.000000 0.000000 0.883268
0.000000 0.000000 0.879362
0.392187 0.000000 0.871763
0.597040 0.000000 0.859129
0.759365 0.000000 0.844907
0.887205 0.000000 0.837064
1.000000 0.000000 0.834165
0.000000 0.460517 0.885557
0.000000 0.430060 0.885679
0.000000 0.310674 0.885374
0.279057 0.182925 0.878813
0.543938 0.000000 0.866880
0.744930 0.000000 0.850065
0.879667 0.000000 0.842374
1.000000 0.000000 0.839994
0.000000 0.670314 0.888121
0.000000 0.676234 0.887694
0.313115 0.678981 0.884123
0.520928 0.660121 0.875883
0.540978 0.501091 0.871580
0.700740 0.246494 0.857420
0.861448 0.000000 0.847898
1.000000 0.000000 0.847227
0.000000 0.748623 0.881773
0.000000 0.750668 0.881559
0.000000 0.761105 0.880430
0.468421 0.786252 0.877806
0.691341 0.815640 0.874846
0.741817 0.710597 0.861845
0.848447 0.525750 0.844053
0.998291 0.129915 0.846250
0.000000 0.837613 0.874266
0.000000 0.837766 0.874205
0.000000 0.839719 0.873686
0.206394 0.848081 0.871702
0.577142 0.864134 0.868498
0.777981 0.884215 0.866697
0.867124 0.842985 0.854215
0.969390 0.706508 0.841062
0.000000 0.935180 0.872007
0.000000 0.935271 0.871855
0.000000 0.935790 0.871275
0.000000 0.937072 0.869474
0.345495 0.938354 0.865446
0.648768 0.938781 0.859922
0.823819 0.937621 0.852720
0.940551 0.922454 0.833310
