其他预设/【213】赛博朋克科幻预设52款/1.LUT预设（视频调色-PR-AE-PS-FCPX-达芬奇用）/赛博朋克科幻__-8 强度2.cube
# Created by Adobe Lightroom plugin Export LUT (1.17.0)
# www.johnrellis.com/lightroom/exportlut.htm
# Preset: 赛博朋克科幻[素锦印象]-8 强度2
# Color profile: /Library/Application Support/Adobe/Color/Profiles/Recommended/AdobeRGB1998.icc
LUT_3D_SIZE 8
DOMAIN_MIN 0.000000 0.000000 0.000000
DOMAIN_MAX 0.903226 0.903226 0.903226
0.000000 0.024048 0.000000
0.099092 0.018952 0.059052
0.198917 0.000000 0.116640
0.328405 0.000000 0.187289
0.479194 0.000000 0.268162
0.626978 0.000000 0.343786
0.766140 0.000000 0.412970
0.897093 0.000000 0.477302
0.000000 0.123415 0.065919
0.083223 0.118196 0.024506
0.200259 0.014679 0.085176
0.319341 0.000000 0.173587
0.470161 0.000000 0.255711
0.620356 0.000000 0.334905
0.761746 0.000000 0.407782
0.895689 0.000000 0.477211
0.000000 0.240635 0.133150
0.000000 0.241825 0.116548
0.165103 0.236301 0.050690
0.330663 0.150240 0.094148
0.472541 0.000000 0.176486
0.609064 0.000000 0.292882
0.743343 0.000000 0.392279
0.883726 0.000000 0.475624
0.000000 0.377508 0.208347
0.000000 0.380987 0.199924
0.000000 0.388769 0.123781
0.269810 0.384558 0.060945
0.476081 0.304570 0.105379
0.624048 0.129793 0.178988
0.758968 0.000000 0.292546
0.885008 0.093263 0.430274
0.000000 0.521477 0.286595
0.000000 0.524804 0.280613
0.000000 0.535729 0.249119
0.000000 0.549615 0.099641
0.386358 0.541253 0.071626
0.616876 0.474983 0.111482
0.766384 0.310918 0.219852
0.901305 0.184237 0.322911
0.000000 0.659419 0.361700
0.000000 0.661738 0.357031
0.000000 0.670039 0.340826
0.000000 0.683070 0.269535
0.170565 0.697261 0.160952
0.502007 0.685237 0.118868
0.753567 0.632959 0.140627
0.904814 0.458625 0.282506
0.000000 0.793423 0.434546
0.000000 0.794736 0.430793
0.000000 0.799435 0.418982
0.000000 0.807980 0.389288
0.000000 0.821256 0.290867
0.328130 0.828672 0.244236
0.618738 0.816037 0.204868
0.888518 0.780484 0.209720
0.000000 0.928466 0.506981
0.000000 0.928985 0.504875
0.000000 0.930816 0.497139
0.000000 0.932708 0.495644
0.000000 0.939818 0.445472
0.181430 0.949401 0.358221
0.489662 0.948028 0.369146
0.743771 0.936431 0.333562
0.000000 0.021424 0.099123
0.105989 0.000000 0.106691
0.207675 0.000000 0.152255
0.336858 0.000000 0.217685
0.487068 0.000000 0.292149
0.632776 0.000000 0.362524
0.770230 0.000000 0.427436
0.900603 0.000000 0.488838
0.000000 0.117464 0.102632
0.095430 0.116793 0.103365
0.197513 0.105287 0.143069
0.327855 0.020356 0.205661
0.478431 0.000000 0.281163
0.626490 0.000000 0.354498
0.765927 0.000000 0.422675
0.898344 0.000000 0.488014
0.000000 0.237400 0.155001
0.000000 0.237858 0.150240
0.171145 0.235721 0.112734
0.329595 0.156893 0.140444
0.468727 0.067353 0.224277
0.605921 0.000000 0.323705
0.748043 0.000000 0.408301
0.886564 0.000000 0.486763
0.000000 0.374365 0.223178
0.000000 0.377325 0.217990
0.000000 0.386664 0.169741
0.273991 0.384283 0.119997
0.477241 0.296117 0.150851
0.623438 0.143038 0.210910
0.756313 0.000000 0.325963
0.882597 0.181552 0.453162
0.000000 0.518608 0.297826
0.000000 0.521843 0.293004
0.000000 0.533471 0.272862
0.000000 0.548455 0.143313
0.389685 0.540948 0.129610
0.617639 0.470008 0.158450
0.765774 0.317266 0.248295
0.900298 0.210147 0.345434
0.000000 0.657282 0.370428
0.000000 0.659571 0.366308
0.000000 0.667811 0.352117
0.000000 0.681331 0.293370
0.184421 0.696315 0.194095
0.505119 0.684932 0.163882
0.754055 0.629877 0.183627
0.904143 0.464271 0.307256
0.000000 0.792111 0.441657
0.000000 0.793454 0.438178
0.000000 0.798123 0.427283
0.000000 0.806455 0.404883
0.000000 0.819883 0.315068
0.336217 0.828183 0.270848
0.621820 0.815640 0.235508
0.888731 0.778347 0.242802
0.000000 0.927977 0.513298
0.000000 0.928527 0.510826
0.000000 0.930388 0.503288
0.000000 0.932280 0.501762
0.000000 0.938781 0.459937
0.212650 0.948363 0.379065
0.496681 0.947448 0.387762
0.746944 0.936004 0.353735
0.010224 0.017884 0.197848
0.114931 0.000000 0.203555
0.224277 0.000000 0.229129
0.374029 0.000000 0.299382
0.519738 0.000000 0.361913
0.654841 0.000000 0.419135
0.785672 0.000000 0.471870
0.911162 0.000000 0.521904
0.000000 0.130892 0.195865
0.094850 0.115267 0.202548
0.217105 0.099123 0.224521
0.363714 0.000000 0.289586
0.510887 0.000000 0.353582
0.649012 0.000000 0.412970
0.781704 0.000000 0.468147
0.908507 0.000000 0.520928
0.000000 0.225010 0.201083
0.016144 0.227176 0.203677
0.193027 0.233524 0.211856
0.327153 0.223819 0.260472
0.477852 0.194156 0.324865
0.625574 0.134829 0.391791
0.765255 0.000000 0.456947
0.897459 0.000000 0.520653
0.000000 0.365728 0.264378
0.000000 0.368597 0.263371
0.122774 0.378729 0.259586
0.289250 0.382971 0.223911
0.476661 0.297032 0.251499
0.617578 0.231113 0.315801
0.747280 0.256748 0.419776
0.874357 0.328161 0.523125
0.000000 0.509789 0.330144
0.000000 0.512749 0.328191
0.000000 0.523705 0.321691
0.157687 0.541772 0.268864
0.402167 0.539727 0.238437
0.620050 0.453193 0.264347
0.763363 0.342931 0.330571
0.895079 0.304540 0.424109
0.000000 0.650629 0.397681
0.000000 0.652644 0.395239
0.000000 0.660426 0.387274
0.000000 0.674861 0.364935
0.227268 0.692653 0.278294
0.516564 0.683589 0.266178
0.755428 0.619409 0.287053
0.901701 0.485298 0.381811
0.000000 0.787839 0.465126
0.000000 0.789059 0.462531
0.000000 0.793576 0.454170
0.000000 0.801389 0.447089
0.125032 0.814847 0.386603
0.364691 0.826352 0.347692
0.633021 0.814206 0.319890
0.889433 0.771084 0.333013
0.000000 0.926482 0.533715
0.000000 0.927214 0.531029
0.000000 0.929015 0.523949
0.000000 0.930938 0.521752
0.135317 0.935119 0.506432
0.292393 0.944701 0.441962
0.520012 0.945525 0.444617
0.757931 0.934478 0.415351
0.012329 0.008148 0.323217
0.124666 0.000000 0.330358
0.255222 0.000000 0.352758
0.389715 0.000000 0.393072
0.568475 0.000000 0.469306
0.695949 0.000000 0.505516
0.813870 0.000000 0.540154
0.928954 0.000000 0.572198
0.000000 0.115785 0.320958
0.091615 0.110658 0.327733
0.245975 0.082246 0.351263
0.384253 0.000000 0.389105
0.564385 0.000000 0.465217
0.690425 0.000000 0.501122
0.810208 0.000000 0.537713
0.927459 0.000000 0.571283
0.000000 0.247715 0.307134
0.000000 0.247684 0.312139
0.191684 0.231083 0.337194
0.363592 0.222049 0.375372
0.538628 0.202884 0.444984
0.668635 0.163333 0.486702
0.795651 0.023499 0.530327
0.917998 0.000000 0.570581
0.000000 0.348486 0.314000
0.000000 0.351385 0.316960
0.128481 0.361456 0.327672
0.320317 0.379583 0.348394
0.473701 0.373388 0.400855
0.621942 0.361120 0.458991
0.762692 0.347814 0.518395
0.895201 0.340429 0.578027
0.000000 0.493568 0.378119
0.000000 0.496529 0.378515
0.000000 0.507225 0.380591
0.251194 0.527031 0.388190
0.427070 0.536919 0.363592
0.619440 0.449989 0.391180
0.756619 0.407050 0.447089
0.881071 0.458625 0.551873
0.000000 0.638239 0.440131
0.000000 0.640314 0.439155
0.000000 0.647883 0.436561
0.121462 0.662043 0.436347
0.315373 0.683101 0.400732
0.538506 0.680934 0.387060
0.757107 0.603784 0.411566
0.897002 0.525292 0.484810
0.000000 0.780148 0.503532
0.000000 0.781308 0.501793
0.000000 0.785641 0.496223
0.000000 0.793545 0.490852
0.277256 0.805234 0.483284
0.413062 0.821347 0.440955
0.653407 0.811521 0.428107
0.890501 0.759426 0.447395
0.000000 0.923278 0.569421
0.000000 0.924010 0.567224
0.000000 0.926482 0.559838
0.000000 0.929412 0.553185
0.270146 0.928954 0.573571
0.383520 0.938567 0.526574
0.553735 0.942748 0.520165
0.775601 0.932067 0.496315
0.000000 0.000000 0.461646
0.129458 0.000000 0.468391
0.272251 0.000000 0.491920
0.414588 0.000000 0.516991
0.573236 0.000000 0.562432
0.726162 0.000000 0.604974
0.850889 0.000000 0.630152
0.951843 0.000000 0.642390
0.000000 0.107515 0.458228
0.085115 0.099397 0.464881
0.256229 0.045014 0.488289
0.409949 0.000000 0.516472
0.569329 0.000000 0.559808
0.723873 0.000000 0.603296
0.847990 0.000000 0.628443
0.951263 0.000000 0.642145
0.000000 0.265415 0.437751
0.000000 0.257053 0.446601
0.189792 0.226932 0.472663
0.392737 0.218051 0.512688
0.554040 0.176425 0.550134
0.714290 0.151949 0.598474
0.836027 0.000000 0.623865
0.944182 0.000000 0.640375
0.000000 0.368200 0.421668
0.000000 0.369604 0.425879
0.100496 0.375006 0.440772
0.320745 0.377020 0.482124
0.521263 0.386145 0.529839
0.687373 0.399847 0.586877
0.810117 0.368811 0.615808
0.928344 0.286809 0.639368
0.000000 0.473182 0.428138
0.000000 0.475776 0.430762
0.000000 0.485298 0.440436
0.252384 0.503380 0.459632
0.464179 0.532311 0.492256
0.616144 0.531029 0.542657
0.759792 0.527886 0.595117
0.893919 0.525231 0.647364
0.000000 0.618341 0.491585
0.000000 0.620417 0.492103
0.000000 0.627955 0.494179
0.082307 0.642298 0.499977
0.390417 0.664485 0.517113
0.570153 0.676875 0.508934
0.757443 0.599817 0.535302
0.892424 0.572686 0.587152
0.000000 0.767605 0.553552
0.000000 0.768765 0.552728
0.000000 0.773007 0.549950
0.000000 0.780972 0.546868
0.290227 0.792844 0.552209
0.476967 0.811215 0.539849
0.680507 0.808042 0.535241
0.893736 0.742763 0.558129
0.000000 0.918212 0.618494
0.000000 0.918883 0.616938
0.000000 0.921324 0.611536
0.000000 0.925505 0.603021
0.083894 0.928801 0.602472
0.465553 0.930297 0.615259
0.589319 0.939422 0.594385
0.798032 0.929198 0.580255
0.000000 0.000000 0.599359
0.129030 0.000000 0.604303
0.276280 0.000000 0.621180
0.437293 0.000000 0.649104
0.573541 0.000000 0.663203
0.731655 0.000000 0.697139
0.864195 0.000000 0.717403
0.976989 0.000000 0.726833
0.000000 0.090700 0.596368
0.075471 0.078737 0.601282
0.258976 0.000000 0.618372
0.427649 0.000000 0.646784
0.570764 0.000000 0.662837
0.729519 0.000000 0.696040
0.863157 0.000000 0.716976
0.977234 0.000000 0.727169
0.000000 0.239536 0.582269
0.000000 0.225834 0.588006
0.188327 0.220523 0.606195
0.393042 0.207401 0.636561
0.560723 0.171389 0.660578
0.720760 0.057771 0.691737
0.858335 0.000000 0.716457
0.971832 0.000000 0.726375
0.000000 0.396216 0.550561
0.000000 0.395331 0.553704
0.009979 0.389075 0.572839
0.321965 0.373602 0.611902
0.542565 0.392157 0.653285
0.701747 0.379767 0.682399
0.847471 0.383062 0.717769
0.958984 0.290501 0.727901
0.000000 0.493507 0.539452
0.000000 0.494697 0.542290
0.000000 0.499214 0.552422
0.232944 0.508934 0.571069
0.466743 0.529351 0.617426
0.670069 0.554620 0.665339
0.827573 0.573358 0.716213
0.936889 0.521019 0.728817
0.000000 0.602716 0.546685
0.000000 0.604242 0.548272
0.000000 0.609796 0.554070
0.102083 0.620478 0.565637
0.377905 0.638117 0.585809
0.609033 0.671717 0.625177
0.758907 0.671962 0.672694
0.895933 0.669886 0.718898
0.000000 0.748836 0.610163
0.000000 0.749874 0.610163
0.000000 0.753780 0.610224
0.000000 0.761227 0.611017
0.236240 0.772702 0.615503
0.531060 0.790524 0.639429
0.714076 0.803586 0.640986
0.897185 0.733577 0.666468
0.000000 0.910704 0.678248
0.000000 0.911345 0.677363
0.000000 0.913664 0.674067
0.000000 0.917754 0.668482
0.000000 0.922393 0.663539
0.446662 0.924376 0.674403
0.635645 0.932097 0.671321
0.826169 0.925597 0.669642
0.000000 0.000000 0.728573
0.125795 0.000000 0.731716
0.276066 0.000000 0.742519
0.431525 0.000000 0.760739
0.593774 0.000000 0.781735
0.723812 0.000000 0.788113
0.871763 0.000000 0.807645
0.980011 0.000000 0.806088
0.000000 0.052552 0.726406
0.064149 0.005768 0.729580
0.258244 0.000000 0.740597
0.421820 0.000000 0.759152
0.590723 0.000000 0.781613
0.722133 0.000000 0.788052
0.870817 0.000000 0.807401
0.980194 0.000000 0.806516
0.000000 0.221530 0.716976
0.000000 0.219150 0.720455
0.187289 0.210361 0.732296
0.388495 0.190738 0.752193
0.575555 0.147921 0.777981
0.716426 0.000000 0.787106
0.866484 0.000000 0.806241
0.978820 0.000000 0.807065
0.000000 0.408057 0.690089
0.000000 0.403815 0.694575
0.000000 0.376715 0.710964
0.323491 0.367864 0.735134
0.540398 0.380377 0.764920
0.707057 0.369146 0.783444
0.856535 0.333471 0.803311
0.972900 0.226932 0.809384
0.000000 0.521843 0.671046
0.000000 0.521019 0.672694
0.000000 0.518608 0.678614
0.203830 0.516777 0.694362
0.469551 0.524804 0.737362
0.693538 0.560662 0.776211
0.840696 0.550744 0.798062
0.962249 0.527184 0.815824
0.000000 0.622461 0.660761
0.000000 0.622614 0.662135
0.000000 0.623529 0.667170
0.000000 0.625879 0.676661
0.353826 0.634577 0.692500
0.613550 0.668360 0.740627
0.816251 0.701167 0.787045
0.949004 0.708156 0.822080
0.000000 0.740078 0.672328
0.000000 0.740505 0.672847
0.000000 0.742000 0.674678
0.000000 0.744930 0.678553
0.225895 0.750210 0.686122
0.505638 0.761746 0.702785
0.754452 0.797910 0.747158
0.900389 0.798550 0.791867
0.000000 0.899901 0.746212
0.000000 0.900511 0.745937
0.000000 0.902678 0.744930
0.000000 0.906371 0.742947
0.000000 0.910369 0.740352
0.377020 0.912627 0.741238
0.672602 0.916075 0.758450
0.860197 0.921019 0.763180
0.000000 0.000000 0.851377
0.120058 0.000000 0.852964
0.273136 0.000000 0.858457
0.423865 0.000000 0.867857
0.582025 0.000000 0.880308
0.727443 0.000000 0.888884
0.859037 0.000000 0.892119
0.989258 0.000000 0.894957
0.000000 0.000000 0.850309
0.037049 0.000000 0.851896
0.254887 0.000000 0.857511
0.413977 0.000000 0.867063
0.575830 0.000000 0.879698
0.725429 0.000000 0.889006
0.858213 0.000000 0.892515
0.989349 0.000000 0.895567
0.000000 0.210391 0.845548
0.000000 0.206729 0.847257
0.183688 0.191287 0.853239
0.381079 0.154116 0.863401
0.556420 0.000000 0.876799
0.719387 0.000000 0.888579
0.854185 0.000000 0.892576
0.989197 0.000000 0.897154
0.000000 0.404364 0.831907
0.000000 0.387732 0.834592
0.000000 0.357580 0.842710
0.322545 0.356329 0.854276
0.526604 0.350439 0.869352
0.714900 0.332128 0.886046
0.847593 0.225467 0.890684
0.984009 0.000000 0.896544
0.000000 0.548119 0.810636
0.000000 0.546014 0.811398
0.000000 0.535393 0.818326
0.248417 0.528588 0.833280
0.470619 0.516014 0.854490
0.686824 0.535912 0.875242
0.840879 0.515282 0.886351
0.973053 0.462806 0.894682
0.000000 0.658350 0.805844
0.000000 0.657069 0.806485
0.000000 0.652583 0.808804
0.000000 0.645686 0.813107
0.324102 0.643854 0.821317
0.617639 0.662470 0.854765
0.833371 0.696742 0.881254
0.960204 0.677913 0.892546
0.000000 0.769009 0.800900
0.000000 0.768490 0.801389
0.000000 0.766476 0.803128
0.000000 0.763149 0.806394
0.154726 0.760647 0.811551
0.478828 0.763333 0.820066
0.760678 0.793942 0.856565
0.946197 0.824826 0.889433
0.000000 0.902525 0.820737
0.000000 0.902525 0.820798
0.000000 0.902373 0.821012
0.000000 0.901884 0.821378
0.000000 0.900267 0.821866
0.347478 0.896513 0.822599
0.630610 0.892515 0.826932
0.900755 0.915129 0.861936
