其他预设/【213】赛博朋克科幻预设52款/1.LUT预设（视频调色-PR-AE-PS-FCPX-达芬奇用）/赛博朋克科幻__-10 强度2.cube
# Created by Adobe Lightroom plugin Export LUT (1.17.0)
# www.johnrellis.com/lightroom/exportlut.htm
# Preset: 赛博朋克科幻[素锦印象]-10 强度2
# Color profile: /Library/Application Support/Adobe/Color/Profiles/Recommended/AdobeRGB1998.icc
LUT_3D_SIZE 5
DOMAIN_MIN 0.000000 0.000000 0.000000
DOMAIN_MAX 0.903226 0.903226 0.903226
0.039704 0.039063 0.035798
0.240360 0.000000 0.083223
0.486702 0.000000 0.156588
0.714015 0.106783 0.258061
0.913817 0.280705 0.390967
0.000000 0.298680 0.076387
0.245426 0.252079 0.078218
0.481270 0.234806 0.175021
0.711025 0.256718 0.269413
0.912474 0.345647 0.389563
0.000000 0.574731 0.149996
0.140810 0.567803 0.088899
0.490272 0.502190 0.189914
0.701320 0.478584 0.302159
0.906676 0.516777 0.418585
0.000000 0.802487 0.213474
0.000000 0.799496 0.194522
0.438483 0.787594 0.192355
0.712306 0.728023 0.311528
0.897063 0.710780 0.467018
0.000000 0.991241 0.257298
0.000000 0.988556 0.270420
0.400153 0.978515 0.331884
0.670558 0.967163 0.337102
0.908415 0.922942 0.499153
0.046815 0.000000 0.218021
0.246342 0.000000 0.208255
0.476661 0.112764 0.257725
0.707851 0.189517 0.331762
0.912291 0.305272 0.426368
0.000000 0.270268 0.235691
0.253391 0.250126 0.232578
0.486824 0.270878 0.282109
0.712642 0.301213 0.347723
0.911833 0.388312 0.445533
0.000000 0.562829 0.266606
0.161471 0.552728 0.252934
0.492164 0.499336 0.288762
0.704097 0.491676 0.367864
0.906554 0.538048 0.468482
0.000000 0.796902 0.297704
0.000000 0.793057 0.291875
0.445686 0.781216 0.294896
0.714351 0.726894 0.375921
0.897856 0.718471 0.508019
0.000000 0.990478 0.311589
0.000000 0.987823 0.320928
0.421241 0.975982 0.392981
0.679805 0.965057 0.401740
0.910338 0.922789 0.533654
0.109926 0.000000 0.407111
0.268009 0.000000 0.416052
0.482856 0.000000 0.404120
0.689357 0.168521 0.437720
0.906920 0.268223 0.500359
0.000000 0.199832 0.409949
0.229770 0.183200 0.420325
0.486427 0.200626 0.415045
0.695064 0.294896 0.452918
0.908354 0.361669 0.515312
0.000000 0.516716 0.447059
0.120577 0.511437 0.447333
0.495033 0.488075 0.450233
0.713497 0.523949 0.505364
0.910155 0.583490 0.579583
0.000000 0.782559 0.464057
0.000000 0.778286 0.461769
0.441779 0.763851 0.464881
0.719265 0.722286 0.515496
0.903746 0.735897 0.602411
0.000000 0.986419 0.456397
0.000000 0.984924 0.455756
0.359503 0.976989 0.476204
0.699580 0.959838 0.540673
0.916075 0.922789 0.617823
0.155123 0.000000 0.584253
0.278447 0.000000 0.591211
0.505547 0.000000 0.613336
0.706966 0.000000 0.589227
0.898344 0.271794 0.616083
0.000000 0.113588 0.585840
0.230350 0.074006 0.592309
0.490425 0.000000 0.614191
0.707790 0.000000 0.594751
0.899779 0.304723 0.620081
0.000000 0.426673 0.586419
0.000000 0.411048 0.585351
0.436347 0.396429 0.610101
0.709560 0.435096 0.613336
0.905058 0.516899 0.648005
0.000000 0.741512 0.639643
0.000000 0.738460 0.639765
0.370245 0.727260 0.641077
0.716579 0.706172 0.649714
0.918944 0.752621 0.709987
0.000000 0.978820 0.634180
0.000000 0.977661 0.633051
0.263005 0.972717 0.632349
0.675563 0.957153 0.662654
0.924834 0.923156 0.722377
0.134493 0.000000 0.795926
0.266209 0.000000 0.798581
0.492744 0.000000 0.807645
0.739223 0.000000 0.815366
0.935393 0.000000 0.777127
0.087221 0.000000 0.798306
0.248600 0.000000 0.800931
0.486366 0.000000 0.809995
0.736629 0.000000 0.818143
0.936614 0.000000 0.780026
0.000000 0.341863 0.791531
0.000000 0.312718 0.795438
0.384741 0.263066 0.806363
0.704585 0.093843 0.824063
0.936095 0.261509 0.789242
0.000000 0.671656 0.808530
0.000000 0.660029 0.807370
0.000000 0.609003 0.801816
0.615656 0.568383 0.811643
0.927245 0.636561 0.806332
0.000000 0.974853 0.836301
0.000000 0.972961 0.836210
0.000000 0.964538 0.835660
0.566766 0.942077 0.833799
0.926696 0.913054 0.838804
