其他预设/【213】赛博朋克科幻预设52款/1.LUT预设（视频调色-PR-AE-PS-FCPX-达芬奇用）/赛博朋克科幻__-8 强度5.cube
# Created by Adobe Lightroom plugin Export LUT (1.17.0)
# www.johnrellis.com/lightroom/exportlut.htm
# Preset: 赛博朋克科幻[素锦印象]-8 强度5
# Color profile: /Library/Application Support/Adobe/Color/Profiles/Recommended/AdobeRGB1998.icc
LUT_3D_SIZE 8
DOMAIN_MIN 0.000000 0.000000 0.000000
DOMAIN_MAX 0.903226 0.903226 0.903226
0.000000 0.062501 0.000000
0.056550 0.073121 0.056275
0.128573 0.085176 0.126741
0.275700 0.079805 0.262577
0.481453 0.074372 0.423774
0.656123 0.197116 0.541100
0.794278 0.369604 0.631708
0.898802 0.544396 0.707088
0.000000 0.107118 0.067903
0.014435 0.098970 0.040803
0.125338 0.081788 0.126619
0.276219 0.072206 0.266270
0.483680 0.057252 0.427863
0.658076 0.192203 0.543847
0.795651 0.367712 0.633356
0.899596 0.543511 0.707973
0.000000 0.196719 0.136782
0.000000 0.186404 0.131136
0.007477 0.194369 0.081086
0.209049 0.177279 0.209567
0.483925 0.050446 0.436530
0.664942 0.172885 0.553857
0.800687 0.360479 0.639338
0.902403 0.540368 0.711086
0.000000 0.314458 0.227848
0.000000 0.305852 0.222934
0.000000 0.324224 0.228489
0.000000 0.368536 0.141543
0.359625 0.262791 0.300023
0.593072 0.365911 0.519249
0.807797 0.356237 0.649928
0.907683 0.534203 0.717037
0.000000 0.449500 0.331518
0.000000 0.442359 0.327398
0.000000 0.427253 0.317876
0.000000 0.501091 0.348241
0.000000 0.566949 0.238224
0.546990 0.348333 0.367681
0.675898 0.576562 0.596460
0.884398 0.645289 0.721614
0.000000 0.609308 0.453315
0.000000 0.604211 0.450507
0.000000 0.585595 0.440070
0.000000 0.601007 0.443336
0.000000 0.675898 0.466163
0.195743 0.733639 0.370184
0.722469 0.472236 0.437964
0.807797 0.709163 0.678248
0.000000 0.789578 0.589136
0.000000 0.787045 0.588098
0.000000 0.777676 0.584192
0.000000 0.759457 0.576257
0.000000 0.783352 0.573480
0.123812 0.825071 0.582513
0.414862 0.861479 0.523857
0.861631 0.712276 0.559869
0.000000 0.959533 0.718654
0.000000 0.958740 0.718746
0.000000 0.955993 0.718990
0.000000 0.950683 0.719417
0.000000 0.945037 0.715511
0.000000 0.944030 0.705684
0.499916 0.946685 0.707088
0.644678 0.959228 0.666407
0.000000 0.063416 0.053437
0.067720 0.069490 0.075227
0.147066 0.075410 0.153872
0.306767 0.017823 0.300908
0.509880 0.000000 0.452552
0.673732 0.191531 0.557641
0.803677 0.371099 0.640406
0.903075 0.545525 0.711055
0.000000 0.094301 0.069978
0.050782 0.098543 0.067506
0.137972 0.089387 0.147585
0.306462 0.000000 0.303868
0.511223 0.000000 0.455818
0.675349 0.186526 0.560082
0.804959 0.369146 0.641932
0.903807 0.544762 0.711879
0.000000 0.185031 0.134798
0.000000 0.182956 0.133028
0.054658 0.194339 0.100191
0.227939 0.189792 0.233738
0.499001 0.101808 0.453742
0.681239 0.166476 0.569146
0.809476 0.361975 0.647517
0.906523 0.541558 0.714900
0.000000 0.299657 0.222141
0.000000 0.289433 0.216220
0.000000 0.320684 0.230045
0.000000 0.368566 0.160891
0.354467 0.293706 0.318120
0.606043 0.380865 0.532586
0.813657 0.370489 0.656764
0.911559 0.535515 0.720699
0.000000 0.434760 0.324987
0.000000 0.428046 0.320958
0.000000 0.423163 0.317144
0.000000 0.496986 0.349401
0.033051 0.566735 0.254673
0.542840 0.375463 0.387976
0.687434 0.586358 0.606287
0.888609 0.648585 0.725399
0.000000 0.599268 0.449470
0.000000 0.594171 0.446632
0.000000 0.575494 0.435889
0.000000 0.597162 0.442695
0.000000 0.674037 0.469459
0.219516 0.732998 0.382513
0.719265 0.493080 0.456916
0.806882 0.717556 0.682979
0.000000 0.785489 0.588922
0.000000 0.782956 0.587854
0.000000 0.773587 0.583886
0.000000 0.756374 0.575891
0.000000 0.781033 0.573877
0.148867 0.823636 0.585016
0.426032 0.860807 0.530480
0.862119 0.710536 0.568353
0.000000 0.958923 0.719966
0.000000 0.958190 0.720027
0.000000 0.955444 0.720272
0.000000 0.950072 0.720668
0.000000 0.944488 0.716609
0.000000 0.943542 0.706508
0.503960 0.946105 0.708461
0.649836 0.958770 0.669184
0.026123 0.064515 0.102754
0.076448 0.065217 0.111879
0.187076 0.026917 0.218936
0.386328 0.000000 0.389960
0.574243 0.000000 0.514824
0.718776 0.179599 0.599237
0.829526 0.377600 0.664179
0.915740 0.550378 0.722774
0.000000 0.111482 0.102358
0.066102 0.097627 0.118288
0.169650 0.072724 0.203677
0.387243 0.000000 0.396490
0.577111 0.000000 0.520470
0.720333 0.173465 0.601678
0.830594 0.375738 0.665614
0.916411 0.549523 0.723537
0.000000 0.150698 0.123140
0.000000 0.158297 0.128664
0.108553 0.194064 0.147646
0.298344 0.213748 0.319890
0.554223 0.142336 0.511070
0.725399 0.149233 0.610224
0.834684 0.368414 0.670863
0.918883 0.546380 0.726406
0.000000 0.262669 0.204929
0.000000 0.262852 0.205386
0.000000 0.308171 0.234287
0.125917 0.368322 0.214572
0.367620 0.370489 0.378485
0.650202 0.420905 0.575433
0.834684 0.399725 0.678645
0.923552 0.540307 0.731960
0.000000 0.404791 0.311894
0.000000 0.394690 0.305699
0.000000 0.409064 0.314336
0.000000 0.482429 0.352483
0.166293 0.565484 0.304448
0.528832 0.455848 0.447211
0.725917 0.615991 0.637873
0.903349 0.655360 0.737636
0.000000 0.574029 0.439796
0.000000 0.566308 0.435309
0.000000 0.543023 0.421393
0.000000 0.583246 0.440192
0.000000 0.666224 0.478370
0.285710 0.730617 0.421454
0.709224 0.554314 0.512139
0.804166 0.744198 0.697810
0.000000 0.773678 0.588708
0.000000 0.770474 0.587304
0.000000 0.760311 0.582818
0.000000 0.747524 0.575250
0.000000 0.772946 0.575128
0.206210 0.818570 0.592981
0.461555 0.858579 0.551598
0.864164 0.704585 0.595056
0.000000 0.957275 0.724605
0.000000 0.956786 0.724666
0.000000 0.954009 0.724880
0.000000 0.948547 0.725216
0.000000 0.942992 0.720790
0.000000 0.942046 0.709438
0.516442 0.944152 0.713039
0.666835 0.957366 0.678401
0.074403 0.057008 0.198978
0.121157 0.033539 0.221347
0.186801 0.000000 0.253574
0.450355 0.000000 0.478553
0.664698 0.000000 0.600244
0.775570 0.175845 0.650263
0.864500 0.390936 0.696559
0.934539 0.559106 0.740230
0.000000 0.096620 0.197177
0.094972 0.090639 0.220157
0.188876 0.034302 0.263737
0.435523 0.000000 0.471473
0.666468 0.000000 0.605280
0.777615 0.165957 0.653681
0.865751 0.388525 0.698268
0.934966 0.558465 0.740749
0.000000 0.172213 0.162020
0.000000 0.184695 0.176913
0.134798 0.199832 0.255924
0.371374 0.195743 0.422827
0.639918 0.115877 0.597040
0.784573 0.125093 0.665370
0.869932 0.380194 0.703944
0.936950 0.555505 0.743191
0.000000 0.210483 0.180026
0.000000 0.219272 0.187747
0.000000 0.256931 0.219577
0.218326 0.366400 0.293584
0.499214 0.446937 0.507286
0.720363 0.474830 0.640162
0.870817 0.411353 0.712093
0.941161 0.549310 0.748470
0.000000 0.336980 0.273228
0.000000 0.333135 0.270787
0.000000 0.368078 0.296147
0.000000 0.456580 0.355901
0.270695 0.562676 0.376440
0.519829 0.564233 0.522148
0.786221 0.654566 0.684962
0.928527 0.650355 0.755947
0.000000 0.525231 0.416114
0.000000 0.516106 0.410071
0.000000 0.506004 0.403082
0.000000 0.556664 0.433814
0.000000 0.644739 0.481819
0.370764 0.726619 0.476112
0.695277 0.634852 0.581781
0.850919 0.773373 0.731380
0.000000 0.753506 0.587488
0.000000 0.750210 0.585901
0.000000 0.739132 0.580438
0.000000 0.731899 0.574273
0.000000 0.757717 0.576623
0.262150 0.808957 0.604486
0.513451 0.855100 0.582483
0.864347 0.716762 0.639124
0.000000 0.952972 0.733120
0.000000 0.952575 0.733211
0.000000 0.951385 0.733364
0.000000 0.947784 0.733547
0.000000 0.941375 0.729335
0.000000 0.940185 0.715236
0.531792 0.940948 0.720241
0.693416 0.955169 0.692683
0.125460 0.000000 0.348150
0.175875 0.000000 0.372961
0.280949 0.000000 0.422553
0.436896 0.000000 0.511406
0.697932 0.000000 0.657710
0.843229 0.164523 0.714443
0.906218 0.406470 0.736721
0.959106 0.567834 0.764126
0.072328 0.079286 0.340917
0.144747 0.054994 0.367529
0.281224 0.000000 0.430610
0.424384 0.000000 0.505180
0.690822 0.000000 0.656794
0.841581 0.148409 0.715694
0.907317 0.403876 0.738369
0.959503 0.567193 0.764675
0.000000 0.232761 0.259586
0.000000 0.231510 0.292821
0.181460 0.199863 0.399603
0.378302 0.165805 0.479286
0.663722 0.000000 0.648707
0.831205 0.057435 0.717311
0.911040 0.394751 0.743893
0.960784 0.565026 0.766354
0.000000 0.229892 0.216159
0.000000 0.242557 0.229892
0.000000 0.291966 0.282750
0.268864 0.387762 0.433021
0.578820 0.461341 0.598566
0.796139 0.503349 0.708614
0.916564 0.378820 0.752590
0.962097 0.562066 0.768276
0.000000 0.263798 0.230808
0.000000 0.270665 0.237125
0.000000 0.299962 0.263401
0.000000 0.377234 0.327764
0.379217 0.557244 0.458228
0.679133 0.660609 0.647486
0.858457 0.679683 0.738094
0.963714 0.579736 0.775296
0.000000 0.436164 0.363256
0.000000 0.427924 0.357488
0.000000 0.443305 0.368475
0.000000 0.493355 0.403815
0.000000 0.605859 0.479469
0.459236 0.721401 0.534173
0.681300 0.718135 0.643946
0.907164 0.795468 0.768704
0.000000 0.708125 0.571466
0.000000 0.703548 0.568719
0.000000 0.688045 0.559350
0.000000 0.692836 0.559777
0.000000 0.732753 0.576745
0.196902 0.789029 0.604578
0.574029 0.850767 0.618189
0.856748 0.775784 0.696803
0.000000 0.946075 0.745541
0.000000 0.945678 0.745602
0.000000 0.944579 0.745937
0.000000 0.943633 0.746365
0.000000 0.941314 0.744625
0.000000 0.939025 0.725948
0.541863 0.936187 0.729458
0.727169 0.952422 0.710689
0.189334 0.000000 0.517632
0.239750 0.000000 0.536492
0.381201 0.000000 0.587976
0.487922 0.000000 0.612787
0.697017 0.000000 0.698909
0.859861 0.014160 0.754513
0.948821 0.414862 0.781308
0.985504 0.573114 0.791775
0.151003 0.000000 0.511864
0.213931 0.000000 0.532860
0.381537 0.000000 0.593133
0.487221 0.000000 0.616938
0.688045 0.000000 0.696437
0.857267 0.000000 0.755215
0.948058 0.410254 0.781857
0.985931 0.572381 0.792355
0.000000 0.209171 0.442695
0.000000 0.186191 0.471260
0.246677 0.188693 0.553582
0.468635 0.121645 0.620752
0.656031 0.000000 0.686061
0.848325 0.000000 0.757656
0.945434 0.394232 0.783902
0.987274 0.570001 0.794308
0.000000 0.302800 0.323857
0.000000 0.313420 0.338262
0.000000 0.353521 0.391882
0.335546 0.406043 0.573785
0.584009 0.431556 0.645502
0.819242 0.445594 0.748226
0.941009 0.366369 0.787503
0.989136 0.566583 0.797024
0.000000 0.284672 0.267582
0.000000 0.292973 0.276432
0.000000 0.328313 0.313024
0.000000 0.417060 0.401434
0.454810 0.590173 0.588220
0.757778 0.678981 0.717281
0.917937 0.684779 0.786740
0.991089 0.562036 0.800076
0.000000 0.340124 0.303532
0.000000 0.343114 0.306249
0.000000 0.356512 0.318456
0.000000 0.393774 0.351446
0.000000 0.491493 0.431312
0.558190 0.713985 0.597620
0.844602 0.805722 0.752865
0.960357 0.788540 0.802640
0.000000 0.627100 0.531762
0.000000 0.622217 0.528588
0.000000 0.607691 0.519066
0.000000 0.621881 0.525994
0.000000 0.659602 0.546777
0.000000 0.749081 0.598840
0.647456 0.844663 0.660304
0.849760 0.839506 0.748379
0.000000 0.919677 0.748501
0.000000 0.918761 0.748257
0.000000 0.916014 0.747463
0.000000 0.912810 0.746822
0.000000 0.915679 0.747189
0.000000 0.937987 0.745968
0.478035 0.930327 0.734371
0.770962 0.948608 0.733944
0.247623 0.000000 0.664332
0.293187 0.000000 0.675196
0.432166 0.000000 0.708827
0.565545 0.000000 0.731991
0.693172 0.000000 0.746975
0.886320 0.000000 0.803799
0.961669 0.390326 0.811856
1.000000 0.570184 0.821134
0.235813 0.000000 0.664759
0.288426 0.000000 0.676936
0.425299 0.000000 0.709560
0.562890 0.000000 0.733822
0.689845 0.000000 0.748470
0.881437 0.000000 0.803098
0.960998 0.385687 0.812589
1.000000 0.569055 0.821530
0.000000 0.179110 0.623041
0.000000 0.176486 0.639368
0.316472 0.155673 0.687526
0.546258 0.000000 0.736843
0.677333 0.000000 0.753384
0.863554 0.000000 0.800412
0.958740 0.368902 0.815213
1.000000 0.565332 0.822873
0.000000 0.384680 0.458778
0.000000 0.390234 0.485603
0.000000 0.362097 0.591241
0.406714 0.416358 0.696651
0.657588 0.422705 0.747494
0.830045 0.297337 0.790738
0.954803 0.337621 0.820096
1.000000 0.559472 0.825071
0.000000 0.369543 0.385504
0.000000 0.377783 0.396338
0.000000 0.408515 0.436927
0.000000 0.469245 0.513329
0.534478 0.616175 0.702541
0.773770 0.650080 0.757870
0.935088 0.628168 0.815518
1.000000 0.550866 0.828244
0.000000 0.365332 0.346136
0.000000 0.368658 0.349798
0.000000 0.382971 0.365393
0.000000 0.421759 0.406653
0.000000 0.527428 0.510704
0.650111 0.748684 0.709316
0.904265 0.817746 0.801602
0.996399 0.756008 0.832395
0.000000 0.541680 0.492622
0.000000 0.535882 0.488533
0.000000 0.528527 0.482551
0.000000 0.526574 0.480140
0.000000 0.536858 0.487587
0.000000 0.606012 0.538018
0.737209 0.835813 0.710201
0.964477 0.900359 0.823789
0.000000 0.868101 0.739559
0.000000 0.867002 0.739254
0.000000 0.863523 0.738491
0.000000 0.857939 0.737392
0.000000 0.862608 0.738003
0.000000 0.885863 0.741115
0.264103 0.920562 0.745785
0.827909 0.942931 0.763912
0.288640 0.000000 0.779751
0.329168 0.000000 0.785122
0.453468 0.000000 0.802152
0.623102 0.000000 0.822110
0.739040 0.000000 0.827481
0.877348 0.168765 0.837766
0.994690 0.422431 0.855650
1.000000 0.560204 0.844358
0.276005 0.000000 0.779507
0.317296 0.000000 0.784848
0.442512 0.000000 0.801785
0.618769 0.000000 0.822873
0.734859 0.000000 0.828153
0.872313 0.158419 0.837308
0.994324 0.418524 0.856535
1.000000 0.558984 0.844846
0.069123 0.139467 0.764706
0.186862 0.123354 0.772274
0.375982 0.000000 0.795377
0.591424 0.000000 0.823606
0.718746 0.000000 0.830350
0.853086 0.111818 0.835538
0.990814 0.405005 0.858549
1.000000 0.554589 0.846494
0.000000 0.408820 0.689082
0.000000 0.380285 0.705562
0.000000 0.347295 0.749935
0.460822 0.389807 0.797818
0.697200 0.306004 0.829404
0.825284 0.048249 0.838132
0.975494 0.381872 0.857908
1.000000 0.546960 0.849485
0.000000 0.494057 0.568414
0.000000 0.496620 0.575067
0.000000 0.505577 0.599268
0.000000 0.523735 0.699214
0.597375 0.618524 0.796811
0.815305 0.597162 0.828550
0.946685 0.336980 0.856352
1.000000 0.534234 0.854368
0.000000 0.497536 0.513207
0.000000 0.501030 0.518547
0.000000 0.513268 0.538079
0.000000 0.535637 0.576135
0.000000 0.580591 0.639887
0.725032 0.766110 0.798459
0.915160 0.773648 0.832334
1.000000 0.655177 0.857145
0.000000 0.615381 0.592370
0.000000 0.612970 0.590723
0.000000 0.604700 0.584558
0.000000 0.591669 0.574884
0.000000 0.580774 0.570153
0.000000 0.643915 0.633936
0.831205 0.867338 0.803738
0.994965 0.897826 0.851591
0.000000 0.848173 0.768215
0.000000 0.846159 0.767422
0.000000 0.838926 0.764492
0.000000 0.824552 0.758511
0.000000 0.812039 0.749783
0.000000 0.802060 0.736568
0.000000 0.800443 0.717891
0.904601 0.934051 0.804044
