其他预设/【213】赛博朋克科幻预设52款/1.LUT预设（视频调色-PR-AE-PS-FCPX-达芬奇用）/赛博朋克科幻__-7 强度5.cube
# Created by Adobe Lightroom plugin Export LUT (1.17.0)
# www.johnrellis.com/lightroom/exportlut.htm
# Preset: 赛博朋克科幻[素锦印象]-7 强度5
# Color profile: /Library/Application Support/Adobe/Color/Profiles/Recommended/AdobeRGB1998.icc
LUT_3D_SIZE 32
0.075471 0.115023 0.098665
0.075471 0.115023 0.098665
0.075471 0.115023 0.098665
0.089448 0.116365 0.098238
0.120302 0.120607 0.096925
0.155489 0.126497 0.094850
0.198001 0.135042 0.091402
0.248447 0.146212 0.085817
0.306096 0.160128 0.076814
0.369574 0.176364 0.061830
0.437781 0.194461 0.014405
0.507805 0.213443 0.000000
0.577173 0.232578 0.000000
0.640986 0.250462 0.000000
0.697383 0.266361 0.000000
0.747311 0.280430 0.000000
0.791287 0.292851 0.000000
0.829831 0.303807 0.000000
0.863645 0.313329 0.000000
0.894285 0.322057 0.000000
0.922301 0.329931 0.000000
0.948058 0.337102 0.000000
0.971740 0.343511 0.000000
0.993591 0.349493 0.000000
1.000000 0.354833 0.000000
1.000000 0.359777 0.000000
1.000000 0.364324 0.000000
1.000000 0.368475 0.000000
1.000000 0.372229 0.000000
1.000000 0.375647 0.000000
1.000000 0.378668 0.000000
1.000000 0.381323 0.000000
0.075471 0.115023 0.098665
0.075471 0.115023 0.098665
0.075471 0.115023 0.098665
0.089082 0.116640 0.098207
0.119539 0.120943 0.096925
0.154574 0.126680 0.094850
0.197055 0.135286 0.091432
0.247410 0.146517 0.085847
0.304967 0.160525 0.076875
0.368750 0.176699 0.061921
0.436957 0.194827 0.014679
0.507012 0.213809 0.000000
0.576410 0.232853 0.000000
0.640406 0.250767 0.000000
0.696956 0.266636 0.000000
0.746914 0.280858 0.000000
0.790921 0.293217 0.000000
0.829587 0.304143 0.000000
0.863401 0.313725 0.000000
0.894102 0.322423 0.000000
0.922179 0.330205 0.000000
0.947936 0.337346 0.000000
0.971679 0.343755 0.000000
0.993561 0.349676 0.000000
1.000000 0.355016 0.000000
1.000000 0.360021 0.000000
1.000000 0.364508 0.000000
1.000000 0.368658 0.000000
1.000000 0.372381 0.000000
1.000000 0.375799 0.000000
1.000000 0.378851 0.000000
1.000000 0.381476 0.000000
0.075471 0.115023 0.098665
0.075471 0.115023 0.098665
0.075471 0.115023 0.098665
0.088045 0.116548 0.098238
0.118563 0.121096 0.096925
0.153475 0.127138 0.094850
0.195590 0.135470 0.091493
0.245884 0.146822 0.085939
0.303716 0.160830 0.076997
0.367285 0.177157 0.062104
0.435615 0.195163 0.015320
0.505821 0.214359 0.000000
0.575372 0.233463 0.000000
0.639582 0.251255 0.000000
0.696193 0.267216 0.000000
0.746456 0.281315 0.000000
0.790524 0.293797 0.000000
0.829221 0.304631 0.000000
0.863157 0.314183 0.000000
0.893889 0.322820 0.000000
0.922026 0.330602 0.000000
0.947845 0.337713 0.000000
0.971588 0.344091 0.000000
0.993469 0.349950 0.000000
1.000000 0.355383 0.000000
1.000000 0.360327 0.000000
1.000000 0.364813 0.000000
1.000000 0.368872 0.000000
1.000000 0.372686 0.000000
1.000000 0.376013 0.000000
1.000000 0.379065 0.000000
1.000000 0.381628 0.000000
0.075471 0.115023 0.098665
0.075471 0.115023 0.098665
0.075471 0.115023 0.098665
0.086122 0.117403 0.098207
0.115816 0.121309 0.096986
0.150515 0.127535 0.094942
0.192447 0.136080 0.091615
0.242863 0.147585 0.086122
0.300572 0.161501 0.077272
0.364538 0.178103 0.062440
0.432837 0.196231 0.016327
0.503380 0.215366 0.000000
0.573083 0.234470 0.000000
0.637598 0.252445 0.000000
0.694850 0.268315 0.000000
0.745235 0.282353 0.000000
0.789578 0.294804 0.000000
0.828489 0.305669 0.000000
0.862516 0.315160 0.000000
0.893400 0.323674 0.000000
0.921691 0.331487 0.000000
0.947539 0.338476 0.000000
0.971344 0.344884 0.000000
0.993286 0.350713 0.000000
1.000000 0.355993 0.000000
1.000000 0.360876 0.000000
1.000000 0.365332 0.000000
1.000000 0.369451 0.000000
1.000000 0.373144 0.000000
1.000000 0.376532 0.000000
1.000000 0.379492 0.000000
1.000000 0.382055 0.000000
0.075471 0.115023 0.098665
0.075471 0.115023 0.098665
0.074922 0.117281 0.098451
0.082582 0.122072 0.097810
0.110719 0.124361 0.096834
0.146334 0.128542 0.095033
0.187594 0.136172 0.091920
0.237736 0.147768 0.086519
0.295781 0.162234 0.077760
0.359808 0.179110 0.063172
0.428656 0.197635 0.017975
0.499367 0.216770 0.000000
0.569604 0.236118 0.000000
0.634821 0.254093 0.000000
0.692531 0.270085 0.000000
0.743374 0.284092 0.000000
0.788113 0.296391 0.000000
0.827237 0.307317 0.000000
0.861601 0.316655 0.000000
0.892699 0.325078 0.000000
0.921080 0.332769 0.000000
0.947143 0.339696 0.000000
0.971008 0.346105 0.000000
0.993042 0.351781 0.000000
1.000000 0.357092 0.000000
1.000000 0.361883 0.000000
1.000000 0.366308 0.000000
1.000000 0.370275 0.000000
1.000000 0.373968 0.000000
1.000000 0.377295 0.000000
1.000000 0.380194 0.000000
1.000000 0.382757 0.000000
0.073213 0.122499 0.099428
0.072969 0.123751 0.099062
0.072633 0.125826 0.098085
0.074250 0.130037 0.097078
0.102083 0.132723 0.096132
0.137881 0.133516 0.094789
0.181704 0.139528 0.091829
0.230533 0.147677 0.087160
0.288273 0.162081 0.078737
0.352667 0.179049 0.064729
0.421820 0.197879 0.022278
0.493416 0.217624 0.000000
0.564416 0.237430 0.000000
0.630976 0.256046 0.000000
0.689540 0.272374 0.000000
0.740993 0.286442 0.000000
0.786160 0.298680 0.000000
0.825650 0.309331 0.000000
0.860288 0.318547 0.000000
0.891691 0.327001 0.000000
0.920317 0.334569 0.000000
0.946502 0.341436 0.000000
0.970550 0.347601 0.000000
0.992676 0.353338 0.000000
1.000000 0.358495 0.000000
1.000000 0.363195 0.000000
1.000000 0.367498 0.000000
1.000000 0.371435 0.000000
1.000000 0.375067 0.000000
1.000000 0.378271 0.000000
1.000000 0.381170 0.000000
1.000000 0.383642 0.000000
0.070069 0.132021 0.100404
0.069795 0.133181 0.100038
0.069764 0.134707 0.098360
0.068940 0.138796 0.096376
0.083223 0.144167 0.101106
0.123720 0.142245 0.099763
0.169589 0.147158 0.095399
0.223484 0.154696 0.088350
0.279393 0.162417 0.079774
0.343877 0.178988 0.066407
0.413306 0.197726 0.027924
0.485481 0.217655 0.000000
0.557305 0.237522 0.000000
0.625269 0.256504 0.000000
0.685084 0.273320 0.000000
0.737514 0.287785 0.000000
0.783505 0.300572 0.000000
0.823697 0.311711 0.000000
0.858762 0.321141 0.000000
0.890471 0.329290 0.000000
0.919371 0.336828 0.000000
0.945769 0.343603 0.000000
0.969970 0.349645 0.000000
0.992248 0.355169 0.000000
1.000000 0.360235 0.000000
1.000000 0.364843 0.000000
1.000000 0.369085 0.000000
1.000000 0.372930 0.000000
1.000000 0.376410 0.000000
1.000000 0.379583 0.000000
1.000000 0.382391 0.000000
1.000000 0.384802 0.000000
0.065705 0.142733 0.102083
0.065492 0.143771 0.101472
0.065492 0.145174 0.099855
0.065126 0.148592 0.096681
0.080446 0.153506 0.103517
0.107332 0.160555 0.105867
0.153323 0.156527 0.104860
0.207919 0.165927 0.099031
0.271183 0.176181 0.090181
0.334051 0.184848 0.077424
0.403052 0.199649 0.054139
0.476051 0.218814 0.000000
0.549187 0.238590 0.000000
0.618494 0.257237 0.000000
0.679652 0.274022 0.000000
0.733211 0.288853 0.000000
0.780026 0.301732 0.000000
0.820890 0.312840 0.000000
0.856596 0.322637 0.000000
0.888884 0.331395 0.000000
0.918181 0.339361 0.000000
0.944884 0.346075 0.000000
0.969268 0.352087 0.000000
0.991730 0.357458 0.000000
1.000000 0.362371 0.000000
1.000000 0.366857 0.000000
1.000000 0.370947 0.000000
1.000000 0.374701 0.000000
1.000000 0.378119 0.000000
1.000000 0.381170 0.000000
1.000000 0.383886 0.000000
1.000000 0.386175 0.000000
0.059358 0.155459 0.104311
0.059236 0.156405 0.103487
0.059205 0.157656 0.101900
0.059632 0.160311 0.097108
0.069734 0.165560 0.100130
0.097993 0.171725 0.113741
0.139986 0.180789 0.111299
0.189975 0.176608 0.109773
0.254398 0.188846 0.102388
0.325719 0.200961 0.090578
0.393683 0.210605 0.074464
0.465095 0.222721 0.036225
0.539361 0.242100 0.000000
0.610376 0.260716 0.000000
0.672969 0.277165 0.000000
0.727901 0.291447 0.000000
0.775875 0.303838 0.000000
0.817624 0.314611 0.000000
0.854032 0.323980 0.000000
0.886870 0.332799 0.000000
0.916655 0.340795 0.000000
0.943786 0.348028 0.000000
0.968475 0.354681 0.000000
0.991089 0.360143 0.000000
1.000000 0.364843 0.000000
1.000000 0.369238 0.000000
1.000000 0.373144 0.000000
1.000000 0.376745 0.000000
1.000000 0.380072 0.000000
1.000000 0.383001 0.000000
1.000000 0.385595 0.000000
1.000000 0.387793 0.000000
0.043793 0.170077 0.107179
0.043458 0.170932 0.106386
0.043610 0.172061 0.104616
0.045716 0.174319 0.099031
0.060151 0.179355 0.099306
0.089570 0.185519 0.112367
0.113130 0.195468 0.120119
0.180209 0.206424 0.116762
0.235782 0.201663 0.114809
0.308049 0.215427 0.105043
0.385565 0.228794 0.090333
0.456977 0.238315 0.069337
0.528496 0.247227 0.011810
0.600855 0.265080 0.000000
0.665492 0.281468 0.000000
0.721828 0.295720 0.000000
0.770962 0.307897 0.000000
0.813657 0.318486 0.000000
0.850858 0.327550 0.000000
0.884428 0.335668 0.000000
0.914885 0.342931 0.000000
0.942412 0.349737 0.000000
0.967468 0.356268 0.000000
0.990356 0.362249 0.000000
1.000000 0.367773 0.000000
1.000000 0.371923 0.000000
1.000000 0.375769 0.000000
1.000000 0.379187 0.000000
1.000000 0.382361 0.000000
1.000000 0.385168 0.000000
1.000000 0.387640 0.000000
1.000000 0.389715 0.000000
0.017456 0.186801 0.110780
0.016571 0.187808 0.110201
0.017182 0.188846 0.108064
0.019104 0.190982 0.102663
0.037263 0.195163 0.098909
0.075441 0.202060 0.108461
0.114687 0.210086 0.128450
0.146731 0.224186 0.126864
0.221073 0.230350 0.123842
0.289464 0.230716 0.119814
0.367651 0.245335 0.107759
0.449409 0.259068 0.089570
0.522026 0.267796 0.063294
0.592187 0.275181 0.000000
0.657038 0.286900 0.000000
0.714839 0.300938 0.000000
0.765316 0.312902 0.000000
0.808957 0.323186 0.000000
0.847166 0.332036 0.000000
0.881559 0.340002 0.000000
0.912627 0.347082 0.000000
0.940703 0.353429 0.000000
0.966247 0.359075 0.000000
0.989502 0.364019 0.000000
1.000000 0.369482 0.000000
1.000000 0.374517 0.000000
1.000000 0.378607 0.000000
1.000000 0.381903 0.000000
1.000000 0.384924 0.000000
1.000000 0.387610 0.000000
1.000000 0.389899 0.000000
1.000000 0.391882 0.000000
0.000000 0.206485 0.115389
0.000000 0.207401 0.114626
0.000000 0.208316 0.112581
0.000000 0.210208 0.107027
0.003052 0.213260 0.098787
0.060578 0.220432 0.107332
0.097841 0.229496 0.121981
0.134798 0.241611 0.137453
0.196506 0.257786 0.133822
0.267063 0.255039 0.132631
0.349248 0.263188 0.125521
0.431434 0.277775 0.110903
0.515251 0.290776 0.089418
0.586603 0.297856 0.058198
0.650324 0.302342 0.000000
0.707027 0.307378 0.000000
0.758968 0.319066 0.000000
0.803799 0.329107 0.000000
0.843015 0.337621 0.000000
0.878264 0.345281 0.000000
0.910063 0.352117 0.000000
0.938659 0.358190 0.000000
0.964630 0.363500 0.000000
0.988281 0.368261 0.000000
1.000000 0.372534 0.000000
1.000000 0.376379 0.000000
1.000000 0.380987 0.000000
1.000000 0.384955 0.000000
1.000000 0.387793 0.000000
1.000000 0.390326 0.000000
1.000000 0.392493 0.000000
1.000000 0.394293 0.000000
0.000000 0.228641 0.121004
0.000000 0.229526 0.120241
0.000000 0.230442 0.117922
0.000000 0.232212 0.112428
0.000000 0.234806 0.102663
0.018280 0.241032 0.106264
0.076967 0.250614 0.116793
0.128084 0.261173 0.140414
0.158145 0.278386 0.146090
0.253330 0.295964 0.141482
0.327825 0.287419 0.142214
0.413519 0.298405 0.132113
0.497444 0.311955 0.115755
0.580285 0.323278 0.092256
0.645563 0.327031 0.059907
0.702327 0.328252 0.000000
0.752071 0.327764 0.000000
0.797971 0.336370 0.000000
0.838315 0.344579 0.000000
0.874601 0.351843 0.000000
0.907134 0.358312 0.000000
0.936400 0.363958 0.000000
0.962829 0.369055 0.000000
0.986877 0.373449 0.000000
1.000000 0.377264 0.000000
1.000000 0.380774 0.000000
1.000000 0.383795 0.000000
1.000000 0.387091 0.000000
1.000000 0.390936 0.000000
1.000000 0.393347 0.000000
1.000000 0.395331 0.000000
1.000000 0.396979 0.000000
0.000000 0.253483 0.127810
0.000000 0.254276 0.126741
0.000000 0.255070 0.124575
0.000000 0.256748 0.118837
0.000000 0.259068 0.108675
0.000000 0.263523 0.105928
0.048157 0.273259 0.114839
0.104891 0.284520 0.131807
0.160739 0.297673 0.159060
0.203311 0.318791 0.156008
0.317144 0.338231 0.150332
0.396033 0.322271 0.154238
0.480140 0.335332 0.141054
0.563378 0.346777 0.123354
0.639246 0.354253 0.101015
0.698146 0.354833 0.072572
0.748623 0.353094 0.000000
0.792599 0.350256 0.000000
0.833036 0.353155 0.000000
0.870390 0.359991 0.000000
0.903838 0.366003 0.000000
0.933776 0.371313 0.000000
0.960754 0.375830 0.000000
0.985290 0.379828 0.000000
1.000000 0.383154 0.000000
1.000000 0.386114 0.000000
1.000000 0.388769 0.000000
1.000000 0.390997 0.000000
1.000000 0.392981 0.000000
1.000000 0.396399 0.000000
1.000000 0.398505 0.000000
1.000000 0.399939 0.000000
0.000000 0.280430 0.135195
0.000000 0.281163 0.134401
0.000000 0.281865 0.131991
0.000000 0.283330 0.126314
0.000000 0.285466 0.115694
0.000000 0.287602 0.105531
0.000000 0.297276 0.113466
0.075593 0.308995 0.125063
0.143221 0.321538 0.154513
0.189273 0.339757 0.170962
0.268986 0.361913 0.167239
0.383246 0.380682 0.161990
0.463355 0.361517 0.167025
0.547112 0.372992 0.152865
0.624689 0.380560 0.135958
0.692042 0.383795 0.116487
0.744747 0.381353 0.092988
0.789487 0.377142 0.060914
0.829129 0.372381 0.000000
0.865599 0.370123 0.000000
0.900023 0.375616 0.000000
0.930785 0.380407 0.000000
0.958373 0.384405 0.000000
0.983398 0.387762 0.000000
1.000000 0.390631 0.000000
1.000000 0.393011 0.000000
1.000000 0.394934 0.000000
1.000000 0.396612 0.000000
1.000000 0.397986 0.000000
1.000000 0.399084 0.000000
1.000000 0.401526 0.000000
1.000000 0.403174 0.000000
0.000000 0.309117 0.143648
0.000000 0.309972 0.142702
0.000000 0.310521 0.140475
0.000000 0.311833 0.134890
0.000000 0.313695 0.124056
0.000000 0.315526 0.112734
0.000000 0.322606 0.112184
0.010681 0.334325 0.122377
0.112856 0.347448 0.143252
0.189548 0.360937 0.183810
0.221775 0.384985 0.184329
0.338842 0.407782 0.180514
0.442145 0.414771 0.179110
0.531029 0.401678 0.182315
0.610163 0.409277 0.168673
0.679133 0.412268 0.153750
0.738643 0.411688 0.137301
0.785855 0.406989 0.117800
0.826322 0.400946 0.094911
0.862852 0.394842 0.063813
0.895903 0.388647 0.000000
0.927306 0.391730 0.000000
0.955596 0.395239 0.000000
0.981140 0.397955 0.000000
1.000000 0.400153 0.000000
1.000000 0.401801 0.000000
1.000000 0.403021 0.000000
1.000000 0.403876 0.000000
1.000000 0.404456 0.000000
1.000000 0.404791 0.000000
1.000000 0.404944 0.000000
1.000000 0.406287 0.000000
0.000000 0.339452 0.152712
0.000000 0.340124 0.151675
0.000000 0.340887 0.149874
0.000000 0.341955 0.143923
0.000000 0.343633 0.133639
0.000000 0.345068 0.121553
0.000000 0.349157 0.111574
0.000000 0.360693 0.120485
0.072877 0.373968 0.134981
0.161013 0.387854 0.170962
0.225254 0.405676 0.201785
0.273594 0.432044 0.199374
0.411627 0.455329 0.195743
0.502617 0.447822 0.199588
0.595605 0.440406 0.200931
0.666011 0.442939 0.188815
0.727138 0.442054 0.175967
0.779995 0.438666 0.161898
0.823056 0.432227 0.145571
0.860258 0.424964 0.127413
0.893797 0.417639 0.106233
0.924041 0.410285 0.078920
0.952300 0.408545 0.008545
0.978454 0.410773 0.000000
1.000000 0.412299 0.000000
1.000000 0.413245 0.000000
1.000000 0.413611 0.000000
1.000000 0.413519 0.000000
1.000000 0.413001 0.000000
1.000000 0.412299 0.000000
1.000000 0.411383 0.000000
1.000000 0.410376 0.000000
0.000000 0.370886 0.162356
0.000000 0.371557 0.161257
0.000000 0.372412 0.159823
0.000000 0.373358 0.154055
0.000000 0.374701 0.143862
0.000000 0.375982 0.131197
0.000000 0.377142 0.112917
0.000000 0.387793 0.118593
0.000000 0.401007 0.131380
0.123476 0.415442 0.157412
0.214664 0.429847 0.205509
0.261387 0.453468 0.218601
0.350530 0.479866 0.216800
0.487282 0.504143 0.213657
0.567376 0.482399 0.223514
0.654200 0.476722 0.223484
0.717067 0.475319 0.213169
0.771237 0.471321 0.201846
0.817960 0.465431 0.189578
0.857176 0.457771 0.175662
0.891264 0.449439 0.160494
0.921904 0.441016 0.143832
0.949676 0.432532 0.124361
0.975280 0.426307 0.100343
0.999451 0.427375 0.063844
1.000000 0.427680 0.000000
1.000000 0.427253 0.000000
1.000000 0.426215 0.000000
1.000000 0.424598 0.000000
1.000000 0.422553 0.000000
1.000000 0.420203 0.000000
1.000000 0.417700 0.000000
0.000000 0.404273 0.172457
0.000000 0.404822 0.171572
0.000000 0.405737 0.170108
0.000000 0.406653 0.165011
0.000000 0.407874 0.155001
0.000000 0.408972 0.141604
0.000000 0.409827 0.123598
0.000000 0.416876 0.117433
0.000000 0.429877 0.128389
0.072938 0.444434 0.147616
0.182193 0.459236 0.191043
0.266545 0.475807 0.238437
0.301488 0.504387 0.237858
0.429755 0.530053 0.236973
0.564294 0.553918 0.235325
0.635554 0.519371 0.252232
0.708461 0.511742 0.250584
0.763912 0.507042 0.241306
0.811765 0.500542 0.231418
0.852995 0.492653 0.220340
0.888243 0.483680 0.208103
0.919310 0.474403 0.195132
0.947417 0.465034 0.180667
0.972992 0.455818 0.164736
0.996429 0.446479 0.145937
1.000000 0.445167 0.123171
1.000000 0.444221 0.091066
1.000000 0.442512 0.000000
1.000000 0.439979 0.000000
1.000000 0.436622 0.000000
1.000000 0.432624 0.000000
1.000000 0.428199 0.000000
0.000000 0.439857 0.183505
0.000000 0.440497 0.182528
0.000000 0.441260 0.181155
0.000000 0.442481 0.176852
0.000000 0.443397 0.167056
0.000000 0.444373 0.152956
0.000000 0.445045 0.135103
0.000000 0.447913 0.116060
0.000000 0.460700 0.125246
0.000000 0.475105 0.142702
0.139040 0.490517 0.175387
0.244450 0.505577 0.231357
0.308019 0.527733 0.259892
0.357183 0.557061 0.260258
0.509178 0.580133 0.261448
0.628565 0.592279 0.265019
0.698116 0.553765 0.286412
0.757931 0.545922 0.281804
0.806760 0.538506 0.273289
0.848692 0.529870 0.264073
0.884764 0.520165 0.253727
0.916167 0.510094 0.242710
0.944610 0.500114 0.230961
0.970428 0.490211 0.218235
0.994079 0.480201 0.204013
1.000000 0.470069 0.187472
1.000000 0.464454 0.168582
1.000000 0.462348 0.145357
1.000000 0.459236 0.112795
1.000000 0.455024 0.044526
1.000000 0.449775 0.000000
1.000000 0.443488 0.000000
0.000000 0.477638 0.195102
0.000000 0.478187 0.194095
0.000000 0.478889 0.192599
0.000000 0.480537 0.189609
0.000000 0.481361 0.180056
0.000000 0.482185 0.165347
0.000000 0.482582 0.147677
0.000000 0.482582 0.120363
0.000000 0.493538 0.122713
0.000000 0.507774 0.137819
0.081270 0.523186 0.164462
0.209232 0.538476 0.215976
0.311162 0.553674 0.277989
0.353185 0.580987 0.284611
0.443580 0.606806 0.287266
0.585870 0.627466 0.290959
0.683650 0.622919 0.301244
0.753170 0.587701 0.324041
0.802792 0.579339 0.316747
0.845304 0.569848 0.308751
0.881834 0.559472 0.299748
0.913329 0.548363 0.289708
0.941222 0.537163 0.279026
0.967315 0.526787 0.268254
0.991180 0.516350 0.256474
1.000000 0.505821 0.243290
1.000000 0.495064 0.228214
1.000000 0.485603 0.210880
1.000000 0.482277 0.191043
1.000000 0.477699 0.165316
1.000000 0.471839 0.128756
1.000000 0.464454 0.059052
0.000000 0.517388 0.207248
0.000000 0.517937 0.206210
0.000000 0.518578 0.204715
0.000000 0.520073 0.201633
0.000000 0.521508 0.193942
0.000000 0.522148 0.179294
0.000000 0.522423 0.161074
0.000000 0.522179 0.134615
0.000000 0.528405 0.120027
0.000000 0.542229 0.133272
0.000000 0.557366 0.158206
0.162600 0.572961 0.198947
0.281163 0.587152 0.263615
0.363226 0.605035 0.310307
0.401251 0.632044 0.313725
0.526390 0.653803 0.319432
0.658747 0.672053 0.325841
0.734981 0.651545 0.342077
0.799832 0.622797 0.362249
0.842863 0.612390 0.355077
0.879698 0.601251 0.347051
0.911376 0.589441 0.337957
0.938933 0.577295 0.327916
0.963622 0.565240 0.317174
0.987671 0.554528 0.307134
1.000000 0.543877 0.296086
1.000000 0.532952 0.283665
1.000000 0.521691 0.269505
1.000000 0.509911 0.252964
1.000000 0.504265 0.235050
1.000000 0.498451 0.212650
1.000000 0.490883 0.182681
0.000000 0.558984 0.219669
0.000000 0.559472 0.218692
0.000000 0.560082 0.217197
0.000000 0.561425 0.213840
0.000000 0.563622 0.208591
0.000000 0.564111 0.194339
0.000000 0.564355 0.175174
0.000000 0.563958 0.149386
0.000000 0.565148 0.117647
0.000000 0.578393 0.128878
0.000000 0.592615 0.151766
0.105074 0.607233 0.188022
0.245090 0.620813 0.248142
0.357000 0.633295 0.318303
0.413733 0.654994 0.342107
0.457984 0.680201 0.347509
0.604547 0.697841 0.356603
0.726864 0.713832 0.365789
0.782162 0.678950 0.386877
0.841245 0.657069 0.403693
0.878172 0.645228 0.396368
0.909941 0.632837 0.387945
0.937469 0.620172 0.378515
0.961700 0.607080 0.367926
0.983551 0.594171 0.356725
1.000000 0.583520 0.347295
1.000000 0.572778 0.336889
1.000000 0.561761 0.325170
1.000000 0.550286 0.311833
1.000000 0.538079 0.296422
1.000000 0.528954 0.279545
1.000000 0.522087 0.259739
0.000000 0.601404 0.232120
0.000000 0.601801 0.231113
0.000000 0.602289 0.229465
0.000000 0.603540 0.226139
0.000000 0.605371 0.220737
0.000000 0.606806 0.209934
0.000000 0.607019 0.189792
0.000000 0.606470 0.164706
0.000000 0.605249 0.126375
0.000000 0.614923 0.124117
0.000000 0.628046 0.145602
0.000000 0.641505 0.180941
0.199619 0.654749 0.231479
0.328038 0.666102 0.305089
0.429145 0.678279 0.371557
0.466682 0.702296 0.378424
0.546288 0.723476 0.387091
0.677607 0.738918 0.398718
0.788113 0.752102 0.410651
0.829191 0.709407 0.436011
0.877409 0.690547 0.447211
0.908995 0.677852 0.439460
0.936431 0.664820 0.430640
0.960510 0.651423 0.420539
0.981842 0.637781 0.409400
1.000000 0.624018 0.397375
1.000000 0.613642 0.388647
1.000000 0.603082 0.378912
1.000000 0.592218 0.368109
1.000000 0.580743 0.355810
1.000000 0.568719 0.341955
1.000000 0.556939 0.326329
0.000000 0.643061 0.243931
0.000000 0.643397 0.242832
0.000000 0.643854 0.241184
0.000000 0.644892 0.237766
0.000000 0.646418 0.232181
0.000000 0.648615 0.224491
0.000000 0.649012 0.205539
0.000000 0.648524 0.180270
0.000000 0.647364 0.144167
0.000000 0.651514 0.119448
0.000000 0.663600 0.138369
0.000000 0.676020 0.173617
0.151888 0.688380 0.221561
0.294865 0.699184 0.291356
0.413245 0.708614 0.368597
0.485084 0.724483 0.410620
0.521416 0.746761 0.419196
0.627710 0.763668 0.431312
0.744442 0.777005 0.444739
0.830442 0.776791 0.460151
0.871153 0.739528 0.485389
0.909087 0.722713 0.490089
0.936156 0.709621 0.482033
0.959838 0.696345 0.472877
0.980865 0.682795 0.462684
0.999664 0.668940 0.451270
1.000000 0.654719 0.438758
1.000000 0.644770 0.430762
1.000000 0.634760 0.422065
1.000000 0.624384 0.412482
1.000000 0.613703 0.401953
1.000000 0.602441 0.390326
0.000000 0.683986 0.255070
0.000000 0.684321 0.253880
0.000000 0.684688 0.252262
0.000000 0.685573 0.248783
0.000000 0.686976 0.243168
0.000000 0.688808 0.235355
0.000000 0.690425 0.221988
0.000000 0.690089 0.195773
0.000000 0.688991 0.161715
0.000000 0.688258 0.114351
0.000000 0.699336 0.130922
0.000000 0.710780 0.165316
0.076997 0.721981 0.214298
0.254856 0.732509 0.276158
0.388159 0.740688 0.357946
0.500298 0.748165 0.437232
0.542535 0.767758 0.453437
0.577783 0.787961 0.462959
0.701442 0.800748 0.477516
0.804379 0.812039 0.491279
0.868406 0.800137 0.508629
0.907439 0.768399 0.533104
0.936950 0.753506 0.531609
0.960082 0.740352 0.523125
0.980591 0.726955 0.513603
0.998901 0.713405 0.503136
1.000000 0.699550 0.491768
1.000000 0.685389 0.479316
1.000000 0.675868 0.472023
1.000000 0.666926 0.465034
1.000000 0.657893 0.457618
1.000000 0.648890 0.450141
0.000000 0.724239 0.265446
0.000000 0.724483 0.264378
0.000000 0.724819 0.262608
0.000000 0.725582 0.259068
0.000000 0.726772 0.253300
0.000000 0.728420 0.245212
0.000000 0.730434 0.234684
0.000000 0.731014 0.212039
0.000000 0.730129 0.178836
0.000000 0.728389 0.129671
0.000000 0.735317 0.122591
0.000000 0.745754 0.155764
0.000000 0.755886 0.205783
0.216800 0.765408 0.267643
0.360143 0.773007 0.346715
0.482277 0.778988 0.430213
0.565911 0.789059 0.487190
0.598901 0.807980 0.497322
0.660395 0.824063 0.508995
0.767117 0.834714 0.523644
0.857206 0.843992 0.537407
0.902220 0.822751 0.555688
0.938598 0.796292 0.578576
0.961364 0.782986 0.571496
0.981109 0.769833 0.562615
0.998779 0.756558 0.552789
1.000000 0.743069 0.542107
1.000000 0.729366 0.530663
1.000000 0.715480 0.518425
1.000000 0.706477 0.511925
1.000000 0.699062 0.507073
1.000000 0.692042 0.502708
0.000000 0.763699 0.274998
0.000000 0.763943 0.273838
0.000000 0.764279 0.272221
0.000000 0.764950 0.268559
0.000000 0.765957 0.262669
0.000000 0.767391 0.254582
0.000000 0.769131 0.243748
0.000000 0.771206 0.229679
0.000000 0.770657 0.195377
0.000000 0.769223 0.150271
0.000000 0.771420 0.112764
0.000000 0.780911 0.143801
0.000000 0.790066 0.195743
0.170504 0.798367 0.260410
0.327489 0.805478 0.334356
