其他预设/【213】赛博朋克科幻预设52款/1.LUT预设（视频调色-PR-AE-PS-FCPX-达芬奇用）/赛博朋克科幻__-11 强度2.cube
# Created by Adobe Lightroom plugin Export LUT (1.17.0)
# www.johnrellis.com/lightroom/exportlut.htm
# Preset: 赛博朋克科幻[素锦印象]-11 强度2
# Color profile: /Library/Application Support/Adobe/Color/Profiles/Recommended/AdobeRGB1998.icc
LUT_3D_SIZE 32
0.000000 0.000000 0.000000
0.034974 0.000000 0.007050
0.067079 0.000000 0.015991
0.097353 0.000000 0.036072
0.130343 0.000000 0.060914
0.163210 0.000000 0.075898
0.196262 0.000000 0.089418
0.228824 0.000000 0.103517
0.261601 0.000000 0.117433
0.294072 0.000000 0.131655
0.326604 0.000000 0.146090
0.359045 0.000000 0.160830
0.391485 0.000000 0.175723
0.423896 0.000000 0.191043
0.456275 0.000000 0.206394
0.488777 0.000000 0.221378
0.521324 0.000000 0.236484
0.553887 0.000000 0.251865
0.586206 0.000000 0.267277
0.618372 0.000000 0.282841
0.650324 0.000000 0.298405
0.682307 0.000000 0.314122
0.714290 0.000000 0.330053
0.746212 0.000000 0.346014
0.778073 0.000000 0.362127
0.809934 0.000000 0.378393
0.841794 0.000000 0.394049
0.873686 0.000000 0.409247
0.905486 0.000000 0.424475
0.937285 0.000000 0.439673
0.968994 0.000000 0.454994
1.000000 0.000000 0.470466
0.000000 0.035615 0.011292
0.026490 0.029511 0.003388
0.067567 0.007843 0.007935
0.097993 0.000000 0.025208
0.130587 0.000000 0.059815
0.163455 0.000000 0.075532
0.196353 0.000000 0.089479
0.228946 0.000000 0.103609
0.261540 0.000000 0.117769
0.294072 0.000000 0.132113
0.326635 0.000000 0.146517
0.359136 0.000000 0.161044
0.391547 0.000000 0.175753
0.424140 0.000000 0.190402
0.456611 0.000000 0.205234
0.489082 0.000000 0.220340
0.521569 0.000000 0.235599
0.554162 0.000000 0.250919
0.586419 0.000000 0.266453
0.618555 0.000000 0.281987
0.650507 0.000000 0.297612
0.682490 0.000000 0.313451
0.714443 0.000000 0.329351
0.746365 0.000000 0.345464
0.778225 0.000000 0.361608
0.810056 0.000000 0.377874
0.841825 0.000000 0.394171
0.873686 0.000000 0.409583
0.905516 0.000000 0.424750
0.937316 0.000000 0.439918
0.969024 0.000000 0.455207
1.000000 0.000000 0.470680
0.000000 0.066804 0.028168
0.006653 0.065339 0.011719
0.059785 0.061067 0.010010
0.097932 0.021302 0.020264
0.131777 0.000000 0.036622
0.164248 0.000000 0.068788
0.197116 0.000000 0.086732
0.229496 0.000000 0.101350
0.262119 0.000000 0.115694
0.294621 0.000000 0.130159
0.327062 0.000000 0.144625
0.359625 0.000000 0.159121
0.392035 0.000000 0.173953
0.424567 0.000000 0.188876
0.456916 0.000000 0.203861
0.489509 0.000000 0.218967
0.521935 0.000000 0.234257
0.554406 0.000000 0.249760
0.586755 0.000000 0.265293
0.618769 0.000000 0.280919
0.650813 0.000000 0.296666
0.682734 0.000000 0.312474
0.714687 0.000000 0.328527
0.746578 0.000000 0.344671
0.778408 0.000000 0.360845
0.810239 0.000000 0.377203
0.842008 0.000000 0.393500
0.873716 0.000000 0.409918
0.905547 0.000000 0.425086
0.937346 0.000000 0.440284
0.969055 0.000000 0.455543
1.000000 0.000000 0.471015
0.000000 0.094728 0.059663
0.008484 0.092988 0.054566
0.017700 0.092012 0.026886
0.087739 0.085389 0.022217
0.130434 0.062593 0.037598
0.164828 0.000000 0.048707
0.198276 0.000000 0.067720
0.230838 0.000000 0.088655
0.263371 0.000000 0.107118
0.295995 0.000000 0.124514
0.328313 0.000000 0.139590
0.360723 0.000000 0.154788
0.393042 0.000000 0.169955
0.425452 0.000000 0.185275
0.457832 0.000000 0.200504
0.490303 0.000000 0.215976
0.522728 0.000000 0.231510
0.555138 0.000000 0.247105
0.587396 0.000000 0.262852
0.619348 0.000000 0.278630
0.651331 0.000000 0.294530
0.683253 0.000000 0.310613
0.715145 0.000000 0.326665
0.746975 0.000000 0.342931
0.778805 0.000000 0.359228
0.810575 0.000000 0.375738
0.842344 0.000000 0.392187
0.874022 0.000000 0.408789
0.905669 0.000000 0.425391
0.937407 0.000000 0.441016
0.969116 0.000000 0.456214
1.000000 0.000000 0.471626
0.000000 0.126650 0.080385
0.000000 0.124788 0.078065
0.015351 0.122988 0.071168
0.045563 0.120394 0.034516
0.117037 0.110628 0.040040
0.163516 0.091035 0.050813
0.197421 0.038422 0.061433
0.231785 0.000000 0.065431
0.265049 0.000000 0.083497
0.297307 0.000000 0.105837
0.329778 0.000000 0.126223
0.362280 0.000000 0.145449
0.394629 0.000000 0.163516
0.426825 0.000000 0.179507
0.459144 0.000000 0.195377
0.491463 0.000000 0.211246
0.523857 0.000000 0.227237
0.556115 0.000000 0.243168
0.588342 0.000000 0.259220
0.620264 0.000000 0.275212
0.652125 0.000000 0.291356
0.684016 0.000000 0.307622
0.715846 0.000000 0.323919
0.747677 0.000000 0.340429
0.779416 0.000000 0.356939
0.811154 0.000000 0.373541
0.842832 0.000000 0.390204
0.874479 0.000000 0.406958
0.906065 0.000000 0.423774
0.937652 0.000000 0.440589
0.969238 0.000000 0.457313
1.000000 0.000000 0.472724
0.000000 0.158724 0.100496
0.000000 0.157259 0.098024
0.000000 0.155184 0.094453
0.024475 0.152621 0.076783
0.077882 0.147585 0.047608
0.146212 0.136416 0.051881
0.196750 0.119203 0.058656
0.229953 0.073793 0.068147
0.264469 0.000000 0.072663
0.298650 0.000000 0.077852
0.331365 0.000000 0.100404
0.363653 0.000000 0.124849
0.395911 0.000000 0.146426
0.428229 0.000000 0.167086
0.460639 0.000000 0.186435
0.492988 0.000000 0.205142
0.525261 0.000000 0.221683
0.557427 0.000000 0.238071
0.589502 0.000000 0.254490
0.621424 0.000000 0.270756
0.653193 0.000000 0.287266
0.684993 0.000000 0.303838
0.716762 0.000000 0.320439
0.748501 0.000000 0.337194
0.780209 0.000000 0.353979
0.811826 0.000000 0.370825
0.843503 0.000000 0.387732
0.875059 0.000000 0.404730
0.906584 0.000000 0.421790
0.938140 0.000000 0.438941
0.969635 0.000000 0.456062
1.000000 0.000000 0.473182
0.000000 0.190677 0.120363
0.000000 0.189425 0.118013
0.000000 0.187655 0.114595
0.003876 0.184665 0.103365
0.037934 0.181399 0.075380
0.108278 0.173983 0.056794
0.175174 0.162264 0.059998
0.229770 0.148257 0.063142
0.262882 0.105989 0.074739
0.296910 0.043549 0.081758
0.331151 0.000000 0.087343
0.365301 0.000000 0.093507
0.397528 0.000000 0.120150
0.429755 0.000000 0.145052
0.462043 0.000000 0.167758
0.494270 0.000000 0.189181
0.526604 0.000000 0.209720
0.558923 0.000000 0.229862
0.590967 0.000000 0.248875
0.622705 0.000000 0.265660
0.654414 0.000000 0.282444
0.686152 0.000000 0.299413
0.717800 0.000000 0.316350
0.749477 0.000000 0.333410
0.781094 0.000000 0.350561
0.812680 0.000000 0.367773
0.844236 0.000000 0.385016
0.875761 0.000000 0.402380
0.907225 0.000000 0.419745
0.938659 0.000000 0.437263
0.970092 0.000000 0.454749
1.000000 0.000000 0.472297
0.000000 0.222263 0.139986
0.000000 0.221164 0.137728
0.000000 0.219669 0.134615
0.000000 0.216556 0.126986
0.015442 0.213382 0.106722
0.056733 0.209445 0.068635
0.139101 0.200168 0.063752
0.204349 0.188327 0.066743
0.262730 0.177432 0.069154
0.295933 0.138155 0.082246
0.329412 0.086610 0.092256
0.363622 0.000000 0.098024
0.397711 0.000000 0.104311
0.431556 0.000000 0.111910
0.463661 0.000000 0.141146
0.495796 0.000000 0.166445
0.528038 0.000000 0.189853
0.560296 0.000000 0.211978
0.592340 0.000000 0.233188
0.624079 0.000000 0.254154
0.655787 0.000000 0.274846
0.687434 0.000000 0.294377
0.719020 0.000000 0.311772
0.750576 0.000000 0.329290
0.782101 0.000000 0.346838
0.813626 0.000000 0.364416
0.845060 0.000000 0.382086
0.876493 0.000000 0.399878
0.907866 0.000000 0.417731
0.939239 0.000000 0.435615
0.970550 0.000000 0.453681
1.000000 0.000000 0.471778
0.000000 0.254002 0.159762
0.000000 0.253056 0.157717
0.000000 0.251804 0.154788
0.000000 0.248966 0.148287
0.000000 0.245457 0.134188
0.040345 0.241825 0.107790
0.084749 0.236881 0.068208
0.169253 0.226780 0.070954
0.233310 0.214694 0.075044
0.295537 0.207462 0.076234
0.328893 0.170443 0.090333
0.361791 0.118746 0.102876
0.396002 0.061250 0.109438
0.430121 0.000000 0.115724
0.464057 0.000000 0.122316
0.497597 0.000000 0.133883
0.529778 0.000000 0.162722
0.561913 0.000000 0.188235
0.593866 0.000000 0.212314
0.625635 0.000000 0.235080
0.657282 0.000000 0.257237
0.688899 0.000000 0.279271
0.720455 0.000000 0.300938
0.751888 0.000000 0.322484
0.783200 0.000000 0.342779
0.814603 0.000000 0.360937
0.845975 0.000000 0.379095
0.877287 0.000000 0.397314
0.908568 0.000000 0.415686
0.939818 0.000000 0.434241
0.971008 0.000000 0.452888
1.000000 0.000000 0.471748
0.000000 0.286656 0.179446
0.000000 0.285863 0.177554
0.000000 0.284733 0.175021
0.000000 0.282261 0.169192
0.000000 0.278264 0.160006
0.019654 0.274876 0.138613
0.065095 0.270787 0.105989
0.119020 0.263981 0.076448
0.199588 0.253727 0.079591
0.262455 0.241825 0.084047
0.323644 0.234043 0.085969
0.361669 0.201968 0.098939
0.394690 0.156283 0.112245
0.428290 0.104097 0.121218
0.462440 0.000000 0.127504
0.496498 0.000000 0.134249
0.530510 0.000000 0.140871
0.563714 0.000000 0.156313
0.595636 0.000000 0.184634
0.627344 0.000000 0.210880
0.658991 0.000000 0.235508
0.690578 0.000000 0.259373
0.722133 0.000000 0.282536
0.753475 0.000000 0.305486
0.784787 0.000000 0.328191
0.816007 0.000000 0.350927
0.847074 0.000000 0.373602
0.878141 0.000000 0.394842
0.909300 0.000000 0.413916
0.940398 0.000000 0.433143
0.971405 0.000000 0.452613
1.000000 0.000000 0.472358
0.000000 0.320592 0.199741
0.000000 0.319890 0.198093
0.000000 0.318853 0.195773
0.000000 0.316564 0.190585
0.000000 0.312718 0.182528
0.000000 0.308782 0.167147
0.055940 0.304875 0.141360
0.081453 0.300328 0.102235
0.149630 0.291600 0.084871
0.229587 0.281315 0.088808
0.291691 0.269413 0.093538
0.350530 0.259922 0.096803
0.394293 0.234165 0.107424
0.427497 0.191653 0.121279
0.460578 0.137972 0.133059
0.494789 0.081209 0.139651
0.528893 0.000000 0.146181
0.562860 0.000000 0.152895
0.596643 0.000000 0.159792
0.629328 0.000000 0.178775
0.660945 0.000000 0.207706
0.692500 0.000000 0.234440
0.723995 0.000000 0.260014
0.755337 0.000000 0.284855
0.786618 0.000000 0.309209
0.817807 0.000000 0.333227
0.848814 0.000000 0.357214
0.879759 0.000000 0.381231
0.910521 0.000000 0.405463
0.941131 0.000000 0.430091
0.971771 0.000000 0.453071
1.000000 0.000000 0.473945
0.000000 0.355932 0.220615
0.000000 0.355322 0.219059
0.000000 0.354192 0.216922
0.000000 0.351995 0.212314
0.000000 0.348486 0.205142
0.000000 0.343786 0.194522
0.037751 0.340063 0.172824
0.075868 0.335576 0.142489
0.097780 0.330297 0.095186
0.182895 0.320043 0.094270
0.259556 0.309697 0.098421
0.320867 0.297856 0.103120
0.377234 0.286351 0.107637
0.426917 0.266880 0.116121
0.460182 0.226566 0.130434
0.493141 0.174929 0.143923
0.527092 0.125521 0.151736
0.561212 0.002319 0.158206
0.595178 0.000000 0.165011
0.628931 0.000000 0.172183
0.662440 0.000000 0.179782
0.694636 0.000000 0.202731
0.726070 0.000000 0.231998
0.757412 0.000000 0.259678
0.788663 0.000000 0.286290
0.819791 0.000000 0.312169
0.850797 0.000000 0.337804
0.881682 0.000000 0.363256
0.912413 0.000000 0.388769
0.942962 0.000000 0.414710
0.973297 0.000000 0.441108
1.000000 0.000000 0.468360
0.000000 0.392676 0.241855
0.000000 0.392065 0.240543
0.000000 0.391089 0.238499
0.000000 0.388952 0.234379
0.000000 0.385626 0.227817
0.000000 0.380926 0.219120
0.011963 0.376471 0.202213
0.068482 0.372076 0.176730
0.092988 0.366857 0.141543
0.131930 0.360021 0.100343
0.215640 0.349310 0.103670
0.289220 0.338842 0.108064
0.349889 0.327092 0.112917
0.404089 0.313725 0.118318
0.459358 0.300267 0.124331
0.492744 0.261326 0.139467
0.525841 0.213931 0.153323
0.559350 0.161776 0.163668
0.593469 0.105104 0.170382
0.627466 0.000000 0.177340
0.661097 0.000000 0.184848
0.694636 0.000000 0.192721
0.727962 0.000000 0.201205
0.759701 0.000000 0.228336
0.790921 0.000000 0.258305
0.822019 0.000000 0.286931
0.852995 0.000000 0.314794
0.883818 0.000000 0.342168
0.914488 0.000000 0.369451
0.945037 0.000000 0.396887
0.975311 0.000000 0.424720
1.000000 0.000000 0.453346
0.000000 0.431067 0.263767
0.000000 0.430365 0.262455
0.000000 0.429419 0.260685
0.000000 0.427466 0.256840
0.000000 0.424201 0.250797
0.000000 0.419654 0.242771
0.000000 0.414252 0.230900
0.055360 0.409979 0.208347
0.086610 0.404791 0.178988
0.108949 0.398932 0.138338
0.166049 0.390112 0.109468
0.247501 0.379431 0.112917
0.318639 0.368933 0.117525
0.378912 0.357275 0.122499
0.433051 0.344091 0.128023
0.491707 0.334752 0.132265
0.525170 0.296452 0.148135
0.558465 0.251865 0.162478
0.591577 0.195315 0.175937
0.625727 0.150607 0.182803
0.659602 0.070893 0.190249
0.693294 0.000000 0.198001
0.726802 0.000000 0.206485
0.760098 0.000000 0.215335
0.793240 0.000000 0.224979
0.824430 0.000000 0.256291
0.855375 0.000000 0.287419
0.886168 0.000000 0.317357
0.916808 0.000000 0.346899
0.947265 0.000000 0.376287
0.977478 0.000000 0.405951
1.000000 0.000000 0.436286
0.000000 0.470893 0.286107
0.000000 0.470192 0.284886
0.000000 0.469368 0.283238
0.000000 0.467414 0.279637
0.000000 0.464210 0.274052
0.000000 0.459907 0.266697
0.000000 0.454200 0.257511
0.021393 0.449317 0.238743
0.076844 0.444160 0.212955
0.102876 0.438331 0.179385
0.123842 0.431739 0.132479
0.196811 0.420935 0.118349
0.278294 0.410590 0.122133
0.347784 0.400122 0.126925
0.407813 0.388342 0.132021
0.462074 0.375341 0.137606
0.523919 0.370153 0.140291
0.557610 0.332433 0.156466
0.590967 0.289464 0.171420
0.624170 0.237613 0.185794
0.657893 0.189609 0.195712
0.691798 0.136233 0.203403
0.725429 0.000000 0.211765
0.758907 0.000000 0.220798
0.792142 0.000000 0.230411
0.825223 0.000000 0.240726
0.857939 0.000000 0.253941
0.888701 0.000000 0.287907
0.919280 0.000000 0.320470
0.949676 0.000000 0.352453
0.979828 0.000000 0.384405
1.000000 0.000000 0.416938
0.000000 0.511101 0.308171
0.000000 0.510491 0.307103
0.000000 0.509667 0.305638
0.000000 0.507866 0.302312
0.000000 0.504906 0.297185
0.000000 0.500877 0.290318
0.000000 0.495552 0.281865
0.000000 0.489906 0.268467
0.060731 0.484901 0.245060
0.093080 0.479194 0.215854
0.117159 0.472633 0.177829
0.139132 0.465278 0.124453
0.225742 0.452552 0.126772
0.308537 0.442725 0.131228
0.376745 0.432166 0.135988
0.436530 0.420569 0.141207
0.490852 0.407630 0.146883
0.555932 0.407050 0.147494
0.589837 0.369207 0.164767
0.623377 0.327459 0.180606
0.656672 0.279088 0.195804
0.690028 0.226230 0.209018
0.723934 0.183230 0.217380
0.757504 0.119692 0.226291
0.790921 0.000000 0.236027
0.824125 0.000000 0.246494
0.857115 0.000000 0.257786
0.889860 0.000000 0.270207
0.921904 0.000000 0.289189
0.952270 0.000000 0.324712
0.982361 0.000000 0.359899
1.000000 0.000000 0.395087
0.000000 0.549950 0.329259
0.000000 0.549432 0.328313
0.000000 0.548669 0.326970
0.000000 0.547021 0.324010
0.000000 0.544335 0.319341
0.000000 0.540673 0.313176
0.000000 0.535790 0.305486
0.000000 0.529656 0.296117
0.020294 0.524804 0.275669
0.081239 0.519432 0.249516
0.109133 0.513359 0.216892
0.131594 0.506432 0.174441
0.175845 0.497566 0.133028
0.256596 0.485023 0.135531
0.338109 0.475502 0.140108
0.405219 0.465064 0.144961
0.464790 0.453529 0.150271
0.519432 0.441016 0.155886
0.587762 0.444923 0.154604
0.621820 0.407294 0.172946
0.655543 0.366400 0.189975
0.688991 0.320378 0.206119
0.722194 0.265660 0.222080
0.755917 0.225162 0.232181
0.789517 0.177890 0.241855
0.822843 0.104219 0.252445
0.855955 0.000000 0.263890
0.888823 0.000000 0.276463
0.921447 0.000000 0.290471
0.953765 0.000000 0.306004
0.985016 0.000000 0.331334
1.000000 0.000000 0.370214
0.000000 0.587335 0.349462
0.000000 0.586816 0.348486
0.000000 0.586175 0.347326
0.000000 0.584619 0.344579
0.000000 0.582177 0.340490
0.000000 0.578790 0.334874
0.000000 0.574426 0.327916
0.000000 0.568841 0.319371
0.000000 0.563287 0.304723
0.067964 0.558373 0.281071
0.100343 0.552850 0.252262
0.125124 0.546532 0.216464
0.146120 0.539483 0.169223
0.208713 0.529320 0.141909
0.288609 0.517693 0.144564
0.366827 0.508446 0.149020
0.433234 0.498360 0.154208
0.492714 0.487312 0.159426
0.547753 0.475288 0.164981
0.616114 0.480873 0.163119
0.653620 0.446540 0.181308
0.687526 0.406287 0.199557
0.721065 0.361944 0.217136
0.754421 0.311467 0.234195
0.787808 0.265354 0.247990
0.821347 0.226749 0.258701
0.854582 0.177523 0.270329
0.887572 0.101045 0.283177
0.920287 0.000000 0.297276
0.952728 0.000000 0.313054
0.984833 0.000000 0.330907
1.000000 0.000000 0.351476
0.000000 0.624170 0.369116
0.000000 0.623743 0.368353
0.000000 0.623102 0.367163
0.000000 0.621759 0.364843
0.000000 0.619593 0.361089
0.000000 0.616541 0.356146
0.000000 0.612604 0.349798
0.000000 0.607630 0.342168
0.000000 0.601617 0.333013
0.044282 0.597223 0.311559
0.090486 0.592187 0.285588
0.117769 0.586481 0.254154
0.140719 0.580133 0.214817
0.160037 0.573083 0.161929
0.238987 0.561822 0.150820
0.319493 0.551202 0.153811
0.395422 0.542260 0.158572
0.461036 0.532555 0.163668
0.520592 0.521935 0.169070
0.575952 0.510460 0.174777
0.642267 0.514061 0.174411
0.685237 0.486824 0.190311
0.719265 0.447181 0.209873
0.753017 0.404456 0.228641
0.786404 0.356939 0.247135
0.819608 0.305058 0.264988
0.853025 0.272160 0.276951
0.886168 0.234134 0.289952
0.919005 0.187869 0.304417
0.951537 0.124086 0.320623
0.983673 0.000000 0.338842
1.000000 0.000000 0.359899
0.000000 0.661067 0.388678
0.000000 0.660639 0.387976
0.000000 0.660090 0.386969
0.000000 0.658900 0.384863
0.000000 0.656947 0.381476
0.000000 0.654231 0.377020
0.000000 0.650690 0.371344
0.000000 0.646265 0.364599
0.000000 0.640833 0.356451
0.005280 0.635889 0.340887
0.080171 0.631403 0.317510
0.110567 0.626337 0.289342
0.134829 0.620600 0.255161
0.155734 0.614282 0.212222
0.182284 0.606897 0.159030
0.267887 0.594903 0.160159
0.349737 0.585565 0.163760
0.423774 0.576928 0.168734
0.488838 0.567590 0.173861
0.548333 0.557458 0.179416
0.603937 0.546502 0.185183
0.668147 0.547967 0.186191
0.716609 0.528130 0.200015
0.750790 0.489174 0.220920
0.784604 0.447669 0.241154
0.818082 0.402716 0.261234
0.851316 0.352758 0.281437
0.884489 0.317082 0.297063
0.917449 0.286412 0.311925
0.950072 0.252995 0.328405
0.982330 0.217014 0.347173
1.000000 0.179507 0.368780
0.000000 0.697749 0.407965
0.000000 0.697353 0.407355
0.000000 0.696895 0.406409
0.000000 0.695796 0.404578
0.000000 0.694057 0.401526
0.000000 0.691646 0.397589
0.000000 0.688502 0.392554
0.000000 0.684596 0.386572
0.000000 0.679713 0.379431
0.000000 0.674250 0.369787
0.070619 0.670344 0.348333
0.104768 0.665766 0.322881
0.130037 0.660761 0.292485
0.151949 0.655085 0.255589
0.171206 0.648829 0.208743
0.218204 0.640528 0.169436
0.295872 0.628656 0.170291
0.379675 0.620569 0.174563
0.452094 0.612329 0.179538
0.516564 0.603296 0.185031
0.575891 0.593683 0.190585
0.631800 0.583276 0.196597
0.693996 0.582635 0.199069
0.747768 0.570275 0.210513
0.782101 0.531823 0.233127
0.815976 0.491707 0.255009
0.849516 0.448981 0.276707
0.882719 0.403174 0.299016
0.915679 0.362158 0.319585
0.948394 0.337591 0.336553
0.980713 0.313176 0.355871
1.000000 0.290837 0.378088
0.000000 0.734035 0.426917
0.000000 0.733730 0.426368
0.000000 0.733272 0.425544
0.000000 0.732326 0.423926
0.000000 0.730800 0.421271
0.000000 0.728634 0.417762
0.000000 0.725856 0.413397
0.000000 0.722377 0.408118
0.000000 0.718135 0.401801
0.000000 0.712917 0.394629
0.065888 0.708736 0.378393
0.101259 0.704768 0.355077
0.127382 0.700313 0.327764
0.149630 0.695369 0.295323
0.169314 0.689876 0.255650
0.186984 0.683772 0.204715
0.251621 0.674586 0.180789
0.326055 0.663478 0.181613
0.409308 0.656214 0.186404
0.480446 0.648280 0.191653
0.544335 0.639765 0.197147
0.603571 0.630549 0.202914
0.659571 0.620752 0.209262
0.719600 0.617884 0.213138
0.778683 0.613275 0.222477
0.813107 0.575586 0.246677
0.847105 0.536492 0.270390
0.880644 0.496071 0.294255
0.913756 0.453834 0.318791
0.946471 0.409705 0.344671
0.978882 0.389319 0.364904
1.000000 0.372778 0.387854
0.000000 0.769741 0.445533
0.000000 0.769467 0.445045
0.000000 0.769100 0.444373
0.000000 0.768215 0.442847
0.000000 0.766873 0.440620
0.000000 0.764981 0.437537
0.000000 0.762539 0.433722
0.000000 0.759457 0.429114
0.000000 0.755703 0.423713
0.000000 0.751156 0.417548
0.068544 0.746395 0.407782
0.102358 0.743008 0.386603
0.127779 0.739162 0.361822
0.149813 0.734829 0.332647
0.169223 0.730068 0.298039
0.187228 0.724819 0.255589
0.203677 0.718990 0.200504
0.283391 0.709133 0.193088
0.358831 0.699336 0.194644
0.439094 0.692348 0.199680
0.508782 0.684810 0.205142
0.572168 0.676692 0.210849
0.631189 0.668055 0.217014
0.687251 0.658778 0.223270
0.745052 0.653712 0.228611
0.809354 0.657038 0.235843
0.843870 0.619898 0.262089
0.877867 0.582208 0.287877
0.911345 0.543877 0.314122
0.944396 0.505058 0.341466
0.976837 0.466499 0.370703
1.000000 0.443183 0.398199
0.000000 0.804746 0.463630
0.000000 0.804501 0.463264
0.000000 0.804135 0.462654
0.000000 0.803372 0.461341
0.000000 0.802213 0.459388
0.000000 0.800565 0.456764
0.000000 0.798398 0.453468
0.000000 0.795712 0.449592
0.000000 0.792386 0.445045
0.000000 0.788388 0.439887
0.009796 0.783688 0.434180
0.109194 0.780301 0.417304
0.132967 0.777035 0.394659
0.153658 0.773373 0.368383
0.172519 0.769345 0.337621
0.190097 0.764858 0.301030
0.206424 0.759884 0.255985
0.234501 0.753902 0.207126
0.314366 0.744076 0.206851
0.391272 0.735561 0.209171
0.468757 0.728939 0.214633
0.537194 0.721798 0.220249
0.600031 0.714168 0.226291
0.658900 0.705959 0.232700
0.714839 0.697261 0.239353
0.770474 0.690089 0.245792
0.839780 0.701167 0.251347
0.874327 0.664881 0.279789
0.908263 0.628595 0.308080
0.941680 0.592493 0.337133
0.974426 0.557336 0.367987
1.000000 0.524468 0.401770
0.000000 0.838895 0.481300
0.000000 0.838682 0.480934
0.000000 0.838376 0.480415
0.000000 0.837736 0.479377
0.000000 0.836698 0.477668
0.000000 0.835233 0.475441
0.000000 0.833341 0.472724
0.000000 0.830991 0.469490
0.000000 0.828061 0.465766
0.000000 0.824582 0.461646
0.000000 0.820462 0.457130
0.123598 0.816495 0.447333
0.144015 0.813809 0.426764
0.162661 0.810758 0.402991
0.180240 0.807401 0.375463
0.196536 0.803708 0.343114
0.212161 0.799557 0.304662
0.226963 0.795102 0.257237
0.272587 0.788602 0.223178
0.345159 0.779294 0.222599
0.423590 0.772122 0.225895
0.498726 0.765805 0.231571
0.565972 0.759121 0.237522
0.627985 0.751949 0.243931
0.686610 0.744320 0.250614
0.742489 0.736202 0.257664
0.796353 0.727565 0.265080
0.869932 0.745815 0.269566
0.904448 0.710445 0.300450
0.938293 0.675715 0.331579
0.971435 0.642206 0.364324
1.000000 0.611078 0.399817
0.000000 0.872251 0.498360
0.000000 0.872068 0.498085
0.000000 0.871794 0.497658
0.000000 0.871214 0.496773
0.000000 0.870298 0.495369
0.000000 0.869047 0.493599
0.000000 0.867399 0.491402
0.000000 0.865324 0.488777
0.000000 0.862760 0.485878
0.000000 0.859709 0.482704
0.000000 0.856046 0.479347
0.134127 0.851835 0.475990
0.160555 0.849424 0.458412
0.177005 0.846952 0.436744
0.192447 0.844266 0.411963
0.207584 0.841245 0.383246
0.222110 0.837949 0.349615
0.235996 0.834287 0.309667
0.249363 0.830350 0.259953
0.309239 0.823514 0.241215
0.376013 0.814939 0.240238
0.456336 0.808927 0.245121
0.529137 0.803037 0.251102
0.595056 0.796780 0.257481
0.656367 0.790097 0.264134
0.714504 0.783017 0.271336
0.770108 0.775479 0.278874
0.823819 0.767544 0.286748
0.898131 0.788907 0.291539
0.934203 0.756497 0.324773
0.967803 0.723598 0.359594
1.000000 0.693141 0.397162
0.000000 0.904784 0.514946
0.000000 0.904631 0.514672
0.000000 0.904356 0.514336
0.000000 0.903899 0.513603
0.000000 0.903075 0.512505
0.000000 0.901976 0.511070
0.000000 0.900511 0.509392
0.000000 0.898711 0.507500
0.000000 0.896452 0.505425
0.000000 0.893767 0.503258
0.000000 0.890623 0.501091
0.106630 0.886900 0.499062
0.183017 0.883848 0.489754
0.196689 0.881926 0.470130
0.210117 0.879820 0.447700
0.223423 0.877470 0.421973
0.236545 0.874968 0.392279
0.249363 0.872160 0.357733
0.261997 0.869078 0.316503
0.273991 0.865782 0.265324
0.345617 0.858701 0.261875
0.409522 0.851133 0.261143
0.489601 0.845975 0.267216
0.560143 0.840482 0.273686
0.624720 0.834684 0.280583
0.685176 0.828489 0.287785
0.742672 0.821927 0.295415
0.797910 0.815000 0.303471
0.851286 0.807767 0.312047
0.922576 0.826932 0.319768
0.963500 0.802853 0.353857
0.996643 0.772274 0.393713
0.000000 0.936431 0.530785
0.000000 0.936278 0.530602
0.000000 0.936095 0.530358
0.000000 0.935637 0.529839
0.000000 0.934936 0.529015
0.000000 0.933959 0.528008
0.000000 0.932677 0.526818
0.000000 0.931090 0.525566
0.000000 0.929137 0.524315
0.000000 0.926757 0.523125
0.000000 0.923949 0.522179
0.071321 0.920684 0.521538
0.210300 0.916930 0.521019
0.221653 0.915557 0.503227
0.233066 0.914000 0.483009
