其他预设/【213】赛博朋克科幻预设52款/1.LUT预设（视频调色-PR-AE-PS-FCPX-达芬奇用）/赛博朋克科幻__-9 强度4.cube
# Created by Adobe Lightroom plugin Export LUT (1.17.0)
# www.johnrellis.com/lightroom/exportlut.htm
# Preset: 赛博朋克科幻[素锦印象]-9 强度4
# Color profile: /Library/Application Support/Adobe/Color/Profiles/Recommended/AdobeRGB1998.icc
LUT_3D_SIZE 8
DOMAIN_MIN 0.000000 0.000000 0.000000
DOMAIN_MAX 0.903226 0.903226 0.903226
0.000000 0.000000 0.000000
0.108309 0.013733 0.010956
0.231113 0.048127 0.026490
0.407324 0.074678 0.000000
0.598474 0.107454 0.000000
0.742794 0.140536 0.000000
0.848814 0.170291 0.000000
0.928618 0.209323 0.132174
0.060365 0.080049 0.070253
0.116670 0.101289 0.017762
0.215335 0.102785 0.055848
0.395209 0.129244 0.018128
0.590784 0.158358 0.000000
0.738888 0.181094 0.000000
0.846616 0.202792 0.035096
0.927123 0.235142 0.144350
0.099489 0.151064 0.126833
0.120943 0.173648 0.135409
0.263279 0.226230 0.015045
0.445655 0.217655 0.000000
0.563806 0.251987 0.057221
0.724697 0.272892 0.048310
0.838560 0.285832 0.106783
0.921630 0.308141 0.184634
0.155215 0.253086 0.208042
0.172061 0.271336 0.216861
0.234714 0.329808 0.220157
0.476692 0.407904 0.000000
0.657221 0.348028 0.000000
0.750576 0.351995 0.000000
0.823239 0.386053 0.179019
0.910826 0.405646 0.251652
0.224155 0.380285 0.309300
0.239658 0.395026 0.317235
0.297154 0.446326 0.338903
0.394720 0.509422 0.321141
0.669459 0.573449 0.000000
0.795438 0.443000 0.000000
0.876982 0.426490 0.000000
0.913848 0.468208 0.236912
0.316045 0.515496 0.423743
0.330388 0.526177 0.430518
0.381140 0.562158 0.452094
0.469581 0.617823 0.480110
0.563317 0.666194 0.437995
0.796933 0.686946 0.146975
0.892638 0.516442 0.000000
0.957031 0.482185 0.000000
0.440925 0.645258 0.548119
0.453254 0.651301 0.553277
0.495369 0.671626 0.571008
0.562707 0.704189 0.599115
0.628534 0.740230 0.613581
0.709010 0.780941 0.558679
0.883238 0.770932 0.302861
0.961883 0.573907 0.000000
0.583368 0.750515 0.667933
0.591577 0.753841 0.671504
0.618860 0.765255 0.683528
0.662501 0.784329 0.703243
0.715663 0.809110 0.727474
0.752926 0.830625 0.727596
0.815274 0.860044 0.670192
0.939757 0.836179 0.459144
0.065339 0.064790 0.085969
0.114260 0.025910 0.088930
0.232303 0.076600 0.061463
0.400488 0.118410 0.011322
0.594079 0.147738 0.000000
0.740902 0.169741 0.000000
0.848234 0.188449 0.014008
0.928649 0.217594 0.136294
0.081971 0.095918 0.100221
0.106935 0.106935 0.106935
0.222782 0.117525 0.091737
0.390387 0.150240 0.033387
0.587274 0.182040 0.000000
0.737240 0.201602 0.000000
0.846128 0.216800 0.056916
0.927214 0.241764 0.148135
0.115724 0.152865 0.141390
0.140414 0.174685 0.157626
0.255161 0.225315 0.110842
0.429114 0.218936 0.031464
0.565148 0.259525 0.057252
0.723995 0.281987 0.061982
0.838376 0.293095 0.112123
0.921813 0.312108 0.187594
0.170840 0.253452 0.220493
0.189120 0.272251 0.232517
0.247990 0.332769 0.248753
0.469581 0.405219 0.097475
0.652827 0.347784 0.000000
0.754238 0.354498 0.000000
0.823484 0.389349 0.182010
0.911162 0.407660 0.253635
0.239231 0.380407 0.320409
0.253819 0.394751 0.328923
0.308049 0.444465 0.353185
0.400977 0.510033 0.345373
0.664912 0.572564 0.110658
0.793179 0.444709 0.000000
0.878080 0.427253 0.000000
0.914397 0.468849 0.237919
0.327367 0.514611 0.431952
0.341070 0.525017 0.438849
0.389746 0.560479 0.461158
0.474800 0.615625 0.490486
0.564813 0.663447 0.461433
0.793729 0.687678 0.208286
0.891295 0.519646 0.000000
0.957519 0.482002 0.000000
0.447639 0.643763 0.553277
0.459632 0.649866 0.558465
0.500389 0.670130 0.576074
0.565850 0.702693 0.603998
0.632319 0.739651 0.621393
0.709316 0.779629 0.574182
0.880491 0.772488 0.341588
0.960815 0.577874 0.000000
0.585534 0.749325 0.670192
0.593530 0.752651 0.673701
0.620447 0.764157 0.685664
0.663447 0.783352 0.705257
0.716121 0.808255 0.729366
0.754421 0.830442 0.731563
0.815122 0.859586 0.678981
0.937499 0.837827 0.483619
0.113100 0.111818 0.175875
0.128328 0.103578 0.173007
0.244236 0.024109 0.184421
0.435248 0.052644 0.131014
0.605676 0.152987 0.083955
0.741176 0.206394 0.000000
0.849058 0.215549 0.059449
0.930175 0.227878 0.143374
0.147524 0.159548 0.196384
0.154482 0.153750 0.194766
0.240787 0.112184 0.193637
0.426520 0.134340 0.154421
0.600549 0.188663 0.116243
0.737758 0.231113 0.000000
0.847074 0.239017 0.076967
0.928771 0.250309 0.154635
0.173159 0.212955 0.224338
0.190158 0.217838 0.226261
0.227939 0.227939 0.227939
0.398962 0.247440 0.216739
0.583215 0.275517 0.187381
0.728237 0.297398 0.129671
0.839811 0.306371 0.122835
0.923552 0.317235 0.192813
0.197452 0.271275 0.259861
0.217319 0.281376 0.268162
0.274571 0.322240 0.298009
0.445075 0.399695 0.242283
0.631373 0.362921 0.198520
0.732174 0.381750 0.205112
0.825681 0.396216 0.188968
0.913176 0.410224 0.257603
0.265019 0.377874 0.343847
0.281621 0.384802 0.350011
0.335668 0.435431 0.386297
0.420294 0.509331 0.410407
0.647364 0.570611 0.274662
0.782925 0.460761 0.187472
0.867247 0.443427 0.095338
0.915282 0.472419 0.249210
0.350439 0.505821 0.448829
0.365850 0.517205 0.458045
0.413519 0.553338 0.485115
0.489235 0.607568 0.518975
0.573816 0.658350 0.518242
0.781491 0.690608 0.345739
0.884550 0.538415 0.204135
0.956939 0.484901 0.000000
0.464393 0.637354 0.566461
0.476204 0.643671 0.572198
0.514519 0.664240 0.590326
0.574395 0.697169 0.617975
0.643641 0.737240 0.644465
0.709773 0.774899 0.618036
0.870970 0.777951 0.446357
0.955444 0.597742 0.229496
0.591730 0.744717 0.676875
0.598474 0.748043 0.679896
0.624262 0.759854 0.691768
0.665736 0.779568 0.711116
0.716884 0.805173 0.735042
0.759030 0.829679 0.743954
0.814298 0.857908 0.705501
0.930358 0.842954 0.551965
0.190677 0.188022 0.319707
0.203311 0.181430 0.314794
0.244968 0.149783 0.293492
0.421546 0.000000 0.312932
0.642359 0.000000 0.237766
0.759701 0.176730 0.205142
0.855436 0.222873 0.132876
0.934691 0.222843 0.145480
0.226566 0.239322 0.342046
0.231724 0.229648 0.335821
0.258213 0.192020 0.311589
0.419684 0.089174 0.319097
0.635981 0.111666 0.256077
0.756130 0.217929 0.226535
0.853483 0.248905 0.159030
0.933532 0.243412 0.155428
0.296300 0.332982 0.383764
0.311742 0.338567 0.385321
0.310002 0.309026 0.365423
0.411994 0.236454 0.343328
0.613916 0.282811 0.313329
0.743038 0.322148 0.293156
0.846098 0.326543 0.233280
0.928710 0.309422 0.192294
0.313451 0.390784 0.412726
0.326421 0.393317 0.412726
0.360815 0.398047 0.409522
0.392645 0.392645 0.392645
0.575463 0.421790 0.395239
0.719661 0.440833 0.383612
0.830655 0.436683 0.339940
0.918669 0.404242 0.257176
0.327214 0.441657 0.434272
0.338445 0.443091 0.434363
0.378698 0.453590 0.440681
0.444953 0.491615 0.467536
0.611383 0.566857 0.430854
0.755093 0.518059 0.406531
0.832395 0.527642 0.412207
0.901549 0.523766 0.385779
0.394049 0.532799 0.502037
0.406806 0.536431 0.505272
0.443915 0.546593 0.514214
0.507805 0.591882 0.549126
0.588800 0.652888 0.577935
0.758877 0.694820 0.490120
0.865965 0.591150 0.418006
0.940398 0.539269 0.303349
0.492531 0.635554 0.590875
0.500938 0.637079 0.592554
0.531731 0.651759 0.605859
0.583642 0.685603 0.633875
0.649989 0.728603 0.665919
0.710475 0.765743 0.669795
0.856077 0.785580 0.562676
0.941375 0.645472 0.427131
0.605707 0.736690 0.687984
0.611566 0.740017 0.690913
0.630823 0.751431 0.700496
0.666041 0.771481 0.717739
0.715999 0.798764 0.742336
0.765042 0.827756 0.761563
0.812375 0.854673 0.740902
0.920653 0.849943 0.630976
0.304082 0.300145 0.496223
0.311894 0.292699 0.491096
0.337957 0.261204 0.469917
0.403296 0.191775 0.441932
0.596521 0.000000 0.443030
0.764858 0.162509 0.388586
0.862242 0.286534 0.357733
0.938506 0.263279 0.262394
0.338079 0.347082 0.511711
0.341070 0.337804 0.506188
0.355444 0.302007 0.484230
0.407263 0.230442 0.450690
0.594690 0.073915 0.448127
0.762661 0.219852 0.399847
0.859464 0.315801 0.372900
0.936950 0.286229 0.277012
0.423041 0.454292 0.550469
0.425452 0.450111 0.547112
0.417243 0.415442 0.526329
0.423896 0.338018 0.478920
0.587610 0.253269 0.467720
0.754635 0.350469 0.440101
0.849790 0.397681 0.420600
0.931518 0.352850 0.321935
0.475532 0.527520 0.578973
0.485756 0.531029 0.579583
0.514366 0.539910 0.579492
0.496559 0.495766 0.545617
0.573053 0.410986 0.504906
0.732113 0.479774 0.502403
0.833860 0.497322 0.485878
0.922576 0.436408 0.379004
0.488136 0.570275 0.594659
0.496407 0.571893 0.594568
0.519982 0.575463 0.592493
0.545098 0.573693 0.582849
0.552636 0.552636 0.552636
0.700160 0.584894 0.567010
0.811246 0.597864 0.561181
0.901122 0.567926 0.501488
0.501610 0.610742 0.610193
0.508507 0.611505 0.610071
0.527916 0.612451 0.608026
0.553491 0.611749 0.602502
0.597284 0.632868 0.614221
0.727840 0.694362 0.600885
0.837308 0.659236 0.586419
0.899809 0.652705 0.570794
0.548577 0.671717 0.651606
0.556023 0.673213 0.652857
0.578027 0.677485 0.656245
0.605310 0.681544 0.658228
0.649439 0.711116 0.679194
0.714992 0.760281 0.705715
0.839414 0.791775 0.654078
0.921050 0.707027 0.590112
0.636378 0.750759 0.720729
0.640497 0.751431 0.721340
0.653132 0.753506 0.722896
0.671931 0.759060 0.726314
0.710262 0.786587 0.747189
0.765377 0.821073 0.775051
0.809537 0.848386 0.777279
0.910521 0.857115 0.701930
0.447059 0.443183 0.646876
0.449653 0.436896 0.643946
0.458961 0.410193 0.631983
0.481849 0.348852 0.603388
0.572137 0.250126 0.586694
0.728328 0.117159 0.550347
0.850919 0.326146 0.520775
0.926177 0.458289 0.527764
0.474800 0.478950 0.654231
0.475044 0.471870 0.651301
0.478035 0.443793 0.639368
0.492500 0.381842 0.611383
0.572564 0.286351 0.591394
0.726589 0.179995 0.555108
0.848875 0.356664 0.530327
0.924376 0.472541 0.535790
0.548302 0.567193 0.675715
0.545739 0.560784 0.672908
0.537469 0.535363 0.661769
0.530816 0.478706 0.636164
0.574365 0.387335 0.605982
0.719997 0.308202 0.572473
0.842039 0.443580 0.562005
0.918547 0.515282 0.560143
0.620722 0.647700 0.702724
0.621424 0.646326 0.701534
0.620203 0.637537 0.695033
0.601373 0.600214 0.673701
0.584558 0.511894 0.627436
0.708095 0.446265 0.602564
0.832212 0.549340 0.608637
0.910094 0.571344 0.592096
0.632258 0.675319 0.711116
0.637476 0.677333 0.711696
0.653254 0.683253 0.713130
0.673457 0.689448 0.713222
0.649226 0.648768 0.682216
0.693172 0.570123 0.639063
0.818540 0.635004 0.651545
0.899413 0.632044 0.626703
0.637171 0.698848 0.717952
0.641474 0.700038 0.718257
0.654536 0.703426 0.718776
0.671321 0.706294 0.717494
0.684016 0.703334 0.709621
0.676997 0.676967 0.676967
0.795621 0.708186 0.695277
0.881132 0.709651 0.682277
0.651209 0.730953 0.734249
0.654597 0.731685 0.734463
0.664973 0.733608 0.734676
0.677516 0.734310 0.732387
0.686610 0.729458 0.723049
0.713283 0.740963 0.726406
0.818051 0.793118 0.726253
0.899931 0.761288 0.707790
0.678767 0.775906 0.764828
0.680781 0.776181 0.764706
0.691981 0.778500 0.766049
0.708278 0.781796 0.767422
0.725216 0.783963 0.766476
0.757198 0.805600 0.780331
0.811368 0.844724 0.803708
0.899901 0.864134 0.765957
0.596002 0.593286 0.753658
0.596368 0.589319 0.752377
0.597406 0.573053 0.747158
0.600763 0.534569 0.734920
0.615686 0.453101 0.708614
0.720516 0.350835 0.707332
0.827512 0.284642 0.644099
0.913909 0.471504 0.636957
0.612238 0.613550 0.757076
0.611872 0.609430 0.755764
0.610986 0.593225 0.750515
0.611353 0.556115 0.738399
0.621546 0.477516 0.712612
0.718593 0.379004 0.709224
0.825834 0.314275 0.648432
0.912383 0.488685 0.643336
0.655756 0.666316 0.768124
0.654505 0.662654 0.766812
0.650385 0.648524 0.761715
0.644373 0.617029 0.750210
0.642664 0.550530 0.725917
0.712703 0.460487 0.715450
0.820035 0.397833 0.663203
0.907652 0.540124 0.663539
0.706111 0.723842 0.784298
0.706630 0.722957 0.783810
0.704768 0.715969 0.780545
0.693355 0.692134 0.770047
0.679286 0.642390 0.748257
0.706935 0.562066 0.725673
0.810636 0.501610 0.686854
0.901335 0.608637 0.692683
0.738094 0.761135 0.796689
0.741451 0.762936 0.797513
0.752255 0.768765 0.800290
0.749508 0.761013 0.795865
0.730678 0.729915 0.778775
0.709316 0.654231 0.739986
0.799802 0.599542 0.714382
0.894835 0.682887 0.727352
0.738155 0.773190 0.798856
0.741054 0.774563 0.799527
0.750576 0.778927 0.801694
0.764736 0.785367 0.804929
0.781216 0.792294 0.808194
0.761654 0.761257 0.785275
0.787778 0.690974 0.744320
0.886595 0.746670 0.759518
0.738796 0.786740 0.801907
0.741299 0.787686 0.802426
0.749264 0.790768 0.804013
0.761318 0.795315 0.806241
0.775418 0.800046 0.808011
0.786923 0.800687 0.805203
0.774807 0.774777 0.774777
0.870939 0.800931 0.790829
0.751186 0.812406 0.817136
0.753140 0.813077 0.817533
0.759365 0.815305 0.818784
0.768856 0.818570 0.820279
0.779660 0.821530 0.820676
0.786831 0.820035 0.815274
0.806088 0.829007 0.816922
0.887755 0.869291 0.820890
0.711788 0.709865 0.829313
0.712001 0.707881 0.828916
0.712703 0.700160 0.827268
0.714137 0.682612 0.823270
0.718410 0.646479 0.814664
0.742977 0.581384 0.803891
0.831418 0.497078 0.798428
0.904692 0.442206 0.732509
0.719570 0.719722 0.830869
0.719600 0.717769 0.830442
0.719661 0.710048 0.828794
0.720180 0.692958 0.824796
0.722988 0.658015 0.816281
0.743984 0.593896 0.804623
0.830076 0.512108 0.800046
0.903410 0.458198 0.735805
0.742306 0.748135 0.836118
0.741970 0.746334 0.835691
0.740871 0.739376 0.834043
0.739132 0.724117 0.830198
0.738094 0.693263 0.821988
0.747738 0.632044 0.807248
0.825650 0.557885 0.805295
0.899229 0.506462 0.746517
0.774228 0.785702 0.845121
0.773648 0.784268 0.844724
0.771450 0.778653 0.843198
0.767544 0.766384 0.839658
0.762264 0.741848 0.832151
0.759487 0.689479 0.815824
0.817502 0.621424 0.812253
0.893065 0.571435 0.762783
0.799619 0.815030 0.852506
0.800290 0.815122 0.852750
0.801999 0.814694 0.853300
0.802152 0.810636 0.852964
0.793881 0.793057 0.846616
0.783566 0.755581 0.832639
0.807584 0.692500 0.819059
0.885466 0.643000 0.783139
0.807370 0.828641 0.855436
0.809354 0.829740 0.856046
0.815946 0.833463 0.858183
0.826932 0.839750 0.862028
0.831357 0.839750 0.863493
0.820462 0.819913 0.855009
0.805966 0.761898 0.829313
0.876982 0.715633 0.806241
0.806088 0.836515 0.856687
0.807767 0.837369 0.857176
0.813504 0.840208 0.858915
0.823270 0.845182 0.861997
0.836912 0.852384 0.866606
0.854002 0.861936 0.873045
0.846372 0.846098 0.863676
0.867826 0.786679 0.830991
0.805936 0.846342 0.859312
0.807370 0.846983 0.859678
0.812284 0.849180 0.861021
0.820829 0.853056 0.863462
0.832639 0.858579 0.867002
0.847135 0.865446 0.871458
0.862303 0.872221 0.875486
0.857206 0.857176 0.857176
