其他预设/【213】赛博朋克科幻预设52款/1.LUT预设（视频调色-PR-AE-PS-FCPX-达芬奇用）/赛博朋克科幻__-6 强度4.cube
# Created by Adobe Lightroom plugin Export LUT (1.17.0)
# www.johnrellis.com/lightroom/exportlut.htm
# Preset: 赛博朋克科幻[素锦印象]-6 强度4
# Color profile: /Library/Application Support/Adobe/Color/Profiles/Recommended/AdobeRGB1998.icc
LUT_3D_SIZE 32
0.109743 0.088228 0.082765
0.115419 0.086915 0.083864
0.123110 0.084993 0.085237
0.140078 0.079988 0.088045
0.159335 0.072633 0.092042
0.178927 0.062654 0.097017
0.199924 0.038483 0.102541
0.222324 0.000000 0.109407
0.246860 0.000000 0.117067
0.273594 0.000000 0.125887
0.302983 0.000000 0.136385
0.334447 0.000000 0.148135
0.367987 0.000000 0.160739
0.403204 0.000000 0.174868
0.439704 0.000000 0.189639
0.477302 0.000000 0.204959
0.515892 0.000000 0.220768
0.554986 0.000000 0.236912
0.594232 0.000000 0.253025
0.633570 0.000000 0.269139
0.672450 0.000000 0.284886
0.710567 0.000000 0.299962
0.747646 0.000000 0.314427
0.783261 0.000000 0.328130
0.817227 0.000000 0.340734
0.849241 0.000000 0.352331
0.878965 0.000000 0.362707
0.906279 0.000000 0.371801
0.931273 0.000000 0.379706
0.954284 0.000000 0.386511
0.975586 0.000000 0.392340
0.995422 0.000000 0.397284
0.115816 0.096559 0.081758
0.117617 0.093629 0.081941
0.124605 0.092653 0.081758
0.141451 0.084688 0.084749
0.160616 0.072206 0.089815
0.180179 0.062013 0.094911
0.200992 0.036957 0.100862
0.223392 0.000000 0.107820
0.247776 0.000000 0.115816
0.274662 0.000000 0.124910
0.303868 0.000000 0.135348
0.335393 0.000000 0.147158
0.368811 0.000000 0.160159
0.403998 0.000000 0.174228
0.440467 0.000000 0.188937
0.478126 0.000000 0.204501
0.516594 0.000000 0.220249
0.555627 0.000000 0.236362
0.594842 0.000000 0.252506
0.634180 0.000000 0.268589
0.672969 0.000000 0.284306
0.711055 0.000000 0.299413
0.748074 0.000000 0.313939
0.783688 0.000000 0.327581
0.817594 0.000000 0.340215
0.849546 0.000000 0.351873
0.879271 0.000000 0.362249
0.906462 0.000000 0.371344
0.931456 0.000000 0.379217
0.954467 0.000000 0.386023
0.975738 0.000000 0.391821
0.995544 0.000000 0.396796
0.123934 0.107546 0.080232
0.127535 0.105867 0.080293
0.128908 0.101259 0.080720
0.142519 0.099367 0.080262
0.161776 0.087495 0.084627
0.181918 0.070436 0.090913
0.202518 0.034730 0.098360
0.224704 0.000000 0.105776
0.249149 0.000000 0.113924
0.275883 0.000000 0.123384
0.305089 0.000000 0.133944
0.336553 0.000000 0.145907
0.369879 0.000000 0.159152
0.405097 0.000000 0.173312
0.441474 0.000000 0.188083
0.479194 0.000000 0.203647
0.517601 0.000000 0.219547
0.556573 0.000000 0.235630
0.595758 0.000000 0.251926
0.635004 0.000000 0.267887
0.673762 0.000000 0.283635
0.711757 0.000000 0.298741
0.748745 0.000000 0.313207
0.784237 0.000000 0.326940
0.818082 0.000000 0.339574
0.850004 0.000000 0.351141
0.879606 0.000000 0.361547
0.906798 0.000000 0.370672
0.931731 0.000000 0.378546
0.954711 0.000000 0.385382
0.975952 0.000000 0.391241
0.995727 0.000000 0.396185
0.139742 0.127443 0.076814
0.142672 0.126101 0.076844
0.146670 0.124514 0.076844
0.149355 0.115206 0.077974
0.163363 0.110658 0.077729
0.183780 0.102083 0.080903
0.205203 0.083406 0.088808
0.227970 0.052827 0.097505
0.252262 0.000000 0.107668
0.278813 0.000000 0.119326
0.307744 0.000000 0.131044
0.339208 0.000000 0.143282
0.372442 0.000000 0.156802
0.407446 0.000000 0.171298
0.443824 0.000000 0.186282
0.481331 0.000000 0.201907
0.519768 0.000000 0.217960
0.558679 0.000000 0.234073
0.597681 0.000000 0.250309
0.636713 0.000000 0.266484
0.675380 0.000000 0.282109
0.713191 0.000000 0.297307
0.750057 0.000000 0.311803
0.785397 0.000000 0.325475
0.819150 0.000000 0.338140
0.850919 0.000000 0.349706
0.880430 0.000000 0.360052
0.907500 0.000000 0.369238
0.932341 0.000000 0.377111
0.955230 0.000000 0.383948
0.976410 0.000000 0.389776
0.996124 0.000000 0.394720
0.158175 0.149844 0.071809
0.160555 0.148623 0.071901
0.163546 0.147219 0.071962
0.170169 0.144442 0.072023
0.171542 0.131563 0.074159
0.185183 0.124086 0.074342
0.207523 0.123781 0.074586
0.230747 0.105898 0.083223
0.256352 0.078676 0.092958
0.284154 0.000000 0.103578
0.313237 0.000000 0.118410
0.344244 0.000000 0.134035
0.377081 0.000000 0.150118
0.411444 0.000000 0.167056
0.447456 0.000000 0.183108
0.484840 0.000000 0.199008
0.523064 0.000000 0.215213
0.561822 0.000000 0.231388
0.600763 0.000000 0.247929
0.639612 0.000000 0.264042
0.677882 0.000000 0.279759
0.715572 0.000000 0.294957
0.752163 0.000000 0.309422
0.787320 0.000000 0.323125
0.820829 0.000000 0.335790
0.852415 0.000000 0.347356
0.881682 0.000000 0.357733
0.908598 0.000000 0.366888
0.933288 0.000000 0.374762
0.956023 0.000000 0.381628
0.977111 0.000000 0.387518
0.996735 0.000000 0.392523
0.177096 0.171969 0.065370
0.179019 0.171084 0.065431
0.181369 0.169986 0.065522
0.186435 0.167361 0.065705
0.194644 0.164157 0.065736
0.194919 0.148989 0.069093
0.208225 0.139773 0.069673
0.233066 0.143404 0.067048
0.259312 0.133577 0.075715
0.287572 0.110475 0.086824
0.318761 0.068238 0.097230
0.352331 0.000000 0.109194
0.385046 0.000000 0.129458
0.419440 0.000000 0.149294
0.454994 0.000000 0.168704
0.491524 0.000000 0.188235
0.528832 0.000000 0.207614
0.566461 0.000000 0.226902
0.604730 0.000000 0.244388
0.643336 0.000000 0.260594
0.681331 0.000000 0.276402
0.718685 0.000000 0.291691
0.754971 0.000000 0.306188
0.789853 0.000000 0.319860
0.823087 0.000000 0.332555
0.854368 0.000000 0.344152
0.883421 0.000000 0.354528
0.910063 0.000000 0.363745
0.934569 0.000000 0.371649
0.957153 0.000000 0.378515
0.978058 0.000000 0.384375
0.997589 0.000000 0.389410
0.196414 0.193942 0.055421
0.197848 0.193210 0.055573
0.199802 0.192294 0.055756
0.204166 0.190188 0.056123
0.210849 0.187350 0.056367
0.218204 0.182620 0.057465
0.219333 0.167514 0.062196
0.232761 0.156832 0.063294
0.260380 0.162264 0.058473
0.291203 0.164675 0.064332
0.322301 0.145388 0.077241
0.355932 0.114046 0.089326
0.391699 0.028046 0.102022
0.429633 0.000000 0.115114
0.465553 0.000000 0.139498
0.501823 0.000000 0.163485
0.538903 0.000000 0.186130
0.576196 0.000000 0.208072
0.613336 0.000000 0.229221
0.650141 0.000000 0.249607
0.686549 0.000000 0.269230
0.722652 0.000000 0.287297
0.758511 0.000000 0.301884
0.793057 0.000000 0.315648
0.825925 0.000000 0.328313
0.856840 0.000000 0.339940
0.885557 0.000000 0.350408
0.911925 0.000000 0.359533
0.936187 0.000000 0.367529
0.958526 0.000000 0.374456
0.979278 0.000000 0.380377
0.998627 0.000000 0.385473
0.216098 0.215824 0.033997
0.217350 0.215305 0.034119
0.219181 0.214572 0.034211
0.222721 0.213016 0.034577
0.228458 0.210483 0.035065
0.237003 0.208682 0.033936
0.243290 0.202090 0.037507
0.245518 0.187564 0.048096
0.259220 0.175570 0.051179
0.290166 0.183322 0.034791
0.325109 0.193271 0.038483
0.359777 0.182254 0.061372
0.395575 0.157015 0.076631
0.433295 0.114321 0.091432
0.472755 0.000000 0.106813
0.513268 0.000000 0.122316
0.551385 0.000000 0.148836
0.588342 0.000000 0.176608
0.624781 0.000000 0.201816
0.660670 0.000000 0.225620
0.696223 0.000000 0.247898
0.731075 0.000000 0.269078
0.764950 0.000000 0.289006
0.797635 0.000000 0.307683
0.829343 0.000000 0.323033
0.859861 0.000000 0.334752
0.888182 0.000000 0.345159
0.914183 0.000000 0.354406
0.938109 0.000000 0.362432
0.960204 0.000000 0.369390
0.980743 0.000000 0.375402
0.999878 0.000000 0.380591
0.236728 0.238071 0.006012
0.237858 0.237675 0.006012
0.239384 0.237156 0.006073
0.242588 0.235874 0.006317
0.247623 0.233951 0.006531
0.254337 0.231571 0.006531
0.265171 0.231449 0.002716
0.270298 0.223331 0.008667
0.273991 0.209445 0.019989
0.287785 0.196933 0.025086
0.322148 0.206332 0.001953
0.360174 0.218021 0.000000
0.399969 0.221714 0.010712
0.437598 0.200229 0.051514
0.476753 0.167544 0.074434
0.517174 0.110872 0.093019
0.558526 0.000000 0.111330
0.600305 0.000000 0.129397
0.638178 0.000000 0.157198
0.673152 0.000000 0.188327
0.707668 0.000000 0.215610
0.741512 0.000000 0.240635
0.774380 0.000000 0.263493
0.806058 0.000000 0.284703
0.836210 0.000000 0.304326
0.864622 0.000000 0.322545
0.891234 0.000000 0.338781
0.916808 0.000000 0.348089
0.940398 0.000000 0.356176
0.962188 0.000000 0.363348
0.982452 0.000000 0.369390
1.000000 0.000000 0.374640
0.257908 0.260929 0.000000
0.258915 0.260594 0.000000
0.260197 0.260197 0.000000
0.263157 0.259220 0.000000
0.267704 0.257847 0.000000
0.273655 0.255772 0.000000
0.282719 0.255253 0.000000
0.294621 0.255619 0.000000
0.299382 0.246342 0.000000
0.304540 0.233371 0.000000
0.318059 0.220523 0.000000
0.355810 0.230686 0.000000
0.396765 0.244114 0.000000
0.441047 0.258244 0.000000
0.481300 0.244205 0.000000
0.521569 0.216892 0.026307
0.562737 0.175875 0.069734
0.604211 0.101778 0.094148
0.644312 0.000000 0.116487
0.683680 0.000000 0.138125
0.720668 0.000000 0.165469
0.753353 0.000000 0.199222
0.785153 0.000000 0.227909
0.815640 0.000000 0.253239
0.844724 0.000000 0.276066
0.872099 0.000000 0.296666
0.897581 0.000000 0.315343
0.921233 0.000000 0.332311
0.943206 0.000000 0.347509
0.964477 0.000000 0.355993
0.984436 0.000000 0.362219
1.000000 0.000000 0.367559
0.279454 0.284276 0.000000
0.280339 0.284031 0.000000
0.281590 0.283757 0.000000
0.284184 0.283024 0.000000
0.288304 0.281895 0.000000
0.293797 0.280400 0.000000
0.300664 0.278508 0.000000
0.312627 0.280369 0.000000
0.323888 0.279515 0.000000
0.330114 0.270878 0.000000
0.337072 0.258854 0.000000
0.350011 0.245670 0.000000
0.390997 0.256291 0.000000
0.434363 0.271427 0.000000
0.480903 0.286961 0.000000
0.526421 0.289372 0.000000
0.567224 0.265354 0.000000
0.608179 0.231693 0.000000
0.647913 0.181643 0.066133
0.686885 0.089113 0.097414
0.725124 0.000000 0.124025
0.762173 0.000000 0.149233
0.796841 0.000000 0.176242
0.826078 0.000000 0.210544
0.853941 0.000000 0.239200
0.880156 0.000000 0.264012
0.904540 0.000000 0.285771
0.927214 0.000000 0.305089
0.948363 0.000000 0.322362
0.968139 0.000000 0.338048
0.986877 0.000000 0.352026
1.000000 0.000000 0.359289
0.301122 0.307805 0.000000
0.301854 0.307713 0.000000
0.303075 0.307439 0.000000
0.305425 0.306920 0.000000
0.309270 0.306065 0.000000
0.314275 0.305028 0.000000
0.320745 0.303624 0.000000
0.330205 0.303899 0.000000
0.343938 0.306737 0.000000
0.354620 0.304753 0.000000
0.362341 0.296818 0.000000
0.371038 0.285710 0.000000
0.383062 0.271733 0.000000
0.427283 0.282872 0.000000
0.472755 0.299413 0.000000
0.520958 0.316136 0.000000
0.571405 0.332311 0.000000
0.612573 0.313176 0.000000
0.651575 0.283177 0.000000
0.690150 0.242802 0.000000
0.727962 0.185367 0.066316
0.764584 0.074586 0.104372
0.799588 0.000000 0.135256
0.832670 0.000000 0.164096
0.863371 0.000000 0.192355
0.888396 0.000000 0.224613
0.911589 0.000000 0.251438
0.933257 0.000000 0.274113
0.953552 0.000000 0.293797
0.972686 0.000000 0.311223
0.990753 0.000000 0.326696
1.000000 0.000000 0.340734
0.322759 0.331640 0.000000
0.323491 0.331518 0.000000
0.324529 0.331365 0.000000
0.326757 0.330999 0.000000
0.330358 0.330419 0.000000
0.335058 0.329564 0.000000
0.341009 0.328496 0.000000
0.348150 0.327123 0.000000
0.360845 0.330083 0.000000
0.376318 0.334234 0.000000
0.386511 0.330999 0.000000
0.395789 0.323796 0.000000
0.406104 0.313664 0.000000
0.417456 0.298985 0.000000
0.464240 0.310155 0.000000
0.511376 0.327794 0.000000
0.560998 0.345556 0.000000
0.611505 0.361944 0.000000
0.655543 0.359350 0.000000
0.693568 0.331945 0.000000
0.730861 0.296880 0.000000
0.767025 0.251194 0.000000
0.801663 0.188327 0.073426
0.834379 0.064027 0.116365
0.864836 0.000000 0.150942
0.892638 0.000000 0.183413
0.917693 0.000000 0.215396
0.938781 0.000000 0.243748
0.958190 0.000000 0.266636
0.976593 0.000000 0.285954
0.994079 0.000000 0.302373
1.000000 0.000000 0.316716
0.344366 0.355505 0.000000
0.345129 0.355383 0.000000
0.346014 0.355322 0.000000
0.348150 0.355016 0.000000
0.351385 0.354620 0.000000
0.355871 0.354009 0.000000
0.361395 0.353185 0.000000
0.368200 0.352239 0.000000
0.377569 0.352697 0.000000
0.392615 0.357366 0.000000
0.409491 0.362188 0.000000
0.419318 0.358038 0.000000
0.430121 0.351720 0.000000
0.442084 0.342412 0.000000
0.455146 0.328923 0.000000
0.501671 0.337926 0.000000
0.550195 0.356512 0.000000
0.600275 0.374640 0.000000
0.649348 0.390570 0.000000
0.697047 0.404120 0.000000
0.733761 0.378485 0.000000
0.769406 0.346563 0.000000
0.803586 0.307103 0.000000
0.835935 0.257694 0.000000
0.866087 0.192081 0.088838
0.893706 0.074006 0.134218
0.918700 0.000000 0.172244
0.941192 0.000000 0.208316
0.961303 0.000000 0.244144
0.979156 0.000000 0.270848
0.995972 0.000000 0.288243
1.000000 0.000000 0.302403
0.365972 0.379614 0.000000
0.366674 0.379492 0.000000
0.367498 0.379431 0.000000
0.369512 0.379217 0.000000
0.372595 0.378882 0.000000
0.376806 0.378515 0.000000
0.382086 0.377905 0.000000
0.388434 0.377264 0.000000
0.395911 0.376349 0.000000
0.408606 0.379736 0.000000
0.425238 0.385412 0.000000
0.441657 0.389319 0.000000
0.452857 0.385809 0.000000
0.465217 0.380285 0.000000
0.478767 0.371801 0.000000
0.493446 0.359350 0.000000
0.539208 0.365942 0.000000
0.588708 0.385107 0.000000
0.637964 0.402869 0.000000
0.686244 0.418463 0.000000
0.732540 0.431525 0.000000
0.771817 0.422889 0.000000
0.805417 0.393042 0.000000
0.837308 0.357061 0.000000
0.867094 0.314122 0.000000
0.894469 0.262882 0.018219
0.919371 0.198764 0.111574
0.941955 0.104585 0.158114
0.962310 0.000000 0.199130
0.980499 0.000000 0.238743
0.996490 0.000000 0.279271
1.000000 0.000000 0.309239
0.387701 0.403815 0.000000
0.388342 0.403754 0.000000
0.389166 0.403723 0.000000
0.390997 0.403540 0.000000
0.393927 0.403357 0.000000
0.397864 0.403021 0.000000
0.402808 0.402716 0.000000
0.408820 0.402197 0.000000
0.415930 0.401587 0.000000
0.424659 0.401434 0.000000
0.440620 0.407538 0.000000
0.458839 0.414282 0.000000
0.474647 0.416999 0.000000
0.487190 0.414191 0.000000
0.500847 0.409277 0.000000
0.515801 0.401587 0.000000
0.531853 0.390021 0.000000
0.576593 0.394232 0.000000
0.626307 0.413306 0.000000
0.674861 0.430579 0.000000
0.721828 0.445624 0.000000
0.766415 0.457984 0.000000
0.807218 0.464851 0.000000
0.838560 0.436072 0.000000
0.867918 0.402350 0.000000
0.894987 0.363226 0.000000
0.919738 0.318730 0.000000
0.942290 0.268589 0.076936
0.962829 0.211643 0.139376
0.981384 0.146273 0.186893
0.997894 0.065461 0.231479
1.000000 0.000000 0.276249
0.409644 0.428290 0.000000
0.410193 0.428290 0.000000
0.411017 0.428229 0.000000
0.412757 0.428229 0.000000
0.415503 0.428016 0.000000
0.419226 0.427832 0.000000
0.423896 0.427588 0.000000
0.429541 0.427283 0.000000
0.436347 0.426825 0.000000
0.444068 0.426398 0.000000
0.456062 0.429175 0.000000
0.473518 0.436194 0.000000
0.493233 0.443763 0.000000
0.508263 0.445319 0.000000
0.521935 0.442939 0.000000
0.536858 0.438636 0.000000
0.553002 0.431586 0.000000
0.570550 0.420966 0.000000
0.613245 0.423621 0.000000
0.663233 0.441047 0.000000
0.710658 0.457771 0.000000
0.756100 0.471839 0.000000
0.798459 0.483162 0.000000
0.837186 0.491402 0.000000
0.868528 0.475990 0.000000
0.895171 0.443458 0.000000
0.919707 0.406867 0.000000
0.942260 0.366522 0.000000
0.962921 0.322728 0.000000
0.981750 0.276860 0.113283
0.998749 0.231907 0.171023
1.000000 0.195987 0.221500
0.431891 0.453376 0.000000
0.432471 0.453285 0.000000
0.433204 0.453315 0.000000
0.434852 0.453223 0.000000
0.437476 0.453162 0.000000
0.440986 0.453040 0.000000
0.445380 0.452888 0.000000
0.450752 0.452674 0.000000
0.457191 0.452430 0.000000
0.464576 0.452125 0.000000
0.472999 0.451789 0.000000
0.488746 0.457954 0.000000
0.507652 0.465858 0.000000
0.528954 0.474525 0.000000
0.543175 0.474647 0.000000
0.558099 0.472938 0.000000
0.574426 0.469306 0.000000
0.591669 0.462745 0.000000
0.609857 0.452552 0.000000
0.649531 0.452949 0.000000
0.699458 0.468360 0.000000
0.745480 0.484138 0.000000
0.788724 0.497047 0.000000
0.828550 0.506981 0.000000
0.864347 0.513725 0.000000
0.895201 0.512718 0.000000
0.919402 0.480995 0.000000
0.941833 0.446082 0.000000
0.962524 0.408240 0.000000
0.981598 0.368200 0.000000
0.998993 0.327581 0.068177
1.000000 0.289586 0.149081
0.455360 0.479744 0.000000
0.455848 0.479805 0.000000
0.456580 0.479713 0.000000
0.458228 0.479744 0.000000
0.460670 0.479744 0.000000
0.464057 0.479683 0.000000
0.468299 0.479622 0.000000
0.473457 0.479591 0.000000
0.479622 0.479500 0.000000
0.486702 0.479469 0.000000
0.494820 0.479286 0.000000
0.505577 0.480903 0.000000
0.523827 0.488960 0.000000
0.544182 0.497780 0.000000
0.565606 0.506065 0.000000
0.580255 0.506065 0.000000
0.596002 0.504509 0.000000
0.612726 0.500755 0.000000
0.630426 0.494179 0.000000
0.648981 0.483986 0.000000
0.685298 0.481849 0.000000
0.734707 0.495003 0.000000
0.778958 0.509545 0.000000
0.819608 0.520989 0.000000
0.856504 0.529259 0.000000
0.889189 0.534447 0.000000
0.917845 0.536767 0.000000
0.941131 0.515404 0.000000
0.961761 0.481697 0.000000
0.980926 0.445441 0.000000
0.998627 0.407721 0.000000
1.000000 0.369848 0.000000
0.480720 0.508476 0.000000
0.481178 0.508476 0.000000
0.481910 0.508537 0.000000
0.483406 0.508537 0.000000
0.485756 0.508507 0.000000
0.488991 0.508598 0.000000
0.493111 0.508629 0.000000
0.498054 0.508659 0.000000
0.503990 0.508721 0.000000
0.510857 0.508721 0.000000
0.518761 0.508843 0.000000
0.527581 0.508904 0.000000
0.541985 0.513725 0.000000
0.561517 0.522545 0.000000
0.583124 0.531914 0.000000
0.603296 0.538537 0.000000
0.618341 0.538384 0.000000
0.634424 0.536492 0.000000
0.651270 0.532433 0.000000
0.669062 0.525566 0.000000
0.687495 0.515099 0.000000
0.720211 0.510307 0.000000
0.768643 0.520806 0.000000
0.810666 0.533837 0.000000
0.848692 0.543572 0.000000
0.882322 0.550042 0.000000
0.912016 0.553491 0.000000
0.938109 0.554620 0.000000
0.960693 0.546990 0.000000
0.979828 0.514122 0.000000
0.997681 0.479164 0.000000
1.000000 0.442695 0.000000
0.508049 0.539757 0.000000
0.508476 0.539727 0.000000
0.509178 0.539727 0.000000
0.510674 0.539788 0.000000
0.512902 0.539818 0.000000
0.516014 0.539879 0.000000
0.519951 0.539940 0.000000
0.524743 0.540093 0.000000
0.530449 0.540154 0.000000
0.537072 0.540307 0.000000
0.544640 0.540490 0.000000
0.553185 0.540581 0.000000
0.562646 0.540795 0.000000
0.580438 0.548547 0.000000
0.600793 0.557519 0.000000
0.623011 0.567071 0.000000
0.641749 0.571771 0.000000
0.656947 0.571069 0.000000
0.672938 0.568688 0.000000
0.689662 0.563989 0.000000
0.707210 0.556603 0.000000
0.725338 0.545739 0.000000
0.754299 0.538109 0.000000
0.801144 0.545647 0.000000
0.840604 0.556878 0.000000
0.875608 0.564660 0.000000
0.906279 0.569207 0.000000
0.933104 0.571252 0.000000
0.956970 0.571130 0.000000
0.978119 0.569482 0.000000
0.996307 0.544060 0.000000
1.000000 0.509911 0.000000
0.536797 0.572747 0.000000
0.537255 0.572747 0.000000
0.537896 0.572747 0.000000
0.539300 0.572869 0.000000
0.541497 0.572930 0.000000
0.544488 0.572961 0.000000
0.548272 0.573083 0.000000
0.552880 0.573144 0.000000
0.558404 0.573327 0.000000
0.564752 0.573449 0.000000
0.572045 0.573663 0.000000
0.580285 0.573877 0.000000
0.589471 0.574029 0.000000
0.601312 0.576165 0.000000
0.620325 0.584649 0.000000
0.641169 0.593622 0.000000
0.663783 0.602930 0.000000
0.680812 0.605493 0.000000
0.695735 0.604089 0.000000
0.711421 0.600855 0.000000
0.727779 0.595453 0.000000
0.744686 0.587243 0.000000
0.762142 0.575647 0.000000
0.787137 0.565118 0.000000
0.831968 0.569268 0.000000
0.868467 0.578546 0.000000
0.900420 0.584253 0.000000
0.928374 0.587121 0.000000
0.952972 0.587701 0.000000
0.974762 0.586542 0.000000
0.994202 0.583948 0.000000
1.000000 0.571679 0.000000
0.566949 0.607599 0.000000
0.567407 0.607660 0.000000
0.568078 0.607660 0.000000
0.569360 0.607691 0.000000
0.571496 0.607782 0.000000
0.574365 0.607813 0.000000
0.578027 0.607965 0.000000
0.582422 0.608057 0.000000
0.587762 0.608179 0.000000
0.593896 0.608331 0.000000
0.600946 0.608545 0.000000
0.608850 0.608728 0.000000
0.617670 0.608942 0.000000
0.627375 0.609155 0.000000
0.642023 0.613611 0.000000
0.661402 0.621881 0.000000
0.682460 0.630488 0.000000
0.705257 0.639460 0.000000
0.720150 0.639521 0.000000
0.734615 0.637110 0.000000
0.749660 0.632868 0.000000
0.765194 0.626337 0.000000
0.781247 0.617182 0.000000
0.797635 0.604639 0.000000
0.818662 0.591150 0.000000
0.860838 0.591608 0.000000
0.894224 0.598657 0.000000
0.923369 0.602533 0.000000
0.948943 0.603845 0.000000
0.971557 0.603204 0.000000
0.991638 0.600977 0.000000
1.000000 0.597467 0.000000
0.598535 0.644373 0.000000
0.598993 0.644404 0.000000
0.599573 0.644373 0.000000
0.600824 0.644404 0.000000
0.602899 0.644495 0.000000
0.605676 0.644495 0.000000
0.609186 0.644648 0.000000
0.613458 0.644709 0.000000
0.618585 0.644800 0.000000
0.624475 0.644984 0.000000
0.631250 0.645106 0.000000
0.638849 0.645319 0.000000
0.647333 0.645472 0.000000
0.656703 0.645716 0.000000
0.667018 0.645899 0.000000
0.683925 0.652125 0.000000
0.703426 0.659937 0.000000
0.724422 0.667994 0.000000
0.746426 0.675746 0.000000
0.759487 0.673579 0.000000
0.773068 0.669917 0.000000
0.787137 0.664332 0.000000
0.801663 0.656580 0.000000
0.816464 0.646113 0.000000
0.831540 0.632380 0.000000
0.848539 0.616022 0.000000
0.887572 0.612879 0.000000
0.918120 0.617487 0.000000
0.944732 0.619684 0.000000
0.968231 0.619654 0.000000
0.989044 0.617853 0.000000
1.000000 0.614679 0.000000
0.631312 0.682734 0.000000
0.631708 0.682704 0.000000
0.632258 0.682734 0.000000
0.633539 0.682734 0.000000
0.635523 0.682765 0.000000
0.638178 0.682826 0.000000
0.641566 0.682887 0.000000
0.645655 0.682979 0.000000
0.650599 0.683040 0.000000
0.656275 0.683101 0.000000
0.662776 0.683284 0.000000
0.670100 0.683375 0.000000
0.678340 0.683497 0.000000
0.687343 0.683619 0.000000
0.697261 0.683803 0.000000
0.708705 0.684627 0.000000
0.726589 0.691402 0.000000
0.745876 0.698390 0.000000
0.766506 0.705592 0.000000
0.786252 0.710780 0.000000
0.798276 0.707179 0.000000
0.810727 0.701991 0.000000
0.823575 0.694942 0.000000
0.836637 0.685664 0.000000
0.849973 0.673732 0.000000
0.863432 0.658717 0.000000
0.877073 0.639918 0.000000
0.912139 0.633967 0.000000
0.940398 0.635126 0.000000
0.964782 0.635889 0.000000
0.986419 0.634607 0.000000
1.000000 0.631830 0.000000
0.664759 0.722133 0.000000
0.665156 0.722164 0.000000
0.665705 0.722164 0.000000
0.666926 0.722194 0.000000
0.668757 0.722164 0.000000
0.671351 0.722225 0.000000
0.674617 0.722255 0.000000
0.678584 0.722286 0.000000
0.683345 0.722286 0.000000
0.688808 0.722347 0.000000
0.695033 0.722408 0.000000
0.702144 0.722469 0.000000
0.710018 0.722530 0.000000
0.718746 0.722560 0.000000
0.728237 0.722652 0.000000
0.738674 0.722713 0.000000
0.751797 0.724758 0.000000
0.769284 0.730648 0.000000
0.787991 0.736599 0.000000
0.807919 0.742641 0.000000
0.825193 0.745052 0.000000
0.835935 0.739742 0.000000
0.846952 0.732876 0.000000
0.858213 0.724147 0.000000
0.869657 0.713191 0.000000
0.881346 0.699702 0.000000
0.893126 0.683314 0.000000
0.905089 0.663355 0.000000
0.935088 0.653864 0.000000
0.961303 0.651850 0.000000
0.983795 0.651240 0.000000
1.000000 0.648981 0.000000
0.698054 0.761837 0.000000
0.698482 0.761807 0.000000
0.699001 0.761837 0.000000
0.700160 0.761807 0.000000
0.701930 0.761807 0.000000
0.704433 0.761807 0.000000
0.707576 0.761776 0.000000
0.711391 0.761807 0.000000
0.715908 0.761776 0.000000
0.721218 0.761776 0.000000
0.727230 0.761746 0.000000
0.734066 0.761746 0.000000
0.741634 0.761715 0.000000
0.749996 0.761685 0.000000
0.759152 0.761624 0.000000
0.769100 0.761563 0.000000
0.779965 0.761471 0.000000
0.794034 0.764187 0.000000
0.810880 0.768826 0.000000
0.828763 0.773495 0.000000
0.847654 0.778134 0.000000
0.862242 0.777615 0.000000
0.871458 0.770504 0.000000
0.880919 0.761868 0.000000
0.890562 0.751431 0.000000
0.900450 0.738918 0.000000
0.910521 0.724025 0.000000
0.920745 0.706355 0.000000
0.931151 0.685359 0.000000
0.956786 0.672786 0.000000
0.981140 0.667720 0.000000
1.000000 0.666011 0.000000
0.730007 0.800351 0.000000
0.730373 0.800351 0.000000
0.730892 0.800320 0.000000
0.732021 0.800320 0.000000
0.733761 0.800290 0.000000
0.736141 0.800259 0.000000
0.739132 0.800229 0.000000
0.742794 0.800168 0.000000
0.747158 0.800107 0.000000
0.752224 0.800015 0.000000
0.758022 0.799893 0.000000
0.764553 0.799802 0.000000
0.771786 0.799680 0.000000
0.779782 0.799527 0.000000
0.788571 0.799313 0.000000
