其他预设/【213】赛博朋克科幻预设52款/1.LUT预设（视频调色-PR-AE-PS-FCPX-达芬奇用）/赛博朋克科幻__-12 强度1.cube
# Created by Adobe Lightroom plugin Export LUT (1.17.0)
# www.johnrellis.com/lightroom/exportlut.htm
# Preset: 赛博朋克科幻[素锦印象]-12 强度1
# Color profile: /Library/Application Support/Adobe/Color/Profiles/Recommended/AdobeRGB1998.icc
LUT_3D_SIZE 5
DOMAIN_MIN 0.000000 0.000000 0.000000
DOMAIN_MAX 0.903226 0.903226 0.903226
0.038697 0.040253 0.040070
0.201785 0.047120 0.065003
0.426215 0.069886 0.110628
0.655329 0.127596 0.181857
0.877806 0.234348 0.287633
0.000000 0.232670 0.000000
0.211307 0.231754 0.000000
0.425177 0.233127 0.099214
0.654688 0.255985 0.174685
0.877592 0.315038 0.282170
0.000000 0.485908 0.000000
0.203555 0.485542 0.000000
0.441199 0.485237 0.000000
0.661799 0.478462 0.087709
0.876951 0.497993 0.257359
0.000000 0.725704 0.000000
0.146975 0.725246 0.000000
0.426947 0.723537 0.000000
0.656001 0.722042 0.000000
0.893523 0.728542 0.000000
0.000000 0.944945 0.000000
0.000000 0.944640 0.000000
0.377050 0.943633 0.000000
0.630426 0.941741 0.000000
0.853605 0.940826 0.000000
0.090639 0.018891 0.212467
0.215335 0.022217 0.216098
0.433692 0.102296 0.252750
0.659693 0.162539 0.298070
0.877623 0.269627 0.376349
0.062623 0.214603 0.211246
0.218021 0.220523 0.220188
0.435798 0.239292 0.248631
0.659419 0.267979 0.291630
0.877653 0.336950 0.371069
0.000000 0.481178 0.191653
0.185275 0.481392 0.184237
0.443122 0.480201 0.185702
0.661555 0.475257 0.257084
0.877592 0.504631 0.349889
0.000000 0.724849 0.066926
0.113497 0.723690 0.100343
0.421668 0.721950 0.090822
0.658106 0.719814 0.119295
0.892882 0.723995 0.206699
0.000000 0.945190 0.000000
0.000000 0.944884 0.000000
0.366430 0.943725 0.000000
0.629053 0.941466 0.000000
0.855711 0.940093 0.000000
0.186770 0.000000 0.447944
0.273960 0.000000 0.449226
0.452918 0.000000 0.455268
0.668360 0.149050 0.484779
0.881743 0.275883 0.533806
0.174319 0.215671 0.451911
0.271519 0.221134 0.452735
0.454505 0.225925 0.457404
0.669001 0.271458 0.486793
0.881010 0.356146 0.538079
0.107485 0.452277 0.445106
0.241459 0.455268 0.449561
0.457923 0.463661 0.462928
0.669520 0.484749 0.491737
0.878599 0.532525 0.547753
0.000000 0.709743 0.432197
0.165774 0.711574 0.432074
0.429267 0.714534 0.432227
0.668330 0.712123 0.432654
0.887053 0.715480 0.496010
0.000000 0.941772 0.364782
0.000000 0.942687 0.359258
0.363409 0.941985 0.362371
0.628992 0.939757 0.352117
0.864591 0.937102 0.369604
0.285557 0.000000 0.681605
0.347173 0.000000 0.682063
0.500053 0.024903 0.683528
0.685054 0.083467 0.688869
0.890715 0.244602 0.715419
0.284306 0.219760 0.683192
0.346410 0.222232 0.683589
0.500694 0.232914 0.684718
0.685389 0.244999 0.689509
0.890196 0.332586 0.716976
0.263828 0.453254 0.684474
0.340856 0.458839 0.685969
0.504204 0.467567 0.687892
0.686030 0.474067 0.691493
0.888853 0.519158 0.721370
0.200687 0.687068 0.676478
0.295384 0.687953 0.678279
0.485817 0.690639 0.684199
0.688014 0.696925 0.695796
0.887541 0.721187 0.726528
0.075715 0.923217 0.659632
0.227573 0.924132 0.660731
0.435981 0.928008 0.662501
0.655634 0.932830 0.661585
0.882750 0.930358 0.662440
0.389502 0.142519 0.905577
0.434668 0.119478 0.905760
0.560723 0.122957 0.906157
0.725917 0.173526 0.907012
0.905211 0.198550 0.910521
0.394079 0.243992 0.905913
0.438056 0.247959 0.905974
0.562860 0.262089 0.906340
0.727047 0.287663 0.906981
0.904997 0.300206 0.910552
0.427588 0.492744 0.905608
0.455268 0.483772 0.906157
0.570733 0.484901 0.906645
0.730404 0.495033 0.907317
0.904326 0.497963 0.910826
0.432563 0.702754 0.903502
0.475502 0.705196 0.904021
0.591760 0.710872 0.906096
0.731441 0.703365 0.909117
0.903990 0.706966 0.912108
0.357031 0.912444 0.899260
0.407324 0.912383 0.899779
0.542657 0.912322 0.901793
0.715450 0.912963 0.906126
0.905364 0.917296 0.915770
