其他预设/【213】赛博朋克科幻预设52款/1.LUT预设（视频调色-PR-AE-PS-FCPX-达芬奇用）/赛博朋克科幻__-7 强度3.cube
# Created by Adobe Lightroom plugin Export LUT (1.17.0)
# www.johnrellis.com/lightroom/exportlut.htm
# Preset: 赛博朋克科幻[素锦印象]-7 强度3
# Color profile: /Library/Application Support/Adobe/Color/Profiles/Recommended/AdobeRGB1998.icc
LUT_3D_SIZE 32
0.041291 0.081605 0.069551
0.041291 0.081605 0.069551
0.062715 0.082460 0.069154
0.096620 0.086336 0.067689
0.135805 0.094606 0.064729
0.177005 0.104707 0.059998
0.219974 0.115999 0.049165
0.264958 0.128634 0.028931
0.312200 0.142428 0.002136
0.361608 0.156893 0.000000
0.413184 0.172427 0.000000
0.465736 0.188418 0.000000
0.518639 0.204654 0.000000
0.571160 0.221012 0.000000
0.620905 0.236790 0.000000
0.666590 0.251164 0.000000
0.708431 0.264225 0.000000
0.746548 0.276310 0.000000
0.781216 0.287114 0.000000
0.813931 0.297276 0.000000
0.845029 0.306767 0.000000
0.874662 0.315648 0.000000
0.902770 0.323949 0.000000
0.929412 0.331609 0.000000
0.954742 0.338781 0.000000
0.978912 0.345373 0.000000
1.000000 0.351598 0.000000
1.000000 0.357244 0.000000
1.000000 0.362493 0.000000
1.000000 0.367346 0.000000
1.000000 0.371618 0.000000
1.000000 0.375433 0.000000
0.041291 0.081605 0.069551
0.041291 0.081605 0.069551
0.062593 0.083162 0.069093
0.096101 0.088014 0.067506
0.135439 0.096376 0.064515
0.176272 0.106416 0.059785
0.219516 0.117708 0.048707
0.264408 0.130404 0.028260
0.311681 0.143862 0.001587
0.361212 0.158450 0.000000
0.412696 0.173770 0.000000
0.465339 0.189731 0.000000
0.518303 0.205936 0.000000
0.570794 0.222293 0.000000
0.620691 0.237858 0.000000
0.666377 0.252262 0.000000
0.708186 0.265202 0.000000
0.746365 0.277195 0.000000
0.781033 0.288029 0.000000
0.813809 0.298070 0.000000
0.844938 0.307500 0.000000
0.874601 0.316289 0.000000
0.902708 0.324559 0.000000
0.929381 0.332189 0.000000
0.954742 0.339330 0.000000
0.978882 0.345953 0.000000
1.000000 0.352056 0.000000
1.000000 0.357763 0.000000
1.000000 0.362951 0.000000
1.000000 0.367773 0.000000
1.000000 0.371984 0.000000
1.000000 0.375830 0.000000
0.041291 0.081605 0.069551
0.041291 0.081605 0.069551
0.062104 0.085481 0.068849
0.095521 0.089937 0.067323
0.134585 0.099031 0.064210
0.175479 0.108827 0.059480
0.218540 0.120180 0.048096
0.263523 0.132448 0.027558
0.310948 0.145998 0.000671
0.360418 0.160311 0.000000
0.412055 0.175692 0.000000
0.464729 0.191592 0.000000
0.517723 0.207675 0.000000
0.570275 0.223972 0.000000
0.620172 0.239414 0.000000
0.666133 0.253605 0.000000
0.707912 0.266636 0.000000
0.746090 0.278416 0.000000
0.780880 0.289158 0.000000
0.813626 0.299077 0.000000
0.844816 0.308537 0.000000
0.874479 0.317266 0.000000
0.902617 0.325444 0.000000
0.929320 0.333043 0.000000
0.954711 0.340032 0.000000
0.978851 0.346624 0.000000
1.000000 0.352728 0.000000
1.000000 0.358343 0.000000
1.000000 0.363561 0.000000
1.000000 0.368322 0.000000
1.000000 0.372534 0.000000
1.000000 0.376349 0.000000
0.033112 0.095094 0.070039
0.032319 0.097932 0.068147
0.052583 0.101106 0.067140
0.093629 0.099001 0.066285
0.132815 0.104128 0.063569
0.173465 0.112917 0.058991
0.216617 0.124575 0.046998
0.261845 0.137148 0.025757
0.309392 0.150423 0.000000
0.359106 0.164584 0.000000
0.410712 0.179599 0.000000
0.463600 0.195377 0.000000
0.516533 0.211398 0.000000
0.569116 0.227543 0.000000
0.619379 0.242679 0.000000
0.665309 0.256779 0.000000
0.707301 0.269535 0.000000
0.745602 0.281132 0.000000
0.780423 0.291691 0.000000
0.813260 0.301549 0.000000
0.844541 0.310643 0.000000
0.874235 0.319310 0.000000
0.902434 0.327398 0.000000
0.929168 0.334813 0.000000
0.954589 0.341772 0.000000
0.978759 0.348211 0.000000
1.000000 0.354223 0.000000
1.000000 0.359808 0.000000
1.000000 0.364874 0.000000
1.000000 0.369543 0.000000
1.000000 0.373754 0.000000
1.000000 0.377447 0.000000
0.019654 0.113375 0.070741
0.019074 0.115663 0.068482
0.043488 0.117708 0.071351
0.083406 0.121950 0.072053
0.126833 0.119081 0.068025
0.170626 0.122957 0.059205
0.213626 0.129244 0.045624
0.259007 0.141695 0.024323
0.306767 0.155398 0.000000
0.356664 0.170138 0.000000
0.408637 0.185519 0.000000
0.461555 0.201175 0.000000
0.514763 0.217014 0.000000
0.567529 0.232792 0.000000
0.617975 0.247807 0.000000
0.664149 0.261479 0.000000
0.706325 0.273960 0.000000
0.744717 0.285313 0.000000
0.779751 0.295598 0.000000
0.812741 0.305119 0.000000
0.844083 0.314061 0.000000
0.873930 0.322545 0.000000
0.902190 0.330327 0.000000
0.928985 0.337652 0.000000
0.954437 0.344396 0.000000
0.978668 0.350683 0.000000
1.000000 0.356573 0.000000
1.000000 0.361913 0.000000
1.000000 0.366918 0.000000
1.000000 0.371557 0.000000
1.000000 0.375586 0.000000
1.000000 0.379187 0.000000
0.003174 0.131197 0.072450
0.002594 0.133150 0.070344
0.016327 0.135378 0.070192
0.071015 0.138949 0.081453
0.116609 0.144472 0.077485
0.161654 0.141115 0.072877
0.209659 0.147158 0.063203
0.254887 0.151736 0.042756
0.302678 0.161959 0.007599
0.353063 0.175082 0.000000
0.405188 0.189944 0.000000
0.458503 0.205905 0.000000
0.511986 0.221775 0.000000
0.565240 0.237949 0.000000
0.616083 0.253269 0.000000
0.662654 0.267247 0.000000
0.705074 0.279820 0.000000
0.743618 0.290776 0.000000
0.778836 0.300633 0.000000
0.812009 0.309911 0.000000
0.843503 0.318639 0.000000
0.873472 0.326726 0.000000
0.901823 0.334356 0.000000
0.928679 0.341405 0.000000
0.954192 0.347936 0.000000
0.978485 0.353979 0.000000
1.000000 0.359686 0.000000
1.000000 0.364904 0.000000
1.000000 0.369757 0.000000
1.000000 0.374121 0.000000
1.000000 0.378149 0.000000
1.000000 0.381567 0.000000
0.000000 0.150210 0.074891
0.000000 0.151888 0.072419
0.000000 0.154025 0.072267
0.058839 0.157290 0.082063
0.090730 0.163607 0.087922
0.152560 0.169375 0.082918
0.199039 0.165133 0.078431
0.250767 0.172366 0.066926
0.298161 0.177279 0.048371
0.347906 0.185397 0.009491
0.400427 0.199161 0.000000
0.454231 0.213748 0.000000
0.508080 0.228794 0.000000
0.561852 0.244022 0.000000
0.613397 0.258549 0.000000
0.660395 0.271733 0.000000
0.703243 0.284001 0.000000
0.742153 0.295323 0.000000
0.777646 0.305699 0.000000
0.811063 0.315496 0.000000
0.842771 0.324224 0.000000
0.872892 0.331975 0.000000
0.901335 0.339269 0.000000
0.928344 0.346044 0.000000
0.953948 0.352239 0.000000
0.978271 0.358129 0.000000
1.000000 0.363531 0.000000
1.000000 0.368627 0.000000
1.000000 0.373175 0.000000
1.000000 0.377478 0.000000
1.000000 0.381292 0.000000
1.000000 0.384588 0.000000
0.000000 0.170748 0.077699
0.000000 0.172183 0.075776
0.000000 0.173922 0.076936
0.028779 0.177279 0.083711
0.089540 0.182101 0.098054
0.126650 0.189975 0.094759
0.185733 0.190860 0.090608
0.239261 0.191440 0.084779
0.294102 0.199313 0.072724
0.344060 0.204593 0.054932
0.395148 0.210697 0.011841
0.449104 0.223362 0.000000
0.503593 0.237888 0.000000
0.557763 0.252445 0.000000
0.609796 0.266697 0.000000
0.657404 0.279515 0.000000
0.700710 0.291142 0.000000
0.740078 0.301671 0.000000
0.776028 0.311192 0.000000
0.809842 0.319921 0.000000
0.841855 0.328649 0.000000
0.872190 0.337255 0.000000
0.900816 0.345190 0.000000
0.927916 0.351568 0.000000
0.953613 0.357580 0.000000
0.978058 0.363134 0.000000
1.000000 0.368292 0.000000
1.000000 0.373083 0.000000
1.000000 0.377508 0.000000
1.000000 0.381445 0.000000
1.000000 0.385016 0.000000
1.000000 0.388190 0.000000
0.000000 0.193179 0.081666
0.000000 0.194644 0.079774
0.000000 0.196170 0.082948
0.000000 0.199344 0.088350
0.072938 0.204257 0.097047
0.113252 0.211002 0.106935
0.168460 0.219364 0.102785
0.222446 0.214847 0.099886
0.282811 0.219638 0.092012
0.340368 0.228305 0.078798
0.392340 0.233707 0.060609
0.444831 0.239414 0.011444
0.498360 0.248569 0.000000
0.553094 0.262608 0.000000
0.605646 0.276158 0.000000
0.653895 0.288365 0.000000
0.697780 0.299504 0.000000
0.737667 0.309545 0.000000
0.773922 0.318639 0.000000
0.808133 0.327062 0.000000
0.840482 0.335210 0.000000
0.871214 0.342809 0.000000
0.900175 0.349706 0.000000
0.927428 0.357275 0.000000
0.953246 0.363684 0.000000
0.977752 0.368872 0.000000
1.000000 0.373816 0.000000
1.000000 0.378241 0.000000
1.000000 0.382391 0.000000
1.000000 0.386175 0.000000
1.000000 0.389471 0.000000
1.000000 0.392401 0.000000
0.000000 0.217685 0.086030
0.000000 0.218692 0.087709
0.000000 0.220188 0.089998
0.000000 0.223301 0.093538
0.050446 0.228061 0.099519
0.112795 0.233310 0.119600
0.139925 0.243259 0.116335
0.213321 0.251591 0.111147
0.266728 0.243473 0.109346
0.329198 0.250187 0.100008
0.389105 0.259007 0.085664
0.442390 0.264042 0.066377
0.495460 0.269383 0.017151
0.547753 0.274662 0.000000
0.601068 0.287083 0.000000
0.650019 0.298772 0.000000
0.694514 0.309392 0.000000
0.734829 0.318730 0.000000
0.771542 0.327214 0.000000
0.806149 0.335271 0.000000
0.838956 0.342962 0.000000
0.869932 0.350072 0.000000
0.899168 0.356817 0.000000
0.926726 0.363104 0.000000
0.952850 0.368750 0.000000
0.977417 0.375402 0.000000
1.000000 0.379950 0.000000
1.000000 0.384222 0.000000
1.000000 0.388067 0.000000
1.000000 0.391516 0.000000
1.000000 0.394598 0.000000
1.000000 0.397223 0.000000
0.000000 0.243534 0.094362
0.000000 0.244480 0.095827
0.000000 0.245914 0.097139
0.000000 0.248905 0.099855
0.005402 0.253422 0.104677
0.090181 0.259159 0.114961
0.139986 0.266575 0.129976
0.182223 0.277104 0.126223
0.261112 0.286137 0.120424
0.315068 0.274632 0.119783
0.378210 0.282353 0.109224
0.439796 0.291142 0.093874
0.493538 0.295750 0.073610
0.546532 0.300114 0.027985
0.597528 0.304082 0.000000
0.645533 0.310979 0.000000
0.690669 0.320745 0.000000
0.731502 0.329503 0.000000
0.768826 0.337377 0.000000
0.803952 0.344793 0.000000
0.837125 0.351934 0.000000
0.868437 0.358556 0.000000
0.897978 0.364782 0.000000
0.925811 0.370581 0.000000
0.952087 0.376043 0.000000
0.977020 0.381079 0.000000
1.000000 0.386206 0.000000
1.000000 0.390814 0.000000
1.000000 0.394354 0.000000
1.000000 0.397467 0.000000
1.000000 0.400305 0.000000
1.000000 0.402686 0.000000
0.000000 0.270726 0.102724
0.000000 0.271672 0.103578
0.000000 0.272953 0.104524
0.000000 0.275761 0.106538
0.000000 0.280125 0.110506
0.068452 0.285771 0.117189
0.136263 0.291447 0.140963
0.169406 0.301915 0.141115
0.232242 0.312566 0.136660
0.311925 0.322789 0.130251
0.366278 0.307317 0.131167
0.429206 0.315923 0.119356
0.491493 0.324315 0.103029
0.545159 0.328008 0.082643
0.596429 0.331029 0.048463
0.643427 0.332708 0.000000
0.686366 0.333806 0.000000
0.727871 0.341833 0.000000
0.765682 0.349004 0.000000
0.801358 0.355871 0.000000
0.835050 0.362341 0.000000
0.866758 0.368475 0.000000
0.896605 0.374060 0.000000
0.924712 0.379339 0.000000
0.951263 0.384222 0.000000
0.976349 0.388800 0.000000
1.000000 0.393011 0.000000
1.000000 0.396796 0.000000
1.000000 0.401251 0.000000
1.000000 0.404120 0.000000
1.000000 0.406653 0.000000
1.000000 0.408728 0.000000
0.000000 0.298802 0.110872
0.000000 0.299657 0.111421
0.000000 0.300969 0.111849
0.000000 0.303685 0.113649
0.000000 0.307866 0.116487
0.017945 0.313268 0.122347
0.110109 0.319585 0.134768
0.169558 0.326909 0.156069
0.200961 0.339269 0.152651
0.283726 0.349859 0.147494
0.364965 0.361059 0.140749
0.418799 0.341802 0.143526
0.481270 0.350286 0.130800
0.543420 0.357946 0.114412
0.595392 0.360021 0.094484
0.642603 0.360845 0.068544
0.685664 0.360357 0.002808
0.724788 0.359136 0.000000
0.762203 0.362310 0.000000
0.798489 0.368536 0.000000
0.832670 0.374365 0.000000
0.864805 0.379889 0.000000
0.895018 0.384955 0.000000
0.923430 0.389563 0.000000
0.950256 0.393805 0.000000
0.975586 0.397742 0.000000
0.999603 0.401404 0.000000
1.000000 0.404700 0.000000
1.000000 0.407660 0.000000
1.000000 0.411383 0.000000
1.000000 0.413550 0.000000
1.000000 0.415320 0.000000
0.000000 0.327733 0.118593
0.000000 0.328679 0.118868
0.000000 0.329870 0.119448
0.000000 0.332494 0.120668
0.000000 0.336339 0.123110
0.000000 0.341527 0.127993
0.085267 0.347875 0.136294
0.161044 0.353887 0.163729
0.201480 0.364599 0.168673
0.246738 0.377447 0.164920
0.337163 0.388525 0.159640
0.412268 0.393591 0.154818
0.471565 0.377813 0.156649
0.533501 0.385107 0.143435
0.593286 0.390936 0.127565
0.641749 0.390845 0.109468
0.684962 0.389258 0.087953
0.724208 0.386938 0.058778
0.760494 0.384161 0.000000
0.795254 0.382788 0.000000
0.829953 0.388037 0.000000
0.862577 0.392828 0.000000
0.893156 0.397345 0.000000
0.921965 0.401343 0.000000
0.949035 0.405035 0.000000
0.974640 0.408209 0.000000
0.998871 0.411078 0.000000
1.000000 0.413733 0.000000
1.000000 0.416144 0.000000
1.000000 0.418311 0.000000
1.000000 0.421088 0.000000
1.000000 0.422461 0.000000
0.000000 0.357397 0.126467
0.000000 0.358160 0.126741
0.000000 0.359319 0.127077
0.000000 0.361761 0.128023
0.000000 0.365545 0.130220
0.000000 0.370581 0.134035
0.048005 0.376562 0.141421
0.132723 0.383337 0.156893
0.201694 0.390478 0.185031
0.234958 0.403571 0.181949
0.302281 0.416297 0.177890
0.392126 0.428229 0.172488
0.460304 0.426093 0.170352
0.524559 0.414099 0.170962
0.584588 0.419532 0.157900
0.639429 0.422278 0.143648
0.684047 0.420111 0.127413
0.723537 0.416571 0.109255
0.760037 0.412726 0.087007
0.794705 0.409094 0.052186
0.827543 0.405554 0.000000
0.860044 0.407416 0.000000
0.891081 0.411292 0.000000
0.920226 0.414771 0.000000
0.947601 0.417792 0.000000
0.973480 0.420386 0.000000
0.997955 0.422553 0.000000
1.000000 0.424445 0.000000
1.000000 0.426032 0.000000
1.000000 0.427344 0.000000
1.000000 0.428412 0.000000
1.000000 0.430182 0.000000
0.000000 0.387427 0.134310
0.000000 0.388220 0.134554
0.000000 0.389258 0.134890
0.000000 0.391577 0.135561
0.000000 0.395117 0.137240
0.000000 0.399969 0.140627
0.000000 0.405737 0.146944
0.105684 0.412543 0.157351
0.188144 0.418738 0.188418
0.235355 0.429419 0.198917
0.269627 0.443519 0.195773
0.358312 0.455940 0.191836
0.447883 0.468452 0.186191
0.508812 0.458350 0.187076
0.576379 0.449683 0.186709
0.631647 0.451911 0.174746
0.681483 0.451850 0.161715
0.722652 0.447913 0.147311
0.759518 0.443030 0.131289
0.794369 0.438392 0.113222
0.827390 0.433906 0.090120
0.858671 0.429511 0.056367
0.888701 0.426917 0.000000
0.918212 0.429816 0.000000
0.945953 0.432258 0.000000
0.972107 0.434272 0.000000
0.996826 0.435798 0.000000
1.000000 0.436957 0.000000
1.000000 0.437690 0.000000
1.000000 0.437964 0.000000
1.000000 0.438056 0.000000
1.000000 0.437995 0.000000
0.000000 0.417792 0.142275
0.000000 0.418524 0.142336
0.000000 0.419532 0.142763
0.000000 0.421759 0.143221
0.000000 0.425147 0.144442
0.000000 0.429725 0.147463
0.000000 0.435248 0.153109
0.074922 0.441779 0.162325
0.158022 0.448646 0.180819
0.235935 0.455482 0.216007
0.270237 0.469032 0.213596
0.316411 0.483436 0.210483
0.414496 0.495827 0.206455
0.504143 0.508721 0.201175
0.556970 0.489937 0.205264
0.624079 0.483009 0.204440
0.674372 0.482338 0.193637
0.719966 0.479957 0.181827
0.758816 0.474922 0.168551
0.793912 0.469276 0.154482
0.827085 0.463813 0.138796
0.858427 0.458503 0.120363
0.888121 0.453254 0.097780
0.916228 0.447974 0.064607
0.943999 0.448402 0.000000
0.970459 0.449928 0.000000
0.995422 0.450874 0.000000
1.000000 0.451301 0.000000
1.000000 0.451240 0.000000
1.000000 0.450721 0.000000
1.000000 0.449653 0.000000
1.000000 0.448249 0.000000
0.000000 0.448280 0.150210
0.000000 0.448981 0.150393
0.000000 0.449958 0.150484
0.000000 0.452064 0.150912
0.000000 0.455360 0.152163
0.000000 0.459663 0.154513
0.000000 0.464942 0.159548
0.000000 0.471107 0.167697
0.130556 0.478218 0.180728
0.216983 0.484565 0.214939
0.270970 0.494850 0.231449
0.306218 0.509270 0.229038
0.375067 0.523247 0.226139
0.471412 0.536095 0.222416
0.560449 0.548821 0.217594
0.606622 0.522606 0.224979
0.669032 0.514824 0.224430
0.715053 0.511833 0.214359
0.756680 0.507469 0.203433
0.793240 0.501549 0.191592
0.826627 0.495186 0.178775
0.858061 0.489021 0.164858
0.887785 0.482887 0.148959
0.915923 0.476875 0.130556
0.942626 0.470863 0.107362
0.968536 0.467140 0.073396
0.993774 0.467659 0.000000
1.000000 0.467628 0.000000
1.000000 0.466957 0.000000
1.000000 0.465614 0.000000
1.000000 0.463569 0.000000
1.000000 0.460883 0.000000
0.000000 0.479713 0.158389
0.000000 0.480385 0.158450
0.000000 0.481331 0.158358
0.000000 0.483375 0.158846
0.000000 0.486458 0.159609
0.000000 0.490639 0.161929
0.000000 0.495796 0.166232
0.000000 0.501732 0.173800
0.102052 0.508598 0.185702
0.186313 0.515679 0.207156
0.272557 0.521935 0.249638
0.307866 0.535851 0.248020
0.343877 0.551110 0.245792
0.434211 0.564111 0.243381
0.528069 0.576165 0.240421
0.615412 0.587884 0.236606
0.656153 0.555413 0.247471
0.711818 0.545953 0.246616
0.753872 0.540826 0.237247
0.791867 0.534783 0.227054
0.825986 0.527886 0.216098
0.857542 0.520836 0.204379
0.887297 0.513970 0.191592
0.915465 0.507195 0.177707
0.942138 0.500450 0.161593
0.967620 0.493690 0.142092
0.991974 0.486793 0.116976
1.000000 0.485664 0.080293
1.000000 0.484565 0.000000
1.000000 0.482704 0.000000
1.000000 0.479896 0.000000
1.000000 0.476173 0.000000
0.000000 0.512596 0.166598
0.000000 0.513237 0.166476
0.000000 0.514183 0.166659
0.000000 0.516075 0.166720
0.000000 0.519066 0.167514
0.000000 0.523095 0.169406
0.000000 0.528008 0.173190
0.000000 0.533867 0.180240
0.044739 0.540398 0.191073
0.158389 0.547723 0.206638
0.249119 0.554223 0.244236
0.310552 0.563806 0.267643
0.346441 0.578027 0.266239
0.391455 0.592523 0.264622
0.492622 0.603937 0.263279
0.583703 0.615015 0.261265
0.660700 0.618616 0.260899
0.703151 0.587060 0.272801
0.752560 0.576379 0.271214
0.790799 0.569390 0.262150
0.825284 0.561822 0.252445
0.856779 0.553918 0.242222
0.886595 0.546288 0.231388
0.914702 0.538842 0.219730
0.941405 0.531456 0.206882
0.966827 0.524132 0.192020
0.991119 0.516655 0.174594
1.000000 0.509056 0.153292
1.000000 0.503929 0.125429
1.000000 0.501762 0.081361
1.000000 0.498573 0.000000
1.000000 0.494148 0.000000
0.000000 0.546929 0.175051
0.000000 0.547539 0.174807
0.000000 0.548425 0.174868
0.000000 0.550286 0.174868
0.000000 0.553155 0.175479
0.000000 0.557031 0.176974
0.000000 0.561730 0.180423
0.000000 0.567346 0.186831
0.000000 0.573602 0.197086
0.131838 0.580407 0.211948
0.219150 0.587274 0.237156
0.310979 0.592645 0.284642
0.350225 0.605310 0.287602
0.386267 0.619196 0.286748
0.453254 0.631952 0.286137
0.549798 0.642542 0.285740
0.637842 0.652735 0.284947
0.703822 0.647730 0.288304
0.747616 0.617609 0.300847
0.791043 0.606134 0.298192
0.825589 0.597620 0.289311
0.856840 0.588586 0.279759
0.885679 0.579614 0.269718
0.913817 0.571496 0.259648
0.940459 0.563592 0.248783
0.965789 0.555779 0.236606
0.990021 0.547845 0.222934
1.000000 0.539910 0.206882
1.000000 0.531548 0.187472
1.000000 0.522728 0.162844
1.000000 0.519341 0.130037
1.000000 0.514611 0.070588
0.000000 0.582483 0.183230
0.000000 0.583062 0.183230
0.000000 0.583856 0.183169
0.000000 0.585565 0.183078
0.000000 0.588312 0.183505
0.000000 0.591882 0.184817
0.000000 0.596216 0.187839
0.000000 0.601282 0.193698
0.000000 0.606989 0.203464
0.094240 0.613214 0.217746
0.192691 0.619867 0.237064
0.287480 0.625238 0.279088
0.355993 0.632898 0.310094
0.391455 0.645869 0.310033
0.426978 0.659327 0.309880
0.513512 0.670222 0.310552
0.605463 0.679896 0.311315
0.690242 0.689204 0.311742
0.745205 0.675807 0.318303
0.789364 0.647181 0.331640
0.827146 0.635309 0.327398
0.858244 0.625360 0.318425
0.886442 0.615106 0.308904
0.912657 0.605158 0.298985
0.939239 0.596735 0.289372
0.964477 0.588495 0.279026
0.988617 0.580224 0.267521
1.000000 0.571923 0.254551
1.000000 0.563378 0.239445
1.000000 0.554376 0.221317
1.000000 0.544732 0.198856
1.000000 0.537316 0.170077
0.000000 0.618036 0.191470
0.000000 0.618555 0.191470
0.000000 0.619287 0.191287
0.000000 0.620874 0.191226
0.000000 0.623346 0.191318
0.000000 0.626612 0.192355
0.000000 0.630610 0.195163
0.000000 0.635218 0.200687
0.000000 0.640436 0.210117
0.000000 0.646082 0.224216
0.170901 0.652094 0.243137
0.260258 0.657832 0.273625
0.354376 0.662043 0.324498
0.398840 0.672755 0.334478
0.433783 0.685359 0.335119
0.474586 0.698024 0.335790
0.571954 0.707179 0.337957
0.659510 0.715969 0.339940
0.740383 0.724269 0.341711
0.784604 0.702968 0.351110
0.828214 0.676051 0.365240
0.860716 0.663905 0.358923
0.888670 0.652766 0.349737
0.914061 0.641474 0.339818
0.937774 0.630549 0.329595
0.962890 0.621942 0.320470
0.986877 0.613428 0.310674
1.000000 0.604944 0.299687
1.000000 0.596277 0.287297
1.000000 0.587243 0.273045
1.000000 0.577691 0.256016
1.000000 0.567315 0.235416
0.000000 0.653468 0.199557
0.000000 0.653925 0.199252
0.000000 0.654597 0.199100
0.000000 0.656062 0.198917
0.000000 0.658320 0.198917
0.000000 0.661280 0.199954
0.000000 0.664912 0.202243
0.000000 0.669154 0.207584
0.000000 0.673884 0.216770
0.000000 0.678981 0.230777
0.143679 0.684443 0.249790
0.237095 0.690059 0.274113
0.333776 0.694179 0.320958
0.408850 0.699825 0.360266
0.443030 0.711543 0.361730
0.477119 0.723629 0.363165
0.537591 0.734432 0.365301
0.628656 0.742733 0.368688
0.711360 0.750637 0.371832
0.788083 0.757961 0.374792
0.821775 0.729274 0.386511
0.863981 0.704189 0.401129
0.891814 0.692012 0.392493
0.916899 0.679896 0.382727
0.939788 0.667781 0.372381
0.961059 0.655879 0.361517
0.984833 0.647242 0.352972
1.000000 0.638605 0.343633
1.000000 0.629999 0.333257
1.000000 0.621057 0.321660
1.000000 0.611780 0.308354
1.000000 0.601831 0.292882
0.000000 0.688777 0.207034
0.000000 0.689204 0.206973
0.000000 0.689845 0.206699
0.000000 0.691188 0.206241
0.000000 0.693263 0.206149
0.000000 0.695949 0.206851
0.000000 0.699275 0.209201
0.000000 0.703120 0.214267
0.000000 0.707393 0.223453
0.000000 0.712032 0.237278
0.104677 0.716915 0.256504
0.220645 0.721920 0.281285
0.311315 0.726406 0.317845
0.406653 0.729305 0.372595
0.455421 0.737911 0.389899
0.488411 0.749172 0.392096
0.521263 0.760678 0.394232
0.598230 0.769436 0.398169
0.683101 0.776822 0.402655
0.760739 0.783749 0.406989
0.832761 0.790097 0.411048
0.856535 0.754971 0.424567
0.895872 0.732479 0.437751
0.920470 0.719722 0.427985
0.942992 0.706905 0.417639
0.963622 0.694118 0.406592
0.982635 0.681331 0.394903
1.000000 0.672663 0.386755
1.000000 0.664088 0.378149
1.000000 0.655421 0.368597
1.000000 0.646571 0.358129
1.000000 0.637293 0.346380
0.000000 0.724086 0.214420
0.000000 0.724514 0.214237
0.000000 0.725063 0.214023
0.000000 0.726314 0.213382
0.000000 0.728145 0.213138
0.000000 0.730678 0.213535
0.000000 0.733669 0.215640
0.000000 0.737179 0.220554
0.000000 0.741054 0.229557
0.000000 0.745205 0.243534
0.000000 0.749508 0.263188
0.201175 0.753902 0.288609
0.292638 0.758267 0.319707
0.390600 0.760983 0.371771
0.471382 0.764340 0.419715
0.503319 0.774777 0.422675
0.534966 0.785428 0.425574
0.569360 0.796017 0.428626
0.656550 0.802853 0.434302
0.735042 0.809293 0.439796
0.807340 0.815213 0.444923
0.867796 0.814817 0.451057
0.890043 0.780941 0.464210
0.924987 0.760189 0.474495
0.946868 0.746944 0.464424
0.966949 0.733700 0.453651
0.985504 0.720485 0.442267
1.000000 0.707210 0.430060
1.000000 0.698329 0.422156
1.000000 0.689967 0.414374
1.000000 0.681605 0.406134
1.000000 0.673152 0.397559
0.000000 0.759457 0.221500
0.000000 0.759823 0.221073
0.000000 0.760372 0.220737
0.000000 0.761471 0.220157
0.000000 0.763180 0.219455
0.000000 0.765469 0.219699
0.000000 0.768185 0.221469
0.000000 0.771389 0.226200
0.000000 0.774868 0.235264
0.000000 0.778561 0.249485
0.000000 0.782315 0.269749
0.177737 0.786099 0.296025
0.281468 0.789822 0.328069
0.373602 0.792782 0.371466
0.469276 0.794125 0.430091
0.521935 0.800473 0.454932
0.552178 0.810300 0.458442
0.581964 0.820218 0.461921
0.632441 0.828763 0.466377
0.711727 0.834653 0.472511
0.783993 0.840116 0.478370
0.850858 0.845151 0.483803
0.899931 0.838163 0.491279
0.922087 0.806943 0.503838
0.951690 0.786893 0.510948
0.971038 0.773312 0.500511
0.988922 0.759762 0.489479
1.000000 0.746304 0.477913
1.000000 0.732876 0.465705
1.000000 0.723964 0.458412
1.000000 0.716304 0.452399
1.000000 0.708797 0.446571
0.000000 0.794858 0.227970
0.000000 0.795193 0.227726
0.000000 0.795682 0.227237
0.000000 0.796719 0.226505
0.000000 0.798306 0.225498
0.000000 0.800351 0.225284
0.000000 0.802884 0.226688
0.000000 0.805722 0.230991
0.000000 0.808835 0.240085
0.000000 0.812070 0.254795
0.000000 0.815305 0.275731
0.147066 0.818509 0.303258
0.269535 0.821469 0.336736
0.361089 0.824247 0.375708
0.459297 0.825162 0.432990
