其他预设/【213】赛博朋克科幻预设52款/1.LUT预设（视频调色-PR-AE-PS-FCPX-达芬奇用）/赛博朋克科幻__-1.cube
# Created by Adobe Lightroom plugin Export LUT (1.17.0)
# www.johnrellis.com/lightroom/exportlut.htm
# Preset: 赛博朋克科幻[素锦印象]-1
# Color profile: /Library/Application Support/Adobe/Color/Profiles/Recommended/AdobeRGB1998.icc
LUT_3D_SIZE 8
DOMAIN_MIN 0.000000 0.000000 0.000000
DOMAIN_MAX 0.903226 0.903226 0.903226
0.000000 0.085176 0.068605
0.000000 0.085756 0.073671
0.000000 0.087007 0.093751
0.090700 0.077852 0.156863
0.316564 0.000000 0.263584
0.641566 0.000000 0.396674
0.962463 0.000000 0.546136
1.000000 0.000000 0.675715
0.000000 0.104921 0.066651
0.000000 0.103914 0.067964
0.000000 0.086183 0.081483
0.110628 0.074220 0.134524
0.332860 0.000000 0.236667
0.653040 0.000000 0.371069
0.967315 0.000000 0.525475
1.000000 0.000000 0.659937
0.000000 0.227359 0.031373
0.000000 0.222232 0.055085
0.000000 0.213413 0.056458
0.169284 0.143191 0.064271
0.411078 0.000000 0.112093
0.733059 0.000000 0.269932
1.000000 0.000000 0.452247
1.000000 0.000000 0.606989
0.000000 0.504967 0.000000
0.000000 0.498451 0.000000
0.000000 0.478187 0.000000
0.000000 0.473732 0.000000
0.518761 0.353460 0.000000
0.852964 0.000000 0.000000
1.000000 0.000000 0.203220
1.000000 0.000000 0.459632
0.000000 0.742641 0.000000
0.000000 0.739528 0.000000
0.000000 0.729641 0.000000
0.000000 0.716640 0.000000
0.359319 0.698939 0.000000
0.897704 0.588251 0.000000
1.000000 0.204715 0.000000
1.000000 0.000000 0.000000
0.206638 0.877012 0.000000
0.219608 0.877684 0.000000
0.244297 0.872099 0.072023
0.289158 0.860502 0.282383
0.000000 0.858457 0.162112
0.693263 0.822019 0.075410
1.000000 0.756069 0.063752
1.000000 0.560815 0.000000
0.449592 0.954345 0.143771
0.461830 0.953338 0.187320
0.501701 0.948516 0.291661
0.579553 0.938506 0.425879
0.564019 0.935576 0.472084
0.248112 0.952483 0.345830
0.906432 0.898009 0.335027
1.000000 0.874937 0.349981
0.661891 0.971069 0.412482
0.677699 0.969085 0.434577
0.735225 0.961547 0.506615
0.826047 0.948058 0.610132
0.903044 0.933776 0.703120
0.834867 0.945251 0.661982
0.643122 0.970977 0.569116
0.989807 0.925505 0.583062
0.000000 0.088655 0.086824
0.000000 0.089479 0.081331
0.000000 0.094148 0.098604
0.110597 0.081209 0.160372
0.343053 0.000000 0.242985
0.659510 0.000000 0.376776
0.966369 0.000000 0.531273
1.000000 0.000000 0.666896
0.000000 0.119936 0.090333
0.000000 0.112612 0.092744
0.000000 0.107942 0.107179
0.126253 0.083711 0.149172
0.357824 0.000000 0.226108
0.675044 0.000000 0.352514
0.971160 0.000000 0.510582
1.000000 0.000000 0.650996
0.000000 0.233585 0.046967
0.000000 0.229007 0.070100
0.000000 0.219089 0.089967
0.179599 0.124880 0.095064
0.416541 0.000000 0.154849
0.741695 0.000000 0.265721
1.000000 0.000000 0.432776
1.000000 0.000000 0.597498
0.000000 0.506188 0.000000
0.000000 0.500969 0.000000
0.000000 0.482490 0.066590
0.000000 0.467292 0.000000
0.503838 0.336278 0.022431
0.834165 0.000000 0.000000
1.000000 0.000000 0.224399
1.000000 0.000000 0.450263
0.000000 0.743160 0.000000
0.000000 0.739742 0.000000
0.000000 0.729061 0.000000
0.000000 0.712551 0.128084
0.331487 0.694301 0.000000
0.889616 0.582147 0.000000
1.000000 0.149538 0.000000
1.000000 0.000000 0.000000
0.249424 0.874632 0.000000
0.256229 0.873350 0.000000
0.281376 0.867826 0.129946
0.329076 0.856687 0.303838
0.000000 0.854734 0.239841
0.685634 0.821195 0.185946
1.000000 0.754482 0.202731
1.000000 0.556512 0.000000
0.470741 0.951507 0.174563
0.480537 0.950103 0.208804
0.520806 0.945373 0.306706
0.599664 0.935485 0.437629
0.625025 0.928557 0.511131
0.334203 0.947784 0.390295
0.904479 0.896178 0.374731
1.000000 0.872251 0.394568
0.673060 0.969512 0.420478
0.689509 0.967468 0.442786
0.745998 0.959960 0.513817
0.833982 0.946715 0.615473
0.914244 0.932341 0.713375
0.865537 0.940551 0.685389
0.686000 0.965942 0.593683
0.991058 0.924681 0.603540
0.000000 0.110933 0.195804
0.000000 0.097993 0.184634
0.000000 0.113497 0.159792
0.118532 0.122713 0.189883
0.368780 0.000000 0.315312
0.700160 0.000000 0.461311
0.990600 0.000000 0.557214
1.000000 0.000000 0.661433
0.000000 0.164187 0.217411
0.000000 0.144350 0.219211
0.000000 0.139132 0.183536
0.126864 0.148592 0.208743
0.378149 0.000000 0.328710
0.708278 0.000000 0.465003
0.993561 0.000000 0.546166
1.000000 0.000000 0.646723
0.000000 0.311955 0.247288
0.000000 0.304875 0.253117
0.000000 0.266026 0.263127
0.153750 0.243412 0.276921
0.425757 0.149172 0.362066
0.761990 0.000000 0.432593
1.000000 0.000000 0.509453
1.000000 0.000000 0.590326
0.000000 0.528649 0.000000
0.000000 0.527825 0.000000
0.000000 0.519005 0.186252
0.000000 0.486549 0.281102
0.533867 0.317693 0.291783
0.847166 0.000000 0.333104
1.000000 0.000000 0.417395
1.000000 0.000000 0.489662
0.138033 0.753506 0.000000
0.158206 0.750607 0.000000
0.208988 0.740108 0.188663
0.255436 0.720638 0.330358
0.278721 0.703487 0.294591
0.902403 0.576654 0.324773
1.000000 0.000000 0.278813
1.000000 0.000000 0.292607
0.371710 0.876616 0.000000
0.385901 0.874662 0.130739
0.424811 0.867521 0.259068
0.478950 0.854398 0.388495
0.439826 0.843503 0.444831
0.672175 0.821347 0.379065
1.000000 0.754421 0.426856
1.000000 0.554131 0.344244
0.561608 0.946838 0.276036
0.574701 0.945068 0.304387
0.616602 0.939117 0.384466
0.692439 0.927642 0.497261
0.785031 0.910338 0.611780
0.601709 0.929198 0.536400
0.914519 0.894072 0.511406
1.000000 0.870359 0.548608
0.727962 0.963317 0.465705
0.739223 0.961700 0.481788
0.790280 0.954192 0.546777
0.867369 0.941833 0.641566
0.934752 0.929076 0.731960
0.935790 0.928435 0.748531
0.822812 0.947814 0.673243
0.997498 0.922301 0.675196
0.000000 0.154879 0.407538
0.000000 0.127321 0.404486
0.000000 0.135622 0.383520
0.132815 0.157290 0.359808
0.392279 0.128328 0.393286
0.747616 0.000000 0.500603
0.998230 0.000000 0.624781
1.000000 0.000000 0.717952
0.000000 0.222019 0.435279
0.000000 0.194156 0.431373
0.000000 0.158602 0.411078
0.145815 0.190005 0.380102
0.407355 0.173678 0.410254
0.756222 0.000000 0.512413
0.999054 0.000000 0.630671
1.000000 0.000000 0.720821
0.000000 0.384924 0.457954
0.000000 0.366796 0.455421
0.000000 0.321935 0.473426
0.169375 0.295506 0.443915
0.454170 0.310826 0.463966
0.793576 0.173281 0.557397
1.000000 0.000000 0.659571
1.000000 0.000000 0.710964
0.000000 0.627436 0.505180
0.000000 0.622583 0.508415
0.000000 0.607141 0.524041
0.000000 0.544030 0.533501
0.521782 0.504082 0.537682
0.822904 0.414710 0.613184
1.000000 0.185855 0.654871
1.000000 0.000000 0.667659
0.000000 0.752590 0.290959
0.000000 0.750942 0.301427
0.000000 0.746822 0.339330
0.362799 0.731624 0.450690
0.612940 0.686885 0.583581
0.901976 0.572808 0.584802
1.000000 0.403754 0.588251
1.000000 0.074800 0.593652
0.535668 0.878538 0.269017
0.578546 0.875700 0.307713
0.623957 0.865751 0.398169
0.695888 0.848661 0.512535
0.767239 0.823850 0.616571
0.676143 0.820645 0.588464
1.000000 0.751705 0.639063
1.000000 0.572961 0.584924
0.697627 0.936431 0.400305
0.711421 0.934478 0.423468
0.754696 0.927733 0.491554
0.817807 0.916411 0.582666
0.884092 0.901549 0.676509
0.884733 0.895384 0.707881
0.935546 0.889036 0.661738
1.000000 0.866514 0.701961
0.826535 0.950408 0.555138
0.835721 0.948913 0.568658
0.862058 0.944366 0.608087
0.907286 0.936034 0.674800
0.959991 0.925231 0.757687
0.992859 0.917388 0.824552
0.945678 0.927306 0.770718
1.000000 0.919097 0.760098
0.000000 0.225193 0.625086
0.000000 0.198062 0.624262
0.000000 0.162448 0.617029
0.152010 0.197055 0.597803
0.466590 0.193301 0.588373
0.775540 0.000000 0.618799
1.000000 0.000000 0.670893
1.000000 0.000000 0.745632
0.000000 0.289799 0.638087
0.000000 0.264286 0.637812
0.000000 0.186862 0.632898
0.128023 0.224765 0.613397
0.480140 0.236515 0.599542
0.784634 0.166629 0.627588
1.000000 0.173037 0.678462
1.000000 0.000000 0.749355
0.000000 0.462287 0.647608
0.000000 0.452827 0.653101
0.000000 0.386816 0.664424
0.000000 0.311894 0.654200
0.519860 0.368475 0.631189
0.807248 0.351812 0.652613
1.000000 0.359167 0.702052
1.000000 0.180545 0.761135
0.000000 0.667933 0.684840
0.000000 0.658839 0.682582
0.000000 0.622980 0.675929
0.000000 0.566552 0.688014
0.535790 0.515831 0.685847
0.846921 0.529564 0.694240
1.000000 0.511345 0.740536
1.000000 0.389593 0.781765
0.000000 0.811490 0.697536
0.000000 0.809354 0.700252
0.000000 0.800351 0.709621
0.000000 0.781216 0.728115
0.479500 0.712764 0.729793
0.887419 0.655848 0.736934
1.000000 0.623865 0.780941
1.000000 0.546349 0.787472
0.000000 0.883055 0.561669
0.000000 0.880980 0.567681
0.000000 0.871946 0.587366
0.460273 0.854032 0.624475
0.761196 0.827359 0.671046
0.941650 0.789212 0.766934
1.000000 0.740291 0.775265
1.000000 0.654627 0.759548
0.623041 0.943603 0.502190
0.664393 0.939117 0.521965
0.788113 0.923888 0.584527
0.920378 0.904509 0.670954
0.950683 0.895995 0.732662
0.980316 0.884092 0.797726
0.956603 0.882048 0.774990
1.000000 0.860746 0.809598
0.915557 0.936126 0.649592
0.920500 0.935149 0.658656
0.935698 0.932006 0.687160
0.957000 0.927794 0.729671
0.979370 0.922637 0.779232
1.000000 0.916289 0.842893
1.000000 0.915801 0.852476
1.000000 0.916014 0.831785
0.000000 0.320134 0.793027
0.000000 0.296147 0.793210
0.000000 0.211368 0.791135
0.000000 0.244755 0.782956
0.588251 0.288945 0.764981
0.830655 0.275700 0.761379
1.000000 0.319371 0.783871
1.000000 0.485328 0.795865
0.000000 0.377173 0.793912
0.000000 0.353674 0.793820
0.000000 0.268467 0.793088
0.000000 0.270298 0.786099
0.581872 0.317693 0.769131
0.833585 0.321630 0.764187
1.000000 0.360021 0.786618
1.000000 0.507256 0.798672
0.000000 0.548058 0.800076
0.000000 0.530541 0.801633
0.000000 0.461891 0.804166
0.000000 0.354192 0.803220
0.563745 0.409552 0.787991
0.852232 0.445258 0.777554
1.000000 0.471839 0.798795
1.000000 0.570886 0.810330
0.000000 0.678706 0.792569
0.000000 0.673304 0.794125
0.000000 0.654475 0.801724
0.000000 0.606226 0.817411
0.481117 0.532128 0.815183
0.886046 0.576532 0.799100
1.000000 0.591608 0.818753
1.000000 0.638514 0.830625
0.000000 0.840818 0.833310
0.000000 0.835599 0.832364
0.000000 0.815732 0.828702
0.000000 0.773648 0.821439
0.452125 0.704921 0.823392
0.877745 0.654414 0.825925
1.000000 0.693080 0.836881
1.000000 0.702113 0.851041
0.000000 0.930663 0.811063
0.000000 0.929168 0.813382
0.000000 0.921752 0.819760
0.261326 0.904906 0.830930
0.599817 0.873167 0.845731
0.853452 0.800107 0.847379
1.000000 0.794614 0.859983
1.000000 0.782712 0.877684
0.360235 0.957183 0.723049
0.411170 0.954345 0.727169
0.549310 0.943542 0.739803
0.725734 0.924010 0.759243
0.884306 0.900664 0.785214
0.988830 0.887572 0.830289
1.000000 0.877501 0.877470
1.000000 0.860014 0.878477
0.834165 0.947173 0.695216
0.852476 0.944427 0.704036
0.905913 0.935912 0.733364
0.966857 0.925414 0.778927
1.000000 0.918212 0.830167
1.000000 0.916197 0.862028
1.000000 0.913909 0.896117
1.000000 0.914153 0.886168
0.000000 0.434821 0.904997
0.000000 0.416938 0.905730
0.000000 0.347173 0.906218
0.000000 0.341772 0.902342
0.633112 0.388495 0.890959
0.915282 0.479622 0.873472
1.000000 0.480140 0.873167
1.000000 0.551141 0.879637
0.000000 0.479286 0.903655
0.000000 0.462318 0.904295
0.000000 0.396124 0.905058
0.000000 0.361273 0.902098
0.617090 0.407599 0.890715
0.910613 0.489723 0.873381
1.000000 0.495613 0.872068
1.000000 0.559716 0.878996
0.000000 0.602686 0.904997
0.000000 0.590600 0.905180
0.000000 0.543816 0.905638
0.000000 0.447547 0.906401
0.579370 0.478004 0.895872
0.908751 0.537743 0.880125
1.000000 0.562371 0.876890
1.000000 0.613489 0.883909
0.000000 0.722194 0.901854
0.000000 0.716304 0.902098
0.000000 0.695430 0.903685
0.000000 0.639765 0.906737
0.481636 0.570001 0.904234
0.901152 0.601862 0.890654
1.000000 0.645106 0.884215
1.000000 0.684627 0.890043
0.000000 0.832975 0.903288
0.000000 0.827604 0.902525
0.000000 0.807401 0.900359
0.000000 0.772152 0.901274
0.547112 0.712642 0.905089
0.858976 0.661860 0.899962
1.000000 0.723781 0.889738
1.000000 0.761044 0.896300
0.000000 0.951476 0.912749
0.000000 0.947936 0.912566
0.000000 0.934600 0.911711
0.175998 0.907164 0.910063
0.501671 0.856565 0.906310
0.844450 0.779446 0.903838
1.000000 0.788235 0.901457
1.000000 0.836057 0.904723
0.355505 0.974517 0.866300
0.397314 0.972229 0.867674
0.511986 0.963989 0.872190
0.660548 0.949310 0.879728
0.806882 0.929381 0.890288
0.922545 0.908141 0.903899
0.993835 0.873991 0.908476
1.000000 0.888121 0.914244
0.800534 0.950530 0.814450
0.814359 0.948608 0.816617
0.859709 0.942046 0.824918
0.917174 0.932799 0.838163
0.970153 0.923186 0.856962
1.000000 0.916869 0.880095
1.000000 0.915557 0.907713
1.000000 0.914000 0.919707
0.000000 0.562219 0.955505
0.000000 0.555138 0.955627
0.000000 0.528283 0.955627
0.294987 0.517723 0.953216
0.739101 0.555016 0.944549
0.944213 0.609644 0.934905
1.000000 0.678950 0.926024
1.000000 0.665888 0.925963
0.000000 0.585443 0.954528
0.000000 0.578851 0.954650
0.000000 0.553643 0.954650
0.268650 0.529259 0.953033
0.732784 0.563775 0.944427
0.942382 0.615167 0.934844
1.000000 0.685573 0.925628
1.000000 0.672755 0.925628
0.000000 0.651637 0.952239
0.000000 0.645930 0.952270
0.000000 0.624598 0.952087
0.310857 0.591272 0.951507
0.718868 0.596399 0.944671
0.939055 0.638056 0.935332
1.000000 0.710719 0.925689
1.000000 0.703273 0.925353
0.000000 0.738094 0.948180
0.000000 0.734249 0.948119
0.115846 0.711849 0.948974
0.436347 0.679622 0.948241
0.679011 0.642267 0.945678
0.932982 0.674006 0.936522
1.000000 0.740871 0.927398
1.000000 0.750973 0.925261
0.000000 0.818357 0.945556
0.000000 0.814481 0.945586
0.082277 0.799222 0.945373
0.507805 0.768551 0.944427
0.734005 0.725612 0.943053
0.913207 0.711849 0.938231
1.000000 0.774594 0.929320
1.000000 0.805600 0.925261
0.105196 0.906371 0.941375
0.178164 0.903014 0.941344
0.315465 0.890562 0.941283
0.459052 0.865568 0.941314
0.691890 0.822141 0.940429
0.926909 0.790158 0.937407
1.000000 0.815396 0.931823
1.000000 0.856992 0.925994
0.610101 0.966796 0.935363
0.626520 0.964080 0.935271
0.679011 0.954589 0.935088
0.758022 0.937621 0.934783
0.844938 0.913603 0.934478
0.921965 0.883085 0.934264
1.000000 0.866789 0.932403
1.000000 0.888975 0.927977
0.859403 0.948119 0.891722
0.866575 0.947021 0.892546
0.890806 0.943267 0.895537
0.927459 0.937255 0.901061
0.964691 0.930755 0.908751
0.992767 0.925505 0.917784
1.000000 0.922301 0.926482
1.000000 0.917021 0.931060
