其他预设/【213】赛博朋克科幻预设52款/1.LUT预设（视频调色-PR-AE-PS-FCPX-达芬奇用）/赛博朋克科幻__-5 强度4.cube
# Created by Adobe Lightroom plugin Export LUT (1.17.0)
# www.johnrellis.com/lightroom/exportlut.htm
# Preset: 赛博朋克科幻[素锦印象]-5 强度4
# Color profile: /Library/Application Support/Adobe/Color/Profiles/Recommended/AdobeRGB1998.icc
LUT_3D_SIZE 5
DOMAIN_MIN 0.000000 0.000000 0.000000
DOMAIN_MAX 0.903226 0.903226 0.903226
0.073732 0.071809 0.060517
0.186679 0.008850 0.099519
0.518669 0.000000 0.239872
0.820340 0.000000 0.397101
1.000000 0.000000 0.517205
0.000000 0.267796 0.190677
0.149264 0.194217 0.046967
0.509422 0.000000 0.199405
0.817288 0.000000 0.395270
1.000000 0.000000 0.517113
0.000000 0.732021 0.621393
0.000000 0.719539 0.549645
0.390692 0.550866 0.000000
0.823056 0.000000 0.109010
1.000000 0.000000 0.423316
0.000000 0.928862 0.856931
0.000000 0.945281 0.845792
0.000000 0.915831 0.670375
0.592737 0.823575 0.000000
1.000000 0.353826 0.220798
0.000000 1.000000 0.975067
0.000000 1.000000 0.974701
0.000000 1.000000 0.933135
0.349615 1.000000 0.764675
0.770779 0.986542 0.290776
0.021668 0.102754 0.134920
0.171542 0.000000 0.147829
0.546471 0.000000 0.332250
0.825162 0.000000 0.450202
1.000000 0.000000 0.518059
0.000000 0.182406 0.177401
0.175906 0.169131 0.127230
0.525292 0.000000 0.290288
0.825711 0.000000 0.474372
1.000000 0.000000 0.518090
0.000000 0.682856 0.623285
0.000000 0.683986 0.568017
0.398840 0.534356 0.000000
0.820127 0.000000 0.242771
1.000000 0.000000 0.479194
0.000000 0.905730 0.859434
0.000000 0.921263 0.848020
0.000000 0.911192 0.712581
0.609827 0.817716 0.000000
1.000000 0.386389 0.300786
0.000000 1.000000 0.976898
0.000000 1.000000 0.976501
0.000000 1.000000 0.951690
0.447028 1.000000 0.795926
0.788388 0.983215 0.371771
0.000000 0.282902 0.506188
0.000000 0.109712 0.451972
0.485298 0.000000 0.464485
0.829679 0.000000 0.646937
1.000000 0.000000 0.638911
0.000000 0.400763 0.551446
0.000000 0.257969 0.488685
0.468025 0.000000 0.460334
0.823392 0.000000 0.669642
1.000000 0.000000 0.647730
0.000000 0.541588 0.638911
0.000000 0.519036 0.595239
0.491341 0.474281 0.371618
0.815244 0.217868 0.534142
1.000000 0.000000 0.644160
0.000000 0.812955 0.874632
0.000000 0.827237 0.864256
0.000000 0.887449 0.815366
0.680201 0.795529 0.399237
0.994568 0.498024 0.504601
0.000000 0.968963 0.983520
0.000000 0.972717 0.983124
0.000000 1.000000 0.975463
0.636164 1.000000 0.883421
0.832975 0.973907 0.544488
0.000000 0.410834 0.839567
0.000000 0.331365 0.824491
0.131502 0.000000 0.757809
0.705562 0.000000 0.771542
0.997681 0.000000 0.870787
0.000000 0.442481 0.849546
0.000000 0.362615 0.835874
0.000000 0.000000 0.774807
0.692256 0.000000 0.775143
0.996887 0.000000 0.878965
0.000000 0.624781 0.879454
0.000000 0.628687 0.873289
0.329625 0.540276 0.811795
0.685512 0.000000 0.766995
0.996674 0.000000 0.896880
0.000000 0.700832 0.900725
0.000000 0.703182 0.893889
0.336858 0.745571 0.858366
0.767117 0.754208 0.683497
0.980163 0.595941 0.777371
0.000000 0.848600 0.996216
0.000000 0.855131 0.995666
0.000000 0.903624 0.990234
0.632349 0.996368 0.969543
0.885801 0.960113 0.728695
0.000000 0.483650 0.998505
0.000000 0.443244 0.995972
0.000000 0.236515 0.984710
0.412268 0.000000 0.947875
0.844572 0.000000 0.967803
0.000000 0.488563 1.000000
0.000000 0.450324 0.998505
0.000000 0.258335 0.988098
0.380804 0.000000 0.953277
0.838712 0.000000 0.969024
0.000000 0.646235 1.000000
0.000000 0.652491 1.000000
0.000000 0.463661 0.998749
0.195346 0.000000 0.970977
0.818601 0.000000 0.973236
0.000000 0.707668 1.000000
0.000000 0.712581 1.000000
0.482673 0.813657 0.999817
0.768429 0.837034 0.976989
0.816220 0.000000 0.972900
0.000000 0.763302 1.000000
0.000000 0.762997 1.000000
0.000000 0.782803 1.000000
0.748165 0.913329 0.990509
0.939239 0.935363 0.915190
