其他预设/【213】赛博朋克科幻预设52款/1.LUT预设（视频调色-PR-AE-PS-FCPX-达芬奇用）/赛博朋克科幻__-4 强度4.cube
# Created by Adobe Lightroom plugin Export LUT (1.17.0)
# www.johnrellis.com/lightroom/exportlut.htm
# Preset: 赛博朋克科幻[素锦印象]-4 强度4
# Color profile: /Library/Application Support/Adobe/Color/Profiles/Recommended/AdobeRGB1998.icc
LUT_3D_SIZE 5
DOMAIN_MIN 0.000000 0.000000 0.000000
DOMAIN_MAX 0.903226 0.903226 0.903226
0.000000 0.000000 0.000000
0.169131 0.000000 0.099672
0.457069 0.000000 0.256718
0.747738 0.000000 0.415564
0.958923 0.000000 0.529870
0.173434 0.217685 0.000000
0.205356 0.184024 0.000000
0.444251 0.000000 0.248875
0.745754 0.000000 0.414252
0.959167 0.000000 0.529747
0.498817 0.614069 0.000000
0.538872 0.606836 0.000000
0.634028 0.565484 0.000000
0.797971 0.000000 0.272770
0.947295 0.000000 0.547417
0.690303 0.850523 0.000000
0.715175 0.848844 0.000000
0.806424 0.842191 0.000000
0.910307 0.815122 0.000000
0.987060 0.647700 0.520165
0.783719 0.988190 0.000000
0.799954 0.987213 0.000000
0.867063 0.982696 0.000000
0.976410 0.973388 0.000000
1.000000 0.948913 0.250675
0.045533 0.073518 0.117800
0.159152 0.000000 0.140047
0.476112 0.000000 0.280522
0.755276 0.000000 0.429816
0.962829 0.000000 0.537835
0.064363 0.192233 0.033356
0.165103 0.161990 0.144656
0.462074 0.000000 0.273777
0.752651 0.000000 0.426856
0.963165 0.000000 0.537621
0.435706 0.594171 0.000000
0.477516 0.576745 0.000000
0.599298 0.541070 0.127321
0.771176 0.211246 0.380529
0.951843 0.000000 0.553948
0.661677 0.845945 0.000000
0.689326 0.842954 0.000000
0.787045 0.836606 0.000000
0.898009 0.812528 0.229252
0.981598 0.660182 0.555016
0.783841 0.988373 0.000000
0.801358 0.987274 0.000000
0.859648 0.983215 0.000000
0.969146 0.973571 0.000000
1.000000 0.951476 0.394202
0.000000 0.143832 0.302098
0.209567 0.107912 0.303532
0.436530 0.000000 0.372595
0.761990 0.000000 0.496681
0.977142 0.000000 0.562676
0.113619 0.314000 0.319799
0.187045 0.229252 0.330144
0.443610 0.000000 0.378149
0.764157 0.000000 0.490089
0.977722 0.000000 0.562127
0.068299 0.532158 0.000000
0.189029 0.516350 0.119020
0.456825 0.446387 0.387274
0.752193 0.276310 0.487678
0.972686 0.000000 0.566430
0.544610 0.835355 0.000000
0.580011 0.830106 0.000000
0.724147 0.810910 0.382788
0.853727 0.799069 0.507927
0.964660 0.663355 0.621057
0.722927 0.991577 0.000000
0.742794 0.990387 0.000000
0.831815 0.982879 0.175357
0.948089 0.972259 0.403723
1.000000 0.957305 0.591150
0.000000 0.264775 0.544793
0.235294 0.222812 0.545678
0.507195 0.173251 0.544854
0.729305 0.000000 0.617975
0.974029 0.000000 0.668574
0.208286 0.418708 0.552941
0.237400 0.342504 0.556695
0.508385 0.282933 0.554772
0.729976 0.000000 0.617853
0.975708 0.000000 0.666773
0.002533 0.679225 0.555322
0.286503 0.652338 0.562127
0.510735 0.531456 0.581476
0.732876 0.375860 0.619104
0.984558 0.000000 0.651118
0.137758 0.813077 0.000000
0.245945 0.806394 0.098421
0.489570 0.777584 0.390570
0.734310 0.716823 0.617762
0.958770 0.593927 0.678462
0.583093 0.996612 0.000000
0.610071 0.995087 0.000000
0.734676 0.985138 0.323339
0.914275 0.968292 0.627192
1.000000 0.961913 0.726741
0.376501 0.498085 0.749752
0.418799 0.475532 0.751064
0.609644 0.487709 0.749905
0.785611 0.479957 0.757290
0.949371 0.000000 0.802670
0.451209 0.584649 0.748653
0.461158 0.545098 0.750851
0.609979 0.506188 0.750423
0.784817 0.482246 0.757076
0.950378 0.000000 0.803098
0.545922 0.779568 0.745388
0.597803 0.763149 0.748074
0.629603 0.665064 0.755550
0.794034 0.620447 0.753780
0.954040 0.000000 0.804807
0.305882 0.925444 0.683467
0.406012 0.921263 0.703944
0.612696 0.899657 0.753353
0.783658 0.786679 0.767025
0.946014 0.651057 0.795987
0.000000 1.000000 0.000000
0.185916 1.000000 0.000000
0.469856 1.000000 0.339971
0.743740 0.969543 0.608850
0.944152 0.921386 0.792050
