其他预设/【213】赛博朋克科幻预设52款/1.LUT预设（视频调色-PR-AE-PS-FCPX-达芬奇用）/赛博朋克科幻__-7 强度1.cube
# Created by Adobe Lightroom plugin Export LUT (1.17.0)
# www.johnrellis.com/lightroom/exportlut.htm
# Preset: 赛博朋克科幻[素锦印象]-7 强度1
# Color profile: /Library/Application Support/Adobe/Color/Profiles/Recommended/AdobeRGB1998.icc
LUT_3D_SIZE 8
DOMAIN_MIN 0.000000 0.000000 0.000000
DOMAIN_MAX 0.903226 0.903226 0.903226
0.024048 0.051728 0.037201
0.127687 0.059113 0.027924
0.265232 0.085115 0.000000
0.410956 0.116487 0.000000
0.561273 0.155215 0.000000
0.701564 0.189273 0.000000
0.831815 0.219028 0.000000
0.952728 0.243809 0.000000
0.000000 0.124605 0.029786
0.128084 0.127657 0.024262
0.264866 0.135531 0.000000
0.410407 0.159762 0.000000
0.560967 0.188663 0.000000
0.701411 0.216220 0.000000
0.831785 0.241428 0.000000
0.952758 0.262882 0.000000
0.000000 0.242374 0.067689
0.109682 0.245243 0.063996
0.264195 0.252293 0.039673
0.409583 0.256352 0.000000
0.559991 0.273472 0.000000
0.700771 0.291081 0.000000
0.831540 0.307500 0.000000
0.952728 0.321538 0.000000
0.000000 0.372045 0.096162
0.088258 0.373785 0.095155
0.241459 0.380621 0.086519
0.413855 0.389502 0.062593
0.562463 0.389105 0.000000
0.699580 0.390509 0.000000
0.830991 0.399634 0.000000
0.952514 0.406683 0.000000
0.000000 0.506004 0.126680
0.000000 0.507652 0.116335
0.234195 0.512322 0.124331
0.392126 0.521080 0.111147
0.568261 0.530999 0.083528
0.704250 0.517174 0.039246
0.831327 0.509819 0.000000
0.951781 0.507042 0.000000
0.000000 0.641199 0.159518
0.000000 0.642390 0.151949
0.222904 0.645136 0.166201
0.374426 0.651606 0.158297
0.542748 0.658869 0.145205
0.715267 0.666102 0.123354
0.835447 0.638788 0.114961
0.952514 0.625299 0.066865
0.000000 0.773922 0.197177
0.000000 0.774563 0.195438
0.220981 0.775418 0.221012
0.373083 0.779538 0.216556
0.513848 0.785214 0.209689
0.687709 0.789181 0.200076
0.852354 0.792599 0.186221
0.953582 0.751827 0.190280
0.000000 0.901884 0.243442
0.000000 0.901946 0.248631
0.256443 0.900450 0.298405
0.391211 0.902647 0.297887
0.522057 0.905821 0.294835
0.663081 0.908751 0.290501
0.824155 0.909148 0.285100
0.976410 0.908476 0.276188
0.000000 0.054810 0.121004
0.122988 0.048951 0.117891
0.261234 0.079316 0.105745
0.406287 0.118837 0.099245
0.558190 0.152224 0.070222
0.699916 0.185428 0.000000
0.831205 0.215274 0.000000
0.952728 0.239292 0.000000
0.000000 0.133791 0.125826
0.120638 0.129641 0.122957
0.258885 0.140719 0.116579
0.406073 0.160800 0.102876
0.557977 0.186618 0.074647
0.699763 0.213565 0.000000
0.831144 0.238651 0.000000
0.952728 0.259281 0.000000
0.000000 0.243198 0.131624
0.112276 0.246128 0.133333
0.260166 0.252567 0.129610
0.405249 0.255619 0.116487
0.557397 0.273533 0.091371
0.699214 0.290776 0.023957
0.830838 0.306920 0.000000
0.952605 0.320195 0.000000
0.000000 0.372229 0.152834
0.088502 0.374304 0.149203
0.242771 0.380560 0.148470
0.411048 0.389288 0.137728
0.559411 0.388495 0.119020
0.698116 0.391394 0.087343
0.830167 0.400580 0.000000
0.952239 0.407385 0.000000
0.000000 0.505882 0.176486
0.000000 0.507591 0.169986
0.235782 0.511986 0.173007
0.389471 0.520836 0.164675
0.566064 0.530755 0.149752
0.702327 0.517327 0.134371
0.830167 0.510369 0.102541
0.951324 0.508659 0.000000
0.000000 0.641016 0.200290
0.000000 0.642115 0.195712
0.224796 0.644800 0.204532
0.375311 0.651270 0.198672
0.540887 0.658747 0.189609
0.713741 0.666041 0.175570
0.834287 0.639551 0.169833
0.951781 0.626398 0.142123
0.000000 0.773709 0.228946
0.000000 0.774350 0.227970
0.225132 0.775051 0.251316
0.375006 0.779171 0.247868
0.515007 0.784909 0.242283
0.686641 0.789120 0.235050
0.851133 0.792691 0.224613
0.952850 0.752926 0.227298
0.000000 0.901915 0.264652
0.000000 0.901976 0.269291
0.230808 0.901396 0.299474
0.394965 0.902251 0.321691
0.524498 0.905486 0.319036
0.662898 0.908629 0.315343
0.823545 0.909148 0.310948
0.975341 0.908629 0.303471
0.000000 0.075776 0.243778
0.090211 0.067659 0.240818
0.250553 0.075013 0.233951
0.400671 0.078187 0.222507
0.553582 0.139712 0.213535
0.695491 0.188205 0.209079
0.828824 0.218723 0.189303
0.951965 0.240208 0.150759
0.000000 0.160769 0.246799
0.087984 0.142184 0.244236
0.249668 0.140841 0.236484
0.400153 0.144656 0.224460
0.552453 0.185214 0.220035
0.695186 0.217624 0.211887
0.828702 0.242741 0.191897
0.951873 0.261295 0.154391
0.000000 0.265232 0.252506
0.091218 0.262486 0.250492
0.246403 0.253758 0.244724
0.397192 0.263859 0.240116
0.550744 0.278752 0.231846
0.694545 0.295842 0.219944
0.828244 0.312444 0.201511
0.951507 0.324743 0.167453
0.000000 0.373175 0.247105
0.080537 0.375036 0.248783
0.241276 0.380041 0.255253
0.401068 0.388739 0.254765
0.550317 0.388098 0.246250
0.693324 0.396948 0.234958
0.827390 0.407019 0.218723
0.950835 0.413733 0.190219
0.000000 0.505974 0.265690
0.000000 0.507378 0.266545
0.231022 0.511620 0.269291
0.380255 0.519921 0.271855
0.558282 0.529717 0.266697
0.695949 0.518517 0.259098
0.826078 0.513298 0.243992
0.949615 0.515618 0.222416
0.000000 0.640681 0.286107
0.000000 0.641596 0.286748
0.216281 0.644678 0.287755
0.378058 0.649897 0.295720
0.534112 0.658015 0.291722
0.707881 0.665644 0.286442
0.830198 0.642481 0.282750
0.949310 0.630884 0.265171
0.000000 0.773342 0.306950
0.000000 0.773892 0.307774
0.202060 0.775509 0.312016
0.381964 0.777768 0.332403
0.518944 0.783749 0.329442
0.682612 0.788815 0.326421
0.846708 0.792966 0.322148
0.950195 0.756954 0.322576
0.000000 0.902098 0.325231
0.000000 0.902281 0.326848
0.199069 0.902098 0.344762
0.407996 0.900755 0.392004
0.532647 0.904234 0.390570
0.662196 0.908110 0.388342
0.821317 0.909087 0.386694
0.971649 0.909117 0.382574
0.000000 0.106752 0.380194
0.000000 0.093629 0.377783
0.236667 0.093080 0.368475
0.388373 0.098665 0.359228
0.541344 0.100801 0.349767
0.690974 0.126833 0.329686
0.824582 0.239567 0.337499
0.948882 0.270390 0.324315
0.000000 0.189487 0.381720
0.000000 0.162448 0.379858
0.234714 0.153414 0.371038
0.387915 0.154635 0.360906
0.541192 0.157809 0.351110
0.690700 0.177249 0.331731
0.824186 0.264134 0.340520
0.949004 0.287114 0.324407
0.000000 0.297673 0.387915
0.000000 0.293858 0.386664
0.226963 0.269688 0.378912
0.386053 0.264622 0.366247
0.540917 0.271092 0.356085
0.687434 0.309606 0.355108
0.823239 0.332860 0.348943
0.948821 0.344335 0.329168
0.000000 0.408942 0.391089
0.000000 0.407019 0.389715
0.226017 0.400122 0.384741
0.381750 0.387213 0.375708
0.538140 0.398444 0.373480
0.685206 0.411322 0.368902
0.822293 0.423529 0.360235
0.947906 0.430762 0.342687
0.000000 0.507469 0.371588
0.000000 0.507683 0.371130
0.222416 0.511254 0.375982
0.378851 0.516930 0.387030
0.543297 0.527550 0.389929
0.684779 0.521996 0.385260
0.820737 0.526635 0.377356
0.946471 0.530724 0.363195
0.000000 0.640314 0.386725
0.000000 0.641199 0.387579
0.209323 0.643946 0.391791
0.374304 0.647883 0.401648
0.521752 0.655970 0.408606
0.696864 0.664729 0.409339
0.823117 0.648402 0.406531
0.944884 0.639399 0.392035
0.000000 0.773007 0.403021
0.000000 0.773495 0.403754
0.187655 0.774990 0.407752
0.371527 0.776913 0.421210
0.526238 0.781094 0.438819
0.675441 0.787869 0.438911
0.838560 0.793393 0.439918
0.945647 0.764523 0.438392
0.000000 0.902129 0.415869
0.000000 0.902312 0.416754
0.141848 0.902831 0.421027
0.374884 0.902068 0.447608
0.545800 0.901793 0.486702
0.666102 0.906615 0.485878
0.817197 0.908995 0.486305
0.965270 0.910033 0.485267
0.000000 0.142611 0.522637
0.000000 0.124544 0.520623
0.193454 0.122591 0.512383
0.379736 0.118563 0.497230
0.529564 0.125002 0.487709
0.674678 0.139315 0.473854
0.817105 0.192721 0.460670
0.944457 0.276951 0.457038
0.000000 0.218936 0.523339
0.000000 0.188937 0.522148
0.189731 0.174807 0.514275
0.378790 0.169406 0.499245
0.529107 0.173007 0.488746
0.674586 0.184451 0.475135
0.816922 0.228305 0.462806
0.944182 0.302922 0.460670
0.000000 0.333562 0.531334
0.000000 0.327550 0.528588
0.183352 0.290440 0.520500
0.374853 0.278630 0.505791
0.527611 0.278202 0.492561
0.674250 0.288548 0.479988
0.816403 0.321599 0.470924
0.941222 0.398230 0.485328
0.000000 0.443305 0.532891
0.000000 0.441199 0.531975
0.209628 0.433875 0.528466
0.370245 0.407660 0.516594
0.524590 0.398871 0.499306
0.673884 0.410803 0.490181
0.814542 0.447822 0.493629
0.942168 0.467933 0.489052
0.000000 0.555932 0.532891
0.000000 0.554467 0.531823
0.187808 0.549126 0.527855
0.368475 0.538933 0.520562
0.519432 0.522789 0.508782
0.672480 0.535454 0.509300
0.813809 0.547051 0.506371
0.942199 0.553368 0.496010
0.000000 0.645991 0.505180
0.000000 0.645991 0.504814
0.189120 0.645594 0.503532
0.362005 0.646754 0.506798
0.518883 0.651270 0.521294
0.680049 0.662409 0.528832
0.813321 0.655695 0.525841
0.940032 0.655940 0.516808
0.000000 0.772427 0.507744
0.000000 0.772885 0.508507
0.157809 0.774319 0.511711
0.352575 0.776364 0.519127
0.518914 0.778408 0.537163
0.662531 0.785824 0.549584
0.827237 0.793576 0.554162
0.940276 0.773770 0.551232
0.000000 0.902190 0.517754
0.000000 0.902373 0.518364
0.069123 0.902892 0.521141
0.332403 0.903380 0.528679
0.521843 0.902220 0.557488
0.671443 0.904448 0.583368
0.809140 0.909056 0.585077
0.957305 0.911376 0.586908
0.000000 0.181186 0.659113
0.000000 0.159548 0.658045
0.071290 0.158663 0.652308
0.353216 0.155734 0.641657
0.522179 0.149752 0.626215
0.668696 0.164370 0.614527
0.803677 0.201419 0.596429
0.935576 0.281285 0.588556
0.000000 0.246036 0.659541
0.000000 0.220432 0.658717
0.061402 0.202731 0.653559
0.351965 0.198795 0.642939
0.521752 0.192233 0.626978
0.668238 0.203555 0.615290
0.803250 0.233890 0.597498
0.935332 0.305974 0.590631
0.000000 0.361791 0.663783
0.000000 0.355566 0.662135
0.087037 0.315343 0.657527
0.347631 0.302037 0.647303
0.519677 0.294011 0.630732
0.666804 0.300023 0.618067
0.801907 0.321111 0.601282
0.934569 0.379614 0.598138
0.000000 0.473915 0.669490
0.000000 0.472328 0.669062
0.186374 0.465583 0.666011
0.351110 0.431769 0.654719
0.516564 0.416968 0.638239
0.663905 0.416052 0.622919
0.801419 0.433875 0.610254
0.934051 0.476661 0.610193
0.000000 0.583246 0.668055
0.000000 0.582177 0.667567
0.164065 0.578424 0.665644
0.369604 0.572290 0.661982
0.517449 0.549035 0.649592
0.659693 0.535790 0.629938
0.802365 0.551507 0.623072
0.934600 0.583398 0.626459
0.000000 0.693996 0.666194
0.000000 0.693111 0.665614
0.121981 0.689815 0.663386
0.348211 0.683467 0.659205
0.511498 0.673182 0.652216
0.654231 0.655451 0.639002
0.802762 0.669398 0.641810
0.934813 0.678401 0.638331
0.000000 0.781765 0.636805
0.000000 0.781613 0.636500
0.106935 0.781003 0.635401
0.332952 0.779141 0.633143
0.498543 0.777310 0.634943
0.655360 0.780819 0.652338
0.811429 0.792325 0.663325
0.933623 0.783047 0.659754
0.000000 0.902312 0.624994
0.000000 0.902495 0.625483
0.000000 0.903044 0.627344
0.298314 0.903593 0.631922
0.487587 0.903471 0.643763
0.657801 0.903166 0.668544
0.796353 0.908537 0.684749
0.947173 0.912993 0.690181
0.000000 0.223331 0.786862
0.000000 0.199649 0.786435
0.000000 0.201175 0.782834
0.307378 0.201907 0.776059
0.502007 0.200870 0.765377
0.662928 0.202396 0.753353
0.802823 0.229313 0.737575
0.927031 0.293217 0.717830
0.000000 0.277897 0.786984
0.000000 0.256962 0.786648
0.000000 0.237675 0.783627
0.307103 0.237613 0.776791
0.501610 0.235843 0.766171
0.662501 0.235538 0.753780
0.802396 0.258457 0.738186
0.926696 0.315801 0.718837
0.000000 0.389685 0.788907
0.000000 0.386297 0.787869
0.000000 0.345556 0.785885
0.307408 0.332189 0.779599
0.500786 0.328710 0.768856
0.661097 0.324163 0.755215
0.800900 0.340093 0.740230
0.925505 0.383764 0.722591
0.000000 0.498024 0.795041
0.000000 0.495827 0.794095
0.135866 0.488838 0.790433
0.329320 0.460212 0.784207
0.502037 0.447578 0.773800
0.658747 0.436408 0.757809
0.798184 0.446265 0.743923
0.924071 0.473426 0.728359
0.000000 0.605005 0.795102
0.000000 0.604486 0.794949
0.113985 0.603021 0.794430
0.364446 0.602289 0.793240
0.513329 0.577569 0.781582
0.656245 0.558648 0.765286
0.794736 0.555840 0.749325
0.923705 0.575616 0.737270
0.000000 0.713832 0.793149
0.000000 0.713313 0.792935
0.000000 0.711574 0.792264
0.342138 0.709010 0.790890
0.521019 0.706142 0.788663
0.659480 0.686122 0.777554
0.790372 0.669123 0.756497
0.924773 0.687434 0.751034
0.000000 0.823392 0.791012
0.000000 0.822904 0.790768
0.000000 0.821073 0.789853
0.309056 0.817563 0.788083
0.495735 0.811704 0.784909
0.650690 0.802274 0.779019
0.784634 0.783780 0.765042
0.926207 0.797971 0.768948
0.000000 0.912718 0.762936
0.000000 0.912596 0.762631
0.000000 0.912047 0.761563
0.265293 0.910399 0.759854
0.466926 0.907012 0.758236
0.630518 0.903502 0.759579
0.787228 0.905303 0.778988
0.934295 0.914305 0.791714
0.000000 0.271397 0.903075
0.000000 0.251835 0.903075
0.000000 0.250767 0.901213
0.247898 0.256901 0.897520
0.472633 0.264439 0.891752
0.646845 0.270695 0.883513
0.801205 0.286534 0.875975
0.930602 0.328618 0.856260
0.000000 0.315984 0.902922
0.000000 0.300114 0.902892
0.000000 0.281132 0.901549
0.250828 0.286229 0.897856
0.473426 0.292454 0.892119
0.646815 0.297246 0.883848
0.800870 0.310552 0.876127
0.930175 0.349065 0.856718
0.000000 0.424659 0.902800
0.000000 0.422919 0.902342
0.000000 0.381811 0.902220
0.262272 0.370153 0.899107
0.476814 0.373602 0.893339
0.647089 0.375280 0.885069
0.799649 0.382055 0.876646
0.928740 0.410986 0.858305
0.000000 0.506188 0.906401
0.000000 0.506950 0.905821
0.052186 0.513054 0.903441
0.311223 0.492622 0.900816
0.486488 0.483955 0.895567
0.648798 0.481697 0.887327
0.797299 0.478340 0.877745
0.926665 0.494301 0.861204
0.000000 0.614099 0.908904
0.000000 0.613886 0.908873
0.000000 0.613581 0.908598
0.310521 0.607965 0.905425
0.508293 0.606287 0.899290
0.649897 0.593378 0.891478
0.792996 0.580102 0.879881
0.923888 0.589441 0.865507
0.000000 0.720638 0.907652
0.000000 0.720333 0.907622
0.000000 0.719661 0.907439
0.295171 0.720363 0.906981
0.509178 0.725429 0.906126
0.660883 0.713924 0.898161
0.789242 0.694575 0.885893
0.920470 0.691920 0.871305
0.000000 0.830686 0.906432
0.000000 0.830350 0.906371
0.000000 0.829221 0.906157
0.250675 0.828092 0.905577
0.483223 0.827939 0.904601
0.659113 0.828733 0.903502
0.794675 0.816464 0.896818
0.916411 0.798276 0.878660
0.000000 0.942596 0.905486
0.000000 0.942290 0.905425
0.000000 0.941222 0.905119
0.173434 0.938964 0.904417
0.447639 0.935393 0.903227
0.630396 0.930480 0.901457
0.782620 0.923705 0.898375
0.910979 0.908141 0.887144
