其他预设/【213】赛博朋克科幻预设52款/1.LUT预设（视频调色-PR-AE-PS-FCPX-达芬奇用）/赛博朋克科幻__-10 强度1.cube
# Created by Adobe Lightroom plugin Export LUT (1.17.0)
# www.johnrellis.com/lightroom/exportlut.htm
# Preset: 赛博朋克科幻[素锦印象]-10 强度1
# Color profile: /Library/Application Support/Adobe/Color/Profiles/Recommended/AdobeRGB1998.icc
LUT_3D_SIZE 32
0.019532 0.019532 0.019532
0.027497 0.019379 0.019348
0.065522 0.014282 0.018372
0.098390 0.004700 0.016144
0.133242 0.000000 0.020569
0.167758 0.000000 0.030671
0.202518 0.000000 0.041260
0.237217 0.000000 0.051118
0.271885 0.000000 0.058961
0.306432 0.000000 0.063020
0.340856 0.000000 0.068177
0.375097 0.000000 0.074037
0.408972 0.000000 0.080110
0.442695 0.000000 0.087617
0.476234 0.000000 0.096040
0.509514 0.000000 0.104585
0.542748 0.000000 0.113405
0.575738 0.000000 0.122805
0.608362 0.000000 0.132326
0.640650 0.000000 0.142184
0.672663 0.000000 0.152224
0.704372 0.000000 0.162692
0.735775 0.000000 0.173648
0.766934 0.000000 0.185000
0.797757 0.000000 0.196658
0.828305 0.000000 0.208865
0.858457 0.000000 0.221683
0.888243 0.000000 0.235080
0.917693 0.055909 0.249332
0.946777 0.096284 0.264622
0.975525 0.128359 0.281254
1.000000 0.159426 0.299443
0.017060 0.037568 0.018128
0.034516 0.035859 0.017792
0.065675 0.040070 0.016266
0.098299 0.036500 0.013550
0.132753 0.034272 0.020874
0.167391 0.030060 0.030884
0.202335 0.021729 0.041474
0.236912 0.009949 0.052033
0.271672 0.000000 0.059022
0.306371 0.000000 0.063478
0.340734 0.000000 0.068605
0.374914 0.000000 0.074098
0.408850 0.000000 0.080751
0.442664 0.000000 0.088502
0.476204 0.000000 0.096315
0.509483 0.000000 0.105257
0.542626 0.000000 0.114015
0.575616 0.000000 0.123201
0.608270 0.000000 0.132845
0.640589 0.000000 0.142367
0.672572 0.000000 0.152346
0.704280 0.000000 0.162997
0.735744 0.000000 0.173800
0.766903 0.000000 0.185275
0.797696 0.000000 0.196872
0.828244 0.000000 0.209079
0.858396 0.000000 0.221897
0.888212 0.002655 0.235355
0.917662 0.071839 0.249607
0.946777 0.104677 0.264866
0.975494 0.134310 0.281407
1.000000 0.164187 0.299657
0.007813 0.072572 0.016510
0.042054 0.071534 0.012604
0.068055 0.068574 0.012146
0.098116 0.067231 0.013977
0.132509 0.067292 0.023285
0.167178 0.066224 0.033204
0.202029 0.063111 0.043793
0.236576 0.058381 0.052979
0.271580 0.043030 0.059052
0.306126 0.021210 0.063569
0.340520 0.000000 0.068635
0.374701 0.000000 0.074434
0.408728 0.000000 0.081056
0.442542 0.000000 0.088777
0.475959 0.000000 0.097047
0.509392 0.000000 0.105715
0.542504 0.000000 0.114595
0.575494 0.000000 0.123751
0.608179 0.000000 0.133364
0.640497 0.000000 0.142824
0.672480 0.000000 0.152956
0.704219 0.000000 0.163394
0.735653 0.000000 0.174197
0.766812 0.000000 0.185519
0.797665 0.000000 0.197330
0.828183 0.000000 0.209415
0.858366 0.000000 0.222171
0.888182 0.051637 0.235721
0.917632 0.087190 0.249851
0.946715 0.114900 0.265263
0.975433 0.142061 0.281712
1.000000 0.170199 0.299931
0.000000 0.108003 0.009949
0.024964 0.107515 0.003754
0.066987 0.106477 0.002625
0.099641 0.100710 0.013672
0.131502 0.098543 0.028412
0.166445 0.098116 0.036072
0.201205 0.096651 0.046601
0.236118 0.093751 0.053437
0.271061 0.089357 0.059693
0.305760 0.083772 0.064149
0.340185 0.077089 0.069520
0.374456 0.069276 0.075227
0.408362 0.060456 0.082338
0.442206 0.045838 0.090181
0.475746 0.025055 0.098299
0.509117 0.005493 0.106874
0.542321 0.000000 0.115877
0.575280 0.000000 0.125063
0.607935 0.000000 0.134401
0.640223 0.000000 0.143984
0.672297 0.000000 0.153994
0.704005 0.000000 0.164370
0.735500 0.000000 0.175082
0.766659 0.000000 0.186465
0.797513 0.000000 0.198032
0.828061 0.037873 0.210178
0.858244 0.069368 0.222812
0.888060 0.091249 0.236393
0.917510 0.112215 0.250553
0.946624 0.134066 0.265782
0.975341 0.157290 0.282353
1.000000 0.182528 0.300572
0.000000 0.147890 0.008423
0.005585 0.147250 0.005493
0.061707 0.146242 0.004395
0.100526 0.143862 0.004364
0.134127 0.135744 0.024628
0.165072 0.131838 0.042420
0.200412 0.130922 0.048890
0.235264 0.129244 0.054780
0.270420 0.126436 0.060395
0.305089 0.123293 0.065553
0.339574 0.119448 0.070802
0.373968 0.115175 0.076967
0.407935 0.111086 0.084199
0.441749 0.107088 0.092073
0.475288 0.102449 0.100313
0.508629 0.098390 0.108858
0.541924 0.094026 0.117922
0.574884 0.089937 0.126955
0.607599 0.086122 0.136294
0.639979 0.083497 0.145571
0.671992 0.081666 0.155489
0.703792 0.081758 0.165896
0.735286 0.084016 0.176638
0.766445 0.088716 0.187778
0.797299 0.094789 0.199344
0.827878 0.103578 0.211429
0.858061 0.114260 0.224063
0.887877 0.127077 0.237400
0.917357 0.142061 0.251682
0.946471 0.159060 0.266911
0.975219 0.178073 0.283330
1.000000 0.200290 0.301640
0.000000 0.187289 0.014984
0.000000 0.186862 0.006683
0.041230 0.186069 0.005554
0.095460 0.184329 0.003174
0.136172 0.179873 0.009522
0.168673 0.170962 0.031250
0.198978 0.165286 0.052033
0.234165 0.164279 0.057771
0.269352 0.162509 0.062348
0.304143 0.160372 0.067659
0.338842 0.157839 0.073365
0.373144 0.155184 0.079957
0.407141 0.152407 0.087129
0.441077 0.149294 0.095064
0.474678 0.146578 0.102968
0.508110 0.143771 0.111727
0.541344 0.141299 0.120485
0.574334 0.138827 0.129335
0.607080 0.136599 0.138491
0.639490 0.134737 0.147768
0.671565 0.133669 0.157656
0.703456 0.133272 0.167788
0.734920 0.134218 0.178317
0.766140 0.136721 0.189578
0.797024 0.140414 0.200900
0.827604 0.145388 0.212894
0.857816 0.152712 0.225528
0.887663 0.161563 0.238895
0.917144 0.172976 0.253086
0.946258 0.186557 0.268284
0.975006 0.202579 0.284764
1.000000 0.221714 0.302892
0.000000 0.225956 0.021210
0.000000 0.225620 0.006592
0.000000 0.225040 0.003326
0.085664 0.223514 0.002106
0.131594 0.221408 0.000000
0.171145 0.215183 0.011505
0.203250 0.205966 0.037751
0.232609 0.199100 0.060548
0.268070 0.198032 0.065034
0.303075 0.196445 0.070802
0.337743 0.194766 0.076814
0.372229 0.192569 0.083375
0.406287 0.190677 0.090761
0.440223 0.188479 0.098299
0.473915 0.186130 0.106416
0.507408 0.184176 0.115053
0.540642 0.182223 0.123568
0.573693 0.180270 0.132357
0.606531 0.178500 0.141115
0.638941 0.176913 0.150546
0.671107 0.175967 0.160098
0.702968 0.175723 0.170169
0.734493 0.176120 0.180789
0.765743 0.177523 0.191592
0.796689 0.179934 0.203006
0.827237 0.183566 0.214878
0.857511 0.188876 0.227390
0.887358 0.195956 0.240696
0.916899 0.204623 0.254856
0.946014 0.215793 0.270115
0.974762 0.229221 0.286473
1.000000 0.245853 0.304631
0.000000 0.263371 0.028962
0.000000 0.263249 0.012146
0.000000 0.262882 0.000000
0.070436 0.261662 0.000000
0.123781 0.259800 0.000000
0.167758 0.257420 0.000000
0.205814 0.249790 0.016938
0.237736 0.240818 0.048737
0.266484 0.233066 0.069673
0.301640 0.231876 0.075013
0.336584 0.230533 0.081270
0.371038 0.228885 0.087709
0.405219 0.227237 0.094972
0.439185 0.225498 0.102632
0.472999 0.223819 0.110536
0.506493 0.222049 0.118654
0.539788 0.220401 0.127291
0.572900 0.218753 0.135775
0.605829 0.217319 0.144320
0.638331 0.215946 0.153658
0.670466 0.215030 0.163149
0.702419 0.214481 0.173068
0.733974 0.214786 0.183474
0.765286 0.215640 0.194308
0.796262 0.217258 0.205386
0.826871 0.220218 0.217380
0.857115 0.224125 0.229770
0.887022 0.229526 0.242863
0.916564 0.236759 0.256962
0.945708 0.245853 0.272099
0.974456 0.257511 0.288579
1.000000 0.271855 0.306798
0.000000 0.300175 0.038911
0.000000 0.299992 0.021118
0.000000 0.299931 0.000000
0.036408 0.298863 0.000000
0.113497 0.297429 0.000000
0.160983 0.295384 0.000000
0.203220 0.292149 0.000000
0.239872 0.284337 0.028534
0.271946 0.275608 0.061250
0.300328 0.267369 0.079927
0.335027 0.266087 0.086427
0.369665 0.264622 0.092744
0.403998 0.263218 0.100069
0.438087 0.261753 0.107301
0.471870 0.260227 0.115480
0.505455 0.258824 0.123201
0.538903 0.257267 0.131472
0.572107 0.255802 0.139681
0.604944 0.254429 0.148318
0.637537 0.253269 0.157229
0.669795 0.252445 0.166629
0.701778 0.251743 0.176303
0.733394 0.251804 0.186526
0.764736 0.252354 0.197086
0.795743 0.253574 0.208286
0.826383 0.255619 0.220035
0.856687 0.258701 0.232364
0.886595 0.263096 0.245487
0.916136 0.268956 0.259373
0.945342 0.276768 0.274632
0.974121 0.286564 0.291051
1.000000 0.299260 0.309209
0.000000 0.336522 0.049134
0.000000 0.336431 0.033082
0.000000 0.336339 0.010620
0.000000 0.335668 0.000000
0.100343 0.334417 0.000000
0.152529 0.332830 0.000000
0.197360 0.330663 0.000000
0.238132 0.326268 0.011017
0.274083 0.318578 0.048035
0.305882 0.310063 0.071260
0.334325 0.301732 0.089693
0.368048 0.299779 0.098573
0.402533 0.298436 0.105684
0.436683 0.297185 0.112947
0.470619 0.295872 0.120455
0.504326 0.294530 0.128206
0.537835 0.293339 0.135775
0.571099 0.291875 0.144045
0.603998 0.290684 0.152529
0.636652 0.289555 0.161196
0.669032 0.288609 0.170230
0.701015 0.288029 0.179934
0.732753 0.287663 0.189975
0.764096 0.287999 0.200320
0.795163 0.288731 0.211460
0.825864 0.290410 0.223026
0.856168 0.292821 0.235264
0.886168 0.296361 0.248203
0.915740 0.301366 0.262242
0.944915 0.307897 0.277348
0.973693 0.316503 0.293797
1.000000 0.327611 0.312047
0.000000 0.372808 0.059937
0.000000 0.372717 0.049287
0.000000 0.372686 0.026398
0.000000 0.372168 0.004639
0.082979 0.371069 0.004944
0.142550 0.369696 0.003662
0.190249 0.367987 0.002899
0.233188 0.365911 0.002838
0.272831 0.360235 0.029877
0.308171 0.352575 0.064240
0.339727 0.344305 0.082429
0.368139 0.335973 0.100374
0.400885 0.333440 0.111696
0.435218 0.332219 0.118532
0.469276 0.331060 0.125643
0.503044 0.329900 0.133394
0.536584 0.328618 0.140871
0.569848 0.327367 0.148959
0.602960 0.326146 0.156985
0.635676 0.325048 0.165377
0.668086 0.324102 0.174441
0.700191 0.323369 0.183810
0.732021 0.323033 0.193698
0.763394 0.323064 0.204074
0.794491 0.323644 0.215000
0.825223 0.324681 0.226383
0.855589 0.326635 0.238529
0.885588 0.329595 0.251530
0.915221 0.333745 0.265446
0.944457 0.339269 0.280430
0.973266 0.346868 0.296971
1.000000 0.356786 0.315251
0.000000 0.408820 0.066407
0.000000 0.408789 0.060700
0.000000 0.408698 0.047211
0.000000 0.408301 0.015015
0.056916 0.407416 0.014069
0.131075 0.406287 0.012604
0.182101 0.404883 0.012757
0.226871 0.403082 0.011505
0.268986 0.400977 0.011841
0.307317 0.394141 0.053346
0.341985 0.386481 0.076295
0.373388 0.378332 0.094026
0.401709 0.369909 0.111086
0.433631 0.366857 0.124453
0.467689 0.365759 0.131594
0.501579 0.364569 0.138827
0.535210 0.363470 0.146395
0.568597 0.362310 0.153872
0.601770 0.361151 0.161776
0.634577 0.360082 0.170169
0.667109 0.359075 0.178836
0.699245 0.358312 0.188174
0.731136 0.357763 0.197635
0.762600 0.357641 0.208011
0.793790 0.357916 0.218814
0.824552 0.358801 0.230167
0.854978 0.360327 0.242191
0.885008 0.362707 0.255009
0.914641 0.366247 0.268894
0.943908 0.371008 0.283940
0.972717 0.377691 0.300511
1.000000 0.386419 0.318761
0.000000 0.444678 0.073457
0.000000 0.444648 0.068452
0.000000 0.444587 0.061097
0.000000 0.444373 0.027802
0.000000 0.443671 0.024628
0.116884 0.442664 0.024262
0.172580 0.441352 0.024567
0.219608 0.439826 0.024201
0.263066 0.438025 0.023255
0.304112 0.434882 0.033875
0.341466 0.427924 0.068849
0.375708 0.420172 0.088258
0.406867 0.412207 0.105806
0.435065 0.403723 0.122103
0.466041 0.400061 0.137453
0.499977 0.399054 0.144656
0.533745 0.397925 0.151919
0.567193 0.396796 0.159121
0.600458 0.395697 0.166873
0.633417 0.394629 0.174990
0.666041 0.393713 0.183627
0.698299 0.392859 0.192599
0.730220 0.392218 0.202152
0.761746 0.391913 0.212192
0.792996 0.391974 0.222690
0.823819 0.392554 0.233921
0.854307 0.393713 0.246098
0.884367 0.395727 0.259007
0.914031 0.398596 0.272770
0.943328 0.402808 0.287816
0.972198 0.408576 0.304295
1.000000 0.416480 0.322698
0.000000 0.480446 0.080873
0.000000 0.480323 0.076478
0.000000 0.480262 0.070558
0.000000 0.480140 0.053834
0.000000 0.479530 0.040345
0.099763 0.478676 0.041016
0.162417 0.477546 0.040009
0.211734 0.476295 0.038453
0.256565 0.474617 0.038727
0.298833 0.472847 0.038025
0.338872 0.468482 0.060151
0.375525 0.461433 0.082033
0.409247 0.453864 0.100282
0.440131 0.445899 0.117311
0.468330 0.437507 0.133791
0.498268 0.433112 0.150607
0.532036 0.432013 0.157565
0.565667 0.431006 0.164736
0.599084 0.429908 0.172061
0.632136 0.428840 0.180056
0.664851 0.427863 0.188449
0.697169 0.427039 0.197269
0.729183 0.426337 0.206699
0.760861 0.425879 0.216617
0.792111 0.425757 0.227085
0.823026 0.426093 0.238285
0.853544 0.426886 0.250217
0.883665 0.428534 0.263005
0.913390 0.431006 0.276890
0.942718 0.434638 0.291905
0.971557 0.439826 0.308568
1.000000 0.446845 0.326909
0.000000 0.515984 0.087953
0.000000 0.515892 0.084627
0.000000 0.515801 0.079744
0.000000 0.515679 0.067781
0.000000 0.515190 0.056550
0.077394 0.514488 0.056092
0.150332 0.513542 0.056153
0.203006 0.512352 0.055055
0.249454 0.510948 0.055055
0.292851 0.509392 0.053651
0.334264 0.507591 0.053437
0.373205 0.501976 0.074342
0.409247 0.494850 0.094484
0.442573 0.487373 0.112154
0.473304 0.479377 0.129274
0.501427 0.471138 0.145357
0.530327 0.465827 0.163577
0.564019 0.464881 0.170321
0.597589 0.463905 0.177493
0.630762 0.462867 0.185336
0.663569 0.461799 0.193484
0.696010 0.460914 0.202090
0.728084 0.460182 0.211368
0.759823 0.459602 0.221256
0.791196 0.459297 0.231662
0.822141 0.459419 0.242741
0.852720 0.459968 0.254612
0.882872 0.461311 0.267460
0.912657 0.463386 0.281254
0.941985 0.466499 0.296452
0.970886 0.471107 0.312963
0.999359 0.477363 0.331548
0.000000 0.551354 0.095338
0.000000 0.551324 0.092561
0.000000 0.551263 0.088167
0.000000 0.551110 0.078798
0.000000 0.550713 0.065827
0.023651 0.550042 0.065614
0.136355 0.549248 0.065644
0.193057 0.548241 0.065034
0.241672 0.547021 0.065003
0.286107 0.545586 0.064729
0.328496 0.543969 0.064149
0.369390 0.542016 0.065522
0.407324 0.535271 0.087678
0.442756 0.528161 0.106844
0.475746 0.520592 0.124331
0.506279 0.512688 0.140780
0.534325 0.504479 0.156741
0.562280 0.498512 0.176120
0.595972 0.497566 0.183139
0.629297 0.496620 0.190707
0.662226 0.495613 0.198581
0.694789 0.494606 0.207187
0.726955 0.493812 0.216434
0.758755 0.493111 0.225986
0.790188 0.492714 0.236362
0.821225 0.492622 0.247532
0.851865 0.492927 0.259281
0.882078 0.493965 0.272099
0.911833 0.495705 0.286137
0.941222 0.498421 0.301122
0.970184 0.502403 0.317937
0.998657 0.508141 0.336553
0.000000 0.586328 0.102815
0.000000 0.586328 0.100282
0.000000 0.586206 0.096864
0.000000 0.586114 0.089143
0.000000 0.585809 0.075929
0.000000 0.585229 0.074739
0.119692 0.584436 0.074800
0.182284 0.583459 0.074342
0.233097 0.582361 0.074311
0.278904 0.580987 0.073793
0.322148 0.579522 0.073701
0.363561 0.577813 0.073396
0.403571 0.574548 0.080873
0.440833 0.567895 0.100923
0.475776 0.560845 0.119265
0.508385 0.553399 0.136110
0.538811 0.545647 0.152438
0.567041 0.537713 0.168002
0.594751 0.531426 0.187442
0.627710 0.530175 0.196139
0.660761 0.529168 0.204013
0.693416 0.528161 0.212253
0.725704 0.527245 0.221378
0.757626 0.526513 0.231052
0.789151 0.525933 0.241367
0.820218 0.525689 0.252384
0.850919 0.525780 0.264286
0.881193 0.526513 0.277104
0.911009 0.527916 0.291081
0.940429 0.530327 0.306310
0.969390 0.533806 0.323064
0.997894 0.538964 0.341863
0.000000 0.619471 0.110658
0.000000 0.619409 0.108553
0.000000 0.619379 0.105653
0.000000 0.619226 0.099031
0.000000 0.618921 0.089082
0.000000 0.618433 0.084749
0.100221 0.617700 0.084810
0.170443 0.616815 0.084749
0.223880 0.615778 0.084474
0.270939 0.614588 0.084627
0.314855 0.613245 0.084291
0.356786 0.611688 0.084047
0.397498 0.610010 0.083894
0.436683 0.605676 0.096132
0.473304 0.599298 0.114870
0.507836 0.592554 0.132113
0.540459 0.585473 0.148531
0.570916 0.578180 0.164279
0.599451 0.570611 0.179538
0.627161 0.564324 0.198550
0.659236 0.562585 0.209354
0.692012 0.561517 0.217868
0.724422 0.560510 0.226658
0.756435 0.559686 0.236301
0.787961 0.558984 0.246738
0.819150 0.558618 0.257725
0.849882 0.558587 0.269596
0.880217 0.559045 0.282444
0.910124 0.560143 0.296422
0.939574 0.562127 0.311742
0.968597 0.565209 0.328557
0.997101 0.569818 0.347631
0.000000 0.651637 0.118990
0.000000 0.651637 0.117250
0.000000 0.651545 0.114626
0.000000 0.651423 0.109743
0.000000 0.651148 0.101503
0.000000 0.650752 0.095583
0.075410 0.650172 0.095369
0.158022 0.649378 0.095308
0.214328 0.648493 0.095308
0.262638 0.647456 0.095186
0.307408 0.646235 0.094911
0.349950 0.644892 0.094972
0.390936 0.643458 0.095033
0.430976 0.641810 0.094697
0.469245 0.636591 0.110994
0.505425 0.630457 0.128603
0.539727 0.623987 0.145235
0.572168 0.617304 0.160983
0.602777 0.610315 0.176455
0.631586 0.603265 0.191348
0.659358 0.596979 0.210147
0.690547 0.594751 0.223331
0.723018 0.593683 0.232273
0.755123 0.592737 0.241764
0.786740 0.591943 0.252110
0.818021 0.591363 0.263188
0.848875 0.591180 0.275029
0.879210 0.591455 0.288029
0.909178 0.592279 0.302037
0.938659 0.593896 0.317510
0.967712 0.596582 0.334539
0.996246 0.600763 0.353674
0.000000 0.683528 0.127230
0.000000 0.683467 0.125826
0.000000 0.683436 0.123934
0.000000 0.683314 0.119722
0.000000 0.683101 0.113191
0.000000 0.682765 0.106294
0.017700 0.682185 0.106325
0.144442 0.681514 0.106050
0.204227 0.680751 0.106050
0.254398 0.679835 0.105928
0.299931 0.678767 0.105928
0.342992 0.677638 0.105928
0.384344 0.676295 0.105592
0.424628 0.674891 0.105501
0.464027 0.672847 0.107851
0.501579 0.667262 0.125948
0.537346 0.661402 0.142397
0.571374 0.655238 0.158541
0.603693 0.648890 0.174044
0.634394 0.642267 0.189059
0.663355 0.635554 0.204044
0.691188 0.629419 0.222232
0.721553 0.626734 0.237888
0.753750 0.625696 0.247501
0.785489 0.624811 0.257755
0.816831 0.624109 0.268833
0.847745 0.623651 0.280766
0.878172 0.623713 0.293767
0.908171 0.624292 0.308019
0.937713 0.625635 0.323491
0.966766 0.627985 0.340673
0.995361 0.631647 0.360174
0.000000 0.714992 0.135775
0.000000 0.714992 0.134615
0.000000 0.714931 0.132937
0.000000 0.714839 0.129732
0.000000 0.714626 0.124575
0.000000 0.714321 0.118105
0.000000 0.713863 0.117159
0.129671 0.713252 0.117098
0.194125 0.712551 0.117128
0.245884 0.711757 0.117220
0.292302 0.710842 0.116793
0.336004 0.709773 0.117037
0.377722 0.708614 0.116518
0.418189 0.707362 0.116640
0.457771 0.705959 0.116640
0.496529 0.703029 0.123476
0.533562 0.697658 0.140597
0.568933 0.692073 0.156588
0.602747 0.686244 0.172335
0.635004 0.680140 0.187564
0.665705 0.673945 0.202579
0.694881 0.667597 0.217502
0.722744 0.661524 0.235080
0.752346 0.658503 0.253330
0.784176 0.657496 0.263676
0.815579 0.656672 0.274846
0.846555 0.656062 0.286900
0.877043 0.655909 0.299931
0.907134 0.656214 0.314153
0.936706 0.657282 0.329839
0.965820 0.659266 0.347356
0.994385 0.662531 0.367010
0.000000 0.746120 0.144106
0.000000 0.746120 0.143191
0.000000 0.746029 0.142123
0.000000 0.745968 0.139498
0.000000 0.745785 0.135592
0.000000 0.745480 0.130495
0.000000 0.745113 0.128756
0.113832 0.744533 0.128756
0.183780 0.743954 0.128389
0.237552 0.743191 0.128328
0.284947 0.742428 0.128481
0.329229 0.741482 0.128328
0.371313 0.740444 0.128237
0.411841 0.739315 0.128206
0.451545 0.738064 0.128023
0.490517 0.736690 0.127871
0.528618 0.732937 0.139376
0.565240 0.727810 0.155612
0.600244 0.722469 0.171420
0.633814 0.716884 0.186648
0.666011 0.711147 0.201968
0.696742 0.705287 0.216770
0.726070 0.699306 0.231724
0.753994 0.693477 0.248875
0.782773 0.690120 0.269871
0.814267 0.689143 0.281010
0.845335 0.688380 0.293126
0.875914 0.687984 0.306340
0.906004 0.688106 0.320745
0.935637 0.688808 0.336584
0.964782 0.690455 0.354284
0.993408 0.693324 0.374121
0.000000 0.776852 0.152895
0.000000 0.776822 0.152193
0.000000 0.776791 0.151156
0.000000 0.776669 0.149203
0.000000 0.776486 0.146395
0.000000 0.776211 0.142672
0.000000 0.775906 0.140322
0.095735 0.775418 0.140322
0.173617 0.774868 0.140352
0.229374 0.774197 0.140291
0.277958 0.773495 0.140444
0.322484 0.772671 0.140322
0.364721 0.771725 0.140108
0.405676 0.770687 0.140261
0.445441 0.769589 0.139925
0.484382 0.768399 0.139803
0.522789 0.767056 0.139559
0.560418 0.762539 0.155093
0.596551 0.757656 0.171176
0.631312 0.752560 0.186709
0.664729 0.747280 0.201968
0.696773 0.741817 0.217075
0.727474 0.736324 0.232151
0.756832 0.730678 0.246983
0.784848 0.725093 0.263615
0.812924 0.721462 0.287480
0.844053 0.720546 0.299779
0.874693 0.719936 0.313024
0.904845 0.719814 0.327581
0.934539 0.720241 0.343633
0.963745 0.721523 0.361425
0.992370 0.724056 0.381720
0.000000 0.807187 0.161624
0.000000 0.807156 0.161135
0.000000 0.807095 0.160433
0.000000 0.806973 0.159152
0.000000 0.806821 0.157107
0.000000 0.806577 0.154696
0.000000 0.806241 0.152926
0.076448 0.805814 0.152743
0.164034 0.805295 0.152804
0.221897 0.804715 0.152895
0.271153 0.804044 0.152926
0.316136 0.803311 0.152682
0.358709 0.802457 0.152651
0.399695 0.801541 0.152499
0.439490 0.800534 0.152529
0.478462 0.799435 0.152468
0.516838 0.798184 0.152255
0.554772 0.796262 0.155642
0.591852 0.791806 0.171756
0.627619 0.787106 0.187320
0.662043 0.782284 0.202792
0.695186 0.777310 0.218051
0.727169 0.772152 0.233341
0.757839 0.766934 0.248417
0.787228 0.761685 0.263584
0.815396 0.756435 0.279393
0.842710 0.752560 0.306462
0.873442 0.751766 0.320012
0.903655 0.751400 0.334691
0.933410 0.751553 0.350988
0.962585 0.752529 0.369116
0.991302 0.754635 0.389746
0.000000 0.837064 0.170260
0.000000 0.837034 0.169924
0.000000 0.836973 0.169650
0.000000 0.836881 0.168826
0.000000 0.836698 0.167727
0.000000 0.836454 0.166659
0.000000 0.836118 0.165957
0.053346 0.835721 0.165957
0.155550 0.835233 0.166018
0.215244 0.834684 0.166140
0.265110 0.834134 0.166018
0.310582 0.833433 0.165957
0.353277 0.832670 0.166079
0.394202 0.831815 0.165835
0.433936 0.830869 0.165774
0.472847 0.829862 0.165743
0.511070 0.828763 0.165743
0.548852 0.827573 0.165469
0.586328 0.824949 0.173190
0.622980 0.820676 0.189059
0.658350 0.816190 0.204654
0.692470 0.811612 0.220096
0.725429 0.806912 0.235447
0.757229 0.802121 0.250675
0.787900 0.797238 0.266087
0.817288 0.792325 0.281437
0.845518 0.787411 0.296910
0.872618 0.783688 0.325261
0.902434 0.782803 0.342199
0.932219 0.782681 0.358618
0.961486 0.783322 0.377173
0.990204 0.785061 0.398138
0.000000 0.866514 0.179049
0.000000 0.866484 0.179080
0.000000 0.866423 0.178836
0.000000 0.866331 0.178683
0.000000 0.866117 0.178592
0.000000 0.865843 0.178714
0.000000 0.865507 0.179507
0.011933 0.865141 0.180117
0.148775 0.864683 0.180056
0.209598 0.864225 0.180056
0.260197 0.863645 0.179995
0.305699 0.863005 0.180056
0.348363 0.862303 0.179965
0.389380 0.861540 0.180026
0.428962 0.860685 0.179843
0.467689 0.859739 0.179965
0.505760 0.858732 0.179751
0.543297 0.857633 0.179690
0.580438 0.856474 0.179385
0.617609 0.853208 0.191348
0.653803 0.849149 0.207218
0.688808 0.844938 0.222965
0.722683 0.840604 0.238499
0.755398 0.836210 0.254032
0.787045 0.831724 0.269505
0.817563 0.827176 0.285283
0.846952 0.822629 0.301091
0.875181 0.818051 0.316930
0.902037 0.814481 0.345953
0.930968 0.813687 0.366735
0.960296 0.813993 0.385443
0.989075 0.815335 0.406958
0.000000 0.895567 0.188083
0.000000 0.895506 0.188235
0.000000 0.895476 0.188235
0.000000 0.895354 0.188632
0.000000 0.895140 0.189242
0.000000 0.894865 0.190677
0.000000 0.894469 0.192966
0.000000 0.894072 0.194919
0.144991 0.893675 0.195102
0.206241 0.893217 0.195132
0.256596 0.892699 0.195193
0.302037 0.892149 0.195163
0.344488 0.891508 0.195102
0.385199 0.890776 0.195071
0.424720 0.889982 0.195071
0.463142 0.889128 0.194980
0.501030 0.888212 0.194919
0.538231 0.887205 0.194766
0.575189 0.886076 0.194675
0.611719 0.884886 0.194583
0.648615 0.881163 0.210758
0.684413 0.877317 0.226658
0.719051 0.873350 0.242527
0.752651 0.869291 0.258274
0.785153 0.865141 0.274144
0.816587 0.860960 0.290196
0.846952 0.856748 0.306218
0.876280 0.852537 0.322576
0.904417 0.848356 0.339055
0.931029 0.845060 0.368902
0.959075 0.844419 0.394293
0.987884 0.845365 0.416205
0.000000 0.924224 0.197024
0.000000 0.924193 0.197360
0.000000 0.924132 0.197787
0.000000 0.924010 0.198672
0.000000 0.923796 0.200412
0.000000 0.923461 0.202884
0.000000 0.923064 0.206729
0.002045 0.922576 0.211215
0.144656 0.922210 0.211215
0.205234 0.921813 0.211337
0.255161 0.921324 0.211307
0.300023 0.920806 0.211307
0.342107 0.920195 0.211276
0.382330 0.919554 0.211276
0.421393 0.918822 0.211276
