其他预设/【213】赛博朋克科幻预设52款/1.LUT预设（视频调色-PR-AE-PS-FCPX-达芬奇用）/赛博朋克科幻__-7 强度5.cube
# Created by Adobe Lightroom plugin Export LUT (1.17.0)
# www.johnrellis.com/lightroom/exportlut.htm
# Preset: 赛博朋克科幻[素锦印象]-7 强度5
# Color profile: /Library/Application Support/Adobe/Color/Profiles/Recommended/AdobeRGB1998.icc
LUT_3D_SIZE 8
DOMAIN_MIN 0.000000 0.000000 0.000000
DOMAIN_MAX 0.903226 0.903226 0.903226
0.075471 0.115023 0.098665
0.120302 0.120607 0.096925
0.306096 0.160128 0.076814
0.577173 0.232578 0.000000
0.791287 0.292851 0.000000
0.922301 0.329931 0.000000
1.000000 0.354833 0.000000
1.000000 0.372229 0.000000
0.075471 0.115023 0.098665
0.110719 0.124361 0.096834
0.295781 0.162234 0.077760
0.569604 0.236118 0.000000
0.788113 0.296391 0.000000
0.921080 0.332769 0.000000
1.000000 0.357092 0.000000
1.000000 0.373968 0.000000
0.059358 0.155459 0.104311
0.069734 0.165560 0.100130
0.254398 0.188846 0.102388
0.539361 0.242100 0.000000
0.775875 0.303838 0.000000
0.916655 0.340795 0.000000
1.000000 0.364843 0.000000
1.000000 0.380072 0.000000
0.000000 0.228641 0.121004
0.000000 0.234806 0.102663
0.158145 0.278386 0.146090
0.497444 0.311955 0.115755
0.752071 0.327764 0.000000
0.907134 0.358312 0.000000
1.000000 0.377264 0.000000
1.000000 0.390936 0.000000
0.000000 0.339452 0.152712
0.000000 0.343633 0.133639
0.072877 0.373968 0.134981
0.411627 0.455329 0.195743
0.727138 0.442054 0.175967
0.893797 0.417639 0.106233
1.000000 0.412299 0.000000
1.000000 0.413001 0.000000
0.000000 0.477638 0.195102
0.000000 0.481361 0.180056
0.000000 0.493538 0.122713
0.311162 0.553674 0.277989
0.683650 0.622919 0.301244
0.881834 0.559472 0.299748
0.991180 0.516350 0.256474
1.000000 0.482277 0.191043
0.000000 0.643061 0.243931
0.000000 0.646418 0.232181
0.000000 0.647364 0.144167
0.151888 0.688380 0.221561
0.521416 0.746761 0.419196
0.871153 0.739528 0.485389
0.980865 0.682795 0.462684
1.000000 0.634760 0.422065
0.000000 0.802457 0.283635
0.000000 0.804379 0.271061
0.000000 0.810269 0.213687
0.000000 0.824369 0.182864
0.560754 0.843748 0.499641
0.797208 0.886564 0.600305
0.985199 0.850095 0.654780
1.000000 0.799680 0.615991
0.069032 0.124788 0.110506
0.108644 0.115145 0.102449
0.279271 0.155245 0.086793
0.548669 0.227451 0.000000
0.779660 0.292180 0.000000
0.918029 0.332464 0.000000
1.000000 0.357214 0.000000
1.000000 0.373632 0.000000
0.057130 0.143923 0.120638
0.095583 0.133700 0.115480
0.264103 0.161257 0.101656
0.541588 0.230564 0.000000
0.776486 0.294408 0.000000
0.916869 0.333745 0.000000
1.000000 0.359319 0.000000
1.000000 0.375311 0.000000
0.027497 0.170748 0.122042
0.073640 0.176059 0.118685
0.235264 0.194125 0.130922
0.516564 0.243809 0.078065
0.764706 0.305669 0.000000
0.912200 0.341772 0.000000
1.000000 0.364935 0.000000
1.000000 0.381292 0.000000
0.000000 0.243290 0.141451
0.000000 0.250309 0.132418
0.170596 0.281743 0.169436
0.481392 0.315282 0.152377
0.742000 0.332830 0.071229
0.902739 0.363836 0.000000
1.000000 0.381201 0.000000
1.000000 0.390631 0.000000
0.000000 0.355688 0.175998
0.000000 0.359014 0.161318
0.073091 0.379248 0.146944
0.391058 0.457099 0.221866
0.718135 0.448951 0.211337
0.888548 0.425940 0.159030
0.999878 0.422309 0.058625
1.000000 0.419440 0.000000
0.000000 0.492439 0.219150
0.000000 0.495338 0.204715
0.000000 0.497230 0.135561
0.301030 0.556603 0.277440
0.678523 0.633448 0.322301
0.876677 0.569085 0.327062
0.987945 0.528222 0.288121
1.000000 0.495430 0.229435
0.000000 0.653315 0.266728
0.000000 0.656641 0.256077
0.000000 0.657374 0.183658
0.144686 0.689174 0.228336
0.528771 0.744472 0.433875
0.865232 0.746181 0.498360
0.977661 0.691859 0.480690
1.000000 0.646174 0.442695
0.000000 0.807828 0.304112
0.000000 0.809751 0.292393
0.000000 0.815793 0.242191
0.000000 0.824308 0.185550
0.549706 0.844297 0.493782
0.789792 0.886198 0.606592
0.983337 0.854063 0.662501
1.000000 0.804990 0.624842
0.000000 0.200015 0.190646
0.000000 0.187839 0.183230
0.230259 0.152590 0.149050
0.509697 0.235447 0.124147
0.756588 0.298955 0.000000
0.905943 0.339971 0.000000
1.000000 0.362066 0.000000
1.000000 0.376593 0.000000
0.000000 0.229404 0.200443
0.000000 0.212406 0.192813
0.218326 0.171908 0.160525
0.497810 0.242649 0.140169
0.751003 0.304936 0.065797
0.904387 0.344091 0.000000
1.000000 0.365057 0.000000
1.000000 0.377539 0.000000
0.000000 0.284367 0.224552
0.000000 0.270024 0.214603
0.186862 0.220127 0.192782
0.467811 0.267185 0.179995
0.736599 0.325231 0.133974
0.899138 0.360082 0.000000
1.000000 0.377081 0.000000
1.000000 0.384070 0.000000
0.000000 0.336950 0.233982
0.000000 0.326696 0.223239
0.148898 0.302617 0.198550
0.432654 0.333715 0.235538
0.712764 0.363684 0.206119
0.888273 0.395148 0.163638
1.000000 0.406867 0.055116
1.000000 0.403235 0.000000
0.000000 0.415137 0.253117
0.000000 0.406500 0.239963
0.000000 0.410376 0.215000
0.328008 0.457618 0.289006
0.686519 0.473365 0.300053
0.870451 0.458442 0.271550
0.991272 0.464637 0.233799
1.000000 0.452216 0.135744
0.000000 0.532738 0.288579
0.000000 0.537346 0.279698
0.000000 0.540795 0.243442
0.261357 0.564782 0.273899
0.636927 0.646937 0.383795
0.858335 0.600427 0.403998
0.976684 0.568688 0.376501
1.000000 0.542596 0.331456
0.000000 0.684047 0.335149
0.000000 0.687617 0.326604
0.000000 0.689479 0.280247
0.098329 0.691005 0.244358
0.548425 0.735470 0.475044
0.846738 0.767483 0.534234
0.967346 0.719142 0.532128
1.000000 0.680873 0.501335
0.000000 0.825650 0.368353
0.000000 0.826810 0.357733
0.000000 0.832822 0.319554
0.000000 0.825986 0.205509
0.502342 0.846281 0.468147
0.761593 0.884215 0.624628
0.976867 0.866575 0.685481
1.000000 0.821561 0.651911
0.000000 0.371832 0.360967
0.000000 0.369177 0.352026
0.116609 0.230747 0.299351
0.434394 0.217594 0.234806
0.720089 0.347478 0.234562
0.889281 0.387457 0.206912
0.999573 0.407538 0.159182
1.000000 0.397742 0.000000
0.000000 0.404425 0.367773
0.000000 0.388312 0.359319
0.137911 0.280400 0.312352
0.425055 0.238163 0.245640
0.713741 0.356603 0.247227
0.886229 0.396185 0.222690
0.998322 0.414679 0.177310
1.000000 0.401160 0.000000
0.000000 0.466651 0.395087
0.000000 0.450690 0.385626
0.077058 0.384955 0.352422
0.395544 0.294530 0.278264
0.693202 0.385534 0.284611
0.876127 0.425635 0.269810
0.994263 0.439155 0.227848
1.000000 0.417792 0.015656
0.000000 0.537774 0.421454
0.000000 0.526085 0.410803
0.000000 0.477546 0.380255
0.345312 0.369512 0.327153
0.660182 0.429541 0.336034
0.861082 0.470253 0.330175
0.987060 0.481849 0.298039
1.000000 0.457832 0.198611
0.000000 0.591791 0.422553
0.000000 0.583307 0.411810
0.000000 0.543908 0.379248
0.306767 0.475410 0.334783
0.626673 0.510826 0.400671
0.840024 0.527276 0.398444
0.974853 0.545464 0.385657
1.000000 0.526513 0.325719
0.000000 0.661067 0.430091
0.000000 0.655879 0.419287
0.000000 0.627649 0.385046
0.230961 0.597375 0.346044
0.527214 0.639704 0.455573
0.826047 0.643854 0.495003
0.957946 0.629267 0.482643
1.000000 0.618585 0.454108
0.000000 0.752102 0.448188
0.000000 0.748379 0.437324
0.000000 0.738308 0.401099
0.000000 0.727504 0.353582
0.498909 0.733730 0.461677
0.821286 0.799802 0.577142
0.951446 0.754879 0.595209
1.000000 0.726497 0.572473
0.000000 0.856931 0.467262
0.000000 0.857816 0.458442
0.000000 0.860349 0.424964
0.000000 0.858305 0.351202
0.406012 0.847715 0.423865
0.752407 0.874815 0.649226
0.961181 0.885039 0.707393
1.000000 0.844755 0.688655
0.000000 0.578271 0.561486
0.000000 0.585412 0.554925
0.000000 0.523613 0.535058
0.337530 0.285588 0.422644
0.646052 0.334020 0.355352
0.853056 0.497810 0.398413
0.977111 0.530175 0.396979
1.000000 0.527214 0.359411
0.000000 0.602411 0.563622
0.000000 0.599908 0.558099
0.000000 0.541283 0.538750
0.328283 0.310796 0.435859
0.639643 0.350225 0.364202
0.849729 0.505486 0.406867
0.975494 0.537652 0.405890
1.000000 0.532433 0.366247
0.000000 0.652857 0.575128
0.000000 0.642390 0.570123
0.000000 0.595270 0.551598
0.324224 0.419959 0.477058
0.618311 0.399145 0.392004
0.838529 0.530297 0.433600
0.970306 0.561822 0.434058
1.000000 0.548425 0.386267
0.000000 0.715785 0.597253
0.000000 0.710964 0.592370
0.000000 0.673884 0.573724
0.327703 0.581933 0.530816
0.581292 0.467109 0.433631
0.820829 0.566827 0.471717
0.963287 0.595575 0.471351
1.000000 0.566430 0.406134
0.000000 0.761563 0.598138
0.000000 0.756558 0.589014
0.000000 0.732937 0.574426
0.248112 0.670466 0.546105
0.526940 0.539940 0.480690
0.799802 0.606195 0.510643
0.954162 0.636896 0.515038
1.000000 0.621546 0.473243
0.000000 0.800076 0.586633
0.000000 0.796658 0.577295
0.000000 0.780117 0.559930
0.097566 0.733028 0.533959
0.493355 0.645014 0.487922
0.778683 0.679286 0.568048
0.937377 0.692195 0.573602
1.000000 0.694545 0.557946
0.000000 0.858091 0.588617
0.000000 0.855650 0.580560
0.000000 0.845487 0.554253
0.000000 0.811704 0.519005
0.422004 0.757961 0.486793
0.716854 0.787808 0.613642
0.931182 0.789090 0.653132
1.000000 0.770779 0.637842
0.000000 0.928099 0.596612
0.000000 0.926085 0.588891
0.000000 0.918181 0.559564
0.000000 0.899229 0.498512
0.187961 0.877195 0.456458
0.704005 0.865690 0.630396
0.942962 0.910460 0.727138
1.000000 0.869963 0.727382
0.000000 0.726070 0.707240
0.000000 0.732967 0.703731
0.000000 0.709895 0.695857
0.287785 0.594781 0.655024
0.561730 0.394202 0.546685
0.798795 0.502739 0.497566
0.942107 0.666773 0.570977
1.000000 0.696315 0.582086
0.000000 0.742031 0.707424
0.000000 0.747768 0.704128
0.000000 0.720272 0.697047
0.297032 0.620325 0.662440
0.558312 0.410285 0.551537
0.795285 0.512627 0.503563
0.940734 0.670893 0.575036
1.000000 0.699550 0.585382
0.000000 0.780270 0.710536
0.000000 0.782956 0.707851
0.000000 0.754116 0.701534
0.313085 0.691981 0.683162
0.546502 0.470100 0.573877
0.783474 0.543694 0.522850
0.936339 0.684260 0.588159
1.000000 0.709651 0.595422
0.000000 0.825040 0.719295
0.000000 0.829099 0.716396
0.000000 0.806638 0.709895
0.257816 0.753140 0.692988
0.546563 0.592309 0.623072
0.763577 0.588281 0.551141
0.930083 0.704189 0.607263
1.000000 0.722957 0.607965
0.000000 0.879057 0.731197
0.000000 0.882750 0.728603
0.000000 0.871214 0.722072
0.000000 0.826902 0.707301
0.573114 0.743160 0.673548
0.735592 0.638056 0.583246
0.923613 0.727199 0.628473
1.000000 0.736965 0.619928
0.000000 0.907652 0.718502
0.000000 0.905577 0.711696
0.000000 0.897856 0.699519
0.000000 0.872007 0.693782
0.512902 0.814115 0.681514
0.689479 0.692073 0.617792
0.912993 0.755947 0.654688
1.000000 0.766812 0.648585
0.000000 0.940642 0.708278
0.000000 0.939269 0.702602
0.000000 0.934325 0.682124
0.000000 0.919677 0.670008
0.403876 0.872404 0.664393
0.664088 0.785672 0.625635
0.900206 0.817441 0.703822
1.000000 0.818418 0.701503
0.000000 0.988434 0.710048
0.000000 0.987457 0.705043
0.000000 0.983673 0.686366
0.000000 0.975433 0.648829
0.000000 0.947295 0.616510
0.592584 0.886381 0.614893
0.867185 0.905455 0.743679
1.000000 0.896788 0.767819
0.000000 0.822934 0.808316
0.000000 0.828733 0.806516
0.000000 0.832914 0.802304
0.223606 0.797299 0.796750
0.570947 0.664302 0.748653
0.752926 0.557671 0.661677
0.910765 0.669703 0.634333
1.000000 0.806729 0.708003
0.000000 0.832639 0.808164
0.000000 0.837919 0.806424
0.000000 0.839597 0.802640
0.221622 0.804654 0.797055
0.585779 0.685237 0.751492
0.755215 0.566247 0.668788
0.909270 0.674464 0.637476
1.000000 0.808499 0.709651
0.000000 0.857939 0.808804
0.000000 0.862516 0.807187
0.000000 0.862181 0.803861
0.180484 0.828489 0.798550
0.631220 0.748653 0.761593
0.746212 0.598230 0.678889
0.904143 0.690394 0.648066
1.000000 0.814481 0.715175
0.000000 0.890990 0.811490
0.000000 0.895018 0.810025
0.000000 0.899138 0.806332
0.000000 0.866941 0.801846
0.652003 0.826291 0.787259
0.729763 0.646265 0.694850
0.895689 0.714900 0.664485
1.000000 0.823667 0.723507
0.000000 0.931731 0.815702
0.000000 0.935180 0.814389
0.000000 0.945861 0.809934
0.000000 0.919951 0.807004
0.582086 0.872648 0.796109
0.730892 0.747463 0.742275
0.883787 0.745083 0.684810
1.000000 0.835599 0.734035
0.000000 0.978027 0.821012
0.000000 0.980987 0.819852
0.000000 0.990173 0.815091
0.000000 0.981659 0.812345
0.454078 0.933104 0.804776
0.760861 0.869718 0.785061
0.864469 0.780850 0.708644
1.000000 0.850278 0.746578
0.000000 1.000000 0.809903
0.000000 1.000000 0.806088
0.000000 1.000000 0.792447
0.000000 0.998108 0.777523
0.261418 0.969543 0.783810
0.707454 0.919982 0.786221
0.826078 0.819883 0.733059
0.997070 0.870481 0.763912
0.000000 1.000000 0.800351
0.000000 1.000000 0.797177
0.000000 1.000000 0.785763
0.000000 1.000000 0.763790
0.000000 1.000000 0.741817
0.572625 0.970916 0.761624
0.805478 0.901122 0.740047
0.990112 0.922515 0.807095
0.000000 0.880552 0.875731
0.000000 0.885161 0.874846
0.000000 0.901335 0.871641
0.000000 0.889189 0.869657
0.710750 0.876982 0.856413
0.776059 0.770108 0.822293
0.899016 0.724025 0.760067
0.992309 0.812070 0.750790
0.000000 0.885588 0.875639
0.000000 0.890013 0.874784
0.000000 0.905608 0.871641
0.000000 0.893523 0.869749
0.711208 0.883146 0.857786
0.777279 0.777920 0.824430
0.898039 0.728267 0.762356
0.991852 0.814237 0.752316
0.000000 0.899290 0.875883
0.000000 0.903380 0.875059
0.000000 0.917937 0.872068
0.000000 0.908354 0.870237
0.708675 0.903410 0.862425
0.785641 0.806363 0.831601
0.894499 0.742367 0.770230
0.990326 0.821530 0.757443
0.000000 0.916136 0.877256
0.000000 0.919982 0.876493
0.000000 0.933562 0.873686
0.000000 0.935515 0.871244
0.652766 0.919463 0.864591
0.822049 0.865660 0.841947
0.890684 0.764889 0.786313
0.987884 0.833494 0.765896
0.000000 0.948058 0.878019
0.000000 0.950317 0.877501
0.000000 0.957855 0.875669
0.000000 0.969940 0.872343
0.456764 0.944823 0.868070
0.839231 0.923857 0.859770
0.873991 0.798154 0.799252
0.984314 0.849973 0.777615
0.000000 0.986511 0.878996
0.000000 0.988556 0.878538
0.000000 0.995544 0.876951
0.000000 1.000000 0.874022
0.000000 0.997284 0.871977
0.760342 0.953857 0.865568
0.875639 0.874174 0.835019
0.978729 0.871183 0.792630
0.000000 1.000000 0.880400
0.000000 1.000000 0.880034
0.000000 1.000000 0.878691
0.000000 1.000000 0.876127
0.000000 1.000000 0.870939
0.592920 1.000000 0.869169
0.895232 0.958923 0.863310
0.968627 0.897246 0.810788
0.000000 1.000000 0.882261
0.000000 1.000000 0.880522
0.000000 1.000000 0.873686
0.000000 1.000000 0.860349
0.000000 1.000000 0.837949
0.260227 1.000000 0.840391
0.834195 0.991791 0.858000
0.940551 0.926848 0.829557
