其他预设/【213】赛博朋克科幻预设52款/1.LUT预设（视频调色-PR-AE-PS-FCPX-达芬奇用）/赛博朋克科幻__-3 强度2.cube
# Created by Adobe Lightroom plugin Export LUT (1.17.0)
# www.johnrellis.com/lightroom/exportlut.htm
# Preset: 赛博朋克科幻[素锦印象]-3 强度2
# Color profile: /Library/Application Support/Adobe/Color/Profiles/Recommended/AdobeRGB1998.icc
LUT_3D_SIZE 5
DOMAIN_MIN 0.000000 0.000000 0.000000
DOMAIN_MAX 0.903226 0.903226 0.903226
0.055940 0.065400 0.080964
0.210147 0.000000 0.126192
0.495857 0.000000 0.220462
0.780667 0.000000 0.318853
0.983978 0.000000 0.404059
0.000000 0.248692 0.163149
0.177401 0.228183 0.088502
0.497993 0.000000 0.102876
0.785611 0.000000 0.233829
0.988983 0.000000 0.340307
0.000000 0.557031 0.322606
0.000000 0.554925 0.259281
0.410346 0.512047 0.017578
0.776028 0.330968 0.122988
0.994690 0.000000 0.151125
0.000000 0.809873 0.454963
0.000000 0.808835 0.430182
0.000000 0.814267 0.208957
0.634943 0.762020 0.000000
0.970459 0.611200 0.166964
0.000000 0.997223 0.552453
0.000000 0.996033 0.543389
0.000000 0.991608 0.506584
0.293553 0.998535 0.283848
0.816190 0.957092 0.215061
0.000000 0.057252 0.215640
0.205905 0.000000 0.215824
0.493263 0.000000 0.302953
0.776944 0.000000 0.384375
0.983307 0.000000 0.442390
0.000000 0.218418 0.222568
0.190677 0.211704 0.213504
0.485176 0.103395 0.276036
0.775814 0.000000 0.358190
0.983764 0.000000 0.422950
0.000000 0.543511 0.372412
0.000000 0.536156 0.341070
0.414862 0.501823 0.205631
0.774228 0.323919 0.244877
0.993774 0.000000 0.259709
0.000000 0.804562 0.489876
0.000000 0.802640 0.471168
0.000000 0.804349 0.335485
0.642176 0.757839 0.216403
0.970062 0.606928 0.290929
0.000000 0.996460 0.575586
0.000000 0.995239 0.567193
0.261051 0.985595 0.562219
0.357122 0.994659 0.367407
0.824430 0.955169 0.313664
0.000000 0.000000 0.473457
0.245029 0.000000 0.454047
0.485878 0.000000 0.453895
0.763638 0.000000 0.512779
0.984649 0.000000 0.546471
0.000000 0.273198 0.487922
0.175326 0.194797 0.469154
0.481910 0.000000 0.452888
0.765988 0.000000 0.504265
0.987427 0.000000 0.533471
0.000000 0.497566 0.479255
0.000000 0.491371 0.472389
0.452033 0.467018 0.446174
0.754788 0.426703 0.509728
0.970886 0.352758 0.561395
0.000000 0.790036 0.591913
0.000000 0.787076 0.581720
0.371435 0.773617 0.552819
0.673884 0.742489 0.459937
0.965728 0.620325 0.519097
0.000000 0.992798 0.653498
0.000000 0.992157 0.645960
0.229374 0.983886 0.637293
0.538567 0.979248 0.567803
0.851652 0.948821 0.506554
0.000000 0.000000 0.716701
0.244663 0.000000 0.707607
0.529229 0.000000 0.674922
0.765774 0.000000 0.680323
0.972778 0.000000 0.685634
0.000000 0.180606 0.723415
0.142824 0.137423 0.714992
0.509789 0.000000 0.682765
0.764706 0.000000 0.680323
0.974517 0.000000 0.684871
0.000000 0.558587 0.732723
0.124514 0.560082 0.731228
0.479622 0.479622 0.703395
0.753048 0.311681 0.678462
0.979309 0.000000 0.670558
0.000000 0.747585 0.708156
0.000000 0.745754 0.705776
0.432502 0.737331 0.696193
0.718074 0.711116 0.669886
0.953521 0.696834 0.723964
0.000000 0.985351 0.776364
0.000000 0.984405 0.771878
0.147158 0.977600 0.759274
0.670954 0.960021 0.750271
0.890013 0.938933 0.688075
0.000000 0.000000 0.894804
0.042023 0.000000 0.892058
0.486549 0.000000 0.881895
0.759915 0.000000 0.865507
0.983307 0.000000 0.859373
0.000000 0.000000 0.896941
0.000000 0.000000 0.894285
0.478523 0.000000 0.884245
0.757290 0.000000 0.867765
0.984100 0.000000 0.861997
0.000000 0.541253 0.899962
0.230228 0.537377 0.896757
0.428779 0.411719 0.890715
0.728084 0.065522 0.872221
0.984649 0.000000 0.866392
0.000000 0.751980 0.894835
0.000000 0.756802 0.894224
0.533257 0.780392 0.891814
0.749294 0.731624 0.879301
0.963348 0.552209 0.863676
0.000000 0.938018 0.883085
0.000000 0.937957 0.882536
0.305058 0.936584 0.879789
0.702968 0.932830 0.874357
0.929686 0.916930 0.856840
