其他预设/【213】赛博朋克科幻预设52款/1.LUT预设（视频调色-PR-AE-PS-FCPX-达芬奇用）/赛博朋克科幻__-6 强度1.cube
# Created by Adobe Lightroom plugin Export LUT (1.17.0)
# www.johnrellis.com/lightroom/exportlut.htm
# Preset: 赛博朋克科幻[素锦印象]-6 强度1
# Color profile: /Library/Application Support/Adobe/Color/Profiles/Recommended/AdobeRGB1998.icc
LUT_3D_SIZE 32
0.051362 0.036835 0.037812
0.066804 0.034089 0.038300
0.080293 0.030762 0.038575
0.106569 0.022278 0.040772
0.136263 0.007568 0.041962
0.165988 0.000000 0.046326
0.195743 0.000000 0.048310
0.226108 0.000000 0.051637
0.257145 0.000000 0.054963
0.288823 0.000000 0.058015
0.321202 0.000000 0.060639
0.354253 0.000000 0.062776
0.387701 0.000000 0.065461
0.421820 0.000000 0.068452
0.456153 0.000000 0.071839
0.490822 0.000000 0.074830
0.525780 0.000000 0.078401
0.560906 0.000000 0.081880
0.595850 0.000000 0.085908
0.630579 0.000000 0.089601
0.665034 0.000000 0.094026
0.699184 0.000000 0.098268
0.732937 0.000000 0.103212
0.766232 0.000000 0.108217
0.798947 0.000000 0.113558
0.830991 0.000000 0.119356
0.862272 0.000000 0.125521
0.892760 0.000000 0.132448
0.922454 0.000000 0.139742
0.951476 0.000000 0.147829
0.979858 0.000000 0.156497
1.000000 0.000000 0.166049
0.055909 0.061585 0.034943
0.068086 0.060670 0.034394
0.080873 0.059449 0.035767
0.106966 0.055573 0.036683
0.136477 0.046143 0.038758
0.166018 0.027985 0.042176
0.196048 0.004028 0.045686
0.226230 0.000000 0.049317
0.257267 0.000000 0.052613
0.288914 0.000000 0.056428
0.321263 0.000000 0.059327
0.354314 0.000000 0.061891
0.387823 0.000000 0.064698
0.421851 0.000000 0.067659
0.456245 0.000000 0.070741
0.490883 0.000000 0.074403
0.525841 0.000000 0.077668
0.560937 0.000000 0.081514
0.595880 0.000000 0.085298
0.630579 0.000000 0.089235
0.665034 0.000000 0.093141
0.699214 0.000000 0.097719
0.732967 0.000000 0.102419
0.766262 0.000000 0.107515
0.798947 0.000000 0.113069
0.830991 0.000000 0.118898
0.862303 0.000000 0.124971
0.892729 0.000000 0.132082
0.922454 0.000000 0.139406
0.951507 0.000000 0.147341
0.979858 0.000000 0.156069
1.000000 0.000000 0.165652
0.060517 0.077485 0.030976
0.071870 0.077028 0.030304
0.084352 0.076387 0.030488
0.107515 0.074586 0.032715
0.136629 0.071412 0.034607
0.166323 0.064881 0.038025
0.196139 0.052522 0.041535
0.226444 0.026612 0.045960
0.257389 0.000000 0.050233
0.288945 0.000000 0.054078
0.321386 0.000000 0.057557
0.354314 0.000000 0.060548
0.387823 0.000000 0.063325
0.421912 0.000000 0.066804
0.456245 0.000000 0.069886
0.491035 0.000000 0.073274
0.525933 0.000000 0.076875
0.560967 0.000000 0.080476
0.595941 0.000000 0.084291
0.630640 0.000000 0.088228
0.665095 0.000000 0.092226
0.699245 0.000000 0.096620
0.732967 0.000000 0.101625
0.766262 0.000000 0.106722
0.798978 0.000000 0.112123
0.831022 0.000000 0.118013
0.862272 0.000000 0.124331
0.892729 0.000000 0.131289
0.922454 0.000000 0.138705
0.951476 0.000000 0.146700
0.979858 0.000000 0.155489
1.000000 0.000000 0.164981
0.068849 0.105165 0.021393
0.079194 0.104799 0.020691
0.091218 0.104250 0.019745
0.112581 0.102815 0.020996
0.137423 0.098756 0.025208
0.166903 0.096956 0.027741
0.196475 0.091279 0.032349
0.226688 0.084291 0.037812
0.257603 0.074128 0.043183
0.289189 0.059937 0.047852
0.321569 0.020630 0.052003
0.354559 0.000000 0.057435
0.388006 0.000000 0.060639
0.422034 0.000000 0.064271
0.456428 0.000000 0.067414
0.491157 0.000000 0.070954
0.526055 0.000000 0.074647
0.561120 0.000000 0.078279
0.596063 0.000000 0.082185
0.630701 0.000000 0.086305
0.665126 0.000000 0.090333
0.699306 0.000000 0.094881
0.733028 0.000000 0.099733
0.766262 0.000000 0.105165
0.799008 0.000000 0.110475
0.831022 0.000000 0.116274
0.862303 0.000000 0.122713
0.892760 0.000000 0.129793
0.922454 0.000000 0.137148
0.951476 0.000000 0.145266
0.979858 0.000000 0.153872
1.000000 0.000000 0.163516
0.080842 0.135744 0.006500
0.089631 0.135286 0.005890
0.100191 0.134890 0.004944
0.119234 0.133516 0.006439
0.143343 0.131807 0.009888
0.167483 0.126223 0.015473
0.197086 0.125368 0.018524
0.227359 0.121920 0.023377
0.258122 0.116152 0.030762
0.289616 0.109224 0.036530
0.321935 0.099855 0.041993
0.354894 0.088136 0.049195
0.388342 0.071382 0.054841
0.422339 0.032715 0.060182
0.456611 0.000000 0.063508
0.491310 0.000000 0.067140
0.526238 0.000000 0.071107
0.561273 0.000000 0.074556
0.596216 0.000000 0.078614
0.630884 0.000000 0.082643
0.665278 0.000000 0.086854
0.699428 0.000000 0.091554
0.733120 0.000000 0.096651
0.766384 0.000000 0.102052
0.799039 0.000000 0.107546
0.831052 0.000000 0.113771
0.862303 0.000000 0.120150
0.892760 0.000000 0.127321
0.922454 0.000000 0.134859
0.951446 0.000000 0.142855
0.979828 0.000000 0.151797
1.000000 0.000000 0.161349
0.094453 0.166171 0.000000
0.101808 0.165805 0.000000
0.110780 0.165225 0.000000
0.127535 0.164218 0.000000
0.149569 0.162844 0.000000
0.174350 0.161257 0.000000
0.197543 0.154726 0.004608
0.227634 0.154299 0.009186
0.258793 0.153689 0.013123
0.290135 0.149020 0.020966
0.322423 0.143587 0.027039
0.355291 0.136660 0.034821
0.388678 0.128145 0.043122
0.422675 0.117525 0.050538
0.456947 0.103975 0.056519
0.491676 0.084810 0.061372
0.526543 0.052888 0.065644
0.561486 0.000000 0.069306
0.596429 0.000000 0.073640
0.631037 0.000000 0.077638
0.665400 0.000000 0.082429
0.699550 0.000000 0.087160
0.733242 0.000000 0.092256
0.766445 0.000000 0.097963
0.799130 0.000000 0.103517
0.831083 0.000000 0.109804
0.862333 0.000000 0.116487
0.892760 0.000000 0.123751
0.922423 0.000000 0.131380
0.951476 0.000000 0.139712
0.979828 0.000000 0.148470
1.000000 0.000000 0.158175
0.108705 0.196201 0.000000
0.114778 0.195804 0.000000
0.122377 0.195468 0.000000
0.137301 0.194553 0.000000
0.157229 0.193484 0.000000
0.180331 0.192142 0.000000
0.205661 0.190799 0.000000
0.227848 0.183536 0.000000
0.258701 0.183749 0.000000
0.290501 0.183993 0.003876
0.322972 0.182315 0.010132
0.355840 0.177829 0.016327
0.389197 0.172274 0.024231
0.423133 0.165591 0.031403
0.457435 0.157229 0.040253
0.492073 0.147402 0.048676
0.526879 0.135195 0.055879
0.561883 0.119509 0.061189
0.596735 0.099184 0.065797
0.631312 0.068849 0.070619
0.665614 0.000000 0.075563
0.699733 0.000000 0.080720
0.733364 0.000000 0.086244
0.766598 0.000000 0.091890
0.799191 0.000000 0.098146
0.831144 0.000000 0.104646
0.862364 0.000000 0.111513
0.892760 0.000000 0.118990
0.922454 0.000000 0.126894
0.951446 0.000000 0.135531
0.979828 0.000000 0.144228
1.000000 0.000000 0.153994
0.123812 0.226017 0.000000
0.128603 0.225711 0.000000
0.135225 0.225528 0.000000
0.148287 0.224796 0.000000
0.166506 0.223728 0.000000
0.187808 0.222843 0.000000
0.211582 0.221805 0.000000
0.237217 0.220737 0.000000
0.258701 0.212894 0.000000
0.290349 0.213779 0.000000
0.322972 0.214572 0.000000
0.356420 0.215213 0.000000
0.389837 0.211856 0.000000
0.423713 0.207248 0.006622
0.457984 0.201602 0.014862
0.492531 0.194919 0.022461
0.527367 0.186770 0.031708
0.562280 0.177188 0.042420
0.597101 0.165896 0.052033
0.631617 0.152132 0.060456
0.665888 0.135500 0.066346
0.699916 0.114534 0.072236
0.733577 0.085451 0.077852
0.766720 0.007935 0.084535
0.799313 0.000000 0.090608
0.831235 0.000000 0.097688
0.862394 0.000000 0.105226
0.892821 0.000000 0.112612
0.922423 0.000000 0.121065
0.951415 0.000000 0.129580
0.979797 0.000000 0.139101
1.000000 0.000000 0.148928
0.139223 0.255955 0.000000
0.143557 0.255772 0.000000
0.149203 0.255619 0.000000
0.160739 0.255009 0.000000
0.177157 0.254276 0.000000
0.196689 0.253147 0.000000
0.219028 0.252750 0.000000
0.243381 0.252140 0.000000
0.269444 0.251408 0.000000
0.290196 0.243015 0.000000
0.322637 0.244297 0.000000
0.355871 0.245548 0.000000
0.390021 0.246738 0.000000
0.424506 0.246250 0.000000
0.458564 0.242283 0.000000
0.493141 0.237400 0.000000
0.527916 0.231601 0.000366
0.562829 0.224887 0.009430
0.597559 0.216678 0.020661
0.631983 0.207248 0.033753
0.666194 0.196567 0.047333
0.700221 0.183993 0.058900
0.733791 0.169375 0.066285
0.766903 0.152193 0.073487
0.799435 0.131533 0.080903
0.831327 0.104219 0.088533
0.862455 0.064149 0.096712
0.892790 0.000000 0.104891
0.922423 0.000000 0.113527
0.951446 0.000000 0.122560
0.979767 0.000000 0.132265
1.000000 0.000000 0.142275
0.154971 0.286290 0.000000
0.158633 0.286137 0.000000
0.163546 0.285954 0.000000
0.173892 0.285649 0.000000
0.188846 0.284947 0.000000
0.206912 0.284154 0.000000
0.227726 0.283452 0.000000
0.250767 0.283146 0.000000
0.275761 0.282902 0.000000
0.302220 0.282506 0.000000
0.322087 0.273533 0.000000
0.355413 0.275090 0.000000
0.389288 0.276829 0.000000
0.423835 0.278355 0.000000
0.459022 0.279515 0.000000
0.493874 0.277348 0.000000
0.528618 0.273075 0.000000
0.563439 0.267857 0.000000
0.598047 0.261875 0.000000
0.632380 0.254582 0.000000
0.666590 0.246555 0.006317
0.700496 0.237308 0.021942
0.734066 0.226719 0.039704
0.767086 0.214939 0.056458
0.799588 0.201724 0.066987
0.831418 0.186740 0.076356
0.862547 0.169802 0.085176
0.892882 0.150118 0.094423
0.922484 0.126650 0.103975
0.951385 0.096773 0.113436
0.979736 0.039216 0.123537
1.000000 0.000000 0.134127
0.170291 0.316960 0.000000
0.173678 0.316899 0.000000
0.178256 0.316808 0.000000
0.187411 0.316472 0.000000
0.201022 0.315953 0.000000
0.217899 0.315312 0.000000
0.237400 0.314519 0.000000
0.259129 0.314336 0.000000
0.283085 0.314305 0.000000
0.308751 0.314366 0.000000
0.335637 0.314305 0.000000
0.354559 0.304448 0.000000
0.388525 0.306279 0.000000
0.422980 0.308415 0.000000
0.458076 0.310307 0.000000
0.493568 0.311772 0.000000
0.529351 0.312383 0.000000
0.564111 0.308507 0.000000
0.598627 0.303716 0.000000
0.632929 0.297978 0.000000
0.667018 0.291569 0.000000
0.700893 0.284123 0.000000
0.734401 0.275944 0.000000
0.767361 0.266697 0.010712
0.799771 0.256596 0.032990
0.831571 0.245335 0.056825
0.862608 0.232914 0.069123
0.892882 0.219577 0.080507
0.922484 0.204898 0.091096
0.951385 0.188724 0.101717
0.979736 0.171267 0.112825
1.000000 0.152010 0.124086
0.185946 0.347936 0.000000
0.188907 0.347875 0.000000
0.193027 0.347723 0.000000
0.201236 0.347509 0.000000
0.213931 0.347173 0.000000
0.229465 0.346593 0.000000
0.247868 0.346014 0.000000
0.268254 0.345373 0.000000
0.291203 0.345647 0.000000
0.315892 0.345922 0.000000
0.342016 0.346136 0.000000
0.369574 0.346441 0.000000
0.387457 0.335729 0.000000
0.422095 0.337804 0.000000
0.456977 0.340246 0.000000
0.492317 0.342351 0.000000
0.528191 0.344182 0.000000
0.564233 0.345495 0.000000
0.599268 0.343786 0.000000
0.633509 0.339178 0.000000
0.667536 0.333837 0.000000
0.701289 0.327764 0.000000
0.734707 0.320867 0.000000
0.767605 0.313207 0.000000
0.799985 0.304723 0.000000
0.831693 0.295567 0.001801
0.862699 0.285527 0.030915
0.892943 0.274632 0.059236
0.922484 0.263127 0.073487
0.951385 0.250767 0.086061
0.979706 0.237919 0.098756
1.000000 0.224308 0.110872
0.201328 0.379095 0.000000
0.203983 0.379126 0.000000
0.207767 0.378973 0.000000
0.215427 0.378759 0.000000
0.226932 0.378515 0.000000
0.241611 0.378058 0.000000
0.258885 0.377600 0.000000
0.278416 0.376959 0.000000
0.300053 0.376776 0.000000
0.323583 0.377386 0.000000
0.348943 0.377874 0.000000
0.375677 0.378271 0.000000
0.403754 0.378851 0.000000
0.420905 0.367529 0.000000
0.455787 0.369451 0.000000
0.491035 0.372198 0.000000
0.526696 0.374578 0.000000
0.562676 0.376532 0.000000
0.598505 0.377752 0.000000
0.634089 0.378424 0.000000
0.668116 0.374334 0.000000
0.701808 0.369146 0.000000
0.735073 0.363348 0.000000
0.767941 0.356725 0.000000
0.800259 0.349462 0.000000
0.831876 0.341497 0.000000
0.862821 0.332769 0.000000
0.893004 0.323552 0.000000
0.922484 0.313512 0.032227
0.951385 0.303044 0.063447
0.979675 0.292119 0.078950
1.000000 0.280827 0.093660
0.216770 0.410437 0.000000
0.219333 0.410437 0.000000
0.222568 0.410315 0.000000
0.229618 0.410224 0.000000
0.240391 0.409918 0.000000
0.254063 0.409583 0.000000
0.270420 0.409186 0.000000
0.289036 0.408698 0.000000
0.309331 0.408026 0.000000
0.332067 0.408545 0.000000
0.356451 0.409277 0.000000
0.382452 0.409979 0.000000
0.409674 0.410773 0.000000
0.438239 0.411597 0.000000
0.456428 0.401221 0.000000
0.489723 0.401251 0.000000
0.525170 0.404242 0.000000
0.561089 0.406775 0.000000
0.596826 0.408637 0.000000
0.632441 0.409857 0.000000
0.667781 0.410529 0.000000
0.702327 0.409094 0.000000
0.735531 0.403967 0.000000
0.768276 0.398230 0.000000
0.800534 0.391760 0.000000
0.832090 0.384649 0.000000
0.862943 0.376867 0.000000
0.893065 0.368536 0.000000
0.922545 0.359625 0.000000
0.951385 0.350286 0.000000
0.979644 0.340581 0.037415
1.000000 0.330510 0.067994
0.232181 0.441840 0.000000
0.234318 0.441871 0.000000
0.237552 0.441688 0.000000
0.244083 0.441627 0.000000
0.254063 0.441413 0.000000
0.267033 0.441199 0.000000
0.282506 0.440833 0.000000
0.300053 0.440406 0.000000
0.319585 0.439948 0.000000
0.341070 0.439643 0.000000
0.364569 0.440467 0.000000
0.389593 0.441413 0.000000
0.415991 0.442420 0.000000
0.443885 0.443427 0.000000
0.472908 0.444465 0.000000
0.492195 0.435096 0.000000
0.523613 0.433173 0.000000
0.559319 0.436286 0.000000
0.595087 0.438788 0.000000
0.630732 0.440650 0.000000
0.666133 0.441749 0.000000
0.701198 0.442329 0.000000
0.735683 0.442420 0.000000
0.768673 0.438331 0.000000
0.800809 0.432410 0.000000
0.832303 0.426001 0.000000
0.863096 0.418891 0.000000
0.893187 0.411292 0.000000
0.922606 0.403021 0.000000
0.951385 0.394507 0.000000
0.979644 0.385504 0.000000
1.000000 0.376165 0.000000
0.247288 0.473335 0.000000
0.249607 0.473304 0.000000
0.252354 0.473243 0.000000
0.258457 0.473152 0.000000
0.267826 0.472908 0.000000
0.280125 0.472724 0.000000
0.294682 0.472450 0.000000
0.311559 0.472084 0.000000
0.330297 0.471656 0.000000
0.350591 0.471229 0.000000
0.373083 0.471534 0.000000
0.397314 0.472633 0.000000
0.422919 0.473732 0.000000
0.449928 0.474922 0.000000
0.478157 0.476112 0.000000
0.507622 0.477363 0.000000
0.527916 0.468940 0.000000
0.557427 0.465309 0.000000
0.593317 0.468238 0.000000
0.628962 0.470649 0.000000
0.664363 0.472419 0.000000
0.699489 0.473487 0.000000
0.734066 0.473884 0.000000
0.768124 0.473579 0.000000
0.801144 0.472053 0.000000
0.832578 0.466072 0.000000
0.863279 0.459419 0.000000
0.893278 0.452277 0.000000
0.922606 0.444648 0.000000
0.951385 0.436530 0.000000
0.979614 0.428016 0.000000
1.000000 0.419257 0.000000
0.262791 0.504723 0.000000
0.264622 0.504723 0.000000
0.267308 0.504662 0.000000
0.273106 0.504631 0.000000
0.281865 0.504479 0.000000
0.293370 0.504356 0.000000
0.307164 0.504082 0.000000
0.323308 0.503716 0.000000
0.341253 0.503380 0.000000
0.360906 0.502983 0.000000
0.382055 0.502434 0.000000
0.405402 0.503593 0.000000
0.430243 0.504784 0.000000
0.456428 0.506096 0.000000
0.483894 0.507439 0.000000
0.512505 0.508873 0.000000
0.542321 0.510369 0.000000
0.563806 0.502922 0.000000
0.591211 0.497444 0.000000
0.627100 0.500114 0.000000
0.662562 0.502403 0.000000
0.697719 0.503960 0.000000
0.732387 0.504784 0.000000
0.766445 0.504967 0.000000
0.799863 0.504417 0.000000
0.832395 0.503197 0.000000
0.863432 0.498848 0.000000
0.893370 0.492103 0.000000
0.922667 0.484810 0.000000
0.951415 0.477089 0.000000
0.979614 0.469001 0.000000
1.000000 0.460548 0.000000
0.277867 0.536217 0.000000
0.279789 0.536156 0.000000
0.282292 0.536156 0.000000
0.287816 0.536065 0.000000
0.295995 0.535943 0.000000
0.306859 0.535851 0.000000
0.320012 0.535637 0.000000
0.335332 0.535424 0.000000
0.352667 0.535149 0.000000
0.371527 0.534813 0.000000
0.391974 0.534447 0.000000
0.414130 0.534661 0.000000
0.438209 0.535943 0.000000
0.463722 0.537377 0.000000
0.490364 0.538872 0.000000
0.518181 0.540368 0.000000
0.547234 0.541985 0.000000
0.577325 0.543572 0.000000
0.599664 0.536919 0.000000
0.624811 0.529442 0.000000
0.660670 0.531792 0.000000
0.695888 0.533867 0.000000
0.730648 0.535210 0.000000
0.764828 0.535790 0.000000
0.798306 0.535546 0.000000
0.830930 0.534691 0.000000
0.862638 0.533074 0.000000
0.893462 0.530846 0.000000
0.922698 0.523980 0.000000
0.951415 0.516503 0.000000
0.979583 0.508659 0.000000
1.000000 0.500450 0.000000
0.293309 0.567956 0.000000
0.294957 0.567926 0.000000
0.297398 0.567895 0.000000
0.302403 0.567864 0.000000
0.310277 0.567773 0.000000
0.320531 0.567681 0.000000
0.333227 0.567559 0.000000
0.347753 0.567376 0.000000
0.364446 0.567193 0.000000
0.382666 0.566918 0.000000
0.402441 0.566644 0.000000
0.423590 0.566308 0.000000
0.446723 0.567224 0.000000
0.471382 0.568627 0.000000
0.497322 0.570153 0.000000
0.524407 0.571679 0.000000
0.552575 0.573297 0.000000
0.581811 0.574945 0.000000
0.612146 0.576654 0.000000
0.635431 0.570764 0.000000
0.658289 0.561334 0.000000
0.694026 0.563287 0.000000
0.728847 0.565057 0.000000
0.763088 0.566064 0.000000
0.796658 0.566247 0.000000
0.829465 0.565637 0.000000
0.861326 0.564294 0.000000
0.892271 0.562280 0.000000
0.922332 0.559747 0.000000
0.951415 0.554986 0.000000
0.979583 0.547356 0.000000
1.000000 0.539330 0.000000
0.308476 0.599756 0.000000
0.310155 0.599756 0.000000
0.312444 0.599725 0.000000
0.317174 0.599725 0.000000
0.324681 0.599664 0.000000
0.334447 0.599573 0.000000
0.346441 0.599420 0.000000
0.360449 0.599359 0.000000
0.376349 0.599176 0.000000
0.394018 0.598962 0.000000
0.413245 0.598779 0.000000
0.433753 0.598535 0.000000
0.455604 0.598444 0.000000
0.479561 0.599908 0.000000
0.504723 0.601373 0.000000
0.531029 0.602899 0.000000
0.558465 0.604547 0.000000
0.586938 0.606165 0.000000
0.616388 0.607874 0.000000
0.646876 0.609583 0.000000
0.670985 0.604395 0.000000
0.691432 0.593042 0.000000
0.727016 0.594476 0.000000
0.761349 0.595911 0.000000
0.795041 0.596490 0.000000
0.827939 0.596246 0.000000
0.859922 0.595178 0.000000
0.891051 0.593378 0.000000
0.921294 0.590936 0.000000
0.950774 0.588006 0.000000
0.979461 0.584558 0.000000
1.000000 0.577447 0.000000
0.323613 0.631617 0.000000
0.325200 0.631617 0.000000
0.327367 0.631617 0.000000
0.332006 0.631556 0.000000
0.339055 0.631495 0.000000
0.348394 0.631434 0.000000
0.359747 0.631403 0.000000
0.373236 0.631281 0.000000
0.388556 0.631189 0.000000
0.405585 0.631006 0.000000
0.424170 0.630884 0.000000
0.444129 0.630701 0.000000
0.465339 0.630518 0.000000
0.488106 0.631037 0.000000
0.512505 0.632471 0.000000
0.538079 0.634058 0.000000
0.564782 0.635615 0.000000
0.592523 0.637263 0.000000
0.621149 0.638911 0.000000
0.650782 0.640558 0.000000
0.681300 0.642267 0.000000
0.706172 0.637781 0.000000
0.724361 0.624414 0.000000
0.759579 0.625238 0.000000
0.793362 0.626276 0.000000
0.826413 0.626429 0.000000
0.858518 0.625635 0.000000
0.889799 0.624109 0.000000
0.920256 0.621851 0.000000
0.949859 0.619074 0.000000
0.978759 0.615717 0.000000
1.000000 0.611872 0.000000
0.338781 0.663508 0.000000
0.340215 0.663508 0.000000
0.342229 0.663447 0.000000
0.346593 0.663447 0.000000
0.353338 0.663416 0.000000
0.362249 0.663386 0.000000
0.373236 0.663325 0.000000
0.386114 0.663264 0.000000
0.400946 0.663172 0.000000
0.417365 0.663050 0.000000
0.435340 0.662989 0.000000
0.454780 0.662837 0.000000
0.475410 0.662684 0.000000
0.497108 0.662470 0.000000
0.520684 0.663661 0.000000
0.545586 0.665126 0.000000
0.571496 0.666651 0.000000
0.598505 0.668208 0.000000
0.626368 0.669856 0.000000
0.655238 0.671443 0.000000
0.684962 0.673060 0.000000
0.715511 0.674678 0.000000
0.741146 0.670893 0.000000
0.756893 0.655573 0.000000
0.791684 0.655665 0.000000
0.824826 0.656214 0.000000
0.857115 0.655787 0.000000
0.888548 0.654536 0.000000
0.919127 0.652522 0.000000
0.948974 0.649866 0.000000
0.978058 0.646632 0.000000
1.000000 0.642847 0.000000
0.353735 0.695369 0.000000
0.355169 0.695369 0.000000
0.357031 0.695399 0.000000
0.361242 0.695338 0.000000
0.367651 0.695338 0.000000
0.376196 0.695308 0.000000
0.386725 0.695277 0.000000
0.399054 0.695216 0.000000
0.413336 0.695186 0.000000
0.429206 0.695094 0.000000
0.446662 0.695033 0.000000
0.465522 0.694942 0.000000
0.485573 0.694820 0.000000
0.506767 0.694667 0.000000
0.529290 0.694881 0.000000
0.553491 0.696284 0.000000
0.578729 0.697688 0.000000
0.604913 0.699153 0.000000
0.632105 0.700679 0.000000
0.660182 0.702205 0.000000
0.689113 0.703761 0.000000
0.718807 0.705226 0.000000
0.749325 0.706752 0.000000
0.775570 0.703548 0.000000
0.788998 0.686275 0.000000
0.823178 0.685695 0.000000
0.855680 0.685573 0.000000
0.887266 0.684657 0.000000
0.918059 0.682887 0.000000
0.948089 0.680415 0.000000
0.977386 0.677302 0.000000
1.000000 0.673671 0.000000
0.368719 0.727321 0.000000
0.370001 0.727321 0.000000
0.371801 0.727291 0.000000
0.375799 0.727260 0.000000
0.381933 0.727291 0.000000
0.390051 0.727260 0.000000
0.400183 0.727230 0.000000
0.412146 0.727199 0.000000
0.425910 0.727169 0.000000
0.441291 0.727108 0.000000
0.458106 0.727047 0.000000
0.476417 0.726955 0.000000
0.495918 0.726894 0.000000
0.516625 0.726772 0.000000
0.538415 0.726650 0.000000
0.561639 0.727413 0.000000
0.586236 0.728725 0.000000
0.611749 0.730068 0.000000
0.638209 0.731472 0.000000
0.665522 0.732876 0.000000
0.693660 0.734310 0.000000
0.722652 0.735683 0.000000
0.752316 0.737087 0.000000
0.782773 0.738369 0.000000
0.809567 0.735714 0.000000
0.820676 0.716548 0.000000
0.854124 0.715358 0.000000
0.886015 0.714473 0.000000
0.917021 0.713008 0.000000
0.947204 0.710750 0.000000
0.976684 0.707881 0.000000
1.000000 0.704311 0.000000
0.383459 0.759182 0.000000
0.384710 0.759182 0.000000
0.386481 0.759213 0.000000
0.390204 0.759182 0.000000
0.396155 0.759152 0.000000
0.403998 0.759152 0.000000
0.413642 0.759152 0.000000
0.425147 0.759152 0.000000
0.438453 0.759091 0.000000
0.453346 0.759060 0.000000
0.469703 0.759030 0.000000
0.487434 0.758968 0.000000
0.506493 0.758907 0.000000
0.526665 0.758816 0.000000
0.547936 0.758724 0.000000
0.570184 0.758602 0.000000
0.594079 0.759792 0.000000
0.618921 0.761013 0.000000
0.644648 0.762264 0.000000
0.671290 0.763546 0.000000
0.698695 0.764797 0.000000
0.726864 0.766049 0.000000
0.755795 0.767239 0.000000
0.785367 0.768460 0.000000
0.815640 0.769558 0.000000
0.843046 0.767391 0.000000
0.852293 0.746761 0.000000
0.884581 0.744533 0.000000
0.915984 0.742824 0.000000
0.946380 0.740871 0.000000
0.976043 0.738247 0.000000
1.000000 0.734859 0.000000
0.397986 0.791043 0.000000
0.399207 0.791073 0.000000
0.400916 0.791073 0.000000
0.404547 0.791073 0.000000
0.410193 0.791043 0.000000
0.417700 0.791073 0.000000
0.427008 0.791043 0.000000
0.438148 0.791012 0.000000
0.450996 0.790982 0.000000
0.465370 0.790951 0.000000
0.481239 0.790921 0.000000
0.498543 0.790890 0.000000
0.517052 0.790829 0.000000
0.536797 0.790738 0.000000
0.557549 0.790677 0.000000
0.579278 0.790585 0.000000
0.602197 0.790890 0.000000
0.626368 0.791958 0.000000
0.651484 0.793057 0.000000
0.677424 0.794156 0.000000
0.704097 0.795254 0.000000
0.731533 0.796353 0.000000
0.759701 0.797391 0.000000
0.788510 0.798428 0.000000
0.817990 0.799405 0.000000
0.848020 0.800259 0.000000
0.876005 0.798581 0.000000
0.884977 0.777798 0.000000
0.914641 0.773342 0.000000
0.945556 0.770871 0.000000
0.975463 0.768460 0.000000
1.000000 0.765316 0.000000
0.412390 0.822843 0.000000
0.413519 0.822843 0.000000
0.415229 0.822843 0.000000
0.418616 0.822843 0.000000
0.424109 0.822812 0.000000
0.431342 0.822843 0.000000
0.440375 0.822812 0.000000
0.451026 0.822782 0.000000
0.463478 0.822782 0.000000
0.477424 0.822751 0.000000
0.492836 0.822721 0.000000
0.509606 0.822690 0.000000
0.527672 0.822660 0.000000
0.546868 0.822599 0.000000
0.567193 0.822507 0.000000
0.588464 0.822385 0.000000
0.610712 0.822293 0.000000
0.634119 0.822965 0.000000
0.658564 0.823911 0.000000
0.683833 0.824826 0.000000
0.709865 0.825742 0.000000
0.736629 0.826688 0.000000
0.764096 0.827543 0.000000
0.792203 0.828428 0.000000
0.820920 0.829191 0.000000
0.850217 0.829923 0.000000
0.880125 0.830564 0.000000
0.908537 0.829343 0.000000
0.917266 0.808408 0.000000
0.944427 0.801785 0.000000
0.974884 0.798550 0.000000
1.000000 0.795651 0.000000
0.426581 0.854490 0.000000
0.427680 0.854520 0.000000
0.429175 0.854490 0.000000
0.432532 0.854490 0.000000
0.437751 0.854490 0.000000
0.444709 0.854490 0.000000
0.453407 0.854490 0.000000
0.463752 0.854490 0.000000
0.475776 0.854459 0.000000
0.489357 0.854429 0.000000
0.504265 0.854398 0.000000
0.520623 0.854368 0.000000
0.538262 0.854337 0.000000
0.557000 0.854276 0.000000
0.576806 0.854215 0.000000
