其他预设/【213】赛博朋克科幻预设52款/1.LUT预设（视频调色-PR-AE-PS-FCPX-达芬奇用）/赛博朋克科幻__-5 强度3.cube
# Created by Adobe Lightroom plugin Export LUT (1.17.0)
# www.johnrellis.com/lightroom/exportlut.htm
# Preset: 赛博朋克科幻[素锦印象]-5 强度3
# Color profile: /Library/Application Support/Adobe/Color/Profiles/Recommended/AdobeRGB1998.icc
LUT_3D_SIZE 8
DOMAIN_MIN 0.000000 0.000000 0.000000
DOMAIN_MAX 0.903226 0.903226 0.903226
0.062257 0.060975 0.050752
0.119417 0.040986 0.071931
0.230350 0.000000 0.110719
0.399512 0.000000 0.176303
0.593164 0.000000 0.256962
0.751095 0.000000 0.328099
0.877989 0.000000 0.389929
0.984314 0.000000 0.447150
0.000000 0.136538 0.097993
0.106905 0.120119 0.053498
0.229709 0.000000 0.081422
0.397986 0.000000 0.164523
0.591669 0.000000 0.256321
0.750546 0.000000 0.327825
0.877958 0.000000 0.389899
0.984436 0.000000 0.447181
0.000000 0.305638 0.205203
0.000000 0.287053 0.173983
0.202060 0.238193 0.018372
0.393286 0.074403 0.059876
0.593347 0.000000 0.157778
0.752773 0.000000 0.269718
0.880034 0.000000 0.357000
0.984955 0.000000 0.447486
0.000000 0.553368 0.383459
0.000000 0.539330 0.356420
0.000000 0.491066 0.241093
0.351049 0.421241 0.000000
0.583093 0.258854 0.000000
0.755856 0.000000 0.050904
0.886595 0.000000 0.231083
0.993011 0.000000 0.339574
0.000000 0.754330 0.555077
0.000000 0.747768 0.536126
0.000000 0.721035 0.458534
0.000000 0.675074 0.272892
0.504875 0.607813 0.000000
0.743954 0.418738 0.000000
0.882231 0.106935 0.048402
1.000000 0.000000 0.123781
0.000000 0.881041 0.674311
0.000000 0.878050 0.661891
0.000000 0.865965 0.613336
0.000000 0.840757 0.502556
0.000000 0.806943 0.273442
0.626032 0.751797 0.000000
0.872465 0.559533 0.000000
0.987366 0.371801 0.135134
0.000000 0.974273 0.765621
0.000000 0.972961 0.757290
0.000000 0.967498 0.725826
0.000000 0.952758 0.665766
0.000000 0.936522 0.534722
0.000000 0.916960 0.264317
0.729213 0.868406 0.000000
0.978515 0.686275 0.000000
0.000000 1.000000 0.836515
0.000000 1.000000 0.830594
0.000000 1.000000 0.809140
0.000000 1.000000 0.773495
0.192050 1.000000 0.725704
0.167239 1.000000 0.586053
0.204105 1.000000 0.265537
0.825406 0.966583 0.167819
0.041993 0.069459 0.095796
0.111910 0.032013 0.100801
0.237339 0.000000 0.147616
0.408331 0.000000 0.217166
0.597772 0.000000 0.289891
0.752346 0.000000 0.347662
0.877958 0.000000 0.390356
0.984680 0.000000 0.447364
0.033051 0.109987 0.103883
0.115145 0.112093 0.094362
0.227420 0.060426 0.126986
0.399512 0.000000 0.195071
0.595453 0.000000 0.283665
0.752682 0.000000 0.353979
0.878233 0.000000 0.395544
0.984833 0.000000 0.447395
0.000000 0.298070 0.218235
0.000000 0.275822 0.188907
0.203372 0.231418 0.084779
0.394720 0.016175 0.097444
0.591699 0.000000 0.195346
0.751400 0.000000 0.293889
0.879026 0.000000 0.374487
0.985382 0.000000 0.447700
0.000000 0.548394 0.395850
0.000000 0.532616 0.368719
0.000000 0.484718 0.261570
0.351141 0.416297 0.000000
0.582818 0.250126 0.073915
0.756802 0.000000 0.099245
0.885649 0.000000 0.258824
0.992218 0.000000 0.358404
0.000000 0.752377 0.566766
0.000000 0.745937 0.548516
0.000000 0.719600 0.474098
0.000000 0.672633 0.293248
0.505699 0.605097 0.000000
0.743862 0.414893 0.000000
0.882750 0.090028 0.106569
1.000000 0.000000 0.174014
0.000000 0.880613 0.683986
0.000000 0.877653 0.672023
0.000000 0.865629 0.624781
0.000000 0.839261 0.518883
0.000000 0.805722 0.294652
0.628016 0.750332 0.000000
0.872221 0.558679 0.000000
0.987274 0.374670 0.170718
0.000000 0.974365 0.773434
0.000000 0.973083 0.765255
0.000000 0.967590 0.734463
0.000000 0.952728 0.675746
0.000000 0.935241 0.550408
0.000000 0.915282 0.295995
0.731746 0.867491 0.000000
0.978058 0.687129 0.122164
0.000000 1.000000 0.842557
0.000000 1.000000 0.836759
0.000000 1.000000 0.815549
0.000000 1.000000 0.780270
0.251408 1.000000 0.737636
0.227665 1.000000 0.601068
0.245518 1.000000 0.300389
0.828244 0.965911 0.208347
0.000000 0.099153 0.190066
0.016663 0.051057 0.182712
0.216464 0.000000 0.194797
0.413947 0.000000 0.294438
0.610132 0.000000 0.380377
0.762173 0.000000 0.438514
0.882658 0.000000 0.463905
0.986938 0.000000 0.476265
0.000000 0.148989 0.196323
0.060182 0.111299 0.187503
0.213565 0.010193 0.190585
0.411749 0.000000 0.283970
0.609247 0.000000 0.369390
0.761288 0.000000 0.433967
0.882872 0.000000 0.468208
0.987121 0.000000 0.479866
0.000000 0.231540 0.218112
0.000000 0.222843 0.206607
0.220829 0.213840 0.172580
0.397955 0.141115 0.224277
0.593591 0.000000 0.302129
0.752712 0.000000 0.375494
0.880766 0.000000 0.439429
0.987823 0.000000 0.492592
0.000000 0.524315 0.432349
0.000000 0.519493 0.416876
0.000000 0.478889 0.336400
0.357366 0.402106 0.154757
0.587579 0.220279 0.180606
0.753506 0.000000 0.251102
0.881590 0.000000 0.348119
0.988525 0.000000 0.425940
0.000000 0.755306 0.617060
0.000000 0.747494 0.599115
0.000000 0.718685 0.530205
0.000000 0.665766 0.369421
0.511742 0.595972 0.118227
0.742947 0.407019 0.184146
0.883940 0.067475 0.210025
0.996368 0.000000 0.294316
0.000000 0.882261 0.721584
0.000000 0.878660 0.709834
0.000000 0.865660 0.665888
0.000000 0.836393 0.574975
0.000000 0.801022 0.369604
0.636316 0.745083 0.112703
0.870726 0.559380 0.201602
0.986511 0.390112 0.263951
0.000000 0.975463 0.801846
0.000000 0.974029 0.794095
0.000000 0.968353 0.765286
0.000000 0.953307 0.710353
0.139284 0.930541 0.606195
0.157839 0.910582 0.379034
0.741512 0.864164 0.181186
0.975860 0.691920 0.257023
0.000000 1.000000 0.864347
0.000000 1.000000 0.858854
0.000000 1.000000 0.838499
0.000000 1.000000 0.803861
0.348150 1.000000 0.772427
0.360754 1.000000 0.651575
0.350011 1.000000 0.401709
0.838132 0.963561 0.310918
0.000000 0.163912 0.380529
0.000000 0.092012 0.370184
0.175265 0.000000 0.332250
0.388708 0.000000 0.359625
0.606561 0.000000 0.485115
0.760311 0.000000 0.537255
0.887327 0.000000 0.561456
0.990967 0.000000 0.554589
0.000000 0.196109 0.384344
0.000000 0.144869 0.374945
0.162509 0.000000 0.338537
0.385046 0.000000 0.357488
0.605005 0.000000 0.483864
0.759121 0.000000 0.541009
0.886748 0.000000 0.566033
0.991211 0.000000 0.556481
0.000000 0.332128 0.411536
0.000000 0.318883 0.401923
0.116945 0.211063 0.356573
0.379004 0.063935 0.343389
0.603418 0.000000 0.449744
0.760678 0.000000 0.503136
0.888334 0.000000 0.547448
0.991821 0.000000 0.566064
0.000000 0.438972 0.437934
0.000000 0.430457 0.426246
0.000000 0.403632 0.385229
0.387701 0.375921 0.306767
0.586206 0.307103 0.365850
0.747127 0.184817 0.426947
0.877928 0.000000 0.480964
0.988128 0.000000 0.525200
0.000000 0.691188 0.644953
0.000000 0.691829 0.637049
0.000000 0.695857 0.607904
0.215854 0.662654 0.505760
0.532067 0.579034 0.299535
0.741024 0.414618 0.331487
0.878721 0.256382 0.371740
0.985931 0.125307 0.452949
0.000000 0.870573 0.774289
0.000000 0.873198 0.770535
0.000000 0.870054 0.742519
0.000000 0.839811 0.661830
0.343145 0.791714 0.502220
0.655726 0.735256 0.309880
0.865721 0.571466 0.358984
0.983856 0.426856 0.386175
0.000000 0.978149 0.854307
0.000000 0.976776 0.847410
0.000000 0.971069 0.821592
0.000000 0.956359 0.771176
0.389288 0.923369 0.698878
0.386175 0.902434 0.504570
0.760067 0.858030 0.350713
0.970672 0.704219 0.403296
0.000000 1.000000 0.904082
0.000000 1.000000 0.899107
0.000000 1.000000 0.880583
0.000000 1.000000 0.846098
0.314336 1.000000 0.810086
0.500053 1.000000 0.729946
0.469154 0.996216 0.537407
0.853910 0.959594 0.434272
0.000000 0.230320 0.608942
0.000000 0.177096 0.601556
0.000000 0.000000 0.572473
0.335485 0.000000 0.519097
0.562188 0.000000 0.555108
0.752255 0.000000 0.661616
0.879942 0.000000 0.678309
0.990570 0.000000 0.666712
0.000000 0.241337 0.611902
0.000000 0.194461 0.604944
0.000000 0.000000 0.577325
0.332494 0.000000 0.525292
0.558221 0.000000 0.555962
0.749783 0.000000 0.662623
0.879393 0.000000 0.682002
0.990692 0.000000 0.668299
0.000000 0.399695 0.631434
0.000000 0.373754 0.617548
0.000000 0.243137 0.591058
0.289494 0.083223 0.538323
0.553887 0.000000 0.546715
0.750729 0.000000 0.652033
0.879637 0.000000 0.680018
0.991241 0.000000 0.672602
0.000000 0.511681 0.642298
0.000000 0.505974 0.637049
0.000000 0.486732 0.616999
0.305455 0.385504 0.556023
0.553582 0.242191 0.524712
0.751064 0.000000 0.603754
0.884337 0.000000 0.628107
0.995941 0.000000 0.647944
0.000000 0.612451 0.655787
0.000000 0.609308 0.649775
0.000000 0.598932 0.626612
0.294713 0.583093 0.576379
0.566461 0.553033 0.476661
0.731685 0.500008 0.527184
0.865690 0.424018 0.571344
0.979614 0.284550 0.603113
0.000000 0.781796 0.790707
0.000000 0.784207 0.787442
0.000000 0.793668 0.775051
0.000000 0.811643 0.749325
0.468238 0.792325 0.661982
0.683680 0.720729 0.480232
0.858488 0.595880 0.509392
0.976806 0.497749 0.532189
0.000000 0.935698 0.883268
0.000000 0.938720 0.881956
0.000000 0.949584 0.876951
0.000000 0.961303 0.859648
0.368811 0.932921 0.787503
0.561578 0.892882 0.655299
0.783261 0.849546 0.503136
0.963378 0.720760 0.543114
0.000000 1.000000 0.954376
0.000000 1.000000 0.953948
0.000000 1.000000 0.942809
0.000000 1.000000 0.911101
0.095979 1.000000 0.865599
0.626398 0.992615 0.822843
0.597223 0.986908 0.662379
0.871946 0.954650 0.553521
0.000000 0.279362 0.777157
0.000000 0.242802 0.773465
0.000000 0.000000 0.759304
0.129946 0.000000 0.727260
0.467964 0.000000 0.681300
0.687434 0.000000 0.715206
0.863340 0.000000 0.801907
0.980896 0.000000 0.797910
0.000000 0.264591 0.778988
0.000000 0.227451 0.775479
0.000000 0.000000 0.761654
0.131350 0.000000 0.730465
0.466255 0.000000 0.685389
0.684565 0.000000 0.715969
0.861845 0.000000 0.802579
0.980926 0.000000 0.799557
0.000000 0.402014 0.785977
0.000000 0.376654 0.782650
0.000000 0.266972 0.770260
0.000000 0.077821 0.741482
0.448157 0.000000 0.695583
0.680049 0.000000 0.715053
0.857267 0.000000 0.804959
0.981384 0.000000 0.804196
0.000000 0.553155 0.807645
0.000000 0.550774 0.805661
0.000000 0.529870 0.787900
0.171176 0.406989 0.754849
0.431037 0.273045 0.707271
0.682155 0.000000 0.706386
0.870054 0.000000 0.799344
0.983673 0.000000 0.804379
0.000000 0.637171 0.802792
0.000000 0.636255 0.800687
0.000000 0.636255 0.792233
0.341039 0.646204 0.773434
0.539361 0.588922 0.720027
0.696956 0.440436 0.684657
0.870817 0.195285 0.744961
0.991730 0.000000 0.740444
0.000000 0.725612 0.809018
0.000000 0.725399 0.806546
0.000000 0.726070 0.797024
0.227909 0.730739 0.776303
0.534569 0.733577 0.736080
0.711513 0.700130 0.638392
0.847623 0.658350 0.680659
0.962615 0.597223 0.713283
0.000000 0.843931 0.898375
0.000000 0.844907 0.897459
0.000000 0.854154 0.893492
0.000000 0.876219 0.884855
0.418647 0.905028 0.868772
0.655787 0.896574 0.802670
0.807156 0.838071 0.645777
0.955779 0.739864 0.670924
0.000000 0.975647 0.963409
0.000000 0.978424 0.963073
0.000000 0.988769 0.961791
0.000000 1.000000 0.958984
0.000000 1.000000 0.951293
0.584619 1.000000 0.893339
0.722499 0.976989 0.795804
0.891539 0.948302 0.673182
0.000000 0.323796 0.900298
0.000000 0.298955 0.898650
0.000000 0.181186 0.892515
0.000000 0.000000 0.877562
0.285985 0.000000 0.851682
0.577081 0.000000 0.816434
0.787045 0.000000 0.846525
0.957519 0.000000 0.921202
0.000000 0.317296 0.901366
0.000000 0.292821 0.899748
0.000000 0.174777 0.893797
0.000000 0.000000 0.879026
0.281651 0.000000 0.853513
0.574578 0.000000 0.818723
0.785122 0.000000 0.847074
0.956970 0.000000 0.921660
0.000000 0.387854 0.906188
0.000000 0.366186 0.904662
0.000000 0.274113 0.898955
0.000000 0.000000 0.885679
0.245457 0.000000 0.860105
0.565057 0.000000 0.826596
0.778500 0.000000 0.849058
0.955383 0.000000 0.923339
0.000000 0.561669 0.917601
0.000000 0.558160 0.914549
0.000000 0.532677 0.904753
0.000000 0.402350 0.894438
0.219821 0.247318 0.871763
0.544244 0.000000 0.836820
0.776242 0.000000 0.849302
0.954162 0.000000 0.926360
0.000000 0.654475 0.921508
0.000000 0.656733 0.920836
0.000000 0.670680 0.917937
0.431525 0.700069 0.907530
0.501762 0.611841 0.880308
0.584649 0.469123 0.844266
0.787900 0.170260 0.842649
0.969848 0.000000 0.926055
0.000000 0.727169 0.916472
0.000000 0.728603 0.915801
0.000000 0.737026 0.912932
0.336889 0.760983 0.906279
0.611017 0.793790 0.895048
0.722866 0.756680 0.856840
0.816312 0.615869 0.822141
0.971283 0.364263 0.871489
0.000000 0.803616 0.918975
0.000000 0.804593 0.918212
0.000000 0.809720 0.915068
0.067597 0.823331 0.908019
0.524407 0.844144 0.894530
0.719081 0.856321 0.868284
0.829007 0.821408 0.781277
0.946044 0.785306 0.817044
0.000000 0.892393 0.974121
0.000000 0.893400 0.974029
0.000000 0.897734 0.973541
0.000000 0.908263 0.971862
0.298680 0.940185 0.966522
0.619898 0.974121 0.958434
0.796445 0.977874 0.917693
0.911406 0.939849 0.791623
0.000000 0.365057 0.986389
0.000000 0.348058 0.985901
0.000000 0.277348 0.984009
0.000000 0.000000 0.979706
0.000000 0.000000 0.968444
0.400519 0.000000 0.951934
0.669734 0.000000 0.928771
0.872160 0.000000 0.956115
0.000000 0.364843 0.986999
0.000000 0.348180 0.986481
0.000000 0.278630 0.984649
0.000000 0.000000 0.980468
0.000000 0.000000 0.969329
0.395178 0.000000 0.952972
0.667109 0.000000 0.929992
0.871061 0.000000 0.956451
0.000000 0.370886 0.989136
0.000000 0.355108 0.988678
0.000000 0.289494 0.986938
0.000000 0.000000 0.983307
0.000000 0.000000 0.972595
0.373663 0.000000 0.956603
0.657252 0.000000 0.934142
0.867124 0.000000 0.957702
0.000000 0.538994 0.991363
0.000000 0.524254 0.991089
0.000000 0.467048 0.989960
0.000000 0.335546 0.987396
0.000000 0.082795 0.979522
0.315038 0.000000 0.963317
0.637049 0.000000 0.941497
0.860319 0.000000 0.960021
0.000000 0.655390 0.997620
0.000000 0.660487 0.997284
0.000000 0.675471 0.993439
0.450599 0.701259 0.983124
0.332403 0.559899 0.980499
0.356268 0.366278 0.970245
0.609308 0.000000 0.950561
0.852598 0.000000 0.962860
0.000000 0.714443 0.994568
0.000000 0.716884 0.994324
0.000000 0.731228 0.993011
0.371649 0.772488 0.989105
0.658076 0.827451 0.983185
0.691585 0.763394 0.969329
0.708675 0.618128 0.950103
0.872068 0.276829 0.956847
0.000000 0.779995 0.991302
0.000000 0.780850 0.991180
0.000000 0.786954 0.990356
0.000000 0.810513 0.987274
0.563653 0.854520 0.981506
0.781186 0.898222 0.975952
0.859586 0.883055 0.959136
0.912871 0.745693 0.938720
0.000000 0.850370 0.992554
0.000000 0.850858 0.992401
0.000000 0.853727 0.991730
0.000000 0.865141 0.989349
0.388312 0.893187 0.983429
0.691402 0.924437 0.975647
0.854978 0.946807 0.965332
0.929717 0.926390 0.909209
