其他预设/【213】赛博朋克科幻预设52款/1.LUT预设（视频调色-PR-AE-PS-FCPX-达芬奇用）/赛博朋克科幻__-6 强度5.cube
# Created by Adobe Lightroom plugin Export LUT (1.17.0)
# www.johnrellis.com/lightroom/exportlut.htm
# Preset: 赛博朋克科幻[素锦印象]-6 强度5
# Color profile: /Library/Application Support/Adobe/Color/Profiles/Recommended/AdobeRGB1998.icc
LUT_3D_SIZE 32
0.127687 0.100710 0.091035
0.132204 0.099641 0.092317
0.138369 0.098116 0.093782
0.151827 0.094362 0.096864
0.167178 0.089296 0.101198
0.183261 0.082826 0.106172
0.200900 0.073976 0.111910
0.220188 0.061036 0.118593
0.241855 0.023499 0.126619
0.266117 0.000000 0.135805
0.293431 0.000000 0.146761
0.323339 0.000000 0.159213
0.355657 0.000000 0.172854
0.389899 0.000000 0.187930
0.425788 0.000000 0.204044
0.463020 0.000000 0.220768
0.501305 0.000000 0.238224
0.540337 0.000000 0.255985
0.579614 0.000000 0.274022
0.619928 0.000000 0.292424
0.659968 0.000000 0.310582
0.699367 0.000000 0.328313
0.737728 0.000000 0.345342
0.774594 0.000000 0.361578
0.809659 0.000000 0.376776
0.842588 0.000000 0.390845
0.872953 0.000000 0.403449
0.900420 0.000000 0.414588
0.924987 0.000000 0.424292
0.946990 0.000000 0.432532
0.966735 0.000000 0.439612
0.984588 0.000000 0.445624
0.134066 0.107881 0.090059
0.134401 0.104585 0.090394
0.139803 0.103883 0.090211
0.153292 0.096010 0.093812
0.168582 0.088899 0.098726
0.184512 0.082399 0.103853
0.202121 0.073396 0.110170
0.221286 0.060334 0.116976
0.242954 0.021515 0.125093
0.267338 0.000000 0.134554
0.294621 0.000000 0.145663
0.324559 0.000000 0.158206
0.356786 0.000000 0.172061
0.390997 0.000000 0.187320
0.426856 0.000000 0.203372
0.464088 0.000000 0.220371
0.502342 0.000000 0.237675
0.541314 0.000000 0.255467
0.580560 0.000000 0.273564
0.620813 0.000000 0.291936
0.660792 0.000000 0.310063
0.700099 0.000000 0.327764
0.738399 0.000000 0.344823
0.775174 0.000000 0.361089
0.810208 0.000000 0.376257
0.843046 0.000000 0.390295
0.873350 0.000000 0.402930
0.900725 0.000000 0.414130
0.925261 0.000000 0.423713
0.947204 0.000000 0.432013
0.966949 0.000000 0.439002
0.984771 0.000000 0.445075
0.142397 0.116915 0.088746
0.144320 0.115175 0.088869
0.143709 0.110048 0.089448
0.154360 0.108675 0.089082
0.170138 0.096864 0.094453
0.186374 0.081697 0.101198
0.203799 0.072602 0.107668
0.222873 0.059266 0.114870
0.244663 0.018189 0.123354
0.268864 0.000000 0.133150
0.296208 0.000000 0.144350
0.326116 0.000000 0.157015
0.358251 0.000000 0.171115
0.392554 0.000000 0.186343
0.428260 0.000000 0.202487
0.465492 0.000000 0.219455
0.503746 0.000000 0.236942
0.542596 0.000000 0.254795
0.581842 0.000000 0.272862
0.622065 0.000000 0.291203
0.661952 0.000000 0.309392
0.701106 0.000000 0.327031
0.739284 0.000000 0.344091
0.776028 0.000000 0.360388
0.810910 0.000000 0.375586
0.843656 0.000000 0.389563
0.873869 0.000000 0.402228
0.901183 0.000000 0.413367
0.925628 0.000000 0.422980
0.947509 0.000000 0.431281
0.967193 0.000000 0.438331
0.984985 0.000000 0.444373
0.158145 0.133455 0.085847
0.159823 0.132204 0.085939
0.161440 0.129732 0.086183
0.160555 0.120241 0.087434
0.171847 0.117220 0.087160
0.189029 0.107546 0.091066
0.207248 0.089570 0.099947
0.226566 0.063844 0.109377
0.248020 0.011780 0.118990
0.272404 0.000000 0.129519
0.299596 0.000000 0.141054
0.329503 0.000000 0.154177
0.361669 0.000000 0.168551
0.395727 0.000000 0.184146
0.431525 0.000000 0.200504
0.468727 0.000000 0.217563
0.506767 0.000000 0.235203
0.545617 0.000000 0.253117
0.584710 0.000000 0.271305
0.624659 0.000000 0.289708
0.664363 0.000000 0.307866
0.703365 0.000000 0.325536
0.741299 0.000000 0.342596
0.777768 0.000000 0.358862
0.812497 0.000000 0.373968
0.845029 0.000000 0.387976
0.875029 0.000000 0.400610
0.902190 0.000000 0.411719
0.926452 0.000000 0.421332
0.948211 0.000000 0.429664
0.967773 0.000000 0.436713
0.985473 0.000000 0.442756
0.176272 0.152407 0.081819
0.177584 0.151369 0.081941
0.179538 0.149844 0.082063
0.180575 0.144472 0.082856
0.179446 0.132174 0.084810
0.190738 0.127016 0.084749
0.210361 0.125521 0.085573
0.231174 0.105867 0.095186
0.254368 0.075868 0.106233
0.278538 0.000000 0.120241
0.305180 0.000000 0.135103
0.334844 0.000000 0.149599
0.366888 0.000000 0.164553
0.401007 0.000000 0.180545
0.436622 0.000000 0.197116
0.473610 0.000000 0.214481
0.511620 0.000000 0.232395
0.550195 0.000000 0.250462
0.589197 0.000000 0.268772
0.628840 0.000000 0.287175
0.668116 0.000000 0.305394
0.706874 0.000000 0.323095
0.744442 0.000000 0.340124
0.780606 0.000000 0.356329
0.814969 0.000000 0.371496
0.847196 0.000000 0.385412
0.876860 0.000000 0.398047
0.903716 0.000000 0.409186
0.927733 0.000000 0.418769
0.949248 0.000000 0.427100
0.968688 0.000000 0.434211
0.986236 0.000000 0.440284
0.194919 0.171481 0.076814
0.195956 0.170596 0.076905
0.197391 0.169467 0.077028
0.200320 0.166903 0.077333
0.200290 0.158663 0.078950
0.199619 0.145693 0.081300
0.211337 0.138369 0.081544
0.234440 0.144533 0.078462
0.258793 0.129519 0.087770
0.285832 0.099336 0.099702
0.315465 0.014618 0.113863
0.344610 0.000000 0.134310
0.375616 0.000000 0.154147
0.408423 0.000000 0.173983
0.443397 0.000000 0.192294
0.480293 0.000000 0.210117
0.518059 0.000000 0.228336
0.556451 0.000000 0.246647
0.595178 0.000000 0.265110
0.634424 0.000000 0.283574
0.673243 0.000000 0.301823
0.711482 0.000000 0.319646
0.748653 0.000000 0.336645
0.784360 0.000000 0.352789
0.818265 0.000000 0.367956
0.850034 0.000000 0.381903
0.879332 0.000000 0.394507
0.905760 0.000000 0.405615
0.929442 0.000000 0.415229
0.950744 0.000000 0.423560
0.969879 0.000000 0.430762
0.987243 0.000000 0.436896
0.213657 0.190494 0.070619
0.214603 0.189700 0.070741
0.215763 0.188846 0.070832
0.218357 0.186862 0.071077
0.220615 0.182223 0.072023
0.221073 0.173526 0.074037
0.221561 0.160403 0.076783
0.233799 0.151492 0.077302
0.260716 0.159915 0.072694
0.290654 0.158907 0.077424
0.321233 0.132448 0.090730
0.355047 0.080140 0.104555
0.389715 0.000000 0.123598
0.422431 0.000000 0.150301
0.456306 0.000000 0.175051
0.491188 0.000000 0.198520
0.526879 0.000000 0.221256
0.564324 0.000000 0.241367
0.602777 0.000000 0.260197
0.641382 0.000000 0.278843
0.679683 0.000000 0.297154
0.717342 0.000000 0.314916
0.753933 0.000000 0.331945
0.789059 0.000000 0.348180
0.822446 0.000000 0.363287
0.853635 0.000000 0.377264
0.882383 0.000000 0.389868
0.908324 0.000000 0.401007
0.931609 0.000000 0.410651
0.952544 0.000000 0.419043
0.971405 0.000000 0.426246
0.988556 0.000000 0.432502
0.232883 0.209445 0.062623
0.233707 0.208957 0.062684
0.234745 0.208316 0.062776
0.237064 0.206790 0.062989
0.240482 0.204318 0.063386
0.242008 0.198184 0.065217
0.243717 0.189578 0.067506
0.245670 0.176974 0.070649
0.258854 0.166629 0.071473
0.289982 0.177646 0.064424
0.326604 0.192111 0.061219
0.360571 0.169741 0.076570
0.397009 0.129549 0.092805
0.435828 0.000000 0.110109
0.474037 0.000000 0.135164
0.508568 0.000000 0.167758
0.543725 0.000000 0.196628
0.579156 0.000000 0.223331
0.614679 0.000000 0.248295
0.650019 0.000000 0.272129
0.687373 0.000000 0.290990
0.724300 0.000000 0.308934
0.760250 0.000000 0.326055
0.794705 0.000000 0.342351
0.827390 0.000000 0.357519
0.857939 0.000000 0.371496
0.886046 0.000000 0.384100
0.911406 0.000000 0.395209
0.934234 0.000000 0.404974
0.954711 0.000000 0.413367
0.973236 0.000000 0.420722
0.990082 0.000000 0.427039
0.252842 0.228916 0.047395
0.253483 0.228519 0.047517
0.254612 0.228000 0.047608
0.256596 0.226841 0.047913
0.259770 0.225040 0.048371
0.262394 0.220981 0.050538
0.265385 0.215702 0.053376
0.268803 0.207645 0.057832
0.272496 0.195712 0.061646
0.286564 0.184573 0.062928
0.322118 0.197696 0.047059
0.362768 0.214450 0.026032
0.403235 0.211063 0.046601
0.442054 0.177615 0.073640
0.482643 0.116976 0.094881
0.524773 0.000000 0.116670
0.564446 0.000000 0.148287
0.599298 0.000000 0.185824
0.633326 0.000000 0.218021
0.667170 0.000000 0.246830
0.700832 0.000000 0.273136
0.734127 0.000000 0.297765
0.767605 0.000000 0.318547
0.801297 0.000000 0.334936
0.833158 0.000000 0.350195
0.862943 0.000000 0.364324
0.890318 0.000000 0.376928
0.915007 0.000000 0.388159
0.937224 0.000000 0.397955
0.957275 0.000000 0.406531
0.975372 0.000000 0.413977
0.991913 0.000000 0.420447
0.273228 0.248783 0.019501
0.273869 0.248478 0.019562
0.274723 0.248142 0.019593
0.276585 0.247257 0.019806
0.279728 0.245945 0.019989
0.283726 0.244083 0.020356
0.286442 0.239597 0.023957
0.290959 0.234928 0.026886
0.296300 0.227756 0.031739
0.302007 0.216770 0.039673
0.316289 0.205631 0.043183
0.356329 0.219547 0.010712
0.400793 0.238437 0.000000
0.448768 0.255039 0.000000
0.489265 0.226596 0.016327
0.531273 0.180148 0.069001
0.574365 0.084382 0.097536
0.617517 0.000000 0.125093
0.654932 0.000000 0.162631
0.687037 0.000000 0.203922
0.719081 0.000000 0.237919
0.750637 0.000000 0.267948
0.781399 0.000000 0.294896
0.811063 0.000000 0.319585
0.839689 0.000000 0.341283
0.868620 0.000000 0.355505
0.895140 0.000000 0.368292
0.919097 0.000000 0.379614
0.940642 0.000000 0.389624
0.960143 0.000000 0.398352
0.977844 0.000000 0.405982
0.993988 0.000000 0.412573
0.293736 0.268833 0.000000
0.294316 0.268742 0.000000
0.295171 0.268498 0.000000
0.297032 0.267826 0.000000
0.299779 0.267002 0.000000
0.303685 0.265599 0.000000
0.307134 0.262608 0.000000
0.312078 0.259770 0.000000
0.318456 0.255802 0.000000
0.325780 0.249485 0.000000
0.333715 0.239658 0.002533
0.347997 0.228244 0.006806
0.392432 0.242893 0.000000
0.440070 0.263767 0.000000
0.492287 0.286900 0.000000
0.538293 0.276738 0.000000
0.580987 0.237797 0.000000
0.623529 0.175387 0.065095
0.664515 0.000000 0.103548
0.704677 0.000000 0.136568
0.739467 0.000000 0.178805
0.769039 0.000000 0.221408
0.798001 0.000000 0.256046
0.825803 0.000000 0.286046
0.852384 0.000000 0.312596
0.877317 0.000000 0.336522
0.900572 0.000000 0.357519
0.923583 0.000000 0.369482
0.944457 0.000000 0.379706
0.963348 0.000000 0.388678
0.980560 0.000000 0.396551
0.996307 0.000000 0.403418
0.314153 0.289128 0.000000
0.314794 0.289006 0.000000
0.315557 0.288792 0.000000
0.317327 0.288396 0.000000
0.320012 0.287755 0.000000
0.323705 0.286900 0.000000
0.328405 0.285771 0.000000
0.332128 0.282567 0.000000
0.339330 0.281010 0.000000
0.347662 0.278111 0.000000
0.356909 0.272770 0.000000
0.367224 0.264103 0.000000
0.381201 0.252201 0.000000
0.429877 0.267460 0.000000
0.480171 0.289982 0.000000
0.534539 0.314488 0.000000
0.588128 0.327184 0.000000
0.629816 0.292943 0.000000
0.670008 0.242222 0.000000
0.709651 0.161410 0.068086
0.748165 0.000000 0.114534
0.785061 0.000000 0.152834
0.815732 0.000000 0.197238
0.841642 0.000000 0.238376
0.866239 0.000000 0.272068
0.889372 0.000000 0.300725
0.910735 0.000000 0.325811
0.930449 0.000000 0.348058
0.948699 0.000000 0.367498
0.966918 0.000000 0.377356
0.983581 0.000000 0.385565
0.998871 0.000000 0.392767
0.334478 0.309361 0.000000
0.335058 0.309270 0.000000
0.335882 0.309178 0.000000
0.337469 0.308904 0.000000
0.340124 0.308537 0.000000
0.343603 0.307958 0.000000
0.348089 0.307195 0.000000
0.352544 0.305364 0.000000
0.358679 0.303990 0.000000
0.367773 0.303410 0.000000
0.377996 0.301457 0.000000
0.389502 0.297185 0.000000
0.402045 0.289860 0.000000
0.415869 0.277562 0.000000
0.468116 0.292729 0.000000
0.520745 0.316960 0.000000
0.576745 0.342351 0.000000
0.633326 0.367254 0.000000
0.675563 0.345068 0.000000
0.714473 0.301305 0.000000
0.752407 0.240055 0.000000
0.788846 0.138827 0.080659
0.823148 0.000000 0.131807
0.854887 0.000000 0.174990
0.880247 0.000000 0.218326
0.901457 0.000000 0.255406
0.921141 0.000000 0.285832
0.939361 0.000000 0.311894
0.956298 0.000000 0.334783
0.972015 0.000000 0.355230
0.986847 0.000000 0.372747
1.000000 0.000000 0.380346
0.354772 0.329595 0.000000
0.355261 0.329503 0.000000
0.355993 0.329442 0.000000
0.357549 0.329290 0.000000
0.359960 0.329107 0.000000
0.363378 0.328710 0.000000
0.367651 0.328374 0.000000
0.372869 0.327825 0.000000
0.376867 0.325078 0.000000
0.386481 0.326299 0.000000
0.397253 0.326696 0.000000
0.409522 0.325780 0.000000
0.423102 0.322698 0.000000
0.438025 0.316472 0.000000
0.454170 0.305669 0.000000
0.506798 0.318669 0.000000
0.561425 0.344060 0.000000
0.617395 0.369635 0.000000
0.672084 0.393561 0.000000
0.719265 0.395087 0.000000
0.756374 0.355444 0.000000
0.792172 0.303471 0.000000
0.826047 0.232517 0.000000
0.857542 0.111727 0.102144
0.885985 0.000000 0.156161
0.910948 0.000000 0.203494
0.930510 0.000000 0.242954
0.947448 0.000000 0.273136
0.963317 0.000000 0.298589
0.978180 0.000000 0.320745
0.992126 0.000000 0.340642
1.000000 0.000000 0.359014
0.374853 0.349798 0.000000
0.375402 0.349798 0.000000
0.376013 0.349737 0.000000
0.377600 0.349767 0.000000
0.379950 0.349615 0.000000
0.383154 0.349523 0.000000
0.387243 0.349340 0.000000
0.392248 0.349065 0.000000
0.397925 0.348486 0.000000
0.404028 0.347356 0.000000
0.415229 0.349493 0.000000
0.427924 0.350896 0.000000
0.441993 0.350896 0.000000
0.457679 0.348943 0.000000
0.474769 0.343908 0.000000
0.493141 0.334386 0.000000
0.545586 0.344762 0.000000
0.601465 0.371008 0.000000
0.656031 0.395789 0.000000
0.709438 0.419074 0.000000
0.759670 0.439673 0.000000
0.795315 0.405768 0.000000
0.828489 0.359350 0.000000
0.859464 0.300206 0.000000
0.887663 0.222385 0.042542
0.912718 0.091432 0.132082
0.934478 0.000000 0.187869
0.953002 0.000000 0.238987
0.968292 0.000000 0.271794
0.982483 0.000000 0.293217
0.996033 0.000000 0.311742
1.000000 0.000000 0.328527
0.395209 0.370306 0.000000
0.395727 0.370336 0.000000
0.396368 0.370336 0.000000
0.397833 0.370336 0.000000
0.400000 0.370336 0.000000
0.403082 0.370336 0.000000
0.406989 0.370336 0.000000
0.411780 0.370306 0.000000
0.417487 0.370245 0.000000
0.421668 0.367773 0.000000
0.432288 0.370489 0.000000
0.445197 0.373602 0.000000
0.459571 0.375830 0.000000
0.475471 0.376745 0.000000
0.492927 0.375769 0.000000
0.511955 0.371740 0.000000
0.532280 0.363409 0.000000
0.584253 0.370947 0.000000
0.640223 0.397345 0.000000
0.693965 0.421607 0.000000
0.745083 0.443610 0.000000
0.792782 0.462959 0.000000
0.830625 0.452094 0.000000
0.860899 0.409033 0.000000
0.888640 0.356756 0.000000
0.913542 0.293400 0.000000
0.935546 0.215335 0.097902
0.954681 0.106416 0.168002
0.970825 0.000000 0.226200
0.983948 0.000000 0.281773
0.996490 0.000000 0.306340
1.000000 0.000000 0.317662
0.415991 0.391302 0.000000
0.416419 0.391333 0.000000
0.417029 0.391333 0.000000
0.418402 0.391424 0.000000
0.420539 0.391455 0.000000
0.423499 0.391547 0.000000
0.427161 0.391669 0.000000
0.431678 0.391760 0.000000
0.437079 0.391821 0.000000
0.443336 0.391882 0.000000
0.448859 0.390387 0.000000
0.461707 0.394598 0.000000
0.476081 0.398444 0.000000
0.492073 0.401495 0.000000
0.509606 0.403204 0.000000
0.528679 0.403021 0.000000
0.549371 0.399969 0.000000
0.571679 0.392828 0.000000
0.621973 0.398627 0.000000
0.678126 0.423163 0.000000
0.730495 0.446601 0.000000
0.778866 0.467079 0.000000
0.823484 0.484627 0.000000
0.862028 0.494697 0.000000
0.889097 0.453681 0.000000
0.913634 0.405463 0.000000
0.935637 0.349706 0.000000
0.955169 0.286931 0.000732
0.972107 0.219120 0.142367
0.986419 0.156558 0.209873
0.997803 0.139681 0.271580
1.000000 0.203403 0.333867
0.437354 0.412940 0.000000
0.437751 0.412940 0.000000
0.438361 0.413001 0.000000
0.439612 0.413062 0.000000
0.441688 0.413184 0.000000
0.444404 0.413306 0.000000
0.447944 0.413489 0.000000
0.452216 0.413672 0.000000
0.457404 0.413977 0.000000
0.463447 0.414252 0.000000
0.468849 0.413062 0.000000
0.478340 0.414923 0.000000
0.492653 0.419928 0.000000
0.508568 0.424537 0.000000
0.526055 0.428382 0.000000
0.545190 0.430915 0.000000
0.566125 0.431647 0.000000
0.588525 0.429480 0.000000
0.612024 0.423041 0.000000
0.659052 0.426520 0.000000
0.714992 0.448432 0.000000
0.765408 0.470649 0.000000
0.811124 0.489387 0.000000
0.851743 0.504723 0.000000
0.886992 0.516533 0.000000
0.913207 0.493629 0.000000
0.934997 0.448219 0.000000
0.954620 0.397284 0.000000
0.972107 0.341863 0.000000
0.987335 0.285679 0.105043
1.000000 0.239292 0.188449
1.000000 0.226932 0.258274
0.460365 0.436316 0.000000
0.460731 0.436378 0.000000
0.461250 0.436347 0.000000
0.462531 0.436469 0.000000
0.464454 0.436591 0.000000
0.467109 0.436805 0.000000
0.470497 0.437079 0.000000
0.474678 0.437415 0.000000
0.479622 0.437781 0.000000
0.485359 0.438148 0.000000
0.492012 0.438605 0.000000
0.496345 0.436011 0.000000
0.510491 0.441871 0.000000
0.526268 0.447578 0.000000
0.543633 0.452918 0.000000
0.562646 0.457435 0.000000
0.583398 0.460731 0.000000
0.605341 0.461799 0.000000
0.628321 0.459632 0.000000
0.652247 0.453223 0.000000
0.695460 0.454139 0.000000
0.750607 0.472908 0.000000
0.798520 0.493538 0.000000
0.841001 0.510307 0.000000
0.877531 0.523217 0.000000
0.908598 0.532677 0.000000
0.933898 0.529412 0.000000
0.953338 0.486213 0.000000
0.971008 0.438514 0.000000
0.986908 0.387274 0.000000
1.000000 0.336400 0.000000
1.000000 0.294896 0.159701
0.485725 0.462318 0.000000
0.486122 0.462287 0.000000
0.486732 0.462379 0.000000
0.487831 0.462531 0.000000
0.489723 0.462654 0.000000
0.492317 0.462928 0.000000
0.495552 0.463233 0.000000
0.499519 0.463569 0.000000
0.504265 0.463996 0.000000
0.509789 0.464515 0.000000
0.516258 0.465095 0.000000
0.523247 0.465431 0.000000
0.530358 0.465156 0.000000
0.545922 0.471626 0.000000
0.563012 0.477974 0.000000
0.581720 0.483864 0.000000
0.601770 0.488655 0.000000
0.622827 0.491676 0.000000
0.644984 0.492348 0.000000
0.668055 0.489845 0.000000
0.691798 0.483101 0.000000
0.730831 0.481147 0.000000
0.784573 0.496407 0.000000
0.829465 0.515099 0.000000
0.868345 0.529625 0.000000
0.900938 0.540124 0.000000
0.928038 0.547234 0.000000
0.951110 0.552117 0.000000
0.969268 0.520287 0.000000
0.985321 0.474983 0.000000
0.999878 0.426612 0.000000
1.000000 0.378210 0.000000
0.514336 0.491646 0.000000
0.514702 0.491676 0.000000
0.515251 0.491768 0.000000
0.516350 0.491890 0.000000
0.518181 0.492012 0.000000
0.520653 0.492287 0.000000
0.523766 0.492622 0.000000
0.527581 0.493050 0.000000
0.532189 0.493507 0.000000
0.537530 0.493965 0.000000
0.543725 0.494636 0.000000
0.550835 0.495369 0.000000
0.556512 0.494026 0.000000
0.568200 0.497627 0.000000
0.584863 0.504570 0.000000
0.602686 0.510948 0.000000
0.621698 0.516472 0.000000
0.641840 0.520745 0.000000
0.662898 0.523125 0.000000
0.684779 0.523064 0.000000
0.707393 0.519829 0.000000
0.730587 0.512444 0.000000
0.765194 0.507439 0.000000
0.816800 0.518669 0.000000
0.858152 0.535149 0.000000
0.892973 0.547204 0.000000
0.921843 0.555444 0.000000
0.945892 0.560723 0.000000
0.966125 0.563775 0.000000
0.983154 0.550927 0.000000
0.997955 0.507591 0.000000
1.000000 0.461250 0.000000
0.546746 0.525017 0.000000
0.547112 0.525078 0.000000
0.547570 0.525048 0.000000
0.548730 0.525231 0.000000
0.550469 0.525414 0.000000
0.552880 0.525658 0.000000
0.555871 0.525994 0.000000
0.559533 0.526299 0.000000
0.563928 0.526848 0.000000
0.569085 0.527276 0.000000
0.575036 0.527947 0.000000
0.581842 0.528618 0.000000
0.589471 0.529412 0.000000
0.593927 0.526421 0.000000
0.609491 0.533196 0.000000
0.626307 0.539635 0.000000
0.644099 0.545373 0.000000
0.662989 0.550164 0.000000
0.682704 0.553491 0.000000
0.703243 0.554864 0.000000
0.724453 0.553796 0.000000
0.746120 0.549493 0.000000
0.768246 0.541100 0.000000
0.798123 0.532860 0.000000
0.846830 0.539666 0.000000
0.884245 0.553582 0.000000
0.915099 0.563165 0.000000
0.940703 0.569390 0.000000
0.962097 0.573053 0.000000
0.980163 0.574853 0.000000
0.995514 0.575189 0.000000
1.000000 0.537102 0.000000
0.582574 0.562005 0.000000
0.582940 0.561975 0.000000
0.583398 0.562066 0.000000
0.584466 0.562158 0.000000
0.586084 0.562310 0.000000
0.588373 0.562524 0.000000
0.591241 0.562768 0.000000
0.594781 0.563104 0.000000
0.599023 0.563531 0.000000
0.603937 0.563958 0.000000
0.609613 0.564508 0.000000
0.616083 0.565118 0.000000
0.623316 0.565759 0.000000
0.630945 0.566003 0.000000
0.637720 0.564752 0.000000
0.653193 0.570825 0.000000
0.669642 0.576379 0.000000
0.687007 0.581079 0.000000
0.705196 0.584680 0.000000
0.724147 0.586725 0.000000
0.743648 0.586755 0.000000
0.763577 0.584192 0.000000
0.783902 0.578485 0.000000
0.804410 0.568780 0.000000
0.829374 0.557153 0.000000
0.874510 0.559106 0.000000
0.907744 0.570336 0.000000
0.935088 0.577691 0.000000
0.957794 0.582177 0.000000
0.976867 0.584436 0.000000
0.993042 0.585077 0.000000
1.000000 0.584527 0.000000
0.621454 0.602350 0.000000
0.621790 0.602319 0.000000
0.622217 0.602380 0.000000
0.623255 0.602411 0.000000
0.624842 0.602564 0.000000
0.626978 0.602716 0.000000
0.629755 0.602930 0.000000
0.633112 0.603204 0.000000
0.637140 0.603449 0.000000
0.641840 0.603815 0.000000
0.647272 0.604181 0.000000
0.653407 0.604700 0.000000
0.660334 0.605188 0.000000
0.668055 0.605768 0.000000
0.674250 0.604211 0.000000
0.683925 0.605249 0.000000
0.698817 0.610163 0.000000
0.714473 0.614374 0.000000
0.730922 0.617670 0.000000
0.747951 0.619654 0.000000
0.765530 0.619959 0.000000
0.783505 0.618219 0.000000
0.801785 0.613916 0.000000
0.820218 0.606439 0.000000
0.838621 0.595087 0.000000
0.858701 0.580194 0.000000
0.899626 0.576806 0.000000
0.929015 0.585595 0.000000
0.953216 0.591028 0.000000
0.973419 0.593927 0.000000
0.990478 0.594995 0.000000
1.000000 0.594690 0.000000
0.663142 0.645716 0.000000
0.663447 0.645686 0.000000
0.663935 0.645747 0.000000
0.664851 0.645777 0.000000
0.666377 0.645838 0.000000
0.668391 0.645960 0.000000
0.671046 0.646082 0.000000
0.674281 0.646265 0.000000
0.678096 0.646448 0.000000
0.682612 0.646662 0.000000
0.687770 0.646967 0.000000
0.693629 0.647242 0.000000
0.700252 0.647608 0.000000
0.707546 0.647974 0.000000
0.715694 0.648463 0.000000
0.720333 0.644892 0.000000
0.732082 0.647395 0.000000
0.745846 0.650721 0.000000
0.760250 0.653162 0.000000
0.775174 0.654566 0.000000
0.790555 0.654475 0.000000
0.806302 0.652735 0.000000
0.822263 0.648920 0.000000
0.838376 0.642512 0.000000
0.854490 0.632959 0.000000
0.870481 0.619715 0.000000
0.886259 0.601953 0.000000
0.922087 0.594659 0.000000
0.948333 0.599573 0.000000
0.969787 0.603265 0.000000
0.987823 0.604852 0.000000
1.000000 0.604913 0.000000
0.706813 0.691371 0.000000
0.707088 0.691341 0.000000
0.707515 0.691371 0.000000
0.708431 0.691432 0.000000
0.709865 0.691463 0.000000
0.711879 0.691493 0.000000
0.714351 0.691585 0.000000
0.717433 0.691646 0.000000
0.721126 0.691707 0.000000
0.725399 0.691829 0.000000
0.730282 0.691951 0.000000
0.735866 0.692103 0.000000
0.742153 0.692256 0.000000
0.749142 0.692470 0.000000
0.756832 0.692683 0.000000
0.765347 0.692927 0.000000
0.769253 0.688167 0.000000
0.780941 0.690150 0.000000
0.793118 0.691371 0.000000
0.805753 0.691676 0.000000
0.818723 0.690761 0.000000
0.831968 0.688411 0.000000
0.845426 0.684260 0.000000
0.859007 0.678004 0.000000
0.872526 0.669245 0.000000
0.886015 0.657496 0.000000
0.899413 0.642329 0.000000
0.912657 0.623011 0.000000
0.942412 0.611658 0.000000
0.966003 0.612451 0.000000
0.985107 0.614679 0.000000
1.000000 0.615137 0.000000
0.750881 0.737758 0.000000
0.751156 0.737758 0.000000
0.751553 0.737758 0.000000
0.752468 0.737789 0.000000
0.753841 0.737758 0.000000
0.755703 0.737758 0.000000
0.758145 0.737758 0.000000
0.761105 0.737728 0.000000
0.764553 0.737758 0.000000
0.768673 0.737728 0.000000
0.773312 0.737728 0.000000
0.778653 0.737728 0.000000
0.784634 0.737758 0.000000
0.791257 0.737728 0.000000
0.798550 0.737697 0.000000
0.806577 0.737728 0.000000
0.813962 0.736385 0.000000
0.818906 0.732204 0.000000
0.828702 0.731899 0.000000
0.838865 0.730739 0.000000
0.849241 0.728511 0.000000
0.859922 0.725032 0.000000
0.870695 0.720089 0.000000
0.881590 0.713344 0.000000
0.892546 0.704616 0.000000
0.903532 0.693568 0.000000
0.914549 0.679805 0.000000
0.925536 0.662867 0.000000
0.936553 0.642176 0.000000
0.961059 0.627527 0.000000
0.982330 0.624414 0.000000
0.999451 0.625391 0.000000
0.792935 0.782437 0.000000
0.793240 0.782406 0.000000
0.793637 0.782406 0.000000
0.794491 0.782376 0.000000
0.795773 0.782345 0.000000
0.797604 0.782284 0.000000
0.799863 0.782254 0.000000
0.802670 0.782162 0.000000
0.806027 0.782040 0.000000
0.809903 0.781918 0.000000
0.814359 0.781796 0.000000
0.819394 0.781643 0.000000
0.825071 0.781491 0.000000
0.831327 0.781308 0.000000
0.838224 0.781094 0.000000
