其他预设/【213】赛博朋克科幻预设52款/1.LUT预设（视频调色-PR-AE-PS-FCPX-达芬奇用）/赛博朋克科幻__-12 强度2.cube
# Created by Adobe Lightroom plugin Export LUT (1.17.0)
# www.johnrellis.com/lightroom/exportlut.htm
# Preset: 赛博朋克科幻[素锦印象]-12 强度2
# Color profile: /Library/Application Support/Adobe/Color/Profiles/Recommended/AdobeRGB1998.icc
LUT_3D_SIZE 8
DOMAIN_MIN 0.000000 0.000000 0.000000
DOMAIN_MAX 0.903226 0.903226 0.903226
0.064729 0.065309 0.065248
0.104524 0.059541 0.064240
0.204471 0.077028 0.094423
0.326604 0.100496 0.135470
0.460945 0.139101 0.189395
0.594781 0.191440 0.252262
0.726070 0.268498 0.332250
0.846372 0.382605 0.439948
0.046998 0.131594 0.053864
0.114473 0.131899 0.049317
0.203342 0.127077 0.082887
0.326238 0.148653 0.128695
0.460700 0.179416 0.184176
0.594659 0.221836 0.247776
0.726070 0.289158 0.328435
0.846586 0.394476 0.436713
0.000000 0.275059 0.000000
0.109865 0.274449 0.000000
0.229679 0.274022 0.000000
0.344976 0.269352 0.038422
0.459419 0.277287 0.162295
0.594049 0.306279 0.230289
0.726040 0.353307 0.313756
0.847288 0.435157 0.424262
0.000000 0.439124 0.000000
0.064118 0.439155 0.000000
0.235416 0.438636 0.000000
0.366186 0.438911 0.000000
0.497017 0.443275 0.000000
0.604517 0.425299 0.162875
0.725521 0.449409 0.283116
0.848234 0.504082 0.399023
0.000000 0.602747 0.000000
0.000000 0.602502 0.000000
0.213962 0.601587 0.000000
0.369543 0.599420 0.000000
0.497963 0.597894 0.000000
0.619654 0.591516 0.000000
0.753933 0.587823 0.064393
0.853147 0.597650 0.341253
0.000000 0.740414 0.000000
0.000000 0.740200 0.000000
0.164889 0.739406 0.000000
0.340246 0.737758 0.000000
0.488472 0.735103 0.000000
0.610712 0.734035 0.000000
0.742123 0.739132 0.000000
0.889403 0.747341 0.000000
0.000000 0.864958 0.000000
0.000000 0.864683 0.000000
0.000000 0.863798 0.000000
0.300359 0.862242 0.000000
0.453529 0.860533 0.000000
0.592828 0.858274 0.000000
0.712459 0.857389 0.000000
0.847715 0.869688 0.000000
0.000000 0.980285 0.000000
0.000000 0.980560 0.000000
0.000000 0.979889 0.000000
0.151797 0.978729 0.000000
0.384039 0.976959 0.000000
0.547143 0.974578 0.000000
0.686671 0.972381 0.000000
0.805936 0.971740 0.000000
0.075532 0.060609 0.113954
0.115602 0.041413 0.116213
0.212802 0.090303 0.146517
0.334813 0.126619 0.189181
0.467903 0.163058 0.235843
0.599176 0.211978 0.290379
0.727657 0.287053 0.363378
0.846220 0.398688 0.464576
0.055940 0.115267 0.112367
0.119875 0.121370 0.121584
0.216617 0.140017 0.147768
0.336461 0.163973 0.184298
0.467842 0.195285 0.230503
0.599084 0.237766 0.285893
0.727718 0.304967 0.359625
0.846464 0.409339 0.461341
0.000000 0.269413 0.087129
0.090120 0.267735 0.087037
0.229465 0.267216 0.087617
0.345220 0.264042 0.144350
0.466682 0.282963 0.209415
0.598596 0.313634 0.268803
0.727810 0.362921 0.345129
0.847318 0.446387 0.449134
0.000000 0.436500 0.000000
0.000000 0.435309 0.000000
0.225864 0.434943 0.000000
0.365576 0.434882 0.000000
0.502678 0.440284 0.000000
0.603967 0.424537 0.219425
0.727535 0.453529 0.315770
0.848539 0.510704 0.424598
0.000000 0.600885 0.000000
0.000000 0.600641 0.000000
0.197787 0.599542 0.000000
0.364050 0.597375 0.000000
0.497871 0.595605 0.000000
0.626734 0.593866 0.000000
0.753292 0.584527 0.163882
0.851133 0.600732 0.377844
0.000000 0.739834 0.000000
0.000000 0.739559 0.000000
0.137606 0.738643 0.000000
0.332280 0.736934 0.000000
0.485451 0.734188 0.000000
0.611078 0.732876 0.000000
0.744289 0.738186 0.000000
0.889006 0.743618 0.000000
0.000000 0.864286 0.000000
0.000000 0.864134 0.000000
0.000000 0.863493 0.000000
0.286503 0.862272 0.000000
0.448554 0.860288 0.000000
0.591577 0.857847 0.000000
0.712917 0.856809 0.000000
0.849607 0.869230 0.000000
0.000000 0.980102 0.000000
0.000000 0.980072 0.000000
0.000000 0.979431 0.000000
0.167025 0.978271 0.000000
0.389227 0.976532 0.000000
0.550500 0.974151 0.000000
0.687587 0.972168 0.000000
0.806180 0.971557 0.000000
0.129610 0.070954 0.228458
0.160494 0.061799 0.227970
0.233310 0.071382 0.235630
0.348974 0.118654 0.273320
0.478126 0.171572 0.318761
0.607111 0.236271 0.370916
0.731838 0.313451 0.433295
0.847074 0.428382 0.523583
0.133425 0.121462 0.231846
0.164950 0.127260 0.233097
0.236484 0.133608 0.239292
0.351995 0.165957 0.275883
0.480293 0.209537 0.320562
0.608331 0.263279 0.371313
0.732113 0.336553 0.435279
0.846586 0.447822 0.528130
0.095766 0.233616 0.227420
0.142947 0.237705 0.233036
0.244083 0.248386 0.248844
0.359838 0.271214 0.279850
0.485237 0.299748 0.319158
0.610803 0.336431 0.366735
0.732815 0.393072 0.431220
0.847379 0.481025 0.520958
0.000000 0.414923 0.224918
0.000000 0.418524 0.221103
0.208591 0.424079 0.208713
0.369726 0.422766 0.204776
0.501732 0.418006 0.260594
0.610071 0.430396 0.338750
0.733364 0.468238 0.406806
0.849180 0.533043 0.499794
0.000000 0.594842 0.160678
0.000000 0.594812 0.146090
0.152987 0.593011 0.141573
0.350500 0.590661 0.130098
0.500359 0.587762 0.145449
0.643763 0.595026 0.184451
0.749081 0.577173 0.327245
0.851133 0.611170 0.463905
0.000000 0.737789 0.000000
0.000000 0.737819 0.000000
0.000000 0.735592 0.000000
0.311864 0.733700 0.000000
0.478218 0.730739 0.000000
0.614008 0.728420 0.000000
0.752285 0.734524 0.087343
0.886046 0.732509 0.255802
0.000000 0.865019 0.000000
0.000000 0.864286 0.000000
0.000000 0.862943 0.000000
0.251926 0.861509 0.000000
0.434974 0.859281 0.000000
0.589197 0.856168 0.000000
0.715877 0.854520 0.000000
0.856443 0.867430 0.000000
0.000000 0.980102 0.000000
0.000000 0.979858 0.000000
0.000000 0.979309 0.000000
0.132021 0.978302 0.000000
0.375341 0.976715 0.000000
0.540795 0.974426 0.000000
0.684504 0.971984 0.000000
0.808225 0.970764 0.000000
0.201907 0.081575 0.366796
0.226841 0.071168 0.366217
0.289769 0.074464 0.368170
0.375128 0.085481 0.379187
0.495186 0.148287 0.415808
0.618952 0.221347 0.457435
0.739284 0.310338 0.508904
0.852842 0.418891 0.577417
0.209506 0.128023 0.368231
0.230991 0.130709 0.369055
0.292027 0.140230 0.371771
0.377295 0.144839 0.381750
0.496986 0.191409 0.417609
0.619959 0.254063 0.459174
0.739498 0.335027 0.511070
0.852537 0.437018 0.580072
0.188724 0.243473 0.378576
0.220127 0.247471 0.380163
0.295323 0.256504 0.382391
0.383490 0.262455 0.389288
0.502312 0.297520 0.423713
0.623072 0.345037 0.465705
0.740017 0.409369 0.519158
0.851072 0.499062 0.592157
0.129488 0.376226 0.365728
0.170748 0.378943 0.369360
0.270207 0.387304 0.381384
0.392065 0.399695 0.400427
0.509270 0.423713 0.432227
0.626642 0.454994 0.471962
0.740566 0.501976 0.525933
0.850523 0.570459 0.598749
0.000000 0.560174 0.365759
0.000000 0.562402 0.365972
0.198398 0.570245 0.365179
0.357153 0.576349 0.361730
0.512871 0.573022 0.356847
0.645930 0.569055 0.408118
0.741787 0.583398 0.494789
0.853330 0.630854 0.571832
0.000000 0.723110 0.317723
0.000000 0.724300 0.314549
0.000000 0.728267 0.303441
0.313085 0.725765 0.311955
0.478523 0.723201 0.298466
0.624445 0.719905 0.311894
0.773648 0.734371 0.341863
0.876432 0.721706 0.470253
0.000000 0.860319 0.218357
0.000000 0.860410 0.211582
0.000000 0.860472 0.191287
0.235996 0.858061 0.222293
0.429114 0.855863 0.214847
0.589929 0.852506 0.201724
0.724910 0.849790 0.239048
0.869017 0.863340 0.268894
0.000000 0.979553 0.000000
0.000000 0.979950 0.000000
0.000000 0.981048 0.000000
0.000000 0.978912 0.000000
0.343816 0.976959 0.000000
0.527977 0.974182 0.000000
0.684810 0.970794 0.000000
0.815091 0.968597 0.000000
0.282383 0.101259 0.511315
0.301366 0.092927 0.510857
0.355413 0.072480 0.510643
0.430182 0.098543 0.516136
0.520653 0.110750 0.526696
0.635340 0.197330 0.557641
0.750271 0.295872 0.596521
0.860868 0.409766 0.649561
0.289372 0.130953 0.511009
0.305760 0.134066 0.511498
0.356695 0.143984 0.513420
0.431434 0.157534 0.518059
0.521904 0.165682 0.528222
0.636133 0.233829 0.558892
0.750454 0.321843 0.597986
0.860624 0.428290 0.651423
0.283970 0.254856 0.519188
0.304021 0.259586 0.519677
0.358679 0.265934 0.521172
0.435431 0.276219 0.523827
0.525841 0.282475 0.533165
0.638636 0.330907 0.563439
0.750912 0.398779 0.603326
0.859739 0.485847 0.657465
0.250889 0.384283 0.522423
0.276585 0.387152 0.524712
0.352758 0.398199 0.531823
0.442145 0.409186 0.534478
0.531701 0.416449 0.540948
0.642023 0.452491 0.571710
0.751369 0.502464 0.612818
0.858976 0.564660 0.665278
0.182925 0.522637 0.508263
0.217166 0.524346 0.510704
0.307469 0.529931 0.519097
0.421302 0.538689 0.532891
0.539117 0.549981 0.551080
0.646021 0.573754 0.581476
0.752499 0.607294 0.621607
0.858244 0.656550 0.676326
0.000000 0.690089 0.502525
0.104860 0.691341 0.503746
0.242527 0.695583 0.508049
0.372229 0.703029 0.513420
0.504601 0.709499 0.513268
0.644770 0.706477 0.507744
0.773556 0.706935 0.554589
0.861448 0.725917 0.644892
0.000000 0.840757 0.457038
0.000000 0.841489 0.456794
0.000000 0.844022 0.455573
0.276646 0.848783 0.450721
0.453620 0.848203 0.457496
0.601953 0.845670 0.441871
0.742275 0.841917 0.456886
0.889799 0.858976 0.483619
0.000000 0.971221 0.364324
0.000000 0.971893 0.360357
0.000000 0.974243 0.345647
0.000000 0.976165 0.325048
0.350011 0.974182 0.343511
0.532158 0.971466 0.334722
0.693324 0.967620 0.321569
0.829862 0.964202 0.359960
0.363348 0.148653 0.651301
0.377813 0.144076 0.651148
0.422827 0.126986 0.650782
0.488533 0.127626 0.651606
0.568261 0.149966 0.657404
0.657527 0.171389 0.665553
0.764309 0.275181 0.692134
0.871244 0.396948 0.731777
0.370214 0.145571 0.649775
0.383124 0.148074 0.650019
0.424872 0.159396 0.651118
0.489570 0.179538 0.652979
0.569085 0.196292 0.658350
0.658076 0.213077 0.666346
0.764462 0.302983 0.692958
0.871031 0.416022 0.732876
0.372320 0.273625 0.654658
0.385260 0.275242 0.654902
0.427741 0.281315 0.655756
0.493141 0.292943 0.657252
0.572076 0.305882 0.661341
0.659846 0.316991 0.668910
0.764920 0.383886 0.695918
0.870359 0.475013 0.736660
0.368231 0.404089 0.661524
0.383856 0.406592 0.661707
0.432197 0.414557 0.662379
0.499733 0.423621 0.663661
0.577661 0.434913 0.665827
0.662409 0.441810 0.672969
0.765530 0.490730 0.701167
0.869871 0.555261 0.741756
0.334600 0.529046 0.658167
0.354528 0.531151 0.659419
0.416266 0.538750 0.663783
0.504387 0.553704 0.670741
0.584741 0.560357 0.673426
0.666072 0.566339 0.678737
0.767208 0.599603 0.707820
0.870024 0.645319 0.747555
0.265263 0.663783 0.646326
0.290562 0.664515 0.647730
0.364172 0.666957 0.652491
0.462898 0.671015 0.660548
0.566674 0.676753 0.671687
0.672236 0.686000 0.687404
0.770291 0.708339 0.715663
0.870390 0.743099 0.756039
0.210513 0.809354 0.633936
0.239841 0.810025 0.635218
0.319463 0.812528 0.639765
0.419074 0.817380 0.646448
0.523735 0.825345 0.651820
0.639948 0.832212 0.652186
0.767575 0.829404 0.647974
0.892393 0.833738 0.687251
0.000000 0.951446 0.588525
0.000000 0.951904 0.588800
0.111147 0.953704 0.589044
0.288182 0.957336 0.586786
0.424475 0.962890 0.580499
0.581598 0.962676 0.589319
0.719966 0.960082 0.574884
0.854490 0.956329 0.590478
0.449012 0.241764 0.782254
0.459815 0.239963 0.782193
0.495308 0.233494 0.782071
0.551141 0.222477 0.782040
0.620325 0.215763 0.782773
0.699092 0.237583 0.787625
0.783474 0.261814 0.793545
0.883818 0.379339 0.819699
0.452308 0.240513 0.781643
0.462715 0.238712 0.781643
0.497047 0.232670 0.781643
0.551934 0.224338 0.781735
0.621332 0.251713 0.783200
0.699672 0.269841 0.787991
0.783566 0.290929 0.793851
0.883665 0.399145 0.820218
0.458320 0.305333 0.782437
0.468360 0.307225 0.782528
0.502037 0.314061 0.782986
0.556451 0.326909 0.783719
0.624933 0.346044 0.784787
0.701625 0.359442 0.789120
0.783932 0.373754 0.794888
0.883207 0.460304 0.822049
0.469215 0.436683 0.785702
0.478981 0.437842 0.785794
0.511254 0.441535 0.786191
0.564538 0.449744 0.786801
0.631403 0.462287 0.787747
0.705196 0.473396 0.790982
0.784543 0.481392 0.796719
0.882994 0.542657 0.824857
0.489174 0.571069 0.789090
0.501640 0.574334 0.789578
0.532921 0.577600 0.790249
0.577325 0.576776 0.790982
0.637720 0.578088 0.792020
0.709529 0.586999 0.793851
0.786038 0.590753 0.799832
0.883482 0.634974 0.828702
0.445808 0.671260 0.783688
0.459693 0.672572 0.784360
0.503624 0.677089 0.786679
0.567468 0.683986 0.790982
0.643153 0.693812 0.797299
0.713954 0.696071 0.800076
0.788998 0.701076 0.804776
0.884825 0.732876 0.833829
0.376104 0.793729 0.774594
0.392981 0.793912 0.775326
0.445258 0.794553 0.777798
0.518608 0.795926 0.782162
0.604456 0.798428 0.788815
0.697444 0.802884 0.798459
0.794461 0.810910 0.812589
0.887175 0.833249 0.840330
0.359838 0.920836 0.761440
0.374762 0.921263 0.762417
0.420874 0.922972 0.765560
0.487770 0.926513 0.770230
0.568414 0.932250 0.775631
0.657191 0.940703 0.778866
0.762112 0.947906 0.777523
0.882872 0.945312 0.775296
0.557366 0.393927 0.904753
0.564843 0.393652 0.904784
0.590478 0.393011 0.904814
0.633234 0.392157 0.904906
0.689174 0.391699 0.905119
0.753567 0.386206 0.906493
0.824826 0.367926 0.909941
0.901793 0.378424 0.914092
0.557794 0.393805 0.904723
0.565209 0.393561 0.904723
0.590570 0.392981 0.904784
0.633112 0.392218 0.904936
0.688899 0.391882 0.905211
0.753323 0.386511 0.906554
0.825010 0.379980 0.910002
0.901671 0.397803 0.914183
0.556298 0.394018 0.904814
0.563592 0.393805 0.904845
0.588800 0.393256 0.904936
0.631434 0.394415 0.905119
0.689235 0.413184 0.905516
0.755123 0.433295 0.906706
0.826169 0.445441 0.910185
0.901427 0.457099 0.914458
0.566369 0.486030 0.905638
0.573693 0.487373 0.905669
0.598901 0.492042 0.905791
0.641230 0.500542 0.906035
0.696498 0.512657 0.906432
0.759945 0.527977 0.907103
0.827939 0.533043 0.910735
0.901366 0.537316 0.915282
0.605188 0.625238 0.906432
0.609552 0.624109 0.906584
0.624201 0.618891 0.907012
0.647822 0.604578 0.907958
0.701198 0.611200 0.908507
0.763241 0.620325 0.909270
0.829801 0.625879 0.912108
0.901701 0.628351 0.916869
0.613977 0.724392 0.907073
0.621363 0.725734 0.907378
0.645899 0.730098 0.908446
0.683131 0.735164 0.910338
0.713252 0.722499 0.911559
0.765164 0.716365 0.912810
0.832273 0.723690 0.914458
0.902770 0.725429 0.919524
0.571344 0.808499 0.903685
0.579339 0.808988 0.904051
0.605768 0.810513 0.905303
0.648920 0.813077 0.907652
0.705684 0.817166 0.911406
0.772824 0.824002 0.916838
0.834470 0.821561 0.919585
0.905089 0.825589 0.923735
0.500633 0.917662 0.897826
0.510094 0.917632 0.898161
0.541375 0.917571 0.899321
0.592554 0.917662 0.901579
0.658534 0.918029 0.905119
0.734768 0.919219 0.910369
0.818784 0.922087 0.918212
0.909850 0.928862 0.930785
