其他预设/【213】赛博朋克科幻预设52款/1.LUT预设（视频调色-PR-AE-PS-FCPX-达芬奇用）/赛博朋克科幻__-5 强度5.cube
# Created by Adobe Lightroom plugin Export LUT (1.17.0)
# www.johnrellis.com/lightroom/exportlut.htm
# Preset: 赛博朋克科幻[素锦印象]-5 强度5
# Color profile: /Library/Application Support/Adobe/Color/Profiles/Recommended/AdobeRGB1998.icc
LUT_3D_SIZE 32
0.081025 0.078309 0.062196
0.083925 0.078126 0.062959
0.087678 0.077760 0.064607
0.096284 0.076631 0.067506
0.108888 0.074983 0.071656
0.125673 0.071809 0.077394
0.147555 0.064912 0.084932
0.175204 0.046571 0.095430
0.209689 0.000000 0.108675
0.251957 0.000000 0.125521
0.302129 0.000000 0.146365
0.357855 0.000000 0.170565
0.417121 0.000000 0.197543
0.478126 0.000000 0.226810
0.538628 0.000000 0.257420
0.597040 0.000000 0.288609
0.651362 0.000000 0.319493
0.699489 0.000000 0.348211
0.741634 0.000000 0.374731
0.780087 0.000000 0.400000
0.815488 0.000000 0.424292
0.848203 0.000000 0.447547
0.878386 0.000000 0.469825
0.906218 0.000000 0.491066
0.931975 0.000000 0.511315
0.955840 0.000000 0.530755
0.977905 0.000000 0.549523
0.998413 0.000000 0.567926
1.000000 0.000000 0.586145
1.000000 0.000000 0.604791
1.000000 0.000000 0.624231
1.000000 0.000000 0.645258
0.080171 0.081514 0.064881
0.082033 0.081605 0.062226
0.087495 0.077821 0.063294
0.096010 0.076722 0.067140
0.108370 0.075135 0.071321
0.125002 0.072053 0.077089
0.146792 0.065248 0.084962
0.174319 0.047639 0.094911
0.208835 0.000000 0.108248
0.251194 0.000000 0.125154
0.301274 0.000000 0.146120
0.357092 0.000000 0.170199
0.416388 0.000000 0.197238
0.477424 0.000000 0.226383
0.538079 0.000000 0.257115
0.596490 0.000000 0.288365
0.650935 0.000000 0.319158
0.699092 0.000000 0.348028
0.741329 0.000000 0.374517
0.779843 0.000000 0.399847
0.815274 0.000000 0.424170
0.848020 0.000000 0.447517
0.878264 0.000000 0.469734
0.906157 0.000000 0.490974
0.931914 0.000000 0.511284
0.955779 0.000000 0.530724
0.977905 0.000000 0.549523
0.998413 0.000000 0.567864
1.000000 0.000000 0.586114
1.000000 0.000000 0.604791
1.000000 0.000000 0.624231
1.000000 0.000000 0.645258
0.078859 0.085847 0.068360
0.080720 0.087465 0.067353
0.083558 0.085908 0.062531
0.095613 0.077943 0.064240
0.107881 0.075288 0.070985
0.124361 0.071870 0.076783
0.145846 0.065644 0.084688
0.173251 0.048829 0.094697
0.207614 0.000000 0.107820
0.249943 0.000000 0.124666
0.300084 0.000000 0.145510
0.355871 0.000000 0.169741
0.415259 0.000000 0.196719
0.476478 0.000000 0.225956
0.537133 0.000000 0.256596
0.595880 0.000000 0.288029
0.650294 0.000000 0.318853
0.698604 0.000000 0.347723
0.741024 0.000000 0.374304
0.779538 0.000000 0.399664
0.815091 0.000000 0.424018
0.847868 0.000000 0.447333
0.878111 0.000000 0.469642
0.906035 0.000000 0.490852
0.931853 0.000000 0.511162
0.955718 0.000000 0.530663
0.977844 0.000000 0.549462
0.998383 0.000000 0.567834
1.000000 0.000000 0.586114
1.000000 0.000000 0.604791
1.000000 0.000000 0.624231
1.000000 0.000000 0.645258
0.075227 0.097261 0.076570
0.076295 0.097169 0.075563
0.080934 0.099306 0.073762
0.087312 0.095399 0.062867
0.106844 0.078950 0.064912
0.123140 0.073182 0.072236
0.143832 0.066529 0.083528
0.171115 0.051179 0.093690
0.205264 0.002808 0.107027
0.247562 0.000000 0.123781
0.297551 0.000000 0.144503
0.353491 0.000000 0.168765
0.412970 0.000000 0.195590
0.474281 0.000000 0.224826
0.535302 0.000000 0.255711
0.594232 0.000000 0.287114
0.649042 0.000000 0.318120
0.697536 0.000000 0.347082
0.740108 0.000000 0.373724
0.778836 0.000000 0.399207
0.814542 0.000000 0.423590
0.847440 0.000000 0.447059
0.877806 0.000000 0.469368
0.905760 0.000000 0.490700
0.931640 0.000000 0.511070
0.955596 0.000000 0.530541
0.977722 0.000000 0.549371
0.998322 0.000000 0.567773
1.000000 0.000000 0.586053
1.000000 0.000000 0.604730
1.000000 0.000000 0.624201
1.000000 0.000000 0.645258
0.065797 0.119356 0.091951
0.066590 0.117800 0.090730
0.070497 0.117952 0.088441
0.079347 0.118349 0.082307
0.092287 0.109316 0.062745
0.121340 0.085084 0.065492
0.142214 0.071321 0.073152
0.168643 0.057160 0.086488
0.202060 0.007691 0.104158
0.243748 0.000000 0.122194
0.293797 0.000000 0.142885
0.349676 0.000000 0.167056
0.409430 0.000000 0.193973
0.471015 0.000000 0.223270
0.532372 0.000000 0.254215
0.591669 0.000000 0.285679
0.646937 0.000000 0.316899
0.695827 0.000000 0.345983
0.738796 0.000000 0.372900
0.777829 0.000000 0.398474
0.813718 0.000000 0.423011
0.846860 0.000000 0.446571
0.877317 0.000000 0.469001
0.905425 0.000000 0.490425
0.931365 0.000000 0.510765
0.955352 0.000000 0.530358
0.977569 0.000000 0.549218
0.998199 0.000000 0.567651
1.000000 0.000000 0.586023
1.000000 0.000000 0.604669
1.000000 0.000000 0.624170
1.000000 0.000000 0.645258
0.024018 0.153719 0.116396
0.027710 0.151766 0.114961
0.035218 0.149722 0.112459
0.060365 0.148836 0.105348
0.073945 0.142367 0.091341
0.099001 0.128389 0.061219
0.140780 0.094697 0.065217
0.166232 0.066255 0.071992
0.199161 0.028748 0.090059
0.240116 0.000000 0.111666
0.289097 0.000000 0.137301
0.344701 0.000000 0.164828
0.404578 0.000000 0.191775
0.466682 0.000000 0.221164
0.528557 0.000000 0.252171
0.588373 0.000000 0.283909
0.644129 0.000000 0.315251
0.693538 0.000000 0.344610
0.736934 0.000000 0.371710
0.776394 0.000000 0.397498
0.812619 0.000000 0.422278
0.845975 0.000000 0.445991
0.876646 0.000000 0.468544
0.904906 0.000000 0.489998
0.930968 0.000000 0.510521
0.955077 0.000000 0.530114
0.977386 0.000000 0.549065
0.998047 0.000000 0.567529
1.000000 0.000000 0.585901
1.000000 0.000000 0.604608
1.000000 0.000000 0.624140
1.000000 0.000000 0.645289
0.000000 0.202579 0.152071
0.000000 0.200015 0.150118
0.000000 0.196689 0.147738
0.000000 0.192660 0.138582
0.017365 0.188724 0.125429
0.063050 0.172488 0.101564
0.107729 0.153628 0.057160
0.165896 0.110292 0.063569
0.195987 0.059998 0.068116
0.236881 0.000000 0.091829
0.285618 0.000000 0.119234
0.340673 0.000000 0.150057
0.399786 0.000000 0.184054
0.462287 0.000000 0.220188
0.523827 0.000000 0.249729
0.584192 0.000000 0.281590
0.640650 0.000000 0.313207
0.690761 0.000000 0.342931
0.734737 0.000000 0.370306
0.774624 0.000000 0.396338
0.811215 0.000000 0.421271
0.844877 0.000000 0.445197
0.875761 0.000000 0.467842
0.904265 0.000000 0.489479
0.930480 0.000000 0.510124
0.954711 0.000000 0.529778
0.977081 0.000000 0.548791
0.997864 0.000000 0.567346
1.000000 0.000000 0.585779
1.000000 0.000000 0.604547
1.000000 0.000000 0.624109
1.000000 0.000000 0.645319
0.000000 0.265354 0.200839
0.000000 0.262913 0.198856
0.000000 0.259495 0.196078
0.000000 0.253544 0.186160
0.000000 0.245945 0.169833
0.000000 0.237003 0.149050
0.023377 0.208957 0.114168
0.118990 0.185672 0.045716
0.197330 0.132235 0.060426
0.231510 0.075807 0.067811
0.281804 0.000000 0.090883
0.336980 0.000000 0.125277
0.396399 0.000000 0.161288
0.458106 0.000000 0.199557
0.519921 0.000000 0.239994
0.581292 0.000000 0.283146
0.636439 0.000000 0.310796
0.687404 0.000000 0.340856
0.732052 0.000000 0.368536
0.772519 0.000000 0.394965
0.809537 0.000000 0.420142
0.843534 0.000000 0.444190
0.874754 0.000000 0.467109
0.903471 0.000000 0.488899
0.929870 0.000000 0.509606
0.954253 0.000000 0.529473
0.976745 0.000000 0.548516
0.997620 0.000000 0.567163
1.000000 0.000000 0.585657
1.000000 0.000000 0.604425
1.000000 0.000000 0.624079
1.000000 0.000000 0.645319
0.000000 0.338476 0.263859
0.000000 0.336034 0.261662
0.000000 0.332921 0.258885
0.000000 0.326665 0.248478
0.000000 0.318425 0.230228
0.000000 0.308049 0.206790
0.000000 0.289464 0.174197
0.000000 0.254185 0.129763
0.134615 0.226505 0.017700
0.236820 0.162051 0.048463
0.277836 0.099367 0.063783
0.332921 0.000000 0.083406
0.392615 0.000000 0.127962
0.454810 0.000000 0.170047
0.516869 0.000000 0.212436
0.577142 0.000000 0.255375
0.633600 0.000000 0.298589
0.684627 0.000000 0.340948
0.729488 0.000000 0.368780
0.770016 0.000000 0.393286
0.807523 0.000000 0.418769
0.842008 0.000000 0.443122
0.873594 0.000000 0.466224
0.902525 0.000000 0.488228
0.929168 0.000000 0.509056
0.953735 0.000000 0.528985
0.976379 0.000000 0.548180
0.997345 0.000000 0.566918
1.000000 0.000000 0.585473
1.000000 0.000000 0.604364
1.000000 0.000000 0.624018
1.000000 0.000000 0.645319
0.000000 0.417090 0.340429
0.000000 0.415045 0.338445
0.000000 0.412360 0.335637
0.000000 0.407050 0.325597
0.000000 0.399786 0.306401
0.000000 0.389899 0.280858
0.000000 0.377966 0.249851
0.000000 0.348547 0.203128
0.000000 0.306615 0.147829
0.153902 0.276493 0.000000
0.284001 0.199435 0.018097
0.330999 0.131502 0.053193
0.388098 0.000000 0.068055
0.450690 0.000000 0.125795
0.513542 0.000000 0.175143
0.574640 0.000000 0.221805
0.631800 0.000000 0.267308
0.682856 0.000000 0.311101
0.727321 0.000000 0.352239
0.767544 0.000000 0.391913
0.805905 0.000000 0.420325
0.840208 0.000000 0.441840
0.872190 0.000000 0.465217
0.901488 0.000000 0.487343
0.928374 0.000000 0.508415
0.953094 0.000000 0.528527
0.975921 0.000000 0.547845
0.997070 0.000000 0.566644
1.000000 0.000000 0.585290
1.000000 0.000000 0.604211
1.000000 0.000000 0.624018
1.000000 0.000000 0.645380
0.000000 0.494850 0.427314
0.000000 0.493263 0.425513
0.000000 0.491157 0.422980
0.000000 0.487068 0.414130
0.000000 0.481788 0.395148
0.000000 0.474586 0.369726
0.000000 0.464851 0.337224
0.000000 0.452949 0.298619
0.000000 0.411902 0.235050
0.000000 0.364294 0.168246
0.177554 0.333471 0.000000
0.335210 0.250553 0.000000
0.388678 0.171542 0.020722
0.444343 0.000000 0.061952
0.510063 0.000000 0.116670
0.571679 0.000000 0.175509
0.629572 0.000000 0.227054
0.681392 0.000000 0.274449
0.726802 0.000000 0.318761
0.767666 0.000000 0.360784
0.804837 0.000000 0.401007
0.838682 0.000000 0.439399
0.870787 0.000000 0.465339
0.900237 0.000000 0.486458
0.927428 0.000000 0.507683
0.952453 0.000000 0.527916
0.975433 0.000000 0.547387
0.996704 0.000000 0.566339
1.000000 0.000000 0.585046
1.000000 0.000000 0.604059
1.000000 0.000000 0.623926
1.000000 0.000000 0.645380
0.000000 0.563592 0.513115
0.000000 0.562493 0.511711
0.000000 0.560723 0.509545
0.000000 0.558099 0.503014
0.000000 0.556115 0.487282
0.000000 0.552819 0.465003
0.000000 0.547631 0.435340
0.000000 0.539971 0.397406
0.000000 0.522789 0.345708
0.000000 0.476875 0.268986
0.000000 0.427131 0.184390
0.204349 0.395056 0.000000
0.388952 0.311315 0.000000
0.449165 0.216831 0.000000
0.503075 0.004517 0.044312
0.568414 0.000000 0.096437
0.627039 0.000000 0.170687
0.679805 0.000000 0.227298
0.725978 0.000000 0.277073
0.767636 0.000000 0.323033
0.805417 0.000000 0.366369
0.839658 0.000000 0.407263
0.870848 0.000000 0.446052
0.899321 0.000000 0.482612
0.926421 0.000000 0.506889
0.951659 0.000000 0.527276
0.974884 0.000000 0.546899
0.996338 0.000000 0.565942
1.000000 0.000000 0.584802
1.000000 0.000000 0.603937
1.000000 0.000000 0.623835
1.000000 0.000000 0.645411
0.000000 0.619745 0.588281
0.000000 0.618982 0.587243
0.000000 0.617792 0.585687
0.000000 0.615839 0.581476
0.000000 0.616144 0.569268
0.000000 0.616297 0.551781
0.000000 0.616083 0.528283
0.000000 0.614740 0.497383
0.000000 0.611414 0.457282
0.000000 0.587671 0.390967
0.000000 0.540703 0.303685
0.000000 0.492073 0.196719
0.232578 0.458625 0.000000
0.445289 0.377264 0.000000
0.509911 0.265232 0.000000
0.563409 0.127382 0.002197
0.623590 0.000000 0.065217
0.677852 0.000000 0.159518
0.725002 0.000000 0.222995
0.767453 0.000000 0.276402
0.805875 0.000000 0.324529
0.840635 0.000000 0.369146
0.872160 0.000000 0.410986
0.900938 0.000000 0.450355
0.927214 0.000000 0.487251
0.951293 0.000000 0.521782
0.974273 0.000000 0.546410
0.995911 0.000000 0.565545
1.000000 0.000000 0.584527
1.000000 0.000000 0.603784
1.000000 0.000000 0.623804
1.000000 0.000000 0.645441
0.000000 0.665583 0.652338
0.000000 0.664973 0.651423
0.000000 0.664179 0.650324
0.000000 0.662348 0.647822
0.000000 0.663783 0.638544
0.000000 0.665980 0.625025
0.000000 0.668574 0.606867
0.000000 0.671473 0.583093
0.000000 0.674067 0.551965
0.000000 0.675807 0.512016
0.000000 0.645808 0.432013
0.000000 0.600427 0.337011
0.000000 0.555688 0.206516
0.261753 0.521660 0.000000
0.508934 0.451270 0.000000
0.569146 0.315496 0.000000
0.620447 0.190860 0.000000
0.672572 0.000000 0.058839
0.723690 0.000000 0.141482
0.767025 0.000000 0.215122
0.806149 0.000000 0.272801
0.841459 0.000000 0.323461
0.873503 0.000000 0.369726
0.902556 0.000000 0.412696
0.929046 0.000000 0.452766
0.953277 0.000000 0.490181
0.975586 0.000000 0.525048
0.995727 0.000000 0.562493
1.000000 0.000000 0.584253
1.000000 0.000000 0.603601
1.000000 0.000000 0.623713
1.000000 0.000000 0.645472
0.000000 0.702998 0.705959
0.000000 0.702510 0.705287
0.000000 0.701961 0.704402
0.000000 0.700679 0.702541
0.000000 0.701991 0.696254
0.000000 0.705348 0.686000
0.000000 0.709560 0.672114
0.000000 0.714656 0.653803
0.000000 0.720546 0.630243
0.000000 0.726925 0.599725
0.000000 0.729458 0.556420
0.000000 0.695735 0.466682
0.000000 0.653986 0.367529
0.000000 0.615503 0.212497
0.290837 0.581720 0.000000
0.569329 0.523156 0.000000
0.624659 0.365240 0.000000
0.672328 0.247654 0.000000
0.716396 0.000000 0.053040
0.766262 0.000000 0.115328
0.806088 0.000000 0.204044
0.842130 0.000000 0.266972
0.874632 0.000000 0.320439
0.904112 0.000000 0.368597
0.930846 0.000000 0.412909
0.955291 0.000000 0.453803
0.977691 0.000000 0.491920
0.998383 0.000000 0.527367
1.000000 0.000000 0.562585
1.000000 0.000000 0.603418
1.000000 0.000000 0.623682
1.000000 0.000000 0.645563
0.000000 0.733822 0.750729
0.000000 0.733425 0.750210
0.000000 0.733059 0.749538
0.000000 0.732082 0.748104
0.000000 0.732631 0.744106
0.000000 0.736629 0.736141
0.000000 0.741695 0.725551
0.000000 0.747951 0.711788
0.000000 0.755459 0.693721
0.000000 0.764248 0.670741
0.000000 0.773861 0.640925
0.000000 0.769406 0.586236
0.000000 0.738460 0.495521
0.000000 0.700160 0.393713
0.000000 0.668208 0.213443
0.318059 0.635981 0.000000
0.611078 0.579278 0.000000
0.674495 0.413275 0.000000
0.718502 0.300084 0.000000
0.759518 0.095308 0.043183
0.804990 0.000000 0.092470
0.842435 0.000000 0.190738
0.875486 0.000000 0.259709
0.905394 0.000000 0.316350
0.932494 0.000000 0.366583
0.957153 0.000000 0.412299
0.979675 0.000000 0.454383
1.000000 0.000000 0.493233
1.000000 0.000000 0.529534
1.000000 0.000000 0.563348
1.000000 0.000000 0.609705
1.000000 0.000000 0.645624
0.000000 0.759213 0.787991
0.000000 0.759030 0.787625
0.000000 0.758633 0.787106
0.000000 0.757931 0.786007
0.000000 0.757565 0.783719
0.000000 0.761776 0.777584
0.000000 0.767178 0.769406
0.000000 0.773953 0.758755
0.000000 0.782193 0.745052
0.000000 0.791989 0.727565
0.000000 0.803281 0.705226
0.000000 0.815640 0.676539
0.000000 0.803403 0.610163
0.000000 0.775051 0.518975
0.000000 0.739925 0.416052
0.000000 0.714015 0.211215
0.342260 0.683131 0.000000
0.645014 0.629206 0.000000
0.719173 0.458656 0.000000
0.760708 0.350164 0.000000
0.799191 0.198520 0.040650
0.839017 0.000000 0.103792
0.875914 0.000000 0.176150
0.906340 0.000000 0.252293
0.933837 0.000000 0.312474
0.958770 0.000000 0.364813
0.981476 0.000000 0.412116
1.000000 0.000000 0.455390
1.000000 0.000000 0.495491
1.000000 0.000000 0.532647
1.000000 0.000000 0.567376
1.000000 0.000000 0.615290
0.000000 0.780484 0.819211
0.000000 0.780270 0.818875
0.000000 0.780026 0.818540
0.000000 0.779477 0.817655
0.000000 0.778561 0.816281
0.000000 0.782193 0.811826
0.000000 0.787716 0.805478
0.000000 0.794614 0.797238
0.000000 0.803006 0.786740
0.000000 0.813138 0.773434
0.000000 0.825040 0.756680
0.000000 0.838590 0.735256
0.000000 0.853239 0.707851
0.000000 0.832975 0.629572
0.000000 0.807309 0.539117
0.000000 0.775570 0.436316
0.000000 0.755093 0.205722
0.366064 0.725673 0.000000
0.673823 0.674586 0.000000
0.760006 0.502129 0.000000
0.799252 0.397894 0.000000
0.835355 0.269169 0.058412
0.870268 0.000000 0.121462
0.906798 0.000000 0.162875
0.934691 0.000000 0.246586
0.959960 0.000000 0.310094
0.982910 0.000000 0.364630
1.000000 0.000000 0.413611
1.000000 0.000000 0.458320
1.000000 0.000000 0.499702
1.000000 0.000000 0.538109
1.000000 0.000000 0.574212
0.000000 0.799008 0.846281
0.000000 0.798856 0.846067
0.000000 0.798703 0.845731
0.000000 0.798276 0.845121
0.000000 0.797604 0.844053
0.000000 0.799588 0.841337
0.000000 0.805112 0.836423
0.000000 0.811887 0.830045
0.000000 0.820340 0.822019
0.000000 0.830381 0.811948
0.000000 0.842344 0.799222
0.000000 0.856168 0.783200
0.000000 0.871641 0.762905
0.000000 0.879026 0.725277
0.000000 0.860166 0.647364
0.000000 0.837003 0.557733
0.000000 0.808469 0.455238
0.000000 0.792721 0.200290
0.390082 0.764431 0.000000
0.699031 0.716121 0.000000
0.797513 0.543694 0.000000
0.834440 0.443336 0.000000
0.868315 0.329625 0.077394
0.899382 0.167880 0.143191
0.934173 0.000000 0.166018
0.960693 0.000000 0.244205
0.983917 0.000000 0.310918
1.000000 0.000000 0.367681
1.000000 0.000000 0.418494
1.000000 0.000000 0.465003
1.000000 0.000000 0.507866
1.000000 0.000000 0.547997
0.000000 0.815793 0.870359
0.000000 0.815640 0.870176
0.000000 0.815518 0.869963
0.000000 0.815244 0.869444
0.000000 0.814725 0.868681
0.000000 0.814878 0.867277
0.000000 0.820157 0.863371
0.000000 0.826780 0.858457
0.000000 0.834928 0.852293
0.000000 0.844755 0.844511
0.000000 0.856382 0.834867
0.000000 0.870054 0.822812
0.000000 0.885588 0.807645
0.000000 0.902403 0.788479
0.000000 0.901793 0.739925
0.000000 0.884916 0.663386
0.000000 0.864317 0.575128
0.000000 0.838834 0.473610
0.000000 0.827085 0.194461
0.414343 0.799832 0.000000
0.721157 0.754055 0.000000
0.830900 0.588128 0.000000
0.866514 0.487160 0.000000
0.898161 0.385168 0.102571
0.927092 0.266178 0.165164
0.957641 0.000000 0.195193
0.984344 0.000000 0.248020
1.000000 0.000000 0.317205
1.000000 0.000000 0.376165
1.000000 0.000000 0.428931
1.000000 0.000000 0.477302
1.000000 0.000000 0.522362
0.000000 0.830961 0.891814
0.000000 0.830869 0.891691
0.000000 0.830808 0.891508
0.000000 0.830594 0.891142
0.000000 0.830198 0.890501
0.000000 0.829709 0.889677
0.000000 0.833371 0.887144
0.000000 0.839750 0.883299
0.000000 0.847532 0.878447
0.000000 0.856931 0.872465
0.000000 0.868101 0.865080
0.000000 0.881224 0.855894
0.000000 0.896330 0.844480
0.000000 0.913024 0.830167
0.000000 0.930449 0.812100
0.000000 0.922484 0.753262
0.000000 0.907530 0.678340
0.000000 0.889342 0.591669
0.000000 0.866789 0.491310
0.000000 0.858366 0.190890
0.438514 0.832090 0.000000
0.740780 0.788815 0.000000
0.859709 0.640650 0.000000
0.895720 0.529046 0.000000
0.925292 0.436896 0.132601
0.952178 0.341650 0.192569
0.978698 0.218967 0.231205
1.000000 0.000000 0.260746
1.000000 0.000000 0.331518
1.000000 0.000000 0.392401
1.000000 0.000000 0.447456
1.000000 0.000000 0.498299
0.000000 0.844846 0.911040
0.000000 0.844816 0.910918
0.000000 0.844755 0.910765
0.000000 0.844602 0.910491
0.000000 0.844327 0.910002
0.000000 0.843961 0.909361
0.000000 0.845029 0.908110
0.000000 0.851041 0.905058
0.000000 0.858488 0.901305
0.000000 0.867399 0.896635
0.000000 0.878019 0.890959
0.000000 0.890532 0.883879
0.000000 0.904906 0.875181
0.000000 0.921050 0.864408
0.000000 0.938293 0.850950
0.000000 0.951720 0.828153
0.000000 0.941070 0.765469
0.000000 0.928130 0.692531
0.000000 0.912261 0.607874
0.000000 0.893217 0.503319
0.000000 0.886870 0.192020
0.464729 0.861387 0.000000
0.758724 0.820615 0.000000
0.885985 0.690242 0.000000
0.922271 0.569757 0.069917
0.949859 0.486641 0.166720
0.974701 0.408179 0.225620
0.997375 0.335729 0.274754
1.000000 0.207797 0.293614
1.000000 0.192691 0.356237
1.000000 0.214908 0.419104
1.000000 0.244877 0.476570
0.000000 0.857633 0.928252
0.000000 0.857603 0.928161
0.000000 0.857572 0.928099
0.000000 0.857450 0.927825
0.000000 0.857267 0.927459
0.000000 0.857023 0.926970
0.000000 0.856748 0.926360
0.000000 0.861021 0.924346
0.000000 0.868070 0.921386
0.000000 0.876493 0.917754
0.000000 0.886534 0.913298
0.000000 0.898283 0.907866
0.000000 0.911925 0.901213
0.000000 0.927337 0.892973
0.000000 0.944060 0.882841
0.000000 0.961089 0.870237
0.000000 0.966979 0.837858
0.000000 0.957885 0.777249
0.000000 0.946807 0.706508
0.000000 0.933196 0.623926
0.000000 0.918151 0.509422
0.000000 0.912688 0.199313
0.492195 0.888029 0.000000
0.775418 0.849638 0.000000
0.910002 0.736538 0.000000
0.946319 0.609247 0.126955
0.971984 0.534569 0.205539
0.994903 0.470039 0.264530
1.000000 0.420356 0.318639
1.000000 0.353979 0.347204
1.000000 0.325170 0.393286
1.000000 0.350195 0.458076
0.000000 0.869444 0.943786
0.000000 0.869444 0.943694
0.000000 0.869383 0.943633
0.000000 0.869322 0.943450
0.000000 0.869230 0.943175
0.000000 0.869078 0.942779
0.000000 0.868864 0.942321
0.000000 0.869902 0.941405
0.000000 0.876524 0.939086
0.000000 0.884459 0.936217
0.000000 0.893889 0.932799
0.000000 0.904936 0.928588
0.000000 0.917754 0.923461
0.000000 0.932403 0.917144
0.000000 0.948425 0.909422
0.000000 0.964996 0.899901
0.000000 0.980957 0.888182
0.000000 0.980499 0.847288
0.000000 0.972992 0.789059
0.000000 0.963745 0.720790
0.000000 0.952331 0.640589
0.000000 0.940764 0.517144
0.000000 0.936034 0.215854
0.521874 0.912108 0.000000
0.791409 0.876158 0.000000
0.931945 0.779843 0.000000
0.968170 0.647608 0.177462
0.991943 0.581384 0.249149
1.000000 0.528893 0.309575
1.000000 0.494240 0.367712
1.000000 0.461891 0.409552
1.000000 0.430701 0.442908
0.000000 0.880400 0.957733
0.000000 0.880400 0.957702
0.000000 0.880400 0.957641
0.000000 0.880369 0.957488
0.000000 0.880308 0.957275
0.000000 0.880217 0.957000
0.000000 0.880095 0.956634
0.000000 0.879973 0.956176
0.000000 0.884001 0.954772
0.000000 0.891478 0.952544
0.000000 0.900298 0.949859
0.000000 0.910674 0.946593
0.000000 0.922759 0.942657
0.000000 0.936553 0.937774
0.000000 0.951812 0.931853
0.000000 0.967834 0.924590
0.000000 0.983490 0.915709
0.000000 0.997436 0.904143
0.000000 0.992523 0.856962
0.000000 0.986511 0.801419
0.000000 0.979095 0.735958
0.000000 0.969848 0.658442
0.000000 0.961151 0.527642
0.174746 0.957092 0.241459
0.553582 0.934051 0.000000
0.807370 0.900511 0.000000
0.952605 0.820493 0.124086
0.987915 0.685145 0.228855
1.000000 0.627436 0.298192
1.000000 0.585687 0.361120
1.000000 0.562951 0.422980
1.000000 0.552758 0.477424
0.000000 0.890654 0.970336
0.000000 0.890623 0.970306
0.000000 0.890654 0.970275
0.000000 0.890623 0.970153
0.000000 0.890623 0.969970
0.000000 0.890562 0.969787
0.000000 0.890532 0.969512
0.000000 0.890501 0.969177
0.000000 0.890623 0.968719
0.000000 0.897642 0.966979
0.000000 0.905913 0.964874
0.000000 0.915618 0.962371
0.000000 0.926940 0.959319
0.000000 0.939940 0.955566
0.000000 0.954437 0.950988
0.000000 0.969848 0.945373
0.000000 0.985168 0.938628
0.000000 0.999084 0.930571
0.191714 1.000000 0.911498
0.147189 1.000000 0.867247
0.076844 0.998596 0.814755
0.000000 0.992920 0.752438
0.000000 0.985840 0.678157
0.085542 0.979583 0.542748
0.274632 0.976043 0.277195
0.588067 0.953948 0.160494
0.823728 0.922881 0.171847
0.973053 0.859434 0.201968
1.000000 0.722133 0.283452
1.000000 0.672694 0.352880
1.000000 0.640589 0.418433
1.000000 0.626612 0.482155
0.000000 0.900206 0.981689
0.000000 0.900237 0.981659
0.000000 0.900237 0.981628
0.000000 0.900267 0.981537
0.000000 0.900267 0.981415
0.000000 0.900267 0.981262
0.000000 0.900298 0.981079
0.000000 0.900328 0.980835
0.000000 0.900359 0.980499
0.000000 0.903105 0.979736
0.000000 0.910857 0.978119
0.000000 0.919921 0.976196
0.000000 0.930510 0.973846
0.000000 0.942687 0.970977
0.000000 0.956451 0.967437
0.000000 0.971313 0.963073
0.000000 0.986206 0.957824
0.000000 0.999939 0.951629
0.295964 1.000000 0.944549
0.336248 1.000000 0.919493
0.308568 1.000000 0.878416
0.275761 1.000000 0.829435
0.237125 1.000000 0.770840
0.189670 1.000000 0.700313
0.257389 0.996002 0.563287
0.359411 0.992950 0.323033
0.625666 0.971984 0.246983
0.841093 0.943420 0.257267
0.991394 0.894835 0.274601
1.000000 0.758358 0.342290
1.000000 0.717006 0.412573
1.000000 0.692866 0.479072
0.000000 0.909209 0.991821
0.000000 0.909178 0.991791
0.000000 0.909209 0.991760
0.000000 0.909239 0.991730
0.000000 0.909270 0.991638
0.000000 0.909331 0.991516
0.000000 0.909392 0.991394
0.000000 0.909483 0.991211
0.000000 0.909606 0.990997
0.000000 0.909697 0.990753
0.000000 0.915129 0.989746
0.000000 0.923613 0.988251
0.000000 0.933501 0.986481
0.000000 0.944884 0.984283
0.000000 0.957916 0.981567
