其他预设/【213】赛博朋克科幻预设52款/1.LUT预设（视频调色-PR-AE-PS-FCPX-达芬奇用）/赛博朋克科幻__-8 强度1.cube
# Created by Adobe Lightroom plugin Export LUT (1.17.0)
# www.johnrellis.com/lightroom/exportlut.htm
# Preset: 赛博朋克科幻[素锦印象]-8 强度1
# Color profile: /Library/Application Support/Adobe/Color/Profiles/Recommended/AdobeRGB1998.icc
LUT_3D_SIZE 5
DOMAIN_MIN 0.000000 0.000000 0.000000
DOMAIN_MAX 0.903226 0.903226 0.903226
0.000000 0.012024 0.000000
0.197299 0.000000 0.074464
0.421973 0.000000 0.142367
0.662043 0.000000 0.221927
0.895232 0.000000 0.312566
0.000000 0.219425 0.090059
0.181460 0.215610 0.022827
0.426062 0.132296 0.086885
0.668116 0.000000 0.146487
0.901305 0.000000 0.250645
0.000000 0.456550 0.181125
0.000000 0.463111 0.034852
0.390112 0.458564 0.015442
0.667994 0.377905 0.110780
0.903960 0.266300 0.209415
0.000000 0.693416 0.272374
0.000000 0.697810 0.233921
0.254185 0.707149 0.100679
0.608179 0.699031 0.066743
0.900542 0.629938 0.154818
0.000000 0.920134 0.363165
0.000000 0.920867 0.361395
0.000000 0.931334 0.180667
0.489967 0.931884 0.235080
0.826719 0.920714 0.195132
0.000000 0.010498 0.198367
0.205600 0.000000 0.207797
0.433234 0.000000 0.263554
0.666011 0.000000 0.324987
0.893614 0.000000 0.396826
0.000000 0.209537 0.196262
0.193088 0.213931 0.203281
0.421515 0.181582 0.241062
0.661372 0.000000 0.297002
0.894255 0.000000 0.373602
0.000000 0.451637 0.260288
0.119448 0.456367 0.251194
0.395758 0.457923 0.209781
0.667475 0.380774 0.238193
0.902800 0.286625 0.301976
0.000000 0.689845 0.330907
0.000000 0.693324 0.320989
0.268284 0.705226 0.230106
0.612482 0.698451 0.225406
0.900938 0.626398 0.267918
0.000000 0.919341 0.402045
0.000000 0.920073 0.400549
0.000000 0.927916 0.313939
0.501915 0.930755 0.318669
0.830686 0.920073 0.292393
0.000000 0.000000 0.423560
0.221744 0.000000 0.433356
0.458259 0.000000 0.458656
0.705531 0.000000 0.504326
0.915221 0.000000 0.531853
0.000000 0.229648 0.416968
0.186618 0.210605 0.427924
0.450752 0.190585 0.454475
0.695949 0.158511 0.498085
0.910521 0.000000 0.530114
0.000000 0.432807 0.408148
0.127932 0.437903 0.414252
0.418463 0.454841 0.436194
0.659052 0.434760 0.471992
0.891691 0.420142 0.528801
0.000000 0.678920 0.466407
0.000000 0.681880 0.464973
0.364721 0.692195 0.469184
0.628901 0.695918 0.449256
0.901061 0.622400 0.479957
0.000000 0.915618 0.519280
0.000000 0.916869 0.515373
0.282628 0.919127 0.519188
0.539696 0.926513 0.489693
0.844450 0.917845 0.485237
0.000000 0.000000 0.655573
0.217685 0.000000 0.661830
0.473793 0.000000 0.682979
0.718593 0.000000 0.702083
0.942779 0.000000 0.715877
0.000000 0.209384 0.651240
0.175051 0.203952 0.657649
0.461097 0.183322 0.679377
0.714656 0.114260 0.700191
0.941100 0.000000 0.717098
0.000000 0.457496 0.632807
0.000000 0.455879 0.636378
0.414893 0.450202 0.661341
0.698207 0.458412 0.692103
0.927733 0.444923 0.718105
0.000000 0.660853 0.624537
0.000000 0.662928 0.627405
0.354864 0.670344 0.637995
0.657923 0.691493 0.667201
0.894011 0.676295 0.701442
0.000000 0.908049 0.677668
0.000000 0.909239 0.676081
0.201236 0.912627 0.672786
0.605676 0.914916 0.688991
0.867521 0.914458 0.682033
0.000000 0.000000 0.877562
0.202762 0.000000 0.879850
0.459632 0.000000 0.887694
0.714565 0.000000 0.899107
0.953307 0.000000 0.906249
0.000000 0.198489 0.875883
0.156863 0.189731 0.878202
0.447486 0.152224 0.886290
0.712184 0.000000 0.898711
0.951629 0.000000 0.905852
0.000000 0.467994 0.865629
0.000000 0.463874 0.868406
0.410040 0.442298 0.878813
0.700557 0.445472 0.893980
0.944335 0.404791 0.903777
0.000000 0.686702 0.858335
0.000000 0.684443 0.859159
0.316503 0.679225 0.861936
0.656580 0.684382 0.878904
0.931243 0.697566 0.899962
0.000000 0.903899 0.854795
0.000000 0.903746 0.855222
0.159548 0.902525 0.856657
0.575799 0.899199 0.859953
0.900481 0.909422 0.882719
