其他预设/【213】赛博朋克科幻预设52款/1.LUT预设（视频调色-PR-AE-PS-FCPX-达芬奇用）/赛博朋克科幻__-6 强度3.cube
# Created by Adobe Lightroom plugin Export LUT (1.17.0)
# www.johnrellis.com/lightroom/exportlut.htm
# Preset: 赛博朋克科幻[素锦印象]-6 强度3
# Color profile: /Library/Application Support/Adobe/Color/Profiles/Recommended/AdobeRGB1998.icc
LUT_3D_SIZE 5
DOMAIN_MIN 0.000000 0.000000 0.000000
DOMAIN_MAX 0.903226 0.903226 0.903226
0.091707 0.075990 0.073304
0.224247 0.000000 0.097475
0.448157 0.000000 0.170443
0.711360 0.000000 0.265660
0.932250 0.000000 0.330663
0.193851 0.220890 0.000000
0.245060 0.199557 0.002258
0.467628 0.121920 0.083558
0.731319 0.000000 0.194339
0.939300 0.000000 0.299962
0.343450 0.404120 0.000000
0.373999 0.401190 0.000000
0.481270 0.399145 0.000000
0.747585 0.433845 0.000000
0.950988 0.233066 0.120027
0.503410 0.609522 0.000000
0.524743 0.609369 0.000000
0.604150 0.616632 0.000000
0.741085 0.622461 0.000000
0.942290 0.607141 0.000000
0.677821 0.851499 0.000000
0.694301 0.851286 0.000000
0.751644 0.850340 0.000000
0.856168 0.854948 0.000000
0.963897 0.817624 0.000000
0.099153 0.062684 0.224674
0.233494 0.000000 0.230411
0.432074 0.000000 0.267155
0.696376 0.000000 0.346838
0.925414 0.000000 0.396826
0.129946 0.223697 0.139803
0.232425 0.214847 0.194614
0.455940 0.107515 0.236179
0.715969 0.000000 0.307897
0.932982 0.000000 0.369879
0.338750 0.408240 0.000000
0.370459 0.406867 0.000000
0.482368 0.404425 0.000000
0.747738 0.406622 0.121279
0.948577 0.237308 0.267247
0.511589 0.608545 0.000000
0.533654 0.608148 0.000000
0.612299 0.618616 0.000000
0.742336 0.622522 0.000000
0.945647 0.605646 0.000000
0.679805 0.851835 0.000000
0.696193 0.851621 0.000000
0.753292 0.850706 0.000000
0.857847 0.855406 0.000000
0.964721 0.816098 0.000000
0.129732 0.000000 0.464332
0.263157 0.000000 0.466712
0.470375 0.000000 0.478767
0.682734 0.000000 0.505760
0.905699 0.000000 0.539269
0.077272 0.227329 0.441901
0.236515 0.198306 0.445899
0.463172 0.048035 0.460853
0.689570 0.000000 0.491737
0.912810 0.000000 0.526085
0.162600 0.423346 0.231815
0.240940 0.429633 0.265385
0.467506 0.448341 0.397742
0.723018 0.380194 0.443488
0.933440 0.180179 0.474128
0.448188 0.623285 0.019348
0.476539 0.624475 0.074556
0.567803 0.627039 0.096590
0.740597 0.636255 0.181918
0.948760 0.626795 0.323949
0.678950 0.852903 0.000000
0.694575 0.853300 0.000000
0.750332 0.854307 0.000000
0.854307 0.857511 0.000000
0.966064 0.814237 0.000000
0.158663 0.000000 0.683742
0.272953 0.000000 0.684779
0.474159 0.000000 0.689113
0.678798 0.000000 0.697597
0.902281 0.000000 0.730434
0.087495 0.191714 0.675837
0.244541 0.165530 0.677333
0.464271 0.000000 0.682612
0.678492 0.000000 0.692073
0.906523 0.000000 0.723629
0.000000 0.500999 0.637476
0.235569 0.477882 0.646906
0.466712 0.433021 0.657008
0.689448 0.339574 0.669978
0.915831 0.000000 0.684627
0.156893 0.636530 0.324315
0.228855 0.640558 0.345251
0.413886 0.655543 0.427680
0.719295 0.698756 0.615503
0.918944 0.659968 0.650111
0.521477 0.861143 0.000000
0.548913 0.861418 0.104494
0.647944 0.862089 0.250919
0.775845 0.863767 0.123903
0.952270 0.830961 0.325841
0.165469 0.000000 0.834440
0.258885 0.000000 0.834867
0.438178 0.000000 0.836515
0.622126 0.000000 0.839384
0.806638 0.000000 0.843717
0.125856 0.133089 0.832364
0.236454 0.084382 0.832914
0.426123 0.000000 0.834928
0.622461 0.000000 0.838560
0.812161 0.000000 0.843442
0.214237 0.452186 0.821805
0.303380 0.449470 0.822324
0.450629 0.399878 0.825498
0.626184 0.258946 0.831571
0.823789 0.000000 0.840116
0.146883 0.758022 0.785855
0.273320 0.745968 0.788846
0.513237 0.711116 0.799161
0.713161 0.683711 0.808255
0.867948 0.580926 0.819455
0.000000 0.905791 0.436439
0.148196 0.904326 0.447486
0.348974 0.897765 0.493080
0.606775 0.880369 0.600977
0.910552 0.889128 0.780972
