其他预设/【213】赛博朋克科幻预设52款/1.LUT预设（视频调色-PR-AE-PS-FCPX-达芬奇用）/赛博朋克科幻__-7 强度2.cube
# Created by Adobe Lightroom plugin Export LUT (1.17.0)
# www.johnrellis.com/lightroom/exportlut.htm
# Preset: 赛博朋克科幻[素锦印象]-7 强度2
# Color profile: /Library/Application Support/Adobe/Color/Profiles/Recommended/AdobeRGB1998.icc
LUT_3D_SIZE 8
DOMAIN_MIN 0.000000 0.000000 0.000000
DOMAIN_MAX 0.903226 0.903226 0.903226
0.049317 0.070375 0.063386
0.122805 0.076997 0.059907
0.265934 0.108278 0.018158
0.437781 0.156527 0.000000
0.615778 0.211063 0.000000
0.761044 0.253605 0.000000
0.885924 0.289464 0.000000
0.994446 0.313085 0.000000
0.022919 0.113619 0.064454
0.120058 0.115908 0.053559
0.264652 0.136965 0.005310
0.436713 0.180026 0.000000
0.615015 0.227665 0.000000
0.760678 0.266911 0.000000
0.885863 0.300847 0.000000
0.994446 0.324743 0.000000
0.000000 0.213016 0.083803
0.093324 0.218784 0.084565
0.255863 0.226841 0.069398
0.432776 0.248905 0.000000
0.611658 0.284916 0.000000
0.758938 0.314244 0.000000
0.885313 0.339239 0.000000
0.994537 0.359777 0.000000
0.000000 0.340490 0.118288
0.000000 0.345525 0.107118
0.219364 0.361486 0.108675
0.429908 0.369238 0.084138
0.612238 0.383429 0.000000
0.755856 0.387549 0.000000
0.884031 0.402625 0.000000
0.994263 0.414160 0.000000
0.000000 0.481056 0.155489
0.000000 0.484871 0.146334
0.204257 0.496193 0.156100
0.397009 0.518273 0.137881
0.610376 0.517876 0.115602
0.760372 0.505577 0.020813
0.882719 0.490791 0.000000
0.993103 0.488533 0.000000
0.000000 0.624445 0.194491
0.000000 0.627070 0.188540
0.148959 0.634546 0.192691
0.358099 0.649409 0.205539
0.575097 0.667048 0.190402
0.765072 0.648127 0.186069
0.886534 0.617670 0.153475
0.992279 0.593408 0.084627
0.000000 0.762692 0.234653
0.000000 0.764218 0.232944
0.005982 0.768795 0.239567
0.365118 0.774929 0.293248
0.513268 0.789212 0.287907
0.738552 0.798642 0.282261
0.896178 0.763241 0.290135
0.990753 0.720027 0.266606
0.000000 0.893462 0.274113
0.000000 0.894072 0.277836
0.000000 0.895293 0.304631
0.425299 0.892393 0.414038
0.546960 0.900969 0.414649
0.692317 0.909026 0.415290
0.881621 0.911070 0.417365
1.000000 0.864469 0.427283
0.007355 0.083192 0.111727
0.114900 0.068910 0.107362
0.257267 0.107027 0.091585
0.428351 0.154025 0.065827
0.609583 0.204685 0.000000
0.758083 0.248386 0.000000
0.885008 0.284825 0.000000
0.994537 0.313542 0.000000
0.000000 0.132296 0.120089
0.109957 0.123720 0.115480
0.253361 0.142184 0.104982
0.427405 0.178714 0.074128
0.608911 0.224125 0.000000
0.757656 0.263706 0.000000
0.884855 0.296971 0.000000
0.994507 0.323735 0.000000
0.000000 0.215579 0.122744
0.095857 0.221744 0.128847
0.248905 0.228977 0.127718
0.424292 0.247410 0.100404
0.606409 0.283909 0.000000
0.756191 0.313054 0.000000
0.884215 0.337835 0.000000
0.994446 0.357458 0.000000
0.000000 0.342107 0.153353
0.005249 0.346990 0.151797
0.221347 0.361761 0.154788
0.424506 0.369757 0.141878
0.606561 0.382086 0.097047
0.753292 0.388800 0.000000
0.882780 0.403754 0.000000
0.993957 0.414343 0.000000
0.000000 0.482002 0.187137
0.000000 0.485634 0.181949
0.206577 0.495918 0.193240
0.390326 0.518120 0.180606
0.606409 0.518456 0.167788
0.757046 0.506432 0.129366
0.880858 0.492164 0.051057
0.992462 0.491218 0.000000
0.000000 0.624689 0.221134
0.000000 0.627222 0.217258
0.133547 0.635157 0.212467
0.360327 0.648737 0.237400
0.570794 0.666773 0.226535
0.762387 0.649378 0.225498
0.884550 0.619959 0.198856
0.991119 0.596185 0.150973
0.000000 0.762631 0.256199
0.000000 0.764157 0.255131
0.022309 0.768673 0.262181
0.370062 0.774075 0.317449
0.516197 0.788510 0.313542
0.735927 0.798550 0.310216
0.894163 0.764981 0.319066
0.989349 0.723079 0.296361
0.000000 0.893462 0.289250
0.000000 0.894041 0.292638
0.000000 0.895323 0.317388
0.411688 0.893217 0.413031
0.551873 0.900175 0.432715
0.691798 0.908721 0.433997
0.879942 0.911131 0.436927
0.999908 0.866270 0.446876
0.000000 0.132296 0.224125
0.000000 0.089967 0.219089
0.237552 0.095491 0.206729
0.418738 0.090486 0.171939
0.599329 0.194186 0.169070
0.750423 0.247898 0.147616
0.881590 0.284031 0.082643
0.994079 0.307622 0.000000
0.000000 0.180331 0.230350
0.067872 0.162753 0.225193
0.235264 0.142245 0.211002
0.414160 0.176913 0.195010
0.597284 0.221622 0.179049
0.749844 0.265568 0.153902
0.881346 0.298009 0.093294
0.993957 0.319341 0.000000
0.000000 0.264836 0.242435
0.000000 0.259007 0.238315
0.227604 0.239109 0.226352
0.407904 0.259739 0.217990
0.593378 0.290043 0.200229
0.748135 0.319402 0.173495
0.880339 0.343694 0.124697
0.993408 0.358648 0.000000
0.000000 0.346960 0.227237
0.000000 0.349645 0.225956
0.215335 0.362402 0.241794
0.406867 0.373419 0.248417
0.589319 0.381537 0.229221
0.744778 0.399084 0.206882
0.878325 0.414588 0.171084
0.992187 0.422431 0.084627
0.000000 0.482826 0.253513
0.000000 0.486549 0.254887
0.189792 0.497383 0.263890
0.369085 0.516533 0.277775
0.592309 0.521080 0.276860
0.745754 0.511192 0.256474
0.874815 0.502312 0.228519
0.989746 0.504356 0.181857
0.000000 0.624781 0.285039
0.000000 0.627253 0.285863
0.143923 0.634852 0.291783
0.368139 0.645716 0.322210
0.555352 0.665522 0.319036
0.752468 0.653834 0.324956
0.877470 0.628840 0.306004
0.986877 0.607233 0.273045
0.000000 0.762387 0.314092
0.000000 0.763821 0.314916
0.000000 0.768154 0.323095
0.372137 0.772183 0.375006
0.526116 0.785763 0.387427
0.726589 0.798032 0.389319
0.887144 0.771054 0.401526
0.984527 0.733944 0.380743
0.000000 0.893584 0.334936
0.000000 0.894255 0.335973
0.000000 0.895628 0.354925
0.371679 0.895201 0.420142
0.566247 0.897490 0.486641
0.688808 0.907744 0.488716
0.873960 0.911376 0.494087
0.994873 0.872129 0.504631
0.000000 0.210361 0.373266
0.000000 0.176577 0.367224
0.207218 0.121157 0.347875
0.389014 0.120455 0.329839
0.579950 0.121584 0.303105
0.740475 0.264530 0.299199
0.874388 0.315282 0.286961
0.990112 0.338079 0.247013
0.000000 0.252354 0.379339
0.000000 0.230167 0.372808
0.200381 0.166110 0.353643
0.387732 0.163607 0.332708
0.579034 0.170993 0.306096
0.738979 0.286198 0.305791
0.873716 0.330724 0.292668
0.990112 0.348394 0.249271
0.000000 0.335332 0.388251
0.000000 0.327550 0.385382
0.203372 0.292607 0.370764
0.382818 0.261753 0.343053
0.575677 0.285222 0.321355
0.734585 0.348425 0.326146
0.871885 0.377874 0.309728
0.989441 0.387243 0.263951
0.000000 0.434272 0.398322
0.000000 0.429877 0.395087
0.174746 0.413458 0.383795
0.372747 0.380926 0.362829
0.565362 0.404639 0.360143
0.729549 0.428534 0.352331
0.869291 0.447028 0.335210
0.987396 0.452735 0.296696
0.000000 0.498360 0.362036
0.000000 0.499275 0.360693
0.164828 0.500328 0.356268
0.364324 0.512016 0.379980
0.565454 0.525536 0.396246
0.725490 0.522759 0.384985
0.865202 0.531975 0.371862
0.984039 0.535027 0.343053
0.000000 0.624659 0.365484
0.000000 0.627039 0.367254
0.109865 0.634302 0.376471
0.351476 0.644099 0.401526
0.526818 0.661555 0.428656
0.734188 0.661189 0.441749
0.865049 0.645380 0.428412
0.979248 0.628107 0.401740
0.000000 0.761898 0.390661
0.000000 0.763302 0.391760
0.000000 0.767453 0.399268
0.334447 0.772671 0.426337
0.541527 0.779843 0.482826
0.709682 0.796323 0.488899
0.875120 0.780697 0.504479
0.976654 0.752132 0.486549
0.000000 0.893584 0.407172
0.000000 0.894285 0.407721
0.000000 0.896178 0.413733
0.309117 0.896849 0.451606
0.582086 0.892973 0.556512
0.692287 0.905150 0.560204
0.862913 0.911772 0.567681
0.987213 0.880949 0.579370
0.000000 0.296666 0.535607
0.000000 0.273167 0.530053
0.000000 0.169986 0.514855
0.369482 0.153597 0.480354
0.547631 0.157839 0.459724
0.716732 0.198459 0.429755
0.864683 0.304326 0.411444
0.975769 0.448280 0.457374
0.000000 0.330571 0.540093
0.000000 0.311284 0.534691
0.000000 0.209659 0.519066
0.366979 0.193149 0.484779
0.546410 0.195987 0.461860
0.716030 0.233036 0.433021
0.862760 0.341619 0.424750
0.975708 0.456001 0.459174
0.000000 0.413916 0.549859
0.000000 0.406500 0.548119
0.124117 0.363470 0.531304
0.356451 0.293645 0.499245
0.542351 0.290715 0.469490
0.713680 0.325444 0.445502
0.856260 0.445350 0.468818
0.975921 0.480110 0.463294
0.000000 0.505669 0.552911
0.000000 0.501030 0.551019
0.094789 0.484749 0.543664
0.367315 0.445777 0.522332
0.534630 0.406989 0.483803
0.710109 0.443000 0.470283
0.854002 0.506188 0.486976
0.978119 0.512383 0.460670
0.000000 0.606195 0.556725
0.000000 0.603143 0.554589
0.000000 0.591302 0.546563
0.343023 0.567468 0.530877
0.523095 0.527642 0.504173
0.702846 0.553399 0.507897
0.852476 0.573632 0.504173
0.976196 0.579644 0.483406
0.000000 0.652064 0.504143
0.000000 0.652216 0.503197
0.000000 0.651606 0.500206
0.326635 0.647303 0.495003
0.518212 0.653285 0.521569
0.707424 0.667689 0.547662
0.848631 0.663416 0.539391
0.971130 0.664637 0.524865
0.000000 0.766781 0.489174
0.000000 0.766629 0.487282
0.000000 0.766476 0.484627
0.292699 0.771695 0.502373
0.511040 0.776974 0.541497
0.679835 0.792355 0.579309
0.859831 0.790829 0.598413
0.968261 0.771359 0.583734
0.000000 0.893675 0.491310
0.000000 0.894377 0.491737
0.000000 0.896361 0.495796
0.213626 0.898314 0.511162
0.499031 0.897673 0.561700
0.699031 0.900511 0.632807
0.845121 0.912078 0.641688
0.978119 0.891447 0.655665
0.000000 0.374182 0.678584
0.000000 0.358068 0.675410
0.000000 0.275975 0.666041
0.295750 0.220279 0.644862
0.529107 0.203281 0.610437
0.693477 0.229496 0.581903
0.839078 0.305730 0.553094
0.966094 0.440864 0.560418
0.000000 0.400946 0.681239
0.000000 0.386999 0.678065
0.000000 0.323888 0.667597
0.291814 0.253849 0.647486
0.528008 0.235630 0.612116
0.692470 0.258457 0.583642
0.838468 0.329168 0.556359
0.965545 0.456519 0.564965
0.000000 0.478737 0.690700
0.000000 0.469001 0.687770
0.000000 0.434943 0.675807
0.280339 0.347875 0.656306
0.523735 0.326207 0.619776
0.689021 0.339879 0.590021
0.836545 0.399878 0.568048
0.964019 0.505577 0.579858
0.000000 0.562280 0.691646
0.000000 0.558709 0.690822
0.000000 0.547967 0.687648
0.355138 0.515038 0.669947
0.517479 0.449134 0.635828
0.682795 0.445991 0.601404
0.834257 0.495949 0.588251
0.960266 0.591028 0.613336
0.000000 0.655756 0.691676
0.000000 0.653346 0.690761
0.000000 0.644862 0.687160
0.340246 0.630762 0.679774
0.538048 0.599176 0.659358
0.674586 0.555322 0.617121
0.834226 0.597314 0.613581
0.960418 0.653529 0.631922
0.000000 0.752499 0.691798
0.000000 0.750698 0.690730
0.000000 0.743771 0.686763
0.292668 0.729732 0.678828
0.509361 0.706325 0.664912
0.663752 0.664790 0.636255
0.831083 0.692134 0.644495
0.962280 0.705715 0.638788
0.000000 0.800412 0.642756
0.000000 0.798337 0.640650
0.000000 0.794553 0.636378
0.256291 0.790463 0.632319
0.477974 0.781064 0.626398
0.661341 0.783200 0.653651
0.837766 0.798672 0.685481
0.958099 0.790036 0.675074
0.000000 0.905303 0.613916
0.000000 0.905180 0.612329
0.000000 0.904051 0.607202
0.000000 0.900389 0.599573
0.432654 0.899382 0.621759
0.655543 0.899748 0.671321
0.817288 0.910857 0.715602
0.966949 0.903410 0.733730
0.000000 0.442695 0.801755
0.000000 0.433021 0.800107
0.000000 0.391760 0.794339
0.115480 0.300816 0.784512
0.484291 0.295995 0.762051
0.683680 0.293126 0.735531
0.825956 0.339208 0.697383
0.948699 0.441016 0.675837
0.000000 0.463630 0.803220
0.000000 0.454963 0.801572
0.000000 0.426368 0.794980
0.121309 0.329168 0.785916
0.484108 0.323400 0.763577
0.682765 0.317479 0.736385
0.825071 0.359380 0.698939
0.948272 0.455482 0.678370
0.000000 0.526513 0.808560
0.000000 0.520073 0.806943
0.000000 0.501457 0.800381
0.228763 0.438087 0.789487
0.485176 0.404974 0.768826
0.679713 0.389990 0.739223
0.822171 0.421637 0.704341
0.947082 0.501122 0.686793
0.000000 0.607141 0.812192
0.000000 0.604822 0.812070
0.000000 0.599390 0.810910
0.344244 0.581384 0.797147
0.494423 0.518761 0.778225
0.674708 0.488777 0.744259
0.817563 0.505882 0.713527
0.946075 0.567132 0.700130
0.000000 0.692561 0.810849
0.000000 0.690852 0.810636
0.000000 0.686122 0.809689
0.313573 0.682002 0.807370
0.549950 0.666499 0.792508
0.669917 0.603632 0.760281
0.812039 0.595758 0.725795
0.945830 0.646662 0.718349
0.000000 0.785000 0.809476
0.000000 0.783719 0.809201
0.000000 0.779385 0.808011
0.253941 0.772549 0.805478
0.521263 0.764065 0.800961
0.691646 0.739986 0.784909
0.804746 0.691981 0.741207
0.946868 0.737026 0.743130
0.000000 0.879393 0.808377
0.000000 0.878447 0.808011
0.000000 0.874693 0.806577
0.136202 0.866941 0.803708
0.472755 0.853605 0.798337
0.660456 0.833158 0.787808
0.794491 0.792203 0.759030
0.946777 0.818509 0.768612
0.000000 0.940642 0.770718
0.000000 0.939574 0.769467
0.000000 0.935210 0.764920
0.000000 0.924926 0.756527
0.403998 0.916258 0.752987
0.615259 0.905272 0.748714
0.793606 0.904448 0.776211
0.952300 0.915068 0.809873
0.000000 0.501274 0.904082
0.000000 0.497597 0.903288
0.000000 0.495491 0.899565
0.000000 0.417182 0.896666
0.434943 0.407874 0.885985
0.657893 0.412055 0.868467
0.831418 0.429633 0.851835
0.945373 0.483742 0.808347
0.000000 0.516472 0.904723
0.000000 0.513115 0.903960
0.000000 0.511162 0.900267
0.078828 0.450294 0.896635
0.439612 0.429694 0.886534
0.658503 0.432074 0.869139
0.830594 0.445655 0.852201
0.944823 0.495521 0.809567
0.000000 0.563256 0.907195
0.000000 0.560388 0.906462
0.000000 0.558343 0.903014
0.286656 0.547631 0.896513
0.456977 0.497963 0.888518
0.661097 0.494453 0.871550
0.827604 0.495155 0.853513
0.943023 0.533257 0.813626
0.000000 0.631373 0.911254
0.000000 0.629541 0.911223
0.000000 0.625086 0.908293
0.330144 0.637018 0.900542
0.494789 0.598138 0.892149
0.664515 0.580438 0.876463
0.821897 0.564355 0.856138
0.940368 0.588800 0.820493
0.000000 0.709621 0.909972
0.000000 0.707393 0.910063
0.000000 0.702052 0.910155
0.038361 0.701656 0.909453
0.553185 0.719997 0.898100
0.667811 0.674159 0.884886
0.813138 0.642359 0.860655
0.936919 0.657038 0.830137
0.000000 0.798306 0.908537
0.000000 0.796719 0.908598
0.000000 0.792172 0.908598
0.000000 0.788479 0.907897
0.472999 0.792905 0.905913
0.706874 0.796628 0.896391
0.806729 0.743069 0.873442
0.932525 0.734737 0.842588
0.000000 0.892149 0.907408
0.000000 0.891173 0.907408
0.000000 0.887785 0.907286
0.000000 0.882719 0.906493
0.409003 0.878569 0.904540
0.663722 0.875639 0.902220
0.828763 0.865263 0.894224
0.926787 0.819699 0.857664
0.000000 0.988647 0.906920
0.000000 0.988281 0.906859
0.000000 0.986542 0.906554
0.000000 0.981872 0.905669
0.307408 0.972412 0.903746
0.609277 0.959838 0.900938
0.793301 0.944854 0.896208
0.917754 0.912352 0.874754
