其他预设/【213】赛博朋克科幻预设52款/1.LUT预设（视频调色-PR-AE-PS-FCPX-达芬奇用）/赛博朋克科幻__-3 强度2.cube
# Created by Adobe Lightroom plugin Export LUT (1.17.0)
# www.johnrellis.com/lightroom/exportlut.htm
# Preset: 赛博朋克科幻[素锦印象]-3 强度2
# Color profile: /Library/Application Support/Adobe/Color/Profiles/Recommended/AdobeRGB1998.icc
LUT_3D_SIZE 32
0.055940 0.065400 0.080964
0.066804 0.064240 0.082399
0.078309 0.062287 0.084688
0.100771 0.056733 0.090028
0.126375 0.040497 0.097475
0.152865 0.014832 0.105959
0.180636 0.000000 0.115480
0.210147 0.000000 0.126192
0.242130 0.000000 0.137758
0.277043 0.000000 0.149874
0.315923 0.000000 0.163119
0.357794 0.000000 0.177035
0.402319 0.000000 0.191531
0.448676 0.000000 0.206149
0.495857 0.000000 0.220462
0.542901 0.000000 0.236057
0.589044 0.000000 0.251987
0.632441 0.000000 0.267063
0.672206 0.000000 0.280827
0.709895 0.000000 0.294072
0.745998 0.000000 0.306737
0.780667 0.000000 0.318853
0.813809 0.000000 0.330541
0.845457 0.000000 0.341772
0.875700 0.000000 0.352605
0.904631 0.000000 0.363989
0.932158 0.000000 0.377111
0.958556 0.000000 0.390417
0.983978 0.000000 0.404059
1.000000 0.000000 0.417975
1.000000 0.000000 0.432258
1.000000 0.000000 0.446937
0.051667 0.076326 0.083925
0.064363 0.074830 0.081422
0.078431 0.069825 0.081453
0.101930 0.059571 0.081697
0.127565 0.040589 0.088960
0.153750 0.014923 0.098604
0.181338 0.000000 0.109071
0.210758 0.000000 0.120089
0.242649 0.000000 0.131594
0.277623 0.000000 0.144320
0.316320 0.000000 0.157717
0.358221 0.000000 0.172030
0.402686 0.000000 0.186770
0.449042 0.000000 0.201266
0.496132 0.000000 0.216617
0.543084 0.000000 0.233127
0.589166 0.000000 0.249210
0.632563 0.000000 0.264317
0.672328 0.000000 0.278386
0.710048 0.000000 0.291630
0.746151 0.000000 0.304417
0.780789 0.000000 0.316747
0.813931 0.000000 0.328649
0.845579 0.000000 0.340063
0.875853 0.000000 0.350927
0.904814 0.000000 0.361822
0.932311 0.000000 0.375219
0.958679 0.000000 0.388556
0.984131 0.000000 0.402319
1.000000 0.000000 0.416358
1.000000 0.000000 0.430793
1.000000 0.000000 0.445533
0.043153 0.090364 0.088991
0.054597 0.089998 0.082795
0.073518 0.087770 0.081422
0.100404 0.077729 0.082399
0.127596 0.061433 0.082460
0.155154 0.015045 0.085359
0.182345 0.000000 0.097566
0.211490 0.000000 0.109987
0.243351 0.000000 0.122621
0.278202 0.000000 0.135836
0.316869 0.000000 0.149966
0.358740 0.000000 0.164706
0.403174 0.000000 0.179782
0.449409 0.000000 0.195438
0.496284 0.000000 0.212131
0.543359 0.000000 0.228977
0.589410 0.000000 0.245304
0.632776 0.000000 0.260594
0.672541 0.000000 0.274968
0.710262 0.000000 0.288396
0.746365 0.000000 0.301488
0.780972 0.000000 0.313909
0.814115 0.000000 0.325933
0.845792 0.000000 0.337560
0.876036 0.000000 0.348516
0.905028 0.000000 0.359136
0.932525 0.000000 0.372442
0.958923 0.000000 0.386023
0.984344 0.000000 0.400000
1.000000 0.000000 0.414130
1.000000 0.000000 0.428717
1.000000 0.000000 0.443671
0.018647 0.116701 0.099275
0.044923 0.115785 0.095705
0.049836 0.115877 0.084657
0.090211 0.111757 0.082185
0.124819 0.099458 0.082918
0.153109 0.079103 0.084291
0.182284 0.041108 0.084932
0.213230 0.000000 0.086336
0.244694 0.000000 0.101625
0.279484 0.000000 0.117159
0.317937 0.000000 0.133150
0.359716 0.000000 0.149844
0.403845 0.000000 0.166934
0.449897 0.000000 0.184573
0.496834 0.000000 0.202060
0.543786 0.000000 0.219425
0.589837 0.000000 0.236362
0.633204 0.000000 0.252293
0.672938 0.000000 0.267063
0.710628 0.000000 0.281163
0.746792 0.000000 0.294682
0.781430 0.000000 0.307561
0.814511 0.000000 0.319982
0.846159 0.000000 0.331914
0.876432 0.000000 0.343328
0.905394 0.000000 0.354223
0.933013 0.000000 0.366369
0.959380 0.000000 0.380377
0.984771 0.000000 0.394659
1.000000 0.000000 0.409339
1.000000 0.000000 0.424231
1.000000 0.000000 0.439460
0.000000 0.147677 0.113191
0.010224 0.146731 0.110353
0.029450 0.146120 0.103365
0.058747 0.145022 0.085023
0.110079 0.138582 0.083742
0.149264 0.128023 0.083833
0.179080 0.103700 0.087312
0.210513 0.079774 0.087831
0.244114 0.002930 0.089082
0.280430 0.000000 0.090669
0.319249 0.000000 0.106020
0.360754 0.000000 0.126345
0.404913 0.000000 0.146120
0.450843 0.000000 0.165377
0.497627 0.000000 0.184482
0.544549 0.000000 0.203037
0.590631 0.000000 0.221286
0.633845 0.000000 0.238285
0.673671 0.000000 0.254246
0.711391 0.000000 0.269230
0.747433 0.000000 0.283513
0.782101 0.000000 0.297215
0.815183 0.000000 0.310338
0.846830 0.000000 0.322942
0.877073 0.000000 0.334813
0.906004 0.000000 0.346319
0.933715 0.000000 0.357153
0.960113 0.000000 0.371374
0.985473 0.000000 0.386297
1.000000 0.000000 0.401434
1.000000 0.000000 0.416999
1.000000 0.000000 0.432776
0.000000 0.180026 0.128389
0.000000 0.179232 0.126009
0.000000 0.178225 0.122591
0.016297 0.177554 0.104860
0.075044 0.174960 0.086549
0.130953 0.166751 0.085084
0.174380 0.159091 0.084779
0.206546 0.134981 0.089998
0.240604 0.111086 0.092103
0.277501 0.077241 0.093202
0.317845 0.000000 0.094362
0.361242 0.000000 0.096162
0.406256 0.000000 0.108003
0.452125 0.000000 0.133364
0.498909 0.000000 0.156100
0.545708 0.000000 0.177981
0.591669 0.000000 0.198489
0.634882 0.000000 0.217441
0.674586 0.000000 0.235111
0.712276 0.000000 0.251774
0.748348 0.000000 0.267491
0.782986 0.000000 0.282475
0.816098 0.000000 0.296635
0.847684 0.000000 0.310155
0.877897 0.000000 0.322850
0.906828 0.000000 0.335119
0.934539 0.000000 0.346654
0.961120 0.000000 0.358495
0.986419 0.000000 0.374487
1.000000 0.000000 0.390631
1.000000 0.000000 0.406867
1.000000 0.000000 0.423407
0.000000 0.213626 0.145113
0.000000 0.213016 0.142733
0.000000 0.212253 0.139651
0.000000 0.211093 0.127962
0.000855 0.210178 0.099702
0.097139 0.205570 0.087617
0.153292 0.196445 0.086793
0.200839 0.191684 0.085481
0.235904 0.169528 0.091249
0.273808 0.143069 0.095918
0.314488 0.116487 0.096742
0.358160 0.063172 0.097932
0.404211 0.000000 0.099184
0.452033 0.000000 0.100862
0.500633 0.000000 0.104402
0.547204 0.000000 0.136110
0.593103 0.000000 0.162692
0.636194 0.000000 0.186221
0.675898 0.000000 0.207553
0.713497 0.000000 0.227115
0.749599 0.000000 0.245060
0.784207 0.000000 0.262058
0.817197 0.000000 0.277775
0.848814 0.000000 0.292821
0.878965 0.000000 0.306859
0.907836 0.000000 0.320256
0.935515 0.000000 0.332860
0.962127 0.000000 0.344701
0.987640 0.000000 0.358801
1.000000 0.000000 0.376104
1.000000 0.000000 0.393591
1.000000 0.000000 0.411139
0.000000 0.248692 0.163149
0.000000 0.248264 0.161074
0.000000 0.247593 0.158022
0.000000 0.246189 0.150607
0.000000 0.245518 0.128237
0.000000 0.244572 0.089357
0.120943 0.237858 0.088746
0.177401 0.228183 0.088502
0.229252 0.225925 0.085908
0.267887 0.205936 0.091951
0.310277 0.179080 0.098268
0.354620 0.153201 0.099733
0.400977 0.115480 0.100587
0.449042 0.000000 0.101595
0.497993 0.000000 0.102876
0.546624 0.000000 0.104494
0.594385 0.000000 0.106386
0.637873 0.000000 0.135012
0.677424 0.000000 0.165133
0.715023 0.000000 0.191073
0.751064 0.000000 0.213596
0.785611 0.000000 0.233829
0.818631 0.000000 0.252384
0.850156 0.000000 0.269718
0.880278 0.000000 0.285771
0.909117 0.000000 0.300755
0.936736 0.000000 0.314763
0.963317 0.000000 0.327947
0.988983 0.000000 0.340307
1.000000 0.000000 0.357458
1.000000 0.000000 0.376501
1.000000 0.000000 0.395544
0.000000 0.286320 0.182681
0.000000 0.285893 0.180789
0.000000 0.285466 0.178012
0.000000 0.284245 0.171389
0.000000 0.283421 0.155123
0.000000 0.282872 0.124880
0.042756 0.281102 0.089509
0.146242 0.273136 0.088930
0.204013 0.262455 0.089357
0.259525 0.262058 0.085084
0.303044 0.245060 0.091066
0.349096 0.220584 0.097414
0.397192 0.190768 0.101991
0.445686 0.158999 0.102602
0.494697 0.104402 0.103273
0.543664 0.000000 0.104494
0.591638 0.000000 0.105989
0.636835 0.000000 0.108217
0.678279 0.000000 0.110842
0.716945 0.000000 0.130434
0.752865 0.000000 0.165103
0.787411 0.000000 0.193210
0.820310 0.000000 0.217166
0.851804 0.000000 0.238315
0.881834 0.000000 0.257603
0.910613 0.000000 0.275303
0.938170 0.000000 0.291417
0.964691 0.000000 0.306493
0.990295 0.000000 0.320378
1.000000 0.000000 0.333623
1.000000 0.000000 0.354894
1.000000 0.000000 0.375952
0.000000 0.327184 0.203799
0.000000 0.326848 0.202029
0.000000 0.326543 0.199374
0.000000 0.325658 0.193271
0.000000 0.324529 0.181674
0.000000 0.324193 0.156741
0.000000 0.323888 0.114656
0.078431 0.321324 0.087098
0.174105 0.311467 0.087526
0.233341 0.300145 0.087709
0.289220 0.296269 0.084138
0.341039 0.285588 0.087587
0.390082 0.263096 0.095033
0.441260 0.230137 0.102998
0.491035 0.200320 0.103761
0.540337 0.157900 0.104616
0.588586 0.075532 0.105562
0.633967 0.000000 0.107515
0.675654 0.000000 0.110353
0.715358 0.000000 0.113130
0.753353 0.000000 0.116335
0.789456 0.000000 0.123293
0.822324 0.000000 0.163180
0.853696 0.000000 0.193484
0.883665 0.000000 0.219059
0.912352 0.000000 0.241215
0.939879 0.000000 0.260899
0.966339 0.000000 0.278843
0.991882 0.000000 0.295171
1.000000 0.000000 0.310094
1.000000 0.000000 0.327581
1.000000 0.000000 0.351415
0.000000 0.370916 0.226505
0.000000 0.370764 0.224826
0.000000 0.370428 0.222324
0.000000 0.369757 0.216709
0.000000 0.368536 0.207156
0.000000 0.368200 0.187228
0.000000 0.368109 0.154208
0.000000 0.368109 0.093446
0.113222 0.363561 0.083680
0.204257 0.352575 0.084260
0.265446 0.340337 0.084840
0.321508 0.332830 0.081453
0.380835 0.328008 0.081453
0.432380 0.306432 0.089998
0.485115 0.276066 0.099001
0.536461 0.240848 0.104921
0.584955 0.204166 0.105592
0.630579 0.149386 0.107362
0.672694 0.000000 0.109804
0.712764 0.000000 0.112856
0.751034 0.000000 0.115999
0.787503 0.000000 0.119203
0.822354 0.000000 0.122621
0.855497 0.000000 0.126040
0.885801 0.000000 0.159487
0.914427 0.000000 0.192447
0.941802 0.000000 0.219272
0.968200 0.000000 0.242313
0.993683 0.000000 0.262425
1.000000 0.000000 0.280522
1.000000 0.000000 0.296574
1.000000 0.000000 0.320470
0.000000 0.416724 0.250187
0.000000 0.416541 0.248539
0.000000 0.416236 0.246250
0.000000 0.415686 0.241032
0.000000 0.414832 0.232395
0.000000 0.414008 0.217288
0.000000 0.414191 0.189517
0.000000 0.414374 0.146151
0.000000 0.413764 0.080720
0.148745 0.407446 0.078126
0.236667 0.395544 0.078584
0.299962 0.382483 0.078950
0.355413 0.370916 0.077058
0.422156 0.371374 0.070710
0.475135 0.350408 0.082216
0.528435 0.321355 0.093599
0.580865 0.280888 0.105592
0.626825 0.247257 0.107301
0.669306 0.202182 0.109499
0.709712 0.134401 0.112642
0.748318 0.000000 0.115908
0.785061 0.000000 0.119661
0.820127 0.000000 0.123049
0.853513 0.000000 0.126619
0.885374 0.000000 0.130220
0.915740 0.000000 0.133455
0.944030 0.000000 0.154665
0.970306 0.000000 0.189914
0.995666 0.000000 0.217868
1.000000 0.000000 0.241489
1.000000 0.000000 0.261784
1.000000 0.000000 0.280278
0.000000 0.463630 0.274296
0.000000 0.463539 0.272831
0.000000 0.463294 0.270634
0.000000 0.462837 0.265812
0.000000 0.462135 0.257847
0.000000 0.461067 0.246281
0.000000 0.461250 0.222812
0.000000 0.461494 0.187686
0.000000 0.461952 0.129458
0.000000 0.460700 0.071687
0.183871 0.452247 0.069551
0.270787 0.439460 0.069825
0.336034 0.425635 0.069978
0.390875 0.410407 0.069490
0.463783 0.415137 0.051148
0.517601 0.394324 0.070619
0.570642 0.365881 0.085603
0.620905 0.327520 0.101015
0.665553 0.287602 0.109682
0.706386 0.248325 0.112642
0.745327 0.196384 0.116274
0.782406 0.113161 0.120180
0.817685 0.000000 0.123934
0.851286 0.000000 0.127901
0.883360 0.000000 0.131655
0.913878 0.000000 0.135225
0.943084 0.000000 0.138277
0.971130 0.000000 0.141024
0.997955 0.000000 0.147982
1.000000 0.000000 0.185794
1.000000 0.000000 0.214389
1.000000 0.000000 0.238102
0.000000 0.510704 0.298711
0.000000 0.510582 0.297185
0.000000 0.510430 0.295262
0.000000 0.510063 0.290776
0.000000 0.509453 0.283452
0.000000 0.508537 0.272862
0.000000 0.508202 0.254673
0.000000 0.508690 0.224857
0.000000 0.509209 0.180819
0.000000 0.509972 0.098665
0.061982 0.507683 0.058686
0.220035 0.497047 0.056184
0.306004 0.483680 0.055940
0.373053 0.469093 0.054017
0.429816 0.453193 0.052461
0.505455 0.458869 0.000732
0.559136 0.437507 0.049226
0.610285 0.409033 0.076051
0.657862 0.371771 0.096468
0.702663 0.326513 0.113466
0.741970 0.290684 0.117220
0.779355 0.246647 0.121462
0.814939 0.188327 0.125551
0.848844 0.084779 0.129671
0.881041 0.000000 0.133974
0.911772 0.000000 0.137697
0.941161 0.000000 0.141268
0.969360 0.000000 0.144198
0.996521 0.000000 0.146487
1.000000 0.000000 0.147921
1.000000 0.000000 0.148074
1.000000 0.000000 0.177981
0.000000 0.557031 0.322606
0.000000 0.556939 0.321294
0.000000 0.556786 0.319402
0.000000 0.556481 0.315282
0.000000 0.555993 0.308507
0.000000 0.555383 0.298863
0.000000 0.554467 0.285527
0.000000 0.554925 0.259281
0.000000 0.555627 0.223026
0.000000 0.556451 0.167666
0.000000 0.556970 0.048188
0.117983 0.553491 0.024567
0.256382 0.540978 0.023041
0.341955 0.527184 0.020050
0.410346 0.512047 0.017578
0.468696 0.495613 0.013642
0.546044 0.501854 0.000000
0.598322 0.479500 0.002136
0.647089 0.450294 0.064790
0.693294 0.414496 0.091249
0.736904 0.371069 0.113008
0.776028 0.330968 0.122988
0.811917 0.291844 0.127474
0.846067 0.243809 0.132326
0.878508 0.179263 0.136934
0.909453 0.018524 0.141146
0.939025 0.000000 0.145022
0.967376 0.000000 0.148531
0.994690 0.000000 0.151125
1.000000 0.000000 0.153017
1.000000 0.000000 0.153689
1.000000 0.000000 0.152773
0.000000 0.601373 0.345556
0.000000 0.601282 0.344274
0.000000 0.601190 0.342596
0.000000 0.600885 0.338811
0.000000 0.600427 0.332586
0.000000 0.599908 0.323827
0.000000 0.599115 0.312108
0.000000 0.599176 0.291661
0.000000 0.599786 0.260441
0.000000 0.600610 0.216983
0.000000 0.601526 0.146304
0.000000 0.601099 0.016083
0.169131 0.595636 0.000000
0.292699 0.582971 0.000000
0.377447 0.568933 0.000000
0.446906 0.553582 0.000000
0.506523 0.536919 0.000000
0.584863 0.543542 0.000000
0.635096 0.519615 0.000000
0.682521 0.490455 0.047059
0.727260 0.455787 0.086122
0.769467 0.414801 0.111666
0.808591 0.369482 0.130495
0.843015 0.333654 0.135470
0.875731 0.291875 0.140536
0.906889 0.240574 0.145388
0.936645 0.170138 0.149569
0.965179 0.000000 0.153506
0.992645 0.000000 0.156924
1.000000 0.000000 0.159121
1.000000 0.000000 0.160555
1.000000 0.000000 0.160250
0.000000 0.641749 0.366644
0.000000 0.641749 0.365484
0.000000 0.641627 0.363928
0.000000 0.641444 0.360449
0.000000 0.641108 0.354803
0.000000 0.640589 0.346899
0.000000 0.639887 0.336431
0.000000 0.639307 0.321233
0.000000 0.639948 0.294194
0.000000 0.640772 0.258030
0.000000 0.641657 0.206271
0.000000 0.642695 0.113252
0.000000 0.641169 0.000000
0.214023 0.633814 0.000000
0.327672 0.621088 0.000000
0.411109 0.607233 0.000000
0.480964 0.592065 0.000000
0.541863 0.575891 0.000000
0.619501 0.581598 0.000000
0.670497 0.558892 0.000000
0.716548 0.529747 0.014801
0.759854 0.495857 0.081239
0.800565 0.456794 0.111025
0.838773 0.411810 0.135073
0.872679 0.373266 0.145113
0.904051 0.335607 0.150515
0.934020 0.291478 0.155367
0.962737 0.237552 0.159945
0.990356 0.161471 0.163760
1.000000 0.000000 0.166720
1.000000 0.000000 0.168551
1.000000 0.000000 0.169162
0.000000 0.678645 0.386023
0.000000 0.678553 0.384863
0.000000 0.678523 0.383490
0.000000 0.678340 0.380255
0.000000 0.678035 0.375097
0.000000 0.677607 0.368078
0.000000 0.677058 0.358709
0.000000 0.676265 0.346807
0.000000 0.676600 0.324773
0.000000 0.677394 0.293828
0.000000 0.678340 0.252384
0.000000 0.679408 0.191653
0.000000 0.680568 0.036164
0.046906 0.678065 0.000000
0.255070 0.669154 0.000000
0.361364 0.656764 0.000000
0.443793 0.643244 0.000000
0.513695 0.628626 0.000000
0.575433 0.612940 0.000000
0.649866 0.615167 0.000000
0.704555 0.597253 0.000000
0.749203 0.568017 0.000000
0.791165 0.534752 0.077790
0.830411 0.497292 0.111604
0.867155 0.454902 0.138094
0.900969 0.411322 0.156771
0.931090 0.376532 0.162356
0.960052 0.337316 0.167391
0.987854 0.291569 0.171633
1.000000 0.234928 0.175448
1.000000 0.152834 0.177859
1.000000 0.000000 0.179385
0.000000 0.713436 0.404211
0.000000 0.713405 0.403265
0.000000 0.713313 0.401923
0.000000 0.713161 0.399023
0.000000 0.712978 0.394415
0.000000 0.712642 0.388037
0.000000 0.712215 0.379736
0.000000 0.711574 0.369299
0.000000 0.711330 0.353246
0.000000 0.712184 0.326421
0.000000 0.713191 0.291600
0.000000 0.714290 0.244450
0.000000 0.715602 0.171969
0.000000 0.715999 0.023926
0.131594 0.713466 0.000000
0.293736 0.703059 0.000000
0.394690 0.691005 0.000000
0.475471 0.677943 0.000000
0.545434 0.663813 0.000000
0.607721 0.648737 0.000000
0.679591 0.647974 0.000000
0.737453 0.634577 0.000000
0.780758 0.605341 0.000000
0.821164 0.572656 0.075624
0.858976 0.536278 0.113985
0.894377 0.496071 0.142702
0.927520 0.451270 0.166873
0.957122 0.415473 0.176028
0.985077 0.379706 0.181003
1.000000 0.339269 0.185397
1.000000 0.291997 0.188785
1.000000 0.232761 0.191073
0.000000 0.746853 0.421790
0.000000 0.746792 0.420935
0.000000 0.746761 0.419745
0.000000 0.746670 0.417121
0.000000 0.746487 0.412970
0.000000 0.746273 0.407263
0.000000 0.745876 0.399786
0.000000 0.745357 0.390600
0.000000 0.744717 0.379461
0.000000 0.745449 0.356451
0.000000 0.746487 0.326574
0.000000 0.747646 0.287633
0.000000 0.748959 0.234195
0.000000 0.750423 0.146517
0.000000 0.749874 0.045686
0.191501 0.746242 0.007172
0.330877 0.735622 0.000000
0.427131 0.723995 0.000000
0.506676 0.711330 0.000000
0.576287 0.697749 0.000000
0.638727 0.683253 0.000000
0.707881 0.679927 0.000000
0.769192 0.671168 0.000000
0.810941 0.641932 0.000000
0.849973 0.609644 0.076234
0.886442 0.574273 0.118166
0.920531 0.535637 0.148775
0.952575 0.493629 0.174655
0.982055 0.453101 0.192020
1.000000 0.419989 0.197086
1.000000 0.383337 0.201205
1.000000 0.341894 0.204318
0.000000 0.778988 0.438758
0.000000 0.778927 0.437964
0.000000 0.778897 0.436805
0.000000 0.778866 0.434424
0.000000 0.778683 0.430701
0.000000 0.778500 0.425513
0.000000 0.778195 0.418952
0.000000 0.777798 0.410895
0.000000 0.777157 0.401160
0.000000 0.777249 0.384771
0.000000 0.778317 0.358556
0.000000 0.779477 0.325444
0.000000 0.780819 0.282536
0.000000 0.782284 0.222232
0.000000 0.783902 0.112154
0.000000 0.782315 0.066896
0.243137 0.777188 0.046326
0.366857 0.766903 0.016419
0.459083 0.755673 0.000000
0.537041 0.743465 0.000000
0.605951 0.730465 0.000000
0.668482 0.716579 0.000000
0.735164 0.710964 0.000000
0.799802 0.706844 0.000000
0.840116 0.677546 0.000000
0.877745 0.645686 0.080415
0.912932 0.611078 0.124697
0.945861 0.573999 0.156924
0.976806 0.534112 0.184024
1.000000 0.491218 0.207950
1.000000 0.458595 0.215091
1.000000 0.424933 0.219211
0.000000 0.809873 0.454963
0.000000 0.809873 0.454261
0.000000 0.809812 0.453254
0.000000 0.809751 0.451087
0.000000 0.809659 0.447730
0.000000 0.809476 0.443091
0.000000 0.809201 0.437263
0.000000 0.808835 0.430182
0.000000 0.808316 0.421820
0.000000 0.807675 0.411566
0.000000 0.808743 0.388434
0.000000 0.809903 0.359686
0.000000 0.811246 0.323674
0.000000 0.812680 0.276555
0.000000 0.814267 0.208957
0.000000 0.815457 0.098207
0.116213 0.813321 0.086641
0.288853 0.806943 0.075013
0.401648 0.796963 0.061952
0.490425 0.786099 0.029938
0.566705 0.774502 0.000000
0.634943 0.762020 0.000000
0.697200 0.748836 0.000000
0.761166 0.741238 0.000000
0.829313 0.741848 0.000000
0.868284 0.712551 0.000000
0.904631 0.680873 0.088411
0.938598 0.647089 0.133516
0.970459 0.611200 0.166964
1.000000 0.573236 0.195010
1.000000 0.532891 0.220096
1.000000 0.496071 0.235386
0.000000 0.839567 0.470649
0.000000 0.839536 0.469978
0.000000 0.839536 0.469123
0.000000 0.839475 0.467109
0.000000 0.839384 0.464057
0.000000 0.839231 0.459937
0.000000 0.839017 0.454780
0.000000 0.838682 0.448554
0.000000 0.838193 0.441382
0.000000 0.837461 0.433387
0.000000 0.837827 0.416663
0.000000 0.838987 0.391547
0.000000 0.840238 0.360601
0.000000 0.841642 0.321721
0.000000 0.843229 0.270512
0.000000 0.844938 0.194583
0.000000 0.845121 0.118166
0.184176 0.843015 0.108064
0.331243 0.835386 0.098817
0.435767 0.825803 0.087556
0.521050 0.815457 0.073152
0.595666 0.804349 0.048188
0.662959 0.792538 0.000000
0.724819 0.780056 0.000000
0.786191 0.770718 0.000000
0.857877 0.776211 0.000000
0.895537 0.746731 0.000000
0.930724 0.715389 0.099092
0.963622 0.682277 0.144381
0.994415 0.647456 0.178897
1.000000 0.610986 0.207858
1.000000 0.572992 0.234043
0.000000 0.868162 0.485664
0.000000 0.868132 0.485084
0.000000 0.868070 0.484260
0.000000 0.868040 0.482521
0.000000 0.867979 0.479774
0.000000 0.867857 0.476112
0.000000 0.867643 0.471534
0.000000 0.867308 0.466102
0.000000 0.866819 0.459937
0.000000 0.866117 0.453346
0.000000 0.865599 0.443824
0.000000 0.866728 0.421515
0.000000 0.867948 0.394476
0.000000 0.869322 0.361425
0.000000 0.870817 0.319890
0.000000 0.872465 0.264775
0.000000 0.874235 0.180423
0.000000 0.873381 0.140475
0.237980 0.871122 0.131685
0.371435 0.862669 0.122957
0.468940 0.853513 0.112947
0.550988 0.843687 0.100038
0.623835 0.833188 0.084108
0.690181 0.822019 0.061311
0.751369 0.810208 0.000000
0.810269 0.799435 0.000000
0.885679 0.809842 0.000000
0.922179 0.780362 0.000000
0.956176 0.749294 0.112612
0.988006 0.716670 0.157687
1.000000 0.682887 0.192721
1.000000 0.647852 0.222965
0.000000 0.895628 0.500114
0.000000 0.895628 0.499580
0.000000 0.895598 0.498848
0.000000 0.895567 0.497261
0.000000 0.895476 0.494789
0.000000 0.895323 0.491585
0.000000 0.895140 0.487556
0.000000 0.894804 0.482887
0.000000 0.894316 0.477699
0.000000 0.893614 0.472328
0.000000 0.892638 0.467140
0.000000 0.893217 0.450050
0.000000 0.894408 0.426276
0.000000 0.895720 0.397681
0.000000 0.897185 0.362860
0.000000 0.898741 0.318914
0.000000 0.900450 0.260258
0.000000 0.902190 0.171267
0.145296 0.900359 0.164370
0.293004 0.896910 0.156680
0.409888 0.888884 0.148287
0.501518 0.880186 0.138338
0.580499 0.870878 0.126497
0.651362 0.861021 0.112490
0.716548 0.850553 0.094484
0.777096 0.839567 0.069184
0.834012 0.828031 0.000000
0.909972 0.840421 0.000000
0.948180 0.813443 0.044282
0.981079 0.782528 0.128511
1.000000 0.750484 0.173434
1.000000 0.717494 0.209140
0.000000 0.922210 0.514000
0.000000 0.922179 0.513512
0.000000 0.922179 0.512871
0.000000 0.922118 0.511437
0.000000 0.922026 0.509270
0.000000 0.921904 0.506432
0.000000 0.921660 0.502953
0.000000 0.921324 0.498939
0.000000 0.920806 0.494697
0.000000 0.920073 0.490455
0.000000 0.919036 0.486641
0.000000 0.918578 0.477852
0.000000 0.919738 0.456703
0.000000 0.920958 0.431617
0.000000 0.922362 0.401740
0.000000 0.923888 0.365332
0.000000 0.925505 0.319493
0.000000 0.927276 0.257939
0.000000 0.927977 0.196384
0.218143 0.926146 0.189853
0.342290 0.921721 0.182620
0.447333 0.914122 0.174228
0.533593 0.905943 0.164706
0.609430 0.897276 0.153414
0.678370 0.888060 0.139986
0.742214 0.878325 0.124208
0.801968 0.868101 0.104005
0.858549 0.857420 0.075380
0.931395 0.867613 0.000000
0.973632 0.846036 0.079561
1.000000 0.815274 0.146731
1.000000 0.783749 0.191501
0.000000 0.947936 0.527337
0.000000 0.947936 0.526940
0.000000 0.947906 0.526329
0.000000 0.947845 0.525109
0.000000 0.947753 0.523186
0.000000 0.947601 0.520714
0.000000 0.947387 0.517693
0.000000 0.947021 0.514397
0.000000 0.946441 0.510979
0.000000 0.945678 0.507836
0.000000 0.944549 0.505333
0.000000 0.943084 0.503929
0.000000 0.943999 0.486183
0.000000 0.945190 0.464088
0.000000 0.946502 0.438056
0.000000 0.947967 0.407080
0.000000 0.949523 0.369421
0.000000 0.951202 0.322301
0.000000 0.953002 0.258976
0.132692 0.952697 0.223270
0.276097 0.950805 0.217258
0.388342 0.945617 0.210086
0.483833 0.938506 0.201602
0.565240 0.930938 0.192050
0.638087 0.922820 0.181094
0.704982 0.914305 0.168429
0.767361 0.905333 0.153323
0.826261 0.895933 0.135286
0.882353 0.886107 0.112398
0.952850 0.894469 0.024872
0.998627 0.878172 0.106630
1.000000 0.847532 0.168093
0.000000 0.972930 0.540154
0.000000 0.972930 0.539788
0.000000 0.972900 0.539300
0.000000 0.972839 0.538201
0.000000 0.972747 0.536522
0.000000 0.972564 0.534386
0.000000 0.972290 0.531884
0.000000 0.971923 0.529198
0.000000 0.971313 0.526635
0.000000 0.970459 0.524529
0.000000 0.969238 0.523278
0.000000 0.967651 0.523369
0.000000 0.967254 0.515160
0.000000 0.968383 0.495552
0.000000 0.969635 0.472755
