其他预设/【213】赛博朋克科幻预设52款/1.LUT预设（视频调色-PR-AE-PS-FCPX-达芬奇用）/赛博朋克科幻__-5 强度5.cube
# Created by Adobe Lightroom plugin Export LUT (1.17.0)
# www.johnrellis.com/lightroom/exportlut.htm
# Preset: 赛博朋克科幻[素锦印象]-5 强度5
# Color profile: /Library/Application Support/Adobe/Color/Profiles/Recommended/AdobeRGB1998.icc
LUT_3D_SIZE 8
DOMAIN_MIN 0.000000 0.000000 0.000000
DOMAIN_MAX 0.903226 0.903226 0.903226
0.081025 0.078309 0.062196
0.108888 0.074983 0.071656
0.209689 0.000000 0.108675
0.417121 0.000000 0.197543
0.651362 0.000000 0.319493
0.815488 0.000000 0.424292
0.931975 0.000000 0.511315
1.000000 0.000000 0.586145
0.065797 0.119356 0.091951
0.092287 0.109316 0.062745
0.202060 0.007691 0.104158
0.409430 0.000000 0.193973
0.646937 0.000000 0.316899
0.813718 0.000000 0.423011
0.931365 0.000000 0.510765
1.000000 0.000000 0.586023
0.000000 0.338476 0.263859
0.000000 0.318425 0.230228
0.134615 0.226505 0.017700
0.392615 0.000000 0.127962
0.633600 0.000000 0.298589
0.807523 0.000000 0.418769
0.929168 0.000000 0.509056
1.000000 0.000000 0.585473
0.000000 0.619745 0.588281
0.000000 0.616144 0.569268
0.000000 0.611414 0.457282
0.232578 0.458625 0.000000
0.623590 0.000000 0.065217
0.805875 0.000000 0.324529
0.927214 0.000000 0.487251
1.000000 0.000000 0.584527
0.000000 0.759213 0.787991
0.000000 0.757565 0.783719
0.000000 0.782193 0.745052
0.000000 0.803403 0.610163
0.342260 0.683131 0.000000
0.799191 0.198520 0.040650
0.933837 0.000000 0.312474
1.000000 0.000000 0.495491
0.000000 0.830961 0.891814
0.000000 0.830198 0.890501
0.000000 0.847532 0.878447
0.000000 0.896330 0.844480
0.000000 0.907530 0.678340
0.438514 0.832090 0.000000
0.925292 0.436896 0.132601
1.000000 0.000000 0.331518
0.000000 0.880400 0.957733
0.000000 0.880308 0.957275
0.000000 0.884001 0.954772
0.000000 0.922759 0.942657
0.000000 0.983490 0.915709
0.000000 0.979095 0.735958
0.553582 0.934051 0.000000
1.000000 0.627436 0.298192
0.000000 0.917510 1.000000
0.000000 0.917632 1.000000
0.000000 0.918120 1.000000
0.000000 0.935882 0.997345
0.000000 0.986542 0.987640
0.533227 1.000000 0.965942
0.446357 1.000000 0.813596
0.707576 1.000000 0.407019
0.077821 0.084535 0.075441
0.102693 0.073121 0.082063
0.221500 0.000000 0.128267
0.420020 0.000000 0.212619
0.645655 0.000000 0.316136
0.813413 0.000000 0.422797
0.931548 0.000000 0.510979
1.000000 0.000000 0.586297
0.072724 0.094942 0.089601
0.105409 0.101320 0.076173
0.214878 0.000000 0.127993
0.423438 0.000000 0.224857
0.646021 0.000000 0.324804
0.811856 0.000000 0.421759
0.930999 0.000000 0.510521
1.000000 0.000000 0.586175
0.000000 0.297642 0.258305
0.000000 0.273381 0.213626
0.142336 0.215000 0.061372
0.392493 0.000000 0.151522
0.635859 0.000000 0.320073
0.810269 0.000000 0.440223
0.928985 0.000000 0.508904
1.000000 0.000000 0.585687
0.000000 0.590692 0.587366
0.000000 0.588800 0.558282
0.000000 0.586694 0.450935
0.238560 0.449439 0.000000
0.624598 0.000000 0.114382
0.804959 0.000000 0.343633
0.926024 0.000000 0.502434
1.000000 0.000000 0.584833
0.000000 0.740719 0.788937
0.000000 0.743984 0.781796
0.000000 0.768490 0.743526
0.000000 0.800229 0.621180
0.350011 0.678553 0.000000
0.798520 0.194156 0.103517
0.932586 0.000000 0.334539
1.000000 0.000000 0.511620
0.000000 0.819638 0.892882
0.000000 0.818845 0.891600
0.000000 0.839292 0.878599
0.000000 0.888182 0.844938
0.000000 0.905882 0.687984
0.449805 0.829587 0.000000
0.924315 0.441718 0.172061
1.000000 0.047730 0.357305
0.000000 0.873350 0.958465
0.000000 0.873198 0.958007
0.000000 0.878477 0.955261
0.000000 0.917266 0.943206
0.000000 0.978393 0.916442
0.000000 0.977386 0.744564
0.565545 0.932280 0.112520
1.000000 0.633692 0.325994
0.000000 0.913298 1.000000
0.000000 0.913451 1.000000
0.000000 0.913939 1.000000
0.000000 0.931762 0.997772
0.000000 0.982910 0.988067
0.552728 1.000000 0.969329
0.469306 1.000000 0.820218
0.715663 1.000000 0.425208
0.035340 0.122255 0.133913
0.060273 0.097688 0.123384
0.189792 0.000000 0.157259
0.454261 0.000000 0.296910
0.678798 0.000000 0.419501
0.822690 0.000000 0.490517
0.932799 0.000000 0.523064
1.000000 0.000000 0.587549
0.005463 0.155245 0.151858
0.067384 0.121736 0.136629
0.177310 0.017121 0.155184
0.442939 0.000000 0.303044
0.680171 0.000000 0.437507
0.822934 0.000000 0.500999
0.932891 0.000000 0.530938
1.000000 0.000000 0.587427
0.000000 0.213809 0.239384
0.000000 0.190829 0.206729
0.193790 0.184787 0.126223
0.423316 0.000000 0.248264
0.667567 0.000000 0.424567
0.823423 0.000000 0.537072
0.932921 0.000000 0.559625
1.000000 0.000000 0.586999
0.000000 0.513085 0.591791
0.000000 0.510643 0.561547
0.000000 0.506371 0.449317
0.273198 0.422736 0.083711
0.626093 0.000000 0.233402
0.801236 0.000000 0.415412
0.930083 0.000000 0.567041
1.000000 0.000000 0.610529
0.000000 0.692927 0.795773
0.000000 0.697963 0.785092
0.000000 0.719661 0.743862
0.000000 0.770657 0.644587
0.386023 0.662745 0.000000
0.798764 0.196292 0.202548
0.927245 0.000000 0.412451
1.000000 0.000000 0.569360
0.000000 0.785855 0.897490
0.000000 0.786923 0.894896
0.000000 0.809079 0.880461
0.000000 0.858457 0.847837
0.000000 0.899992 0.724727
0.491096 0.820554 0.000000
0.919951 0.465431 0.276371
1.000000 0.293706 0.441352
0.000000 0.850095 0.961242
0.000000 0.849454 0.960784
0.000000 0.858213 0.957366
0.000000 0.897093 0.945708
0.000000 0.960479 0.919402
0.262486 0.971405 0.775113
0.606256 0.925933 0.250736
1.000000 0.655390 0.410895
0.000000 0.898497 1.000000
0.000000 0.899046 1.000000
0.000000 0.899535 1.000000
0.000000 0.916808 0.999420
0.000000 0.969512 0.989837
0.576410 1.000000 0.972259
0.536614 1.000000 0.842100
0.740719 0.997559 0.480751
0.000000 0.257237 0.333593
0.000000 0.218387 0.310491
0.100526 0.054658 0.244175
0.377386 0.000000 0.337896
0.674403 0.000000 0.533227
0.836423 0.000000 0.610559
0.940581 0.000000 0.625452
1.000000 0.000000 0.613794
0.000000 0.276127 0.356115
0.000000 0.235996 0.334020
0.065217 0.060212 0.268009
0.368017 0.000000 0.340490
0.656123 0.000000 0.529137
0.833097 0.000000 0.621149
0.940276 0.000000 0.634577
1.000000 0.000000 0.617884
0.000000 0.371344 0.435492
0.000000 0.362646 0.414740
0.000000 0.243198 0.318914
0.345098 0.000000 0.324193
0.620508 0.000000 0.515831
0.822171 0.000000 0.655512
0.939178 0.000000 0.664698
1.000000 0.000000 0.636347
0.000000 0.425879 0.587884
0.000000 0.414008 0.562982
0.000000 0.368383 0.464363
0.386908 0.369146 0.254307
0.647333 0.122377 0.423926
0.820706 0.000000 0.571771
0.936736 0.000000 0.686580
1.000000 0.000000 0.675319
0.000000 0.590784 0.806577
0.000000 0.595300 0.796719
0.000000 0.615442 0.757443
0.000000 0.671199 0.659144
0.473762 0.631617 0.244663
0.792691 0.359442 0.378576
0.914458 0.290929 0.545403
1.000000 0.000000 0.654749
0.000000 0.722194 0.905974
0.000000 0.727504 0.902342
0.000000 0.748836 0.888304
0.000000 0.799405 0.856199
0.268986 0.878355 0.779690
0.569116 0.803067 0.286107
0.909606 0.520134 0.417578
1.000000 0.454505 0.566217
0.000000 0.806912 0.966461
0.000000 0.806271 0.966064
0.000000 0.818173 0.962249
0.000000 0.857450 0.951598
0.000000 0.927428 0.926238
0.474464 0.961852 0.827085
0.669551 0.914794 0.395850
0.993378 0.686458 0.521508
0.000000 0.868040 1.000000
0.000000 0.868711 1.000000
0.000000 0.871702 1.000000
0.000000 0.887510 1.000000
0.000000 0.942870 0.993805
0.583703 1.000000 0.975830
0.625208 1.000000 0.876799
0.776211 0.991424 0.557305
0.000000 0.402899 0.625483
0.000000 0.373816 0.608667
0.000000 0.263218 0.544274
0.267643 0.000000 0.424872
0.550134 0.000000 0.569024
0.791836 0.000000 0.710597
0.939696 0.000000 0.756527
1.000000 0.000000 0.723201
0.000000 0.401343 0.639033
0.000000 0.374609 0.623468
0.000000 0.271244 0.563104
0.255436 0.000000 0.448280
0.542535 0.000000 0.571954
0.779751 0.000000 0.708980
0.938079 0.000000 0.763760
1.000000 0.000000 0.727474
0.000000 0.523613 0.697749
0.000000 0.489113 0.670130
0.000000 0.370611 0.612024
0.150698 0.000000 0.508476
0.516045 0.000000 0.580438
0.737819 0.000000 0.703822
0.932769 0.000000 0.787564
1.000000 0.000000 0.740749
0.000000 0.522698 0.726741
0.000000 0.521294 0.718563
0.000000 0.519310 0.685817
0.148379 0.422797 0.572656
0.510521 0.000000 0.544823
0.748165 0.000000 0.694270
0.924773 0.000000 0.823239
1.000000 0.000000 0.756802
0.000000 0.532555 0.810819
0.000000 0.529564 0.802762
0.000000 0.520165 0.769741
0.000000 0.520562 0.686091
0.600061 0.579217 0.453742
0.796780 0.415076 0.600000
0.930968 0.000000 0.702968
1.000000 0.000000 0.782132
0.000000 0.609247 0.917449
0.000000 0.613794 0.914275
0.000000 0.633234 0.901976
0.000000 0.688624 0.873198
0.375219 0.795254 0.805753
0.664790 0.776669 0.471412
0.899474 0.600336 0.572778
0.986847 0.576837 0.700862
0.000000 0.733608 0.974426
0.000000 0.732815 0.974090
0.000000 0.748867 0.970123
0.000000 0.788693 0.960998
0.000000 0.871427 0.939513
0.625727 0.948791 0.887297
0.735927 0.900450 0.533471
0.982910 0.718593 0.630335
0.000000 0.818509 1.000000
0.000000 0.819120 1.000000
0.000000 0.821988 1.000000
0.000000 0.838773 1.000000
0.000000 0.893767 1.000000
0.568139 0.977234 0.982208
0.718013 1.000000 0.920439
0.815457 0.983886 0.640436
0.000000 0.485206 0.816800
0.000000 0.466468 0.809506
0.000000 0.395544 0.781033
0.000000 0.131899 0.722713
0.429389 0.000000 0.665095
0.657527 0.000000 0.743832
0.878508 0.000000 0.847471
1.000000 0.000000 0.861051
0.000000 0.483131 0.822202
0.000000 0.465583 0.815305
0.000000 0.398108 0.788357
0.000000 0.160983 0.732357
0.416724 0.000000 0.668360
0.651850 0.000000 0.745785
0.871305 0.000000 0.847135
1.000000 0.000000 0.864897
0.000000 0.540398 0.841947
0.000000 0.520378 0.835874
0.000000 0.445289 0.812009
0.000000 0.266880 0.760800
0.365209 0.000000 0.678889
0.631464 0.000000 0.752590
0.846494 0.000000 0.845975
1.000000 0.000000 0.877104
0.000000 0.618677 0.877836
0.000000 0.620966 0.875242
0.000000 0.620691 0.859037
0.000000 0.487190 0.800290
0.232364 0.090791 0.718502
0.609003 0.000000 0.753902
0.805020 0.000000 0.844541
1.000000 0.000000 0.893950
0.000000 0.592706 0.884001
0.000000 0.593652 0.881590
0.000000 0.601801 0.871763
0.000000 0.648341 0.846860
0.515831 0.641779 0.760678
0.641138 0.274815 0.726986
0.841917 0.000000 0.840940
1.000000 0.000000 0.912932
0.000000 0.585443 0.927611
0.000000 0.585168 0.925231
0.000000 0.587121 0.915831
0.000000 0.615991 0.892638
0.480629 0.699367 0.836576
0.755276 0.738735 0.645747
0.898344 0.621271 0.755367
1.000000 0.199588 0.814389
0.000000 0.610101 0.985473
0.000000 0.613703 0.984619
0.000000 0.628229 0.981476
0.000000 0.670100 0.973999
0.258640 0.780453 0.954559
0.671626 0.895079 0.912230
0.802213 0.881498 0.668635
0.973938 0.761379 0.741634
0.000000 0.741695 1.000000
0.000000 0.742153 1.000000
0.000000 0.744472 1.000000
0.000000 0.761288 1.000000
0.000000 0.817014 1.000000
0.500664 0.928649 0.992370
0.810330 0.996124 0.966400
0.858091 0.974365 0.730404
0.000000 0.537469 0.934478
0.000000 0.525078 0.931487
0.000000 0.478370 0.919951
0.000000 0.379400 0.894926
0.000000 0.000000 0.851621
0.544579 0.000000 0.832822
0.737331 0.000000 0.873533
0.954589 0.000000 0.953765
0.000000 0.537163 0.936706
0.000000 0.525200 0.933837
0.000000 0.480018 0.922728
0.000000 0.383673 0.898558
0.000000 0.000000 0.856779
0.536004 0.000000 0.834379
0.733455 0.000000 0.874479
0.951019 0.000000 0.953887
0.000000 0.552300 0.945342
0.000000 0.538445 0.942596
0.000000 0.489174 0.932219
0.000000 0.400244 0.910735
0.000000 0.000000 0.873533
0.503349 0.000000 0.839506
0.719722 0.000000 0.877867
0.939055 0.000000 0.954376
0.000000 0.663569 0.967987
0.000000 0.655268 0.964141
0.000000 0.621698 0.950164
0.000000 0.509148 0.931853
0.000000 0.252354 0.897581
0.431220 0.000000 0.847776
0.694636 0.000000 0.883818
0.920500 0.000000 0.955535
0.000000 0.656458 0.972992
0.000000 0.659480 0.972473
0.000000 0.680110 0.969726
0.323980 0.764279 0.959258
0.432136 0.673762 0.918486
0.354498 0.269169 0.868162
0.672877 0.000000 0.886992
0.894285 0.000000 0.957305
0.000000 0.629175 0.973907
0.000000 0.630457 0.973480
0.000000 0.639826 0.971435
0.000000 0.695521 0.963775
0.618341 0.817655 0.944762
0.760769 0.821103 0.891752
0.756771 0.499428 0.863127
0.911376 0.000000 0.957733
0.000000 0.614466 0.995087
0.000000 0.614649 0.994598
0.000000 0.616571 0.992676
0.000000 0.638544 0.987304
0.421454 0.748318 0.969696
0.754330 0.853910 0.936065
0.864714 0.854368 0.798886
0.973419 0.759976 0.880034
0.000000 0.619013 1.000000
0.000000 0.619013 1.000000
0.000000 0.619593 1.000000
0.000000 0.633875 1.000000
0.000000 0.696956 1.000000
0.572045 0.859678 1.000000
0.831571 0.960357 0.980652
0.902220 0.961883 0.823819
0.000000 0.572839 1.000000
0.000000 0.564355 1.000000
0.000000 0.532677 0.999390
0.000000 0.467720 0.990997
0.000000 0.330449 0.974914
0.204074 0.000000 0.945830
0.633783 0.000000 0.947448
0.805722 0.000000 0.974456
0.000000 0.574090 1.000000
0.000000 0.565850 1.000000
0.000000 0.534813 1.000000
0.000000 0.471015 0.992279
0.000000 0.343175 0.976410
0.168887 0.000000 0.948333
0.628229 0.000000 0.948028
0.803403 0.000000 0.974853
0.000000 0.581353 1.000000
0.000000 0.573602 1.000000
0.000000 0.544274 1.000000
0.000000 0.483955 0.996643
0.000000 0.370062 0.982086
0.000000 0.000000 0.956817
0.607477 0.000000 0.949981
0.795254 0.000000 0.976196
0.000000 0.639887 1.000000
0.000000 0.628687 1.000000
0.000000 0.588769 1.000000
0.000000 0.514427 1.000000
0.000000 0.408453 0.991821
0.000000 0.000000 0.970733
0.564691 0.000000 0.953277
0.780819 0.000000 0.978637
0.000000 0.693721 1.000000
0.000000 0.697200 1.000000
0.000000 0.723873 1.000000
0.437903 0.778225 1.000000
0.000000 0.587060 1.000000
0.000000 0.214908 0.988098
0.479347 0.000000 0.957885
0.757168 0.000000 0.982269
0.000000 0.668635 1.000000
0.000000 0.669978 1.000000
0.000000 0.678157 1.000000
0.000000 0.741238 1.000000
0.720974 0.888609 1.000000
0.709651 0.826993 0.985901
0.428321 0.352941 0.969604
0.716884 0.000000 0.987182
0.000000 0.645472 1.000000
0.000000 0.645747 1.000000
0.000000 0.647547 1.000000
0.000000 0.661036 1.000000
0.430213 0.788052 1.000000
0.837919 0.924743 0.994690
0.902556 0.932189 0.974853
0.842008 0.637995 0.964599
0.000000 0.628565 1.000000
0.000000 0.628656 1.000000
0.000000 0.628870 1.000000
0.000000 0.629603 1.000000
0.000000 0.657099 1.000000
0.641352 0.838346 1.000000
0.894072 0.942779 0.991547
0.946777 0.942473 0.920012
