其他预设/【213】赛博朋克科幻预设52款/1.LUT预设（视频调色-PR-AE-PS-FCPX-达芬奇用）/赛博朋克科幻__-3 强度5.cube
# Created by Adobe Lightroom plugin Export LUT (1.17.0)
# www.johnrellis.com/lightroom/exportlut.htm
# Preset: 赛博朋克科幻[素锦印象]-3 强度5
# Color profile: /Library/Application Support/Adobe/Color/Profiles/Recommended/AdobeRGB1998.icc
LUT_3D_SIZE 5
DOMAIN_MIN 0.000000 0.000000 0.000000
DOMAIN_MAX 0.903226 0.903226 0.903226
0.075685 0.103792 0.132601
0.179477 0.088655 0.184817
0.607843 0.000000 0.395209
0.904570 0.000000 0.540581
1.000000 0.000000 0.623316
0.000000 0.292607 0.264378
0.088777 0.226871 0.139162
0.585046 0.000000 0.375555
0.900633 0.000000 0.538476
1.000000 0.000000 0.623011
0.000000 0.735592 0.580774
0.000000 0.718837 0.547051
0.142275 0.628046 0.073518
0.896208 0.000000 0.396490
1.000000 0.000000 0.607935
0.000000 0.946777 0.727932
0.000000 0.943389 0.720882
0.000000 0.927855 0.654780
0.352117 0.886595 0.228702
1.000000 0.440406 0.484596
0.000000 1.000000 0.804257
0.000000 1.000000 0.803555
0.000000 1.000000 0.780880
0.640650 1.000000 0.740902
0.695430 1.000000 0.527398
0.033112 0.102998 0.190890
0.177890 0.070893 0.212253
0.615167 0.000000 0.425116
0.903655 0.000000 0.546777
1.000000 0.000000 0.623835
0.000000 0.212619 0.237827
0.146242 0.190890 0.200412
0.592187 0.000000 0.418189
0.901671 0.000000 0.554803
1.000000 0.000000 0.623621
0.000000 0.680873 0.568414
0.000000 0.685664 0.550103
0.217319 0.599084 0.201053
0.885313 0.000000 0.472786
1.000000 0.000000 0.630945
0.000000 0.929015 0.730892
0.000000 0.934783 0.727413
0.000000 0.919463 0.667323
0.429236 0.875914 0.319615
1.000000 0.516808 0.540368
0.000000 1.000000 0.811521
0.000000 1.000000 0.810819
0.000000 1.000000 0.788632
0.678828 1.000000 0.751003
0.726467 1.000000 0.556634
0.000000 0.082704 0.449928
0.253391 0.000000 0.386389
0.564965 0.000000 0.474281
0.902831 0.000000 0.602960
1.000000 0.000000 0.639765
0.000000 0.385382 0.515404
0.178927 0.139101 0.449714
0.551904 0.000000 0.479561
0.891844 0.000000 0.608087
1.000000 0.000000 0.642695
0.000000 0.564385 0.555535
0.000000 0.544182 0.532769
0.458686 0.487861 0.432563
0.879789 0.106172 0.595911
1.000000 0.000000 0.657649
0.000000 0.849516 0.724819
0.000000 0.857237 0.720851
0.000000 0.894285 0.706905
0.618585 0.837827 0.499275
1.000000 0.666285 0.659052
0.000000 1.000000 0.819150
0.000000 1.000000 0.818967
0.000000 1.000000 0.816556
0.711116 1.000000 0.773434
0.799588 0.993866 0.624964
0.000000 0.000000 0.705226
0.303319 0.000000 0.681270
0.601678 0.000000 0.611200
0.873594 0.000000 0.668360
1.000000 0.000000 0.700587
0.000000 0.112947 0.720058
0.277775 0.000000 0.697108
0.607721 0.000000 0.628260
0.871031 0.000000 0.675319
1.000000 0.000000 0.703761
0.000000 0.665949 0.736324
0.000000 0.682246 0.734035
0.547936 0.489631 0.687678
0.860716 0.000000 0.683742
1.000000 0.000000 0.711940
0.000000 0.768338 0.737057
0.000000 0.766842 0.732631
0.327062 0.775204 0.711208
0.780087 0.757961 0.645319
1.000000 0.563165 0.728206
0.000000 0.954314 0.822751
0.000000 0.955261 0.822690
0.000000 0.975830 0.821256
0.598901 1.000000 0.810575
0.883726 0.977508 0.703639
0.000000 0.000000 0.839170
0.000000 0.000000 0.832944
0.634333 0.000000 0.805325
0.877653 0.000000 0.776181
1.000000 0.000000 0.779568
0.000000 0.038361 0.842771
0.000000 0.000000 0.837064
0.609766 0.000000 0.811521
0.870542 0.000000 0.781277
1.000000 0.000000 0.783261
0.000000 0.687617 0.843809
0.352605 0.671992 0.837369
0.410712 0.087129 0.833860
0.839292 0.000000 0.797269
1.000000 0.000000 0.795743
0.000000 0.782620 0.834897
0.000000 0.783413 0.835325
0.606165 0.856168 0.825711
0.837552 0.775326 0.807828
1.000000 0.000000 0.816770
0.000000 0.884184 0.839200
0.000000 0.883268 0.838926
0.000000 0.883360 0.837156
0.678859 0.926543 0.818936
0.965667 0.936309 0.782834
