其他预设/【213】赛博朋克科幻预设52款/1.LUT预设（视频调色-PR-AE-PS-FCPX-达芬奇用）/赛博朋克科幻__-10 强度1.cube
# Created by Adobe Lightroom plugin Export LUT (1.17.0)
# www.johnrellis.com/lightroom/exportlut.htm
# Preset: 赛博朋克科幻[素锦印象]-10 强度1
# Color profile: /Library/Application Support/Adobe/Color/Profiles/Recommended/AdobeRGB1998.icc
LUT_3D_SIZE 8
DOMAIN_MIN 0.000000 0.000000 0.000000
DOMAIN_MAX 0.903226 0.903226 0.903226
0.019532 0.019532 0.019532
0.133242 0.000000 0.020569
0.271885 0.000000 0.058961
0.408972 0.000000 0.080110
0.542748 0.000000 0.113405
0.672663 0.000000 0.152224
0.797757 0.000000 0.196658
0.917693 0.055909 0.249332
0.000000 0.147890 0.008423
0.134127 0.135744 0.024628
0.270420 0.126436 0.060395
0.407935 0.111086 0.084199
0.541924 0.094026 0.117922
0.671992 0.081666 0.155489
0.797299 0.094789 0.199344
0.917357 0.142061 0.251682
0.000000 0.300175 0.038911
0.113497 0.297429 0.000000
0.271946 0.275608 0.061250
0.403998 0.263218 0.100069
0.538903 0.257267 0.131472
0.669795 0.252445 0.166629
0.795743 0.253574 0.208286
0.916136 0.268956 0.259373
0.000000 0.444678 0.073457
0.000000 0.443671 0.024628
0.263066 0.438025 0.023255
0.406867 0.412207 0.105806
0.533745 0.397925 0.151919
0.666041 0.393713 0.183627
0.792996 0.391974 0.222690
0.914031 0.398596 0.272770
0.000000 0.586328 0.102815
0.000000 0.585809 0.075929
0.233097 0.582361 0.074311
0.403571 0.574548 0.080873
0.538811 0.545647 0.152438
0.660761 0.529168 0.204013
0.789151 0.525933 0.241367
0.911009 0.527916 0.291081
0.000000 0.714992 0.135775
0.000000 0.714626 0.124575
0.194125 0.712551 0.117128
0.377722 0.708614 0.116518
0.533562 0.697658 0.140597
0.665705 0.673945 0.202579
0.784176 0.657496 0.263676
0.907134 0.656214 0.314153
0.000000 0.837064 0.170260
0.000000 0.836698 0.167727
0.155550 0.835233 0.166018
0.353277 0.832670 0.166079
0.511070 0.828763 0.165743
0.658350 0.816190 0.204654
0.787900 0.797238 0.266087
0.902434 0.782803 0.342199
0.000000 0.952605 0.206027
0.000000 0.952056 0.211521
0.149874 0.950286 0.228885
0.341314 0.948425 0.228946
0.493965 0.945525 0.228763
0.637842 0.941588 0.227756
0.778988 0.928985 0.286992
0.904845 0.914794 0.355871
0.016022 0.008118 0.129854
0.136599 0.000000 0.126192
0.271336 0.000000 0.139101
0.408881 0.000000 0.157534
0.542382 0.000000 0.178195
0.672084 0.000000 0.204044
0.797269 0.000000 0.237186
0.917205 0.109590 0.280674
0.000000 0.141970 0.133669
0.136873 0.136110 0.132143
0.272801 0.134401 0.142947
0.408270 0.129305 0.158846
0.541558 0.122957 0.180148
0.671473 0.118349 0.206058
0.796872 0.128420 0.238895
0.916899 0.165988 0.282475
0.000000 0.295872 0.143923
0.113832 0.292119 0.136568
0.272801 0.275151 0.145571
0.404669 0.267735 0.166140
0.538842 0.264714 0.187106
0.669551 0.261662 0.212528
0.795407 0.263798 0.245090
0.915801 0.279637 0.288670
0.000000 0.441382 0.155825
0.047730 0.439826 0.146181
0.262913 0.434882 0.141115
0.407233 0.411658 0.168185
0.534112 0.400183 0.198947
0.666041 0.397162 0.223331
0.792813 0.396429 0.255711
0.913756 0.404120 0.299596
0.000000 0.583642 0.171817
0.000000 0.583093 0.161135
0.234531 0.579980 0.152163
0.403754 0.573571 0.153353
0.539086 0.545251 0.197848
0.661067 0.530236 0.238193
0.789120 0.527977 0.270665
0.910826 0.530968 0.315557
0.000000 0.713375 0.188968
0.000000 0.712978 0.182589
0.197757 0.711086 0.173098
0.378973 0.707301 0.173587
0.534142 0.697169 0.188388
0.665980 0.673701 0.236698
0.784298 0.658198 0.289769
0.907012 0.657771 0.336217
0.000000 0.836210 0.209812
0.000000 0.835843 0.208133
0.163180 0.834348 0.207034
0.355901 0.831846 0.207584
0.512505 0.828000 0.208011
0.659083 0.816007 0.238224
0.788144 0.797147 0.291814
0.902403 0.783322 0.362036
0.000000 0.952361 0.232364
0.000000 0.951843 0.236973
0.161746 0.949767 0.258579
0.345647 0.947906 0.259098
0.496498 0.945098 0.259342
0.639307 0.941222 0.259007
0.779873 0.928893 0.310460
0.905119 0.914733 0.374884
0.038788 0.000000 0.256596
0.143252 0.000000 0.257420
0.274998 0.000000 0.252323
0.403479 0.003296 0.260075
0.537743 0.067628 0.278843
0.669093 0.105715 0.302586
0.796414 0.127993 0.326207
0.916381 0.178866 0.359716
0.000000 0.127779 0.258366
0.134066 0.122194 0.259556
0.276005 0.119112 0.255558
0.404944 0.139406 0.264103
0.538750 0.152316 0.282994
0.670161 0.163912 0.304173
0.796536 0.179416 0.328099
0.916075 0.214633 0.360876
0.000000 0.284031 0.265599
0.107851 0.282017 0.265263
0.275975 0.274113 0.264317
0.408331 0.276432 0.275914
0.540459 0.277928 0.290532
0.670008 0.279454 0.308141
0.795224 0.286656 0.331884
0.915038 0.306706 0.365240
0.000000 0.435492 0.272953
0.047974 0.433600 0.270817
0.259586 0.427131 0.267460
0.408392 0.410193 0.278660
0.536278 0.405097 0.296666
0.666835 0.405249 0.314427
0.792874 0.408331 0.338811
0.913176 0.419959 0.373266
0.000000 0.579065 0.280674
0.000000 0.577630 0.279149
0.236515 0.573297 0.274632
0.402350 0.567651 0.275364
0.539696 0.543908 0.297185
0.662287 0.533501 0.323583
0.789456 0.534081 0.348974
0.910399 0.540337 0.385168
0.000000 0.709926 0.289860
0.000000 0.708980 0.289403
0.209903 0.706447 0.286137
0.381537 0.702937 0.285618
0.535515 0.695735 0.291936
0.666712 0.672877 0.323705
0.784909 0.660609 0.362799
0.906798 0.662867 0.401434
0.000000 0.834043 0.299748
0.000000 0.833524 0.299962
0.177676 0.831815 0.301305
0.363592 0.829129 0.305364
0.516564 0.825620 0.307439
0.661555 0.815335 0.324834
0.789120 0.796780 0.365179
0.902434 0.785245 0.422400
0.000000 0.951873 0.303563
0.000000 0.951537 0.304631
0.139742 0.949462 0.320073
0.359319 0.946288 0.340642
0.504479 0.943633 0.341924
0.644251 0.939940 0.343267
0.782620 0.928618 0.379065
0.906096 0.914580 0.433387
0.065827 0.000000 0.376104
0.149386 0.000000 0.377173
0.281193 0.000000 0.380926
0.408972 0.000000 0.374151
0.530388 0.013581 0.377356
0.662989 0.087037 0.394415
0.791684 0.128603 0.414008
0.914977 0.168673 0.436103
0.000000 0.108248 0.377783
0.136141 0.102693 0.378790
0.277501 0.080842 0.382025
0.409552 0.083162 0.376074
0.531121 0.140658 0.379950
0.663691 0.159548 0.397101
0.792081 0.184298 0.416846
0.915099 0.213321 0.439246
0.000000 0.262730 0.379187
0.093141 0.258701 0.379431
0.265354 0.254643 0.384070
0.410101 0.259037 0.382025
0.534783 0.276616 0.389593
0.666194 0.287266 0.406806
0.793515 0.302007 0.427314
0.914641 0.330968 0.455787
0.000000 0.419348 0.391241
0.000000 0.418433 0.391241
0.248325 0.414649 0.391424
0.410346 0.407416 0.391974
0.540185 0.411597 0.404486
0.668727 0.416449 0.419684
0.793545 0.425452 0.440009
0.912840 0.443153 0.468177
0.000000 0.571099 0.399969
0.000000 0.569787 0.399115
0.230503 0.565484 0.396643
0.396643 0.557702 0.395483
0.540459 0.541222 0.407263
0.664607 0.538231 0.426062
0.790402 0.543481 0.447517
0.910246 0.555047 0.477516
0.000000 0.704677 0.402533
0.000000 0.703853 0.402136
0.208927 0.700954 0.401282
0.381903 0.696101 0.402380
0.535698 0.691310 0.407630
0.667811 0.671290 0.428351
0.786221 0.664668 0.457862
0.906859 0.671321 0.490120
0.000000 0.830869 0.405463
0.000000 0.830381 0.405463
0.171847 0.828672 0.406195
0.366491 0.825406 0.412421
0.522087 0.821592 0.420539
0.665095 0.814572 0.430152
0.790768 0.796139 0.461524
0.902983 0.788479 0.505577
0.000000 0.950317 0.404181
0.000000 0.950042 0.404395
0.055512 0.949035 0.405859
0.351110 0.945556 0.425086
0.516930 0.941314 0.445808
0.652247 0.937865 0.448890
0.787106 0.928374 0.470863
0.907774 0.914336 0.512444
0.093355 0.000000 0.489357
0.157443 0.000000 0.490486
0.278813 0.000000 0.494362
0.413245 0.000000 0.499611
0.537957 0.000000 0.491463
0.659266 0.000000 0.493996
0.786007 0.097414 0.507836
0.912108 0.138979 0.523919
0.053712 0.081514 0.490455
0.142306 0.072877 0.491493
0.273136 0.002564 0.495094
0.412085 0.000000 0.501183
0.538170 0.000000 0.492744
0.659297 0.123476 0.495521
0.786374 0.163577 0.509697
0.912230 0.190249 0.525933
0.000000 0.241123 0.490303
0.092805 0.238956 0.492439
0.258701 0.235355 0.496315
0.407111 0.230198 0.502556
0.538811 0.239811 0.497078
0.659144 0.271580 0.501061
0.787839 0.287327 0.516594
0.912749 0.303990 0.533410
0.000000 0.392401 0.495888
0.000000 0.390753 0.496040
0.233463 0.384771 0.496376
0.394965 0.384375 0.503777
0.539605 0.392645 0.504692
0.662348 0.409125 0.512779
0.790616 0.420600 0.529717
0.913664 0.434058 0.548150
0.000000 0.549126 0.511833
0.000000 0.548547 0.511894
0.217929 0.546319 0.512291
0.382513 0.542382 0.513298
0.540551 0.536584 0.515618
0.668147 0.544121 0.530571
0.792782 0.554040 0.548943
0.911864 0.568566 0.572107
0.000000 0.696986 0.520104
0.000000 0.696254 0.519707
0.193240 0.693538 0.518547
0.370764 0.689021 0.517449
0.529747 0.682521 0.520287
0.668818 0.668513 0.534203
0.789059 0.669154 0.555871
0.908995 0.678523 0.580255
0.000000 0.826169 0.518883
0.000000 0.825742 0.518761
0.153597 0.824155 0.518456
0.351934 0.821500 0.519036
0.518853 0.817136 0.527550
0.666682 0.812711 0.537652
0.792813 0.795224 0.559197
0.905547 0.791562 0.590784
0.000000 0.948028 0.514183
0.000000 0.947753 0.514183
0.000000 0.946868 0.514397
0.315282 0.945251 0.515984
0.507866 0.940642 0.536614
0.657740 0.935790 0.552972
0.790463 0.928923 0.563928
0.910094 0.914305 0.595483
0.112703 0.000000 0.604944
0.167086 0.000000 0.605859
0.280003 0.000000 0.609033
0.409216 0.000000 0.614557
0.543908 0.000000 0.617273
0.667689 0.000000 0.609400
0.786862 0.000000 0.609094
0.908782 0.077607 0.619562
0.079194 0.000000 0.605493
0.149386 0.000000 0.606348
0.272496 0.000000 0.609400
0.406012 0.000000 0.614862
0.543297 0.000000 0.618158
0.667720 0.000000 0.610224
0.786770 0.049928 0.610040
0.908904 0.152438 0.620844
0.000000 0.219028 0.605951
0.093172 0.217472 0.606775
0.253849 0.211673 0.609766
0.397925 0.200778 0.615167
0.541375 0.188205 0.620996
0.667781 0.207370 0.613092
0.786404 0.249546 0.613581
0.909453 0.279423 0.625422
0.000000 0.367834 0.601740
0.000000 0.365637 0.602167
0.220035 0.362158 0.607752
0.381811 0.360510 0.614923
0.534997 0.360540 0.623194
0.667536 0.371313 0.618067
0.785641 0.397131 0.620478
0.910399 0.412970 0.634333
0.000000 0.521477 0.614496
0.000000 0.520195 0.614466
0.193027 0.515679 0.614405
0.353826 0.506645 0.614313
0.517479 0.506004 0.622522
0.666926 0.519127 0.625269
0.787381 0.537407 0.633234
0.912230 0.548821 0.649256
0.000000 0.676570 0.630121
0.000000 0.676143 0.630182
0.164187 0.674464 0.630426
0.347967 0.671504 0.631037
0.508232 0.667140 0.632502
0.667689 0.662623 0.636316
0.793668 0.672694 0.653223
0.913176 0.684718 0.672572
0.000000 0.818906 0.635065
0.000000 0.818692 0.635004
0.110201 0.817899 0.634974
0.331731 0.815579 0.634394
0.500206 0.811521 0.635554
0.659266 0.805692 0.642329
0.794553 0.793210 0.657313
0.909880 0.795041 0.680201
0.000000 0.944976 0.628931
0.000000 0.944762 0.628840
0.000000 0.943999 0.628443
0.293065 0.942535 0.628321
0.479469 0.939544 0.632959
0.650599 0.934264 0.649470
0.792325 0.929259 0.662196
0.913115 0.914305 0.684565
0.126497 0.000000 0.725093
0.175235 0.000000 0.725704
0.282780 0.000000 0.727840
0.407416 0.000000 0.731685
0.540795 0.000000 0.737301
0.675196 0.000000 0.736721
0.797971 0.000000 0.727474
0.914672 0.000000 0.723018
0.091249 0.000000 0.725246
0.154421 0.000000 0.725826
0.272862 0.000000 0.727962
0.402533 0.000000 0.731777
0.538476 0.000000 0.737331
0.674617 0.000000 0.737209
0.797848 0.000000 0.727962
0.914549 0.000000 0.723629
0.000000 0.187289 0.724971
0.077882 0.184298 0.725551
0.247044 0.173861 0.727657
0.389990 0.152193 0.731502
0.532036 0.110872 0.737118
0.672419 0.069001 0.738674
0.797330 0.121645 0.729702
0.914061 0.189425 0.725856
0.000000 0.345190 0.722133
0.000000 0.342596 0.723079
0.198184 0.336095 0.726131
0.367559 0.330541 0.730159
0.519860 0.322545 0.736172
0.667781 0.315831 0.741176
0.796201 0.331212 0.732723
0.913054 0.362737 0.730129
0.000000 0.496559 0.723537
0.000000 0.494331 0.723323
0.128176 0.485817 0.722530
0.321172 0.474403 0.725612
0.494301 0.472328 0.733730
0.657832 0.476661 0.742733
0.794034 0.492073 0.737087
0.910887 0.518791 0.738155
0.000000 0.650538 0.735195
0.000000 0.649378 0.735073
0.044953 0.645106 0.734646
0.299138 0.636500 0.733700
0.461830 0.623377 0.731777
0.638575 0.626215 0.739101
0.791714 0.643244 0.743587
0.910735 0.662196 0.751400
0.000000 0.804349 0.748379
0.000000 0.803922 0.748348
0.000000 0.802487 0.748348
0.285252 0.799771 0.748440
0.467292 0.795346 0.748653
0.632685 0.789853 0.749783
0.792447 0.786435 0.754818
0.915801 0.798489 0.773220
0.000000 0.939666 0.746242
0.000000 0.939574 0.746181
0.000000 0.939269 0.746090
0.254551 0.938476 0.746304
0.457374 0.935760 0.748196
0.627070 0.931212 0.751736
0.786252 0.925475 0.762051
0.916472 0.913970 0.777707
0.129885 0.000000 0.853208
0.178073 0.000000 0.853483
0.284642 0.000000 0.854612
0.407324 0.000000 0.856657
0.537407 0.000000 0.859648
0.673304 0.000000 0.863584
0.809018 0.000000 0.860288
0.931334 0.000000 0.847654
0.086763 0.000000 0.853330
0.152041 0.000000 0.853635
0.271275 0.000000 0.854734
0.399878 0.000000 0.856779
0.533288 0.000000 0.859770
0.671229 0.000000 0.863676
0.808316 0.000000 0.860502
0.931151 0.000000 0.847959
0.000000 0.118715 0.853361
0.000000 0.111360 0.853666
0.231235 0.077668 0.854765
0.379614 0.000000 0.856779
0.522118 0.000000 0.859709
0.664942 0.000000 0.863615
0.805722 0.000000 0.861326
0.930449 0.000000 0.849027
0.000000 0.307622 0.852415
0.000000 0.305699 0.852720
0.156893 0.298680 0.853880
0.347723 0.285130 0.855924
0.503868 0.262791 0.859007
0.653986 0.227024 0.863096
0.800565 0.202548 0.862638
0.928954 0.227329 0.850858
0.000000 0.469520 0.849241
0.000000 0.466773 0.849638
0.000000 0.456947 0.851133
0.277897 0.439979 0.854063
0.469398 0.431647 0.857359
0.635462 0.421027 0.861753
0.792538 0.414984 0.864195
0.925780 0.438087 0.853330
0.000000 0.628779 0.854856
0.000000 0.626734 0.854704
0.000000 0.619013 0.854154
0.207919 0.603174 0.852964
0.414221 0.585504 0.852873
0.610254 0.587152 0.858152
0.781888 0.592523 0.864469
0.921233 0.609918 0.856718
0.000000 0.783658 0.862303
0.000000 0.782620 0.862211
0.000000 0.778805 0.861936
0.165743 0.771572 0.861234
0.399512 0.761257 0.859617
0.574517 0.745907 0.856321
0.758724 0.745144 0.859525
0.916594 0.764431 0.861814
0.000000 0.936095 0.869718
0.000000 0.935790 0.869718
0.000000 0.934600 0.869657
0.096223 0.932067 0.869505
0.397498 0.927703 0.869078
0.585534 0.921477 0.868498
0.754849 0.913664 0.868040
0.915801 0.908782 0.871916
