其他预设/【213】赛博朋克科幻预设52款/1.LUT预设（视频调色-PR-AE-PS-FCPX-达芬奇用）/赛博朋克科幻__-3 强度5.cube
# Created by Adobe Lightroom plugin Export LUT (1.17.0)
# www.johnrellis.com/lightroom/exportlut.htm
# Preset: 赛博朋克科幻[素锦印象]-3 强度5
# Color profile: /Library/Application Support/Adobe/Color/Profiles/Recommended/AdobeRGB1998.icc
LUT_3D_SIZE 8
DOMAIN_MIN 0.000000 0.000000 0.000000
DOMAIN_MAX 0.903226 0.903226 0.903226
0.075685 0.103792 0.132601
0.108614 0.102327 0.147585
0.217258 0.071473 0.205020
0.463752 0.000000 0.327886
0.724636 0.000000 0.450080
0.876341 0.000000 0.525566
0.974151 0.000000 0.579492
1.000000 0.000000 0.623316
0.000000 0.160616 0.171054
0.081636 0.143282 0.137423
0.208957 0.076387 0.198215
0.454353 0.000000 0.323522
0.720272 0.000000 0.447974
0.874815 0.000000 0.524743
0.973632 0.000000 0.579187
1.000000 0.000000 0.623224
0.000000 0.354223 0.308537
0.000000 0.335576 0.287633
0.091279 0.269963 0.137453
0.430732 0.000000 0.235752
0.705989 0.000000 0.430640
0.869383 0.000000 0.521965
0.971862 0.000000 0.578149
1.000000 0.000000 0.622919
0.000000 0.628779 0.504997
0.000000 0.619776 0.494240
0.000000 0.588983 0.430488
0.111604 0.507500 0.104707
0.692103 0.000000 0.198764
0.865629 0.000000 0.443366
0.969696 0.000000 0.563439
1.000000 0.000000 0.622370
0.000000 0.814450 0.636408
0.000000 0.810819 0.633326
0.000000 0.800961 0.602686
0.000000 0.783017 0.517967
0.185702 0.722316 0.074098
0.842161 0.355657 0.250858
0.971160 0.000000 0.445197
1.000000 0.000000 0.568994
0.000000 0.924620 0.712917
0.000000 0.923217 0.711879
0.000000 0.919371 0.697353
0.000000 0.911192 0.657588
0.000000 0.902129 0.568414
0.311742 0.859953 0.190738
0.931914 0.617945 0.319371
1.000000 0.354711 0.495003
0.000000 1.000000 0.766049
0.000000 1.000000 0.765591
0.000000 1.000000 0.761776
0.000000 0.998596 0.737575
0.115267 0.981048 0.702144
0.335302 0.977935 0.624140
0.492378 0.951049 0.354620
0.994507 0.801816 0.425452
0.000000 1.000000 0.804257
0.000000 1.000000 0.804074
0.000000 1.000000 0.803281
0.000000 1.000000 0.792935
0.000000 1.000000 0.769070
0.642329 1.000000 0.753231
0.632868 1.000000 0.692378
0.695430 1.000000 0.527398
0.067170 0.103670 0.152285
0.110719 0.097078 0.158175
0.223362 0.028229 0.216037
0.458961 0.000000 0.332341
0.719051 0.000000 0.447395
0.874540 0.000000 0.524620
0.973785 0.000000 0.579309
1.000000 0.000000 0.623377
0.032868 0.136782 0.166629
0.099245 0.133700 0.156008
0.213230 0.074372 0.213687
0.456916 0.000000 0.336461
0.716762 0.000000 0.449561
0.873167 0.000000 0.523888
0.973358 0.000000 0.579034
1.000000 0.000000 0.623316
0.000000 0.318151 0.295781
0.000000 0.306371 0.278264
0.109377 0.255314 0.158816
0.421576 0.000000 0.266239
0.702052 0.000000 0.445167
0.869505 0.000000 0.527703
0.971710 0.000000 0.578058
1.000000 0.000000 0.623041
0.000000 0.601190 0.496620
0.000000 0.599542 0.488045
0.000000 0.571405 0.430762
0.134493 0.495186 0.139925
0.687373 0.000000 0.244450
0.862364 0.000000 0.462348
0.967681 0.000000 0.575830
1.000000 0.000000 0.622553
0.000000 0.801236 0.635401
0.000000 0.802457 0.632868
0.000000 0.794125 0.604547
0.000000 0.774472 0.524163
0.209964 0.716152 0.132296
0.842924 0.341527 0.287297
0.968200 0.000000 0.466957
1.000000 0.000000 0.582330
0.000000 0.921569 0.716365
0.000000 0.920165 0.715358
0.000000 0.916686 0.699702
0.000000 0.908232 0.660975
0.000000 0.897612 0.575830
0.336522 0.856474 0.225345
0.931884 0.614618 0.351019
1.000000 0.393683 0.514427
0.000000 1.000000 0.769039
0.000000 1.000000 0.768612
0.000000 1.000000 0.764034
0.000000 0.997528 0.740230
0.144869 0.979614 0.705135
0.375555 0.974914 0.631220
0.512627 0.948608 0.375433
0.994141 0.799771 0.447547
0.000000 1.000000 0.806424
0.000000 1.000000 0.806210
0.000000 1.000000 0.805478
0.000000 1.000000 0.795132
0.000000 1.000000 0.771206
0.654322 1.000000 0.756069
0.646082 1.000000 0.696712
0.705287 1.000000 0.536675
0.001190 0.102480 0.211887
0.108522 0.094331 0.200229
0.212741 0.026429 0.239597
0.464546 0.000000 0.366308
0.729152 0.000000 0.482094
0.876219 0.000000 0.543267
0.974609 0.000000 0.582177
1.000000 0.000000 0.624079
0.000000 0.168124 0.229587
0.095705 0.122377 0.215976
0.205051 0.059083 0.239353
0.446021 0.000000 0.363256
0.726375 0.000000 0.486580
0.875334 0.000000 0.545892
0.974517 0.000000 0.583825
1.000000 0.000000 0.624048
0.000000 0.253025 0.275059
0.000000 0.240513 0.260899
0.171328 0.220035 0.222965
0.426825 0.000000 0.340215
0.709957 0.000000 0.478676
0.872313 0.000000 0.554864
0.974029 0.000000 0.590265
1.000000 0.000000 0.623804
0.000000 0.532403 0.475624
0.000000 0.528099 0.466224
0.000000 0.526696 0.437659
0.206149 0.458869 0.226535
0.671046 0.170596 0.369574
0.851225 0.000000 0.525231
0.969848 0.000000 0.594537
1.000000 0.000000 0.627222
0.000000 0.760403 0.627955
0.000000 0.761868 0.624231
0.000000 0.772366 0.612268
0.000000 0.749233 0.545342
0.290288 0.694606 0.244663
0.841245 0.339574 0.378607
0.958068 0.269596 0.533623
1.000000 0.214694 0.625727
0.000000 0.894499 0.713588
0.000000 0.894011 0.712093
0.000000 0.906249 0.707362
0.000000 0.898619 0.672999
0.216251 0.881163 0.600977
0.415442 0.843900 0.317388
0.931456 0.610559 0.443214
1.000000 0.492653 0.570214
0.000000 0.992370 0.773190
0.000000 0.991516 0.772732
0.000000 0.996002 0.770993
0.000000 0.994110 0.749844
0.197543 0.975280 0.715358
0.480751 0.964843 0.653559
0.575433 0.940276 0.436866
0.993378 0.793698 0.510582
0.000000 1.000000 0.814023
0.000000 1.000000 0.813657
0.000000 1.000000 0.812924
0.000000 1.000000 0.803159
0.000000 1.000000 0.778805
0.661646 1.000000 0.762264
0.685969 1.000000 0.710567
0.735592 1.000000 0.565148
0.000000 0.094423 0.355169
0.116640 0.073030 0.335912
0.222202 0.000000 0.294591
0.434363 0.000000 0.392523
0.706691 0.000000 0.510887
0.879637 0.000000 0.576837
0.979675 0.000000 0.608362
1.000000 0.000000 0.629389
0.000000 0.114656 0.373175
0.114046 0.088533 0.353643
0.232364 0.000000 0.308843
0.428931 0.000000 0.394110
0.696925 0.000000 0.510491
0.875364 0.000000 0.578607
0.979309 0.000000 0.610590
1.000000 0.000000 0.630091
0.000000 0.355322 0.417365
0.000000 0.348577 0.412909
0.184817 0.202365 0.361822
0.407477 0.000000 0.385901
0.672969 0.000000 0.505303
0.861143 0.000000 0.584009
0.978088 0.000000 0.618097
1.000000 0.000000 0.633417
0.000000 0.466224 0.467872
0.000000 0.456428 0.457923
0.000000 0.426337 0.422553
0.344030 0.390295 0.355596
0.663386 0.229343 0.482002
0.858457 0.000000 0.567437
0.975189 0.000000 0.623713
1.000000 0.000000 0.641596
0.000000 0.685267 0.613764
0.000000 0.685420 0.610071
0.000000 0.689815 0.597284
0.000000 0.709682 0.573632
0.421057 0.651850 0.375616
0.822843 0.468788 0.507897
0.942351 0.472480 0.621454
1.000000 0.252476 0.663478
0.000000 0.847318 0.709071
0.000000 0.849516 0.707546
0.000000 0.859098 0.702358
0.000000 0.881224 0.693172
0.414862 0.853391 0.636866
0.532067 0.820096 0.430457
0.931762 0.622644 0.553826
1.000000 0.596307 0.638331
0.000000 0.961578 0.772610
0.000000 0.960723 0.772183
0.000000 0.966857 0.770321
0.000000 0.987274 0.766506
0.220523 0.969360 0.733089
0.596582 0.948852 0.685054
0.657374 0.926940 0.512749
0.993896 0.786862 0.588617
0.000000 1.000000 0.818418
0.000000 1.000000 0.818357
0.000000 1.000000 0.818143
0.000000 1.000000 0.816922
0.000000 1.000000 0.793118
0.648005 1.000000 0.771450
0.739101 1.000000 0.731167
0.777432 0.997436 0.604303
0.000000 0.063142 0.540490
0.109834 0.000000 0.524651
0.327367 0.000000 0.465827
0.405463 0.000000 0.424903
0.677302 0.000000 0.543664
0.856657 0.000000 0.607141
0.978454 0.000000 0.642817
1.000000 0.000000 0.654383
0.000000 0.012055 0.548425
0.151003 0.000000 0.533806
0.336370 0.000000 0.478126
0.414252 0.000000 0.436194
0.674556 0.000000 0.545922
0.852506 0.000000 0.608118
0.976959 0.000000 0.644343
1.000000 0.000000 0.655390
0.000000 0.456306 0.600977
0.000000 0.391211 0.584466
0.228611 0.149081 0.536797
0.431891 0.000000 0.468971
0.665705 0.000000 0.552667
0.838285 0.000000 0.611017
0.972015 0.000000 0.649439
1.000000 0.000000 0.658839
0.000000 0.548150 0.595148
0.000000 0.545953 0.593408
0.000000 0.545617 0.586084
0.395636 0.389593 0.530297
0.639643 0.000000 0.537316
0.831815 0.000000 0.604089
0.964538 0.000000 0.656947
1.000000 0.000000 0.663081
0.000000 0.637781 0.620874
0.000000 0.634180 0.616754
0.000000 0.622980 0.600977
0.246311 0.608087 0.567285
0.568933 0.578332 0.504082
0.817044 0.484138 0.599664
0.960754 0.173007 0.647242
1.000000 0.000000 0.670405
0.000000 0.774258 0.701381
0.000000 0.775479 0.699886
0.000000 0.781643 0.694575
0.000000 0.799283 0.684718
0.429328 0.828489 0.669917
0.647181 0.784726 0.532982
0.923644 0.678767 0.631220
1.000000 0.681392 0.704128
0.000000 0.912718 0.771542
0.000000 0.911803 0.771084
0.000000 0.919799 0.769223
0.000000 0.938415 0.765682
0.113161 0.963409 0.759335
0.683986 0.929961 0.717800
0.735012 0.910307 0.583459
0.997253 0.785824 0.663569
0.000000 1.000000 0.820005
0.000000 1.000000 0.819944
0.000000 1.000000 0.819791
0.000000 1.000000 0.819120
0.000000 1.000000 0.815854
0.603388 1.000000 0.786343
0.793820 0.999878 0.755337
0.822721 0.989868 0.646540
0.000000 0.000000 0.677913
0.000000 0.000000 0.669917
0.369512 0.000000 0.638941
0.530755 0.000000 0.588434
0.668360 0.000000 0.593286
0.841062 0.000000 0.647242
0.964263 0.000000 0.678279
1.000000 0.000000 0.690974
0.000000 0.000000 0.681392
0.077180 0.000000 0.673823
0.374121 0.000000 0.644404
0.534356 0.000000 0.594537
0.663020 0.000000 0.593225
0.839994 0.000000 0.649439
0.962768 0.000000 0.679500
1.000000 0.000000 0.691981
0.000000 0.323919 0.702541
0.000000 0.215671 0.698268
0.276799 0.000000 0.670863
0.537255 0.000000 0.613397
0.643030 0.000000 0.592584
0.836759 0.000000 0.657008
0.957794 0.000000 0.683619
1.000000 0.000000 0.695094
0.000000 0.627436 0.719265
0.000000 0.631159 0.718685
0.277379 0.630365 0.710475
0.429572 0.357305 0.666926
0.634302 0.000000 0.614069
0.829953 0.000000 0.661921
0.949889 0.000000 0.690028
1.000000 0.000000 0.699550
0.000000 0.674861 0.703395
0.000000 0.675349 0.702876
0.000000 0.683314 0.699916
0.470710 0.710811 0.691798
0.634852 0.600916 0.650080
0.807767 0.207370 0.650263
0.950713 0.000000 0.683467
1.000000 0.000000 0.704677
0.000000 0.746578 0.717586
0.000000 0.745571 0.715969
0.000000 0.743801 0.709773
0.000000 0.746120 0.695949
0.532738 0.748135 0.670344
0.744961 0.726467 0.620783
0.923796 0.670741 0.694026
1.000000 0.415137 0.712154
0.000000 0.840360 0.769528
0.000000 0.841764 0.769009
0.000000 0.847654 0.767208
0.000000 0.862974 0.763546
0.237308 0.889891 0.756222
0.662318 0.917784 0.745754
0.807614 0.886748 0.650233
0.996185 0.814603 0.718715
0.000000 0.969024 0.822141
0.000000 0.969299 0.822110
0.000000 0.970611 0.822019
0.000000 0.980255 0.821439
0.000000 1.000000 0.818875
0.488563 1.000000 0.811948
0.843961 0.990082 0.781582
0.871336 0.980316 0.691981
0.000000 0.000000 0.773251
0.000000 0.000000 0.769345
0.331243 0.000000 0.754299
0.571405 0.000000 0.721828
0.704860 0.000000 0.694362
0.861234 0.000000 0.715419
0.957305 0.000000 0.722683
1.000000 0.000000 0.731167
0.000000 0.000000 0.775021
0.000000 0.000000 0.771267
0.329778 0.000000 0.756771
0.568688 0.000000 0.725307
0.704433 0.000000 0.697475
0.857511 0.000000 0.715328
0.956939 0.000000 0.724331
1.000000 0.000000 0.732143
0.000000 0.094240 0.783932
0.000000 0.000000 0.780056
0.306798 0.000000 0.765682
0.553704 0.000000 0.737362
0.701625 0.000000 0.707668
0.843717 0.000000 0.714900
0.955810 0.000000 0.730159
1.000000 0.000000 0.735348
0.000000 0.651270 0.794858
0.000000 0.635828 0.791470
0.269444 0.536217 0.781888
0.411078 0.238010 0.765072
0.681086 0.000000 0.723293
0.816190 0.000000 0.713436
0.954009 0.000000 0.740200
1.000000 0.000000 0.740475
0.000000 0.718898 0.789364
0.000000 0.723873 0.788998
0.261997 0.750729 0.786191
0.643641 0.801694 0.780758
0.655146 0.582727 0.751766
0.784512 0.000000 0.719753
0.950774 0.000000 0.747799
1.000000 0.000000 0.747494
0.000000 0.760830 0.776822
0.000000 0.761471 0.776761
0.000000 0.768887 0.775814
0.378271 0.796170 0.771267
0.709834 0.834897 0.765530
0.804227 0.758846 0.737240
0.924132 0.429511 0.735805
1.000000 0.000000 0.745968
0.000000 0.823880 0.787198
0.000000 0.823606 0.786679
0.000000 0.823697 0.784604
0.000000 0.829648 0.779446
0.429419 0.845365 0.767422
0.724727 0.856565 0.748440
0.869718 0.841947 0.710323
1.000000 0.797055 0.764248
0.000000 0.901457 0.824796
0.000000 0.901457 0.824796
0.000000 0.901762 0.824796
0.000000 0.908904 0.824399
0.000000 0.931395 0.821714
0.498482 0.962768 0.813657
0.807767 0.989014 0.805356
0.921050 0.967102 0.738766
0.000000 0.000000 0.839170
0.000000 0.000000 0.837430
0.213138 0.000000 0.830686
0.515557 0.000000 0.816526
0.734829 0.000000 0.791623
0.848478 0.000000 0.779934
0.996490 0.000000 0.803037
1.000000 0.000000 0.779568
0.000000 0.000000 0.840177
0.000000 0.000000 0.838468
0.195956 0.000000 0.831937
0.507652 0.000000 0.818112
0.732479 0.000000 0.792996
0.846372 0.000000 0.781399
0.995544 0.000000 0.804135
1.000000 0.000000 0.780667
0.000000 0.062318 0.844022
0.000000 0.000000 0.842466
0.019898 0.000000 0.836454
0.472145 0.000000 0.823697
0.713680 0.000000 0.799832
0.838224 0.000000 0.786496
0.986542 0.000000 0.803922
1.000000 0.000000 0.784482
0.000000 0.516838 0.843839
0.000000 0.464088 0.844755
0.000000 0.207004 0.846128
0.362799 0.000000 0.834043
0.662715 0.000000 0.812772
0.820920 0.000000 0.795071
0.968658 0.000000 0.803250
1.000000 0.000000 0.791135
0.000000 0.731624 0.843137
0.000000 0.740963 0.842313
0.401099 0.786099 0.837308
0.643061 0.751858 0.826902
0.544488 0.396887 0.828397
0.783474 0.000000 0.806516
0.936400 0.000000 0.801450
1.000000 0.000000 0.801419
0.000000 0.769619 0.836851
0.000000 0.769680 0.837034
0.000000 0.779995 0.836393
0.478401 0.830014 0.829892
0.796201 0.890379 0.823301
0.800168 0.729213 0.810880
0.890929 0.000000 0.801694
1.000000 0.000000 0.816983
0.000000 0.821805 0.829465
0.000000 0.821225 0.829587
0.000000 0.819547 0.829984
0.000000 0.827878 0.829160
0.553185 0.872343 0.821073
0.841123 0.918212 0.815152
0.916167 0.872068 0.801144
1.000000 0.561517 0.804349
0.000000 0.884184 0.839200
0.000000 0.883909 0.839139
0.000000 0.882963 0.838865
0.000000 0.881559 0.838224
0.000000 0.891203 0.834470
0.589960 0.920256 0.822232
0.847135 0.940612 0.808896
0.965667 0.936309 0.782834
