其他预设/【213】赛博朋克科幻预设52款/1.LUT预设（视频调色-PR-AE-PS-FCPX-达芬奇用）/赛博朋克科幻__-8 强度5.cube
# Created by Adobe Lightroom plugin Export LUT (1.17.0)
# www.johnrellis.com/lightroom/exportlut.htm
# Preset: 赛博朋克科幻[素锦印象]-8 强度5
# Color profile: /Library/Application Support/Adobe/Color/Profiles/Recommended/AdobeRGB1998.icc
LUT_3D_SIZE 32
0.000000 0.062501 0.000000
0.000000 0.063325 0.001587
0.008362 0.064820 0.010712
0.031739 0.068208 0.032044
0.056550 0.073121 0.056275
0.071199 0.076783 0.070649
0.086305 0.080140 0.085664
0.104891 0.083040 0.103914
0.128573 0.085176 0.126741
0.157290 0.086366 0.154360
0.191897 0.086152 0.186984
0.231388 0.084138 0.223362
0.275700 0.079805 0.262577
0.324437 0.073854 0.303868
0.376287 0.067475 0.345525
0.429755 0.064454 0.386236
0.481453 0.074372 0.423774
0.529595 0.096345 0.457282
0.573968 0.125521 0.487282
0.616052 0.159670 0.515099
0.656123 0.197116 0.541100
0.694087 0.237461 0.565637
0.729915 0.280034 0.588830
0.763272 0.324193 0.610773
0.794278 0.369604 0.631708
0.823056 0.415656 0.651820
0.849790 0.460945 0.671046
0.874998 0.503716 0.689448
0.898802 0.544396 0.707088
0.921386 0.583398 0.724117
0.942901 0.620813 0.740566
0.963378 0.656886 0.756497
0.000000 0.069062 0.005982
0.000000 0.067597 0.000000
0.006195 0.067048 0.010254
0.029389 0.067933 0.031098
0.055940 0.072389 0.055604
0.070954 0.076143 0.070344
0.085695 0.079896 0.085389
0.104646 0.082765 0.103944
0.128176 0.084962 0.126558
0.157137 0.086091 0.154360
0.191653 0.085634 0.187015
0.231388 0.083467 0.223575
0.275731 0.079011 0.262974
0.324620 0.072847 0.304326
0.376410 0.065919 0.345983
0.430091 0.062745 0.386816
0.481727 0.072694 0.424201
0.529747 0.095491 0.457649
0.574182 0.124849 0.487648
0.616297 0.159152 0.515373
0.656245 0.196628 0.541375
0.694240 0.237064 0.565881
0.730007 0.279667 0.589014
0.763424 0.323980 0.610986
0.794400 0.369390 0.631861
0.823148 0.415503 0.651942
0.849912 0.460822 0.671168
0.875090 0.503593 0.689570
0.898863 0.544335 0.707179
0.921477 0.583307 0.724178
0.942962 0.620752 0.740627
0.963409 0.656764 0.756527
0.000000 0.076783 0.021454
0.000000 0.075502 0.019501
0.000000 0.074037 0.006683
0.025513 0.073762 0.030884
0.054170 0.071748 0.055756
0.070069 0.075898 0.070405
0.085054 0.079316 0.085451
0.103914 0.082246 0.103761
0.127535 0.084504 0.126589
0.156802 0.085573 0.154543
0.191379 0.085115 0.187259
0.231235 0.082826 0.223941
0.275822 0.078126 0.263523
0.324743 0.071443 0.304936
0.376623 0.064149 0.346593
0.430335 0.060761 0.387304
0.482063 0.070832 0.424720
0.530022 0.093904 0.458167
0.574517 0.123781 0.488136
0.616510 0.158114 0.515801
0.656580 0.196017 0.541711
0.694484 0.236606 0.566186
0.730251 0.279271 0.589288
0.763638 0.323674 0.611200
0.794614 0.369177 0.632105
0.823331 0.415351 0.652125
0.850065 0.460578 0.671321
0.875212 0.503441 0.689693
0.898985 0.544213 0.707301
0.921569 0.583246 0.724269
0.943023 0.620661 0.740688
0.963470 0.656733 0.756619
0.000000 0.089876 0.049409
0.000000 0.089021 0.048798
0.000000 0.087587 0.045228
0.006470 0.085206 0.023896
0.051850 0.078676 0.049592
0.066743 0.080659 0.068482
0.084291 0.078065 0.084718
0.102907 0.081147 0.103609
0.126772 0.083375 0.126497
0.156130 0.084504 0.154757
0.190951 0.083619 0.187778
0.231052 0.081178 0.224735
0.275975 0.076112 0.264530
0.325048 0.068421 0.306096
0.377142 0.060243 0.347814
0.430945 0.053712 0.388678
0.482734 0.065949 0.426001
0.530724 0.090608 0.459266
0.575128 0.121126 0.489113
0.617090 0.156283 0.516686
0.657160 0.194553 0.542596
0.695064 0.235447 0.566949
0.730800 0.278325 0.589960
0.764096 0.322942 0.611780
0.795010 0.368536 0.632593
0.823697 0.414832 0.652552
0.850340 0.460212 0.671687
0.875486 0.503136 0.689998
0.899229 0.543969 0.707576
0.921752 0.582971 0.724483
0.943175 0.620447 0.740871
0.963592 0.656550 0.756741
0.000000 0.107118 0.067903
0.000000 0.105898 0.067689
0.000000 0.104433 0.067109
0.000000 0.102480 0.063905
0.014435 0.098970 0.040803
0.069062 0.082948 0.058564
0.075990 0.093202 0.078950
0.098177 0.088106 0.099458
0.125338 0.081788 0.126619
0.155154 0.082856 0.155123
0.190341 0.081819 0.188663
0.230900 0.078309 0.226078
0.276219 0.072206 0.266270
0.325536 0.063111 0.307988
0.377844 0.049836 0.349828
0.431800 0.036713 0.390539
0.483680 0.057252 0.427863
0.531670 0.084535 0.461036
0.576104 0.116945 0.490761
0.618128 0.153292 0.518151
0.658076 0.192203 0.543847
0.695979 0.233616 0.568109
0.731594 0.276890 0.590967
0.764858 0.321813 0.612696
0.795651 0.367712 0.633356
0.824277 0.414099 0.653223
0.850889 0.459602 0.672267
0.875914 0.502647 0.690486
0.899596 0.543511 0.707973
0.922057 0.582605 0.724819
0.943450 0.620111 0.741146
0.963806 0.656275 0.756954
0.000000 0.126589 0.082795
0.000000 0.125338 0.082338
0.000000 0.123720 0.081636
0.000000 0.121370 0.079652
0.001099 0.119753 0.075319
0.019715 0.116091 0.054170
0.084779 0.087007 0.060609
0.089906 0.102876 0.089326
0.112032 0.104311 0.113893
0.146853 0.095857 0.147829
0.189395 0.078676 0.190005
0.230594 0.074647 0.228000
0.276280 0.067262 0.268498
0.326146 0.053895 0.310521
0.378882 0.027710 0.352422
0.433173 0.011139 0.393317
0.485023 0.032990 0.430488
0.532952 0.075563 0.463416
0.577325 0.111269 0.492836
0.619409 0.149111 0.520073
0.659297 0.189151 0.545647
0.697139 0.231296 0.569696
0.732692 0.275090 0.592340
0.765835 0.320226 0.613886
0.796567 0.366430 0.634394
0.825040 0.413123 0.654108
0.851560 0.458839 0.673030
0.876493 0.501946 0.691157
0.900084 0.542962 0.708522
0.922484 0.582208 0.725277
0.943786 0.619715 0.741543
0.964050 0.655879 0.757259
0.000000 0.148135 0.099153
0.000000 0.146975 0.098817
0.000000 0.145266 0.097780
0.000000 0.141817 0.096193
0.000000 0.141543 0.093996
0.000000 0.140230 0.087343
0.020844 0.137179 0.063447
0.098665 0.113069 0.064027
0.109895 0.110018 0.100038
0.126772 0.124666 0.129458
0.168276 0.117983 0.168582
0.217746 0.102724 0.216190
0.274540 0.067842 0.269291
0.326879 0.033234 0.313756
0.380072 0.000824 0.355962
0.434577 0.000000 0.396704
0.486549 0.000000 0.433631
0.534630 0.063142 0.466346
0.579004 0.102998 0.495583
0.620996 0.143374 0.522606
0.660853 0.184817 0.547906
0.698634 0.228031 0.571649
0.734066 0.272557 0.594141
0.767086 0.318273 0.615442
0.797665 0.364874 0.635737
0.826017 0.411780 0.655238
0.852445 0.457740 0.674006
0.877256 0.501152 0.691981
0.900725 0.542290 0.709224
0.923003 0.581537 0.725887
0.944213 0.619135 0.742000
0.964416 0.655390 0.757626
0.000000 0.171389 0.117128
0.000000 0.170260 0.116670
0.000000 0.168704 0.115846
0.000000 0.165377 0.113985
0.000000 0.163363 0.112276
0.000000 0.165866 0.110262
0.000000 0.164797 0.101320
0.018219 0.162875 0.071626
0.115267 0.147158 0.066957
0.135042 0.117556 0.110262
0.146731 0.143618 0.146914
0.189303 0.145449 0.189487
0.245182 0.135012 0.241306
0.308385 0.110689 0.297948
0.376776 0.037720 0.355596
0.436225 0.000000 0.400793
0.488411 0.000000 0.437507
0.536522 0.026856 0.469978
0.580896 0.092226 0.498848
0.622919 0.135988 0.525658
0.662776 0.179477 0.550652
0.700404 0.223941 0.574182
0.735714 0.269444 0.596277
0.768612 0.315953 0.617304
0.799039 0.362890 0.637385
0.827268 0.410254 0.656672
0.853483 0.456519 0.675227
0.878172 0.500053 0.692988
0.901488 0.541375 0.710048
0.923644 0.580743 0.726589
0.944732 0.618463 0.742580
0.964843 0.654719 0.758114
0.000000 0.196719 0.136782
0.000000 0.195560 0.136263
0.000000 0.194217 0.135409
0.000000 0.190799 0.133577
0.000000 0.186404 0.131136
0.000000 0.190036 0.131106
0.000000 0.195254 0.129549
0.000000 0.194858 0.118502
0.007477 0.194369 0.081086
0.134676 0.189609 0.068360
0.165225 0.125856 0.119173
0.178317 0.155673 0.166293
0.209049 0.177279 0.209567
0.271458 0.172549 0.265476
0.340429 0.157809 0.324620
0.413123 0.126650 0.383307
0.483925 0.050446 0.436530
0.538781 0.000000 0.474250
0.583124 0.076631 0.502831
0.625208 0.126619 0.529229
0.664942 0.172885 0.553857
0.702480 0.219028 0.577020
0.737667 0.265721 0.598840
0.770382 0.312902 0.619562
0.800687 0.360479 0.639338
0.828672 0.408270 0.658350
0.854765 0.454963 0.676661
0.879210 0.498817 0.694209
0.902403 0.540368 0.711086
0.924437 0.579858 0.727443
0.945342 0.617670 0.743282
0.965332 0.654047 0.758663
0.000000 0.223972 0.157931
0.000000 0.222965 0.157321
0.000000 0.221500 0.156649
0.000000 0.218479 0.155001
0.000000 0.213779 0.152346
0.000000 0.215244 0.152102
0.000000 0.221744 0.152956
0.000000 0.229831 0.151736
0.000000 0.230350 0.138552
0.000000 0.231724 0.092958
0.157198 0.238987 0.067903
0.199527 0.134463 0.125185
0.213809 0.168978 0.184909
0.230838 0.207889 0.230137
0.295628 0.212863 0.287999
0.370062 0.206394 0.349493
0.446204 0.189242 0.408392
0.516075 0.161318 0.459266
0.578515 0.116793 0.502037
0.627710 0.114321 0.533349
0.667475 0.164828 0.557641
0.704921 0.213107 0.580407
0.739925 0.261082 0.601862
0.772427 0.309331 0.622187
0.802548 0.357733 0.641596
0.830350 0.406043 0.660334
0.856199 0.453193 0.678340
0.880491 0.497353 0.695613
0.903502 0.539086 0.712306
0.925322 0.578790 0.728450
0.946105 0.616724 0.744076
0.965942 0.653193 0.759335
0.000000 0.252934 0.180392
0.000000 0.251957 0.179904
0.000000 0.250706 0.179080
0.000000 0.247837 0.177584
0.000000 0.243259 0.174899
0.000000 0.240665 0.173159
0.000000 0.248173 0.175570
0.000000 0.258030 0.177462
0.000000 0.267491 0.175051
0.000000 0.270603 0.161471
0.000000 0.273991 0.106477
0.172091 0.282780 0.071168
0.237888 0.143740 0.126619
0.253086 0.182864 0.202426
0.271000 0.225834 0.255039
0.317052 0.253452 0.308812
0.396857 0.254582 0.372259
0.474250 0.248234 0.430365
0.543847 0.235782 0.479683
0.606867 0.217197 0.521813
0.663874 0.191287 0.557885
0.707576 0.205875 0.584222
0.742519 0.255589 0.605280
0.774777 0.305150 0.625177
0.804685 0.354437 0.644251
0.832242 0.403449 0.662562
0.857847 0.451057 0.680232
0.881926 0.495674 0.697261
0.904723 0.537621 0.713680
0.926329 0.577539 0.729549
0.946929 0.615656 0.745052
0.966583 0.652216 0.760067
0.000000 0.283146 0.203769
0.000000 0.282292 0.203250
0.000000 0.280888 0.202457
0.000000 0.278141 0.200900
0.000000 0.274022 0.198611
0.000000 0.268376 0.195346
0.000000 0.274235 0.197665
0.000000 0.284642 0.201236
0.000000 0.298039 0.204349
0.000000 0.308782 0.200473
0.000000 0.314733 0.186587
0.000000 0.320012 0.122560
0.185824 0.323247 0.083619
0.272557 0.204349 0.134554
0.295537 0.197482 0.217624
0.314122 0.244175 0.278447
0.335698 0.292149 0.327703
0.419959 0.301152 0.392737
0.498543 0.304082 0.450294
0.569299 0.302892 0.499519
0.632990 0.297581 0.541344
0.689906 0.288029 0.576867
0.740810 0.272282 0.606867
0.777432 0.300237 0.628626
0.807095 0.350591 0.647211
0.834379 0.400336 0.665156
0.859739 0.448707 0.682490
0.883574 0.493660 0.699153
0.906096 0.536004 0.715267
0.927489 0.576196 0.730922
0.947906 0.614435 0.746120
0.967346 0.651148 0.760952
0.000000 0.314458 0.227848
0.000000 0.313634 0.227390
0.000000 0.312474 0.226780
0.000000 0.309789 0.225254
0.000000 0.305852 0.222934
0.000000 0.300389 0.219883
0.000000 0.300206 0.219303
0.000000 0.310613 0.223697
0.000000 0.324224 0.228489
0.000000 0.341222 0.233005
0.000000 0.352880 0.227329
0.000000 0.361669 0.213718
0.000000 0.368536 0.141543
0.199680 0.365576 0.100313
0.307897 0.270817 0.144381
0.340642 0.212436 0.230442
0.359625 0.262791 0.300023
0.380682 0.313573 0.353521
0.439734 0.345037 0.411048
0.520836 0.357397 0.469703
0.593072 0.365911 0.519249
0.657252 0.370520 0.561028
0.713985 0.371069 0.596002
0.763943 0.366766 0.625360
0.807797 0.356237 0.649928
0.836759 0.396887 0.668025
0.861875 0.445930 0.684962
0.885435 0.491463 0.701259
0.907683 0.534203 0.717037
0.928832 0.574640 0.732387
0.948943 0.613062 0.747311
0.968231 0.649897 0.761929
0.000000 0.346746 0.252750
0.000000 0.345892 0.252293
0.000000 0.344793 0.251591
0.000000 0.342351 0.250248
0.000000 0.338506 0.247990
0.000000 0.333349 0.245029
0.000000 0.326848 0.241306
0.000000 0.336461 0.245701
0.000000 0.349615 0.251225
0.000000 0.366278 0.257267
0.000000 0.386908 0.263218
0.000000 0.398688 0.255467
0.000000 0.410559 0.242496
0.000000 0.418647 0.162692
0.217014 0.415534 0.117922
0.344823 0.337469 0.154665
0.387610 0.228031 0.240604
0.406378 0.281682 0.319127
0.427466 0.335424 0.377783
0.457404 0.386633 0.428473
0.541375 0.408331 0.488685
0.615229 0.425574 0.539025
0.679866 0.438392 0.580865
0.736324 0.446723 0.615534
0.785214 0.450080 0.644251
0.827756 0.447425 0.668086
0.864164 0.442725 0.687770
0.887449 0.488960 0.703639
0.909392 0.532158 0.719051
0.930266 0.572900 0.734035
0.950164 0.611475 0.748684
0.969146 0.648524 0.763027
0.000000 0.379950 0.278294
0.000000 0.379187 0.277806
0.000000 0.378149 0.277195
0.000000 0.375860 0.275883
0.000000 0.372198 0.273747
0.000000 0.367254 0.270909
0.000000 0.361028 0.267216
0.000000 0.362432 0.267552
0.000000 0.374884 0.273350
0.000000 0.390600 0.279942
0.000000 0.410193 0.287022
0.000000 0.431739 0.291905
0.000000 0.445624 0.284337
0.000000 0.460426 0.272496
0.000000 0.469184 0.185916
0.235080 0.465736 0.138491
0.382879 0.403571 0.165713
0.435584 0.244144 0.247593
0.453834 0.301427 0.336461
0.474403 0.359045 0.400275
0.496864 0.416846 0.451972
0.560418 0.456306 0.507286
0.635889 0.481453 0.558648
0.701350 0.500694 0.600702
0.757504 0.513909 0.634943
0.805478 0.521691 0.662989
0.846830 0.523796 0.686183
0.882933 0.519951 0.705440
0.911345 0.529839 0.721279
0.931884 0.570855 0.735927
0.951476 0.609766 0.750210
0.970214 0.646998 0.764248
0.000000 0.414282 0.304601
0.000000 0.413519 0.304112
0.000000 0.412512 0.303532
0.000000 0.410315 0.302281
0.000000 0.406775 0.300206
0.000000 0.402014 0.297459
0.000000 0.396094 0.293919
0.000000 0.389166 0.289830
0.000000 0.400610 0.295323
0.000000 0.415045 0.301823
0.000000 0.433112 0.309270
0.000000 0.455421 0.317540
0.000000 0.476722 0.320562
0.000000 0.492927 0.313664
0.000000 0.509880 0.303105
0.000000 0.519066 0.211063
0.253056 0.515221 0.161837
0.421393 0.469123 0.177554
0.483223 0.261906 0.252781
0.500755 0.323674 0.352453
0.520653 0.384985 0.421485
0.542565 0.445869 0.476387
0.578210 0.500969 0.525536
0.656031 0.532036 0.577905
0.722316 0.555169 0.619989
0.778225 0.571893 0.653895
0.825376 0.582940 0.681422
0.865568 0.588830 0.704036
0.900481 0.589105 0.722713
0.931151 0.583001 0.738094
0.952941 0.607874 0.751888
0.971405 0.645258 0.765621
0.000000 0.449500 0.331518
0.000000 0.448768 0.331121
0.000000 0.447791 0.330541
0.000000 0.445686 0.329320
0.000000 0.442359 0.327398
0.000000 0.437842 0.324773
0.000000 0.432166 0.321386
0.000000 0.425238 0.317296
0.000000 0.427253 0.317876
0.000000 0.440223 0.323888
0.000000 0.456519 0.331060
0.000000 0.476631 0.339147
0.000000 0.501091 0.348241
0.000000 0.521660 0.349218
0.000000 0.539452 0.343084
0.000000 0.558190 0.334020
0.000000 0.566949 0.238224
0.271153 0.563073 0.187930
0.459693 0.532403 0.191745
0.523613 0.333165 0.268589
0.546990 0.348333 0.367681
0.566217 0.413123 0.442084
0.587488 0.476539 0.499886
0.610956 0.536706 0.547173
0.675898 0.576562 0.596460
0.743191 0.603082 0.638697
0.798856 0.622705 0.672358
0.845182 0.636683 0.699489
0.884398 0.645289 0.721614
0.917998 0.648859 0.739834
0.947387 0.646815 0.754757
0.972686 0.643397 0.767147
0.000000 0.485786 0.359289
0.000000 0.485054 0.358831
0.000000 0.484199 0.358404
0.000000 0.482155 0.357183
0.000000 0.478950 0.355322
0.000000 0.474678 0.352850
0.000000 0.469245 0.349645
0.000000 0.462654 0.345678
0.000000 0.455360 0.341314
0.000000 0.466896 0.346746
0.000000 0.481300 0.353277
0.000000 0.499123 0.360784
0.000000 0.520958 0.369390
0.000000 0.547173 0.379339
0.000000 0.566400 0.378058
0.000000 0.585107 0.372717
0.000000 0.604334 0.365454
0.000000 0.612573 0.267399
0.290257 0.608423 0.217319
0.497871 0.593439 0.209293
0.561669 0.409766 0.289647
0.592401 0.375463 0.383276
0.610986 0.443519 0.462654
0.631769 0.508812 0.522972
0.655146 0.567742 0.570977
0.695796 0.616236 0.614343
0.764187 0.645930 0.657008
0.819669 0.668147 0.690517
0.865293 0.684260 0.717250
0.903410 0.695186 0.738979
0.935821 0.701381 0.756680
0.963806 0.702693 0.771267
0.000000 0.524224 0.388678
0.000000 0.523613 0.388312
0.000000 0.522759 0.387823
0.000000 0.520836 0.386755
0.000000 0.517967 0.385046
0.000000 0.513939 0.382727
0.000000 0.508873 0.379736
0.000000 0.502586 0.376074
0.000000 0.495277 0.371771
0.000000 0.496681 0.371893
0.000000 0.509270 0.377508
0.000000 0.524834 0.384100
0.000000 0.543908 0.391913
0.000000 0.566949 0.400855
0.000000 0.592248 0.409674
0.000000 0.610285 0.406867
0.000000 0.628931 0.402380
0.000000 0.647852 0.397345
0.085786 0.655482 0.299229
0.311223 0.651362 0.250278
0.536095 0.651728 0.230289
0.599390 0.479561 0.313298
0.636896 0.405249 0.399817
0.654780 0.475929 0.483497
0.675319 0.540948 0.545434
0.698665 0.598566 0.593957
0.724331 0.650202 0.633875
0.785702 0.684810 0.675074
0.841093 0.709194 0.708492
0.885985 0.727138 0.734920
0.923003 0.739956 0.756191
0.954101 0.748409 0.773526
0.000000 0.565881 0.420386
0.000000 0.565209 0.420020
0.000000 0.564477 0.419562
0.000000 0.562829 0.418616
0.000000 0.560052 0.417029
0.000000 0.556390 0.414954
0.000000 0.551598 0.412146
0.000000 0.545830 0.408850
0.000000 0.539025 0.404822
0.000000 0.530968 0.400092
0.000000 0.541192 0.404517
0.000000 0.554467 0.409979
0.000000 0.570642 0.416419
0.000000 0.589960 0.423804
0.000000 0.612451 0.432197
0.000000 0.634760 0.438056
0.000000 0.652461 0.435492
0.000000 0.670588 0.432380
0.119234 0.688960 0.430182
0.142458 0.695857 0.333410
0.334844 0.691737 0.286198
0.558038 0.695766 0.259159
0.636591 0.544488 0.339544
0.680262 0.437537 0.417731
0.697627 0.509545 0.504753
0.718166 0.572961 0.567468
0.741329 0.629175 0.616297
0.766690 0.679683 0.656306
0.808133 0.720699 0.693172
0.863401 0.746883 0.726528
0.907469 0.766293 0.752590
0.943359 0.780728 0.773434
0.000000 0.609308 0.453315
0.000000 0.608850 0.453040
0.000000 0.608087 0.452705
0.000000 0.606683 0.451881
0.000000 0.604211 0.450507
0.000000 0.601038 0.448737
0.000000 0.596918 0.446448
0.000000 0.591821 0.443610
0.000000 0.585595 0.440070
0.000000 0.578363 0.435920
0.000000 0.577417 0.434668
0.000000 0.588098 0.438636
0.000000 0.601007 0.443336
0.000000 0.616632 0.448768
0.000000 0.635096 0.455177
0.000000 0.656519 0.462989
0.000000 0.675898 0.466163
0.000000 0.692775 0.464271
0.000000 0.710109 0.462837
0.189273 0.727382 0.463844
0.195743 0.733639 0.370184
0.361975 0.729702 0.324956
0.570886 0.731746 0.292790
0.673457 0.604791 0.368505
0.722469 0.472236 0.437964
0.739651 0.543023 0.526146
0.759976 0.604913 0.589319
0.782834 0.659907 0.638300
0.807797 0.709163 0.678248
0.834440 0.753628 0.712001
0.887083 0.782040 0.744808
0.930236 0.802701 0.770535
0.000000 0.653620 0.486885
0.000000 0.653254 0.486641
0.000000 0.652613 0.486275
0.000000 0.651362 0.485664
0.000000 0.649317 0.484565
0.000000 0.646479 0.483070
0.000000 0.642939 0.481178
0.000000 0.638483 0.478828
0.000000 0.633265 0.475959
0.000000 0.626947 0.472541
0.000000 0.619745 0.468544
0.000000 0.625238 0.469825
0.000000 0.635279 0.472755
0.000000 0.647395 0.476295
0.000000 0.662013 0.480598
0.000000 0.679225 0.486091
0.000000 0.699001 0.493568
0.000000 0.715572 0.494453
0.000000 0.731350 0.493477
0.124636 0.747372 0.493996
0.254246 0.763272 0.498360
0.249729 0.769009 0.408484
0.393194 0.765255 0.365972
0.587427 0.763485 0.334783
0.709804 0.661524 0.399969
0.759365 0.534295 0.466011
0.780545 0.576654 0.547906
0.800595 0.637018 0.611170
0.823148 0.690639 0.660121
0.847776 0.738643 0.699916
0.874144 0.781857 0.733486
0.912688 0.815579 0.763821
0.000000 0.698634 0.520806
0.000000 0.698299 0.520623
0.000000 0.697871 0.520378
0.000000 0.696651 0.519799
0.000000 0.694942 0.518944
0.000000 0.692592 0.517754
0.000000 0.689601 0.516258
0.000000 0.685878 0.514366
0.000000 0.681300 0.512047
0.000000 0.675959 0.509270
0.000000 0.669825 0.506096
0.000000 0.665766 0.503441
0.000000 0.673182 0.504784
0.000000 0.682307 0.506584
0.000000 0.693385 0.508934
0.000000 0.706661 0.512139
0.000000 0.722194 0.516808
0.000000 0.739803 0.524041
0.000000 0.753719 0.523064
0.000000 0.768032 0.523247
0.211917 0.782406 0.526024
0.312383 0.796323 0.529900
0.305089 0.801968 0.447913
0.428748 0.798428 0.408698
0.607446 0.792630 0.380407
0.745754 0.714168 0.432959
0.793973 0.599664 0.497078
0.820157 0.610346 0.570214
0.839963 0.669245 0.633234
0.862272 0.721462 0.681971
0.886687 0.768124 0.721431
0.912902 0.810239 0.754788
0.000000 0.744137 0.555047
0.000000 0.743832 0.554894
0.000000 0.743404 0.554650
0.000000 0.742458 0.554223
0.000000 0.741054 0.553613
0.000000 0.739071 0.552667
0.000000 0.736538 0.551507
0.000000 0.733455 0.550072
0.000000 0.729641 0.548241
0.000000 0.725124 0.546136
0.000000 0.719997 0.543633
0.000000 0.714076 0.540703
0.000000 0.714626 0.539422
0.000000 0.721065 0.539635
0.000000 0.729061 0.540124
0.000000 0.738766 0.541283
0.000000 0.750332 0.543420
0.000000 0.763790 0.547631
0.000000 0.778042 0.552789
0.000000 0.790280 0.552331
0.168124 0.802731 0.553857
0.285435 0.815213 0.558282
0.368170 0.827207 0.560418
0.359899 0.832761 0.486213
0.467659 0.829404 0.450935
0.629664 0.820249 0.426062
0.781277 0.762325 0.466407
0.828061 0.658595 0.528374
0.858488 0.644312 0.593286
0.878111 0.701625 0.655726
0.900298 0.752346 0.703944
0.924620 0.797848 0.743130
0.000000 0.789578 0.589136
0.000000 0.789334 0.589014
0.000000 0.788998 0.588891
0.000000 0.788235 0.588586
0.000000 0.787045 0.588098
0.000000 0.785458 0.587427
0.000000 0.783352 0.586572
0.000000 0.780819 0.585504
0.000000 0.777676 0.584192
0.000000 0.774044 0.582635
0.000000 0.769894 0.580835
0.000000 0.764981 0.578698
0.000000 0.759457 0.576257
0.000000 0.763180 0.575036
0.000000 0.768643 0.574090
0.000000 0.775296 0.573480
0.000000 0.783352 0.573480
0.000000 0.792905 0.574914
0.000000 0.803830 0.578912
0.000000 0.814847 0.582269
0.123812 0.825071 0.582513
0.259525 0.835477 0.585016
0.353399 0.846036 0.590143
0.423621 0.855985 0.590417
0.414862 0.861479 0.523857
0.509178 0.858335 0.491981
0.655268 0.847318 0.469917
0.816373 0.806729 0.500053
0.861631 0.712276 0.559869
0.895598 0.678492 0.617212
0.915160 0.734218 0.678737
0.937285 0.783688 0.726375
0.000000 0.834440 0.622827
0.000000 0.834226 0.622766
0.000000 0.833982 0.622675
0.000000 0.833371 0.622461
0.000000 0.832425 0.622126
0.000000 0.831174 0.621729
0.000000 0.829526 0.621118
0.000000 0.827512 0.620417
0.000000 0.825010 0.619593
0.000000 0.822202 0.618524
0.000000 0.818814 0.617304
0.000000 0.815030 0.615900
0.000000 0.810605 0.614282
0.000000 0.807828 0.612299
0.000000 0.811246 0.610254
0.000000 0.815457 0.608240
0.000000 0.820615 0.606592
0.000000 0.826749 0.605798
0.000000 0.833951 0.606744
0.000000 0.841978 0.611078
0.086946 0.850004 0.612665
0.242679 0.858091 0.613397
0.337713 0.866423 0.616114
0.419318 0.874907 0.621515
0.479622 0.882933 0.620020
0.470588 0.888334 0.560601
0.553216 0.885405 0.532006
0.686244 0.875120 0.512535
0.850919 0.847715 0.533837
0.894713 0.761624 0.591547
0.931579 0.712978 0.642115
0.951171 0.767269 0.702480
0.000000 0.878080 0.655756
0.000000 0.877928 0.655695
0.000000 0.877714 0.655665
0.000000 0.877287 0.655543
0.000000 0.876555 0.655360
0.000000 0.875608 0.655116
0.000000 0.874357 0.654810
0.000000 0.872801 0.654444
0.000000 0.870939 0.653925
0.000000 0.868803 0.653376
0.000000 0.866239 0.652705
0.000000 0.863371 0.651911
0.000000 0.860075 0.650996
0.000000 0.856291 0.649928
0.000000 0.855650 0.647761
0.000000 0.858030 0.644770
0.000000 0.860960 0.641932
0.000000 0.864469 0.639551
0.000000 0.868528 0.638392
0.000000 0.873014 0.639399
0.066804 0.877775 0.644282
0.240635 0.883452 0.643824
0.333165 0.889403 0.644465
0.412085 0.895537 0.647181
0.484901 0.901915 0.652491
0.536278 0.908141 0.649317
0.527367 0.913451 0.596582
0.599847 0.910796 0.571099
0.719966 0.901305 0.554009
0.885069 0.885405 0.567864
0.927367 0.807187 0.623590
0.964355 0.759243 0.671138
0.000000 0.919921 0.687648
0.000000 0.919799 0.687648
0.000000 0.919646 0.687617
0.000000 0.919341 0.687587
0.000000 0.918822 0.687556
0.000000 0.918120 0.687465
0.000000 0.917205 0.687373
0.000000 0.916106 0.687251
0.000000 0.914763 0.687068
0.000000 0.913176 0.686854
0.000000 0.911345 0.686641
0.000000 0.909270 0.686366
0.000000 0.906920 0.686030
0.000000 0.904204 0.685634
0.000000 0.901152 0.685176
