其他预设/【213】赛博朋克科幻预设52款/1.LUT预设（视频调色-PR-AE-PS-FCPX-达芬奇用）/赛博朋克科幻__-4 强度5.cube
# Created by Adobe Lightroom plugin Export LUT (1.17.0)
# www.johnrellis.com/lightroom/exportlut.htm
# Preset: 赛博朋克科幻[素锦印象]-4 强度5
# Color profile: /Library/Application Support/Adobe/Color/Profiles/Recommended/AdobeRGB1998.icc
LUT_3D_SIZE 8
DOMAIN_MIN 0.000000 0.000000 0.000000
DOMAIN_MAX 0.903226 0.903226 0.903226
0.000000 0.000000 0.000000
0.086091 0.000000 0.051484
0.187381 0.000000 0.112642
0.363989 0.000000 0.210391
0.570214 0.000000 0.324620
0.735958 0.000000 0.416297
0.867094 0.000000 0.488960
0.975769 0.000000 0.549310
0.089876 0.098512 0.000000
0.093050 0.080995 0.002380
0.179782 0.000000 0.111299
0.359167 0.000000 0.207919
0.567102 0.000000 0.322911
0.734585 0.000000 0.415534
0.866575 0.000000 0.488655
0.975647 0.000000 0.549248
0.251591 0.276158 0.000000
0.261173 0.266697 0.000000
0.248783 0.214481 0.000000
0.358770 0.000000 0.172274
0.551324 0.000000 0.316960
0.729793 0.000000 0.412909
0.864744 0.000000 0.487648
0.975250 0.000000 0.549035
0.499916 0.546929 0.000000
0.514153 0.544457 0.000000
0.543969 0.525566 0.000000
0.539147 0.462776 0.000000
0.629572 0.110903 0.179690
0.706172 0.000000 0.419471
0.856809 0.000000 0.489509
0.974487 0.000000 0.548791
0.675105 0.738613 0.000000
0.686122 0.737789 0.000000
0.717830 0.732418 0.000000
0.770687 0.718624 0.000000
0.773709 0.665064 0.000000
0.821897 0.460395 0.296757
0.878599 0.277562 0.466804
0.952758 0.183597 0.584466
0.776028 0.851804 0.000000
0.783169 0.851347 0.000000
0.811765 0.849851 0.000000
0.853513 0.844999 0.000000
0.914458 0.832273 0.000000
0.915496 0.791684 0.000000
0.945647 0.677302 0.421637
0.984527 0.580255 0.556847
0.848783 0.931670 0.000000
0.848417 0.931273 0.000000
0.867247 0.930053 0.000000
0.906004 0.927703 0.000000
0.955688 0.923430 0.000000
1.000000 0.907073 0.000000
1.000000 0.879545 0.213657
1.000000 0.825010 0.534020
0.901610 0.989685 0.000000
0.901549 0.989593 0.000000
0.902892 0.989197 0.000000
0.931792 0.986664 0.000000
0.975158 0.982574 0.000000
1.000000 0.976684 0.000000
1.000000 0.956573 0.000000
1.000000 0.937621 0.381262
0.030823 0.044007 0.061738
0.079866 0.014832 0.071992
0.195377 0.000000 0.117250
0.370459 0.000000 0.213565
0.574701 0.000000 0.326818
0.738521 0.000000 0.417609
0.868833 0.000000 0.489815
0.976989 0.000000 0.549920
0.058656 0.094148 0.000122
0.081056 0.079774 0.072602
0.186404 0.000000 0.116884
0.366583 0.000000 0.211368
0.571923 0.000000 0.325292
0.737301 0.000000 0.416876
0.868376 0.000000 0.489540
0.976898 0.000000 0.549859
0.226566 0.260746 0.000000
0.224613 0.241032 0.000000
0.228702 0.200656 0.062715
0.344427 0.000000 0.202640
0.555993 0.000000 0.320195
0.732418 0.000000 0.414527
0.866636 0.000000 0.488594
0.976532 0.000000 0.549706
0.481819 0.534173 0.000000
0.486152 0.525292 0.000000
0.516655 0.507530 0.000000
0.520806 0.449165 0.000000
0.619959 0.069398 0.205661
0.709377 0.000000 0.421881
0.858610 0.000000 0.490822
0.975769 0.000000 0.549462
0.669978 0.734066 0.000000
0.677150 0.732326 0.000000
0.703944 0.725673 0.000000
0.758297 0.712276 0.000000
0.765408 0.660395 0.000000
0.813901 0.467475 0.331273
0.872007 0.304784 0.482338
0.954376 0.175692 0.584833
0.779721 0.851102 0.000000
0.786099 0.850523 0.000000
0.806546 0.847929 0.000000
0.846586 0.842863 0.000000
0.910582 0.832486 0.000000
0.911009 0.791440 0.000000
0.941100 0.683162 0.448005
0.981598 0.590234 0.567163
0.848478 0.931365 0.000000
0.848631 0.930968 0.000000
0.869505 0.929808 0.000000
0.905089 0.927398 0.000000
0.952056 0.923003 0.000000
1.000000 0.907347 0.000000
1.000000 0.881315 0.276829
1.000000 0.828214 0.550561
0.901610 0.989685 0.000000
0.901549 0.989624 0.000000
0.903532 0.989166 0.000000
0.932372 0.986633 0.000000
0.975677 0.982574 0.000000
1.000000 0.976867 0.000000
1.000000 0.957366 0.000000
1.000000 0.939544 0.413947
0.060761 0.079103 0.108827
0.090822 0.072999 0.109529
0.168185 0.000000 0.142794
0.364782 0.000000 0.240665
0.591577 0.000000 0.338964
0.748959 0.000000 0.422950
0.875486 0.000000 0.493233
0.981598 0.000000 0.552239
0.076509 0.126528 0.117708
0.095064 0.103243 0.121553
0.169924 0.045716 0.143984
0.362127 0.000000 0.238010
0.588037 0.000000 0.337865
0.747890 0.000000 0.422370
0.875090 0.000000 0.492988
0.981537 0.000000 0.552209
0.136873 0.224002 0.000000
0.140749 0.212314 0.056855
0.179904 0.175601 0.151125
0.366888 0.000000 0.225864
0.575219 0.000000 0.331273
0.742519 0.000000 0.420447
0.873625 0.000000 0.492195
0.981231 0.000000 0.552056
0.408576 0.504387 0.000000
0.409644 0.492805 0.000000
0.430274 0.458442 0.036805
0.463233 0.410681 0.166049
0.570092 0.216159 0.320928
0.721309 0.000000 0.428656
0.865721 0.000000 0.494820
0.980591 0.000000 0.551904
0.625971 0.722347 0.000000
0.630518 0.717708 0.000000
0.654475 0.703975 0.000000
0.712795 0.690944 0.000000
0.734340 0.645106 0.195956
0.790097 0.472053 0.398596
0.847929 0.361181 0.525597
0.960662 0.108248 0.584894
0.753109 0.846372 0.000000
0.757961 0.844663 0.000000
0.778836 0.840116 0.000000
0.821256 0.835111 0.000000
0.887907 0.826841 0.000000
0.894133 0.790829 0.296666
0.926696 0.697597 0.513207
0.971740 0.615015 0.596979
0.838712 0.930632 0.000000
0.842954 0.930053 0.000000
0.858915 0.928527 0.000000
0.889708 0.925902 0.000000
0.938323 0.921416 0.000000
0.994079 0.908568 0.135042
0.991608 0.886839 0.412146
1.000000 0.836728 0.595514
0.901732 0.989807 0.000000
0.901701 0.989776 0.000000
0.904692 0.989258 0.000000
0.933440 0.986755 0.000000
0.970642 0.983062 0.000000
1.000000 0.977417 0.000000
1.000000 0.960449 0.203525
1.000000 0.945251 0.496315
0.066346 0.116762 0.192844
0.108888 0.103365 0.193637
0.197024 0.097780 0.197452
0.329137 0.000000 0.271641
0.562310 0.000000 0.387457
0.748836 0.000000 0.456886
0.888060 0.000000 0.499672
0.990143 0.000000 0.556603
0.099886 0.173190 0.207095
0.111116 0.144137 0.208194
0.203983 0.125612 0.204990
0.327489 0.000000 0.270024
0.559289 0.000000 0.385626
0.747372 0.000000 0.456367
0.887633 0.000000 0.499428
0.990143 0.000000 0.556603
0.011749 0.278904 0.203098
0.098329 0.283391 0.221927
0.209049 0.220706 0.242618
0.341131 0.123781 0.280522
0.567742 0.000000 0.379004
0.748226 0.000000 0.448096
0.886290 0.000000 0.498695
0.989960 0.000000 0.556512
0.258885 0.444312 0.000000
0.260166 0.436011 0.000000
0.279149 0.406073 0.125521
0.355474 0.345830 0.289982
0.571466 0.212436 0.365911
0.743130 0.000000 0.438788
0.879393 0.000000 0.500786
0.989563 0.000000 0.556329
0.538201 0.699123 0.000000
0.541985 0.694453 0.000000
0.562860 0.677699 0.000000
0.619867 0.646326 0.269413
0.670558 0.612360 0.362524
0.740444 0.469795 0.465736
0.847929 0.344213 0.543389
0.973968 0.000000 0.581598
0.700343 0.838376 0.000000
0.705013 0.836637 0.000000
0.726009 0.830045 0.000000
0.774655 0.818540 0.216556
0.840909 0.811490 0.332036
0.863615 0.785977 0.449958
0.903105 0.709194 0.576745
0.953796 0.631067 0.634638
0.804654 0.929137 0.000000
0.808713 0.928588 0.000000
0.825864 0.926360 0.000000
0.863706 0.921874 0.000000
0.913817 0.917357 0.234745
0.974487 0.912383 0.397772
0.976745 0.892332 0.527733
1.000000 0.844846 0.645838
0.886778 0.990784 0.000000
0.886381 0.990784 0.000000
0.890684 0.990478 0.000000
0.915404 0.988312 0.000000
0.953429 0.984131 0.000000
1.000000 0.977844 0.152438
1.000000 0.965240 0.427131
1.000000 0.952392 0.581445
0.071443 0.176730 0.314611
0.119448 0.153964 0.315435
0.249546 0.146548 0.315648
0.361456 0.084199 0.345403
0.524651 0.000000 0.428016
0.726375 0.000000 0.514824
0.878355 0.000000 0.557122
0.998169 0.000000 0.574121
0.117647 0.234653 0.326818
0.131746 0.204929 0.327764
0.251560 0.175540 0.325597
0.362676 0.102571 0.345830
0.522332 0.000000 0.425849
0.725216 0.000000 0.513970
0.878141 0.000000 0.556634
0.998566 0.000000 0.573114
0.156130 0.382666 0.345373
0.205386 0.368780 0.352453
0.247105 0.283207 0.358221
0.379675 0.252171 0.355840
0.528679 0.000000 0.430396
0.725490 0.000000 0.510979
0.877867 0.000000 0.554681
1.000000 0.000000 0.568994
0.000000 0.466041 0.267002
0.000000 0.469337 0.287877
0.231296 0.477455 0.356023
0.396033 0.402594 0.398657
0.540826 0.301915 0.438819
0.735592 0.000000 0.502373
0.884733 0.000000 0.538445
1.000000 0.000000 0.563012
0.377783 0.651820 0.000000
0.380591 0.647425 0.000000
0.399634 0.630549 0.002502
0.458991 0.595544 0.279362
0.550958 0.535332 0.444282
0.731380 0.430488 0.498238
0.875792 0.201114 0.540673
0.995911 0.000000 0.572320
0.611810 0.823819 0.000000
0.616266 0.821927 0.000000
0.637720 0.814603 0.000000
0.690913 0.799863 0.268254
0.768215 0.781033 0.462287
0.817197 0.765225 0.537163
0.868681 0.670680 0.597375
0.949584 0.591516 0.652461
0.749142 0.926238 0.000000
0.753231 0.925628 0.000000
0.771328 0.923095 0.000000
0.815763 0.917052 0.192874
0.880308 0.909483 0.439155
0.939391 0.906279 0.524743
0.959319 0.893675 0.607996
0.987152 0.847898 0.687434
0.842283 0.993378 0.000000
0.841886 0.993439 0.000000
0.852750 0.992737 0.000000
0.881376 0.990234 0.000000
0.932708 0.984009 0.276555
0.983062 0.977752 0.428779
1.000000 0.972381 0.551629
1.000000 0.959045 0.650904
0.126436 0.262974 0.455329
0.145876 0.233524 0.456397
0.298619 0.229221 0.456397
0.431281 0.233921 0.457649
0.549248 0.100160 0.504814
0.699458 0.000000 0.567803
0.861753 0.000000 0.622095
0.988800 0.000000 0.643366
0.172641 0.315770 0.462806
0.184909 0.289891 0.463600
0.298772 0.255436 0.462623
0.432837 0.239750 0.457954
0.548882 0.094575 0.503990
0.698695 0.000000 0.566888
0.861631 0.000000 0.621729
0.989166 0.000000 0.642756
0.272313 0.460517 0.480079
0.280461 0.440040 0.481056
0.305913 0.364965 0.484016
0.441535 0.334081 0.480049
0.554345 0.241062 0.506523
0.697902 0.000000 0.565484
0.861570 0.000000 0.620294
0.990753 0.000000 0.640192
0.157168 0.616175 0.483314
0.223697 0.606531 0.486580
0.372015 0.570367 0.498451
0.451331 0.473640 0.509758
0.573999 0.440162 0.510185
0.703487 0.223209 0.568963
0.865293 0.000000 0.616358
0.994476 0.000000 0.633875
0.000000 0.654658 0.288121
0.000000 0.655756 0.311467
0.241489 0.657710 0.387213
0.436347 0.656367 0.491707
0.590173 0.586816 0.537682
0.706538 0.499092 0.569482
0.869749 0.250462 0.608026
1.000000 0.000000 0.614405
0.466621 0.800778 0.000000
0.470954 0.798581 0.000000
0.492866 0.789914 0.000000
0.547967 0.771633 0.268284
0.631434 0.740780 0.439399
0.712032 0.691402 0.571344
0.858732 0.608881 0.611566
0.984497 0.424628 0.633875
0.664210 0.920470 0.000000
0.668574 0.919768 0.000000
0.688685 0.916625 0.000000
0.737240 0.909606 0.230838
0.811795 0.898802 0.452003
0.887846 0.889067 0.599603
0.931426 0.883848 0.663050
0.968475 0.815732 0.699886
0.781979 0.996307 0.000000
0.784726 0.996155 0.000000
0.796567 0.995422 0.000000
0.828458 0.992493 0.000000
0.891722 0.984771 0.361395
0.958862 0.976745 0.562585
1.000000 0.972747 0.638788
1.000000 0.964721 0.708736
0.275059 0.393225 0.589136
0.286687 0.377905 0.590173
0.378637 0.368109 0.590784
0.507073 0.379980 0.590539
0.624781 0.405554 0.590387
0.715755 0.269688 0.636500
0.840970 0.000000 0.680781
0.974609 0.000000 0.714137
0.303380 0.426947 0.591119
0.310765 0.408667 0.591821
0.381872 0.377722 0.591638
0.507713 0.379248 0.589899
0.624537 0.404761 0.589837
0.715419 0.268437 0.636194
0.840909 0.000000 0.680537
0.974975 0.000000 0.713893
0.390478 0.543420 0.597589
0.395697 0.528405 0.598260
0.413153 0.474800 0.600580
0.514611 0.446754 0.598474
0.627436 0.436652 0.593286
0.714015 0.264775 0.634943
0.840757 0.000000 0.679866
0.976410 0.000000 0.713008
0.425330 0.683833 0.600763
0.453712 0.675257 0.603021
0.515251 0.642237 0.608820
0.535668 0.564416 0.612665
0.638758 0.541436 0.608698
0.720699 0.447028 0.632990
0.841093 0.000000 0.679133
0.979614 0.000000 0.710780
0.261509 0.779416 0.560113
0.303838 0.778531 0.569848
0.420996 0.774960 0.600519
0.573114 0.735988 0.617792
0.644343 0.650385 0.627832
0.735470 0.619226 0.629206
0.840024 0.436042 0.676661
0.984527 0.000000 0.705776
0.000000 0.811856 0.252537
0.000000 0.811490 0.282719
0.261479 0.809262 0.373236
0.451789 0.802670 0.494148
0.621118 0.793301 0.605158
0.744778 0.733791 0.647517
0.838804 0.661036 0.673457
0.981109 0.430274 0.698573
0.533745 0.918578 0.000000
0.538109 0.917510 0.000000
0.558831 0.912963 0.000000
0.609155 0.902922 0.229038
0.691493 0.884642 0.425879
0.774807 0.858366 0.567712
0.842435 0.817807 0.674189
0.966796 0.745205 0.705592
0.699275 0.999176 0.000000
0.702144 0.998993 0.000000
0.715236 0.998077 0.000000
0.752407 0.994507 0.000000
0.825620 0.985657 0.380438
0.906401 0.975341 0.570092
0.976318 0.968750 0.697292
1.000000 0.966674 0.753658
0.510979 0.587732 0.699794
0.517571 0.581598 0.700343
0.547936 0.567468 0.701625
0.632227 0.580438 0.700801
0.721523 0.600458 0.699947
0.796170 0.607813 0.706294
0.859678 0.516716 0.738643
0.954864 0.327947 0.770871
0.510735 0.587304 0.699641
0.517144 0.581262 0.700191
0.547112 0.567163 0.701534
0.631250 0.580102 0.700740
0.720699 0.600153 0.699886
0.795865 0.608118 0.706081
0.859464 0.517052 0.738552
0.955077 0.327611 0.770932
0.562097 0.660090 0.700801
0.564752 0.650935 0.701289
0.573663 0.618128 0.702907
0.630426 0.595911 0.702052
0.716793 0.598901 0.699825
0.794461 0.609949 0.705165
0.858579 0.518700 0.738216
0.955779 0.326513 0.771176
0.628290 0.764950 0.702846
0.630365 0.756497 0.703395
0.637385 0.726711 0.705196
0.649042 0.674617 0.707912
0.719020 0.653101 0.705867
0.796231 0.639918 0.702480
0.856168 0.523644 0.737331
0.957183 0.325048 0.771756
0.550256 0.863279 0.701320
0.570459 0.857542 0.702022
0.631250 0.838376 0.704616
0.708736 0.801633 0.711330
0.721920 0.731746 0.715206
0.798306 0.711574 0.711849
0.857694 0.623102 0.733211
0.959228 0.322515 0.772549
0.378820 0.913207 0.609979
0.409827 0.911711 0.619471
0.498116 0.906615 0.649531
0.610529 0.898589 0.691951
0.733364 0.866331 0.717159
0.795468 0.791379 0.725429
0.867735 0.762356 0.727352
0.954467 0.593744 0.766720
0.000000 0.961181 0.040406
0.000000 0.958862 0.147433
0.212222 0.949584 0.293523
0.436164 0.933959 0.451667
0.621088 0.920836 0.594690
0.768185 0.908110 0.701808
0.871916 0.855253 0.739986
0.951171 0.788479 0.761868
0.575250 1.000000 0.000000
0.577142 1.000000 0.000000
0.587915 1.000000 0.000000
0.626551 1.000000 0.000000
0.712398 0.996826 0.352605
0.810239 0.978943 0.541405
0.891875 0.957824 0.668544
0.953521 0.925505 0.761776
