其他预设/【213】赛博朋克科幻预设52款/1.LUT预设（视频调色-PR-AE-PS-FCPX-达芬奇用）/赛博朋克科幻__-8 强度1.cube
# Created by Adobe Lightroom plugin Export LUT (1.17.0)
# www.johnrellis.com/lightroom/exportlut.htm
# Preset: 赛博朋克科幻[素锦印象]-8 强度1
# Color profile: /Library/Application Support/Adobe/Color/Profiles/Recommended/AdobeRGB1998.icc
LUT_3D_SIZE 32
0.000000 0.012024 0.000000
0.026856 0.010712 0.002747
0.060548 0.007385 0.007385
0.086610 0.003113 0.018616
0.113771 0.000000 0.033478
0.140902 0.000000 0.052277
0.168887 0.000000 0.064881
0.197299 0.000000 0.074464
0.226871 0.000000 0.083467
0.257206 0.000000 0.092256
0.288731 0.000000 0.101564
0.321019 0.000000 0.111208
0.354101 0.000000 0.121035
0.387884 0.000000 0.131685
0.421973 0.000000 0.142367
0.456367 0.000000 0.153475
0.491096 0.000000 0.164797
0.525750 0.000000 0.176089
0.560235 0.000000 0.187411
0.594385 0.000000 0.198795
0.628260 0.000000 0.210178
0.662043 0.000000 0.221927
0.695674 0.000000 0.233707
0.729152 0.000000 0.245823
0.762509 0.000000 0.258183
0.795834 0.000000 0.270970
0.829068 0.000000 0.284154
0.862242 0.000000 0.297887
0.895232 0.000000 0.312566
0.928161 0.000000 0.328008
0.960906 0.000000 0.344793
0.993408 0.000000 0.363134
0.000000 0.045258 0.003998
0.022217 0.044404 0.000122
0.061006 0.033173 0.001984
0.087800 0.021485 0.008331
0.114809 0.004517 0.018433
0.142153 0.000000 0.031067
0.169924 0.000000 0.053162
0.198123 0.000000 0.066590
0.227451 0.000000 0.076722
0.257939 0.000000 0.086061
0.289372 0.000000 0.095827
0.321599 0.000000 0.106081
0.354589 0.000000 0.116609
0.388312 0.000000 0.127504
0.422370 0.000000 0.138766
0.456794 0.000000 0.149996
0.491371 0.000000 0.161501
0.526116 0.000000 0.172915
0.560510 0.000000 0.184482
0.594659 0.000000 0.195956
0.628534 0.000000 0.207431
0.662257 0.000000 0.219455
0.695888 0.000000 0.231388
0.729366 0.000000 0.243717
0.762753 0.000000 0.256199
0.796048 0.000000 0.269108
0.829282 0.000000 0.282322
0.862394 0.000000 0.296269
0.895415 0.000000 0.310887
0.928344 0.000000 0.326513
0.961059 0.000000 0.343328
0.993530 0.000000 0.361822
0.000000 0.069673 0.011170
0.010559 0.069429 0.003113
0.054780 0.068330 0.002136
0.087617 0.059174 0.005982
0.114748 0.043305 0.016358
0.142397 0.018952 0.028046
0.170474 0.000000 0.040253
0.199100 0.000000 0.053010
0.228580 0.000000 0.065248
0.258762 0.000000 0.076570
0.290105 0.000000 0.087617
0.322332 0.000000 0.098390
0.355261 0.000000 0.109834
0.388891 0.000000 0.121401
0.422919 0.000000 0.133150
0.457313 0.000000 0.144900
0.491920 0.000000 0.156527
0.526543 0.000000 0.168368
0.560967 0.000000 0.180270
0.595026 0.000000 0.192050
0.628901 0.000000 0.204013
0.662623 0.000000 0.215976
0.696223 0.000000 0.228122
0.729702 0.000000 0.240635
0.763058 0.000000 0.253391
0.796353 0.000000 0.266514
0.829526 0.000000 0.279881
0.862638 0.000000 0.294072
0.895659 0.000000 0.308782
0.928557 0.000000 0.324529
0.961303 0.000000 0.341527
0.993774 0.000000 0.360143
0.000000 0.096895 0.025116
0.000000 0.097047 0.010651
0.029358 0.096254 0.007843
0.079744 0.094789 0.005890
0.113832 0.087526 0.010925
0.142275 0.075654 0.022827
0.170352 0.064088 0.036225
0.199161 0.033814 0.049226
0.228977 0.000000 0.058869
0.259678 0.000000 0.064363
0.291447 0.000000 0.069734
0.323919 0.000000 0.079072
0.356664 0.000000 0.093111
0.390173 0.000000 0.106661
0.424140 0.000000 0.119539
0.458442 0.000000 0.132753
0.492958 0.000000 0.145571
0.527520 0.000000 0.158083
0.561852 0.000000 0.170748
0.595880 0.000000 0.183230
0.629694 0.000000 0.195712
0.663355 0.000000 0.208347
0.696925 0.000000 0.221103
0.730312 0.000000 0.233982
0.763668 0.000000 0.247166
0.796933 0.000000 0.260655
0.830106 0.000000 0.274418
0.863218 0.000000 0.288853
0.896178 0.000000 0.303960
0.929076 0.000000 0.320043
0.961761 0.000000 0.337255
0.994202 0.000000 0.356176
0.000000 0.127108 0.047364
0.000000 0.126802 0.037415
0.000000 0.127016 0.013214
0.064698 0.125551 0.016144
0.104402 0.123873 0.012055
0.140169 0.119356 0.014252
0.170047 0.104860 0.028473
0.199069 0.094728 0.042420
0.228885 0.080232 0.054231
0.259648 0.055390 0.061646
0.291478 0.000000 0.067628
0.324163 0.000000 0.073793
0.357519 0.000000 0.080659
0.391577 0.000000 0.087404
0.425971 0.000000 0.094667
0.460182 0.000000 0.109865
0.494606 0.000000 0.125338
0.529015 0.000000 0.139864
0.563317 0.000000 0.154330
0.597223 0.000000 0.168185
0.630945 0.000000 0.181888
0.664576 0.000000 0.195407
0.698024 0.000000 0.209201
0.731411 0.000000 0.222904
0.764675 0.000000 0.236820
0.797879 0.000000 0.250980
0.830991 0.000000 0.265446
0.864103 0.000000 0.280491
0.897002 0.000000 0.296147
0.929839 0.000000 0.312810
0.962524 0.000000 0.330571
0.994934 0.000000 0.350011
0.000000 0.157595 0.064240
0.000000 0.157382 0.062287
0.000000 0.157687 0.043183
0.033783 0.157046 0.020508
0.090333 0.155337 0.023621
0.129335 0.153750 0.017365
0.167361 0.151644 0.016938
0.198123 0.138094 0.031312
0.228611 0.125032 0.046418
0.259495 0.112856 0.057404
0.291417 0.096437 0.064149
0.324102 0.071199 0.071260
0.357458 0.000000 0.078248
0.391547 0.000000 0.085512
0.426032 0.000000 0.092561
0.460761 0.000000 0.100313
0.495735 0.000000 0.107973
0.530663 0.000000 0.115908
0.565209 0.000000 0.127352
0.599054 0.000000 0.144198
0.632624 0.000000 0.160281
0.666163 0.000000 0.176150
0.699550 0.000000 0.191501
0.732845 0.000000 0.206638
0.766018 0.000000 0.221866
0.799161 0.000000 0.237217
0.832242 0.000000 0.252537
0.865232 0.000000 0.268681
0.898131 0.000000 0.285191
0.930938 0.000000 0.302556
0.963561 0.000000 0.321141
0.995911 0.000000 0.341253
0.000000 0.188357 0.076997
0.000000 0.188235 0.075196
0.000000 0.188479 0.066926
0.000000 0.188785 0.023590
0.071534 0.187503 0.026795
0.115419 0.185824 0.027710
0.155001 0.184268 0.021210
0.194980 0.184268 0.015320
0.226810 0.171420 0.031800
0.259342 0.155703 0.048890
0.291325 0.145357 0.059968
0.324071 0.132082 0.067506
0.357427 0.114321 0.075227
0.391547 0.088136 0.082643
0.426093 0.018524 0.090211
0.460761 0.000000 0.098085
0.495766 0.000000 0.105898
0.530663 0.000000 0.113954
0.565423 0.000000 0.122164
0.599878 0.000000 0.130495
0.634028 0.000000 0.139132
0.668147 0.000000 0.148409
0.701503 0.000000 0.165286
0.734676 0.000000 0.183291
0.767788 0.000000 0.200656
0.800809 0.000000 0.217899
0.833799 0.000000 0.234989
0.866728 0.000000 0.252415
0.899565 0.000000 0.270359
0.932280 0.000000 0.288945
0.964843 0.000000 0.308568
0.997162 0.000000 0.329717
0.000000 0.219425 0.090059
0.000000 0.219486 0.087953
0.000000 0.219791 0.082429
0.000000 0.220157 0.061189
0.024140 0.219974 0.025879
0.097261 0.218570 0.031495
0.141421 0.217197 0.028565
0.181460 0.215610 0.022827
0.223789 0.217624 0.012726
0.256779 0.205753 0.030732
0.290410 0.191165 0.050263
0.323919 0.177829 0.062623
0.357366 0.166171 0.070924
0.391485 0.151522 0.078706
0.426062 0.132296 0.086885
0.460792 0.105074 0.095033
0.495766 0.059052 0.103090
0.530724 0.000000 0.111360
0.565454 0.000000 0.119539
0.599847 0.000000 0.128237
0.634058 0.000000 0.137240
0.668116 0.000000 0.146487
0.702022 0.000000 0.156161
0.735805 0.000000 0.166293
0.769467 0.000000 0.176913
0.802823 0.000000 0.191043
0.835691 0.000000 0.211002
0.868559 0.000000 0.230686
0.901305 0.000000 0.250645
0.933959 0.000000 0.271031
0.966461 0.000000 0.292302
0.998688 0.000000 0.314946
0.000000 0.251347 0.102785
0.000000 0.251499 0.100496
0.000000 0.251682 0.097353
0.000000 0.252171 0.081239
0.000000 0.253086 0.026917
0.073548 0.252018 0.031189
0.123507 0.250889 0.037537
0.168185 0.249668 0.030701
0.208865 0.248051 0.024475
0.253574 0.252171 0.007935
0.287724 0.241093 0.028382
0.322393 0.227268 0.049775
0.357305 0.210849 0.064698
0.391516 0.200168 0.073213
0.426001 0.187167 0.082307
0.460761 0.171237 0.090852
0.495766 0.150454 0.099550
0.530846 0.123049 0.107851
0.565454 0.080140 0.116548
0.599878 0.000000 0.125490
0.634089 0.000000 0.134524
0.668177 0.000000 0.144015
0.702052 0.000000 0.153902
0.735836 0.000000 0.164218
0.769497 0.000000 0.175082
0.803067 0.000000 0.186618
0.836576 0.000000 0.198703
0.869963 0.000000 0.211917
0.903227 0.000000 0.226139
0.935912 0.000000 0.247532
0.968322 0.000000 0.271305
1.000000 0.000000 0.296056
0.000000 0.284031 0.115358
0.000000 0.284276 0.113375
0.000000 0.284520 0.110445
0.000000 0.285039 0.098360
0.000000 0.285924 0.070497
0.000000 0.286107 0.031220
0.103700 0.285344 0.037232
0.151705 0.284306 0.040772
0.196017 0.283116 0.034424
0.237217 0.281621 0.025299
0.283970 0.286534 0.005158
0.319554 0.276982 0.022156
0.354894 0.263951 0.049531
0.390661 0.247868 0.065431
0.425879 0.233890 0.075807
0.460761 0.222110 0.085054
0.495766 0.207614 0.094331
0.530846 0.190005 0.103395
0.565484 0.168338 0.112703
0.599878 0.140536 0.121767
0.634119 0.100832 0.131136
0.668147 0.000000 0.141085
0.702113 0.000000 0.151064
0.735866 0.000000 0.161624
0.769558 0.000000 0.172610
0.803128 0.000000 0.184482
0.836637 0.000000 0.196658
0.870054 0.000000 0.209964
0.903349 0.000000 0.224338
0.936522 0.000000 0.240146
0.969482 0.000000 0.257633
1.000000 0.000000 0.277256
0.000000 0.317662 0.128267
0.000000 0.317845 0.126528
0.000000 0.318120 0.123934
0.000000 0.318700 0.115175
0.000000 0.319493 0.092744
0.000000 0.320775 0.031189
0.071687 0.320287 0.037842
0.132113 0.319707 0.045563
0.180209 0.318822 0.044862
0.224704 0.317662 0.036683
0.266575 0.316014 0.026886
0.312078 0.318700 0.005158
0.352026 0.313603 0.015656
0.388159 0.300816 0.044709
0.424445 0.285557 0.064790
0.460700 0.267796 0.077546
0.495796 0.256291 0.087556
0.530694 0.243015 0.097597
0.565454 0.227146 0.107546
0.599847 0.208408 0.117159
0.634058 0.186160 0.126986
0.668177 0.158450 0.137118
0.702144 0.121462 0.147616
0.735897 0.054810 0.158480
0.769589 0.000000 0.169863
0.803189 0.000000 0.181765
0.836698 0.000000 0.194278
0.870146 0.000000 0.207797
0.903441 0.000000 0.222202
0.936614 0.000000 0.238224
0.969635 0.000000 0.255772
1.000000 0.000000 0.275578
0.000000 0.351934 0.141482
0.000000 0.352087 0.139773
0.000000 0.352331 0.137484
0.000000 0.352819 0.131533
0.000000 0.353796 0.112764
0.000000 0.355077 0.078737
0.000000 0.355749 0.035889
0.106966 0.355444 0.044129
0.160739 0.354986 0.052552
0.209476 0.354070 0.048005
0.254215 0.352819 0.037263
0.296757 0.351232 0.025391
0.340673 0.351415 0.005646
0.385229 0.350713 0.003021
0.421820 0.338140 0.037263
0.458412 0.323186 0.064027
0.495064 0.305394 0.077943
0.530724 0.290379 0.089815
0.565393 0.277531 0.100740
0.599847 0.262791 0.111330
0.634089 0.245945 0.121798
0.668147 0.226810 0.132631
0.702113 0.204257 0.143587
0.735927 0.177523 0.154818
0.769650 0.143893 0.166415
0.803281 0.094972 0.178622
0.836790 0.000000 0.191470
0.870237 0.000000 0.205051
0.903532 0.000000 0.219821
0.936767 0.000000 0.235874
0.969757 0.000000 0.253758
1.000000 0.000000 0.273716
0.000000 0.386542 0.154604
0.000000 0.386755 0.153048
0.000000 0.387030 0.151125
0.000000 0.387610 0.146395
0.000000 0.388556 0.131228
0.000000 0.389776 0.104036
0.000000 0.391394 0.033631
0.061799 0.391302 0.041413
0.138796 0.391150 0.050019
0.189914 0.390967 0.057618
0.239109 0.389899 0.049165
0.284276 0.388434 0.037049
0.327459 0.386816 0.023011
0.369970 0.384710 0.005859
0.418830 0.388037 0.000000
0.455756 0.375463 0.027375
0.492653 0.360662 0.061494
0.529259 0.343389 0.077485
0.565270 0.323949 0.091737
0.599756 0.311406 0.103792
0.634028 0.297520 0.115358
0.668147 0.281987 0.126772
0.702083 0.264805 0.138338
0.735927 0.245304 0.150149
0.769680 0.223239 0.162234
0.803342 0.197848 0.174716
0.836912 0.167697 0.187930
0.870329 0.130220 0.201938
0.903685 0.072175 0.216831
0.936919 0.000000 0.233219
0.969909 0.000000 0.251225
1.000000 0.000000 0.271305
0.000000 0.421546 0.168002
0.000000 0.421729 0.166445
0.000000 0.422004 0.164706
0.000000 0.422583 0.160586
0.000000 0.423407 0.148806
0.000000 0.424689 0.125978
0.000000 0.426307 0.086366
0.000000 0.427253 0.039338
0.106661 0.427222 0.048981
0.169528 0.427375 0.057710
0.220432 0.427008 0.060090
0.269291 0.425818 0.051514
0.314763 0.424414 0.037934
0.358618 0.422675 0.019623
0.401740 0.420508 0.000275
0.452674 0.425544 0.000000
0.489784 0.412696 0.015045
0.526696 0.398047 0.058320
0.563104 0.380743 0.077607
0.599054 0.360967 0.093233
0.633906 0.344915 0.107149
0.668055 0.331579 0.119814
0.702052 0.316960 0.132235
0.735958 0.301030 0.144564
0.769711 0.283574 0.157229
0.803342 0.264530 0.170230
0.836973 0.243503 0.183810
0.870451 0.220340 0.198032
0.903838 0.195193 0.213413
0.937072 0.167575 0.230045
0.970092 0.137758 0.248325
1.000000 0.107118 0.268650
0.000000 0.456550 0.181125
0.000000 0.456703 0.179965
0.000000 0.456916 0.178134
0.000000 0.457588 0.174472
0.000000 0.458442 0.165805
0.000000 0.459693 0.145876
0.000000 0.461219 0.114443
0.000000 0.463111 0.034852
0.023499 0.463294 0.044709
0.142702 0.463539 0.055329
0.199496 0.463752 0.062440
0.251133 0.463142 0.061830
0.299657 0.461921 0.052399
0.345617 0.460456 0.035798
0.390112 0.458564 0.015442
0.433845 0.456306 0.000000
0.486580 0.462867 0.000000
0.523766 0.449836 0.000336
0.560510 0.434791 0.052613
0.596704 0.417700 0.077241
0.632563 0.398413 0.095003
0.667994 0.377905 0.110780
0.701991 0.365057 0.124239
0.735927 0.351141 0.137881
0.769741 0.336126 0.151217
0.803433 0.320195 0.164889
0.837034 0.303044 0.178927
0.870573 0.285100 0.193881
0.903960 0.266300 0.209415
0.937224 0.247227 0.226383
0.970306 0.228611 0.244877
1.000000 0.212131 0.265629
0.000000 0.491493 0.194491
0.000000 0.491707 0.193393
0.000000 0.491920 0.191714
0.000000 0.492500 0.188266
0.000000 0.493324 0.182345
0.000000 0.494575 0.164675
0.000000 0.496071 0.138125
0.000000 0.498024 0.093324
0.000000 0.499184 0.040711
0.101472 0.499550 0.052003
0.175631 0.499825 0.060945
0.229770 0.500206 0.067384
0.281773 0.499245 0.063325
0.330449 0.497902 0.053712
0.376623 0.496254 0.035645
0.421637 0.494301 0.011872
0.465858 0.491890 0.000000
0.520531 0.500084 0.000000
0.557549 0.486488 0.000000
0.594110 0.471168 0.047425
0.630182 0.454231 0.077089
0.665949 0.435340 0.097139
0.701472 0.414466 0.114107
0.735866 0.398016 0.129366
0.769711 0.384588 0.143954
0.803494 0.370428 0.158511
0.837125 0.355596 0.173129
0.870665 0.340276 0.188510
0.904112 0.324529 0.204746
0.937407 0.308873 0.222141
0.970489 0.293950 0.241123
1.000000 0.281041 0.262089
0.000000 0.526238 0.207736
0.000000 0.526421 0.206638
0.000000 0.526635 0.205295
0.000000 0.527214 0.201999
0.000000 0.528038 0.197177
0.000000 0.529229 0.182742
0.000000 0.530694 0.159823
0.000000 0.532464 0.124056
0.000000 0.534630 0.038239
0.000000 0.534997 0.049256
0.143374 0.535424 0.059693
0.207706 0.535912 0.066529
0.260258 0.536217 0.072389
0.312627 0.534966 0.065675
0.361181 0.533471 0.056825
0.407538 0.531731 0.036683
0.452979 0.529595 0.011994
0.497810 0.527153 0.000000
0.554131 0.536492 0.000000
0.591119 0.522820 0.000000
0.627527 0.507347 0.040986
0.663539 0.490364 0.077852
0.699245 0.471839 0.099641
0.734676 0.451514 0.118166
0.769680 0.430579 0.135073
0.803464 0.417609 0.150851
0.837156 0.404150 0.166445
0.870756 0.390448 0.182498
0.904234 0.376440 0.199435
0.937560 0.362646 0.217288
0.970703 0.349584 0.236576
1.000000 0.338170 0.258061
0.000000 0.560571 0.220768
0.000000 0.560693 0.219760
0.000000 0.560967 0.218601
0.000000 0.561456 0.215549
0.000000 0.562219 0.211093
0.000000 0.563348 0.200046
0.000000 0.564721 0.179660
0.000000 0.566430 0.149874
0.000000 0.568444 0.100465
0.000000 0.569818 0.048188
0.092653 0.570336 0.059480
0.179660 0.570825 0.066285
0.238773 0.571344 0.073793
0.291722 0.571283 0.076173
0.343267 0.569940 0.069184
0.391730 0.568353 0.060365
0.438483 0.566552 0.042115
0.484230 0.564416 0.013916
0.529503 0.561883 0.000000
0.587335 0.571679 0.000000
0.624537 0.558831 0.000000
0.660853 0.543114 0.036316
0.696864 0.526116 0.079438
0.732509 0.507805 0.102937
0.767819 0.487984 0.122927
0.802976 0.466590 0.141421
0.837156 0.450324 0.158480
0.870817 0.437568 0.175479
0.904326 0.424659 0.192966
0.937713 0.412024 0.211582
0.970886 0.400000 0.231479
1.000000 0.389441 0.253300
0.000000 0.594232 0.233768
0.000000 0.594415 0.232792
0.000000 0.594568 0.231632
0.000000 0.595117 0.229129
0.000000 0.595819 0.224918
0.000000 0.596826 0.217075
0.000000 0.598169 0.198550
0.000000 0.599817 0.172976
0.000000 0.601801 0.134279
0.000000 0.604028 0.049866
0.000000 0.604547 0.059907
0.142214 0.605066 0.067384
0.213718 0.605676 0.075044
0.269657 0.606256 0.082155
0.322850 0.605768 0.081056
0.373877 0.604364 0.074311
0.422309 0.602747 0.065492
0.469123 0.600946 0.050538
0.515312 0.598718 0.021302
0.561028 0.596216 0.000000
0.620508 0.606622 0.000000
0.657923 0.594415 0.000000
0.694240 0.578454 0.034668
0.730129 0.561547 0.082094
0.765713 0.543389 0.107424
0.801053 0.523980 0.128695
0.836179 0.503227 0.148379
0.870848 0.482673 0.167117
0.904448 0.470527 0.185702
0.937865 0.458564 0.204959
0.971099 0.447272 0.225528
1.000000 0.437171 0.247929
0.000000 0.627558 0.246647
0.000000 0.627710 0.245823
0.000000 0.627893 0.244724
0.000000 0.628321 0.242405
0.000000 0.629053 0.238621
0.000000 0.629938 0.233494
0.000000 0.631189 0.216983
0.000000 0.632746 0.194308
0.000000 0.634638 0.162142
0.000000 0.636805 0.110231
0.000000 0.638270 0.062562
0.081056 0.638849 0.069673
0.182620 0.639460 0.076997
0.246616 0.640131 0.084779
0.300267 0.640803 0.092287
0.353948 0.639734 0.087953
0.404486 0.638392 0.080323
0.452888 0.636744 0.071931
0.499947 0.634791 0.060395
0.546319 0.632624 0.032746
0.592432 0.630030 0.000000
0.649866 0.637842 0.000000
0.691249 0.629664 0.000000
0.727474 0.613642 0.038941
0.763333 0.596643 0.086366
0.798886 0.578668 0.112886
0.834226 0.559594 0.135653
0.869291 0.539513 0.156771
0.904112 0.518364 0.177157
0.937987 0.503349 0.197482
0.971252 0.492409 0.218662
1.000000 0.482521 0.241825
0.000000 0.660639 0.259525
0.000000 0.660731 0.258854
0.000000 0.660945 0.257786
0.000000 0.661341 0.255619
0.000000 0.661921 0.252323
0.000000 0.662745 0.247868
0.000000 0.663935 0.234714
0.000000 0.665431 0.214481
0.000000 0.667170 0.186679
0.000000 0.669276 0.146181
0.000000 0.671626 0.066316
0.000000 0.672236 0.073610
0.140719 0.672877 0.080537
0.219242 0.673518 0.088228
0.278813 0.674159 0.095918
0.331548 0.674586 0.101839
0.384924 0.673335 0.096101
0.435096 0.671901 0.089021
0.483375 0.670222 0.080140
0.530663 0.668269 0.069368
0.577234 0.666041 0.052308
0.623713 0.663416 0.013733
0.679164 0.668788 0.000000
0.724605 0.664515 0.000000
0.760739 0.648341 0.047486
0.796567 0.631373 0.092287
0.832120 0.613550 0.120180
0.867369 0.594873 0.144503
0.902403 0.575372 0.166964
0.937133 0.555230 0.188602
0.971435 0.536126 0.211002
1.000000 0.526329 0.234806
0.000000 0.693416 0.272374
0.000000 0.693538 0.271733
0.000000 0.693721 0.270756
0.000000 0.694087 0.268864
0.000000 0.694606 0.265904
0.000000 0.695308 0.261906
0.000000 0.696407 0.252140
0.000000 0.697810 0.233921
0.000000 0.699489 0.209537
0.000000 0.701442 0.175509
0.000000 0.703731 0.122835
0.000000 0.705196 0.078737
0.069062 0.705837 0.085695
0.185702 0.706508 0.093416
0.254185 0.707149 0.100679
0.310613 0.707820 0.108614
0.363531 0.707790 0.111391
0.415991 0.706477 0.105562
0.465736 0.705043 0.098543
0.513970 0.703304 0.090242
0.561303 0.701350 0.080446
0.608179 0.699031 0.066743
0.654932 0.696407 0.040253
0.708278 0.699397 0.000000
0.757900 0.699123 0.000000
0.794034 0.682856 0.059388
0.829831 0.665858 0.099886
0.865324 0.648188 0.129244
0.900542 0.629938 0.154818
0.935485 0.611048 0.178653
0.970092 0.591791 0.202457
1.000000 0.572381 0.226841
0.000000 0.726009 0.285161
0.000000 0.726101 0.284611
0.000000 0.726284 0.283757
0.000000 0.726589 0.282017
0.000000 0.727047 0.279393
0.000000 0.727718 0.275975
0.000000 0.728634 0.269383
0.000000 0.730007 0.252750
0.000000 0.731594 0.230930
0.000000 0.733425 0.201755
0.000000 0.735531 0.160342
0.000000 0.737911 0.085786
0.000000 0.738491 0.092439
0.140993 0.739132 0.099763
0.225376 0.739803 0.107210
0.287999 0.740475 0.114839
0.342138 0.741115 0.122866
0.395270 0.740536 0.122255
0.446998 0.739254 0.116670
0.496498 0.737758 0.110048
0.544610 0.736019 0.102327
0.592065 0.733974 0.092714
0.639094 0.731685 0.080781
0.686091 0.729061 0.065095
0.737362 0.729702 0.009155
0.791226 0.733425 0.000000
0.827329 0.717006 0.069551
0.863096 0.700069 0.109895
0.898528 0.682612 0.140017
0.933684 0.664698 0.166842
0.968475 0.646448 0.192569
1.000000 0.628229 0.218784
0.000000 0.758480 0.298009
0.000000 0.758572 0.297551
0.000000 0.758663 0.296818
0.000000 0.758999 0.295323
0.000000 0.759426 0.292973
0.000000 0.759976 0.289860
0.000000 0.760708 0.286412
0.000000 0.761959 0.271244
0.000000 0.763455 0.251530
0.000000 0.765194 0.225834
0.000000 0.767208 0.191287
0.000000 0.769406 0.139559
0.000000 0.770932 0.100496
0.059632 0.771511 0.107454
0.190707 0.772122 0.114748
0.262760 0.772702 0.122652
0.321416 0.773342 0.130678
0.373693 0.773922 0.138949
0.427161 0.772946 0.135042
0.478096 0.771603 0.129397
0.527276 0.770077 0.123018
0.575341 0.768307 0.115694
0.622827 0.766293 0.106966
0.670069 0.763943 0.096101
0.717250 0.761257 0.082582
0.766445 0.759792 0.060456
0.824613 0.767300 0.000000
0.860655 0.750851 0.081941
0.896361 0.734035 0.121401
0.931701 0.716793 0.152773
0.966735 0.699336 0.181338
1.000000 0.681849 0.209415
0.000000 0.790860 0.310735
0.000000 0.790921 0.310369
0.000000 0.791043 0.309728
0.000000 0.791257 0.308507
0.000000 0.791653 0.306462
0.000000 0.792142 0.303929
0.000000 0.792752 0.300999
0.000000 0.793790 0.289708
0.000000 0.795224 0.271824
0.000000 0.796841 0.248936
0.000000 0.798703 0.219211
0.000000 0.800778 0.177951
0.000000 0.803098 0.110414
0.000000 0.803647 0.117098
0.145602 0.804196 0.124331
0.233860 0.804776 0.131777
0.298772 0.805325 0.139864
0.354498 0.805875 0.147890
0.406226 0.806088 0.154177
0.458991 0.804959 0.149447
0.509331 0.803586 0.144045
0.558221 0.802029 0.137942
0.606195 0.800259 0.130526
0.653712 0.798215 0.122225
0.701076 0.795865 0.112398
0.748440 0.793179 0.100221
0.796170 0.790127 0.084932
0.857908 0.800534 0.014984
0.893980 0.784543 0.096498
0.929564 0.767788 0.135286
0.964843 0.750820 0.167849
0.999664 0.733883 0.198672
0.000000 0.823148 0.323796
0.000000 0.823239 0.323430
0.000000 0.823301 0.322881
0.000000 0.823514 0.321843
0.000000 0.823789 0.320073
0.000000 0.824247 0.318090
0.000000 0.824735 0.315770
0.000000 0.825559 0.308141
0.000000 0.826871 0.291752
0.000000 0.828397 0.271244
0.000000 0.830106 0.245060
0.000000 0.832090 0.210636
0.000000 0.834226 0.161563
0.000000 0.835660 0.128481
0.067933 0.836118 0.135409
0.200015 0.836606 0.142702
0.274083 0.837095 0.150607
0.334142 0.837552 0.158755
0.387610 0.837980 0.167208
0.439338 0.837766 0.170108
0.491035 0.836606 0.165408
0.540826 0.835233 0.160311
0.589410 0.833677 0.154238
0.637232 0.831907 0.147463
0.684718 0.829831 0.139345
0.732143 0.827481 0.130282
0.779721 0.824796 0.119356
0.827634 0.821714 0.105928
0.891112 0.833066 0.069520
0.927306 0.817960 0.112673
0.962799 0.801358 0.151492
0.997864 0.784787 0.185855
0.000000 0.855467 0.336767
0.000000 0.855497 0.336492
0.000000 0.855589 0.336034
0.000000 0.855741 0.335210
0.000000 0.855985 0.333837
0.000000 0.856321 0.332372
0.000000 0.856687 0.330602
0.000000 0.857237 0.326848
0.000000 0.858457 0.311833
0.000000 0.859892 0.293187
0.000000 0.861509 0.269932
0.000000 0.863310 0.240269
0.000000 0.865324 0.200778
0.000000 0.867552 0.141573
0.000000 0.867918 0.148257
0.157931 0.868345 0.155337
0.246830 0.868711 0.163119
0.312596 0.869108 0.171023
0.369299 0.869444 0.179568
0.420966 0.869749 0.188205
0.472602 0.869078 0.188266
0.523369 0.867918 0.183627
0.572564 0.866575 0.178286
0.620813 0.865019 0.172427
0.668513 0.863218 0.165957
0.715938 0.861173 0.158511
0.763455 0.858824 0.149569
0.811154 0.856107 0.139559
0.859159 0.853086 0.127443
0.924346 0.865324 0.097475
0.960601 0.851194 0.130892
0.995911 0.834806 0.170748
0.000000 0.887724 0.349889
0.000000 0.887816 0.349676
0.000000 0.887846 0.349401
0.000000 0.887968 0.348730
0.000000 0.888182 0.347784
0.000000 0.888426 0.346715
0.000000 0.888670 0.345830
0.000000 0.888975 0.345006
0.000000 0.890074 0.332097
0.000000 0.891386 0.315221
0.000000 0.892851 0.294316
0.000000 0.894530 0.268284
0.000000 0.896391 0.235172
0.000000 0.898436 0.190341
0.000000 0.899687 0.163302
