其他预设/【213】赛博朋克科幻预设52款/1.LUT预设（视频调色-PR-AE-PS-FCPX-达芬奇用）/赛博朋克科幻__-4 强度4.cube
# Created by Adobe Lightroom plugin Export LUT (1.17.0)
# www.johnrellis.com/lightroom/exportlut.htm
# Preset: 赛博朋克科幻[素锦印象]-4 强度4
# Color profile: /Library/Application Support/Adobe/Color/Profiles/Recommended/AdobeRGB1998.icc
LUT_3D_SIZE 8
DOMAIN_MIN 0.000000 0.000000 0.000000
DOMAIN_MAX 0.903226 0.903226 0.903226
0.000000 0.000000 0.000000
0.094942 0.000000 0.056794
0.200290 0.000000 0.116426
0.362341 0.000000 0.204898
0.551354 0.000000 0.308293
0.712428 0.000000 0.396307
0.845060 0.000000 0.468391
0.958923 0.000000 0.529870
0.085298 0.107332 0.000000
0.103700 0.093019 0.000000
0.193576 0.000000 0.116121
0.359869 0.000000 0.203738
0.549645 0.000000 0.307469
0.711696 0.000000 0.395972
0.844907 0.000000 0.468238
0.958984 0.000000 0.529839
0.214694 0.266789 0.000000
0.230411 0.259342 0.000000
0.253361 0.226749 0.000000
0.379431 0.000000 0.116030
0.537407 0.000000 0.298985
0.707210 0.000000 0.391516
0.844236 0.000000 0.467720
0.959258 0.000000 0.529717
0.409247 0.503899 0.000000
0.422004 0.500511 0.000000
0.467048 0.487739 0.000000
0.507439 0.452674 0.000000
0.617273 0.257298 0.155428
0.729702 0.000000 0.336370
0.834745 0.000000 0.468849
0.956207 0.000000 0.531121
0.568261 0.699702 0.000000
0.578546 0.698390 0.000000
0.615564 0.693324 0.000000
0.685145 0.683040 0.000000
0.732509 0.653651 0.000000
0.804715 0.483772 0.215030
0.890013 0.192752 0.352300
0.953674 0.270726 0.536797
0.669581 0.824826 0.000000
0.677363 0.824247 0.000000
0.705348 0.822141 0.000000
0.757717 0.818021 0.000000
0.834379 0.811063 0.000000
0.880827 0.787991 0.000000
0.932219 0.667353 0.318090
0.986114 0.558770 0.496925
0.737362 0.917052 0.000000
0.744625 0.916777 0.000000
0.770565 0.915709 0.000000
0.810452 0.913359 0.000000
0.870634 0.909361 0.000000
0.941436 0.904234 0.000000
0.983276 0.883787 0.000000
1.000000 0.807492 0.437659
0.783719 0.988190 0.000000
0.786435 0.988037 0.000000
0.806455 0.986786 0.000000
0.842679 0.984405 0.000000
0.895628 0.980560 0.000000
0.957977 0.975158 0.000000
1.000000 0.969696 0.000000
1.000000 0.948913 0.250675
0.026368 0.047028 0.073732
0.090547 0.007141 0.082490
0.207950 0.000000 0.126009
0.368109 0.000000 0.213779
0.555322 0.000000 0.315404
0.714748 0.000000 0.401404
0.846586 0.000000 0.471992
0.960021 0.000000 0.532341
0.021973 0.104372 0.010468
0.091463 0.090181 0.083192
0.199588 0.000000 0.126955
0.364080 0.000000 0.211795
0.553796 0.000000 0.314458
0.714076 0.000000 0.401007
0.846464 0.000000 0.471870
0.960113 0.000000 0.532311
0.189120 0.255009 0.000000
0.201816 0.240909 0.011292
0.237675 0.215702 0.074647
0.367712 0.000000 0.171603
0.541222 0.000000 0.305974
0.709346 0.000000 0.396002
0.845670 0.000000 0.470802
0.960418 0.000000 0.532158
0.384710 0.491157 0.000000
0.396246 0.484749 0.000000
0.444678 0.473701 0.000000
0.493141 0.441657 0.000000
0.610254 0.246220 0.189914
0.720455 0.000000 0.362341
0.836210 0.000000 0.472663
0.957336 0.000000 0.533532
0.552697 0.693172 0.000000
0.563378 0.691951 0.000000
0.601740 0.687098 0.000000
0.673640 0.677272 0.000000
0.725307 0.648890 0.000000
0.798642 0.483986 0.259892
0.884092 0.243748 0.382238
0.949554 0.300389 0.550713
0.660365 0.822416 0.000000
0.668269 0.821866 0.000000
0.696956 0.819852 0.000000
0.750576 0.815793 0.000000
0.830106 0.808896 0.000000
0.876951 0.786618 0.000000
0.928191 0.670893 0.357183
0.984131 0.564843 0.508965
0.738125 0.916686 0.000000
0.744106 0.916381 0.000000
0.765621 0.915190 0.000000
0.805661 0.912871 0.000000
0.866880 0.908843 0.000000
0.939208 0.903624 0.000000
0.980652 0.884062 0.172427
1.000000 0.810575 0.465064
0.783719 0.988220 0.000000
0.787259 0.988006 0.000000
0.807248 0.986786 0.000000
0.843381 0.984405 0.000000
0.892638 0.980743 0.000000
0.955688 0.975250 0.000000
1.000000 0.969635 0.000000
1.000000 0.949706 0.303410
0.043946 0.080385 0.136477
0.099733 0.070283 0.137087
0.188418 0.000000 0.164584
0.370855 0.000000 0.248356
0.572045 0.000000 0.335485
0.723903 0.000000 0.416297
0.852567 0.000000 0.483070
0.964233 0.000000 0.540337
0.078004 0.140932 0.143496
0.099886 0.112886 0.147616
0.191165 0.061677 0.166720
0.373358 0.000000 0.244694
0.569299 0.000000 0.334051
0.723384 0.000000 0.415961
0.852445 0.000000 0.482887
0.964294 0.000000 0.540276
0.067964 0.231022 0.022217
0.102419 0.222629 0.080812
0.197147 0.193210 0.171237
0.368078 0.097780 0.236362
0.557214 0.000000 0.327794
0.718074 0.000000 0.410956
0.851408 0.000000 0.481239
0.964660 0.000000 0.540063
0.306188 0.469520 0.000000
0.317998 0.461097 0.000000
0.372961 0.436194 0.122621
0.448249 0.410040 0.181338
0.581598 0.219242 0.275700
0.700343 0.088624 0.418067
0.842252 0.000000 0.484199
0.961883 0.000000 0.540917
0.500633 0.682948 0.000000
0.510704 0.678889 0.000000
0.553552 0.666957 0.000000
0.632654 0.657893 0.000000
0.698482 0.632654 0.192630
0.776394 0.489723 0.367071
0.863401 0.346044 0.460395
0.938140 0.357702 0.587366
0.626276 0.817716 0.000000
0.634974 0.815946 0.000000
0.667964 0.811521 0.000000
0.725765 0.807706 0.000000
0.811307 0.801144 0.000000
0.861936 0.782040 0.258671
0.914580 0.682307 0.454780
0.977935 0.577020 0.541527
0.715419 0.915496 0.000000
0.722408 0.914824 0.000000
0.746700 0.913207 0.000000
0.789700 0.910796 0.000000
0.854124 0.906676 0.000000
0.930999 0.901274 0.138674
0.970916 0.885130 0.352300
1.000000 0.819150 0.536522
0.779873 0.988617 0.000000
0.785000 0.988312 0.000000
0.802152 0.987213 0.000000
0.833921 0.985016 0.000000
0.882261 0.981323 0.000000
0.947967 0.975402 0.000000
1.000000 0.969268 0.171817
1.000000 0.952239 0.426337
0.000000 0.117769 0.237888
0.104982 0.101656 0.238865
0.220890 0.081361 0.239506
0.344945 0.000000 0.295811
0.555108 0.000000 0.392309
0.731594 0.000000 0.451392
0.863828 0.000000 0.500694
0.971984 0.000000 0.553674
0.085725 0.184146 0.248020
0.100069 0.149844 0.249790
0.223819 0.122988 0.249241
0.347387 0.000000 0.297704
0.555535 0.000000 0.390845
0.730617 0.000000 0.451453
0.863676 0.000000 0.500603
0.972168 0.000000 0.553521
0.000000 0.308141 0.255283
0.104829 0.298283 0.260533
0.213199 0.230045 0.275608
0.355993 0.150607 0.304540
0.564691 0.000000 0.381415
0.735195 0.000000 0.435554
0.862577 0.000000 0.499153
0.972625 0.000000 0.553124
0.069154 0.427710 0.000000
0.108888 0.422156 0.000000
0.211215 0.401251 0.165499
0.363775 0.355657 0.309911
0.556695 0.269169 0.376349
0.718746 0.000000 0.443153
0.854551 0.000000 0.501488
0.971191 0.000000 0.552453
0.391180 0.663142 0.000000
0.402533 0.659144 0.000000
0.451545 0.644800 0.069245
0.552636 0.618219 0.296880
0.643763 0.599878 0.363348
0.742428 0.459876 0.436286
0.825711 0.420722 0.544366
0.950195 0.292027 0.591150
0.558373 0.810300 0.000000
0.567742 0.808499 0.000000
0.606622 0.801724 0.000000
0.683803 0.790219 0.266148
0.771572 0.785336 0.342473
0.833371 0.772030 0.431617
0.893156 0.692226 0.547967
0.963195 0.607416 0.597040
0.669703 0.914214 0.000000
0.677241 0.913481 0.000000
0.708217 0.910430 0.000000
0.767422 0.905058 0.180087
0.834623 0.901183 0.284428
0.916258 0.896513 0.394476
0.955657 0.885710 0.498085
0.993042 0.827665 0.613062
0.746883 0.990356 0.000000
0.752102 0.990082 0.000000
0.773342 0.988739 0.000000
0.814664 0.985504 0.000000
0.868223 0.981048 0.000000
0.936522 0.974670 0.248722
1.000000 0.968475 0.413458
1.000000 0.955627 0.542931
0.000000 0.172824 0.369848
0.077333 0.148074 0.370825
0.255283 0.125490 0.371160
0.380468 0.000000 0.386877
0.527550 0.000000 0.448829
0.713069 0.000000 0.520745
0.861875 0.000000 0.556085
0.983124 0.000000 0.573083
0.056214 0.235477 0.377478
0.084382 0.201602 0.379034
0.250706 0.165408 0.379065
0.382696 0.096284 0.389624
0.527916 0.000000 0.448859
0.712428 0.000000 0.520317
0.861875 0.000000 0.555840
0.983307 0.000000 0.572961
0.137209 0.382544 0.388373
0.188876 0.368688 0.393774
0.230259 0.280400 0.400427
0.391150 0.245609 0.398566
0.534203 0.000000 0.453895
0.717189 0.000000 0.516106
0.863493 0.000000 0.551781
0.983978 0.000000 0.572412
0.000000 0.489906 0.355352
0.000000 0.491951 0.368780
0.229282 0.489876 0.409003
0.387366 0.400000 0.428748
0.540917 0.319219 0.458717
0.723659 0.033600 0.506065
0.871733 0.000000 0.528008
0.984924 0.000000 0.570367
0.079347 0.625238 0.000000
0.124514 0.621759 0.000000
0.234318 0.608453 0.152743
0.384405 0.580255 0.311467
0.545617 0.532921 0.461036
0.710872 0.462531 0.511772
0.849943 0.342992 0.555993
0.971801 0.000000 0.589715
0.437659 0.796902 0.000000
0.449042 0.795010 0.000000
0.495644 0.787747 0.016571
0.588800 0.773434 0.307866
0.707820 0.755428 0.474891
0.790219 0.749142 0.536278
0.866636 0.661372 0.588983
0.936217 0.625605 0.658900
0.593866 0.911437 0.000000
0.602441 0.910613 0.000000
0.637903 0.907225 0.000000
0.711421 0.899931 0.277775
0.806851 0.891386 0.462409
0.886625 0.889036 0.528649
0.937591 0.883146 0.597711
0.980926 0.831113 0.675380
0.692988 0.992889 0.000000
0.698695 0.992584 0.000000
0.722377 0.991058 0.000000
0.776944 0.986542 0.000000
0.855558 0.978973 0.374151
0.922789 0.973083 0.462562
0.991363 0.967529 0.551843
1.000000 0.958923 0.634852
0.000000 0.243351 0.510918
0.000000 0.212833 0.512047
0.274754 0.194736 0.511772
0.429206 0.158419 0.510826
0.552239 0.000000 0.539574
0.692348 0.000000 0.586969
0.847745 0.000000 0.631891
0.976593 0.000000 0.647974
0.066926 0.299351 0.514916
0.095247 0.269963 0.516136
0.268162 0.230655 0.516564
0.428717 0.199527 0.515221
0.552911 0.000000 0.539910
0.692042 0.000000 0.586419
0.847807 0.000000 0.631647
0.977020 0.000000 0.647395
0.227359 0.445472 0.523796
0.235843 0.425086 0.525048
0.262303 0.345525 0.529229
0.424750 0.307713 0.528313
0.557031 0.234470 0.542748
0.694514 0.000000 0.588098
0.848783 0.000000 0.630518
0.978882 0.000000 0.644923
0.147127 0.592187 0.523827
0.209873 0.584405 0.526146
0.347936 0.552605 0.535363
0.422278 0.456367 0.546014
0.570428 0.425360 0.544274
0.697169 0.259220 0.589654
0.853544 0.000000 0.625025
0.983124 0.000000 0.638422
0.000000 0.664546 0.431128
0.000000 0.664942 0.443214
0.240543 0.665126 0.484779
0.422156 0.662440 0.547997
0.570703 0.574151 0.564782
0.697810 0.501976 0.589014
0.855619 0.324407 0.616876
0.992309 0.000000 0.609430
0.126009 0.778988 0.000000
0.164492 0.776883 0.000000
0.268132 0.768734 0.152743
0.409277 0.751675 0.315709
0.561730 0.723751 0.462562
0.699916 0.683314 0.589227
0.839017 0.626001 0.629480
0.961578 0.524620 0.660151
0.469490 0.905760 0.000000
0.480690 0.904814 0.000000
0.524926 0.900999 0.000000
0.610895 0.893004 0.299504
0.725399 0.881254 0.475257
0.838376 0.870451 0.612512
0.909697 0.870726 0.668544
0.966369 0.807980 0.705928
0.610163 0.995850 0.000000
0.616938 0.995514 0.000000
0.645350 0.993744 0.000000
0.708492 0.988861 0.165347
0.806699 0.979522 0.430121
0.903655 0.970397 0.589471
0.971801 0.966369 0.650050
1.000000 0.961547 0.710292
0.143191 0.340795 0.639033
0.159030 0.316503 0.639948
0.314855 0.300267 0.639612
0.466224 0.289738 0.639246
0.603265 0.288518 0.639307
0.705776 0.098329 0.669276
0.831266 0.000000 0.703578
0.964965 0.000000 0.729915
0.199588 0.386328 0.640070
0.209689 0.364935 0.641016
0.314611 0.330022 0.641627
0.466987 0.309911 0.640345
0.603754 0.288029 0.639033
0.705806 0.096101 0.669123
0.831388 0.000000 0.703487
0.965393 0.000000 0.729702
0.317388 0.510643 0.642329
0.322728 0.494545 0.643244
0.341222 0.434211 0.646387
0.467811 0.400244 0.646143
0.605432 0.377020 0.644160
0.706813 0.219089 0.668727
0.831968 0.000000 0.703243
0.967102 0.000000 0.728908
0.374456 0.653956 0.642084
0.403143 0.646632 0.643702
0.465675 0.615595 0.648371
0.484749 0.531456 0.653712
0.608759 0.501518 0.652552
0.712490 0.427802 0.666773
0.832547 0.087007 0.703120
0.970733 0.000000 0.726772
0.216922 0.782864 0.641016
0.268498 0.775784 0.642298
0.397192 0.751522 0.646571
0.541772 0.712642 0.653620
0.609796 0.627100 0.663355
0.724422 0.597894 0.662867
0.830655 0.450172 0.700557
0.973602 0.000000 0.720485
0.000000 0.813107 0.481849
0.087068 0.812497 0.493111
0.279759 0.809751 0.531884
0.448035 0.803616 0.593256
0.600336 0.795407 0.659846
0.722042 0.718502 0.677028
0.828550 0.656336 0.697444
0.969329 0.485176 0.715053
0.155550 0.907378 0.000000
0.190158 0.906035 0.000000
0.287663 0.900755 0.133700
0.421820 0.889677 0.307988
0.574029 0.870603 0.460639
0.711391 0.844572 0.589105
0.829740 0.809842 0.697047
0.951537 0.758419 0.730434
0.478126 0.998779 0.000000
0.487526 0.998322 0.000000
0.525109 0.996307 0.000000
0.603449 0.991028 0.226658
0.719966 0.980804 0.439704
0.837552 0.969207 0.596460
0.941344 0.960815 0.718257
0.997345 0.960937 0.769528
0.376501 0.498085 0.749752
0.383886 0.487892 0.750393
0.443091 0.476509 0.750912
0.552148 0.482673 0.750301
0.666529 0.494392 0.749508
0.769924 0.503197 0.751125
0.843931 0.382116 0.776486
0.949371 0.000000 0.802670
0.395727 0.519371 0.749508
0.399725 0.506340 0.750179
0.444190 0.480018 0.750973
0.551659 0.482612 0.750301
0.665919 0.494362 0.749569
0.769741 0.503685 0.751034
0.843809 0.382757 0.776486
0.949676 0.000000 0.802792
0.473243 0.611566 0.748318
0.475898 0.600855 0.748959
0.485176 0.561059 0.751217
0.559472 0.533623 0.751522
0.665614 0.516136 0.750271
0.768704 0.506279 0.750698
0.843259 0.385382 0.776516
0.950683 0.000000 0.803250
0.564294 0.731838 0.746731
0.566155 0.722957 0.747402
0.572534 0.690791 0.749691
0.583154 0.630396 0.753628
0.670008 0.602655 0.753414
0.770871 0.581323 0.751888
0.842344 0.423407 0.775692
0.952667 0.000000 0.804166
0.503899 0.829740 0.744350
0.523735 0.825589 0.744869
0.582818 0.808652 0.747250
0.662226 0.776272 0.752407
0.673365 0.698726 0.758022
0.767391 0.671473 0.757168
0.846983 0.597894 0.770626
0.952392 0.308141 0.802945
0.351415 0.919493 0.716396
0.380438 0.918242 0.721523
0.463264 0.914061 0.738491
0.578607 0.888731 0.750820
0.701411 0.846159 0.756100
0.761410 0.768612 0.764797
0.855833 0.740536 0.765225
0.947143 0.599054 0.797238
0.000000 0.945159 0.512779
0.118166 0.944121 0.523766
0.296239 0.940185 0.561608
0.462776 0.932403 0.622797
0.613703 0.922179 0.693141
0.746273 0.911528 0.758785
0.850858 0.842191 0.775235
0.943664 0.783017 0.792996
0.000000 1.000000 0.000000
0.074006 1.000000 0.000000
0.222324 1.000000 0.000000
0.381811 1.000000 0.236759
0.557031 0.994476 0.430243
0.709743 0.974975 0.577173
0.836851 0.951690 0.694545
0.944152 0.921386 0.792050
