其他预设/【213】赛博朋克科幻预设52款/1.LUT预设（视频调色-PR-AE-PS-FCPX-达芬奇用）/赛博朋克科幻__-3 强度2.cube
# Created by Adobe Lightroom plugin Export LUT (1.17.0)
# www.johnrellis.com/lightroom/exportlut.htm
# Preset: 赛博朋克科幻[素锦印象]-3 强度2
# Color profile: /Library/Application Support/Adobe/Color/Profiles/Recommended/AdobeRGB1998.icc
LUT_3D_SIZE 8
DOMAIN_MIN 0.000000 0.000000 0.000000
DOMAIN_MAX 0.903226 0.903226 0.903226
0.055940 0.065400 0.080964
0.126375 0.040497 0.097475
0.242130 0.000000 0.137758
0.402319 0.000000 0.191531
0.589044 0.000000 0.251987
0.745998 0.000000 0.306737
0.875700 0.000000 0.352605
0.983978 0.000000 0.404059
0.000000 0.147677 0.113191
0.110079 0.138582 0.083742
0.244114 0.002930 0.089082
0.404913 0.000000 0.146120
0.590631 0.000000 0.221286
0.747433 0.000000 0.283513
0.877073 0.000000 0.334813
0.985473 0.000000 0.386297
0.000000 0.286320 0.182681
0.000000 0.283421 0.155123
0.204013 0.262455 0.089357
0.397192 0.190768 0.101991
0.591638 0.000000 0.105989
0.752865 0.000000 0.165103
0.881834 0.000000 0.257603
0.990295 0.000000 0.320378
0.000000 0.463630 0.274296
0.000000 0.462135 0.257847
0.000000 0.461952 0.129458
0.336034 0.425635 0.069978
0.570642 0.365881 0.085603
0.745327 0.196384 0.116274
0.883360 0.000000 0.131655
0.997955 0.000000 0.147982
0.000000 0.641749 0.366644
0.000000 0.641108 0.354803
0.000000 0.639948 0.294194
0.000000 0.641169 0.000000
0.480964 0.592065 0.000000
0.716548 0.529747 0.014801
0.872679 0.373266 0.145113
0.990356 0.161471 0.163760
0.000000 0.778988 0.438758
0.000000 0.778683 0.430701
0.000000 0.777157 0.401160
0.000000 0.780819 0.282536
0.243137 0.777188 0.046326
0.605951 0.730465 0.000000
0.840116 0.677546 0.000000
0.976806 0.534112 0.184024
0.000000 0.895628 0.500114
0.000000 0.895476 0.494789
0.000000 0.894316 0.477699
0.000000 0.894408 0.426276
0.000000 0.900450 0.260258
0.409888 0.888884 0.148287
0.716548 0.850553 0.094484
0.948180 0.813443 0.044282
0.000000 0.997223 0.552453
0.000000 0.996979 0.549279
0.000000 0.995361 0.541650
0.000000 0.989349 0.544030
0.000000 0.994293 0.456245
0.175143 1.000000 0.288975
0.555657 0.984588 0.261753
0.816190 0.957092 0.215061
0.024903 0.063539 0.139834
0.125032 0.023987 0.141024
0.242069 0.000000 0.172061
0.399298 0.000000 0.224155
0.585290 0.000000 0.283848
0.743008 0.000000 0.334905
0.873594 0.000000 0.378241
0.983673 0.000000 0.412604
0.000000 0.133516 0.144381
0.116884 0.131289 0.140566
0.234806 0.102083 0.164279
0.396643 0.000000 0.208896
0.584924 0.000000 0.266300
0.743893 0.000000 0.317967
0.874907 0.000000 0.362310
0.984802 0.000000 0.399664
0.000000 0.278508 0.207065
0.011231 0.272251 0.193851
0.205844 0.256840 0.141543
0.395117 0.185702 0.150912
0.590021 0.000000 0.153780
0.749508 0.000000 0.226383
0.879667 0.000000 0.295232
0.988861 0.000000 0.348119
0.000000 0.456947 0.292241
0.000000 0.454292 0.279423
0.000000 0.453254 0.190707
0.336980 0.421546 0.130465
0.571374 0.356451 0.145113
0.744686 0.188479 0.162539
0.883024 0.000000 0.173220
0.996277 0.000000 0.212314
0.000000 0.637354 0.381018
0.000000 0.636683 0.370581
0.000000 0.634272 0.323613
0.000000 0.637049 0.118257
0.482185 0.589624 0.105653
0.717189 0.524437 0.126040
0.872282 0.372839 0.186740
0.990051 0.164492 0.200992
0.000000 0.776699 0.450141
0.000000 0.776394 0.442756
0.000000 0.774838 0.415869
0.000000 0.777493 0.314153
0.245060 0.776028 0.132265
0.607874 0.729061 0.104677
0.840543 0.674342 0.117159
0.976715 0.532708 0.224643
0.000000 0.894591 0.509209
0.000000 0.894438 0.504234
0.000000 0.893217 0.488228
0.000000 0.892119 0.446937
0.000000 0.898283 0.297032
0.415320 0.888090 0.193912
0.718746 0.849729 0.156283
0.948272 0.811276 0.141115
0.000000 0.996918 0.559411
0.000000 0.996704 0.556329
0.000000 0.995087 0.548913
0.000000 0.988739 0.552850
0.153475 0.992554 0.476143
0.210330 0.999084 0.315923
0.561975 0.983886 0.290929
0.818601 0.956542 0.248722
0.000000 0.050843 0.245335
0.119753 0.000000 0.239658
0.237339 0.000000 0.244236
0.395056 0.000000 0.291875
0.585260 0.000000 0.348943
0.741939 0.000000 0.391302
0.872953 0.000000 0.425177
0.983673 0.000000 0.453285
0.000000 0.147677 0.249577
0.105409 0.123110 0.244419
0.234073 0.082490 0.243381
0.395117 0.000000 0.287236
0.585657 0.000000 0.342473
0.741146 0.000000 0.385290
0.872618 0.000000 0.420966
0.983307 0.000000 0.450874
0.000000 0.251499 0.253086
0.069734 0.249027 0.250126
0.220096 0.242649 0.241520
0.387640 0.210300 0.272953
0.577173 0.102358 0.318029
0.738460 0.000000 0.362493
0.871763 0.000000 0.402319
0.983001 0.000000 0.435523
0.000000 0.443580 0.344579
0.000000 0.440467 0.337041
0.145357 0.431159 0.307225
0.344244 0.409827 0.239475
0.573358 0.328862 0.259007
0.742641 0.168185 0.267185
0.880034 0.000000 0.292058
0.989746 0.000000 0.351751
0.000000 0.628473 0.425696
0.000000 0.626612 0.418433
0.000000 0.620783 0.390875
0.157595 0.621210 0.276066
0.488594 0.581353 0.235935
0.719417 0.506889 0.259129
0.870359 0.377173 0.291630
0.988403 0.193576 0.300816
0.000000 0.771267 0.486854
0.000000 0.770291 0.481361
0.000000 0.767483 0.461738
0.099947 0.765469 0.408240
0.273289 0.769467 0.260472
0.615656 0.724056 0.245426
0.841581 0.664149 0.262028
0.975830 0.532219 0.332860
0.000000 0.891691 0.539422
0.000000 0.891295 0.535424
0.000000 0.889769 0.522484
0.107424 0.884581 0.508415
0.201175 0.890349 0.399481
0.437690 0.885191 0.303014
0.727413 0.846677 0.277531
0.948333 0.804105 0.277989
0.000000 0.996155 0.583337
0.000000 0.996063 0.580194
0.000000 0.994446 0.573083
0.000000 0.988098 0.575616
0.311650 0.986389 0.539178
0.333928 0.993347 0.413214
0.584466 0.981415 0.374456
0.827268 0.954498 0.339849
0.000000 0.000000 0.391669
0.121248 0.000000 0.385351
0.263401 0.000000 0.365148
0.395636 0.000000 0.379950
0.567926 0.000000 0.426062
0.733974 0.000000 0.465339
0.871885 0.000000 0.492287
0.985779 0.000000 0.510063
0.000000 0.116915 0.395544
0.081300 0.103883 0.389868
0.256352 0.004547 0.370214
0.394385 0.000000 0.379644
0.568627 0.000000 0.423346
0.734737 0.000000 0.461646
0.872770 0.000000 0.488411
0.985992 0.000000 0.505669
0.000000 0.302037 0.407141
0.000000 0.296300 0.404974
0.216098 0.237858 0.386145
0.387976 0.172549 0.378271
0.570428 0.000000 0.415015
0.736538 0.000000 0.451728
0.871763 0.000000 0.479683
0.984558 0.000000 0.499001
0.000000 0.411536 0.400305
0.000000 0.409400 0.397955
0.174960 0.402167 0.389715
0.367864 0.388647 0.374395
0.560937 0.361791 0.410895
0.726101 0.319707 0.449073
0.862913 0.260563 0.484321
0.976226 0.152865 0.512474
0.000000 0.612482 0.493355
0.000000 0.610651 0.488808
0.000000 0.604120 0.472541
0.312932 0.590753 0.441444
0.506065 0.566003 0.376471
0.721401 0.487556 0.407660
0.865690 0.400549 0.420356
0.984192 0.266606 0.427070
0.000000 0.762264 0.545647
0.000000 0.761318 0.541650
0.000000 0.757656 0.528222
0.240208 0.749844 0.506645
0.370153 0.751705 0.413397
0.632837 0.714687 0.386908
0.842679 0.650538 0.412665
0.971557 0.554589 0.454078
0.000000 0.886961 0.589410
0.000000 0.886564 0.586297
0.000000 0.884703 0.576349
0.109590 0.879576 0.563958
0.395148 0.875212 0.529564
0.483101 0.879637 0.431922
0.744167 0.841001 0.410620
0.948028 0.793301 0.422095
0.000000 0.994171 0.626001
0.000000 0.994079 0.623346
0.000000 0.993317 0.615015
0.000000 0.988525 0.610712
0.459327 0.975921 0.628321
0.472908 0.983154 0.535821
0.621912 0.977325 0.481178
0.842527 0.950958 0.452552
0.000000 0.000000 0.552239
0.114839 0.000000 0.547112
0.292210 0.000000 0.529808
0.424109 0.000000 0.506401
0.574365 0.000000 0.525383
0.722164 0.000000 0.549432
0.860868 0.000000 0.571344
0.981628 0.000000 0.583948
0.000000 0.079286 0.555383
0.000000 0.044617 0.550683
0.276616 0.000000 0.533928
0.421271 0.000000 0.508690
0.573541 0.000000 0.525078
0.721859 0.000000 0.547234
0.861723 0.000000 0.568811
0.982300 0.000000 0.582361
0.000000 0.318242 0.568170
0.000000 0.297307 0.562158
0.208499 0.224552 0.546960
0.409400 0.149996 0.516106
0.569604 0.000000 0.524010
0.720089 0.000000 0.540032
0.864042 0.000000 0.561456
0.985290 0.000000 0.571191
0.000000 0.467018 0.567651
0.000000 0.464088 0.566400
0.173800 0.455268 0.561517
0.379309 0.393500 0.536248
0.558038 0.316075 0.521111
0.719570 0.230167 0.535973
0.864805 0.074434 0.558068
0.985779 0.000000 0.563226
0.000000 0.577600 0.552605
0.000000 0.576226 0.551049
0.000000 0.571038 0.545159
0.348119 0.560510 0.533837
0.534478 0.542382 0.515312
0.708034 0.528283 0.551202
0.849790 0.507927 0.584497
0.965545 0.475929 0.610224
0.000000 0.748348 0.620020
0.000000 0.747341 0.617517
0.000000 0.743282 0.608667
0.250401 0.734798 0.593500
0.498390 0.722103 0.572839
0.657984 0.700649 0.521263
0.845335 0.641352 0.556176
0.967498 0.581353 0.566644
0.000000 0.879606 0.655879
0.000000 0.879149 0.653681
0.000000 0.877012 0.646387
0.098573 0.872099 0.635431
0.458167 0.863157 0.625422
0.562799 0.864714 0.557885
0.766629 0.833066 0.535210
0.948791 0.781155 0.556512
0.000000 0.991089 0.684688
0.000000 0.990936 0.682643
0.000000 0.990021 0.676112
0.000000 0.987091 0.667323
0.400366 0.978058 0.668086
0.594110 0.970428 0.652918
0.661555 0.973297 0.583429
0.861662 0.946441 0.559442
0.000000 0.000000 0.686488
0.066896 0.000000 0.683436
0.296788 0.000000 0.672602
0.454414 0.000000 0.653010
0.583520 0.000000 0.637537
0.730282 0.000000 0.651270
0.855924 0.000000 0.660273
0.974670 0.000000 0.664515
0.000000 0.000000 0.688319
0.000000 0.000000 0.685481
0.276707 0.000000 0.675196
0.446052 0.000000 0.655695
0.581567 0.000000 0.638911
0.729946 0.000000 0.651240
0.856016 0.000000 0.658930
0.975036 0.000000 0.665095
0.000000 0.265751 0.695766
0.000000 0.234623 0.693782
0.195956 0.199588 0.683680
0.416846 0.102541 0.664332
0.574334 0.000000 0.642908
0.728084 0.000000 0.651057
0.855985 0.000000 0.654444
0.977508 0.000000 0.659907
0.000000 0.495491 0.707118
0.000000 0.494911 0.706630
0.215244 0.469184 0.696132
0.385687 0.390539 0.676967
0.563836 0.306645 0.646967
0.721431 0.180941 0.649836
0.853758 0.000000 0.647669
0.980896 0.000000 0.649683
0.000000 0.609796 0.695003
0.000000 0.609125 0.694392
0.133852 0.607874 0.691981
0.408423 0.608942 0.687221
0.558282 0.557641 0.664027
0.706813 0.472816 0.646723
0.849088 0.390661 0.649073
0.977905 0.275731 0.653834
0.000000 0.716091 0.679377
0.000000 0.715450 0.678553
0.000000 0.712917 0.675441
0.327947 0.707576 0.669337
0.529534 0.697932 0.659236
0.683955 0.679255 0.640772
0.836088 0.673304 0.675654
0.955749 0.658320 0.702205
0.000000 0.871397 0.734157
0.000000 0.870207 0.732692
0.000000 0.866056 0.727474
0.106813 0.860624 0.718288
0.453620 0.851377 0.706264
0.658137 0.839933 0.692073
0.791287 0.821805 0.648615
0.951873 0.773190 0.680201
0.000000 0.986694 0.756588
0.000000 0.986481 0.755154
0.000000 0.985382 0.750210
0.000000 0.982208 0.742672
0.369909 0.974975 0.735897
0.625177 0.963958 0.733761
0.719692 0.963806 0.683955
0.884031 0.940642 0.662837
0.000000 0.000000 0.799649
0.000000 0.000000 0.797971
0.262242 0.000000 0.791836
0.444312 0.000000 0.780392
0.602411 0.000000 0.762448
0.728176 0.000000 0.754696
0.864744 0.000000 0.761929
0.973602 0.000000 0.755123
0.000000 0.000000 0.800259
0.000000 0.000000 0.798642
0.262394 0.000000 0.792782
0.441627 0.000000 0.781552
0.600153 0.000000 0.763790
0.727504 0.000000 0.755673
0.864866 0.000000 0.762692
0.973999 0.000000 0.755795
0.000000 0.198184 0.805814
0.000000 0.187594 0.804227
0.163699 0.141970 0.798398
0.402564 0.000000 0.787289
0.580987 0.000000 0.769436
0.721828 0.000000 0.758389
0.864500 0.000000 0.763149
0.975402 0.000000 0.756863
0.000000 0.482185 0.811643
0.000000 0.477028 0.809781
0.202243 0.438544 0.804318
0.374853 0.368658 0.794827
0.557488 0.279759 0.777523
0.712276 0.085573 0.761105
0.861601 0.000000 0.763333
0.976959 0.000000 0.750973
0.000000 0.625666 0.811521
0.000000 0.627192 0.811276
0.248234 0.634882 0.810452
0.465187 0.635523 0.804471
0.568566 0.559411 0.787137
0.705226 0.459571 0.761685
0.852262 0.344091 0.762081
0.974182 0.000000 0.745357
0.000000 0.731563 0.800931
0.000000 0.731838 0.800687
0.075013 0.733547 0.799710
0.406165 0.738369 0.797818
0.598291 0.745571 0.795651
0.713008 0.701045 0.776791
0.835080 0.617731 0.758724
0.962585 0.529473 0.753597
0.000000 0.835050 0.788327
0.000000 0.834867 0.787961
0.000000 0.833982 0.786526
0.284520 0.831907 0.783749
0.517327 0.827787 0.778988
0.684230 0.820279 0.770932
0.813535 0.802335 0.752987
0.946899 0.800870 0.785794
0.000000 0.984466 0.836576
0.000000 0.983917 0.835782
0.000000 0.981628 0.832914
0.000000 0.976257 0.827604
0.365270 0.967529 0.819120
0.611109 0.957214 0.808804
0.792905 0.946838 0.798978
0.908293 0.932708 0.762264
0.000000 0.000000 0.894804
0.000000 0.000000 0.894011
0.171023 0.000000 0.891142
0.395789 0.000000 0.885710
0.572351 0.000000 0.877195
0.728084 0.000000 0.866575
0.856138 0.000000 0.861936
0.983307 0.000000 0.859373
0.000000 0.000000 0.895293
0.000000 0.000000 0.894499
0.172457 0.000000 0.891691
0.395087 0.000000 0.886320
0.571160 0.000000 0.877867
0.727382 0.000000 0.867216
0.855650 0.000000 0.862577
0.983551 0.000000 0.860166
0.000000 0.053346 0.897978
0.000000 0.000000 0.897215
0.000000 0.000000 0.894438
0.366186 0.000000 0.889128
0.557000 0.000000 0.880735
0.722927 0.000000 0.869474
0.853635 0.000000 0.864927
0.984405 0.000000 0.862882
0.000000 0.435096 0.898619
0.000000 0.413092 0.898680
0.000000 0.348699 0.897795
0.311101 0.289372 0.893095
0.516106 0.155398 0.885374
0.698054 0.000000 0.873564
0.844327 0.000000 0.867826
0.985382 0.000000 0.865843
0.000000 0.629389 0.901946
0.000000 0.629206 0.901244
0.285496 0.626001 0.898131
0.471290 0.615198 0.891966
0.537926 0.520928 0.887510
0.681025 0.406317 0.877287
0.831510 0.207034 0.868406
0.981964 0.000000 0.866484
0.000000 0.726619 0.896391
0.000000 0.728267 0.896208
0.168734 0.735592 0.895445
0.450111 0.751431 0.894011
0.634241 0.764767 0.891234
0.713649 0.695735 0.880858
0.828305 0.590723 0.864958
0.967895 0.468818 0.864439
0.000000 0.830167 0.889921
0.000000 0.830533 0.889769
0.000000 0.832212 0.889220
0.331456 0.837217 0.887877
0.569268 0.845884 0.886107
0.742367 0.858000 0.885130
0.841184 0.825284 0.874723
0.949493 0.741512 0.861479
0.000000 0.938018 0.883085
0.000000 0.937987 0.882933
0.000000 0.937896 0.882353
0.000000 0.937285 0.880919
0.453956 0.935698 0.878477
0.660975 0.933471 0.875303
0.813138 0.930175 0.870726
0.929686 0.916930 0.856840
