其他预设/【213】赛博朋克科幻预设52款/1.LUT预设（视频调色-PR-AE-PS-FCPX-达芬奇用）/赛博朋克科幻__-12 强度1.cube
# Created by Adobe Lightroom plugin Export LUT (1.17.0)
# www.johnrellis.com/lightroom/exportlut.htm
# Preset: 赛博朋克科幻[素锦印象]-12 强度1
# Color profile: /Library/Application Support/Adobe/Color/Profiles/Recommended/AdobeRGB1998.icc
LUT_3D_SIZE 32
0.038697 0.040253 0.040070
0.038697 0.040253 0.040070
0.056794 0.039094 0.039582
0.087160 0.033753 0.037690
0.116060 0.026276 0.034882
0.144015 0.032807 0.047913
0.172671 0.041474 0.058991
0.201785 0.047120 0.065003
0.232212 0.049165 0.069490
0.263218 0.050782 0.074861
0.295171 0.052430 0.080507
0.327611 0.055024 0.086854
0.360235 0.059632 0.093996
0.393225 0.064118 0.101900
0.426215 0.069886 0.110628
0.459174 0.076265 0.119753
0.492042 0.083070 0.129152
0.524590 0.091096 0.138949
0.556756 0.099336 0.149050
0.589624 0.108034 0.159487
0.622583 0.117433 0.170382
0.655329 0.127596 0.181857
0.687800 0.139132 0.194095
0.719966 0.151553 0.207034
0.751919 0.165072 0.220859
0.783719 0.179904 0.235599
0.815274 0.196292 0.251499
0.846616 0.214511 0.268650
0.877806 0.234348 0.287633
0.908690 0.256718 0.308568
0.939239 0.282017 0.332036
0.969451 0.310674 0.358343
0.038697 0.040253 0.040070
0.038697 0.040253 0.040070
0.059083 0.050294 0.038483
0.087007 0.054749 0.035767
0.116091 0.052583 0.032563
0.144076 0.057496 0.044892
0.172549 0.061585 0.057588
0.201816 0.063783 0.063661
0.232090 0.065400 0.068635
0.263188 0.066529 0.074037
0.295140 0.067750 0.079744
0.327520 0.069062 0.086458
0.360204 0.071870 0.093599
0.393225 0.076234 0.101747
0.426246 0.080995 0.110292
0.459236 0.086641 0.119600
0.492012 0.093019 0.129030
0.524559 0.099825 0.138643
0.556725 0.107271 0.148775
0.589593 0.115023 0.159243
0.622553 0.123781 0.170047
0.655329 0.133364 0.181674
0.687770 0.144411 0.193820
0.719936 0.156435 0.206851
0.751888 0.169528 0.220706
0.783719 0.183902 0.235447
0.815244 0.199680 0.251316
0.846616 0.217655 0.268620
0.877775 0.237217 0.287510
0.908690 0.259342 0.308507
0.939269 0.284184 0.331823
0.969451 0.312505 0.358129
0.035615 0.066255 0.036744
0.051179 0.066926 0.036133
0.064576 0.067994 0.035248
0.088411 0.071382 0.032441
0.115846 0.069978 0.029511
0.143862 0.072541 0.041718
0.172396 0.075471 0.054414
0.201663 0.077485 0.062379
0.231968 0.078767 0.067475
0.263157 0.080018 0.073304
0.294987 0.081727 0.079316
0.327428 0.083742 0.085725
0.360204 0.085939 0.093202
0.393164 0.089204 0.101411
0.426093 0.093812 0.110140
0.459174 0.098299 0.119295
0.491981 0.104280 0.128725
0.524498 0.110109 0.138399
0.556695 0.116945 0.148653
0.589532 0.124239 0.158877
0.622553 0.132052 0.169802
0.655299 0.140963 0.181338
0.687739 0.151369 0.193515
0.719936 0.162478 0.206485
0.751919 0.175418 0.220432
0.783688 0.189181 0.235111
0.815244 0.204562 0.251072
0.846616 0.221744 0.268498
0.877775 0.241001 0.287388
0.908659 0.262699 0.308293
0.939239 0.287205 0.331640
0.969451 0.315099 0.358038
0.028840 0.096925 0.028168
0.051179 0.097108 0.027497
0.068513 0.097383 0.026459
0.090730 0.098024 0.024262
0.118837 0.098695 0.020569
0.144198 0.096162 0.030335
0.171939 0.098421 0.049165
0.201389 0.100191 0.059541
0.231693 0.101625 0.065248
0.262974 0.103273 0.071168
0.294896 0.104768 0.077668
0.327398 0.106966 0.084443
0.360052 0.109377 0.091981
0.393072 0.112276 0.100496
0.426093 0.115785 0.109102
0.459083 0.119997 0.118502
0.491951 0.124514 0.127993
0.524468 0.129854 0.137697
0.556603 0.135225 0.147890
0.589471 0.141573 0.158297
0.622522 0.148287 0.169162
0.655207 0.156161 0.180850
0.687678 0.165560 0.193057
0.719875 0.175784 0.206058
0.751858 0.187106 0.219974
0.783627 0.199924 0.234684
0.815183 0.214298 0.250523
0.846586 0.230716 0.267979
0.877775 0.248936 0.286931
0.908659 0.269810 0.307805
0.939239 0.293462 0.331182
0.969482 0.320653 0.357488
0.015534 0.130404 0.014313
0.043214 0.130617 0.013489
0.066621 0.130709 0.012390
0.092561 0.130465 0.010224
0.119936 0.130770 0.006653
0.148501 0.130129 0.002228
0.174838 0.127230 0.023102
0.200931 0.127260 0.051789
0.231357 0.128725 0.061097
0.262730 0.130709 0.067720
0.294652 0.132448 0.074891
0.327184 0.134615 0.082124
0.359899 0.137179 0.090364
0.392859 0.139986 0.098756
0.425910 0.143008 0.107912
0.458930 0.146487 0.117006
0.491798 0.150393 0.126986
0.524285 0.154574 0.136599
0.556512 0.159060 0.146883
0.589441 0.164279 0.157198
0.622400 0.170291 0.168276
0.655177 0.177096 0.179904
0.687617 0.185122 0.192172
0.719844 0.194095 0.205264
0.751797 0.204288 0.219028
0.783597 0.215763 0.233829
0.815152 0.228885 0.249821
0.846555 0.243931 0.267185
0.877745 0.261021 0.286137
0.908659 0.280644 0.307103
0.939239 0.303166 0.330480
0.969482 0.329198 0.356878
0.000000 0.164309 0.000000
0.027436 0.164462 0.000000
0.061646 0.164309 0.000000
0.089937 0.164218 0.000000
0.120302 0.164065 0.000000
0.149630 0.164034 0.000000
0.177951 0.162264 0.000000
0.206577 0.160616 0.010346
0.233249 0.158968 0.044556
0.262394 0.159701 0.063233
0.294347 0.162081 0.071077
0.326879 0.164401 0.079286
0.359594 0.166720 0.087770
0.392737 0.169314 0.096864
0.425696 0.172213 0.105715
0.458808 0.175204 0.115389
0.491615 0.178531 0.125307
0.524071 0.182223 0.135225
0.556268 0.186099 0.145449
0.589288 0.190402 0.155886
0.622278 0.195682 0.166903
0.655024 0.201389 0.178653
0.687495 0.208194 0.190921
0.719722 0.216068 0.204105
0.751705 0.225071 0.217868
0.783536 0.235142 0.232761
0.815122 0.247105 0.248661
0.846494 0.260624 0.266209
0.877684 0.276402 0.285130
0.908629 0.294652 0.306096
0.939239 0.315770 0.329534
0.969512 0.340429 0.355901
0.000000 0.198398 0.000000
0.006287 0.198337 0.000000
0.049287 0.198337 0.000000
0.085420 0.198215 0.000000
0.118410 0.197971 0.000000
0.149783 0.197757 0.000000
0.180117 0.197665 0.000000
0.205997 0.193393 0.000000
0.239292 0.195560 0.000000
0.266911 0.193423 0.031861
0.295293 0.192996 0.063172
0.326574 0.194736 0.074800
0.359350 0.197086 0.084047
0.392401 0.199710 0.093477
0.425544 0.202365 0.103090
0.458534 0.205234 0.112764
0.491341 0.208133 0.122927
0.523827 0.211215 0.133059
0.556085 0.214542 0.143282
0.589075 0.218296 0.154025
0.622126 0.222873 0.165164
0.654902 0.227970 0.176913
0.687343 0.233799 0.189334
0.719600 0.240482 0.202335
0.751614 0.248417 0.216312
0.783413 0.257359 0.231174
0.815030 0.267979 0.247288
0.846433 0.280278 0.264805
0.877684 0.294499 0.283787
0.908598 0.311315 0.304875
0.939239 0.330877 0.328222
0.969512 0.354040 0.354711
0.000000 0.232670 0.000000
0.000000 0.232731 0.000000
0.023529 0.232700 0.000000
0.080049 0.232486 0.000000
0.115846 0.232303 0.000000
0.149813 0.231998 0.000000
0.180880 0.231754 0.000000
0.211307 0.231754 0.000000
0.238560 0.228519 0.000000
0.272892 0.231571 0.000000
0.301183 0.228855 0.014496
0.329961 0.227878 0.058717
0.359289 0.228183 0.078462
0.392065 0.230564 0.088930
0.425177 0.233127 0.099214
0.458198 0.235752 0.109285
0.491005 0.238407 0.119570
0.523522 0.241184 0.130159
0.555810 0.244144 0.140627
0.588891 0.247593 0.151553
0.621881 0.251682 0.162753
0.654688 0.255985 0.174685
0.687190 0.261143 0.187167
0.719448 0.267002 0.200443
0.751461 0.273808 0.214420
0.783291 0.281865 0.229404
0.814908 0.291081 0.245518
0.846372 0.302098 0.263035
0.877592 0.315038 0.282170
0.908568 0.330266 0.303166
0.939239 0.348425 0.326726
0.969543 0.369909 0.353277
0.000000 0.267369 0.000000
0.000000 0.267338 0.000000
0.013489 0.267369 0.000000
0.076539 0.267216 0.000000
0.114412 0.267063 0.000000
0.148775 0.266911 0.000000
0.181888 0.266667 0.000000
0.212436 0.266728 0.000000
0.243076 0.266667 0.000000
0.271641 0.264652 0.000000
0.305272 0.267247 0.000000
0.335943 0.265537 0.000000
0.365057 0.263920 0.044953
0.394507 0.263493 0.075685
0.424750 0.264500 0.094087
0.457801 0.266911 0.104952
0.490639 0.269444 0.115633
0.523247 0.272007 0.126192
0.555535 0.274479 0.137209
0.588647 0.277714 0.148257
0.621668 0.281346 0.159701
0.654505 0.285222 0.171756
0.686976 0.289616 0.184482
0.719265 0.294896 0.197757
0.751278 0.300847 0.212039
0.783139 0.307805 0.227176
0.814817 0.316075 0.243381
0.846281 0.325933 0.260868
0.877531 0.337469 0.280125
0.908568 0.351293 0.301244
0.939208 0.367895 0.324865
0.969574 0.387823 0.351415
0.000000 0.302770 0.000000
0.000000 0.302800 0.000000
0.000000 0.302739 0.000000
0.071809 0.302770 0.000000
0.111330 0.302647 0.000000
0.147127 0.302556 0.000000
0.181094 0.302312 0.000000
0.213626 0.302220 0.000000
0.244419 0.302342 0.000000
0.275517 0.302525 0.000000
0.305211 0.301122 0.000000
0.338048 0.303258 0.000000
0.371038 0.302831 0.000000
0.400244 0.300420 0.020661
0.429694 0.299443 0.069795
0.459236 0.299413 0.093660
0.490303 0.300877 0.109987
0.522820 0.303105 0.121553
0.555169 0.305455 0.132815
0.588251 0.308415 0.144228
0.621363 0.311742 0.156008
0.654231 0.315221 0.168368
0.686763 0.319097 0.181125
0.719051 0.323705 0.194705
0.751125 0.328985 0.209049
0.783017 0.335149 0.224399
0.814664 0.342473 0.240604
0.846189 0.351202 0.258335
0.877470 0.361578 0.277684
0.908507 0.373999 0.298863
0.939239 0.389105 0.322545
0.969604 0.407385 0.349157
0.000000 0.338872 0.000000
0.000000 0.338872 0.000000
0.000000 0.338903 0.000000
0.063691 0.338903 0.000000
0.107088 0.338750 0.000000
0.144320 0.338689 0.000000
0.179751 0.338659 0.000000
0.213687 0.338476 0.000000
0.245823 0.338506 0.000000
0.277012 0.338689 0.000000
0.308354 0.338811 0.000000
0.339147 0.338048 0.000000
0.371252 0.339025 0.000000
0.406287 0.340581 0.000000
0.435492 0.337621 0.000000
0.464820 0.335821 0.060121
0.494118 0.335027 0.089540
0.523125 0.335149 0.112795
0.554711 0.336889 0.127230
0.587945 0.339605 0.139162
0.621057 0.342626 0.151247
0.653895 0.345769 0.163912
0.686519 0.349340 0.177035
0.718807 0.353338 0.190860
0.750942 0.358099 0.205417
0.782834 0.363470 0.221012
0.814542 0.369909 0.237430
0.846067 0.377630 0.255283
0.877409 0.386969 0.274693
0.908446 0.398169 0.296117
0.939208 0.411780 0.319829
0.969665 0.428626 0.346624
0.000000 0.375494 0.000000
0.000000 0.375494 0.000000
0.000000 0.375433 0.000000
0.047181 0.375372 0.000000
0.101289 0.375402 0.000000
0.140780 0.375280 0.000000
0.177188 0.375280 0.000000
0.212314 0.375128 0.000000
0.246677 0.375067 0.000000
0.278416 0.375158 0.000000
0.310063 0.375250 0.000000
0.341680 0.375463 0.000000
0.373144 0.375189 0.000000
0.404639 0.375036 0.000000
0.440436 0.377752 0.000000
0.470649 0.374914 0.000000
0.499733 0.372320 0.029847
0.528557 0.370794 0.082612
0.557549 0.370275 0.109895
0.587549 0.371344 0.132845
0.620722 0.374060 0.145418
0.653559 0.376928 0.158633
0.686183 0.380072 0.172122
0.718532 0.383673 0.186374
0.750698 0.387762 0.201266
0.782620 0.392554 0.217044
0.814359 0.398322 0.233707
0.845914 0.405158 0.251682
0.877287 0.413458 0.271275
0.908415 0.423560 0.292760
0.939208 0.435920 0.316747
0.969696 0.451118 0.343664
0.000000 0.412238 0.000000
0.000000 0.412238 0.000000
0.000000 0.412238 0.000000
0.010529 0.412207 0.000000
0.093782 0.412207 0.000000
0.136019 0.412146 0.000000
0.174228 0.412116 0.000000
0.210178 0.411994 0.000000
0.245304 0.411902 0.000000
0.279423 0.411872 0.000000
0.311162 0.411963 0.000000
0.343053 0.412024 0.000000
0.374975 0.412177 0.000000
0.407111 0.412360 0.000000
0.434516 0.408026 0.000000
0.473548 0.414282 0.000000
0.505455 0.412207 0.000000
0.534142 0.408911 0.000000
0.563012 0.406867 0.071962
0.592706 0.406317 0.104891
0.622522 0.406836 0.131044
0.653193 0.408453 0.152132
0.685817 0.411353 0.166262
0.718227 0.414496 0.181094
0.750423 0.418067 0.196139
0.782376 0.422400 0.212192
0.814176 0.427405 0.229160
0.845792 0.433539 0.247532
0.877226 0.440833 0.267338
0.908354 0.449928 0.289036
0.939239 0.460975 0.313054
0.969757 0.474800 0.340154
0.000000 0.449195 0.000000
0.000000 0.449165 0.000000
0.000000 0.449134 0.000000
0.000000 0.449165 0.000000
0.082734 0.449042 0.000000
0.130098 0.449012 0.000000
0.170230 0.448981 0.000000
0.207370 0.448920 0.000000
0.243168 0.448798 0.000000
0.278386 0.448676 0.000000
0.311986 0.448585 0.000000
0.344030 0.448707 0.000000
0.376074 0.448707 0.000000
0.408209 0.448859 0.000000
0.440436 0.448920 0.000000
0.468544 0.444892 0.000000
0.506371 0.450568 0.000000
0.539849 0.449439 0.000000
0.568688 0.445747 0.000000
0.597955 0.443519 0.052308
0.627497 0.442390 0.097871
0.657038 0.442329 0.128389
0.686671 0.443336 0.155062
0.717891 0.445808 0.174472
0.750118 0.448981 0.190188
0.782132 0.452735 0.206638
0.813962 0.457160 0.223941
0.845640 0.462531 0.242588
0.877104 0.469093 0.262699
0.908324 0.477150 0.284550
0.939208 0.487129 0.308965
0.969818 0.499611 0.336156
0.000000 0.485908 0.000000
0.000000 0.485847 0.000000
0.000000 0.485817 0.000000
0.000000 0.485878 0.000000
0.068177 0.485786 0.000000
0.122744 0.485756 0.000000
0.165133 0.485695 0.000000
0.203555 0.485542 0.000000
0.240360 0.485420 0.000000
0.276341 0.485328 0.000000
0.311559 0.485084 0.000000
0.344457 0.485054 0.000000
0.376654 0.485084 0.000000
0.408911 0.485145 0.000000
0.441199 0.485237 0.000000
0.473579 0.485206 0.000000
0.502159 0.481514 0.000000
0.538750 0.486275 0.000000
0.574060 0.486732 0.000000
0.603326 0.482918 0.000000
0.632471 0.480110 0.000000
0.661799 0.478462 0.087709
0.691188 0.477974 0.123995
0.720638 0.478614 0.154208
0.750179 0.480385 0.181552
0.781827 0.483558 0.200015
0.813718 0.487465 0.217899
0.845457 0.492195 0.237003
0.876951 0.497993 0.257359
0.908232 0.505180 0.279515
0.939208 0.514061 0.304051
0.969909 0.525261 0.331487
0.000000 0.522271 0.000000
0.000000 0.522240 0.000000
0.000000 0.522240 0.000000
0.000000 0.522210 0.000000
0.034577 0.522087 0.000000
0.113252 0.522057 0.000000
0.158663 0.521996 0.000000
0.198917 0.521904 0.000000
0.236912 0.521782 0.000000
0.273289 0.521630 0.000000
0.309148 0.521355 0.000000
0.344427 0.521141 0.000000
0.376715 0.521141 0.000000
0.409094 0.521141 0.000000
0.441352 0.521080 0.000000
0.473823 0.521111 0.000000
0.506126 0.520989 0.000000
0.535241 0.517723 0.000000
0.571496 0.521721 0.000000
0.606683 0.522850 0.000000
0.637476 0.519860 0.000000
0.666560 0.516594 0.000000
0.695735 0.514519 0.073518
0.724971 0.513603 0.118441
0.754299 0.513848 0.152529
0.783719 0.515373 0.182834
0.813474 0.518212 0.210758
0.845243 0.522423 0.230320
0.876829 0.527489 0.251225
0.908141 0.533837 0.273777
0.939178 0.541772 0.298650
0.969970 0.551781 0.326268
0.000000 0.558190 0.000000
0.000000 0.558221 0.000000
0.000000 0.558190 0.000000
0.000000 0.558160 0.000000
0.000000 0.558129 0.000000
0.101167 0.558099 0.000000
0.151095 0.557946 0.000000
0.193545 0.557824 0.000000
0.232456 0.557671 0.000000
0.269749 0.557458 0.000000
0.306157 0.557214 0.000000
0.341802 0.556909 0.000000
0.376257 0.556634 0.000000
0.408545 0.556542 0.000000
0.440894 0.556359 0.000000
0.473091 0.556176 0.000000
0.505394 0.555901 0.000000
0.537682 0.555749 0.000000
0.567956 0.553552 0.000000
0.604181 0.557336 0.000000
0.638972 0.558801 0.000000
0.671290 0.556573 0.000000
0.700221 0.552911 0.000000
0.729305 0.550500 0.043549
0.758450 0.549218 0.110262
0.787655 0.549157 0.149905
0.817014 0.550439 0.183902
0.846433 0.553246 0.215946
0.876646 0.557610 0.244114
0.908049 0.563134 0.267155
0.939178 0.570153 0.292302
0.970031 0.579126 0.320470
0.000000 0.593011 0.000000
0.000000 0.593011 0.000000
0.000000 0.592981 0.000000
0.000000 0.592981 0.000000
0.000000 0.592859 0.000000
0.085573 0.592767 0.000000
0.142397 0.592615 0.000000
0.186679 0.592432 0.000000
0.227237 0.592187 0.000000
0.265232 0.591943 0.000000
0.302068 0.591699 0.000000
0.338079 0.591333 0.000000
0.373510 0.590967 0.000000
0.407294 0.590723 0.000000
0.439521 0.590570 0.000000
0.471717 0.590387 0.000000
0.504051 0.590173 0.000000
0.536278 0.589990 0.000000
0.568505 0.589776 0.000000
0.599756 0.588525 0.000000
0.635676 0.591821 0.000000
0.671015 0.594598 0.000000
0.704738 0.593072 0.000000
0.733639 0.589136 0.000000
0.762570 0.586328 0.000000
0.791653 0.584771 0.099641
0.820829 0.584436 0.146365
0.850126 0.585595 0.184573
0.879423 0.588312 0.220127
0.908659 0.592889 0.255619
0.939117 0.599207 0.285130
0.970092 0.607111 0.313664
0.000000 0.626825 0.000000
0.000000 0.626795 0.000000
0.000000 0.626734 0.000000
0.000000 0.626734 0.000000
0.000000 0.626642 0.000000
0.063447 0.626551 0.000000
0.131624 0.626398 0.000000
0.179019 0.626215 0.000000
0.220890 0.626062 0.000000
0.259861 0.625849 0.000000
0.297368 0.625544 0.000000
0.333837 0.625208 0.000000
0.369665 0.624903 0.000000
0.404974 0.624537 0.000000
0.437842 0.624353 0.000000
0.470039 0.624140 0.000000
0.502342 0.623987 0.000000
0.534539 0.623774 0.000000
0.566735 0.623590 0.000000
0.598932 0.623346 0.000000
0.630945 0.622889 0.000000
0.663691 0.623163 0.000000
0.702937 0.630213 0.000000
0.736965 0.628870 0.000000
0.766659 0.625147 0.000000
0.795621 0.622034 0.000000
0.824704 0.620203 0.083986
0.853849 0.619715 0.141268
0.883024 0.620722 0.184695
0.912200 0.623468 0.224674
0.941314 0.628260 0.264012
0.970336 0.635706 0.305058
0.000000 0.660151 0.000000
0.000000 0.660151 0.000000
0.000000 0.660121 0.000000
0.000000 0.660121 0.000000
0.000000 0.660029 0.000000
0.000000 0.659937 0.000000
0.118379 0.659754 0.000000
0.170138 0.659632 0.000000
0.213809 0.659449 0.000000
0.253910 0.659236 0.000000
0.292119 0.659022 0.000000
0.329137 0.658717 0.000000
0.365270 0.658381 0.000000
0.400855 0.658076 0.000000
0.436011 0.657679 0.000000
0.468147 0.657496 0.000000
0.500328 0.657374 0.000000
0.532525 0.657191 0.000000
0.564691 0.657008 0.000000
0.596887 0.656794 0.000000
0.628992 0.656519 0.000000
0.661402 0.656580 0.000000
0.695186 0.657862 0.000000
0.734707 0.664973 0.000000
0.768399 0.664179 0.000000
0.799466 0.661036 0.000000
0.828428 0.657649 0.000000
0.857511 0.655634 0.058106
0.886595 0.654963 0.134249
0.915679 0.655848 0.184482
0.944823 0.658656 0.229282
0.973846 0.663844 0.273716
0.000000 0.693111 0.000000
0.000000 0.693111 0.000000
0.000000 0.693111 0.000000
0.000000 0.693080 0.000000
0.000000 0.692958 0.000000
0.000000 0.692897 0.000000
0.101839 0.692775 0.000000
0.159609 0.692653 0.000000
0.205722 0.692470 0.000000
0.247166 0.692256 0.000000
0.286168 0.692073 0.000000
0.323857 0.691798 0.000000
0.360296 0.691524 0.000000
0.396277 0.691157 0.000000
0.431739 0.690822 0.000000
0.465919 0.690517 0.000000
0.498146 0.690303 0.000000
0.530236 0.690181 0.000000
0.562371 0.689998 0.000000
0.594507 0.689784 0.000000
0.626612 0.689570 0.000000
0.658717 0.689326 0.000000
0.691341 0.689662 0.000000
0.726192 0.691981 0.000000
0.766323 0.699519 0.000000
0.799832 0.699306 0.000000
0.832059 0.696742 0.000000
0.861051 0.693202 0.000000
0.890105 0.690913 0.000000
0.919188 0.690120 0.124392
0.948272 0.690974 0.183413
0.977325 0.693996 0.234470
0.000000 0.725704 0.000000
0.000000 0.725704 0.000000
0.000000 0.725704 0.000000
0.000000 0.725643 0.000000
0.000000 0.725582 0.000000
0.000000 0.725490 0.000000
0.078248 0.725399 0.000000
0.146975 0.725246 0.000000
0.196445 0.725124 0.000000
0.239689 0.724910 0.000000
0.279667 0.724697 0.000000
0.318029 0.724483 0.000000
0.355138 0.724208 0.000000
0.391272 0.723903 0.000000
0.426947 0.723537 0.000000
0.462287 0.723171 0.000000
0.495644 0.722927 0.000000
0.527764 0.722744 0.000000
0.559808 0.722621 0.000000
0.591913 0.722408 0.000000
0.623987 0.722255 0.000000
0.656001 0.722042 0.000000
0.688045 0.721798 0.000000
0.720729 0.722255 0.000000
0.756558 0.725582 0.000000
0.797879 0.734066 0.000000
0.831174 0.734401 0.000000
0.864347 0.732296 0.000000
0.893523 0.728542 0.000000
0.922576 0.726101 0.000000
0.951659 0.725185 0.110109
0.980804 0.726131 0.181338
0.000000 0.757900 0.000000
0.000000 0.757900 0.000000
0.000000 0.757931 0.000000
0.000000 0.757839 0.000000
0.000000 0.757809 0.000000
0.000000 0.757717 0.000000
0.020020 0.757656 0.000000
0.131563 0.757534 0.000000
0.185855 0.757382 0.000000
0.231113 0.757198 0.000000
0.272435 0.757015 0.000000
0.311467 0.756802 0.000000
0.349035 0.756558 0.000000
0.385870 0.756222 0.000000
0.421820 0.755947 0.000000
0.457374 0.755581 0.000000
0.492470 0.755184 0.000000
0.525017 0.755001 0.000000
0.557092 0.754849 0.000000
0.589136 0.754726 0.000000
0.621149 0.754513 0.000000
0.653132 0.754330 0.000000
0.685115 0.754116 0.000000
0.717067 0.753902 0.000000
0.749599 0.754269 0.000000
0.786374 0.758694 0.000000
0.829343 0.768490 0.000000
0.862455 0.769497 0.000000
0.895506 0.767178 0.000000
0.925841 0.763790 0.000000
0.954986 0.761166 0.000000
0.984192 0.760220 0.086641
0.000000 0.789822 0.000000
0.000000 0.789822 0.000000
0.000000 0.789792 0.000000
0.000000 0.789731 0.000000
0.000000 0.789700 0.000000
0.000000 0.789639 0.000000
0.000000 0.789578 0.000000
0.112215 0.789425 0.000000
0.173312 0.789273 0.000000
0.221256 0.789120 0.000000
0.264195 0.788937 0.000000
0.304173 0.788754 0.000000
0.342596 0.788510 0.000000
0.379767 0.788235 0.000000
0.416144 0.787930 0.000000
0.451942 0.787625 0.000000
0.487282 0.787259 0.000000
0.522026 0.786893 0.000000
0.554070 0.786801 0.000000
0.586145 0.786618 0.000000
0.618036 0.786435 0.000000
0.649989 0.786282 0.000000
0.681971 0.786099 0.000000
0.713893 0.785855 0.000000
0.745785 0.785672 0.000000
0.777951 0.785763 0.000000
0.815732 0.791196 0.000000
0.858152 0.800504 0.000000
0.893706 0.804044 0.000000
0.926665 0.801968 0.000000
0.958099 0.798917 0.000000
0.987396 0.796201 0.000000
0.000000 0.821408 0.000000
0.000000 0.821347 0.000000
0.000000 0.821378 0.000000
0.000000 0.821317 0.000000
0.000000 0.821225 0.000000
0.000000 0.821195 0.000000
0.000000 0.821134 0.000000
0.084352 0.821012 0.000000
0.158053 0.820859 0.000000
0.209873 0.820706 0.000000
0.254704 0.820554 0.000000
0.296208 0.820371 0.000000
0.335424 0.820127 0.000000
0.373175 0.819883 0.000000
0.409979 0.819638 0.000000
0.446143 0.819333 0.000000
0.481758 0.818997 0.000000
0.516899 0.818631 0.000000
0.550805 0.818357 0.000000
0.582818 0.818204 0.000000
0.614740 0.818051 0.000000
0.646662 0.817899 0.000000
0.678614 0.817685 0.000000
0.710475 0.817533 0.000000
0.742336 0.817350 0.000000
0.774197 0.817136 0.000000
0.806027 0.816922 0.000000
0.844633 0.823301 0.000000
0.885344 0.830991 0.000000
0.925048 0.838224 0.000000
0.957916 0.836759 0.000000
0.990417 0.834012 0.000000
0.000000 0.852628 0.000000
0.000000 0.852598 0.000000
0.000000 0.852598 0.000000
0.000000 0.852598 0.000000
0.000000 0.852537 0.000000
0.000000 0.852476 0.000000
0.000000 0.852384 0.000000
0.005249 0.852293 0.000000
0.138979 0.852140 0.000000
0.196384 0.852018 0.000000
0.244053 0.851835 0.000000
0.286870 0.851682 0.000000
0.327214 0.851469 0.000000
0.365759 0.851225 0.000000
0.403113 0.850980 0.000000
0.439673 0.850706 0.000000
0.475624 0.850401 0.000000
0.511070 0.850065 0.000000
0.546197 0.849699 0.000000
0.579217 0.849485 0.000000
0.611200 0.849363 0.000000
0.643122 0.849210 0.000000
0.674983 0.849058 0.000000
0.706874 0.848905 0.000000
0.738705 0.848753 0.000000
0.770504 0.848539 0.000000
0.802335 0.848356 0.000000
0.834134 0.848142 0.000000
0.873075 0.854917 0.000000
0.914733 0.863554 0.000000
0.956481 0.872435 0.000000
0.989349 0.871733 0.000000
0.000000 0.883604 0.000000
0.000000 0.883574 0.000000
0.000000 0.883543 0.000000
0.000000 0.883543 0.000000
0.000000 0.883513 0.000000
0.000000 0.883452 0.000000
0.000000 0.883360 0.000000
0.000000 0.883299 0.000000
0.113008 0.883177 0.000000
0.180209 0.883055 0.000000
0.231296 0.882872 0.000000
0.276310 0.882719 0.000000
0.317845 0.882536 0.000000
0.357427 0.882322 0.000000
0.395483 0.882109 0.000000
0.432532 0.881834 0.000000
0.468940 0.881559 0.000000
0.504662 0.881254 0.000000
0.540063 0.880888 0.000000
0.575097 0.880552 0.000000
0.607294 0.880400 0.000000
0.639277 0.880308 0.000000
0.671199 0.880156 0.000000
0.703029 0.880034 0.000000
0.734920 0.879881 0.000000
0.766690 0.879728 0.000000
0.798489 0.879545 0.000000
0.830289 0.879332 0.000000
0.862058 0.879149 0.000000
0.901152 0.886137 0.000000
0.943847 0.895872 0.000000
0.988098 0.906798 0.000000
0.000000 0.914336 0.000000
0.000000 0.914336 0.000000
0.000000 0.914336 0.000000
0.000000 0.914305 0.000000
0.000000 0.914275 0.000000
0.000000 0.914214 0.000000
0.000000 0.914153 0.000000
0.000000 0.914061 0.000000
0.069886 0.913970 0.000000
0.159304 0.913848 0.000000
0.216068 0.913695 0.000000
0.263981 0.913573 0.000000
0.307256 0.913390 0.000000
0.347936 0.913207 0.000000
0.386877 0.912963 0.000000
