其他预设/【213】赛博朋克科幻预设52款/1.LUT预设（视频调色-PR-AE-PS-FCPX-达芬奇用）/赛博朋克科幻__-9 强度4.cube
# Created by Adobe Lightroom plugin Export LUT (1.17.0)
# www.johnrellis.com/lightroom/exportlut.htm
# Preset: 赛博朋克科幻[素锦印象]-9 强度4
# Color profile: /Library/Application Support/Adobe/Color/Profiles/Recommended/AdobeRGB1998.icc
LUT_3D_SIZE 32
0.000000 0.000000 0.000000
0.025879 0.001526 0.001373
0.057435 0.003906 0.002411
0.083101 0.007996 0.006653
0.108309 0.013733 0.010956
0.135348 0.020020 0.016205
0.164431 0.028534 0.020844
0.196109 0.037537 0.023438
0.231113 0.048127 0.026490
0.269688 0.056397 0.023987
0.312657 0.062654 0.018982
0.358862 0.068177 0.008881
0.407324 0.074678 0.000000
0.456764 0.082246 0.000000
0.505791 0.090822 0.000000
0.553399 0.099062 0.000000
0.598474 0.107454 0.000000
0.640101 0.116243 0.000000
0.677119 0.124666 0.000000
0.711177 0.132723 0.000000
0.742794 0.140536 0.000000
0.772274 0.147707 0.000000
0.799680 0.155245 0.000000
0.825132 0.162722 0.000000
0.848814 0.170291 0.000000
0.870878 0.178622 0.049592
0.891417 0.187747 0.082429
0.910613 0.197940 0.107668
0.928618 0.209323 0.132174
0.945525 0.222812 0.157168
0.961364 0.238560 0.183719
0.976165 0.257450 0.212436
0.006348 0.013825 0.010620
0.030457 0.023041 0.001648
0.059754 0.013855 0.000000
0.080537 0.025727 0.011933
0.105531 0.032105 0.017395
0.133028 0.039857 0.021454
0.162478 0.047242 0.025116
0.194369 0.054170 0.028840
0.229496 0.060853 0.029725
0.268254 0.065736 0.027161
0.311223 0.070619 0.022187
0.357580 0.076265 0.011933
0.406104 0.082460 0.000000
0.455665 0.089845 0.000000
0.504875 0.097597 0.000000
0.552544 0.105959 0.000000
0.597650 0.114473 0.000000
0.639429 0.122377 0.000000
0.676570 0.130251 0.000000
0.710719 0.138033 0.000000
0.742397 0.145296 0.000000
0.771908 0.152193 0.000000
0.799374 0.159396 0.000000
0.824887 0.166445 0.000000
0.848600 0.173922 0.000000
0.870695 0.181918 0.052857
0.891234 0.190738 0.083986
0.910430 0.200839 0.109010
0.928466 0.212161 0.133364
0.945373 0.225406 0.158419
0.961242 0.241062 0.184878
0.976013 0.259739 0.213596
0.015290 0.032959 0.023957
0.027619 0.046143 0.024720
0.062715 0.051850 0.004547
0.085969 0.031281 0.000000
0.102480 0.052308 0.025696
0.129885 0.058717 0.028748
0.159640 0.062379 0.032349
0.191867 0.066133 0.033906
0.227237 0.070405 0.033783
0.266178 0.075013 0.031159
0.309270 0.079774 0.025055
0.355749 0.085481 0.014618
0.404395 0.091676 0.000000
0.454078 0.099184 0.000000
0.503410 0.106935 0.000000
0.551446 0.114260 0.000000
0.596612 0.122347 0.000000
0.638544 0.129976 0.000000
0.675868 0.137179 0.000000
0.710079 0.144472 0.000000
0.741909 0.151247 0.000000
0.771481 0.157931 0.000000
0.798978 0.164706 0.000000
0.824521 0.171450 0.000000
0.848325 0.178622 0.000000
0.870420 0.186496 0.057893
0.891020 0.195041 0.086091
0.910246 0.204654 0.110811
0.928283 0.215671 0.134981
0.945190 0.228794 0.159976
0.961059 0.244175 0.186313
0.975860 0.262730 0.215061
0.038025 0.064088 0.053376
0.050752 0.068727 0.058015
0.060182 0.073152 0.056123
0.088563 0.076875 0.009400
0.114199 0.059510 0.000000
0.131350 0.069001 0.022004
0.153902 0.077668 0.046113
0.186679 0.081849 0.046387
0.222446 0.085817 0.044038
0.261723 0.090730 0.040131
0.305058 0.096040 0.032685
0.351934 0.101930 0.020844
0.400732 0.109010 0.006531
0.450721 0.115999 0.000000
0.500572 0.123384 0.000000
0.548791 0.130709 0.000000
0.594354 0.138033 0.000000
0.636591 0.144900 0.000000
0.674189 0.151461 0.000000
0.708644 0.157687 0.000000
0.740749 0.163607 0.000000
0.770474 0.169619 0.000000
0.798123 0.175723 0.000000
0.823789 0.181918 0.000000
0.847654 0.188449 0.012757
0.869841 0.195651 0.064820
0.890501 0.203647 0.090639
0.909758 0.212985 0.114809
0.927855 0.223423 0.138643
0.944793 0.236088 0.163394
0.960662 0.251072 0.189700
0.975463 0.269169 0.218418
0.060365 0.080049 0.070253
0.064546 0.083162 0.072023
0.069429 0.087922 0.073548
0.078340 0.093965 0.069764
0.116670 0.101289 0.017762
0.144289 0.080018 0.000000
0.171115 0.084627 0.000000
0.186160 0.095491 0.043305
0.215335 0.102785 0.055848
0.254978 0.108675 0.051789
0.298680 0.114778 0.044465
0.345800 0.121920 0.033021
0.395209 0.129244 0.018128
0.445563 0.136904 0.000000
0.495918 0.144167 0.000000
0.544610 0.151583 0.000000
0.590784 0.158358 0.000000
0.633478 0.164675 0.000000
0.671626 0.170443 0.000000
0.706538 0.175845 0.000000
0.738888 0.181094 0.000000
0.768917 0.186343 0.000000
0.796750 0.191592 0.000000
0.822629 0.197024 0.000000
0.846616 0.202792 0.035096
0.868956 0.209171 0.073701
0.889647 0.216678 0.097597
0.909026 0.224979 0.120760
0.927123 0.235142 0.144350
0.944121 0.247044 0.168734
0.960021 0.261448 0.195041
0.974853 0.278996 0.223575
0.069398 0.095277 0.082948
0.072358 0.098451 0.084413
0.076234 0.102419 0.085969
0.085267 0.111330 0.086854
0.099825 0.118379 0.077211
0.147616 0.127840 0.025177
0.177005 0.103059 0.000000
0.212558 0.107149 0.000000
0.233890 0.115175 0.000000
0.254246 0.124758 0.049134
0.290013 0.133700 0.058808
0.337621 0.142092 0.049775
0.387518 0.150423 0.035004
0.438697 0.158999 0.016602
0.489693 0.166812 0.000000
0.539208 0.174350 0.000000
0.586023 0.181186 0.000000
0.629328 0.187320 0.000000
0.668055 0.192416 0.000000
0.703578 0.197299 0.000000
0.736385 0.201724 0.000000
0.766812 0.206149 0.000000
0.794919 0.210636 0.000000
0.821012 0.215396 0.012146
0.845182 0.220432 0.059968
0.867674 0.226047 0.084199
0.888548 0.232792 0.106477
0.907988 0.240482 0.128817
0.926177 0.249790 0.151675
0.943236 0.261021 0.175967
0.959136 0.274937 0.202182
0.973999 0.291936 0.230747
0.078096 0.112093 0.095888
0.080690 0.114748 0.097353
0.084291 0.118471 0.098878
0.091920 0.126436 0.101289
0.103243 0.136049 0.098451
0.128267 0.148043 0.081514
0.181918 0.157107 0.027588
0.213443 0.128267 0.000000
0.253330 0.133700 0.000000
0.289677 0.141726 0.000000
0.312352 0.150576 0.000000
0.338231 0.160342 0.040620
0.378058 0.171145 0.057282
0.430060 0.180728 0.042145
0.482002 0.189639 0.020783
0.532280 0.197726 0.000366
0.579828 0.204929 0.000000
0.624140 0.210910 0.000000
0.663691 0.216007 0.000000
0.699855 0.220310 0.000000
0.733211 0.224369 0.000000
0.764096 0.228153 0.000000
0.792569 0.232029 0.007446
0.818997 0.235996 0.048676
0.843412 0.240482 0.075227
0.866056 0.245457 0.096071
0.887083 0.251377 0.117128
0.906676 0.258488 0.138430
0.924956 0.267094 0.160891
0.942077 0.277928 0.184970
0.958038 0.291020 0.211032
0.972869 0.307347 0.239628
0.088106 0.130495 0.110506
0.090242 0.132876 0.111696
0.093355 0.136202 0.113222
0.100252 0.143526 0.115816
0.111574 0.154940 0.117739
0.125490 0.163607 0.110903
0.162753 0.181430 0.085664
0.220127 0.189731 0.024659
0.254429 0.155764 0.000000
0.298741 0.163943 0.000000
0.346838 0.173678 0.000000
0.376959 0.182071 0.000000
0.403540 0.190097 0.000000
0.431800 0.200565 0.024262
0.472572 0.211765 0.052857
0.523919 0.220920 0.033570
0.572595 0.228611 0.014008
0.617762 0.235172 0.000000
0.658259 0.240177 0.000000
0.695308 0.244388 0.000000
0.729335 0.248264 0.000000
0.760739 0.251743 0.019226
0.789731 0.254978 0.050813
0.816495 0.258610 0.072175
0.841215 0.262303 0.090669
0.864103 0.266911 0.109590
0.885313 0.272190 0.129152
0.905058 0.278630 0.149752
0.923461 0.286748 0.171969
0.940612 0.296727 0.195743
0.956634 0.309514 0.221836
0.971527 0.325170 0.250187
0.099489 0.151064 0.126833
0.101350 0.153262 0.127840
0.104463 0.156313 0.129458
0.110811 0.162966 0.132326
0.120943 0.173648 0.135409
0.134310 0.186526 0.134432
0.152132 0.194644 0.125216
0.202487 0.219028 0.089967
0.263279 0.226230 0.015045
0.299260 0.191409 0.000000
0.349584 0.196567 0.000000
0.400305 0.207584 0.000000
0.445655 0.217655 0.000000
0.471473 0.223941 0.000000
0.498482 0.231662 0.000000
0.525780 0.241855 0.010101
0.563806 0.251987 0.057221
0.610163 0.259159 0.045441
0.651881 0.264744 0.035920
0.689876 0.269169 0.037140
0.724697 0.272892 0.048310
0.756832 0.276036 0.062806
0.786343 0.279118 0.075624
0.813504 0.282292 0.090486
0.838560 0.285832 0.106783
0.861753 0.289708 0.123964
0.883207 0.294499 0.142763
0.903075 0.300450 0.162814
0.921630 0.308141 0.184634
0.938903 0.317723 0.208286
0.954955 0.329870 0.234226
0.969879 0.344976 0.262638
0.111818 0.173922 0.144961
0.113863 0.175845 0.145968
0.116579 0.178592 0.147341
0.122347 0.185031 0.150179
0.131716 0.194827 0.153780
0.144869 0.208194 0.156161
0.160342 0.219913 0.151156
0.182528 0.229587 0.140597
0.247990 0.261570 0.092988
0.311864 0.267613 0.000000
0.348577 0.230411 0.000000
0.404242 0.230869 0.000000
0.456031 0.242313 0.000000
0.507195 0.253208 0.000000
0.538354 0.259190 0.000000
0.562799 0.263981 0.000000
0.587121 0.271031 0.000000
0.610895 0.280583 0.024475
0.644404 0.288914 0.071382
0.683497 0.293736 0.072267
0.719326 0.297704 0.076539
0.752163 0.300969 0.084840
0.782345 0.303960 0.095521
0.809995 0.306859 0.108461
0.835477 0.309972 0.123262
0.858976 0.313664 0.139651
0.880705 0.318120 0.157748
0.900816 0.323766 0.177462
0.919493 0.330968 0.199039
0.936858 0.340154 0.222507
0.953002 0.351812 0.248356
0.967926 0.366522 0.276860
0.125460 0.198337 0.164553
0.127321 0.200412 0.165499
0.129763 0.203098 0.166903
0.135317 0.209018 0.169680
0.144106 0.218235 0.173495
0.156558 0.230747 0.177066
0.172671 0.247013 0.178073
0.190158 0.257267 0.169253
0.220951 0.272679 0.152255
0.299107 0.308782 0.094514
0.364874 0.312688 0.000000
0.401038 0.272282 0.000000
0.460975 0.266545 0.000000
0.512016 0.277104 0.000000
0.561028 0.286839 0.000000
0.601373 0.293645 0.000000
0.622522 0.295750 0.000000
0.643122 0.299504 0.000000
0.662928 0.305791 0.000000
0.682673 0.315587 0.071199
0.713130 0.322515 0.098177
0.746883 0.325963 0.105318
0.777707 0.329137 0.114778
0.805936 0.331975 0.126741
0.831907 0.334966 0.140810
0.855772 0.338445 0.156680
0.877775 0.342687 0.174136
0.898100 0.348089 0.193576
0.916960 0.354986 0.215061
0.934478 0.363867 0.238468
0.950683 0.375189 0.264317
0.965667 0.389532 0.292760
0.139956 0.224887 0.185641
0.141787 0.226688 0.186587
0.144198 0.229252 0.187991
0.149325 0.234836 0.190616
0.157687 0.243748 0.194491
0.169223 0.255772 0.198764
0.184421 0.271366 0.201846
0.201846 0.286961 0.198642
0.224277 0.298466 0.188510
0.266606 0.321141 0.162387
0.354345 0.359319 0.094057
0.420478 0.359960 0.000000
0.454841 0.315831 0.000000
0.517815 0.302647 0.000000
0.566217 0.311192 0.000000
0.611536 0.318791 0.000000
0.652735 0.324224 0.000000
0.674739 0.325078 0.000000
0.691768 0.325719 0.000000
0.709194 0.329717 0.000000
0.726680 0.337377 0.000000
0.743893 0.348974 0.114717
0.772427 0.354376 0.134493
0.801328 0.357336 0.145937
0.827848 0.360327 0.159426
0.852140 0.363836 0.174685
0.874479 0.367987 0.192020
0.895048 0.373297 0.211337
0.914092 0.380011 0.232578
0.931731 0.388647 0.255985
0.948028 0.399695 0.281773
0.963043 0.413642 0.310277
0.155215 0.253086 0.208042
0.156893 0.254887 0.208957
0.159121 0.257359 0.210239
0.164065 0.262852 0.212955
0.172061 0.271336 0.216861
0.183047 0.283024 0.221439
0.197330 0.297917 0.225559
0.215396 0.315862 0.227420
0.234714 0.329808 0.220157
0.261723 0.342565 0.208743
0.316594 0.372198 0.172519
0.411749 0.411383 0.091920
0.476692 0.407904 0.000000
0.508690 0.360021 0.000000
0.572229 0.337682 0.000000
0.616999 0.343664 0.000000
0.657221 0.348028 0.000000
0.692805 0.350805 0.000000
0.719783 0.351232 0.000000
0.734951 0.350134 0.000000
0.750576 0.351995 0.000000
0.766018 0.357855 0.000000
0.781247 0.368048 0.094026
0.796139 0.382788 0.165896
0.823239 0.386053 0.179019
0.847990 0.389593 0.194217
0.870695 0.393835 0.211337
0.891539 0.399084 0.230533
0.910826 0.405646 0.251652
0.928618 0.414191 0.275120
0.945006 0.425025 0.300816
0.960082 0.438697 0.329290
0.170932 0.283268 0.231846
0.172702 0.284977 0.232700
0.174685 0.287449 0.233982
0.179690 0.292576 0.236667
0.187198 0.300725 0.240482
0.197879 0.311833 0.245182
0.211673 0.326055 0.250034
0.229129 0.343206 0.253696
0.249638 0.361791 0.253117
0.271519 0.374701 0.243198
0.302220 0.388434 0.230777
0.369726 0.424598 0.182498
0.469154 0.463050 0.090150
0.531487 0.454627 0.000000
0.562890 0.405005 0.000000
0.622980 0.370886 0.000000
0.662226 0.373327 0.000000
0.697078 0.374487 0.000000
0.728511 0.375006 0.000000
0.757931 0.374731 0.000000
0.773465 0.372869 0.000000
0.787503 0.372778 0.000000
0.801358 0.376867 0.000000
0.814847 0.385870 0.062348
0.827695 0.400275 0.159915
0.843320 0.415534 0.214939
0.866453 0.419867 0.231937
0.887633 0.425208 0.250980
0.907134 0.431830 0.272160
0.925078 0.440314 0.295476
0.941588 0.451057 0.321263
0.956786 0.464485 0.349676
0.187564 0.314824 0.256748
0.189181 0.316442 0.257664
0.191226 0.318669 0.258885
0.196109 0.323674 0.261418
0.203616 0.331518 0.265171
0.213962 0.342046 0.269963
0.227451 0.355474 0.275151
0.244205 0.371527 0.280003
0.264744 0.390356 0.283268
0.285801 0.406897 0.278416
0.311162 0.420417 0.267765
0.345495 0.435859 0.253025
0.423438 0.475990 0.193332
0.524620 0.512383 0.090242
0.582879 0.498573 0.000000
0.613275 0.447395 0.000000
0.667750 0.400916 0.000000
0.701686 0.400031 0.000000
0.732631 0.398718 0.000000
0.761471 0.397498 0.000000
0.788357 0.396063 0.000000
0.807919 0.393774 0.000000
0.820584 0.392065 0.000000
0.833097 0.394476 0.000000
0.845121 0.402258 0.000000
0.856413 0.416327 0.151797
0.866606 0.437720 0.232242
0.883207 0.451606 0.272831
0.902983 0.458381 0.293950
0.921111 0.466865 0.317296
0.937804 0.477424 0.343023
0.953063 0.490730 0.371405
0.205234 0.347295 0.282658
0.206851 0.348943 0.283574
0.208804 0.350988 0.284581
0.213535 0.355718 0.287083
0.220829 0.363073 0.290867
0.231205 0.373022 0.295628
0.244297 0.385443 0.301030
0.260594 0.400580 0.306584
0.280247 0.418219 0.311345
0.303624 0.438148 0.313756
0.324468 0.451911 0.304997
0.352697 0.465827 0.293797
0.394110 0.486793 0.270512
0.476173 0.524743 0.205905
0.576501 0.557977 0.095155
0.629297 0.538445 0.000000
0.657343 0.485573 0.000000
0.704280 0.434180 0.000000
0.737057 0.424567 0.000000
0.765377 0.421515 0.000000
0.791775 0.418677 0.000000
0.816464 0.415961 0.000000
0.838804 0.412482 0.000000
0.850278 0.409827 0.000000
0.861662 0.410773 0.000000
0.872496 0.417395 0.000000
0.882475 0.431098 0.142061
0.891295 0.453376 0.234409
0.898680 0.484352 0.315709
0.916747 0.493477 0.340337
0.933562 0.504082 0.365972
0.948943 0.517235 0.394232
0.224155 0.380285 0.309300
0.225650 0.381720 0.310063
0.227848 0.383764 0.311192
0.232364 0.388159 0.313573
0.239658 0.395026 0.317235
0.249699 0.404334 0.321965
0.262516 0.415991 0.327398
0.278264 0.430030 0.333257
0.297154 0.446326 0.338903
0.319371 0.464668 0.343297
0.341955 0.482338 0.342107
0.364843 0.495705 0.332708
0.394720 0.509422 0.321141
0.442695 0.534905 0.288823
0.525933 0.569574 0.220859
0.622431 0.597986 0.107698
0.669459 0.573449 0.000000
0.695735 0.519738 0.000000
0.736904 0.465614 0.000000
0.769497 0.447608 0.000000
0.795438 0.443000 0.000000
0.819669 0.438575 0.000000
0.842313 0.434516 0.000000
0.863188 0.430060 0.000000
0.876982 0.426490 0.000000
0.887449 0.425727 0.000000
0.897337 0.431281 0.000000
0.906310 0.444800 0.129488
0.913848 0.468208 0.236912
0.919768 0.501610 0.327184
0.928954 0.530663 0.389776
0.944457 0.543694 0.417853
0.244419 0.413184 0.336339
0.246006 0.414557 0.337133
0.247959 0.416510 0.338201
0.252567 0.420569 0.340551
0.259648 0.426978 0.344152
0.269444 0.435584 0.348638
0.281865 0.446418 0.354131
0.296971 0.459327 0.360082
0.315221 0.474311 0.366217
0.336370 0.491310 0.371954
0.360662 0.509850 0.376226
0.381537 0.524407 0.371008
0.406073 0.537621 0.361456
0.436591 0.550988 0.349950
0.490425 0.579614 0.308812
0.571588 0.609583 0.238895
0.664149 0.633845 0.125978
0.705867 0.605310 0.000000
0.730434 0.551385 0.000000
0.766903 0.495338 0.000000
0.799222 0.469184 0.000000
0.822995 0.463142 0.000000
0.845304 0.457221 0.000000
0.866148 0.451911 0.000000
0.885557 0.446387 0.000000
0.901152 0.441566 0.000000
0.910887 0.439643 0.000000
0.920043 0.444038 0.000000
0.928130 0.457465 0.113863
0.934569 0.482277 0.239506
0.939086 0.518639 0.339788
0.941680 0.564263 0.432624
0.266270 0.446815 0.364446
0.267796 0.448066 0.365209
0.269749 0.449775 0.366186
0.274296 0.453620 0.368414
0.281132 0.459480 0.371832
0.290837 0.467475 0.376287
0.302831 0.477455 0.381689
0.317723 0.489357 0.387701
0.335271 0.503105 0.394171
0.355474 0.518517 0.400610
0.378698 0.535515 0.406378
0.403021 0.552941 0.409369
0.422889 0.565576 0.401770
0.448127 0.578210 0.392370
0.478370 0.590631 0.381079
0.535943 0.620233 0.331426
0.614038 0.646021 0.260288
0.701747 0.666316 0.150484
0.739101 0.634638 0.049805
0.762203 0.580835 0.000000
0.794430 0.523369 0.000000
0.826474 0.489418 0.000000
0.848295 0.482033 0.000000
0.868833 0.474800 0.000000
0.888060 0.468116 0.000000
0.906157 0.461677 0.000000
0.922087 0.455573 0.000000
0.932280 0.452674 0.000000
0.940917 0.455787 0.000000
0.948302 0.469032 0.092226
0.953735 0.495583 0.242191
0.956786 0.535760 0.354040
0.290074 0.480995 0.393591
0.291691 0.482216 0.394324
0.293614 0.483864 0.395331
0.297978 0.487343 0.397436
0.304723 0.492805 0.400671
0.314153 0.500053 0.405035
0.325933 0.509178 0.410254
0.340246 0.519951 0.416236
0.357183 0.532464 0.422766
0.376745 0.546441 0.429633
0.398871 0.562005 0.436469
0.423346 0.578424 0.442573
0.444495 0.592523 0.441657
0.465064 0.604181 0.434272
0.490059 0.615717 0.425330
0.520958 0.629419 0.410071
0.578790 0.656947 0.356786
0.653162 0.679133 0.284977
0.735744 0.695521 0.180636
0.769436 0.661769 0.105013
0.791165 0.608301 0.000000
0.819608 0.550011 0.000000
0.851377 0.508324 0.000000
0.871397 0.499825 0.000000
0.890410 0.491310 0.000000
0.908293 0.483345 0.000000
0.925231 0.475868 0.000000
0.940154 0.469337 0.000000
0.951873 0.464881 0.000000
0.960143 0.466560 0.000000
0.966979 0.479622 0.052613
0.971435 0.508324 0.245243
0.316045 0.515496 0.423743
0.317510 0.516564 0.424384
0.319402 0.518059 0.425360
0.323766 0.521233 0.427375
0.330388 0.526177 0.430518
0.339574 0.532738 0.434607
0.350927 0.541009 0.439643
0.364874 0.550774 0.445563
0.381140 0.562158 0.452094
0.400000 0.574701 0.459174
0.420966 0.588373 0.466407
0.444373 0.602808 0.473518
0.469581 0.617823 0.480110
0.486671 0.628870 0.475196
0.506950 0.639582 0.468269
0.530938 0.650111 0.459754
0.563317 0.666194 0.437995
0.618860 0.690059 0.384649
0.689235 0.709194 0.312352
0.766781 0.722316 0.213230
0.796933 0.686946 0.146975
0.817502 0.633997 0.016327
0.842679 0.575006 0.000000
0.874144 0.526024 0.000000
0.892638 0.516442 0.000000
0.910277 0.506798 0.000000
0.927062 0.497658 0.000000
0.942931 0.489296 0.000000
0.957031 0.482185 0.000000
0.969909 0.476143 0.000000
0.977905 0.476478 0.000000
0.984283 0.489235 0.000000
0.344121 0.549798 0.454536
0.345464 0.550805 0.455207
0.347295 0.552026 0.456062
0.351568 0.554925 0.458015
0.358007 0.559442 0.461006
0.366918 0.565393 0.465034
0.378027 0.572778 0.469856
0.391394 0.581384 0.475532
0.407233 0.591272 0.481941
0.425208 0.602228 0.488808
0.445350 0.614069 0.496284
0.467323 0.626764 0.503868
0.491066 0.639979 0.511406
0.512322 0.652369 0.514855
0.528313 0.662287 0.509575
0.547784 0.672114 0.503075
0.570336 0.681666 0.495094
0.603510 0.699367 0.467262
0.656153 0.720089 0.414405
0.722255 0.736538 0.342016
0.795041 0.746944 0.247623
0.821927 0.710201 0.185855
0.841367 0.658076 0.106752
0.863737 0.598840 0.000000
0.894957 0.542840 0.000000
0.912108 0.532158 0.000000
0.928679 0.521263 0.000000
0.944488 0.511009 0.000000
0.959411 0.501793 0.000000
0.972686 0.494331 0.000000
0.985626 0.487037 0.000000
0.994263 0.485634 0.000000
0.374243 0.583459 0.485908
0.375616 0.584314 0.486519
0.377417 0.585443 0.487312
0.381567 0.587945 0.489113
0.387854 0.591791 0.491920
0.396429 0.596918 0.495613
0.407111 0.603235 0.500175
0.419959 0.610681 0.505547
0.435187 0.619257 0.511711
0.452277 0.628717 0.518517
0.471229 0.639094 0.525902
0.491920 0.650111 0.533654
0.514122 0.661707 0.541772
0.537407 0.673823 0.549798
0.553338 0.683925 0.549035
0.568872 0.693050 0.544213
0.587152 0.701961 0.538231
0.608026 0.710628 0.530846
0.641260 0.729274 0.497566
0.690700 0.747341 0.445533
0.752529 0.761410 0.373785
0.820676 0.769497 0.283726
0.844480 0.731868 0.224979
0.863005 0.680629 0.153719
0.882963 0.621424 0.000000
0.912596 0.564569 0.000000
0.930053 0.546960 0.000000
0.945708 0.534905 0.000000
0.960662 0.523522 0.000000
0.974670 0.513542 0.000000
0.987243 0.505669 0.000000
0.999481 0.498054 0.000000
0.406775 0.615290 0.517174
0.408026 0.615991 0.517662
0.409827 0.616968 0.518425
0.413733 0.619074 0.520134
0.419806 0.622370 0.522698
0.427924 0.626734 0.526207
0.438148 0.632166 0.530419
0.450355 0.638636 0.535546
0.464576 0.646021 0.541466
0.480720 0.654231 0.547967
0.498543 0.663264 0.555261
0.517784 0.672908 0.563043
0.538201 0.683131 0.571008
0.559289 0.693874 0.578943
0.579675 0.704738 0.585382
0.592096 0.713130 0.581964
0.606867 0.721431 0.577569
0.623957 0.729519 0.572229
0.643275 0.737362 0.565545
0.676539 0.756374 0.528466
0.722499 0.772000 0.477455
0.780026 0.784054 0.406897
0.843778 0.790280 0.321172
0.864836 0.751980 0.263737
0.882536 0.701961 0.195804
0.900481 0.643000 0.101564
0.928679 0.586114 0.000000
0.946624 0.560876 0.000000
0.961486 0.547601 0.000000
0.975677 0.534997 0.000000
0.988800 0.524559 0.000000
1.000000 0.516258 0.000000
0.440925 0.645258 0.548119
0.442176 0.645777 0.548608
0.443854 0.646693 0.549371
0.447578 0.648463 0.550896
0.453254 0.651301 0.553277
0.460945 0.655055 0.556542
0.470527 0.659724 0.560601
0.482033 0.665278 0.565393
0.495369 0.671626 0.571008
0.510460 0.678767 0.577356
0.526757 0.686641 0.584253
0.544305 0.695155 0.591547
0.562707 0.704189 0.599115
0.581842 0.713710 0.606775
0.601495 0.723659 0.614374
0.616571 0.732570 0.616693
0.628534 0.740230 0.613581
0.642481 0.747738 0.609644
0.658320 0.755001 0.604761
0.677333 0.764462 0.593835
0.709010 0.780941 0.558679
0.751705 0.794430 0.510124
0.805203 0.804807 0.440711
0.864714 0.809415 0.359258
0.883238 0.770932 0.302861
0.900267 0.722164 0.235843
0.916808 0.663844 0.150790
0.943450 0.606683 0.000000
0.961883 0.573907 0.000000
0.976043 0.559228 0.000000
0.989532 0.545586 0.000000
1.000000 0.534783 0.000000
0.476478 0.673518 0.578851
0.477638 0.674037 0.579370
0.479225 0.674769 0.580041
0.482704 0.676295 0.581506
0.487984 0.678706 0.583703
0.495155 0.681941 0.586786
0.504112 0.685908 0.590570
0.514702 0.690700 0.595087
0.526848 0.696254 0.600275
0.540307 0.702449 0.606043
0.555047 0.709346 0.612390
0.570794 0.716823 0.619165
0.587396 0.724788 0.626246
0.604791 0.733272 0.633539
0.622583 0.742092 0.640894
0.640864 0.751278 0.648127
0.651392 0.758480 0.646754
0.662715 0.765377 0.643946
0.675715 0.772091 0.640375
0.690272 0.778592 0.635828
0.709102 0.789120 0.621210
0.738949 0.803342 0.587976
0.778500 0.814969 0.542016
0.828092 0.823850 0.475013
0.883482 0.826993 0.397833
0.899809 0.788754 0.342199
0.916289 0.741390 0.275181
0.932372 0.684321 0.192508
0.956939 0.626398 0.019318
0.975830 0.586023 0.000000
0.989441 0.569818 0.000000
1.000000 0.555138 0.000000
0.512871 0.700313 0.609339
0.513970 0.700740 0.609827
0.515435 0.701381 0.610407
0.518486 0.702724 0.611719
0.523278 0.704799 0.613733
0.529747 0.707546 0.616571
0.537682 0.711025 0.619928
0.547082 0.715175 0.624018
0.557977 0.719997 0.628748
0.570031 0.725460 0.634028
0.583215 0.731472 0.639796
0.597406 0.738003 0.646021
0.612329 0.745052 0.652583
0.627985 0.752529 0.659419
0.644190 0.760342 0.666377
0.660731 0.768490 0.673365
0.674983 0.776242 0.677638
0.684169 0.782559 0.675685
0.694820 0.788724 0.673121
0.706783 0.794705 0.669764
0.720089 0.800443 0.665553
0.738613 0.811582 0.647852
0.766506 0.823880 0.616327
0.803098 0.833860 0.572747
0.849058 0.841367 0.509056
0.899107 0.842222 0.436896
0.914733 0.805539 0.381445
0.930694 0.759609 0.313756
0.946471 0.703761 0.230808
0.969268 0.645014 0.106874
0.988586 0.597070 0.000000
1.000000 0.579278 0.000000
0.548608 0.725917 0.639063
0.549554 0.726314 0.639429
0.550805 0.726864 0.639979
0.553521 0.727993 0.641169
0.557824 0.729793 0.643030
0.563500 0.732174 0.645472
0.570611 0.735195 0.648554
0.578912 0.738827 0.652216
0.588586 0.742977 0.656489
0.599451 0.747738 0.661250
0.611200 0.752987 0.666499
0.623926 0.758724 0.672206
0.637415 0.764889 0.678218
0.651484 0.771450 0.684565
0.666133 0.778347 0.691066
