其他预设/【213】赛博朋克科幻预设52款/1.LUT预设（视频调色-PR-AE-PS-FCPX-达芬奇用）/赛博朋克科幻__-7 强度3.cube
# Created by Adobe Lightroom plugin Export LUT (1.17.0)
# www.johnrellis.com/lightroom/exportlut.htm
# Preset: 赛博朋克科幻[素锦印象]-7 强度3
# Color profile: /Library/Application Support/Adobe/Color/Profiles/Recommended/AdobeRGB1998.icc
LUT_3D_SIZE 5
DOMAIN_MIN 0.000000 0.000000 0.000000
DOMAIN_MAX 0.903226 0.903226 0.903226
0.041291 0.081605 0.069551
0.264958 0.128634 0.028931
0.620905 0.236790 0.000000
0.874662 0.315648 0.000000
1.000000 0.362493 0.000000
0.000000 0.170748 0.077699
0.239261 0.191440 0.084779
0.609796 0.266697 0.000000
0.872190 0.337255 0.000000
1.000000 0.377508 0.000000
0.000000 0.357397 0.126467
0.132723 0.383337 0.156893
0.584588 0.419532 0.157900
0.860044 0.407416 0.000000
1.000000 0.426032 0.000000
0.000000 0.582483 0.183230
0.000000 0.601282 0.193698
0.426978 0.659327 0.309880
0.858244 0.625360 0.318425
1.000000 0.563378 0.239445
0.000000 0.830381 0.233921
0.000000 0.840208 0.234989
0.449744 0.856199 0.436805
0.812009 0.893248 0.551110
1.000000 0.809842 0.560967
0.000000 0.172244 0.192142
0.216678 0.129152 0.164065
0.589166 0.246799 0.111574
0.864225 0.326665 0.000000
1.000000 0.368658 0.000000
0.000000 0.260960 0.217075
0.193240 0.217746 0.195377
0.575586 0.285283 0.159121
0.861051 0.350225 0.000000
1.000000 0.382238 0.000000
0.000000 0.378485 0.205661
0.130922 0.391943 0.209628
0.553887 0.431586 0.261967
0.847959 0.434485 0.201450
1.000000 0.444465 0.000000
0.000000 0.585962 0.223453
0.000000 0.604425 0.240726
0.443977 0.654261 0.370916
0.844877 0.643153 0.393469
1.000000 0.588525 0.328832
0.000000 0.829831 0.266636
0.000000 0.839902 0.263767
0.417639 0.857176 0.434119
0.797360 0.892912 0.580774
1.000000 0.822721 0.595392
0.000000 0.413947 0.472694
0.000000 0.332189 0.438514
0.499611 0.239719 0.347021
0.834104 0.420081 0.339788
1.000000 0.451728 0.276799
0.000000 0.475227 0.481147
0.000000 0.432136 0.465064
0.487770 0.308110 0.365240
0.827176 0.450782 0.366033
1.000000 0.468635 0.293065
0.000000 0.609094 0.508873
0.000000 0.583246 0.492287
0.449592 0.462776 0.423011
0.809598 0.531151 0.430610
1.000000 0.538506 0.367987
0.000000 0.665309 0.442084
0.000000 0.659876 0.429175
0.401129 0.649500 0.431861
0.801328 0.685969 0.539666
1.000000 0.664179 0.504326
0.000000 0.858000 0.433082
0.000000 0.859007 0.407691
0.229831 0.859037 0.419379
0.749325 0.887572 0.646052
1.000000 0.855314 0.675715
0.000000 0.630915 0.726192
0.000000 0.610468 0.722316
0.378088 0.398535 0.651942
0.757565 0.416114 0.538872
0.991577 0.680903 0.617975
0.000000 0.673823 0.726162
0.000000 0.650263 0.723293
0.387396 0.476722 0.665705
0.751369 0.459876 0.552178
0.990906 0.690700 0.624689
0.000000 0.767361 0.732326
0.000000 0.752377 0.728634
0.473121 0.699611 0.708095
0.733089 0.568627 0.590631
0.991669 0.715938 0.639155
0.000000 0.877928 0.733761
0.000000 0.870542 0.730434
0.341802 0.828031 0.715999
0.700771 0.701961 0.645472
0.992340 0.761532 0.663844
0.000000 0.945953 0.685451
0.000000 0.942870 0.670222
0.000000 0.915312 0.632380
0.650965 0.876310 0.646113
0.987518 0.895659 0.766995
0.000000 0.753658 0.891325
0.000000 0.763424 0.889433
0.502861 0.747829 0.871611
0.751369 0.623011 0.819516
0.962036 0.666621 0.736843
0.000000 0.775937 0.890929
0.000000 0.785550 0.889036
0.499489 0.776394 0.876066
0.750271 0.657771 0.826017
0.960357 0.682612 0.743069
0.000000 0.832822 0.891600
0.000000 0.837919 0.890196
0.346136 0.838163 0.885893
0.748653 0.754177 0.848722
0.955627 0.729885 0.762478
0.000000 0.931090 0.891600
0.000000 0.935760 0.890440
0.000000 0.929686 0.888457
0.774289 0.905577 0.881346
0.946746 0.805081 0.794980
0.000000 1.000000 0.893645
0.000000 1.000000 0.892699
0.000000 1.000000 0.877806
0.602075 1.000000 0.878874
0.923430 0.913725 0.842527
