其他预设/【213】赛博朋克科幻预设52款/1.LUT预设（视频调色-PR-AE-PS-FCPX-达芬奇用）/赛博朋克科幻__-12 强度5.cube
# Created by Adobe Lightroom plugin Export LUT (1.17.0)
# www.johnrellis.com/lightroom/exportlut.htm
# Preset: 赛博朋克科幻[素锦印象]-12 强度5
# Color profile: /Library/Application Support/Adobe/Color/Profiles/Recommended/AdobeRGB1998.icc
LUT_3D_SIZE 5
DOMAIN_MIN 0.000000 0.000000 0.000000
DOMAIN_MAX 0.903226 0.903226 0.903226
0.100649 0.103853 0.103914
0.116182 0.120333 0.120211
0.225895 0.236606 0.236240
0.418250 0.440223 0.439399
0.669337 0.706142 0.704768
0.080812 0.248966 0.078004
0.163210 0.245792 0.075288
0.249912 0.222751 0.201358
0.447761 0.445869 0.446265
0.686366 0.724117 0.722744
0.000000 0.634668 0.000000
0.000000 0.637232 0.000000
0.390173 0.628992 0.000000
0.583124 0.606622 0.000000
0.717586 0.671107 0.625513
0.000000 0.894102 0.000000
0.000000 0.895659 0.000000
0.000000 0.900725 0.000000
0.530327 0.887663 0.000000
0.775051 0.907012 0.000000
0.000000 1.000000 0.000000
0.000000 1.000000 0.000000
0.000000 1.000000 0.000000
0.000000 1.000000 0.000000
0.585138 1.000000 0.000000
0.139925 0.145113 0.146059
0.146883 0.153079 0.152743
0.259648 0.272282 0.271824
0.449348 0.473121 0.472267
0.680812 0.718288 0.716915
0.127169 0.171450 0.163149
0.187839 0.196292 0.195987
0.301762 0.316869 0.316350
0.479591 0.505150 0.504204
0.696376 0.734737 0.733333
0.000000 0.608728 0.000000
0.000000 0.606622 0.000000
0.400732 0.601709 0.000000
0.641260 0.619989 0.045533
0.730648 0.710018 0.692042
0.000000 0.887144 0.000000
0.000000 0.888304 0.000000
0.184512 0.889067 0.000000
0.577539 0.877287 0.000000
0.786221 0.902129 0.000000
0.000000 1.000000 0.000000
0.000000 1.000000 0.000000
0.000000 1.000000 0.000000
0.045991 1.000000 0.000000
0.609430 1.000000 0.000000
0.310307 0.324376 0.326390
0.315312 0.331243 0.330663
0.336889 0.354040 0.353429
0.500450 0.527276 0.526268
0.706783 0.745785 0.744350
0.312596 0.324437 0.331334
0.325902 0.342473 0.341802
0.365301 0.384131 0.383459
0.530632 0.559197 0.558160
0.718563 0.758267 0.756771
0.257847 0.421637 0.392554
0.317418 0.442939 0.420203
0.477974 0.503441 0.502495
0.610315 0.643610 0.642359
0.758877 0.800931 0.799374
0.000000 0.863645 0.181338
0.000000 0.869718 0.100282
0.204623 0.866850 0.120302
0.587152 0.856260 0.000000
0.844327 0.874235 0.367895
0.000000 1.000000 0.000000
0.000000 1.000000 0.000000
0.000000 1.000000 0.000000
0.304540 1.000000 0.000000
0.681056 1.000000 0.000000
0.571923 0.601038 0.603204
0.575250 0.606470 0.605341
0.588739 0.620752 0.619562
0.612543 0.645991 0.644739
0.762936 0.805264 0.803677
0.558709 0.587579 0.588922
0.562951 0.593439 0.592279
0.577996 0.609400 0.608240
0.606836 0.639918 0.638697
0.760555 0.802762 0.801205
0.606561 0.630671 0.657710
0.615839 0.641596 0.660243
0.635615 0.670405 0.669093
0.663935 0.700404 0.699031
0.786374 0.830106 0.828458
0.499001 0.716304 0.677272
0.534874 0.723049 0.689326
0.626642 0.744259 0.724941
0.740963 0.782010 0.780453
0.832547 0.878996 0.877256
0.000000 1.000000 0.415381
0.000000 1.000000 0.402350
0.000000 1.000000 0.325841
0.381445 1.000000 0.351720
0.740139 1.000000 0.364233
0.814420 0.857969 0.859464
0.815824 0.861265 0.859586
0.821469 0.867247 0.865568
0.831693 0.878111 0.876371
0.846494 0.893767 0.891997
0.811948 0.854978 0.857267
0.813535 0.858488 0.857389
0.819455 0.865141 0.863432
0.830167 0.876493 0.874754
0.845609 0.892821 0.891081
0.803525 0.843778 0.850797
0.806027 0.847868 0.851835
0.812985 0.858274 0.856596
0.825345 0.871366 0.869657
0.842924 0.889952 0.888212
0.837308 0.882475 0.904295
0.839933 0.884092 0.903899
0.846464 0.889158 0.901305
0.852903 0.900542 0.898772
0.869444 0.918059 0.916258
0.748959 0.930022 0.898833
0.758572 0.931395 0.901915
0.790616 0.936492 0.912779
0.843870 0.947631 0.933318
0.919921 0.971527 0.969604
