其他预设/【213】赛博朋克科幻预设52款/1.LUT预设（视频调色-PR-AE-PS-FCPX-达芬奇用）/赛博朋克科幻__-12 强度1.cube
# Created by Adobe Lightroom plugin Export LUT (1.17.0)
# www.johnrellis.com/lightroom/exportlut.htm
# Preset: 赛博朋克科幻[素锦印象]-12 强度1
# Color profile: /Library/Application Support/Adobe/Color/Profiles/Recommended/AdobeRGB1998.icc
LUT_3D_SIZE 8
DOMAIN_MIN 0.000000 0.000000 0.000000
DOMAIN_MAX 0.903226 0.903226 0.903226
0.038697 0.040253 0.040070
0.116060 0.026276 0.034882
0.232212 0.049165 0.069490
0.360235 0.059632 0.093996
0.492042 0.083070 0.129152
0.622583 0.117433 0.170382
0.751919 0.165072 0.220859
0.877806 0.234348 0.287633
0.015534 0.130404 0.014313
0.119936 0.130770 0.006653
0.231357 0.128725 0.061097
0.359899 0.137179 0.090364
0.491798 0.150393 0.126986
0.622400 0.170291 0.168276
0.751797 0.204288 0.219028
0.877745 0.261021 0.286137
0.000000 0.267369 0.000000
0.114412 0.267063 0.000000
0.243076 0.266667 0.000000
0.365057 0.263920 0.044953
0.490639 0.269444 0.115633
0.621668 0.281346 0.159701
0.751278 0.300847 0.212039
0.877531 0.337469 0.280125
0.000000 0.412238 0.000000
0.093782 0.412207 0.000000
0.245304 0.411902 0.000000
0.374975 0.412177 0.000000
0.505455 0.412207 0.000000
0.622522 0.406836 0.131044
0.750423 0.418067 0.196139
0.877226 0.440833 0.267338
0.000000 0.558190 0.000000
0.000000 0.558129 0.000000
0.232456 0.557671 0.000000
0.376257 0.556634 0.000000
0.505394 0.555901 0.000000
0.638972 0.558801 0.000000
0.758450 0.549218 0.110262
0.876646 0.557610 0.244114
0.000000 0.693111 0.000000
0.000000 0.692958 0.000000
0.205722 0.692470 0.000000
0.360296 0.691524 0.000000
0.498146 0.690303 0.000000
0.626612 0.689570 0.000000
0.766323 0.699519 0.000000
0.890105 0.690913 0.000000
0.000000 0.821408 0.000000
0.000000 0.821225 0.000000
0.158053 0.820859 0.000000
0.335424 0.820127 0.000000
0.481758 0.818997 0.000000
0.614740 0.818051 0.000000
0.742336 0.817350 0.000000
0.885344 0.830991 0.000000
0.000000 0.944945 0.000000
0.000000 0.944854 0.000000
0.000000 0.944549 0.000000
0.294774 0.944030 0.000000
0.453071 0.943206 0.000000
0.596704 0.941985 0.000000
0.726253 0.941405 0.000000
0.853605 0.940826 0.000000
0.057923 0.027039 0.121035
0.122347 0.012970 0.122744
0.236820 0.063416 0.139986
0.364630 0.082582 0.161837
0.494911 0.104311 0.186526
0.624292 0.133974 0.217136
0.752590 0.178683 0.258640
0.877684 0.246738 0.318029
0.030182 0.121462 0.119722
0.123842 0.124941 0.124788
0.238102 0.133822 0.138735
0.364385 0.144869 0.158328
0.494697 0.159701 0.183871
0.624109 0.180179 0.214939
0.752468 0.214176 0.256718
0.877653 0.271305 0.316411
0.000000 0.263920 0.110262
0.109163 0.263493 0.108644
0.243565 0.263310 0.109194
0.365911 0.262333 0.141115
0.493660 0.272007 0.173281
0.623529 0.284794 0.206455
0.752071 0.305516 0.249516
0.877592 0.343694 0.310246
0.000000 0.411017 0.054536
0.072328 0.410407 0.065827
0.240757 0.410224 0.058991
0.375280 0.410193 0.068605
0.506035 0.409552 0.109804
0.622614 0.406897 0.187228
0.751308 0.419654 0.234684
0.877348 0.443977 0.297795
0.000000 0.557275 0.000000
0.000000 0.557183 0.000000
0.225589 0.556634 0.000000
0.374487 0.555535 0.000000
0.505760 0.554711 0.000000
0.640467 0.557397 0.000000
0.758358 0.548241 0.173922
0.876921 0.558709 0.276310
0.000000 0.692653 0.000000
0.000000 0.692500 0.000000
0.197360 0.691981 0.000000
0.357153 0.691005 0.000000
0.497475 0.689723 0.000000
0.627100 0.688869 0.000000
0.767239 0.698695 0.000000
0.889891 0.689754 0.137148
0.000000 0.821225 0.000000
0.000000 0.821134 0.000000
0.146059 0.820768 0.000000
0.331518 0.820005 0.000000
0.480049 0.818753 0.000000
0.614679 0.817716 0.000000
0.742916 0.816922 0.000000
0.887663 0.831846 0.000000
0.000000 0.945098 0.000000
0.000000 0.945006 0.000000
0.000000 0.944701 0.000000
0.288701 0.944121 0.000000
0.450355 0.943236 0.000000
0.595392 0.941985 0.000000
0.726284 0.941314 0.000000
0.854185 0.940612 0.000000
0.103487 0.012573 0.244694
0.150790 0.003449 0.245274
0.247959 0.024445 0.248997
0.371069 0.078065 0.268498
0.499977 0.117433 0.291356
0.628199 0.161593 0.318639
0.754757 0.208286 0.350835
0.877592 0.279637 0.400336
0.099245 0.120394 0.247044
0.151217 0.124941 0.247593
0.248936 0.127901 0.250309
0.372168 0.145510 0.269108
0.500786 0.169986 0.291569
0.628809 0.198489 0.317021
0.754788 0.237644 0.349584
0.877592 0.300023 0.398871
0.068574 0.247349 0.243534
0.135714 0.249180 0.246159
0.251225 0.254032 0.253666
0.374701 0.264012 0.268406
0.501976 0.276463 0.287236
0.628962 0.292332 0.310613
0.754574 0.318059 0.343755
0.877684 0.362829 0.393439
0.000000 0.399878 0.243015
0.083833 0.401678 0.241733
0.235325 0.404944 0.236637
0.378790 0.404211 0.236210
0.506035 0.401740 0.264439
0.627955 0.408972 0.297948
0.754055 0.424964 0.332219
0.877775 0.454353 0.382940
0.000000 0.553094 0.218906
0.000000 0.553918 0.214633
0.213687 0.553063 0.212680
0.369665 0.551934 0.206912
0.508080 0.550530 0.215427
0.643000 0.551080 0.237430
0.757198 0.546441 0.302434
0.877684 0.563012 0.365332
0.000000 0.691127 0.173190
0.000000 0.691005 0.168429
0.183474 0.689876 0.178775
0.351476 0.688899 0.175021
0.497261 0.687373 0.171054
0.629450 0.686213 0.187350
0.769772 0.695277 0.200687
0.888640 0.686671 0.287480
0.000000 0.820981 0.059937
0.000000 0.821012 0.027222
0.122866 0.819760 0.106996
0.324651 0.818997 0.103273
0.476875 0.817777 0.096040
0.615503 0.816373 0.103273
0.745327 0.815396 0.132570
0.894255 0.833463 0.137514
0.000000 0.945708 0.000000
0.000000 0.945037 0.000000
0.000000 0.944701 0.000000
0.275578 0.944091 0.000000
0.444343 0.943114 0.000000
0.592767 0.941741 0.000000
0.727199 0.940734 0.000000
0.856474 0.939818 0.000000
0.158724 0.000000 0.379370
0.193118 0.000000 0.379889
0.278965 0.000000 0.381384
0.384100 0.010346 0.385962
0.508110 0.091005 0.403418
0.633753 0.145296 0.423468
0.758022 0.206729 0.449531
0.879942 0.281346 0.486854
0.157870 0.120851 0.381201
0.192691 0.121920 0.381537
0.279179 0.125826 0.382788
0.384802 0.127626 0.386847
0.508690 0.154086 0.403937
0.634028 0.191409 0.424018
0.758022 0.241032 0.450507
0.879698 0.307103 0.488441
0.132235 0.248173 0.383124
0.177462 0.249760 0.384558
0.277836 0.254948 0.386450
0.386572 0.257359 0.389380
0.510430 0.274327 0.405707
0.634974 0.298314 0.426429
0.757900 0.332921 0.454383
0.878080 0.390600 0.498756
0.092195 0.383459 0.377508
0.150179 0.384680 0.379095
0.263310 0.388190 0.384436
0.388830 0.393591 0.392981
0.512169 0.403723 0.407385
0.635523 0.417212 0.426246
0.757565 0.438697 0.453223
0.877989 0.475349 0.494728
0.000000 0.535729 0.377508
0.084779 0.536889 0.377874
0.235050 0.540826 0.378546
0.373907 0.544610 0.377081
0.514397 0.542992 0.376440
0.640925 0.540551 0.401923
0.757198 0.549401 0.439124
0.878538 0.572534 0.480690
0.000000 0.682033 0.359106
0.000000 0.682643 0.358404
0.190372 0.684810 0.355535
0.355718 0.684291 0.357366
0.499580 0.683040 0.350072
0.634943 0.681544 0.358984
0.772915 0.686885 0.374945
0.885069 0.684596 0.440253
0.000000 0.817044 0.323980
0.000000 0.817441 0.322301
0.104921 0.817594 0.319188
0.327520 0.816403 0.326940
0.477852 0.815396 0.322026
0.619257 0.813840 0.318853
0.750423 0.812558 0.332982
0.896147 0.827634 0.340215
0.000000 0.944060 0.260288
0.000000 0.944152 0.257969
0.000000 0.944366 0.250278
0.270420 0.943206 0.265568
0.441901 0.942290 0.261509
0.591882 0.940887 0.255619
0.730465 0.939452 0.259800
0.861173 0.938231 0.277134
0.214969 0.000000 0.515496
0.241306 0.000000 0.515770
0.315129 0.000000 0.516777
0.412116 0.000000 0.518486
0.520623 0.002899 0.523339
0.641657 0.116670 0.537652
0.763424 0.189334 0.556481
0.883909 0.268986 0.583520
0.214450 0.115114 0.516686
0.240787 0.116335 0.516930
0.314885 0.120394 0.517784
0.412299 0.128023 0.519188
0.520958 0.130037 0.523857
0.641932 0.171511 0.538109
0.763424 0.226505 0.557031
0.883696 0.295842 0.584497
0.201328 0.248661 0.519646
0.233982 0.252323 0.519768
0.312779 0.255283 0.520439
0.412940 0.259556 0.521538
0.522087 0.262394 0.525505
0.642634 0.286656 0.539666
0.763333 0.322759 0.559380
0.882963 0.373877 0.588067
0.172152 0.382940 0.517876
0.208927 0.384161 0.518975
0.302403 0.388281 0.522423
0.414008 0.394934 0.525200
0.523644 0.398169 0.527947
0.643366 0.415412 0.542840
0.762875 0.440925 0.563958
0.881773 0.477058 0.593622
0.128328 0.519890 0.511742
0.175692 0.520653 0.512810
0.281193 0.523125 0.516564
0.402136 0.527092 0.522911
0.525444 0.532158 0.531273
0.643854 0.542901 0.545983
0.762203 0.559258 0.566796
0.880369 0.586145 0.598077
0.016022 0.664942 0.509148
0.129671 0.665614 0.509880
0.255161 0.667903 0.512261
0.382055 0.671962 0.515587
0.510307 0.676112 0.515160
0.644160 0.674678 0.514305
0.768917 0.674525 0.539117
0.881315 0.687526 0.581506
0.000000 0.805844 0.492470
0.000000 0.806271 0.492592
0.198520 0.807706 0.492927
0.346136 0.810513 0.491737
0.489021 0.811154 0.492561
0.626032 0.809964 0.483986
0.758724 0.808255 0.493996
0.897826 0.817014 0.507347
0.000000 0.937682 0.457771
0.000000 0.938018 0.457038
0.000000 0.939208 0.453864
0.276616 0.940948 0.447242
0.450813 0.940124 0.452308
0.596735 0.938964 0.446204
0.737392 0.937194 0.443397
0.868894 0.935607 0.458259
0.271397 0.000000 0.648890
0.292180 0.000000 0.649042
0.354681 0.000000 0.649622
0.443244 0.000000 0.650507
0.544457 0.043061 0.652491
0.652796 0.069337 0.656397
0.770535 0.161715 0.669001
0.889189 0.250523 0.688441
0.271275 0.110170 0.649531
0.291936 0.111788 0.649653
0.354559 0.117189 0.650172
0.443336 0.126833 0.650996
0.544671 0.138735 0.652796
0.652918 0.146273 0.656580
0.770565 0.204501 0.669306
0.889036 0.279149 0.688991
0.268498 0.253788 0.651240
0.289677 0.254368 0.651362
0.353582 0.256657 0.651759
0.443580 0.261357 0.652491
0.545373 0.268681 0.653834
0.653376 0.273198 0.657435
0.770474 0.308232 0.670466
0.888457 0.360784 0.690913
0.252171 0.385077 0.653010
0.278447 0.387121 0.653498
0.352087 0.392920 0.654078
0.445045 0.397406 0.654658
0.547173 0.402533 0.655512
0.653834 0.405921 0.658717
0.770260 0.430121 0.672572
0.887510 0.466743 0.694026
0.226749 0.518608 0.649470
0.255619 0.519493 0.650050
0.336675 0.522728 0.652094
0.442145 0.529046 0.655573
0.549218 0.534081 0.658198
0.654597 0.536858 0.660578
0.770169 0.553674 0.675441
0.886839 0.578607 0.697078
0.183352 0.654200 0.644068
0.218936 0.654536 0.644709
0.310216 0.655726 0.646876
0.422492 0.657588 0.650568
0.538781 0.660273 0.655879
0.656153 0.664607 0.663569
0.770352 0.675380 0.677943
0.885801 0.693904 0.700435
0.159609 0.789639 0.637873
0.198428 0.790036 0.638544
0.293095 0.791440 0.640986
0.404761 0.794156 0.644648
0.520012 0.798703 0.647974
0.641230 0.803250 0.647700
0.769863 0.801877 0.647150
0.893614 0.803830 0.670253
0.000000 0.926635 0.621851
0.014496 0.926909 0.622156
0.222477 0.927947 0.622705
0.353826 0.930114 0.622553
0.481331 0.933410 0.620996
0.616815 0.934478 0.622065
0.749813 0.933227 0.613947
0.879728 0.931609 0.623529
0.328862 0.000000 0.778500
0.345556 0.000000 0.778592
0.398596 0.000000 0.778836
0.477943 0.023224 0.779355
0.572076 0.084962 0.780026
0.673976 0.110475 0.781918
0.780453 0.129488 0.784878
0.895750 0.222873 0.797574
0.329412 0.116060 0.778775
0.346044 0.118013 0.778866
0.398840 0.124605 0.779141
0.478126 0.136599 0.779568
0.572290 0.154055 0.780240
0.674128 0.168795 0.782040
0.780423 0.181216 0.784939
0.895628 0.254948 0.797787
0.329992 0.259281 0.779629
0.346593 0.260044 0.779690
0.399756 0.262974 0.779904
0.479194 0.268650 0.780301
0.573388 0.277623 0.780850
0.674800 0.286595 0.782376
0.780423 0.293309 0.785275
0.895232 0.342382 0.798550
0.334813 0.398169 0.780697
0.351263 0.398657 0.780728
0.403143 0.399756 0.780972
0.482277 0.403296 0.781277
0.575891 0.408911 0.781765
0.676143 0.415595 0.782895
0.780331 0.418830 0.785794
0.894621 0.452430 0.799924
0.330571 0.527977 0.779965
0.350530 0.529747 0.780179
0.412451 0.536034 0.781033
0.493019 0.541344 0.782284
0.578454 0.538415 0.783078
0.677821 0.542901 0.783841
0.780362 0.544610 0.786709
0.894194 0.567895 0.801602
0.303685 0.653468 0.776822
0.325200 0.654108 0.777127
0.390600 0.656519 0.778225
0.480262 0.660273 0.780209
0.578820 0.664729 0.783444
0.678798 0.666743 0.786130
0.780850 0.669154 0.788357
0.893980 0.685878 0.803830
0.259648 0.784298 0.772457
0.284428 0.784390 0.772824
0.357427 0.784695 0.773922
0.453101 0.785275 0.775998
0.558465 0.786435 0.779171
0.668940 0.788540 0.783932
0.782193 0.792416 0.791135
0.893889 0.803861 0.806027
0.251072 0.912413 0.764401
0.276371 0.912505 0.764981
0.349218 0.912810 0.766995
0.441657 0.914336 0.769894
0.543145 0.917601 0.773251
0.650690 0.922484 0.775814
0.766873 0.927214 0.774929
0.892424 0.925963 0.774868
0.389502 0.142519 0.905577
0.403418 0.136049 0.905638
0.448737 0.110445 0.905821
0.519005 0.109468 0.906035
0.605524 0.137392 0.906310
0.701228 0.168399 0.906706
0.801572 0.184207 0.908385
0.905211 0.198550 0.910521
0.391669 0.147372 0.905760
0.405188 0.149416 0.905791
0.449744 0.156771 0.905913
0.519677 0.169314 0.906065
0.606043 0.187442 0.906371
0.701564 0.210361 0.906706
0.801724 0.222843 0.908354
0.905150 0.234043 0.910521
0.395361 0.277195 0.905943
0.408728 0.278172 0.906004
0.452827 0.281743 0.906065
0.522271 0.288396 0.906249
0.607996 0.298466 0.906493
0.702876 0.312200 0.906828
0.802213 0.320531 0.908324
0.904875 0.326452 0.910552
0.403052 0.411048 0.906157
0.416144 0.411719 0.906188
0.459236 0.413733 0.906279
0.527367 0.417914 0.906432
0.611719 0.424018 0.906676
0.705257 0.432502 0.907012
0.803098 0.438331 0.908324
0.904509 0.439429 0.910674
0.460883 0.572747 0.904814
0.470863 0.572747 0.904936
0.494820 0.565270 0.905486
0.532464 0.545525 0.906798
0.614984 0.548577 0.907103
0.707088 0.552941 0.907530
0.803830 0.557092 0.908537
0.904143 0.557336 0.911040
0.439033 0.675288 0.903929
0.452247 0.676204 0.904051
0.494484 0.679133 0.904570
0.558648 0.683101 0.905577
0.632441 0.684169 0.907225
0.707515 0.672663 0.908598
0.804623 0.676570 0.909270
0.903990 0.676967 0.911833
0.407904 0.788846 0.902037
0.421912 0.789151 0.902220
0.466346 0.790005 0.902800
0.534264 0.791287 0.903899
0.618006 0.793210 0.905760
0.711269 0.796231 0.908568
0.804532 0.795041 0.911192
0.904204 0.796963 0.913237
0.357031 0.912444 0.899260
0.372839 0.912444 0.899413
0.422736 0.912352 0.899992
0.498512 0.912322 0.901030
0.589685 0.912383 0.902739
0.689540 0.912779 0.905303
0.795132 0.914000 0.909239
0.905364 0.917296 0.915770
