其他预设/【213】赛博朋克科幻预设52款/1.LUT预设（视频调色-PR-AE-PS-FCPX-达芬奇用）/赛博朋克科幻__-5 强度2.cube
# Created by Adobe Lightroom plugin Export LUT (1.17.0)
# www.johnrellis.com/lightroom/exportlut.htm
# Preset: 赛博朋克科幻[素锦印象]-5 强度2
# Color profile: /Library/Application Support/Adobe/Color/Profiles/Recommended/AdobeRGB1998.icc
LUT_3D_SIZE 32
0.049470 0.048371 0.041199
0.064210 0.045563 0.045136
0.076692 0.040497 0.050019
0.098421 0.029999 0.058717
0.124300 0.011200 0.066468
0.151034 0.000000 0.074495
0.179110 0.000000 0.082948
0.208835 0.000000 0.092439
0.240726 0.000000 0.102785
0.275181 0.000000 0.113436
0.312810 0.000000 0.125154
0.352941 0.000000 0.137575
0.395056 0.000000 0.150454
0.438453 0.000000 0.163363
0.482246 0.000000 0.176455
0.525994 0.000000 0.190738
0.569024 0.000000 0.205417
0.610559 0.000000 0.219821
0.649134 0.000000 0.233341
0.685878 0.000000 0.246250
0.721218 0.000000 0.258701
0.755367 0.000000 0.270787
0.788388 0.000000 0.282597
0.820279 0.000000 0.294041
0.851164 0.000000 0.305272
0.881163 0.000000 0.317082
0.910124 0.000000 0.330724
0.938262 0.000000 0.344701
0.965667 0.000000 0.359167
0.992432 0.000000 0.374151
1.000000 0.000000 0.389715
1.000000 0.000000 0.405890
0.044800 0.065522 0.050568
0.062104 0.063966 0.041718
0.076295 0.056550 0.043061
0.099519 0.033448 0.042878
0.125063 0.011261 0.056489
0.151614 0.000000 0.067445
0.179568 0.000000 0.077180
0.209232 0.000000 0.086854
0.241001 0.000000 0.097139
0.275608 0.000000 0.108248
0.313024 0.000000 0.120363
0.353246 0.000000 0.132967
0.395270 0.000000 0.145876
0.438636 0.000000 0.159091
0.482429 0.000000 0.172915
0.526207 0.000000 0.188083
0.569146 0.000000 0.202914
0.610651 0.000000 0.217319
0.649256 0.000000 0.230900
0.686000 0.000000 0.243900
0.721309 0.000000 0.256474
0.755489 0.000000 0.268772
0.788479 0.000000 0.280705
0.820432 0.000000 0.292271
0.851316 0.000000 0.303502
0.881285 0.000000 0.314916
0.910277 0.000000 0.328801
0.938384 0.000000 0.342748
0.965789 0.000000 0.357366
0.992584 0.000000 0.372442
1.000000 0.000000 0.388067
1.000000 0.000000 0.404395
0.036561 0.079713 0.060395
0.048829 0.079255 0.048768
0.073304 0.076692 0.042206
0.098207 0.064729 0.043732
0.125216 0.035126 0.043641
0.152529 0.000000 0.049592
0.180117 0.000000 0.066255
0.209598 0.000000 0.077577
0.241520 0.000000 0.088899
0.275883 0.000000 0.100832
0.313390 0.000000 0.113283
0.353582 0.000000 0.126162
0.395636 0.000000 0.139651
0.438941 0.000000 0.153658
0.482612 0.000000 0.168765
0.526452 0.000000 0.184085
0.569360 0.000000 0.199069
0.610834 0.000000 0.213687
0.649470 0.000000 0.227726
0.686152 0.000000 0.240757
0.721492 0.000000 0.253605
0.755673 0.000000 0.265965
0.788663 0.000000 0.278019
0.820584 0.000000 0.289738
0.851499 0.000000 0.301091
0.881498 0.000000 0.312200
0.910460 0.000000 0.325963
0.938567 0.000000 0.340154
0.966003 0.000000 0.354986
0.992767 0.000000 0.370153
1.000000 0.000000 0.385992
1.000000 0.000000 0.402380
0.016480 0.105379 0.072908
0.042084 0.104311 0.068757
0.047028 0.103883 0.055756
0.093355 0.098848 0.042084
0.123476 0.082582 0.045655
0.150912 0.064179 0.047547
0.179995 0.003265 0.048188
0.210666 0.000000 0.050050
0.242283 0.000000 0.068940
0.276677 0.000000 0.083192
0.314122 0.000000 0.097597
0.354284 0.000000 0.112459
0.396094 0.000000 0.127840
0.439338 0.000000 0.143496
0.483101 0.000000 0.159335
0.526879 0.000000 0.175174
0.569818 0.000000 0.190738
0.611261 0.000000 0.205753
0.649836 0.000000 0.220127
0.686519 0.000000 0.233738
0.721920 0.000000 0.247044
0.756069 0.000000 0.259770
0.789090 0.000000 0.272160
0.820920 0.000000 0.284245
0.851896 0.000000 0.295842
0.881865 0.000000 0.307225
0.910887 0.000000 0.319951
0.939025 0.000000 0.334478
0.966430 0.000000 0.349554
0.993164 0.000000 0.365179
1.000000 0.000000 0.381201
1.000000 0.000000 0.397955
0.000000 0.136202 0.088289
0.013611 0.134981 0.085084
0.032776 0.133883 0.077943
0.044465 0.132265 0.051209
0.115785 0.124514 0.042756
0.149355 0.105898 0.046357
0.177462 0.088777 0.050660
0.208499 0.060395 0.050965
0.241733 0.000000 0.052491
0.277317 0.000000 0.054414
0.315038 0.000000 0.071168
0.355047 0.000000 0.089967
0.397009 0.000000 0.108125
0.440101 0.000000 0.125460
0.483833 0.000000 0.142947
0.527550 0.000000 0.159731
0.570459 0.000000 0.176577
0.611902 0.000000 0.192599
0.650538 0.000000 0.207736
0.687221 0.000000 0.222293
0.722530 0.000000 0.236240
0.756710 0.000000 0.249577
0.789670 0.000000 0.262547
0.821561 0.000000 0.275181
0.852445 0.000000 0.287358
0.882444 0.000000 0.299260
0.911559 0.000000 0.310552
0.939696 0.000000 0.325322
0.967071 0.000000 0.340887
0.993805 0.000000 0.356970
1.000000 0.000000 0.373663
1.000000 0.000000 0.390814
0.000000 0.169039 0.105409
0.000000 0.167880 0.102388
0.004395 0.166232 0.097810
0.020996 0.164309 0.081086
0.065431 0.160800 0.046143
0.140017 0.151308 0.041932
0.176852 0.131624 0.046418
0.206210 0.115175 0.051606
0.239109 0.092836 0.053742
0.275059 0.041779 0.054414
0.313939 0.000000 0.055268
0.355413 0.000000 0.057435
0.398016 0.000000 0.069337
0.441230 0.000000 0.094331
0.484932 0.000000 0.115541
0.528588 0.000000 0.135775
0.571435 0.000000 0.154635
0.612757 0.000000 0.172580
0.651331 0.000000 0.189548
0.688075 0.000000 0.205325
0.723415 0.000000 0.220493
0.757534 0.000000 0.235172
0.790524 0.000000 0.249027
0.822385 0.000000 0.262455
0.853269 0.000000 0.275364
0.883207 0.000000 0.287877
0.912322 0.000000 0.299870
0.940612 0.000000 0.312352
0.967956 0.000000 0.328862
0.994690 0.000000 0.345739
1.000000 0.000000 0.363073
1.000000 0.000000 0.380987
0.000000 0.203891 0.124117
0.000000 0.202762 0.121096
0.000000 0.201297 0.117037
0.000000 0.198764 0.105013
0.005646 0.195834 0.078492
0.092592 0.190097 0.041230
0.165957 0.179934 0.037324
0.205905 0.159121 0.042878
0.237613 0.143587 0.050141
0.272313 0.124086 0.054078
0.311498 0.093996 0.054078
0.353155 0.000000 0.053712
0.396551 0.000000 0.054688
0.441230 0.000000 0.055573
0.486336 0.000000 0.060334
0.529839 0.000000 0.093751
0.572656 0.000000 0.119661
0.614008 0.000000 0.142245
0.652522 0.000000 0.162661
0.689204 0.000000 0.181155
0.724514 0.000000 0.198459
0.758633 0.000000 0.214908
0.791562 0.000000 0.230350
0.823423 0.000000 0.245182
0.854246 0.000000 0.259220
0.884184 0.000000 0.272740
0.913268 0.000000 0.285710
0.941558 0.000000 0.298131
0.969085 0.000000 0.312840
0.995789 0.000000 0.330877
1.000000 0.000000 0.349279
1.000000 0.000000 0.368048
0.000000 0.241001 0.144472
0.000000 0.240055 0.141848
0.000000 0.238590 0.138033
0.000000 0.235660 0.128786
0.000000 0.232792 0.107485
0.000000 0.228885 0.069825
0.120821 0.221408 0.032288
0.193881 0.210941 0.029358
0.237461 0.188693 0.036286
0.271855 0.174166 0.044495
0.309056 0.156619 0.050324
0.350408 0.131533 0.049866
0.394141 0.088167 0.048737
0.438972 0.000000 0.048585
0.484321 0.000000 0.048524
0.529503 0.000000 0.049012
0.573846 0.000000 0.050660
0.615412 0.000000 0.088533
0.653895 0.000000 0.119600
0.690578 0.000000 0.145083
0.725887 0.000000 0.167086
0.759945 0.000000 0.186923
0.792844 0.000000 0.205020
0.824674 0.000000 0.221958
0.855497 0.000000 0.237827
0.885405 0.000000 0.252903
0.914427 0.000000 0.267185
0.942718 0.000000 0.280888
0.970336 0.000000 0.293889
0.997101 0.000000 0.311803
1.000000 0.000000 0.331518
1.000000 0.000000 0.351659
0.000000 0.281651 0.167086
0.000000 0.280613 0.164523
0.000000 0.279393 0.161105
0.000000 0.276432 0.152560
0.000000 0.273106 0.135836
0.000000 0.269291 0.107240
0.000000 0.264683 0.046387
0.149905 0.255680 0.018006
0.224430 0.244633 0.014923
0.271977 0.221225 0.024109
0.309422 0.207736 0.031495
0.349035 0.191196 0.037934
0.391333 0.169039 0.040345
0.436408 0.135409 0.037171
0.481941 0.069154 0.035584
0.527214 0.000000 0.034668
0.571710 0.000000 0.035950
0.614618 0.000000 0.038331
0.654627 0.000000 0.043793
0.692226 0.000000 0.076967
0.727474 0.000000 0.116060
0.761532 0.000000 0.144991
0.794400 0.000000 0.169009
0.826169 0.000000 0.190005
0.856931 0.000000 0.209018
0.886778 0.000000 0.226963
0.915801 0.000000 0.243259
0.944030 0.000000 0.258640
0.971649 0.000000 0.273289
0.998688 0.000000 0.287449
1.000000 0.000000 0.309270
1.000000 0.000000 0.331243
0.000000 0.326390 0.192050
0.000000 0.325566 0.189670
0.000000 0.324254 0.186374
0.000000 0.321630 0.178439
0.000000 0.317784 0.164706
0.000000 0.313939 0.140230
0.000000 0.309209 0.102449
0.000000 0.303197 0.000427
0.181888 0.293370 0.000000
0.258061 0.281865 0.000000
0.308812 0.258549 0.002380
0.349554 0.243351 0.010071
0.391089 0.227481 0.017060
0.433570 0.206607 0.024414
0.479103 0.177829 0.020020
0.524651 0.132876 0.017578
0.569360 0.000000 0.016358
0.612360 0.000000 0.018311
0.652552 0.000000 0.022095
0.690974 0.000000 0.028595
0.727901 0.000000 0.035920
0.763333 0.000000 0.056214
0.796170 0.000000 0.109499
0.827878 0.000000 0.142519
0.858579 0.000000 0.168704
0.888396 0.000000 0.191501
0.917388 0.000000 0.211521
0.945586 0.000000 0.229831
0.973144 0.000000 0.246952
1.000000 0.000000 0.262760
1.000000 0.000000 0.281193
1.000000 0.000000 0.305760
0.000000 0.374731 0.219516
0.000000 0.373968 0.217288
0.000000 0.372839 0.214023
0.000000 0.370275 0.206790
0.000000 0.366186 0.194461
0.000000 0.362127 0.173465
0.000000 0.357458 0.141878
0.000000 0.351965 0.090791
0.079164 0.344244 0.000000
0.216129 0.333898 0.000000
0.294377 0.322057 0.000000
0.348180 0.298894 0.000000
0.391638 0.281163 0.000000
0.434333 0.265232 0.000000
0.477485 0.245090 0.000000
0.521691 0.218814 0.000000
0.566552 0.181765 0.000000
0.609705 0.123354 0.000000
0.650172 0.000000 0.000000
0.688869 0.000000 0.005127
0.725978 0.000000 0.012696
0.761746 0.000000 0.021057
0.796231 0.000000 0.030091
0.829465 0.000000 0.040833
0.860502 0.000000 0.099245
0.890227 0.000000 0.138003
0.919158 0.000000 0.166842
0.947295 0.000000 0.190890
0.974823 0.000000 0.212253
1.000000 0.000000 0.231479
1.000000 0.000000 0.248875
1.000000 0.000000 0.273625
0.000000 0.425574 0.248814
0.000000 0.424842 0.246677
0.000000 0.423621 0.243503
0.000000 0.421271 0.236576
0.000000 0.417456 0.225223
0.000000 0.412757 0.207248
0.000000 0.408301 0.179629
0.000000 0.402838 0.139834
0.000000 0.396460 0.066011
0.128786 0.387457 0.000000
0.252201 0.376623 0.000000
0.332677 0.364446 0.000000
0.389227 0.341100 0.000000
0.434882 0.320348 0.000000
0.478065 0.304173 0.000000
0.521019 0.283940 0.000000
0.563439 0.258518 0.000000
0.606775 0.225772 0.000000
0.647456 0.180331 0.000000
0.686427 0.105287 0.000000
0.723781 0.000000 0.000000
0.759762 0.000000 0.000000
0.794400 0.000000 0.005951
0.827817 0.000000 0.017365
0.860136 0.000000 0.028351
0.891447 0.000000 0.039612
0.921141 0.000000 0.085542
0.949248 0.000000 0.130922
0.976684 0.000000 0.163027
1.000000 0.000000 0.188998
1.000000 0.000000 0.211368
1.000000 0.000000 0.231754
0.000000 0.477546 0.279271
0.000000 0.476905 0.277348
0.000000 0.475837 0.274266
0.000000 0.473671 0.267796
0.000000 0.470130 0.257023
0.000000 0.465187 0.241520
0.000000 0.460578 0.216739
0.000000 0.455268 0.182559
0.000000 0.449012 0.132296
0.000000 0.442054 0.000000
0.171756 0.431861 0.000000
0.289647 0.420447 0.000000
0.372168 0.407935 0.000000
0.431800 0.385138 0.000000
0.478462 0.360235 0.000000
0.521477 0.343328 0.000000
0.563775 0.322789 0.000000
0.604578 0.297642 0.000000
0.644434 0.266819 0.000000
0.683711 0.227634 0.000000
0.721309 0.174075 0.000000
0.757504 0.073884 0.000000
0.792355 0.000000 0.000000
0.825956 0.000000 0.000000
0.858427 0.000000 0.004852
0.889891 0.000000 0.017121
0.920409 0.000000 0.029847
0.950042 0.000000 0.041657
0.978759 0.000000 0.064668
1.000000 0.000000 0.122286
1.000000 0.000000 0.157473
1.000000 0.000000 0.185214
0.000000 0.529534 0.310521
0.000000 0.528801 0.308354
0.000000 0.527916 0.305638
0.000000 0.525902 0.299535
0.000000 0.522576 0.289372
0.000000 0.517967 0.274998
0.000000 0.512902 0.253574
0.000000 0.507897 0.223087
0.000000 0.501915 0.181796
0.000000 0.495155 0.117556
0.000000 0.487221 0.000000
0.213596 0.476387 0.000000
0.327520 0.464698 0.000000
0.411933 0.451881 0.000000
0.477974 0.432746 0.000000
0.521660 0.400336 0.000000
0.563897 0.382330 0.000000
0.604608 0.361028 0.000000
0.643214 0.335546 0.000000
0.680629 0.306035 0.000000
0.718532 0.270726 0.000000
0.755001 0.226169 0.000000
0.790066 0.164279 0.000000
0.823911 0.000000 0.000000
0.856535 0.000000 0.000000
0.888151 0.000000 0.000000
0.918791 0.000000 0.009705
0.948547 0.000000 0.023865
0.977600 0.000000 0.036072
1.000000 0.000000 0.046326
1.000000 0.000000 0.052613
1.000000 0.000000 0.109773
0.000000 0.579950 0.341314
0.000000 0.579278 0.339422
0.000000 0.578454 0.336797
0.000000 0.576623 0.330968
0.000000 0.573632 0.321508
0.000000 0.569512 0.308171
0.000000 0.564111 0.290043
0.000000 0.559380 0.262150
0.000000 0.553887 0.226017
0.000000 0.547509 0.176364
0.000000 0.540307 0.090822
0.000000 0.530968 0.000000
0.254032 0.520226 0.000000
0.365606 0.508415 0.000000
0.451392 0.495277 0.000000
0.523644 0.479866 0.000000
0.563714 0.439887 0.000000
0.604425 0.420447 0.000000
0.642939 0.397864 0.000000
0.680201 0.372534 0.000000
0.716213 0.343908 0.000000
0.752193 0.311070 0.000000
0.787533 0.271794 0.000000
0.821561 0.222049 0.000000
0.854429 0.150912 0.000000
0.886198 0.000000 0.000000
0.916960 0.000000 0.000000
0.946899 0.000000 0.006867
0.976074 0.000000 0.021515
1.000000 0.000000 0.035157
1.000000 0.000000 0.045594
1.000000 0.000000 0.050935
0.000000 0.626551 0.370520
0.000000 0.625971 0.368719
0.000000 0.625269 0.366339
0.000000 0.623682 0.360937
0.000000 0.621027 0.352148
0.000000 0.617456 0.339879
0.000000 0.612757 0.323613
0.000000 0.608057 0.299687
0.000000 0.603113 0.267247
0.000000 0.597436 0.225467
0.000000 0.590845 0.166232
0.000000 0.583551 0.000671
0.082673 0.573571 0.000000
0.293706 0.562585 0.000000
0.402991 0.550530 0.000000
0.489662 0.537346 0.000000
0.564599 0.522942 0.000000
0.603754 0.478370 0.000000
0.642420 0.457038 0.000000
0.679713 0.433875 0.000000
0.715755 0.408606 0.000000
0.750668 0.380682 0.000000
0.784726 0.349554 0.000000
0.818997 0.313695 0.000000
0.852049 0.270909 0.000000
0.884031 0.216526 0.000000
0.914977 0.134768 0.000000
0.945068 0.000000 0.000000
0.974365 0.000000 0.011902
1.000000 0.000000 0.028107
1.000000 0.000000 0.042115
1.000000 0.000000 0.051606
0.000000 0.668391 0.397436
0.000000 0.667994 0.395727
0.000000 0.667353 0.393561
0.000000 0.665980 0.388525
0.000000 0.663722 0.380499
0.000000 0.660670 0.369360
0.000000 0.656550 0.354559
0.000000 0.651728 0.334600
0.000000 0.647486 0.305394
0.000000 0.642512 0.268681
0.000000 0.636835 0.220737
0.000000 0.630426 0.150088
0.000000 0.623255 0.000000
0.161318 0.612848 0.000000
0.331548 0.601801 0.000000
0.438300 0.589807 0.000000
0.525292 0.576684 0.000000
0.601495 0.562585 0.000000
0.641535 0.514977 0.000000
0.678920 0.492805 0.000000
0.715053 0.469184 0.000000
0.749966 0.443824 0.000000
0.783780 0.416419 0.000000
0.816556 0.386694 0.000000
0.849424 0.353307 0.000000
0.881621 0.314794 0.000000
0.912749 0.268772 0.000000
0.943023 0.209964 0.000000
0.972473 0.115755 0.005005
1.000000 0.000000 0.025910
1.000000 0.000000 0.043458
1.000000 0.000000 0.056916
0.000000 0.706264 0.422278
0.000000 0.705806 0.420691
0.000000 0.705318 0.418677
0.000000 0.704097 0.414038
0.000000 0.702174 0.406683
0.000000 0.699489 0.396551
0.000000 0.696010 0.383154
0.000000 0.691463 0.366003
0.000000 0.687404 0.340673
0.000000 0.683162 0.307988
0.000000 0.678309 0.266941
0.000000 0.672816 0.212833
0.000000 0.666621 0.127138
0.000000 0.659815 0.000000
0.216342 0.649165 0.000000
0.367468 0.638392 0.000000
0.472389 0.626642 0.000000
0.559167 0.613947 0.000000
0.636194 0.600244 0.000000
0.677150 0.553185 0.000000
0.714046 0.527703 0.000000
0.749050 0.503624 0.000000
0.782986 0.478157 0.000000
0.815793 0.451301 0.000000
0.847654 0.422431 0.000000
0.878935 0.391119 0.000000
0.910307 0.355688 0.000000
0.940734 0.315099 0.000000
0.970367 0.266453 0.004608
0.999298 0.203250 0.030457
1.000000 0.093080 0.052247
1.000000 0.000000 0.063783
0.000000 0.741482 0.445777
0.000000 0.741176 0.444465
0.000000 0.740658 0.442481
0.000000 0.739681 0.438361
0.000000 0.738033 0.431708
0.000000 0.735775 0.422370
0.000000 0.732784 0.410285
0.000000 0.728908 0.394965
0.000000 0.724788 0.374182
0.000000 0.721218 0.344854
0.000000 0.717098 0.308598
0.000000 0.712459 0.263188
0.000000 0.707210 0.201816
0.000000 0.701442 0.091829
0.000000 0.693874 0.000000
0.263584 0.683955 0.000000
0.402716 0.673426 0.000000
0.505119 0.661982 0.000000
0.591852 0.649683 0.000000
0.669306 0.636347 0.000000
0.711330 0.590906 0.000000
0.747890 0.561639 0.000000
0.781888 0.537163 0.000000
0.814817 0.511803 0.000000
0.846708 0.485206 0.000000
0.877714 0.457252 0.000000
0.907897 0.427436 0.000000
0.938262 0.394659 0.000000
0.968078 0.357763 0.011688
0.997162 0.315404 0.043702
1.000000 0.264591 0.063325
1.000000 0.197543 0.073365
0.000000 0.774990 0.468666
0.000000 0.774685 0.467384
0.000000 0.774319 0.465614
0.000000 0.773495 0.461799
0.000000 0.772061 0.455726
0.000000 0.770138 0.447272
0.000000 0.767514 0.436225
0.000000 0.764248 0.422553
0.000000 0.760189 0.405737
0.000000 0.757015 0.379492
0.000000 0.753567 0.347173
0.000000 0.749660 0.307591
0.000000 0.745266 0.257542
0.000000 0.740352 0.188022
0.000000 0.734951 0.000000
0.000000 0.726955 0.000000
0.306432 0.717494 0.000000
0.436713 0.707149 0.000000
0.537011 0.696010 0.000000
0.623285 0.684016 0.000000
0.700923 0.671077 0.000000
0.744198 0.627802 0.000000
0.780514 0.594690 0.000000
0.813535 0.570062 0.000000
0.845579 0.544671 0.000000
0.876646 0.518364 0.000000
0.906859 0.491096 0.000000
0.936339 0.462684 0.000000
0.965515 0.432319 0.030091
0.994781 0.398322 0.061433
1.000000 0.360449 0.074556
1.000000 0.316991 0.085817
0.000000 0.806821 0.490730
0.000000 0.806577 0.489540
0.000000 0.806241 0.487922
0.000000 0.805539 0.484443
0.000000 0.804318 0.478798
0.000000 0.802670 0.471138
0.000000 0.800473 0.461219
0.000000 0.797665 0.448920
0.000000 0.794095 0.433845
0.000000 0.790707 0.412696
0.000000 0.787869 0.383429
0.000000 0.784573 0.348302
0.000000 0.780911 0.305333
0.000000 0.776791 0.250462
0.000000 0.772244 0.170962
0.000000 0.767300 0.000000
0.125124 0.758938 0.000000
0.346471 0.749660 0.000000
0.469764 0.739590 0.000000
0.568017 0.728695 0.000000
0.653498 0.717067 0.000000
0.731197 0.704585 0.000000
0.775998 0.663386 0.000000
0.812009 0.626856 0.000000
0.844144 0.601984 0.000000
0.875364 0.576745 0.000000
0.905699 0.550866 0.000000
0.935210 0.524346 0.000000
0.964080 0.496986 0.000000
0.992309 0.468849 0.072297
1.000000 0.437507 0.089143
1.000000 0.403174 0.100984
0.000000 0.837034 0.511864
0.000000 0.836851 0.510857
0.000000 0.836545 0.509331
0.000000 0.835966 0.506157
0.000000 0.834958 0.501091
0.000000 0.833463 0.494087
0.000000 0.831601 0.485115
0.000000 0.829160 0.474067
0.000000 0.826169 0.460700
0.000000 0.822477 0.444526
0.000000 0.820127 0.417975
0.000000 0.817411 0.386267
0.000000 0.814359 0.348394
0.000000 0.810971 0.302098
0.000000 0.807187 0.241947
0.000000 0.803067 0.149844
0.000000 0.798520 0.000000
0.205295 0.789731 0.000000
0.384436 0.780667 0.000000
0.502007 0.770809 0.000000
0.598169 0.760281 0.000000
0.682856 0.748959 0.000000
0.760311 0.736873 0.000000
0.806790 0.698207 0.000000
0.842496 0.658228 0.000000
0.873838 0.633417 0.000000
0.904265 0.608240 0.000000
0.933928 0.582788 0.000000
0.962860 0.557000 0.000000
0.991150 0.530755 0.037201
1.000000 0.504082 0.093751
1.000000 0.475959 0.117830
0.000000 0.865690 0.532250
0.000000 0.865537 0.531243
0.000000 0.865293 0.529961
0.000000 0.864744 0.527001
0.000000 0.863890 0.522393
0.000000 0.862669 0.516045
0.000000 0.861051 0.507958
0.000000 0.858976 0.498054
0.000000 0.856382 0.486213
0.000000 0.853056 0.472450
0.000000 0.850431 0.450996
0.000000 0.848234 0.422370
0.000000 0.845762 0.388586
0.000000 0.842954 0.347906
0.000000 0.839933 0.298192
0.000000 0.836545 0.232456
0.000000 0.832822 0.123659
0.000000 0.827909 0.000000
0.263645 0.819425 0.000000
0.421027 0.810513 0.000000
0.533440 0.800961 0.000000
0.627558 0.790677 0.000000
0.711269 0.779751 0.000000
0.788296 0.768063 0.000000
0.836515 0.732082 0.000000
0.872007 0.688991 0.000000
0.902586 0.664057 0.000000
0.932403 0.639185 0.000000
0.961425 0.614221 0.000000
0.989837 0.589105 0.000000
1.000000 0.563928 0.077729
1.000000 0.538842 0.116762
0.000000 0.892912 0.551812
0.000000 0.892790 0.550927
0.000000 0.892546 0.549645
0.000000 0.892088 0.546990
0.000000 0.891325 0.542779
0.000000 0.890318 0.537041
0.000000 0.888914 0.529808
0.000000 0.887144 0.520897
0.000000 0.884855 0.510369
0.000000 0.881956 0.498390
0.000000 0.878904 0.482979
0.000000 0.877134 0.456916
0.000000 0.875181 0.426337
0.000000 0.872953 0.390326
0.000000 0.870512 0.347356
0.000000 0.867796 0.294072
0.000000 0.864836 0.222538
0.000000 0.861601 0.088624
0.000000 0.856168 0.000000
0.313939 0.848051 0.000000
0.456245 0.839384 0.000000
0.564080 0.830076 0.000000
0.656123 0.820157 0.000000
0.738918 0.809506 0.000000
0.815335 0.798215 0.000000
0.865415 0.765042 0.000000
0.900633 0.718959 0.000000
0.930632 0.694179 0.000000
0.959808 0.669642 0.000000
0.988312 0.645167 0.000000
1.000000 0.620905 0.052552
1.000000 0.596887 0.106752
0.000000 0.918761 0.570489
0.000000 0.918639 0.569665
0.000000 0.918486 0.568536
0.000000 0.918059 0.566155
0.000000 0.917418 0.562310
0.000000 0.916533 0.557153
0.000000 0.915312 0.550622
0.000000 0.913756 0.542718
0.000000 0.911742 0.533471
0.000000 0.909239 0.523064
0.000000 0.906126 0.511772
0.000000 0.904265 0.490181
0.000000 0.902708 0.462470
0.000000 0.900999 0.430152
0.000000 0.899107 0.392187
0.000000 0.897032 0.346807
0.000000 0.894713 0.290318
0.000000 0.892241 0.212833
0.000000 0.889525 0.000000
0.109682 0.883604 0.000000
0.359258 0.875700 0.000000
0.490578 0.867247 0.000000
0.594232 0.858274 0.000000
0.684169 0.848631 0.000000
0.765743 0.838407 0.000000
0.841581 0.827481 0.000000
0.894011 0.797696 0.000000
0.928588 0.748379 0.000000
0.957977 0.723812 0.000000
0.986603 0.699611 0.000000
1.000000 0.675746 0.000000
1.000000 0.652338 0.094423
0.000000 0.943450 0.588434
0.000000 0.943297 0.587671
0.000000 0.943175 0.586694
0.000000 0.942840 0.584497
0.000000 0.942260 0.581048
0.000000 0.941527 0.576410
0.000000 0.940459 0.570581
0.000000 0.939086 0.563592
0.000000 0.937316 0.555505
0.000000 0.935088 0.546593
0.000000 0.932280 0.537041
0.000000 0.929747 0.522606
0.000000 0.928618 0.497353
0.000000 0.927367 0.468208
0.000000 0.925963 0.434394
0.000000 0.924437 0.394690
0.000000 0.922728 0.347021
0.000000 0.920897 0.287388
0.000000 0.918914 0.203799
0.000000 0.916747 0.000000
0.214694 0.910216 0.000000
0.402106 0.902556 0.000000
0.524132 0.894377 0.000000
0.623926 0.885679 0.000000
0.711696 0.876402 0.000000
0.792020 0.866484 0.000000
0.867094 0.855985 0.000000
0.923522 0.830961 0.000000
0.955444 0.779538 0.000000
0.984680 0.752987 0.000000
1.000000 0.729244 0.000000
1.000000 0.706111 0.078859
0.000000 0.967041 0.605676
0.000000 0.966918 0.605035
0.000000 0.966796 0.604089
0.000000 0.966522 0.602106
0.000000 0.966033 0.598993
0.000000 0.965362 0.594873
0.000000 0.964446 0.589654
0.000000 0.963256 0.583520
0.000000 0.961639 0.576562
0.000000 0.959655 0.569024
0.000000 0.957092 0.561181
0.000000 0.953979 0.553399
0.000000 0.953002 0.531395
0.000000 0.952148 0.505028
0.000000 0.951171 0.474708
0.000000 0.950134 0.439490
0.000000 0.948974 0.398138
0.000000 0.947723 0.348638
0.000000 0.946380 0.286168
0.000000 0.944945 0.197086
0.000000 0.942840 0.000000
0.284459 0.936126 0.000000
0.442786 0.928710 0.000000
0.557183 0.920775 0.000000
0.653315 0.912383 0.000000
0.738918 0.903441 0.000000
0.817838 0.893950 0.000000
0.892058 0.883818 0.000000
0.952209 0.863340 0.000000
0.981537 0.811093 0.000000
1.000000 0.781765 0.000000
1.000000 0.758572 0.056672
0.000000 0.989654 0.622217
0.000000 0.989563 0.621637
0.000000 0.989471 0.620813
0.000000 0.989227 0.619013
0.000000 0.988800 0.616205
0.000000 0.988190 0.612512
0.000000 0.987396 0.607935
0.000000 0.986297 0.602594
0.000000 0.984894 0.596643
0.000000 0.983001 0.590448
0.000000 0.980682 0.584222
0.000000 0.977783 0.578393
0.000000 0.975860 0.564843
0.000000 0.975372 0.541009
0.000000 0.974823 0.513603
