其他预设/【213】赛博朋克科幻预设52款/1.LUT预设（视频调色-PR-AE-PS-FCPX-达芬奇用）/赛博朋克科幻__-6 强度4.cube
# Created by Adobe Lightroom plugin Export LUT (1.17.0)
# www.johnrellis.com/lightroom/exportlut.htm
# Preset: 赛博朋克科幻[素锦印象]-6 强度4
# Color profile: /Library/Application Support/Adobe/Color/Profiles/Recommended/AdobeRGB1998.icc
LUT_3D_SIZE 8
DOMAIN_MIN 0.000000 0.000000 0.000000
DOMAIN_MAX 0.903226 0.903226 0.903226
0.109743 0.088228 0.082765
0.159335 0.072633 0.092042
0.246860 0.000000 0.117067
0.367987 0.000000 0.160739
0.515892 0.000000 0.220768
0.672450 0.000000 0.284886
0.817227 0.000000 0.340734
0.931273 0.000000 0.379706
0.158175 0.149844 0.071809
0.171542 0.131563 0.074159
0.256352 0.078676 0.092958
0.377081 0.000000 0.150118
0.523064 0.000000 0.215213
0.677882 0.000000 0.279759
0.820829 0.000000 0.335790
0.933288 0.000000 0.374762
0.236728 0.238071 0.006012
0.247623 0.233951 0.006531
0.273991 0.209445 0.019989
0.399969 0.221714 0.010712
0.558526 0.000000 0.111330
0.707668 0.000000 0.215610
0.836210 0.000000 0.304326
0.940398 0.000000 0.356176
0.322759 0.331640 0.000000
0.330358 0.330419 0.000000
0.360845 0.330083 0.000000
0.406104 0.313664 0.000000
0.560998 0.345556 0.000000
0.730861 0.296880 0.000000
0.864836 0.000000 0.150942
0.958190 0.000000 0.266636
0.409644 0.428290 0.000000
0.415503 0.428016 0.000000
0.436347 0.426825 0.000000
0.493233 0.443763 0.000000
0.553002 0.431586 0.000000
0.710658 0.457771 0.000000
0.868528 0.475990 0.000000
0.962921 0.322728 0.000000
0.508049 0.539757 0.000000
0.512902 0.539818 0.000000
0.530449 0.540154 0.000000
0.562646 0.540795 0.000000
0.641749 0.571771 0.000000
0.707210 0.556603 0.000000
0.840604 0.556878 0.000000
0.956970 0.571130 0.000000
0.631312 0.682734 0.000000
0.635523 0.682765 0.000000
0.650599 0.683040 0.000000
0.678340 0.683497 0.000000
0.726589 0.691402 0.000000
0.798276 0.707179 0.000000
0.849973 0.673732 0.000000
0.940398 0.635126 0.000000
0.759487 0.836484 0.000000
0.763119 0.836393 0.000000
0.775937 0.835996 0.000000
0.799527 0.835325 0.000000
0.834623 0.834134 0.000000
0.886229 0.837705 0.000000
0.935332 0.825803 0.000000
0.963531 0.768490 0.000000
0.110597 0.085084 0.143587
0.161288 0.067872 0.149325
0.243565 0.000000 0.160281
0.359045 0.000000 0.201022
0.505516 0.000000 0.254826
0.663508 0.000000 0.313298
0.811612 0.000000 0.364294
0.928496 0.000000 0.398260
0.130434 0.151064 0.094545
0.164401 0.142092 0.127382
0.250492 0.099580 0.148043
0.369574 0.000000 0.189242
0.513725 0.000000 0.247990
0.669093 0.000000 0.308995
0.815274 0.000000 0.359747
0.930541 0.000000 0.393561
0.240635 0.235599 0.013703
0.249393 0.232334 0.053071
0.273350 0.211521 0.077882
0.398749 0.205905 0.102815
0.556298 0.000000 0.163546
0.700618 0.000000 0.253330
0.831937 0.000000 0.327764
0.937774 0.000000 0.375860
0.326757 0.330053 0.000000
0.334844 0.328405 0.000000
0.366552 0.331182 0.000000
0.407233 0.313359 0.000000
0.564904 0.347417 0.000000
0.730434 0.278294 0.070741
0.863798 0.000000 0.199557
0.955779 0.000000 0.294041
0.413153 0.427436 0.000000
0.418830 0.427253 0.000000
0.439185 0.426123 0.000000
0.497475 0.445197 0.000000
0.554559 0.430793 0.000000
0.713680 0.459174 0.000000
0.869017 0.465949 0.000000
0.962585 0.316625 0.120180
0.510491 0.539239 0.000000
0.515373 0.539330 0.000000
0.532738 0.539727 0.000000
0.565728 0.541619 0.000000
0.643366 0.571588 0.000000
0.708278 0.555993 0.000000
0.842039 0.557427 0.000000
0.958099 0.570886 0.000000
0.632837 0.682429 0.000000
0.637049 0.682521 0.000000
0.652033 0.682795 0.000000
0.679652 0.683345 0.000000
0.728481 0.691981 0.000000
0.799069 0.706813 0.000000
0.850553 0.673182 0.000000
0.941283 0.635218 0.000000
0.760098 0.836515 0.000000
0.763668 0.836423 0.000000
0.776486 0.836088 0.000000
0.800046 0.835386 0.000000
0.835111 0.834195 0.000000
0.886748 0.837827 0.000000
0.935576 0.825620 0.000000
0.963775 0.768032 0.000000
0.120760 0.070558 0.252598
0.170291 0.035554 0.255283
0.268620 0.000000 0.263432
0.360174 0.000000 0.272740
0.495888 0.000000 0.321050
0.642054 0.000000 0.374121
0.794736 0.000000 0.422156
0.919738 0.000000 0.449866
0.124239 0.146578 0.235416
0.167788 0.134859 0.237888
0.262638 0.089052 0.248600
0.364599 0.000000 0.267033
0.499947 0.000000 0.313787
0.645960 0.000000 0.368475
0.798581 0.000000 0.418738
0.921874 0.000000 0.445869
0.169192 0.241794 0.117372
0.190127 0.241855 0.138949
0.262394 0.238956 0.207645
0.383612 0.186770 0.235935
0.527001 0.000000 0.281682
0.677607 0.000000 0.337804
0.817044 0.000000 0.392706
0.929473 0.000000 0.430762
0.315770 0.340764 0.028351
0.324132 0.340429 0.048310
0.354467 0.339025 0.072389
0.409216 0.324071 0.100679
0.573297 0.343114 0.150515
0.725582 0.231449 0.241794
0.852476 0.000000 0.317754
0.947784 0.000000 0.367315
0.416846 0.427924 0.000000
0.422248 0.428290 0.000000
0.442084 0.429541 0.000000
0.496742 0.448188 0.000000
0.557763 0.436316 0.000000
0.724239 0.464881 0.000000
0.869047 0.434730 0.128756
0.958831 0.327001 0.280613
0.515496 0.538872 0.000000
0.521080 0.538720 0.000000
0.539330 0.538811 0.000000
0.576684 0.546197 0.000000
0.648249 0.571130 0.000000
0.710994 0.556329 0.000000
0.848600 0.560143 0.000000
0.961486 0.572625 0.000000
0.636866 0.682155 0.000000
0.641260 0.682155 0.000000
0.656306 0.682399 0.000000
0.683589 0.683040 0.000000
0.734096 0.693965 0.000000
0.801572 0.705837 0.000000
0.852598 0.671138 0.000000
0.944579 0.635248 0.000000
0.761715 0.836912 0.000000
0.764981 0.836942 0.000000
0.777798 0.836606 0.000000
0.801297 0.835874 0.000000
0.836332 0.834684 0.000000
0.888151 0.838407 0.000000
0.936339 0.825193 0.000000
0.964599 0.766445 0.000000
0.141360 0.009369 0.393774
0.191165 0.000000 0.395056
0.296117 0.000000 0.400732
0.410224 0.000000 0.413092
0.507286 0.000000 0.416938
0.645228 0.000000 0.459907
0.786069 0.000000 0.500755
0.905638 0.000000 0.520134
0.124941 0.130282 0.380224
0.178164 0.117342 0.382330
0.286992 0.027222 0.389868
0.404852 0.000000 0.403815
0.506828 0.000000 0.410681
0.648371 0.000000 0.456458
0.788296 0.000000 0.497749
0.907439 0.000000 0.516106
0.116304 0.288029 0.338994
0.160433 0.269871 0.346899
0.264866 0.228733 0.358251
0.393622 0.168490 0.373816
0.515801 0.000000 0.393378
0.658686 0.000000 0.435492
0.796139 0.000000 0.476661
0.915801 0.000000 0.503349
0.202762 0.341741 0.131411
0.217990 0.345068 0.147738
0.276036 0.356176 0.205844
0.397406 0.372808 0.318303
0.541100 0.320012 0.351232
0.689418 0.216831 0.392828
0.825681 0.000000 0.432410
0.934234 0.000000 0.459388
0.382025 0.450263 0.065492
0.392248 0.453010 0.083711
0.420203 0.455573 0.101961
0.473640 0.459693 0.123781
0.562066 0.456580 0.170199
0.737423 0.489631 0.250980
0.859617 0.432807 0.365850
0.944671 0.407416 0.450202
0.504601 0.544854 0.000000
0.509453 0.545342 0.000000
0.527245 0.547387 0.000000
0.561303 0.551141 0.000000
0.640131 0.580835 0.000000
0.713619 0.565240 0.000000
0.859190 0.571588 0.016846
0.960021 0.558495 0.241245
0.642725 0.682277 0.000000
0.647059 0.682307 0.000000
0.661982 0.682612 0.000000
0.688502 0.683558 0.000000
0.737606 0.695766 0.000000
0.801785 0.707210 0.000000
0.853849 0.671992 0.000000
0.950561 0.637140 0.000000
0.765957 0.837064 0.000000
0.769100 0.837186 0.000000
0.779934 0.837583 0.000000
0.801358 0.837705 0.000000
0.836728 0.836332 0.000000
0.888975 0.839597 0.000000
0.937591 0.825345 0.000000
0.966064 0.763790 0.000000
0.166812 0.000000 0.539422
0.211826 0.000000 0.540215
0.315923 0.000000 0.543786
0.433417 0.000000 0.550866
0.551293 0.000000 0.562005
0.659602 0.000000 0.570886
0.787381 0.000000 0.599573
0.903838 0.000000 0.615625
0.141909 0.100038 0.531518
0.193545 0.080568 0.532677
0.304875 0.000000 0.537102
0.427131 0.000000 0.545190
0.548699 0.000000 0.556878
0.661158 0.000000 0.567437
0.789578 0.000000 0.596918
0.905303 0.000000 0.612207
0.041169 0.259251 0.509239
0.126680 0.244388 0.510613
0.271214 0.212009 0.515953
0.409583 0.142031 0.525444
0.540978 0.000000 0.538781
0.663996 0.000000 0.554070
0.796811 0.000000 0.584314
0.910399 0.000000 0.599145
0.047150 0.454200 0.433387
0.125978 0.447425 0.440589
0.256016 0.414710 0.466346
0.398779 0.362066 0.487739
0.538781 0.302647 0.503502
0.674281 0.187716 0.525719
0.807248 0.000000 0.550408
0.919493 0.000000 0.563928
0.231510 0.435737 0.139071
0.243565 0.439826 0.152987
0.290135 0.454658 0.202274
0.386419 0.482429 0.294987
0.551049 0.525353 0.444312
0.696742 0.477241 0.476722
0.828702 0.392035 0.504723
0.934325 0.188815 0.515373
0.433234 0.554894 0.000000
0.441749 0.557916 0.055421
0.474434 0.569024 0.124056
0.527764 0.580896 0.167117
0.600427 0.588312 0.174777
0.714199 0.591974 0.255802
0.865202 0.627039 0.381292
0.941711 0.614893 0.504936
0.603693 0.685603 0.000000
0.607935 0.685908 0.000000
0.623499 0.687037 0.000000
0.652949 0.689265 0.000000
0.699245 0.692287 0.000000
0.789364 0.718807 0.000000
0.852750 0.680598 0.000000
0.955505 0.654322 0.165774
0.771359 0.837461 0.000000
0.774594 0.837552 0.000000
0.785733 0.838071 0.000000
0.804013 0.839353 0.000000
0.833433 0.840269 0.000000
0.886748 0.841733 0.000000
0.938781 0.827817 0.000000
0.967254 0.762264 0.000000
0.186282 0.000000 0.655146
0.224277 0.000000 0.655604
0.319066 0.000000 0.657496
0.431342 0.000000 0.661250
0.545892 0.000000 0.666987
0.654688 0.000000 0.674311
0.770932 0.000000 0.692714
0.901091 0.000000 0.721248
0.164279 0.018616 0.651484
0.207156 0.000000 0.652064
0.308568 0.000000 0.654322
0.425238 0.000000 0.658412
0.543145 0.000000 0.664424
0.657343 0.000000 0.672206
0.773983 0.000000 0.691371
0.902464 0.000000 0.718593
0.058320 0.229038 0.639918
0.146700 0.221134 0.640681
0.277562 0.189883 0.643397
0.408026 0.108431 0.648249
0.534447 0.000000 0.655238
0.655451 0.000000 0.664118
0.782345 0.000000 0.686030
0.907286 0.000000 0.708553
0.072450 0.416236 0.617212
0.143771 0.408392 0.618738
0.265232 0.385534 0.622034
0.399969 0.347723 0.627985
0.532219 0.285801 0.636561
0.659297 0.164950 0.647547
0.795315 0.000000 0.673396
0.915557 0.000000 0.686732
0.000000 0.618128 0.521416
0.000000 0.614557 0.526726
0.223850 0.598718 0.545678
0.395758 0.560357 0.579522
0.550317 0.514458 0.604273
0.676539 0.452644 0.618585
0.814115 0.322515 0.642725
0.923522 0.000000 0.639612
0.252995 0.535302 0.131563
0.262272 0.538720 0.144167
0.297704 0.551080 0.186496
0.369268 0.574670 0.261906
0.496071 0.611810 0.382910
0.700282 0.673671 0.566857
0.825193 0.636683 0.594141
0.923735 0.564111 0.604852
0.492775 0.681666 0.000000
0.498817 0.683040 0.000000
0.521599 0.688350 0.034424
0.568261 0.699123 0.157626
0.638331 0.711025 0.215610
0.726192 0.716243 0.208713
0.843107 0.713222 0.356420
0.942992 0.747982 0.523522
0.705928 0.840787 0.000000
0.709743 0.840970 0.000000
0.723629 0.841672 0.000000
0.749783 0.843137 0.000000
0.790341 0.844846 0.000000
0.847898 0.844694 0.000000
0.929747 0.848142 0.000000
0.963256 0.771359 0.000000
0.197635 0.000000 0.741024
0.229007 0.000000 0.741238
0.312078 0.000000 0.742153
0.415045 0.000000 0.743954
0.517845 0.000000 0.746548
0.620874 0.000000 0.749996
0.722621 0.000000 0.754299
0.834867 0.000000 0.774350
0.180514 0.000000 0.739528
0.214939 0.000000 0.739834
0.302892 0.000000 0.740841
0.409552 0.000000 0.742733
0.519707 0.000000 0.745602
0.624414 0.000000 0.749264
0.725551 0.000000 0.753628
0.837644 0.000000 0.773922
0.127932 0.203220 0.734310
0.175235 0.194400 0.734676
0.278416 0.159030 0.735927
0.393652 0.001099 0.738277
0.509972 0.000000 0.741634
0.623865 0.000000 0.745998
0.733577 0.000000 0.751217
0.847593 0.000000 0.772427
0.141665 0.386847 0.723201
0.185702 0.382452 0.723629
0.286473 0.366247 0.725185
0.396002 0.327825 0.728206
0.510094 0.258885 0.732601
0.624811 0.094575 0.738308
0.738308 0.000000 0.745205
0.865568 0.000000 0.769314
0.110292 0.587762 0.692653
0.173037 0.580621 0.695003
0.304234 0.555901 0.703212
0.436774 0.532708 0.709987
0.544854 0.498848 0.715450
0.647211 0.429755 0.723110
0.757259 0.314580 0.732357
0.889036 0.000000 0.759945
0.000000 0.775235 0.602411
0.000000 0.778073 0.610468
0.146212 0.765438 0.622950
0.349767 0.736934 0.644862
0.550042 0.694362 0.675776
0.698360 0.664179 0.695918
0.794888 0.608972 0.706905
0.916228 0.457771 0.729458
0.266239 0.672450 0.063386
0.272648 0.673518 0.084504
0.297032 0.677363 0.135225
0.345006 0.685420 0.204349
0.434272 0.700862 0.305089
0.601801 0.729854 0.468605
0.823026 0.795712 0.667567
0.913725 0.769711 0.686580
0.569787 0.843870 0.000000
0.574304 0.844175 0.000000
0.590936 0.845335 0.000000
0.623865 0.847410 0.053376
0.680323 0.849729 0.206058
0.760739 0.851194 0.287297
0.856474 0.848783 0.243412
0.939544 0.814633 0.471595
0.195956 0.000000 0.802823
0.220798 0.000000 0.802945
0.289586 0.000000 0.803372
0.378576 0.000000 0.804196
0.474250 0.000000 0.805447
0.571557 0.000000 0.807126
0.668391 0.000000 0.809232
0.763973 0.000000 0.811734
0.183719 0.000000 0.802243
0.212161 0.000000 0.802365
0.288426 0.000000 0.802914
0.382605 0.000000 0.803891
0.477058 0.000000 0.805173
0.573693 0.000000 0.806882
0.670283 0.000000 0.809018
0.765957 0.000000 0.811582
0.149783 0.161135 0.799802
0.183078 0.149355 0.799985
0.266606 0.092134 0.800717
0.367437 0.000000 0.802029
0.473701 0.000000 0.803861
0.580407 0.000000 0.806119
0.676722 0.000000 0.808438
0.772671 0.000000 0.811124
0.220066 0.369146 0.793118
0.239261 0.363043 0.793423
0.296452 0.339574 0.794553
0.377539 0.291264 0.796536
0.471534 0.195987 0.799374
0.573449 0.000000 0.802914
0.680446 0.000000 0.806821
0.784482 0.000000 0.810391
0.274266 0.531365 0.782620
0.298283 0.530358 0.782773
0.370123 0.527611 0.783322
0.469306 0.525566 0.784360
0.525750 0.469886 0.788540
0.599908 0.377356 0.793973
0.691035 0.194034 0.800381
0.795956 0.000000 0.807065
0.192996 0.735225 0.754665
0.232547 0.730251 0.755764
0.337682 0.713283 0.759548
0.476509 0.688014 0.765896
0.609888 0.673854 0.771237
0.688106 0.647669 0.775601
0.751003 0.571374 0.783291
0.832517 0.428412 0.793149
0.000000 0.896452 0.651881
0.000000 0.897185 0.657710
0.074983 0.899718 0.678676
0.296086 0.900450 0.713741
0.507195 0.853422 0.729061
0.702205 0.807370 0.747707
0.820493 0.788083 0.760128
0.885924 0.739437 0.768887
0.295232 0.879759 0.000000
0.299901 0.879454 0.000000
0.317601 0.878355 0.000000
0.353033 0.876005 0.119722
0.415259 0.871672 0.233585
0.524498 0.863554 0.367895
0.705592 0.852201 0.551843
0.912047 0.884276 0.740627
