其他预设/【213】赛博朋克科幻预设52款/1.LUT预设（视频调色-PR-AE-PS-FCPX-达芬奇用）/赛博朋克科幻__-9 强度5.cube
# Created by Adobe Lightroom plugin Export LUT (1.17.0)
# www.johnrellis.com/lightroom/exportlut.htm
# Preset: 赛博朋克科幻[素锦印象]-9 强度5
# Color profile: /Library/Application Support/Adobe/Color/Profiles/Recommended/AdobeRGB1998.icc
LUT_3D_SIZE 5
DOMAIN_MIN 0.000000 0.000000 0.000000
DOMAIN_MAX 0.903226 0.903226 0.903226
0.000000 0.000000 0.000000
0.192081 0.042329 0.039246
0.519249 0.078126 0.004456
0.781003 0.143404 0.077943
0.914183 0.254246 0.232212
0.103090 0.106874 0.105196
0.219516 0.181949 0.030793
0.475013 0.203677 0.095369
0.767056 0.249119 0.132937
0.907256 0.326360 0.275151
0.238987 0.250370 0.245609
0.277897 0.327306 0.296147
0.604883 0.496254 0.000000
0.824186 0.345861 0.000000
0.879667 0.497047 0.409674
0.437171 0.456245 0.448219
0.466041 0.507530 0.487098
0.566827 0.642298 0.567681
0.826566 0.691371 0.241489
0.951751 0.424353 0.000000
0.659480 0.674342 0.668086
0.672633 0.695735 0.685084
0.716518 0.754482 0.729976
0.770596 0.812161 0.755856
0.914977 0.806332 0.531365
0.108583 0.108217 0.133486
0.210513 0.027863 0.145083
0.516472 0.141085 0.061585
0.778103 0.198611 0.105531
0.914397 0.270573 0.242741
0.176883 0.176883 0.176883
0.189731 0.189731 0.189731
0.493202 0.229984 0.160494
0.765621 0.274968 0.150576
0.907713 0.336858 0.283696
0.275914 0.275914 0.275914
0.312200 0.320073 0.316808
0.581231 0.492592 0.222934
0.817227 0.357031 0.000000
0.880949 0.500633 0.414252
0.462806 0.462806 0.462806
0.486885 0.501549 0.495369
0.578820 0.636347 0.586816
0.814298 0.699397 0.376074
0.952117 0.426032 0.000000
0.664881 0.667781 0.666682
0.677150 0.689754 0.684413
0.718563 0.750271 0.731319
0.773678 0.811826 0.763394
0.907713 0.813870 0.589319
0.294102 0.292119 0.382849
0.286625 0.242802 0.362860
0.542138 0.000000 0.359838
0.798123 0.230777 0.263981
0.920745 0.272496 0.250340
0.419379 0.426246 0.450233
0.377996 0.376959 0.430030
0.530449 0.205905 0.385992
0.784878 0.337896 0.338140
0.915404 0.330083 0.285710
0.514580 0.514580 0.514580
0.517449 0.517449 0.517449
0.481758 0.481758 0.481758
0.738857 0.539055 0.507195
0.891234 0.490608 0.410773
0.568444 0.568444 0.568444
0.570367 0.570367 0.570367
0.597253 0.603082 0.600610
0.775723 0.717250 0.588586
0.930785 0.534783 0.381811
0.700374 0.700374 0.700374
0.705348 0.705348 0.705348
0.721035 0.728817 0.725490
0.780789 0.808133 0.781643
0.891875 0.829953 0.695918
0.571832 0.570062 0.658106
0.555596 0.539788 0.649592
0.532189 0.383856 0.599329
0.774197 0.222812 0.545342
0.908202 0.499886 0.545068
0.633631 0.638056 0.683497
0.614923 0.613733 0.674739
0.560174 0.477974 0.623072
0.765560 0.338079 0.568994
0.901488 0.541466 0.574151
0.726680 0.726680 0.726680
0.730648 0.730800 0.731044
0.677913 0.677455 0.702083
0.738827 0.542535 0.635004
0.884123 0.632593 0.638880
0.737972 0.737972 0.737972
0.741085 0.741085 0.741085
0.744564 0.744564 0.744564
0.702113 0.702083 0.702113
0.855375 0.738705 0.722438
0.771633 0.771633 0.771633
0.773312 0.773312 0.773312
0.773495 0.773495 0.773495
0.774563 0.778042 0.776577
0.875486 0.845029 0.784146
0.755886 0.754971 0.802365
0.752010 0.747738 0.801358
0.737423 0.710353 0.793698
0.760525 0.587793 0.781277
0.891691 0.511894 0.704189
0.773342 0.774746 0.809049
0.769131 0.768399 0.807919
0.753201 0.736324 0.800443
0.759548 0.627466 0.784024
0.887114 0.550866 0.717403
0.813443 0.816007 0.825315
0.812222 0.814786 0.826535
0.797024 0.796536 0.821439
0.764767 0.715785 0.793606
0.875120 0.642145 0.751919
0.830594 0.830594 0.830594
0.833494 0.833494 0.833494
0.842893 0.842893 0.842893
0.826200 0.825956 0.837949
0.859678 0.742947 0.795132
0.832120 0.832120 0.832120
0.834226 0.834226 0.834226
0.841215 0.841215 0.841215
0.852354 0.852354 0.852354
0.838132 0.838102 0.838102
