其他预设/【213】赛博朋克科幻预设52款/1.LUT预设（视频调色-PR-AE-PS-FCPX-达芬奇用）/赛博朋克科幻__-8 强度1.cube
# Created by Adobe Lightroom plugin Export LUT (1.17.0)
# www.johnrellis.com/lightroom/exportlut.htm
# Preset: 赛博朋克科幻[素锦印象]-8 强度1
# Color profile: /Library/Application Support/Adobe/Color/Profiles/Recommended/AdobeRGB1998.icc
LUT_3D_SIZE 8
DOMAIN_MIN 0.000000 0.000000 0.000000
DOMAIN_MAX 0.903226 0.903226 0.903226
0.000000 0.012024 0.000000
0.113771 0.000000 0.033478
0.226871 0.000000 0.083467
0.354101 0.000000 0.121035
0.491096 0.000000 0.164797
0.628260 0.000000 0.210178
0.762509 0.000000 0.258183
0.895232 0.000000 0.312566
0.000000 0.127108 0.047364
0.104402 0.123873 0.012055
0.228885 0.080232 0.054231
0.357519 0.000000 0.080659
0.494606 0.000000 0.125338
0.630945 0.000000 0.181888
0.764675 0.000000 0.236820
0.897002 0.000000 0.296147
0.000000 0.251347 0.102785
0.000000 0.253086 0.026917
0.208865 0.248051 0.024475
0.357305 0.210849 0.064698
0.495766 0.150454 0.099550
0.634089 0.000000 0.134524
0.769497 0.000000 0.175082
0.903227 0.000000 0.226139
0.000000 0.386542 0.154604
0.000000 0.388556 0.131228
0.138796 0.391150 0.050019
0.327459 0.386816 0.023011
0.492653 0.360662 0.061494
0.634028 0.297520 0.115358
0.769680 0.223239 0.162234
0.903685 0.072175 0.216831
0.000000 0.526238 0.207736
0.000000 0.528038 0.197177
0.000000 0.534630 0.038239
0.260258 0.536217 0.072389
0.452979 0.529595 0.011994
0.627527 0.507347 0.040986
0.769680 0.430579 0.135073
0.904234 0.376440 0.199435
0.000000 0.660639 0.259525
0.000000 0.661921 0.252323
0.000000 0.667170 0.186679
0.140719 0.672877 0.080537
0.384924 0.673335 0.096101
0.577234 0.666041 0.052308
0.760739 0.648341 0.047486
0.902403 0.575372 0.166964
0.000000 0.790860 0.310735
0.000000 0.791653 0.306462
0.000000 0.795224 0.271824
0.000000 0.803098 0.110414
0.298772 0.805325 0.139864
0.509331 0.803586 0.144045
0.701076 0.795865 0.112398
0.893980 0.784543 0.096498
0.000000 0.920134 0.363165
0.000000 0.920378 0.361944
0.000000 0.921630 0.352880
0.000000 0.927459 0.267216
0.181979 0.931731 0.194705
0.440497 0.932097 0.228214
0.637293 0.928374 0.221714
0.826719 0.920714 0.195132
0.000000 0.010803 0.113954
0.116579 0.000000 0.117098
0.229221 0.000000 0.143465
0.354650 0.000000 0.179171
0.490242 0.000000 0.217075
0.625452 0.000000 0.258030
0.759976 0.000000 0.298863
0.893095 0.000000 0.346654
0.000000 0.121981 0.113436
0.110750 0.123171 0.115908
0.225406 0.108644 0.134432
0.353429 0.041718 0.162844
0.490547 0.000000 0.198306
0.627802 0.000000 0.237522
0.762173 0.000000 0.281132
0.894896 0.000000 0.332372
0.000000 0.249332 0.146212
0.079072 0.249424 0.141634
0.211673 0.247654 0.119631
0.356786 0.212528 0.131899
0.495399 0.154757 0.152956
0.633661 0.000000 0.178775
0.769070 0.000000 0.211337
0.901274 0.000000 0.272313
0.000000 0.384649 0.187930
0.000000 0.386114 0.180941
0.145907 0.390448 0.125338
0.329442 0.386572 0.121096
0.493294 0.357366 0.131777
0.633814 0.298711 0.163577
0.769406 0.227359 0.199893
0.903319 0.099428 0.247471
0.000000 0.524468 0.234501
0.000000 0.526238 0.226719
0.000000 0.532616 0.153353
0.263035 0.535790 0.136233
0.454414 0.529473 0.121218
0.627955 0.505089 0.128908
0.769558 0.431495 0.178378
0.903960 0.379522 0.231968
0.000000 0.659297 0.280583
0.000000 0.660578 0.274693
0.000000 0.665553 0.231510
0.147433 0.672236 0.139559
0.386603 0.673152 0.151766
0.578576 0.665888 0.131319
0.761013 0.646845 0.133059
0.902525 0.574304 0.204959
0.000000 0.790005 0.327367
0.000000 0.790829 0.323583
0.000000 0.793881 0.302678
0.000000 0.801846 0.181949
0.303349 0.804837 0.181003
0.511192 0.803372 0.186648
0.702235 0.795682 0.164034
0.894194 0.783413 0.156405
0.000000 0.919860 0.375402
0.000000 0.920104 0.374212
0.000000 0.920745 0.374823
0.000000 0.926421 0.299901
0.192111 0.931334 0.225254
0.444709 0.931701 0.255924
0.639307 0.928161 0.251804
0.827878 0.920531 0.228763
0.000000 0.010712 0.228275
0.120180 0.000000 0.230900
0.237797 0.000000 0.240452
0.373297 0.000000 0.274083
0.506432 0.000000 0.305516
0.637079 0.000000 0.339544
0.766751 0.000000 0.372595
0.895720 0.000000 0.412390
0.000000 0.131716 0.227207
0.108186 0.122164 0.230350
0.234470 0.113527 0.238956
0.368444 0.092561 0.269566
0.502190 0.000000 0.301305
0.634089 0.000000 0.334905
0.764462 0.000000 0.369726
0.893919 0.000000 0.412512
0.000000 0.240116 0.225284
0.086030 0.241764 0.227604
0.222507 0.246250 0.234379
0.353277 0.234165 0.253361
0.490730 0.207919 0.278752
0.627527 0.161715 0.309361
0.761624 0.077363 0.345953
0.893980 0.000000 0.391638
0.000000 0.380377 0.262577
0.000000 0.381598 0.261204
0.194034 0.385657 0.257328
0.336584 0.385809 0.238621
0.494972 0.346868 0.248875
0.633082 0.304509 0.268589
0.768399 0.244572 0.294621
0.901884 0.162539 0.332189
0.000000 0.520012 0.298650
0.000000 0.521355 0.296605
0.136172 0.526177 0.289433
0.274784 0.533593 0.246403
0.459907 0.528771 0.242924
0.629297 0.497505 0.251347
0.768856 0.436500 0.280949
0.902861 0.392340 0.320531
0.000000 0.655665 0.337072
0.000000 0.656672 0.334844
0.000000 0.660426 0.326970
0.170871 0.669978 0.248936
0.393866 0.672419 0.263432
0.583215 0.665217 0.252415
0.761868 0.641657 0.257725
0.902770 0.571191 0.301793
0.000000 0.787533 0.376226
0.000000 0.788205 0.374212
0.000000 0.790555 0.368048
0.097292 0.797147 0.317418
0.319005 0.803006 0.277440
0.518395 0.802609 0.287785
0.706538 0.795010 0.273747
0.894682 0.779568 0.273777
0.000000 0.919036 0.414618
0.000000 0.919432 0.412726
0.000000 0.920012 0.412909
0.000000 0.922820 0.391699
0.223056 0.929931 0.307195
0.459113 0.930358 0.333318
0.646662 0.927306 0.335363
0.832029 0.919860 0.317845
0.000000 0.006439 0.356573
0.121126 0.000000 0.359533
0.253574 0.000000 0.369665
0.380987 0.000000 0.383276
0.534874 0.000000 0.422126
0.660883 0.000000 0.441077
0.783810 0.000000 0.462928
0.907805 0.000000 0.486122
0.000000 0.122744 0.355596
0.101961 0.119722 0.358434
0.246586 0.107332 0.368292
0.378668 0.069429 0.381994
0.532769 0.000000 0.420050
0.657771 0.000000 0.438544
0.781582 0.000000 0.461463
0.906401 0.000000 0.485389
0.000000 0.256748 0.349462
0.041993 0.255650 0.351629
0.219791 0.244602 0.362615
0.369512 0.239658 0.377234
0.518273 0.231540 0.408698
0.645930 0.214389 0.430610
0.772976 0.185153 0.456855
0.900114 0.138338 0.486763
0.000000 0.367926 0.346654
0.000000 0.369604 0.348516
0.196139 0.374914 0.355291
0.350622 0.383917 0.367468
0.489662 0.372534 0.386236
0.626307 0.355871 0.409979
0.760281 0.337835 0.439979
0.892485 0.327459 0.479255
0.000000 0.511894 0.384009
0.000000 0.513176 0.383856
0.131807 0.517723 0.383886
0.322698 0.525689 0.386969
0.470619 0.527245 0.372747
0.630701 0.486061 0.382910
0.766751 0.451820 0.404273
0.900359 0.420905 0.435462
0.000000 0.649348 0.415229
0.000000 0.650324 0.414374
0.000000 0.653773 0.412268
0.284428 0.659937 0.412329
0.412512 0.669093 0.383825
0.592279 0.663874 0.381292
0.762905 0.633387 0.389563
0.901884 0.576257 0.421485
0.000000 0.783261 0.447425
0.000000 0.783902 0.446174
0.000000 0.786130 0.442878
0.230259 0.789853 0.442603
0.345983 0.799374 0.389502
0.533104 0.801053 0.407782
0.714748 0.793729 0.397528
0.895384 0.773159 0.402564
0.000000 0.917021 0.480079
0.000000 0.917418 0.478584
0.000000 0.918700 0.474067
0.141909 0.919524 0.478645
0.319188 0.924743 0.441840
0.482979 0.927886 0.433082
0.660243 0.925750 0.443366
0.839597 0.918608 0.429541
0.000000 0.000000 0.490547
0.116579 0.000000 0.493294
0.257053 0.000000 0.503105
0.399054 0.000000 0.517998
0.536187 0.000000 0.533288
0.680446 0.000000 0.557855
0.807279 0.000000 0.572045
0.923400 0.000000 0.581537
0.000000 0.118379 0.489235
0.090455 0.114595 0.491951
0.248142 0.097871 0.501579
0.396185 0.026398 0.517571
0.534203 0.000000 0.532189
0.679103 0.000000 0.556909
0.805356 0.000000 0.571008
0.922179 0.000000 0.581140
0.000000 0.262974 0.481147
0.000000 0.258335 0.484657
0.215488 0.242222 0.495277
0.381231 0.238132 0.512718
0.526879 0.221744 0.527947
0.673884 0.215946 0.554284
0.797971 0.192050 0.567895
0.917449 0.110567 0.580102
0.000000 0.383948 0.473579
0.000000 0.383978 0.475380
0.181674 0.384436 0.481666
0.348241 0.381811 0.499489
0.511864 0.384070 0.519249
0.658167 0.388098 0.546471
0.782864 0.371466 0.561913
0.907836 0.337163 0.577661
0.000000 0.496986 0.469062
0.000000 0.498390 0.470710
0.147738 0.503197 0.476448
0.323491 0.511864 0.487221
0.486976 0.524834 0.504234
0.624445 0.515038 0.522545
0.758999 0.504692 0.546075
0.891783 0.498756 0.577264
0.000000 0.639429 0.504540
0.000000 0.640406 0.504723
0.000000 0.643671 0.505425
0.274113 0.649744 0.508354
0.458381 0.658991 0.518486
0.605921 0.661769 0.510460
0.764218 0.623560 0.520623
0.899535 0.595697 0.544152
0.000000 0.776577 0.532616
0.000000 0.777188 0.532097
0.000000 0.779324 0.530602
0.208682 0.783139 0.529717
0.424292 0.788418 0.537804
0.554681 0.797513 0.523613
0.726589 0.791897 0.521050
0.896849 0.764218 0.529229
0.000000 0.913878 0.561700
0.000000 0.914275 0.560693
0.000000 0.915526 0.557610
0.000000 0.917662 0.553552
0.386053 0.918364 0.564630
0.506035 0.924895 0.532280
0.676722 0.924102 0.551720
0.850034 0.917021 0.540978
0.000000 0.000000 0.623102
0.105745 0.000000 0.625177
0.254856 0.000000 0.632288
0.399939 0.000000 0.644892
0.541650 0.000000 0.656214
0.682856 0.000000 0.669734
0.817319 0.000000 0.682338
0.941070 0.000000 0.689693
0.000000 0.111116 0.621942
0.069795 0.106416 0.623957
0.245151 0.085512 0.631159
0.394934 0.000000 0.643763
0.540002 0.000000 0.655879
0.681636 0.000000 0.669062
0.816587 0.000000 0.682124
0.940032 0.000000 0.689540
0.000000 0.242954 0.616663
0.000000 0.242100 0.618769
0.210178 0.238987 0.626093
0.377630 0.233036 0.639124
0.534234 0.222599 0.654383
0.676753 0.195102 0.666651
0.813565 0.183932 0.681819
0.936034 0.114076 0.689418
0.000000 0.395941 0.602655
0.000000 0.394995 0.603845
0.172305 0.389410 0.612940
0.345800 0.379339 0.628626
0.520684 0.386816 0.648524
0.666865 0.379858 0.661555
0.807614 0.385504 0.682368
0.928069 0.354803 0.689357
0.000000 0.513451 0.598627
0.000000 0.513512 0.599756
0.110658 0.514183 0.603754
0.310796 0.516411 0.611231
0.485206 0.521874 0.631220
0.650935 0.531487 0.652888
0.794919 0.539635 0.679500
0.914824 0.513481 0.687098
0.000000 0.628168 0.593561
0.000000 0.628962 0.594537
0.000000 0.631708 0.598077
0.280461 0.636591 0.604730
0.453651 0.644251 0.615534
0.623651 0.659052 0.635370
0.759518 0.649409 0.652766
0.893370 0.641993 0.676234
0.000000 0.766903 0.624994
0.000000 0.767453 0.625025
0.000000 0.769406 0.625086
0.176028 0.772915 0.625818
0.401984 0.777829 0.629938
0.593774 0.786221 0.645289
0.742092 0.789548 0.641505
0.899504 0.753567 0.651789
0.000000 0.909392 0.653498
0.000000 0.909758 0.652979
0.000000 0.911009 0.651118
0.000000 0.913054 0.648341
0.347265 0.914916 0.649165
0.563653 0.915801 0.663203
0.697047 0.921324 0.656886
0.863645 0.915007 0.653681
0.000000 0.000000 0.751553
0.086976 0.000000 0.752895
0.249546 0.000000 0.757565
0.394629 0.000000 0.765896
0.543542 0.000000 0.777707
0.680995 0.000000 0.784024
0.822782 0.000000 0.794247
0.943786 0.000000 0.793057
0.000000 0.098878 0.750668
0.010925 0.092683 0.752010
0.239414 0.064607 0.756741
0.389471 0.000000 0.765103
0.540612 0.000000 0.777005
0.680018 0.000000 0.783871
0.822019 0.000000 0.794003
0.943359 0.000000 0.793149
0.000000 0.239902 0.746883
0.000000 0.238651 0.748287
0.203830 0.234318 0.753170
0.372717 0.226047 0.761898
0.530999 0.213443 0.774228
0.676967 0.189120 0.783047
0.819120 0.133120 0.792966
0.941711 0.000000 0.793698
0.000000 0.398779 0.736446
0.000000 0.396612 0.738125
0.132021 0.377295 0.744717
0.343084 0.376013 0.754391
0.514336 0.379553 0.767880
0.672145 0.380468 0.780941
0.813199 0.363500 0.790677
0.938262 0.345983 0.795438
0.000000 0.524193 0.727504
0.000000 0.523522 0.728145
0.000000 0.521508 0.730434
0.304051 0.519066 0.738094
0.483345 0.518303 0.755398
0.661982 0.535363 0.775662
0.804013 0.529534 0.786862
0.932982 0.528038 0.799039
0.000000 0.643030 0.723720
0.000000 0.642847 0.724239
0.000000 0.642420 0.726192
0.253422 0.641962 0.729885
0.438575 0.644190 0.736049
0.622553 0.655360 0.756985
0.790066 0.669886 0.779934
0.924376 0.675532 0.801053
0.000000 0.760555 0.719142
0.000000 0.760800 0.719570
0.000000 0.761624 0.721065
0.186679 0.763058 0.723964
0.404639 0.765286 0.728939
0.583978 0.770474 0.738552
0.761257 0.786587 0.760922
0.896483 0.777127 0.778073
0.000000 0.905241 0.752041
0.000000 0.905364 0.751888
0.000000 0.905791 0.751400
0.000000 0.906584 0.750546
0.313359 0.907866 0.750851
0.531640 0.908934 0.754025
0.730404 0.911620 0.768612
0.880369 0.912566 0.767391
0.000000 0.000000 0.877562
0.046235 0.000000 0.878233
0.241215 0.000000 0.880644
0.387396 0.000000 0.884886
0.532616 0.000000 0.890929
0.681880 0.000000 0.898558
0.813748 0.000000 0.900603
0.953307 0.000000 0.906249
0.000000 0.074769 0.877104
0.000000 0.064118 0.877775
0.230777 0.000000 0.880217
0.382300 0.000000 0.884520
0.529747 0.000000 0.890593
0.680140 0.000000 0.898222
0.813138 0.000000 0.900511
0.952880 0.000000 0.906157
0.000000 0.234714 0.875212
0.000000 0.232914 0.875883
0.194766 0.226078 0.878355
0.365881 0.212894 0.882780
0.520623 0.190249 0.889067
0.674708 0.152255 0.896910
0.811246 0.000000 0.900053
0.951019 0.000000 0.905699
0.000000 0.394415 0.869780
0.000000 0.381231 0.871092
0.112459 0.372808 0.874022
0.338903 0.370459 0.878782
0.506279 0.366888 0.885466
0.666072 0.362158 0.893889
0.808438 0.340093 0.898833
0.947234 0.293217 0.904631
0.000000 0.533959 0.861082
0.000000 0.532250 0.861845
0.000000 0.527367 0.864714
0.317967 0.524254 0.870085
0.481086 0.513359 0.878782
0.652338 0.520378 0.888457
0.805447 0.520439 0.896727
0.940978 0.499306 0.902800
0.000000 0.656062 0.858824
0.000000 0.655329 0.859068
0.000000 0.652766 0.859953
0.216098 0.648890 0.861540
0.433173 0.648066 0.865660
0.621759 0.651057 0.878813
0.799161 0.669642 0.893309
0.933349 0.661250 0.900572
0.000000 0.779080 0.856870
0.000000 0.778683 0.857053
0.000000 0.777157 0.857755
0.090700 0.774868 0.858976
0.381323 0.773190 0.860807
0.567895 0.772274 0.864012
0.760922 0.782223 0.879515
0.923919 0.798093 0.897459
0.000000 0.903899 0.854795
0.000000 0.903868 0.854917
0.000000 0.903655 0.855375
0.000000 0.903105 0.856138
0.317754 0.901732 0.857267
0.528527 0.899718 0.859190
0.714260 0.898344 0.863737
0.900481 0.909422 0.882719
