其他预设/【213】赛博朋克科幻预设52款/1.LUT预设（视频调色-PR-AE-PS-FCPX-达芬奇用）/赛博朋克科幻__-10 强度5.cube
# Created by Adobe Lightroom plugin Export LUT (1.17.0)
# www.johnrellis.com/lightroom/exportlut.htm
# Preset: 赛博朋克科幻[素锦印象]-10 强度5
# Color profile: /Library/Application Support/Adobe/Color/Profiles/Recommended/AdobeRGB1998.icc
LUT_3D_SIZE 8
DOMAIN_MIN 0.000000 0.000000 0.000000
DOMAIN_MAX 0.903226 0.903226 0.903226
0.076326 0.074983 0.067597
0.105989 0.103670 0.090425
0.242741 0.235721 0.194766
0.387549 0.375525 0.304662
0.519219 0.502647 0.404517
0.637964 0.617304 0.494514
0.745235 0.720882 0.575799
0.837430 0.809873 0.645594
0.000000 0.229801 0.098482
0.144717 0.155978 0.072511
0.235172 0.228428 0.189090
0.383124 0.371283 0.301335
0.516503 0.500053 0.402472
0.636469 0.615869 0.493385
0.744625 0.720272 0.575311
0.837217 0.809689 0.645441
0.000000 0.475471 0.177798
0.000000 0.460700 0.135561
0.324407 0.346746 0.156344
0.389197 0.377142 0.305974
0.513390 0.497047 0.400153
0.631281 0.610864 0.489479
0.742428 0.718166 0.573663
0.836606 0.809079 0.644984
0.000000 0.668574 0.248508
0.000000 0.662287 0.232792
0.000000 0.634852 0.143221
0.491707 0.518090 0.262211
0.528954 0.512047 0.411933
0.640925 0.620172 0.496773
0.742123 0.717861 0.573419
0.835508 0.808042 0.644190
0.000000 0.812467 0.297704
0.000000 0.809415 0.295109
0.000000 0.798947 0.243076
0.363256 0.769070 0.232944
0.638148 0.666316 0.358221
0.657008 0.635706 0.508965
0.756527 0.731777 0.584344
0.840879 0.813199 0.648219
0.000000 0.913054 0.328435
0.000000 0.911650 0.327794
0.000000 0.907286 0.299962
0.109010 0.891844 0.290867
0.545434 0.865751 0.334936
0.760037 0.783200 0.459541
0.772580 0.747280 0.596490
0.855680 0.827481 0.659449
0.000000 0.994873 0.347478
0.000000 0.994324 0.347051
0.000000 0.992493 0.338811
0.000000 0.984009 0.329320
0.461891 0.962432 0.396124
0.701076 0.941405 0.448737
0.864317 0.877745 0.559899
0.872068 0.843290 0.671839
0.000000 1.000000 0.356329
0.000000 1.000000 0.355962
0.000000 1.000000 0.354559
0.000000 1.000000 0.344060
0.339879 1.000000 0.417182
0.702296 1.000000 0.537163
0.833158 0.997467 0.561151
0.950591 0.952819 0.649256
0.078187 0.073030 0.105074
0.109651 0.099886 0.091188
0.233768 0.227054 0.187930
0.378576 0.366857 0.297856
0.515740 0.499336 0.401892
0.636225 0.615625 0.493233
0.744808 0.720455 0.575463
0.837613 0.810056 0.645777
0.000000 0.197421 0.143496
0.154971 0.150973 0.127932
0.242496 0.235477 0.194583
0.372625 0.361120 0.293339
0.511925 0.495644 0.399023
0.634882 0.614313 0.492195
0.744259 0.719936 0.575036
0.837461 0.809903 0.645624
0.000000 0.456306 0.215946
0.000000 0.435401 0.183322
0.327794 0.340642 0.197604
0.405982 0.393317 0.318639
0.521080 0.504448 0.405951
0.627222 0.606928 0.486397
0.742245 0.717952 0.573480
0.836881 0.809354 0.645228
0.000000 0.656519 0.275425
0.000000 0.648920 0.253422
0.086946 0.622034 0.194705
0.492988 0.513603 0.284337
0.538445 0.521233 0.419104
0.648493 0.627466 0.502525
0.747433 0.722988 0.577447
0.835904 0.808377 0.644434
0.000000 0.806210 0.317784
0.000000 0.803799 0.307927
0.000000 0.792782 0.266514
0.367803 0.762478 0.258976
0.639094 0.663691 0.371527
0.662959 0.641413 0.513451
0.760922 0.736019 0.587671
0.843900 0.816098 0.650507
0.000000 0.910216 0.342626
0.000000 0.908843 0.342077
0.000000 0.904448 0.313909
0.131167 0.888884 0.306950
0.549859 0.862455 0.351141
0.761257 0.781918 0.468208
0.776181 0.750729 0.599207
0.858244 0.829953 0.661372
0.000000 0.993805 0.357549
0.000000 0.993225 0.357183
0.000000 0.991516 0.346929
0.000000 0.982757 0.340276
0.462776 0.961273 0.403265
0.704982 0.939849 0.458961
0.865354 0.877379 0.564660
0.874174 0.845335 0.673426
0.000000 1.000000 0.363073
0.000000 1.000000 0.362707
0.000000 1.000000 0.361364
0.000000 1.000000 0.351110
0.336736 1.000000 0.421393
0.705196 1.000000 0.542260
0.835294 0.996948 0.566339
0.951293 0.952789 0.651637
0.099458 0.057008 0.207675
0.190341 0.000000 0.214115
0.243839 0.195468 0.183871
0.365515 0.354253 0.287968
0.500603 0.484688 0.390448
0.625757 0.605524 0.485298
0.744015 0.719661 0.574823
0.839017 0.811398 0.646815
0.000000 0.123018 0.219821
0.167239 0.074464 0.231113
0.261387 0.175631 0.192782
0.357458 0.346502 0.281834
0.494942 0.479225 0.386114
0.622950 0.602808 0.483162
0.742641 0.718349 0.573816
0.838895 0.811276 0.646723
0.000000 0.402441 0.277623
0.000000 0.389136 0.271061
0.335760 0.325536 0.265354
0.421057 0.407874 0.330083
0.510063 0.493843 0.397589
0.613428 0.593622 0.475929
0.737728 0.713619 0.570123
0.838437 0.810849 0.646387
0.000000 0.632898 0.328801
0.000000 0.624140 0.316136
0.104555 0.592096 0.285710
0.495247 0.500786 0.333257
0.564141 0.546044 0.438575
0.669581 0.647822 0.518456
0.745632 0.721248 0.576104
0.835782 0.808286 0.644373
0.000000 0.794247 0.362676
0.000000 0.790555 0.352026
0.000000 0.775296 0.327764
0.367681 0.743984 0.319890
0.641016 0.654932 0.407324
0.680659 0.658534 0.526879
0.774472 0.749111 0.597955
0.853452 0.825315 0.657740
0.000000 0.903532 0.380621
0.000000 0.901701 0.377264
0.000000 0.895476 0.356847
0.164553 0.879698 0.352667
0.559899 0.851621 0.395514
0.764462 0.777615 0.493233
0.787533 0.761685 0.607813
0.866575 0.838010 0.667659
0.000000 0.990723 0.388037
0.000000 0.990021 0.388220
0.000000 0.988098 0.376562
0.000000 0.978973 0.373297
0.460670 0.957885 0.424842
0.715480 0.934752 0.488624
0.868528 0.876097 0.579370
0.881254 0.852171 0.678798
0.000000 1.000000 0.385565
0.000000 1.000000 0.384710
0.000000 1.000000 0.383490
0.000000 1.000000 0.373205
0.316747 1.000000 0.433753
0.701381 1.000000 0.549523
0.841520 0.995209 0.582483
0.953613 0.952758 0.659419
0.135622 0.000000 0.294621
0.208682 0.000000 0.303563
0.338933 0.000000 0.296361
0.376867 0.308354 0.280674
0.484382 0.469032 0.378119
0.613947 0.594110 0.476356
0.737026 0.712947 0.569543
0.840879 0.813199 0.648219
0.122103 0.000000 0.305852
0.206638 0.000000 0.313634
0.345342 0.000000 0.309300
0.384497 0.287480 0.281651
0.479042 0.463874 0.374090
0.610163 0.590478 0.473487
0.735378 0.711360 0.568292
0.840574 0.812894 0.648005
0.000000 0.301793 0.321569
0.000000 0.278477 0.322240
0.304967 0.227115 0.345525
0.423774 0.340459 0.316747
0.483803 0.468482 0.377691
0.597772 0.578515 0.464057
0.730129 0.706264 0.564324
0.838987 0.811368 0.646784
0.000000 0.571344 0.389227
0.000000 0.565576 0.386572
0.000000 0.542260 0.380529
0.493904 0.478218 0.385351
0.575830 0.557305 0.447456
0.657252 0.635920 0.509087
0.732723 0.708766 0.566308
0.835477 0.807980 0.644099
0.000000 0.772671 0.424872
0.000000 0.768551 0.419165
0.000000 0.752255 0.403784
0.346990 0.716396 0.394598
0.640223 0.638453 0.450874
0.705257 0.682277 0.545495
0.794247 0.768185 0.612909
0.859556 0.831235 0.662379
0.000000 0.892576 0.435340
0.000000 0.891081 0.429267
0.000000 0.883452 0.416785
0.160830 0.865873 0.413489
0.557305 0.834745 0.444953
0.767239 0.769711 0.525200
0.804562 0.778134 0.620722
0.879362 0.850340 0.677363
0.000000 0.985779 0.435218
0.000000 0.985046 0.435279
0.000000 0.982971 0.424079
0.000000 0.974273 0.419776
0.440833 0.953582 0.455512
0.724178 0.926909 0.525841
0.872831 0.873777 0.600214
0.892454 0.863005 0.687282
0.000000 1.000000 0.425757
0.000000 1.000000 0.424903
0.000000 1.000000 0.421027
0.000000 1.000000 0.407355
0.240177 1.000000 0.450233
0.679927 1.000000 0.554345
0.848631 0.992828 0.605158
0.957214 0.952758 0.671260
0.170382 0.000000 0.362493
0.222873 0.000000 0.370794
0.361639 0.000000 0.397833
0.455848 0.000000 0.357977
0.493812 0.416236 0.367498
0.596460 0.577234 0.463081
0.728389 0.704616 0.563043
0.838682 0.811093 0.646571
0.192386 0.000000 0.370367
0.236912 0.000000 0.377752
0.364263 0.000000 0.402686
0.461097 0.000000 0.367132
0.498329 0.403204 0.367437
0.592889 0.573785 0.460395
0.726802 0.703090 0.561852
0.838407 0.810819 0.646357
0.000000 0.191623 0.356909
0.000000 0.163027 0.375006
0.295933 0.117494 0.405554
0.480873 0.121767 0.403815
0.513298 0.365637 0.372595
0.581262 0.562554 0.451545
0.721614 0.698054 0.557885
0.837675 0.810117 0.645777
0.000000 0.451728 0.411627
0.000000 0.441688 0.411383
0.000000 0.396887 0.410529
0.442237 0.374609 0.440650
0.564965 0.486702 0.425666
0.622980 0.602838 0.483192
0.713863 0.690578 0.551995
0.837339 0.809781 0.645533
0.000000 0.712490 0.482826
0.000000 0.709163 0.481422
0.000000 0.696101 0.477913
0.272374 0.667536 0.477272
0.630732 0.610315 0.489052
0.711513 0.688319 0.550225
0.781552 0.755917 0.603296
0.840940 0.813260 0.648280
0.000000 0.875639 0.499489
0.000000 0.873716 0.496712
0.000000 0.865751 0.489143
0.000000 0.848295 0.483680
0.507958 0.818448 0.490791
0.765896 0.756130 0.555596
0.824765 0.797665 0.636011
0.895079 0.865537 0.689265
0.000000 0.977966 0.495796
0.000000 0.977264 0.495888
0.000000 0.975036 0.485847
0.000000 0.967193 0.480415
0.368750 0.951019 0.491890
0.715114 0.917906 0.557641
0.876707 0.869993 0.622827
0.906706 0.876768 0.698085
0.000000 1.000000 0.479316
0.000000 1.000000 0.478676
0.000000 1.000000 0.475776
0.000000 1.000000 0.461585
0.000000 1.000000 0.468605
0.626764 1.000000 0.556756
0.852140 0.990478 0.629603
0.961791 0.952819 0.685847
0.194827 0.000000 0.422675
0.235080 0.000000 0.430213
0.350164 0.000000 0.455604
0.500084 0.000000 0.476112
0.572656 0.220951 0.427863
0.609369 0.527947 0.454627
0.716732 0.693324 0.554162
0.836149 0.808621 0.644648
0.207919 0.000000 0.427985
0.244266 0.000000 0.434974
0.352941 0.000000 0.459083
0.500542 0.000000 0.480812
0.575067 0.202304 0.432441
0.612451 0.519432 0.454383
0.715206 0.691859 0.553033
0.835874 0.808377 0.644434
0.000000 0.076173 0.426734
0.132387 0.031922 0.434516
0.306737 0.000000 0.461036
0.496193 0.000000 0.498848
0.582330 0.114199 0.449195
0.622614 0.489845 0.455146
0.710018 0.686885 0.549096
0.835142 0.807675 0.643885
0.000000 0.334600 0.420111
0.000000 0.318608 0.418524
0.000000 0.257237 0.425147
0.403021 0.259281 0.490272
0.611658 0.315587 0.497444
0.647395 0.501274 0.474739
0.701930 0.679072 0.542992
0.834714 0.807248 0.643549
0.000000 0.598169 0.504021
0.000000 0.591608 0.503105
0.000000 0.565301 0.499672
0.150454 0.503960 0.492561
0.554772 0.484779 0.527581
0.692439 0.612665 0.522789
0.745724 0.721340 0.576165
0.834806 0.807340 0.643641
0.000000 0.831571 0.561486
0.000000 0.829648 0.560784
0.000000 0.822049 0.558923
0.000000 0.805966 0.558312
0.409796 0.778073 0.562371
0.751217 0.726650 0.580316
0.828336 0.801114 0.638727
0.883330 0.854185 0.680385
0.000000 0.966644 0.565362
0.000000 0.966186 0.563348
0.000000 0.963470 0.558190
0.000000 0.955932 0.554131
0.279118 0.940887 0.556054
0.651972 0.911192 0.582025
0.877256 0.861173 0.646204
0.924437 0.893858 0.711513
0.000000 1.000000 0.543359
0.000000 1.000000 0.543023
0.000000 1.000000 0.541283
0.000000 1.000000 0.531212
0.000000 1.000000 0.528099
0.504021 1.000000 0.562310
0.845975 0.987945 0.653773
0.967346 0.952544 0.703883
0.213321 0.000000 0.494545
0.247654 0.000000 0.501274
0.349462 0.000000 0.524346
0.501610 0.000000 0.561639
0.642481 0.000000 0.555505
0.704952 0.390082 0.515587
0.731106 0.663478 0.551415
0.833677 0.806241 0.642756
0.218662 0.000000 0.497902
0.251316 0.000000 0.504356
0.349950 0.000000 0.526635
0.499458 0.000000 0.563012
0.641810 0.000000 0.559167
0.706569 0.380011 0.518059
0.733089 0.658930 0.551202
0.833433 0.805997 0.642573
0.183200 0.000000 0.501274
0.227848 0.000000 0.508507
0.343420 0.000000 0.532128
0.488228 0.000000 0.566705
0.637507 0.000000 0.571374
0.711635 0.341436 0.527337
0.739803 0.642908 0.551019
0.832700 0.805295 0.642023
0.000000 0.230381 0.451057
0.000000 0.213321 0.463935
0.000000 0.143893 0.505241
0.386481 0.000000 0.553033
0.617823 0.000000 0.594263
0.718532 0.255558 0.546441
0.750881 0.613733 0.552300
0.832090 0.804715 0.641566
0.000000 0.491188 0.522301
0.000000 0.479896 0.519524
0.000000 0.434089 0.508415
0.000000 0.319677 0.482918
0.488716 0.333196 0.575738
0.734279 0.418311 0.589014
0.770260 0.623651 0.568170
0.831418 0.804074 0.641077
0.000000 0.753170 0.605158
0.000000 0.748348 0.604150
0.000000 0.729427 0.600275
0.000000 0.687282 0.591638
0.173281 0.598199 0.573693
0.647730 0.570764 0.606012
0.806394 0.726162 0.609827
0.853941 0.825803 0.658137
0.000000 0.944121 0.635492
0.000000 0.943328 0.634974
0.000000 0.939574 0.633783
0.000000 0.930785 0.633204
0.000000 0.913054 0.634821
0.533898 0.879942 0.642115
0.859922 0.831571 0.662654
0.928252 0.897551 0.714382
0.000000 1.000000 0.616144
0.000000 1.000000 0.616144
0.000000 1.000000 0.615869
0.000000 1.000000 0.610803
0.000000 1.000000 0.608453
0.400336 1.000000 0.620661
0.776699 0.991669 0.663142
0.972534 0.950500 0.724727
0.231724 0.000000 0.605707
0.264683 0.000000 0.609918
0.360571 0.000000 0.624414
0.498726 0.000000 0.648493
0.667567 0.000000 0.676387
0.798550 0.128847 0.645441
0.838224 0.598108 0.614130
0.850736 0.804318 0.649561
0.228519 0.000000 0.607416
0.261418 0.000000 0.611536
0.356939 0.000000 0.625666
0.494697 0.000000 0.649287
0.664698 0.000000 0.678431
0.797604 0.100618 0.648188
0.839353 0.592309 0.615167
0.851926 0.802701 0.649622
0.201724 0.000000 0.611566
0.237400 0.000000 0.615412
0.337407 0.000000 0.628840
0.476875 0.000000 0.651484
0.648280 0.000000 0.681117
0.792905 0.000000 0.657679
0.843351 0.570397 0.619196
0.856077 0.797086 0.649928
0.000000 0.059449 0.597986
0.000000 0.000000 0.603723
0.194034 0.000000 0.622858
0.424933 0.000000 0.652277
0.609705 0.000000 0.682185
0.778103 0.000000 0.674037
0.849699 0.523735 0.628016
0.863157 0.787198 0.650874
0.000000 0.422126 0.587915
0.000000 0.404913 0.583490
0.000000 0.333928 0.565087
0.000000 0.173953 0.613214
0.463539 0.000000 0.664729
0.736385 0.000000 0.696773
0.857176 0.431464 0.646693
0.873655 0.770718 0.653071
0.000000 0.690913 0.666133
0.000000 0.682795 0.664515
0.000000 0.651057 0.658076
0.000000 0.578729 0.642176
0.000000 0.407233 0.602716
0.563012 0.364874 0.677272
0.857237 0.495338 0.682643
0.888121 0.741421 0.657954
0.000000 0.917082 0.714626
0.000000 0.914641 0.714260
0.000000 0.904173 0.712764
0.000000 0.878325 0.709102
0.000000 0.826230 0.700679
0.049439 0.711269 0.679103
0.735164 0.644068 0.691829
0.915465 0.831968 0.692500
0.000000 1.000000 0.701656
0.000000 1.000000 0.701900
0.000000 1.000000 0.702815
0.000000 1.000000 0.704005
0.000000 1.000000 0.704677
0.000000 1.000000 0.710079
0.652766 0.981231 0.721706
0.961242 0.929381 0.739376
