其他预设/【213】赛博朋克科幻预设52款/1.LUT预设（视频调色-PR-AE-PS-FCPX-达芬奇用）/赛博朋克科幻__-3 强度4.cube
# Created by Adobe Lightroom plugin Export LUT (1.17.0)
# www.johnrellis.com/lightroom/exportlut.htm
# Preset: 赛博朋克科幻[素锦印象]-3 强度4
# Color profile: /Library/Application Support/Adobe/Color/Profiles/Recommended/AdobeRGB1998.icc
LUT_3D_SIZE 32
0.070100 0.089570 0.116335
0.075654 0.089082 0.118074
0.082704 0.088533 0.120760
0.097108 0.087312 0.126406
0.115541 0.085176 0.134127
0.136416 0.081483 0.143801
0.160891 0.075044 0.155550
0.190036 0.062959 0.169863
0.225010 0.019104 0.187228
0.267796 0.000000 0.208164
0.318791 0.000000 0.232670
0.376318 0.000000 0.259709
0.438422 0.000000 0.288212
0.502739 0.000000 0.317296
0.566186 0.000000 0.345739
0.626093 0.000000 0.372656
0.679347 0.000000 0.396643
0.726009 0.000000 0.417884
0.766812 0.000000 0.436713
0.803769 0.000000 0.454139
0.837583 0.000000 0.470375
0.868589 0.000000 0.485542
0.897063 0.000000 0.499733
0.923217 0.000000 0.513146
0.947326 0.000000 0.525780
0.969665 0.000000 0.537835
0.990417 0.000000 0.549340
1.000000 0.000000 0.560510
1.000000 0.000000 0.571496
1.000000 0.000000 0.582422
1.000000 0.000000 0.593530
1.000000 0.000000 0.604974
0.066651 0.097475 0.120638
0.072084 0.095918 0.116915
0.083711 0.089174 0.117159
0.097139 0.087373 0.125124
0.115023 0.085298 0.134127
0.135836 0.081666 0.143648
0.160403 0.075257 0.155398
0.189364 0.063416 0.169589
0.224491 0.020233 0.186893
0.267247 0.000000 0.207980
0.318212 0.000000 0.232425
0.375738 0.000000 0.259403
0.437903 0.000000 0.287999
0.502251 0.000000 0.317113
0.565820 0.000000 0.345586
0.625757 0.000000 0.372473
0.679042 0.000000 0.396490
0.725795 0.000000 0.417792
0.766567 0.000000 0.436652
0.803586 0.000000 0.454078
0.837430 0.000000 0.470283
0.868498 0.000000 0.485512
0.896971 0.000000 0.499763
0.923156 0.000000 0.513085
0.947326 0.000000 0.525750
0.969665 0.000000 0.537774
0.990417 0.000000 0.549340
1.000000 0.000000 0.560510
1.000000 0.000000 0.571496
1.000000 0.000000 0.582422
1.000000 0.000000 0.593530
1.000000 0.000000 0.604974
0.061189 0.107912 0.126619
0.067414 0.106508 0.123690
0.075166 0.104494 0.117494
0.098116 0.089967 0.118837
0.115389 0.085481 0.129213
0.135256 0.081880 0.143343
0.159609 0.075624 0.155001
0.188602 0.063966 0.169223
0.223728 0.021820 0.186557
0.266392 0.000000 0.207462
0.317205 0.000000 0.231998
0.374853 0.000000 0.259037
0.437110 0.000000 0.287541
0.501518 0.000000 0.316777
0.565057 0.000000 0.345251
0.625360 0.000000 0.372290
0.678676 0.000000 0.396307
0.725399 0.000000 0.417578
0.766384 0.000000 0.436561
0.803372 0.000000 0.453925
0.837308 0.000000 0.470222
0.868376 0.000000 0.485481
0.896910 0.000000 0.499672
0.923095 0.000000 0.513115
0.947265 0.000000 0.525750
0.969635 0.000000 0.537774
0.990387 0.000000 0.549340
1.000000 0.000000 0.560510
1.000000 0.000000 0.571496
1.000000 0.000000 0.582452
1.000000 0.000000 0.593530
1.000000 0.000000 0.604974
0.036713 0.128450 0.138827
0.050965 0.126925 0.137057
0.064942 0.124971 0.132509
0.081453 0.120668 0.119326
0.114504 0.098573 0.121645
0.136385 0.084077 0.129458
0.159670 0.075929 0.146334
0.187259 0.064576 0.167025
0.222019 0.024201 0.185763
0.264714 0.000000 0.206699
0.315587 0.000000 0.231144
0.373205 0.000000 0.258213
0.435340 0.000000 0.286748
0.499825 0.000000 0.315953
0.563806 0.000000 0.344671
0.624201 0.000000 0.371740
0.677790 0.000000 0.395941
0.724758 0.000000 0.417304
0.765805 0.000000 0.436286
0.802945 0.000000 0.453742
0.837003 0.000000 0.470069
0.868132 0.000000 0.485298
0.896696 0.000000 0.499611
0.922972 0.000000 0.512993
0.947173 0.000000 0.525689
0.969574 0.000000 0.537743
0.990356 0.000000 0.549310
1.000000 0.000000 0.560479
1.000000 0.000000 0.571496
1.000000 0.000000 0.582452
1.000000 0.000000 0.593561
1.000000 0.000000 0.605005
0.000000 0.156527 0.156466
0.000000 0.155123 0.155001
0.026123 0.152773 0.151400
0.060334 0.148836 0.140475
0.089479 0.141146 0.121828
0.132326 0.119539 0.123659
0.160067 0.084291 0.127291
0.187808 0.070832 0.147158
0.221714 0.029725 0.169863
0.263096 0.000000 0.198245
0.312749 0.000000 0.229862
0.370428 0.000000 0.256931
0.432807 0.000000 0.285649
0.497475 0.000000 0.314946
0.561669 0.000000 0.343725
0.622431 0.000000 0.370947
0.676417 0.000000 0.395270
0.723568 0.000000 0.416754
0.764950 0.000000 0.435859
0.802335 0.000000 0.453468
0.836484 0.000000 0.469795
0.867735 0.000000 0.485145
0.896422 0.000000 0.499489
0.922789 0.000000 0.512932
0.947021 0.000000 0.525597
0.969482 0.000000 0.537682
0.990295 0.000000 0.549279
1.000000 0.000000 0.560479
1.000000 0.000000 0.571496
1.000000 0.000000 0.582422
1.000000 0.000000 0.593561
1.000000 0.000000 0.605035
0.000000 0.189761 0.177920
0.000000 0.188388 0.176944
0.000000 0.186191 0.173434
0.008850 0.181643 0.165621
0.045258 0.176425 0.147066
0.098665 0.165072 0.123659
0.152255 0.146120 0.125032
0.185489 0.099947 0.129976
0.221134 0.062654 0.145815
0.262211 0.000000 0.174350
0.311925 0.000000 0.205692
0.368688 0.000000 0.239902
0.430091 0.000000 0.276677
0.494392 0.000000 0.313542
0.558953 0.000000 0.342535
0.620172 0.000000 0.369970
0.674586 0.000000 0.394476
0.722103 0.000000 0.416083
0.763699 0.000000 0.435309
0.801389 0.000000 0.452979
0.835752 0.000000 0.469459
0.867247 0.000000 0.484871
0.896056 0.000000 0.499245
0.922484 0.000000 0.512779
0.946807 0.000000 0.525505
0.969299 0.000000 0.537591
0.990204 0.000000 0.549218
1.000000 0.000000 0.560449
1.000000 0.000000 0.571466
1.000000 0.000000 0.582452
1.000000 0.000000 0.593591
1.000000 0.000000 0.605066
0.000000 0.228733 0.203708
0.000000 0.227115 0.202701
0.000000 0.225254 0.199741
0.000000 0.220890 0.192386
0.000000 0.214847 0.178500
0.010498 0.208682 0.153353
0.110201 0.193149 0.124727
0.174990 0.177768 0.125490
0.215335 0.121645 0.133852
0.261234 0.032898 0.138735
0.310307 0.000000 0.175051
0.366766 0.000000 0.212345
0.428229 0.000000 0.250645
0.492805 0.000000 0.289036
0.557061 0.000000 0.326696
0.617945 0.000000 0.362280
0.672236 0.000000 0.393408
0.720302 0.000000 0.415259
0.762295 0.000000 0.434638
0.800290 0.000000 0.452491
0.834897 0.000000 0.469062
0.866606 0.000000 0.484565
0.895537 0.000000 0.499001
0.922118 0.000000 0.512596
0.946593 0.000000 0.525383
0.969146 0.000000 0.537530
0.990082 0.000000 0.549157
1.000000 0.000000 0.560388
1.000000 0.000000 0.571466
1.000000 0.000000 0.582452
1.000000 0.000000 0.593591
1.000000 0.000000 0.605127
0.000000 0.273472 0.234073
0.000000 0.272251 0.233127
0.000000 0.270359 0.230228
0.000000 0.266361 0.223484
0.000000 0.260166 0.211734
0.000000 0.253574 0.191379
0.000000 0.246494 0.159335
0.123690 0.226291 0.125307
0.201450 0.213962 0.125246
0.250675 0.160616 0.135012
0.306645 0.072572 0.139864
0.364843 0.000000 0.169924
0.426246 0.000000 0.214572
0.490700 0.000000 0.257298
0.555230 0.000000 0.298466
0.616602 0.000000 0.336980
0.671412 0.000000 0.371832
0.719112 0.000000 0.402747
0.760891 0.000000 0.430549
0.798947 0.000000 0.451820
0.833921 0.000000 0.468544
0.865812 0.000000 0.484138
0.894987 0.000000 0.498756
0.921721 0.000000 0.512352
0.946258 0.000000 0.525231
0.968933 0.000000 0.537407
0.989929 0.000000 0.549065
1.000000 0.000000 0.560357
1.000000 0.000000 0.571466
1.000000 0.000000 0.582483
1.000000 0.000000 0.593652
1.000000 0.000000 0.605158
0.000000 0.325536 0.269657
0.000000 0.324193 0.268376
0.000000 0.322667 0.265721
0.000000 0.318853 0.259403
0.000000 0.313481 0.248905
0.000000 0.305943 0.232609
0.000000 0.299657 0.205661
0.000000 0.291569 0.163058
0.140536 0.265934 0.124605
0.230228 0.253971 0.123568
0.291661 0.206516 0.134585
0.357488 0.112886 0.143618
0.424353 0.000000 0.154421
0.488777 0.000000 0.210452
0.553246 0.000000 0.258854
0.615167 0.000000 0.302739
0.670527 0.000000 0.341894
0.718746 0.000000 0.376287
0.760800 0.000000 0.406897
0.798917 0.000000 0.434546
0.833494 0.000000 0.459571
0.864927 0.000000 0.483711
0.894316 0.000000 0.498421
0.921202 0.000000 0.512139
0.945892 0.000000 0.525017
0.968688 0.000000 0.537285
0.989776 0.000000 0.549004
1.000000 0.000000 0.560327
1.000000 0.000000 0.571435
1.000000 0.000000 0.582483
1.000000 0.000000 0.593683
1.000000 0.000000 0.605249
0.000000 0.383246 0.309361
0.000000 0.382208 0.307622
0.000000 0.380865 0.305180
0.000000 0.377661 0.299474
0.000000 0.372869 0.290013
0.000000 0.366430 0.275761
0.000000 0.359197 0.253635
0.000000 0.352850 0.220645
0.000000 0.342626 0.161135
0.160616 0.312596 0.121675
0.256016 0.292454 0.121798
0.337743 0.256352 0.131746
0.413092 0.153964 0.147555
0.484443 0.000000 0.151003
0.551568 0.000000 0.197971
0.613794 0.000000 0.254459
0.669673 0.000000 0.301549
0.718349 0.000000 0.341924
0.760769 0.000000 0.376928
0.799130 0.000000 0.408209
0.834104 0.000000 0.436225
0.865843 0.000000 0.461677
0.894804 0.000000 0.484779
0.920775 0.000000 0.510460
0.945495 0.000000 0.524804
0.968414 0.000000 0.537102
0.989624 0.000000 0.548882
1.000000 0.000000 0.560266
1.000000 0.000000 0.571435
1.000000 0.000000 0.582513
1.000000 0.000000 0.593774
1.000000 0.000000 0.605310
0.000000 0.445106 0.351263
0.000000 0.444221 0.349584
0.000000 0.443061 0.347295
0.000000 0.440345 0.342138
0.000000 0.436164 0.333562
0.000000 0.430701 0.321019
0.000000 0.423499 0.302770
0.000000 0.417609 0.275303
0.000000 0.411444 0.235935
0.000000 0.398657 0.153811
0.184543 0.364721 0.116213
0.288731 0.336065 0.118379
0.387213 0.310216 0.125795
0.468666 0.217899 0.145602
0.544244 0.000000 0.154940
0.612604 0.000000 0.173648
0.668910 0.000000 0.242985
0.717861 0.000000 0.295018
0.760800 0.000000 0.337926
0.799588 0.000000 0.374731
0.834745 0.000000 0.407080
0.866728 0.000000 0.435950
0.895811 0.000000 0.461860
0.922423 0.000000 0.485237
0.946624 0.000000 0.508263
0.968444 0.000000 0.533471
0.989441 0.000000 0.548760
1.000000 0.000000 0.560204
1.000000 0.000000 0.571405
1.000000 0.000000 0.582544
1.000000 0.000000 0.593805
1.000000 0.000000 0.605432
0.000000 0.508385 0.394018
0.000000 0.507683 0.392523
0.000000 0.506554 0.390387
0.000000 0.504326 0.385779
0.000000 0.500938 0.378119
0.000000 0.496345 0.367041
0.000000 0.490517 0.351385
0.000000 0.483436 0.329046
0.000000 0.478737 0.295964
0.000000 0.473426 0.250278
0.000000 0.457588 0.138247
0.211734 0.420172 0.107576
0.323827 0.382696 0.112825
0.438666 0.366308 0.116213
0.523491 0.281559 0.141115
0.601709 0.114229 0.159854
0.666133 0.000000 0.166171
0.717678 0.000000 0.224308
0.760922 0.000000 0.284001
0.800107 0.000000 0.330816
0.835538 0.000000 0.370062
0.867674 0.000000 0.403937
0.896910 0.000000 0.433814
0.923613 0.000000 0.460395
0.948119 0.000000 0.484260
0.970672 0.000000 0.505699
0.990875 0.000000 0.531304
1.000000 0.000000 0.555993
1.000000 0.000000 0.571374
1.000000 0.000000 0.582574
1.000000 0.000000 0.593866
1.000000 0.000000 0.605554
0.000000 0.570489 0.435889
0.000000 0.569940 0.434668
0.000000 0.569085 0.432746
0.000000 0.567346 0.428595
0.000000 0.564599 0.421851
0.000000 0.560845 0.412024
0.000000 0.556054 0.398474
0.000000 0.549950 0.379828
0.000000 0.544549 0.352758
0.000000 0.540581 0.315312
0.000000 0.535912 0.263157
0.000000 0.517296 0.108980
0.241459 0.477180 0.095247
0.360784 0.432074 0.104494
0.490333 0.423224 0.101900
0.575982 0.342901 0.134615
0.654414 0.183749 0.166079
0.712032 0.000000 0.173312
0.761349 0.000000 0.197910
0.800809 0.000000 0.269383
0.836484 0.000000 0.321386
0.868833 0.000000 0.363500
0.898161 0.000000 0.399237
0.924956 0.000000 0.430304
0.949493 0.000000 0.457649
0.972045 0.000000 0.482033
0.993042 0.000000 0.503960
1.000000 0.000000 0.528466
1.000000 0.000000 0.554620
1.000000 0.000000 0.579248
1.000000 0.000000 0.593927
1.000000 0.000000 0.605676
0.000000 0.628565 0.475135
0.000000 0.628046 0.473854
0.000000 0.627436 0.472267
0.000000 0.626154 0.468666
0.000000 0.623957 0.462654
0.000000 0.620905 0.454047
0.000000 0.617212 0.442267
0.000000 0.612512 0.426551
0.000000 0.606683 0.405035
0.000000 0.603326 0.373816
0.000000 0.600031 0.332067
0.000000 0.596277 0.273594
0.000000 0.575280 0.063264
0.272923 0.533562 0.078279
0.402380 0.486915 0.090455
0.540429 0.479805 0.080629
0.624384 0.401465 0.126894
0.697200 0.267521 0.166140
0.752865 0.000000 0.182803
0.799832 0.000000 0.191440
0.837644 0.000000 0.251408
0.870085 0.000000 0.309911
0.899535 0.000000 0.355505
0.926421 0.000000 0.393408
0.950958 0.000000 0.425788
0.973541 0.000000 0.454139
0.994476 0.000000 0.479225
1.000000 0.000000 0.501610
1.000000 0.000000 0.525414
1.000000 0.000000 0.553124
1.000000 0.000000 0.579278
1.000000 0.000000 0.604395
0.000000 0.679469 0.509453
0.000000 0.679133 0.508385
0.000000 0.678645 0.506950
0.000000 0.677638 0.503746
0.000000 0.675959 0.498482
0.000000 0.673823 0.491066
0.000000 0.670924 0.480934
0.000000 0.667292 0.467506
0.000000 0.662928 0.449775
0.000000 0.658381 0.425422
0.000000 0.656275 0.390906
0.000000 0.653864 0.345403
0.000000 0.651057 0.281621
0.000000 0.628412 0.018433
0.304601 0.587335 0.055055
0.443030 0.540459 0.071778
0.587610 0.534508 0.035889
0.666743 0.456672 0.118502
0.734768 0.338445 0.165896
0.790341 0.155581 0.194949
0.833860 0.000000 0.204349
0.871580 0.000000 0.230625
0.901091 0.000000 0.297185
0.927977 0.000000 0.346929
0.952514 0.000000 0.387152
0.975067 0.000000 0.420966
0.996002 0.000000 0.450263
1.000000 0.000000 0.476081
1.000000 0.000000 0.498939
1.000000 0.000000 0.522393
1.000000 0.000000 0.551995
1.000000 0.000000 0.580072
0.000000 0.724086 0.539483
0.000000 0.723751 0.538567
0.000000 0.723384 0.537285
0.000000 0.722621 0.534447
0.000000 0.721279 0.529808
0.000000 0.719570 0.523247
0.000000 0.717433 0.514519
0.000000 0.714687 0.503044
0.000000 0.711238 0.488075
0.000000 0.707088 0.468757
0.000000 0.704280 0.441169
0.000000 0.702785 0.404181
0.000000 0.701015 0.355779
0.000000 0.699031 0.287297
0.000000 0.674769 0.000000
0.334813 0.635737 0.013550
0.480415 0.590661 0.041474
0.629877 0.586084 0.000000
0.704738 0.508476 0.111055
0.769314 0.401007 0.167391
0.824552 0.235874 0.210636
0.864866 0.000000 0.220554
0.901122 0.000000 0.229892
0.929595 0.000000 0.284886
0.954070 0.000000 0.338659
0.976623 0.000000 0.381231
0.997467 0.000000 0.416541
1.000000 0.000000 0.446754
1.000000 0.000000 0.473182
1.000000 0.000000 0.496345
1.000000 0.000000 0.520012
1.000000 0.000000 0.551904
0.000000 0.763027 0.565759
0.000000 0.762875 0.564965
0.000000 0.762539 0.563836
0.000000 0.761929 0.561334
0.000000 0.760922 0.557214
0.000000 0.759579 0.551476
0.000000 0.757870 0.543816
0.000000 0.755703 0.533867
0.000000 0.753017 0.521111
0.000000 0.749722 0.504906
0.000000 0.745663 0.484443
0.000000 0.744594 0.453742
0.000000 0.743526 0.414771
0.000000 0.742306 0.363806
0.000000 0.738643 0.281865
0.000000 0.715480 0.000000
0.362829 0.678309 0.000000
0.512871 0.635737 0.007782
0.660334 0.628077 0.000000
0.739925 0.558282 0.104829
0.801022 0.458686 0.170809
0.853300 0.321386 0.220249
0.893004 0.155581 0.240146
0.926635 0.000000 0.249821
0.955688 0.000000 0.274388
0.978119 0.000000 0.332128
0.998871 0.000000 0.376684
1.000000 0.000000 0.413336
1.000000 0.000000 0.444373
1.000000 0.000000 0.471199
1.000000 0.000000 0.494453
1.000000 0.000000 0.518944
0.000000 0.797360 0.588891
0.000000 0.797147 0.588128
0.000000 0.796963 0.587182
0.000000 0.796445 0.584863
0.000000 0.795651 0.581262
0.000000 0.794614 0.576196
0.000000 0.793240 0.569451
0.000000 0.791531 0.560723
0.000000 0.789425 0.549798
0.000000 0.786770 0.536065
0.000000 0.783627 0.519158
0.000000 0.780819 0.496498
0.000000 0.780362 0.464149
0.000000 0.779873 0.423529
0.000000 0.779324 0.370672
0.000000 0.774472 0.275700
0.000000 0.752346 0.016449
0.389868 0.717403 0.008728
0.542351 0.677363 0.000336
0.680873 0.662654 0.000000
0.772427 0.605890 0.101595
0.830137 0.512078 0.176791
0.879210 0.393652 0.230686
0.918547 0.253849 0.263371
0.949798 0.000000 0.273167
0.978210 0.000000 0.282048
1.000000 0.000000 0.328740
1.000000 0.000000 0.374853
1.000000 0.000000 0.412268
1.000000 0.000000 0.443763
1.000000 0.000000 0.470649
1.000000 0.000000 0.493843
0.000000 0.828580 0.609918
0.000000 0.828428 0.609247
0.000000 0.828275 0.608301
0.000000 0.827878 0.606378
0.000000 0.827298 0.603174
0.000000 0.826505 0.598627
0.000000 0.825467 0.592706
0.000000 0.824125 0.585077
0.000000 0.822538 0.575586
0.000000 0.820523 0.563928
0.000000 0.817990 0.549615
0.000000 0.814755 0.532494
0.000000 0.813565 0.507225
0.000000 0.813596 0.473762
0.000000 0.813626 0.431983
0.000000 0.813596 0.377630
0.000000 0.807736 0.269780
0.105928 0.786526 0.067872
0.416846 0.753597 0.055146
0.569787 0.716060 0.024659
0.699519 0.695796 0.000000
0.802548 0.651209 0.103090
0.856962 0.562158 0.185794
0.902983 0.456855 0.243503
0.941650 0.327550 0.289860
0.970733 0.211368 0.299687
0.997345 0.000000 0.308415
1.000000 0.000000 0.329900
1.000000 0.000000 0.376684
1.000000 0.000000 0.414435
1.000000 0.000000 0.445899
1.000000 0.000000 0.472541
0.000000 0.857633 0.629480
0.000000 0.857542 0.628901
0.000000 0.857420 0.628077
0.000000 0.857115 0.626276
0.000000 0.856687 0.623407
0.000000 0.856077 0.619379
0.000000 0.855253 0.614069
0.000000 0.854276 0.607355
0.000000 0.853025 0.599084
0.000000 0.851408 0.588922
0.000000 0.849424 0.576745
0.000000 0.846799 0.562432
0.000000 0.843595 0.545403
0.000000 0.843961 0.517388
0.000000 0.844327 0.483131
0.000000 0.844724 0.440497
0.000000 0.845243 0.385260
0.000000 0.838590 0.265965
0.174685 0.818082 0.101411
0.443702 0.787228 0.088258
0.595422 0.752102 0.070161
0.722530 0.729305 0.000000
0.830472 0.694606 0.110170
0.881651 0.609644 0.197787
0.924804 0.513817 0.258762
0.961212 0.404150 0.309361
0.989685 0.307103 0.329137
1.000000 0.184878 0.338079
1.000000 0.000000 0.345892
1.000000 0.000000 0.383429
1.000000 0.000000 0.420691
1.000000 0.000000 0.451637
0.000000 0.884733 0.647669
0.000000 0.884642 0.647150
0.000000 0.884550 0.646418
0.000000 0.884306 0.644800
0.000000 0.883940 0.642206
0.000000 0.883482 0.638575
0.000000 0.882902 0.633875
0.000000 0.882139 0.627893
0.000000 0.881132 0.620508
0.000000 0.879881 0.611658
0.000000 0.878294 0.601129
0.000000 0.876097 0.588891
0.000000 0.873198 0.575189
0.000000 0.871336 0.555932
0.000000 0.871977 0.527276
0.000000 0.872679 0.492592
0.000000 0.873442 0.449531
0.000000 0.874296 0.394049
0.000000 0.867063 0.264927
0.229252 0.847257 0.134859
0.470222 0.818418 0.120760
0.619471 0.785641 0.102663
0.743801 0.761013 0.057801
0.856504 0.735836 0.122774
0.904662 0.654200 0.213169
0.945068 0.566155 0.276555
0.979034 0.471839 0.329229
1.000000 0.383703 0.361547
1.000000 0.303258 0.370489
1.000000 0.189181 0.378241
1.000000 0.000000 0.395972
1.000000 0.000000 0.432197
0.000000 0.909911 0.664607
0.000000 0.909911 0.664118
0.000000 0.909789 0.663447
0.000000 0.909636 0.662013
0.000000 0.909392 0.659663
0.000000 0.909026 0.656397
0.000000 0.908568 0.652155
0.000000 0.907958 0.646784
0.000000 0.907195 0.640223
0.000000 0.906188 0.632349
0.000000 0.904845 0.623194
0.000000 0.903014 0.612604
0.000000 0.900481 0.601007
0.000000 0.897063 0.588617
0.000000 0.896849 0.566339
0.000000 0.897704 0.537438
0.000000 0.898650 0.502617
0.000000 0.899748 0.459510
0.000000 0.900908 0.404608
0.000000 0.893278 0.268193
0.278813 0.874144 0.169406
0.497292 0.847257 0.154482
0.642512 0.816892 0.136263
0.762997 0.791104 0.105531
0.880766 0.775418 0.140078
0.926085 0.696773 0.231266
0.963928 0.614923 0.296757
0.995636 0.532158 0.351232
1.000000 0.451301 0.396216
1.000000 0.390631 0.405310
1.000000 0.319951 0.413306
1.000000 0.227359 0.420264
0.000000 0.933532 0.679652
0.000000 0.933471 0.679622
0.000000 0.933410 0.679377
0.000000 0.933257 0.678035
0.000000 0.933043 0.675868
0.000000 0.932769 0.672938
0.000000 0.932433 0.669062
0.000000 0.932006 0.664302
0.000000 0.931395 0.658350
0.000000 0.930571 0.651362
0.000000 0.929442 0.643214
0.000000 0.927916 0.634058
0.000000 0.925658 0.624079
0.000000 0.922484 0.613703
0.000000 0.919249 0.601343
0.000000 0.920226 0.577020
0.000000 0.921263 0.548150
0.000000 0.922454 0.513542
0.000000 0.923705 0.471107
0.000000 0.925139 0.417243
0.000000 0.917388 0.277256
0.326940 0.898833 0.205142
0.524865 0.873960 0.189883
0.664637 0.845975 0.171176
0.780819 0.819577 0.145357
0.903563 0.813352 0.160952
0.946197 0.737209 0.252445
0.981628 0.660975 0.319677
1.000000 0.587213 0.375433
1.000000 0.518151 0.423713
1.000000 0.465553 0.442176
1.000000 0.414649 0.450843
0.000000 0.955718 0.693507
0.000000 0.955688 0.693446
0.000000 0.955596 0.693355
0.000000 0.955444 0.693050
0.000000 0.955291 0.691096
0.000000 0.955077 0.688411
0.000000 0.954803 0.684871
0.000000 0.954467 0.680507
0.000000 0.953979 0.675166
0.000000 0.953307 0.668879
0.000000 0.952361 0.661616
0.000000 0.950988 0.653529
0.000000 0.948974 0.644892
0.000000 0.946044 0.636103
0.000000 0.942077 0.627680
0.000000 0.940398 0.612543
0.000000 0.941497 0.588434
0.000000 0.942687 0.559960
0.000000 0.944060 0.525994
0.000000 0.945556 0.484535
0.000000 0.946593 0.429450
0.000000 0.939483 0.292332
0.374029 0.921599 0.242374
0.553277 0.898650 0.226566
0.686427 0.873045 0.207767
0.797421 0.846555 0.184268
0.925200 0.849454 0.185397
0.965240 0.775845 0.276555
0.998322 0.704494 0.344976
1.000000 0.638239 0.401953
1.000000 0.579644 0.450813
1.000000 0.533684 0.480842
0.000000 0.976623 0.706294
0.000000 0.976593 0.706294
0.000000 0.976532 0.706203
0.000000 0.976410 0.706081
0.000000 0.976257 0.705348
0.000000 0.976043 0.702907
0.000000 0.975860 0.699672
0.000000 0.975586 0.695674
0.000000 0.975189 0.690822
0.000000 0.974640 0.685084
0.000000 0.973846 0.678614
0.000000 0.972625 0.671351
0.000000 0.970764 0.663813
0.000000 0.968017 0.656336
0.000000 0.964172 0.649439
0.090608 0.959106 0.643671
0.129671 0.959655 0.624506
0.127565 0.960876 0.600855
0.124941 0.962219 0.573114
0.123537 0.963684 0.540185
0.121645 0.965270 0.500359
0.131838 0.965545 0.442054
0.177310 0.959716 0.313512
0.421546 0.942535 0.281163
0.582574 0.921569 0.265019
0.708217 0.898314 0.245884
0.813962 0.872679 0.223270
0.936309 0.875578 0.218112
0.983398 0.812772 0.303563
1.000000 0.745876 0.372900
1.000000 0.686366 0.430823
1.000000 0.636072 0.480079
0.000000 0.996368 0.718257
0.000000 0.996338 0.718196
0.000000 0.996307 0.718135
0.000000 0.996216 0.718044
0.000000 0.996094 0.717861
0.000000 0.995941 0.716548
0.000000 0.995758 0.713649
0.000000 0.995544 0.709957
0.000000 0.995239 0.705470
0.000000 0.994781 0.700282
0.000000 0.994079 0.694331
0.000000 0.993011 0.687861
0.000000 0.991272 0.681178
0.000000 0.988617 0.674708
0.000000 0.984863 0.669032
0.000000 0.979889 0.664668
0.259953 0.975952 0.657343
0.257969 0.977111 0.637537
0.255436 0.978424 0.614649
0.252628 0.979828 0.587945
0.249485 0.981384 0.556420
0.246342 0.983062 0.518608
0.250248 0.982849 0.458656
0.268406 0.978241 0.340673
0.469764 0.961822 0.321721
0.613123 0.942901 0.305333
0.730312 0.921965 0.286229
0.831540 0.898955 0.263706
0.944671 0.898955 0.253117
1.000000 0.848234 0.333379
1.000000 0.785489 0.403723
1.000000 0.732021 0.462226
0.000000 1.000000 0.729274
0.000000 1.000000 0.729274
0.000000 1.000000 0.729213
0.000000 1.000000 0.729152
0.000000 1.000000 0.728969
0.000000 1.000000 0.728786
0.000000 1.000000 0.726772
0.000000 1.000000 0.723354
0.000000 1.000000 0.719234
0.000000 1.000000 0.714443
0.000000 1.000000 0.709041
0.000000 1.000000 0.703151
0.000000 1.000000 0.697200
0.000000 1.000000 0.691585
0.000000 1.000000 0.686915
0.000000 0.999359 0.683650
0.296300 0.993194 0.682124
0.351202 0.991669 0.670832
0.349065 0.992828 0.651820
0.346319 0.994171 0.629938
0.343328 0.995605 0.604608
0.340032 0.997192 0.574945
0.336126 0.998932 0.539605
0.337530 0.998444 0.479377
0.354467 0.994507 0.377996
0.518791 0.979492 0.363928
0.645289 0.962676 0.347448
0.753201 0.944060 0.328466
0.849027 0.923674 0.306310
0.953094 0.921721 0.289586
1.000000 0.882200 0.366613
1.000000 0.823606 0.437781
0.000000 1.000000 0.739528
0.000000 1.000000 0.739498
0.000000 1.000000 0.739467
0.000000 1.000000 0.739376
0.000000 1.000000 0.739254
0.000000 1.000000 0.739071
0.000000 1.000000 0.738857
0.000000 1.000000 0.736019
0.000000 1.000000 0.732204
0.000000 1.000000 0.727749
0.000000 1.000000 0.722744
0.000000 1.000000 0.717372
0.000000 1.000000 0.711971
0.000000 1.000000 0.707057
0.000000 1.000000 0.703243
