其他预设/【213】赛博朋克科幻预设52款/1.LUT预设（视频调色-PR-AE-PS-FCPX-达芬奇用）/赛博朋克科幻__-10 强度3.cube
# Created by Adobe Lightroom plugin Export LUT (1.17.0)
# www.johnrellis.com/lightroom/exportlut.htm
# Preset: 赛博朋克科幻[素锦印象]-10 强度3
# Color profile: /Library/Application Support/Adobe/Color/Profiles/Recommended/AdobeRGB1998.icc
LUT_3D_SIZE 8
DOMAIN_MIN 0.000000 0.000000 0.000000
DOMAIN_MAX 0.903226 0.903226 0.903226
0.061646 0.060975 0.056489
0.127230 0.059388 0.068238
0.273777 0.093385 0.122683
0.417762 0.154788 0.190311
0.552667 0.230564 0.263798
0.679225 0.306249 0.335912
0.793301 0.402808 0.418647
0.891905 0.527733 0.518181
0.000000 0.183200 0.075990
0.138033 0.143526 0.061860
0.269383 0.137911 0.120882
0.415442 0.168765 0.188388
0.551598 0.229923 0.263127
0.678676 0.306065 0.335668
0.793240 0.402747 0.418616
0.892058 0.527855 0.518303
0.000000 0.379919 0.125429
0.000000 0.372351 0.043305
0.291295 0.303044 0.116701
0.408637 0.286961 0.208194
0.546563 0.317723 0.274601
0.675654 0.358434 0.341192
0.791836 0.421607 0.416938
0.892515 0.528557 0.518853
0.000000 0.551354 0.175570
0.000000 0.547967 0.145876
0.229923 0.531456 0.089754
0.438788 0.454444 0.198672
0.538811 0.427344 0.296971
0.670497 0.454994 0.359319
0.788327 0.500450 0.432532
0.890196 0.573602 0.518639
0.000000 0.704585 0.222416
0.000000 0.702785 0.205325
0.000000 0.693935 0.158083
0.401862 0.676051 0.159487
0.577356 0.596216 0.276463
0.663233 0.559533 0.382361
0.783505 0.592218 0.454627
0.887114 0.646754 0.538415
0.000000 0.824277 0.258824
0.000000 0.823331 0.248539
0.000000 0.818418 0.226474
0.311955 0.807584 0.225559
0.543694 0.792691 0.235294
0.701656 0.722042 0.361089
0.777646 0.687495 0.481758
0.883848 0.725765 0.562066
0.000000 0.929137 0.287053
0.000000 0.928557 0.280705
0.000000 0.925231 0.272984
0.238041 0.916716 0.294560
0.486854 0.906401 0.314092
0.672023 0.892180 0.329931
0.815152 0.833707 0.466285
0.880766 0.805783 0.588373
0.000000 1.000000 0.305364
0.000000 1.000000 0.299809
0.000000 1.000000 0.299992
0.131838 1.000000 0.342809
0.491676 0.997650 0.416754
0.643671 0.988830 0.426581
0.795956 0.971771 0.464332
0.917479 0.931060 0.583276
0.060121 0.057008 0.120516
0.135866 0.016205 0.108370
0.264561 0.091524 0.150118
0.407477 0.150484 0.210544
0.545373 0.227146 0.275486
0.675471 0.304112 0.341833
0.793210 0.402716 0.418738
0.892241 0.528191 0.518517
0.000000 0.165042 0.136721
0.146120 0.143771 0.130861
0.278202 0.166415 0.170687
0.415106 0.200473 0.223545
0.547021 0.244663 0.281987
0.674098 0.303349 0.343664
0.792569 0.402258 0.420020
0.892393 0.528405 0.518700
0.000000 0.368322 0.174655
0.000000 0.356207 0.155123
0.294285 0.301396 0.173953
0.414130 0.301305 0.241611
0.549767 0.333745 0.300114
0.677668 0.373754 0.361120
0.792721 0.435218 0.431830
0.892912 0.529137 0.519280
0.000000 0.543206 0.212589
0.000000 0.538262 0.196017
0.232334 0.522362 0.163241
0.440131 0.452705 0.234012
0.542351 0.434058 0.317296
0.672663 0.463233 0.376135
0.789425 0.509606 0.446387
0.890745 0.581659 0.528923
0.000000 0.699397 0.250492
0.000000 0.697505 0.237858
0.000000 0.688594 0.205661
0.403540 0.670863 0.205997
0.578241 0.595026 0.299565
0.665553 0.563409 0.396429
0.784756 0.597589 0.466835
0.887877 0.651911 0.547265
0.000000 0.821561 0.279911
0.000000 0.820523 0.271977
0.000000 0.815579 0.254673
0.317815 0.804562 0.254948
0.545922 0.789944 0.266300
0.702571 0.721401 0.377600
0.779080 0.690089 0.492012
0.884733 0.728786 0.569482
0.000000 0.927886 0.303288
0.000000 0.927276 0.297978
0.000000 0.923919 0.291936
0.242283 0.915435 0.311406
0.491920 0.904814 0.334661
0.674342 0.891691 0.348516
0.816159 0.833494 0.477790
0.881804 0.807248 0.594568
0.000000 1.000000 0.317388
0.000000 1.000000 0.312230
0.000000 1.000000 0.312413
0.125551 1.000000 0.352514
0.498665 0.996735 0.430518
0.648188 0.987976 0.440772
0.797910 0.971588 0.475105
0.918212 0.931029 0.589654
0.071443 0.019471 0.234836
0.167453 0.000000 0.238224
0.280583 0.000000 0.218387
0.395392 0.146242 0.251347
0.530999 0.220920 0.308476
0.662013 0.297124 0.369848
0.785855 0.397498 0.438422
0.891752 0.528496 0.525994
0.000000 0.122835 0.241642
0.145724 0.100740 0.246708
0.287327 0.117037 0.229831
0.402502 0.200229 0.264225
0.535393 0.256077 0.318486
0.663447 0.310430 0.374334
0.785367 0.397131 0.439551
0.891600 0.528466 0.526879
0.000000 0.333715 0.269413
0.000000 0.327276 0.267582
0.302556 0.296757 0.264469
0.428046 0.325261 0.304875
0.555200 0.358434 0.351537
0.677943 0.396399 0.401923
0.790524 0.450324 0.460334
0.891142 0.528313 0.529900
0.000000 0.526787 0.297642
0.000000 0.521263 0.290074
0.226749 0.501671 0.275486
0.443641 0.447547 0.308202
0.553582 0.450690 0.368231
0.679774 0.484657 0.421576
0.793393 0.535424 0.486244
0.893095 0.603784 0.558709
0.000000 0.688960 0.320867
0.000000 0.685634 0.314794
0.084657 0.673854 0.301793
0.402441 0.655268 0.299748
0.580499 0.590845 0.359625
0.673121 0.574975 0.437385
0.789212 0.613794 0.502708
0.890715 0.667048 0.573785
0.000000 0.815000 0.338323
0.000000 0.813138 0.334508
0.000000 0.806790 0.327306
0.327855 0.795315 0.328069
0.551354 0.780941 0.344396
0.705501 0.719173 0.425727
0.784146 0.698177 0.522789
0.888060 0.738064 0.592554
0.000000 0.924407 0.351995
0.000000 0.923552 0.349096
0.000000 0.919890 0.346197
0.247135 0.911589 0.360204
0.506340 0.899626 0.393225
0.682551 0.887724 0.408789
0.819425 0.832792 0.512444
0.885527 0.812161 0.614130
0.000000 1.000000 0.356207
0.000000 1.000000 0.351232
0.000000 1.000000 0.349950
0.060151 1.000000 0.381842
0.508812 0.994720 0.464576
0.661189 0.985443 0.482795
0.803616 0.971283 0.507927
0.920714 0.931060 0.609979
0.102541 0.000000 0.334905
0.179568 0.000000 0.339452
0.319310 0.000000 0.348272
0.417670 0.000000 0.322240
0.515007 0.214542 0.347234
0.650111 0.291752 0.402258
0.777981 0.392676 0.465614
0.889311 0.528008 0.545098
0.064851 0.059174 0.341192
0.162448 0.000000 0.345037
0.317479 0.000000 0.356786
0.420264 0.042451 0.328161
0.516411 0.233829 0.352300
0.649073 0.295384 0.404761
0.777249 0.392126 0.466773
0.889433 0.528161 0.545678
0.000000 0.272618 0.347753
0.000000 0.258610 0.348486
0.275639 0.237064 0.362890
0.430701 0.272374 0.350805
0.534997 0.341161 0.381720
0.662867 0.386999 0.431220
0.781643 0.439857 0.483497
0.889372 0.528466 0.548272
0.000000 0.483528 0.387457
0.000000 0.480751 0.386999
0.190158 0.468208 0.386145
0.446784 0.437751 0.387396
0.567559 0.469490 0.428717
0.686336 0.506584 0.475105
0.795956 0.554864 0.528161
0.894591 0.610712 0.584314
0.000000 0.670283 0.412940
0.000000 0.667018 0.409583
0.000000 0.655055 0.401251
0.387274 0.632013 0.396399
0.582238 0.582635 0.431952
0.684627 0.592065 0.492836
0.797360 0.635187 0.550072
0.896544 0.686763 0.610376
0.000000 0.804288 0.419135
0.000000 0.802426 0.416815
0.000000 0.795438 0.412421
0.323278 0.782681 0.412573
0.553765 0.765682 0.432441
0.709163 0.714809 0.489479
0.792996 0.709957 0.564843
0.894408 0.750973 0.625299
0.000000 0.918883 0.422919
0.000000 0.917967 0.421118
0.000000 0.914214 0.418982
0.224216 0.906615 0.424781
0.519219 0.891661 0.465461
0.693111 0.880186 0.486915
0.824002 0.831601 0.559350
0.892271 0.819699 0.642878
0.000000 1.000000 0.419074
0.000000 1.000000 0.415534
0.000000 1.000000 0.409491
0.000000 1.000000 0.422492
0.475227 0.995727 0.486976
0.675380 0.982055 0.537774
0.810117 0.971618 0.552636
0.924620 0.931182 0.639734
0.135561 0.000000 0.421149
0.191836 0.000000 0.425422
0.316777 0.000000 0.439673
0.446906 0.000000 0.438148
0.543084 0.000000 0.417670
0.634730 0.280339 0.441230
0.767971 0.386969 0.499947
0.885374 0.526818 0.572534
0.129519 0.000000 0.425666
0.186191 0.000000 0.429511
0.312779 0.000000 0.442756
0.448310 0.000000 0.442573
0.543328 0.000000 0.420386
0.635370 0.275303 0.442695
0.767361 0.386542 0.500908
0.885496 0.527031 0.573114
0.000000 0.206973 0.421973
0.000000 0.194186 0.430213
0.263157 0.176974 0.444953
0.446265 0.150027 0.461250
0.550408 0.244724 0.436347
0.641901 0.358740 0.460273
0.769253 0.413703 0.510033
0.886229 0.528252 0.574884
0.000000 0.406683 0.445960
0.000000 0.400641 0.446174
0.152438 0.377386 0.446662
0.406439 0.370520 0.467323
0.562158 0.413947 0.463539
0.664332 0.476265 0.495552
0.783200 0.523735 0.543511
0.890806 0.568353 0.588739
0.000000 0.618952 0.494392
0.000000 0.617121 0.494179
0.000000 0.609705 0.494026
0.346197 0.594507 0.495399
0.579889 0.567895 0.500816
0.696834 0.606073 0.545800
0.805753 0.647272 0.592645
0.902525 0.691157 0.639765
0.000000 0.787778 0.511498
0.000000 0.786007 0.510124
0.000000 0.779263 0.506523
0.287449 0.766873 0.503105
0.529503 0.747951 0.508446
0.710842 0.707118 0.550591
0.805417 0.722530 0.609522
0.904204 0.764004 0.661738
0.000000 0.910246 0.508110
0.000000 0.909361 0.507012
0.000000 0.905821 0.504875
0.168765 0.899168 0.504540
0.472877 0.887999 0.516442
0.694270 0.870756 0.557305
0.828794 0.829587 0.608453
0.902159 0.828641 0.675990
0.000000 1.000000 0.497505
0.000000 1.000000 0.495338
0.000000 1.000000 0.491096
0.000000 1.000000 0.490272
0.379217 1.000000 0.511406
0.680812 0.979126 0.593317
0.817258 0.968719 0.610346
0.929656 0.931548 0.674556
0.158572 0.000000 0.507103
0.203525 0.000000 0.510979
0.313848 0.000000 0.524193
0.454749 0.000000 0.546075
0.575799 0.000000 0.532006
0.670222 0.058625 0.514458
0.762325 0.364416 0.540673
0.880522 0.525811 0.606714
0.181155 0.000000 0.511192
0.219669 0.000000 0.514824
0.320897 0.000000 0.527276
0.457038 0.000000 0.548363
0.576593 0.000000 0.534600
0.670436 0.009400 0.516411
0.762875 0.361730 0.541650
0.880674 0.526055 0.607294
0.000000 0.138918 0.510704
0.070985 0.130587 0.514427
0.262852 0.088106 0.527367
0.430121 0.000000 0.549432
0.578515 0.000000 0.547051
0.673182 0.196628 0.525658
0.764828 0.354894 0.545342
0.881437 0.527367 0.609216
0.000000 0.335393 0.501427
0.000000 0.325628 0.500969
0.109255 0.303655 0.514458
0.375921 0.300969 0.544945
0.574578 0.306371 0.566827
0.679469 0.381476 0.544457
0.767666 0.482856 0.567742
0.884031 0.538720 0.613947
0.000000 0.540276 0.548241
0.000000 0.536248 0.547967
0.000000 0.521111 0.546929
0.268101 0.489082 0.544732
0.520165 0.481727 0.568688
0.688136 0.538781 0.570550
0.785306 0.604120 0.602777
0.895537 0.645289 0.645533
0.000000 0.745815 0.594263
0.000000 0.744472 0.594171
0.000000 0.739376 0.594110
0.215091 0.729580 0.594812
0.468086 0.713710 0.597803
0.704494 0.689723 0.606958
0.818204 0.731716 0.654078
0.914580 0.769680 0.696254
0.000000 0.897490 0.601099
0.000000 0.896941 0.600671
0.000000 0.893919 0.599237
0.000000 0.887694 0.597406
0.421149 0.877165 0.598779
0.663386 0.859037 0.616236
0.831815 0.824460 0.659907
0.915404 0.839475 0.714168
0.000000 1.000000 0.586450
0.000000 1.000000 0.585229
0.000000 1.000000 0.582330
0.000000 1.000000 0.580072
0.301061 0.998779 0.584283
0.607752 0.984100 0.615900
0.819852 0.964752 0.669642
0.935882 0.931914 0.715358
0.169314 0.000000 0.608942
0.210391 0.000000 0.611719
0.313787 0.000000 0.621332
0.445502 0.000000 0.637659
0.592737 0.000000 0.654536
0.714137 0.000000 0.635218
0.797971 0.210483 0.612573
0.883391 0.506798 0.646601
0.182437 0.000000 0.611414
0.219699 0.000000 0.614038
0.317906 0.000000 0.623285
0.446784 0.000000 0.639216
0.592737 0.000000 0.656092
0.714107 0.000000 0.637018
0.798306 0.205966 0.613916
0.883940 0.506157 0.647211
0.000000 0.000000 0.611597
0.134829 0.000000 0.614374
0.276738 0.000000 0.624140
0.426459 0.000000 0.641016
0.587121 0.000000 0.662257
0.713619 0.000000 0.643214
0.799527 0.189578 0.618708
0.885832 0.504601 0.649439
0.000000 0.272374 0.595422
0.000000 0.261295 0.600183
0.036896 0.231510 0.615198
0.353429 0.206699 0.634058
0.549126 0.141726 0.659388
0.709377 0.157198 0.655390
0.801358 0.320256 0.629664
0.889128 0.504082 0.653132
0.000000 0.475624 0.614191
0.000000 0.468482 0.613123
0.000000 0.440986 0.608850
0.150515 0.389136 0.608545
0.467567 0.386816 0.646601
0.693782 0.406073 0.670832
0.803159 0.495644 0.647303
0.889677 0.601312 0.671412
0.000000 0.679927 0.658350
0.000000 0.676570 0.657832
0.000000 0.664149 0.655787
0.000000 0.638117 0.651423
0.328985 0.588403 0.643061
0.625177 0.583276 0.665064
0.807309 0.657557 0.672084
0.901274 0.722469 0.703792
0.000000 0.873045 0.693263
0.000000 0.872068 0.693172
0.000000 0.868345 0.692988
0.000000 0.861173 0.692927
0.317205 0.848508 0.693507
0.589471 0.827451 0.696407
0.822934 0.805478 0.707881
0.929778 0.847898 0.754116
0.000000 1.000000 0.682216
0.000000 1.000000 0.681758
0.000000 1.000000 0.680720
0.000000 0.999695 0.679957
0.196658 0.993317 0.680873
0.548302 0.980102 0.691279
0.788235 0.961425 0.717220
0.942412 0.931334 0.761349
0.157046 0.000000 0.734279
0.202213 0.000000 0.735744
0.309789 0.000000 0.740902
0.440772 0.000000 0.749935
0.585565 0.000000 0.762448
0.734493 0.000000 0.766018
0.862181 0.000000 0.746487
0.923857 0.396033 0.714137
0.158602 0.000000 0.735561
0.202609 0.000000 0.736995
0.309056 0.000000 0.742031
0.439429 0.000000 0.750881
0.583917 0.000000 0.763272
0.733181 0.000000 0.767178
0.861723 0.000000 0.747707
0.924285 0.394446 0.715023
0.140810 0.000000 0.739345
0.188540 0.000000 0.740688
0.298894 0.000000 0.745449
0.430762 0.000000 0.753902
0.576043 0.000000 0.765866
0.727810 0.000000 0.771328
0.859922 0.000000 0.752071
0.925750 0.389014 0.718166
0.000000 0.160281 0.733822
0.000000 0.150149 0.735561
0.000000 0.100404 0.741634
0.346014 0.000000 0.752224
0.533989 0.000000 0.766690
0.712032 0.000000 0.778897
0.855222 0.000000 0.759884
0.928435 0.379797 0.723781
0.000000 0.422248 0.721950
0.000000 0.410498 0.720638
0.000000 0.372015 0.724849
0.000000 0.297337 0.740475
0.430182 0.261295 0.757900
0.660273 0.162356 0.778347
0.841794 0.190555 0.769589
0.931060 0.408515 0.733242
0.000000 0.637415 0.754177
0.000000 0.631708 0.753475
0.000000 0.610132 0.750637
0.000000 0.563409 0.744259
0.025391 0.470069 0.733516
0.552850 0.456794 0.763851
0.814847 0.489052 0.780392
0.927520 0.606592 0.750546
0.000000 0.833890 0.782376
0.000000 0.831388 0.782101
0.000000 0.821836 0.781033
0.000000 0.802365 0.778561
0.000000 0.766995 0.773342
0.374914 0.700465 0.761685
0.728237 0.680049 0.770596
0.926299 0.770352 0.772610
0.000000 1.000000 0.794858
0.000000 1.000000 0.794858
0.000000 1.000000 0.794858
0.000000 0.998962 0.794949
0.000000 0.989502 0.795224
0.411505 0.971862 0.795804
0.703548 0.944121 0.796841
0.937499 0.917510 0.805417
