其他预设/【213】赛博朋克科幻预设52款/1.LUT预设（视频调色-PR-AE-PS-FCPX-达芬奇用）/赛博朋克科幻__-9 强度4.cube
# Created by Adobe Lightroom plugin Export LUT (1.17.0)
# www.johnrellis.com/lightroom/exportlut.htm
# Preset: 赛博朋克科幻[素锦印象]-9 强度4
# Color profile: /Library/Application Support/Adobe/Color/Profiles/Recommended/AdobeRGB1998.icc
LUT_3D_SIZE 5
DOMAIN_MIN 0.000000 0.000000 0.000000
DOMAIN_MAX 0.903226 0.903226 0.903226
0.000000 0.000000 0.000000
0.196109 0.037537 0.023438
0.505791 0.090822 0.000000
0.772274 0.147707 0.000000
0.928618 0.209323 0.132174
0.088106 0.130495 0.110506
0.220127 0.189731 0.024659
0.472572 0.211765 0.052857
0.760739 0.251743 0.019226
0.923461 0.286748 0.171969
0.187564 0.314824 0.256748
0.244205 0.371527 0.280003
0.582879 0.498573 0.000000
0.807919 0.393774 0.000000
0.902983 0.458381 0.293950
0.344121 0.549798 0.454536
0.391394 0.581384 0.475532
0.528313 0.662287 0.509575
0.821927 0.710201 0.185855
0.959411 0.501793 0.000000
0.583368 0.750515 0.667933
0.610315 0.761654 0.679744
0.688319 0.796139 0.715053
0.762844 0.835264 0.724605
0.939757 0.836179 0.459144
0.099153 0.098085 0.149020
0.207553 0.031067 0.157595
0.512322 0.132601 0.078157
0.770626 0.201724 0.000000
0.929534 0.226200 0.141878
0.146487 0.178470 0.187625
0.193545 0.193545 0.193545
0.492103 0.232059 0.157412
0.760494 0.276707 0.064424
0.924620 0.296483 0.179568
0.221317 0.314092 0.286168
0.278569 0.364172 0.322026
0.562554 0.493355 0.215000
0.794308 0.404242 0.069917
0.904814 0.461158 0.298131
0.370520 0.543511 0.474189
0.416327 0.575525 0.498543
0.548455 0.659480 0.549493
0.811215 0.713863 0.333593
0.958190 0.506371 0.000000
0.589410 0.746181 0.674647
0.615076 0.757565 0.686244
0.690181 0.792966 0.721065
0.767147 0.834806 0.737942
0.932494 0.841428 0.532586
0.243320 0.239719 0.408362
0.277012 0.212070 0.387915
0.513634 0.000000 0.380560
0.793210 0.200015 0.286625
0.937469 0.222843 0.148501
0.340215 0.370245 0.460578
0.340459 0.338628 0.440345
0.507286 0.201938 0.400122
0.781033 0.318212 0.344121
0.933623 0.284886 0.180880
0.400732 0.486427 0.511192
0.432685 0.491493 0.509270
0.477028 0.477028 0.477028
0.740505 0.522911 0.484016
0.912230 0.477516 0.370214
0.448157 0.584070 0.562493
0.482765 0.592523 0.569574
0.569635 0.634211 0.600946
0.774594 0.722347 0.566125
0.931884 0.602106 0.440192
0.618616 0.740017 0.700923
0.632258 0.742367 0.703090
0.687953 0.778592 0.732082
0.776242 0.831968 0.770565
0.915648 0.853513 0.667262
0.485847 0.482277 0.677333
0.491310 0.460304 0.668452
0.525811 0.347784 0.620783
0.755764 0.162997 0.574792
0.922301 0.500450 0.576989
0.558190 0.571649 0.695888
0.552514 0.550195 0.687282
0.551812 0.445167 0.643275
0.749691 0.296208 0.590814
0.917052 0.537530 0.597009
0.660883 0.689570 0.733089
0.676631 0.697078 0.735561
0.650477 0.649653 0.705562
0.729519 0.519799 0.641535
0.903166 0.624353 0.643977
0.666590 0.724178 0.742153
0.678309 0.727687 0.743252
0.704524 0.733028 0.742275
0.703487 0.703456 0.703487
0.877745 0.736080 0.714199
0.699794 0.786099 0.779995
0.706203 0.787198 0.779873
0.727535 0.790646 0.779232
0.769253 0.811032 0.789151
0.897093 0.865751 0.780636
0.711788 0.709865 0.829313
0.712490 0.702846 0.827848
0.715663 0.667781 0.819791
0.760006 0.563867 0.804410
0.904692 0.442206 0.732509
0.735500 0.739742 0.834440
0.734737 0.733150 0.832944
0.732998 0.701564 0.825101
0.760922 0.605585 0.806821
0.900511 0.492103 0.743221
0.787076 0.800870 0.848844
0.788602 0.799802 0.849119
0.780911 0.779934 0.843015
0.769711 0.703456 0.817227
0.889403 0.606744 0.772549
0.807004 0.830442 0.855650
0.813291 0.833860 0.857633
0.832914 0.844877 0.864439
0.827146 0.826688 0.857267
0.874784 0.733547 0.812284
0.805936 0.846342 0.859312
0.810697 0.848478 0.860594
0.826352 0.855619 0.865080
0.851011 0.867308 0.872648
0.857206 0.857176 0.857176
