其他预设/【213】赛博朋克科幻预设52款/1.LUT预设（视频调色-PR-AE-PS-FCPX-达芬奇用）/赛博朋克科幻__-12 强度5.cube
# Created by Adobe Lightroom plugin Export LUT (1.17.0)
# www.johnrellis.com/lightroom/exportlut.htm
# Preset: 赛博朋克科幻[素锦印象]-12 强度5
# Color profile: /Library/Application Support/Adobe/Color/Profiles/Recommended/AdobeRGB1998.icc
LUT_3D_SIZE 8
DOMAIN_MIN 0.000000 0.000000 0.000000
DOMAIN_MAX 0.903226 0.903226 0.903226
0.100649 0.103853 0.103914
0.100649 0.103853 0.103914
0.127596 0.132631 0.132509
0.186435 0.194797 0.194522
0.272984 0.286473 0.285985
0.385595 0.405615 0.404852
0.525475 0.553765 0.552697
0.669337 0.706142 0.704768
0.097841 0.138582 0.100496
0.111849 0.139071 0.100069
0.135500 0.125948 0.118410
0.197604 0.196994 0.197208
0.285863 0.300023 0.299504
0.396521 0.417212 0.416419
0.534020 0.562829 0.561730
0.674464 0.711574 0.710170
0.067567 0.295232 0.058564
0.067414 0.296056 0.057771
0.189792 0.291905 0.047272
0.258824 0.268376 0.053498
0.304021 0.267674 0.239017
0.420508 0.391028 0.385840
0.557549 0.559960 0.560174
0.691127 0.725582 0.724575
0.000000 0.521447 0.000000
0.000000 0.522454 0.000000
0.000000 0.524773 0.000000
0.324620 0.518059 0.000000
0.426368 0.496468 0.000000
0.573938 0.518486 0.000000
0.578668 0.516136 0.464302
0.707637 0.684108 0.672328
0.000000 0.727413 0.000000
0.000000 0.727932 0.000000
0.000000 0.729854 0.000000
0.191440 0.728023 0.000000
0.442145 0.718196 0.000000
0.571527 0.707088 0.000000
0.687709 0.715724 0.000000
0.830320 0.710414 0.297917
0.000000 0.865110 0.000000
0.000000 0.865568 0.000000
0.000000 0.867216 0.000000
0.000000 0.870420 0.000000
0.284001 0.866331 0.000000
0.516442 0.857969 0.000000
0.664790 0.858610 0.000000
0.788693 0.881041 0.000000
0.000000 0.971283 0.000000
0.000000 0.971679 0.000000
0.000000 0.973144 0.000000
0.000000 0.975891 0.000000
0.000000 0.980011 0.000000
0.336431 0.974701 0.000000
0.562402 0.967315 0.000000
0.723690 0.972564 0.000000
0.000000 1.000000 0.000000
0.000000 1.000000 0.000000
0.000000 1.000000 0.000000
0.000000 1.000000 0.000000
0.000000 1.000000 0.000000
0.000000 1.000000 0.000000
0.356573 1.000000 0.000000
0.585138 1.000000 0.000000
0.100649 0.103853 0.103914
0.100801 0.104311 0.104097
0.139834 0.145480 0.145266
0.202579 0.211795 0.211551
0.288792 0.303166 0.302617
0.398444 0.419287 0.418494
0.534142 0.562921 0.561852
0.673426 0.710445 0.709071
0.099489 0.107637 0.106386
0.116182 0.120333 0.120211
0.155123 0.161593 0.161349
0.214328 0.224308 0.223911
0.300420 0.315435 0.314855
0.408637 0.430030 0.429236
0.542229 0.571496 0.570397
0.678340 0.715663 0.714260
0.065583 0.278202 0.067170
0.084443 0.275120 0.067964
0.192416 0.273777 0.061494
0.287602 0.279118 0.097780
0.324773 0.296788 0.283604
0.436133 0.425147 0.424292
0.567376 0.587518 0.587335
0.695094 0.733394 0.731991
0.000000 0.508202 0.000000
0.000000 0.507683 0.000000
0.171237 0.507744 0.000000
0.337163 0.504692 0.000000
0.428565 0.489662 0.000000
0.563745 0.490761 0.139773
0.588739 0.535454 0.498390
0.712123 0.698177 0.690425
0.000000 0.720699 0.000000
0.000000 0.721340 0.000000
0.000000 0.723445 0.000000
0.252506 0.719631 0.000000
0.463813 0.710811 0.000000
0.572717 0.703243 0.000000
0.693843 0.712428 0.000000
0.820401 0.703273 0.392981
0.000000 0.862211 0.000000
0.000000 0.862669 0.000000
0.000000 0.864439 0.000000
0.000000 0.867765 0.000000
0.319310 0.862242 0.000000
0.533074 0.854215 0.000000
0.670375 0.856382 0.000000
0.792691 0.879332 0.000000
0.000000 0.970062 0.000000
0.000000 0.970489 0.000000
0.000000 0.971984 0.000000
0.000000 0.974792 0.000000
0.000000 0.978546 0.000000
0.358160 0.972717 0.000000
0.574090 0.965423 0.000000
0.728542 0.971527 0.000000
0.000000 1.000000 0.000000
0.000000 1.000000 0.000000
0.000000 1.000000 0.000000
0.000000 1.000000 0.000000
0.000000 1.000000 0.000000
0.000000 1.000000 0.000000
0.369207 1.000000 0.000000
0.592554 1.000000 0.000000
0.157107 0.162936 0.164157
0.159091 0.165774 0.165621
0.165286 0.172427 0.172183
0.223056 0.233646 0.233219
0.314244 0.330144 0.329503
0.426368 0.448798 0.448005
0.554833 0.584863 0.583764
0.683833 0.721431 0.720058
0.157473 0.162722 0.165103
0.162661 0.169741 0.169528
0.176638 0.184451 0.184054
0.237491 0.248844 0.248417
0.327337 0.343999 0.343389
0.435737 0.458778 0.457862
0.562036 0.592523 0.591394
0.688380 0.726284 0.724880
0.141512 0.196933 0.186679
0.161227 0.205112 0.197055
0.218601 0.228916 0.228550
0.281743 0.295628 0.295079
0.366735 0.385626 0.384924
0.467567 0.492470 0.491524
0.586328 0.618250 0.617029
0.704005 0.742824 0.741390
0.000000 0.469398 0.127352
0.000000 0.476020 0.096162
0.121645 0.474281 0.081666
0.324895 0.471992 0.010864
0.447517 0.461707 0.163638
0.498360 0.466926 0.434638
0.615106 0.601526 0.595148
0.725551 0.743252 0.742367
0.000000 0.705013 0.000000
0.000000 0.705531 0.000000
0.000000 0.703120 0.000000
0.282506 0.699733 0.000000
0.460853 0.693629 0.000000
0.582513 0.688808 0.000000
0.748531 0.724331 0.074372
0.775479 0.710750 0.621454
0.000000 0.854307 0.000000
0.000000 0.854307 0.000000
0.000000 0.855406 0.000000
0.157076 0.854307 0.000000
0.402014 0.849332 0.000000
0.556176 0.844419 0.000000
0.676509 0.850187 0.000000
0.809110 0.872160 0.000000
0.000000 0.966369 0.000000
0.000000 0.966674 0.000000
0.000000 0.968200 0.000000
0.000000 0.971160 0.000000
0.000000 0.971679 0.000000
0.421210 0.966033 0.000000
0.611810 0.959014 0.000000
0.744717 0.967956 0.000000
0.000000 1.000000 0.000000
0.000000 1.000000 0.000000
0.000000 1.000000 0.000000
0.000000 1.000000 0.000000
0.000000 1.000000 0.000000
0.000000 1.000000 0.000000
0.408026 1.000000 0.000000
0.617121 1.000000 0.000000
0.248783 0.259525 0.261357
0.250156 0.262211 0.261784
0.256077 0.268589 0.268070
0.268162 0.281285 0.280797
0.345037 0.362737 0.362066
0.453162 0.477180 0.476326
0.578393 0.609796 0.608637
0.697292 0.735714 0.734310
0.239536 0.250980 0.250523
0.241428 0.253056 0.252659
0.249454 0.261418 0.261021
0.273808 0.287358 0.286839
0.357671 0.376104 0.375402
0.463569 0.488228 0.487282
0.585351 0.617212 0.616022
0.701106 0.739773 0.738338
0.273106 0.280735 0.298070
0.279820 0.288579 0.300816
0.295445 0.310216 0.309697
0.316808 0.332830 0.332219
0.398322 0.419104 0.418311
0.497536 0.524163 0.523156
0.607935 0.641108 0.639857
0.715145 0.754665 0.753201
0.210086 0.335729 0.313237
0.228855 0.343175 0.322515
0.289952 0.367163 0.353429
0.384771 0.404791 0.404028
0.460914 0.485359 0.484443
0.548089 0.577691 0.576623
0.643030 0.678279 0.676967
0.739467 0.780423 0.778897
0.000000 0.649012 0.270146
0.000000 0.653193 0.264439
0.000000 0.667689 0.236637
0.257176 0.668330 0.240391
0.467964 0.661830 0.189212
0.621149 0.656855 0.316289
0.694850 0.656916 0.594263
0.762173 0.765133 0.756130
0.000000 0.845182 0.000000
0.000000 0.845335 0.000000
0.000000 0.846098 0.000000
0.000000 0.841428 0.000000
0.370092 0.837339 0.000000
0.558587 0.830808 0.000000
0.698329 0.836332 0.000000
0.847501 0.858091 0.271611
0.000000 0.959960 0.000000
0.000000 0.960327 0.000000
0.000000 0.961944 0.000000
0.000000 0.964538 0.000000
0.273594 0.961608 0.000000
0.463752 0.958007 0.000000
0.628229 0.952331 0.000000
0.757076 0.963043 0.000000
0.000000 1.000000 0.000000
0.000000 1.000000 0.000000
0.000000 1.000000 0.000000
0.000000 1.000000 0.000000
0.000000 1.000000 0.000000
0.128603 1.000000 0.000000
0.462531 1.000000 0.000000
0.656733 1.000000 0.000000
0.378180 0.396277 0.398322
0.379370 0.399054 0.398352
0.384771 0.404791 0.404028
0.395148 0.415778 0.414984
0.411261 0.432807 0.431983
0.491279 0.517540 0.516564
0.607294 0.640436 0.639185
0.717586 0.757198 0.755764
0.370336 0.389044 0.389166
0.371893 0.391119 0.390387
0.377996 0.397559 0.396857
0.389166 0.409369 0.408606
0.405951 0.427253 0.426459
0.500694 0.527550 0.526543
0.613428 0.646906 0.645655
0.720974 0.760800 0.759335
0.380102 0.394873 0.403449
0.384833 0.402228 0.406287
0.396155 0.416815 0.416052
0.415442 0.437232 0.436408
0.442512 0.465919 0.465034
0.531548 0.560174 0.559136
0.633326 0.667964 0.666682
0.732235 0.772763 0.771237
0.428016 0.448005 0.483650
0.435004 0.453803 0.485420
0.454932 0.472847 0.490669
0.476234 0.501610 0.500694
0.498848 0.525536 0.524529
0.577905 0.609308 0.608118
0.663386 0.699825 0.698451
0.749844 0.791379 0.789822
0.315007 0.509606 0.474983
0.332158 0.514977 0.482307
0.387732 0.532769 0.506584
0.471199 0.560784 0.545892
0.565087 0.595697 0.594568
0.630152 0.664668 0.663355
0.701442 0.740139 0.738705
0.778683 0.821897 0.820310
0.000000 0.785550 0.414191
0.000000 0.787778 0.414527
0.000000 0.795346 0.415778
0.221592 0.808255 0.414557
0.431739 0.810330 0.434943
0.599115 0.804837 0.376867
0.753811 0.804898 0.499001
0.831205 0.808133 0.737026
0.000000 0.949859 0.189456
0.000000 0.951324 0.167880
0.000000 0.956146 0.041505
0.000000 0.959258 0.000000
0.181460 0.955962 0.000000
0.453620 0.950378 0.000000
0.644404 0.942535 0.000000
0.791867 0.950835 0.209445
0.000000 1.000000 0.000000
0.000000 1.000000 0.000000
0.000000 1.000000 0.000000
0.000000 1.000000 0.000000
0.000000 1.000000 0.000000
0.270970 1.000000 0.000000
0.514855 1.000000 0.000000
0.687251 1.000000 0.000000
0.531426 0.558160 0.560388
0.532403 0.561059 0.560021
0.536675 0.565637 0.564538
0.544823 0.574243 0.573144
0.557061 0.587213 0.586114
0.572869 0.603967 0.602808
0.654292 0.690211 0.688869
0.752407 0.794095 0.792569
0.526238 0.553155 0.554498
0.527398 0.555779 0.554711
0.532097 0.560784 0.559716
0.540734 0.569940 0.568841
0.553307 0.583246 0.582116
0.569574 0.600458 0.599329
0.652644 0.688441 0.687098
0.751614 0.793271 0.791745
0.511345 0.537652 0.538628
0.512718 0.540246 0.539239
0.517845 0.545678 0.544671
0.532525 0.561212 0.560113
0.554101 0.584070 0.582971
0.579980 0.611475 0.610315
0.664179 0.700679 0.699306
0.755367 0.797238 0.795712
0.553765 0.574090 0.595514
0.557061 0.578546 0.596796
0.567132 0.593378 0.600885
0.579767 0.611261 0.610101
0.596460 0.628962 0.627771
0.617060 0.650782 0.649531
0.690364 0.728389 0.726986
0.771084 0.813870 0.812284
0.587762 0.628901 0.667659
0.593011 0.631922 0.668360
0.608850 0.641962 0.670405
0.628901 0.658656 0.673274
0.643671 0.678950 0.677638
0.660151 0.696407 0.695064
0.722316 0.762264 0.760769
0.791836 0.835843 0.834226
0.458167 0.679408 0.639734
0.471046 0.681941 0.644068
0.512352 0.690455 0.658534
0.572076 0.704494 0.681727
0.638300 0.723507 0.711055
0.709957 0.749142 0.747677
0.761563 0.803799 0.802243
0.821286 0.867063 0.865354
0.067659 0.894743 0.564935
0.131899 0.895842 0.567254
0.239475 0.899840 0.574823
0.345525 0.907439 0.584070
0.447303 0.919402 0.587366
0.593957 0.921233 0.611963
0.723110 0.916625 0.566369
0.860319 0.920958 0.664179
0.000000 1.000000 0.297704
0.000000 1.000000 0.296696
0.000000 1.000000 0.277287
0.000000 1.000000 0.184482
0.000000 1.000000 0.000000
0.215305 1.000000 0.008667
0.516136 1.000000 0.156497
0.717739 1.000000 0.181369
0.683986 0.719692 0.721645
0.684565 0.721492 0.721401
0.687160 0.724971 0.723598
0.692134 0.730282 0.728878
0.699580 0.738155 0.736690
0.709346 0.748470 0.747005
0.721401 0.761257 0.759792
0.794522 0.838712 0.837064
0.681636 0.717372 0.719173
0.682368 0.719173 0.719020
0.685115 0.722805 0.721431
0.690242 0.728267 0.726864
0.697871 0.736355 0.734951
0.707881 0.746944 0.745480
0.720119 0.759915 0.758419
0.794095 0.838224 0.836606
0.674708 0.709590 0.712154
0.675471 0.711574 0.712062
0.678431 0.715785 0.714382
0.684047 0.721706 0.720302
0.692164 0.730312 0.728878
0.702815 0.741573 0.740139
0.715816 0.755337 0.753872
0.792569 0.836606 0.834989
0.674434 0.706416 0.714717
0.675715 0.708705 0.715084
0.679713 0.716487 0.716152
0.687312 0.725154 0.723751
0.698146 0.736599 0.735164
0.711696 0.750973 0.749538
0.727474 0.767727 0.766201
0.795590 0.839841 0.838224
0.708278 0.739620 0.762722
0.709865 0.741360 0.762905
0.714748 0.747250 0.763424
0.720821 0.756619 0.763088
0.727871 0.768124 0.766629
0.739376 0.780301 0.778805
0.753292 0.795041 0.793484
0.814145 0.859525 0.857816
0.708034 0.767117 0.800595
0.712825 0.769986 0.802396
0.729274 0.780240 0.808530
0.748867 0.792264 0.813443
0.762875 0.801846 0.812955
0.772824 0.815732 0.814145
0.785428 0.829068 0.827451
0.837736 0.884489 0.882719
0.613031 0.815702 0.779599
0.619532 0.816800 0.781735
0.640955 0.820401 0.788876
0.674311 0.826810 0.800778
0.717342 0.836484 0.817685
0.767971 0.850462 0.839994
0.824460 0.870420 0.868711
0.867918 0.916442 0.914641
0.421973 0.981292 0.720333
0.431128 0.981994 0.721920
0.459510 0.984680 0.726497
0.500908 0.990082 0.731868
0.551995 0.998566 0.735561
0.608698 1.000000 0.730404
0.716274 1.000000 0.743648
0.830686 1.000000 0.720089
0.814420 0.857969 0.859464
0.814817 0.858976 0.859495
0.816342 0.861845 0.860136
0.819425 0.865080 0.863371
0.823911 0.869841 0.868162
0.829953 0.876249 0.874540
0.837491 0.884215 0.882506
0.846494 0.893767 0.891997
0.813626 0.857084 0.858732
0.814084 0.858091 0.858762
0.815640 0.861082 0.859403
0.818753 0.864378 0.862699
0.823362 0.869230 0.867552
0.829465 0.875731 0.874022
0.837095 0.883818 0.882078
0.846220 0.893462 0.891722
0.811185 0.854002 0.856657
0.811673 0.855009 0.856687
0.813352 0.858610 0.856931
0.816587 0.862089 0.860410
0.821439 0.867216 0.865537
0.827848 0.873991 0.872282
0.835813 0.882444 0.880705
0.845335 0.892515 0.890776
0.807034 0.848203 0.853605
0.807614 0.849332 0.853696
0.809506 0.853239 0.853941
0.812924 0.858213 0.856535
0.818143 0.863737 0.862058
0.825071 0.871092 0.869383
0.833646 0.880186 0.878447
0.843931 0.891051 0.889281
0.811521 0.850767 0.862089
0.811856 0.851408 0.861814
0.812741 0.853605 0.860655
0.812955 0.856931 0.857572
0.818448 0.864042 0.862364
0.825803 0.871855 0.870115
0.834806 0.881376 0.879637
0.845335 0.892546 0.890776
0.833402 0.875608 0.895781
0.834073 0.876097 0.895659
0.836210 0.877867 0.895048
0.839017 0.880705 0.893370
0.841337 0.884947 0.890043
0.845304 0.892515 0.890745
0.853910 0.901579 0.899809
0.864012 0.912291 0.910521
0.818692 0.888823 0.912657
0.821042 0.889982 0.913573
0.829129 0.893980 0.916869
0.843412 0.901640 0.922606
0.861906 0.912596 0.928283
0.871855 0.918090 0.926482
0.878111 0.927245 0.925444
0.888060 0.937774 0.935943
0.748959 0.930022 0.898833
0.751827 0.930449 0.899748
0.761776 0.931853 0.902953
0.779202 0.934569 0.908782
0.803708 0.938933 0.917510
0.834989 0.945525 0.929625
0.873381 0.955505 0.946227
0.919921 0.971527 0.969604
