其他预设/【213】赛博朋克科幻预设52款/1.LUT预设（视频调色-PR-AE-PS-FCPX-达芬奇用）/赛博朋克科幻__-10 强度5.cube
# Created by Adobe Lightroom plugin Export LUT (1.17.0)
# www.johnrellis.com/lightroom/exportlut.htm
# Preset: 赛博朋克科幻[素锦印象]-10 强度5
# Color profile: /Library/Application Support/Adobe/Color/Profiles/Recommended/AdobeRGB1998.icc
LUT_3D_SIZE 5
DOMAIN_MIN 0.000000 0.000000 0.000000
DOMAIN_MAX 0.903226 0.903226 0.903226
0.076326 0.074983 0.067597
0.206699 0.200931 0.167330
0.455268 0.440925 0.356085
0.666377 0.644739 0.516014
0.837430 0.809873 0.645594
0.000000 0.422400 0.158206
0.280278 0.300877 0.131014
0.449012 0.434852 0.351263
0.662257 0.640772 0.512932
0.836790 0.809262 0.645136
0.000000 0.748104 0.276127
0.000000 0.733639 0.219333
0.568658 0.596368 0.311192
0.675441 0.653468 0.522881
0.834806 0.807340 0.643641
0.000000 0.935027 0.334173
0.000000 0.931762 0.319646
0.358770 0.905028 0.326665
0.787961 0.808804 0.485725
0.859678 0.831357 0.662470
0.000000 1.000000 0.356329
0.000000 1.000000 0.354986
0.000000 1.000000 0.370214
0.735744 1.000000 0.542962
0.950591 0.952819 0.649256
0.092226 0.063203 0.183261
0.208988 0.170352 0.159640
0.437720 0.423987 0.342748
0.660731 0.639307 0.511772
0.838499 0.810880 0.646418
0.000000 0.355535 0.246769
0.292302 0.283574 0.232456
0.448524 0.434394 0.350958
0.652857 0.631678 0.505791
0.838010 0.810422 0.646052
0.000000 0.728237 0.333928
0.000000 0.708339 0.296727
0.570764 0.585199 0.358129
0.694392 0.671778 0.537285
0.840055 0.812375 0.647578
0.000000 0.928710 0.372595
0.000000 0.924651 0.356146
0.366705 0.897581 0.364446
0.791501 0.805600 0.508721
0.867643 0.839017 0.668482
0.000000 1.000000 0.378241
0.000000 1.000000 0.377050
0.000000 1.000000 0.388373
0.743801 1.000000 0.559045
0.952880 0.952758 0.657008
0.154574 0.000000 0.330571
0.325383 0.000000 0.358343
0.437079 0.363500 0.325261
0.639673 0.618952 0.495827
0.839811 0.812161 0.647425
0.000000 0.179873 0.331670
0.268467 0.106050 0.369299
0.456336 0.320623 0.331670
0.629389 0.609033 0.488045
0.838987 0.811368 0.646784
0.000000 0.645960 0.438666
0.000000 0.630152 0.433021
0.564660 0.546532 0.439002
0.704677 0.681697 0.545068
0.833951 0.806516 0.643000
0.000000 0.911589 0.467201
0.000000 0.906401 0.455085
0.332250 0.878355 0.452888
0.796536 0.793729 0.558740
0.889891 0.860502 0.685359
0.000000 1.000000 0.451057
0.000000 1.000000 0.448127
0.000000 1.000000 0.432654
0.729458 1.000000 0.581476
0.959380 0.952789 0.678187
0.199680 0.000000 0.438727
0.315679 0.000000 0.463142
0.559930 0.000000 0.484291
0.640375 0.559655 0.478431
0.835477 0.807980 0.644129
0.165255 0.000000 0.445899
0.306706 0.000000 0.470680
0.560632 0.000000 0.500206
0.649653 0.534112 0.478218
0.834714 0.807248 0.643580
0.000000 0.435950 0.463111
0.000000 0.393194 0.457008
0.461891 0.340948 0.520165
0.689387 0.559289 0.509880
0.833982 0.806546 0.643000
0.000000 0.860258 0.580285
0.000000 0.854185 0.578485
0.089021 0.827359 0.578271
0.779324 0.753750 0.601587
0.894408 0.864897 0.688777
0.000000 1.000000 0.560815
0.000000 1.000000 0.559625
0.000000 1.000000 0.546075
0.584436 1.000000 0.588830
0.968780 0.952331 0.708888
0.231724 0.000000 0.605707
0.331945 0.000000 0.619806
0.580529 0.000000 0.663294
0.816770 0.280095 0.633021
0.850736 0.804318 0.649561
0.212467 0.000000 0.610437
0.315801 0.000000 0.623651
0.564752 0.000000 0.665126
0.816861 0.239780 0.642878
0.854734 0.798917 0.649805
0.000000 0.281773 0.565576
0.000000 0.189242 0.592462
0.436713 0.000000 0.658595
0.799649 0.000000 0.674678
0.867948 0.780056 0.651759
0.000000 0.751888 0.680781
0.000000 0.728298 0.676539
0.000000 0.612329 0.652766
0.597681 0.429664 0.680659
0.893950 0.762600 0.665705
0.000000 1.000000 0.701656
0.000000 1.000000 0.702510
0.000000 1.000000 0.703822
0.304723 1.000000 0.712306
0.961242 0.929381 0.739376
