其他预设/【213】赛博朋克科幻预设52款/1.LUT预设（视频调色-PR-AE-PS-FCPX-达芬奇用）/赛博朋克科幻__-9 强度2.cube
# Created by Adobe Lightroom plugin Export LUT (1.17.0)
# www.johnrellis.com/lightroom/exportlut.htm
# Preset: 赛博朋克科幻[素锦印象]-9 强度2
# Color profile: /Library/Application Support/Adobe/Color/Profiles/Recommended/AdobeRGB1998.icc
LUT_3D_SIZE 8
DOMAIN_MIN 0.000000 0.000000 0.000000
DOMAIN_MAX 0.903226 0.903226 0.903226
0.000000 0.000000 0.000000
0.119020 0.008423 0.001282
0.245304 0.039063 0.000000
0.396277 0.080842 0.000000
0.558129 0.121248 0.000000
0.700404 0.153780 0.000000
0.822141 0.173617 0.000000
0.928313 0.182101 0.000000
0.031220 0.104280 0.064576
0.126528 0.117464 0.008667
0.237766 0.117189 0.000549
0.391241 0.141543 0.000000
0.554681 0.170474 0.000000
0.698390 0.193637 0.000000
0.820951 0.207492 0.000000
0.927550 0.212741 0.000000
0.054719 0.209567 0.118563
0.110597 0.219699 0.108248
0.267582 0.247654 0.002319
0.405280 0.241978 0.000000
0.543267 0.268315 0.000000
0.691310 0.286351 0.000000
0.816617 0.293370 0.000000
0.924743 0.293675 0.000000
0.075227 0.337835 0.186618
0.122805 0.345922 0.180758
0.239261 0.364172 0.158175
0.440558 0.407294 0.000000
0.583917 0.380987 0.000000
0.697353 0.386603 0.000000
0.808988 0.396124 0.000000
0.919707 0.394324 0.000000
0.098421 0.477699 0.262119
0.142214 0.483375 0.258457
0.247501 0.500908 0.242252
0.389136 0.521996 0.209049
0.611536 0.565301 0.000000
0.727932 0.503258 0.000000
0.832883 0.493935 0.000000
0.918395 0.494759 0.000000
0.145235 0.613703 0.341466
0.181735 0.617304 0.339971
0.277806 0.629389 0.335515
0.396521 0.644068 0.319249
0.544884 0.668330 0.262638
0.750515 0.694697 0.018982
0.847776 0.610010 0.000000
0.943511 0.586755 0.000000
0.236942 0.737087 0.430121
0.264561 0.738949 0.431403
0.347112 0.745205 0.438178
0.450935 0.755093 0.445533
0.548943 0.766720 0.425971
0.684352 0.789303 0.346197
0.865904 0.803220 0.168185
0.946990 0.701900 0.000000
0.367926 0.846403 0.534966
0.389593 0.847044 0.538964
0.457649 0.849210 0.554253
0.552789 0.853544 0.581842
0.619715 0.861570 0.577325
0.695186 0.870787 0.559411
0.806302 0.889494 0.459144
0.960815 0.894285 0.281163
0.048280 0.047974 0.105898
0.119509 0.026734 0.106722
0.249973 0.060456 0.083955
0.397192 0.108034 0.055848
0.557519 0.152377 0.000000
0.699825 0.182193 0.000000
0.822232 0.192447 0.000000
0.928771 0.191684 0.000000
0.058839 0.109957 0.116304
0.117800 0.117800 0.117800
0.243442 0.126955 0.104646
0.393835 0.150393 0.072694
0.555200 0.184817 0.000000
0.697993 0.214023 0.000000
0.821073 0.221927 0.000000
0.928008 0.220249 0.000000
0.079072 0.208713 0.153689
0.130129 0.219852 0.157809
0.261875 0.246006 0.119142
0.397223 0.242649 0.100526
0.546563 0.269047 0.061097
0.692317 0.290990 0.000000
0.817014 0.300938 0.000000
0.925322 0.297520 0.000000
0.100282 0.337133 0.215305
0.143618 0.345037 0.215091
0.244541 0.365362 0.199100
0.436255 0.405432 0.110811
0.581537 0.380774 0.000000
0.693721 0.387915 0.000824
0.809903 0.397955 0.000000
0.920378 0.396094 0.000000
0.124086 0.476875 0.285618
0.160128 0.482429 0.283391
0.255619 0.501061 0.272038
0.388586 0.520317 0.246738
0.608453 0.564111 0.104799
0.726314 0.503807 0.000000
0.830686 0.495094 0.000000
0.918395 0.496223 0.000000
0.163424 0.612726 0.359808
0.196139 0.616266 0.358862
0.286595 0.628138 0.356146
0.401831 0.643641 0.343755
0.544091 0.667079 0.296178
0.748409 0.694209 0.142397
0.846738 0.611292 0.000000
0.943084 0.587549 0.000000
0.246677 0.736172 0.443549
0.273289 0.738003 0.444953
0.353155 0.744228 0.451637
0.458656 0.754269 0.462837
0.553307 0.766171 0.444984
0.684291 0.788510 0.373938
0.864195 0.803098 0.218631
0.946197 0.703639 0.066468
0.370672 0.845762 0.543023
0.391974 0.846433 0.546838
0.459358 0.848661 0.561639
0.553674 0.852995 0.588190
0.623713 0.861051 0.588006
0.697810 0.870420 0.571313
0.806516 0.889036 0.479835
0.959380 0.894347 0.314488
0.085756 0.083680 0.218723
0.131441 0.081147 0.215579
0.246128 0.057160 0.218112
0.410040 0.000000 0.197818
0.570184 0.086641 0.163210
0.706050 0.162783 0.135164
0.825711 0.196139 0.000000
0.931395 0.202426 0.000000
0.106233 0.144167 0.229343
0.144503 0.143862 0.227054
0.245762 0.127504 0.223819
0.409735 0.115145 0.200626
0.566705 0.156771 0.177340
0.704311 0.198917 0.145724
0.824674 0.223575 0.024018
0.930663 0.228611 0.000000
0.110292 0.230472 0.244388
0.153872 0.233433 0.244114
0.242649 0.242649 0.242649
0.396002 0.253605 0.231449
0.556451 0.271000 0.211124
0.698177 0.288823 0.178866
0.820737 0.300664 0.112703
0.928130 0.301946 0.000000
0.126741 0.331365 0.275822
0.164767 0.339239 0.280247
0.258335 0.364019 0.288426
0.421302 0.400061 0.247929
0.565484 0.384802 0.235111
0.686397 0.398535 0.234226
0.812894 0.403510 0.189242
0.923033 0.397955 0.059571
0.146304 0.471504 0.339910
0.183993 0.477241 0.342260
0.277806 0.495796 0.346654
0.395117 0.520012 0.334447
0.596857 0.559777 0.258427
0.719478 0.509087 0.227024
0.821134 0.505852 0.224369
0.913725 0.510124 0.220462
0.188327 0.608576 0.407782
0.222354 0.612146 0.409674
0.309819 0.623743 0.413886
0.419379 0.641566 0.414069
0.542443 0.662074 0.387976
0.740139 0.692195 0.287266
0.842039 0.618006 0.236942
0.937896 0.595941 0.160739
0.266880 0.732937 0.482643
0.293156 0.734737 0.484810
0.368750 0.740841 0.492042
0.475776 0.751095 0.508904
0.567285 0.764065 0.501732
0.684169 0.785550 0.453864
0.858061 0.802762 0.338354
0.942626 0.711086 0.256962
0.376593 0.843717 0.569055
0.395239 0.844480 0.571496
0.461707 0.846769 0.584619
0.554528 0.851255 0.608148
0.635615 0.859312 0.620905
0.705623 0.869291 0.607538
0.806821 0.887541 0.539788
0.954284 0.894560 0.407324
0.128756 0.125246 0.362371
0.170047 0.125887 0.358831
0.259861 0.119448 0.345983
0.396307 0.061585 0.349920
0.567468 0.000000 0.333745
0.717403 0.056031 0.288304
0.832090 0.174441 0.263005
0.936522 0.179202 0.185489
0.150881 0.183963 0.371557
0.183871 0.181552 0.367864
0.264988 0.169772 0.354406
0.396368 0.133028 0.353704
0.567254 0.100099 0.336126
0.714778 0.154330 0.297887
0.830503 0.213962 0.272160
0.935790 0.208927 0.191836
0.175204 0.284947 0.390997
0.210452 0.288060 0.390723
0.280949 0.280095 0.378943
0.395056 0.253758 0.366583
0.566186 0.257694 0.348028
0.705776 0.291020 0.328954
0.825162 0.309697 0.300755
0.932586 0.294774 0.222660
0.167453 0.378515 0.402289
0.202029 0.379919 0.401465
0.289006 0.384466 0.398138
0.389929 0.389929 0.389929
0.550072 0.404181 0.384161
0.691737 0.416999 0.371801
0.815793 0.421912 0.345312
0.925597 0.408118 0.283268
0.176913 0.474952 0.420447
0.210056 0.477272 0.421424
0.296727 0.485023 0.424231
0.409796 0.514183 0.437995
0.573480 0.551293 0.406043
0.700099 0.527459 0.399542
0.801480 0.537896 0.407568
0.914183 0.529229 0.364691
0.218296 0.600549 0.473548
0.247227 0.604028 0.475837
0.329320 0.615595 0.483314
0.437842 0.634180 0.494484
0.548547 0.655726 0.493050
0.724208 0.688258 0.433173
0.831083 0.635065 0.406073
0.923400 0.623926 0.388861
0.290929 0.726986 0.539361
0.314458 0.728756 0.541253
0.384649 0.734829 0.547967
0.483253 0.745266 0.560876
0.585718 0.760098 0.573999
0.683955 0.779690 0.552667
0.846891 0.801938 0.473274
0.934874 0.727077 0.417548
0.395789 0.839567 0.614832
0.412634 0.840360 0.616693
0.464576 0.843229 0.622644
0.547570 0.848447 0.636927
0.648432 0.856474 0.664454
0.715328 0.867582 0.657160
0.806149 0.885100 0.615656
0.945892 0.895018 0.520256
0.188663 0.183413 0.518212
0.221195 0.183413 0.514977
0.302708 0.178347 0.503166
0.401801 0.155459 0.482551
0.549828 0.075593 0.485176
0.699184 0.000000 0.459480
0.828702 0.187839 0.433417
0.934264 0.283787 0.418067
0.207065 0.232609 0.524651
0.234592 0.230655 0.521355
0.308690 0.221195 0.509270
0.403388 0.196963 0.486793
0.549432 0.145541 0.487770
0.698726 0.134951 0.462501
0.827970 0.232212 0.439368
0.933318 0.304692 0.422217
0.245029 0.338109 0.542931
0.269810 0.338079 0.540032
0.329564 0.327642 0.528069
0.412634 0.302678 0.504356
0.547601 0.270176 0.497047
0.696742 0.278691 0.474800
0.825132 0.343267 0.461830
0.930358 0.364477 0.434302
0.260594 0.439002 0.556329
0.288609 0.441688 0.555932
0.366857 0.450385 0.553796
0.439033 0.438331 0.534264
0.543053 0.405646 0.513603
0.692805 0.425330 0.500755
0.817441 0.455634 0.491829
0.926635 0.438453 0.444495
0.254124 0.528862 0.560784
0.280797 0.529931 0.560082
0.355688 0.533074 0.557000
0.448676 0.536584 0.550011
0.536065 0.536065 0.536065
0.679194 0.552209 0.536126
0.804623 0.561364 0.526482
0.915648 0.551598 0.491676
0.259709 0.616052 0.568658
0.285435 0.616999 0.568872
0.358770 0.619776 0.568933
0.451820 0.623041 0.567987
0.557458 0.646998 0.580804
0.700618 0.680964 0.560632
0.812284 0.660487 0.555535
0.900206 0.666957 0.559869
0.323522 0.717830 0.605554
0.343694 0.719600 0.607141
0.405554 0.725734 0.612543
0.492592 0.736355 0.621698
0.587549 0.752682 0.632593
0.684413 0.772580 0.637079
0.832364 0.800290 0.591333
0.923735 0.749660 0.561242
0.421973 0.833341 0.671626
0.436652 0.834165 0.672938
0.482216 0.837247 0.676967
0.547387 0.843351 0.682429
0.630915 0.852720 0.692897
0.723171 0.865080 0.710048
0.803281 0.881407 0.690791
0.936095 0.895659 0.623468
0.263249 0.257572 0.658656
0.286229 0.257420 0.656580
0.352178 0.253544 0.648798
0.440742 0.238376 0.633295
0.547784 0.204074 0.617182
0.685420 0.151125 0.606928
0.812497 0.163851 0.574914
0.924926 0.299870 0.561486
0.282048 0.298436 0.662104
0.301610 0.296971 0.659998
0.361028 0.290379 0.652247
0.444739 0.273228 0.636774
0.548302 0.240177 0.619409
0.684749 0.197513 0.608820
0.811856 0.210178 0.577935
0.924041 0.327794 0.566491
0.333867 0.399847 0.672724
0.347387 0.397620 0.670710
0.391791 0.388861 0.663142
0.460578 0.369909 0.648005
0.550378 0.336706 0.626581
0.682185 0.306401 0.615747
0.809567 0.321386 0.589105
0.921141 0.408911 0.583978
0.385626 0.506859 0.689418
0.401740 0.508354 0.687709
0.448432 0.510735 0.680781
0.497841 0.496376 0.666255
0.559991 0.460426 0.641230
0.677241 0.431830 0.627985
0.805753 0.450416 0.610071
0.917266 0.511711 0.611322
0.387579 0.583124 0.691463
0.406744 0.585748 0.691218
0.465095 0.594385 0.690211
0.541650 0.606592 0.687922
0.590448 0.589868 0.668238
0.670863 0.552331 0.644404
0.802792 0.574853 0.638178
0.913390 0.599939 0.632868
0.383490 0.657649 0.692256
0.401190 0.658717 0.691890
0.455024 0.662074 0.690425
0.526421 0.666468 0.687160
0.597559 0.669154 0.680568
0.663935 0.663905 0.663935
0.792966 0.681544 0.668025
0.903685 0.685115 0.655848
0.380774 0.740200 0.703914
0.398230 0.740444 0.703670
0.451575 0.741115 0.702693
0.521752 0.742153 0.700404
0.594141 0.742763 0.695155
0.684962 0.763607 0.705074
0.812894 0.795590 0.693324
0.909545 0.774624 0.684321
0.457313 0.832334 0.738735
0.469032 0.832364 0.738735
0.505791 0.832395 0.738369
0.560479 0.835386 0.739071
0.630976 0.845365 0.744259
0.714809 0.859709 0.753170
0.801968 0.876371 0.760830
0.924651 0.896300 0.720455
0.364019 0.358862 0.776669
0.378454 0.358709 0.775479
0.424231 0.356542 0.771054
0.492927 0.347112 0.762295
0.576349 0.323400 0.747402
0.685054 0.287144 0.738308
0.803708 0.256992 0.716304
0.914000 0.274846 0.683040
0.382483 0.391394 0.778225
0.395087 0.390539 0.777066
0.435859 0.386389 0.772702
0.499763 0.375250 0.763973
0.579370 0.350652 0.749172
0.684962 0.314916 0.739315
0.802945 0.286229 0.717861
0.913298 0.302800 0.685634
0.435859 0.478950 0.783536
0.444526 0.477363 0.782406
0.474434 0.471290 0.778164
0.524285 0.457923 0.769772
0.591028 0.431647 0.755245
0.684688 0.395697 0.742641
0.800168 0.369055 0.723323
0.910979 0.383246 0.694850
0.498756 0.578180 0.792874
0.509209 0.579797 0.791897
0.536584 0.580041 0.788052
0.568139 0.566217 0.779934
0.614588 0.540490 0.765927
0.685359 0.500969 0.748196
0.795560 0.474098 0.732723
0.907591 0.485817 0.710201
0.529564 0.653437 0.801419
0.541863 0.656550 0.801480
0.580529 0.666560 0.801877
0.618006 0.666773 0.796262
0.648615 0.647517 0.782925
0.691127 0.606317 0.759274
0.790249 0.577447 0.745083
0.904204 0.592950 0.730617
0.525597 0.709621 0.801389
0.536889 0.711452 0.801419
0.572564 0.717464 0.801572
0.624079 0.726253 0.801907
0.683558 0.736446 0.802304
0.719570 0.719051 0.785489
0.784360 0.679103 0.760342
0.901732 0.701717 0.757229
0.519677 0.768124 0.801846
0.529839 0.769039 0.801816
0.562097 0.772000 0.801633
0.609308 0.776577 0.801205
0.665583 0.781918 0.799893
0.724819 0.785580 0.795468
0.777676 0.777676 0.777676
0.894804 0.794705 0.782864
0.519371 0.845060 0.820310
0.527947 0.845548 0.820249
0.555261 0.847135 0.819944
0.599481 0.849180 0.818448
0.657496 0.850828 0.815366
0.718227 0.852079 0.809506
0.798825 0.869932 0.816861
0.910918 0.895872 0.809079
0.495033 0.490944 0.874144
0.503105 0.490700 0.873594
0.530632 0.489357 0.871641
0.575921 0.483986 0.867796
0.635767 0.470008 0.861387
0.708949 0.439338 0.851072
0.812619 0.404242 0.848692
0.909300 0.382879 0.818204
0.509972 0.514061 0.874540
0.517296 0.513542 0.874022
0.542168 0.511101 0.872099
0.584039 0.504570 0.868345
0.640589 0.489693 0.861997
0.710842 0.458625 0.851774
0.812070 0.423560 0.848997
0.908568 0.401312 0.819425
0.551385 0.577569 0.876402
0.556756 0.576684 0.875914
0.575769 0.572900 0.874083
0.609033 0.564599 0.870512
0.656062 0.548211 0.864408
0.717464 0.517266 0.854429
0.810300 0.481971 0.850248
0.906188 0.456855 0.823636
0.604639 0.656703 0.880705
0.608240 0.655634 0.880278
0.621149 0.651362 0.878569
0.644587 0.642512 0.875212
0.679561 0.626093 0.869383
0.728359 0.596551 0.859678
0.807462 0.559564 0.852781
0.902800 0.531548 0.830564
0.637629 0.720058 0.886748
0.643183 0.720974 0.886503
0.660792 0.722988 0.885588
0.685420 0.721950 0.883391
0.708644 0.707240 0.877897
0.743740 0.681209 0.868498
0.804318 0.642267 0.857115
0.898589 0.615290 0.840085
0.645380 0.767636 0.889281
0.652430 0.769345 0.889403
0.675441 0.774929 0.889982
0.711696 0.783810 0.891173
0.746242 0.786526 0.890105
0.770871 0.769955 0.882231
0.806180 0.731014 0.865568
0.893858 0.703273 0.852140
0.640375 0.812314 0.890562
0.646754 0.813413 0.890654
0.667750 0.816953 0.891081
0.701900 0.822934 0.891905
0.746761 0.831418 0.893400
0.799344 0.842588 0.896025
0.831815 0.831388 0.887541
0.888853 0.792508 0.866575
0.634455 0.860868 0.893034
0.640070 0.861509 0.893095
0.659174 0.863706 0.893339
0.691096 0.867582 0.893767
0.733120 0.873075 0.894499
0.782223 0.879881 0.895415
0.835508 0.887022 0.895506
0.882872 0.882841 0.882872
