其他预设/【213】赛博朋克科幻预设52款/1.LUT预设（视频调色-PR-AE-PS-FCPX-达芬奇用）/赛博朋克科幻__-9 强度5.cube
# Created by Adobe Lightroom plugin Export LUT (1.17.0)
# www.johnrellis.com/lightroom/exportlut.htm
# Preset: 赛博朋克科幻[素锦印象]-9 强度5
# Color profile: /Library/Application Support/Adobe/Color/Profiles/Recommended/AdobeRGB1998.icc
LUT_3D_SIZE 32
0.000000 0.000000 0.000000
0.024537 0.001770 0.001373
0.054353 0.003388 0.003662
0.081056 0.009125 0.008911
0.104952 0.017365 0.016510
0.131136 0.025238 0.025116
0.160006 0.033875 0.033204
0.192081 0.042329 0.039246
0.228061 0.049592 0.043519
0.268437 0.055512 0.044038
0.314153 0.059205 0.041718
0.363531 0.061799 0.034791
0.415198 0.065492 0.026062
0.467659 0.071412 0.015534
0.519249 0.078126 0.004456
0.568505 0.085542 0.000000
0.614313 0.093721 0.000000
0.655604 0.103029 0.000000
0.691615 0.112520 0.005921
0.724147 0.122316 0.029114
0.753872 0.132753 0.059602
0.781003 0.143404 0.077943
0.805783 0.155276 0.096742
0.828305 0.168154 0.116396
0.848844 0.181704 0.136690
0.867552 0.197024 0.158297
0.884550 0.214054 0.181094
0.900053 0.233097 0.205783
0.914183 0.254246 0.232212
0.927031 0.278050 0.260594
0.938659 0.304417 0.291142
0.949035 0.333654 0.324071
0.008423 0.009979 0.009796
0.028229 0.019898 0.001953
0.058869 0.010712 0.000000
0.077455 0.026062 0.016480
0.101808 0.033570 0.024201
0.128328 0.041871 0.031769
0.157687 0.049775 0.038788
0.189822 0.056641 0.043793
0.225986 0.061006 0.047791
0.266636 0.063783 0.047456
0.312352 0.067109 0.045228
0.361791 0.070100 0.038239
0.413611 0.074128 0.029358
0.466224 0.080110 0.018647
0.518029 0.085969 0.008637
0.567376 0.093507 0.000000
0.613306 0.100923 0.000000
0.654780 0.109804 0.000000
0.690883 0.118349 0.010742
0.723598 0.127871 0.033661
0.753414 0.137728 0.061860
0.780606 0.148043 0.079927
0.805447 0.159304 0.098512
0.828031 0.171633 0.117830
0.848600 0.184970 0.138033
0.867308 0.200107 0.159670
0.884367 0.216709 0.182406
0.899840 0.235813 0.207095
0.913970 0.256748 0.233494
0.926848 0.280308 0.261875
0.938476 0.306554 0.292454
0.948852 0.335637 0.325261
0.021118 0.022675 0.022492
0.028962 0.039887 0.029511
0.061494 0.046906 0.005158
0.084871 0.022553 0.000000
0.097658 0.052094 0.034943
0.124575 0.058747 0.041474
0.154055 0.062654 0.046387
0.186679 0.065888 0.050355
0.223117 0.069215 0.052003
0.263920 0.072663 0.051575
0.309789 0.075868 0.048981
0.359350 0.079774 0.043549
0.411383 0.084413 0.034424
0.464240 0.089906 0.023651
0.516106 0.096132 0.013428
0.565911 0.102724 0.005035
0.611994 0.110323 0.001495
0.653681 0.117983 0.004761
0.690059 0.126070 0.016815
0.722805 0.134920 0.040803
0.752743 0.143923 0.065156
0.780087 0.153780 0.082551
0.804959 0.164675 0.100801
0.827604 0.176364 0.119905
0.848234 0.189517 0.140047
0.867002 0.204105 0.161379
0.884031 0.220554 0.184176
0.899535 0.239261 0.208835
0.913725 0.260014 0.235264
0.926574 0.283391 0.263706
0.938231 0.309270 0.294041
0.948608 0.338170 0.326909
0.050141 0.052338 0.051209
0.056397 0.062074 0.059236
0.061311 0.068910 0.060700
0.086885 0.072694 0.011719
0.112734 0.043641 0.000000
0.127474 0.064820 0.030060
0.147036 0.075715 0.058839
0.180117 0.079469 0.059571
0.217014 0.083284 0.059998
0.258244 0.087129 0.059297
0.304204 0.091524 0.057160
0.354253 0.096437 0.052277
0.406500 0.101961 0.045686
0.459693 0.107912 0.035645
0.512383 0.113832 0.025940
0.562554 0.120394 0.018158
0.609125 0.127138 0.015290
0.651270 0.134340 0.019043
0.687984 0.141268 0.033082
0.721096 0.148928 0.055177
0.751369 0.157015 0.071443
0.778866 0.165713 0.087709
0.803952 0.175692 0.105562
0.826719 0.186618 0.124331
0.847440 0.198856 0.144228
0.866300 0.212833 0.165408
0.883391 0.228580 0.188083
0.898924 0.246708 0.212772
0.913115 0.266941 0.239078
0.926024 0.289769 0.267338
0.937652 0.315343 0.297734
0.948058 0.343877 0.330571
0.067292 0.069398 0.068330
0.069703 0.073640 0.071656
0.072480 0.079652 0.074983
0.077485 0.088411 0.073640
0.114015 0.095613 0.021241
0.143282 0.066590 0.000000
0.169741 0.074342 0.000000
0.181552 0.089296 0.055512
0.207797 0.098268 0.067079
0.249210 0.103792 0.066743
0.295598 0.109743 0.065278
0.346044 0.115969 0.063020
0.398962 0.122499 0.059846
0.452918 0.129335 0.053620
0.506218 0.135958 0.046448
0.557122 0.142428 0.040131
0.604517 0.148867 0.037537
0.647395 0.155001 0.042969
0.684871 0.161135 0.055543
0.718502 0.167697 0.067353
0.749111 0.174807 0.080812
0.777005 0.182742 0.096132
0.802335 0.191379 0.113039
0.825315 0.201328 0.131197
0.846189 0.212711 0.150607
0.865171 0.225650 0.171603
0.882353 0.240635 0.194369
0.897978 0.257847 0.218784
0.912200 0.277470 0.244968
0.925109 0.299687 0.273350
0.936767 0.324620 0.303655
0.947173 0.352544 0.336309
0.078706 0.080934 0.080018
0.080415 0.084565 0.082460
0.082612 0.089693 0.085847
0.087953 0.100801 0.090669
0.095766 0.109804 0.084108
0.144930 0.121035 0.029938
0.177127 0.087709 0.000000
0.213962 0.092226 0.000000
0.233829 0.104005 0.011566
0.251316 0.116091 0.062928
0.284062 0.127382 0.075013
0.335149 0.135531 0.073548
0.388708 0.143679 0.071077
0.443702 0.151583 0.067659
0.497993 0.158907 0.064698
0.550042 0.166049 0.062501
0.598352 0.172610 0.061891
0.642206 0.178470 0.064515
0.680446 0.184085 0.070558
0.714900 0.189853 0.080079
0.746059 0.196048 0.092287
0.774441 0.202823 0.106538
0.800107 0.210575 0.122438
0.823362 0.219425 0.140108
0.844480 0.229892 0.159274
0.863615 0.241825 0.180026
0.880919 0.256016 0.202579
0.896635 0.272343 0.226810
0.910918 0.291173 0.252934
0.923888 0.312535 0.281163
0.935546 0.336736 0.311406
0.945953 0.363989 0.344060
0.090028 0.093050 0.091829
0.091707 0.096376 0.094148
0.093843 0.101015 0.097322
0.098451 0.110964 0.102876
0.105989 0.125948 0.106355
0.121309 0.138918 0.090181
0.179690 0.149477 0.032746
0.215427 0.110597 0.000000
0.258762 0.115602 0.000000
0.297185 0.125917 0.000000
0.316991 0.137484 0.009094
0.340185 0.149996 0.065400
0.375921 0.163516 0.083864
0.432044 0.173190 0.081636
0.487709 0.181918 0.079377
0.540856 0.189883 0.077943
0.590478 0.196780 0.078035
0.635554 0.202884 0.080537
0.674983 0.208347 0.085756
0.710292 0.213474 0.094331
0.742184 0.219120 0.105379
0.771145 0.225162 0.118837
0.797238 0.232181 0.134157
0.820890 0.240146 0.151034
0.842283 0.249546 0.169863
0.861601 0.260807 0.190433
0.879088 0.274144 0.212894
0.894926 0.289616 0.237064
0.909300 0.307530 0.263005
0.922271 0.328191 0.291112
0.933959 0.351537 0.321233
0.944396 0.377996 0.353674
0.103090 0.106874 0.105196
0.104646 0.109895 0.107637
0.106508 0.113893 0.110323
0.110689 0.123171 0.116121
0.117800 0.137667 0.122866
0.125734 0.152193 0.121004
0.155123 0.172396 0.095888
0.219516 0.181949 0.030793
0.259770 0.135592 0.000000
0.309300 0.143862 0.000000
0.360540 0.154604 0.000000
0.390631 0.165164 0.000000
0.414405 0.175296 0.000000
0.439765 0.188968 0.068330
0.475013 0.203677 0.095369
0.529870 0.212955 0.094240
0.580835 0.220798 0.094881
0.627375 0.227573 0.097139
0.668177 0.233097 0.102174
0.704616 0.238285 0.109834
0.737423 0.243565 0.120150
0.767056 0.249119 0.132937
0.793759 0.255497 0.147646
0.817838 0.262730 0.164157
0.839567 0.271427 0.182650
0.859129 0.282048 0.202976
0.876799 0.294530 0.225193
0.892790 0.309178 0.249271
0.907256 0.326360 0.275151
0.920317 0.346075 0.302983
0.932036 0.368719 0.332982
0.942443 0.394293 0.365270
0.118166 0.122499 0.120760
0.119295 0.125338 0.122591
0.121096 0.129274 0.125612
0.125032 0.137636 0.131106
0.131624 0.151034 0.138766
0.141054 0.169192 0.144961
0.150484 0.182467 0.137667
0.195438 0.210880 0.102113
0.265476 0.219120 0.019898
0.308568 0.172244 0.000000
0.365393 0.174838 0.000000
0.421912 0.185824 0.000000
0.468544 0.196902 0.000000
0.490852 0.204868 0.000000
0.514397 0.215122 0.000000
0.538262 0.229404 0.077577
0.569299 0.244297 0.112886
0.617548 0.251987 0.115236
0.659937 0.257969 0.119600
0.697780 0.263401 0.126955
0.731624 0.268620 0.136690
0.762173 0.273899 0.148684
0.789517 0.279942 0.162936
0.814115 0.286870 0.179263
0.836240 0.295109 0.197482
0.856168 0.304906 0.217563
0.874052 0.316869 0.239628
0.890196 0.330846 0.263401
0.904784 0.347204 0.289158
0.917937 0.366155 0.316869
0.929686 0.387945 0.346715
0.940154 0.412665 0.378759
0.134737 0.140017 0.137819
0.135988 0.142550 0.139712
0.137545 0.146120 0.142275
0.141238 0.154116 0.147738
0.147158 0.166598 0.155642
0.155764 0.183963 0.163973
0.166873 0.204532 0.167239
0.179660 0.217044 0.156161
0.243290 0.255406 0.107301
0.317815 0.261723 0.000061
0.362371 0.212100 0.000000
0.425452 0.206912 0.000000
0.482765 0.218387 0.000000
0.535485 0.228702 0.000000
0.564355 0.235874 0.000000
0.584741 0.242283 0.000000
0.604974 0.252873 0.000000
0.624628 0.267735 0.099763
0.650263 0.282719 0.138491
0.689631 0.288548 0.145296
0.724849 0.294102 0.154543
0.756344 0.299474 0.166140
0.784512 0.305364 0.180179
0.809720 0.312047 0.196201
0.832364 0.319890 0.214206
0.852628 0.329351 0.234134
0.870817 0.340642 0.255985
0.887144 0.354040 0.279637
0.901884 0.369757 0.305241
0.915129 0.387945 0.332647
0.926940 0.408942 0.362280
0.937438 0.432746 0.393957
0.152682 0.158999 0.156313
0.153872 0.161440 0.158175
0.155398 0.165072 0.160769
0.159060 0.172488 0.166110
0.164706 0.184451 0.173953
0.172824 0.200778 0.183078
0.183963 0.221897 0.191592
0.194827 0.241520 0.189151
0.213443 0.256168 0.176608
0.298253 0.305608 0.110872
0.375128 0.308354 0.000000
0.419471 0.254765 0.000000
0.487221 0.239628 0.000000
0.542535 0.250401 0.000000
0.593622 0.258854 0.000000
0.631403 0.264958 0.000000
0.647700 0.268559 0.000000
0.663722 0.275303 0.000000
0.679042 0.286839 0.057008
0.694270 0.303807 0.134249
0.716915 0.319463 0.174166
0.749599 0.325200 0.185458
0.778683 0.331304 0.199313
0.804593 0.337987 0.215061
0.827787 0.345800 0.232883
0.848478 0.354894 0.252659
0.867002 0.365667 0.274205
0.883574 0.378576 0.297734
0.898497 0.393652 0.323064
0.911833 0.411170 0.350286
0.923766 0.431342 0.379492
0.934325 0.454353 0.410803
0.172244 0.179751 0.176516
0.173342 0.182101 0.178378
0.175021 0.185428 0.180819
0.178317 0.192630 0.186007
0.183932 0.204044 0.193668
0.191501 0.219699 0.203342
0.201846 0.239994 0.213413
0.215549 0.265141 0.220981
0.227512 0.283238 0.212741
0.257237 0.306706 0.191379
0.358221 0.359747 0.113283
0.435065 0.357153 0.000000
0.477516 0.298955 0.000000
0.547936 0.271977 0.000000
0.598718 0.280583 0.000000
0.644984 0.286656 0.000000
0.682155 0.290196 0.000000
0.700526 0.292210 0.000000
0.713069 0.295384 0.000000
0.726009 0.304326 0.000000
0.738827 0.319432 0.111818
0.751186 0.341131 0.181888
0.771908 0.357488 0.220096
0.798672 0.364416 0.235660
0.822507 0.372137 0.253422
0.843717 0.381079 0.272862
0.862608 0.391608 0.294285
0.879484 0.404120 0.317510
0.894591 0.418677 0.342535
0.908110 0.435554 0.369512
0.920104 0.455055 0.398413
0.930755 0.477058 0.429145
0.193240 0.201694 0.198093
0.194247 0.203983 0.199893
0.195743 0.207309 0.202213
0.199069 0.214176 0.207309
0.204379 0.225345 0.215061
0.211765 0.240391 0.224735
0.221561 0.260075 0.235782
0.234409 0.284306 0.246220
0.249302 0.310857 0.250004
0.264744 0.328283 0.238437
0.308019 0.361334 0.205905
0.420752 0.415351 0.115084
0.495064 0.406134 0.000000
0.534417 0.343389 0.000000
0.604395 0.302617 0.000000
0.649653 0.308232 0.000000
0.688930 0.311406 0.000000
0.721736 0.312291 0.000000
0.744747 0.312535 0.000000
0.755550 0.313848 0.000000
0.766690 0.320226 0.000000
0.777493 0.333532 0.079622
0.787747 0.354437 0.170993
0.796811 0.383551 0.243290
0.816464 0.398901 0.275517
0.838254 0.407843 0.294865
0.857603 0.418189 0.316014
0.874815 0.430335 0.338903
0.890166 0.444373 0.363684
0.903868 0.460792 0.390265
0.916045 0.479408 0.418524
0.926787 0.500542 0.448676
0.215427 0.225223 0.221195
0.216617 0.227573 0.222843
0.217960 0.230686 0.225223
0.221256 0.237430 0.230106
0.226230 0.248173 0.237675
0.233555 0.263035 0.247623
0.243076 0.281987 0.259190
0.255375 0.305089 0.271092
0.271031 0.332586 0.281132
0.285283 0.356817 0.278874
0.305730 0.375616 0.266453
0.363622 0.417365 0.220920
0.483040 0.470161 0.118227
0.552300 0.452979 0.000000
0.590448 0.387884 0.000000
0.655085 0.330694 0.000000
0.693324 0.332677 0.000000
0.726589 0.333135 0.000000
0.756130 0.331945 0.000000
0.779965 0.330480 0.000000
0.792264 0.330663 0.000000
0.801968 0.334691 0.000000
0.811246 0.346136 0.000000
0.819699 0.366247 0.157412
0.826871 0.395941 0.240757
0.832425 0.434028 0.317021
0.851926 0.445045 0.339117
0.869535 0.456916 0.361730
0.885191 0.470680 0.386145
0.899107 0.486458 0.412207
0.911498 0.504295 0.439826
0.922423 0.524437 0.469093
0.238987 0.250370 0.245609
0.240146 0.252567 0.247288
0.241489 0.255467 0.249546
0.244663 0.262303 0.254429
0.249729 0.272801 0.261997
0.256870 0.287053 0.271824
0.266178 0.305150 0.283421
0.277897 0.327306 0.296147
0.292576 0.353368 0.308293
0.310979 0.383276 0.317449
0.324743 0.404089 0.309331
0.349310 0.423743 0.296239
0.420630 0.472389 0.237552
0.542351 0.521538 0.124544
0.604883 0.496254 0.000000
0.640681 0.428779 0.000000
0.698360 0.355322 0.000000
0.730739 0.354376 0.000000
0.759579 0.352514 0.000000
0.785977 0.350042 0.000000
0.808194 0.347234 0.000000
0.824186 0.345861 0.000000
0.832731 0.347692 0.000000
0.840757 0.357214 0.000000
0.847776 0.376532 0.140200
0.853300 0.406928 0.237247
0.857023 0.447181 0.322210
0.863676 0.483650 0.385748
0.879667 0.497047 0.409674
0.893858 0.512261 0.435126
0.906493 0.529351 0.461982
0.917662 0.548455 0.490211
0.263981 0.276738 0.271427
0.265019 0.278996 0.273106
0.266423 0.281773 0.275151
0.269535 0.288243 0.280034
0.274479 0.298283 0.287358
0.281376 0.312078 0.297093
0.290318 0.329320 0.308507
0.301579 0.350469 0.321508
0.315526 0.375128 0.334752
0.332494 0.403204 0.346685
0.350439 0.431647 0.351324
0.366522 0.451362 0.341070
0.393805 0.471015 0.327794
0.476722 0.524163 0.255680
0.596674 0.568048 0.135988
0.650599 0.534234 0.000000
0.683253 0.464973 0.000000
0.732357 0.388251 0.000000
0.763516 0.373968 0.000000
0.789334 0.370428 0.000000
0.812985 0.366766 0.000000
0.833524 0.362554 0.000000
0.851286 0.359014 0.000000
0.859556 0.359594 0.000000
0.866636 0.367010 0.000000
0.872557 0.385382 0.116793
0.876738 0.416510 0.232242
0.878904 0.459327 0.326940
0.879149 0.509667 0.413825
0.888151 0.537896 0.458656
0.901091 0.554192 0.484504
0.912535 0.572351 0.511803
0.290043 0.304173 0.298192
0.290990 0.306126 0.299779
0.292454 0.308965 0.301915
0.295384 0.315160 0.306493
0.300298 0.324804 0.313634
0.306920 0.337865 0.323033
0.315465 0.354437 0.334325
0.326299 0.374273 0.347143
0.339300 0.397559 0.360845
0.355138 0.423957 0.374121
0.374304 0.453071 0.385199
0.390051 0.477455 0.383978
0.409155 0.496742 0.373754
0.442206 0.522026 0.352331
0.529290 0.570977 0.275853
0.643580 0.607782 0.154269
0.689326 0.567010 0.000000
0.719509 0.497139 0.000000
0.762234 0.418921 0.000000
0.793057 0.392065 0.000000
0.816159 0.386999 0.000000
0.837369 0.381994 0.000000
0.856291 0.376532 0.000000
0.872282 0.372168 0.000000
0.883116 0.370550 0.000000
0.889555 0.375616 0.000000
0.894652 0.392706 0.080812
0.897795 0.424628 0.225101
0.898497 0.470558 0.331243
0.897063 0.524834 0.426337
0.895293 0.578546 0.507439
0.907073 0.595819 0.533654
0.316869 0.332128 0.325750
0.317784 0.334112 0.327276
0.319158 0.336858 0.329290
0.322118 0.342687 0.333745
0.326818 0.351904 0.340612
0.333043 0.364324 0.349584
0.341375 0.379889 0.360601
0.351537 0.398627 0.373022
0.364050 0.420539 0.386755
0.378912 0.445319 0.400671
0.396582 0.472358 0.413581
0.417365 0.501183 0.423713
0.430701 0.521111 0.417334
0.451972 0.539757 0.407294
0.490913 0.570153 0.376928
0.576989 0.612055 0.299138
0.685237 0.642695 0.177554
0.723629 0.596521 0.066835
0.751614 0.526665 0.000000
0.789181 0.447578 0.000000
0.819577 0.408820 0.000000
0.840299 0.402380 0.000000
0.859403 0.395972 0.000000
0.876768 0.389380 0.000000
0.891234 0.384314 0.000000
0.904021 0.380194 0.000000
0.909911 0.383429 0.000000
0.914549 0.398871 0.000000
0.916808 0.431525 0.215671
0.916228 0.480842 0.334905
0.913146 0.539574 0.439094
0.908904 0.599207 0.529015
0.344884 0.361395 0.354498
0.345769 0.363195 0.355840
0.347143 0.365759 0.357885
0.349950 0.371344 0.362066
0.354437 0.380102 0.368597
0.360571 0.391821 0.377295
0.368444 0.406622 0.387945
0.378271 0.424262 0.400122
0.390112 0.444953 0.413581
0.404089 0.467903 0.427558
0.420722 0.493019 0.441291
0.439765 0.519738 0.453529
0.458198 0.545190 0.459266
0.472663 0.563348 0.451942
0.494789 0.580713 0.442573
0.537926 0.613214 0.403906
0.620600 0.648524 0.325719
0.722225 0.673793 0.205295
0.754238 0.623346 0.116030
0.780362 0.553979 0.000000
0.813413 0.474495 0.000000
0.843412 0.424353 0.000000
0.862058 0.416632 0.000000
0.879301 0.408820 0.000000
0.895232 0.401099 0.000000
0.908446 0.395453 0.000000
0.921050 0.390082 0.000000
0.928222 0.390661 0.000000
0.932525 0.404059 0.000000
0.934173 0.437140 0.203464
0.932341 0.490242 0.338109
0.927581 0.554223 0.452552
0.374365 0.391913 0.384527
0.375280 0.393652 0.385901
0.376593 0.396124 0.387823
0.379309 0.401343 0.391821
0.383551 0.409674 0.398077
0.389471 0.420783 0.406409
0.397070 0.434699 0.416571
0.406348 0.451270 0.428260
0.417548 0.470436 0.441321
0.430884 0.491737 0.455085
0.446326 0.514946 0.469001
0.463966 0.539666 0.482185
0.483833 0.565484 0.493568
0.498848 0.585962 0.494118
0.514519 0.602350 0.487495
0.536278 0.617884 0.478859
0.581994 0.651118 0.432959
0.659907 0.680812 0.355200
0.755337 0.701686 0.236271
0.781430 0.647913 0.158480
0.805905 0.579339 0.000000
0.835111 0.500008 0.000000
0.864805 0.438849 0.000000
0.881621 0.429938 0.000000
0.897307 0.420844 0.000000
0.911955 0.411994 0.000000
0.924163 0.405798 0.000000
0.935821 0.400000 0.000000
0.944671 0.397650 0.000000
0.948882 0.408240 0.000000
0.950103 0.441291 0.186923
0.947051 0.498848 0.340703
0.405249 0.423621 0.415900
0.406134 0.425238 0.417151
0.407294 0.427588 0.419013
0.409918 0.432563 0.422827
0.414038 0.440406 0.428748
0.419745 0.450782 0.436591
0.426886 0.463722 0.446204
0.435706 0.479103 0.457343
0.446296 0.496803 0.469764
0.458778 0.516472 0.483101
0.473091 0.537804 0.496712
0.489326 0.560662 0.510124
0.507500 0.583886 0.522393
0.527886 0.607019 0.533043
0.539178 0.622797 0.529351
0.555047 0.637507 0.523430
0.575769 0.651392 0.515587
0.622553 0.684443 0.463630
0.695308 0.709438 0.387030
0.781155 0.723629 0.273960
0.805417 0.670558 0.200107
0.828550 0.603021 0.097475
0.854582 0.523827 0.000000
0.884031 0.452369 0.000000
0.899290 0.442359 0.000000
0.913695 0.431952 0.000000
0.927214 0.422156 0.000000
0.938537 0.415412 0.000000
0.949401 0.409216 0.000000
0.959594 0.403784 0.000000
0.963775 0.411810 0.000000
0.964721 0.444190 0.165042
0.437171 0.456245 0.448219
0.437995 0.457771 0.449500
0.439094 0.459876 0.451087
0.441657 0.464515 0.454688
0.445563 0.471839 0.460304
0.450843 0.481483 0.467659
0.457710 0.493446 0.476631
0.466041 0.507530 0.487098
0.475898 0.523796 0.498787
0.487434 0.541894 0.511345
0.500603 0.561517 0.524498
0.515618 0.581994 0.537560
0.532494 0.602747 0.550195
0.550805 0.623529 0.561639
0.566827 0.642298 0.567681
0.578058 0.656153 0.563958
0.593469 0.669245 0.558770
0.614282 0.685145 0.546349
0.659541 0.713832 0.495186
0.726894 0.734859 0.420539
0.803677 0.743252 0.313542
0.826566 0.691371 0.241489
0.848569 0.625299 0.150332
0.871977 0.546685 0.000000
0.901335 0.465095 0.000000
0.915312 0.454047 0.000000
0.928679 0.442267 0.000000
0.941192 0.431464 0.000000
0.951751 0.424353 0.000000
0.961852 0.417762 0.000000
0.971649 0.411536 0.000000
0.977234 0.415015 0.000000
0.469947 0.489265 0.481178
0.470741 0.490700 0.482307
0.471778 0.492683 0.483833
0.474128 0.496956 0.487129
0.477760 0.503532 0.492317
0.482765 0.512444 0.499062
0.489143 0.523400 0.507408
0.496742 0.536278 0.517082
0.505913 0.551263 0.528038
0.516594 0.567620 0.539818
0.528923 0.585016 0.552148
0.542718 0.603113 0.564538
0.557733 0.621637 0.576623
0.573938 0.640467 0.587976
0.591119 0.659174 0.598138
0.602869 0.674098 0.599847
0.614130 0.686397 0.596643
0.628840 0.697993 0.592096
0.650172 0.715541 0.575036
0.693141 0.739773 0.527031
0.755093 0.757443 0.455024
0.823392 0.760922 0.354223
0.845060 0.710811 0.283818
0.866117 0.646357 0.196567
0.887510 0.568505 0.063935
0.915312 0.487556 0.000000
0.929931 0.464881 0.000000
0.942382 0.451789 0.000000
0.954070 0.439948 0.000000
0.963836 0.432593 0.000000
0.973236 0.425727 0.000000
0.982391 0.419165 0.000000
0.503044 0.522423 0.514244
0.503777 0.523705 0.515282
0.504692 0.525505 0.516686
0.506828 0.529412 0.519707
0.510246 0.535485 0.524437
0.514855 0.543572 0.530663
0.520623 0.553491 0.538354
0.527855 0.565209 0.547265
0.536431 0.578302 0.557214
0.546227 0.592676 0.567926
0.557305 0.608087 0.579187
0.569390 0.624170 0.590600
0.582727 0.640803 0.601892
0.597009 0.657679 0.612787
0.612238 0.674617 0.622889
0.628290 0.691402 0.631861
0.636500 0.702907 0.630182
0.647547 0.713771 0.627405
0.661280 0.724056 0.623438
0.682948 0.742336 0.602594
0.723262 0.762722 0.558038
0.780026 0.777554 0.489693
0.840635 0.777127 0.395544
0.861234 0.728969 0.326207
0.881529 0.666499 0.241062
0.901305 0.589654 0.130007
0.927916 0.509056 0.000000
0.943206 0.475044 0.000000
0.954925 0.460487 0.000000
0.965789 0.447700 0.000000
0.974823 0.440223 0.000000
0.981750 0.432258 0.000000
0.536248 0.555444 0.547387
0.536919 0.556573 0.548272
0.537835 0.558221 0.549554
0.539849 0.561608 0.552300
0.542931 0.567010 0.556512
0.547143 0.574090 0.562066
0.552514 0.582788 0.568933
0.558923 0.592981 0.576806
0.566522 0.604517 0.585657
0.575158 0.617243 0.595270
0.584894 0.630854 0.605371
0.595666 0.645167 0.615808
0.607355 0.659998 0.626215
0.619959 0.675135 0.636439
0.633356 0.690333 0.646204
0.647608 0.705470 0.655177
0.659602 0.718959 0.660243
0.667842 0.729091 0.658717
0.678340 0.738643 0.656275
0.690944 0.747616 0.652766
0.712764 0.766018 0.629023
0.750179 0.783200 0.587610
0.802182 0.795651 0.523949
0.855741 0.792050 0.436500
0.875334 0.746242 0.368963
0.895079 0.685847 0.284337
0.913817 0.610254 0.178653
0.939269 0.529656 0.000000
0.955261 0.484443 0.000000
0.966308 0.468299 0.000000
0.976379 0.454994 0.000000
0.981048 0.445563 0.000000
0.568994 0.587152 0.579492
0.569604 0.588190 0.580346
0.570397 0.589563 0.581445
0.572137 0.592615 0.583825
0.574914 0.597192 0.587488
0.578576 0.603388 0.592401
0.583246 0.610986 0.598352
0.588952 0.619898 0.605310
0.595605 0.630030 0.613184
0.603143 0.641199 0.621698
0.611719 0.653223 0.630732
0.621210 0.665919 0.640162
0.631464 0.679103 0.649622
0.642634 0.692592 0.659113
0.654505 0.706233 0.668299
0.667048 0.719875 0.677028
0.680232 0.733394 0.685054
0.688808 0.743984 0.686885
0.696773 0.752834 0.685542
0.706538 0.761166 0.683345
0.718013 0.768948 0.680079
0.739834 0.787045 0.654170
0.774350 0.801511 0.615686
0.821897 0.812009 0.556603
0.869047 0.805905 0.476753
0.887602 0.762600 0.411353
0.906828 0.704555 0.327398
0.925444 0.630640 0.222446
0.949401 0.549432 0.031769
0.966094 0.493019 0.000000
0.976654 0.475135 0.000000
0.980316 0.459052 0.000000
0.600397 0.617487 0.610315
0.600916 0.618372 0.610986
0.601617 0.619593 0.611963
0.603174 0.622156 0.614038
0.605524 0.626215 0.617243
0.608759 0.631586 0.621515
0.612879 0.638178 0.626734
0.617823 0.646021 0.632837
0.623651 0.654871 0.639734
0.630365 0.664668 0.647303
0.637842 0.675227 0.655329
0.646143 0.686427 0.663783
0.655177 0.698085 0.672389
0.665003 0.710109 0.681056
0.675410 0.722286 0.689570
0.686519 0.734493 0.697780
0.698146 0.746700 0.705562
0.710018 0.758572 0.712459
0.715969 0.766751 0.711879
0.723476 0.774441 0.710628
0.732418 0.781643 0.708553
0.743313 0.790158 0.702907
0.764309 0.805875 0.678035
0.796017 0.818051 0.642237
0.839567 0.826841 0.587274
0.880644 0.818784 0.515862
0.898253 0.778073 0.452705
0.916930 0.722438 0.369696
0.935546 0.650263 0.263828
0.958404 0.568200 0.112062
0.975586 0.500511 0.000000
0.978576 0.477424 0.000000
0.630488 0.646509 0.639796
0.630976 0.647272 0.640375
0.631586 0.648310 0.641230
0.632929 0.650599 0.643030
0.635035 0.654108 0.645808
0.637812 0.658747 0.649500
0.641444 0.664485 0.654047
0.645716 0.671260 0.659419
0.650782 0.678981 0.665431
0.656641 0.687526 0.672114
0.663172 0.696803 0.679255
0.670405 0.706661 0.686763
0.678370 0.716945 0.694484
0.686976 0.727565 0.702296
0.696162 0.738399 0.710079
