其他预设/【213】赛博朋克科幻预设52款/1.LUT预设（视频调色-PR-AE-PS-FCPX-达芬奇用）/赛博朋克科幻__-9 强度2.cube
# Created by Adobe Lightroom plugin Export LUT (1.17.0)
# www.johnrellis.com/lightroom/exportlut.htm
# Preset: 赛博朋克科幻[素锦印象]-9 强度2
# Color profile: /Library/Application Support/Adobe/Color/Profiles/Recommended/AdobeRGB1998.icc
LUT_3D_SIZE 32
0.000000 0.000000 0.000000
0.031525 0.000641 0.000214
0.062531 0.002136 0.000092
0.090211 0.004974 0.000793
0.119020 0.008423 0.001282
0.148989 0.013519 0.000244
0.179812 0.019379 0.000000
0.211826 0.027832 0.000000
0.245304 0.039063 0.000000
0.280247 0.052888 0.000000
0.317540 0.062806 0.000000
0.356329 0.071382 0.000000
0.396277 0.080842 0.000000
0.436957 0.091402 0.000000
0.477790 0.101900 0.000000
0.518364 0.111757 0.000000
0.558129 0.121248 0.000000
0.596612 0.130526 0.000000
0.632776 0.139162 0.000000
0.667262 0.146761 0.000000
0.700404 0.153780 0.000000
0.732509 0.159884 0.000000
0.763455 0.165194 0.000000
0.793271 0.170016 0.000000
0.822141 0.173617 0.000000
0.850034 0.176516 0.000000
0.876951 0.179110 0.000000
0.903044 0.181003 0.000000
0.928313 0.182101 0.000000
0.952880 0.183200 0.000000
0.976837 0.183993 0.000000
1.000000 0.184878 0.000000
0.002747 0.023896 0.007721
0.034882 0.029358 0.001007
0.063508 0.024109 0.000000
0.088808 0.029236 0.003265
0.117800 0.032898 0.002716
0.147677 0.038453 0.001709
0.178927 0.044099 0.000000
0.210941 0.052216 0.000000
0.244602 0.060182 0.000000
0.279728 0.066255 0.000000
0.316838 0.073182 0.000000
0.355718 0.080842 0.000000
0.395758 0.089662 0.000000
0.436561 0.099336 0.000000
0.477424 0.108949 0.000000
0.518029 0.118532 0.000000
0.557763 0.127321 0.000000
0.596277 0.136110 0.000000
0.632471 0.144533 0.000000
0.666987 0.151736 0.000000
0.700191 0.158480 0.000000
0.732296 0.164218 0.000000
0.763272 0.169375 0.000000
0.793179 0.173587 0.000000
0.822019 0.177249 0.000000
0.849912 0.180331 0.000000
0.876890 0.182437 0.000000
0.902953 0.184298 0.000000
0.928252 0.185489 0.000000
0.952819 0.186435 0.000000
0.976745 0.187198 0.000000
1.000000 0.188052 0.000000
0.005982 0.054444 0.018982
0.030732 0.059052 0.015656
0.066896 0.062318 0.001678
0.091310 0.052918 0.000000
0.115755 0.059174 0.006958
0.146151 0.061860 0.004761
0.177371 0.064790 0.002014
0.209689 0.068360 0.000000
0.243442 0.073091 0.000000
0.278721 0.078340 0.000000
0.316045 0.084749 0.000000
0.354925 0.091890 0.000000
0.395087 0.099855 0.000000
0.435889 0.108980 0.000000
0.476783 0.117952 0.000000
0.517571 0.126406 0.000000
0.557336 0.135134 0.000000
0.595850 0.143404 0.000000
0.632166 0.151095 0.000000
0.666651 0.158145 0.000000
0.699916 0.164401 0.000000
0.732052 0.169863 0.000000
0.763058 0.174685 0.000000
0.792966 0.178714 0.000000
0.821897 0.182193 0.000000
0.849790 0.184939 0.000000
0.876738 0.187259 0.000000
0.902800 0.188937 0.000000
0.928130 0.189944 0.000000
0.952758 0.190829 0.000000
0.976654 0.191379 0.000000
0.999939 0.192294 0.000000
0.016846 0.080903 0.043275
0.042084 0.082704 0.044251
0.061830 0.083772 0.037812
0.095705 0.088502 0.005280
0.121828 0.079194 0.000000
0.146090 0.081941 0.000000
0.174411 0.086336 0.006836
0.206973 0.089967 0.001801
0.241154 0.094026 0.000000
0.276768 0.098817 0.000000
0.314183 0.104585 0.000000
0.353368 0.111147 0.000000
0.393500 0.118624 0.000000
0.434424 0.126619 0.000000
0.475624 0.134432 0.000000
0.516381 0.142733 0.000000
0.556329 0.150271 0.000000
0.594934 0.157748 0.000000
0.631312 0.164645 0.000000
0.665919 0.170962 0.000000
0.699367 0.176455 0.000000
0.731563 0.181460 0.000000
0.762600 0.185763 0.000000
0.792569 0.189395 0.000000
0.821500 0.192386 0.000000
0.849454 0.194797 0.000000
0.876463 0.196811 0.000000
0.902586 0.198245 0.000000
0.927886 0.199222 0.000000
0.952544 0.199802 0.000000
0.976471 0.200290 0.000000
0.999756 0.201022 0.000000
0.031220 0.104280 0.064576
0.051881 0.105989 0.064942
0.065797 0.107759 0.063508
0.086305 0.110414 0.055940
0.126528 0.117464 0.008667
0.152712 0.105959 0.000000
0.181979 0.107759 0.000000
0.205295 0.112215 0.000580
0.237766 0.117189 0.000549
0.273655 0.122499 0.000000
0.311376 0.128054 0.000000
0.350683 0.134707 0.000000
0.391241 0.141543 0.000000
0.432319 0.148959 0.000000
0.473640 0.156313 0.000000
0.514580 0.163455 0.000000
0.554681 0.170474 0.000000
0.593439 0.177066 0.000000
0.630060 0.183261 0.000000
0.664851 0.188785 0.000000
0.698390 0.193637 0.000000
0.730709 0.198062 0.000000
0.761898 0.201663 0.000000
0.791928 0.204898 0.000000
0.820951 0.207492 0.000000
0.848966 0.209537 0.000000
0.876005 0.211063 0.000000
0.902159 0.212131 0.000000
0.927550 0.212741 0.000000
0.952209 0.213260 0.000000
0.976196 0.213474 0.000000
0.999481 0.214023 0.000000
0.041749 0.128511 0.078035
0.056092 0.130190 0.077302
0.066743 0.132418 0.075441
0.085725 0.134798 0.071351
0.115023 0.140108 0.060578
0.159304 0.147616 0.012329
0.185122 0.133700 0.000000
0.218448 0.136721 0.000000
0.244541 0.139773 0.000000
0.271244 0.145663 0.000000
0.307622 0.152163 0.000000
0.347356 0.159030 0.000000
0.387976 0.165988 0.000000
0.429511 0.173098 0.000000
0.471077 0.180117 0.000000
0.512322 0.187015 0.000000
0.552605 0.193515 0.000000
0.591485 0.199557 0.000000
0.628351 0.205142 0.000000
0.663416 0.209842 0.000000
0.697078 0.214328 0.000000
0.729580 0.217868 0.000000
0.760891 0.221012 0.000000
0.791073 0.223758 0.000000
0.820157 0.225864 0.000000
0.848264 0.227359 0.000000
0.875395 0.228580 0.000000
0.901640 0.229221 0.000000
0.927031 0.229679 0.000000
0.951751 0.229801 0.000000
0.975769 0.229953 0.000000
0.999115 0.230350 0.000000
0.046204 0.154116 0.090272
0.058595 0.155489 0.089387
0.066926 0.157656 0.087465
0.085145 0.161013 0.083558
0.110750 0.163638 0.078431
0.147127 0.171664 0.061952
0.193454 0.179294 0.012940
0.218997 0.162722 0.000000
0.253758 0.166476 0.000000
0.285313 0.170596 0.000000
0.314000 0.175753 0.000000
0.344671 0.182773 0.000000
0.384253 0.190341 0.000000
0.426062 0.197665 0.000000
0.467933 0.204929 0.000000
0.509392 0.211673 0.000000
0.549950 0.218021 0.000000
0.589136 0.223850 0.000000
0.626276 0.228855 0.000000
0.661524 0.233158 0.000000
0.695491 0.236973 0.000000
0.728206 0.240055 0.000000
0.759640 0.242832 0.000000
0.789975 0.245029 0.000000
0.819211 0.246677 0.000000
0.847379 0.247745 0.000000
0.874632 0.248600 0.000000
0.900908 0.249058 0.000000
0.926421 0.249058 0.000000
0.951202 0.249149 0.000000
0.975250 0.248997 0.000000
0.998657 0.249119 0.000000
0.049775 0.181003 0.103914
0.059876 0.182284 0.102907
0.068482 0.184085 0.101534
0.084779 0.187869 0.097139
0.110048 0.190829 0.092531
0.138766 0.194125 0.086275
0.181582 0.204807 0.063447
0.229374 0.212436 0.009216
0.254948 0.192935 0.000000
0.291447 0.197726 0.000000
0.328740 0.203555 0.000000
0.358648 0.207950 0.000000
0.389990 0.214023 0.000000
0.422492 0.221439 0.000000
0.464240 0.229740 0.000000
0.505974 0.236790 0.000000
0.546838 0.243107 0.000000
0.586297 0.248844 0.000000
0.623743 0.253635 0.000000
0.659358 0.257694 0.000000
0.693538 0.261204 0.000000
0.726497 0.263951 0.000000
0.758145 0.266270 0.000000
0.788632 0.268101 0.000000
0.818021 0.269291 0.000000
0.846342 0.270268 0.000000
0.873655 0.270695 0.000000
0.900114 0.270695 0.000000
0.925658 0.270665 0.000000
0.950500 0.270298 0.000000
0.974640 0.270024 0.000000
0.998047 0.270054 0.000000
0.054719 0.209567 0.118563
0.063020 0.210727 0.117678
0.071138 0.212345 0.116518
0.087312 0.215610 0.113405
0.110597 0.219699 0.108248
0.138735 0.222812 0.102846
0.170413 0.227665 0.094179
0.218265 0.240177 0.065126
0.267582 0.247654 0.002319
0.292607 0.226963 0.000000
0.331884 0.230533 0.000000
0.371313 0.237064 0.000000
0.405280 0.241978 0.000000
0.436835 0.247227 0.000000
0.468971 0.253513 0.000000
0.502495 0.260685 0.000000
0.543267 0.268315 0.000000
0.583032 0.274388 0.000000
0.620783 0.279149 0.000000
0.656764 0.283085 0.000000
0.691310 0.286351 0.000000
0.724544 0.288823 0.000000
0.756405 0.290898 0.000000
0.787106 0.292424 0.000000
0.816617 0.293370 0.000000
0.845090 0.293889 0.000000
0.872557 0.294224 0.000000
0.899077 0.293980 0.000000
0.924743 0.293675 0.000000
0.949706 0.293156 0.000000
0.973877 0.292638 0.000000
0.997375 0.292546 0.000000
0.060853 0.239597 0.134371
0.067414 0.240665 0.133761
0.075044 0.242039 0.132601
0.090578 0.245090 0.130068
0.111757 0.249760 0.125002
0.139681 0.253056 0.120180
0.169894 0.256748 0.114076
0.206424 0.264286 0.100099
0.257481 0.277684 0.066529
0.308202 0.285161 0.000000
0.332403 0.262852 0.000000
0.374273 0.264897 0.000000
0.414557 0.271397 0.000000
0.452735 0.277287 0.000000
0.484047 0.281224 0.000000
0.515465 0.286381 0.000000
0.546685 0.292241 0.000000
0.579706 0.298497 0.000000
0.617548 0.304479 0.000000
0.653864 0.308751 0.000000
0.688746 0.311955 0.000000
0.722255 0.314458 0.000000
0.754391 0.316197 0.000000
0.785306 0.317510 0.000000
0.815030 0.318334 0.000000
0.843656 0.318700 0.000000
0.871275 0.318669 0.000000
0.897917 0.318273 0.000000
0.923735 0.317662 0.000000
0.948730 0.317052 0.000000
0.972992 0.316472 0.000000
0.996582 0.316197 0.000000
0.065553 0.271000 0.151064
0.071656 0.271946 0.150393
0.079377 0.273350 0.149477
0.094575 0.276127 0.147433
0.115023 0.280308 0.143374
0.141146 0.284642 0.138064
0.171267 0.288365 0.132662
0.202914 0.292699 0.125795
0.244968 0.303136 0.105837
0.299138 0.317357 0.066316
0.351049 0.324743 0.000000
0.373999 0.300450 0.000000
0.418036 0.300572 0.000000
0.458625 0.306554 0.000000
0.498909 0.312688 0.000000
0.530907 0.315984 0.000000
0.560998 0.319463 0.000000
0.590631 0.323766 0.000000
0.619348 0.328435 0.000000
0.650935 0.333410 0.000000
0.685847 0.337835 0.000000
0.719661 0.340215 0.000000
0.752132 0.342016 0.000000
0.783261 0.343267 0.000000
0.813230 0.343908 0.000000
0.842069 0.344121 0.000000
0.869810 0.343938 0.000000
0.896605 0.343389 0.000000
0.922515 0.342687 0.000000
0.947631 0.341924 0.000000
0.972015 0.341222 0.000000
0.995636 0.340948 0.000000
0.070436 0.303838 0.168612
0.076387 0.304692 0.168124
0.083955 0.305913 0.167330
0.098634 0.308476 0.165377
0.119020 0.312505 0.161929
0.142794 0.317693 0.156435
0.172946 0.321386 0.151553
0.204471 0.325628 0.145327
0.237858 0.330480 0.137453
0.285863 0.343877 0.110872
0.342443 0.358679 0.064454
0.395453 0.365698 0.000000
0.416571 0.339147 0.000000
0.462654 0.337041 0.000000
0.502739 0.342107 0.000000
0.541985 0.347021 0.000000
0.576532 0.350408 0.000000
0.604822 0.352209 0.000000
0.632074 0.354498 0.000000
0.659297 0.357763 0.000000
0.686366 0.361791 0.000000
0.716945 0.365728 0.000000
0.749569 0.368078 0.000000
0.780972 0.369329 0.000000
0.811215 0.369909 0.000000
0.840238 0.370031 0.000000
0.868162 0.369757 0.000000
0.895109 0.369146 0.000000
0.921172 0.368322 0.000000
0.946410 0.367407 0.000000
0.970855 0.366705 0.000000
0.994568 0.366339 0.000000
0.075227 0.337835 0.186618
0.080781 0.338659 0.186069
0.088228 0.339788 0.185336
0.102907 0.342138 0.183841
0.122805 0.345922 0.180758
0.146090 0.350835 0.175998
0.174594 0.355383 0.170687
0.206149 0.359411 0.165133
0.239261 0.364172 0.158175
0.276066 0.370977 0.146731
0.328099 0.385718 0.115328
0.386908 0.400793 0.061128
0.440558 0.407294 0.000000
0.459907 0.378729 0.000000
0.506920 0.373541 0.000000
0.545983 0.377447 0.000000
0.583917 0.380987 0.000000
0.619501 0.383795 0.000000
0.645472 0.383520 0.000000
0.671412 0.384466 0.000000
0.697353 0.386603 0.000000
0.723262 0.389380 0.000000
0.748959 0.392981 0.000000
0.778531 0.395422 0.000000
0.808988 0.396124 0.000000
0.838224 0.396185 0.000000
0.866392 0.395880 0.000000
0.893492 0.395178 0.000000
0.919707 0.394324 0.000000
0.945037 0.393469 0.000000
0.969604 0.392706 0.000000
0.993378 0.392279 0.000000
0.079774 0.372534 0.205203
0.086061 0.373297 0.204593
0.093263 0.374365 0.204044
0.107332 0.376654 0.202579
0.126864 0.379980 0.199924
0.150179 0.384588 0.195926
0.176516 0.389990 0.190372
0.208072 0.393896 0.185092
0.240970 0.398352 0.178897
0.275395 0.403479 0.171237
0.316899 0.412970 0.154482
0.371405 0.427955 0.119478
0.431586 0.443061 0.054475
0.485542 0.448859 0.000000
0.505180 0.420050 0.000000
0.550469 0.409705 0.000000
0.587915 0.412024 0.000000
0.623102 0.413489 0.000000
0.656092 0.414252 0.000000
0.684047 0.413886 0.000000
0.708858 0.413703 0.000000
0.733730 0.414618 0.000000
0.758419 0.416419 0.000000
0.783047 0.418921 0.000000
0.807492 0.421942 0.000000
0.836027 0.422522 0.000000
0.864378 0.422217 0.000000
0.891691 0.421546 0.000000
0.918059 0.420722 0.000000
0.943542 0.419776 0.000000
0.968170 0.419013 0.000000
0.992096 0.418647 0.000000
0.085328 0.407721 0.223911
0.090791 0.408362 0.223575
0.097993 0.409277 0.222873
0.112093 0.411383 0.221530
0.131502 0.414527 0.219333
0.154238 0.418860 0.215793
0.179751 0.424170 0.210666
0.210086 0.428595 0.205264
0.242710 0.432868 0.199649
0.276860 0.437690 0.192844
0.312291 0.442969 0.184604
0.358618 0.454932 0.161898
0.414740 0.469795 0.123690
0.475898 0.484779 0.045624
0.529747 0.489662 0.000000
0.549371 0.460487 0.000000
0.592279 0.444862 0.000000
0.626856 0.444770 0.000000
0.659480 0.444312 0.000000
0.691157 0.443885 0.000000
0.720790 0.443427 0.000000
0.744594 0.442054 0.000000
0.768368 0.441932 0.000000
0.792050 0.442695 0.000000
0.815610 0.444099 0.000000
0.839078 0.446235 0.000000
0.862211 0.448646 0.000000
0.889708 0.448035 0.000000
0.916228 0.447242 0.000000
0.941863 0.446387 0.000000
0.966644 0.445655 0.000000
0.990631 0.445258 0.001709
0.091157 0.442878 0.242954
0.097108 0.443519 0.242618
0.103456 0.444373 0.242100
0.117281 0.446235 0.240848
0.136477 0.449104 0.238773
0.158785 0.453132 0.235752
0.183810 0.457954 0.231327
0.212284 0.463203 0.225834
0.244755 0.467170 0.220737
0.278355 0.471687 0.214511
0.313298 0.476661 0.207095
0.349462 0.482094 0.198398
0.400366 0.496162 0.169436
0.457557 0.510704 0.128206
0.519066 0.524987 0.038025
0.572259 0.528923 0.000000
0.591485 0.499367 0.000000
0.629633 0.479377 0.000000
0.663172 0.475837 0.000000
0.694423 0.474220 0.000000
0.724758 0.472755 0.000000
0.754177 0.471473 0.000000
0.778622 0.469551 0.000000
0.801389 0.468391 0.000000
0.824125 0.468147 0.000000
0.846769 0.468635 0.000000
0.869261 0.469764 0.000000
0.890257 0.472450 0.000000
0.914275 0.473854 0.000000
0.940032 0.473060 0.000000
0.964965 0.472419 0.000000
0.989044 0.472175 0.070619
0.098421 0.477699 0.262119
0.103487 0.478218 0.261662
0.110414 0.478981 0.261265
0.123781 0.480720 0.260136
0.142214 0.483375 0.258457
0.164248 0.487037 0.255863
0.189151 0.491493 0.252079
0.216373 0.496773 0.247135
0.247501 0.500908 0.242252
0.280339 0.505150 0.236606
0.314580 0.509728 0.229953
0.349981 0.514702 0.222110
0.389136 0.521996 0.209049
0.441596 0.536034 0.177493
0.499062 0.549828 0.134127
0.559167 0.562280 0.049195
0.611536 0.565301 0.000000
0.630152 0.535393 0.000000
0.664302 0.512535 0.000000
0.697932 0.505913 0.000000
0.727932 0.503258 0.000000
0.756985 0.500786 0.000000
0.785214 0.498482 0.000000
0.810971 0.496071 0.000000
0.832883 0.493935 0.000000
0.854673 0.492714 0.000000
0.876463 0.492256 0.000000
0.898222 0.492561 0.000000
0.918395 0.494759 0.000000
0.938079 0.499825 0.000000
0.963104 0.499245 0.055848
0.987335 0.499184 0.099916
0.107088 0.511772 0.281193
0.112184 0.512261 0.280797
0.118441 0.512993 0.280461
0.131106 0.514519 0.279454
0.149355 0.516991 0.277958
0.170840 0.520165 0.275669
0.195132 0.524254 0.272892
0.221988 0.529015 0.268864
0.251774 0.533837 0.264286
0.283513 0.537804 0.259220
0.316716 0.542138 0.253300
0.351141 0.546807 0.246250
0.386694 0.551873 0.238071
0.429206 0.561151 0.219852
0.481788 0.574212 0.186831
0.538476 0.586603 0.141756
0.597070 0.597223 0.065248
0.648615 0.599817 0.000000
0.666743 0.569757 0.000000
0.697505 0.544610 0.000000
0.731228 0.534997 0.000000
0.759945 0.531304 0.000000
0.787869 0.527916 0.000000
0.814969 0.524712 0.000000
0.841276 0.521508 0.000000
0.862821 0.518547 0.000000
0.883879 0.516411 0.000000
0.904936 0.515099 0.000000
0.925994 0.514488 0.000000
0.945342 0.516411 0.000000
0.964263 0.521660 0.000000
0.985443 0.526177 0.124971
0.117586 0.545861 0.300603
0.122011 0.546349 0.300420
0.127993 0.547021 0.299992
0.140352 0.548455 0.299229
0.157534 0.550591 0.298009
0.178744 0.553552 0.296300
0.202762 0.557336 0.293950
0.229404 0.561700 0.291020
0.258091 0.566888 0.287266
0.288518 0.570642 0.282902
0.320531 0.574578 0.277409
0.353735 0.578882 0.271153
0.388128 0.583398 0.264042
0.423407 0.588128 0.255619
0.468666 0.598627 0.232242
0.520836 0.610468 0.197818
0.576562 0.621668 0.151583
0.633295 0.630640 0.080415
0.684169 0.632776 0.000000
0.701778 0.602777 0.000000
0.729366 0.575616 0.000000
0.763058 0.563043 0.000000
0.790646 0.558495 0.000000
0.817411 0.554192 0.000000
0.843412 0.550042 0.000000
0.868711 0.545983 0.000000
0.891386 0.542138 0.000000
0.911772 0.539208 0.000000
0.932189 0.537041 0.000000
0.952544 0.535637 0.000000
0.971191 0.537469 0.000000
0.989471 0.543114 0.000000
0.129641 0.580285 0.320806
0.134066 0.580713 0.320562
0.139834 0.581262 0.320317
0.151431 0.582513 0.319677
0.168185 0.584497 0.318730
0.188815 0.587121 0.317357
0.212436 0.590265 0.315770
0.238529 0.594079 0.313603
0.266636 0.598505 0.311192
0.296269 0.602625 0.307683
0.326726 0.606256 0.302953
0.358404 0.610071 0.297398
0.391272 0.614099 0.290990
0.425055 0.618433 0.283696
0.459998 0.622980 0.274907
0.507256 0.634363 0.246433
0.558618 0.645106 0.210941
0.613123 0.655207 0.163912
0.668177 0.662684 0.098085
0.718135 0.664454 0.000000
0.735225 0.634485 0.000000
0.759792 0.605615 0.000000
0.793454 0.590143 0.000000
0.819883 0.584771 0.000000
0.845579 0.579614 0.000000
0.870603 0.574548 0.000000
0.895018 0.569604 0.000000
0.918669 0.564813 0.000000
0.938506 0.561059 0.000000
0.958373 0.558038 0.000000
0.977905 0.556115 0.000000
0.996002 0.557977 0.000000
0.145235 0.613703 0.341466
0.149508 0.614099 0.341222
0.154788 0.614557 0.341039
0.165805 0.615625 0.340581
0.181735 0.617304 0.339971
0.201755 0.619562 0.339025
0.224552 0.622309 0.337957
0.250004 0.625605 0.336767
0.277806 0.629389 0.335515
0.307439 0.633661 0.334051
0.335698 0.636896 0.329839
0.365606 0.640345 0.324956
0.396521 0.644068 0.319249
0.428656 0.647913 0.312779
0.461769 0.651972 0.305272
0.498329 0.657984 0.291966
0.544884 0.668330 0.262638
0.595148 0.678126 0.226261
0.648371 0.687190 0.178225
0.701625 0.693355 0.117525
0.750515 0.694697 0.018982
0.767178 0.664912 0.000000
0.788937 0.634455 0.000000
0.822446 0.616205 0.000000
0.847776 0.610010 0.000000
0.872465 0.604089 0.000000
0.896605 0.598199 0.000000
0.920287 0.592432 0.000000
0.943511 0.586755 0.000000
0.964111 0.581964 0.000000
0.983520 0.578088 0.000000
1.000000 0.575921 0.000000
0.164157 0.646052 0.362524
0.167697 0.646357 0.362432
0.172610 0.646754 0.362371
0.183047 0.647700 0.362097
0.198215 0.649165 0.361791
0.217380 0.651026 0.361303
0.239597 0.653437 0.360906
0.264164 0.656275 0.360571
0.291325 0.659541 0.360296
0.320287 0.663203 0.360204
0.348394 0.666590 0.358251
0.376013 0.669795 0.353796
0.404852 0.673152 0.348760
0.434913 0.676692 0.343023
0.465980 0.680354 0.336431
0.498085 0.684138 0.328923
0.535973 0.691310 0.310857
0.581445 0.700771 0.280644
0.630365 0.709621 0.243442
0.682155 0.717708 0.194888
0.733639 0.722774 0.138705
0.781521 0.723690 0.078279
0.797635 0.694118 0.000000
0.816739 0.662318 0.000000
0.850034 0.641230 0.000000
0.874357 0.634363 0.000000
0.898161 0.627619 0.000000
0.921538 0.621057 0.000000
0.944518 0.614496 0.000000
0.967132 0.607965 0.000000
0.988617 0.601923 0.000000
1.000000 0.597314 0.000000
0.185946 0.677333 0.384253
0.189120 0.677638 0.384222
0.193606 0.678004 0.384283
0.203311 0.678737 0.384222
0.217746 0.679957 0.384192
0.235782 0.681605 0.384253
0.257053 0.683680 0.384466
0.280919 0.686061 0.384833
0.307317 0.688899 0.385595
0.335668 0.692012 0.386755
0.364874 0.695399 0.388067
0.389960 0.698268 0.384161
0.416358 0.701320 0.379675
0.444221 0.704585 0.374548
0.473121 0.707973 0.368750
0.503014 0.711482 0.362127
0.533898 0.715023 0.354528
0.572778 0.723110 0.331579
0.616876 0.731746 0.300542
0.664363 0.739681 0.262547
0.714534 0.746914 0.213626
0.764279 0.750851 0.161379
0.811032 0.751431 0.110658
0.826658 0.722072 0.069062
0.843290 0.689052 0.000000
0.875578 0.666804 0.000000
0.899687 0.657710 0.000000
0.922728 0.650355 0.000000
0.945434 0.643061 0.000000
0.967834 0.635645 0.000000
0.989899 0.628260 0.000000
1.000000 0.621241 0.000000
0.210300 0.707698 0.406806
0.213260 0.707912 0.406867
0.217563 0.708186 0.406928
0.226535 0.708858 0.407050
0.239872 0.709895 0.407446
0.256962 0.711299 0.407904
0.277317 0.713008 0.408728
0.300389 0.715053 0.409888
0.325994 0.717403 0.411475
0.353491 0.720058 0.413825
0.382635 0.723049 0.416907
0.407843 0.725826 0.415869
0.431678 0.728664 0.411902
0.456947 0.731624 0.407355
0.483497 0.734737 0.402197
0.511101 0.737942 0.396399
0.539788 0.741207 0.389776
0.569879 0.744991 0.380926
0.608667 0.753414 0.354376
0.651209 0.761227 0.322454
0.697017 0.768338 0.283574
0.745541 0.774685 0.234012
0.793515 0.777707 0.185245
0.839139 0.777890 0.139986
0.854185 0.748836 0.105776
0.868589 0.714839 0.050935
0.899565 0.692073 0.000000
0.923888 0.680262 0.000000
0.946258 0.672236 0.000000
0.968353 0.664118 0.000000
0.990204 0.655940 0.000000
1.000000 0.647639 0.000000
0.236942 0.737087 0.430121
0.239719 0.737270 0.430243
0.243717 0.737545 0.430426
0.252049 0.738094 0.430793
0.264561 0.738949 0.431403
0.280735 0.740078 0.432410
0.300359 0.741512 0.433814
0.322454 0.743221 0.435645
0.347112 0.745205 0.438178
0.373816 0.747433 0.441474
0.402075 0.749905 0.445686
0.429755 0.752499 0.448981
0.450935 0.755093 0.445533
0.473640 0.757839 0.441505
0.497597 0.760708 0.437018
0.522698 0.763668 0.431800
0.548943 0.766720 0.425971
0.576165 0.769833 0.419379
0.606378 0.774624 0.406226
0.643549 0.782284 0.378851
0.684352 0.789303 0.346197
0.728420 0.795621 0.306401
0.775265 0.801205 0.256077
0.821439 0.803372 0.210086
0.865904 0.803220 0.168185
0.880522 0.774441 0.136141
0.893126 0.739956 0.096864
0.922576 0.716487 0.000000
0.946990 0.701900 0.000000
0.968719 0.693202 0.000000
0.990295 0.684321 0.000000
1.000000 0.675196 0.000000
0.266087 0.765621 0.454444
0.268833 0.765805 0.454658
0.272404 0.765988 0.454932
0.280186 0.766445 0.455543
0.292058 0.767147 0.456489
0.307347 0.768124 0.457862
0.325841 0.769284 0.459815
0.347143 0.770657 0.462379
0.370886 0.772244 0.465644
0.396582 0.774075 0.469795
0.424018 0.776089 0.474922
0.452766 0.778317 0.481239
0.474037 0.780728 0.480415
0.494148 0.783230 0.476936
0.515465 0.785855 0.472999
0.538018 0.788663 0.468482
0.561669 0.791470 0.463294
0.586419 0.794339 0.457465
0.612085 0.797208 0.450843
0.642084 0.802823 0.433204
0.677455 0.809812 0.405219
0.716487 0.816098 0.371771
0.758663 0.821714 0.331029
0.803708 0.826566 0.279667
0.848173 0.827970 0.235996
0.891386 0.827481 0.195926
0.905577 0.799100 0.164950
0.917693 0.765011 0.128298
0.944579 0.740078 0.038788
0.968994 0.722683 0.000000
0.990204 0.713252 0.000000
1.000000 0.703548 0.000000
0.297734 0.793393 0.479988
0.300206 0.793484 0.480232
0.303624 0.793668 0.480598
0.310765 0.794003 0.481361
0.321965 0.794553 0.482612
0.336522 0.795315 0.484474
0.354009 0.796231 0.486915
0.374456 0.797360 0.490120
0.397314 0.798611 0.494118
0.421973 0.800107 0.499031
0.448432 0.801694 0.504967
0.476265 0.803494 0.512016
0.500755 0.805539 0.516442
0.518334 0.807858 0.513390
0.537133 0.810269 0.509972
0.557122 0.812802 0.506065
0.578271 0.815427 0.501610
0.600366 0.818112 0.496559
0.623560 0.820798 0.490852
0.647608 0.823514 0.484260
0.676905 0.829740 0.462074
0.710445 0.836027 0.433478
0.747433 0.841703 0.399115
0.787716 0.846677 0.357153
0.830991 0.850828 0.304479
0.873686 0.851530 0.262974
0.915709 0.850736 0.223819
0.929473 0.822721 0.192325
0.941131 0.789090 0.156161
0.965576 0.762722 0.092500
0.989899 0.742489 0.000000
1.000000 0.732326 0.000000
0.331579 0.820279 0.506706
0.333867 0.820371 0.507073
0.337133 0.820523 0.507500
0.343938 0.820768 0.508476
0.354498 0.821225 0.510063
0.368170 0.821775 0.512322
0.384985 0.822477 0.515282
0.404273 0.823331 0.518944
0.426093 0.824308 0.523552
0.450050 0.825376 0.529229
0.475257 0.826627 0.535729
0.501305 0.828092 0.542962
0.527855 0.829770 0.550805
0.544762 0.831815 0.549676
0.561303 0.834043 0.546777
