其他预设/【213】赛博朋克科幻预设52款/1.LUT预设（视频调色-PR-AE-PS-FCPX-达芬奇用）/赛博朋克科幻__-4 强度4.cube
# Created by Adobe Lightroom plugin Export LUT (1.17.0)
# www.johnrellis.com/lightroom/exportlut.htm
# Preset: 赛博朋克科幻[素锦印象]-4 强度4
# Color profile: /Library/Application Support/Adobe/Color/Profiles/Recommended/AdobeRGB1998.icc
LUT_3D_SIZE 32
0.000000 0.000000 0.000000
0.020050 0.000000 0.007233
0.048585 0.000000 0.016541
0.074434 0.000000 0.036255
0.094942 0.000000 0.056794
0.117189 0.000000 0.071015
0.141756 0.000000 0.084535
0.169131 0.000000 0.099672
0.200290 0.000000 0.116426
0.235019 0.000000 0.135500
0.274449 0.000000 0.156893
0.317113 0.000000 0.180301
0.362341 0.000000 0.204898
0.409461 0.000000 0.230716
0.457069 0.000000 0.256718
0.504662 0.000000 0.282780
0.551354 0.000000 0.308293
0.596002 0.000000 0.332738
0.636957 0.000000 0.355108
0.675624 0.000000 0.376257
0.712428 0.000000 0.396307
0.747738 0.000000 0.415564
0.781552 0.000000 0.433936
0.813931 0.000000 0.451545
0.845060 0.000000 0.468391
0.875090 0.000000 0.484627
0.903929 0.000000 0.500206
0.931853 0.000000 0.515251
0.958923 0.000000 0.529870
0.985260 0.000000 0.544091
1.000000 0.000000 0.558007
1.000000 0.000000 0.571649
0.015198 0.024537 0.000000
0.024750 0.019348 0.000000
0.046967 0.002533 0.007233
0.073426 0.000000 0.037690
0.094636 0.000000 0.056794
0.116732 0.000000 0.070649
0.141390 0.000000 0.084230
0.168856 0.000000 0.099184
0.199771 0.000000 0.116243
0.234836 0.000000 0.135348
0.274083 0.000000 0.156771
0.316899 0.000000 0.180179
0.362158 0.000000 0.204898
0.409186 0.000000 0.230625
0.456947 0.000000 0.256657
0.504509 0.000000 0.282719
0.551171 0.000000 0.308263
0.595850 0.000000 0.332616
0.636835 0.000000 0.355047
0.675532 0.000000 0.376196
0.712367 0.000000 0.396277
0.747677 0.000000 0.415534
0.781460 0.000000 0.433936
0.813931 0.000000 0.451545
0.845060 0.000000 0.468360
0.875029 0.000000 0.484627
0.903929 0.000000 0.500145
0.931853 0.000000 0.515251
0.958892 0.000000 0.529870
0.985290 0.000000 0.544091
1.000000 0.000000 0.558038
1.000000 0.000000 0.571649
0.035676 0.055818 0.000000
0.049042 0.051423 0.000000
0.055146 0.045563 0.000000
0.073030 0.011902 0.018006
0.092042 0.009644 0.060548
0.115816 0.000000 0.071473
0.140810 0.000000 0.083955
0.168246 0.000000 0.098970
0.199252 0.000000 0.116060
0.234318 0.000000 0.135012
0.273564 0.000000 0.156497
0.316411 0.000000 0.179843
0.361791 0.000000 0.204715
0.408850 0.000000 0.230381
0.456550 0.000000 0.256504
0.504295 0.000000 0.282597
0.550988 0.000000 0.308141
0.595605 0.000000 0.332494
0.636683 0.000000 0.355016
0.675349 0.000000 0.376104
0.712276 0.000000 0.396216
0.747585 0.000000 0.415534
0.781430 0.000000 0.433875
0.813901 0.000000 0.451484
0.845029 0.000000 0.468360
0.875029 0.000000 0.484565
0.903929 0.000000 0.500175
0.931853 0.000000 0.515251
0.958953 0.000000 0.529870
0.985290 0.000000 0.544121
1.000000 0.000000 0.558038
1.000000 0.000000 0.571649
0.063416 0.080079 0.000000
0.067567 0.078798 0.000000
0.074220 0.076753 0.000000
0.079683 0.071168 0.000000
0.090852 0.048554 0.033906
0.113283 0.020050 0.065614
0.137179 0.000000 0.086305
0.166079 0.000000 0.099672
0.198001 0.000000 0.115572
0.233371 0.000000 0.134524
0.272801 0.000000 0.155947
0.315679 0.000000 0.179507
0.360937 0.000000 0.204227
0.408057 0.000000 0.230045
0.455940 0.000000 0.256199
0.503746 0.000000 0.282322
0.550500 0.000000 0.307897
0.595178 0.000000 0.332341
0.636347 0.000000 0.354803
0.675044 0.000000 0.375982
0.712093 0.000000 0.396155
0.747433 0.000000 0.415412
0.781338 0.000000 0.433845
0.813779 0.000000 0.451423
0.844999 0.000000 0.468269
0.874998 0.000000 0.484596
0.903899 0.000000 0.500145
0.931853 0.000000 0.515251
0.958953 0.000000 0.529870
0.985351 0.000000 0.544091
1.000000 0.000000 0.558007
1.000000 0.000000 0.571649
0.085298 0.107332 0.000000
0.087251 0.106081 0.000000
0.091981 0.104463 0.000000
0.100710 0.100526 0.000000
0.103700 0.093019 0.000000
0.114382 0.074159 0.038422
0.138735 0.021515 0.061891
0.163760 0.002899 0.093507
0.193576 0.000000 0.116121
0.229801 0.000000 0.134310
0.270146 0.000000 0.155428
0.313909 0.000000 0.178775
0.359869 0.000000 0.203738
0.407050 0.000000 0.229435
0.454963 0.000000 0.255741
0.502770 0.000000 0.281773
0.549645 0.000000 0.307469
0.594476 0.000000 0.331975
0.635798 0.000000 0.354559
0.674647 0.000000 0.375738
0.711696 0.000000 0.395972
0.747189 0.000000 0.415290
0.781125 0.000000 0.433692
0.813687 0.000000 0.451392
0.844907 0.000000 0.468238
0.874968 0.000000 0.484504
0.903868 0.000000 0.500114
0.931853 0.000000 0.515190
0.958984 0.000000 0.529839
0.985382 0.000000 0.544091
1.000000 0.000000 0.558038
1.000000 0.000000 0.571649
0.110445 0.138949 0.000000
0.111910 0.138064 0.000000
0.115755 0.136477 0.000000
0.123262 0.133181 0.000000
0.131167 0.127596 0.000000
0.131960 0.118502 0.000000
0.142794 0.100252 0.038880
0.166934 0.062593 0.064546
0.197330 0.000000 0.092195
0.227726 0.000000 0.127749
0.265476 0.000000 0.153750
0.309697 0.000000 0.176913
0.356115 0.000000 0.201755
0.404242 0.000000 0.227878
0.452857 0.000000 0.254520
0.501488 0.000000 0.281071
0.548669 0.000000 0.306920
0.593591 0.000000 0.331518
0.634974 0.000000 0.354162
0.674067 0.000000 0.375463
0.711269 0.000000 0.395697
0.746883 0.000000 0.415076
0.780880 0.000000 0.433509
0.813474 0.000000 0.451240
0.844785 0.000000 0.468177
0.874876 0.000000 0.484413
0.903899 0.000000 0.500084
0.931884 0.000000 0.515160
0.959014 0.000000 0.529839
0.985473 0.000000 0.544091
1.000000 0.000000 0.558007
1.000000 0.000000 0.571679
0.139376 0.175692 0.000000
0.141146 0.174655 0.000000
0.144289 0.173434 0.000000
0.150942 0.170596 0.000000
0.158633 0.165713 0.000000
0.165438 0.159060 0.000000
0.165438 0.148531 0.000000
0.176669 0.131930 0.032227
0.200107 0.094179 0.069520
0.237491 0.000000 0.084321
0.271824 0.000000 0.130678
0.307195 0.000000 0.170932
0.351232 0.000000 0.199191
0.399908 0.000000 0.225010
0.449195 0.000000 0.251591
0.498116 0.000000 0.278294
0.545922 0.000000 0.304631
0.591730 0.000000 0.329931
0.633845 0.000000 0.353307
0.673365 0.000000 0.375067
0.710689 0.000000 0.395422
0.746426 0.000000 0.414862
0.780545 0.000000 0.433356
0.813291 0.000000 0.451087
0.844633 0.000000 0.468025
0.874784 0.000000 0.484321
0.903838 0.000000 0.500023
0.931914 0.000000 0.515129
0.959075 0.000000 0.529778
0.985534 0.000000 0.544091
1.000000 0.000000 0.558007
1.000000 0.000000 0.571649
0.173434 0.217685 0.000000
0.175692 0.216983 0.000000
0.178439 0.216007 0.000000
0.184512 0.213596 0.000000
0.191440 0.209232 0.000000
0.199802 0.203342 0.000000
0.205661 0.195926 0.000000
0.205356 0.184024 0.000000
0.217411 0.169986 0.018341
0.244144 0.129641 0.070283
0.283238 0.031098 0.084901
0.322545 0.000000 0.128481
0.359777 0.000000 0.177371
0.396368 0.000000 0.220310
0.444251 0.000000 0.248875
0.493812 0.000000 0.275273
0.542199 0.000000 0.301549
0.588525 0.000000 0.326909
0.631220 0.000000 0.350500
0.671382 0.000000 0.372808
0.709438 0.000000 0.393988
0.745754 0.000000 0.414252
0.780209 0.000000 0.433112
0.813016 0.000000 0.450935
0.844450 0.000000 0.467903
0.874693 0.000000 0.484260
0.903777 0.000000 0.499947
0.931945 0.000000 0.515068
0.959167 0.000000 0.529747
0.985657 0.000000 0.544060
1.000000 0.000000 0.558007
1.000000 0.000000 0.571710
0.214694 0.266789 0.000000
0.216587 0.266148 0.000000
0.219425 0.265354 0.000000
0.223972 0.263005 0.000000
0.230411 0.259342 0.000000
0.238437 0.254276 0.000000
0.248508 0.247807 0.000000
0.254032 0.240269 0.000000
0.253361 0.226749 0.000000
0.266697 0.216800 0.000000
0.297154 0.172854 0.066529
0.334752 0.107607 0.091920
0.379431 0.000000 0.116030
0.417395 0.000000 0.178897
0.453773 0.000000 0.228763
0.488777 0.000000 0.272465
0.537407 0.000000 0.298985
0.584436 0.000000 0.324193
0.627863 0.000000 0.347814
0.668666 0.000000 0.370245
0.707210 0.000000 0.391516
0.744015 0.000000 0.411902
0.778958 0.000000 0.431403
0.812345 0.000000 0.449928
0.844236 0.000000 0.467720
0.874571 0.000000 0.484108
0.903777 0.000000 0.499855
0.931945 0.000000 0.515007
0.959258 0.000000 0.529717
0.985809 0.000000 0.544060
1.000000 0.000000 0.558007
1.000000 0.000000 0.571740
0.260990 0.321904 0.000000
0.262669 0.321355 0.000000
0.264561 0.320531 0.000000
0.268498 0.318486 0.000000
0.274693 0.315435 0.000000
0.282841 0.311192 0.000000
0.292912 0.305730 0.000000
0.305028 0.299046 0.000000
0.309941 0.291417 0.000000
0.309667 0.276860 0.000000
0.322026 0.267887 0.000000
0.356695 0.222873 0.055451
0.391485 0.162356 0.100343
0.438544 0.000000 0.113436
0.478218 0.000000 0.173281
0.513573 0.000000 0.232578
0.546746 0.000000 0.281315
0.579126 0.000000 0.322484
0.623468 0.000000 0.345892
0.665003 0.000000 0.368231
0.704372 0.000000 0.389593
0.741604 0.000000 0.410010
0.777066 0.000000 0.429480
0.810819 0.000000 0.448127
0.843076 0.000000 0.465949
0.873960 0.000000 0.483131
0.903655 0.000000 0.499550
0.932006 0.000000 0.514916
0.959380 0.000000 0.529686
0.985992 0.000000 0.543999
1.000000 0.000000 0.558007
1.000000 0.000000 0.571710
0.309422 0.381048 0.000000
0.310704 0.380560 0.000000
0.312688 0.379889 0.000000
0.316442 0.378241 0.000000
0.322484 0.375647 0.000000
0.330724 0.372290 0.000000
0.341039 0.367773 0.000000
0.353307 0.362402 0.000000
0.365911 0.355779 0.000000
0.372107 0.348089 0.000000
0.372351 0.332494 0.000000
0.379858 0.318029 0.000000
0.421241 0.279210 0.013336
0.455604 0.216953 0.102113
0.499031 0.105440 0.124392
0.540826 0.000000 0.157839
0.573724 0.000000 0.230655
0.603723 0.000000 0.285466
0.630945 0.000000 0.331212
0.660304 0.000000 0.367803
0.700435 0.000000 0.388952
0.738399 0.000000 0.409216
0.774411 0.000000 0.428534
0.808621 0.000000 0.447120
0.841306 0.000000 0.464912
0.872587 0.000000 0.481971
0.902556 0.000000 0.498329
0.931456 0.000000 0.514122
0.959350 0.000000 0.529473
0.986145 0.000000 0.543969
1.000000 0.000000 0.558007
1.000000 0.000000 0.571771
0.359411 0.442542 0.000000
0.360723 0.442206 0.000000
0.362463 0.441505 0.000000
0.366186 0.440131 0.000000
0.372290 0.438178 0.000000
0.380407 0.435370 0.000000
0.390753 0.431922 0.000000
0.403143 0.427497 0.000000
0.417823 0.422034 0.000000
0.430549 0.415839 0.000000
0.438361 0.408392 0.000000
0.439155 0.391913 0.000000
0.440833 0.371191 0.000000
0.488441 0.339879 0.000000
0.522118 0.274937 0.099641
0.559594 0.187350 0.138125
0.600641 0.000000 0.153902
0.631250 0.000000 0.222354
0.656947 0.000000 0.284855
0.681636 0.000000 0.334874
0.705592 0.000000 0.377935
0.733883 0.000000 0.410559
0.770626 0.000000 0.429603
0.805478 0.000000 0.447913
0.838682 0.000000 0.465461
0.870390 0.000000 0.482277
0.900786 0.000000 0.498512
0.930022 0.000000 0.514061
0.958251 0.000000 0.529107
0.985657 0.000000 0.543725
1.000000 0.000000 0.557977
1.000000 0.000000 0.571771
0.409247 0.503899 0.000000
0.410590 0.503624 0.000000
0.412299 0.503136 0.000000
0.416083 0.502129 0.000000
0.422004 0.500511 0.000000
0.429969 0.498360 0.000000
0.440192 0.495583 0.000000
0.452430 0.491981 0.000000
0.467048 0.487739 0.000000
0.484230 0.482795 0.000000
0.496529 0.476783 0.000000
0.506065 0.469795 0.000000
0.507439 0.452674 0.000000
0.503777 0.426398 0.000000
0.555322 0.402197 0.000000
0.586969 0.334386 0.096040
0.617273 0.257298 0.155428
0.653498 0.105348 0.171786
0.683864 0.000000 0.208835
0.707149 0.000000 0.281224
0.729702 0.000000 0.336370
0.751675 0.000000 0.382605
0.773373 0.000000 0.423102
0.800931 0.000000 0.451698
0.834745 0.000000 0.468849
0.867002 0.000000 0.485359
0.897917 0.000000 0.501183
0.927581 0.000000 0.516442
0.956207 0.000000 0.531121
0.983978 0.000000 0.545312
1.000000 0.000000 0.559106
1.000000 0.000000 0.572473
0.456703 0.562341 0.000000
0.457984 0.562005 0.000000
0.459663 0.561730 0.000000
0.463294 0.560906 0.000000
0.468940 0.559625 0.000000
0.476722 0.557885 0.000000
0.486641 0.555749 0.000000
0.498695 0.553033 0.000000
0.512993 0.549645 0.000000
0.529808 0.545769 0.000000
0.549065 0.541039 0.000000
0.560693 0.535760 0.000000
0.572076 0.529564 0.000000
0.573999 0.511955 0.000000
0.571649 0.485939 0.000000
0.617884 0.463264 0.000000
0.645624 0.392004 0.094026
0.670741 0.319310 0.168826
0.701015 0.216800 0.194247
0.731472 0.000000 0.209964
0.754208 0.000000 0.276463
0.774716 0.000000 0.336950
0.794888 0.000000 0.386419
0.814908 0.000000 0.429175
0.834928 0.000000 0.467506
0.862058 0.000000 0.492164
0.893492 0.000000 0.507652
0.923613 0.000000 0.522545
0.952667 0.000000 0.536919
0.980835 0.000000 0.550774
1.000000 0.000000 0.564111
1.000000 0.000000 0.576928
0.498817 0.614069 0.000000
0.499916 0.613916 0.000000
0.501518 0.613550 0.000000
0.505028 0.613001 0.000000
0.510460 0.611994 0.000000
0.517967 0.610742 0.000000
0.527337 0.608972 0.000000
0.538872 0.606836 0.000000
0.552544 0.604303 0.000000
0.568627 0.601221 0.000000
0.587091 0.597559 0.000000
0.607324 0.593317 0.000000
0.618647 0.588586 0.000000
0.631769 0.583368 0.000000
0.634028 0.565484 0.000000
0.632959 0.540215 0.000000
0.672816 0.519402 0.000000
0.697047 0.446723 0.096407
0.719448 0.376410 0.180972
0.744869 0.297887 0.221225
0.773281 0.164523 0.237003
0.797971 0.000000 0.272770
0.816617 0.000000 0.338140
0.835111 0.000000 0.390814
0.853483 0.000000 0.435706
0.872099 0.000000 0.475593
0.890959 0.000000 0.512230
0.917845 0.000000 0.533196
0.947295 0.000000 0.547417
0.975769 0.000000 0.561181
1.000000 0.000000 0.574456
1.000000 0.000000 0.587121
0.535760 0.659693 0.000000
0.536889 0.659510 0.000000
0.538354 0.659266 0.000000
0.541588 0.658839 0.000000
0.546715 0.657984 0.000000
0.553796 0.656947 0.000000
0.562615 0.655604 0.000000
0.573480 0.653956 0.000000
0.586450 0.651820 0.000000
0.601526 0.649409 0.000000
0.618952 0.646479 0.000000
0.638788 0.643122 0.000000
0.657618 0.639216 0.000000
0.670039 0.635126 0.000000
0.684138 0.630426 0.000000
0.686549 0.612421 0.000000
0.686366 0.588037 0.000000
0.721065 0.571160 0.000000
0.743069 0.498207 0.105470
0.764004 0.431312 0.196384
0.784970 0.369574 0.253025
0.811582 0.276219 0.268559
0.836851 0.114870 0.283940
0.855131 0.042298 0.342657
0.872007 0.072969 0.397436
0.888975 0.100649 0.444038
0.906249 0.129732 0.485328
0.923888 0.162142 0.523125
0.942077 0.197360 0.558648
0.968750 0.162814 0.576532
0.996551 0.076570 0.590143
1.000000 0.000000 0.603388
0.568261 0.699702 0.000000
0.569329 0.699641 0.000000
0.570672 0.699397 0.000000
0.573754 0.699031 0.000000
0.578546 0.698390 0.000000
0.585107 0.697536 0.000000
0.593347 0.696407 0.000000
0.603510 0.695003 0.000000
0.615564 0.693324 0.000000
0.629633 0.691341 0.000000
0.645899 0.688960 0.000000
0.664363 0.686244 0.000000
0.685145 0.683040 0.000000
0.702296 0.679561 0.000000
0.715480 0.675929 0.000000
0.730282 0.671809 0.000000
0.732509 0.653651 0.000000
0.733242 0.630457 0.000000
0.764401 0.619135 0.000000
0.785245 0.547509 0.120333
0.804715 0.483772 0.215030
0.822934 0.431037 0.280552
0.846189 0.362249 0.304143
0.869810 0.270726 0.319371
0.890013 0.192752 0.352300
0.905425 0.205966 0.408118
0.921111 0.223239 0.455665
0.937133 0.244785 0.497963
0.953674 0.270726 0.536797
0.970794 0.301549 0.573358
0.988586 0.337438 0.608453
1.000000 0.325292 0.624109
0.596857 0.735073 0.000000
0.597833 0.734920 0.000000
0.599176 0.734798 0.000000
0.602014 0.734432 0.000000
0.606470 0.733883 0.000000
0.612482 0.733181 0.000000
0.620233 0.732296 0.000000
0.629664 0.731136 0.000000
0.640925 0.729793 0.000000
0.654047 0.728176 0.000000
0.669154 0.726314 0.000000
0.686336 0.724117 0.000000
0.705653 0.721614 0.000000
0.727352 0.718715 0.000000
0.742763 0.715846 0.000000
0.756710 0.712825 0.000000
0.772335 0.709438 0.000000
0.774502 0.691402 0.000000
0.775967 0.669398 0.000000
0.804135 0.664179 0.000000
0.823728 0.594232 0.140780
0.841703 0.533532 0.236942
0.858274 0.485817 0.305364
0.877256 0.437842 0.343420
0.899199 0.370520 0.358373
0.920348 0.292424 0.373938
0.935363 0.294438 0.424048
0.949859 0.312108 0.471778
0.964813 0.333654 0.514397
0.980285 0.359960 0.553887
0.996429 0.390631 0.591119
1.000000 0.426001 0.627008
0.623011 0.767178 0.000000
0.623865 0.767147 0.000000
0.625086 0.767025 0.000000
0.627741 0.766751 0.000000
0.631891 0.766354 0.000000
0.637537 0.765774 0.000000
0.644800 0.765072 0.000000
0.653590 0.764157 0.000000
0.664118 0.763149 0.000000
0.676326 0.761868 0.000000
0.690425 0.760403 0.000000
0.706447 0.758663 0.000000
0.724483 0.756710 0.000000
0.744656 0.754421 0.000000
0.766995 0.751827 0.000000
0.780545 0.749538 0.000000
0.795071 0.747036 0.000000
0.811154 0.744228 0.000000
0.813077 0.726253 0.000000
0.815122 0.705501 0.000000
0.838590 0.699977 0.000000
0.858671 0.638148 0.165682
0.875181 0.580743 0.261692
0.890074 0.537804 0.332189
0.904814 0.506645 0.385077
0.925200 0.454108 0.399756
0.944976 0.399512 0.415198
0.961883 0.372625 0.445655
0.975372 0.391180 0.492470
0.989380 0.413123 0.534722
1.000000 0.438911 0.573938
1.000000 0.469337 0.611231
0.647181 0.797086 0.000000
0.647974 0.796994 0.000000
0.649165 0.796933 0.000000
0.651637 0.796719 0.000000
0.655543 0.796414 0.000000
0.660761 0.795956 0.000000
0.667506 0.795377 0.000000
0.675776 0.794644 0.000000
0.685542 0.793820 0.000000
0.696956 0.792813 0.000000
0.710079 0.791653 0.000000
0.725032 0.790280 0.000000
0.741787 0.788724 0.000000
0.760555 0.786923 0.000000
0.781247 0.784848 0.000000
0.802121 0.782589 0.000000
0.815732 0.780758 0.000000
0.830655 0.778653 0.000000
0.846250 0.775631 0.000000
0.848508 0.758419 0.000000
0.850919 0.738766 0.000000
0.869200 0.730190 0.000000
0.890318 0.679438 0.193545
0.905241 0.625513 0.288945
0.918517 0.586725 0.360723
0.930510 0.564752 0.420813
0.948180 0.527520 0.441962
0.966735 0.486305 0.457130
0.984955 0.447120 0.473396
0.998047 0.461402 0.516014
1.000000 0.483314 0.557092
1.000000 0.509606 0.595880
0.669581 0.824826 0.000000
0.670344 0.824765 0.000000
0.671443 0.824704 0.000000
0.673793 0.824552 0.000000
0.677363 0.824247 0.000000
0.682307 0.823880 0.000000
0.688563 0.823423 0.000000
0.696254 0.822843 0.000000
0.705348 0.822141 0.000000
0.715999 0.821317 0.000000
0.728237 0.820401 0.000000
0.742123 0.819272 0.000000
0.757717 0.818021 0.000000
0.775113 0.816526 0.000000
0.794308 0.814847 0.000000
0.815488 0.812955 0.000000
0.834379 0.811063 0.000000
0.848264 0.809537 0.000000
0.863462 0.807797 0.000000
0.878325 0.804410 0.000000
0.880827 0.787991 0.000000
0.883452 0.769467 0.000000
0.897276 0.758419 0.072297
0.918791 0.717922 0.223911
0.932219 0.667353 0.318090
0.944030 0.632502 0.390326
0.954711 0.613428 0.449928
0.968688 0.591638 0.482429
0.986114 0.558770 0.496925
1.000000 0.529625 0.512810
1.000000 0.524437 0.541131
1.000000 0.547173 0.581262
0.690303 0.850523 0.000000
0.691035 0.850492 0.000000
0.692012 0.850401 0.000000
0.694209 0.850309 0.000000
0.697566 0.850065 0.000000
0.702174 0.849729 0.000000
0.708064 0.849363 0.000000
0.715175 0.848844 0.000000
0.723720 0.848295 0.000000
0.733639 0.847562 0.000000
0.744991 0.846830 0.000000
0.757931 0.845884 0.000000
0.772427 0.844846 0.000000
0.788571 0.843626 0.000000
0.806424 0.842191 0.000000
0.826047 0.840604 0.000000
0.847501 0.838804 0.000000
0.864317 0.837308 0.000000
0.878386 0.835996 0.000000
0.893614 0.834562 0.000000
0.907713 0.830838 0.000000
0.910307 0.815122 0.000000
0.912963 0.797696 0.000000
0.922911 0.784909 0.137819
0.944366 0.753964 0.255650
0.956390 0.706722 0.348363
0.966857 0.675135 0.420203
0.976471 0.657862 0.477821
0.987060 0.647700 0.520165
1.000000 0.621302 0.534386
1.000000 0.599207 0.550256
1.000000 0.583215 0.568170
0.707729 0.874235 0.000000
0.708553 0.874235 0.000000
0.709682 0.874205 0.000000
0.712215 0.874052 0.000000
0.716121 0.873960 0.000000
0.720607 0.873686 0.000000
0.726070 0.873350 0.000000
0.732692 0.872953 0.000000
0.740688 0.872465 0.000000
0.749935 0.871855 0.000000
0.760525 0.871183 0.000000
0.772519 0.870420 0.000000
0.786007 0.869505 0.000000
0.801022 0.868437 0.000000
0.817624 0.867277 0.000000
0.835874 0.865934 0.000000
0.855741 0.864378 0.000000
0.877317 0.862638 0.000000
0.892058 0.861479 0.000000
0.906157 0.860380 0.000000
0.921324 0.859159 0.000000
0.934447 0.855039 0.000000
0.937041 0.840024 0.000000
0.939635 0.823667 0.040864
0.946288 0.809628 0.186221
0.967315 0.787411 0.287846
0.977935 0.743252 0.379156
0.987274 0.714229 0.448890
0.995972 0.698360 0.504417
1.000000 0.693721 0.551080
1.000000 0.675959 0.569421
1.000000 0.659754 0.585626
0.723262 0.896361 0.000000
0.724056 0.896330 0.000000
0.725124 0.896269 0.000000
0.727443 0.896208 0.000000
0.731106 0.896086 0.000000
0.736019 0.895903 0.000000
0.742275 0.895659 0.000000
0.748959 0.895323 0.000000
0.756435 0.894865 0.000000
0.765042 0.894347 0.000000
0.774960 0.893736 0.000000
0.786130 0.893065 0.000000
0.798642 0.892271 0.000000
0.812619 0.891325 0.000000
0.828031 0.890318 0.000000
0.844938 0.889128 0.000000
0.863401 0.887816 0.000000
0.883482 0.886290 0.000000
0.904631 0.884642 0.000000
0.917723 0.883726 0.000000
0.931762 0.882780 0.000000
0.946777 0.881712 0.000000
0.958892 0.877195 0.000000
0.961303 0.862852 0.000000
0.963714 0.847501 0.134707
0.967559 0.832731 0.229191
0.987732 0.818235 0.320348
0.997101 0.776913 0.409308
1.000000 0.749813 0.476112
1.000000 0.735134 0.529870
1.000000 0.731258 0.575189
1.000000 0.724483 0.602380
0.737362 0.917052 0.000000
0.738064 0.917021 0.000000
0.739040 0.916991 0.000000
0.741207 0.916930 0.000000
0.744625 0.916777 0.000000
0.749233 0.916594 0.000000
0.755093 0.916350 0.000000
0.762173 0.916075 0.000000
0.770565 0.915709 0.000000
0.779110 0.915251 0.000000
0.788327 0.914702 0.000000
0.798825 0.914061 0.000000
0.810452 0.913359 0.000000
0.823423 0.912505 0.000000
0.837766 0.911620 0.000000
0.853483 0.910552 0.000000
0.870634 0.909361 0.000000
0.889311 0.908019 0.000000
0.909422 0.906462 0.000000
0.928405 0.905058 0.000000
0.941436 0.904234 0.000000
0.955352 0.903349 0.000000
0.970092 0.902403 0.000000
0.981048 0.897490 0.000000
0.983276 0.883787 0.000000
0.985382 0.869383 0.187198
0.987274 0.854582 0.269413
1.000000 0.846464 0.352270
1.000000 0.807492 0.437659
1.000000 0.782071 0.501915
1.000000 0.768673 0.554101
1.000000 0.765743 0.598596
0.750027 0.936522 0.000000
0.750759 0.936492 0.000000
0.751675 0.936431 0.000000
0.753689 0.936370 0.000000
0.756863 0.936217 0.000000
0.761166 0.936034 0.000000
0.766629 0.935790 0.000000
0.773281 0.935485 0.000000
0.781155 0.935149 0.000000
0.790219 0.934722 0.000000
0.800534 0.934234 0.000000
0.810575 0.933623 0.000000
0.821530 0.932952 0.000000
0.833616 0.932189 0.000000
0.846891 0.931334 0.000000
0.861540 0.930358 0.000000
0.877470 0.929259 0.000000
0.894804 0.928008 0.000000
0.913481 0.926604 0.000000
0.933593 0.925048 0.000000
0.950408 0.923827 0.000000
0.963348 0.923064 0.000000
0.977050 0.922210 0.000000
0.991363 0.921324 0.000000
1.000000 0.915923 0.000000
1.000000 0.902831 0.122225
1.000000 0.889342 0.231083
1.000000 0.875822 0.307439
1.000000 0.872068 0.382605
1.000000 0.835019 0.464149
1.000000 0.811246 0.526329
1.000000 0.799252 0.577478
0.761532 0.954833 0.000000
0.762142 0.954803 0.000000
0.763027 0.954772 0.000000
0.764889 0.954681 0.000000
0.767910 0.954528 0.000000
0.771939 0.954345 0.000000
0.777035 0.954101 0.000000
0.783261 0.953796 0.000000
0.790646 0.953429 0.000000
0.799161 0.952972 0.000000
0.808804 0.952483 0.000000
0.819669 0.951904 0.000000
0.831662 0.951232 0.000000
0.843107 0.950500 0.000000
0.855528 0.949645 0.000000
0.869108 0.948730 0.000000
0.883970 0.947692 0.000000
0.900023 0.946532 0.000000
0.917418 0.945190 0.000000
0.936126 0.943725 0.000000
0.956085 0.942046 0.000000
0.970733 0.941039 0.000000
0.983490 0.940246 0.000000
0.996857 0.939391 0.000000
1.000000 0.938476 0.000000
1.000000 0.932586 0.000000
1.000000 0.920012 0.175692
1.000000 0.907347 0.269780
1.000000 0.894957 0.343114
1.000000 0.894743 0.410529
1.000000 0.859678 0.489052
1.000000 0.837675 0.549950
0.771756 0.972107 0.000000
0.772335 0.972076 0.000000
0.773159 0.972045 0.000000
0.774929 0.971954 0.000000
0.777737 0.971801 0.000000
0.781521 0.971588 0.000000
0.786343 0.971344 0.000000
0.792142 0.971038 0.000000
0.799039 0.970642 0.000000
0.807034 0.970184 0.000000
0.816129 0.969665 0.000000
0.826352 0.969055 0.000000
0.837613 0.968353 0.000000
0.850034 0.967590 0.000000
0.863554 0.966705 0.000000
