其他预设/【213】赛博朋克科幻预设52款/1.LUT预设（视频调色-PR-AE-PS-FCPX-达芬奇用）/赛博朋克科幻__-11 强度2.cube
# Created by Adobe Lightroom plugin Export LUT (1.17.0)
# www.johnrellis.com/lightroom/exportlut.htm
# Preset: 赛博朋克科幻[素锦印象]-11 强度2
# Color profile: /Library/Application Support/Adobe/Color/Profiles/Recommended/AdobeRGB1998.icc
LUT_3D_SIZE 8
DOMAIN_MIN 0.000000 0.000000 0.000000
DOMAIN_MAX 0.903226 0.903226 0.903226
0.000000 0.000000 0.000000
0.130343 0.000000 0.060914
0.261601 0.000000 0.117433
0.391485 0.000000 0.175723
0.521324 0.000000 0.236484
0.650324 0.000000 0.298405
0.778073 0.000000 0.362127
0.905486 0.000000 0.424475
0.000000 0.126650 0.080385
0.117037 0.110628 0.040040
0.265049 0.000000 0.083497
0.394629 0.000000 0.163516
0.523857 0.000000 0.227237
0.652125 0.000000 0.291356
0.779416 0.000000 0.356939
0.906065 0.000000 0.423774
0.000000 0.254002 0.159762
0.000000 0.245457 0.134188
0.233310 0.214694 0.075044
0.396002 0.061250 0.109438
0.529778 0.000000 0.162722
0.657282 0.000000 0.257237
0.783200 0.000000 0.342779
0.908568 0.000000 0.415686
0.000000 0.392676 0.241855
0.000000 0.385626 0.227817
0.092988 0.366857 0.141543
0.349889 0.327092 0.112917
0.525841 0.213931 0.153323
0.661097 0.000000 0.184848
0.790921 0.000000 0.258305
0.914488 0.000000 0.369451
0.000000 0.549950 0.329259
0.000000 0.544335 0.319341
0.020294 0.524804 0.275669
0.175845 0.497566 0.133028
0.464790 0.453529 0.150271
0.655543 0.366400 0.189975
0.789517 0.177890 0.241855
0.921447 0.000000 0.290471
0.000000 0.697749 0.407965
0.000000 0.694057 0.401526
0.000000 0.679713 0.379431
0.130037 0.660761 0.292485
0.295872 0.628656 0.170291
0.575891 0.593683 0.190585
0.782101 0.531823 0.233127
0.915679 0.362158 0.319585
0.000000 0.838895 0.481300
0.000000 0.836698 0.477668
0.000000 0.828061 0.465766
0.144015 0.813809 0.426764
0.212161 0.799557 0.304662
0.423590 0.772122 0.225895
0.686610 0.744320 0.250614
0.904448 0.710445 0.300450
0.000000 0.967102 0.545922
0.000000 0.965759 0.544793
0.000000 0.960601 0.542504
0.207309 0.949676 0.545068
0.281865 0.944213 0.474434
0.322667 0.938323 0.340185
0.559442 0.920073 0.323766
0.800504 0.900023 0.357916
0.020478 0.000000 0.105653
0.134310 0.000000 0.111940
0.258976 0.000000 0.154360
0.389258 0.000000 0.204013
0.519890 0.000000 0.257542
0.649287 0.000000 0.315496
0.777432 0.000000 0.376226
0.904967 0.000000 0.437903
0.000000 0.118227 0.119173
0.134859 0.104707 0.113436
0.262730 0.014130 0.148806
0.392187 0.000000 0.196536
0.522118 0.000000 0.251102
0.650935 0.000000 0.310033
0.778714 0.000000 0.371893
0.905760 0.000000 0.435676
0.000000 0.251591 0.186221
0.100740 0.239506 0.172702
0.242588 0.211398 0.129915
0.397131 0.083589 0.151797
0.528405 0.000000 0.209201
0.656031 0.000000 0.288701
0.782406 0.000000 0.359594
0.908171 0.000000 0.428473
0.000000 0.391058 0.261448
0.000000 0.383001 0.250370
0.159060 0.362554 0.188174
0.355932 0.325048 0.154116
0.526360 0.210971 0.186526
0.661616 0.000000 0.211215
0.789944 0.000000 0.289250
0.913542 0.000000 0.391913
0.000000 0.548882 0.345495
0.000000 0.543359 0.336522
0.138491 0.522118 0.303227
0.197299 0.496498 0.168765
0.468910 0.452216 0.181888
0.656001 0.363317 0.216983
0.789822 0.185885 0.262394
0.921569 0.000000 0.308232
0.000000 0.697505 0.421118
0.000000 0.693874 0.415198
0.000000 0.679683 0.394263
0.180575 0.659388 0.318181
0.307469 0.628260 0.198825
0.579156 0.592828 0.216464
0.782467 0.529259 0.256474
0.915770 0.366735 0.336034
0.000000 0.839170 0.491890
0.000000 0.836942 0.488441
0.000000 0.828367 0.477028
0.193088 0.812985 0.445624
0.244572 0.798795 0.329625
0.428992 0.771450 0.248203
0.689204 0.743740 0.271550
0.904662 0.708400 0.320012
0.000000 0.967498 0.553735
0.000000 0.966186 0.552605
0.000000 0.961028 0.550469
0.211185 0.950103 0.553033
0.308080 0.943481 0.491463
0.343999 0.937591 0.363256
0.563806 0.919646 0.340673
0.802762 0.899657 0.373907
0.078676 0.000000 0.210025
0.159762 0.000000 0.209812
0.272435 0.000000 0.222416
0.388556 0.000000 0.262211
0.518273 0.000000 0.310491
0.647333 0.000000 0.364385
0.776181 0.000000 0.418891
0.904448 0.000000 0.474769
0.082612 0.124117 0.214969
0.152041 0.101564 0.215030
0.272557 0.021210 0.222934
0.390692 0.000000 0.261418
0.519799 0.000000 0.308812
0.648707 0.000000 0.361608
0.777279 0.000000 0.416114
0.905241 0.000000 0.472389
0.000000 0.236393 0.242863
0.135378 0.228458 0.237888
0.271336 0.201724 0.223728
0.397253 0.158267 0.257176
0.525261 0.000000 0.301030
0.653254 0.000000 0.351995
0.780636 0.000000 0.407935
0.907530 0.000000 0.466987
0.000000 0.394720 0.322972
0.000000 0.385748 0.314000
0.245182 0.355901 0.285344
0.374640 0.318975 0.240085
0.529961 0.218540 0.261509
0.661769 0.000000 0.296757
0.786801 0.000000 0.376654
0.910277 0.000000 0.461555
0.000000 0.553307 0.396155
0.000000 0.546380 0.389197
0.191745 0.522393 0.364599
0.291417 0.490639 0.282841
0.482368 0.447913 0.260655
0.657832 0.351720 0.290318
0.791257 0.208560 0.322423
0.920867 0.000000 0.373816
0.000000 0.700587 0.462989
0.000000 0.696071 0.458473
0.027924 0.680903 0.441779
0.288090 0.655482 0.396735
0.344030 0.627405 0.275731
0.589837 0.589899 0.288273
0.783780 0.520073 0.324193
0.916228 0.381506 0.387701
0.000000 0.841276 0.526665
0.000000 0.838834 0.523980
0.000000 0.830198 0.514244
0.272160 0.812528 0.498390
0.330632 0.796445 0.406165
0.446387 0.769375 0.313420
0.698207 0.741817 0.334325
0.905516 0.701259 0.380652
0.000000 0.969299 0.580438
0.000000 0.968170 0.578851
0.000000 0.963012 0.576898
0.215122 0.952117 0.579339
0.384588 0.941161 0.547906
0.408698 0.935210 0.435065
0.578241 0.918273 0.393866
0.810300 0.898375 0.423682
0.120027 0.000000 0.330724
0.186130 0.000000 0.330785
0.306706 0.000000 0.330144
0.412634 0.000000 0.345068
0.521691 0.000000 0.382238
0.646571 0.000000 0.429999
0.775448 0.000000 0.480934
0.904662 0.000000 0.529412
0.102235 0.108095 0.333806
0.176761 0.093843 0.333745
0.306279 0.000000 0.333379
0.412421 0.000000 0.345342
0.521172 0.000000 0.381811
0.647578 0.000000 0.429358
0.776303 0.000000 0.479683
0.905425 0.000000 0.528099
0.111543 0.241398 0.344488
0.173495 0.237003 0.342626
0.290562 0.204410 0.339147
0.410620 0.159640 0.345403
0.523095 0.077058 0.381628
0.650996 0.000000 0.427375
0.779232 0.000000 0.475654
0.907836 0.000000 0.523339
0.000000 0.372717 0.386999
0.124300 0.367071 0.383001
0.272099 0.346715 0.368994
0.405097 0.308354 0.343755
0.530388 0.271824 0.378241
0.656916 0.210697 0.420752
0.783719 0.040528 0.469215
0.910277 0.000000 0.521721
0.000000 0.562005 0.482002
0.000000 0.555169 0.475685
0.216403 0.530968 0.453346
0.382940 0.485939 0.412818
0.504936 0.440528 0.360479
0.661494 0.347326 0.384253
0.793149 0.250156 0.412543
0.915099 0.221378 0.496254
0.000000 0.707729 0.533471
0.000000 0.703365 0.529412
0.123720 0.687831 0.515129
0.347723 0.658564 0.488045
0.425177 0.624353 0.400244
0.608087 0.584955 0.383917
0.786069 0.504173 0.418128
0.917388 0.404395 0.464363
0.000000 0.846250 0.585290
0.000000 0.843931 0.583032
0.000000 0.835416 0.574823
0.291569 0.818662 0.560052
0.441688 0.793484 0.519402
0.486244 0.768460 0.407843
0.713558 0.738521 0.423407
0.907225 0.688624 0.466957
0.000000 0.971740 0.629603
0.000000 0.970642 0.628229
0.000000 0.966766 0.623407
0.181247 0.957458 0.620600
0.477211 0.938872 0.631830
0.495796 0.932128 0.537530
0.598901 0.916503 0.468788
0.822232 0.896452 0.493782
0.155032 0.000000 0.466072
0.211398 0.000000 0.466041
0.332464 0.000000 0.466072
0.442329 0.000000 0.459724
0.553460 0.000000 0.479683
0.658289 0.000000 0.513085
0.774838 0.000000 0.558282
0.904509 0.000000 0.603571
0.141421 0.095369 0.468208
0.202670 0.077607 0.468055
0.327794 0.000000 0.467933
0.443915 0.000000 0.462531
0.553155 0.000000 0.479805
0.657923 0.000000 0.512902
0.775631 0.000000 0.557855
0.905119 0.000000 0.603540
0.163302 0.255222 0.473274
0.212497 0.245335 0.471839
0.311315 0.204959 0.472023
0.449439 0.157229 0.471015
0.551446 0.000000 0.479805
0.656092 0.000000 0.512383
0.778317 0.000000 0.556481
0.907744 0.000000 0.599420
0.125826 0.371893 0.492622
0.184237 0.368566 0.490730
0.303166 0.356603 0.483619
0.428351 0.319127 0.474983
0.546532 0.277409 0.478279
0.654719 0.224216 0.511467
0.782712 0.044984 0.553094
0.912322 0.000000 0.590997
0.000000 0.528985 0.545006
0.079255 0.524773 0.541955
0.265476 0.509331 0.530785
0.410468 0.479530 0.509178
0.535607 0.429847 0.472724
0.660853 0.397711 0.508202
0.786954 0.350805 0.549798
0.913146 0.277684 0.595789
0.000000 0.718349 0.630732
0.000000 0.714290 0.627131
0.173129 0.699458 0.614130
0.373816 0.671595 0.589746
0.519371 0.625757 0.548272
0.632776 0.577966 0.491585
0.789700 0.493019 0.519738
0.920806 0.422980 0.549065
0.000000 0.853635 0.666804
0.000000 0.851408 0.664851
0.000000 0.843412 0.657923
0.318059 0.828244 0.644617
0.492287 0.802487 0.621973
0.560204 0.769314 0.534874
0.733242 0.734218 0.520867
0.910735 0.668147 0.560235
0.000000 0.975250 0.698421
0.000000 0.974182 0.697353
0.000000 0.970397 0.693629
0.178836 0.963378 0.686549
0.445289 0.949737 0.681666
0.589410 0.930236 0.655482
0.626734 0.916045 0.555322
0.837461 0.894133 0.573510
0.182071 0.000000 0.610834
0.232578 0.000000 0.610864
0.349798 0.000000 0.610803
0.483131 0.000000 0.610651
0.578119 0.000000 0.598260
0.690120 0.000000 0.619043
0.792477 0.000000 0.649073
0.904173 0.000000 0.690761
0.172183 0.070344 0.612207
0.224949 0.025055 0.612116
0.345129 0.000000 0.612024
0.480385 0.000000 0.611872
0.579217 0.000000 0.600244
0.689937 0.000000 0.619226
0.792355 0.000000 0.649073
0.904601 0.000000 0.691585
0.162020 0.240177 0.614923
0.199557 0.226627 0.615229
0.330602 0.202823 0.615106
0.471107 0.149935 0.614984
0.583001 0.000000 0.606622
0.688991 0.000000 0.619806
0.791623 0.000000 0.649134
0.906889 0.000000 0.689998
0.179690 0.395361 0.624781
0.224277 0.393164 0.623346
0.334752 0.375982 0.619013
0.451087 0.329259 0.617762
0.588617 0.289769 0.616083
0.685969 0.218051 0.619806
0.789273 0.066682 0.648676
0.910765 0.000000 0.686366
0.131289 0.517662 0.645045
0.189914 0.515618 0.643763
0.311742 0.507866 0.638941
0.442451 0.493202 0.628870
0.565637 0.453834 0.617487
0.678828 0.407691 0.617548
0.785245 0.349371 0.646845
0.915038 0.218784 0.681331
0.000000 0.685389 0.694057
0.000000 0.682856 0.692439
0.257572 0.673762 0.686305
0.415045 0.656031 0.674250
0.549798 0.626246 0.652949
0.662776 0.568261 0.608270
0.788540 0.539361 0.644587
0.914549 0.499763 0.685420
0.000000 0.863493 0.767910
0.000000 0.861448 0.766232
0.113069 0.854032 0.760311
0.362615 0.840238 0.749264
0.521965 0.818082 0.729702
0.652430 0.776944 0.690455
0.757687 0.728267 0.628626
0.915160 0.650355 0.661067
0.000000 0.979736 0.783993
0.000000 0.978729 0.783230
0.000000 0.975036 0.780392
0.252049 0.968200 0.775418
0.462867 0.957305 0.767330
0.626673 0.939178 0.754086
0.692256 0.916991 0.677272
0.856809 0.890929 0.666133
0.200381 0.000000 0.755856
0.246403 0.000000 0.755856
0.359350 0.000000 0.755764
0.492592 0.000000 0.755642
0.622675 0.000000 0.753719
0.709987 0.000000 0.739193
0.822080 0.000000 0.759548
0.921935 0.000000 0.783413
0.193210 0.000000 0.756863
0.240726 0.000000 0.756802
0.355413 0.000000 0.756710
0.489876 0.000000 0.756527
0.623438 0.000000 0.755276
0.710567 0.000000 0.740627
0.822049 0.000000 0.759915
0.922423 0.000000 0.784329
0.175174 0.228946 0.759457
0.226719 0.222232 0.759426
0.345678 0.196780 0.759335
0.482399 0.136416 0.759213
0.621424 0.000000 0.759030
0.712856 0.000000 0.745327
0.821805 0.000000 0.761013
0.923095 0.000000 0.785397
0.243656 0.410803 0.762692
0.280858 0.406012 0.762112
0.353826 0.375738 0.761593
0.470741 0.337774 0.762203
0.610681 0.294835 0.762234
0.716762 0.219608 0.752743
0.820523 0.000000 0.762417
0.922972 0.000000 0.785977
0.201419 0.540124 0.775204
0.243442 0.539269 0.774411
0.349401 0.536095 0.771420
0.476631 0.525383 0.765530
0.592187 0.476051 0.764187
0.722377 0.436622 0.762203
0.816342 0.356786 0.762997
0.920317 0.227207 0.786831
0.132235 0.670863 0.791775
0.193423 0.669856 0.791196
0.320104 0.666316 0.788998
0.455482 0.659327 0.784268
0.581201 0.645716 0.775051
0.698787 0.605982 0.763607
0.807187 0.554803 0.760678
0.913695 0.486122 0.786648
0.000000 0.833890 0.830503
0.000000 0.832700 0.829892
0.249271 0.828458 0.827695
0.416114 0.820493 0.823423
0.560113 0.807034 0.815396
0.686793 0.782254 0.798306
0.787045 0.719295 0.748470
0.913542 0.692775 0.785214
0.000000 0.984985 0.882628
0.000000 0.983978 0.881926
0.000000 0.980407 0.879576
0.329961 0.973846 0.875425
0.511467 0.963897 0.868772
0.659083 0.949493 0.857328
0.781399 0.923491 0.830716
0.880613 0.886168 0.771725
0.203708 0.000000 0.892790
0.247440 0.000000 0.892760
0.356756 0.000000 0.892668
0.488533 0.000000 0.892424
0.626001 0.000000 0.892119
0.741573 0.000000 0.887755
0.835203 0.000000 0.877653
0.947112 0.000000 0.894713
0.198367 0.000000 0.893492
0.242985 0.000000 0.893431
0.353368 0.000000 0.893309
0.485817 0.000000 0.893095
0.623713 0.000000 0.892790
0.741512 0.000000 0.888731
0.835019 0.000000 0.878630
0.947478 0.000000 0.895689
0.195682 0.216922 0.895354
0.239689 0.209262 0.895323
0.349096 0.178195 0.895232
0.480598 0.089113 0.895048
0.618097 0.000000 0.894774
0.742794 0.000000 0.891966
0.835325 0.000000 0.881682
0.948394 0.000000 0.898558
0.301640 0.416632 0.896086
0.303624 0.401465 0.896635
0.354833 0.366735 0.897490
0.479286 0.336431 0.897429
0.612085 0.282750 0.897337
0.747524 0.176486 0.897093
0.836332 0.000000 0.886534
0.948150 0.000000 0.900450
0.264195 0.567773 0.900969
0.298039 0.568231 0.900542
0.397559 0.561913 0.899504
0.518303 0.543847 0.897826
0.607050 0.487282 0.899504
0.737392 0.439796 0.899626
0.838743 0.351293 0.892393
0.945525 0.171420 0.902098
0.211429 0.684504 0.910277
0.253727 0.684565 0.909972
0.360540 0.684871 0.908782
0.483406 0.683894 0.906401
0.608331 0.678767 0.902220
0.722011 0.630823 0.901946
0.843870 0.587182 0.900023
0.938872 0.494118 0.902495
0.050141 0.812345 0.919982
0.159182 0.812100 0.919829
0.306462 0.811093 0.919188
0.450019 0.809049 0.917876
0.587213 0.805631 0.915496
0.713039 0.798703 0.910613
0.825772 0.766293 0.904051
0.928740 0.708675 0.901640
0.000000 0.959380 0.943023
0.000000 0.958831 0.942901
0.171115 0.956817 0.942351
0.386389 0.953124 0.941344
0.550958 0.947662 0.939727
0.694667 0.940032 0.936950
0.818387 0.927581 0.930358
0.909209 0.878294 0.891661
