其他预设/【213】赛博朋克科幻预设52款/1.LUT预设（视频调色-PR-AE-PS-FCPX-达芬奇用）/赛博朋克科幻__-5 强度4.cube
# Created by Adobe Lightroom plugin Export LUT (1.17.0)
# www.johnrellis.com/lightroom/exportlut.htm
# Preset: 赛博朋克科幻[素锦印象]-5 强度4
# Color profile: /Library/Application Support/Adobe/Color/Profiles/Recommended/AdobeRGB1998.icc
LUT_3D_SIZE 8
DOMAIN_MIN 0.000000 0.000000 0.000000
DOMAIN_MAX 0.903226 0.903226 0.903226
0.073732 0.071809 0.060517
0.115145 0.065461 0.073915
0.219852 0.000000 0.112123
0.408209 0.000000 0.189975
0.624262 0.000000 0.290898
0.786770 0.000000 0.377691
0.908843 0.000000 0.451453
1.000000 0.000000 0.517205
0.034577 0.132815 0.099428
0.099641 0.115663 0.061799
0.215671 0.000000 0.099275
0.403388 0.000000 0.187869
0.621271 0.000000 0.289433
0.785580 0.000000 0.377020
0.908446 0.000000 0.451179
1.000000 0.000000 0.517144
0.000000 0.332769 0.239231
0.000000 0.313725 0.209140
0.174166 0.232059 0.021790
0.396307 0.000000 0.077638
0.615839 0.000000 0.239994
0.782315 0.000000 0.365698
0.907164 0.000000 0.450294
1.000000 0.000000 0.517113
0.000000 0.625238 0.503868
0.000000 0.622339 0.482979
0.000000 0.552728 0.341039
0.313603 0.439612 0.000000
0.603906 0.133364 0.007691
0.785763 0.000000 0.221103
0.911254 0.000000 0.369696
1.000000 0.000000 0.495247
0.000000 0.808225 0.710353
0.000000 0.812131 0.701259
0.000000 0.805539 0.640009
0.000000 0.739437 0.430396
0.457893 0.646265 0.000000
0.775998 0.341650 0.000000
0.918059 0.000000 0.136965
1.000000 0.000000 0.348302
0.000000 0.909453 0.832975
0.000000 0.914183 0.829129
0.000000 0.931945 0.813901
0.000000 0.905089 0.704005
0.000000 0.859770 0.476539
0.567681 0.793210 0.000000
0.902983 0.505211 0.000000
1.000000 0.112398 0.200595
0.000000 0.981201 0.916258
0.000000 0.981750 0.915648
0.000000 0.997833 0.909361
0.000000 1.000000 0.864408
0.000000 0.975372 0.748104
0.000000 0.951293 0.523369
0.665492 0.902708 0.000000
0.998383 0.650538 0.182193
0.000000 1.000000 0.975067
0.000000 1.000000 0.974975
0.000000 1.000000 0.973877
0.000000 1.000000 0.962829
0.000000 1.000000 0.900969
0.365515 1.000000 0.803372
0.288212 1.000000 0.605615
0.770779 0.986542 0.290776
0.067201 0.080049 0.085512
0.107668 0.062440 0.092042
0.231296 0.000000 0.139925
0.416022 0.000000 0.217838
0.624964 0.000000 0.304936
0.785122 0.000000 0.376745
0.908537 0.000000 0.451179
1.000000 0.000000 0.517357
0.060700 0.103151 0.097292
0.111055 0.107362 0.085328
0.219699 0.019562 0.127840
0.416846 0.000000 0.225376
0.625940 0.000000 0.314458
0.784878 0.000000 0.380743
0.908232 0.000000 0.451026
1.000000 0.000000 0.517357
0.000000 0.300847 0.233494
0.000000 0.284672 0.204929
0.177249 0.222873 0.073365
0.395544 0.000000 0.122988
0.614343 0.000000 0.262516
0.782742 0.000000 0.385657
0.907256 0.000000 0.452216
1.000000 0.000000 0.517327
0.000000 0.603113 0.498634
0.000000 0.597559 0.475288
0.000000 0.544366 0.353918
0.314672 0.432593 0.000000
0.606012 0.103243 0.079683
0.784939 0.000000 0.247501
0.910216 0.000000 0.387396
1.000000 0.000000 0.495064
0.000000 0.795438 0.708766
0.000000 0.799344 0.699886
0.000000 0.803647 0.652064
0.000000 0.736690 0.444068
0.460273 0.642664 0.000000
0.775662 0.336400 0.019989
0.917113 0.000000 0.180423
1.000000 0.000000 0.368078
0.000000 0.901732 0.833127
0.000000 0.906401 0.829343
0.000000 0.924132 0.814298
0.000000 0.904692 0.715206
0.000000 0.858366 0.489784
0.572198 0.791257 0.000000
0.902464 0.505760 0.089906
1.000000 0.141970 0.225834
0.000000 0.974578 0.917205
0.000000 0.976562 0.916228
0.000000 0.992554 0.910033
0.000000 1.000000 0.871977
0.000000 0.973663 0.758846
0.000000 0.949920 0.536522
0.671046 0.901396 0.000000
0.997467 0.653559 0.219760
0.000000 1.000000 0.975616
0.000000 1.000000 0.975494
0.000000 1.000000 0.974395
0.000000 1.000000 0.968200
0.000000 1.000000 0.906157
0.397498 1.000000 0.812100
0.324651 1.000000 0.618128
0.776181 0.985534 0.316991
0.000000 0.117342 0.162783
0.010163 0.079744 0.153597
0.203769 0.000000 0.176059
0.432837 0.000000 0.296483
0.650843 0.000000 0.404944
0.797055 0.000000 0.467750
0.912016 0.000000 0.496040
1.000000 0.000000 0.518517
0.000000 0.154147 0.174594
0.063172 0.118349 0.162264
0.196109 0.003021 0.172274
0.426551 0.000000 0.300755
0.646540 0.000000 0.414496
0.797208 0.000000 0.475471
0.912139 0.000000 0.501915
1.000000 0.000000 0.518517
0.000000 0.226658 0.223606
0.000000 0.210483 0.203311
0.207462 0.199222 0.148196
0.409033 0.023346 0.232700
0.630823 0.000000 0.355932
0.793362 0.000000 0.464332
0.912322 0.000000 0.523339
1.000000 0.000000 0.532616
0.000000 0.539208 0.505547
0.000000 0.532982 0.481514
0.000000 0.519402 0.399115
0.328313 0.412421 0.120668
0.612940 0.000000 0.180453
0.781338 0.000000 0.335668
0.905974 0.000000 0.452918
1.000000 0.000000 0.545220
0.000000 0.756405 0.715236
0.000000 0.758663 0.704768
0.000000 0.769802 0.666011
0.000000 0.729213 0.502617
0.474434 0.630243 0.014221
0.773831 0.330266 0.189273
0.912657 0.000000 0.294804
1.000000 0.000000 0.438514
0.000000 0.875395 0.837064
0.000000 0.879454 0.832731
0.000000 0.895933 0.817136
0.000000 0.904662 0.755795
0.000000 0.853239 0.540246
0.590295 0.784237 0.059571
0.899809 0.513298 0.229526
1.000000 0.221683 0.303136
0.000000 0.953552 0.920531
0.000000 0.957671 0.918853
0.000000 0.973449 0.912810
0.000000 1.000000 0.899290
0.193790 0.968841 0.795407
0.179843 0.944854 0.584375
0.691463 0.896696 0.206729
0.993591 0.665980 0.323186
0.000000 1.000000 0.977508
0.000000 1.000000 0.977417
0.000000 1.000000 0.976410
0.000000 1.000000 0.971374
0.000000 1.000000 0.924712
0.485481 1.000000 0.840696
0.423835 1.000000 0.660304
0.793820 0.982147 0.394476
0.000000 0.222019 0.366247
0.000000 0.176181 0.349584
0.133791 0.000000 0.295872
0.388098 0.000000 0.352453
0.645747 0.000000 0.514977
0.801450 0.000000 0.575982
0.919310 0.000000 0.597803
1.000000 0.000000 0.586053
0.000000 0.240299 0.377417
0.000000 0.196231 0.361913
0.120211 0.008057 0.310277
0.380438 0.000000 0.353704
0.635218 0.000000 0.515160
0.799069 0.000000 0.584009
0.919158 0.000000 0.604639
1.000000 0.000000 0.589075
0.000000 0.358923 0.426398
0.000000 0.345830 0.411688
0.000000 0.223331 0.342473
0.366888 0.000000 0.334783
0.634943 0.000000 0.500267
0.794583 0.000000 0.586572
0.918059 0.000000 0.626123
1.000000 0.000000 0.602960
0.000000 0.454719 0.507042
0.000000 0.442725 0.488075
0.000000 0.401099 0.417578
0.388403 0.373449 0.281254
0.617762 0.244877 0.386145
0.787594 0.000000 0.484901
0.913817 0.000000 0.566522
1.000000 0.000000 0.632197
0.000000 0.668940 0.728756
0.000000 0.670893 0.719173
0.000000 0.681147 0.682429
0.000000 0.706874 0.598810
0.516747 0.606470 0.272801
0.774929 0.347143 0.325719
0.900816 0.267247 0.456794
0.997589 0.158572 0.559991
0.000000 0.822293 0.846067
0.000000 0.826230 0.842069
0.000000 0.841917 0.826993
0.000000 0.873808 0.794125
0.330571 0.843290 0.639246
0.629664 0.770748 0.296117
0.892271 0.542260 0.381598
1.000000 0.381659 0.445960
0.000000 0.917021 0.926238
0.000000 0.921050 0.924712
0.000000 0.936431 0.919097
0.000000 0.966217 0.906798
0.225498 0.971130 0.848814
0.420996 0.935760 0.669276
0.727169 0.888121 0.368902
0.985870 0.689387 0.456550
0.000000 0.989837 0.981048
0.000000 0.990570 0.980987
0.000000 0.997192 0.980163
0.000000 1.000000 0.975891
0.000000 1.000000 0.959167
0.593011 1.000000 0.885374
0.540856 1.000000 0.725490
0.819211 0.976928 0.494026
0.000000 0.330205 0.627619
0.000000 0.294682 0.616144
0.000000 0.123537 0.573724
0.300328 0.000000 0.491005
0.564874 0.000000 0.568658
0.770382 0.000000 0.686549
0.912932 0.000000 0.721096
1.000000 0.000000 0.700252
0.000000 0.325719 0.634607
0.000000 0.290043 0.624018
0.000000 0.119295 0.584009
0.295079 0.000000 0.504387
0.558923 0.000000 0.570184
0.761685 0.000000 0.685573
0.911894 0.000000 0.726375
1.000000 0.000000 0.703090
0.000000 0.464271 0.670314
0.000000 0.432837 0.650202
0.000000 0.304997 0.609644
0.228885 0.000000 0.534112
0.545312 0.000000 0.566217
0.737118 0.000000 0.682429
0.908507 0.000000 0.743526
1.000000 0.000000 0.711391
0.000000 0.532341 0.688838
0.000000 0.527550 0.682094
0.000000 0.512230 0.655695
0.250187 0.401678 0.569879
0.543542 0.139773 0.537133
0.781949 0.000000 0.675013
0.910338 0.000000 0.722621
1.000000 0.000000 0.718563
0.000000 0.602441 0.736629
0.000000 0.598993 0.729030
0.000000 0.587945 0.698970
0.188418 0.577600 0.628748
0.585565 0.568292 0.467231
0.766537 0.471992 0.555016
0.901946 0.291997 0.620874
1.000000 0.000000 0.663569
0.000000 0.723598 0.860349
0.000000 0.727077 0.856931
0.000000 0.741878 0.843656
0.000000 0.778378 0.814206
0.422431 0.829526 0.752621
0.683375 0.750546 0.476783
0.885893 0.578149 0.522148
0.984710 0.537011 0.617548
0.000000 0.854826 0.935180
0.000000 0.858579 0.933898
0.000000 0.873381 0.929046
0.000000 0.904875 0.918364
0.227970 0.949615 0.896727
0.597253 0.926574 0.776638
0.768338 0.876677 0.517540
0.976501 0.714961 0.583703
0.000000 0.942992 0.986450
0.000000 0.943725 0.986419
0.000000 0.951965 0.985473
0.000000 0.977905 0.982238
0.000000 1.000000 0.974548
0.597772 1.000000 0.931518
0.654200 0.998749 0.804135
0.847471 0.970520 0.596094
0.000000 0.397284 0.805173
0.000000 0.373114 0.799924
0.000000 0.273960 0.779995
0.000000 0.000000 0.736751
0.439246 0.000000 0.665766
0.681422 0.000000 0.736049
0.863676 0.000000 0.824308
1.000000 0.000000 0.834470
0.000000 0.390265 0.808347
0.000000 0.367285 0.803311
0.000000 0.271397 0.784268
0.000000 0.000000 0.742428
0.433661 0.000000 0.673396
0.677150 0.000000 0.737209
0.858610 0.000000 0.824155
1.000000 0.000000 0.837064
0.000000 0.473152 0.820859
0.000000 0.450050 0.816312
0.000000 0.357885 0.798734
0.000000 0.087556 0.761166
0.409033 0.000000 0.696651
0.662043 0.000000 0.741451
0.841550 0.000000 0.823819
1.000000 0.000000 0.845029
0.000000 0.594659 0.849058
0.000000 0.593469 0.846799
0.000000 0.577813 0.829129
0.000000 0.443488 0.784085
0.348943 0.192996 0.721309
0.657984 0.000000 0.733883
0.830442 0.000000 0.823453
1.000000 0.000000 0.854704
0.000000 0.633570 0.848539
0.000000 0.633173 0.846250
0.000000 0.636561 0.836851
0.249943 0.662959 0.814420
0.538140 0.619165 0.745022
0.685176 0.375341 0.708186
0.890745 0.000000 0.819181
1.000000 0.000000 0.839139
0.000000 0.685542 0.874693
0.000000 0.685389 0.872099
0.000000 0.687770 0.861906
0.000000 0.705379 0.838132
0.521202 0.736934 0.787503
0.735988 0.721859 0.643885
0.875151 0.650324 0.712459
0.987396 0.507500 0.752102
0.000000 0.750820 0.948119
0.000000 0.754116 0.947143
0.000000 0.768002 0.943236
0.000000 0.803799 0.934173
0.374823 0.866087 0.915160
0.659876 0.919951 0.875517
0.810056 0.861540 0.658228
0.969848 0.738094 0.694667
0.000000 0.871641 0.993988
0.000000 0.872282 0.993957
0.000000 0.881804 0.993011
0.000000 0.906493 0.990356
0.000000 0.951415 0.983642
0.546319 1.000000 0.970764
0.767788 0.989929 0.892271
0.878019 0.962463 0.702052
0.000000 0.446113 0.923278
0.000000 0.429572 0.921019
0.000000 0.364843 0.912535
0.000000 0.193790 0.895018
0.000000 0.000000 0.861082
0.557794 0.000000 0.818326
0.769833 0.000000 0.864958
0.945556 0.000000 0.937469
0.000000 0.443488 0.924773
0.000000 0.427466 0.922576
0.000000 0.364477 0.914366
0.000000 0.197482 0.897276
0.000000 0.000000 0.864073
0.551476 0.000000 0.819394
0.766903 0.000000 0.865629
0.943206 0.000000 0.937682
0.000000 0.473274 0.931304
0.000000 0.455787 0.929229
0.000000 0.387915 0.921386
0.000000 0.216251 0.905180
0.000000 0.000000 0.874235
0.528069 0.000000 0.823972
0.756680 0.000000 0.868101
0.935607 0.000000 0.938506
0.000000 0.614252 0.947967
0.000000 0.608515 0.944457
0.000000 0.579004 0.932555
0.000000 0.448768 0.918822
0.000000 0.175631 0.891600
0.485969 0.000000 0.844297
0.738582 0.000000 0.872496
0.924926 0.000000 0.940307
0.000000 0.665919 0.952056
0.000000 0.668299 0.951476
0.000000 0.686610 0.948425
0.411810 0.742611 0.938140
0.485420 0.648280 0.903899
0.499306 0.393744 0.861631
0.743130 0.000000 0.868864
0.911437 0.000000 0.942992
0.000000 0.696925 0.949462
0.000000 0.698177 0.948882
0.000000 0.708492 0.946258
0.215396 0.750027 0.938445
0.625727 0.816342 0.923735
0.747494 0.793545 0.878172
0.803189 0.577966 0.844175
0.977722 0.000000 0.940032
0.000000 0.735805 0.962707
0.000000 0.736507 0.962066
0.000000 0.741421 0.959380
0.000000 0.765377 0.952178
0.497200 0.820676 0.935912
0.740780 0.864134 0.905486
0.848936 0.839811 0.791379
0.960967 0.780545 0.844938
0.000000 0.777981 1.000000
0.000000 0.778073 1.000000
0.000000 0.780270 1.000000
0.000000 0.794522 1.000000
0.000000 0.853391 0.994385
0.613886 0.930938 0.981903
0.811246 0.983276 0.964202
0.909148 0.951873 0.808499
0.000000 0.483650 0.998505
0.000000 0.472267 0.997803
0.000000 0.428382 0.995056
0.000000 0.330510 0.989288
0.000000 0.000000 0.977996
0.290929 0.000000 0.955291
0.654292 0.000000 0.938598
0.844572 0.000000 0.967803
0.000000 0.484382 0.999176
0.000000 0.473182 0.998474
0.000000 0.430182 0.995789
0.000000 0.334020 0.990173
0.000000 0.000000 0.979248
0.277470 0.000000 0.956817
0.649805 0.000000 0.939025
0.842832 0.000000 0.968170
0.000000 0.491279 1.000000
0.000000 0.480659 1.000000
0.000000 0.439857 0.998535
0.000000 0.349523 0.993347
0.000000 0.052186 0.983581
0.218601 0.000000 0.962066
0.632959 0.000000 0.940581
0.836790 0.000000 0.969421
0.000000 0.587854 1.000000
0.000000 0.574029 1.000000
0.000000 0.522698 1.000000
0.000000 0.418769 0.999359
0.000000 0.187076 0.990417
0.000000 0.000000 0.971221
0.598047 0.000000 0.943053
0.826169 0.000000 0.971710
0.000000 0.677333 1.000000
0.000000 0.681514 1.000000
0.000000 0.704860 1.000000
0.454597 0.744747 0.996216
0.098085 0.573022 0.994324
0.000000 0.219730 0.983948
0.535271 0.000000 0.954467
0.808988 0.000000 0.975067
0.000000 0.700801 1.000000
0.000000 0.701869 1.000000
0.000000 0.713375 1.000000
0.253605 0.771878 1.000000
0.696071 0.865507 0.995117
0.708644 0.800595 0.979889
0.619501 0.537652 0.961547
0.801999 0.000000 0.976257
0.000000 0.729641 1.000000
0.000000 0.729732 1.000000
0.000000 0.731899 1.000000
0.000000 0.756283 1.000000
0.533043 0.840146 0.996277
0.814328 0.916564 0.987457
0.885039 0.911833 0.969055
0.892271 0.712184 0.951873
0.000000 0.763302 1.000000
0.000000 0.763210 1.000000
0.000000 0.763333 1.000000
0.000000 0.768887 1.000000
0.000000 0.814969 1.000000
0.683345 0.897368 0.993530
0.877379 0.947845 0.980987
0.939239 0.935363 0.915190
