其他预设/【213】赛博朋克科幻预设52款/1.LUT预设（视频调色-PR-AE-PS-FCPX-达芬奇用）/赛博朋克科幻__-4 强度2.cube
# Created by Adobe Lightroom plugin Export LUT (1.17.0)
# www.johnrellis.com/lightroom/exportlut.htm
# Preset: 赛博朋克科幻[素锦印象]-4 强度2
# Color profile: /Library/Application Support/Adobe/Color/Profiles/Recommended/AdobeRGB1998.icc
LUT_3D_SIZE 5
DOMAIN_MIN 0.000000 0.000000 0.000000
DOMAIN_MAX 0.903226 0.903226 0.903226
0.000000 0.000000 0.000000
0.196109 0.000000 0.093965
0.446906 0.000000 0.207797
0.708034 0.000000 0.325444
0.929900 0.000000 0.426459
0.121706 0.219486 0.000000
0.217319 0.206424 0.000000
0.464942 0.000000 0.100313
0.711696 0.000000 0.296727
0.928954 0.000000 0.422339
0.287022 0.519921 0.000000
0.360662 0.518090 0.000000
0.537438 0.509697 0.000000
0.753994 0.359991 0.163455
0.956390 0.000000 0.272190
0.426612 0.775723 0.000000
0.475410 0.775113 0.000000
0.622461 0.772427 0.000000
0.807553 0.766354 0.000000
0.969451 0.636103 0.281010
0.525109 0.963989 0.000000
0.558618 0.963287 0.000000
0.665858 0.960388 0.000000
0.827024 0.953948 0.000000
0.994995 0.945220 0.000000
0.000000 0.062379 0.169131
0.194308 0.000000 0.181064
0.455055 0.000000 0.264927
0.710994 0.000000 0.366491
0.931914 0.000000 0.453742
0.023743 0.206546 0.146517
0.195804 0.193668 0.182284
0.450782 0.090669 0.256565
0.709712 0.000000 0.356786
0.930846 0.000000 0.450874
0.196292 0.512291 0.000000
0.319371 0.502770 0.134585
0.519829 0.496315 0.174075
0.745846 0.353429 0.270787
0.948150 0.000000 0.369879
0.388190 0.772457 0.000000
0.452918 0.769955 0.000000
0.608942 0.767788 0.007843
0.800870 0.762722 0.184268
0.963470 0.647181 0.384680
0.510277 0.963867 0.000000
0.546014 0.963104 0.000000
0.658534 0.960052 0.000000
0.825559 0.953307 0.000000
0.991974 0.944976 0.244602
0.000000 0.108705 0.386481
0.215702 0.082643 0.387823
0.450202 0.000000 0.414893
0.725887 0.000000 0.472847
0.941405 0.000000 0.531548
0.082704 0.292790 0.390936
0.183566 0.224369 0.397162
0.452613 0.132601 0.417090
0.725551 0.000000 0.467384
0.941466 0.000000 0.526604
0.000000 0.480751 0.327337
0.183627 0.475410 0.345861
0.454627 0.448951 0.418280
0.708827 0.395331 0.482094
0.928679 0.311070 0.553033
0.000000 0.770047 0.000000
0.262272 0.764797 0.191562
0.571466 0.747402 0.417487
0.774716 0.748196 0.474769
0.947417 0.670222 0.563470
0.377081 0.968627 0.000000
0.455421 0.965728 0.112032
0.651118 0.956298 0.372992
0.820462 0.950347 0.436194
0.982025 0.944182 0.517296
0.000000 0.178195 0.621576
0.191318 0.161563 0.621881
0.480903 0.048829 0.622889
0.708125 0.000000 0.650385
0.945769 0.000000 0.674311
0.000000 0.335332 0.623163
0.151858 0.275395 0.625696
0.475105 0.233494 0.626184
0.708705 0.000000 0.650813
0.947906 0.000000 0.668971
0.062531 0.582330 0.620691
0.256565 0.568658 0.623499
0.461402 0.486030 0.633936
0.708095 0.414160 0.649928
0.951873 0.000000 0.652888
0.000000 0.746761 0.509667
0.188785 0.742702 0.523278
0.464332 0.726467 0.572137
0.706233 0.697078 0.647578
0.924804 0.657954 0.698146
0.000000 0.971832 0.265690
0.113771 0.970428 0.301762
0.488838 0.961883 0.448157
0.801938 0.944060 0.656641
0.968536 0.942596 0.713375
0.000000 0.304662 0.832395
0.225834 0.296666 0.832364
0.493202 0.262455 0.832334
0.731350 0.154665 0.833829
0.933288 0.000000 0.856016
0.142733 0.412512 0.831449
0.239292 0.383368 0.832486
0.495460 0.356146 0.832486
0.734035 0.296056 0.832822
0.933379 0.000000 0.856016
0.381415 0.662013 0.825284
0.448829 0.653132 0.826322
0.508537 0.560693 0.832547
0.731930 0.521508 0.833097
0.931853 0.303166 0.854368
0.232792 0.853178 0.823148
0.340459 0.843961 0.824094
0.547143 0.812894 0.827359
0.719966 0.733669 0.835935
0.927245 0.659937 0.849607
0.000000 0.976837 0.668238
0.184360 0.973693 0.678584
0.468605 0.961578 0.716152
0.709407 0.940551 0.775418
0.924498 0.912291 0.846403
