其他预设/【213】赛博朋克科幻预设52款/1.LUT预设（视频调色-PR-AE-PS-FCPX-达芬奇用）/赛博朋克科幻__-11 强度5.cube
# Created by Adobe Lightroom plugin Export LUT (1.17.0)
# www.johnrellis.com/lightroom/exportlut.htm
# Preset: 赛博朋克科幻[素锦印象]-11 强度5
# Color profile: /Library/Application Support/Adobe/Color/Profiles/Recommended/AdobeRGB1998.icc
LUT_3D_SIZE 5
DOMAIN_MIN 0.000000 0.000000 0.000000
DOMAIN_MAX 0.903226 0.903226 0.903226
0.000000 0.000000 0.000000
0.230442 0.000000 0.113252
0.457008 0.000000 0.234562
0.677302 0.000000 0.400122
0.891356 0.000000 0.595117
0.000000 0.211063 0.223728
0.151583 0.134157 0.095644
0.442603 0.000000 0.245243
0.669551 0.000000 0.410651
0.888365 0.000000 0.605371
0.000000 0.580621 0.581903
0.000000 0.521172 0.512657
0.312261 0.301854 0.194522
0.682765 0.000000 0.411231
0.877958 0.000000 0.639582
0.000000 0.884459 0.827726
0.000000 0.867613 0.803769
0.203891 0.778958 0.699153
0.468147 0.571832 0.338262
0.898222 0.287510 0.601038
0.000000 1.000000 0.951415
0.000000 1.000000 0.953979
0.000000 1.000000 0.922210
0.646509 0.972198 0.871153
0.694301 0.893065 0.612238
0.098268 0.000000 0.106538
0.230533 0.000000 0.140505
0.446509 0.000000 0.261967
0.669886 0.000000 0.426184
0.889982 0.000000 0.614252
0.000000 0.166781 0.212924
0.250095 0.091768 0.146914
0.442237 0.000000 0.267826
0.663508 0.000000 0.434180
0.887327 0.000000 0.623499
0.000000 0.560052 0.586938
0.000000 0.506737 0.526146
0.365484 0.285222 0.232395
0.680873 0.000000 0.435615
0.877745 0.000000 0.655085
0.000000 0.882567 0.839231
0.000000 0.864836 0.816098
0.263279 0.777096 0.714809
0.502922 0.563806 0.369909
0.898100 0.326452 0.628077
0.000000 1.000000 0.961181
0.000000 1.000000 0.962524
0.000000 1.000000 0.930877
0.654170 0.973358 0.879515
0.708095 0.890867 0.627497
0.229221 0.000000 0.247044
0.316014 0.000000 0.244022
0.467384 0.000000 0.323156
0.668940 0.000000 0.481483
0.891630 0.000000 0.665370
0.217899 0.159335 0.284062
0.334997 0.000000 0.282902
0.469642 0.000000 0.330816
0.661463 0.000000 0.488228
0.890318 0.000000 0.671626
0.000000 0.461921 0.595666
0.182467 0.419593 0.546075
0.493080 0.226963 0.336187
0.678126 0.000000 0.498695
0.883299 0.000000 0.696559
0.000000 0.835538 0.850889
0.000000 0.828763 0.837613
0.363073 0.783932 0.774044
0.593805 0.539239 0.457710
0.899321 0.389746 0.700771
0.000000 1.000000 0.980713
0.000000 1.000000 0.979675
0.000000 1.000000 0.962707
0.666102 0.980774 0.908110
0.747616 0.884611 0.671901
0.364141 0.000000 0.491188
0.464576 0.000000 0.492775
0.530877 0.000000 0.446754
0.698817 0.000000 0.573236
0.894621 0.000000 0.748592
0.322972 0.025422 0.517327
0.446571 0.000000 0.519524
0.550744 0.000000 0.481575
0.699123 0.000000 0.580285
0.893523 0.000000 0.754055
0.263401 0.401495 0.616693
0.380255 0.390723 0.601373
0.605249 0.268345 0.567956
0.711482 0.000000 0.597284
0.891722 0.000000 0.770199
0.000000 0.742336 0.878782
0.000000 0.738766 0.867948
0.527031 0.714534 0.820218
0.716152 0.492744 0.587396
0.903441 0.291020 0.777218
0.000000 0.973816 0.990295
0.000000 0.978058 0.988891
0.000000 0.992279 0.983246
0.652735 1.000000 0.963348
0.811154 0.872862 0.745357
0.461158 0.000000 0.806668
0.552880 0.000000 0.805875
0.709804 0.000000 0.788266
0.794369 0.000000 0.761959
0.918486 0.000000 0.851926
0.438025 0.000000 0.819120
0.534508 0.000000 0.817990
0.710842 0.000000 0.803647
0.791226 0.000000 0.766537
0.918303 0.000000 0.854826
0.441260 0.543694 0.848051
0.541253 0.501274 0.841978
0.698878 0.277562 0.844572
0.782071 0.000000 0.790402
0.917693 0.000000 0.864805
0.202121 0.712520 0.926757
0.374945 0.719417 0.922911
0.632013 0.733333 0.905211
0.839322 0.633906 0.872190
0.921538 0.201541 0.880827
0.000000 0.874235 1.000000
0.000000 0.879850 1.000000
0.428046 0.905028 1.000000
0.790219 0.941527 0.989563
0.918120 0.840696 0.872984
