其他预设/【213】赛博朋克科幻预设52款/1.LUT预设（视频调色-PR-AE-PS-FCPX-达芬奇用）/赛博朋克科幻__-3 强度5.cube
# Created by Adobe Lightroom plugin Export LUT (1.17.0)
# www.johnrellis.com/lightroom/exportlut.htm
# Preset: 赛博朋克科幻[素锦印象]-3 强度5
# Color profile: /Library/Application Support/Adobe/Color/Profiles/Recommended/AdobeRGB1998.icc
LUT_3D_SIZE 32
0.075685 0.103792 0.132601
0.079164 0.103548 0.134127
0.084169 0.103334 0.136080
0.094179 0.103243 0.140719
0.108614 0.102327 0.147585
0.126833 0.100526 0.156893
0.149996 0.096681 0.169009
0.179477 0.088655 0.184817
0.217258 0.071473 0.205020
0.265324 0.000000 0.230442
0.324315 0.000000 0.260472
0.391394 0.000000 0.293370
0.463752 0.000000 0.327886
0.537407 0.000000 0.362463
0.607843 0.000000 0.395209
0.670619 0.000000 0.424537
0.724636 0.000000 0.450080
0.770718 0.000000 0.472297
0.810147 0.000000 0.491737
0.845060 0.000000 0.509392
0.876341 0.000000 0.525566
0.904570 0.000000 0.540581
0.930114 0.000000 0.554467
0.953185 0.000000 0.567376
0.974151 0.000000 0.579492
0.993286 0.000000 0.590936
1.000000 0.000000 0.601984
1.000000 0.000000 0.612696
1.000000 0.000000 0.623316
1.000000 0.000000 0.633936
1.000000 0.000000 0.644800
1.000000 0.000000 0.655970
0.072602 0.109773 0.136538
0.076143 0.108125 0.133028
0.084291 0.103914 0.134371
0.093965 0.103029 0.140566
0.108095 0.102419 0.147433
0.126223 0.100679 0.156466
0.149355 0.096620 0.168643
0.178561 0.088746 0.184237
0.216281 0.072145 0.204532
0.264439 0.001373 0.229984
0.323278 0.000000 0.259953
0.390448 0.000000 0.293004
0.462837 0.000000 0.327489
0.536553 0.000000 0.362036
0.607172 0.000000 0.394903
0.670069 0.000000 0.424262
0.724147 0.000000 0.449836
0.770352 0.000000 0.472114
0.809842 0.000000 0.491554
0.844846 0.000000 0.509270
0.876188 0.000000 0.525475
0.904448 0.000000 0.540520
0.929992 0.000000 0.554437
0.953124 0.000000 0.567346
0.974090 0.000000 0.579461
0.993225 0.000000 0.590967
1.000000 0.000000 0.601953
1.000000 0.000000 0.612696
1.000000 0.000000 0.623285
1.000000 0.000000 0.633936
1.000000 0.000000 0.644800
1.000000 0.000000 0.655970
0.068238 0.117403 0.141665
0.072724 0.115999 0.139590
0.076814 0.114290 0.133822
0.094362 0.104433 0.136538
0.107576 0.102571 0.146365
0.125460 0.100618 0.156039
0.148348 0.096925 0.168124
0.177462 0.089204 0.183658
0.215061 0.072938 0.203922
0.263066 0.003754 0.229313
0.321813 0.000000 0.259220
0.389075 0.000000 0.292271
0.461463 0.000000 0.326879
0.535393 0.000000 0.361486
0.606104 0.000000 0.394354
0.669368 0.000000 0.423957
0.723568 0.000000 0.449561
0.769894 0.000000 0.471870
0.809506 0.000000 0.491463
0.844572 0.000000 0.509087
0.876005 0.000000 0.525383
0.904326 0.000000 0.540429
0.929870 0.000000 0.554345
0.953033 0.000000 0.567315
0.974029 0.000000 0.579431
0.993194 0.000000 0.590936
1.000000 0.000000 0.601923
1.000000 0.000000 0.612665
1.000000 0.000000 0.623285
1.000000 0.000000 0.633936
1.000000 0.000000 0.644800
1.000000 0.000000 0.655970
0.054261 0.134188 0.152865
0.059266 0.132753 0.151461
0.070008 0.130434 0.147921
0.079042 0.126436 0.135470
0.108034 0.106691 0.137484
0.124941 0.102144 0.149233
0.146273 0.097322 0.166445
0.175265 0.089815 0.182406
0.212375 0.074311 0.202518
0.260227 0.010956 0.227817
0.318883 0.000000 0.257694
0.386145 0.000000 0.290837
0.458625 0.000000 0.325536
0.532799 0.000000 0.360235
0.604120 0.000000 0.393439
0.667720 0.000000 0.423133
0.722286 0.000000 0.449012
0.768917 0.000000 0.471412
0.808713 0.000000 0.491035
0.843900 0.000000 0.508812
0.875517 0.000000 0.525170
0.903960 0.000000 0.540246
0.929656 0.000000 0.554223
0.952819 0.000000 0.567193
0.973907 0.000000 0.579309
0.993103 0.000000 0.590875
1.000000 0.000000 0.601892
1.000000 0.000000 0.612634
1.000000 0.000000 0.623255
1.000000 0.000000 0.633906
1.000000 0.000000 0.644770
1.000000 0.000000 0.655970
0.000000 0.160616 0.171054
0.003845 0.158785 0.169772
0.028229 0.156252 0.166354
0.064851 0.151064 0.157717
0.081636 0.143282 0.137423
0.122621 0.118929 0.139864
0.146029 0.102785 0.151400
0.173373 0.093111 0.171786
0.208957 0.076387 0.198215
0.255863 0.020783 0.225498
0.314305 0.000000 0.255406
0.381445 0.000000 0.288609
0.454353 0.000000 0.323522
0.528893 0.000000 0.358495
0.600732 0.000000 0.391882
0.665064 0.000000 0.421942
0.720272 0.000000 0.447974
0.767239 0.000000 0.470619
0.807523 0.000000 0.490425
0.843015 0.000000 0.508293
0.874815 0.000000 0.524743
0.903441 0.000000 0.539940
0.929229 0.000000 0.553979
0.952544 0.000000 0.567010
0.973632 0.000000 0.579187
0.992920 0.000000 0.590723
1.000000 0.000000 0.601801
1.000000 0.000000 0.612573
1.000000 0.000000 0.623224
1.000000 0.000000 0.633906
1.000000 0.000000 0.644770
1.000000 0.000000 0.655970
0.000000 0.195590 0.195468
0.000000 0.193637 0.194095
0.000000 0.190860 0.191409
0.000000 0.184878 0.183230
0.047303 0.176944 0.167758
0.083894 0.164858 0.138674
0.140261 0.140780 0.140871
0.172000 0.102205 0.151003
0.206729 0.087190 0.177646
0.252201 0.048707 0.209812
0.308934 0.000000 0.247501
0.375463 0.000000 0.285710
0.448463 0.000000 0.320714
0.523766 0.000000 0.356054
0.596338 0.000000 0.389837
0.661677 0.000000 0.420356
0.717556 0.000000 0.446723
0.765133 0.000000 0.469612
0.805783 0.000000 0.489570
0.841733 0.000000 0.507683
0.873808 0.000000 0.524285
0.902678 0.000000 0.539544
0.928679 0.000000 0.553674
0.952087 0.000000 0.566766
0.973327 0.000000 0.579004
0.992676 0.000000 0.590600
1.000000 0.000000 0.601709
1.000000 0.000000 0.612482
1.000000 0.000000 0.623163
1.000000 0.000000 0.633875
1.000000 0.000000 0.644739
1.000000 0.000000 0.655970
0.000000 0.239475 0.226474
0.000000 0.237278 0.224887
0.000000 0.234379 0.222812
0.000000 0.228428 0.215122
0.000000 0.219364 0.201602
0.000000 0.209598 0.179446
0.086397 0.192416 0.139223
0.161471 0.169986 0.141299
0.204074 0.102632 0.148226
0.248783 0.074708 0.181765
0.304417 0.000000 0.221500
0.370031 0.000000 0.264927
0.441962 0.000000 0.310491
0.517815 0.000000 0.353796
0.590906 0.000000 0.387304
0.657343 0.000000 0.418280
0.714137 0.000000 0.445106
0.762509 0.000000 0.468330
0.803738 0.000000 0.488563
0.840116 0.000000 0.506859
0.872618 0.000000 0.523613
0.901762 0.000000 0.539086
0.927947 0.000000 0.553246
0.951568 0.000000 0.566430
0.972930 0.000000 0.578759
0.992401 0.000000 0.590417
1.000000 0.000000 0.601556
1.000000 0.000000 0.612390
1.000000 0.000000 0.623102
1.000000 0.000000 0.633845
1.000000 0.000000 0.644709
1.000000 0.000000 0.655970
0.000000 0.292607 0.264378
0.000000 0.290532 0.262882
0.000000 0.287663 0.260807
0.000000 0.281712 0.253910
0.000000 0.272587 0.241276
0.000000 0.260807 0.221988
0.000000 0.249821 0.193179
0.088777 0.226871 0.139162
0.186740 0.206119 0.140780
0.242008 0.122713 0.152346
0.299870 0.036683 0.182681
0.364660 0.000000 0.230777
0.436652 0.000000 0.279820
0.511711 0.000000 0.328649
0.585046 0.000000 0.375555
0.652827 0.000000 0.417517
0.710048 0.000000 0.443183
0.759243 0.000000 0.466773
0.801236 0.000000 0.487282
0.838193 0.000000 0.505852
0.871153 0.000000 0.522850
0.900633 0.000000 0.538476
0.927092 0.000000 0.552789
0.950927 0.000000 0.566094
0.972442 0.000000 0.578485
0.992035 0.000000 0.590204
1.000000 0.000000 0.601373
1.000000 0.000000 0.612268
1.000000 0.000000 0.623011
1.000000 0.000000 0.633753
1.000000 0.000000 0.644709
1.000000 0.000000 0.655970
0.000000 0.354223 0.308537
0.000000 0.352148 0.307012
0.000000 0.349462 0.305150
0.000000 0.343725 0.298924
0.000000 0.335576 0.287633
0.000000 0.324498 0.270665
0.000000 0.312139 0.245579
0.000000 0.300328 0.210361
0.091279 0.269963 0.137453
0.217350 0.250370 0.138552
0.286687 0.169924 0.153170
0.359197 0.000000 0.177066
0.430732 0.000000 0.235752
0.506126 0.000000 0.290898
0.580102 0.000000 0.342382
0.647974 0.000000 0.389349
0.705989 0.000000 0.430640
0.755550 0.000000 0.465919
0.798489 0.000000 0.486549
0.835966 0.000000 0.504723
0.869383 0.000000 0.521965
0.899351 0.000000 0.537743
0.926116 0.000000 0.552239
0.950164 0.000000 0.565667
0.971862 0.000000 0.578149
0.991577 0.000000 0.589929
1.000000 0.000000 0.601190
1.000000 0.000000 0.612146
1.000000 0.000000 0.622919
1.000000 0.000000 0.633722
1.000000 0.000000 0.644678
1.000000 0.000000 0.656001
0.000000 0.421698 0.356970
0.000000 0.419928 0.355688
0.000000 0.417548 0.354040
0.000000 0.412665 0.348699
0.000000 0.405432 0.338598
0.000000 0.395697 0.323735
0.000000 0.383246 0.302434
0.000000 0.371405 0.271794
0.000000 0.359411 0.229557
0.093446 0.322179 0.133608
0.241215 0.290532 0.136477
0.337163 0.224460 0.151736
0.424140 0.000000 0.166232
0.499916 0.000000 0.235447
0.574762 0.000000 0.297063
0.643915 0.000000 0.351110
0.703182 0.000000 0.397803
0.753262 0.000000 0.438087
0.795743 0.000000 0.472908
0.833097 0.000000 0.503838
0.867613 0.000000 0.521813
0.897795 0.000000 0.536919
0.924926 0.000000 0.551629
0.949248 0.000000 0.565148
0.971221 0.000000 0.577813
0.991119 0.000000 0.589624
1.000000 0.000000 0.600977
1.000000 0.000000 0.611963
1.000000 0.000000 0.622797
1.000000 0.000000 0.633631
1.000000 0.000000 0.644648
1.000000 0.000000 0.656001
0.000000 0.492470 0.407660
0.000000 0.491066 0.406622
0.000000 0.488991 0.405188
0.000000 0.484688 0.400732
0.000000 0.478492 0.391730
0.000000 0.470253 0.378820
0.000000 0.459754 0.360662
0.000000 0.446876 0.335210
0.000000 0.436683 0.299535
0.000000 0.424994 0.250340
0.097017 0.380774 0.127199
0.270542 0.336461 0.132998
0.391852 0.284459 0.147768
0.489815 0.039765 0.172366
0.569207 0.000000 0.228031
0.639399 0.000000 0.297917
0.699947 0.000000 0.354528
0.750942 0.000000 0.401617
0.794369 0.000000 0.441871
0.832456 0.000000 0.476936
0.866087 0.000000 0.507897
0.895964 0.000000 0.535393
0.923674 0.000000 0.551232
0.948272 0.000000 0.564599
0.970489 0.000000 0.577325
0.990570 0.000000 0.589319
1.000000 0.000000 0.600732
1.000000 0.000000 0.611780
1.000000 0.000000 0.622675
1.000000 0.000000 0.633570
1.000000 0.000000 0.644617
1.000000 0.000000 0.656031
0.000000 0.562860 0.457984
0.000000 0.561669 0.457160
0.000000 0.559808 0.455818
0.000000 0.556115 0.452277
0.000000 0.551232 0.444526
0.000000 0.544457 0.433417
0.000000 0.535943 0.418128
0.000000 0.525231 0.396948
0.000000 0.513634 0.367163
0.000000 0.504753 0.327214
0.000000 0.491768 0.265934
0.102785 0.443488 0.117464
0.304204 0.386969 0.128023
0.448646 0.347539 0.140322
0.553460 0.157809 0.176333
0.634730 0.000000 0.212894
0.696498 0.000000 0.293462
0.748623 0.000000 0.353460
0.792905 0.000000 0.402106
0.831754 0.000000 0.443305
0.865904 0.000000 0.479011
0.896117 0.000000 0.510185
0.923064 0.000000 0.537743
0.947204 0.000000 0.562188
0.969665 0.000000 0.576867
0.989960 0.000000 0.588922
1.000000 0.000000 0.600458
1.000000 0.000000 0.611566
1.000000 0.000000 0.622522
1.000000 0.000000 0.633478
1.000000 0.000000 0.644556
1.000000 0.000000 0.656031
0.000000 0.628779 0.504997
0.000000 0.627893 0.504356
0.000000 0.626459 0.503319
0.000000 0.623529 0.500816
0.000000 0.619776 0.494240
0.000000 0.614527 0.484810
0.000000 0.607813 0.471931
0.000000 0.599359 0.454475
0.000000 0.588983 0.430488
0.000000 0.580072 0.397498
0.000000 0.572290 0.353521
0.000000 0.557488 0.277409
0.111604 0.507500 0.104707
0.339208 0.440894 0.120943
0.504906 0.411536 0.129641
0.610437 0.253544 0.174807
0.692103 0.000000 0.198764
0.746029 0.000000 0.284581
0.791257 0.000000 0.349554
0.830930 0.000000 0.400793
0.865629 0.000000 0.443366
0.896300 0.000000 0.479683
0.923491 0.000000 0.511254
0.947814 0.000000 0.538964
0.969696 0.000000 0.563439
0.989532 0.000000 0.585229
1.000000 0.000000 0.600122
1.000000 0.000000 0.611353
1.000000 0.000000 0.622370
1.000000 0.000000 0.633387
1.000000 0.000000 0.644556
1.000000 0.000000 0.656062
0.000000 0.686366 0.545922
0.000000 0.685573 0.545342
0.000000 0.684535 0.544610
0.000000 0.682246 0.542992
0.000000 0.679347 0.537560
0.000000 0.675380 0.529625
0.000000 0.670497 0.518944
0.000000 0.664332 0.504692
0.000000 0.656672 0.485573
0.000000 0.647547 0.459693
0.000000 0.641413 0.423926
0.000000 0.635370 0.376745
0.000000 0.619501 0.286320
0.124666 0.570062 0.088991
0.379217 0.501671 0.109010
0.558801 0.475166 0.115206
0.660639 0.332128 0.173251
0.738949 0.000000 0.212314
0.789548 0.000000 0.273503
0.829923 0.000000 0.344427
0.865232 0.000000 0.398535
0.896330 0.000000 0.442573
0.923857 0.000000 0.479744
0.948363 0.000000 0.511711
0.970367 0.000000 0.539605
0.990295 0.000000 0.564172
1.000000 0.000000 0.586023
1.000000 0.000000 0.609308
1.000000 0.000000 0.622187
1.000000 0.000000 0.633295
1.000000 0.000000 0.644526
1.000000 0.000000 0.656092
0.000000 0.735592 0.580774
0.000000 0.734981 0.580346
0.000000 0.734157 0.579767
0.000000 0.732448 0.578546
0.000000 0.730129 0.574456
0.000000 0.727291 0.567895
0.000000 0.723476 0.558892
0.000000 0.718837 0.547051
0.000000 0.713191 0.531548
0.000000 0.706355 0.511009
0.000000 0.698878 0.483253
0.000000 0.694911 0.445533
0.000000 0.690242 0.396002
0.000000 0.674220 0.291783
0.142275 0.628046 0.073518
0.417548 0.560540 0.095705
0.608209 0.536217 0.097261
0.703304 0.402625 0.172427
0.779843 0.106081 0.229679
0.828794 0.000000 0.262425
0.864683 0.000000 0.339788
0.896208 0.000000 0.396490
0.924071 0.000000 0.441871
0.948760 0.000000 0.479896
0.970886 0.000000 0.512291
0.990906 0.000000 0.540307
1.000000 0.000000 0.564965
1.000000 0.000000 0.586816
1.000000 0.000000 0.607935
1.000000 0.000000 0.633173
1.000000 0.000000 0.644465
1.000000 0.000000 0.656123
0.000000 0.777981 0.610712
0.000000 0.777493 0.610346
0.000000 0.776852 0.609949
0.000000 0.775479 0.608942
0.000000 0.773526 0.606104
0.000000 0.771328 0.600458
0.000000 0.768521 0.592859
0.000000 0.765103 0.583032
0.000000 0.760708 0.570092
0.000000 0.755581 0.553491
0.000000 0.749294 0.531731
0.000000 0.744045 0.502281
0.000000 0.741085 0.463233
0.000000 0.737636 0.411902
0.000000 0.721096 0.294865
0.162936 0.678553 0.066499
0.451209 0.614923 0.085023
0.651270 0.593500 0.074983
0.740810 0.466590 0.173617
0.813077 0.258396 0.240085
0.862943 0.000000 0.263859
0.895903 0.000000 0.337011
0.924041 0.000000 0.395911
0.948943 0.000000 0.442481
0.971191 0.000000 0.480934
0.991241 0.000000 0.513603
1.000000 0.000000 0.541741
1.000000 0.000000 0.566339
1.000000 0.000000 0.588067
1.000000 0.000000 0.607263
1.000000 0.000000 0.635676
1.000000 0.000000 0.656153
0.000000 0.814450 0.636408
0.000000 0.814115 0.636133
0.000000 0.813596 0.635798
0.000000 0.812528 0.635035
0.000000 0.810819 0.633326
0.000000 0.809140 0.628443
0.000000 0.806943 0.621973
0.000000 0.804257 0.613519
0.000000 0.800961 0.602686
0.000000 0.796963 0.588922
0.000000 0.792142 0.571344
0.000000 0.786221 0.548852
0.000000 0.783017 0.517967
0.000000 0.780880 0.477882
0.000000 0.778408 0.425391
0.000000 0.761715 0.297887
0.185702 0.722316 0.074098
0.479500 0.662928 0.084016
0.688808 0.646204 0.045441
0.774655 0.526482 0.177371
0.842161 0.355657 0.250858
0.891325 0.000000 0.289769
0.923705 0.000000 0.337865
0.948821 0.000000 0.398077
0.971160 0.000000 0.445197
0.991241 0.000000 0.483894
1.000000 0.000000 0.516503
1.000000 0.000000 0.544549
1.000000 0.000000 0.568994
1.000000 0.000000 0.590387
1.000000 0.000000 0.609125
1.000000 0.000000 0.637354
0.000000 0.846067 0.658595
0.000000 0.845731 0.658350
0.000000 0.845396 0.658106
0.000000 0.844480 0.657465
0.000000 0.843076 0.656489
0.000000 0.841703 0.652583
0.000000 0.839994 0.646937
0.000000 0.837919 0.639673
0.000000 0.835386 0.630457
0.000000 0.832303 0.618891
0.000000 0.828611 0.604425
0.000000 0.824002 0.586358
0.000000 0.818296 0.563745
0.000000 0.817227 0.531365
0.000000 0.816007 0.490791
0.000000 0.814542 0.437995
0.000000 0.797940 0.300999
0.212039 0.761776 0.094881
0.504601 0.706569 0.094453
0.703639 0.681392 0.064881
0.805234 0.582544 0.184054
0.868193 0.433661 0.264103
0.916289 0.234562 0.319310
0.948363 0.000000 0.344182
0.970764 0.000000 0.404395
0.990875 0.000000 0.451240
1.000000 0.000000 0.489570
1.000000 0.000000 0.521813
1.000000 0.000000 0.549462
1.000000 0.000000 0.573388
1.000000 0.000000 0.594232
1.000000 0.000000 0.612268
0.000000 0.874479 0.678431
0.000000 0.874266 0.678248
0.000000 0.873930 0.678004
0.000000 0.873259 0.677516
0.000000 0.872190 0.676753
0.000000 0.870970 0.674189
0.000000 0.869657 0.669306
0.000000 0.868040 0.663020
0.000000 0.866178 0.655146
0.000000 0.863859 0.645380
0.000000 0.860990 0.633173
0.000000 0.857420 0.618219
0.000000 0.852842 0.600061
0.000000 0.848844 0.576593
0.000000 0.848447 0.544060
0.000000 0.847898 0.503288
0.000000 0.847349 0.450477
0.000000 0.831083 0.306798
0.242191 0.797696 0.122713
0.528099 0.746517 0.115389
0.715450 0.714656 0.085908
0.833005 0.634821 0.194644
0.891691 0.501427 0.279911
0.937438 0.340673 0.347570
0.968933 0.182956 0.364385
0.990051 0.139223 0.415595
1.000000 0.125185 0.461280
1.000000 0.106630 0.498726
1.000000 0.076753 0.530205
1.000000 0.000000 0.557122
1.000000 0.000000 0.580255
1.000000 0.000000 0.600214
0.000000 0.900603 0.696437
0.000000 0.900389 0.696315
0.000000 0.900175 0.696162
0.000000 0.899657 0.695796
0.000000 0.898802 0.695155
0.000000 0.897704 0.693904
0.000000 0.896666 0.689601
0.000000 0.895476 0.684169
0.000000 0.894041 0.677363
0.000000 0.892241 0.668879
0.000000 0.890074 0.658534
0.000000 0.887297 0.645960
0.000000 0.883665 0.630915
0.000000 0.878813 0.613245
0.000000 0.876555 0.588800
0.000000 0.876677 0.556268
0.000000 0.876860 0.515709
0.000000 0.876982 0.463569
0.000000 0.861112 0.315373
0.275608 0.830350 0.155184
0.550408 0.782986 0.143465
0.727199 0.746914 0.112367
0.858213 0.684077 0.208591
0.912749 0.562585 0.298283
0.954894 0.432837 0.368811
0.985321 0.320165 0.399603
1.000000 0.263157 0.432258
1.000000 0.261265 0.475929
1.000000 0.257877 0.511864
1.000000 0.251926 0.542107
1.000000 0.242161 0.567864
1.000000 0.226383 0.590021
0.000000 0.924620 0.712917
0.000000 0.924468 0.712825
0.000000 0.924285 0.712703
0.000000 0.923888 0.712398
0.000000 0.923217 0.711879
0.000000 0.922271 0.711208
0.000000 0.921416 0.708156
0.000000 0.920500 0.703395
0.000000 0.919371 0.697353
0.000000 0.917998 0.689998
0.000000 0.916320 0.681117
0.000000 0.914122 0.670344
0.000000 0.911192 0.657588
0.000000 0.907164 0.642878
0.000000 0.901701 0.626337
0.000000 0.901549 0.600610
0.000000 0.902129 0.568414
0.000000 0.902800 0.528557
0.000000 0.903502 0.477485
0.000000 0.888212 0.327886
0.311742 0.859953 0.190738
0.572137 0.816342 0.176028
0.745144 0.779141 0.148898
0.881285 0.730068 0.226169
0.931914 0.617945 0.319371
0.970611 0.508568 0.391852
0.999481 0.416815 0.436561
1.000000 0.353246 0.454078
1.000000 0.354711 0.495003
1.000000 0.355047 0.528832
1.000000 0.353857 0.557580
1.000000 0.349889 0.582086
0.000000 0.946777 0.727932
0.000000 0.946685 0.727871
0.000000 0.946502 0.727749
0.000000 0.946197 0.727504
0.000000 0.945708 0.727108
0.000000 0.944976 0.726589
0.000000 0.944121 0.725124
0.000000 0.943389 0.720882
0.000000 0.942565 0.715602
0.000000 0.941497 0.709102
0.000000 0.940185 0.701289
0.000000 0.938415 0.691920
0.000000 0.936034 0.680995
0.000000 0.932616 0.668544
0.000000 0.927855 0.654780
0.000000 0.923003 0.638392
0.000000 0.923857 0.612451
0.000000 0.924804 0.580957
0.000000 0.925902 0.542199
0.000000 0.926452 0.490211
0.000000 0.912596 0.344854
0.352117 0.886595 0.228702
0.594202 0.846708 0.211948
0.761044 0.809384 0.186984
0.902464 0.773495 0.247074
0.949340 0.669276 0.342657
0.984894 0.574334 0.416663
1.000000 0.497444 0.474067
1.000000 0.440406 0.484596
1.000000 0.434119 0.517510
1.000000 0.436835 0.549157
1.000000 0.438117 0.576104
0.000000 0.967315 0.741695
0.000000 0.967254 0.741634
0.000000 0.967132 0.741543
0.000000 0.966857 0.741329
0.000000 0.966461 0.741024
0.000000 0.965881 0.740566
0.000000 0.965179 0.740017
0.000000 0.964538 0.736965
0.000000 0.963867 0.732235
0.000000 0.963073 0.726467
0.000000 0.962005 0.719570
0.000000 0.960632 0.711391
0.000000 0.958648 0.701839
0.000000 0.955688 0.691035
0.000000 0.951476 0.679286
0.000000 0.945647 0.666987
0.069001 0.942565 0.649866
0.000000 0.943664 0.624659
0.000000 0.944884 0.594263
0.000000 0.946319 0.557031
0.000000 0.946136 0.502312
0.112581 0.934264 0.366247
0.395758 0.910521 0.268986
0.617060 0.874327 0.250553
0.775692 0.837522 0.226322
0.922026 0.814359 0.270909
0.965454 0.716640 0.368322
0.997986 0.633173 0.442847
1.000000 0.568597 0.501366
1.000000 0.522393 0.520317
1.000000 0.502922 0.541680
1.000000 0.507500 0.571099
0.000000 0.986481 0.754391
0.000000 0.986389 0.754330
0.000000 0.986297 0.754238
0.000000 0.986084 0.754086
0.000000 0.985779 0.753811
0.000000 0.985351 0.753445
0.000000 0.984771 0.752987
0.000000 0.984161 0.751827
0.000000 0.983612 0.747555
0.000000 0.982971 0.742428
0.000000 0.982177 0.736263
0.000000 0.981048 0.729000
0.000000 0.979400 0.720546
0.000000 0.976867 0.711086
0.000000 0.973053 0.700862
0.000000 0.967651 0.690333
0.200687 0.960571 0.680140
0.249516 0.959808 0.661677
0.239109 0.961120 0.637568
0.226230 0.962585 0.608576
0.211429 0.964202 0.573327
0.207401 0.963439 0.517296
0.241581 0.953552 0.392432
0.442786 0.931884 0.311009
0.641352 0.899290 0.291752
0.789822 0.863767 0.267613
0.940337 0.852506 0.297795
0.980438 0.760739 0.395972
1.000000 0.686305 0.470008
1.000000 0.630121 0.526055
1.000000 0.591333 0.554192
1.000000 0.564660 0.566888
0.000000 1.000000 0.766049
0.000000 1.000000 0.765988
0.000000 1.000000 0.765957
0.000000 1.000000 0.765805
0.000000 1.000000 0.765591
0.000000 1.000000 0.765316
0.000000 1.000000 0.764920
0.000000 1.000000 0.764492
0.000000 1.000000 0.761776
0.000000 1.000000 0.757137
0.000000 1.000000 0.751614
0.000000 0.999969 0.745052
0.000000 0.998596 0.737575
0.000000 0.996399 0.729122
0.000000 0.992950 0.720119
0.000000 0.987854 0.710933
0.115267 0.981048 0.702144
0.359686 0.973754 0.693446
0.352880 0.974975 0.674098
0.344945 0.976379 0.651331
0.335302 0.977935 0.624140
0.324254 0.979706 0.591272
0.320470 0.978576 0.535210
0.334142 0.970520 0.422370
0.492378 0.951049 0.354620
0.667659 0.921996 0.334874
0.804562 0.888731 0.310613
0.956512 0.887327 0.327886
0.994507 0.801816 0.425452
1.000000 0.734218 0.497261
1.000000 0.684779 0.550835
1.000000 0.651637 0.586572
0.000000 1.000000 0.776852
0.000000 1.000000 0.776822
0.000000 1.000000 0.776761
0.000000 1.000000 0.776669
0.000000 1.000000 0.776486
0.000000 1.000000 0.776272
0.000000 1.000000 0.775937
0.000000 1.000000 0.775570
0.000000 1.000000 0.775021
0.000000 1.000000 0.770809
0.000000 1.000000 0.765805
0.000000 1.000000 0.759915
0.000000 1.000000 0.753140
0.000000 1.000000 0.745571
0.000000 1.000000 0.737484
0.000000 1.000000 0.729305
0.000000 1.000000 0.721645
0.346502 0.991943 0.714961
0.443519 0.987060 0.705104
0.438239 0.988312 0.686976
0.432044 0.989715 0.665736
0.424720 0.991302 0.640681
0.415656 0.993103 0.610590
0.412146 0.991760 0.555962
0.416449 0.985443 0.455390
0.543969 0.968139 0.399176
0.696040 0.942626 0.379492
0.821408 0.913481 0.355413
0.959472 0.909026 0.364141
1.000000 0.840085 0.456153
1.000000 0.778042 0.524743
1.000000 0.734340 0.576104
0.000000 1.000000 0.786831
0.000000 1.000000 0.786801
0.000000 1.000000 0.786770
0.000000 1.000000 0.786648
0.000000 1.000000 0.786526
0.000000 1.000000 0.786313
0.000000 1.000000 0.786069
0.000000 1.000000 0.785763
0.000000 1.000000 0.785428
0.000000 1.000000 0.783566
0.000000 1.000000 0.778988
0.000000 1.000000 0.773648
0.000000 1.000000 0.767514
0.000000 1.000000 0.760616
0.000000 1.000000 0.753292
0.000000 1.000000 0.745907
0.000000 1.000000 0.739101
0.315648 1.000000 0.733303
0.479103 1.000000 0.728450
0.516106 0.998962 0.716945
0.512200 1.000000 0.700130
0.507408 1.000000 0.680598
0.501762 1.000000 0.657710
0.494881 1.000000 0.630518
0.491737 1.000000 0.578210
0.491890 0.998505 0.489876
0.596307 0.983398 0.443671
0.726406 0.961334 0.424933
0.839261 0.936217 0.401892
0.963165 0.929961 0.401770
1.000000 0.875578 0.487312
1.000000 0.818601 0.553002
0.000000 1.000000 0.795987
0.000000 1.000000 0.795956
0.000000 1.000000 0.795926
0.000000 1.000000 0.795865
0.000000 1.000000 0.795712
0.000000 1.000000 0.795590
0.000000 1.000000 0.795377
0.000000 1.000000 0.795132
0.000000 1.000000 0.794797
0.000000 1.000000 0.794461
0.000000 1.000000 0.791287
0.000000 1.000000 0.786374
0.000000 1.000000 0.780758
0.000000 1.000000 0.774441
0.000000 1.000000 0.767727
