其他预设/【213】赛博朋克科幻预设52款/1.LUT预设（视频调色-PR-AE-PS-FCPX-达芬奇用）/赛博朋克科幻__-9 强度5.cube
# Created by Adobe Lightroom plugin Export LUT (1.17.0)
# www.johnrellis.com/lightroom/exportlut.htm
# Preset: 赛博朋克科幻[素锦印象]-9 强度5
# Color profile: /Library/Application Support/Adobe/Color/Profiles/Recommended/AdobeRGB1998.icc
LUT_3D_SIZE 8
DOMAIN_MIN 0.000000 0.000000 0.000000
DOMAIN_MAX 0.903226 0.903226 0.903226
0.000000 0.000000 0.000000
0.104952 0.017365 0.016510
0.228061 0.049592 0.043519
0.415198 0.065492 0.026062
0.614313 0.093721 0.000000
0.753872 0.132753 0.059602
0.848844 0.181704 0.136690
0.914183 0.254246 0.232212
0.067292 0.069398 0.068330
0.114015 0.095613 0.021241
0.207797 0.098268 0.067079
0.398962 0.122499 0.059846
0.604517 0.148867 0.037537
0.749111 0.174807 0.080812
0.846189 0.212711 0.150607
0.912200 0.277470 0.244968
0.118166 0.122499 0.120760
0.131624 0.151034 0.138766
0.265476 0.219120 0.019898
0.468544 0.196902 0.000000
0.569299 0.244297 0.112886
0.731624 0.268620 0.136690
0.836240 0.295109 0.197482
0.904784 0.347204 0.289158
0.193240 0.201694 0.198093
0.204379 0.225345 0.215061
0.249302 0.310857 0.250004
0.495064 0.406134 0.000000
0.688930 0.311406 0.000000
0.766690 0.320226 0.000000
0.816464 0.398901 0.275517
0.890166 0.444373 0.363684
0.290043 0.304173 0.298192
0.300298 0.324804 0.313634
0.339300 0.397559 0.360845
0.409155 0.496742 0.373754
0.689326 0.567010 0.000000
0.816159 0.386999 0.000000
0.883116 0.370550 0.000000
0.898497 0.470558 0.331243
0.405249 0.423621 0.415900
0.414038 0.440406 0.428748
0.446296 0.496803 0.469764
0.507500 0.583886 0.522393
0.575769 0.651392 0.515587
0.805417 0.670558 0.200107
0.899290 0.442359 0.000000
0.949401 0.409216 0.000000
0.536248 0.555444 0.547387
0.542931 0.567010 0.556512
0.566522 0.604517 0.585657
0.607355 0.659998 0.626215
0.659602 0.718959 0.660243
0.712764 0.766018 0.629023
0.875334 0.746242 0.368963
0.955261 0.484443 0.000000
0.659480 0.674342 0.668086
0.663355 0.680903 0.673335
0.677058 0.702419 0.690364
0.701045 0.735592 0.715938
0.734005 0.773892 0.743740
0.764340 0.806455 0.757107
0.806546 0.838010 0.721889
0.914977 0.806332 0.531365
0.068879 0.068727 0.078889
0.113680 0.027314 0.081849
0.224369 0.077516 0.056641
0.405554 0.111696 0.051698
0.608331 0.137850 0.024720
0.751339 0.163119 0.075135
0.847959 0.199069 0.144564
0.913970 0.261936 0.236790
0.093111 0.093111 0.093111
0.104036 0.104036 0.104036
0.213901 0.113588 0.091188
0.391882 0.143526 0.070497
0.599634 0.173587 0.062409
0.746914 0.195834 0.092622
0.845365 0.226444 0.157870
0.912016 0.284031 0.249210
0.131777 0.131777 0.131777
0.150271 0.153506 0.152041
0.255863 0.218509 0.109468
0.456184 0.201450 0.000000
0.577020 0.248875 0.103517
0.730434 0.277989 0.143160
0.835721 0.302861 0.202884
0.904753 0.351293 0.292454
0.207279 0.207279 0.207279
0.220066 0.227359 0.224338
0.263096 0.310582 0.270024
0.486488 0.403449 0.098543
0.683925 0.312535 0.000000
0.770596 0.321416 0.000000
0.816403 0.402533 0.278996
0.890288 0.446632 0.365911
0.302739 0.305394 0.304326
0.312596 0.325414 0.320043
0.349706 0.396124 0.368902
0.417334 0.497658 0.393103
0.684138 0.566918 0.133089
0.813931 0.389746 0.000000
0.884092 0.371008 0.000000
0.898924 0.471321 0.332403
0.414221 0.423316 0.419684
0.422736 0.439765 0.432624
0.453712 0.495308 0.474067
0.512322 0.581506 0.528222
0.579797 0.651270 0.528588
0.801724 0.672480 0.252476
0.898039 0.446723 0.000000
0.949767 0.409064 0.000000
0.541283 0.553887 0.548760
0.547723 0.565515 0.558007
0.570367 0.602899 0.587304
0.609888 0.658320 0.628199
0.662623 0.718379 0.664759
0.713130 0.764614 0.639124
0.872160 0.749142 0.403540
0.954253 0.489631 0.000000
0.661250 0.672602 0.667933
0.665064 0.679164 0.673182
0.678431 0.700862 0.690455
0.701961 0.734279 0.716335
0.734463 0.772885 0.744442
0.765377 0.806302 0.759304
0.806363 0.837583 0.727352
0.912627 0.808774 0.550774
0.126040 0.125246 0.157504
0.127718 0.112123 0.156405
0.250004 0.015930 0.170596
0.440558 0.089326 0.116091
0.612482 0.163302 0.060853
0.750454 0.200992 0.096712
0.847959 0.225925 0.159396
0.914824 0.272526 0.244419
0.169223 0.172152 0.181796
0.161746 0.161379 0.182040
0.244388 0.109316 0.182101
0.430823 0.144198 0.144564
0.607019 0.193820 0.105531
0.746242 0.226383 0.111299
0.845548 0.249058 0.171664
0.912963 0.293187 0.256382
0.213840 0.213840 0.213840
0.218631 0.218631 0.218631
0.224704 0.224704 0.224704
0.398718 0.247166 0.218967
0.587121 0.275273 0.193637
0.731044 0.294713 0.156283
0.836362 0.317082 0.214237
0.905852 0.357549 0.298619
0.249668 0.249668 0.249668
0.255009 0.255009 0.255009
0.291844 0.296269 0.294377
0.457343 0.398840 0.244907
0.664271 0.337377 0.178164
0.757717 0.350927 0.169558
0.817868 0.410224 0.287236
0.891752 0.450080 0.370397
0.336522 0.336522 0.336522
0.346777 0.346777 0.346777
0.377081 0.386267 0.382452
0.442756 0.496681 0.444587
0.664302 0.567987 0.291142
0.803159 0.414649 0.170779
0.880003 0.382208 0.000000
0.898924 0.477607 0.344305
0.443336 0.443336 0.443336
0.450202 0.450202 0.450202
0.474647 0.487648 0.482216
0.525963 0.572076 0.542290
0.591211 0.649775 0.564324
0.787930 0.679713 0.381506
0.891081 0.473945 0.187381
0.950988 0.408331 0.000000
0.559350 0.559350 0.559350
0.563043 0.563043 0.563043
0.581720 0.595483 0.589654
0.617334 0.651514 0.632654
0.666896 0.713222 0.673213
0.713985 0.759274 0.668086
0.861540 0.758572 0.497139
0.948699 0.517205 0.207523
0.667384 0.667384 0.667384
0.669947 0.671962 0.671199
0.682460 0.694392 0.689357
0.704585 0.728969 0.716548
0.735592 0.768856 0.746120
0.768734 0.805478 0.766171
0.805509 0.835874 0.744106
0.905638 0.815976 0.604639
0.224887 0.223270 0.294102
0.222751 0.210513 0.290227
0.238163 0.159976 0.272068
0.444099 0.000000 0.294896
0.656794 0.081086 0.215579
0.765743 0.200870 0.182864
0.852476 0.235599 0.168124
0.918578 0.270665 0.246921
0.271611 0.276585 0.323003
0.261631 0.260472 0.317174
0.253819 0.201907 0.291325
0.440436 0.078676 0.302739
0.649989 0.162509 0.239048
0.761990 0.236057 0.210483
0.849912 0.259129 0.180972
0.916960 0.289372 0.257816
0.373388 0.373388 0.373388
0.376715 0.376989 0.377386
0.329625 0.329107 0.358618
0.426246 0.237827 0.333989
0.625544 0.299809 0.310674
0.747646 0.334447 0.294682
0.840757 0.327031 0.227878
0.910338 0.352148 0.298314
0.411353 0.411353 0.411353
0.413428 0.413428 0.413428
0.414496 0.414496 0.414496
0.395270 0.395270 0.395270
0.581140 0.432197 0.408820
0.720668 0.453956 0.405066
0.822538 0.444129 0.362280
0.896605 0.446052 0.370184
0.443275 0.443275 0.443275
0.444923 0.444923 0.444923
0.445228 0.445228 0.445228
0.466407 0.470680 0.468910
0.623926 0.569085 0.444465
0.771725 0.501396 0.410193
0.843076 0.499275 0.395697
0.894438 0.499702 0.387091
0.497169 0.497169 0.497169
0.503563 0.503563 0.503563
0.521233 0.521233 0.521233
0.544549 0.552270 0.549004
0.605737 0.643580 0.604761
0.763638 0.689754 0.516869
0.869810 0.553674 0.419135
0.941405 0.452735 0.185153
0.596704 0.596704 0.596704
0.600122 0.600122 0.600122
0.609369 0.609369 0.609369
0.626642 0.635798 0.631952
0.670436 0.701289 0.680110
0.717494 0.753475 0.697688
0.846342 0.770596 0.597345
0.932403 0.588190 0.420844
0.687617 0.687617 0.687617
0.689235 0.689235 0.689235
0.693843 0.693843 0.693843
0.707362 0.716518 0.712642
0.736294 0.759945 0.746242
0.772641 0.802518 0.774899
0.803891 0.832273 0.766964
0.896452 0.825345 0.667231
0.371527 0.369299 0.472724
0.365942 0.355871 0.467903
0.354864 0.303288 0.445502
0.402533 0.200320 0.422156
0.626429 0.000000 0.419043
0.784848 0.238926 0.359838
0.859342 0.302556 0.330571
0.923308 0.274601 0.254307
0.411597 0.415137 0.493751
0.402533 0.400641 0.488197
0.379614 0.345190 0.464271
0.407111 0.240787 0.432776
0.623255 0.088533 0.426184
0.780148 0.280369 0.378210
0.856260 0.330968 0.350683
0.921752 0.292821 0.265019
0.512291 0.519066 0.543084
0.504601 0.511315 0.541009
0.463935 0.462837 0.518700
0.425391 0.353063 0.464057
0.611566 0.265904 0.453315
0.763851 0.385138 0.434730
0.845212 0.413153 0.413428
0.916258 0.348180 0.300725
0.577966 0.577966 0.577966
0.580224 0.580224 0.580224
0.584192 0.584192 0.584192
0.522881 0.522454 0.546990
0.588922 0.422919 0.501671
0.736568 0.501305 0.510460
0.826627 0.514275 0.496376
0.905943 0.429603 0.366125
0.599237 0.599237 0.599237
0.600488 0.600488 0.600488
0.601923 0.601923 0.601923
0.594446 0.594446 0.594446
0.557519 0.557519 0.557519
0.701167 0.597833 0.583276
0.800961 0.612909 0.584070
0.879423 0.575891 0.522454
0.620478 0.620478 0.620478
0.621393 0.621393 0.621393
0.622370 0.622370 0.622370
0.615381 0.615381 0.615381
0.613092 0.616266 0.614923
0.731563 0.693568 0.614832
0.837064 0.649378 0.596063
0.894224 0.622889 0.553552
0.655665 0.655665 0.655665
0.656092 0.656092 0.656092
0.656397 0.656397 0.656397
0.665217 0.665217 0.665217
0.672480 0.677852 0.675593
0.721248 0.746761 0.719570
0.830228 0.780056 0.673854
0.907836 0.677028 0.594476
0.714534 0.714534 0.714534
0.716152 0.716152 0.716152
0.720912 0.720912 0.720912
0.725978 0.725978 0.725978
0.735317 0.741817 0.739071
0.769986 0.791501 0.776181
0.803311 0.826902 0.788724
0.887266 0.834531 0.723140
0.533684 0.531670 0.627466
0.528222 0.522118 0.624811
0.510735 0.483131 0.612573
0.492805 0.392706 0.578668
0.583215 0.250980 0.569818
0.750057 0.176852 0.521386
0.855314 0.420539 0.516991
0.913024 0.451026 0.489387
0.559838 0.561181 0.637781
0.553460 0.551781 0.634882
0.532280 0.513695 0.622522
0.507042 0.425971 0.589563
0.582452 0.289738 0.575402
0.747433 0.225620 0.528527
0.852628 0.444862 0.529778
0.910765 0.467201 0.500969
0.625544 0.631128 0.666407
0.619074 0.623957 0.663630
0.595697 0.594568 0.651911
0.556451 0.522545 0.622553
0.581140 0.398993 0.593286
0.738003 0.342229 0.553613
0.843656 0.512902 0.568444
0.903319 0.515679 0.536553
0.692775 0.694087 0.697108
0.689937 0.691920 0.696742
0.676783 0.680201 0.692378
0.637598 0.636957 0.670069
0.590448 0.529534 0.618952
0.721614 0.471565 0.593622
0.828763 0.583185 0.612818
0.892424 0.577111 0.582238
0.707759 0.707759 0.707759
0.709163 0.709163 0.709163
0.712978 0.712978 0.712978
0.715694 0.715694 0.715694
0.667567 0.667292 0.682368
0.701503 0.583886 0.637140
0.810880 0.650629 0.657435
0.879026 0.639857 0.629480
0.716487 0.716487 0.716487
0.717525 0.717525 0.717525
0.720302 0.720302 0.720302
0.721798 0.721798 0.721798
0.715755 0.715755 0.715755
0.677455 0.677455 0.677455
0.786801 0.714046 0.704250
0.858396 0.714748 0.694148
0.733120 0.733120 0.733120
0.733944 0.733944 0.733944
0.736233 0.736233 0.736233
0.737209 0.737209 0.737209
0.730068 0.730068 0.730068
0.719234 0.721584 0.720607
0.809873 0.783841 0.732113
0.884123 0.746761 0.710231
0.760006 0.760006 0.760006
0.760494 0.760494 0.760494
0.761532 0.761532 0.761532
0.760708 0.760708 0.760708
0.762814 0.762814 0.762814
0.766354 0.770413 0.768673
0.805112 0.823087 0.803494
0.877897 0.843107 0.772854
0.666590 0.665217 0.732784
0.663813 0.660609 0.731685
0.653529 0.641657 0.726802
0.635218 0.595789 0.713802
0.624537 0.494179 0.687282
0.730220 0.366888 0.683864
0.833677 0.352850 0.614984
0.898466 0.559777 0.640436
0.679011 0.679316 0.737514
0.676020 0.674769 0.736355
0.665156 0.656672 0.731350
0.645716 0.613428 0.718441
0.628565 0.515007 0.689754
0.728176 0.393408 0.687434
0.831479 0.377691 0.621241
0.896849 0.572137 0.647303
0.713466 0.716854 0.751888
0.710414 0.713100 0.750668
0.699306 0.698390 0.745815
0.678370 0.663691 0.733700
0.650416 0.582452 0.704707
0.721004 0.470436 0.698421
0.824063 0.449775 0.641840
0.891875 0.609827 0.668727
0.755001 0.758389 0.770504
0.753719 0.757107 0.770474
0.746365 0.749477 0.768215
0.725887 0.725307 0.757748
0.692927 0.669642 0.733333
0.709590 0.571374 0.711940
0.812711 0.539239 0.672145
0.885283 0.660883 0.698726
0.783078 0.783078 0.783078
0.784360 0.784360 0.784360
0.787961 0.788052 0.788296
0.778347 0.780179 0.785885
0.749203 0.748836 0.769070
0.709133 0.664790 0.727993
0.799863 0.622522 0.704555
0.877073 0.706203 0.726741
0.785306 0.785306 0.785306
0.786404 0.786404 0.786404
0.789944 0.789944 0.789944
0.795102 0.795102 0.795102
0.800229 0.800229 0.800229
0.767391 0.767178 0.777188
0.785153 0.699001 0.737148
0.866117 0.749447 0.754665
0.788357 0.788357 0.788357
0.789242 0.789242 0.789242
0.792111 0.792111 0.792111
0.796323 0.796323 0.796323
0.800443 0.800443 0.800443
0.799924 0.799924 0.799924
0.766567 0.766567 0.766567
0.850248 0.794919 0.787655
0.800290 0.800290 0.800290
0.801022 0.801022 0.801022
0.803372 0.803372 0.803372
0.806851 0.806851 0.806851
0.810178 0.810178 0.810178
0.808804 0.808804 0.808804
0.800320 0.802182 0.801389
0.867338 0.849424 0.814664
0.755886 0.754971 0.802365
0.754788 0.752956 0.802090
0.750668 0.744991 0.800900
0.742794 0.726528 0.797299
0.731472 0.685939 0.787900
0.744228 0.611505 0.780117
0.827146 0.513329 0.764462
0.891691 0.511894 0.704189
0.761501 0.761410 0.804440
0.760342 0.759487 0.804166
0.756039 0.751766 0.802914
0.747890 0.734066 0.799313
0.735988 0.695399 0.790005
0.744900 0.622889 0.780972
0.825498 0.527825 0.766995
0.890288 0.524254 0.708309
0.778470 0.780362 0.811093
0.777249 0.778683 0.810849
0.772763 0.772030 0.809537
0.764157 0.756985 0.806027
0.750851 0.724361 0.797269
0.747799 0.657465 0.783993
0.820096 0.571710 0.775113
0.885679 0.562249 0.721462
0.803037 0.805966 0.821714
0.801846 0.804685 0.821439
0.797391 0.799619 0.820279
0.788754 0.788205 0.817166
0.774655 0.763882 0.809537
0.755398 0.704463 0.789944
0.811490 0.630579 0.786831
0.878996 0.613916 0.740749
0.823423 0.824887 0.828519
0.823301 0.824918 0.829099
0.822477 0.824460 0.830686
0.818753 0.820890 0.831693
0.805112 0.804715 0.825834
0.783291 0.766262 0.810483
0.800015 0.694423 0.798184
0.870939 0.671107 0.763851
0.830625 0.830625 0.830625
0.831510 0.831510 0.831510
0.834623 0.834623 0.834623
0.839902 0.839902 0.839902
0.838682 0.839780 0.843015
0.821958 0.821714 0.835447
0.795590 0.761746 0.808988
0.862028 0.728847 0.788846
0.830808 0.830808 0.830808
0.831571 0.831571 0.831571
0.834165 0.834165 0.834165
0.838682 0.838682 0.838682
0.845121 0.845121 0.845121
0.853330 0.853330 0.853330
0.838071 0.837949 0.844816
0.852171 0.784482 0.814145
0.832120 0.832120 0.832120
0.832731 0.832731 0.832731
0.834897 0.834897 0.834897
0.838712 0.838712 0.838712
0.844083 0.844083 0.844083
0.850614 0.850614 0.850614
0.856840 0.856840 0.856840
0.838132 0.838102 0.838102
