其他预设/【213】赛博朋克科幻预设52款/1.LUT预设（视频调色-PR-AE-PS-FCPX-达芬奇用）/赛博朋克科幻__-3 强度1.cube
# Created by Adobe Lightroom plugin Export LUT (1.17.0)
# www.johnrellis.com/lightroom/exportlut.htm
# Preset: 赛博朋克科幻[素锦印象]-3 强度1
# Color profile: /Library/Application Support/Adobe/Color/Profiles/Recommended/AdobeRGB1998.icc
LUT_3D_SIZE 5
DOMAIN_MIN 0.000000 0.000000 0.000000
DOMAIN_MAX 0.903226 0.903226 0.903226
0.033631 0.039246 0.056550
0.224033 0.000000 0.060090
0.474403 0.000000 0.076020
0.732265 0.000000 0.095338
0.954467 0.000000 0.108705
0.000000 0.239963 0.112001
0.204532 0.229618 0.058869
0.470680 0.156008 0.069429
0.730556 0.000000 0.075257
0.953887 0.000000 0.080079
0.000000 0.498909 0.207889
0.000000 0.502251 0.058808
0.433814 0.478340 0.008911
0.721584 0.412268 0.074983
0.949096 0.292760 0.095583
0.000000 0.743801 0.302922
0.000000 0.745174 0.254704
0.298192 0.746456 0.066041
0.661585 0.716335 0.000000
0.935424 0.655940 0.076539
0.000000 0.954131 0.392432
0.000000 0.952758 0.392401
0.000000 0.960296 0.194461
0.535607 0.953491 0.172885
0.864927 0.930022 0.114534
0.000000 0.007477 0.222354
0.217685 0.000000 0.219913
0.468879 0.000000 0.258183
0.723110 0.000000 0.299321
0.948455 0.000000 0.303838
0.000000 0.225315 0.225071
0.210300 0.220737 0.220005
0.468513 0.143221 0.224918
0.728939 0.000000 0.231205
0.953094 0.000000 0.236027
0.000000 0.492195 0.295537
0.141115 0.489143 0.274968
0.436042 0.473610 0.215640
0.721401 0.406073 0.231632
0.948638 0.293553 0.237095
0.000000 0.740261 0.367041
0.000000 0.739193 0.351995
0.309270 0.742489 0.231083
0.664271 0.714168 0.215854
0.935576 0.652491 0.240238
0.000000 0.953643 0.433204
0.000000 0.952209 0.433112
0.163882 0.956512 0.326482
0.544610 0.952483 0.283757
0.867796 0.929137 0.251591
0.000000 0.000000 0.463081
0.231296 0.000000 0.454963
0.465095 0.000000 0.448402
0.717403 0.000000 0.473426
0.947112 0.000000 0.486091
0.000000 0.246464 0.468299
0.200778 0.213016 0.460365
0.463416 0.150027 0.449042
0.718044 0.000000 0.470344
0.945830 0.000000 0.485878
0.000000 0.474800 0.464027
0.160403 0.471351 0.460487
0.450141 0.457954 0.447669
0.716060 0.413611 0.458595
0.944823 0.332982 0.465888
0.000000 0.731441 0.517784
0.000000 0.729641 0.512078
0.418341 0.722774 0.497475
0.675715 0.706569 0.451881
0.935058 0.648615 0.478431
0.000000 0.950744 0.557122
0.000000 0.950042 0.553521
0.384527 0.944823 0.557733
0.587823 0.946624 0.491005
0.878233 0.926055 0.469673
0.000000 0.000000 0.699641
0.223209 0.000000 0.695369
0.481666 0.000000 0.679866
0.719448 0.000000 0.676844
0.939849 0.000000 0.673487
0.000000 0.206241 0.702907
0.180819 0.190707 0.698634
0.472572 0.109529 0.682918
0.718227 0.000000 0.677028
0.940459 0.000000 0.671046
0.000000 0.504906 0.708614
0.182742 0.504692 0.707668
0.461250 0.464454 0.691646
0.710933 0.399268 0.676112
0.940337 0.294774 0.670192
0.000000 0.715145 0.694209
0.005768 0.713649 0.692744
0.441718 0.707576 0.687190
0.693812 0.691127 0.672267
0.932677 0.662562 0.686213
0.000000 0.945068 0.725490
0.000000 0.944274 0.723384
0.355810 0.940581 0.718044
0.674495 0.932708 0.717098
0.895476 0.920775 0.679438
0.000000 0.000000 0.902953
0.180545 0.000000 0.901579
0.463478 0.000000 0.896513
0.715694 0.000000 0.887358
0.950835 0.000000 0.887724
0.000000 0.125673 0.904692
0.094820 0.090272 0.903258
0.446906 0.000000 0.898039
0.710689 0.000000 0.888060
0.950408 0.000000 0.888090
0.000000 0.495705 0.906645
0.219120 0.493263 0.904875
0.441871 0.439002 0.900786
0.697536 0.353429 0.890623
0.946380 0.165530 0.888121
0.000000 0.720058 0.904326
0.146609 0.722225 0.904112
0.488716 0.732326 0.903319
0.710231 0.703243 0.895232
0.933043 0.627161 0.885039
0.000000 0.926543 0.896696
0.000000 0.926146 0.896361
0.401404 0.924315 0.894926
0.688411 0.920684 0.892088
0.914916 0.908751 0.881010
