其他预设/【213】赛博朋克科幻预设52款/1.LUT预设（视频调色-PR-AE-PS-FCPX-达芬奇用）/赛博朋克科幻__-9 强度2.cube
# Created by Adobe Lightroom plugin Export LUT (1.17.0)
# www.johnrellis.com/lightroom/exportlut.htm
# Preset: 赛博朋克科幻[素锦印象]-9 强度2
# Color profile: /Library/Application Support/Adobe/Color/Profiles/Recommended/AdobeRGB1998.icc
LUT_3D_SIZE 5
DOMAIN_MIN 0.000000 0.000000 0.000000
DOMAIN_MAX 0.903226 0.903226 0.903226
0.000000 0.000000 0.000000
0.211826 0.027832 0.000000
0.477790 0.101900 0.000000
0.732509 0.159884 0.000000
0.928313 0.182101 0.000000
0.049775 0.181003 0.103914
0.229374 0.212436 0.009216
0.464240 0.229740 0.000000
0.726497 0.263951 0.000000
0.925658 0.270665 0.000000
0.085328 0.407721 0.223911
0.210086 0.428595 0.205264
0.529747 0.489662 0.000000
0.744594 0.442054 0.000000
0.916228 0.447242 0.000000
0.164157 0.646052 0.362524
0.264164 0.656275 0.360571
0.465980 0.680354 0.336431
0.781521 0.723690 0.078279
0.944518 0.614496 0.000000
0.367926 0.846403 0.534966
0.436988 0.848508 0.549157
0.587640 0.857267 0.583307
0.717433 0.874479 0.547570
0.960815 0.894285 0.281163
0.077668 0.075990 0.187594
0.212314 0.049775 0.188357
0.488808 0.078737 0.141909
0.735592 0.180331 0.027588
0.930449 0.201053 0.000000
0.096895 0.197818 0.209720
0.209293 0.209293 0.209293
0.476997 0.232609 0.181491
0.730678 0.268864 0.104189
0.927977 0.280186 0.000000
0.127871 0.403113 0.291142
0.235966 0.425238 0.295995
0.517021 0.484443 0.215702
0.732876 0.448005 0.186130
0.918517 0.450690 0.091157
0.199252 0.642481 0.412390
0.291295 0.652399 0.416114
0.479286 0.678706 0.409186
0.774441 0.722316 0.261875
0.942077 0.620233 0.099062
0.373907 0.844419 0.560449
0.441352 0.846586 0.573175
0.602258 0.855283 0.615778
0.723262 0.872099 0.591699
0.955901 0.894499 0.380529
0.157351 0.152834 0.441077
0.257359 0.150088 0.428992
0.474678 0.062043 0.418830
0.742855 0.091676 0.371649
0.936706 0.214664 0.307012
0.201846 0.284855 0.463691
0.277745 0.276005 0.451759
0.473762 0.227634 0.429267
0.740688 0.265232 0.390448
0.933989 0.292607 0.321843
0.205051 0.455970 0.484352
0.295567 0.459571 0.481239
0.465126 0.465126 0.465126
0.718471 0.489509 0.455940
0.921233 0.479438 0.394110
0.251164 0.628473 0.524773
0.329107 0.638148 0.531731
0.508507 0.667903 0.552392
0.747616 0.716457 0.508843
0.920653 0.663600 0.473487
0.408240 0.836759 0.642329
0.458198 0.839506 0.647364
0.589502 0.850248 0.664515
0.737423 0.869535 0.680598
0.941192 0.895323 0.572717
0.285924 0.280247 0.690272
0.349371 0.278141 0.683864
0.498695 0.249424 0.657771
0.716426 0.175753 0.635218
0.922301 0.294438 0.592401
0.341161 0.389288 0.699397
0.385687 0.382269 0.693111
0.509453 0.348272 0.667506
0.713924 0.290959 0.641444
0.919585 0.379309 0.606806
0.424964 0.564660 0.720974
0.482277 0.577539 0.720546
0.562768 0.561669 0.697627
0.705104 0.500786 0.662226
0.913298 0.558984 0.649683
0.418921 0.687098 0.721614
0.468452 0.690425 0.720607
0.580407 0.697993 0.715908
0.693477 0.693477 0.693477
0.901183 0.714534 0.690425
0.469581 0.835843 0.759274
0.505608 0.835996 0.758816
0.597284 0.837491 0.755642
0.735836 0.861936 0.768856
0.921508 0.896391 0.743496
0.495033 0.490944 0.874144
0.521965 0.489967 0.872282
0.604181 0.478492 0.864958
0.732082 0.431708 0.850004
0.909300 0.382879 0.818204
0.539330 0.559258 0.875731
0.559228 0.556146 0.874022
0.624659 0.540307 0.867063
0.735042 0.489967 0.851102
0.906950 0.440284 0.822293
0.621302 0.688472 0.883543
0.639857 0.690791 0.882444
0.677516 0.675807 0.876341
0.748379 0.628229 0.860288
0.900786 0.572595 0.834989
0.644251 0.778408 0.889525
0.666621 0.783413 0.889982
0.731502 0.798306 0.892180
0.786313 0.785519 0.883543
0.892668 0.725490 0.855528
0.634455 0.860868 0.893034
0.653101 0.863005 0.893248
0.711055 0.870115 0.894133
0.795315 0.881743 0.895598
0.882872 0.882841 0.882872
