其他预设/【213】赛博朋克科幻预设52款/1.LUT预设（视频调色-PR-AE-PS-FCPX-达芬奇用）/赛博朋克科幻__-6 强度5.cube
# Created by Adobe Lightroom plugin Export LUT (1.17.0)
# www.johnrellis.com/lightroom/exportlut.htm
# Preset: 赛博朋克科幻[素锦印象]-6 强度5
# Color profile: /Library/Application Support/Adobe/Color/Profiles/Recommended/AdobeRGB1998.icc
LUT_3D_SIZE 5
DOMAIN_MIN 0.000000 0.000000 0.000000
DOMAIN_MAX 0.903226 0.903226 0.903226
0.127687 0.100710 0.091035
0.220188 0.061036 0.118593
0.425788 0.000000 0.204044
0.699367 0.000000 0.328313
0.924987 0.000000 0.424292
0.232883 0.209445 0.062623
0.245670 0.176974 0.070649
0.474037 0.000000 0.135164
0.724300 0.000000 0.308934
0.934234 0.000000 0.404974
0.374853 0.349798 0.000000
0.392248 0.349065 0.000000
0.474769 0.343908 0.000000
0.795315 0.405768 0.000000
0.968292 0.000000 0.271794
0.546746 0.525017 0.000000
0.559533 0.526299 0.000000
0.609491 0.533196 0.000000
0.746120 0.549493 0.000000
0.962097 0.573053 0.000000
0.830228 0.822477 0.000000
0.839475 0.821958 0.000000
0.873106 0.820066 0.000000
0.917266 0.797726 0.000000
0.963622 0.718563 0.000000
0.133883 0.091157 0.218631
0.243076 0.000000 0.232578
0.417700 0.000000 0.278904
0.676509 0.000000 0.385962
0.913787 0.000000 0.469398
0.194034 0.211063 0.110964
0.236118 0.207553 0.174929
0.437842 0.000000 0.247410
0.694148 0.000000 0.369146
0.923644 0.000000 0.452979
0.380652 0.348852 0.000000
0.397101 0.345342 0.000000
0.480171 0.346685 0.000000
0.793790 0.347417 0.111635
0.959899 0.000000 0.345983
0.551019 0.524529 0.000000
0.564385 0.525750 0.000000
0.617121 0.535790 0.000000
0.750362 0.548180 0.000000
0.965087 0.574212 0.000000
0.831571 0.822812 0.000000
0.840757 0.822324 0.000000
0.874388 0.820462 0.000000
0.918090 0.797604 0.000000
0.964355 0.717037 0.000000
0.178775 0.000000 0.474098
0.298924 0.000000 0.480385
0.496864 0.000000 0.505516
0.686000 0.000000 0.534600
0.904417 0.000000 0.593774
0.096071 0.229770 0.435340
0.249058 0.179660 0.444984
0.485542 0.000000 0.477089
0.694636 0.000000 0.520592
0.909819 0.000000 0.578180
0.283665 0.361791 0.114778
0.313359 0.380438 0.158968
0.479011 0.448066 0.363317
0.727535 0.274662 0.438178
0.930510 0.000000 0.502770
0.548241 0.529015 0.000000
0.560601 0.531975 0.000000
0.607721 0.540215 0.000000
0.758450 0.559747 0.000000
0.964416 0.586419 0.295933
0.837613 0.823178 0.000000
0.845670 0.823484 0.000000
0.874998 0.824430 0.000000
0.920165 0.800504 0.000000
0.966918 0.712154 0.000000
0.218418 0.000000 0.671290
0.311894 0.000000 0.673060
0.485603 0.000000 0.679683
0.663447 0.000000 0.690761
0.850706 0.000000 0.725429
0.137484 0.169680 0.661219
0.269261 0.121218 0.663722
0.479805 0.000000 0.672114
0.677668 0.000000 0.685359
0.863890 0.000000 0.722744
0.000000 0.542504 0.598901
0.242954 0.502037 0.616571
0.478889 0.420417 0.636744
0.689052 0.228733 0.659541
0.914702 0.000000 0.710170
0.363745 0.505119 0.063478
0.380133 0.518547 0.106905
0.462409 0.574640 0.239078
0.749020 0.716182 0.573022
0.921752 0.568048 0.603143
0.799802 0.824552 0.000000
0.809018 0.825254 0.000000
0.844785 0.828031 0.000000
0.912352 0.822446 0.000000
0.965820 0.718074 0.000000
0.207370 0.000000 0.767941
0.271916 0.000000 0.768338
0.414130 0.000000 0.769650
0.569543 0.000000 0.772091
0.720577 0.000000 0.775448
0.182620 0.056580 0.766079
0.261570 0.000000 0.766690
0.425147 0.000000 0.768704
0.577508 0.000000 0.771359
0.727993 0.000000 0.774990
0.280674 0.452338 0.752743
0.352178 0.449470 0.753170
0.444953 0.359289 0.758267
0.582727 0.000000 0.766751
0.753109 0.000000 0.773465
0.000000 0.822324 0.700954
0.248081 0.799710 0.706416
0.543542 0.732815 0.722347
0.736172 0.690517 0.733608
0.818479 0.454688 0.754025
0.561395 0.857786 0.000000
0.563684 0.856687 0.000000
0.576257 0.852384 0.000000
0.637690 0.842557 0.281010
0.913207 0.879423 0.700587
