其他预设/【213】赛博朋克科幻预设52款/1.LUT预设（视频调色-PR-AE-PS-FCPX-达芬奇用）/赛博朋克科幻__-8 强度2.cube
# Created by Adobe Lightroom plugin Export LUT (1.17.0)
# www.johnrellis.com/lightroom/exportlut.htm
# Preset: 赛博朋克科幻[素锦印象]-8 强度2
# Color profile: /Library/Application Support/Adobe/Color/Profiles/Recommended/AdobeRGB1998.icc
LUT_3D_SIZE 32
0.000000 0.024048 0.000000
0.019104 0.023621 0.005158
0.049683 0.021607 0.014221
0.077424 0.020783 0.034241
0.099092 0.018952 0.059052
0.121920 0.013916 0.073243
0.145968 0.002380 0.087251
0.171603 0.000000 0.101503
0.198917 0.000000 0.116640
0.228153 0.000000 0.132570
0.259892 0.000000 0.149783
0.293370 0.000000 0.168185
0.328405 0.000000 0.187289
0.365087 0.000000 0.207431
0.402594 0.000000 0.227970
0.440711 0.000000 0.248051
0.479194 0.000000 0.268162
0.517662 0.000000 0.288090
0.554864 0.000000 0.307225
0.591211 0.000000 0.325719
0.626978 0.000000 0.343786
0.662409 0.000000 0.361608
0.697414 0.000000 0.379034
0.731960 0.000000 0.396155
0.766140 0.000000 0.412970
0.799924 0.000000 0.429664
0.832914 0.000000 0.445655
0.865232 0.000000 0.461341
0.897093 0.000000 0.477302
0.928466 0.000000 0.493751
0.959319 0.000000 0.511101
0.989563 0.000000 0.529717
0.000000 0.052888 0.007599
0.013031 0.050538 0.000855
0.052552 0.035401 0.004334
0.077546 0.029206 0.025971
0.097963 0.039612 0.059724
0.120974 0.029999 0.073548
0.145541 0.013428 0.087312
0.170993 0.000000 0.101381
0.198611 0.000000 0.116579
0.228000 0.000000 0.132509
0.259678 0.000000 0.149783
0.293034 0.000000 0.167910
0.328099 0.000000 0.186893
0.364508 0.000000 0.206546
0.401770 0.000000 0.226505
0.439857 0.000000 0.246708
0.478279 0.000000 0.266880
0.516777 0.000000 0.286900
0.554070 0.000000 0.306126
0.590448 0.000000 0.324773
0.626307 0.000000 0.342901
0.661830 0.000000 0.360815
0.696864 0.000000 0.378271
0.731502 0.000000 0.395575
0.765743 0.000000 0.412451
0.799527 0.000000 0.429206
0.832914 0.000000 0.445686
0.865324 0.000000 0.461555
0.897124 0.000000 0.477424
0.928496 0.000000 0.493904
0.959350 0.000000 0.511162
0.989593 0.000000 0.529808
0.000000 0.071778 0.020508
0.000000 0.070863 0.008515
0.035248 0.069612 0.004608
0.078828 0.051026 0.013123
0.100465 0.036378 0.039277
0.121584 0.042817 0.068788
0.143923 0.042451 0.085603
0.169741 0.018463 0.099489
0.197238 0.000000 0.114382
0.226688 0.000000 0.130312
0.258274 0.000000 0.147555
0.291783 0.000000 0.165713
0.326848 0.000000 0.184878
0.363226 0.000000 0.204532
0.400458 0.000000 0.224613
0.438666 0.000000 0.244846
0.477089 0.000000 0.265171
0.515618 0.000000 0.285222
0.553063 0.000000 0.304692
0.589471 0.000000 0.323308
0.625483 0.000000 0.341680
0.661036 0.000000 0.359655
0.696162 0.000000 0.377325
0.730861 0.000000 0.394629
0.765164 0.000000 0.411780
0.799008 0.000000 0.428595
0.832456 0.000000 0.445197
0.865354 0.000000 0.461738
0.897215 0.000000 0.477668
0.928588 0.000000 0.494087
0.959411 0.000000 0.511376
0.989654 0.000000 0.529992
0.000000 0.095888 0.044038
0.000000 0.095369 0.041505
0.001495 0.094423 0.021088
0.064881 0.092561 0.013214
0.100679 0.075624 0.024628
0.124331 0.058747 0.047730
0.147311 0.038178 0.068544
0.170871 0.032593 0.088716
0.196231 0.021607 0.107210
0.223819 0.001617 0.125673
0.255528 0.000000 0.142824
0.289006 0.000000 0.161074
0.323980 0.000000 0.180209
0.360266 0.000000 0.200198
0.397742 0.000000 0.220371
0.435889 0.000000 0.240940
0.474464 0.000000 0.261479
0.513054 0.000000 0.281743
0.550683 0.000000 0.301335
0.587304 0.000000 0.320348
0.623529 0.000000 0.339025
0.659297 0.000000 0.357244
0.694575 0.000000 0.375219
0.729427 0.000000 0.392859
0.763821 0.000000 0.410193
0.797848 0.000000 0.427253
0.831388 0.000000 0.444190
0.864439 0.000000 0.461036
0.897032 0.000000 0.477852
0.928679 0.000000 0.494484
0.959533 0.000000 0.511711
0.989776 0.000000 0.530266
0.000000 0.123415 0.065919
0.000000 0.122866 0.065431
0.000000 0.122133 0.061067
0.015686 0.120668 0.030854
0.083223 0.118196 0.024506
0.122133 0.106905 0.032166
0.148775 0.081788 0.055116
0.174319 0.053803 0.066041
0.200259 0.014679 0.085176
0.226963 0.001129 0.108400
0.255955 0.000000 0.130159
0.286687 0.000000 0.152071
0.319341 0.000000 0.173587
0.355779 0.000000 0.193606
0.393133 0.000000 0.214145
0.431342 0.000000 0.234836
0.470161 0.000000 0.255711
0.508812 0.000000 0.276249
0.546899 0.000000 0.296330
0.583917 0.000000 0.315831
0.620356 0.000000 0.334905
0.656428 0.000000 0.353613
0.692012 0.000000 0.371984
0.727108 0.000000 0.390051
0.761746 0.000000 0.407782
0.795956 0.000000 0.425330
0.829679 0.000000 0.442695
0.862943 0.000000 0.459968
0.895689 0.000000 0.477211
0.927977 0.000000 0.494606
0.959716 0.000000 0.512261
0.989960 0.000000 0.530785
0.000000 0.151614 0.081941
0.000000 0.151247 0.081239
0.000000 0.150698 0.080171
0.000000 0.149935 0.067109
0.046571 0.147585 0.043183
0.102113 0.145083 0.034882
0.144961 0.138186 0.035492
0.174441 0.106996 0.059449
0.201968 0.083986 0.069703
0.231174 0.022766 0.079652
0.260380 0.000000 0.104463
0.290654 0.000000 0.131014
0.322393 0.000000 0.156130
0.355535 0.000000 0.180301
0.389624 0.000000 0.203922
0.425208 0.000000 0.227085
0.464149 0.000000 0.248234
0.503014 0.000000 0.269169
0.541436 0.000000 0.289769
0.579004 0.000000 0.309758
0.615930 0.000000 0.329473
0.652461 0.000000 0.348852
0.688380 0.000000 0.367773
0.723812 0.000000 0.386358
0.758755 0.000000 0.404730
0.793271 0.000000 0.422858
0.827298 0.000000 0.440772
0.860777 0.000000 0.458656
0.893767 0.000000 0.476539
0.926238 0.000000 0.494606
0.958190 0.000000 0.512902
0.989502 0.000000 0.531792
0.000000 0.180423 0.098238
0.000000 0.180056 0.097444
0.000000 0.179873 0.096040
0.000000 0.179538 0.089204
0.000000 0.178622 0.066957
0.068879 0.176211 0.050446
0.121675 0.173526 0.041230
0.169070 0.171023 0.034363
0.200809 0.140414 0.060945
0.231479 0.113161 0.073091
0.262730 0.080629 0.084352
0.295415 0.000000 0.095766
0.327031 0.000000 0.126833
0.359838 0.000000 0.156069
0.393622 0.000000 0.183230
0.428077 0.000000 0.209171
0.463111 0.000000 0.234195
0.498329 0.000000 0.258640
0.534325 0.000000 0.281712
0.572595 0.000000 0.302403
0.610101 0.000000 0.322789
0.647150 0.000000 0.342901
0.683558 0.000000 0.362585
0.719478 0.000000 0.381933
0.754849 0.000000 0.401038
0.789700 0.000000 0.419898
0.824094 0.000000 0.438605
0.857908 0.000000 0.457282
0.891234 0.000000 0.475990
0.923919 0.000000 0.494850
0.956054 0.000000 0.514092
0.987549 0.000000 0.533959
0.000000 0.209720 0.115358
0.000000 0.209781 0.114443
0.000000 0.209903 0.113069
0.000000 0.210056 0.108705
0.000000 0.209628 0.092744
0.000000 0.208927 0.061402
0.089052 0.206516 0.054688
0.142397 0.203891 0.046693
0.194736 0.205447 0.032868
0.228977 0.177005 0.062257
0.263035 0.143465 0.076967
0.295964 0.116091 0.089540
0.330114 0.068330 0.101625
0.365179 0.000000 0.115297
0.398596 0.000000 0.151186
0.432746 0.000000 0.182193
0.467384 0.000000 0.210910
0.502281 0.000000 0.237949
0.536950 0.000000 0.263737
0.571221 0.000000 0.288762
0.605249 0.000000 0.313115
0.640284 0.000000 0.336004
0.677302 0.000000 0.356573
0.713863 0.000000 0.376867
0.749783 0.000000 0.396857
0.785153 0.000000 0.416693
0.819944 0.000000 0.436255
0.854246 0.000000 0.455940
0.887877 0.000000 0.475624
0.920928 0.000000 0.495552
0.953307 0.000000 0.515923
0.984985 0.000000 0.536950
0.000000 0.240635 0.133150
0.000000 0.240726 0.132204
0.000000 0.240940 0.130648
0.000000 0.241337 0.126650
0.000000 0.241825 0.116548
0.000000 0.241703 0.094484
0.000000 0.241306 0.060029
0.109926 0.239048 0.059632
0.165103 0.236301 0.050690
0.222477 0.242435 0.025422
0.258854 0.215335 0.062135
0.296086 0.176669 0.080293
0.330663 0.150240 0.094148
0.366094 0.113619 0.107424
0.402075 0.009461 0.120943
0.438209 0.000000 0.139528
0.472541 0.000000 0.176486
0.507073 0.000000 0.208774
0.541344 0.000000 0.238437
0.575311 0.000000 0.266270
0.609064 0.000000 0.292882
0.642634 0.000000 0.318761
0.675959 0.000000 0.344060
0.709102 0.000000 0.368872
0.743343 0.000000 0.392279
0.779385 0.000000 0.413214
0.814786 0.000000 0.433997
0.849577 0.000000 0.454719
0.883726 0.000000 0.475624
0.917205 0.000000 0.496834
0.949920 0.000000 0.518517
0.981842 0.000000 0.541070
0.000000 0.273106 0.151278
0.000000 0.273289 0.150301
0.000000 0.273533 0.148867
0.000000 0.274388 0.145388
0.000000 0.275425 0.139376
0.000000 0.275792 0.121675
0.000000 0.276280 0.092958
0.042756 0.275822 0.065858
0.132540 0.273777 0.063447
0.189212 0.271061 0.054902
0.247990 0.276402 0.024903
0.290379 0.254826 0.060670
0.329320 0.219089 0.081727
0.366461 0.184360 0.098360
0.402869 0.152712 0.112764
0.439643 0.103243 0.127077
0.476692 0.000000 0.140963
0.512718 0.000000 0.164889
0.546532 0.000000 0.202457
0.580102 0.000000 0.235813
0.613489 0.000000 0.266392
0.646784 0.000000 0.295140
0.679866 0.000000 0.322942
0.712734 0.000000 0.349859
0.745480 0.000000 0.376379
0.778012 0.000000 0.402655
0.810391 0.000000 0.429023
0.843839 0.000000 0.453742
0.878599 0.000000 0.476112
0.912566 0.050263 0.498787
0.945678 0.109621 0.522026
0.977966 0.158572 0.546258
0.000000 0.306859 0.169955
0.000000 0.307195 0.168978
0.000000 0.307683 0.167666
0.000000 0.308537 0.164492
0.000000 0.309789 0.159304
0.000000 0.311009 0.147372
0.000000 0.311894 0.125002
0.000000 0.313024 0.087831
0.075959 0.312444 0.072084
0.156802 0.310430 0.066468
0.214939 0.307652 0.058625
0.273503 0.310033 0.028473
0.323217 0.295842 0.056794
0.363531 0.261418 0.082307
0.403418 0.218814 0.101778
0.440223 0.189975 0.117800
0.477363 0.149722 0.132967
0.514397 0.081086 0.147890
0.550958 0.000000 0.162844
0.585626 0.000000 0.191806
0.618647 0.000000 0.230106
0.651575 0.000000 0.264103
0.684352 0.000000 0.295750
0.716945 0.000000 0.325750
0.749416 0.000000 0.354772
0.781735 0.000000 0.383276
0.813901 0.000000 0.411414
0.845823 0.000000 0.439765
0.877409 0.116091 0.468605
0.908598 0.179202 0.498390
0.940673 0.222660 0.526452
0.973327 0.255161 0.552605
0.000000 0.341863 0.188937
0.000000 0.342229 0.188174
0.000000 0.342657 0.186923
0.000000 0.343511 0.184146
0.000000 0.345068 0.179660
0.000000 0.346990 0.172152
0.000000 0.348272 0.153597
0.000000 0.349676 0.125826
0.000000 0.351446 0.076112
0.103792 0.350744 0.076661
0.181979 0.348547 0.069368
0.241855 0.345647 0.060090
0.299962 0.344732 0.031250
0.357336 0.337896 0.045655
0.398627 0.304265 0.081453
0.439948 0.259648 0.104128
0.478035 0.225772 0.122255
0.515129 0.190707 0.138552
0.551598 0.141268 0.154604
0.587701 0.012787 0.170657
0.623438 0.000000 0.187045
0.656977 0.000000 0.220859
0.689387 0.000000 0.259739
0.721706 0.000000 0.294713
0.753902 0.000000 0.327672
0.785977 0.000000 0.359136
0.817868 0.000000 0.389960
0.849577 0.000000 0.420447
0.880949 0.106447 0.451209
0.911986 0.172915 0.482673
0.942473 0.231724 0.515251
0.972320 0.290410 0.549523
0.000000 0.377508 0.208347
0.000000 0.377813 0.207553
0.000000 0.378332 0.206516
0.000000 0.379370 0.204013
0.000000 0.380987 0.199924
0.000000 0.383154 0.194125
0.000000 0.384955 0.180514
0.000000 0.386786 0.158114
0.000000 0.388769 0.123781
0.000000 0.390692 0.076936
0.131533 0.389960 0.080598
0.208164 0.387549 0.071992
0.269810 0.384558 0.060945
0.327337 0.380560 0.034455
0.392126 0.380560 0.026551
0.434211 0.347295 0.079316
0.476081 0.304570 0.105379
0.515740 0.261173 0.126314
0.552239 0.228702 0.144198
0.588342 0.187655 0.161715
0.624048 0.129793 0.178988
0.659480 0.000000 0.196597
0.694484 0.000000 0.214786
0.727047 0.000000 0.253239
0.758968 0.000000 0.292546
0.790707 0.000000 0.328862
0.822354 0.000000 0.363348
0.853819 0.000000 0.396948
0.885008 0.093263 0.430274
0.915801 0.165530 0.464027
0.946075 0.225711 0.498573
0.975708 0.285557 0.534722
0.000000 0.413550 0.228061
0.000000 0.413886 0.227268
0.000000 0.414374 0.226230
0.000000 0.415473 0.223972
0.000000 0.417060 0.220279
0.000000 0.419287 0.215091
0.000000 0.421851 0.206302
0.000000 0.423896 0.187167
0.000000 0.426154 0.160067
0.000000 0.428962 0.117739
0.000000 0.430640 0.083925
0.159762 0.429816 0.084443
0.235233 0.427283 0.075013
0.298528 0.424048 0.061952
0.357794 0.419898 0.032227
0.427375 0.423560 0.002472
0.470069 0.390021 0.076295
0.511986 0.348730 0.106172
0.552728 0.295903 0.130709
0.588861 0.265354 0.150149
0.624659 0.229099 0.169253
0.660090 0.184024 0.187900
0.695155 0.119417 0.206973
0.729915 0.000000 0.226474
0.764370 0.000000 0.246708
0.795987 0.000000 0.289677
0.827359 0.000000 0.330022
0.858549 0.000000 0.367987
0.889433 0.074983 0.404974
0.920012 0.156374 0.441688
0.950072 0.218967 0.478889
0.979522 0.279820 0.517296
0.000000 0.449714 0.247593
0.000000 0.450019 0.246952
0.000000 0.450507 0.245914
0.000000 0.451606 0.243931
0.000000 0.453254 0.240604
0.000000 0.455512 0.235904
0.000000 0.458381 0.229740
0.000000 0.460700 0.214633
0.000000 0.463233 0.192111
0.000000 0.466224 0.159701
0.000000 0.469490 0.106813
0.072633 0.471015 0.091798
0.187716 0.469703 0.088441
0.262913 0.467109 0.077821
0.327764 0.463661 0.063752
0.388800 0.459205 0.029877
0.462959 0.466529 0.000000
0.505791 0.432532 0.072236
0.547295 0.391547 0.107271
0.587793 0.341466 0.134371
0.625116 0.300969 0.156741
0.660639 0.268009 0.177157
0.695735 0.229770 0.197543
0.730587 0.183322 0.218143
0.765072 0.119081 0.239261
0.799252 0.000000 0.261234
0.832853 0.000000 0.286534
0.863706 0.000000 0.331792
0.894377 0.036744 0.373907
0.924651 0.145052 0.414740
0.954528 0.210819 0.455360
0.983734 0.273320 0.496864
0.000000 0.485817 0.267247
0.000000 0.486122 0.266606
0.000000 0.486580 0.265751
0.000000 0.487587 0.263859
0.000000 0.489204 0.260716
0.000000 0.491463 0.256443
0.000000 0.494240 0.250858
0.000000 0.497292 0.240940
0.000000 0.499825 0.221378
0.000000 0.502861 0.195132
0.000000 0.506279 0.156832
0.000000 0.510094 0.089906
0.109346 0.511376 0.100954
0.216129 0.509392 0.093416
0.291173 0.506432 0.082094
0.357183 0.502800 0.066621
0.419654 0.498146 0.031769
0.498512 0.509178 0.000000
0.541009 0.474159 0.068421
0.582269 0.433570 0.108949
0.622522 0.385718 0.138674
0.661036 0.335851 0.164065
0.696315 0.305241 0.186282
0.731197 0.271458 0.208133
0.765743 0.233982 0.230411
0.799985 0.190982 0.253269
0.833890 0.139162 0.277165
0.867369 0.062867 0.302586
0.899748 0.000000 0.334874
0.929808 0.131044 0.381781
0.959380 0.201602 0.427283
0.988342 0.265904 0.472663
0.000000 0.521477 0.286595
0.000000 0.521843 0.285954
0.000000 0.522210 0.285191
0.000000 0.523247 0.283421
0.000000 0.524804 0.280613
0.000000 0.526909 0.276707
0.000000 0.529625 0.271672
0.000000 0.532921 0.265324
0.000000 0.535729 0.249119
0.000000 0.538720 0.226627
0.000000 0.542168 0.196170
0.000000 0.546044 0.151217
0.000000 0.549615 0.099641
0.145113 0.550774 0.108736
0.244633 0.548241 0.099123
0.319341 0.545129 0.087251
0.386358 0.541253 0.071626
0.450294 0.536461 0.038666
0.533562 0.550866 0.000000
0.575799 0.515312 0.065492
0.616876 0.474983 0.111482
0.656916 0.428779 0.143954
0.696223 0.374304 0.171939
0.731685 0.341375 0.196139
0.766384 0.310918 0.219852
0.800687 0.279118 0.243839
0.834684 0.246006 0.268711
0.868223 0.213535 0.294926
0.901305 0.184237 0.322911
0.933806 0.165499 0.353124
0.964691 0.190158 0.392859
0.993378 0.257298 0.443793
0.000000 0.556664 0.305791
0.000000 0.556939 0.305211
0.000000 0.557397 0.304479
0.000000 0.558343 0.302861
0.000000 0.559838 0.300175
0.000000 0.561791 0.296574
0.000000 0.564294 0.291875
0.000000 0.567376 0.286168
0.000000 0.570520 0.275090
0.000000 0.573510 0.255619
0.000000 0.576898 0.230137
0.000000 0.580652 0.195499
0.000000 0.584802 0.142885
0.000000 0.587823 0.111543
0.180056 0.588373 0.117220
0.273289 0.585748 0.107179
0.347784 0.582605 0.094820
0.415473 0.578637 0.079225
0.480507 0.573754 0.052522
0.564630 0.588373 0.000000
0.610407 0.555718 0.064240
0.651270 0.515526 0.115511
0.691218 0.470558 0.150759
0.730220 0.419501 0.180575
0.766873 0.376593 0.207248
0.801328 0.349004 0.232914
0.835416 0.321386 0.259007
0.869078 0.295109 0.286107
0.902251 0.272282 0.314733
0.934844 0.256657 0.345647
0.966735 0.252842 0.379278
0.997711 0.266209 0.416541
0.000000 0.591333 0.324681
0.000000 0.591608 0.324132
0.000000 0.592004 0.323400
0.000000 0.592859 0.321843
0.000000 0.594171 0.319371
0.000000 0.596002 0.316014
0.000000 0.598352 0.311681
0.000000 0.601099 0.306432
0.000000 0.604486 0.300145
0.000000 0.607324 0.282933
0.000000 0.610620 0.260929
0.000000 0.614252 0.232486
0.000000 0.618311 0.193484
0.000000 0.622766 0.132326
0.073304 0.625208 0.125460
0.213169 0.624964 0.127382
0.302007 0.622339 0.117494
0.375982 0.619074 0.105165
0.444373 0.615106 0.089601
0.510430 0.610132 0.067597
0.592554 0.620935 0.000000
0.644862 0.595331 0.066621
0.685573 0.555352 0.121645
0.725246 0.511620 0.159060
0.764096 0.462928 0.190768
0.801877 0.411170 0.219730
0.836088 0.385901 0.247471
0.869871 0.362097 0.275822
0.903166 0.341222 0.305516
0.935882 0.325628 0.337224
0.967895 0.318791 0.371466
0.999023 0.324804 0.409308
0.000000 0.625544 0.343236
0.000000 0.625788 0.342779
0.000000 0.626154 0.342077
0.000000 0.626886 0.340642
0.000000 0.628138 0.338262
0.000000 0.629786 0.335149
0.000000 0.631861 0.331151
0.000000 0.634394 0.326390
0.000000 0.637446 0.320714
0.000000 0.640497 0.308873
0.000000 0.643580 0.289738
0.000000 0.647150 0.265599
0.000000 0.651026 0.233982
0.000000 0.655268 0.190799
0.000000 0.659663 0.129030
0.128145 0.661646 0.142092
0.245792 0.660670 0.139895
0.330999 0.657954 0.130068
0.404578 0.654627 0.117830
0.473243 0.650568 0.102998
0.540032 0.645594 0.082948
0.619898 0.652857 0.000000
0.679103 0.634333 0.072541
0.719600 0.594568 0.129915
0.759121 0.551781 0.169192
0.797818 0.505241 0.202762
0.835721 0.454078 0.233677
0.870603 0.422400 0.263798
0.904021 0.402045 0.294835
0.936858 0.385992 0.327520
0.969024 0.376745 0.362646
1.000000 0.377722 0.401129
0.000000 0.659419 0.361700
0.000000 0.659632 0.361242
0.000000 0.659937 0.360601
0.000000 0.660700 0.359228
0.000000 0.661738 0.357031
0.000000 0.663203 0.354131
0.000000 0.665064 0.350378
0.000000 0.667323 0.345953
0.000000 0.670039 0.340826
0.000000 0.673060 0.334051
0.000000 0.676112 0.317052
0.000000 0.679408 0.295933
0.000000 0.683070 0.269535
0.000000 0.687129 0.235264
0.000000 0.691493 0.187839
0.000000 0.695277 0.147219
0.170565 0.697261 0.160952
0.278050 0.695430 0.154726
0.360296 0.692714 0.144778
0.433234 0.689326 0.133242
0.502007 0.685237 0.118868
0.569390 0.680232 0.100496
0.647272 0.684230 0.058961
0.713222 0.672450 0.083009
0.753567 0.632959 0.140627
0.792935 0.591119 0.181552
0.831418 0.546410 0.216953
0.869047 0.498848 0.249912
0.904814 0.458625 0.282506
0.937835 0.441749 0.316350
0.970123 0.430365 0.352514
1.000000 0.427558 0.391943
0.000000 0.693050 0.379980
0.000000 0.693233 0.379553
0.000000 0.693507 0.378912
0.000000 0.694148 0.377630
0.000000 0.695094 0.375555
0.000000 0.696407 0.372839
0.000000 0.698085 0.369390
0.000000 0.700038 0.365270
0.000000 0.702449 0.360632
0.000000 0.705196 0.355505
0.000000 0.708125 0.343236
0.000000 0.711238 0.324559
0.000000 0.714717 0.301823
0.000000 0.718471 0.273503
0.000000 0.722621 0.236881
0.000000 0.727047 0.185855
0.002716 0.730037 0.167849
0.211002 0.731624 0.180209
0.310094 0.729397 0.171786
0.389929 0.726589 0.161990
0.462074 0.723232 0.150729
0.530907 0.719051 0.136965
0.598749 0.714015 0.120180
0.674281 0.714992 0.091249
0.747280 0.709987 0.096834
0.787472 0.670802 0.153689
0.826658 0.629755 0.196078
0.864866 0.586969 0.233494
0.902190 0.542382 0.268711
0.938598 0.496498 0.303532
0.971221 0.481758 0.340948
1.000000 0.475532 0.381384
0.000000 0.726497 0.398199
0.000000 0.726711 0.397803
0.000000 0.726955 0.397223
0.000000 0.727443 0.395941
0.000000 0.728298 0.394049
0.000000 0.729458 0.391424
0.000000 0.730953 0.388190
0.000000 0.732662 0.384436
0.000000 0.734768 0.380224
0.000000 0.737179 0.375647
0.000000 0.739834 0.368658
0.000000 0.742733 0.352178
0.000000 0.745968 0.332219
0.000000 0.749477 0.307927
0.000000 0.753323 0.277897
0.000000 0.757473 0.239322
0.000000 0.761868 0.185611
0.128634 0.764034 0.190677
0.251164 0.764736 0.199283
0.342596 0.762509 0.190799
0.419898 0.759701 0.181369
0.491310 0.756252 0.170474
0.559960 0.752102 0.157534
0.627924 0.747066 0.141817
0.701167 0.745235 0.119081
0.781277 0.746883 0.113344
0.821256 0.707881 0.169619
0.860197 0.667903 0.213352
0.898100 0.626886 0.252689
0.935027 0.585229 0.290410
0.970947 0.544091 0.328344
1.000000 0.522667 0.369329
0.000000 0.759945 0.416419
0.000000 0.760098 0.415961
0.000000 0.760311 0.415442
0.000000 0.760769 0.414252
0.000000 0.761532 0.412482
0.000000 0.762509 0.410010
0.000000 0.763760 0.407019
0.000000 0.765286 0.403540
0.000000 0.767056 0.399603
0.000000 0.769100 0.395483
0.000000 0.771420 0.391577
0.000000 0.774044 0.378851
0.000000 0.777005 0.361181
0.000000 0.780240 0.340063
0.000000 0.783810 0.314672
0.000000 0.787594 0.283482
0.000000 0.791653 0.243687
0.000000 0.795529 0.201053
0.184817 0.797238 0.216068
0.289830 0.797116 0.220493
0.375250 0.794827 0.212253
0.450324 0.792020 0.202945
0.520745 0.788602 0.192355
0.589227 0.784421 0.180026
0.657191 0.779355 0.165438
0.727993 0.775021 0.146670
0.815244 0.783017 0.132631
0.854948 0.744472 0.188174
0.893553 0.705440 0.233402
0.931090 0.666224 0.274998
0.967529 0.627741 0.315740
1.000000 0.591424 0.357549
0.000000 0.793423 0.434546
0.000000 0.793515 0.434150
0.000000 0.793729 0.433631
0.000000 0.794125 0.432532
0.000000 0.794736 0.430793
0.000000 0.795590 0.428565
0.000000 0.796658 0.425788
0.000000 0.797940 0.422553
0.000000 0.799435 0.418982
0.000000 0.801175 0.415381
0.000000 0.803098 0.411994
0.000000 0.805264 0.405097
0.000000 0.807980 0.389288
0.000000 0.810910 0.370733
0.000000 0.814115 0.348791
0.000000 0.817594 0.322606
0.000000 0.821256 0.290867
0.000000 0.825223 0.250889
0.077302 0.828183 0.228367
0.233433 0.829557 0.243931
0.328130 0.828672 0.244236
0.408606 0.826383 0.236088
0.481453 0.823575 0.226932
0.550713 0.820218 0.216526
0.618738 0.816037 0.204868
0.686671 0.810971 0.191104
0.755581 0.804868 0.174716
0.849149 0.818540 0.154543
0.888518 0.780484 0.209720
0.926726 0.742580 0.256626
0.963806 0.705348 0.300969
0.999603 0.670130 0.345556
0.000000 0.826963 0.452796
0.000000 0.827054 0.452399
0.000000 0.827237 0.451911
0.000000 0.827573 0.450874
0.000000 0.828092 0.449287
0.000000 0.828824 0.447120
0.000000 0.829709 0.444556
0.000000 0.830777 0.441566
0.000000 0.831998 0.438392
0.000000 0.833371 0.435157
0.000000 0.834897 0.432258
0.000000 0.836545 0.430213
0.000000 0.838926 0.416999
0.000000 0.841550 0.400519
0.000000 0.844419 0.381384
0.000000 0.847501 0.358984
0.000000 0.850828 0.332555
0.000000 0.854337 0.300999
0.000000 0.858030 0.261967
0.169741 0.859983 0.258488
0.279698 0.861021 0.274571
0.366705 0.859525 0.270512
0.442756 0.857267 0.262577
0.513359 0.854520 0.253574
0.581415 0.851133 0.243503
0.648707 0.847013 0.232059
0.716396 0.842008 0.218936
0.785183 0.835935 0.203555
0.880674 0.851865 0.180392
0.921874 0.816068 0.234501
0.959655 0.779385 0.283574
0.996063 0.744503 0.331518
0.000000 0.860655 0.471046
0.000000 0.860716 0.470710
0.000000 0.860868 0.470253
0.000000 0.861173 0.469276
0.000000 0.861601 0.467720
0.000000 0.862181 0.465797
0.000000 0.862913 0.463416
0.000000 0.863767 0.460731
0.000000 0.864744 0.457832
0.000000 0.865843 0.455055
0.000000 0.867002 0.452705
0.000000 0.868254 0.451240
0.000000 0.869902 0.444770
0.000000 0.872251 0.430030
0.000000 0.874754 0.413153
0.000000 0.877470 0.393683
0.000000 0.880400 0.371313
0.000000 0.883482 0.345403
0.000000 0.886717 0.314916
0.065248 0.890166 0.278172
0.234226 0.890990 0.291691
0.326238 0.891508 0.306889
0.406043 0.889708 0.299840
0.478065 0.887510 0.291966
0.546319 0.884794 0.283299
0.612970 0.881468 0.273442
0.679408 0.877379 0.262211
0.746548 0.872435 0.249607
0.815030 0.866484 0.235080
0.907073 0.879942 0.214878
0.954986 0.851164 0.262882
0.992157 0.816037 0.315282
0.000000 0.894438 0.489357
0.000000 0.894530 0.489052
0.000000 0.894621 0.488655
0.000000 0.894865 0.487709
0.000000 0.895201 0.486305
0.000000 0.895689 0.484474
0.000000 0.896269 0.482338
0.000000 0.896941 0.479927
0.000000 0.897704 0.477394
0.000000 0.898528 0.475135
0.000000 0.899351 0.473335
0.000000 0.900175 0.472480
0.000000 0.900969 0.472877
0.000000 0.903014 0.459724
0.000000 0.905211 0.444739
