其他预设/【213】赛博朋克科幻预设52款/1.LUT预设（视频调色-PR-AE-PS-FCPX-达芬奇用）/赛博朋克科幻__-8 强度4.cube
# Created by Adobe Lightroom plugin Export LUT (1.17.0)
# www.johnrellis.com/lightroom/exportlut.htm
# Preset: 赛博朋克科幻[素锦印象]-8 强度4
# Color profile: /Library/Application Support/Adobe/Color/Profiles/Recommended/AdobeRGB1998.icc
LUT_3D_SIZE 8
DOMAIN_MIN 0.000000 0.000000 0.000000
DOMAIN_MAX 0.903226 0.903226 0.903226
0.000000 0.056855 0.000000
0.070832 0.067384 0.061006
0.147616 0.072724 0.125826
0.286015 0.000000 0.235111
0.471595 0.000000 0.368933
0.640162 0.000000 0.477913
0.782803 0.104494 0.567041
0.898650 0.340978 0.649226
0.000000 0.113985 0.070771
0.034852 0.106172 0.038636
0.140627 0.083223 0.121798
0.285618 0.000000 0.238346
0.472633 0.000000 0.372503
0.641199 0.000000 0.480507
0.783658 0.099550 0.568750
0.899199 0.339879 0.650233
0.000000 0.213077 0.142428
0.000000 0.209171 0.139101
0.074372 0.209384 0.069795
0.249058 0.137819 0.181888
0.439643 0.104738 0.351080
0.644892 0.000000 0.489662
0.786679 0.078279 0.574792
0.901091 0.336217 0.653742
0.000000 0.340856 0.235142
0.000000 0.334539 0.232364
0.000000 0.360998 0.230289
0.119417 0.376318 0.099275
0.420569 0.163729 0.212070
0.538048 0.307897 0.423285
0.755337 0.314977 0.568261
0.904570 0.329503 0.660212
0.000000 0.482918 0.337072
0.000000 0.478065 0.334936
0.000000 0.488228 0.334234
0.000000 0.535363 0.322972
0.190158 0.562615 0.158175
0.594202 0.281743 0.245945
0.705013 0.412665 0.497658
0.843046 0.578149 0.659480
0.000000 0.635248 0.445075
0.000000 0.632197 0.443915
0.000000 0.624323 0.440070
0.000000 0.656794 0.439216
0.000000 0.700008 0.414313
0.291661 0.723659 0.263279
0.740291 0.533074 0.329778
0.858762 0.550286 0.579889
0.000000 0.794797 0.556023
0.000000 0.793301 0.555749
0.000000 0.787839 0.554833
0.000000 0.791104 0.549035
0.000000 0.813535 0.545098
0.172305 0.840452 0.521386
0.439307 0.853880 0.414557
0.874846 0.737728 0.457801
0.000000 0.949554 0.664424
0.000000 0.949096 0.664698
0.000000 0.947570 0.665797
0.000000 0.944732 0.667811
0.000000 0.946197 0.660121
0.261509 0.947051 0.663508
0.478767 0.954070 0.653773
0.628717 0.958404 0.582116
0.000000 0.057832 0.070008
0.080049 0.060975 0.084718
0.165408 0.058930 0.154452
0.313573 0.000000 0.272862
0.498238 0.000000 0.400336
0.657191 0.000000 0.497688
0.792508 0.096162 0.578607
0.903227 0.341741 0.655177
0.000000 0.102937 0.080079
0.066255 0.105196 0.078187
0.152499 0.095003 0.144472
0.312566 0.000000 0.275181
0.498543 0.000000 0.403021
0.657984 0.000000 0.499916
0.793271 0.090852 0.580133
0.903716 0.340734 0.656123
0.000000 0.202853 0.146059
0.000000 0.204501 0.144686
0.090425 0.209018 0.099947
0.243473 0.177981 0.207218
0.455970 0.126680 0.371893
0.659571 0.000000 0.506950
0.795895 0.066316 0.585687
0.905516 0.337255 0.659449
0.000000 0.328222 0.234897
0.000000 0.327398 0.233890
0.000000 0.356268 0.235874
0.134463 0.376074 0.130953
0.416205 0.206332 0.245396
0.552544 0.321324 0.440345
0.762570 0.328374 0.578302
0.908812 0.330419 0.665644
0.000000 0.470649 0.335576
0.000000 0.466072 0.333471
0.000000 0.483864 0.336065
0.000000 0.533349 0.331670
0.204105 0.562310 0.186343
0.592615 0.294011 0.269963
0.701961 0.438331 0.512505
0.848417 0.583581 0.665736
0.000000 0.627314 0.445167
0.000000 0.624262 0.443915
0.000000 0.620661 0.440833
0.000000 0.653437 0.441505
0.000000 0.698238 0.422370
0.304875 0.722988 0.284581
0.740566 0.529046 0.351202
0.856779 0.566278 0.591608
0.000000 0.791318 0.557855
0.000000 0.789822 0.557580
0.000000 0.784360 0.556542
0.000000 0.788968 0.550744
0.000000 0.811582 0.547417
0.198276 0.839078 0.528099
0.450050 0.853056 0.428260
0.875059 0.735256 0.472389
0.000000 0.948882 0.666682
0.000000 0.948486 0.666987
0.000000 0.946960 0.668025
0.000000 0.944091 0.670039
0.000000 0.945647 0.662074
0.273350 0.946166 0.666865
0.486122 0.953368 0.657496
0.634913 0.957824 0.588312
0.028138 0.057191 0.132784
0.094606 0.049775 0.143679
0.197024 0.000000 0.217258
0.384466 0.000000 0.361028
0.559472 0.000000 0.470100
0.701411 0.000000 0.548425
0.819516 0.073671 0.610468
0.916930 0.345983 0.672847
0.000000 0.121370 0.130709
0.073457 0.103914 0.144778
0.183017 0.080690 0.205570
0.379675 0.000000 0.361151
0.561028 0.000000 0.475288
0.702174 0.000000 0.550683
0.820127 0.065827 0.611902
0.917357 0.345098 0.673701
0.000000 0.177920 0.148898
0.000000 0.183536 0.153170
0.133974 0.207248 0.167056
0.298100 0.210056 0.288640
0.512932 0.153170 0.439734
0.693507 0.000000 0.549523
0.822385 0.000000 0.617060
0.918975 0.341527 0.676783
0.000000 0.306157 0.236851
0.000000 0.313481 0.240452
0.000000 0.341741 0.251591
0.179629 0.374945 0.207370
0.400153 0.313268 0.333104
0.600549 0.359258 0.495033
0.787961 0.360571 0.610346
0.921965 0.334813 0.682643
0.000000 0.444923 0.333196
0.000000 0.443732 0.332555
0.000000 0.469032 0.341802
0.000000 0.524407 0.357946
0.248875 0.560632 0.262058
0.584680 0.353368 0.350378
0.692287 0.512749 0.557488
0.866972 0.598291 0.686000
0.000000 0.606958 0.445563
0.000000 0.602045 0.443671
0.000000 0.607782 0.443488
0.000000 0.641382 0.448798
0.000000 0.691768 0.448310
0.347234 0.720577 0.347509
0.741390 0.517723 0.416114
0.850645 0.614588 0.627771
0.000000 0.781033 0.563714
0.000000 0.779080 0.563348
0.000000 0.773159 0.562097
0.000000 0.781582 0.556481
0.000000 0.804654 0.554894
0.263859 0.834226 0.549310
0.484291 0.850370 0.469795
0.876158 0.726802 0.516869
0.000000 0.946899 0.674556
0.000000 0.946746 0.674708
0.000000 0.945220 0.675746
0.000000 0.942290 0.677668
0.000000 0.944030 0.668879
0.306584 0.943328 0.677974
0.508934 0.951049 0.669490
0.654994 0.955962 0.608179
0.070710 0.034119 0.244816
0.127810 0.000000 0.262760
0.220310 0.000000 0.296208
0.424750 0.000000 0.444160
0.643427 0.000000 0.567895
0.758816 0.000000 0.612787
0.856718 0.020844 0.654749
0.937469 0.354528 0.699489
0.000000 0.103273 0.240360
0.091524 0.096803 0.257908
0.217258 0.037110 0.300450
0.414191 0.000000 0.438911
0.637201 0.000000 0.567590
0.760037 0.000000 0.616175
0.857511 0.000000 0.656519
0.937713 0.353857 0.699977
0.000000 0.204532 0.210300
0.000000 0.212100 0.222263
0.147463 0.208042 0.283055
0.363745 0.198032 0.398230
0.606287 0.144167 0.549065
0.751034 0.000000 0.617548
0.859983 0.000000 0.662257
0.938872 0.350713 0.702419
0.000000 0.263767 0.228550
0.000000 0.270939 0.234745
0.000000 0.299992 0.258976
0.252873 0.371130 0.310948
0.478706 0.405097 0.461646
0.675349 0.414862 0.579767
0.830442 0.388678 0.659663
0.941558 0.343694 0.707912
0.000000 0.409125 0.328466
0.000000 0.415503 0.332403
0.000000 0.441230 0.347601
0.000000 0.496956 0.378149
0.320592 0.556756 0.362524
0.560998 0.490181 0.477852
0.736385 0.578759 0.623529
0.898283 0.609491 0.716457
0.000000 0.571374 0.442115
0.000000 0.568414 0.440528
0.000000 0.584009 0.446174
0.000000 0.618738 0.458625
0.184451 0.678981 0.488197
0.414069 0.716030 0.433814
0.736385 0.548882 0.503868
0.842283 0.680781 0.677852
0.000000 0.763424 0.572259
0.000000 0.761471 0.571740
0.000000 0.755398 0.569970
0.000000 0.768246 0.566033
0.000000 0.791897 0.566186
0.335302 0.825345 0.579828
0.534600 0.846250 0.526390
0.879454 0.712215 0.577844
0.000000 0.942138 0.689235
0.000000 0.942046 0.689387
0.000000 0.941955 0.689631
0.000000 0.940642 0.690547
0.000000 0.941955 0.681209
0.289250 0.940520 0.688258
0.540154 0.947326 0.687648
0.685786 0.953063 0.637720
0.109895 0.000000 0.394354
0.168734 0.000000 0.413306
0.307500 0.000000 0.468605
0.413886 0.000000 0.495796
0.657099 0.000000 0.630823
0.813138 0.000000 0.687190
0.901366 0.000000 0.711177
0.964141 0.361181 0.736477
0.000000 0.088411 0.384894
0.121584 0.071687 0.403876
0.295354 0.000000 0.468055
0.413397 0.000000 0.499855
0.651637 0.000000 0.630274
0.810452 0.000000 0.687984
0.902007 0.000000 0.712856
0.964385 0.360510 0.736965
0.000000 0.253666 0.324224
0.000000 0.245457 0.350042
0.171420 0.204135 0.425299
0.392004 0.178805 0.498054
0.625788 0.000000 0.616785
0.799771 0.000000 0.688350
0.904112 0.000000 0.718471
0.965026 0.358587 0.738338
0.000000 0.290318 0.289769
0.000000 0.298802 0.300481
0.000000 0.330175 0.340154
0.278141 0.378485 0.449317
0.556023 0.422614 0.573754
0.764279 0.464973 0.678431
0.884672 0.383917 0.719631
0.965209 0.356878 0.739040
0.000000 0.346349 0.305241
0.000000 0.352392 0.310613
0.000000 0.376928 0.332067
0.000000 0.434974 0.380133
0.410315 0.549859 0.470466
0.645319 0.604944 0.610437
0.819394 0.621485 0.700160
0.940154 0.581201 0.749508
0.000000 0.516899 0.425574
0.000000 0.521843 0.428779
0.000000 0.542168 0.442054
0.000000 0.580529 0.465156
0.130983 0.645380 0.503319
0.491035 0.709773 0.521263
0.718105 0.653773 0.613489
0.870146 0.736599 0.733547
0.000000 0.734676 0.579858
0.000000 0.732692 0.579156
0.000000 0.732845 0.577661
0.000000 0.745724 0.577234
0.000000 0.771145 0.579461
0.392401 0.810605 0.613062
0.592950 0.841123 0.586877
0.882658 0.710719 0.643549
0.000000 0.934539 0.710170
0.000000 0.934478 0.710353
0.000000 0.934508 0.710842
0.000000 0.935576 0.711055
0.000000 0.940612 0.701015
0.143313 0.938994 0.697963
0.570855 0.942138 0.709529
0.723934 0.949432 0.672847
0.153902 0.000000 0.552575
0.210025 0.000000 0.566552
0.349889 0.000000 0.608087
0.489448 0.000000 0.640742
0.631983 0.000000 0.672297
0.825193 0.000000 0.743771
0.933379 0.000000 0.767605
0.992767 0.359808 0.779965
0.073915 0.009613 0.543725
0.162448 0.000000 0.558221
0.329442 0.000000 0.603998
0.488502 0.000000 0.643244
0.625513 0.000000 0.670436
0.822904 0.000000 0.744533
0.932586 0.000000 0.768399
0.993042 0.358923 0.780575
0.000000 0.227543 0.497658
0.000000 0.196719 0.516411
0.206363 0.192813 0.571832
0.462806 0.155032 0.641230
0.606165 0.000000 0.665309
0.814359 0.000000 0.745968
0.929961 0.000000 0.771145
0.993835 0.356603 0.782376
0.000000 0.353094 0.410407
0.000000 0.358129 0.420447
0.000000 0.375830 0.461830
0.311772 0.383154 0.586328
0.575311 0.413214 0.654749
0.783261 0.413855 0.732387
0.919280 0.334569 0.774289
0.994781 0.354253 0.784390
0.000000 0.375097 0.367285
0.000000 0.382483 0.375891
0.000000 0.409552 0.407721
0.000000 0.463844 0.468971
0.448768 0.563043 0.598047
0.726589 0.631952 0.703761
0.894499 0.655024 0.776181
0.984527 0.497963 0.788144
0.000000 0.445869 0.397711
0.000000 0.449042 0.400549
0.000000 0.462318 0.412238
0.000000 0.494697 0.440131
0.109743 0.565026 0.497414
0.577569 0.701503 0.609125
0.807279 0.756558 0.731197
0.938201 0.753048 0.788907
0.000000 0.673487 0.565820
0.000000 0.675380 0.566674
0.000000 0.683406 0.570397
0.000000 0.702815 0.580285
0.000000 0.732876 0.593194
0.294255 0.778531 0.619471
0.662287 0.834257 0.653071
0.872313 0.786770 0.729793
0.000000 0.923339 0.736263
0.000000 0.923278 0.736538
0.000000 0.923400 0.737362
0.000000 0.924956 0.737789
0.000000 0.931945 0.729305
0.000000 0.937438 0.717586
0.597772 0.933074 0.735775
0.771511 0.944640 0.715053
0.188632 0.000000 0.690303
0.237095 0.000000 0.698085
0.366796 0.000000 0.723201
0.543542 0.000000 0.757992
0.663813 0.000000 0.768704
0.826780 0.000000 0.799008
0.944640 0.000000 0.817105
1.000000 0.336004 0.821988
0.142153 0.000000 0.686122
0.207401 0.000000 0.694911
0.357580 0.000000 0.722744
0.542016 0.000000 0.759274
0.661646 0.000000 0.769772
0.822385 0.000000 0.798306
0.943938 0.000000 0.817960
1.000000 0.334691 0.822446
0.000000 0.189456 0.657649
0.000000 0.186221 0.668391
0.245640 0.169131 0.702144
0.488655 0.083619 0.749264
0.650782 0.000000 0.771817
0.806332 0.000000 0.795560
0.941558 0.000000 0.821042
1.000000 0.330571 0.824094
0.000000 0.412482 0.559075
0.000000 0.407813 0.577661
0.000000 0.370184 0.637568
0.348577 0.381750 0.709163
0.632807 0.413855 0.764523
0.775296 0.317540 0.781979
0.934600 0.127108 0.824125
1.000000 0.325078 0.826596
0.000000 0.459266 0.511467
0.000000 0.462348 0.517876
0.000000 0.473457 0.541039
0.000000 0.496559 0.583642
0.489723 0.571862 0.713954
0.750332 0.618891 0.769863
0.910033 0.607446 0.816922
1.000000 0.387030 0.830259
0.000000 0.479683 0.464790
0.000000 0.484077 0.470222
0.000000 0.500084 0.489967
0.000000 0.530053 0.526970
0.030213 0.583917 0.586725
0.625452 0.716487 0.719905
0.876982 0.780850 0.803220
0.986084 0.756619 0.839475
0.000000 0.616083 0.555932
0.000000 0.616052 0.555871
0.000000 0.616388 0.555932
0.000000 0.619806 0.558312
0.000000 0.634089 0.568963
0.188022 0.685603 0.606928
0.744228 0.824857 0.725368
0.940826 0.867918 0.822324
0.000000 0.884947 0.747707
0.000000 0.884459 0.747707
0.000000 0.883085 0.747951
0.000000 0.888975 0.750271
0.000000 0.906004 0.755215
0.000000 0.921111 0.753262
0.469490 0.921904 0.747189
0.830137 0.938079 0.765072
0.200168 0.000000 0.805173
0.246098 0.000000 0.809018
0.368017 0.000000 0.821683
0.534203 0.000000 0.840879
0.689937 0.000000 0.853971
0.817502 0.000000 0.858335
0.966033 0.000000 0.876738
1.000000 0.307988 0.863310
0.190372 0.000000 0.805417
0.237736 0.000000 0.809201
0.361089 0.000000 0.821714
0.527703 0.000000 0.840848
0.686885 0.000000 0.854490
0.814725 0.000000 0.858824
0.963592 0.000000 0.876616
1.000000 0.306249 0.863920
0.000000 0.162875 0.792325
0.000000 0.153414 0.797421
0.280552 0.098054 0.813962
0.490547 0.000000 0.837980
0.674617 0.000000 0.856229
0.804227 0.000000 0.860441
0.954620 0.000000 0.876036
1.000000 0.299962 0.865995
0.000000 0.413764 0.746914
0.000000 0.389380 0.756069
0.000000 0.339330 0.783047
0.376471 0.358618 0.816312
0.644648 0.340887 0.849241
0.785214 0.000000 0.861631
0.936522 0.000000 0.874723
1.000000 0.289281 0.869718
0.000000 0.543877 0.678584
0.000000 0.542535 0.681758
0.000000 0.538109 0.693416
0.000000 0.529259 0.752834
0.521294 0.565026 0.816159
0.785000 0.588220 0.850950
0.907683 0.440558 0.864195
1.000000 0.271214 0.875608
0.000000 0.605371 0.655451
0.000000 0.605341 0.658015
0.000000 0.605280 0.667323
0.000000 0.605219 0.685481
0.000000 0.615747 0.715969
0.665583 0.720851 0.817075
0.891264 0.750607 0.852415
0.998871 0.690425 0.872648
0.000000 0.678157 0.654994
0.000000 0.676661 0.654292
0.000000 0.671107 0.652094
0.000000 0.667628 0.655726
0.000000 0.678523 0.677852
0.136751 0.711177 0.715511
0.795682 0.838865 0.821256
0.982605 0.878599 0.869505
0.000000 0.856962 0.776761
0.000000 0.856229 0.776516
0.000000 0.853635 0.775570
0.000000 0.850645 0.773220
0.000000 0.847318 0.768887
0.000000 0.843626 0.761929
0.289647 0.846677 0.754604
0.903746 0.928649 0.825650
