其他预设/【213】赛博朋克科幻预设52款/1.LUT预设（视频调色-PR-AE-PS-FCPX-达芬奇用）/赛博朋克科幻__-5 强度2.cube
# Created by Adobe Lightroom plugin Export LUT (1.17.0)
# www.johnrellis.com/lightroom/exportlut.htm
# Preset: 赛博朋克科幻[素锦印象]-5 强度2
# Color profile: /Library/Application Support/Adobe/Color/Profiles/Recommended/AdobeRGB1998.icc
LUT_3D_SIZE 8
DOMAIN_MIN 0.000000 0.000000 0.000000
DOMAIN_MAX 0.903226 0.903226 0.903226
0.049470 0.048371 0.041199
0.124300 0.011200 0.066468
0.240726 0.000000 0.102785
0.395056 0.000000 0.150454
0.569024 0.000000 0.205417
0.721218 0.000000 0.258701
0.851164 0.000000 0.305272
0.965667 0.000000 0.359167
0.000000 0.136202 0.088289
0.115785 0.124514 0.042756
0.241733 0.000000 0.052491
0.397009 0.000000 0.108125
0.570459 0.000000 0.176577
0.722530 0.000000 0.236240
0.852445 0.000000 0.287358
0.967071 0.000000 0.340887
0.000000 0.281651 0.167086
0.000000 0.273106 0.135836
0.224430 0.244633 0.014923
0.391333 0.169039 0.040345
0.571710 0.000000 0.035950
0.727474 0.000000 0.116060
0.856931 0.000000 0.209018
0.971649 0.000000 0.273289
0.000000 0.477546 0.279271
0.000000 0.470130 0.257023
0.000000 0.449012 0.132296
0.372168 0.407935 0.000000
0.563775 0.322789 0.000000
0.721309 0.174075 0.000000
0.858427 0.000000 0.004852
0.978759 0.000000 0.064668
0.000000 0.668391 0.397436
0.000000 0.663722 0.380499
0.000000 0.647486 0.305394
0.000000 0.623255 0.000000
0.525292 0.576684 0.000000
0.715053 0.469184 0.000000
0.849424 0.353307 0.000000
0.972473 0.115755 0.005005
0.000000 0.806821 0.490730
0.000000 0.804318 0.478798
0.000000 0.794095 0.433845
0.000000 0.780911 0.305333
0.125124 0.758938 0.000000
0.653498 0.717067 0.000000
0.844144 0.601984 0.000000
0.964080 0.496986 0.000000
0.000000 0.918761 0.570489
0.000000 0.917418 0.562310
0.000000 0.911742 0.533471
0.000000 0.902708 0.462470
0.000000 0.894713 0.290318
0.359258 0.875700 0.000000
0.765743 0.838407 0.000000
0.957977 0.723812 0.000000
0.000000 1.000000 0.638025
0.000000 1.000000 0.632593
0.000000 1.000000 0.615808
0.000000 0.997162 0.598047
0.000000 0.996399 0.491676
0.000000 0.995422 0.292760
0.521355 0.978820 0.102205
0.868406 0.946838 0.000000
0.010620 0.053407 0.107362
0.117403 0.002258 0.110079
0.244144 0.000000 0.144961
0.396460 0.000000 0.188663
0.568902 0.000000 0.240421
0.720089 0.000000 0.287175
0.849912 0.000000 0.329137
0.965606 0.000000 0.367163
0.018647 0.117403 0.111330
0.120516 0.118196 0.105318
0.237552 0.079744 0.125460
0.393194 0.000000 0.164828
0.567864 0.000000 0.217380
0.720699 0.000000 0.267796
0.851194 0.000000 0.312718
0.966735 0.000000 0.353460
0.000000 0.277104 0.190311
0.009827 0.265171 0.168948
0.224735 0.240085 0.098299
0.392309 0.162478 0.103761
0.572503 0.000000 0.102571
0.725887 0.000000 0.175479
0.855741 0.000000 0.243870
0.970794 0.000000 0.298924
0.000000 0.474678 0.298009
0.000000 0.465980 0.278050
0.000000 0.444404 0.177035
0.372045 0.404883 0.042329
0.563775 0.318303 0.077150
0.722042 0.160342 0.087373
0.859007 0.000000 0.097688
0.977874 0.000000 0.147524
0.000000 0.666987 0.413275
0.000000 0.662409 0.397559
0.000000 0.644770 0.331426
0.000000 0.621088 0.089601
0.525566 0.574914 0.000000
0.715023 0.466804 0.000000
0.849882 0.350317 0.082795
0.972778 0.105592 0.104036
0.000000 0.806485 0.503624
0.000000 0.803952 0.492378
0.000000 0.793790 0.449653
0.000000 0.779538 0.331121
0.110597 0.758206 0.000000
0.654322 0.716091 0.000000
0.844083 0.601099 0.000000
0.963897 0.497353 0.112551
0.000000 0.918822 0.580896
0.000000 0.917510 0.573022
0.000000 0.911803 0.545312
0.000000 0.901549 0.482155
0.000000 0.893614 0.318456
0.360662 0.875181 0.000000
0.766842 0.837797 0.000000
0.957763 0.723873 0.000000
0.000000 1.000000 0.646021
0.000000 1.000000 0.640772
0.000000 1.000000 0.624292
0.000000 0.997040 0.608270
0.000000 0.995117 0.510796
0.077150 0.994232 0.322972
0.524987 0.978363 0.158328
0.869657 0.946441 0.115846
0.000000 0.061189 0.215213
0.076417 0.003784 0.209628
0.229892 0.000000 0.213016
0.402441 0.000000 0.280552
0.578607 0.000000 0.331640
0.725521 0.000000 0.368292
0.852781 0.000000 0.398291
0.966949 0.000000 0.425605
0.000000 0.142947 0.217105
0.073121 0.107881 0.211765
0.229587 0.061585 0.210056
0.402045 0.000000 0.270024
0.578332 0.000000 0.318395
0.724208 0.000000 0.355230
0.852201 0.000000 0.387060
0.966705 0.000000 0.416541
0.000000 0.238437 0.223697
0.072267 0.234501 0.217655
0.233738 0.228489 0.198917
0.393835 0.184970 0.224521
0.567895 0.000000 0.264225
0.720119 0.000000 0.306340
0.850980 0.000000 0.346319
0.966918 0.000000 0.382971
0.000000 0.476356 0.363500
0.000000 0.467140 0.347631
0.139376 0.436652 0.287510
0.374914 0.396063 0.187778
0.565301 0.304326 0.199710
0.724514 0.109255 0.201816
0.859159 0.000000 0.223728
0.973938 0.000000 0.287938
0.000000 0.669703 0.469947
0.000000 0.663905 0.456275
0.000000 0.643244 0.404608
0.150301 0.614435 0.258671
0.528008 0.568872 0.167727
0.714687 0.461067 0.194797
0.850828 0.345586 0.210941
0.973388 0.097383 0.217624
0.000000 0.808133 0.548882
0.000000 0.804990 0.538933
0.000000 0.793851 0.502556
0.000000 0.774563 0.418006
0.150118 0.755917 0.169863
0.657923 0.712551 0.159762
0.843259 0.600000 0.198398
0.962676 0.502556 0.241062
0.000000 0.919921 0.617090
0.000000 0.918395 0.610071
0.000000 0.912474 0.585504
0.000000 0.898222 0.545953
0.145388 0.889525 0.408453
0.369604 0.873167 0.196780
0.771176 0.835630 0.185153
0.956573 0.725093 0.223514
0.000000 1.000000 0.674342
0.000000 1.000000 0.669154
0.000000 1.000000 0.653407
0.000000 0.998138 0.637293
0.267277 0.990692 0.575189
0.275242 0.990021 0.414740
0.538750 0.976593 0.273655
0.874266 0.945006 0.256718
0.000000 0.055909 0.387762
0.000000 0.000000 0.380835
0.212345 0.000000 0.357671
0.388403 0.000000 0.364782
0.576104 0.000000 0.448432
0.726314 0.000000 0.480323
0.856504 0.000000 0.501579
0.970733 0.000000 0.516747
0.000000 0.152224 0.387579
0.000000 0.099214 0.382452
0.205692 0.010346 0.360327
0.387518 0.000000 0.362799
0.576165 0.000000 0.441810
0.726772 0.000000 0.472084
0.857206 0.000000 0.492988
0.971008 0.000000 0.507744
0.000000 0.303868 0.400702
0.000000 0.293339 0.395148
0.172213 0.214450 0.368566
0.386175 0.151339 0.354955
0.575830 0.000000 0.415015
0.727474 0.000000 0.442206
0.855863 0.000000 0.463355
0.970092 0.000000 0.480415
0.000000 0.417792 0.401221
0.000000 0.413458 0.395361
0.164553 0.399603 0.374456
0.388495 0.380255 0.333898
0.563592 0.339818 0.361547
0.715450 0.280552 0.393408
0.846921 0.186862 0.425330
0.963653 0.000000 0.455116
0.000000 0.675441 0.569299
0.000000 0.669917 0.558373
0.000000 0.649317 0.517327
0.312688 0.605982 0.434852
0.536736 0.558038 0.328496
0.711818 0.463264 0.345434
0.850553 0.356634 0.347967
0.972625 0.159518 0.348730
0.000000 0.812467 0.628534
0.000000 0.809415 0.620233
0.000000 0.797879 0.590082
0.217197 0.773373 0.533898
0.358862 0.746548 0.391211
0.666529 0.706050 0.331853
0.839994 0.604181 0.355871
0.960906 0.517662 0.374273
0.000000 0.922667 0.680812
0.000000 0.921172 0.674800
0.000000 0.915160 0.653803
0.000000 0.901366 0.618341
0.374456 0.881895 0.545373
0.397101 0.869169 0.350622
0.779751 0.831601 0.351293
0.953277 0.730159 0.377020
0.000000 1.000000 0.725551
0.000000 1.000000 0.720974
0.000000 1.000000 0.705318
0.000000 1.000000 0.684932
0.438025 0.983246 0.675563
0.434821 0.982544 0.545281
0.563775 0.973419 0.403845
0.882170 0.942443 0.397040
0.000000 0.013977 0.586114
0.000000 0.000000 0.580774
0.158053 0.000000 0.562280
0.365270 0.000000 0.530236
0.554162 0.000000 0.540246
0.726375 0.000000 0.609979
0.850797 0.000000 0.626490
0.967956 0.000000 0.631159
0.000000 0.145296 0.586511
0.000000 0.087587 0.582177
0.125582 0.000000 0.564263
0.358831 0.000000 0.532158
0.553460 0.000000 0.538811
0.725582 0.000000 0.606012
0.851560 0.000000 0.620905
0.968658 0.000000 0.628077
0.000000 0.341100 0.594873
0.000000 0.322423 0.586389
0.000000 0.210452 0.570977
0.339239 0.152712 0.537652
0.551934 0.000000 0.533165
0.722042 0.000000 0.590723
0.853574 0.000000 0.600610
0.971984 0.000000 0.604242
0.000000 0.477150 0.600366
0.000000 0.472084 0.596796
0.076204 0.455177 0.583307
0.342138 0.379583 0.544610
0.551385 0.309850 0.519097
0.719753 0.203067 0.556817
0.853971 0.000000 0.565759
0.973785 0.000000 0.564569
0.000000 0.593622 0.593652
0.000000 0.591363 0.589776
0.000000 0.583490 0.575189
0.346960 0.569146 0.545312
0.551415 0.542107 0.491005
0.704677 0.510369 0.515557
0.837308 0.470924 0.540917
0.955200 0.419654 0.564691
0.000000 0.798520 0.721920
0.000000 0.799893 0.719570
0.000000 0.804410 0.710842
0.217136 0.781308 0.663691
0.500664 0.739956 0.587304
0.679133 0.696620 0.491402
0.833585 0.617243 0.507713
0.958160 0.540856 0.508934
0.000000 0.926818 0.771633
0.000000 0.925322 0.766781
0.000000 0.919341 0.749355
0.000000 0.906401 0.717891
0.452613 0.883146 0.672419
0.541680 0.860136 0.547692
0.790921 0.825956 0.502220
0.948089 0.738888 0.522240
0.000000 1.000000 0.798947
0.000000 1.000000 0.795163
0.000000 1.000000 0.781979
0.000000 1.000000 0.759823
0.385931 0.990356 0.737392
0.572503 0.974029 0.686213
0.589166 0.969970 0.530053
0.891905 0.939086 0.529107
0.000000 0.000000 0.744686
0.000000 0.000000 0.741665
0.000000 0.000000 0.730800
0.300725 0.000000 0.710780
0.498360 0.000000 0.682704
0.685969 0.000000 0.693629
0.852842 0.000000 0.758816
0.961089 0.000000 0.758358
0.000000 0.118410 0.745571
0.000000 0.065858 0.742977
0.000000 0.000000 0.732448
0.289616 0.000000 0.712551
0.494759 0.000000 0.684077
0.685939 0.000000 0.693111
0.852811 0.000000 0.756435
0.961425 0.000000 0.759243
0.000000 0.335088 0.747829
0.000000 0.308965 0.745846
0.000000 0.203006 0.737972
0.258976 0.139773 0.717952
0.484657 0.000000 0.688228
0.686213 0.000000 0.690730
0.852140 0.000000 0.747250
0.964172 0.000000 0.748196
0.000000 0.503044 0.762509
0.000000 0.500633 0.760952
0.089448 0.481117 0.745937
0.276616 0.385748 0.724605
0.484718 0.330388 0.692103
0.688136 0.195346 0.683833
0.848539 0.000000 0.727871
0.968505 0.000000 0.719142
0.000000 0.616663 0.756069
0.000000 0.615564 0.754391
0.000000 0.613397 0.747829
0.378607 0.613977 0.734157
0.535943 0.562890 0.697871
0.692317 0.483772 0.669032
0.842649 0.379095 0.693324
0.967498 0.217502 0.683375
0.000000 0.725826 0.748135
0.000000 0.725368 0.746273
0.000000 0.724056 0.739193
0.322942 0.721645 0.724697
0.538628 0.714046 0.698207
0.691402 0.683406 0.640650
0.825406 0.657038 0.662348
0.944427 0.625177 0.683375
0.000000 0.891356 0.842771
0.000000 0.891905 0.842100
0.000000 0.894560 0.839506
0.000000 0.904540 0.833646
0.462715 0.891508 0.798428
0.658595 0.856596 0.732387
0.802457 0.818235 0.643519
0.941588 0.750729 0.657801
0.000000 1.000000 0.893187
0.000000 1.000000 0.890166
0.000000 1.000000 0.879179
0.000000 1.000000 0.859495
0.370611 0.994415 0.832761
0.620966 0.975250 0.800046
0.691524 0.961151 0.696529
0.902464 0.934722 0.657679
0.000000 0.070863 0.871794
0.000000 0.000000 0.870329
0.000000 0.000000 0.864500
0.134676 0.000000 0.853635
0.409857 0.000000 0.836637
0.611017 0.000000 0.815396
0.795529 0.000000 0.827146
0.961059 0.000000 0.884855
0.000000 0.046082 0.872557
0.000000 0.000000 0.871061
0.000000 0.000000 0.865446
0.125917 0.000000 0.854734
0.407111 0.000000 0.837888
0.609583 0.000000 0.816617
0.794949 0.000000 0.827481
0.961395 0.000000 0.885771
0.000000 0.303319 0.874998
0.000000 0.277165 0.874083
0.000000 0.176974 0.870176
0.000000 0.098695 0.859403
0.390509 0.000000 0.842313
0.602289 0.000000 0.820127
0.796017 0.000000 0.827359
0.962707 0.000000 0.886839
0.000000 0.506767 0.881163
0.000000 0.504814 0.878874
0.000000 0.483589 0.871946
0.127718 0.377111 0.864958
0.408392 0.319341 0.847837
0.601495 0.200870 0.824125
0.799100 0.000000 0.825467
0.964202 0.000000 0.875395
0.000000 0.626398 0.884611
0.000000 0.628016 0.884031
0.117220 0.636713 0.881712
0.430945 0.648646 0.872282
0.510216 0.576989 0.853391
0.631952 0.509667 0.826413
0.805936 0.378668 0.818784
0.961395 0.000000 0.854368
0.000000 0.728481 0.878752
0.000000 0.729397 0.878111
0.000000 0.734035 0.875700
0.384710 0.745266 0.870756
0.590600 0.759274 0.862669
0.699489 0.721126 0.834501
0.814298 0.638911 0.805203
0.951080 0.524804 0.822141
0.000000 0.828794 0.872129
0.000000 0.829343 0.871458
0.000000 0.831540 0.868833
0.299443 0.835904 0.863554
0.537224 0.840574 0.853880
0.699947 0.838895 0.834714
0.812436 0.806912 0.778225
0.933623 0.783536 0.797787
0.000000 0.965515 0.937743
0.000000 0.966339 0.937713
0.000000 0.969177 0.937530
0.000000 0.973602 0.936980
0.403571 0.984558 0.935027
0.631067 0.979919 0.911192
0.791104 0.956695 0.862119
0.912902 0.928801 0.783200
0.000000 0.148135 0.969787
0.000000 0.081483 0.969543
0.000000 0.000000 0.967193
0.000000 0.000000 0.962310
0.269902 0.000000 0.954681
0.502525 0.000000 0.943816
0.705287 0.000000 0.930266
0.892332 0.000000 0.942870
0.000000 0.143496 0.970306
0.000000 0.073732 0.970062
0.000000 0.000000 0.967712
0.000000 0.000000 0.962890
0.267124 0.000000 0.955352
0.500511 0.000000 0.944549
0.704128 0.000000 0.931029
0.891814 0.000000 0.943267
0.000000 0.246464 0.971893
0.000000 0.216983 0.971710
0.000000 0.090364 0.970336
0.000000 0.000000 0.965576
0.241794 0.000000 0.958038
0.490181 0.000000 0.947143
0.699367 0.000000 0.933806
0.890074 0.000000 0.944579
0.000000 0.492164 0.971496
0.000000 0.478462 0.971374
0.000000 0.424445 0.970825
0.000000 0.312078 0.969146
0.225650 0.233707 0.962066
0.472053 0.000000 0.951415
0.688594 0.000000 0.937896
0.889921 0.000000 0.946288
0.000000 0.626093 0.977050
0.000000 0.628260 0.976257
0.177951 0.636805 0.972625
0.442786 0.651972 0.965179
0.421088 0.545800 0.962860
0.540490 0.466438 0.953216
0.697597 0.320134 0.939818
0.895262 0.000000 0.945220
0.000000 0.714290 0.973663
0.000000 0.716762 0.973388
0.000000 0.727810 0.972229
0.414649 0.752102 0.969848
0.620478 0.780392 0.965270
0.676020 0.725795 0.954833
0.753872 0.652705 0.938628
0.907073 0.514427 0.937316
0.000000 0.807248 0.969909
0.000000 0.808499 0.969665
0.000000 0.814023 0.968719
0.317113 0.827756 0.966461
0.570581 0.848478 0.963226
0.746853 0.871885 0.959777
0.833616 0.851408 0.946197
0.919829 0.766842 0.927123
0.000000 0.902953 0.966247
0.000000 0.903655 0.966033
0.000000 0.906493 0.965118
0.000000 0.912932 0.962982
0.488411 0.922728 0.959472
0.690425 0.933104 0.954772
0.833433 0.940429 0.946990
0.921721 0.919249 0.906737
