其他预设/【213】赛博朋克科幻预设52款/1.LUT预设（视频调色-PR-AE-PS-FCPX-达芬奇用）/赛博朋克科幻__-3 强度1.cube
# Created by Adobe Lightroom plugin Export LUT (1.17.0)
# www.johnrellis.com/lightroom/exportlut.htm
# Preset: 赛博朋克科幻[素锦印象]-3 强度1
# Color profile: /Library/Application Support/Adobe/Color/Profiles/Recommended/AdobeRGB1998.icc
LUT_3D_SIZE 8
DOMAIN_MIN 0.000000 0.000000 0.000000
DOMAIN_MAX 0.903226 0.903226 0.903226
0.033631 0.039246 0.056550
0.131716 0.000000 0.057862
0.256229 0.000000 0.061707
0.397681 0.000000 0.069703
0.552148 0.000000 0.081819
0.697902 0.000000 0.092988
0.831388 0.000000 0.102419
0.954467 0.000000 0.108705
0.000000 0.140871 0.077455
0.121706 0.135805 0.055970
0.253880 0.094362 0.059846
0.396490 0.000000 0.064942
0.551568 0.000000 0.069429
0.697688 0.000000 0.074434
0.831540 0.000000 0.079042
0.954803 0.000000 0.078767
0.000000 0.273991 0.124849
0.000000 0.274876 0.063020
0.233890 0.262547 0.059876
0.390967 0.232853 0.068666
0.547875 0.176791 0.070466
0.695064 0.000000 0.073976
0.829709 0.000000 0.079316
0.953460 0.000000 0.080812
0.000000 0.421485 0.179416
0.000000 0.422156 0.150179
0.164920 0.422004 0.055390
0.364385 0.404639 0.041657
0.537835 0.383215 0.044404
0.690303 0.327092 0.075807
0.826291 0.254856 0.082948
0.950896 0.108980 0.088594
0.000000 0.575219 0.236423
0.000000 0.575158 0.222507
0.000000 0.579095 0.051545
0.301823 0.573541 0.005035
0.502098 0.550103 0.000000
0.675563 0.527092 0.000000
0.820218 0.467292 0.086854
0.946899 0.406439 0.105043
0.000000 0.711452 0.289891
0.000000 0.711421 0.280797
0.000000 0.714260 0.199893
0.186221 0.715084 0.065003
0.437018 0.705928 0.009552
0.630640 0.684108 0.000000
0.803708 0.664118 0.000000
0.938659 0.606653 0.094667
0.000000 0.837278 0.341619
0.000000 0.837156 0.336614
0.000000 0.838621 0.293553
0.000000 0.843534 0.122621
0.345769 0.840421 0.107851
0.564843 0.828977 0.083070
0.751461 0.810208 0.000000
0.924468 0.796384 0.000000
0.000000 0.954131 0.392432
0.000000 0.953796 0.391638
0.000000 0.953399 0.379400
0.000000 0.957977 0.278752
0.246677 0.959045 0.189944
0.483436 0.955535 0.177005
0.686336 0.944152 0.154635
0.864927 0.930022 0.114534
0.013245 0.030976 0.134585
0.129183 0.000000 0.134493
0.252750 0.000000 0.151247
0.391180 0.000000 0.175418
0.547295 0.000000 0.183688
0.694514 0.000000 0.187564
0.829068 0.000000 0.190585
0.952758 0.000000 0.191440
0.000000 0.133425 0.136934
0.124636 0.131502 0.134554
0.251164 0.098482 0.136751
0.394385 0.000000 0.139864
0.549950 0.000000 0.143923
0.696529 0.000000 0.148867
0.830716 0.000000 0.153994
0.954131 0.000000 0.156802
0.000000 0.269932 0.170871
0.094240 0.267033 0.162142
0.234562 0.259556 0.134646
0.390021 0.229557 0.139284
0.547051 0.172641 0.139040
0.694545 0.000000 0.140597
0.829496 0.000000 0.142550
0.953460 0.000000 0.142519
0.000000 0.418158 0.215549
0.000000 0.417273 0.204654
0.167971 0.418585 0.133791
0.364874 0.402777 0.129397
0.538048 0.379553 0.132631
0.689876 0.325444 0.142519
0.826078 0.253025 0.145937
0.950835 0.106538 0.148226
0.000000 0.572625 0.265873
0.000000 0.572503 0.255131
0.000000 0.575647 0.159731
0.300877 0.572198 0.124697
0.502647 0.548943 0.117617
0.675776 0.524773 0.119539
0.820401 0.465003 0.151156
0.946746 0.406531 0.159548
0.000000 0.709926 0.312932
0.000000 0.709834 0.305241
0.000000 0.711666 0.249821
0.190341 0.713741 0.138766
0.437263 0.705257 0.126955
0.631403 0.683406 0.112459
0.803922 0.662623 0.106691
0.938720 0.605493 0.156985
0.000000 0.836454 0.359472
0.000000 0.836362 0.355016
0.000000 0.836790 0.327825
0.000000 0.842435 0.179782
0.349828 0.839628 0.163912
0.566064 0.828580 0.149264
0.752255 0.809751 0.127077
0.924529 0.795315 0.102937
0.000000 0.953948 0.405249
0.000000 0.953582 0.404517
0.000000 0.952026 0.405432
0.000000 0.956634 0.315679
0.256901 0.958465 0.226261
0.487617 0.955047 0.215915
0.687861 0.943908 0.197818
0.865751 0.929747 0.168795
0.000000 0.000000 0.253635
0.125582 0.000000 0.250828
0.249393 0.000000 0.250034
0.390295 0.000000 0.270756
0.545769 0.000000 0.295262
0.688502 0.000000 0.318456
0.821775 0.000000 0.338811
0.946288 0.000000 0.343908
0.000000 0.139681 0.255161
0.117433 0.126772 0.252659
0.247929 0.106325 0.250156
0.390326 0.006317 0.268345
0.544427 0.000000 0.292210
0.688045 0.000000 0.315099
0.822385 0.000000 0.330388
0.947631 0.000000 0.328954
0.000000 0.257939 0.256321
0.102876 0.256535 0.254795
0.241032 0.252323 0.250126
0.388952 0.224063 0.253178
0.545647 0.158968 0.256565
0.692958 0.000000 0.260472
0.828275 0.000000 0.264347
0.952483 0.000000 0.266209
0.000000 0.412085 0.297551
0.000000 0.410773 0.293370
0.214664 0.406775 0.276860
0.368383 0.397345 0.248692
0.539483 0.366583 0.256413
0.688655 0.320684 0.259648
0.825315 0.250523 0.262455
0.950347 0.110506 0.263828
0.000000 0.567864 0.337957
0.000000 0.566979 0.333196
0.162844 0.564263 0.314916
0.305852 0.565515 0.250431
0.505272 0.544854 0.246281
0.676753 0.516991 0.252598
0.819944 0.463325 0.269413
0.946044 0.409430 0.273259
0.000000 0.706538 0.375250
0.000000 0.705959 0.371435
0.048859 0.704433 0.357000
0.208957 0.708949 0.261601
0.440070 0.702876 0.255222
0.634241 0.680842 0.247929
0.804471 0.657588 0.250217
0.938781 0.602564 0.278508
0.000000 0.834409 0.412421
0.000000 0.834104 0.409796
0.000000 0.833036 0.401282
0.171908 0.835966 0.336278
0.365911 0.836698 0.278843
0.571191 0.827146 0.270573
0.755276 0.808225 0.258030
0.924712 0.791684 0.251621
0.000000 0.953429 0.446448
0.000000 0.953246 0.444800
0.000000 0.951537 0.446479
0.192233 0.951720 0.418250
0.291875 0.956329 0.321050
0.503075 0.953124 0.314000
0.693690 0.942931 0.301213
0.868803 0.928832 0.281895
0.000000 0.000000 0.390478
0.122744 0.000000 0.387884
0.260929 0.000000 0.379187
0.389868 0.000000 0.380163
0.538293 0.000000 0.399603
0.686152 0.000000 0.417243
0.822690 0.000000 0.430396
0.946014 0.000000 0.439734
0.000000 0.123049 0.391821
0.103670 0.117098 0.389471
0.256199 0.090639 0.381018
0.389410 0.000000 0.380499
0.538354 0.000000 0.398047
0.686305 0.000000 0.415717
0.822171 0.000000 0.429511
0.945647 0.000000 0.439857
0.000000 0.279728 0.396490
0.071534 0.276799 0.395422
0.238315 0.250095 0.386816
0.386358 0.222934 0.380896
0.538811 0.183841 0.394903
0.686549 0.138521 0.412818
0.819852 0.026062 0.430518
0.942718 0.000000 0.448981
0.000000 0.400366 0.392798
0.000000 0.399237 0.391577
0.223087 0.395361 0.387579
0.377539 0.387854 0.380194
0.536645 0.362921 0.385199
0.685481 0.324559 0.390600
0.822660 0.267979 0.395453
0.948089 0.170871 0.397925
0.000000 0.559533 0.434058
0.000000 0.558648 0.431556
0.166110 0.555535 0.422950
0.356542 0.549310 0.407294
0.511650 0.537591 0.380316
0.677974 0.506249 0.391760
0.817716 0.468452 0.398779
0.944244 0.421057 0.401801
0.000000 0.701198 0.462562
0.000000 0.700649 0.460151
0.075196 0.698543 0.452461
0.331731 0.694514 0.440558
0.454108 0.696407 0.389227
0.640375 0.676204 0.383337
0.805173 0.650233 0.391058
0.938231 0.601831 0.413550
0.000000 0.831205 0.490059
0.000000 0.830900 0.488289
0.000000 0.829618 0.482765
0.304723 0.826749 0.477485
0.398932 0.830991 0.407172
0.582727 0.824674 0.401678
0.761318 0.805447 0.391424
0.924804 0.785824 0.391943
0.000000 0.951843 0.515557
0.000000 0.951690 0.514183
0.000000 0.950927 0.510246
0.276829 0.947509 0.516045
0.388067 0.949920 0.464424
0.531609 0.949584 0.433082
0.705165 0.941161 0.423499
0.874449 0.927153 0.407660
0.000000 0.000000 0.535088
0.112947 0.000000 0.532891
0.268437 0.000000 0.525231
0.404486 0.000000 0.512413
0.540459 0.000000 0.516228
0.680568 0.000000 0.526146
0.816526 0.000000 0.534417
0.945312 0.000000 0.537835
0.000000 0.105837 0.536370
0.077882 0.097688 0.534234
0.260044 0.050263 0.526757
0.402472 0.000000 0.513298
0.540063 0.000000 0.516320
0.680232 0.000000 0.525139
0.816770 0.000000 0.533471
0.945556 0.000000 0.536797
0.000000 0.284001 0.541436
0.000000 0.275212 0.538598
0.233219 0.244602 0.531640
0.394324 0.216587 0.517998
0.538079 0.168185 0.516564
0.678828 0.025483 0.522026
0.817258 0.000000 0.531670
0.945922 0.000000 0.535088
0.000000 0.425360 0.541650
0.000000 0.423774 0.540887
0.224002 0.418677 0.538140
0.381537 0.390265 0.525383
0.532494 0.359655 0.515953
0.677363 0.330236 0.521599
0.816770 0.306249 0.534173
0.943023 0.257053 0.541161
0.000000 0.547326 0.533532
0.000000 0.546502 0.532647
0.192081 0.543297 0.529473
0.369329 0.537102 0.523522
0.522179 0.526879 0.514061
0.674617 0.507836 0.521386
0.814420 0.481422 0.528008
0.941375 0.444648 0.531792
0.000000 0.693141 0.563134
0.000000 0.692561 0.561822
0.079103 0.690303 0.557214
0.334173 0.686061 0.549828
0.507073 0.680140 0.540002
0.649805 0.669398 0.515923
0.806638 0.643091 0.529473
0.936156 0.611505 0.537560
0.000000 0.826322 0.583856
0.000000 0.826017 0.582696
0.000000 0.824674 0.578943
0.300237 0.822080 0.573480
0.491524 0.817777 0.569940
0.602380 0.819944 0.529870
0.770108 0.801419 0.520928
0.925292 0.778592 0.527550
0.000000 0.949432 0.602136
0.000000 0.949248 0.601160
0.000000 0.948425 0.598199
0.239353 0.946746 0.594354
0.475746 0.941894 0.601556
0.565209 0.945068 0.549828
0.719936 0.939239 0.543725
0.882536 0.924834 0.530388
0.000000 0.000000 0.667994
0.090333 0.000000 0.666590
0.264927 0.000000 0.661555
0.411414 0.000000 0.652277
0.546349 0.000000 0.642206
0.684657 0.000000 0.645533
0.814237 0.000000 0.646632
0.940856 0.000000 0.645716
0.000000 0.072724 0.669093
0.000000 0.055879 0.667659
0.254398 0.000000 0.662684
0.407111 0.000000 0.653376
0.545159 0.000000 0.642664
0.684352 0.000000 0.645624
0.814084 0.000000 0.646082
0.941131 0.000000 0.644892
0.000000 0.252079 0.672511
0.000000 0.248478 0.671168
0.225223 0.234653 0.666102
0.394842 0.205631 0.656733
0.541192 0.151431 0.644068
0.682856 0.000000 0.645747
0.813352 0.000000 0.644373
0.941802 0.000000 0.642695
0.000000 0.439826 0.679103
0.000000 0.438056 0.678370
0.234623 0.423468 0.671839
0.383551 0.389624 0.662013
0.535515 0.357305 0.647303
0.678767 0.317357 0.645289
0.811063 0.252995 0.642206
0.941955 0.142885 0.641627
0.000000 0.563439 0.672206
0.000000 0.562921 0.671809
0.210788 0.561547 0.670314
0.392706 0.560510 0.667536
0.532494 0.534478 0.654688
0.671321 0.498817 0.643885
0.807980 0.467597 0.644343
0.939330 0.441566 0.650446
0.000000 0.682673 0.663172
0.000000 0.682185 0.662654
0.160342 0.680354 0.660822
0.361181 0.676539 0.657313
0.520012 0.670283 0.651637
0.660517 0.659052 0.641413
0.805081 0.644404 0.650385
0.934417 0.622858 0.656336
0.000000 0.821500 0.686580
0.000000 0.820768 0.685786
0.000000 0.817960 0.683070
0.299962 0.814908 0.678614
0.486946 0.810666 0.673213
0.649012 0.805478 0.666773
0.780667 0.795560 0.644312
0.927092 0.771939 0.657771
0.000000 0.946075 0.699825
0.000000 0.945861 0.699123
0.000000 0.945006 0.696834
0.233890 0.943236 0.693416
0.456764 0.939879 0.691096
0.636988 0.934752 0.693568
0.739590 0.936248 0.661189
0.892668 0.921721 0.649958
0.000000 0.000000 0.790555
0.002594 0.000000 0.789700
0.252476 0.000000 0.786679
0.405493 0.000000 0.781033
0.549920 0.000000 0.772305
0.683253 0.000000 0.765957
0.820829 0.000000 0.768734
0.941161 0.000000 0.761440
0.000000 0.000000 0.791409
0.000000 0.000000 0.790555
0.239750 0.000000 0.787503
0.399878 0.000000 0.781796
0.547173 0.000000 0.773007
0.682338 0.000000 0.766262
0.820584 0.000000 0.768765
0.941222 0.000000 0.761044
0.000000 0.233005 0.793912
0.000000 0.229038 0.793057
0.208652 0.213962 0.789975
0.385870 0.180941 0.784207
0.539544 0.104616 0.775235
0.679377 0.000000 0.767086
0.819455 0.000000 0.768948
0.941222 0.000000 0.759823
0.000000 0.431647 0.797269
0.000000 0.429114 0.796231
0.212222 0.404883 0.793393
0.379187 0.381628 0.787716
0.532799 0.349432 0.778561
0.675410 0.300511 0.767819
0.816464 0.230167 0.768734
0.940398 0.000000 0.758114
0.000000 0.572961 0.798428
0.000000 0.573510 0.798276
0.246952 0.576349 0.797879
0.415778 0.572015 0.793362
0.537438 0.536248 0.783597
0.672145 0.495552 0.769528
0.810605 0.453559 0.767697
0.936950 0.381567 0.757748
0.000000 0.691951 0.791958
0.000000 0.691951 0.791806
0.201663 0.692317 0.791226
0.393072 0.693721 0.790188
0.551629 0.695827 0.788937
0.674922 0.670710 0.777462
0.801816 0.632319 0.765774
0.931395 0.597406 0.762661
0.000000 0.809018 0.784115
0.000000 0.808774 0.783902
0.103395 0.807828 0.783047
0.347112 0.805966 0.781399
0.515160 0.802731 0.778622
0.661189 0.797208 0.773739
0.790768 0.785550 0.762966
0.927184 0.774105 0.772946
0.000000 0.944640 0.803708
0.000000 0.944244 0.803311
0.000000 0.942626 0.801816
0.232700 0.939330 0.799283
0.453651 0.934752 0.795743
0.626307 0.930266 0.791348
0.781704 0.925444 0.787961
0.904326 0.917327 0.766903
0.000000 0.000000 0.902953
0.000000 0.000000 0.902556
0.227085 0.000000 0.901122
0.388251 0.000000 0.898405
0.537316 0.000000 0.894224
0.681910 0.000000 0.888365
0.813626 0.000000 0.885832
0.950835 0.000000 0.887724
0.000000 0.000000 0.903532
0.000000 0.000000 0.903166
0.208438 0.000000 0.901701
0.380072 0.000000 0.898955
0.532982 0.000000 0.894713
0.679530 0.000000 0.888792
0.812741 0.000000 0.886076
0.950744 0.000000 0.887846
0.000000 0.186893 0.905119
0.000000 0.181491 0.904692
0.160952 0.159121 0.903197
0.360876 0.099702 0.900389
0.521691 0.000000 0.896086
0.672450 0.000000 0.890043
0.809812 0.000000 0.886625
0.950164 0.000000 0.888182
0.000000 0.408301 0.905730
0.000000 0.393194 0.905852
0.155581 0.373754 0.904753
0.354162 0.352453 0.901976
0.513481 0.315068 0.897704
0.664057 0.248997 0.891630
0.805234 0.117556 0.887053
0.948302 0.000000 0.888334
0.000000 0.572290 0.908141
0.000000 0.571649 0.907683
0.262821 0.569543 0.905943
0.420233 0.563317 0.902495
0.525292 0.520897 0.899321
0.662135 0.478981 0.893217
0.800961 0.420081 0.886564
0.943420 0.346380 0.887480
0.000000 0.691096 0.905333
0.000000 0.691859 0.905272
0.229740 0.695064 0.904997
0.415351 0.701930 0.904540
0.568231 0.704097 0.902464
0.675898 0.669184 0.896056
0.799557 0.623651 0.886381
0.935302 0.579126 0.885557
0.000000 0.807736 0.901213
0.000000 0.807889 0.901152
0.126802 0.808530 0.900877
0.369146 0.810422 0.900298
0.540887 0.813718 0.899657
0.691890 0.818967 0.899321
0.805905 0.798795 0.892454
0.925811 0.758175 0.883543
0.000000 0.926543 0.896696
0.000000 0.926421 0.896605
0.000000 0.925963 0.896239
0.296178 0.925017 0.895476
0.492256 0.923461 0.894285
0.651820 0.921355 0.892607
0.791714 0.918181 0.889830
0.914916 0.908751 0.881010
