其他预设/【213】赛博朋克科幻预设52款/1.LUT预设（视频调色-PR-AE-PS-FCPX-达芬奇用）/赛博朋克科幻__-6 强度1.cube
# Created by Adobe Lightroom plugin Export LUT (1.17.0)
# www.johnrellis.com/lightroom/exportlut.htm
# Preset: 赛博朋克科幻[素锦印象]-6 强度1
# Color profile: /Library/Application Support/Adobe/Color/Profiles/Recommended/AdobeRGB1998.icc
LUT_3D_SIZE 5
DOMAIN_MIN 0.000000 0.000000 0.000000
DOMAIN_MAX 0.903226 0.903226 0.903226
0.051362 0.036835 0.037812
0.226108 0.000000 0.051637
0.456153 0.000000 0.071839
0.699184 0.000000 0.098268
0.922454 0.000000 0.139742
0.123812 0.226017 0.000000
0.237217 0.220737 0.000000
0.457984 0.201602 0.014862
0.699916 0.114534 0.072236
0.922423 0.000000 0.121065
0.232181 0.441840 0.000000
0.300053 0.440406 0.000000
0.472908 0.444465 0.000000
0.701198 0.442329 0.000000
0.922606 0.403021 0.000000
0.338781 0.663508 0.000000
0.386114 0.663264 0.000000
0.520684 0.663661 0.000000
0.715511 0.674678 0.000000
0.919127 0.652522 0.000000
0.440406 0.886137 0.000000
0.476387 0.886107 0.000000
0.586481 0.885832 0.000000
0.748013 0.887663 0.000000
0.943359 0.890318 0.000000
0.054963 0.021149 0.226810
0.227390 0.000000 0.227604
0.450568 0.000000 0.242069
0.695369 0.000000 0.257420
0.921080 0.000000 0.268223
0.074586 0.230594 0.204288
0.228092 0.222080 0.215000
0.457160 0.190677 0.222965
0.699367 0.086091 0.235050
0.921569 0.000000 0.257664
0.176059 0.447089 0.121004
0.282383 0.444465 0.157076
0.470771 0.445899 0.162020
0.703273 0.440681 0.182925
0.922362 0.398444 0.211704
0.311894 0.666072 0.000000
0.367254 0.665614 0.000000
0.511254 0.664424 0.000000
0.714229 0.675380 0.000000
0.920256 0.652430 0.033204
0.415625 0.887877 0.000000
0.455024 0.887785 0.000000
0.572930 0.887327 0.000000
0.741604 0.888304 0.000000
0.942535 0.890623 0.000000
0.072511 0.000000 0.456489
0.236179 0.000000 0.456641
0.454658 0.000000 0.458808
0.682704 0.000000 0.468544
0.914092 0.000000 0.472786
0.031708 0.226200 0.449500
0.228336 0.216403 0.450233
0.454353 0.184787 0.453254
0.686549 0.094575 0.463172
0.916136 0.000000 0.465126
0.083742 0.459693 0.403388
0.228641 0.458412 0.410071
0.458015 0.451392 0.434485
0.698238 0.435218 0.448005
0.917144 0.416388 0.468696
0.119844 0.672511 0.277867
0.232853 0.674159 0.285435
0.484993 0.671931 0.360479
0.707668 0.678218 0.373907
0.921111 0.659876 0.403388
0.328710 0.892058 0.213626
0.409766 0.890105 0.268498
0.529229 0.891661 0.220096
0.719661 0.889860 0.218296
0.937987 0.891630 0.245853
0.084413 0.000000 0.684443
0.238926 0.000000 0.684627
0.457771 0.000000 0.685634
0.679774 0.000000 0.687953
0.906188 0.000000 0.691096
0.011231 0.214084 0.681392
0.229038 0.205936 0.681727
0.455512 0.172488 0.682979
0.680629 0.057099 0.685420
0.907073 0.000000 0.686641
0.000000 0.467536 0.668727
0.228092 0.460273 0.671412
0.457465 0.446662 0.673640
0.684993 0.420356 0.676722
0.908659 0.348974 0.671809
0.028626 0.697627 0.609796
0.220066 0.696376 0.613519
0.446632 0.691096 0.627192
0.693141 0.685969 0.658900
0.911040 0.682368 0.677760
0.143191 0.894926 0.477333
0.242008 0.895323 0.481697
0.435431 0.896422 0.499886
0.691859 0.892210 0.560876
0.924132 0.893004 0.588373
0.082216 0.000000 0.885405
0.230442 0.000000 0.885557
0.442573 0.000000 0.886168
0.658503 0.000000 0.887480
0.876890 0.000000 0.889708
0.059327 0.196017 0.884337
0.225132 0.185946 0.884520
0.441077 0.139467 0.885222
0.658503 0.000000 0.886595
0.878294 0.000000 0.888975
0.127413 0.452613 0.879881
0.254337 0.451698 0.880064
0.453376 0.436835 0.880980
0.664240 0.401251 0.882780
0.884001 0.332128 0.885588
0.121431 0.703578 0.866209
0.254429 0.699977 0.867094
0.476905 0.689845 0.870634
0.691493 0.681056 0.873869
0.894896 0.653742 0.876829
0.030426 0.935058 0.816678
0.219699 0.932891 0.818143
0.443610 0.924559 0.823728
0.672847 0.909209 0.834836
0.905913 0.898375 0.862028
