其他预设/【213】赛博朋克科幻预设52款/1.LUT预设（视频调色-PR-AE-PS-FCPX-达芬奇用）/赛博朋克科幻__-11 强度5.cube
# Created by Adobe Lightroom plugin Export LUT (1.17.0)
# www.johnrellis.com/lightroom/exportlut.htm
# Preset: 赛博朋克科幻[素锦印象]-11 强度5
# Color profile: /Library/Application Support/Adobe/Color/Profiles/Recommended/AdobeRGB1998.icc
LUT_3D_SIZE 32
0.000000 0.000000 0.000000
0.035309 0.000000 0.011292
0.067323 0.000000 0.025666
0.097139 0.000000 0.054780
0.130434 0.000000 0.072145
0.164126 0.000000 0.085603
0.197421 0.000000 0.099153
0.230442 0.000000 0.113252
0.263249 0.000000 0.127871
0.295842 0.000000 0.143191
0.328344 0.000000 0.159426
0.360784 0.000000 0.176547
0.392950 0.000000 0.194766
0.425086 0.000000 0.214115
0.457008 0.000000 0.234562
0.488899 0.000000 0.255863
0.520836 0.000000 0.278172
0.552575 0.000000 0.301335
0.584070 0.000000 0.325048
0.615259 0.000000 0.349462
0.646296 0.000000 0.374456
0.677302 0.000000 0.400122
0.708278 0.000000 0.426368
0.739071 0.000000 0.453162
0.769802 0.000000 0.480568
0.800473 0.000000 0.508446
0.830930 0.000000 0.536797
0.861234 0.000000 0.565667
0.891356 0.000000 0.595117
0.921294 0.000000 0.625116
0.950958 0.000000 0.655818
0.980255 0.000000 0.687282
0.000000 0.029999 0.027008
0.017731 0.017823 0.009979
0.067109 0.000366 0.026978
0.095277 0.000000 0.057984
0.128756 0.000000 0.072877
0.162509 0.000000 0.086183
0.196139 0.000000 0.099947
0.229252 0.000000 0.113680
0.262242 0.000000 0.128450
0.295048 0.000000 0.143679
0.327642 0.000000 0.159884
0.360082 0.000000 0.176913
0.392432 0.000000 0.195224
0.424537 0.000000 0.214603
0.456519 0.000000 0.234928
0.488502 0.000000 0.256260
0.520378 0.000000 0.278477
0.552209 0.000000 0.301671
0.583734 0.000000 0.325383
0.614954 0.000000 0.349798
0.646021 0.000000 0.374762
0.677058 0.000000 0.400397
0.708064 0.000000 0.426642
0.738918 0.000000 0.453529
0.769680 0.000000 0.480842
0.800320 0.000000 0.508721
0.830838 0.000000 0.537102
0.861143 0.000000 0.565972
0.891264 0.000000 0.595392
0.921233 0.000000 0.625422
0.950896 0.000000 0.656092
0.980194 0.000000 0.687556
0.000000 0.060487 0.058381
0.015869 0.053285 0.049409
0.043153 0.042481 0.022461
0.097322 0.003906 0.057252
0.126558 0.000000 0.073976
0.160525 0.000000 0.087098
0.194308 0.000000 0.100465
0.227726 0.000000 0.114321
0.261021 0.000000 0.129000
0.293828 0.000000 0.144198
0.326635 0.000000 0.160311
0.359258 0.000000 0.177554
0.391547 0.000000 0.195682
0.423804 0.000000 0.215091
0.455787 0.000000 0.235386
0.487892 0.000000 0.256748
0.519829 0.000000 0.278965
0.551690 0.000000 0.302068
0.583307 0.000000 0.325872
0.614527 0.000000 0.350225
0.645686 0.000000 0.375219
0.676814 0.000000 0.400824
0.707790 0.000000 0.427100
0.738674 0.000000 0.453925
0.769467 0.000000 0.481331
0.800137 0.000000 0.509148
0.830655 0.000000 0.537530
0.860990 0.000000 0.566430
0.891173 0.000000 0.595850
0.921111 0.000000 0.625818
0.950835 0.000000 0.656489
0.980163 0.000000 0.687953
0.000000 0.085328 0.083680
0.000000 0.082124 0.080659
0.046204 0.075959 0.075044
0.072908 0.067231 0.049165
0.130678 0.004700 0.068635
0.160861 0.000000 0.087098
0.190494 0.000000 0.101930
0.224491 0.000000 0.115633
0.258183 0.000000 0.130129
0.291508 0.000000 0.145480
0.324529 0.000000 0.161593
0.357366 0.000000 0.178714
0.389837 0.000000 0.196902
0.422187 0.000000 0.216220
0.454444 0.000000 0.236545
0.486580 0.000000 0.257786
0.518608 0.000000 0.280064
0.550561 0.000000 0.303044
0.582238 0.000000 0.326848
0.613611 0.000000 0.351171
0.644892 0.000000 0.376165
0.676081 0.000000 0.401801
0.707179 0.000000 0.428077
0.738125 0.000000 0.454902
0.768978 0.000000 0.482246
0.799741 0.000000 0.510063
0.830320 0.000000 0.538445
0.860716 0.000000 0.567346
0.890898 0.000000 0.596735
0.920897 0.000000 0.626703
0.950622 0.000000 0.657374
0.980011 0.000000 0.688838
0.000000 0.113771 0.114534
0.000000 0.111513 0.112337
0.000000 0.106294 0.106783
0.075868 0.094697 0.094148
0.091920 0.083101 0.065492
0.163851 0.000000 0.075135
0.196902 0.000000 0.099062
0.224460 0.000000 0.115816
0.253941 0.000000 0.131960
0.287663 0.000000 0.147250
0.321233 0.000000 0.163302
0.354314 0.000000 0.180575
0.387152 0.000000 0.198672
0.419776 0.000000 0.217990
0.452155 0.000000 0.238224
0.484474 0.000000 0.259403
0.516686 0.000000 0.281590
0.548791 0.000000 0.304570
0.580682 0.000000 0.328344
0.612268 0.000000 0.352636
0.643671 0.000000 0.377661
0.675044 0.000000 0.403326
0.706233 0.000000 0.429541
0.737301 0.000000 0.456367
0.768276 0.000000 0.483680
0.799100 0.000000 0.511559
0.829740 0.000000 0.539879
0.860227 0.000000 0.568750
0.890471 0.000000 0.598108
0.920531 0.000000 0.628107
0.950347 0.000000 0.658717
0.979767 0.000000 0.690181
0.000000 0.144503 0.148287
0.000000 0.142702 0.146883
0.000000 0.138369 0.141512
0.018921 0.128511 0.129854
0.095674 0.113405 0.110628
0.110384 0.099947 0.074739
0.197208 0.000000 0.080415
0.231296 0.000000 0.108736
0.260349 0.000000 0.129580
0.288121 0.000000 0.147494
0.316655 0.000000 0.165682
0.350317 0.000000 0.182803
0.383459 0.000000 0.200992
0.416480 0.000000 0.220157
0.449165 0.000000 0.240330
0.481727 0.000000 0.261540
0.514183 0.000000 0.283604
0.546441 0.000000 0.306523
0.578515 0.000000 0.330236
0.610346 0.000000 0.354620
0.642023 0.000000 0.379583
0.673579 0.000000 0.405280
0.704982 0.000000 0.431495
0.736233 0.000000 0.458350
0.767300 0.000000 0.485634
0.798245 0.000000 0.513481
0.829038 0.000000 0.541833
0.859586 0.000000 0.570672
0.889921 0.000000 0.600031
0.920104 0.000000 0.629999
0.949920 0.000000 0.660609
0.979431 0.000000 0.692042
0.000000 0.176577 0.184146
0.000000 0.175082 0.183078
0.000000 0.171267 0.178195
0.000000 0.162478 0.167300
0.065400 0.149020 0.150179
0.113466 0.131899 0.125917
0.130190 0.116823 0.084688
0.231571 0.007874 0.088930
0.264439 0.000000 0.117281
0.296330 0.000000 0.143648
0.323705 0.000000 0.163394
0.351537 0.000000 0.183017
0.379797 0.000000 0.203220
0.412329 0.000000 0.222782
0.445533 0.000000 0.242954
0.478370 0.000000 0.264042
0.510979 0.000000 0.286076
0.543542 0.000000 0.308934
0.575891 0.000000 0.332616
0.608057 0.000000 0.356970
0.639948 0.000000 0.382055
0.671748 0.000000 0.407752
0.703334 0.000000 0.433967
0.734829 0.000000 0.460792
0.766079 0.000000 0.488106
0.797177 0.000000 0.515923
0.828061 0.000000 0.544305
0.858762 0.000000 0.573083
0.889220 0.000000 0.602472
0.919463 0.000000 0.632380
0.949432 0.000000 0.662959
0.979004 0.000000 0.694362
0.000000 0.211063 0.223728
0.000000 0.209812 0.222690
0.000000 0.206149 0.217960
0.000000 0.198154 0.207462
0.000000 0.186007 0.191104
0.097597 0.168795 0.169162
0.133394 0.150393 0.140871
0.151583 0.134157 0.095644
0.266178 0.058808 0.098817
0.297398 0.000000 0.126070
0.330968 0.000000 0.156710
0.359167 0.000000 0.179873
0.386694 0.000000 0.201175
0.414527 0.000000 0.222873
0.442603 0.000000 0.245243
0.474311 0.000000 0.266850
0.507256 0.000000 0.288884
0.540032 0.000000 0.311681
0.572686 0.000000 0.335363
0.605249 0.000000 0.359869
0.637476 0.000000 0.384955
0.669551 0.000000 0.410651
0.701442 0.000000 0.436896
0.733120 0.000000 0.463752
0.764584 0.000000 0.491066
0.795834 0.000000 0.518914
0.826902 0.000000 0.547234
0.857786 0.000000 0.576043
0.888365 0.000000 0.605371
0.918761 0.000000 0.635248
0.948791 0.000000 0.665827
0.978485 0.000000 0.697139
0.000000 0.250034 0.268162
0.000000 0.248173 0.265934
0.000000 0.244724 0.261387
0.000000 0.237125 0.251377
0.000000 0.225772 0.235874
0.010224 0.209964 0.214908
0.130892 0.189029 0.188663
0.155184 0.170077 0.156710
0.174258 0.152621 0.107607
0.300420 0.088960 0.109712
0.330388 0.000000 0.135256
0.363775 0.000000 0.168124
0.394568 0.000000 0.197116
0.421790 0.000000 0.220218
0.449287 0.000000 0.243381
0.477058 0.000000 0.266880
0.504997 0.000000 0.291142
0.536034 0.000000 0.314855
0.568994 0.000000 0.338445
0.601923 0.000000 0.363073
0.634577 0.000000 0.388220
0.667048 0.000000 0.413977
0.699153 0.000000 0.440345
0.731106 0.000000 0.467140
0.762783 0.000000 0.494484
0.794308 0.000000 0.522362
0.825559 0.000000 0.550713
0.856596 0.000000 0.579461
0.887358 0.000000 0.608789
0.917876 0.000000 0.638636
0.948089 0.000000 0.669184
0.977874 0.000000 0.700496
0.000000 0.294774 0.317021
0.000000 0.292241 0.313848
0.000000 0.289006 0.309575
0.000000 0.281682 0.300053
0.000000 0.270451 0.285191
0.000000 0.255161 0.265080
0.086366 0.235477 0.239658
0.162844 0.210941 0.209201
0.177829 0.191043 0.173404
0.197482 0.172396 0.120455
0.334356 0.118715 0.120974
0.363256 0.000000 0.145022
0.396490 0.000000 0.180026
0.429419 0.000000 0.214237
0.456825 0.000000 0.239994
0.484047 0.000000 0.264591
0.511559 0.000000 0.289403
0.539178 0.000000 0.314763
0.567041 0.000000 0.340795
0.598108 0.000000 0.366522
0.631250 0.000000 0.391913
0.664027 0.000000 0.417762
0.696590 0.000000 0.444160
0.728756 0.000000 0.471015
0.760769 0.000000 0.498390
0.792508 0.000000 0.526299
0.824002 0.000000 0.554589
0.855253 0.000000 0.583398
0.886229 0.000000 0.612696
0.916899 0.000000 0.642542
0.947234 0.000000 0.673030
0.977173 0.000000 0.704311
0.000000 0.346105 0.369909
0.000000 0.343725 0.366888
0.000000 0.340368 0.362676
0.000000 0.333013 0.353552
0.000000 0.321782 0.339147
0.000000 0.306584 0.319860
0.000000 0.287053 0.295232
0.128603 0.263005 0.265782
0.187137 0.236423 0.230777
0.201022 0.213657 0.191379
0.221317 0.193759 0.134096
0.354650 0.144594 0.134463
0.396185 0.000000 0.154910
0.429236 0.000000 0.192020
0.462074 0.000000 0.228397
0.491920 0.000000 0.260319
0.518822 0.000000 0.286534
0.545983 0.000000 0.312657
0.573480 0.000000 0.339269
0.601404 0.000000 0.366583
0.629603 0.000000 0.394629
0.660700 0.000000 0.421820
0.693599 0.000000 0.448371
0.726162 0.000000 0.475319
0.758450 0.000000 0.502800
0.790463 0.000000 0.530663
0.822232 0.000000 0.559014
0.853696 0.000000 0.587823
0.884886 0.000000 0.617121
0.915770 0.000000 0.646937
0.946288 0.000000 0.677424
0.976349 0.000000 0.708644
0.000000 0.404211 0.426032
0.000000 0.401984 0.423316
0.000000 0.398596 0.419348
0.000000 0.391699 0.410986
0.000000 0.380743 0.397620
0.000000 0.365576 0.379156
0.000000 0.345922 0.355566
0.011017 0.321721 0.326635
0.167239 0.292790 0.292546
0.210941 0.264317 0.253361
0.224308 0.238254 0.210208
0.244968 0.217227 0.148318
0.374945 0.167758 0.148928
0.430152 0.000000 0.168093
0.462013 0.000000 0.204013
0.494606 0.000000 0.242588
0.526909 0.000000 0.280888
0.553552 0.000000 0.308843
0.580529 0.000000 0.336461
0.607904 0.000000 0.364446
0.635615 0.000000 0.392950
0.663569 0.000000 0.422034
0.691798 0.000000 0.451820
0.723201 0.000000 0.480018
0.755886 0.000000 0.507530
0.788205 0.000000 0.535515
0.820218 0.000000 0.563897
0.851987 0.000000 0.592737
0.883391 0.000000 0.622034
0.914488 0.000000 0.651820
0.945190 0.000000 0.682307
0.975463 0.000000 0.713527
0.000000 0.464057 0.480781
0.000000 0.462135 0.478492
0.000000 0.459174 0.475013
0.000000 0.452949 0.467597
0.000000 0.443030 0.455756
0.000000 0.429297 0.439399
0.000000 0.411048 0.418006
0.000000 0.388006 0.391241
0.101167 0.359472 0.358587
0.202670 0.325628 0.320500
0.233463 0.295018 0.277012
0.246494 0.265293 0.230045
0.268162 0.242893 0.163302
0.395575 0.192630 0.163973
0.463874 0.011719 0.182315
0.494728 0.000000 0.216373
0.527214 0.000000 0.256962
0.559380 0.000000 0.297185
0.588128 0.000000 0.331548
0.614923 0.000000 0.360845
0.642054 0.000000 0.390173
0.669551 0.000000 0.419837
0.697353 0.000000 0.449989
0.725429 0.000000 0.480781
0.753689 0.000000 0.512078
0.785702 0.000000 0.540734
0.818051 0.000000 0.569238
0.850095 0.000000 0.598077
0.881743 0.000000 0.627436
0.913085 0.000000 0.657282
0.943999 0.000000 0.687678
0.974456 0.000000 0.718868
0.000000 0.523522 0.533165
0.000000 0.521569 0.530877
0.000000 0.519158 0.527977
0.000000 0.513695 0.521508
0.000000 0.504845 0.511009
0.000000 0.492470 0.496529
0.000000 0.476204 0.477638
0.000000 0.455573 0.453956
0.000000 0.429755 0.424750
0.146273 0.398566 0.389899
0.236301 0.360906 0.348669
0.254917 0.328527 0.301061
0.267735 0.294774 0.250584
0.290440 0.271031 0.178683
0.418555 0.222354 0.178866
0.497444 0.106355 0.196963
0.527398 0.000000 0.228763
0.559716 0.000000 0.271214
0.591699 0.000000 0.313542
0.622461 0.000000 0.354650
0.648981 0.000000 0.385718
0.675959 0.000000 0.416480
0.703273 0.000000 0.447395
0.730892 0.000000 0.478614
0.758785 0.000000 0.510307
0.786923 0.000000 0.542565
0.815640 0.000000 0.574914
0.847990 0.000000 0.603906
0.879942 0.000000 0.633265
0.911559 0.000000 0.663111
0.942657 0.000000 0.693538
0.973358 0.000000 0.724727
0.000000 0.580621 0.581903
0.000000 0.579034 0.580011
0.000000 0.576806 0.577417
0.000000 0.572107 0.571771
0.000000 0.564355 0.562615
0.000000 0.553704 0.550042
0.000000 0.539452 0.533471
0.000000 0.521172 0.512657
0.000000 0.498512 0.487098
0.000000 0.470649 0.456062
0.186496 0.437140 0.419196
0.258457 0.399084 0.375586
0.275090 0.364630 0.325566
0.287785 0.326848 0.271702
0.312261 0.301854 0.194522
0.441291 0.254398 0.194125
0.530571 0.158175 0.211734
0.559991 0.000000 0.241184
0.592279 0.000000 0.285954
0.623896 0.000000 0.330388
0.654871 0.000000 0.374548
0.682765 0.000000 0.411231
0.709560 0.000000 0.443458
0.736690 0.000000 0.475624
0.764096 0.000000 0.507958
0.791897 0.000000 0.540612
0.819883 0.000000 0.573693
0.848142 0.000000 0.607294
0.877958 0.000000 0.639582
0.909819 0.000000 0.669429
0.941253 0.000000 0.699886
0.972137 0.000000 0.731044
0.000000 0.634485 0.626917
0.000000 0.633082 0.625238
0.000000 0.631281 0.623072
0.000000 0.627131 0.618097
0.000000 0.620508 0.610132
0.000000 0.611231 0.599145
0.000000 0.599054 0.584894
0.000000 0.583398 0.566918
0.000000 0.563592 0.544518
0.000000 0.539483 0.517571
0.091798 0.509972 0.485115
0.224826 0.474678 0.446754
0.279149 0.437171 0.401221
0.295018 0.401007 0.349279
0.307073 0.360845 0.293004
0.333165 0.335424 0.210849
0.463203 0.289067 0.209812
0.563439 0.208560 0.226719
0.592859 0.000000 0.254154
0.624811 0.000000 0.301518
0.656062 0.000000 0.348028
0.686702 0.000000 0.394171
0.716091 0.000000 0.437690
0.742672 0.000000 0.471382
0.769650 0.000000 0.504784
0.796963 0.000000 0.538201
0.824552 0.000000 0.571832
0.852415 0.000000 0.605829
0.880552 0.000000 0.640192
0.908934 0.000000 0.674861
0.939666 0.000000 0.706722
0.970825 0.000000 0.737850
0.000000 0.684108 0.667689
0.000000 0.683040 0.666346
0.000000 0.681422 0.664393
0.000000 0.677974 0.660121
0.000000 0.672389 0.653315
0.000000 0.664546 0.643854
0.000000 0.654078 0.631525
0.000000 0.640650 0.615869
0.000000 0.623804 0.596674
0.000000 0.603052 0.573266
0.000000 0.577813 0.545281
0.156435 0.547295 0.511925
0.261784 0.510765 0.472694
0.300023 0.474372 0.425452
0.314885 0.436927 0.372045
0.325841 0.395331 0.314122
0.353643 0.370611 0.227878
0.484565 0.326177 0.225986
0.595819 0.260533 0.242100
0.626154 0.000000 0.271702
0.657282 0.000000 0.317998
0.688106 0.000000 0.366735
0.718379 0.000000 0.414832
0.748043 0.000000 0.462287
0.775265 0.000000 0.500542
0.802029 0.000000 0.535180
0.829191 0.000000 0.569665
0.856626 0.000000 0.604303
0.884367 0.000000 0.639155
0.912352 0.000000 0.674342
0.940612 0.000000 0.709804
0.969390 0.000000 0.745144
0.000000 0.729519 0.704555
0.000000 0.728481 0.703243
0.000000 0.727199 0.701656
0.000000 0.724269 0.697963
0.000000 0.719539 0.692042
0.000000 0.712947 0.683925
0.000000 0.704158 0.673335
0.000000 0.692836 0.659937
0.000000 0.678614 0.643397
0.000000 0.661067 0.623438
0.000000 0.639796 0.599573
0.000000 0.614069 0.571069
0.207645 0.583001 0.537285
0.298863 0.545678 0.497505
0.321630 0.511162 0.449134
0.334997 0.473335 0.394965
0.345037 0.430762 0.335576
0.374426 0.407538 0.246036
0.505455 0.365301 0.243412
0.627436 0.315618 0.258701
0.659022 0.118868 0.291814
0.689479 0.000000 0.336004
0.719997 0.000000 0.386969
0.749844 0.000000 0.436988
0.779019 0.000000 0.486244
0.807034 0.000000 0.531395
0.833677 0.000000 0.567224
0.860624 0.000000 0.602808
0.887907 0.000000 0.638392
0.915496 0.000000 0.674159
0.943297 0.000000 0.710170
0.971374 0.000000 0.746548
0.000000 0.771786 0.738491
0.000000 0.771054 0.737514
0.000000 0.769894 0.736019
0.000000 0.767483 0.732876
0.000000 0.763607 0.727871
0.000000 0.758114 0.720912
0.000000 0.750820 0.711849
0.000000 0.741360 0.700404
0.000000 0.729580 0.686397
0.000000 0.715084 0.669520
0.000000 0.697322 0.649165
0.000000 0.675837 0.625025
0.119020 0.649958 0.596490
0.254704 0.618830 0.562799
0.329900 0.582422 0.522698
0.344121 0.549035 0.473518
0.356023 0.510979 0.418647
0.364630 0.467903 0.358160
0.396033 0.446296 0.265751
0.526452 0.406378 0.262760
0.658320 0.373388 0.276677
0.691249 0.197635 0.313695
0.721523 0.000000 0.356054
0.751553 0.000000 0.409155
0.780880 0.000000 0.461036
0.809537 0.000000 0.512108
0.837644 0.000000 0.562310
0.864286 0.000000 0.601434
0.891020 0.000000 0.638117
0.918059 0.000000 0.674739
0.945373 0.000000 0.711452
0.972900 0.000000 0.748470
0.000000 0.811856 0.770413
0.000000 0.811154 0.769497
0.000000 0.810300 0.768276
0.000000 0.808316 0.765621
0.000000 0.805112 0.761288
0.000000 0.800565 0.755337
0.000000 0.794461 0.747494
0.000000 0.786709 0.737819
0.000000 0.776974 0.725917
0.000000 0.764889 0.711513
0.000000 0.750240 0.694392
0.000000 0.732540 0.674067
0.000000 0.711177 0.650050
0.195560 0.685512 0.621851
0.300816 0.654536 0.588495
0.356298 0.620447 0.547875
0.368231 0.587610 0.498726
0.378271 0.549767 0.443397
0.385290 0.506401 0.381750
0.418585 0.486824 0.287419
0.547692 0.449104 0.284154
0.678981 0.422950 0.298314
0.722713 0.267399 0.337499
0.753170 0.086580 0.378576
0.782650 0.093050 0.433814
0.811460 0.110231 0.487465
0.839628 0.135775 0.539910
0.867155 0.167483 0.591302
0.893858 0.177707 0.637201
0.920287 0.142275 0.675044
0.946990 0.094728 0.712764
0.973907 0.000000 0.750607
0.000000 0.849454 0.800198
0.000000 0.848875 0.799405
0.000000 0.848142 0.798306
0.000000 0.846525 0.796017
0.000000 0.843870 0.792264
0.000000 0.840177 0.787167
0.000000 0.835203 0.780545
0.000000 0.828824 0.772274
0.000000 0.820706 0.762051
0.000000 0.810758 0.749874
0.000000 0.798734 0.735439
0.000000 0.784115 0.718288
0.000000 0.766629 0.698238
0.094240 0.745602 0.674708
0.257847 0.720333 0.647150
0.347387 0.689906 0.614710
0.384771 0.658564 0.573663
0.394354 0.626490 0.524712
0.402106 0.589288 0.469154
0.407172 0.546075 0.406714
0.442481 0.528710 0.311589
0.569390 0.493294 0.308110
0.694423 0.467964 0.323583
0.753323 0.335180 0.363836
0.784360 0.160403 0.404242
0.813321 0.173220 0.460853
0.841581 0.192203 0.515831
0.869200 0.217350 0.569451
0.896117 0.248081 0.622065
0.922393 0.284398 0.673701
0.948363 0.278264 0.713619
0.974548 0.271916 0.752590
0.000000 0.884459 0.827726
0.000000 0.884031 0.827054
0.000000 0.883391 0.826139
0.000000 0.882109 0.824186
0.000000 0.879973 0.820981
0.000000 0.876951 0.816556
0.000000 0.872892 0.810910
0.000000 0.867613 0.803769
0.000000 0.861021 0.795102
0.000000 0.852781 0.784756
0.000000 0.842924 0.772549
0.000000 0.830930 0.758114
0.000000 0.816587 0.741360
0.000000 0.799466 0.721859
0.203891 0.778958 0.699153
0.316594 0.754299 0.672602
0.395758 0.724575 0.641474
0.415839 0.696376 0.600183
0.422675 0.665553 0.551751
0.427832 0.629297 0.496284
0.430701 0.587030 0.433417
0.468147 0.571832 0.338262
0.591943 0.538811 0.335180
0.712276 0.512108 0.352544
0.782925 0.403357 0.392645
0.814908 0.247166 0.434699
0.843565 0.236942 0.489937
0.871244 0.259464 0.546166
0.898222 0.287510 0.601038
0.924468 0.320897 0.654810
0.949920 0.359899 0.707576
0.975067 0.384588 0.754116
0.000000 0.916869 0.853086
0.000000 0.916503 0.852537
0.000000 0.916075 0.851774
0.000000 0.914916 0.850004
0.000000 0.913237 0.847288
0.000000 0.910796 0.843473
0.000000 0.907561 0.838621
0.000000 0.903288 0.832578
0.000000 0.897856 0.825162
0.000000 0.891112 0.816342
0.000000 0.882963 0.805966
0.000000 0.873136 0.793912
0.000000 0.861448 0.779934
0.000000 0.847410 0.763699
0.124788 0.830808 0.745113
0.282048 0.810971 0.723568
0.374945 0.787137 0.698512
0.443824 0.758755 0.668818
0.449409 0.733669 0.627466
0.453712 0.704341 0.579919
0.456184 0.669734 0.525017
0.457801 0.629908 0.461219
0.495979 0.615930 0.368566
0.615564 0.585229 0.365850
0.731472 0.556512 0.384619
0.811765 0.471626 0.423194
0.844572 0.331365 0.468055
0.873228 0.297459 0.521324
0.900267 0.323735 0.578759
0.926543 0.355383 0.634882
0.951995 0.392493 0.689815
0.976562 0.435859 0.743801
0.000000 0.946258 0.875029
0.000000 0.946197 0.875151
0.000000 0.946044 0.875181
0.000000 0.945159 0.873686
0.000000 0.943786 0.871336
0.000000 0.941863 0.868101
0.000000 0.939269 0.863920
0.000000 0.935821 0.858671
0.000000 0.931365 0.852323
0.000000 0.925841 0.844816
0.000000 0.919158 0.836057
0.000000 0.911101 0.825895
0.000000 0.901518 0.814145
0.000000 0.890074 0.800778
0.000000 0.876585 0.785519
0.243168 0.860563 0.768124
0.353368 0.841489 0.748135
0.431891 0.818906 0.724788
0.480049 0.793912 0.695277
0.483589 0.770535 0.655299
0.485969 0.743008 0.609033
0.486458 0.710323 0.555383
0.487984 0.673823 0.491554
0.525750 0.660792 0.401862
0.639948 0.632563 0.399237
0.750820 0.601862 0.418585
0.839811 0.539757 0.455756
0.873320 0.410559 0.503380
0.902312 0.358038 0.555322
0.928557 0.388373 0.614008
0.954040 0.424079 0.671290
0.978515 0.465980 0.727565
0.000000 0.972961 0.894347
0.000000 0.972869 0.894438
0.000000 0.972839 0.894591
0.000000 0.972686 0.894896
0.000000 0.971649 0.893187
0.000000 0.970153 0.890379
0.000000 0.968078 0.886778
0.000000 0.965332 0.882261
0.000000 0.961700 0.876799
0.000000 0.957183 0.870359
0.000000 0.951720 0.862974
0.000000 0.945037 0.854307
0.000000 0.937163 0.844541
0.000000 0.927794 0.833463
0.000000 0.916777 0.820981
0.197116 0.903807 0.806973
0.331029 0.888518 0.791104
0.418647 0.870756 0.772824
0.485878 0.849790 0.751339
0.516594 0.828275 0.722042
0.518456 0.806851 0.683742
0.519005 0.781460 0.639124
0.517723 0.751125 0.586969
0.519585 0.718318 0.523827
0.556451 0.706447 0.437903
0.665064 0.680690 0.435248
0.771115 0.649287 0.454780
0.867033 0.608057 0.490608
0.901061 0.487892 0.540917
0.930602 0.420142 0.592126
0.956023 0.454841 0.652094
0.980499 0.495521 0.710842
0.000000 0.997284 0.911559
0.000000 0.997253 0.911681
0.000000 0.997192 0.911803
0.000000 0.997070 0.912139
0.000000 0.996887 0.912657
0.000000 0.995789 0.910521
0.000000 0.994202 0.907378
0.000000 0.992004 0.903471
0.000000 0.989105 0.898741
0.000000 0.985382 0.893248
0.000000 0.980835 0.886870
0.000000 0.975341 0.879606
0.000000 0.968811 0.871366
0.000000 0.961059 0.862181
0.000000 0.951995 0.851957
0.135042 0.941375 0.840696
0.308049 0.929015 0.828214
0.405890 0.914885 0.813993
0.479286 0.898619 0.797543
0.537957 0.879545 0.778073
0.553674 0.861662 0.749081
0.554040 0.842557 0.712795
0.553063 0.819730 0.670253
0.550256 0.792233 0.620111
0.552667 0.763424 0.558373
0.588403 0.752743 0.476661
0.691066 0.729458 0.474128
0.793484 0.701076 0.493538
0.893370 0.676326 0.527977
0.927794 0.564446 0.580957
0.958038 0.484840 0.632136
0.982452 0.524559 0.693599
0.000000 1.000000 0.926818
0.000000 1.000000 0.926909
0.000000 1.000000 0.927062
0.000000 1.000000 0.927367
0.000000 1.000000 0.927886
0.000000 1.000000 0.928557
0.000000 1.000000 0.925811
0.000000 1.000000 0.922423
0.000000 1.000000 0.918334
0.000000 1.000000 0.913573
0.000000 1.000000 0.908110
0.000000 1.000000 0.901915
0.000000 0.996765 0.894957
0.000000 0.990295 0.887327
0.000000 0.982666 0.878935
0.000000 0.973816 0.869871
0.284154 0.963684 0.860044
0.393774 0.952361 0.849119
0.473701 0.939574 0.836667
0.536950 0.925048 0.822232
0.588617 0.908080 0.805051
0.591547 0.893919 0.776547
0.590631 0.877440 0.742580
0.588342 0.857572 0.702541
0.584222 0.833371 0.654871
0.587304 0.808896 0.595300
0.621759 0.799496 0.518395
0.718288 0.778592 0.516075
0.816403 0.753201 0.535393
0.918944 0.743832 0.568231
0.953429 0.640558 0.623896
0.983825 0.565667 0.677302
0.000000 1.000000 0.940093
0.000000 1.000000 0.940215
0.000000 1.000000 0.940337
0.000000 1.000000 0.940642
0.000000 1.000000 0.941131
0.000000 1.000000 0.941802
0.000000 1.000000 0.942260
0.000000 1.000000 0.939269
0.000000 1.000000 0.935668
0.000000 1.000000 0.931518
0.000000 1.000000 0.926787
0.000000 1.000000 0.921447
0.000000 1.000000 0.915557
0.000000 1.000000 0.909148
0.000000 1.000000 0.902251
