其他预设/【213】赛博朋克科幻预设52款/1.LUT预设（视频调色-PR-AE-PS-FCPX-达芬奇用）/赛博朋克科幻__-10 强度2.cube
# Created by Adobe Lightroom plugin Export LUT (1.17.0)
# www.johnrellis.com/lightroom/exportlut.htm
# Preset: 赛博朋克科幻[素锦印象]-10 强度2
# Color profile: /Library/Application Support/Adobe/Color/Profiles/Recommended/AdobeRGB1998.icc
LUT_3D_SIZE 32
0.039704 0.039063 0.035798
0.039704 0.039063 0.035798
0.060914 0.034394 0.035431
0.096956 0.014496 0.033906
0.132357 0.013519 0.053864
0.167971 0.008667 0.066377
0.204227 0.000000 0.074952
0.240360 0.000000 0.083223
0.276799 0.000000 0.091554
0.312627 0.000000 0.100740
0.348394 0.000000 0.110506
0.383551 0.000000 0.121004
0.418341 0.000000 0.132174
0.452735 0.000000 0.144259
0.486702 0.000000 0.156588
0.520378 0.000000 0.170138
0.553826 0.000000 0.184665
0.586877 0.000000 0.199161
0.619440 0.004395 0.213474
0.651514 0.059419 0.228122
0.682948 0.084962 0.242954
0.714015 0.106783 0.258061
0.744472 0.128542 0.273594
0.774319 0.150454 0.289738
0.803586 0.172213 0.306188
0.832273 0.195682 0.324315
0.860197 0.221897 0.344915
0.887388 0.250065 0.367071
0.913817 0.280705 0.390967
0.939391 0.314427 0.416999
0.964111 0.351720 0.445411
0.987762 0.393408 0.476844
0.039704 0.039063 0.035798
0.039704 0.039063 0.035798
0.061280 0.047089 0.034363
0.096345 0.043122 0.031647
0.131685 0.043580 0.052094
0.167453 0.039918 0.065492
0.203799 0.022858 0.074128
0.239994 0.002014 0.082124
0.276249 0.000000 0.090761
0.312352 0.000000 0.100008
0.348028 0.000000 0.109834
0.383276 0.000000 0.120394
0.418097 0.000000 0.131624
0.452522 0.000000 0.143771
0.486519 0.000000 0.156435
0.520287 0.000000 0.170871
0.553704 0.000000 0.185092
0.586755 0.000000 0.199588
0.619287 0.046021 0.214054
0.651392 0.074220 0.228489
0.682887 0.094911 0.243229
0.713893 0.114870 0.258366
0.744381 0.134890 0.273899
0.774258 0.155581 0.289952
0.803525 0.176730 0.306523
0.832212 0.199466 0.324132
0.860136 0.224765 0.344915
0.887327 0.252628 0.366918
0.913756 0.282811 0.390875
0.939361 0.316167 0.416938
0.964080 0.353246 0.445350
0.987732 0.394659 0.476814
0.028229 0.075807 0.038972
0.050477 0.074647 0.029969
0.067659 0.068818 0.030518
0.095766 0.067201 0.031556
0.130983 0.069154 0.051759
0.166629 0.068879 0.064027
0.202976 0.063569 0.072786
0.239170 0.054170 0.080934
0.275639 0.030823 0.089693
0.311742 0.005585 0.099001
0.347478 0.000000 0.108919
0.382849 0.000000 0.119539
0.417731 0.000000 0.130861
0.452186 0.000000 0.143709
0.486305 0.000000 0.157351
0.520104 0.000000 0.171603
0.553521 0.020752 0.185977
0.586511 0.055573 0.200198
0.619135 0.074342 0.214603
0.651240 0.090730 0.229007
0.682795 0.107515 0.243778
0.713802 0.124727 0.258762
0.744289 0.143343 0.274327
0.774166 0.162295 0.290379
0.803433 0.182650 0.306950
0.832090 0.204105 0.324132
0.860075 0.228794 0.344701
0.887297 0.255924 0.366857
0.913725 0.285710 0.390814
0.939330 0.318639 0.416815
0.964050 0.355261 0.445289
0.987701 0.396368 0.476814
0.000000 0.117433 0.044617
0.014954 0.117159 0.016236
0.067109 0.114778 0.015442
0.100099 0.102846 0.029053
0.129549 0.098451 0.058473
0.165316 0.098634 0.065736
0.201694 0.096529 0.072724
0.238102 0.093019 0.080507
0.274449 0.087556 0.088960
0.310796 0.081544 0.097780
0.346715 0.074739 0.108248
0.382116 0.069520 0.119539
0.417029 0.067262 0.132052
0.451667 0.068116 0.145541
0.485878 0.071504 0.159152
0.519646 0.078431 0.173342
0.553094 0.086763 0.187442
0.586145 0.096132 0.201755
0.618799 0.105837 0.215885
0.650874 0.117067 0.230289
0.682490 0.129915 0.244877
0.713527 0.143832 0.259922
0.744045 0.159396 0.275395
0.773892 0.176516 0.291356
0.803220 0.194736 0.307774
0.831907 0.214755 0.324987
0.859922 0.237034 0.344305
0.887175 0.263096 0.366583
0.913603 0.291783 0.390570
0.939239 0.323857 0.416602
0.963958 0.359655 0.445167
0.987640 0.400153 0.476722
0.000000 0.165225 0.052430
0.000000 0.164706 0.017487
0.033997 0.162783 0.011414
0.100740 0.157992 0.006744
0.136385 0.139895 0.049348
0.163363 0.130983 0.068666
0.200076 0.130495 0.075624
0.236637 0.128695 0.082918
0.273350 0.126040 0.090974
0.309667 0.123110 0.100526
0.345586 0.119814 0.110842
0.381201 0.117708 0.122347
0.416236 0.116518 0.135073
0.450874 0.117433 0.148196
0.485054 0.119295 0.161837
0.518883 0.122988 0.175753
0.552422 0.127779 0.189914
0.585534 0.133516 0.203891
0.618250 0.140200 0.217960
0.650416 0.148074 0.232059
0.682002 0.157443 0.246555
0.713130 0.168795 0.261570
0.743648 0.181613 0.276829
0.773587 0.196170 0.292790
0.802945 0.212192 0.309178
0.831632 0.230259 0.326329
0.859678 0.250095 0.344335
0.886961 0.273899 0.366094
0.913451 0.301213 0.390204
0.939086 0.331884 0.416358
0.963836 0.366522 0.444984
0.987549 0.405951 0.476539
0.000000 0.211948 0.060121
0.000000 0.211337 0.034913
0.000000 0.209812 0.014099
0.084779 0.206149 0.008209
0.139773 0.198947 0.009125
0.172793 0.177462 0.059480
0.197848 0.164950 0.078920
0.234714 0.164340 0.086366
0.271672 0.162966 0.094514
0.308171 0.161166 0.104097
0.344274 0.159670 0.114778
0.379919 0.158389 0.126589
0.414923 0.158053 0.139132
0.449775 0.158663 0.151980
0.484047 0.159945 0.165377
0.517967 0.162417 0.179232
0.551537 0.165896 0.193088
0.584649 0.170016 0.206821
0.617426 0.174807 0.220584
0.649714 0.180484 0.234501
0.681392 0.187961 0.248936
0.712581 0.196536 0.263645
0.743160 0.207095 0.278874
0.773159 0.219455 0.294560
0.802487 0.233524 0.310979
0.831266 0.249363 0.328038
0.859312 0.267369 0.345953
0.886687 0.287785 0.365484
0.913176 0.313268 0.389685
0.938903 0.342321 0.415961
0.963653 0.375586 0.444678
0.987396 0.413703 0.476417
0.000000 0.256626 0.065827
0.000000 0.255924 0.056001
0.000000 0.254948 0.032776
0.034638 0.252171 0.002533
0.125612 0.247318 0.000000
0.177340 0.236820 0.015167
0.209079 0.214908 0.067140
0.232151 0.199435 0.091035
0.269383 0.199039 0.099611
0.306371 0.198276 0.109407
0.342565 0.197482 0.120058
0.378302 0.196750 0.131624
0.413428 0.196750 0.143923
0.448341 0.197116 0.156771
0.482765 0.198215 0.169833
0.516777 0.200015 0.183291
0.550378 0.202548 0.196811
0.583673 0.205417 0.210422
0.616510 0.208957 0.223758
0.648829 0.213352 0.237552
0.680629 0.219150 0.251682
0.711879 0.226108 0.266239
0.742519 0.234836 0.281254
0.772580 0.245151 0.296941
0.801968 0.257389 0.313237
0.830777 0.271183 0.330236
0.858885 0.287480 0.348119
0.886259 0.305852 0.367041
0.912902 0.327977 0.389075
0.938628 0.355200 0.415473
0.963439 0.386664 0.444312
0.987213 0.423255 0.476204
0.000000 0.298680 0.076387
0.000000 0.298222 0.070314
0.000000 0.297398 0.059174
0.000000 0.295720 0.000000
0.102113 0.291722 0.000000
0.165866 0.286473 0.000000
0.214054 0.273259 0.030884
0.245426 0.252079 0.078218
0.266819 0.234684 0.106325
0.303960 0.234379 0.115602
0.340490 0.233921 0.126162
0.376287 0.233646 0.137575
0.411719 0.233616 0.149599
0.446693 0.233951 0.162051
0.481270 0.234806 0.175021
0.515343 0.236118 0.188083
0.549065 0.238102 0.201236
0.582391 0.240330 0.214389
0.615381 0.243046 0.227481
0.647822 0.246433 0.241123
0.679683 0.251041 0.255039
0.711025 0.256718 0.269413
0.741787 0.263951 0.284306
0.771878 0.272587 0.299840
0.801328 0.283024 0.315923
0.830167 0.295445 0.332952
0.858305 0.309850 0.350713
0.885740 0.326452 0.369512
0.912474 0.345647 0.389563
0.938323 0.370001 0.414832
0.963165 0.399847 0.443885
0.986999 0.434638 0.475929
0.000000 0.339391 0.088624
0.000000 0.338933 0.082429
0.000000 0.338445 0.073457
0.000000 0.337011 0.036378
0.059876 0.334264 0.000000
0.146883 0.330022 0.000000
0.204929 0.324681 0.000000
0.250187 0.309453 0.056397
0.281254 0.288914 0.091798
0.301213 0.270115 0.123201
0.337896 0.269841 0.133394
0.374121 0.269505 0.144289
0.409674 0.269627 0.156130
0.444800 0.269993 0.168246
0.479377 0.270634 0.180850
0.513634 0.271824 0.193515
0.547509 0.273075 0.206302
0.581018 0.274846 0.219120
0.614038 0.276860 0.231907
0.646693 0.279576 0.245121
0.678614 0.283330 0.258732
0.710109 0.287846 0.272953
0.740902 0.293889 0.287724
0.771054 0.301335 0.303075
0.800565 0.310399 0.319127
0.829465 0.321202 0.335973
0.857633 0.334081 0.353704
0.885161 0.349065 0.372442
0.911925 0.366430 0.392462
0.937957 0.386938 0.414130
0.962860 0.414679 0.443336
0.986725 0.447608 0.475593
0.000000 0.379400 0.098848
0.000000 0.379065 0.093996
0.000000 0.378637 0.086488
0.000000 0.377630 0.066041
0.000000 0.375647 0.006104
0.121859 0.372198 0.005859
0.188968 0.367895 0.006592
0.243626 0.362585 0.006195
0.286198 0.345220 0.074342
0.316869 0.325383 0.106905
0.336919 0.306126 0.138125
0.371466 0.304784 0.151644
0.407233 0.304906 0.163119
0.442481 0.305119 0.174807
0.477363 0.305638 0.186893
0.511742 0.306584 0.199222
0.545769 0.307622 0.211612
0.579339 0.308904 0.224094
0.612543 0.310552 0.236667
0.645258 0.312596 0.249516
0.677394 0.315557 0.263035
0.708919 0.319493 0.276951
0.739864 0.324468 0.291447
0.770108 0.330846 0.306706
0.799710 0.338659 0.322637
0.828641 0.348150 0.339452
0.856901 0.359564 0.357061
0.884428 0.373022 0.375769
0.911284 0.389044 0.395758
0.937346 0.407752 0.417243
0.962524 0.431128 0.442756
0.986450 0.462165 0.475227
0.000000 0.419043 0.109621
0.000000 0.418860 0.105318
0.000000 0.418524 0.098817
0.000000 0.417639 0.083375
0.000000 0.416114 0.045533
0.084077 0.413489 0.020630
0.169558 0.409888 0.022065
0.229374 0.405585 0.022126
0.281285 0.398291 0.043549
0.322026 0.380713 0.092073
0.352209 0.361456 0.123262
0.372229 0.342016 0.153475
0.404578 0.339513 0.170535
0.440131 0.339727 0.181888
0.475105 0.340215 0.193545
0.509636 0.340887 0.205539
0.543786 0.341619 0.217441
0.577478 0.342626 0.229557
0.610895 0.343816 0.241733
0.643732 0.345556 0.254276
0.676020 0.347936 0.267552
0.707668 0.351110 0.281285
0.738705 0.355505 0.295720
0.769009 0.360937 0.310826
0.798764 0.367712 0.326665
0.827756 0.376013 0.343328
0.856046 0.386084 0.360845
0.883665 0.398291 0.379583
0.910521 0.412879 0.399512
0.936614 0.430060 0.420966
0.961975 0.450416 0.444221
0.986084 0.478187 0.474861
0.000000 0.458503 0.119875
0.000000 0.458289 0.116274
0.000000 0.457893 0.110780
0.000000 0.457191 0.098360
0.000000 0.455970 0.075807
0.000000 0.453956 0.043824
0.144808 0.450996 0.044831
0.212985 0.447333 0.045594
0.269047 0.442939 0.047974
0.318486 0.433448 0.072389
0.357580 0.416022 0.109682
0.387121 0.397162 0.139986
0.407080 0.377630 0.168765
0.437446 0.373785 0.189303
0.472572 0.374121 0.200595
0.507286 0.374609 0.212039
0.541619 0.375250 0.223697
0.575463 0.376043 0.235294
0.609003 0.377050 0.247135
0.642054 0.378454 0.259464
0.674495 0.380407 0.272435
0.706233 0.383093 0.286137
0.737362 0.386603 0.300328
0.767880 0.391333 0.315312
0.797665 0.397192 0.331090
0.826719 0.404578 0.347631
0.855131 0.413550 0.365148
0.882750 0.424537 0.383795
0.909667 0.437751 0.403693
0.935821 0.453681 0.425147
0.961181 0.472602 0.448493
0.985718 0.495399 0.474434
0.000000 0.497536 0.130220
0.000000 0.497414 0.126925
0.000000 0.497139 0.122164
0.000000 0.496529 0.111910
0.000000 0.495460 0.094423
0.000000 0.493843 0.067201
0.111818 0.491341 0.063142
0.193362 0.488167 0.064271
0.254429 0.484474 0.064698
0.307744 0.480293 0.065278
0.354955 0.468421 0.092805
0.392737 0.450996 0.127230
0.421790 0.432471 0.156924
0.441657 0.412940 0.184298
0.469856 0.407568 0.207645
0.504723 0.407996 0.218845
0.539239 0.408515 0.230014
0.573266 0.409094 0.241184
0.606989 0.409888 0.252781
0.640253 0.411109 0.264897
0.672847 0.412757 0.277714
0.704707 0.414954 0.291142
0.735988 0.417945 0.305211
0.766598 0.421942 0.320134
0.796475 0.427070 0.335729
0.825650 0.433478 0.352178
0.854093 0.441535 0.369665
0.881804 0.451423 0.388281
0.908751 0.463478 0.408209
0.934966 0.478126 0.429725
0.960357 0.495674 0.453071
0.984924 0.516869 0.478798
0.000000 0.536309 0.140230
0.000000 0.536156 0.137392
0.000000 0.535943 0.133242
0.000000 0.535393 0.124819
0.000000 0.534417 0.110475
0.000000 0.532982 0.090486
0.051972 0.530999 0.076173
0.170016 0.528313 0.076905
0.237644 0.525109 0.077180
0.294255 0.521477 0.077913
0.346014 0.517235 0.078492
0.391028 0.503105 0.112520
0.427649 0.485817 0.144717
0.456214 0.467445 0.173526
0.476204 0.448341 0.200443
0.501976 0.440955 0.225681
0.536614 0.441382 0.236484
0.570764 0.441901 0.247654
0.604791 0.442634 0.258732
0.638270 0.443549 0.270695
0.670985 0.444923 0.283299
0.703059 0.446815 0.296544
0.734432 0.449378 0.310552
0.765164 0.452735 0.325261
0.795163 0.457191 0.340764
0.824460 0.462806 0.357214
0.852964 0.469917 0.374578
0.880766 0.478859 0.393225
0.907744 0.489906 0.413214
0.933989 0.503288 0.434760
0.959411 0.519677 0.458198
0.984039 0.539483 0.483925
0.000000 0.574731 0.149996
0.000000 0.574578 0.147524
0.000000 0.574334 0.144228
0.000000 0.573907 0.136751
0.000000 0.573053 0.124971
0.000000 0.571923 0.108614
0.000000 0.570184 0.088563
0.140810 0.567803 0.088899
0.218387 0.565057 0.089570
0.279362 0.561883 0.090120
0.333379 0.558221 0.090517
0.383581 0.553429 0.093904
0.426551 0.537499 0.130922
0.462135 0.520378 0.161807
0.490272 0.502190 0.189914
0.510521 0.483314 0.216129
0.533898 0.473945 0.243320
0.568261 0.474372 0.253910
0.602441 0.475105 0.264897
0.636133 0.475959 0.276616
0.669032 0.477058 0.289036
0.701320 0.478584 0.302159
0.732815 0.480751 0.316014
0.763668 0.483619 0.330694
0.793759 0.487404 0.346166
0.823148 0.492378 0.362554
0.851774 0.498695 0.379950
0.879606 0.506798 0.398596
0.906676 0.516777 0.418585
0.932952 0.529107 0.440131
0.958434 0.544274 0.463691
0.983062 0.562707 0.489418
0.000000 0.612360 0.160037
0.000000 0.612177 0.157778
0.000000 0.612024 0.154849
0.000000 0.611597 0.148348
0.000000 0.610834 0.138247
0.000000 0.609766 0.124941
0.000000 0.608301 0.108095
0.099153 0.606317 0.101381
0.196109 0.603815 0.102022
0.262333 0.601038 0.102449
0.319280 0.597772 0.102998
0.371435 0.594141 0.103609
0.419898 0.587121 0.114900
0.461585 0.571435 0.149172
0.496315 0.554528 0.178592
0.524010 0.536584 0.205814
0.544335 0.517876 0.231510
0.565393 0.506615 0.260502
0.599969 0.507378 0.271305
0.633814 0.508110 0.282841
0.666957 0.509026 0.294987
0.699367 0.510277 0.308141
0.731075 0.512047 0.321935
0.762051 0.514488 0.336400
0.792264 0.517754 0.351873
0.821744 0.522087 0.368292
0.850462 0.527672 0.385626
0.878386 0.534936 0.404211
0.905516 0.544060 0.424323
0.931823 0.555413 0.445930
0.957336 0.569482 0.469642
0.982055 0.586542 0.495277
0.000000 0.647486 0.169467
0.000000 0.647395 0.167453
0.000000 0.647211 0.165164
0.000000 0.646845 0.159518
0.000000 0.646174 0.151217
0.000000 0.645197 0.140047
0.000000 0.643885 0.126955
0.000000 0.642084 0.114748
0.170047 0.639918 0.115267
0.243503 0.637385 0.115877
0.303563 0.634485 0.116548
0.357397 0.631220 0.117128
0.407630 0.627588 0.117739
0.454444 0.618555 0.135714
0.494972 0.603388 0.167117
0.529015 0.587274 0.195377
0.556786 0.570092 0.221653
0.577844 0.552209 0.246830
0.597284 0.539422 0.277836
0.631373 0.540124 0.289250
0.664729 0.540917 0.301366
0.697322 0.541894 0.314214
0.729183 0.543328 0.327977
0.760311 0.545403 0.342443
0.790677 0.548150 0.357855
0.820279 0.551934 0.374243
0.849058 0.556909 0.391669
0.877073 0.563378 0.410315
0.904265 0.571557 0.430426
0.930632 0.582025 0.452247
0.956207 0.595026 0.475929
0.980987 0.610712 0.501427
0.000000 0.680232 0.178622
0.000000 0.680079 0.177005
0.000000 0.679957 0.175082
0.000000 0.679622 0.170230
0.000000 0.679042 0.163241
0.000000 0.678157 0.153994
0.000000 0.676967 0.143526
0.000000 0.675410 0.131807
0.139590 0.673487 0.129366
0.223178 0.671260 0.129885
0.286625 0.668757 0.130465
0.342290 0.665888 0.131136
0.393683 0.662654 0.131868
0.442481 0.659174 0.132570
0.487678 0.648493 0.156130
0.527062 0.634150 0.185214
0.560845 0.618891 0.212375
0.588861 0.602808 0.237919
0.610773 0.585931 0.262516
0.630060 0.572778 0.293462
0.662287 0.572625 0.307805
0.695155 0.573419 0.320623
0.727230 0.574548 0.334264
0.758480 0.576196 0.348821
0.788968 0.578546 0.364172
0.818692 0.581781 0.380591
0.847593 0.586145 0.398047
0.875700 0.591913 0.416815
0.902953 0.599359 0.436988
0.929412 0.608850 0.458839
0.954986 0.620874 0.482643
0.979889 0.635218 0.507897
0.000000 0.711727 0.187716
0.000000 0.711696 0.186404
0.000000 0.711543 0.184451
0.000000 0.711238 0.180636
0.000000 0.710719 0.174746
0.000000 0.709987 0.167391
0.000000 0.708949 0.158663
0.000000 0.707607 0.149569
0.100130 0.705959 0.143557
0.201114 0.704005 0.144198
0.269169 0.701808 0.144686
0.326909 0.699336 0.145235
0.379583 0.696590 0.145968
0.428992 0.693568 0.146609
0.476356 0.690242 0.147250
0.520226 0.678065 0.175814
0.558801 0.664485 0.203708
0.592248 0.650050 0.229862
0.620447 0.634913 0.254948
0.643122 0.619074 0.279179
0.662593 0.605982 0.309422
0.692836 0.604791 0.327276
0.725093 0.605646 0.340917
0.756558 0.606958 0.355413
0.787167 0.608850 0.370855
0.817044 0.611597 0.387182
0.846067 0.615442 0.404761
0.874266 0.620508 0.423590
0.901579 0.627222 0.443854
0.928069 0.635950 0.465949
0.953765 0.646815 0.489601
0.978729 0.659937 0.514641
0.000000 0.742641 0.196567
0.000000 0.742550 0.195438
0.000000 0.742458 0.193820
0.000000 0.742184 0.190555
0.000000 0.741756 0.185702
0.000000 0.741115 0.179599
0.000000 0.740169 0.172732
0.000000 0.738979 0.165743
0.003601 0.737545 0.158694
0.177646 0.735866 0.158572
0.251530 0.733944 0.159274
0.311620 0.731777 0.159762
0.365484 0.729397 0.160281
0.415686 0.726741 0.161257
0.463539 0.723842 0.161837
0.509606 0.719387 0.167056
0.552239 0.707301 0.195743
0.590082 0.694392 0.222721
0.623255 0.680781 0.248081
0.651606 0.666499 0.272770
0.674800 0.651728 0.296757
0.694514 0.638788 0.326055
0.722896 0.636652 0.347784
0.754482 0.637598 0.362310
0.785306 0.639155 0.377783
0.815305 0.641413 0.394202
0.844450 0.644648 0.411810
0.872740 0.649134 0.430793
0.900145 0.655116 0.451240
0.926696 0.663020 0.473365
0.952453 0.672816 0.496803
0.977569 0.684779 0.521721
0.000000 0.772915 0.205173
0.000000 0.772793 0.204196
0.000000 0.772702 0.202884
0.000000 0.772488 0.200076
0.000000 0.772061 0.196139
0.000000 0.771481 0.191440
0.000000 0.770687 0.185885
0.000000 0.769680 0.180667
0.000000 0.768307 0.175601
0.152499 0.766781 0.173556
0.233616 0.765133 0.174197
0.296483 0.763241 0.174899
0.351629 0.761166 0.175357
0.402564 0.758816 0.176089
0.450782 0.756252 0.176883
0.497139 0.753506 0.177371
0.542229 0.747494 0.188663
0.583734 0.735988 0.216251
0.620905 0.723781 0.242222
0.653773 0.710933 0.267216
0.682216 0.697566 0.291539
0.705898 0.683711 0.315465
0.725826 0.671015 0.343816
0.752377 0.668116 0.369451
0.783352 0.669245 0.384924
0.813443 0.671107 0.401556
0.842741 0.673793 0.419226
0.871122 0.677668 0.438300
0.898619 0.683009 0.458900
0.925292 0.690028 0.481025
0.951171 0.698817 0.504295
0.976318 0.709682 0.529015
0.000000 0.802487 0.213474
0.000000 0.802426 0.212650
0.000000 0.802304 0.211582
0.000000 0.802090 0.209323
0.000000 0.801724 0.206088
0.000000 0.801175 0.202487
0.000000 0.800473 0.198459
0.000000 0.799496 0.194522
0.000000 0.798337 0.191196
0.124849 0.796872 0.189212
0.216251 0.795438 0.189792
0.282048 0.793759 0.190402
0.338445 0.791928 0.191043
0.389990 0.789883 0.191745
0.438483 0.787594 0.192355
0.485023 0.785153 0.193179
0.530083 0.782437 0.193912
0.574212 0.775113 0.210452
0.614771 0.764187 0.237125
0.651331 0.752651 0.262547
0.683925 0.740566 0.287327
0.712306 0.728023 0.311528
0.736385 0.715084 0.335454
0.756466 0.702815 0.362860
0.781308 0.699214 0.392493
0.811582 0.700618 0.409155
0.840970 0.702846 0.427039
0.869474 0.706142 0.446235
0.897063 0.710780 0.467018
0.923857 0.716915 0.488899
0.949859 0.724727 0.511955
0.975128 0.734554 0.536584
0.000000 0.831357 0.221408
0.000000 0.831296 0.220798
0.000000 0.831235 0.219852
0.000000 0.830991 0.218173
0.000000 0.830686 0.215671
0.000000 0.830167 0.212955
0.000000 0.829496 0.210117
0.000000 0.828641 0.207553
0.000000 0.827543 0.205875
0.093690 0.826169 0.205509
0.200076 0.824796 0.206271
0.268650 0.823331 0.206851
0.326116 0.821683 0.207370
0.378363 0.819821 0.208133
0.427008 0.817838 0.208865
0.473579 0.815640 0.209445
0.518517 0.813230 0.210147
0.562432 0.810636 0.210849
0.605646 0.802121 0.233036
0.645319 0.791775 0.259098
0.681300 0.780941 0.284123
0.713558 0.769589 0.308751
0.741939 0.757900 0.332921
0.766201 0.745815 0.356847
0.786465 0.734035 0.383185
0.809598 0.729946 0.417121
0.839139 0.731655 0.435157
0.867765 0.734401 0.454566
0.895476 0.738338 0.475288
0.922393 0.743618 0.496986
0.948516 0.750546 0.519890
0.973907 0.759396 0.544305
0.000000 0.859586 0.229007
0.000000 0.859525 0.228489
0.000000 0.859434 0.227878
0.000000 0.859220 0.226535
0.000000 0.858915 0.224765
0.000000 0.858457 0.222812
0.000000 0.857816 0.221073
0.000000 0.856992 0.219852
0.000000 0.855924 0.219638
0.032532 0.854673 0.220859
0.185977 0.853239 0.223362
0.256992 0.851896 0.224033
0.315435 0.850431 0.224704
0.367834 0.848783 0.225376
0.416602 0.846983 0.226108
0.462989 0.844999 0.226871
0.507744 0.842832 0.227604
0.551354 0.840513 0.228367
0.594110 0.837858 0.229740
0.636530 0.828550 0.256352
0.675410 0.818753 0.281895
0.710780 0.808560 0.306798
0.742702 0.797971 0.331487
0.770993 0.787015 0.355779
0.795377 0.775845 0.379797
0.815763 0.764706 0.405097
0.837278 0.760250 0.443580
0.866026 0.762387 0.463172
0.893889 0.765652 0.483711
0.920897 0.770138 0.505211
0.947143 0.776211 0.527977
0.972656 0.784085 0.552270
0.000000 0.887053 0.236179
0.000000 0.887022 0.235782
0.000000 0.886931 0.235264
0.000000 0.886717 0.234409
0.000000 0.886412 0.233249
0.000000 0.885985 0.232242
0.000000 0.885344 0.231479
0.000000 0.884550 0.231571
0.000000 0.883543 0.232639
0.000000 0.882353 0.235508
0.172976 0.880888 0.240391
0.248447 0.879576 0.242283
0.307042 0.878233 0.243076
0.359228 0.876738 0.243656
0.407752 0.875120 0.244419
0.453773 0.873350 0.245151
0.498146 0.871397 0.245945
0.541283 0.869291 0.246708
0.583490 0.867002 0.247471
0.625605 0.863096 0.254490
0.666957 0.854246 0.280766
0.705013 0.845060 0.306157
0.739834 0.835538 0.331029
0.771359 0.825650 0.355657
0.799435 0.815549 0.380224
0.823850 0.805234 0.404669
0.844327 0.794766 0.429145
0.864286 0.790097 0.471931
0.892271 0.792660 0.492317
0.919463 0.796414 0.513634
0.945830 0.801663 0.536278
0.971466 0.808652 0.560449
0.000000 0.913939 0.242741
0.000000 0.913848 0.242527
0.000000 0.913787 0.242191
0.000000 0.913603 0.241672
0.000000 0.913268 0.241154
0.000000 0.912840 0.240940
0.000000 0.912230 0.241215
0.000000 0.911437 0.242374
0.000000 0.910460 0.244968
0.000000 0.909270 0.249210
0.159060 0.907805 0.255894
0.243320 0.906371 0.261784
0.301488 0.905150 0.262486
0.353216 0.903777 0.263279
0.400946 0.902312 0.263920
0.446418 0.900694 0.264683
0.490150 0.898924 0.265476
0.532616 0.897032 0.266270
0.574212 0.894957 0.267002
0.615106 0.892729 0.267613
0.656611 0.887755 0.280308
0.697047 0.879423 0.306340
0.734340 0.870787 0.331792
0.768521 0.861906 0.356939
0.799588 0.852720 0.381872
0.827390 0.843351 0.406836
0.851652 0.833890 0.431830
0.872160 0.824338 0.456703
0.891417 0.819760 0.499092
0.917998 0.822446 0.522240
0.944518 0.826902 0.544671
0.970245 0.833036 0.568750
0.000000 0.940215 0.248631
0.000000 0.940185 0.248508
0.000000 0.940093 0.248417
0.000000 0.939910 0.248264
0.000000 0.939574 0.248325
0.000000 0.939117 0.248905
0.000000 0.938537 0.250126
0.000000 0.937743 0.252598
0.000000 0.936767 0.256565
0.000000 0.935576 0.262364
0.144839 0.934112 0.270726
0.242252 0.932403 0.281895
0.299748 0.931243 0.283360
0.350103 0.930022 0.284062
0.396918 0.928649 0.284764
0.441321 0.927153 0.285496
0.484199 0.925536 0.286320
0.525750 0.923796 0.287083
0.566583 0.921904 0.287877
0.606683 0.919890 0.288548
0.646235 0.917723 0.289311
0.687404 0.911833 0.307591
0.726864 0.903990 0.333562
0.763394 0.895933 0.359319
0.796994 0.887633 0.384894
0.827512 0.879149 0.410315
0.854887 0.870512 0.435798
0.878874 0.861875 0.460975
0.899290 0.853239 0.485481
0.918242 0.848936 0.526329
0.943206 0.851835 0.553246
0.969085 0.857145 0.577264
0.000000 0.966003 0.253483
0.000000 0.965972 0.253574
0.000000 0.965881 0.253666
0.000000 0.965667 0.253910
0.000000 0.965332 0.254582
0.000000 0.964874 0.255955
0.000000 0.964263 0.258274
0.000000 0.963470 0.261936
0.000000 0.962493 0.267308
0.000000 0.961242 0.274937
0.130404 0.959747 0.284977
0.237583 0.958007 0.297978
0.303136 0.956512 0.305913
0.351293 0.955352 0.306615
0.396399 0.954070 0.307317
