其他预设/【213】赛博朋克科幻预设52款/1.LUT预设（视频调色-PR-AE-PS-FCPX-达芬奇用）/赛博朋克科幻__-7 强度4.cube
# Created by Adobe Lightroom plugin Export LUT (1.17.0)
# www.johnrellis.com/lightroom/exportlut.htm
# Preset: 赛博朋克科幻[素锦印象]-7 强度4
# Color profile: /Library/Application Support/Adobe/Color/Profiles/Recommended/AdobeRGB1998.icc
LUT_3D_SIZE 32
0.067628 0.097536 0.087770
0.067628 0.097536 0.087770
0.067628 0.097536 0.087770
0.087770 0.099886 0.087098
0.119875 0.104768 0.085573
0.154513 0.111147 0.083253
0.193790 0.119692 0.079622
0.238468 0.130190 0.074037
0.288304 0.143038 0.065278
0.342718 0.158022 0.045258
0.401099 0.174289 0.001556
0.461555 0.191775 0.000000
0.522606 0.209751 0.000000
0.582635 0.227787 0.000000
0.637964 0.244572 0.000000
0.687831 0.259831 0.000000
0.732631 0.273503 0.000000
0.772702 0.285832 0.000000
0.808499 0.296880 0.000000
0.841642 0.306920 0.000000
0.872587 0.316197 0.000000
0.901488 0.324743 0.000000
0.928405 0.332555 0.000000
0.953521 0.339757 0.000000
0.977111 0.346227 0.000000
0.999268 0.352300 0.000000
1.000000 0.357794 0.000000
1.000000 0.362829 0.000000
1.000000 0.367468 0.000000
1.000000 0.371649 0.000000
1.000000 0.375402 0.000000
1.000000 0.378607 0.000000
0.067628 0.097536 0.087770
0.067628 0.097536 0.087770
0.067628 0.097536 0.087770
0.087373 0.100191 0.087068
0.119295 0.105623 0.085512
0.153902 0.112001 0.083162
0.193332 0.120455 0.079561
0.237766 0.131197 0.073945
0.287663 0.144137 0.065156
0.342229 0.158968 0.044892
0.400580 0.175326 0.001129
0.461067 0.192721 0.000000
0.522148 0.210727 0.000000
0.582208 0.228763 0.000000
0.637690 0.245640 0.000000
0.687556 0.260716 0.000000
0.732357 0.274449 0.000000
0.772457 0.286717 0.000000
0.808286 0.297581 0.000000
0.841520 0.307591 0.000000
0.872465 0.316930 0.000000
0.901396 0.325353 0.000000
0.928344 0.333165 0.000000
0.953491 0.340215 0.000000
0.977050 0.346807 0.000000
0.999237 0.352789 0.000000
1.000000 0.358251 0.000000
1.000000 0.363287 0.000000
1.000000 0.367803 0.000000
1.000000 0.372045 0.000000
1.000000 0.375738 0.000000
1.000000 0.378943 0.000000
0.067628 0.097536 0.087770
0.067628 0.097536 0.087770
0.067628 0.097536 0.087770
0.086915 0.100771 0.087037
0.118471 0.106538 0.085451
0.153231 0.113313 0.083070
0.192264 0.121828 0.079469
0.236820 0.132631 0.073793
0.286809 0.145663 0.064973
0.341283 0.160281 0.044556
0.399725 0.176791 0.000610
0.460365 0.194247 0.000000
0.521477 0.212253 0.000000
0.581659 0.230137 0.000000
0.637079 0.246830 0.000000
0.687251 0.261967 0.000000
0.732052 0.275731 0.000000
0.772213 0.287755 0.000000
0.808133 0.298650 0.000000
0.841306 0.308598 0.000000
0.872374 0.317723 0.000000
0.901305 0.326177 0.000000
0.928252 0.333959 0.000000
0.953429 0.340917 0.000000
0.977020 0.347478 0.000000
0.999207 0.353399 0.000000
1.000000 0.358862 0.000000
1.000000 0.363867 0.000000
1.000000 0.368353 0.000000
1.000000 0.372534 0.000000
1.000000 0.376226 0.000000
1.000000 0.379431 0.000000
0.067628 0.097536 0.087770
0.067628 0.097536 0.087770
0.068116 0.099641 0.087587
0.085634 0.104280 0.086732
0.116945 0.108980 0.085237
0.151431 0.115297 0.082918
0.190402 0.124392 0.079225
0.235019 0.135470 0.073518
0.284947 0.148501 0.064637
0.339666 0.163455 0.043305
0.398077 0.179751 0.000000
0.458839 0.197330 0.000000
0.520012 0.215274 0.000000
0.580285 0.233127 0.000000
0.636164 0.249699 0.000000
0.686336 0.264744 0.000000
0.731380 0.278172 0.000000
0.771664 0.290196 0.000000
0.807614 0.300847 0.000000
0.840909 0.310674 0.000000
0.872068 0.319738 0.000000
0.901030 0.328069 0.000000
0.928069 0.335546 0.000000
0.953246 0.342596 0.000000
0.976898 0.348974 0.000000
0.999115 0.354772 0.000000
1.000000 0.360082 0.000000
1.000000 0.365057 0.000000
1.000000 0.369543 0.000000
1.000000 0.373571 0.000000
1.000000 0.377173 0.000000
1.000000 0.380377 0.000000
0.064912 0.107759 0.088258
0.064546 0.109468 0.087800
0.064759 0.111818 0.086366
0.080812 0.115938 0.085573
0.112764 0.115663 0.084657
0.148867 0.120638 0.082368
0.187289 0.126864 0.079103
0.231907 0.138247 0.073365
0.282078 0.151949 0.064302
0.336889 0.167422 0.042054
0.395544 0.184268 0.000000
0.456428 0.201846 0.000000
0.517845 0.219821 0.000000
0.578363 0.237552 0.000000
0.634516 0.254002 0.000000
0.684993 0.268772 0.000000
0.730251 0.282048 0.000000
0.770687 0.293767 0.000000
0.806882 0.304265 0.000000
0.840391 0.313848 0.000000
0.871550 0.322606 0.000000
0.900694 0.330755 0.000000
0.927794 0.338231 0.000000
0.953063 0.344976 0.000000
0.976745 0.351232 0.000000
0.998993 0.356909 0.000000
1.000000 0.362188 0.000000
1.000000 0.366949 0.000000
1.000000 0.371313 0.000000
1.000000 0.375280 0.000000
1.000000 0.378790 0.000000
1.000000 0.381872 0.000000
0.060456 0.120882 0.089143
0.060060 0.122377 0.088685
0.059907 0.124483 0.086702
0.070375 0.128267 0.087465
0.105379 0.132570 0.085084
0.142031 0.130037 0.081788
0.184298 0.136141 0.077913
0.227848 0.142458 0.073030
0.277531 0.155062 0.064271
0.332616 0.170413 0.042115
0.391455 0.187320 0.000000
0.452674 0.205386 0.000000
0.514397 0.223728 0.000000
0.575616 0.242008 0.000000
0.632349 0.259007 0.000000
0.683284 0.274174 0.000000
0.728817 0.287175 0.000000
0.769467 0.298650 0.000000
0.805875 0.308721 0.000000
0.839567 0.318120 0.000000
0.870939 0.326696 0.000000
0.900206 0.334539 0.000000
0.927428 0.341711 0.000000
0.952758 0.348363 0.000000
0.976501 0.354345 0.000000
0.998810 0.359869 0.000000
1.000000 0.364874 0.000000
1.000000 0.369482 0.000000
1.000000 0.373754 0.000000
1.000000 0.377539 0.000000
1.000000 0.380987 0.000000
1.000000 0.383917 0.000000
0.051545 0.134951 0.090486
0.050996 0.136263 0.089784
0.050568 0.138125 0.088136
0.061036 0.141787 0.087190
0.084474 0.146761 0.092653
0.132692 0.150515 0.089448
0.174533 0.149325 0.085786
0.223972 0.157198 0.077821
0.273106 0.163973 0.067170
0.327184 0.174685 0.046113
0.386267 0.191196 0.000000
0.447791 0.209201 0.000000
0.510002 0.227359 0.000000
0.571710 0.245609 0.000000
0.629236 0.262577 0.000000
0.680690 0.277714 0.000000
0.726741 0.291173 0.000000
0.767849 0.303044 0.000000
0.804623 0.313634 0.000000
0.838590 0.323400 0.000000
0.870176 0.331640 0.000000
0.899626 0.339147 0.000000
0.926940 0.346075 0.000000
0.952422 0.352422 0.000000
0.976226 0.358160 0.000000
0.998596 0.363500 0.000000
1.000000 0.368322 0.000000
1.000000 0.372778 0.000000
1.000000 0.376745 0.000000
1.000000 0.380468 0.000000
1.000000 0.383642 0.000000
1.000000 0.386481 0.000000
0.035676 0.150332 0.092287
0.034791 0.151644 0.091524
0.034058 0.153445 0.089906
0.045472 0.157107 0.088411
0.084047 0.160952 0.100282
0.112490 0.168032 0.097719
0.160433 0.167575 0.095399
0.212345 0.172427 0.090089
0.268681 0.182498 0.080049
0.322698 0.190494 0.066621
0.379858 0.199344 0.037140
0.441840 0.215946 0.000000
0.504692 0.233524 0.000000
0.567010 0.251194 0.000000
0.625360 0.267552 0.000000
0.677577 0.282109 0.000000
0.724208 0.295232 0.000000
0.765805 0.306920 0.000000
0.802945 0.317357 0.000000
0.837278 0.327031 0.000000
0.869200 0.335943 0.000000
0.898863 0.344396 0.000000
0.926360 0.351354 0.000000
0.951995 0.357366 0.000000
0.975891 0.362829 0.000000
0.998352 0.367895 0.000000
1.000000 0.372442 0.000000
1.000000 0.376654 0.000000
1.000000 0.380499 0.000000
1.000000 0.383917 0.000000
1.000000 0.386969 0.000000
1.000000 0.389624 0.000000
0.012787 0.168124 0.094392
0.011933 0.169406 0.093416
0.011017 0.171145 0.091798
0.024384 0.174441 0.091127
0.069886 0.178927 0.097749
0.101381 0.185122 0.106722
0.147677 0.193301 0.103426
0.195773 0.189761 0.101472
0.256687 0.199283 0.093812
0.318669 0.211246 0.081514
0.376623 0.219821 0.064942
0.436439 0.228641 0.020478
0.498573 0.241917 0.000000
0.561547 0.259068 0.000000
0.620661 0.275120 0.000000
0.673640 0.289372 0.000000
0.720974 0.301884 0.000000
0.763210 0.312902 0.000000
0.800870 0.322545 0.000000
0.835721 0.331487 0.000000
0.868009 0.340063 0.000000
0.897978 0.348180 0.000000
0.925719 0.355749 0.000000
0.951476 0.362860 0.000000
0.975494 0.368231 0.000000
0.998047 0.372992 0.000000
1.000000 0.377264 0.000000
1.000000 0.381231 0.000000
1.000000 0.384771 0.000000
1.000000 0.387976 0.000000
1.000000 0.390875 0.000000
1.000000 0.393256 0.000000
0.000000 0.188266 0.097017
0.000000 0.189517 0.096040
0.000000 0.191135 0.094453
0.000000 0.194430 0.095003
0.056214 0.199100 0.100038
0.099092 0.204379 0.114260
0.122774 0.214298 0.113222
0.189029 0.223453 0.108919
0.241184 0.217868 0.107088
0.306432 0.229740 0.097383
0.373022 0.242618 0.082399
0.433722 0.251194 0.060883
0.494759 0.259678 0.000946
0.555108 0.268223 0.000000
0.615412 0.284001 0.000000
0.669337 0.297765 0.000000
0.717464 0.309819 0.000000
0.760189 0.320439 0.000000
0.798367 0.329717 0.000000
0.833677 0.338293 0.000000
0.866453 0.346166 0.000000
0.896818 0.353491 0.000000
0.924926 0.360113 0.000000
0.950896 0.366796 0.000000
0.975067 0.373144 0.000000
0.997742 0.378759 0.000000
1.000000 0.382818 0.000000
1.000000 0.386419 0.000000
1.000000 0.389685 0.000000
1.000000 0.392676 0.000000
1.000000 0.395270 0.000000
1.000000 0.397406 0.000000
0.000000 0.210910 0.100374
0.000000 0.212222 0.099611
0.000000 0.213870 0.097780
0.000000 0.216983 0.099245
0.021363 0.221653 0.103456
0.078157 0.227909 0.109590
0.122164 0.235782 0.123354
0.160281 0.247349 0.119997
0.236423 0.258213 0.114412
0.292943 0.249638 0.113466
0.360937 0.263279 0.101045
0.430854 0.276341 0.082856
0.492592 0.284306 0.056336
0.553338 0.291691 0.000000
0.610803 0.297581 0.000000
0.664363 0.307713 0.000000
0.713313 0.319188 0.000000
0.756649 0.329259 0.000000
0.795529 0.338018 0.000000
0.831418 0.346197 0.000000
0.864652 0.353613 0.000000
0.895384 0.360479 0.000000
0.923796 0.366705 0.000000
0.950072 0.372442 0.000000
0.974578 0.377661 0.000000
0.997375 0.383246 0.000000
1.000000 0.388617 0.000000
1.000000 0.392279 0.000000
1.000000 0.395300 0.000000
1.000000 0.397925 0.000000
1.000000 0.400275 0.000000
1.000000 0.402197 0.000000
0.000000 0.236240 0.104555
0.000000 0.237400 0.103639
0.000000 0.239109 0.102296
0.000000 0.242100 0.104524
0.000000 0.246799 0.107485
0.058900 0.253208 0.112154
0.113649 0.260319 0.128267
0.147555 0.271580 0.131258
0.209110 0.284154 0.126833
0.289677 0.296910 0.119966
0.348608 0.285191 0.119509
0.418921 0.298955 0.104738
0.490425 0.311559 0.083742
0.551904 0.318334 0.049653
0.609674 0.323461 0.000000
0.661524 0.326482 0.000000
0.708675 0.329992 0.000000
0.752804 0.339483 0.000000
0.792325 0.347692 0.000000
0.828855 0.355291 0.000000
0.862608 0.362249 0.000000
0.893706 0.368688 0.000000
0.922484 0.374456 0.000000
0.949065 0.379767 0.000000
0.973816 0.384497 0.000000
0.996887 0.388891 0.000000
1.000000 0.393011 0.000000
1.000000 0.397894 0.000000
1.000000 0.401404 0.000000
1.000000 0.403754 0.000000
1.000000 0.405798 0.000000
1.000000 0.407416 0.000000
0.000000 0.263737 0.109438
0.000000 0.264744 0.108339
0.000000 0.266300 0.108583
0.000000 0.269352 0.109895
0.000000 0.274022 0.112184
0.001099 0.280278 0.115694
0.085084 0.288212 0.121889
0.145846 0.296757 0.143160
0.176699 0.311101 0.139467
0.262608 0.324315 0.133852
0.342840 0.334325 0.127199
0.407324 0.323430 0.126162
0.478798 0.336217 0.110109
0.550042 0.347539 0.087007
0.608545 0.351781 0.052003
0.660700 0.353765 0.000000
0.707362 0.354070 0.000000
0.749081 0.353185 0.000000
0.788754 0.358801 0.000000
0.825956 0.365850 0.000000
0.860258 0.372259 0.000000
0.891905 0.378088 0.000000
0.920989 0.383368 0.000000
0.947875 0.388098 0.000000
0.972900 0.392432 0.000000
0.996185 0.396307 0.000000
1.000000 0.399847 0.000000
1.000000 0.403082 0.000000
1.000000 0.406928 0.000000
1.000000 0.410132 0.000000
1.000000 0.411872 0.000000
1.000000 0.413184 0.000000
0.000000 0.292882 0.115023
0.000000 0.293919 0.114534
0.000000 0.295262 0.115175
0.000000 0.298283 0.115938
0.000000 0.302922 0.117556
0.000000 0.309178 0.120333
0.055146 0.316991 0.124819
0.129854 0.325200 0.144167
0.175723 0.337377 0.152895
0.223117 0.353033 0.148592
0.320378 0.367224 0.142061
0.395789 0.369909 0.137545
0.467781 0.363073 0.134890
0.538842 0.374029 0.117281
0.606287 0.382361 0.094942
0.659815 0.383459 0.065736
0.706661 0.382452 0.000000
0.748501 0.380285 0.000000
0.786496 0.377508 0.000000
0.822721 0.377935 0.000000
0.857633 0.383734 0.000000
0.889769 0.389014 0.000000
0.919310 0.393713 0.000000
0.946563 0.397894 0.000000
0.971832 0.401556 0.000000
0.995361 0.404883 0.000000
1.000000 0.407813 0.000000
1.000000 0.410529 0.000000
1.000000 0.412909 0.000000
1.000000 0.415686 0.000000
1.000000 0.418402 0.000000
1.000000 0.419440 0.000000
0.000000 0.323522 0.121462
0.000000 0.324498 0.121736
0.000000 0.325811 0.121920
0.000000 0.328740 0.122744
0.000000 0.333227 0.123598
0.000000 0.339452 0.125521
0.000000 0.347021 0.128969
0.093141 0.356023 0.136110
0.173770 0.364782 0.167391
0.208865 0.380652 0.163790
0.282750 0.396582 0.158755
0.381506 0.412055 0.151492
0.450507 0.406043 0.150301
0.528710 0.403113 0.145693
0.596674 0.411048 0.128481
0.657343 0.415076 0.108583
0.705745 0.413306 0.084260
0.747860 0.409705 0.042329
0.786069 0.405707 0.000000
0.821683 0.401678 0.000000
0.854826 0.397620 0.000000
0.887327 0.401587 0.000000
0.917357 0.405585 0.000000
0.945006 0.409094 0.000000
0.970581 0.412207 0.000000
0.994385 0.414862 0.000000
1.000000 0.417182 0.000000
1.000000 0.419196 0.000000
1.000000 0.420966 0.000000
1.000000 0.422492 0.000000
1.000000 0.424079 0.000000
1.000000 0.426215 0.000000
0.000000 0.355291 0.129061
0.000000 0.356268 0.129305
0.000000 0.357519 0.129458
0.000000 0.360327 0.129641
0.000000 0.364752 0.130190
0.000000 0.370703 0.131197
0.000000 0.378119 0.133791
0.051575 0.386969 0.139071
0.149142 0.395850 0.163241
0.207706 0.408331 0.179690
0.244938 0.425727 0.175784
0.344854 0.441718 0.170291
0.444648 0.457984 0.162783
0.506371 0.441871 0.165438
0.587396 0.441932 0.159884
0.648768 0.445411 0.144198
0.702998 0.445624 0.127169
0.746883 0.441444 0.107179
0.785550 0.436103 0.082490
0.821347 0.430823 0.035645
0.854643 0.425605 0.000000
0.885588 0.420386 0.000000
0.915099 0.419318 0.000000
0.943175 0.422187 0.000000
0.969085 0.424598 0.000000
0.993194 0.426581 0.000000
1.000000 0.428199 0.000000
1.000000 0.429480 0.000000
1.000000 0.430457 0.000000
1.000000 0.431098 0.000000
1.000000 0.431617 0.000000
1.000000 0.432074 0.000000
0.000000 0.387915 0.136965
0.000000 0.388861 0.136843
0.000000 0.390082 0.137118
0.000000 0.392889 0.136873
0.000000 0.397162 0.136965
0.000000 0.402960 0.137636
0.000000 0.410071 0.139376
0.000000 0.418647 0.143648
0.106569 0.428229 0.153384
0.205234 0.436652 0.195590
0.244297 0.453346 0.193332
0.296025 0.471321 0.189273
0.407965 0.487404 0.183780
0.508995 0.503960 0.176150
0.567224 0.480934 0.182803
0.640375 0.477760 0.177768
0.695277 0.477241 0.164309
0.744045 0.474495 0.149416
0.784695 0.468696 0.132418
0.820798 0.462196 0.113344
0.854276 0.455726 0.090120
0.885283 0.449348 0.053315
0.914092 0.443000 0.000000
0.941009 0.437201 0.000000
0.967346 0.438911 0.000000
0.991730 0.440253 0.000000
1.000000 0.441108 0.000000
1.000000 0.441566 0.000000
1.000000 0.441688 0.000000
1.000000 0.441474 0.000000
1.000000 0.440925 0.000000
1.000000 0.440223 0.000000
0.000000 0.421210 0.144900
0.000000 0.422034 0.144778
0.000000 0.423285 0.144839
0.000000 0.426001 0.144442
0.000000 0.430121 0.144442
0.000000 0.435584 0.144411
0.000000 0.442542 0.145571
0.000000 0.450752 0.148684
0.062226 0.460151 0.156649
0.172732 0.469368 0.185855
0.243473 0.481361 0.211337
0.282933 0.499306 0.208316
0.362341 0.516930 0.204410
0.472511 0.533288 0.199283
0.573053 0.549279 0.192508
0.625055 0.517876 0.203922
0.689265 0.511589 0.199527
0.738613 0.507927 0.187472
0.782345 0.502647 0.174319
0.820005 0.495552 0.159915
0.853635 0.488014 0.144015
0.884794 0.480446 0.126040
0.913664 0.472999 0.104036
0.940520 0.465736 0.074464
0.965667 0.458442 0.000000
0.989929 0.456001 0.000000
1.000000 0.456214 0.000000
1.000000 0.455940 0.000000
1.000000 0.455177 0.000000
1.000000 0.453925 0.000000
1.000000 0.452308 0.000000
1.000000 0.450385 0.000000
0.000000 0.455818 0.153201
0.000000 0.456672 0.153048
0.000000 0.457801 0.152834
0.000000 0.460395 0.152529
0.000000 0.464363 0.152041
0.000000 0.469734 0.151766
0.000000 0.476478 0.152163
0.000000 0.484382 0.154696
0.000000 0.493599 0.161379
0.126253 0.503532 0.175021
0.235752 0.512108 0.223117
0.283513 0.528191 0.228214
0.324254 0.547082 0.225467
0.429419 0.563409 0.222293
0.536553 0.578424 0.218235
0.626154 0.584955 0.216251
0.679286 0.552667 0.229557
0.734920 0.544182 0.224765
0.779141 0.537896 0.213993
0.818296 0.530449 0.202243
0.852750 0.521996 0.189487
0.883970 0.513481 0.175631
0.912932 0.505028 0.160311
0.939818 0.496773 0.143130
0.964996 0.488563 0.122408
0.988647 0.480385 0.094392
1.000000 0.473457 0.036408
1.000000 0.472633 0.000000
1.000000 0.471138 0.000000
1.000000 0.469062 0.000000
1.000000 0.466285 0.000000
1.000000 0.462989 0.000000
0.000000 0.492195 0.161685
0.000000 0.493050 0.161532
0.000000 0.494240 0.161257
0.000000 0.496620 0.160861
0.000000 0.500511 0.159884
0.000000 0.505669 0.159518
0.000000 0.512169 0.159426
0.000000 0.519829 0.161135
0.000000 0.528649 0.166903
0.082856 0.538323 0.178622
0.201938 0.547631 0.213291
0.285100 0.558648 0.249241
0.326238 0.576196 0.247593
0.377417 0.593988 0.245731
0.495430 0.608026 0.244022
0.598779 0.621485 0.241642
0.675319 0.617151 0.244663
0.729549 0.585687 0.259556
0.777371 0.575799 0.253544
0.816770 0.567254 0.243442
0.851621 0.557885 0.232547
0.882872 0.548272 0.220798
0.911864 0.538903 0.208530
0.938750 0.529747 0.195132
0.963928 0.520714 0.180148
0.987579 0.511711 0.162478
1.000000 0.502647 0.141176
1.000000 0.493599 0.113069
1.000000 0.489723 0.068391
1.000000 0.486946 0.000000
1.000000 0.483284 0.000000
1.000000 0.478737 0.000000
0.000000 0.530327 0.170535
0.000000 0.531060 0.170413
0.000000 0.532189 0.170016
0.000000 0.534569 0.169314
0.000000 0.538231 0.168399
0.000000 0.543267 0.167453
0.000000 0.549371 0.167025
0.000000 0.556786 0.168154
0.000000 0.565179 0.173068
0.000000 0.574273 0.183810
0.155734 0.583948 0.202823
0.273014 0.591608 0.256931
0.329473 0.605554 0.271061
0.370520 0.622400 0.270420
0.448127 0.637842 0.269963
0.559289 0.650477 0.269810
0.658503 0.662409 0.269352
0.721828 0.647486 0.276982
0.775875 0.617090 0.293339
0.816373 0.606531 0.285496
0.851316 0.596063 0.275731
0.882292 0.585107 0.265141
0.910430 0.574243 0.253910
0.937377 0.564263 0.242649
0.962524 0.554559 0.230472
0.986114 0.545006 0.216861
1.000000 0.535363 0.201053
1.000000 0.525658 0.182467
1.000000 0.515679 0.159243
1.000000 0.507500 0.128878
1.000000 0.503380 0.080720
1.000000 0.498085 0.000000
0.000000 0.569818 0.179721
0.000000 0.570550 0.179446
0.000000 0.571557 0.179110
0.000000 0.573816 0.178286
0.000000 0.577295 0.177005
0.000000 0.581994 0.175723
0.000000 0.587701 0.174807
0.000000 0.594446 0.175540
0.000000 0.602136 0.179904
0.000000 0.610407 0.189914
0.118990 0.619135 0.207370
0.240726 0.626978 0.248600
0.335210 0.635065 0.296208
0.375952 0.650629 0.296635
0.416114 0.666682 0.296788
0.516197 0.679530 0.298283
0.620813 0.690700 0.299901
0.715236 0.701198 0.301396
0.765286 0.676265 0.313054
0.817197 0.648035 0.329381
0.852079 0.636408 0.320409
0.882872 0.624384 0.310521
0.910369 0.612146 0.299962
0.935546 0.600244 0.288884
0.960693 0.589960 0.278386
0.984253 0.579828 0.266941
1.000000 0.569818 0.254124
1.000000 0.559686 0.239445
1.000000 0.549371 0.222354
1.000000 0.538628 0.201602
1.000000 0.527245 0.175448
1.000000 0.520836 0.141146
0.000000 0.609400 0.188632
0.000000 0.610101 0.188510
0.000000 0.611048 0.187930
0.000000 0.613062 0.186954
0.000000 0.616205 0.185550
0.000000 0.620417 0.184024
0.000000 0.625605 0.182956
0.000000 0.631769 0.183108
0.000000 0.638727 0.186831
0.000000 0.646204 0.196414
0.055848 0.654078 0.213596
0.200229 0.662104 0.240116
0.319615 0.667872 0.299748
0.384192 0.678828 0.324346
0.423682 0.693660 0.325780
0.469093 0.708553 0.327184
0.581323 0.718898 0.330694
0.679408 0.728725 0.334203
0.768338 0.737758 0.337621
0.805661 0.703639 0.352422
0.853666 0.678706 0.367224
0.884276 0.665614 0.357794
0.911467 0.652461 0.347753
0.935912 0.639246 0.336675
0.958404 0.626398 0.325292
0.981903 0.615900 0.315373
1.000000 0.605615 0.304540
1.000000 0.595300 0.292424
1.000000 0.584833 0.278691
1.000000 0.573968 0.262760
1.000000 0.562585 0.243656
1.000000 0.550378 0.220401
0.000000 0.648493 0.197513
0.000000 0.649104 0.197177
0.000000 0.649897 0.196658
0.000000 0.651759 0.195529
0.000000 0.654597 0.194003
0.000000 0.658412 0.192142
0.000000 0.663142 0.190616
0.000000 0.668666 0.190494
0.000000 0.674952 0.193912
0.000000 0.681697 0.203159
0.000000 0.688838 0.220188
0.173007 0.696010 0.245731
0.291691 0.701961 0.293950
0.395850 0.706874 0.353704
0.434394 0.720607 0.356207
0.472358 0.734585 0.358618
0.540520 0.746822 0.362219
0.643336 0.755886 0.367468
0.734524 0.764340 0.372656
0.816098 0.770809 0.377905
0.843534 0.730739 0.394873
0.886351 0.708370 0.407324
0.913237 0.694392 0.397559
0.937316 0.680415 0.386786
0.959075 0.666468 0.375219
0.979126 0.652705 0.362951
1.000000 0.642298 0.353674
1.000000 0.632013 0.343542
1.000000 0.621607 0.332128
1.000000 0.610895 0.319310
1.000000 0.599878 0.304631
1.000000 0.588128 0.287449
0.000000 0.686915 0.206119
0.000000 0.687434 0.205600
0.000000 0.688228 0.205081
0.000000 0.689906 0.203922
0.000000 0.692470 0.202090
0.000000 0.695918 0.200046
0.000000 0.700191 0.198215
0.000000 0.705226 0.197940
0.000000 0.710872 0.200900
0.000000 0.716976 0.209934
0.000000 0.723293 0.226841
0.140688 0.729641 0.252689
0.259648 0.735805 0.288304
0.378241 0.739467 0.353216
0.449226 0.747341 0.388312
0.485847 0.760189 0.391852
0.521752 0.773129 0.395392
0.607935 0.782742 0.401251
0.701686 0.790494 0.407996
0.785672 0.797543 0.414649
0.852201 0.795254 0.423163
0.879698 0.758572 0.440223
0.915648 0.737301 0.449104
0.939239 0.722866 0.438636
0.960632 0.708339 0.427344
0.980072 0.693904 0.415045
0.997864 0.679408 0.402045
1.000000 0.669154 0.393256
1.000000 0.659022 0.383825
1.000000 0.648798 0.373449
1.000000 0.638331 0.362005
1.000000 0.627405 0.349218
0.000000 0.724819 0.214237
0.000000 0.725338 0.213748
0.000000 0.726040 0.213199
0.000000 0.727565 0.211917
0.000000 0.729854 0.209995
0.000000 0.733028 0.207767
0.000000 0.736873 0.205692
0.000000 0.741421 0.204868
0.000000 0.746487 0.207675
0.000000 0.751888 0.216312
0.000000 0.757534 0.233463
0.091188 0.763058 0.259739
0.241276 0.768368 0.295109
0.356970 0.772213 0.350774
0.463325 0.774563 0.417151
0.503624 0.785519 0.426673
0.538109 0.797391 0.431128
0.574731 0.809018 0.435706
0.671168 0.816098 0.443702
0.756008 0.822538 0.451392
0.832547 0.828397 0.458747
0.885161 0.818357 0.468971
0.912047 0.785122 0.485206
0.941985 0.765194 0.490272
0.962707 0.750546 0.479530
0.981598 0.735927 0.467964
0.998932 0.721370 0.455634
1.000000 0.706691 0.442359
1.000000 0.696468 0.433936
1.000000 0.686824 0.425666
1.000000 0.677150 0.416846
1.000000 0.667445 0.407630
0.000000 0.762234 0.223362
0.000000 0.762722 0.222538
0.000000 0.763394 0.221286
0.000000 0.764736 0.219547
0.000000 0.766873 0.217533
0.000000 0.769680 0.215061
0.000000 0.773159 0.212619
0.000000 0.777218 0.211460
0.000000 0.781796 0.213870
0.000000 0.786648 0.222477
0.000000 0.791501 0.239719
0.000000 0.796292 0.266697
0.222293 0.800748 0.303075
0.333837 0.804623 0.348638
0.449744 0.806027 0.417975
0.525689 0.810605 0.462745
0.558251 0.821408 0.467720
0.589929 0.832151 0.472724
0.643885 0.841154 0.478950
0.729488 0.847013 0.487221
0.805753 0.852293 0.495186
0.875120 0.857084 0.502617
0.915190 0.840513 0.513817
0.940795 0.810544 0.528923
0.965637 0.791897 0.530236
0.983764 0.777310 0.519219
1.000000 0.762722 0.507500
1.000000 0.748196 0.495094
1.000000 0.733608 0.482002
1.000000 0.723659 0.474311
1.000000 0.715053 0.468086
1.000000 0.706691 0.462135
0.000000 0.799100 0.232609
0.000000 0.799496 0.231662
0.000000 0.800137 0.230472
0.000000 0.801419 0.227665
0.000000 0.803403 0.224765
0.000000 0.805905 0.222110
0.000000 0.809049 0.219150
0.000000 0.812680 0.217533
0.000000 0.816739 0.219333
0.000000 0.820981 0.227817
0.000000 0.825223 0.245304
0.000000 0.829221 0.273259
0.200198 0.832761 0.311131
0.324254 0.835752 0.357458
0.436622 0.837064 0.419776
