其他预设/【213】赛博朋克科幻预设52款/1.LUT预设（视频调色-PR-AE-PS-FCPX-达芬奇用）/赛博朋克科幻__-3 强度3.cube
# Created by Adobe Lightroom plugin Export LUT (1.17.0)
# www.johnrellis.com/lightroom/exportlut.htm
# Preset: 赛博朋克科幻[素锦印象]-3 强度3
# Color profile: /Library/Application Support/Adobe/Color/Profiles/Recommended/AdobeRGB1998.icc
LUT_3D_SIZE 5
DOMAIN_MIN 0.000000 0.000000 0.000000
DOMAIN_MAX 0.903226 0.903226 0.903226
0.064057 0.075776 0.095705
0.204532 0.000000 0.149722
0.526848 0.000000 0.289494
0.821653 0.000000 0.415930
1.000000 0.000000 0.504143
0.000000 0.262089 0.201328
0.155184 0.229404 0.105928
0.526360 0.000000 0.199588
0.822751 0.000000 0.386938
1.000000 0.000000 0.504356
0.000000 0.615625 0.419715
0.000000 0.607416 0.372656
0.373938 0.545281 0.042359
0.821408 0.141909 0.168551
1.000000 0.000000 0.340673
0.000000 0.860624 0.571069
0.000000 0.859037 0.549584
0.000000 0.856321 0.431769
0.581933 0.801114 0.086915
0.997253 0.535027 0.274418
0.000000 1.000000 0.671778
0.000000 1.000000 0.659846
0.000000 1.000000 0.646937
0.319829 1.000000 0.514946
0.758511 0.978668 0.324315
0.000000 0.072053 0.208560
0.201297 0.000000 0.213779
0.524437 0.000000 0.348699
0.820951 0.000000 0.455665
1.000000 0.000000 0.510307
0.000000 0.217655 0.225925
0.179751 0.205600 0.208591
0.512047 0.000000 0.320500
0.817899 0.000000 0.443061
1.000000 0.000000 0.515892
0.000000 0.596460 0.447669
0.000000 0.583581 0.412146
0.383795 0.529229 0.201785
0.818570 0.134218 0.270420
1.000000 0.000000 0.426246
0.000000 0.854459 0.591638
0.000000 0.851896 0.573205
0.000000 0.844297 0.488350
0.597833 0.794919 0.237980
0.995270 0.539971 0.374609
0.000000 1.000000 0.686458
0.000000 1.000000 0.675196
0.000000 1.000000 0.661555
0.421271 1.000000 0.563775
0.775448 0.975555 0.396002
0.000000 0.000000 0.475013
0.254643 0.000000 0.442512
0.510491 0.000000 0.459174
0.803983 0.000000 0.545830
1.000000 0.000000 0.579522
0.000000 0.306523 0.501335
0.170443 0.178134 0.469612
0.503746 0.000000 0.457465
0.803525 0.000000 0.542870
1.000000 0.000000 0.581994
0.000000 0.523583 0.501671
0.000000 0.512291 0.489052
0.455512 0.472755 0.441321
0.791104 0.403296 0.542138
0.999237 0.156344 0.596765
0.000000 0.837003 0.659754
0.000000 0.833188 0.647425
0.303410 0.814755 0.606378
0.660121 0.771939 0.469123
0.986816 0.593805 0.555200
0.000000 1.000000 0.737514
0.000000 1.000000 0.728420
0.000000 1.000000 0.705257
0.606928 0.991485 0.678798
0.822507 0.966552 0.545830
0.000000 0.000000 0.720760
0.244327 0.000000 0.707210
0.558801 0.000000 0.659754
0.801266 0.000000 0.675563
1.000000 0.000000 0.688258
0.000000 0.157168 0.729702
0.159060 0.041962 0.716915
0.553491 0.000000 0.666865
0.800473 0.000000 0.680690
1.000000 0.000000 0.690730
0.000000 0.602625 0.741695
0.080598 0.607324 0.739895
0.500450 0.487984 0.703548
0.788113 0.123537 0.677058
1.000000 0.000000 0.685847
0.000000 0.768307 0.720638
0.000000 0.766415 0.717098
0.411505 0.758083 0.702449
0.735805 0.724483 0.661860
0.973602 0.693629 0.734951
0.000000 1.000000 0.825406
0.000000 1.000000 0.819913
0.000000 1.000000 0.799893
0.653223 0.981140 0.775784
0.881773 0.953124 0.693599
0.000000 0.000000 0.881224
0.000000 0.000000 0.877317
0.514733 0.000000 0.861997
0.796841 0.000000 0.839384
1.000000 0.000000 0.829892
0.000000 0.000000 0.883482
0.000000 0.000000 0.879759
0.503899 0.000000 0.865080
0.792569 0.000000 0.842222
1.000000 0.000000 0.833097
0.000000 0.585962 0.887083
0.253758 0.578668 0.882658
0.409186 0.356481 0.876127
0.763088 0.000000 0.850980
1.000000 0.000000 0.844022
0.000000 0.770138 0.879973
0.000000 0.776211 0.879240
0.562158 0.813748 0.874937
0.778439 0.749111 0.859831
0.991424 0.384009 0.845090
0.000000 0.935180 0.872007
0.000000 0.935576 0.871489
0.000000 0.937804 0.867765
0.699855 0.938750 0.858335
0.940551 0.922454 0.833310
