其他预设/【213】赛博朋克科幻预设52款/1.LUT预设（视频调色-PR-AE-PS-FCPX-达芬奇用）/赛博朋克科幻__-6 强度3.cube
# Created by Adobe Lightroom plugin Export LUT (1.17.0)
# www.johnrellis.com/lightroom/exportlut.htm
# Preset: 赛博朋克科幻[素锦印象]-6 强度3
# Color profile: /Library/Application Support/Adobe/Color/Profiles/Recommended/AdobeRGB1998.icc
LUT_3D_SIZE 8
DOMAIN_MIN 0.000000 0.000000 0.000000
DOMAIN_MAX 0.903226 0.903226 0.903226
0.091707 0.075990 0.073304
0.151583 0.052216 0.081025
0.251225 0.000000 0.104707
0.376867 0.000000 0.144594
0.523003 0.000000 0.197879
0.674525 0.000000 0.253025
0.815488 0.000000 0.299229
0.932250 0.000000 0.330663
0.136873 0.146426 0.060426
0.163546 0.132204 0.061463
0.257481 0.089265 0.078187
0.385168 0.000000 0.119539
0.530327 0.000000 0.180087
0.679927 0.000000 0.240238
0.818143 0.000000 0.294499
0.933776 0.000000 0.326787
0.214389 0.245762 0.000000
0.230869 0.241886 0.000000
0.275059 0.224460 0.000000
0.396521 0.231327 0.000000
0.547753 0.134737 0.083162
0.701625 0.000000 0.140505
0.834623 0.000000 0.220188
0.942260 0.000000 0.281285
0.300237 0.350286 0.000000
0.310979 0.348943 0.000000
0.349859 0.347601 0.000000
0.409064 0.337743 0.000000
0.547051 0.352422 0.000000
0.708614 0.332036 0.000000
0.843290 0.196109 0.090486
0.950500 0.000000 0.196445
0.386755 0.458747 0.000000
0.394812 0.458259 0.000000
0.422461 0.456245 0.000000
0.483558 0.467292 0.000000
0.554589 0.461891 0.000000
0.692378 0.471626 0.000000
0.846250 0.491066 0.000000
0.950988 0.393866 0.000000
0.478950 0.577173 0.000000
0.485481 0.577111 0.000000
0.508507 0.576745 0.000000
0.549889 0.576776 0.000000
0.631006 0.600092 0.000000
0.704555 0.590936 0.000000
0.823209 0.580468 0.000000
0.945708 0.583886 0.000000
0.579400 0.711910 0.000000
0.585046 0.711910 0.000000
0.604852 0.711910 0.000000
0.640375 0.711879 0.000000
0.696590 0.717678 0.000000
0.781277 0.736294 0.000000
0.844572 0.712490 0.000000
0.932006 0.672389 0.000000
0.677821 0.851499 0.000000
0.682734 0.851408 0.000000
0.699886 0.851164 0.000000
0.730861 0.850736 0.000000
0.775875 0.849851 0.000000
0.837827 0.853269 0.000000
0.916625 0.859556 0.000000
0.963897 0.817624 0.000000
0.092988 0.071839 0.142336
0.153445 0.039673 0.146578
0.246586 0.000000 0.156344
0.370672 0.000000 0.192020
0.516381 0.000000 0.237064
0.668513 0.000000 0.286809
0.811215 0.000000 0.328771
0.930022 0.000000 0.353521
0.105684 0.147646 0.101808
0.155581 0.138857 0.128328
0.253574 0.101900 0.144381
0.378851 0.000000 0.175601
0.524437 0.000000 0.220310
0.675196 0.000000 0.271031
0.815000 0.000000 0.318914
0.931579 0.000000 0.349798
0.214054 0.245426 0.037720
0.229740 0.241733 0.066773
0.273442 0.226902 0.081636
0.395880 0.220340 0.101778
0.546654 0.111269 0.143648
0.698512 0.000000 0.194491
0.831052 0.000000 0.258335
0.940276 0.000000 0.306981
0.306279 0.348486 0.000000
0.316320 0.347326 0.000000
0.352239 0.348272 0.000000
0.409339 0.339086 0.000000
0.549920 0.353094 0.000000
0.708522 0.320500 0.043915
0.842985 0.182101 0.152468
0.949523 0.000000 0.237613
0.391791 0.457649 0.000000
0.399481 0.457191 0.000000
0.426398 0.455268 0.000000
0.487709 0.468055 0.000000
0.555322 0.462348 0.000000
0.694759 0.472175 0.000000
0.846708 0.484138 0.000000
0.950988 0.388281 0.000000
0.482490 0.576623 0.000000
0.488930 0.576501 0.000000
0.511589 0.576226 0.000000
0.553460 0.577630 0.000000
0.633875 0.600702 0.000000
0.705501 0.590082 0.000000
0.824826 0.580835 0.000000
0.946777 0.583093 0.000000
0.581659 0.711635 0.000000
0.587182 0.711635 0.000000
0.606897 0.711666 0.000000
0.642145 0.711696 0.000000
0.698512 0.718044 0.000000
0.782834 0.736568 0.000000
0.845090 0.711818 0.000000
0.932982 0.672389 0.000000
0.678614 0.851530 0.000000
0.683436 0.851469 0.000000
0.700618 0.851255 0.000000
0.731533 0.850767 0.000000
0.776455 0.849943 0.000000
0.838407 0.853391 0.000000
0.917235 0.859678 0.000000
0.964172 0.817166 0.000000
0.101869 0.057984 0.255100
0.158999 0.012421 0.256718
0.263096 0.000000 0.261295
0.366735 0.000000 0.272099
0.501488 0.000000 0.308568
0.654108 0.000000 0.354803
0.800076 0.000000 0.395178
0.923430 0.000000 0.414343
0.107240 0.142184 0.242130
0.158175 0.132753 0.243565
0.259495 0.095857 0.250309
0.370367 0.000000 0.266148
0.507317 0.000000 0.301884
0.660151 0.000000 0.346441
0.804501 0.000000 0.385565
0.925048 0.000000 0.411139
0.136843 0.250919 0.152621
0.170047 0.249821 0.168368
0.261448 0.243717 0.219760
0.387304 0.205783 0.239841
0.532097 0.105684 0.271519
0.681361 0.000000 0.310765
0.819516 0.000000 0.348852
0.933776 0.000000 0.377569
0.275181 0.361303 0.096803
0.289586 0.360388 0.105226
0.334295 0.356909 0.118715
0.408576 0.347509 0.136141
0.558190 0.355871 0.171237
0.706172 0.288273 0.228000
0.839933 0.167117 0.285130
0.944305 0.000000 0.337346
0.381079 0.463355 0.000000
0.389380 0.463233 0.000000
0.418250 0.462745 0.000000
0.476875 0.470405 0.000000
0.556481 0.467842 0.000000
0.702571 0.475898 0.000000
0.846983 0.463050 0.140108
0.949493 0.380652 0.237186
0.486336 0.576684 0.000000
0.492287 0.576684 0.000000
0.513329 0.576959 0.000000
0.552392 0.578424 0.000000
0.630854 0.601617 0.000000
0.706020 0.592798 0.000000
0.830289 0.582666 0.000000
0.949767 0.583429 0.000000
0.587152 0.711330 0.000000
0.593011 0.711238 0.000000
0.612573 0.711238 0.000000
0.647272 0.711421 0.000000
0.704128 0.719265 0.000000
0.787747 0.737484 0.000000
0.846250 0.710628 0.000000
0.936370 0.672389 0.000000
0.680659 0.851896 0.000000
0.684962 0.851957 0.000000
0.702083 0.851743 0.000000
0.732937 0.851286 0.000000
0.777829 0.850431 0.000000
0.839902 0.853941 0.000000
0.919036 0.860105 0.000000
0.965026 0.815610 0.000000
0.118746 0.000122 0.391363
0.174289 0.000000 0.391943
0.282933 0.000000 0.395117
0.397894 0.000000 0.402686
0.504540 0.000000 0.407843
0.646174 0.000000 0.444282
0.784054 0.000000 0.476722
0.912932 0.000000 0.493690
0.107546 0.129549 0.381384
0.165042 0.119387 0.382666
0.276402 0.068788 0.387304
0.394720 0.000000 0.396063
0.507500 0.000000 0.404761
0.648554 0.000000 0.439155
0.786343 0.000000 0.470375
0.914763 0.000000 0.490455
0.103059 0.279911 0.352331
0.153964 0.265965 0.357519
0.262638 0.236088 0.364508
0.389654 0.193149 0.374304
0.516197 0.103426 0.389990
0.656123 0.000000 0.419013
0.800351 0.000000 0.450507
0.923033 0.000000 0.468727
0.155978 0.365698 0.205600
0.182620 0.367041 0.216495
0.263767 0.371252 0.256687
0.394659 0.375891 0.334752
0.538903 0.341405 0.358770
0.686397 0.279301 0.388312
0.822416 0.148043 0.416205
0.934813 0.000000 0.432990
0.309392 0.474708 0.109621
0.325444 0.476722 0.129397
0.382788 0.483833 0.187015
0.452399 0.483375 0.201541
0.555474 0.483284 0.230533
0.712642 0.494850 0.282444
0.841520 0.451331 0.350622
0.940551 0.423896 0.420386
0.448951 0.587274 0.000000
0.456580 0.587427 0.000000
0.483436 0.588159 0.000000
0.530816 0.589349 0.000000
0.611322 0.603113 0.000000
0.705776 0.600793 0.080568
0.837949 0.592096 0.169986
0.950042 0.583886 0.257206
0.572503 0.713222 0.000000
0.577935 0.713283 0.000000
0.597131 0.713588 0.000000
0.632166 0.714229 0.000000
0.686183 0.717128 0.000000
0.774350 0.737026 0.000000
0.845335 0.713863 0.000000
0.941344 0.674739 0.000000
0.686213 0.852110 0.000000
0.690333 0.852232 0.000000
0.704433 0.852720 0.000000
0.732296 0.853025 0.000000
0.777737 0.851987 0.000000
0.840574 0.855161 0.000000
0.921111 0.860990 0.000000
0.966522 0.813077 0.000000
0.139773 0.000000 0.534539
0.189731 0.000000 0.534966
0.298039 0.000000 0.537133
0.417334 0.000000 0.541741
0.537774 0.000000 0.549401
0.650416 0.000000 0.554314
0.785061 0.000000 0.581170
0.904906 0.000000 0.591394
0.118044 0.106508 0.528374
0.174899 0.092714 0.529137
0.289433 0.000000 0.532006
0.412634 0.000000 0.537316
0.535790 0.000000 0.545342
0.651637 0.000000 0.551629
0.786740 0.000000 0.577447
0.906188 0.000000 0.588678
0.029328 0.258335 0.511681
0.126772 0.247654 0.512474
0.265934 0.223880 0.515892
0.401221 0.176577 0.522148
0.531823 0.001801 0.531029
0.657801 0.000000 0.542229
0.792020 0.000000 0.563195
0.910796 0.000000 0.573205
0.040528 0.437690 0.458625
0.128237 0.431708 0.463386
0.257176 0.405646 0.480415
0.395209 0.368200 0.494148
0.532128 0.326452 0.504234
0.666926 0.255009 0.519219
0.799252 0.000000 0.533379
0.921263 0.000000 0.537255
0.168612 0.480232 0.257847
0.192111 0.482246 0.266514
0.265415 0.489509 0.298344
0.381353 0.502495 0.361089
0.541650 0.522087 0.461891
0.687861 0.494575 0.487739
0.820951 0.449470 0.511131
0.930571 0.367620 0.521660
0.332341 0.590143 0.118868
0.345892 0.592004 0.136873
0.394537 0.598627 0.190677
0.484810 0.611292 0.272404
0.575189 0.614649 0.283543
0.701015 0.620172 0.333349
0.842527 0.628504 0.411902
0.938231 0.607843 0.488106
0.511650 0.719905 0.000000
0.519554 0.720363 0.000000
0.543694 0.721004 0.000000
0.586267 0.722255 0.000000
0.648554 0.723507 0.000000
0.745418 0.736080 0.000000
0.841428 0.722316 0.166506
0.944305 0.689754 0.269322
0.651484 0.854826 0.000000
0.656397 0.854978 0.000000
0.674037 0.855436 0.000000
0.706203 0.856504 0.000000
0.754360 0.857115 0.000000
0.819547 0.856413 0.000000
0.907378 0.862425 0.000000
0.964874 0.816251 0.000000
0.155825 0.000000 0.656428
0.199344 0.000000 0.656733
0.300694 0.000000 0.658015
0.417060 0.000000 0.660700
0.535851 0.000000 0.664973
0.653437 0.000000 0.670771
0.780789 0.000000 0.689326
0.902922 0.000000 0.701839
0.135164 0.065919 0.653376
0.184543 0.021363 0.653803
0.292180 0.000000 0.655360
0.412177 0.000000 0.658320
0.533532 0.000000 0.662806
0.652857 0.000000 0.668788
0.782254 0.000000 0.687984
0.904173 0.000000 0.699794
0.015381 0.236179 0.643977
0.137026 0.230381 0.644526
0.269505 0.207706 0.646418
0.400244 0.156527 0.649836
0.528099 0.000000 0.654932
0.652613 0.000000 0.661585
0.788022 0.000000 0.682673
0.908385 0.000000 0.690639
0.058808 0.407233 0.626947
0.137301 0.402167 0.627588
0.261723 0.385199 0.629755
0.395697 0.357885 0.633722
0.527947 0.314580 0.639643
0.656886 0.241825 0.647456
0.797879 0.000000 0.669276
0.914214 0.000000 0.667231
0.000000 0.594476 0.560052
0.069245 0.590906 0.563439
0.237766 0.576593 0.575677
0.394903 0.547021 0.598260
0.540978 0.514214 0.614954
0.669429 0.471046 0.624537
0.803403 0.388281 0.637324
0.918608 0.166384 0.628504
0.163516 0.603723 0.311070
0.186587 0.605188 0.317571
0.255680 0.610529 0.341680
0.359472 0.620447 0.389105
0.501549 0.635676 0.468025
0.685695 0.665309 0.586481
0.816190 0.646876 0.611353
0.921202 0.612207 0.625666
0.345617 0.717922 0.113252
0.357397 0.718776 0.130892
0.398901 0.721859 0.181674
0.473121 0.727901 0.254185
0.586450 0.737484 0.352148
0.693263 0.740597 0.361944
0.827817 0.744839 0.449866
0.935851 0.750668 0.548302
0.560143 0.859464 0.000000
0.567742 0.859525 0.000000
0.595422 0.859739 0.106538
0.640925 0.860533 0.160037
0.694026 0.862486 0.081270
0.769253 0.862730 0.000000
0.873960 0.863676 0.000000
0.956664 0.826200 0.232517
0.165835 0.000000 0.755947
0.203220 0.000000 0.756100
0.295628 0.000000 0.756832
0.405493 0.000000 0.758297
0.519310 0.000000 0.760586
0.632990 0.000000 0.763729
0.744442 0.000000 0.767788
0.871763 0.000000 0.791806
0.148745 0.000000 0.754574
0.190311 0.000000 0.754818
0.287663 0.000000 0.755642
0.400549 0.000000 0.757198
0.516442 0.000000 0.759609
0.631739 0.000000 0.762875
0.744869 0.000000 0.767056
0.874113 0.000000 0.791409
0.100893 0.216739 0.749905
0.158602 0.210178 0.750179
0.270024 0.185245 0.751186
0.389899 0.123598 0.753017
0.510399 0.000000 0.755764
0.629328 0.000000 0.759487
0.746181 0.000000 0.764187
0.882261 0.000000 0.790005
0.115053 0.386725 0.740597
0.167269 0.383337 0.740902
0.276493 0.371008 0.742061
0.393072 0.343359 0.744289
0.512535 0.295720 0.747677
0.632441 0.209506 0.752163
0.752193 0.000000 0.757931
0.894408 0.000000 0.785428
0.102113 0.567559 0.716548
0.165591 0.562371 0.718288
0.292546 0.544579 0.724514
0.422431 0.527947 0.729519
0.537499 0.503044 0.733547
0.649348 0.454994 0.739193
0.767147 0.380621 0.746181
0.913542 0.000000 0.774075
0.000000 0.748409 0.657710
0.000000 0.745266 0.659815
0.204288 0.733516 0.667323
0.370459 0.710872 0.681300
0.543847 0.680842 0.702571
0.684321 0.658320 0.717556
0.791562 0.618982 0.725460
0.911589 0.526604 0.734554
0.112490 0.742611 0.366430
0.142794 0.742885 0.370977
0.219211 0.743709 0.387457
0.318639 0.745480 0.419715
0.449958 0.748562 0.477424
0.621637 0.756497 0.571557
0.810422 0.789456 0.694362
0.914336 0.777584 0.714931
0.353979 0.866331 0.104707
0.364843 0.866484 0.123018
0.402564 0.867033 0.172885
0.468666 0.867796 0.241978
0.566888 0.867735 0.333410
0.701778 0.865354 0.455634
0.811704 0.864408 0.452430
0.931640 0.852293 0.567773
0.165469 0.000000 0.834440
0.198520 0.000000 0.834531
0.282475 0.000000 0.834989
0.384619 0.000000 0.835874
0.490669 0.000000 0.837186
0.595697 0.000000 0.838895
0.701198 0.000000 0.841062
0.806638 0.000000 0.843717
0.150240 0.000000 0.833860
0.186130 0.000000 0.834012
0.274479 0.000000 0.834501
0.379553 0.000000 0.835416
0.489052 0.000000 0.836820
0.597436 0.000000 0.838712
0.702724 0.000000 0.840940
0.808286 0.000000 0.843626
0.122774 0.185611 0.831510
0.165316 0.177432 0.831693
0.260044 0.142977 0.832303
0.368475 0.000000 0.833463
0.480232 0.000000 0.835172
0.592798 0.000000 0.837461
0.705257 0.000000 0.840269
0.813993 0.000000 0.843351
0.188235 0.373205 0.825864
0.214298 0.368719 0.826078
0.286290 0.351659 0.826932
0.380346 0.317388 0.828458
0.483986 0.254734 0.830747
0.592523 0.109712 0.833829
0.704646 0.000000 0.837613
0.819516 0.000000 0.842008
0.235691 0.527947 0.816953
0.263645 0.527062 0.817105
0.342779 0.524590 0.817655
0.447944 0.522240 0.818692
0.524956 0.482734 0.821714
0.615747 0.419684 0.825803
0.718349 0.313725 0.830869
0.831296 0.000000 0.836790
0.184817 0.711086 0.794125
0.223880 0.707546 0.794949
0.325536 0.695460 0.797879
0.456825 0.677272 0.803128
0.585809 0.666133 0.807828
0.677668 0.646357 0.811307
0.761105 0.594385 0.816861
0.859373 0.509941 0.823819
0.000000 0.899138 0.752804
0.000000 0.895933 0.753780
0.177493 0.884154 0.757351
0.356237 0.861997 0.763973
0.524376 0.830442 0.774014
0.690089 0.799557 0.787930
0.808530 0.783322 0.798398
0.891752 0.746944 0.805112
0.000000 0.905791 0.436439
0.050996 0.905364 0.439643
0.175967 0.903777 0.451392
0.287755 0.900420 0.475074
0.416114 0.894072 0.516625
0.566217 0.883543 0.581048
0.735897 0.871427 0.670253
0.910552 0.889128 0.780972
