其他预设/【213】赛博朋克科幻预设52款/1.LUT预设（视频调色-PR-AE-PS-FCPX-达芬奇用）/赛博朋克科幻__-7 强度5.cube
# Created by Adobe Lightroom plugin Export LUT (1.17.0)
# www.johnrellis.com/lightroom/exportlut.htm
# Preset: 赛博朋克科幻[素锦印象]-7 强度5
# Color profile: /Library/Application Support/Adobe/Color/Profiles/Recommended/AdobeRGB1998.icc
LUT_3D_SIZE 5
DOMAIN_MIN 0.000000 0.000000 0.000000
DOMAIN_MAX 0.903226 0.903226 0.903226
0.075471 0.115023 0.098665
0.248447 0.146212 0.085817
0.697383 0.266361 0.000000
0.948058 0.337102 0.000000
1.000000 0.372229 0.000000
0.065705 0.142733 0.102083
0.207919 0.165927 0.099031
0.679652 0.274022 0.000000
0.944884 0.346075 0.000000
1.000000 0.378119 0.000000
0.000000 0.280430 0.135195
0.075593 0.308995 0.125063
0.624689 0.380560 0.135958
0.930785 0.380407 0.000000
1.000000 0.397986 0.000000
0.000000 0.517388 0.207248
0.000000 0.522179 0.134615
0.401251 0.632044 0.313725
0.911376 0.589441 0.337957
1.000000 0.509911 0.252964
0.000000 0.802457 0.283635
0.000000 0.809049 0.237888
0.299718 0.837369 0.328038
0.875731 0.893645 0.613916
1.000000 0.799680 0.615991
0.000000 0.173068 0.163027
0.191073 0.142153 0.134646
0.656184 0.266239 0.007782
0.938293 0.342290 0.000000
1.000000 0.376074 0.000000
0.000000 0.236759 0.188602
0.157351 0.192294 0.167788
0.634943 0.284001 0.111269
0.934630 0.353582 0.000000
1.000000 0.380835 0.000000
0.000000 0.338262 0.210178
0.036378 0.338628 0.184237
0.584192 0.398993 0.239170
0.918486 0.412909 0.166140
1.000000 0.413947 0.000000
0.000000 0.559167 0.280003
0.000000 0.565209 0.239353
0.426917 0.624872 0.370916
0.895811 0.621759 0.414923
1.000000 0.555230 0.347875
0.000000 0.819821 0.348425
0.000000 0.825772 0.311406
0.245609 0.837766 0.317723
0.852903 0.893156 0.633875
1.000000 0.816587 0.643824
0.000000 0.479896 0.465980
0.000000 0.430243 0.438483
0.546563 0.268620 0.292241
0.908049 0.445014 0.302770
1.000000 0.447303 0.204746
0.000000 0.550439 0.483833
0.000000 0.495064 0.458106
0.520623 0.326085 0.323400
0.899260 0.473579 0.340368
1.000000 0.462623 0.234195
0.000000 0.663508 0.520470
0.000000 0.632624 0.495735
0.436744 0.455329 0.404425
0.874388 0.550591 0.430640
1.000000 0.536034 0.351812
0.000000 0.750576 0.511864
0.000000 0.734066 0.484047
0.352331 0.652338 0.416999
0.846159 0.693263 0.557397
1.000000 0.678248 0.533257
0.000000 0.891936 0.532280
0.000000 0.882078 0.498787
0.000000 0.869139 0.392615
0.780362 0.883391 0.672694
1.000000 0.857084 0.707729
0.000000 0.754818 0.736416
0.000000 0.757046 0.728695
0.408637 0.538537 0.659785
0.830350 0.546441 0.533440
1.000000 0.729183 0.620478
0.000000 0.793881 0.737758
0.000000 0.785580 0.731899
0.477821 0.635859 0.675776
0.820798 0.573053 0.550164
1.000000 0.738125 0.629175
0.000000 0.869657 0.749599
0.000000 0.868284 0.743648
0.457557 0.786099 0.718868
0.790799 0.641596 0.594324
1.000000 0.759518 0.648829
0.000000 0.936065 0.743526
0.000000 0.930541 0.723934
0.235447 0.889036 0.718685
0.726070 0.726314 0.648676
1.000000 0.796475 0.682094
0.000000 1.000000 0.734798
0.000000 0.998077 0.719203
0.000000 0.984497 0.662806
0.656245 0.889097 0.650080
1.000000 0.903532 0.777920
0.000000 0.880552 0.875731
0.000000 0.896147 0.872679
0.543877 0.890654 0.865476
0.804898 0.744106 0.805539
0.992309 0.812070 0.750790
0.000000 0.895293 0.875761
0.000000 0.909545 0.872892
0.505699 0.901244 0.866117
0.805966 0.772030 0.814176
0.990814 0.819242 0.755825
0.000000 0.930785 0.877653
0.000000 0.938506 0.875792
0.000000 0.939727 0.869993
0.834501 0.863584 0.839719
0.986267 0.841154 0.771328
0.000000 0.996704 0.879301
0.000000 1.000000 0.877836
0.000000 1.000000 0.872404
0.803220 0.955688 0.865171
0.976837 0.877256 0.796902
0.000000 1.000000 0.882261
0.000000 1.000000 0.875975
0.000000 1.000000 0.850523
0.540215 1.000000 0.846769
0.940551 0.926848 0.829557
