其他预设/【213】赛博朋克科幻预设52款/1.LUT预设（视频调色-PR-AE-PS-FCPX-达芬奇用）/赛博朋克科幻__-9 强度3.cube
# Created by Adobe Lightroom plugin Export LUT (1.17.0)
# www.johnrellis.com/lightroom/exportlut.htm
# Preset: 赛博朋克科幻[素锦印象]-9 强度3
# Color profile: /Library/Application Support/Adobe/Color/Profiles/Recommended/AdobeRGB1998.icc
LUT_3D_SIZE 8
DOMAIN_MIN 0.000000 0.000000 0.000000
DOMAIN_MAX 0.903226 0.903226 0.903226
0.000000 0.000000 0.000000
0.116274 0.011841 0.006806
0.243015 0.046876 0.007568
0.403326 0.081117 0.000000
0.575402 0.118105 0.000000
0.717922 0.150240 0.000000
0.833188 0.173281 0.000000
0.928435 0.193576 0.000000
0.050446 0.094057 0.071107
0.124605 0.111971 0.014557
0.231235 0.112123 0.034028
0.395148 0.137331 0.000000
0.569970 0.166293 0.000000
0.714900 0.189151 0.000000
0.831418 0.205783 0.000000
0.927276 0.221286 0.000000
0.081941 0.185397 0.130800
0.116945 0.202335 0.130037
0.269749 0.240818 0.010925
0.424140 0.232792 0.000000
0.551415 0.260380 0.000000
0.704158 0.279545 0.000000
0.825071 0.288701 0.000000
0.923095 0.296818 0.071046
0.122286 0.303288 0.209934
0.150210 0.315862 0.211460
0.237461 0.350317 0.196048
0.458045 0.408026 0.000000
0.616205 0.366949 0.000000
0.721767 0.372259 0.000000
0.813474 0.387915 0.076783
0.915282 0.393378 0.142092
0.169680 0.437140 0.300359
0.193729 0.446571 0.302037
0.270726 0.478676 0.302892
0.388006 0.513603 0.272282
0.637537 0.568231 0.000000
0.758724 0.477241 0.000000
0.855070 0.464820 0.000000
0.915496 0.478401 0.133944
0.236057 0.571557 0.397528
0.257328 0.577905 0.399695
0.326299 0.598993 0.406592
0.424537 0.629450 0.406287
0.550347 0.665583 0.351843
0.772457 0.690578 0.114900
0.869993 0.569177 0.000000
0.952270 0.539574 0.000000
0.340856 0.695033 0.503471
0.358862 0.698421 0.506371
0.418097 0.709987 0.517449
0.508934 0.729305 0.539147
0.584588 0.750729 0.532372
0.694667 0.784054 0.457496
0.876310 0.787778 0.240757
0.956298 0.644923 0.000000
0.481300 0.800381 0.618799
0.495094 0.802060 0.622217
0.539391 0.808072 0.634028
0.606043 0.818936 0.654383
0.674037 0.834073 0.672938
0.724483 0.849088 0.660029
0.812650 0.875242 0.578149
0.954650 0.865537 0.371954
0.061219 0.061067 0.097566
0.119142 0.029358 0.099916
0.246830 0.074037 0.071839
0.400122 0.123140 0.000000
0.572564 0.156191 0.000000
0.716670 0.178164 0.000000
0.832914 0.191379 0.000000
0.928679 0.202335 0.000000
0.072572 0.104524 0.111116
0.115053 0.115053 0.115053
0.238346 0.125734 0.099184
0.395270 0.154940 0.051911
0.567864 0.189700 0.000000
0.713863 0.209323 0.000000
0.831266 0.219638 0.000000
0.927581 0.228275 0.000000
0.101625 0.184787 0.154116
0.137942 0.202121 0.164462
0.262730 0.239689 0.118105
0.411139 0.233768 0.082826
0.553094 0.267277 0.042145
0.703975 0.288609 0.000000
0.825193 0.295903 0.000000
0.923522 0.300664 0.075166
0.141146 0.302922 0.229313
0.169162 0.315587 0.234562
0.246281 0.352331 0.229221
0.452216 0.405859 0.111635
0.612634 0.367132 0.000000
0.718624 0.374762 0.000000
0.813931 0.391058 0.080690
0.915831 0.395148 0.143679
0.186984 0.436683 0.316564
0.208927 0.445747 0.318975
0.280919 0.476875 0.323522
0.392096 0.514000 0.299992
0.633570 0.567132 0.118196
0.756619 0.478584 0.000000
0.852598 0.465675 0.000000
0.916197 0.478920 0.134920
0.249180 0.570489 0.409979
0.269169 0.576715 0.412390
0.334874 0.597528 0.420233
0.432258 0.628809 0.424842
0.550317 0.663600 0.379553
0.769741 0.690425 0.181399
0.868650 0.571557 0.000000
0.952087 0.539605 0.000000
0.348791 0.693843 0.512139
0.366278 0.697230 0.515099
0.423713 0.708736 0.526055
0.512383 0.728054 0.547356
0.589136 0.750149 0.544945
0.694789 0.782956 0.479103
0.874174 0.788296 0.281865
0.955291 0.647852 0.000000
0.483833 0.799466 0.623590
0.497292 0.801175 0.626856
0.541070 0.807248 0.638422
0.607080 0.818173 0.658289
0.676936 0.833616 0.678920
0.726558 0.848844 0.666987
0.812589 0.874784 0.591699
0.952789 0.866239 0.399695
0.103273 0.101656 0.201724
0.133547 0.096834 0.198093
0.248142 0.055085 0.204898
0.428168 0.000000 0.158938
0.586481 0.134768 0.127565
0.720668 0.196994 0.067079
0.834531 0.218173 0.000000
0.930816 0.212467 0.000000
0.131624 0.155123 0.217533
0.153597 0.152743 0.215000
0.246433 0.125032 0.212558
0.420905 0.130037 0.177646
0.582055 0.180514 0.149050
0.718471 0.223178 0.092897
0.832975 0.241672 0.000000
0.929747 0.236393 0.000000
0.145052 0.224125 0.239475
0.174289 0.228275 0.239780
0.239139 0.239139 0.239139
0.399084 0.254276 0.226658
0.567895 0.276951 0.200748
0.710445 0.297520 0.155154
0.827451 0.308690 0.000000
0.925872 0.305211 0.081544
0.166567 0.305180 0.275120
0.194095 0.311864 0.279728
0.268101 0.347478 0.299443
0.432593 0.400519 0.249088
0.592096 0.377386 0.224521
0.697780 0.396948 0.235843
0.817258 0.401648 0.180453
0.918486 0.396979 0.147219
0.210910 0.428504 0.351263
0.234775 0.438270 0.357641
0.305791 0.469551 0.374517
0.404639 0.513390 0.374121
0.618799 0.563470 0.269627
0.747372 0.489235 0.214908
0.840513 0.482399 0.189425
0.916442 0.484321 0.175479
0.272465 0.564172 0.441169
0.294347 0.570764 0.445808
0.358465 0.591791 0.458778
0.452064 0.624567 0.474189
0.551568 0.655879 0.456794
0.759396 0.690242 0.316564
0.862547 0.583948 0.227970
0.949218 0.547173 0.000000
0.367163 0.689143 0.537133
0.384588 0.692592 0.540612
0.438819 0.704128 0.551812
0.521599 0.723598 0.571893
0.602350 0.747860 0.581689
0.695003 0.778866 0.540917
0.866392 0.790127 0.390448
0.950622 0.660883 0.250919
0.490486 0.796231 0.638880
0.502037 0.798001 0.641321
0.544488 0.804227 0.652003
0.608820 0.815427 0.670497
0.682979 0.831693 0.695155
0.732692 0.847990 0.688502
0.812009 0.873136 0.632197
0.946502 0.868650 0.479744
0.165103 0.161501 0.345464
0.190799 0.159335 0.341039
0.257176 0.142702 0.323308
0.407416 0.040070 0.333745
0.597925 0.000000 0.296605
0.736019 0.150332 0.248295
0.842771 0.211917 0.202914
0.936248 0.205295 0.000000
0.193576 0.214481 0.360357
0.211673 0.209323 0.355230
0.266178 0.187198 0.336187
0.406561 0.127474 0.338781
0.596948 0.111818 0.301976
0.732753 0.200565 0.263096
0.840879 0.242130 0.218418
0.935393 0.227420 0.000000
0.236423 0.307347 0.390051
0.260990 0.312169 0.390143
0.297581 0.296666 0.373816
0.402380 0.251560 0.357153
0.590051 0.272404 0.328099
0.721401 0.311681 0.309880
0.834226 0.324529 0.265843
0.931762 0.297642 0.121279
0.238590 0.381628 0.408850
0.260929 0.383734 0.408026
0.321996 0.389044 0.403967
0.391608 0.391608 0.391608
0.559808 0.412451 0.387976
0.702510 0.428656 0.374121
0.821683 0.430640 0.337865
0.923095 0.403693 0.240391
0.246250 0.452277 0.425757
0.269139 0.456031 0.428077
0.334112 0.466987 0.433997
0.425147 0.502770 0.454780
0.588983 0.556390 0.417395
0.722652 0.523644 0.403906
0.811185 0.536767 0.414893
0.907256 0.527733 0.371740
0.304753 0.557549 0.486366
0.323003 0.559564 0.487953
0.381720 0.579492 0.503014
0.468940 0.612696 0.525902
0.564477 0.650935 0.535912
0.739773 0.689235 0.459052
0.847715 0.615137 0.412329
0.930663 0.592035 0.363134
0.391150 0.679988 0.572320
0.406744 0.683497 0.575586
0.456245 0.695216 0.586481
0.530266 0.715053 0.604303
0.618067 0.742763 0.627802
0.694118 0.770901 0.614405
0.853056 0.792935 0.515587
0.940002 0.689418 0.423316
0.507286 0.790249 0.665827
0.517449 0.792081 0.667781
0.549889 0.798489 0.674220
0.606073 0.810147 0.687556
0.680232 0.827115 0.710506
0.740536 0.846281 0.718990
0.810086 0.870237 0.685389
0.937194 0.872251 0.574853
0.248447 0.243656 0.507774
0.267704 0.240879 0.503441
0.322484 0.226047 0.486763
0.403326 0.185519 0.461097
0.567529 0.063416 0.464851
0.725917 0.112367 0.425116
0.847868 0.266484 0.396857
0.937713 0.282322 0.344182
0.274022 0.289403 0.518090
0.288396 0.284733 0.513512
0.333501 0.265446 0.496437
0.406195 0.222721 0.467384
0.566461 0.141756 0.468605
0.724758 0.178286 0.431067
0.845548 0.296422 0.406714
0.936400 0.303593 0.352453
0.334051 0.391852 0.545678
0.346990 0.390723 0.542168
0.372625 0.370459 0.525505
0.419715 0.324743 0.490669
0.562310 0.271244 0.482490
0.720363 0.310094 0.453803
0.837644 0.377905 0.438087
0.932067 0.364599 0.377630
0.365820 0.476081 0.566430
0.384161 0.479683 0.566186
0.437049 0.490211 0.564294
0.465766 0.464912 0.537041
0.553521 0.409979 0.507713
0.712398 0.453620 0.496651
0.825040 0.475593 0.482094
0.925689 0.440345 0.407202
0.367468 0.541405 0.575921
0.383581 0.542962 0.575219
0.431312 0.546960 0.571862
0.491035 0.549157 0.562768
0.541039 0.541039 0.541039
0.686427 0.564813 0.546349
0.807065 0.576257 0.536797
0.909850 0.557733 0.487953
0.368536 0.602564 0.584894
0.382757 0.603113 0.584344
0.428870 0.605615 0.583246
0.496223 0.611444 0.583734
0.573327 0.637140 0.597101
0.711635 0.684504 0.577142
0.824277 0.658137 0.567315
0.898955 0.661616 0.565972
0.434394 0.689540 0.631159
0.447028 0.690150 0.631647
0.485542 0.691768 0.632837
0.541680 0.701625 0.639704
0.614923 0.730129 0.658961
0.696773 0.763882 0.672602
0.836942 0.794919 0.619959
0.924804 0.727810 0.572961
0.529656 0.781186 0.697871
0.538354 0.783108 0.699611
0.566552 0.789731 0.705226
0.609613 0.801602 0.713771
0.669001 0.819242 0.727108
0.747433 0.842741 0.752071
0.806394 0.865110 0.739559
0.926879 0.876310 0.661921
0.354559 0.349554 0.651057
0.366461 0.346899 0.648402
0.403998 0.333989 0.637995
0.461830 0.300969 0.615778
0.556542 0.241978 0.597345
0.700893 0.164553 0.578851
0.829068 0.242802 0.541436
0.927855 0.402258 0.542351
0.378485 0.387152 0.656306
0.387457 0.383337 0.653590
0.417884 0.367803 0.643244
0.468757 0.332799 0.621241
0.557275 0.274907 0.600702
0.699702 0.209110 0.582025
0.827909 0.278111 0.546990
0.926482 0.424323 0.550652
0.444526 0.482307 0.672084
0.448585 0.477974 0.669520
0.463874 0.461189 0.659663
0.494881 0.425330 0.638758
0.559869 0.367376 0.611566
0.695399 0.316625 0.593317
0.823758 0.374395 0.566766
0.922271 0.489387 0.576959
0.512322 0.577356 0.694575
0.519310 0.577569 0.692866
0.538109 0.574395 0.685359
0.549187 0.547723 0.666529
0.570703 0.486641 0.630213
0.687495 0.441444 0.613001
0.817288 0.492775 0.600244
0.916411 0.552697 0.601343
0.518822 0.625544 0.699886
0.529870 0.628229 0.699947
0.563592 0.636347 0.699733
0.608484 0.646235 0.698085
0.617456 0.616876 0.671534
0.677546 0.559258 0.638209
0.812161 0.605463 0.639979
0.908873 0.613336 0.621912
0.518547 0.671321 0.703883
0.528191 0.672633 0.703700
0.557824 0.676448 0.702754
0.597864 0.680659 0.699825
0.637232 0.681086 0.691676
0.666438 0.666407 0.666438
0.793057 0.691493 0.676783
0.894285 0.694514 0.662715
0.524804 0.725948 0.718410
0.532830 0.726467 0.718196
0.557488 0.727901 0.717037
0.590448 0.728328 0.712581
0.635584 0.729976 0.707790
0.695857 0.749783 0.715724
0.815427 0.792966 0.707362
0.907347 0.766415 0.692683
0.573144 0.799161 0.756954
0.580011 0.799496 0.757015
0.601831 0.800565 0.756924
0.633051 0.801999 0.755612
0.672297 0.807431 0.755581
0.734432 0.831937 0.771084
0.806516 0.860075 0.786038
0.915282 0.880522 0.743038
0.487098 0.482856 0.763577
0.493019 0.480690 0.762203
0.513024 0.470985 0.756924
0.547021 0.446906 0.745724
0.596857 0.397559 0.724636
0.697871 0.333715 0.717220
0.811551 0.287022 0.680232
0.915496 0.368292 0.648859
0.506462 0.510216 0.765957
0.511131 0.507408 0.764584
0.527214 0.496376 0.759365
0.556298 0.471412 0.748318
0.601251 0.422095 0.727504
0.697200 0.359442 0.718746
0.810361 0.313909 0.682918
0.914397 0.390143 0.653346
0.558862 0.581445 0.774105
0.561242 0.578485 0.772763
0.570092 0.567407 0.767697
0.587427 0.543328 0.757107
0.617639 0.496254 0.737118
0.695186 0.435309 0.723751
0.806332 0.391424 0.692226
0.910857 0.455543 0.668421
0.616419 0.658045 0.787594
0.620569 0.658137 0.786740
0.629572 0.653712 0.782742
0.634974 0.633295 0.772763
0.647730 0.593927 0.753902
0.693843 0.533837 0.732082
0.799741 0.490700 0.707729
0.906157 0.540673 0.691249
0.649744 0.712184 0.798978
0.656580 0.714717 0.799435
0.678523 0.722835 0.800931
0.690822 0.717891 0.795254
0.691463 0.690425 0.778775
0.697902 0.628962 0.744991
0.792142 0.587793 0.726894
0.901305 0.632624 0.720302
0.646998 0.741726 0.800381
0.653101 0.743404 0.800687
0.672938 0.748898 0.801755
0.702358 0.757046 0.803372
0.737331 0.766201 0.805051
0.740475 0.739986 0.783505
0.783536 0.682643 0.749294
0.897551 0.727016 0.755917
0.643946 0.773617 0.802579
0.649287 0.774624 0.802762
0.666529 0.777951 0.803311
0.692592 0.782956 0.803983
0.724178 0.788479 0.803799
0.756069 0.790890 0.799435
0.773678 0.773648 0.773648
0.884276 0.796750 0.784329
0.652735 0.821347 0.820462
0.657008 0.821988 0.820615
0.670832 0.824125 0.820920
0.692103 0.827329 0.820798
0.717617 0.830167 0.818448
0.751553 0.832151 0.813596
0.801572 0.848905 0.818875
0.901610 0.883360 0.815427
0.623224 0.620142 0.850523
0.626154 0.618708 0.850004
0.636469 0.612940 0.847990
0.654719 0.599420 0.843717
0.682490 0.571984 0.835721
0.727199 0.520775 0.823331
0.823087 0.458259 0.822660
0.905913 0.424842 0.775082
0.633997 0.635187 0.851560
0.636500 0.633631 0.851041
0.645411 0.627466 0.849058
0.661799 0.613703 0.844816
0.687190 0.586450 0.836912
0.728420 0.535332 0.823880
0.821775 0.475135 0.823209
0.904967 0.440711 0.777188
0.664607 0.677760 0.855375
0.666224 0.676173 0.854856
0.672206 0.669886 0.852934
0.683619 0.656489 0.848875
0.702388 0.630701 0.841215
0.733669 0.580987 0.826932
0.817624 0.526299 0.825223
0.901946 0.489113 0.784146
0.706416 0.733242 0.862577
0.707240 0.731807 0.862119
0.710140 0.726162 0.860319
0.715999 0.714260 0.856504
0.726528 0.691768 0.849271
0.746578 0.648707 0.835691
0.811643 0.595361 0.829129
0.897459 0.555261 0.795254
0.737179 0.777951 0.870054
0.739528 0.778286 0.870024
0.746700 0.778531 0.869718
0.755337 0.774929 0.868162
0.758328 0.757076 0.861692
0.766567 0.722774 0.849149
0.805936 0.669490 0.835264
0.891936 0.630182 0.809873
0.745327 0.805081 0.873289
0.749203 0.806485 0.873655
0.762112 0.811215 0.874998
0.783078 0.819028 0.877531
0.798672 0.819852 0.877562
0.800381 0.799588 0.868528
0.805417 0.746090 0.844694
0.885618 0.708980 0.827543
0.741878 0.827085 0.874968
0.745296 0.828092 0.875273
0.756802 0.831418 0.876280
0.776028 0.837186 0.878233
0.802243 0.845487 0.881315
0.834379 0.856596 0.885954
0.841917 0.841489 0.876097
0.878630 0.788846 0.847776
0.739132 0.852171 0.878111
0.742092 0.852873 0.878294
0.752163 0.855222 0.879057
0.769497 0.859373 0.880430
0.793118 0.865293 0.882475
0.821683 0.872740 0.885100
0.852811 0.880247 0.887022
0.870054 0.870024 0.870054
