其他预设/【213】赛博朋克科幻预设52款/1.LUT预设（视频调色-PR-AE-PS-FCPX-达芬奇用）/赛博朋克科幻__-10 强度3.cube
# Created by Adobe Lightroom plugin Export LUT (1.17.0)
# www.johnrellis.com/lightroom/exportlut.htm
# Preset: 赛博朋克科幻[素锦印象]-10 强度3
# Color profile: /Library/Application Support/Adobe/Color/Profiles/Recommended/AdobeRGB1998.icc
LUT_3D_SIZE 5
DOMAIN_MIN 0.000000 0.000000 0.000000
DOMAIN_MAX 0.903226 0.903226 0.903226
0.061646 0.060975 0.056489
0.236637 0.083589 0.108156
0.486213 0.192813 0.227146
0.709071 0.328069 0.355383
0.891905 0.527733 0.518181
0.000000 0.334997 0.113619
0.253269 0.263828 0.098817
0.480537 0.272648 0.236027
0.706966 0.351385 0.355596
0.892363 0.528313 0.518639
0.000000 0.632990 0.200626
0.000000 0.622705 0.127962
0.509606 0.526909 0.238254
0.698390 0.514549 0.387243
0.888731 0.609033 0.528008
0.000000 0.851835 0.266636
0.000000 0.848264 0.243381
0.418830 0.830716 0.248447
0.731044 0.751339 0.385138
0.883024 0.745846 0.568444
0.000000 1.000000 0.305364
0.000000 1.000000 0.296727
0.368536 1.000000 0.385016
0.680537 0.986236 0.429206
0.917479 0.931060 0.583276
0.066773 0.032807 0.207340
0.244541 0.000000 0.190860
0.467079 0.184329 0.269566
0.697719 0.321386 0.378393
0.892363 0.528832 0.522301
0.000000 0.293614 0.237797
0.264500 0.259525 0.231907
0.488838 0.312139 0.307988
0.705653 0.381323 0.399176
0.891905 0.528618 0.525231
0.000000 0.616968 0.287999
0.000000 0.602319 0.265904
0.512444 0.522179 0.314672
0.704799 0.532952 0.431708
0.891081 0.628687 0.557336
0.000000 0.845426 0.325933
0.000000 0.840696 0.315526
0.431189 0.822477 0.326543
0.734218 0.749660 0.432410
0.886259 0.753994 0.591028
0.000000 1.000000 0.343938
0.000000 1.000000 0.336339
0.357427 1.000000 0.408820
0.692836 0.983734 0.473304
0.919921 0.931060 0.603754
0.120119 0.000000 0.379461
0.283879 0.000000 0.393896
0.481544 0.000000 0.370825
0.676295 0.310674 0.435615
0.887480 0.527337 0.557885
0.000000 0.188540 0.382971
0.235599 0.157961 0.400610
0.488869 0.212345 0.387823
0.681270 0.361028 0.450568
0.888029 0.528405 0.559716
0.000000 0.552789 0.442054
0.000000 0.544457 0.441474
0.514549 0.504021 0.445167
0.719448 0.569787 0.524163
0.897978 0.652033 0.612421
0.000000 0.828153 0.464790
0.000000 0.822629 0.460456
0.418189 0.802335 0.462715
0.740871 0.743038 0.535851
0.898344 0.773831 0.646937
0.000000 1.000000 0.456733
0.000000 1.000000 0.449805
0.225956 1.000000 0.464790
0.713588 0.978149 0.569268
0.927001 0.931334 0.656397
0.162661 0.000000 0.531273
0.283543 0.000000 0.543389
0.523644 0.000000 0.573999
0.702266 0.101167 0.538933
0.879210 0.525658 0.616175
0.063325 0.027070 0.535119
0.248844 0.000000 0.546868
0.518730 0.000000 0.582940
0.703456 0.094636 0.545220
0.879850 0.526787 0.618097
0.000000 0.420752 0.539269
0.000000 0.395666 0.536980
0.434668 0.370428 0.575219
0.712459 0.450599 0.576165
0.886992 0.581994 0.635035
0.000000 0.777340 0.618891
0.000000 0.772885 0.618738
0.312474 0.755947 0.619959
0.734585 0.719142 0.632593
0.918151 0.789334 0.710658
0.000000 1.000000 0.609949
0.000000 1.000000 0.607019
0.000000 1.000000 0.604303
0.656092 0.979156 0.641810
0.937530 0.931975 0.726406
0.157046 0.000000 0.734279
0.279881 0.000000 0.739254
0.511467 0.000000 0.755795
0.769162 0.000000 0.762112
0.923857 0.396033 0.714137
0.149569 0.000000 0.738216
0.273350 0.000000 0.742855
0.504906 0.000000 0.758602
0.764950 0.000000 0.766140
0.925292 0.390723 0.717159
0.000000 0.309514 0.725216
0.000000 0.255619 0.733211
0.383764 0.146487 0.755001
0.735317 0.000000 0.779629
0.930297 0.373175 0.727687
0.000000 0.687800 0.761715
0.000000 0.671199 0.759640
0.000000 0.596094 0.749111
0.592096 0.509819 0.765255
0.926848 0.649775 0.755550
0.000000 1.000000 0.794858
0.000000 1.000000 0.794827
0.000000 0.994995 0.795071
0.494667 0.965759 0.796017
0.937499 0.917510 0.805417
