其他预设/【213】赛博朋克科幻预设52款/1.LUT预设（视频调色-PR-AE-PS-FCPX-达芬奇用）/赛博朋克科幻__-11 强度1.cube
# Created by Adobe Lightroom plugin Export LUT (1.17.0)
# www.johnrellis.com/lightroom/exportlut.htm
# Preset: 赛博朋克科幻[素锦印象]-11 强度1
# Color profile: /Library/Application Support/Adobe/Color/Profiles/Recommended/AdobeRGB1998.icc
LUT_3D_SIZE 8
DOMAIN_MIN 0.000000 0.000000 0.000000
DOMAIN_MAX 0.903226 0.903226 0.903226
0.000000 0.000000 0.000000
0.130556 0.000000 0.028565
0.261967 0.000000 0.078950
0.393011 0.000000 0.112764
0.523857 0.000000 0.150057
0.653803 0.000000 0.188815
0.782773 0.000000 0.229709
0.910948 0.000000 0.274601
0.000000 0.128054 0.056672
0.123293 0.119905 0.019989
0.262486 0.025208 0.051728
0.395026 0.000000 0.072267
0.526085 0.000000 0.111604
0.655604 0.000000 0.161715
0.784268 0.000000 0.209171
0.912261 0.000000 0.258457
0.000000 0.256168 0.112062
0.000000 0.254490 0.037171
0.247044 0.236179 0.053223
0.392187 0.177920 0.082948
0.524926 0.060792 0.104128
0.656733 0.000000 0.127565
0.787259 0.000000 0.155367
0.916777 0.000000 0.189792
0.000000 0.387610 0.166842
0.000000 0.385443 0.142824
0.184024 0.376165 0.071229
0.370184 0.356695 0.083131
0.521965 0.313390 0.110201
0.654200 0.237339 0.140108
0.785611 0.117922 0.166812
0.915709 0.000000 0.200809
0.000000 0.527886 0.222995
0.000000 0.525231 0.212894
0.000000 0.521477 0.089845
0.308110 0.502647 0.097139
0.492561 0.484047 0.110506
0.650843 0.451667 0.135256
0.782773 0.373907 0.180819
0.913695 0.311955 0.215549
0.000000 0.665064 0.277409
0.000000 0.663172 0.271061
0.000000 0.659998 0.208011
0.229282 0.650996 0.118624
0.432685 0.634058 0.125277
0.612909 0.618463 0.138582
0.778195 0.597436 0.162905
0.910246 0.529808 0.223972
0.000000 0.801114 0.331731
0.000000 0.799832 0.328344
0.000000 0.797269 0.294743
0.000000 0.796109 0.153445
0.362860 0.783658 0.155489
0.554559 0.770932 0.163394
0.732418 0.758419 0.178561
0.903868 0.749386 0.205997
0.000000 0.932158 0.385473
0.000000 0.931273 0.385657
0.000000 0.928740 0.378851
0.000000 0.929992 0.292821
0.286778 0.927306 0.212558
0.489174 0.918639 0.214237
0.677485 0.910521 0.228031
0.851682 0.901457 0.248386
0.009491 0.000000 0.117403
0.131930 0.000000 0.119478
0.259617 0.000000 0.145480
0.390295 0.000000 0.174563
0.521538 0.000000 0.204349
0.651728 0.000000 0.237980
0.781064 0.000000 0.271763
0.909483 0.000000 0.310124
0.004211 0.121981 0.121370
0.132052 0.116884 0.121218
0.262028 0.079072 0.136263
0.392676 0.000000 0.158999
0.523461 0.000000 0.187076
0.653529 0.000000 0.219181
0.782589 0.000000 0.255131
0.910796 0.000000 0.296117
0.000000 0.254887 0.159152
0.115053 0.248661 0.151186
0.250919 0.234623 0.129549
0.392676 0.182620 0.143008
0.525200 0.079500 0.155581
0.656794 0.000000 0.171542
0.787259 0.000000 0.192416
0.915557 0.000000 0.237919
0.000000 0.386725 0.202213
0.067750 0.382818 0.194034
0.194827 0.374945 0.136599
0.372747 0.355718 0.142702
0.522271 0.311772 0.160250
0.654383 0.241276 0.180209
0.785733 0.127565 0.200870
0.915740 0.000000 0.229618
0.000000 0.527306 0.251743
0.000000 0.524651 0.243900
0.113771 0.519219 0.172793
0.312840 0.501946 0.149691
0.494453 0.483528 0.158480
0.651087 0.450202 0.176974
0.782956 0.376043 0.212131
0.913756 0.315221 0.242283
0.000000 0.664912 0.300237
0.000000 0.663050 0.294804
0.049409 0.658534 0.251896
0.237888 0.650752 0.164736
0.434974 0.633600 0.168246
0.614405 0.618067 0.178439
0.778408 0.596216 0.198886
0.910307 0.529229 0.250889
0.000000 0.801266 0.349584
0.000000 0.799985 0.346624
0.000000 0.796292 0.326421
0.112093 0.795193 0.210758
0.368170 0.783566 0.192477
0.556420 0.770626 0.197910
0.733577 0.758175 0.210880
0.904021 0.748379 0.235477
0.000000 0.932464 0.398383
0.000000 0.931579 0.398535
0.000000 0.928161 0.401831
0.124788 0.929168 0.324895
0.295567 0.927153 0.241520
0.493202 0.918517 0.242130
0.679072 0.910338 0.253880
0.852659 0.901274 0.272648
0.053407 0.000000 0.235233
0.145418 0.000000 0.235050
0.265934 0.000000 0.238743
0.389532 0.000000 0.262150
0.519646 0.000000 0.288945
0.649226 0.000000 0.319768
0.778927 0.000000 0.348547
0.907805 0.000000 0.380652
0.060578 0.128542 0.237339
0.140597 0.115969 0.237308
0.266056 0.091646 0.239445
0.390539 0.000000 0.261295
0.520348 0.000000 0.287572
0.650019 0.000000 0.316777
0.779507 0.000000 0.345953
0.908049 0.000000 0.379858
0.023133 0.243748 0.244541
0.135409 0.240757 0.243717
0.265110 0.230228 0.240818
0.394049 0.204288 0.254520
0.524041 0.154360 0.272984
0.653803 0.000000 0.295933
0.782742 0.000000 0.323857
0.910887 0.000000 0.357824
0.000000 0.389105 0.286381
0.094301 0.384619 0.282170
0.251987 0.369879 0.268467
0.381567 0.352941 0.248692
0.523705 0.306035 0.260685
0.655604 0.250523 0.270817
0.786435 0.149630 0.285344
0.916045 0.000000 0.306737
0.000000 0.530175 0.323613
0.000000 0.526635 0.320043
0.228794 0.514580 0.306493
0.330999 0.501213 0.253880
0.500572 0.481483 0.258762
0.652155 0.444556 0.272526
0.783658 0.382452 0.293828
0.914061 0.325261 0.316747
0.000000 0.666896 0.362646
0.000000 0.664454 0.359991
0.192813 0.656550 0.349218
0.264652 0.650446 0.265934
0.442420 0.632074 0.264683
0.619196 0.616724 0.272313
0.779232 0.591791 0.288548
0.910613 0.527031 0.327031
0.000000 0.802701 0.403174
0.000000 0.801297 0.401495
0.132418 0.796353 0.395026
0.251957 0.792111 0.338994
0.386114 0.783536 0.284184
0.562615 0.769589 0.285557
0.737545 0.757290 0.295598
0.904540 0.744930 0.316747
0.000000 0.933867 0.440192
0.000000 0.933165 0.439277
0.000000 0.929717 0.442145
0.261234 0.926482 0.417975
0.324254 0.926879 0.322393
0.507042 0.918181 0.320439
0.684565 0.909697 0.327916
0.856107 0.900664 0.343694
0.082582 0.000000 0.361700
0.158358 0.000000 0.361639
0.285039 0.000000 0.361273
0.401404 0.000000 0.364324
0.520745 0.000000 0.385290
0.648768 0.000000 0.410590
0.778195 0.000000 0.436835
0.907988 0.000000 0.459815
0.069795 0.119753 0.362768
0.153231 0.113436 0.362676
0.282963 0.086061 0.362280
0.401251 0.000000 0.364630
0.520256 0.000000 0.385138
0.649195 0.000000 0.410101
0.778561 0.000000 0.435920
0.908415 0.000000 0.458412
0.080812 0.253452 0.366918
0.152834 0.250919 0.366064
0.274571 0.232547 0.364355
0.400122 0.211368 0.365301
0.521569 0.183047 0.384894
0.650721 0.124575 0.408301
0.779934 0.000000 0.432715
0.909148 0.000000 0.456916
0.021637 0.373114 0.376654
0.136934 0.370916 0.375677
0.267857 0.363134 0.372198
0.396612 0.348150 0.365362
0.525383 0.325689 0.378790
0.654505 0.292424 0.396063
0.783291 0.245029 0.418128
0.911131 0.176608 0.446265
0.000000 0.535729 0.427588
0.000000 0.532250 0.424414
0.241886 0.520043 0.413611
0.385077 0.497810 0.394537
0.511284 0.478126 0.373114
0.654017 0.434791 0.385199
0.785061 0.392645 0.397253
0.914855 0.340368 0.415229
0.000000 0.671595 0.453834
0.000000 0.669215 0.451728
0.212100 0.660945 0.444282
0.368627 0.645777 0.430243
0.462440 0.631495 0.379400
0.627649 0.614466 0.383948
0.780575 0.583948 0.398871
0.911254 0.529778 0.426398
0.000000 0.806210 0.483803
0.000000 0.804807 0.482460
0.156191 0.799893 0.477760
0.347082 0.790341 0.470283
0.417212 0.784115 0.398169
0.572992 0.768154 0.393500
0.744594 0.755764 0.402411
0.905425 0.738766 0.422431
0.000000 0.935790 0.512047
0.000000 0.935119 0.511254
0.000000 0.932708 0.508171
0.320623 0.926635 0.511986
0.413001 0.923857 0.462257
0.531487 0.917906 0.425269
0.693904 0.908659 0.427192
0.862089 0.899657 0.440253
0.104158 0.000000 0.495399
0.170687 0.000000 0.495338
0.295537 0.000000 0.495064
0.422827 0.000000 0.493538
0.537316 0.000000 0.495979
0.654444 0.000000 0.513939
0.777737 0.000000 0.536950
0.907744 0.000000 0.558038
0.094270 0.115267 0.496101
0.165682 0.108522 0.495979
0.292882 0.078187 0.495705
0.423102 0.000000 0.494606
0.536950 0.000000 0.496071
0.654078 0.000000 0.513848
0.778103 0.000000 0.536645
0.908110 0.000000 0.557183
0.116823 0.260716 0.497627
0.175326 0.255711 0.496925
0.284306 0.234134 0.496895
0.419898 0.213535 0.496376
0.535821 0.178988 0.496437
0.652613 0.130953 0.513756
0.779294 0.000000 0.535515
0.909392 0.000000 0.554253
0.091066 0.383246 0.505333
0.159060 0.381506 0.504417
0.281590 0.374914 0.501030
0.408057 0.354620 0.497017
0.532769 0.334234 0.496315
0.651942 0.310094 0.513329
0.781308 0.266819 0.532738
0.911620 0.166903 0.547936
0.000000 0.511925 0.516533
0.132143 0.510338 0.515648
0.268803 0.504204 0.512352
0.400977 0.492500 0.505791
0.526299 0.473335 0.494362
0.655085 0.453986 0.508141
0.783658 0.429450 0.525994
0.911376 0.401770 0.549248
0.000000 0.678614 0.566644
0.000000 0.676417 0.564752
0.229252 0.668391 0.558099
0.382910 0.653864 0.545922
0.517296 0.630823 0.525902
0.639521 0.611292 0.502892
0.782467 0.572808 0.516533
0.912779 0.539513 0.532128
0.000000 0.811368 0.585443
0.000000 0.810086 0.584375
0.183078 0.805447 0.580560
0.358618 0.796811 0.573266
0.505150 0.782345 0.561883
0.592981 0.768215 0.511772
0.754238 0.753719 0.516411
0.907225 0.729061 0.534142
0.000000 0.938567 0.604150
0.000000 0.937926 0.603601
0.000000 0.935607 0.601495
0.312474 0.931365 0.597223
0.489265 0.922759 0.598657
0.561578 0.918944 0.538201
0.703975 0.907927 0.532158
0.869932 0.898405 0.542443
0.118929 0.000000 0.632380
0.180301 0.000000 0.632349
0.302495 0.000000 0.632166
0.434577 0.000000 0.631922
0.556481 0.000000 0.628290
0.671931 0.000000 0.630793
0.786954 0.000000 0.645319
0.907286 0.000000 0.665766
0.112551 0.108156 0.632837
0.176120 0.100679 0.632746
0.300237 0.064851 0.632593
0.433265 0.000000 0.632349
0.556725 0.000000 0.628962
0.671748 0.000000 0.630945
0.786740 0.000000 0.645380
0.907591 0.000000 0.665461
0.088319 0.248203 0.633753
0.162722 0.245335 0.633753
0.293095 0.234562 0.633539
0.428565 0.213748 0.633234
0.557458 0.179568 0.631250
0.670893 0.112398 0.631342
0.785946 0.000000 0.645441
0.908659 0.000000 0.664240
0.127749 0.396551 0.636988
0.181857 0.395239 0.636347
0.298894 0.384527 0.634607
0.418952 0.360815 0.633967
0.555322 0.342809 0.633539
0.668513 0.311223 0.631464
0.783993 0.271366 0.645258
0.910430 0.176516 0.661585
0.098268 0.519646 0.645350
0.163912 0.518517 0.644739
0.286687 0.514366 0.642481
0.415961 0.506615 0.637812
0.541527 0.486152 0.632715
0.663722 0.463691 0.630549
0.781674 0.436927 0.644587
0.911894 0.392035 0.659144
0.000000 0.654017 0.655451
0.125582 0.652949 0.654963
0.268864 0.649104 0.652979
0.405219 0.641627 0.649042
0.534264 0.629267 0.641871
0.654231 0.606897 0.626673
0.783322 0.589776 0.640711
0.911406 0.571069 0.659174
0.000000 0.818448 0.702174
0.000000 0.817227 0.701259
0.217624 0.812924 0.698085
0.380987 0.804959 0.692164
0.520592 0.792538 0.681575
0.647761 0.770443 0.661097
0.766323 0.750881 0.635645
0.909606 0.716213 0.650965
0.000000 0.942290 0.710536
0.000000 0.941650 0.710170
0.125216 0.939422 0.708766
0.338811 0.935302 0.706142
0.493660 0.928832 0.701350
0.637507 0.917723 0.695247
0.721859 0.908049 0.647974
0.879973 0.896788 0.653132
0.127840 0.000000 0.768704
0.185428 0.000000 0.768704
0.305455 0.000000 0.768612
0.437568 0.000000 0.768521
0.571618 0.000000 0.768368
0.687404 0.000000 0.763424
0.804593 0.000000 0.766720
0.917388 0.000000 0.776547
0.123629 0.097200 0.769039
0.182834 0.088258 0.769039
0.303746 0.021942 0.768978
0.436500 0.000000 0.768826
0.570733 0.000000 0.768673
0.687495 0.000000 0.763943
0.804410 0.000000 0.766873
0.917357 0.000000 0.776608
0.113344 0.247623 0.769986
0.176181 0.244541 0.769986
0.299596 0.233707 0.769924
0.433082 0.212131 0.769772
0.567895 0.173709 0.769589
0.687984 0.099458 0.765652
0.803830 0.000000 0.767391
0.917144 0.000000 0.776913
0.174533 0.403021 0.770962
0.218082 0.400793 0.770718
0.298650 0.380591 0.770809
0.428138 0.366064 0.770809
0.562982 0.347173 0.770657
0.688930 0.318608 0.768338
0.802243 0.266453 0.767971
0.916503 0.171237 0.777188
0.145907 0.531518 0.775753
0.195224 0.530999 0.775418
0.306859 0.529259 0.774105
0.435523 0.522179 0.771817
0.554986 0.497993 0.771176
0.688045 0.480354 0.771054
0.798825 0.443977 0.768063
0.913939 0.397742 0.778042
0.104768 0.659785 0.782803
0.169131 0.659205 0.782528
0.292363 0.657252 0.781491
0.423774 0.653498 0.779294
0.550469 0.646326 0.775143
0.672999 0.625971 0.770169
0.792630 0.601709 0.766873
0.910185 0.570550 0.778195
0.000000 0.795560 0.790768
0.115175 0.795041 0.790585
0.268498 0.792996 0.789914
0.408270 0.789151 0.788540
0.541039 0.782803 0.785763
0.666682 0.771725 0.779507
0.780728 0.746792 0.761318
0.910063 0.731746 0.775753
0.000000 0.945342 0.823209
0.000000 0.944915 0.823239
0.197910 0.943328 0.823484
0.373175 0.940215 0.823209
0.520012 0.934356 0.819699
0.653956 0.925719 0.813016
0.776669 0.910063 0.797421
0.892119 0.894408 0.771572
0.126192 0.000000 0.900359
0.183169 0.000000 0.900328
0.302037 0.000000 0.900328
0.433600 0.000000 0.900298
0.567651 0.000000 0.900298
0.701869 0.000000 0.900328
0.813382 0.000000 0.896239
0.934112 0.000000 0.901122
0.124025 0.073335 0.900603
0.181796 0.058991 0.900603
0.301061 0.000000 0.900572
0.432715 0.000000 0.900572
0.566918 0.000000 0.900511
0.701167 0.000000 0.900542
0.813352 0.000000 0.896544
0.934020 0.000000 0.901305
0.125643 0.243534 0.901305
0.182162 0.240391 0.901274
0.300145 0.228031 0.901274
0.431098 0.202976 0.901244
0.564874 0.155154 0.901244
0.698878 0.000000 0.901213
0.813260 0.000000 0.897612
0.933593 0.000000 0.901823
0.205234 0.404822 0.901427
0.211704 0.392767 0.901884
0.304753 0.380133 0.902098
0.431708 0.366583 0.902129
0.562982 0.344701 0.902098
0.695430 0.310826 0.902159
0.813138 0.252750 0.899321
0.932433 0.115969 0.902525
0.190860 0.544640 0.903105
0.232242 0.543572 0.903044
0.336461 0.540185 0.902647
0.458167 0.532769 0.901976
0.562097 0.504021 0.902892
0.691310 0.482979 0.902953
0.813687 0.450507 0.901335
0.929503 0.393164 0.902831
0.157351 0.666896 0.906981
0.204929 0.666896 0.906828
0.315099 0.666987 0.906310
0.438972 0.666255 0.905303
0.566491 0.661646 0.903777
0.684901 0.638453 0.903807
0.813809 0.620386 0.903868
0.924712 0.579187 0.902770
0.081941 0.795254 0.911284
0.158816 0.795071 0.911192
0.288945 0.794369 0.910887
0.422187 0.792966 0.910307
0.554040 0.790707 0.909239
0.681117 0.786679 0.907103
0.801358 0.769955 0.904509
0.918059 0.743709 0.902251
0.000000 0.928344 0.915587
0.000000 0.928008 0.915587
0.245518 0.926940 0.915526
0.397742 0.924956 0.915404
0.539055 0.921996 0.915160
0.672572 0.917937 0.914580
0.796933 0.911528 0.912413
0.906249 0.890745 0.897429
