其他预设/【213】赛博朋克科幻预设52款/1.LUT预设（视频调色-PR-AE-PS-FCPX-达芬奇用）/赛博朋克科幻__-10 强度3.cube
# Created by Adobe Lightroom plugin Export LUT (1.17.0)
# www.johnrellis.com/lightroom/exportlut.htm
# Preset: 赛博朋克科幻[素锦印象]-10 强度3
# Color profile: /Library/Application Support/Adobe/Color/Profiles/Recommended/AdobeRGB1998.icc
LUT_3D_SIZE 32
0.061646 0.060975 0.056489
0.061646 0.060975 0.056489
0.061646 0.060975 0.056489
0.091157 0.051270 0.055573
0.127230 0.059388 0.068238
0.163210 0.068147 0.082033
0.199771 0.075898 0.094789
0.236637 0.083589 0.108156
0.273777 0.093385 0.122683
0.310491 0.105562 0.138003
0.346960 0.120211 0.154788
0.382666 0.136995 0.172213
0.417762 0.154788 0.190311
0.452308 0.173556 0.208682
0.486213 0.192813 0.227146
0.519646 0.211887 0.245609
0.552667 0.230564 0.263798
0.585107 0.249058 0.281682
0.617029 0.267124 0.299321
0.648585 0.285985 0.317266
0.679225 0.306249 0.335912
0.709071 0.328069 0.355383
0.738094 0.351354 0.375555
0.766140 0.376287 0.396612
0.793301 0.402808 0.418647
0.819486 0.431281 0.441779
0.844633 0.461769 0.466163
0.868681 0.494392 0.491920
0.891905 0.527733 0.518181
0.914397 0.561395 0.544701
0.936126 0.595636 0.571679
0.957122 0.630457 0.599084
0.061646 0.060975 0.056489
0.061646 0.060975 0.056489
0.061646 0.060975 0.056489
0.090425 0.059144 0.054963
0.126711 0.060548 0.068177
0.162753 0.067964 0.081758
0.199527 0.075654 0.094820
0.236332 0.083772 0.107942
0.273442 0.093324 0.122316
0.310338 0.105409 0.137881
0.346715 0.120150 0.154665
0.382513 0.136934 0.172122
0.417609 0.154696 0.190219
0.452186 0.173495 0.208591
0.486183 0.192721 0.227146
0.519585 0.211704 0.245548
0.552514 0.230533 0.263706
0.585016 0.249027 0.281621
0.616938 0.267094 0.299260
0.648493 0.286015 0.317266
0.679133 0.306279 0.335912
0.709010 0.328038 0.355322
0.738033 0.351324 0.375555
0.766110 0.376287 0.396612
0.793301 0.402808 0.418647
0.819455 0.431281 0.441779
0.844633 0.461769 0.466163
0.868681 0.494392 0.491920
0.891905 0.527733 0.518181
0.914397 0.561456 0.544732
0.936126 0.595697 0.571710
0.957153 0.630488 0.599115
0.058473 0.077028 0.059113
0.062593 0.075532 0.053925
0.066957 0.066896 0.055268
0.090211 0.069062 0.053376
0.125643 0.073732 0.067170
0.161746 0.078035 0.080812
0.198734 0.079286 0.094362
0.235721 0.083467 0.107790
0.272923 0.093050 0.122194
0.310002 0.105135 0.137728
0.346410 0.119905 0.154421
0.382238 0.136538 0.171908
0.417334 0.154696 0.190097
0.451972 0.173465 0.208499
0.485878 0.192630 0.226993
0.519463 0.211673 0.245487
0.552422 0.230503 0.263645
0.584894 0.248814 0.281498
0.616846 0.267063 0.299229
0.648371 0.285924 0.317174
0.679103 0.306218 0.335943
0.708980 0.328038 0.355322
0.738003 0.351324 0.375555
0.766110 0.376196 0.396582
0.793271 0.402838 0.418647
0.819455 0.431281 0.441779
0.844633 0.461769 0.466163
0.868711 0.494392 0.491920
0.891966 0.527733 0.518212
0.914427 0.561486 0.544762
0.936126 0.595727 0.571740
0.957183 0.630549 0.599145
0.024292 0.126650 0.065858
0.031037 0.125246 0.051637
0.069001 0.121798 0.039246
0.099855 0.103792 0.044953
0.124178 0.097505 0.070100
0.159976 0.101167 0.080964
0.196384 0.103517 0.092073
0.233768 0.105623 0.105898
0.271519 0.108248 0.120912
0.308843 0.112978 0.136995
0.345800 0.120943 0.154116
0.381720 0.136294 0.171695
0.416815 0.154208 0.189731
0.451484 0.173190 0.208255
0.485512 0.192447 0.226841
0.519097 0.211429 0.245274
0.552148 0.230259 0.263462
0.584588 0.248783 0.281376
0.616571 0.266941 0.299107
0.648157 0.285801 0.317052
0.678981 0.306096 0.335790
0.708858 0.327916 0.355230
0.737942 0.351293 0.375525
0.766049 0.376165 0.396551
0.793271 0.402747 0.418616
0.819455 0.431281 0.441779
0.844602 0.461830 0.466224
0.868742 0.494423 0.491951
0.891966 0.527764 0.518242
0.914458 0.561547 0.544823
0.936187 0.595758 0.571771
0.957244 0.630671 0.599237
0.000000 0.183200 0.075990
0.000000 0.181613 0.065644
0.000000 0.179721 0.020600
0.096498 0.172091 0.011963
0.138033 0.143526 0.061860
0.158206 0.129488 0.084962
0.194827 0.132784 0.095827
0.231998 0.135317 0.107698
0.269383 0.137911 0.120882
0.306615 0.142367 0.135592
0.343511 0.148531 0.151736
0.379828 0.157473 0.169863
0.415442 0.168765 0.188388
0.450355 0.181888 0.207218
0.484749 0.195956 0.226200
0.518486 0.211093 0.244938
0.551598 0.229923 0.263127
0.584131 0.248478 0.281163
0.616236 0.266697 0.298833
0.647913 0.285618 0.316899
0.678676 0.306065 0.335668
0.708736 0.327764 0.355138
0.737819 0.351171 0.375402
0.766018 0.376074 0.396521
0.793240 0.402747 0.418616
0.819455 0.431281 0.441779
0.844633 0.461799 0.466224
0.868772 0.494514 0.492012
0.892058 0.527855 0.518303
0.914519 0.561669 0.544915
0.936278 0.595941 0.571893
0.957336 0.630793 0.599359
0.000000 0.237278 0.089174
0.000000 0.236210 0.078553
0.000000 0.234501 0.056672
0.048920 0.228946 0.009003
0.139101 0.218845 0.005798
0.176364 0.183902 0.071534
0.192721 0.163577 0.100771
0.230137 0.166720 0.112520
0.267704 0.170047 0.125521
0.305150 0.174075 0.140261
0.342077 0.179934 0.156161
0.378424 0.187045 0.173007
0.413855 0.196170 0.190738
0.448920 0.206821 0.208774
0.483192 0.218631 0.226658
0.517082 0.231174 0.244724
0.550378 0.244083 0.262486
0.583062 0.257328 0.280247
0.615442 0.271031 0.298222
0.647486 0.285801 0.316686
0.678431 0.305791 0.335485
0.708522 0.327611 0.354955
0.737697 0.351049 0.375311
0.765927 0.376043 0.396460
0.793179 0.402716 0.418555
0.819455 0.431281 0.441779
0.844694 0.461860 0.466255
0.868833 0.494575 0.492042
0.892119 0.527977 0.518364
0.914641 0.561822 0.545037
0.936400 0.596094 0.572045
0.957458 0.631006 0.599512
0.000000 0.288090 0.101656
0.000000 0.287053 0.092592
0.000000 0.285832 0.076234
0.000000 0.281804 0.026825
0.107332 0.274327 0.000000
0.180789 0.262516 0.001526
0.214878 0.224002 0.083467
0.227604 0.198734 0.118593
0.265599 0.202426 0.131594
0.303380 0.206699 0.146273
0.340459 0.211917 0.161990
0.376745 0.218296 0.178500
0.412360 0.226017 0.195865
0.447547 0.234989 0.213474
0.482063 0.244999 0.231022
0.515953 0.255711 0.248600
0.549310 0.267063 0.265995
0.582086 0.278569 0.282963
0.614374 0.290379 0.299779
0.646357 0.303075 0.316930
0.677455 0.317357 0.334569
0.707912 0.334112 0.354345
0.737362 0.352758 0.375036
0.765805 0.375952 0.396338
0.793149 0.402686 0.418524
0.819455 0.431250 0.441749
0.844724 0.461921 0.466316
0.868894 0.494636 0.492103
0.892241 0.528099 0.518486
0.914763 0.562005 0.545190
0.936553 0.596338 0.572229
0.957610 0.631281 0.599725
0.000000 0.334997 0.113619
0.000000 0.334295 0.105959
0.000000 0.333288 0.093263
0.000000 0.330358 0.068269
0.000000 0.324956 0.000000
0.154299 0.316564 0.000000
0.220615 0.300908 0.026856
0.253269 0.263828 0.098817
0.263279 0.235019 0.139193
0.301091 0.239139 0.153231
0.338415 0.243900 0.168765
0.374914 0.249577 0.184787
0.410651 0.256291 0.201602
0.445930 0.264073 0.218692
0.480537 0.272648 0.236027
0.514580 0.281895 0.252964
0.548058 0.291691 0.269993
0.580957 0.301793 0.286778
0.613336 0.312474 0.303288
0.645411 0.324071 0.320256
0.676631 0.337011 0.337652
0.706966 0.351385 0.355596
0.736385 0.367407 0.374121
0.765042 0.386572 0.395514
0.792752 0.408057 0.418097
0.819425 0.431983 0.441749
0.844755 0.461982 0.466346
0.868986 0.494820 0.492287
0.892363 0.528313 0.518639
0.914885 0.562249 0.545373
0.936736 0.596612 0.572442
0.957824 0.631617 0.600000
0.000000 0.379919 0.125429
0.000000 0.379278 0.118685
0.000000 0.378546 0.109468
0.000000 0.376043 0.091737
0.000000 0.372351 0.043305
0.109957 0.365942 0.002197
0.198276 0.357519 0.005676
0.259312 0.338964 0.062776
0.291295 0.303044 0.116701
0.298619 0.271550 0.161349
0.336034 0.275944 0.176150
0.372686 0.280949 0.191867
0.408637 0.286961 0.208194
0.444099 0.293614 0.224765
0.478798 0.301183 0.241459
0.512963 0.309148 0.258061
0.546563 0.317723 0.274601
0.579644 0.326787 0.290990
0.612207 0.336156 0.307256
0.644404 0.346624 0.323949
0.675654 0.358434 0.341192
0.706111 0.371557 0.358953
0.735622 0.386328 0.377386
0.764187 0.402808 0.396429
0.791836 0.421607 0.416938
0.818631 0.444129 0.440803
0.844358 0.469459 0.465827
0.868925 0.497505 0.492164
0.892515 0.528557 0.518853
0.915099 0.562554 0.545617
0.936919 0.596979 0.572717
0.958038 0.632044 0.600336
0.000000 0.423774 0.136843
0.000000 0.423285 0.131319
0.000000 0.422492 0.125460
0.000000 0.420630 0.110964
0.000000 0.417700 0.083284
0.000000 0.413062 0.016602
0.165438 0.406195 0.022583
0.241184 0.397894 0.028779
0.297856 0.376349 0.086305
0.328862 0.341833 0.136385
0.335088 0.308507 0.182040
0.370153 0.311986 0.199374
0.406409 0.317327 0.215183
0.441932 0.323308 0.231205
0.476875 0.329839 0.247379
0.511192 0.337011 0.263554
0.545006 0.344579 0.279637
0.578119 0.352544 0.295720
0.610773 0.361059 0.311711
0.643091 0.370459 0.328161
0.674556 0.381201 0.345159
0.705135 0.393256 0.362799
0.734707 0.406775 0.381079
0.763363 0.422065 0.400000
0.791012 0.439124 0.419654
0.817746 0.458076 0.440192
0.843595 0.481605 0.464973
0.868315 0.508324 0.491493
0.892119 0.536584 0.518425
0.915099 0.566003 0.545647
0.937194 0.597375 0.573053
0.958343 0.632532 0.600702
0.000000 0.466957 0.149142
0.000000 0.466468 0.145663
0.000000 0.465858 0.140475
0.000000 0.464363 0.128725
0.000000 0.461891 0.107393
0.000000 0.458289 0.072511
0.117464 0.452857 0.048768
0.213565 0.446174 0.054994
0.283055 0.438025 0.059724
0.336095 0.413367 0.109957
0.365942 0.379950 0.157046
0.372717 0.346258 0.200595
0.403845 0.347478 0.222477
0.439612 0.352911 0.237980
0.474739 0.358740 0.253605
0.509178 0.365209 0.269413
0.543114 0.371893 0.285130
0.576318 0.379065 0.300877
0.609247 0.386664 0.316503
0.641749 0.395178 0.332677
0.673365 0.404944 0.349523
0.704005 0.415961 0.366979
0.733761 0.428504 0.385138
0.762478 0.442664 0.403967
0.790219 0.458534 0.423590
0.817014 0.476295 0.444007
0.842771 0.496162 0.465431
0.867613 0.520378 0.490669
0.891539 0.547295 0.517815
0.914611 0.575525 0.545129
0.936919 0.605066 0.572839
0.958404 0.635981 0.600855
0.000000 0.509483 0.162509
0.000000 0.509056 0.159548
0.000000 0.508476 0.155093
0.000000 0.507195 0.145022
0.000000 0.505272 0.127840
0.000000 0.502220 0.102510
0.000000 0.498024 0.068849
0.178592 0.492409 0.071870
0.259159 0.485664 0.075074
0.324407 0.477852 0.078370
0.373846 0.450019 0.132937
0.402564 0.417456 0.178012
0.409552 0.383520 0.218936
0.437079 0.382361 0.245029
0.472328 0.387701 0.260227
0.506950 0.393439 0.275517
0.541070 0.399603 0.290990
0.574456 0.406043 0.306188
0.607538 0.412909 0.321660
0.640253 0.420844 0.337560
0.671992 0.429633 0.354253
0.702754 0.439796 0.371588
0.732601 0.451240 0.389563
0.761471 0.464302 0.408362
0.789334 0.479042 0.427832
0.816159 0.495735 0.448280
0.842008 0.514397 0.469612
0.866850 0.535149 0.491890
0.890898 0.559136 0.517113
0.914122 0.586053 0.544671
0.936492 0.614466 0.572473
0.958099 0.644343 0.600702
0.000000 0.551354 0.175570
0.000000 0.551080 0.172854
0.000000 0.550591 0.168917
0.000000 0.549584 0.160159
0.000000 0.547967 0.145876
0.000000 0.545464 0.126040
0.000000 0.541924 0.099580
0.129427 0.537163 0.086824
0.229923 0.531456 0.089754
0.302251 0.524956 0.092744
0.364569 0.515770 0.101045
0.411017 0.486305 0.155306
0.438788 0.454444 0.198672
0.445899 0.420539 0.237034
0.469734 0.416388 0.267033
0.504540 0.421698 0.282048
0.538811 0.427344 0.296971
0.572351 0.433173 0.311833
0.605676 0.439643 0.327092
0.638575 0.446815 0.342840
0.670497 0.454994 0.359319
0.701442 0.464210 0.376471
0.731380 0.474769 0.394415
0.760372 0.486763 0.413062
0.788327 0.500450 0.432532
0.815274 0.515984 0.452827
0.841154 0.533593 0.474189
0.866087 0.553063 0.496345
0.890196 0.573602 0.518639
0.913542 0.597620 0.544121
0.936034 0.624781 0.572137
0.957794 0.653498 0.600549
0.000000 0.592767 0.188479
0.000000 0.592493 0.185855
0.000000 0.592126 0.182345
0.000000 0.591241 0.174868
0.000000 0.589807 0.162692
0.000000 0.587671 0.146090
0.000000 0.584680 0.125521
0.000000 0.580621 0.101717
0.194400 0.575769 0.104250
0.276982 0.570214 0.107057
0.344335 0.563714 0.110231
0.403693 0.551354 0.127535
0.447547 0.522271 0.177157
0.474434 0.490974 0.218631
0.482490 0.457893 0.256077
0.501976 0.449866 0.288579
0.536309 0.455116 0.303197
0.570062 0.460609 0.317906
0.603693 0.466560 0.332738
0.636744 0.473304 0.348302
0.668879 0.480690 0.364721
0.699977 0.489204 0.381720
0.730037 0.498939 0.399603
0.759182 0.509972 0.418128
0.787228 0.522667 0.437537
0.814237 0.537133 0.457893
0.840238 0.553643 0.479164
0.865293 0.571649 0.501030
0.889494 0.590997 0.523186
0.912902 0.611566 0.545647
0.935546 0.635920 0.571740
0.957427 0.663508 0.600366
0.000000 0.632990 0.200626
0.000000 0.632715 0.198398
0.000000 0.632380 0.195285
0.000000 0.631708 0.188479
0.000000 0.630426 0.178134
0.000000 0.628717 0.164004
0.000000 0.626184 0.146914
0.000000 0.622705 0.127962
0.146731 0.618463 0.118868
0.247318 0.613672 0.121553
0.321080 0.608179 0.123903
0.385138 0.601831 0.126925
0.441810 0.586542 0.151919
0.483589 0.557855 0.198215
0.509606 0.526909 0.238254
0.518364 0.494484 0.274876
0.533684 0.482856 0.309697
0.567651 0.487922 0.324010
0.601495 0.493599 0.338689
0.634791 0.499916 0.354070
0.667109 0.506767 0.370306
0.698390 0.514549 0.387243
0.728664 0.523461 0.404974
0.757870 0.533715 0.423529
0.786069 0.545403 0.442908
0.813199 0.558892 0.463233
0.839261 0.574273 0.484474
0.864439 0.591058 0.506096
0.888731 0.609033 0.528008
0.912261 0.628351 0.550225
0.935027 0.649012 0.572869
0.957031 0.674250 0.600153
0.000000 0.670253 0.211948
0.000000 0.670039 0.209964
0.000000 0.669764 0.207340
0.000000 0.669184 0.201450
0.000000 0.668116 0.192142
0.000000 0.666621 0.180148
0.000000 0.664454 0.165957
0.000000 0.661616 0.150546
0.067597 0.657832 0.135653
0.211887 0.653681 0.136629
0.294804 0.648890 0.138949
0.362890 0.643549 0.141604
0.423835 0.637415 0.144198
0.478157 0.619623 0.175570
0.518547 0.592248 0.218845
0.544213 0.562402 0.257389
0.553643 0.530449 0.293156
0.564965 0.515251 0.330327
0.599237 0.520775 0.344823
0.632746 0.526696 0.360143
0.665248 0.533074 0.376165
0.696712 0.540276 0.393103
0.727138 0.548425 0.410742
0.756527 0.557763 0.429206
0.784848 0.568658 0.448646
0.812070 0.581170 0.468971
0.838224 0.595361 0.490028
0.863554 0.610895 0.511406
0.887968 0.627680 0.533104
0.911528 0.645747 0.555077
0.934417 0.665217 0.577539
0.956634 0.686213 0.600580
0.000000 0.704585 0.222416
0.000000 0.704433 0.220737
0.000000 0.704158 0.218448
0.000000 0.703700 0.213199
0.000000 0.702785 0.205325
0.000000 0.701503 0.195132
0.000000 0.699641 0.183139
0.000000 0.697169 0.170352
0.000000 0.693935 0.158083
0.169680 0.690120 0.152224
0.265568 0.685969 0.154665
0.338323 0.681270 0.157015
0.401862 0.676051 0.159487
0.460334 0.670130 0.162020
0.512230 0.650202 0.198703
0.551324 0.624384 0.239322
0.577356 0.596216 0.276463
0.588342 0.566003 0.311376
0.596643 0.547875 0.351171
0.630457 0.553552 0.366308
0.663233 0.559533 0.382361
0.694881 0.566064 0.399084
0.725521 0.573571 0.416754
0.755062 0.582238 0.435279
0.783505 0.592218 0.454627
0.810849 0.603784 0.475044
0.837186 0.616815 0.495888
0.862608 0.631159 0.517021
0.887114 0.646754 0.538415
0.910857 0.663661 0.560235
0.933776 0.681941 0.582422
0.956085 0.701808 0.605280
0.000000 0.736324 0.232273
0.000000 0.736141 0.230686
0.000000 0.735988 0.228672
0.000000 0.735470 0.224094
0.000000 0.734737 0.217227
0.000000 0.733577 0.208438
0.000000 0.731991 0.198459
0.000000 0.729854 0.187808
0.000000 0.727077 0.178042
0.116640 0.723659 0.169833
0.233555 0.720058 0.170504
0.312505 0.715999 0.172824
0.379004 0.711421 0.175265
0.439094 0.706416 0.177798
0.495186 0.700923 0.180331
0.544884 0.679408 0.221469
0.583154 0.655146 0.260319
0.609369 0.628931 0.296117
0.622187 0.600793 0.330205
0.628107 0.580377 0.372656
0.661036 0.586023 0.388647
0.692988 0.592004 0.405432
0.723812 0.598840 0.423072
0.753506 0.606806 0.441657
0.782132 0.615961 0.461036
0.809598 0.626673 0.481361
0.836088 0.638575 0.501946
0.861662 0.651759 0.522850
0.886320 0.666163 0.543969
0.910124 0.681941 0.565576
0.933165 0.699092 0.587579
0.955535 0.717830 0.610224
0.000000 0.766506 0.241489
0.000000 0.766415 0.240208
0.000000 0.766232 0.238285
0.000000 0.765835 0.234348
0.000000 0.765194 0.228458
0.000000 0.764218 0.220951
0.000000 0.762905 0.212375
0.000000 0.761074 0.203708
0.000000 0.758724 0.195804
0.000000 0.755795 0.189517
0.198734 0.752407 0.186893
0.286290 0.748959 0.189029
0.356085 0.745113 0.191287
0.417762 0.740810 0.193668
0.474861 0.736080 0.196139
0.529137 0.729091 0.203677
0.576959 0.708034 0.244633
0.614282 0.685298 0.281682
0.640742 0.660761 0.316777
0.655055 0.634607 0.350225
0.661341 0.614008 0.391730
0.690944 0.617975 0.412024
0.722011 0.624231 0.429633
0.751949 0.631434 0.448249
0.780667 0.639826 0.467720
0.808347 0.649561 0.487831
0.835019 0.660456 0.508171
0.860685 0.672541 0.528893
0.885496 0.685878 0.549828
0.909422 0.700526 0.571191
0.932555 0.716548 0.592950
0.954986 0.734218 0.615412
0.000000 0.795865 0.250370
0.000000 0.795743 0.249149
0.000000 0.795621 0.247471
0.000000 0.795285 0.244022
0.000000 0.794766 0.238834
0.000000 0.793942 0.232395
0.000000 0.792752 0.225162
0.000000 0.791165 0.218021
0.000000 0.789181 0.211795
0.000000 0.786587 0.207065
0.161440 0.783566 0.204562
0.259892 0.780423 0.205936
0.333562 0.777096 0.208072
0.397101 0.773404 0.210483
0.455146 0.769314 0.212894
0.509789 0.764828 0.215305
0.562310 0.755886 0.229221
0.608331 0.736049 0.268101
0.644953 0.714687 0.304143
0.671565 0.691798 0.338354
0.686915 0.667506 0.371374
0.693843 0.647089 0.411383
0.720150 0.649561 0.436500
0.750210 0.656092 0.455116
0.779171 0.663752 0.474678
0.807034 0.672511 0.494545
0.833890 0.682399 0.514641
0.859739 0.693477 0.535119
0.884672 0.705776 0.555871
0.908690 0.719356 0.576959
0.931945 0.734340 0.598566
0.954498 0.750912 0.620813
0.000000 0.824277 0.258824
0.000000 0.824216 0.257786
0.000000 0.824094 0.256168
0.000000 0.823850 0.253086
0.000000 0.823331 0.248539
0.000000 0.822599 0.243046
0.000000 0.821622 0.237034
0.000000 0.820249 0.231357
0.000000 0.818418 0.226474
0.000000 0.816220 0.223178
0.115602 0.813535 0.221866
0.234043 0.810483 0.223514
0.311955 0.807584 0.225559
0.377325 0.804349 0.227848
0.436255 0.800809 0.230228
0.491218 0.796933 0.232670
0.543694 0.792691 0.235294
0.594659 0.782010 0.255070
0.639216 0.763333 0.292332
0.675013 0.743282 0.327459
0.701656 0.722042 0.361089
0.717922 0.699458 0.393805
0.725338 0.679408 0.432349
0.748470 0.680598 0.462318
0.777646 0.687495 0.481758
0.805722 0.695430 0.501396
0.832761 0.704372 0.521324
0.858762 0.714473 0.541527
0.883848 0.725765 0.562066
0.907988 0.738338 0.582910
0.931334 0.752316 0.604364
0.953979 0.767819 0.626398
0.000000 0.851835 0.266636
0.000000 0.851804 0.265721
0.000000 0.851652 0.264408
0.000000 0.851438 0.261723
0.000000 0.851011 0.257725
0.000000 0.850370 0.252995
0.000000 0.849485 0.247929
0.000000 0.848264 0.243381
0.000000 0.846677 0.239872
0.000000 0.844663 0.237766
0.000000 0.842283 0.237919
0.208255 0.839384 0.240909
0.292546 0.836637 0.243900
0.359411 0.833829 0.246159
0.418830 0.830716 0.248447
0.474128 0.827268 0.250858
0.526329 0.823575 0.253422
0.576715 0.819547 0.255863
0.626307 0.807431 0.281346
0.669459 0.789853 0.317479
0.704585 0.771176 0.351904
0.731044 0.751339 0.385138
0.748013 0.730465 0.417670
0.755825 0.711055 0.454719
0.776120 0.711086 0.488960
0.804410 0.718227 0.508415
0.831632 0.726314 0.528130
0.857847 0.735500 0.548119
0.883024 0.745846 0.568444
0.907286 0.757412 0.589105
0.930755 0.770352 0.610285
0.953521 0.784909 0.632166
0.000000 0.878447 0.274052
0.000000 0.878386 0.273136
0.000000 0.878325 0.272007
0.000000 0.878080 0.269566
0.000000 0.877714 0.266148
0.000000 0.877165 0.262058
0.000000 0.876371 0.257877
0.000000 0.875273 0.254307
0.000000 0.873869 0.251987
0.000000 0.872038 0.251286
0.000000 0.869841 0.252628
0.178470 0.867216 0.256687
0.275731 0.864286 0.263279
0.344060 0.861753 0.265385
0.403693 0.859037 0.267613
0.458778 0.856016 0.269932
0.510704 0.852750 0.272404
0.560571 0.849180 0.274968
0.608972 0.845335 0.277592
0.657374 0.831968 0.308476
0.699184 0.815549 0.343755
0.733516 0.798093 0.377722
0.759792 0.779782 0.410712
0.777157 0.760525 0.443091
0.785367 0.741787 0.478126
0.803098 0.740841 0.515526
0.830533 0.748104 0.535027
0.856901 0.756497 0.554833
0.882231 0.765896 0.574945
0.906645 0.776516 0.595422
0.930236 0.788510 0.616388
0.953094 0.802060 0.638056
0.000000 0.904204 0.280858
0.000000 0.904173 0.280034
0.000000 0.904051 0.279026
0.000000 0.903868 0.276860
0.000000 0.903563 0.273808
0.000000 0.903075 0.270298
0.000000 0.902342 0.266941
0.000000 0.901335 0.264256
0.000000 0.899992 0.263035
0.000000 0.898314 0.263493
0.000000 0.896269 0.266056
0.143313 0.893858 0.271214
0.257969 0.890959 0.279911
0.332036 0.888365 0.285649
0.391455 0.885924 0.287816
0.445991 0.883207 0.290166
0.497322 0.880308 0.292668
0.546441 0.877134 0.295201
0.593988 0.873747 0.297795
0.640406 0.870085 0.300420
0.687800 0.855680 0.336431
0.728328 0.840330 0.371191
0.761837 0.824155 0.404913
0.787839 0.807187 0.437903
0.805417 0.789548 0.469917
0.813962 0.771725 0.501762
0.829435 0.769802 0.542016
0.855985 0.777310 0.561669
0.881498 0.785885 0.581598
0.906035 0.795590 0.601892
0.929717 0.806638 0.622675
0.952728 0.819242 0.644190
0.000000 0.929137 0.287053
0.000000 0.929076 0.286412
0.000000 0.929015 0.285405
0.000000 0.928832 0.283513
0.000000 0.928557 0.280705
0.000000 0.928099 0.277714
0.000000 0.927428 0.274968
0.000000 0.926482 0.273228
0.000000 0.925231 0.272984
0.000000 0.923644 0.274571
0.000000 0.921752 0.278355
0.095644 0.919402 0.284733
0.238041 0.916716 0.294560
0.325048 0.913664 0.307164
0.383276 0.911467 0.309361
0.436561 0.909056 0.311559
0.486854 0.906401 0.314092
0.534874 0.903593 0.316533
0.581353 0.900542 0.319127
0.626703 0.897276 0.321752
0.672023 0.892180 0.329931
0.717830 0.878538 0.365728
0.757076 0.864256 0.400183
0.789700 0.849271 0.433783
0.815152 0.833707 0.466285
0.832792 0.817563 0.496986
0.841733 0.800900 0.526177
0.855131 0.798032 0.568627
0.880766 0.805783 0.588373
0.905455 0.814633 0.608453
0.929259 0.824765 0.629084
0.952392 0.836423 0.650416
0.000000 0.953307 0.292729
0.000000 0.953277 0.291966
0.000000 0.953216 0.291112
0.000000 0.953094 0.289250
0.000000 0.952819 0.286870
0.000000 0.952422 0.284276
0.000000 0.951781 0.282078
0.000000 0.950896 0.281041
0.000000 0.949676 0.281773
0.000000 0.948180 0.284459
0.000000 0.946288 0.289433
0.000000 0.944121 0.297093
0.216678 0.941497 0.308080
0.313024 0.938415 0.322820
0.379980 0.935760 0.332280
0.431464 0.933593 0.334508
0.480110 0.931212 0.336797
0.526635 0.928649 0.339330
0.571740 0.925902 0.341863
0.615656 0.922972 0.344427
0.658839 0.919799 0.347082
0.703395 0.913451 0.361089
0.747494 0.900664 0.396521
0.785489 0.887358 0.430945
0.817044 0.873564 0.463874
0.841764 0.859342 0.494972
0.859342 0.844694 0.524346
0.868986 0.829587 0.552331
0.880095 0.825528 0.595239
0.904936 0.833524 0.615167
0.928862 0.842832 0.635554
0.952117 0.853574 0.656764
0.000000 0.976867 0.297551
0.000000 0.976806 0.296941
0.000000 0.976745 0.296086
0.000000 0.976654 0.294347
0.000000 0.976379 0.292058
0.000000 0.976013 0.289738
0.000000 0.975402 0.288090
0.000000 0.974578 0.287724
0.000000 0.973419 0.289311
0.000000 0.971923 0.293156
0.000000 0.970123 0.299351
0.000000 0.967956 0.308385
0.193149 0.965393 0.320623
0.299840 0.962371 0.336584
0.382727 0.958892 0.356725
0.431586 0.956909 0.358923
0.477974 0.954742 0.361303
0.522454 0.952422 0.363684
0.565850 0.949889 0.366247
0.608118 0.947204 0.368780
0.649622 0.944366 0.371435
0.690639 0.941283 0.374151
0.734463 0.933837 0.393835
0.776974 0.921935 0.429145
0.813443 0.909636 0.462745
0.843687 0.897032 0.494209
0.867674 0.884092 0.523857
0.885069 0.870848 0.552056
0.895262 0.857267 0.578882
0.905089 0.852598 0.620905
0.928557 0.860716 0.642176
0.951904 0.870634 0.663233
0.000000 0.999664 0.301793
0.000000 0.999664 0.301183
0.000000 0.999603 0.300389
0.000000 0.999512 0.298711
0.000000 0.999298 0.296422
0.000000 0.998932 0.294285
0.000000 0.998383 0.292882
0.000000 0.997589 0.293004
0.000000 0.996460 0.295415
0.000000 0.994995 0.300481
0.000000 0.993164 0.307958
0.000000 0.990997 0.318486
0.166323 0.988403 0.332280
0.286992 0.985412 0.349645
0.375128 0.981903 0.371099
