其他预设/【213】赛博朋克科幻预设52款/1.LUT预设（视频调色-PR-AE-PS-FCPX-达芬奇用）/赛博朋克科幻__-12 强度2.cube
# Created by Adobe Lightroom plugin Export LUT (1.17.0)
# www.johnrellis.com/lightroom/exportlut.htm
# Preset: 赛博朋克科幻[素锦印象]-12 强度2
# Color profile: /Library/Application Support/Adobe/Color/Profiles/Recommended/AdobeRGB1998.icc
LUT_3D_SIZE 5
DOMAIN_MIN 0.000000 0.000000 0.000000
DOMAIN_MAX 0.903226 0.903226 0.903226
0.064729 0.065309 0.065248
0.177829 0.072267 0.085969
0.393317 0.118288 0.161227
0.628687 0.207767 0.270207
0.846372 0.382605 0.439948
0.000000 0.237491 0.000000
0.198550 0.236027 0.000000
0.392187 0.236912 0.139284
0.628351 0.292271 0.254948
0.847044 0.422309 0.428412
0.000000 0.522942 0.000000
0.187350 0.522454 0.000000
0.434577 0.521355 0.000000
0.655970 0.510796 0.018738
0.848753 0.548211 0.379858
0.000000 0.772427 0.000000
0.062440 0.771756 0.000000
0.407172 0.769009 0.000000
0.637110 0.765957 0.000000
0.889677 0.792630 0.000000
0.000000 0.980285 0.000000
0.000000 0.980102 0.000000
0.287175 0.977874 0.000000
0.584924 0.973877 0.000000
0.805936 0.971740 0.000000
0.113954 0.068330 0.197360
0.201328 0.066011 0.203220
0.409369 0.148409 0.273381
0.637293 0.248325 0.363989
0.846159 0.428229 0.512047
0.086610 0.201480 0.196201
0.210269 0.213901 0.214237
0.416266 0.255833 0.272618
0.639124 0.321355 0.358251
0.847044 0.460182 0.503380
0.000000 0.515068 0.142733
0.132967 0.513939 0.122408
0.435340 0.511528 0.122744
0.653468 0.499641 0.271397
0.849912 0.563439 0.460945
0.000000 0.771939 0.000000
0.000000 0.769863 0.000000
0.390967 0.766629 0.000000
0.639277 0.762417 0.000000
0.893614 0.782406 0.000000
0.000000 0.979400 0.000000
0.000000 0.978973 0.000000
0.290288 0.977295 0.000000
0.582177 0.973663 0.000000
0.807401 0.971069 0.000000
0.242100 0.089387 0.439582
0.305730 0.063600 0.438911
0.448859 0.094484 0.453925
0.656550 0.232456 0.516686
0.856535 0.414862 0.611902
0.243778 0.218540 0.447120
0.308232 0.227176 0.449073
0.454139 0.239139 0.460365
0.658808 0.327520 0.522057
0.855589 0.472999 0.619226
0.152316 0.450355 0.437781
0.259648 0.457404 0.447791
0.467262 0.476570 0.477516
0.663416 0.524743 0.538354
0.853696 0.614374 0.638025
0.000000 0.746609 0.403723
0.000000 0.750057 0.401190
0.400366 0.753658 0.403449
0.659113 0.748409 0.400458
0.880827 0.751553 0.519432
0.000000 0.977630 0.212436
0.000000 0.978485 0.179355
0.209140 0.977264 0.182864
0.568231 0.972473 0.166720
0.821256 0.966796 0.217868
0.383917 0.167453 0.684932
0.427008 0.154452 0.684596
0.540520 0.154055 0.686213
0.689937 0.191470 0.698512
0.874174 0.393103 0.753384
0.392645 0.246494 0.686061
0.432227 0.253117 0.686793
0.543969 0.278233 0.689296
0.691279 0.300908 0.700557
0.873533 0.453986 0.756558
0.393500 0.477729 0.695644
0.442115 0.486030 0.697078
0.555810 0.498177 0.698848
0.694942 0.511894 0.706813
0.872984 0.596674 0.764523
0.290867 0.697169 0.679194
0.361883 0.699031 0.683162
0.524865 0.704860 0.695857
0.703670 0.718105 0.719570
0.874144 0.765286 0.776699
0.000000 0.944854 0.636744
0.195499 0.946410 0.638422
0.405066 0.952941 0.639460
0.630732 0.959197 0.640620
0.861418 0.953887 0.640040
0.557366 0.393927 0.904753
0.582361 0.393194 0.904814
0.659815 0.391852 0.904997
0.770748 0.381994 0.907286
0.901793 0.378424 0.914092
0.557153 0.393896 0.904753
0.581628 0.393256 0.904845
0.658534 0.392126 0.905211
0.771603 0.415503 0.907469
0.901518 0.439490 0.914336
0.584253 0.556878 0.905913
0.600031 0.550896 0.906310
0.671260 0.557977 0.907042
0.778073 0.576471 0.908415
0.901457 0.581781 0.915953
0.604639 0.743191 0.906493
0.628931 0.746578 0.907683
0.702480 0.757412 0.911650
0.782040 0.742672 0.914244
0.903197 0.750240 0.920378
0.500633 0.917662 0.897826
0.531487 0.917601 0.898955
0.623987 0.917784 0.903166
0.755062 0.919738 0.912016
0.909850 0.928862 0.930785
