其他预设/【213】赛博朋克科幻预设52款/1.LUT预设（视频调色-PR-AE-PS-FCPX-达芬奇用）/赛博朋克科幻__-11 强度2.cube
# Created by Adobe Lightroom plugin Export LUT (1.17.0)
# www.johnrellis.com/lightroom/exportlut.htm
# Preset: 赛博朋克科幻[素锦印象]-11 强度2
# Color profile: /Library/Application Support/Adobe/Color/Profiles/Recommended/AdobeRGB1998.icc
LUT_3D_SIZE 5
DOMAIN_MIN 0.000000 0.000000 0.000000
DOMAIN_MAX 0.903226 0.903226 0.903226
0.000000 0.000000 0.000000
0.228824 0.000000 0.103517
0.456275 0.000000 0.206394
0.682307 0.000000 0.314122
0.905486 0.000000 0.424475
0.000000 0.222263 0.139986
0.204349 0.188327 0.066743
0.463661 0.000000 0.141146
0.687434 0.000000 0.294377
0.907866 0.000000 0.417731
0.000000 0.470893 0.286107
0.021393 0.449317 0.238743
0.407813 0.388342 0.132021
0.691798 0.136233 0.203403
0.919280 0.000000 0.320470
0.000000 0.734035 0.426917
0.000000 0.722377 0.408118
0.169314 0.689876 0.255650
0.603571 0.630549 0.202914
0.913756 0.453834 0.318791
0.000000 0.967102 0.545922
0.000000 0.962371 0.542931
0.261845 0.946532 0.518364
0.360937 0.934874 0.315160
0.800504 0.900023 0.357916
0.067903 0.000000 0.182193
0.237644 0.000000 0.193759
0.453498 0.000000 0.269841
0.680049 0.000000 0.363592
0.904479 0.000000 0.463722
0.004486 0.205722 0.210452
0.237400 0.176730 0.195407
0.459815 0.000000 0.261112
0.684443 0.000000 0.352758
0.906981 0.000000 0.456825
0.000000 0.472602 0.342229
0.170413 0.445624 0.314153
0.423438 0.383246 0.227146
0.693782 0.163699 0.273625
0.916197 0.000000 0.400092
0.000000 0.735531 0.466957
0.000000 0.723110 0.452033
0.277745 0.686427 0.343755
0.613581 0.628016 0.277043
0.914061 0.450660 0.376074
0.000000 0.968780 0.571649
0.000000 0.964019 0.568963
0.349432 0.944213 0.570245
0.399084 0.933989 0.374151
0.807919 0.898772 0.408698
0.138521 0.000000 0.396796
0.289616 0.000000 0.396765
0.482979 0.000000 0.411048
0.678401 0.000000 0.480964
0.904570 0.000000 0.564569
0.145418 0.220432 0.403357
0.271641 0.177218 0.402472
0.481666 0.000000 0.411353
0.681514 0.000000 0.479988
0.907195 0.000000 0.560113
0.000000 0.450660 0.467140
0.232120 0.433051 0.454261
0.470741 0.366979 0.407324
0.690608 0.295933 0.473243
0.911772 0.086000 0.556542
0.000000 0.747921 0.590234
0.000000 0.735348 0.578912
0.430304 0.687556 0.535882
0.645411 0.619745 0.444373
0.916564 0.472724 0.511772
0.000000 0.973388 0.661707
0.000000 0.969726 0.657588
0.335119 0.953857 0.649348
0.543755 0.928985 0.564630
0.829343 0.895384 0.532128
0.187564 0.000000 0.647456
0.321172 0.000000 0.647364
0.548180 0.000000 0.645502
0.723629 0.000000 0.654261
0.908080 0.000000 0.712856
0.158053 0.195621 0.650782
0.305882 0.167941 0.650721
0.546990 0.000000 0.650477
0.723049 0.000000 0.655055
0.908782 0.000000 0.713558
0.175753 0.459815 0.667659
0.301244 0.453498 0.663355
0.516716 0.396674 0.654780
0.717830 0.304051 0.655329
0.912505 0.000000 0.709407
0.000000 0.724056 0.729976
0.210422 0.716732 0.725277
0.486824 0.688502 0.706538
0.694087 0.605035 0.642939
0.914549 0.549218 0.709590
0.000000 0.980987 0.807584
0.000000 0.977539 0.805051
0.382300 0.964721 0.796384
0.667506 0.935943 0.773190
0.862303 0.889891 0.691279
0.203708 0.000000 0.892790
0.326238 0.000000 0.892668
0.556939 0.000000 0.892271
0.764981 0.000000 0.885435
0.947112 0.000000 0.894713
0.194858 0.170565 0.894804
0.319036 0.131624 0.894713
0.550439 0.000000 0.894347
0.765255 0.000000 0.888609
0.948272 0.000000 0.897948
0.296574 0.496803 0.897978
0.395453 0.489296 0.897002
0.545830 0.414008 0.898405
0.772549 0.301793 0.897704
0.947326 0.000000 0.901396
0.190433 0.715602 0.912718
0.319066 0.715572 0.911742
0.540246 0.713039 0.907652
0.749142 0.665766 0.902586
0.936675 0.552422 0.902403
0.000000 0.959380 0.943023
0.057923 0.957458 0.942535
0.471748 0.950622 0.940642
0.727596 0.937621 0.935882
0.909209 0.878294 0.891661
