其他预设/【213】赛博朋克科幻预设52款/1.LUT预设（视频调色-PR-AE-PS-FCPX-达芬奇用）/赛博朋克科幻__-3 强度4.cube
# Created by Adobe Lightroom plugin Export LUT (1.17.0)
# www.johnrellis.com/lightroom/exportlut.htm
# Preset: 赛博朋克科幻[素锦印象]-3 强度4
# Color profile: /Library/Application Support/Adobe/Color/Profiles/Recommended/AdobeRGB1998.icc
LUT_3D_SIZE 8
DOMAIN_MIN 0.000000 0.000000 0.000000
DOMAIN_MAX 0.903226 0.903226 0.903226
0.070100 0.089570 0.116335
0.115541 0.085176 0.134127
0.225010 0.019104 0.187228
0.438422 0.000000 0.288212
0.679347 0.000000 0.396643
0.837583 0.000000 0.470375
0.947326 0.000000 0.525780
1.000000 0.000000 0.571496
0.000000 0.156527 0.156466
0.089479 0.141146 0.121828
0.221714 0.029725 0.169863
0.432807 0.000000 0.285649
0.676417 0.000000 0.395270
0.836484 0.000000 0.469795
0.947021 0.000000 0.525597
1.000000 0.000000 0.571496
0.000000 0.325536 0.269657
0.000000 0.313481 0.248905
0.140536 0.265934 0.124605
0.424353 0.000000 0.154421
0.670527 0.000000 0.341894
0.833494 0.000000 0.459571
0.945892 0.000000 0.525017
1.000000 0.000000 0.571435
0.000000 0.570489 0.435889
0.000000 0.564599 0.421851
0.000000 0.544549 0.352758
0.241459 0.477180 0.095247
0.654414 0.183749 0.166079
0.836484 0.000000 0.321386
0.949493 0.000000 0.457649
1.000000 0.000000 0.554620
0.000000 0.763027 0.565759
0.000000 0.760922 0.557214
0.000000 0.753017 0.521111
0.000000 0.743526 0.414771
0.362829 0.678309 0.000000
0.801022 0.458686 0.170809
0.955688 0.000000 0.274388
1.000000 0.000000 0.444373
0.000000 0.884733 0.647669
0.000000 0.883940 0.642206
0.000000 0.881132 0.620508
0.000000 0.873198 0.575189
0.000000 0.873442 0.449531
0.470222 0.818418 0.120760
0.904662 0.654200 0.213169
1.000000 0.303258 0.370489
0.000000 0.976623 0.706294
0.000000 0.976257 0.705348
0.000000 0.975189 0.690822
0.000000 0.970764 0.663813
0.129671 0.959655 0.624506
0.121645 0.965270 0.500359
0.582574 0.921569 0.265019
0.983398 0.812772 0.303563
0.000000 1.000000 0.748928
0.000000 1.000000 0.748684
0.000000 1.000000 0.744350
0.000000 1.000000 0.725551
0.265354 1.000000 0.717220
0.497444 1.000000 0.683223
0.487037 1.000000 0.587671
0.714137 0.997589 0.437140
0.055421 0.089265 0.147677
0.116579 0.078614 0.152102
0.231052 0.000000 0.203677
0.438025 0.000000 0.301701
0.676570 0.000000 0.401953
0.836057 0.000000 0.469581
0.947112 0.000000 0.525658
1.000000 0.000000 0.571618
0.010864 0.135103 0.159945
0.104952 0.131167 0.150698
0.218235 0.080568 0.197513
0.435950 0.000000 0.304967
0.675166 0.000000 0.405768
0.835264 0.000000 0.470924
0.946807 0.000000 0.525505
1.000000 0.000000 0.571588
0.000000 0.308232 0.271824
0.000000 0.291722 0.251072
0.148409 0.254368 0.153445
0.415961 0.000000 0.208042
0.664393 0.000000 0.366949
0.831479 0.000000 0.473396
0.945892 0.000000 0.525628
1.000000 0.000000 0.571588
0.000000 0.556725 0.436866
0.000000 0.548669 0.422492
0.000000 0.528130 0.362646
0.246616 0.467842 0.135836
0.652491 0.168917 0.197086
0.833188 0.000000 0.351019
0.947448 0.000000 0.475380
1.000000 0.000000 0.554498
0.000000 0.756527 0.568841
0.000000 0.754482 0.560754
0.000000 0.746456 0.526635
0.000000 0.735836 0.427222
0.369390 0.673396 0.111666
0.802121 0.446052 0.213809
0.952819 0.000000 0.315404
1.000000 0.000000 0.464790
0.000000 0.881956 0.651148
0.000000 0.881193 0.645869
0.000000 0.878325 0.624994
0.000000 0.870115 0.581537
0.000000 0.869352 0.463172
0.479713 0.815610 0.170321
0.905058 0.648829 0.253513
1.000000 0.326848 0.393469
0.000000 0.975525 0.710658
0.000000 0.975189 0.708705
0.000000 0.974121 0.694484
0.000000 0.969512 0.668208
0.215183 0.956634 0.633234
0.208133 0.962493 0.514061
0.593256 0.919738 0.293492
0.983185 0.809567 0.334234
0.000000 1.000000 0.752010
0.000000 1.000000 0.751766
0.000000 1.000000 0.747341
0.000000 1.000000 0.728786
0.265843 1.000000 0.720058
0.518120 1.000000 0.689815
0.509148 1.000000 0.597559
0.722652 0.996307 0.452796
0.000000 0.087068 0.224582
0.110811 0.073915 0.213962
0.221103 0.000000 0.239261
0.431281 0.000000 0.338598
0.682338 0.000000 0.445197
0.837522 0.000000 0.504662
0.948333 0.000000 0.541131
1.000000 0.000000 0.572412
0.000000 0.161624 0.237186
0.096742 0.119631 0.226139
0.214908 0.045289 0.238407
0.421149 0.000000 0.338201
0.675166 0.000000 0.447608
0.836820 0.000000 0.507408
0.948180 0.000000 0.543175
1.000000 0.000000 0.572412
0.000000 0.251682 0.264958
0.000000 0.243015 0.255222
0.187625 0.226139 0.228122
0.408911 0.128267 0.313329
0.663050 0.000000 0.424964
0.832578 0.000000 0.503655
0.947509 0.000000 0.550500
1.000000 0.000000 0.576318
0.000000 0.522637 0.446540
0.000000 0.519005 0.438209
0.000000 0.492531 0.392065
0.274052 0.440650 0.228824
0.646174 0.155398 0.293095
0.821683 0.000000 0.441962
0.939452 0.000000 0.536492
1.000000 0.000000 0.584222
0.000000 0.742977 0.585138
0.000000 0.739193 0.577142
0.000000 0.727321 0.546654
0.000000 0.709346 0.472786
0.399207 0.656245 0.235355
0.805417 0.411170 0.330602
0.942473 0.134707 0.425574
1.000000 0.000000 0.530877
0.000000 0.875151 0.665217
0.000000 0.873686 0.659998
0.000000 0.869383 0.640864
0.000000 0.860227 0.602899
0.129793 0.854276 0.509545
0.515312 0.805631 0.282383
0.905821 0.634485 0.364080
1.000000 0.397253 0.461524
0.000000 0.972412 0.724361
0.000000 0.972015 0.720821
0.000000 0.970733 0.707637
0.000000 0.965576 0.683467
0.355657 0.947112 0.659968
0.367407 0.952544 0.558373
0.630121 0.913176 0.374914
0.982361 0.800229 0.423133
0.000000 1.000000 0.762692
0.000000 1.000000 0.762203
0.000000 1.000000 0.758236
0.000000 1.000000 0.740139
0.252720 1.000000 0.729763
0.578241 1.000000 0.710780
0.573175 1.000000 0.628290
0.749172 0.992218 0.499214
0.000000 0.074525 0.376593
0.110414 0.022034 0.361578
0.245029 0.000000 0.323339
0.420478 0.000000 0.386938
0.652522 0.000000 0.481270
0.831418 0.000000 0.544213
0.951598 0.000000 0.578058
1.000000 0.000000 0.593408
0.000000 0.111513 0.388281
0.095735 0.085878 0.373846
0.250797 0.000000 0.333257
0.417060 0.000000 0.389105
0.645747 0.000000 0.482033
0.828061 0.000000 0.546441
0.951263 0.000000 0.580407
1.000000 0.000000 0.594354
0.000000 0.343420 0.419623
0.000000 0.335515 0.415656
0.191806 0.213657 0.374884
0.401251 0.000000 0.380926
0.639002 0.000000 0.474220
0.821927 0.000000 0.546777
0.949615 0.000000 0.587793
1.000000 0.000000 0.598932
0.000000 0.451759 0.443336
0.000000 0.444556 0.435920
0.000000 0.422095 0.409979
0.353735 0.389624 0.362188
0.626520 0.301823 0.456275
0.815854 0.000000 0.528496
0.943908 0.000000 0.575921
1.000000 0.000000 0.608667
0.000000 0.688594 0.591424
0.000000 0.689326 0.588342
0.000000 0.694972 0.578027
0.153902 0.672419 0.529290
0.466896 0.622919 0.374426
0.798825 0.429419 0.449439
0.924743 0.411475 0.557000
1.000000 0.376074 0.625025
0.000000 0.863615 0.690639
0.000000 0.862089 0.686275
0.000000 0.856657 0.669947
0.000000 0.844419 0.637690
0.404761 0.824674 0.581415
0.580774 0.786618 0.411627
0.906340 0.627771 0.501183
1.000000 0.514946 0.562982
0.000000 0.967437 0.746273
0.000000 0.967010 0.743160
0.000000 0.965454 0.731594
0.000000 0.960113 0.709865
0.363378 0.940948 0.685328
0.522637 0.935576 0.621057
0.687495 0.901854 0.476539
0.981842 0.788540 0.531579
0.000000 1.000000 0.782986
0.000000 1.000000 0.782498
0.000000 1.000000 0.778134
0.000000 1.000000 0.760708
0.158267 1.000000 0.746212
0.654231 1.000000 0.741726
0.653895 1.000000 0.671473
0.786404 0.986145 0.559625
0.000000 0.000000 0.557427
0.076722 0.000000 0.545830
0.321813 0.000000 0.503319
0.429267 0.000000 0.463661
0.644709 0.000000 0.538872
0.807431 0.000000 0.586145
0.942535 0.000000 0.621149
1.000000 0.000000 0.633021
0.000000 0.000000 0.562341
0.125734 0.000000 0.551232
0.330510 0.000000 0.510399
0.434546 0.000000 0.471351
0.642786 0.000000 0.541100
0.804379 0.000000 0.587488
0.941405 0.000000 0.622858
1.000000 0.000000 0.634028
0.000000 0.407111 0.598627
0.000000 0.358251 0.585779
0.208286 0.176852 0.550774
0.435218 0.000000 0.492378
0.635157 0.000000 0.542107
0.795285 0.000000 0.590753
0.937743 0.000000 0.628260
1.000000 0.000000 0.637049
0.000000 0.532586 0.594598
0.000000 0.529351 0.592859
0.000000 0.522606 0.585809
0.389258 0.394385 0.539300
0.613855 0.135836 0.531090
0.798215 0.000000 0.578820
0.938720 0.000000 0.623255
1.000000 0.000000 0.639796
0.000000 0.631891 0.602289
0.000000 0.628779 0.598718
0.000000 0.618524 0.585351
0.290043 0.600855 0.558007
0.559289 0.567864 0.509941
0.780697 0.518669 0.585992
0.924071 0.409918 0.631464
1.000000 0.000000 0.643061
0.000000 0.792142 0.689357
0.000000 0.793637 0.688106
0.000000 0.799985 0.683711
0.000000 0.813321 0.676051
0.462348 0.796872 0.639582
0.657649 0.758145 0.529900
0.905669 0.641962 0.597955
0.998383 0.629175 0.664759
0.000000 0.949615 0.770748
0.000000 0.951904 0.770260
0.000000 0.957275 0.766232
0.000000 0.951690 0.747524
0.319219 0.935790 0.720272
0.647059 0.913542 0.684840
0.746670 0.887449 0.567956
0.984283 0.778805 0.630274
0.000000 1.000000 0.812558
0.000000 1.000000 0.812131
0.000000 1.000000 0.807401
0.000000 1.000000 0.792294
0.000000 1.000000 0.771389
0.642939 1.000000 0.763058
0.732357 0.997528 0.718990
0.827115 0.978882 0.621515
0.000000 0.000000 0.691829
0.000000 0.000000 0.685756
0.333684 0.000000 0.662989
0.518059 0.000000 0.617792
0.624628 0.000000 0.597040
0.808469 0.000000 0.649958
0.926452 0.000000 0.668727
1.000000 0.000000 0.680964
0.000000 0.000000 0.693629
0.000000 0.000000 0.687831
0.341650 0.000000 0.666041
0.520684 0.000000 0.621790
0.626307 0.000000 0.601373
0.807736 0.000000 0.652003
0.925353 0.000000 0.670008
1.000000 0.000000 0.681880
0.000000 0.306432 0.709560
0.000000 0.223178 0.706203
0.225650 0.089296 0.685634
0.500053 0.000000 0.641840
0.629450 0.000000 0.615198
0.805478 0.000000 0.659083
0.921843 0.000000 0.674311
1.000000 0.000000 0.684779
0.000000 0.592462 0.725124
0.000000 0.594079 0.724514
0.241978 0.574792 0.714351
0.410498 0.376867 0.678859
0.616358 0.075319 0.631525
0.798581 0.000000 0.657374
0.919127 0.000000 0.677272
1.000000 0.000000 0.688411
0.000000 0.668116 0.708827
0.000000 0.667994 0.708186
0.000000 0.671412 0.705135
0.453773 0.686275 0.697993
0.611902 0.592309 0.661219
0.776150 0.346105 0.648615
0.921965 0.000000 0.667262
1.000000 0.000000 0.684718
0.000000 0.755123 0.710597
0.000000 0.754208 0.709071
0.000000 0.751949 0.703304
0.189670 0.748745 0.691157
0.537285 0.740505 0.669947
0.726558 0.712825 0.629969
0.896086 0.686061 0.692378
1.000000 0.592187 0.717159
0.000000 0.872740 0.768551
0.000000 0.874357 0.768124
0.000000 0.880705 0.766598
0.000000 0.893492 0.763729
0.329107 0.909819 0.759030
0.665461 0.896117 0.731777
0.804013 0.867247 0.651545
0.987060 0.785489 0.704738
0.000000 1.000000 0.832761
0.000000 1.000000 0.832792
0.000000 1.000000 0.832578
0.000000 1.000000 0.831907
0.000000 1.000000 0.813809
0.561334 1.000000 0.790524
0.807645 0.984588 0.769100
0.871061 0.969757 0.685145
0.000000 0.000000 0.790005
0.000000 0.000000 0.786923
0.281224 0.000000 0.775387
0.516564 0.000000 0.751949
0.676081 0.000000 0.724147
0.803281 0.000000 0.716793
0.931395 0.000000 0.735012
1.000000 0.000000 0.734493
0.000000 0.000000 0.791104
0.000000 0.000000 0.788144
0.284916 0.000000 0.776944
0.515831 0.000000 0.753994
0.675715 0.000000 0.726253
0.800168 0.000000 0.716823
0.931151 0.000000 0.736568
1.000000 0.000000 0.735409
0.000000 0.123964 0.798764
0.000000 0.083925 0.795773
0.232975 0.000000 0.784482
0.508080 0.000000 0.761563
0.673335 0.000000 0.733303
0.789456 0.000000 0.717617
0.930449 0.000000 0.742031
1.000000 0.000000 0.738460
0.000000 0.592432 0.808072
0.000000 0.580987 0.805081
0.238865 0.505608 0.796323
0.386664 0.301884 0.781979
0.638849 0.000000 0.746639
0.781613 0.000000 0.729488
0.929442 0.000000 0.751461
1.000000 0.000000 0.743191
0.000000 0.699550 0.803769
0.000000 0.703365 0.803433
0.266728 0.722988 0.801389
0.587243 0.755154 0.796292
0.629267 0.584955 0.769589
0.761074 0.291234 0.737301
0.924498 0.000000 0.751156
1.000000 0.000000 0.749355
0.000000 0.766567 0.790768
0.000000 0.767361 0.790555
0.000000 0.773129 0.789303
0.408209 0.790433 0.785672
0.680049 0.814969 0.781552
0.778500 0.745785 0.755459
0.895720 0.531151 0.742184
1.000000 0.000000 0.739834
0.000000 0.846983 0.792233
0.000000 0.846952 0.791684
0.000000 0.847532 0.789487
0.000000 0.850370 0.784390
0.480262 0.853971 0.774502
0.715999 0.852323 0.758968
0.852811 0.830472 0.726223
0.984405 0.810544 0.775479
0.000000 0.947539 0.836362
0.000000 0.947723 0.836393
0.000000 0.950011 0.835904
0.000000 0.957488 0.834989
0.000000 0.974517 0.832731
0.547417 0.989288 0.828397
0.805997 0.978180 0.806912
0.915770 0.957427 0.748257
0.000000 0.000000 0.861753
0.000000 0.000000 0.860349
0.129885 0.000000 0.855100
0.450904 0.000000 0.844541
0.668696 0.000000 0.826200
0.809476 0.000000 0.812772
0.948577 0.000000 0.817044
1.000000 0.000000 0.802243
0.000000 0.000000 0.862486
0.000000 0.000000 0.861112
0.113893 0.000000 0.856016
0.445686 0.000000 0.845609
0.664790 0.000000 0.827573
0.807706 0.000000 0.813840
0.946288 0.000000 0.817044
1.000000 0.000000 0.803311
0.000000 0.000000 0.865476
0.000000 0.000000 0.864195
0.000000 0.000000 0.859373
0.419959 0.000000 0.849607
0.648280 0.000000 0.832486
0.800931 0.000000 0.817533
0.937774 0.000000 0.816983
1.000000 0.000000 0.807004
0.000000 0.487434 0.865782
0.000000 0.446601 0.866270
0.000000 0.260075 0.867002
0.290318 0.000000 0.858335
0.607843 0.000000 0.841367
0.785824 0.000000 0.824002
0.920470 0.000000 0.816526
1.000000 0.000000 0.813413
0.000000 0.704799 0.866392
0.000000 0.712764 0.865721
0.357580 0.736263 0.861875
0.584405 0.709255 0.852232
0.544121 0.465644 0.850553
0.743648 0.000000 0.832059
0.898192 0.000000 0.822293
1.000000 0.000000 0.823209
0.000000 0.763119 0.860075
0.000000 0.764553 0.859983
0.000000 0.777066 0.858701
0.485451 0.814542 0.854063
0.753170 0.861662 0.849699
0.775723 0.726772 0.836790
0.871336 0.406409 0.822477
1.000000 0.000000 0.830014
0.000000 0.836240 0.852140
0.000000 0.835782 0.852232
0.000000 0.835935 0.852232
0.000000 0.847074 0.850156
0.581231 0.875303 0.844511
0.816220 0.906096 0.841001
0.895872 0.861845 0.827878
0.992309 0.659022 0.820371
0.000000 0.918547 0.855924
0.000000 0.918273 0.855863
0.000000 0.917754 0.855589
0.000000 0.919432 0.854246
0.000000 0.927337 0.849363
0.634699 0.936980 0.840604
0.839841 0.942840 0.830625
0.954833 0.930694 0.807553
