其他预设/【213】赛博朋克科幻预设52款/1.LUT预设（视频调色-PR-AE-PS-FCPX-达芬奇用）/赛博朋克科幻__-4 强度2.cube
# Created by Adobe Lightroom plugin Export LUT (1.17.0)
# www.johnrellis.com/lightroom/exportlut.htm
# Preset: 赛博朋克科幻[素锦印象]-4 强度2
# Color profile: /Library/Application Support/Adobe/Color/Profiles/Recommended/AdobeRGB1998.icc
LUT_3D_SIZE 32
0.000000 0.000000 0.000000
0.028412 0.000000 0.006043
0.060121 0.000000 0.013184
0.085969 0.000000 0.029236
0.111910 0.000000 0.051087
0.138979 0.000000 0.067262
0.166842 0.000000 0.080385
0.196109 0.000000 0.093965
0.226932 0.000000 0.108034
0.259464 0.000000 0.122866
0.294194 0.000000 0.138949
0.330755 0.000000 0.155581
0.368566 0.000000 0.172549
0.407507 0.000000 0.190158
0.446906 0.000000 0.207797
0.486610 0.000000 0.225620
0.526055 0.000000 0.243381
0.564874 0.000000 0.260777
0.602319 0.000000 0.277684
0.638453 0.000000 0.293980
0.673640 0.000000 0.309911
0.708034 0.000000 0.325444
0.741695 0.000000 0.340673
0.774563 0.000000 0.355596
0.806790 0.000000 0.370245
0.838407 0.000000 0.384680
0.869383 0.000000 0.398840
0.899901 0.000000 0.412696
0.929900 0.000000 0.426459
0.959533 0.000000 0.440009
0.988800 0.000000 0.453468
1.000000 0.000000 0.466682
0.008942 0.031434 0.000000
0.031373 0.027649 0.000153
0.059236 0.015045 0.004669
0.086183 0.000000 0.013977
0.111330 0.000000 0.048035
0.137972 0.000000 0.068391
0.166262 0.000000 0.080995
0.195590 0.000000 0.094026
0.226658 0.000000 0.107881
0.259251 0.000000 0.122591
0.293980 0.000000 0.138216
0.330632 0.000000 0.154665
0.368505 0.000000 0.171633
0.407507 0.000000 0.189273
0.447028 0.000000 0.206882
0.486641 0.000000 0.224704
0.526024 0.000000 0.242466
0.564874 0.000000 0.259983
0.602289 0.000000 0.276799
0.638422 0.000000 0.293217
0.673640 0.000000 0.309209
0.708034 0.000000 0.324834
0.741665 0.000000 0.340154
0.774563 0.000000 0.355108
0.806760 0.000000 0.369848
0.838376 0.000000 0.384344
0.869413 0.000000 0.398444
0.899901 0.000000 0.412451
0.929900 0.000000 0.426215
0.959533 0.000000 0.439796
0.988800 0.000000 0.453285
1.000000 0.000000 0.466621
0.018708 0.063416 0.000000
0.045441 0.061616 0.000000
0.062959 0.060212 0.000000
0.084352 0.039887 0.012573
0.112123 0.003113 0.023224
0.139040 0.000000 0.055940
0.166201 0.000000 0.076905
0.194949 0.000000 0.093904
0.226078 0.000000 0.107210
0.258824 0.000000 0.121645
0.293767 0.000000 0.137087
0.330480 0.000000 0.153292
0.368414 0.000000 0.170443
0.407477 0.000000 0.187961
0.446845 0.000000 0.205631
0.486641 0.000000 0.223453
0.526024 0.000000 0.241398
0.564782 0.000000 0.258854
0.602319 0.000000 0.275914
0.638422 0.000000 0.292271
0.673640 0.000000 0.308354
0.708064 0.000000 0.323980
0.741695 0.000000 0.339452
0.774563 0.000000 0.354498
0.806790 0.000000 0.369299
0.838407 0.000000 0.383703
0.869413 0.000000 0.397986
0.899870 0.000000 0.412085
0.929900 0.000000 0.425910
0.959503 0.000000 0.439551
0.988769 0.000000 0.453071
1.000000 0.000000 0.466468
0.041260 0.090181 0.000000
0.059724 0.089174 0.000000
0.072053 0.087709 0.000000
0.089448 0.085023 0.000000
0.110994 0.072267 0.017700
0.138460 0.050996 0.035767
0.168124 0.000000 0.049042
0.197238 0.000000 0.073030
0.227573 0.000000 0.094179
0.259495 0.000000 0.114290
0.293309 0.000000 0.133974
0.330175 0.000000 0.150271
0.368170 0.000000 0.167391
0.407172 0.000000 0.185031
0.446754 0.000000 0.202792
0.486488 0.000000 0.220890
0.525902 0.000000 0.238895
0.564721 0.000000 0.256565
0.602197 0.000000 0.273686
0.638361 0.000000 0.290257
0.673640 0.000000 0.306462
0.708034 0.000000 0.322332
0.741695 0.000000 0.337865
0.774563 0.000000 0.353033
0.806790 0.000000 0.367987
0.838407 0.000000 0.382605
0.869413 0.000000 0.397009
0.899901 0.000000 0.411200
0.929870 0.000000 0.425208
0.959472 0.000000 0.439033
0.988708 0.000000 0.452705
1.000000 0.000000 0.466285
0.065370 0.120180 0.000000
0.073732 0.119448 0.000000
0.083406 0.118227 0.000000
0.100649 0.115846 0.000000
0.118379 0.112551 0.000000
0.139376 0.100984 0.018647
0.166567 0.084810 0.045808
0.198032 0.052338 0.056336
0.230777 0.000000 0.063569
0.263401 0.000000 0.084779
0.297398 0.000000 0.110018
0.333043 0.000000 0.133791
0.369787 0.000000 0.156832
0.407355 0.000000 0.179263
0.446448 0.000000 0.198764
0.486183 0.000000 0.216983
0.525689 0.000000 0.235080
0.564538 0.000000 0.252903
0.602075 0.000000 0.270451
0.638300 0.000000 0.287236
0.673518 0.000000 0.303685
0.708003 0.000000 0.319768
0.741634 0.000000 0.335546
0.774563 0.000000 0.351049
0.806760 0.000000 0.366155
0.838407 0.000000 0.381018
0.869383 0.000000 0.395636
0.899840 0.000000 0.410010
0.929839 0.000000 0.424262
0.959411 0.000000 0.438331
0.988647 0.000000 0.452308
1.000000 0.000000 0.466163
0.082948 0.151827 0.000000
0.089754 0.151247 0.000000
0.097902 0.150301 0.000000
0.112856 0.148501 0.000000
0.131167 0.145357 0.000000
0.149203 0.141726 0.000000
0.170169 0.131624 0.017639
0.197848 0.115480 0.049134
0.230289 0.092561 0.060670
0.265263 0.029328 0.067140
0.301884 0.000000 0.073732
0.338628 0.000000 0.097139
0.375311 0.000000 0.127230
0.412879 0.000000 0.154116
0.450874 0.000000 0.179416
0.488838 0.000000 0.203861
0.526574 0.000000 0.227481
0.564111 0.000000 0.248569
0.601740 0.000000 0.266239
0.638025 0.000000 0.283391
0.673365 0.000000 0.300145
0.707851 0.000000 0.316686
0.741543 0.000000 0.332677
0.774441 0.000000 0.348486
0.806668 0.000000 0.363928
0.838285 0.000000 0.379095
0.869291 0.000000 0.394049
0.899748 0.000000 0.408728
0.929656 0.000000 0.423255
0.959258 0.000000 0.437751
0.988434 0.000000 0.452033
1.000000 0.000000 0.466316
0.101961 0.185031 0.000000
0.107149 0.184329 0.000000
0.114076 0.183719 0.000000
0.127321 0.182101 0.000000
0.145357 0.179843 0.000000
0.163424 0.176608 0.000000
0.182010 0.173007 0.000000
0.203128 0.164309 0.011078
0.232822 0.148043 0.046967
0.265782 0.128634 0.064118
0.303136 0.096498 0.071260
0.341650 0.000000 0.078431
0.381109 0.000000 0.086336
0.420020 0.000000 0.110140
0.457984 0.000000 0.144289
0.495827 0.000000 0.174105
0.533318 0.000000 0.201389
0.570031 0.000000 0.227085
0.605371 0.000000 0.251255
0.639582 0.000000 0.274174
0.672999 0.000000 0.296147
0.707576 0.000000 0.313024
0.741268 0.000000 0.329473
0.774258 0.000000 0.345647
0.806455 0.000000 0.361486
0.838071 0.000000 0.377081
0.869047 0.000000 0.392401
0.899474 0.000000 0.407599
0.929442 0.000000 0.422553
0.958923 0.000000 0.437476
0.988037 0.000000 0.452277
1.000000 0.000000 0.467140
0.121706 0.219486 0.000000
0.126101 0.219120 0.000000
0.132113 0.218601 0.000000
0.143801 0.217350 0.000000
0.160372 0.215427 0.000000
0.179934 0.212955 0.000000
0.197910 0.209903 0.000000
0.217319 0.206424 0.000000
0.238926 0.199313 0.001251
0.270878 0.183658 0.040131
0.304814 0.165560 0.067140
0.343755 0.139925 0.075257
0.383825 0.095552 0.083253
0.424384 0.000000 0.091554
0.464942 0.000000 0.100313
0.504143 0.000000 0.123995
0.541466 0.000000 0.161349
0.577874 0.000000 0.193332
0.612757 0.000000 0.221836
0.646479 0.000000 0.248295
0.679408 0.000000 0.273106
0.711696 0.000000 0.296727
0.743343 0.000000 0.319280
0.774380 0.000000 0.341344
0.806058 0.000000 0.359228
0.837644 0.000000 0.375280
0.868620 0.000000 0.391119
0.899046 0.000000 0.406836
0.928954 0.000000 0.422339
0.958404 0.000000 0.437934
0.987427 0.000000 0.453437
1.000000 0.000000 0.469062
0.142947 0.256382 0.000000
0.146853 0.256046 0.000000
0.152010 0.255589 0.000000
0.162509 0.254612 0.000000
0.177646 0.253330 0.000000
0.196109 0.251347 0.000000
0.216342 0.248936 0.000000
0.235142 0.246220 0.000000
0.255863 0.242924 0.000000
0.278080 0.237797 0.000000
0.312505 0.222751 0.026154
0.348241 0.204898 0.064790
0.386969 0.182498 0.079438
0.428077 0.148379 0.088197
0.468849 0.087373 0.097383
0.509422 0.000000 0.106447
0.549248 0.000000 0.115999
0.587243 0.000000 0.137484
0.621363 0.000000 0.177798
0.654566 0.000000 0.211307
0.686976 0.000000 0.241093
0.718746 0.000000 0.268559
0.749844 0.000000 0.294255
0.780392 0.000000 0.318486
0.810422 0.000000 0.341955
0.839963 0.000000 0.364874
0.869047 0.000000 0.387060
0.898283 0.000000 0.407050
0.928161 0.000000 0.423346
0.957519 0.000000 0.439673
0.986450 0.000000 0.456062
1.000000 0.000000 0.472755
0.165316 0.296086 0.000000
0.168704 0.295872 0.000000
0.173465 0.295537 0.000000
0.183047 0.294865 0.000000
0.197086 0.293858 0.000000
0.214664 0.292363 0.000000
0.234928 0.290562 0.000000
0.255528 0.288334 0.000000
0.275914 0.285832 0.000000
0.297978 0.282872 0.000000
0.319097 0.275914 0.000000
0.356878 0.264195 0.003632
0.394018 0.246586 0.060060
0.431861 0.225315 0.084108
0.473304 0.196109 0.093294
0.514214 0.153017 0.102846
0.554223 0.067262 0.112520
0.592859 0.000000 0.122652
0.629206 0.000000 0.133150
0.663752 0.000000 0.152651
0.695613 0.000000 0.194522
0.726741 0.000000 0.229526
0.757351 0.000000 0.260502
0.787289 0.000000 0.288914
0.816770 0.000000 0.315618
0.845762 0.000000 0.340948
0.874388 0.000000 0.365423
0.902525 0.000000 0.389380
0.930358 0.000000 0.413153
0.957824 0.000000 0.436896
0.985016 0.000000 0.460792
1.000000 0.000000 0.478706
0.188632 0.338354 0.000000
0.191684 0.338201 0.000000
0.195987 0.338018 0.000000
0.204868 0.337469 0.000000
0.218082 0.336645 0.000000
0.234836 0.335668 0.000000
0.254612 0.334264 0.000000
0.276829 0.332586 0.000000
0.297826 0.330541 0.000000
0.319615 0.328313 0.000000
0.343053 0.325628 0.000000
0.362707 0.316472 0.000000
0.403540 0.308293 0.000000
0.441505 0.290166 0.046357
0.479683 0.269047 0.081880
0.519402 0.242710 0.098634
0.559472 0.206271 0.109071
0.597925 0.153445 0.119814
0.633997 0.001892 0.130709
0.668971 0.000000 0.141726
0.702968 0.000000 0.153017
0.735775 0.000000 0.170047
0.765743 0.000000 0.212985
0.795071 0.000000 0.249027
0.823911 0.000000 0.281163
0.852354 0.000000 0.310765
0.880308 0.000000 0.338567
0.907897 0.000000 0.365270
0.935180 0.000000 0.391333
0.962097 0.000000 0.417121
0.988769 0.000000 0.443030
1.000000 0.000000 0.469520
0.212680 0.382635 0.000000
0.215671 0.382574 0.000000
0.219577 0.382300 0.000000
0.227665 0.381964 0.000000
0.240391 0.381445 0.000000
0.256291 0.380591 0.000000
0.275456 0.379706 0.000000
0.297246 0.378393 0.000000
0.321202 0.376776 0.000000
0.342504 0.375067 0.000000
0.365637 0.372930 0.000000
0.390509 0.370581 0.000000
0.408057 0.358770 0.000000
0.451911 0.354284 0.000000
0.489906 0.335210 0.016785
0.527642 0.313603 0.078126
0.565209 0.288396 0.104860
0.603418 0.255802 0.116152
0.639124 0.212955 0.127962
0.673793 0.152224 0.139681
0.707454 0.000000 0.151644
0.740322 0.000000 0.163729
0.772457 0.000000 0.175845
0.803677 0.000000 0.190738
0.831876 0.000000 0.234195
0.859586 0.000000 0.271183
0.886931 0.000000 0.304509
0.913878 0.000000 0.335363
0.940520 0.000000 0.364782
0.966888 0.000000 0.393439
0.992920 0.000000 0.421820
1.000000 0.000000 0.450568
0.237308 0.428199 0.000000
0.240024 0.428138 0.000000
0.243656 0.428016 0.000000
0.251530 0.427710 0.000000
0.263432 0.427283 0.000000
0.278599 0.426764 0.000000
0.297093 0.426062 0.000000
0.318151 0.425025 0.000000
0.341772 0.423865 0.000000
0.366094 0.422522 0.000000
0.388769 0.420874 0.000000
0.413214 0.418921 0.000000
0.439277 0.416785 0.000000
0.454994 0.402777 0.000000
0.500755 0.401221 0.000000
0.538231 0.381048 0.000000
0.575036 0.358404 0.072694
0.609888 0.332769 0.107088
0.644526 0.302373 0.125002
0.678889 0.265019 0.137850
0.712245 0.218448 0.150301
0.744747 0.152712 0.163180
0.776486 0.000000 0.175967
0.807462 0.000000 0.189242
0.837797 0.000000 0.202731
0.867460 0.000000 0.216800
0.894194 0.000000 0.259586
0.920409 0.000000 0.297490
0.946380 0.000000 0.332158
0.972076 0.000000 0.364996
0.997467 0.000000 0.396674
1.000000 0.000000 0.428351
0.262211 0.474250 0.000000
0.264805 0.474159 0.000000
0.268223 0.474067 0.000000
0.275578 0.473915 0.000000
0.286748 0.473518 0.000000
0.301396 0.473091 0.000000
0.319097 0.472602 0.000000
0.339544 0.471931 0.000000
0.362432 0.471015 0.000000
0.387671 0.469978 0.000000
0.411994 0.468696 0.000000
0.435859 0.467231 0.000000
0.461402 0.465400 0.000000
0.488624 0.463478 0.000000
0.505882 0.450324 0.000000
0.549340 0.448554 0.000000
0.585473 0.426307 0.000000
0.619348 0.402014 0.066560
0.651759 0.375494 0.108766
0.684077 0.347204 0.135958
0.717159 0.313664 0.149538
0.749325 0.274266 0.162997
0.780636 0.225956 0.176547
0.811276 0.159762 0.190341
0.841154 0.000000 0.204562
0.870390 0.000000 0.219120
0.899046 0.000000 0.234379
0.927214 0.000000 0.250614
0.952728 0.000000 0.290990
0.977691 0.000000 0.330144
1.000000 0.000000 0.366827
1.000000 0.000000 0.402472
0.287022 0.519921 0.000000
0.289281 0.519829 0.000000
0.292515 0.519707 0.000000
0.299474 0.519646 0.000000
0.310063 0.519371 0.000000
0.324163 0.519127 0.000000
0.340917 0.518730 0.000000
0.360662 0.518090 0.000000
0.382788 0.517510 0.000000
0.407324 0.516686 0.000000
0.433875 0.515770 0.000000
0.457893 0.514519 0.000000
0.482734 0.513146 0.000000
0.509300 0.511559 0.000000
0.537438 0.509697 0.000000
0.556146 0.497383 0.000000
0.595850 0.494453 0.000000
0.628901 0.469612 0.000000
0.660609 0.443824 0.061860
0.691859 0.417456 0.111604
0.722530 0.390509 0.145724
0.753994 0.359991 0.163455
0.784970 0.325200 0.177768
0.815152 0.285313 0.192294
0.844541 0.237797 0.207004
0.873350 0.176577 0.222049
0.901549 0.062928 0.237827
0.929229 0.000000 0.254520
0.956390 0.000000 0.272190
0.983185 0.000000 0.291295
1.000000 0.000000 0.330541
1.000000 0.000000 0.371923
0.310948 0.564202 0.000000
0.313237 0.564141 0.000000
0.316167 0.564050 0.000000
0.322667 0.563958 0.000000
0.332708 0.563745 0.000000
0.345983 0.563470 0.000000
0.361944 0.563073 0.000000
0.380835 0.562676 0.000000
0.402106 0.562097 0.000000
0.425696 0.561425 0.000000
0.451392 0.560510 0.000000
0.478431 0.559533 0.000000
0.502251 0.558251 0.000000
0.527855 0.556817 0.000000
0.554833 0.555200 0.000000
0.583398 0.553307 0.000000
0.603204 0.541711 0.000000
0.638361 0.537530 0.000000
0.669520 0.510948 0.000000
0.700191 0.484718 0.060548
0.730312 0.458442 0.116091
0.759854 0.432074 0.153597
0.789273 0.404700 0.179965
0.819028 0.373144 0.194980
0.848051 0.338781 0.210239
0.876371 0.300481 0.225956
0.904051 0.257053 0.242008
0.931212 0.205966 0.259007
0.957885 0.138338 0.277226
0.984161 0.000000 0.296544
1.000000 0.000000 0.317845
1.000000 0.000000 0.341527
0.333074 0.604944 0.000000
0.335271 0.604883 0.000000
0.338018 0.604822 0.000000
0.344182 0.604761 0.000000
0.353491 0.604547 0.000000
0.365942 0.604303 0.000000
0.381079 0.603937 0.000000
0.399023 0.603510 0.000000
0.419318 0.602930 0.000000
0.441749 0.602289 0.000000
0.466377 0.601495 0.000000
0.492897 0.600549 0.000000
0.519005 0.599451 0.000000
0.543389 0.598138 0.000000
0.569329 0.596612 0.000000
0.596582 0.594965 0.000000
0.625269 0.593042 0.000000
0.646296 0.582574 0.000000
0.678187 0.578088 0.000000
0.708461 0.551293 0.000000
0.738094 0.524590 0.061921
0.767086 0.498299 0.122835
0.795407 0.472541 0.163149
0.823087 0.447608 0.197299
0.851499 0.419074 0.214664
0.879332 0.388617 0.230838
0.906523 0.356298 0.247349
0.933165 0.322454 0.264714
0.959350 0.286503 0.283024
0.985077 0.249180 0.302708
1.000000 0.211032 0.324102
1.000000 0.175906 0.347997
0.353552 0.642267 0.000000
0.355505 0.642176 0.000000
0.358099 0.642176 0.000000
0.363836 0.642054 0.000000
0.372625 0.641871 0.000000
0.384222 0.641657 0.000000
0.398596 0.641321 0.000000
0.415381 0.640925 0.000000
0.434730 0.640467 0.000000
0.456153 0.639857 0.000000
0.479622 0.639216 0.000000
0.504936 0.638422 0.000000
0.532158 0.637446 0.000000
0.557366 0.636408 0.000000
0.582177 0.635248 0.000000
0.608423 0.633936 0.000000
0.636103 0.632502 0.000000
0.665034 0.630823 0.000000
0.687129 0.621454 0.000000
0.714778 0.613519 0.000000
0.745785 0.590295 0.000000
0.774258 0.563256 0.068421
0.802121 0.537011 0.132113
0.829313 0.511864 0.174533
0.855741 0.487831 0.210941
0.882231 0.463294 0.236881
0.908904 0.436011 0.253788
0.935058 0.408362 0.271366
0.960693 0.380560 0.289830
0.985931 0.353399 0.309697
1.000000 0.328252 0.331243
1.000000 0.307317 0.355169
0.372930 0.677516 0.000000
0.374762 0.677516 0.000000
0.377203 0.677455 0.000000
0.382544 0.677394 0.000000
0.390753 0.677272 0.000000
0.401648 0.677058 0.000000
0.415229 0.676844 0.000000
0.431159 0.676509 0.000000
0.449531 0.676204 0.000000
0.469825 0.675746 0.000000
0.492317 0.675166 0.000000
0.516625 0.674525 0.000000
0.542718 0.673793 0.000000
0.570397 0.672969 0.000000
0.594537 0.672053 0.000000
0.619745 0.670954 0.000000
0.646296 0.669825 0.000000
0.674037 0.668513 0.000000
0.703151 0.667018 0.000000
0.726253 0.658778 0.000000
0.749996 0.647761 0.000000
0.781338 0.627955 0.000000
0.808743 0.600702 0.078859
0.835447 0.574640 0.143587
0.861387 0.549889 0.188083
0.886656 0.526879 0.226230
0.911223 0.506004 0.261357
0.936828 0.481544 0.279149
0.961944 0.457588 0.297795
0.986633 0.434638 0.317693
1.000000 0.413916 0.339269
1.000000 0.396918 0.363165
0.391577 0.711543 0.000000
0.393256 0.711513 0.000000
0.395544 0.711482 0.000000
0.400519 0.711421 0.000000
0.408240 0.711360 0.000000
0.418555 0.711208 0.000000
0.431373 0.710964 0.000000
0.446418 0.710719 0.000000
0.463752 0.710475 0.000000
0.483192 0.710109 0.000000
0.504631 0.709682 0.000000
0.527916 0.709163 0.000000
0.552880 0.708553 0.000000
0.579400 0.707881 0.000000
0.606439 0.707027 0.000000
0.630549 0.706203 0.000000
0.656001 0.705287 0.000000
0.682673 0.704219 0.000000
0.710567 0.702998 0.000000
0.739651 0.701717 0.000000
0.763638 0.694545 0.000000
0.783658 0.680781 0.000000
0.815183 0.664240 0.000000
0.841428 0.636866 0.093599
0.866972 0.610925 0.157290
0.891783 0.586633 0.203159
0.915862 0.564538 0.243046
0.939269 0.545281 0.280491
0.963073 0.525628 0.306889
0.987152 0.504906 0.326726
1.000000 0.486244 0.348150
1.000000 0.470954 0.371954
0.409400 0.744289 0.000000
0.410986 0.744259 0.000000
0.413275 0.744228 0.000000
0.417945 0.744198 0.000000
0.425116 0.744106 0.000000
0.434821 0.743984 0.000000
0.446845 0.743801 0.000000
0.461128 0.743618 0.000000
0.477607 0.743374 0.000000
0.496162 0.743069 0.000000
0.516503 0.742702 0.000000
0.538781 0.742275 0.000000
0.562676 0.741787 0.000000
0.588159 0.741176 0.000000
0.615137 0.740505 0.000000
0.640925 0.739742 0.000000
0.665339 0.738949 0.000000
0.690913 0.738125 0.000000
0.717678 0.737148 0.000000
0.745510 0.736019 0.000000
0.774441 0.734829 0.000000
0.799222 0.728695 0.000000
0.815854 0.712428 0.000000
0.847257 0.698970 0.000000
0.872404 0.671473 0.110414
0.896788 0.645777 0.172793
0.920439 0.622065 0.219883
0.943420 0.601007 0.261540
0.965759 0.583093 0.300664
0.987579 0.568414 0.336767
1.000000 0.550805 0.358099
1.000000 0.536156 0.381628
0.426612 0.775723 0.000000
0.428107 0.775723 0.000000
0.430121 0.775662 0.000000
0.434485 0.775662 0.000000
0.441321 0.775601 0.000000
0.450538 0.775479 0.000000
0.461860 0.775326 0.000000
0.475410 0.775113 0.000000
0.491005 0.774960 0.000000
0.508629 0.774655 0.000000
0.528069 0.774380 0.000000
0.549371 0.773983 0.000000
0.572198 0.773587 0.000000
0.596612 0.773037 0.000000
0.622461 0.772427 0.000000
0.649744 0.771725 0.000000
0.674281 0.770993 0.000000
0.698787 0.770321 0.000000
0.724422 0.769497 0.000000
0.751125 0.768551 0.000000
0.778897 0.767514 0.000000
0.807553 0.766354 0.000000
0.833036 0.761227 0.000000
0.846494 0.742824 0.000000
0.877562 0.732235 0.000000
0.901610 0.704799 0.128603
0.924895 0.679316 0.189883
0.947539 0.656245 0.238010
0.969451 0.636103 0.281010
0.990631 0.619623 0.322179
1.000000 0.607752 0.363012
1.000000 0.595544 0.392096
0.443030 0.805905 0.000000
0.444404 0.805905 0.000000
0.446326 0.805905 0.000000
0.450507 0.805844 0.000000
0.456947 0.805753 0.000000
0.465614 0.805661 0.000000
0.476326 0.805570 0.000000
0.489052 0.805417 0.000000
0.503899 0.805234 0.000000
0.520684 0.804929 0.000000
0.539239 0.804685 0.000000
0.559503 0.804349 0.000000
0.581323 0.803922 0.000000
0.604791 0.803433 0.000000
0.629541 0.802914 0.000000
0.655726 0.802274 0.000000
0.682918 0.801511 0.000000
0.706355 0.800870 0.000000
0.730922 0.800137 0.000000
0.756527 0.799344 0.000000
0.783108 0.798428 0.000000
0.810605 0.797391 0.000000
0.838987 0.796292 0.000000
0.864988 0.792081 0.000000
0.875639 0.771847 0.000000
0.906126 0.764004 0.000000
0.929137 0.736538 0.147585
0.951415 0.711452 0.207950
0.973022 0.689052 0.256901
0.993866 0.669886 0.301762
1.000000 0.654780 0.344976
1.000000 0.644984 0.388464
0.458686 0.834928 0.000000
0.459968 0.834928 0.000000
0.461830 0.834867 0.000000
0.465705 0.834836 0.000000
0.471839 0.834775 0.000000
0.479896 0.834684 0.000000
0.490089 0.834562 0.000000
0.502190 0.834409 0.000000
0.516350 0.834195 0.000000
0.532219 0.833951 0.000000
0.549920 0.833677 0.000000
0.569268 0.833371 0.000000
0.590143 0.832944 0.000000
0.612573 0.832486 0.000000
0.636286 0.831968 0.000000
0.661372 0.831357 0.000000
0.687739 0.830655 0.000000
0.713619 0.829923 0.000000
0.737118 0.829282 0.000000
0.761654 0.828519 0.000000
0.787106 0.827695 0.000000
0.813474 0.826780 0.000000
0.840726 0.825772 0.000000
0.868742 0.824643 0.000000
0.895171 0.821317 0.000000
0.903288 0.799527 0.000000
0.933074 0.794125 0.067445
0.955108 0.766903 0.166995
0.976379 0.742214 0.226566
0.996887 0.720394 0.276738
1.000000 0.702296 0.323430
1.000000 0.688777 0.369177
0.473579 0.862699 0.000000
0.474769 0.862669 0.000000
0.476448 0.862669 0.000000
0.480171 0.862638 0.000000
0.485939 0.862516 0.000000
0.493599 0.862455 0.000000
0.503258 0.862333 0.000000
0.514763 0.862181 0.000000
0.528130 0.861967 0.000000
0.543297 0.861723 0.000000
0.560143 0.861448 0.000000
0.578668 0.861112 0.000000
0.598627 0.860716 0.000000
0.620020 0.860258 0.000000
0.642847 0.859739 0.000000
0.666896 0.859159 0.000000
0.692195 0.858457 0.000000
0.718563 0.857725 0.000000
0.743130 0.856992 0.000000
0.766659 0.856291 0.000000
0.791012 0.855528 0.000000
0.816342 0.854673 0.000000
0.842466 0.853727 0.000000
0.869352 0.852689 0.000000
0.896941 0.851560 0.000000
0.923766 0.849088 0.000000
0.929992 0.826413 0.000000
0.958373 0.822477 0.098970
0.979492 0.795773 0.185824
0.999725 0.771420 0.245548
1.000000 0.750362 0.297246
1.000000 0.733364 0.346197
0.487617 0.889403 0.000000
0.488808 0.889403 0.000000
0.490455 0.889372 0.000000
0.493904 0.889342 0.000000
0.499306 0.889250 0.000000
0.506584 0.889158 0.000000
0.515740 0.889036 0.000000
0.526696 0.888853 0.000000
0.539422 0.888640 0.000000
0.553826 0.888396 0.000000
0.569970 0.888090 0.000000
0.587579 0.887755 0.000000
0.606714 0.887358 0.000000
0.627253 0.886900 0.000000
0.649073 0.886412 0.000000
0.672206 0.885801 0.000000
0.696468 0.885130 0.000000
0.721828 0.884367 0.000000
0.748287 0.883482 0.000000
0.771481 0.882780 0.000000
0.794919 0.882048 0.000000
0.819181 0.881254 0.000000
0.844266 0.880339 0.000000
0.870054 0.879362 0.000000
0.896544 0.878264 0.000000
0.923644 0.877104 0.000000
0.950774 0.875395 0.000000
0.956756 0.853208 0.020844
0.981506 0.846708 0.128603
1.000000 0.823087 0.204166
1.000000 0.799130 0.264469
1.000000 0.778866 0.318151
0.500969 0.915160 0.000000
0.502037 0.915129 0.000000
0.503624 0.915129 0.000000
0.506859 0.915068 0.000000
0.512016 0.914977 0.000000
0.518944 0.914885 0.000000
0.527642 0.914733 0.000000
0.538018 0.914580 0.000000
0.550164 0.914336 0.000000
0.563958 0.914092 0.000000
0.579217 0.913787 0.000000
0.596094 0.913420 0.000000
0.614405 0.913024 0.000000
0.634058 0.912566 0.000000
0.655055 0.912016 0.000000
0.677241 0.911406 0.000000
0.700618 0.910735 0.000000
0.725032 0.909941 0.000000
0.750454 0.909056 0.000000
0.776150 0.908141 0.000000
0.798642 0.907408 0.000000
0.821988 0.906615 0.000000
0.846067 0.905699 0.000000
0.870878 0.904723 0.000000
0.896330 0.903655 0.000000
0.922332 0.902495 0.000000
0.948913 0.901213 0.000000
0.975921 0.899870 0.000000
0.981903 0.878416 0.085725
1.000000 0.869627 0.153262
1.000000 0.848783 0.221500
1.000000 0.825284 0.283391
0.513451 0.940002 0.000000
0.514519 0.940002 0.000000
0.515953 0.939971 0.000000
0.519066 0.939910 0.000000
0.523980 0.939849 0.000000
0.530541 0.939696 0.000000
0.538781 0.939574 0.000000
0.548669 0.939391 0.000000
0.560204 0.939147 0.000000
0.573358 0.938872 0.000000
0.588006 0.938537 0.000000
0.604181 0.938170 0.000000
0.621729 0.937743 0.000000
0.640589 0.937255 0.000000
0.660731 0.936675 0.000000
