其他预设/【213】赛博朋克科幻预设52款/1.LUT预设（视频调色-PR-AE-PS-FCPX-达芬奇用）/赛博朋克科幻__-9 强度3.cube
# Created by Adobe Lightroom plugin Export LUT (1.17.0)
# www.johnrellis.com/lightroom/exportlut.htm
# Preset: 赛博朋克科幻[素锦印象]-9 强度3
# Color profile: /Library/Application Support/Adobe/Color/Profiles/Recommended/AdobeRGB1998.icc
LUT_3D_SIZE 32
0.000000 0.000000 0.000000
0.028595 0.001099 0.001312
0.061341 0.002594 0.001221
0.088319 0.006073 0.004120
0.116274 0.011841 0.006806
0.145693 0.017060 0.008148
0.176333 0.025238 0.008728
0.208530 0.034363 0.009522
0.243015 0.046876 0.007568
0.279454 0.058198 0.003754
0.318914 0.065034 0.000000
0.360388 0.072694 0.000000
0.403326 0.081117 0.000000
0.447120 0.090272 0.000000
0.490761 0.099855 0.000000
0.533806 0.109194 0.000000
0.575402 0.118105 0.000000
0.615045 0.126955 0.000000
0.651301 0.135470 0.000000
0.685481 0.143191 0.000000
0.717922 0.150240 0.000000
0.748898 0.156649 0.000000
0.778408 0.162753 0.000000
0.806424 0.168338 0.000000
0.833188 0.173281 0.000000
0.858701 0.178225 0.000000
0.882994 0.183322 0.000000
0.906188 0.188296 0.000000
0.928435 0.193576 0.000000
0.949767 0.199741 0.000000
0.970245 0.207034 0.064637
0.989899 0.215763 0.100435
0.005524 0.019837 0.010132
0.033661 0.027192 0.002319
0.062623 0.019745 0.000000
0.085786 0.028626 0.007935
0.114260 0.033387 0.010742
0.143740 0.040284 0.011994
0.174807 0.047150 0.012696
0.207156 0.055085 0.012329
0.241764 0.061830 0.010407
0.278416 0.067994 0.006470
0.317906 0.074525 0.000000
0.359533 0.081178 0.000000
0.402533 0.089021 0.000000
0.446357 0.097627 0.000000
0.490120 0.106386 0.000000
0.533196 0.115541 0.000000
0.574823 0.124147 0.000000
0.614557 0.132448 0.000000
0.650874 0.140597 0.000000
0.685115 0.147951 0.000000
0.717617 0.154665 0.000000
0.748623 0.160861 0.000000
0.778164 0.166476 0.000000
0.806271 0.172000 0.000000
0.833005 0.176852 0.000000
0.858549 0.181765 0.000000
0.882872 0.186343 0.000000
0.906065 0.191470 0.000000
0.928313 0.196658 0.000000
0.949676 0.202701 0.000000
0.970153 0.209751 0.066590
0.989807 0.218326 0.101625
0.010529 0.046662 0.024048
0.029267 0.054139 0.021668
0.066194 0.059602 0.003388
0.090364 0.043793 0.000000
0.111421 0.056886 0.016510
0.141390 0.061036 0.017700
0.172641 0.064485 0.017243
0.205356 0.068757 0.016754
0.240085 0.073213 0.013794
0.276982 0.078676 0.009766
0.316472 0.084779 0.001923
0.358251 0.091432 0.000000
0.401404 0.098573 0.000000
0.445319 0.106844 0.000000
0.489174 0.115450 0.000000
0.532433 0.123537 0.000000
0.574090 0.131930 0.000000
0.613855 0.139712 0.000000
0.650355 0.147250 0.000000
0.684627 0.154055 0.000000
0.717220 0.160586 0.000000
0.748287 0.166323 0.000000
0.777829 0.171847 0.000000
0.805997 0.176852 0.000000
0.832792 0.181552 0.000000
0.858335 0.186160 0.000000
0.882658 0.190829 0.000000
0.905882 0.195438 0.000000
0.928161 0.200504 0.000000
0.949523 0.206516 0.000000
0.970031 0.213291 0.069032
0.989715 0.221683 0.103365
0.028199 0.074464 0.053376
0.048310 0.077058 0.055726
0.061585 0.079622 0.050721
0.094270 0.084352 0.007782
0.120790 0.070985 0.000000
0.141878 0.076967 0.012818
0.168032 0.083436 0.028595
0.201389 0.087404 0.025788
0.236545 0.091829 0.022583
0.273808 0.096742 0.016236
0.313695 0.102632 0.006928
0.355657 0.108919 0.000000
0.398871 0.116091 0.000000
0.443000 0.123629 0.000000
0.487221 0.131228 0.000000
0.530571 0.139040 0.000000
0.572503 0.146639 0.000000
0.612482 0.153780 0.000000
0.649134 0.160616 0.000000
0.683497 0.166751 0.000000
0.716335 0.172274 0.000000
0.747494 0.177646 0.000000
0.777157 0.182559 0.000000
0.805356 0.187228 0.000000
0.832242 0.191531 0.000000
0.857847 0.195468 0.000000
0.882261 0.199619 0.000000
0.905516 0.204288 0.000000
0.927794 0.208957 0.000000
0.949218 0.214359 0.005066
0.969726 0.221042 0.073732
0.989410 0.229068 0.106996
0.050446 0.094057 0.071107
0.060792 0.096468 0.072114
0.068421 0.100282 0.071839
0.083497 0.103822 0.066407
0.124605 0.111971 0.014557
0.152010 0.095460 0.000000
0.180575 0.098543 0.000000
0.199802 0.105867 0.026276
0.231235 0.112123 0.034028
0.268956 0.117769 0.026001
0.309148 0.123720 0.015259
0.351415 0.130343 0.001190
0.395148 0.137331 0.000000
0.439582 0.144839 0.000000
0.484077 0.152071 0.000000
0.527733 0.159426 0.000000
0.569970 0.166293 0.000000
0.610224 0.172854 0.000000
0.647242 0.178897 0.000000
0.681941 0.184298 0.000000
0.714900 0.189151 0.000000
0.746273 0.193851 0.000000
0.776120 0.198093 0.000000
0.804440 0.202029 0.000000
0.831418 0.205783 0.000000
0.857145 0.209323 0.000000
0.881559 0.213169 0.000000
0.904936 0.216892 0.000000
0.927276 0.221286 0.000000
0.948730 0.226413 0.024903
0.969299 0.232334 0.080903
0.988983 0.240116 0.112306
0.061189 0.114412 0.084993
0.066011 0.116915 0.085206
0.072389 0.120211 0.085267
0.085725 0.125765 0.082399
0.109743 0.132448 0.071199
0.157290 0.140993 0.019745
0.185122 0.121767 0.000000
0.220188 0.124819 0.000000
0.243687 0.130068 0.000000
0.266819 0.137514 0.024781
0.303136 0.144991 0.026368
0.346014 0.152407 0.010224
0.390021 0.160128 0.000000
0.434974 0.167636 0.000000
0.479866 0.175021 0.000000
0.523980 0.182162 0.000000
0.566644 0.188754 0.000000
0.607202 0.194980 0.000000
0.644556 0.200259 0.000000
0.679713 0.205020 0.000000
0.712978 0.209293 0.000000
0.744625 0.213230 0.000000
0.774655 0.216831 0.000000
0.803189 0.220127 0.000000
0.830320 0.223453 0.000000
0.856107 0.226535 0.000000
0.880705 0.229709 0.000000
0.904112 0.233005 0.000000
0.926543 0.236912 0.000000
0.948058 0.241367 0.051606
0.968688 0.246921 0.089723
0.988403 0.254124 0.119631
0.066621 0.136355 0.098970
0.071412 0.138552 0.099123
0.077211 0.141451 0.099123
0.089662 0.147677 0.098054
0.107759 0.153109 0.092164
0.141299 0.163668 0.074281
0.192172 0.171847 0.020752
0.220584 0.149050 0.000000
0.257511 0.153750 0.000000
0.292058 0.159335 0.000000
0.316991 0.165957 0.000000
0.344182 0.173678 0.005921
0.383703 0.182467 0.006043
0.429297 0.190585 0.000000
0.474739 0.198520 0.000000
0.519310 0.205844 0.000000
0.562371 0.212528 0.000000
0.603479 0.218357 0.000000
0.641382 0.223331 0.000000
0.676936 0.227695 0.000000
0.710567 0.231601 0.000000
0.742550 0.234958 0.000000
0.772793 0.237980 0.000000
0.801572 0.240818 0.000000
0.828885 0.243442 0.000000
0.854856 0.245975 0.000000
0.879576 0.248661 0.000000
0.903075 0.251621 0.000000
0.925628 0.254917 0.004181
0.947173 0.259098 0.069337
0.967864 0.264073 0.100008
0.987671 0.270787 0.128206
0.073762 0.159884 0.114046
0.077546 0.161868 0.114137
0.083131 0.164401 0.114351
0.094362 0.170077 0.114015
0.111116 0.177493 0.110506
0.133700 0.182712 0.102937
0.176669 0.197513 0.077424
0.229374 0.204990 0.017914
0.258824 0.178317 0.000000
0.298192 0.184512 0.000000
0.340032 0.192081 0.000000
0.370886 0.198154 0.000000
0.398627 0.204898 0.000000
0.427771 0.212924 0.000000
0.468482 0.221744 0.000000
0.513695 0.229557 0.000000
0.557366 0.236362 0.000000
0.598901 0.242496 0.000000
0.637446 0.247440 0.000000
0.673548 0.251560 0.000000
0.707637 0.255070 0.000000
0.739956 0.258213 0.000000
0.770565 0.260838 0.000000
0.799588 0.263279 0.000000
0.827146 0.265232 0.000000
0.853300 0.267491 0.000000
0.878172 0.269688 0.000000
0.901854 0.272190 0.000000
0.924468 0.275090 0.044190
0.946136 0.278660 0.083467
0.966888 0.283452 0.111330
0.986725 0.289555 0.138491
0.081941 0.185397 0.130800
0.085603 0.187015 0.131075
0.090791 0.189395 0.131380
0.101167 0.194430 0.131441
0.116945 0.202335 0.130037
0.137026 0.208927 0.124178
0.163027 0.214908 0.115450
0.215152 0.234134 0.080934
0.269749 0.240818 0.010925
0.299290 0.212924 0.000000
0.342657 0.216953 0.000000
0.386053 0.225437 0.000000
0.424140 0.232792 0.000000
0.454994 0.238987 0.000000
0.483223 0.245090 0.000000
0.511803 0.252720 0.000000
0.551415 0.260380 0.000000
0.593622 0.266850 0.000000
0.632837 0.272007 0.000000
0.669612 0.276066 0.000000
0.704158 0.279545 0.000000
0.736995 0.282261 0.000000
0.767971 0.284672 0.000000
0.797299 0.286748 0.000000
0.825071 0.288701 0.000000
0.851469 0.290349 0.000000
0.876524 0.292271 0.000000
0.900359 0.294316 0.019409
0.923095 0.296818 0.071046
0.944884 0.300023 0.098299
0.965728 0.304265 0.124025
0.985626 0.310185 0.149783
0.091371 0.212558 0.149050
0.094850 0.214145 0.149264
0.099458 0.216281 0.149508
0.109224 0.220859 0.149813
0.123995 0.227970 0.149325
0.143069 0.236851 0.145968
0.166201 0.242863 0.138643
0.197391 0.251774 0.125795
0.257450 0.273716 0.083864
0.313573 0.279820 0.000000
0.342687 0.249943 0.000000
0.389654 0.250919 0.000000
0.433997 0.259495 0.000000
0.478248 0.268223 0.000000
0.508629 0.272923 0.000000
0.537987 0.278325 0.000000
0.564599 0.283574 0.000000
0.590784 0.290440 0.000000
0.627558 0.296422 0.000000
0.664973 0.300816 0.000000
0.700221 0.304265 0.000000
0.733486 0.307073 0.000000
0.764920 0.309239 0.000000
0.794614 0.311162 0.000000
0.822690 0.312749 0.000000
0.849363 0.314275 0.000000
0.874632 0.315801 0.010163
0.898619 0.317540 0.063386
0.921538 0.319799 0.089326
0.943420 0.322667 0.113436
0.964355 0.326696 0.137331
0.984314 0.332158 0.162509
0.101320 0.241215 0.168368
0.104646 0.242679 0.168551
0.108888 0.244755 0.168856
0.118105 0.248966 0.169192
0.132052 0.255619 0.169223
0.150179 0.264500 0.167758
0.171878 0.272343 0.162203
0.198184 0.279271 0.153933
0.237125 0.292943 0.134188
0.303075 0.316381 0.085542
0.360266 0.321294 0.000000
0.388190 0.289006 0.000000
0.438331 0.286381 0.000000
0.482673 0.294133 0.000000
0.526055 0.301976 0.000000
0.560815 0.306981 0.000000
0.589227 0.310887 0.000000
0.614649 0.314427 0.000000
0.637903 0.318761 0.000000
0.661067 0.325017 0.000000
0.695705 0.329046 0.000000
0.729549 0.331914 0.000000
0.761471 0.334264 0.000000
0.791531 0.336004 0.000000
0.819974 0.337591 0.000000
0.846891 0.338842 0.016968
0.872404 0.340124 0.062013
0.896635 0.341680 0.084993
0.919707 0.343694 0.106966
0.941741 0.346258 0.128878
0.962768 0.350042 0.151827
0.982818 0.355444 0.176486
0.111635 0.271519 0.188693
0.114717 0.272923 0.189029
0.119020 0.274784 0.189303
0.127687 0.278660 0.189670
0.140902 0.284916 0.189975
0.157992 0.293309 0.189425
0.179049 0.303563 0.186343
0.203403 0.310399 0.178958
0.232883 0.318181 0.169650
0.280369 0.336553 0.142184
0.351141 0.361028 0.086030
0.408759 0.364263 0.000000
0.434943 0.329381 0.000000
0.487648 0.322515 0.000000
0.530755 0.328893 0.000000
0.572290 0.335027 0.000000
0.610407 0.340154 0.000000
0.635859 0.341558 0.000000
0.660090 0.343755 0.000000
0.681392 0.346105 0.000000
0.702815 0.350469 0.000000
0.725093 0.356909 0.000000
0.757534 0.359319 0.000000
0.788052 0.361212 0.008118
0.816892 0.362646 0.039582
0.844144 0.363897 0.066926
0.869932 0.365057 0.085695
0.894347 0.366522 0.104768
0.917632 0.368292 0.124392
0.939818 0.370764 0.145052
0.960937 0.374395 0.167330
0.981079 0.379583 0.191501
0.122286 0.303288 0.209934
0.125368 0.304479 0.210147
0.129091 0.306340 0.210452
0.137697 0.309972 0.210941
0.150210 0.315862 0.211460
0.166567 0.323796 0.211276
0.186709 0.333684 0.209659
0.209873 0.342718 0.204288
0.237461 0.350317 0.196048
0.269322 0.358770 0.186038
0.325841 0.381781 0.149905
0.400610 0.406622 0.085206
0.458045 0.408026 0.000000
0.482094 0.370520 0.000000
0.536034 0.358343 0.000000
0.577203 0.362982 0.000000
0.616205 0.366949 0.000000
0.651637 0.369909 0.000000
0.677760 0.370306 0.000000
0.700649 0.370947 0.000000
0.721767 0.372259 0.000000
0.741604 0.375128 0.000000
0.761349 0.380529 0.000000
0.784207 0.386389 0.064912
0.813474 0.387915 0.076783
0.841032 0.389197 0.091035
0.867124 0.390356 0.106874
0.891814 0.391730 0.123598
0.915282 0.393378 0.142092
0.937652 0.395850 0.161807
0.958923 0.399359 0.183658
0.979126 0.404456 0.207767
0.133303 0.336126 0.231907
0.136202 0.337285 0.232090
0.139834 0.338933 0.232364
0.147890 0.342382 0.232944
0.160037 0.347814 0.233433
0.175875 0.355200 0.233677
0.195254 0.364538 0.232883
0.217960 0.375738 0.229862
0.243381 0.383185 0.222660
0.273472 0.391424 0.213779
0.309514 0.402106 0.200412
0.373114 0.427558 0.157198
0.450202 0.452369 0.084443
0.506645 0.451362 0.000000
0.530816 0.413184 0.000000
0.582727 0.393286 0.000000
0.620935 0.395514 0.000000
0.655787 0.396796 0.000000
0.688106 0.397375 0.000000
0.716854 0.397650 0.000000
0.738308 0.397009 0.000000
0.759182 0.397314 0.000000
0.777646 0.398718 0.000000
0.796017 0.402808 0.000000
0.814054 0.409949 0.066346
0.837613 0.414527 0.112825
0.864042 0.415747 0.126833
0.889006 0.417121 0.142519
0.912688 0.418860 0.160037
0.935210 0.421332 0.179568
0.956603 0.424842 0.201053
0.976928 0.429999 0.225101
0.144869 0.369665 0.254368
0.147463 0.370764 0.254612
0.150942 0.372168 0.254856
0.158785 0.375494 0.255344
0.170474 0.380591 0.255985
0.185824 0.387457 0.256382
0.204379 0.396124 0.256199
0.226566 0.406470 0.254673
0.251133 0.416236 0.249821
0.279118 0.424231 0.241825
0.310979 0.432898 0.232303
0.353460 0.447700 0.211887
0.420508 0.472724 0.164889
0.498970 0.496803 0.084260
0.553643 0.493141 0.000000
0.577539 0.454353 0.000000
0.626093 0.426276 0.000000
0.660273 0.425635 0.000000
0.692103 0.424659 0.000000
0.722530 0.423926 0.000000
0.751583 0.423224 0.000000
0.773526 0.421820 0.000000
0.793729 0.421088 0.000000
0.811185 0.421118 0.000000
0.828275 0.424048 0.000000
0.845060 0.430365 0.002594
0.861448 0.440345 0.141604
0.885924 0.442725 0.161685
0.909819 0.444587 0.178836
0.932525 0.447120 0.198032
0.954040 0.450721 0.219425
0.974487 0.455909 0.243595
0.156710 0.403449 0.277317
0.159335 0.404547 0.277562
0.162570 0.405798 0.277714
0.170169 0.408850 0.278264
0.181521 0.413581 0.278843
0.196384 0.419959 0.279454
0.214664 0.427955 0.279698
0.236210 0.437476 0.279210
0.260838 0.448615 0.277134
0.286442 0.456703 0.270390
0.316167 0.465034 0.261906
0.349554 0.473945 0.251682
0.397986 0.492287 0.224094
0.467170 0.516381 0.173465
0.545739 0.539086 0.086702
0.597925 0.532616 0.000000
0.620569 0.492744 0.000000
0.663172 0.459876 0.000000
0.696376 0.453834 0.000000
0.726375 0.451514 0.000000
0.755062 0.449378 0.000000
0.782528 0.447425 0.000000
0.806424 0.445411 0.000000
0.825437 0.443549 0.000000
0.842344 0.442512 0.000000
0.858396 0.444343 0.000000
0.874052 0.449928 0.000000
0.889311 0.459724 0.137728
0.906645 0.470375 0.198276
0.929534 0.473060 0.217319
0.951232 0.476783 0.238804
0.971771 0.482155 0.263066
0.169680 0.437140 0.300359
0.172000 0.438087 0.300511
0.175418 0.439368 0.300755
0.182650 0.442176 0.301335
0.193729 0.446571 0.302037
0.208072 0.452430 0.302831
0.225772 0.459754 0.303471
0.246830 0.468482 0.303685
0.270726 0.478676 0.302892
0.296147 0.488563 0.299107
0.323247 0.496468 0.291783
0.353979 0.504814 0.282750
0.388006 0.513603 0.272282
0.442329 0.534966 0.236790
0.512047 0.557580 0.183169
0.588586 0.577661 0.094148
0.637537 0.568231 0.000000
0.659052 0.527825 0.000000
0.697108 0.492134 0.000000
0.730404 0.480873 0.000000
0.758724 0.477241 0.000000
0.785794 0.473823 0.000000
0.811704 0.470558 0.000000
0.836454 0.467720 0.000000
0.855070 0.464820 0.000000
0.871305 0.462745 0.000000
0.886442 0.463569 0.000000
0.901183 0.468544 0.000000
0.915496 0.478401 0.133944
0.929046 0.494209 0.220890
0.948119 0.503014 0.259129
0.968780 0.508507 0.283574
0.183505 0.470436 0.323552
0.186007 0.471290 0.323705
0.189242 0.472480 0.324041
0.196231 0.475044 0.324620
0.207065 0.479011 0.325383
0.221042 0.484321 0.326360
0.238376 0.490974 0.327306
0.258396 0.499001 0.327886
0.281712 0.508324 0.328252
0.307652 0.518822 0.327459
0.332769 0.526970 0.321721
0.360723 0.534874 0.314000
0.392096 0.543359 0.304845
0.427497 0.553002 0.292424
0.485634 0.575402 0.251011
0.554009 0.595453 0.195438
0.628016 0.612726 0.108064
0.674434 0.601495 0.000000
0.694972 0.560876 0.000000
0.729061 0.523095 0.000000
0.762509 0.506645 0.000000
0.789181 0.501793 0.000000
0.814755 0.497200 0.000000
0.839261 0.492775 0.000000
0.862638 0.488685 0.000000
0.882719 0.485023 0.000000
0.898314 0.481880 0.000000
0.912718 0.481788 0.000000
0.926696 0.486336 0.000000
0.940093 0.496407 0.130861
0.952636 0.513390 0.229862
0.965545 0.534905 0.304906
0.199283 0.503838 0.347387
0.201511 0.504601 0.347631
0.204654 0.505638 0.347845
0.211521 0.508019 0.348425
0.221897 0.511620 0.349279
0.235477 0.516503 0.350439
0.252232 0.522637 0.351629
0.272038 0.529900 0.352758
0.294560 0.538445 0.353857
0.319432 0.548089 0.354376
0.345434 0.557671 0.352422
0.370794 0.565148 0.345708
0.399359 0.573022 0.337926
0.430762 0.581048 0.328588
0.469398 0.593133 0.310216
0.527306 0.613214 0.267247
0.594049 0.631037 0.210391
0.664851 0.645502 0.126894
0.709163 0.632868 0.023651
0.728756 0.592279 0.000000
0.759243 0.552728 0.000000
0.792752 0.531273 0.000000
0.817868 0.525353 0.000000
0.841978 0.519615 0.000000
0.865141 0.514000 0.000000
0.887327 0.508751 0.000000
0.908629 0.504082 0.000000
0.923583 0.500084 0.000000
0.937377 0.499092 0.000000
0.950683 0.503166 0.000000
0.963287 0.513756 0.128756
0.974823 0.532525 0.241276
0.216739 0.537591 0.372045
0.218875 0.538293 0.372320
0.222019 0.539269 0.372564
0.228397 0.541405 0.373144
0.238560 0.544701 0.374121
0.251865 0.549126 0.375341
0.268132 0.554772 0.376837
0.287327 0.561364 0.378332
0.309117 0.569055 0.379889
0.333562 0.577569 0.381415
0.360296 0.586969 0.382696
0.384497 0.594598 0.378515
0.410010 0.601740 0.371710
0.438422 0.609125 0.363867
0.469215 0.616571 0.354589
0.510460 0.630610 0.330022
0.567346 0.648554 0.285893
0.631952 0.664393 0.228122
0.699794 0.676417 0.148501
0.741848 0.662531 0.081239
0.760525 0.622065 0.000000
0.787594 0.581109 0.000000
0.821134 0.554772 0.000000
0.844755 0.547814 0.000000
0.867552 0.540948 0.000000
0.889494 0.534234 0.000000
0.910643 0.527855 0.000000
0.930999 0.522271 0.000000
0.947234 0.517357 0.000000
0.960601 0.515435 0.000000
0.973327 0.519219 0.000000
0.985138 0.530541 0.128023
0.236057 0.571557 0.397528
0.238224 0.572168 0.397742
0.241184 0.573022 0.398016
0.247654 0.574914 0.398688
0.257328 0.577905 0.399695
0.270390 0.581781 0.400977
0.286168 0.586633 0.402625
0.304875 0.592401 0.404517
0.326299 0.598993 0.406592
0.349950 0.606439 0.408881
0.375891 0.614649 0.411231
0.402136 0.622919 0.412024
0.424537 0.629450 0.406287
0.449714 0.636225 0.399634
0.477333 0.643183 0.391852
0.507103 0.650172 0.382696
0.550347 0.665583 0.351843
0.605524 0.681666 0.306828
0.667842 0.695705 0.248020
0.732570 0.705592 0.172519
0.772457 0.690578 0.114900
0.790311 0.650324 0.015930
0.814298 0.608118 0.000000
0.847684 0.577111 0.000000
0.869993 0.569177 0.000000
0.891600 0.561273 0.000000
0.912474 0.553521 0.000000
0.932738 0.546166 0.000000
0.952270 0.539574 0.000000
0.969451 0.533623 0.000000
0.982422 0.530877 0.000000
0.994629 0.534386 0.000000
0.258244 0.604395 0.423377
0.260349 0.604974 0.423590
0.263066 0.605707 0.423865
0.269352 0.607324 0.424628
0.278813 0.609857 0.425727
0.291508 0.613214 0.427131
0.306859 0.617426 0.428931
0.324987 0.622370 0.431128
0.345678 0.628138 0.433631
0.368750 0.634577 0.436591
0.393835 0.641688 0.439948
0.420813 0.649409 0.443641
0.443336 0.656123 0.441627
0.465126 0.662409 0.435950
0.489418 0.668788 0.429358
0.515953 0.675288 0.421637
0.544518 0.682002 0.412329
0.588800 0.698268 0.375677
0.641840 0.712642 0.329961
0.701717 0.725032 0.270237
0.763546 0.733089 0.198398
0.801144 0.717037 0.146487
0.818173 0.677150 0.089631
0.839384 0.634028 0.000000
0.872526 0.598383 0.000000
0.893645 0.589563 0.000000
0.914214 0.580713 0.000000
0.934234 0.571923 0.000000
0.953674 0.563500 0.000000
0.972412 0.556023 0.000000
0.989899 0.548974 0.000000
1.000000 0.545464 0.000000
0.283268 0.635859 0.449561
0.285191 0.636347 0.449805
0.287907 0.636988 0.450202
0.293889 0.638361 0.450904
0.303075 0.640558 0.452064
0.315160 0.643458 0.453620
0.330022 0.647059 0.455695
0.347448 0.651331 0.458167
0.367620 0.656336 0.461189
0.389807 0.661921 0.464668
0.413977 0.668086 0.468788
0.439826 0.674800 0.473396
0.465736 0.681758 0.477241
0.484596 0.687587 0.472541
0.505577 0.693538 0.466987
0.528740 0.699580 0.460639
0.553796 0.705623 0.453040
0.583124 0.714168 0.438392
0.625727 0.728817 0.401373
0.676478 0.741634 0.354925
0.733669 0.752560 0.294591
0.792538 0.758968 0.226169
0.827970 0.742000 0.177737
0.844205 0.702541 0.127871
0.862821 0.658717 0.022370
0.894652 0.621790 0.000000
0.915831 0.608942 0.000000
0.935546 0.599145 0.000000
0.954803 0.589319 0.000000
0.973510 0.579889 0.000000
0.991516 0.571435 0.000000
1.000000 0.564050 0.000000
0.310887 0.666102 0.476234
0.312779 0.666468 0.476539
0.315373 0.667018 0.476936
0.320989 0.668208 0.477699
0.329839 0.670069 0.478950
0.341283 0.672572 0.480690
0.355718 0.675624 0.482918
0.372442 0.679347 0.485725
0.391791 0.683589 0.489082
0.413062 0.688441 0.493050
0.436286 0.693782 0.497719
0.461036 0.699611 0.503014
0.487160 0.705867 0.509026
0.507744 0.711757 0.509270
0.525689 0.717250 0.504753
0.545586 0.722896 0.499367
0.567346 0.728573 0.493141
0.590875 0.734249 0.485817
0.620386 0.744198 0.465980
0.661036 0.757351 0.428656
0.709224 0.768765 0.381720
0.763699 0.778317 0.320714
0.819669 0.783291 0.255406
0.852964 0.765469 0.209110
0.868437 0.726619 0.162142
0.884825 0.682338 0.097780
0.915160 0.645075 0.000000
0.936736 0.627405 0.000000
0.955657 0.616632 0.000000
0.974212 0.605707 0.000000
0.992218 0.595300 0.000000
1.000000 0.586206 0.000000
0.340856 0.695033 0.503471
0.342565 0.695369 0.503716
0.345098 0.695857 0.504143
0.350530 0.696864 0.504997
0.358862 0.698421 0.506371
0.369940 0.700557 0.508293
0.383673 0.703182 0.510735
0.399695 0.706325 0.513756
0.418097 0.709987 0.517449
0.438483 0.714137 0.521813
0.460517 0.718776 0.526818
0.484291 0.723812 0.532708
0.508934 0.729305 0.539147
0.533440 0.735164 0.545281
0.548760 0.740261 0.541711
0.565850 0.745480 0.537438
0.584588 0.750729 0.532372
0.604974 0.756039 0.526452
0.626886 0.761288 0.519493
0.656275 0.772305 0.494942
0.694667 0.784054 0.457496
0.740169 0.794156 0.410132
0.791897 0.802487 0.348394
0.845060 0.806210 0.285771
0.876310 0.787778 0.240757
0.891142 0.749477 0.194644
0.905821 0.705165 0.136995
0.934478 0.667384 0.000000
0.956298 0.644923 0.000000
0.974517 0.633082 0.000000
0.992462 0.621027 0.000000
1.000000 0.609674 0.000000
0.373205 0.722835 0.531273
0.374945 0.723140 0.531609
0.377295 0.723537 0.532006
0.382422 0.724392 0.532982
0.390234 0.725704 0.534447
0.400793 0.727504 0.536431
0.413703 0.729732 0.539055
0.428992 0.732418 0.542290
0.446448 0.735561 0.546227
0.465705 0.739101 0.550866
0.486824 0.743069 0.556268
0.508904 0.747494 0.562158
0.531762 0.752316 0.568536
0.555138 0.757565 0.575311
0.573480 0.762692 0.577111
0.588128 0.767453 0.573724
0.604273 0.772335 0.569665
0.621881 0.777218 0.564904
0.640894 0.782101 0.559289
0.661280 0.786954 0.552789
0.690578 0.798581 0.524315
0.726711 0.809018 0.487404
0.769467 0.817960 0.439765
0.818418 0.825223 0.377630
0.868864 0.827817 0.317296
0.898131 0.808896 0.272709
0.912322 0.771267 0.226658
0.926421 0.727718 0.170535
0.952575 0.688746 0.073579
0.974578 0.661433 0.000000
0.992248 0.648493 0.000000
1.000000 0.635218 0.000000
0.407538 0.749630 0.559777
0.409186 0.749874 0.560113
0.411414 0.750179 0.560540
0.416144 0.750912 0.561547
0.423651 0.752041 0.563073
0.433478 0.753567 0.565240
0.445686 0.755459 0.567956
0.460212 0.757717 0.571405
0.476722 0.760372 0.575555
0.494759 0.763424 0.580255
0.514061 0.766873 0.585443
0.534417 0.770718 0.591241
0.555566 0.774929 0.597467
0.577264 0.779538 0.604120
0.599298 0.784512 0.611017
0.612085 0.788907 0.608545
0.625971 0.793393 0.605310
0.641077 0.797910 0.601526
0.657557 0.802396 0.597040
0.675257 0.806882 0.591730
0.695155 0.812741 0.581750
0.723079 0.823209 0.553735
0.757046 0.832486 0.517845
0.797116 0.840330 0.470588
0.843381 0.846616 0.407782
0.891112 0.848264 0.349889
0.918456 0.828855 0.305272
0.932097 0.791928 0.258030
0.945678 0.749142 0.201663
0.969543 0.709041 0.116304
0.991638 0.676905 0.000000
1.000000 0.662715 0.000000
0.443732 0.775448 0.588983
0.445319 0.775631 0.589349
0.447364 0.775906 0.589807
0.451911 0.776486 0.590845
0.458930 0.777432 0.592493
0.468147 0.778714 0.594720
0.479530 0.780331 0.597528
0.492744 0.782254 0.600855
0.507774 0.784543 0.604822
0.524315 0.787167 0.609400
0.542016 0.790158 0.614405
0.560845 0.793484 0.619989
0.580346 0.797147 0.626032
0.600488 0.801175 0.632502
0.620966 0.805539 0.639246
