其他预设/【213】赛博朋克科幻预设52款/1.LUT预设（视频调色-PR-AE-PS-FCPX-达芬奇用）/赛博朋克科幻__-7 强度2.cube
# Created by Adobe Lightroom plugin Export LUT (1.17.0)
# www.johnrellis.com/lightroom/exportlut.htm
# Preset: 赛博朋克科幻[素锦印象]-7 强度2
# Color profile: /Library/Application Support/Adobe/Color/Profiles/Recommended/AdobeRGB1998.icc
LUT_3D_SIZE 32
0.049317 0.070375 0.063386
0.049317 0.070375 0.063386
0.061097 0.070527 0.063172
0.090364 0.072450 0.061982
0.122805 0.076997 0.059907
0.156008 0.082948 0.055451
0.190707 0.090242 0.047913
0.227329 0.098665 0.035065
0.265934 0.108278 0.018158
0.306401 0.119173 0.000000
0.349065 0.130617 0.000000
0.392981 0.143343 0.000000
0.437781 0.156527 0.000000
0.483101 0.170413 0.000000
0.528252 0.184421 0.000000
0.572930 0.198215 0.000000
0.615778 0.211063 0.000000
0.655421 0.222782 0.000000
0.691981 0.233341 0.000000
0.727108 0.243656 0.000000
0.761044 0.253605 0.000000
0.793942 0.263279 0.000000
0.825711 0.272648 0.000000
0.856352 0.281651 0.000000
0.885924 0.289464 0.000000
0.914427 0.296330 0.000000
0.941924 0.302464 0.000000
0.968597 0.308080 0.000000
0.994446 0.313085 0.000000
1.000000 0.317601 0.000000
1.000000 0.321416 0.000000
1.000000 0.324712 0.000000
0.049317 0.070375 0.063386
0.049317 0.070375 0.063386
0.061891 0.071962 0.062989
0.090333 0.075898 0.061646
0.122713 0.081270 0.059449
0.155734 0.087221 0.054536
0.190585 0.094636 0.046815
0.227207 0.102907 0.033539
0.265751 0.112154 0.016663
0.306401 0.122744 0.000000
0.348974 0.134249 0.000000
0.392889 0.146609 0.000000
0.437659 0.159640 0.000000
0.482979 0.173373 0.000000
0.528191 0.187106 0.000000
0.572930 0.200534 0.000000
0.615625 0.212863 0.000000
0.655299 0.224247 0.000000
0.691920 0.234989 0.000000
0.727047 0.245029 0.000000
0.760983 0.255039 0.000000
0.793912 0.264469 0.000000
0.825711 0.273777 0.000000
0.856352 0.282719 0.000000
0.885924 0.290867 0.000000
0.914427 0.297704 0.000000
0.941955 0.303777 0.000000
0.968566 0.309331 0.000000
0.994446 0.314305 0.000000
1.000000 0.318639 0.000000
1.000000 0.322545 0.000000
1.000000 0.325750 0.000000
0.049195 0.070771 0.063325
0.050507 0.072999 0.063111
0.062470 0.074983 0.062684
0.090517 0.080140 0.061189
0.122530 0.085878 0.058900
0.155703 0.092653 0.053223
0.190402 0.099916 0.045014
0.226932 0.107973 0.031678
0.265599 0.117159 0.014557
0.306126 0.127352 0.000000
0.348791 0.138735 0.000000
0.392706 0.150820 0.000000
0.437537 0.163851 0.000000
0.482918 0.177188 0.000000
0.528038 0.190158 0.000000
0.572839 0.202884 0.000000
0.615534 0.215152 0.000000
0.655177 0.226535 0.000000
0.691859 0.236942 0.000000
0.726955 0.247074 0.000000
0.760952 0.256840 0.000000
0.793881 0.266270 0.000000
0.825650 0.275456 0.000000
0.856352 0.284245 0.000000
0.885893 0.292790 0.000000
0.914427 0.299474 0.000000
0.941924 0.305516 0.000000
0.968566 0.311040 0.000000
0.994446 0.315892 0.000000
1.000000 0.320226 0.000000
1.000000 0.323949 0.000000
1.000000 0.327153 0.000000
0.038911 0.091279 0.063722
0.045838 0.093111 0.060822
0.062776 0.094575 0.060334
0.090455 0.093599 0.059541
0.122591 0.097322 0.056336
0.155520 0.101717 0.050843
0.189975 0.108614 0.041810
0.226535 0.116854 0.028077
0.265202 0.125887 0.010712
0.305821 0.136202 0.000000
0.348394 0.147189 0.000000
0.392432 0.158785 0.000000
0.437171 0.170901 0.000000
0.482521 0.183261 0.000000
0.527794 0.195804 0.000000
0.572534 0.208164 0.000000
0.615351 0.220035 0.000000
0.654994 0.231144 0.000000
0.691676 0.241398 0.000000
0.726802 0.251164 0.000000
0.760861 0.260807 0.000000
0.793790 0.269902 0.000000
0.825620 0.278813 0.000000
0.856321 0.287480 0.000000
0.885863 0.295995 0.000000
0.914366 0.303532 0.000000
0.941894 0.309300 0.000000
0.968566 0.314672 0.000000
0.994446 0.319402 0.000000
1.000000 0.323552 0.000000
1.000000 0.327153 0.000000
1.000000 0.330175 0.000000
0.022919 0.113619 0.064454
0.024353 0.115236 0.058961
0.056519 0.115846 0.061067
0.084443 0.118013 0.058991
0.120058 0.115908 0.053559
0.155184 0.118746 0.045289
0.189639 0.121859 0.036164
0.225956 0.128634 0.022766
0.264652 0.136965 0.005310
0.305241 0.146731 0.000000
0.347875 0.157168 0.000000
0.391821 0.168429 0.000000
0.436713 0.180026 0.000000
0.482002 0.191989 0.000000
0.527306 0.204135 0.000000
0.572107 0.216129 0.000000
0.615015 0.227665 0.000000
0.654597 0.238285 0.000000
0.691402 0.248142 0.000000
0.726650 0.257694 0.000000
0.760678 0.266911 0.000000
0.793698 0.275669 0.000000
0.825559 0.284276 0.000000
0.856291 0.292729 0.000000
0.885863 0.300847 0.000000
0.914366 0.308629 0.000000
0.941863 0.315343 0.000000
0.968536 0.320226 0.000000
0.994446 0.324743 0.000000
1.000000 0.328710 0.000000
1.000000 0.332067 0.000000
1.000000 0.334936 0.000000
0.002136 0.136355 0.065461
0.009491 0.137484 0.061769
0.049378 0.138003 0.066255
0.077516 0.140108 0.065614
0.113802 0.142824 0.062654
0.150179 0.140475 0.059052
0.188907 0.144747 0.047211
0.225315 0.147890 0.029969
0.263523 0.152377 0.010010
0.304326 0.161044 0.000000
0.347021 0.170901 0.000000
0.390997 0.181704 0.000000
0.435828 0.192782 0.000000
0.481270 0.204288 0.000000
0.526574 0.216037 0.000000
0.571435 0.227665 0.000000
0.614343 0.238865 0.000000
0.654047 0.248966 0.000000
0.690822 0.258366 0.000000
0.726192 0.267277 0.000000
0.760342 0.276005 0.000000
0.793423 0.284306 0.000000
0.825345 0.292302 0.000000
0.856168 0.299962 0.000000
0.885832 0.307256 0.000000
0.914366 0.314794 0.000000
0.941894 0.322118 0.000000
0.968536 0.327733 0.000000
0.994446 0.331914 0.000000
1.000000 0.335546 0.000000
1.000000 0.338689 0.000000
1.000000 0.341283 0.000000
0.000000 0.160433 0.066896
0.000000 0.161013 0.067720
0.025422 0.161898 0.068025
0.073487 0.163485 0.072206
0.100740 0.166903 0.069795
0.145174 0.169528 0.065614
0.182681 0.166964 0.062379
0.224704 0.172641 0.049226
0.263218 0.176333 0.029999
0.303258 0.180972 0.008240
0.345556 0.188571 0.000000
0.389654 0.198489 0.000000
0.434546 0.209110 0.000000
0.480171 0.219883 0.000000
0.525658 0.230869 0.000000
0.570550 0.241794 0.000000
0.613550 0.252415 0.000000
0.653376 0.261784 0.000000
0.690272 0.270451 0.000000
0.725734 0.278721 0.000000
0.759945 0.286931 0.000000
0.793149 0.294835 0.000000
0.825101 0.302281 0.000000
0.855955 0.309545 0.000000
0.885679 0.316411 0.000000
0.914305 0.322789 0.000000
0.941894 0.329351 0.000000
0.968536 0.336126 0.000000
0.994446 0.340673 0.000000
1.000000 0.343999 0.000000
1.000000 0.346777 0.000000
1.000000 0.349157 0.000000
0.000000 0.185458 0.075044
0.000000 0.186130 0.075074
0.004150 0.187076 0.074250
0.066896 0.188510 0.078645
0.097444 0.191684 0.076722
0.132845 0.195254 0.073548
0.179263 0.198611 0.069154
0.217777 0.195743 0.065980
0.262760 0.202457 0.053956
0.303288 0.206638 0.029786
0.345251 0.211429 0.002319
0.388190 0.216922 0.000000
0.433326 0.226871 0.000000
0.478950 0.237156 0.000000
0.524559 0.247593 0.000000
0.569604 0.257816 0.000000
0.612665 0.267704 0.000000
0.652552 0.276463 0.000000
0.689601 0.284550 0.000000
0.725124 0.292241 0.000000
0.759518 0.299657 0.000000
0.792752 0.306950 0.000000
0.824826 0.313878 0.000000
0.855741 0.320623 0.000000
0.885527 0.327001 0.000000
0.914214 0.333074 0.000000
0.941833 0.338872 0.000000
0.968597 0.344427 0.000000
0.994446 0.350591 0.000000
1.000000 0.353918 0.000000
1.000000 0.356390 0.000000
1.000000 0.358373 0.000000
0.000000 0.213016 0.083803
0.000000 0.213718 0.082887
0.000000 0.214542 0.081575
0.035462 0.216403 0.078767
0.093324 0.218784 0.084565
0.124880 0.222690 0.082063
0.168460 0.226596 0.077974
0.216312 0.230686 0.072480
0.255863 0.226841 0.069398
0.303471 0.234440 0.056611
0.345769 0.238956 0.028534
0.388983 0.243748 0.000000
0.432776 0.248905 0.000000
0.477729 0.256168 0.000000
0.523278 0.265965 0.000000
0.568414 0.275792 0.000000
0.611658 0.284916 0.000000
0.651698 0.293004 0.000000
0.688777 0.300328 0.000000
0.724483 0.307286 0.000000
0.758938 0.314244 0.000000
0.792355 0.320775 0.000000
0.824521 0.327184 0.000000
0.855528 0.333379 0.000000
0.885313 0.339239 0.000000
0.914031 0.344793 0.000000
0.941741 0.350134 0.000000
0.968536 0.355077 0.000000
0.994537 0.359777 0.000000
1.000000 0.365362 0.000000
1.000000 0.367407 0.000000
1.000000 0.369024 0.000000
0.000000 0.242741 0.091981
0.000000 0.243381 0.091188
0.000000 0.244083 0.089754
0.004364 0.245884 0.086336
0.086763 0.248020 0.092836
0.121706 0.251652 0.090211
0.154788 0.256199 0.087434
0.206546 0.260288 0.082521
0.256291 0.264805 0.076295
0.296452 0.260105 0.072969
0.346349 0.268101 0.059266
0.389960 0.272618 0.025788
0.434058 0.277348 0.000000
0.478126 0.282017 0.000000
0.522087 0.286503 0.000000
0.567224 0.295262 0.000000
0.610590 0.303746 0.000000
0.650629 0.311192 0.000000
0.687831 0.317815 0.000000
0.723659 0.324132 0.000000
0.758358 0.330266 0.000000
0.791806 0.336370 0.000000
0.824125 0.342077 0.000000
0.855161 0.347631 0.000000
0.885069 0.352941 0.000000
0.913848 0.357946 0.000000
0.941619 0.362737 0.000000
0.968475 0.367224 0.000000
0.994507 0.371466 0.000000
1.000000 0.375433 0.000000
1.000000 0.379736 0.000000
1.000000 0.380896 0.000000
0.000000 0.274113 0.100893
0.000000 0.274632 0.099702
0.000000 0.275425 0.098085
0.000000 0.277043 0.094484
0.066407 0.279332 0.094636
0.117189 0.282200 0.099367
0.152773 0.286595 0.096468
0.192691 0.291478 0.092531
0.247074 0.295964 0.086824
0.298619 0.301030 0.079286
0.339452 0.295232 0.076539
0.391089 0.303380 0.060639
0.435431 0.307622 0.022614
0.479866 0.311894 0.000000
0.523949 0.315892 0.000000
0.567193 0.319677 0.000000
0.609216 0.324163 0.000000
0.649287 0.330938 0.000000
0.686763 0.336767 0.000000
0.722835 0.342473 0.000000
0.757595 0.347967 0.000000
0.791226 0.353338 0.000000
0.823667 0.358526 0.000000
0.854795 0.363439 0.000000
0.884794 0.368139 0.000000
0.913634 0.372534 0.000000
0.941436 0.376745 0.000000
0.968383 0.380682 0.000000
0.994446 0.384466 0.000000
1.000000 0.387915 0.000000
1.000000 0.391272 0.000000
1.000000 0.393927 0.000000
0.000000 0.306798 0.109529
0.000000 0.307347 0.108431
0.000000 0.308019 0.106752
0.000000 0.309575 0.103487
0.013703 0.312016 0.098024
0.110353 0.314244 0.108858
0.149050 0.318425 0.106111
0.185245 0.323400 0.102663
0.234348 0.328374 0.097871
0.289677 0.333318 0.091127
0.342870 0.338872 0.082551
0.384131 0.331701 0.079896
0.437049 0.339727 0.062074
0.481727 0.343542 0.019715
0.525841 0.347021 0.000000
0.569207 0.350103 0.000000
0.610315 0.352148 0.000000
0.648463 0.353063 0.000000
0.685573 0.357244 0.000000
0.721828 0.362219 0.000000
0.756802 0.367102 0.000000
0.790524 0.371832 0.000000
0.823026 0.376287 0.000000
0.854337 0.380713 0.000000
0.884428 0.384741 0.000000
0.913359 0.388556 0.000000
0.941253 0.392157 0.000000
0.968231 0.395483 0.000000
0.994385 0.398688 0.000000
1.000000 0.401587 0.000000
1.000000 0.404334 0.000000
1.000000 0.407141 0.000000
0.000000 0.340490 0.118288
0.000000 0.341100 0.117250
0.000000 0.341741 0.115724
0.000000 0.343175 0.112520
0.000000 0.345525 0.107118
0.094911 0.347692 0.114290
0.143679 0.351263 0.115969
0.182345 0.356023 0.112703
0.219364 0.361486 0.108675
0.277317 0.366491 0.102876
0.333745 0.372015 0.095521
0.388617 0.377874 0.085603
0.429908 0.369238 0.084138
0.483650 0.376776 0.065187
0.528008 0.379706 0.020325
0.571344 0.382208 0.000000
0.612238 0.383429 0.000000
0.650141 0.383398 0.000000
0.685756 0.382879 0.000000
0.720729 0.383215 0.000000
0.755856 0.387549 0.000000
0.789761 0.391577 0.000000
0.822416 0.395453 0.000000
0.853819 0.399176 0.000000
0.884031 0.402625 0.000000
0.913024 0.405859 0.000000
0.941009 0.408850 0.000000
0.968048 0.411688 0.000000
0.994263 0.414160 0.000000
1.000000 0.416510 0.000000
1.000000 0.418585 0.000000
1.000000 0.420447 0.000000
0.000000 0.375158 0.127443
0.000000 0.375555 0.126314
0.000000 0.376287 0.124880
0.000000 0.377722 0.121706
0.000000 0.379767 0.116823
0.048310 0.382422 0.111788
0.136599 0.384924 0.126436
0.178378 0.389380 0.123384
0.217136 0.394629 0.119814
0.260868 0.400397 0.114900
0.321630 0.405585 0.108553
0.379156 0.411383 0.100404
0.435279 0.417609 0.089509
0.476204 0.407263 0.088655
0.529534 0.413672 0.069856
0.573632 0.415747 0.026368
0.614221 0.416114 0.000000
0.651942 0.415198 0.000000
0.687526 0.413642 0.000000
0.721950 0.412207 0.000000
0.755459 0.410803 0.000000
0.788876 0.412512 0.000000
0.821653 0.415839 0.000000
0.853239 0.418891 0.000000
0.883513 0.421820 0.000000
0.912627 0.424414 0.000000
0.940703 0.426795 0.000000
0.967834 0.428992 0.000000
0.994110 0.430976 0.000000
1.000000 0.432685 0.000000
1.000000 0.434180 0.000000
1.000000 0.435340 0.000000
0.000000 0.410254 0.136507
0.000000 0.410651 0.135653
0.000000 0.411292 0.134157
0.000000 0.412604 0.131075
0.000000 0.414588 0.126375
0.000000 0.417243 0.120211
0.127047 0.419165 0.137331
0.173037 0.423346 0.134646
0.213962 0.428290 0.131319
0.252964 0.434028 0.127291
0.305882 0.439704 0.121736
0.366857 0.445167 0.114748
0.425208 0.451209 0.105898
0.482460 0.457679 0.094209
0.522576 0.445289 0.095338
0.574853 0.450141 0.077333
0.616297 0.450141 0.047791
0.653773 0.448249 0.000000
0.689235 0.445838 0.000000
0.723659 0.443519 0.000000
0.757015 0.441230 0.000000
0.789364 0.439094 0.000000
0.820859 0.437324 0.000000
0.852506 0.439826 0.000000
0.882933 0.442084 0.000000
0.912139 0.444160 0.000000
0.940276 0.445960 0.000000
0.967529 0.447608 0.000000
0.993866 0.449042 0.000000
1.000000 0.450141 0.000000
1.000000 0.450935 0.000000
1.000000 0.451453 0.000000
0.000000 0.445686 0.145876
0.000000 0.446052 0.144900
0.000000 0.446662 0.143526
0.000000 0.447852 0.140658
0.000000 0.449744 0.136172
0.000000 0.452155 0.130526
0.093416 0.454566 0.134676
0.165896 0.457527 0.146517
0.209506 0.462257 0.143404
0.250217 0.467628 0.139681
0.289555 0.473640 0.135225
0.351476 0.479133 0.129335
0.412451 0.484871 0.122042
0.471565 0.491005 0.112490
0.529351 0.497322 0.100954
0.568078 0.482765 0.103975
0.616907 0.484504 0.088655
0.655634 0.482551 0.068513
0.691127 0.479133 0.026551
0.725429 0.475929 0.000000
0.758663 0.472908 0.000000
0.790890 0.469886 0.000000
0.822110 0.466987 0.000000
0.852354 0.464057 0.000000
0.882231 0.463508 0.000000
0.911559 0.465003 0.000000
0.939818 0.466316 0.000000
0.967102 0.467414 0.000000
0.993561 0.468208 0.000000
1.000000 0.468788 0.000000
1.000000 0.468971 0.000000
1.000000 0.468818 0.000000
0.000000 0.481056 0.155489
0.000000 0.481483 0.154421
0.000000 0.481971 0.153292
0.000000 0.483162 0.150484
0.000000 0.484871 0.146334
0.000000 0.487160 0.141299
0.014191 0.489937 0.135592
0.157565 0.491768 0.158846
0.204257 0.496193 0.156100
0.246647 0.501183 0.152834
0.287114 0.506859 0.148928
0.332403 0.512840 0.143984
0.397009 0.518273 0.137881
0.458137 0.524071 0.130251
0.517479 0.530083 0.120882
0.572717 0.533806 0.111177
0.610376 0.517876 0.115602
0.655940 0.516869 0.103761
0.692927 0.513634 0.087160
0.727199 0.509483 0.067720
0.760372 0.505577 0.020813
0.792447 0.501732 0.000000
0.823514 0.498024 0.000000
0.853605 0.494453 0.000000
0.882719 0.490791 0.000000
0.910887 0.487129 0.000000
0.939178 0.487617 0.000000
0.966613 0.488228 0.000000
0.993103 0.488533 0.000000
1.000000 0.488624 0.000000
1.000000 0.488197 0.000000
1.000000 0.487404 0.000000
0.000000 0.516289 0.164950
0.000000 0.516594 0.164096
0.000000 0.517113 0.162905
0.000000 0.518181 0.160403
0.000000 0.519829 0.156558
0.000000 0.521935 0.152071
0.000000 0.524529 0.146975
0.134676 0.526513 0.161685
0.198032 0.529870 0.169406
0.242405 0.534630 0.166384
0.283940 0.540063 0.162905
0.324254 0.545953 0.158724
0.378607 0.551598 0.153719
0.442573 0.556878 0.147738
0.503166 0.562341 0.140444
0.561883 0.567742 0.131624
0.614343 0.568688 0.124453
0.650996 0.551751 0.129915
0.693507 0.548272 0.120424
0.728878 0.544121 0.107057
0.761990 0.539269 0.091524
0.793942 0.534600 0.072236
0.824918 0.530053 0.029267
0.854826 0.525689 0.000000
0.883726 0.521355 0.000000
0.911772 0.517052 0.000000
0.939055 0.512718 0.000000
0.965942 0.510124 0.000000
0.992554 0.509941 0.000000
1.000000 0.509483 0.000000
1.000000 0.508598 0.000000
1.000000 0.507225 0.000000
0.000000 0.552148 0.174624
0.000000 0.552514 0.173800
0.000000 0.552941 0.172580
0.000000 0.553948 0.170504
0.000000 0.555474 0.167178
0.000000 0.557488 0.163119
0.000000 0.559960 0.158572
0.092134 0.562493 0.159335
0.191440 0.564538 0.183230
0.237675 0.568841 0.180728
0.280705 0.573754 0.177615
0.321752 0.579034 0.174136
0.361852 0.584833 0.170230
0.424659 0.589776 0.165164
0.487373 0.594659 0.159518
0.547387 0.599573 0.152743
0.605615 0.604517 0.144839
0.654780 0.602564 0.140139
0.690394 0.584741 0.146334
0.730068 0.579126 0.139010
0.763638 0.573785 0.127687
0.795499 0.568292 0.115328
0.826261 0.562982 0.100343
0.856016 0.557824 0.082002
0.884764 0.552728 0.053040
0.912627 0.547753 0.000000
0.939727 0.542870 0.000000
0.966155 0.538048 0.000000
0.992004 0.533135 0.000000
1.000000 0.531426 0.000000
1.000000 0.530114 0.000000
1.000000 0.528283 0.000000
0.000000 0.588525 0.184451
0.000000 0.588861 0.183810
0.000000 0.589258 0.182773
0.000000 0.590143 0.180728
0.000000 0.591516 0.177737
0.000000 0.593347 0.174136
0.000000 0.595483 0.170321
0.018921 0.597955 0.166842
0.178622 0.599329 0.192935
0.233341 0.602808 0.196017
0.277501 0.607233 0.193637
0.319402 0.612024 0.190555
0.359838 0.617212 0.187259
0.404608 0.622553 0.183536
0.470069 0.626947 0.178927
0.531609 0.631373 0.173739
0.590814 0.635859 0.167575
0.648157 0.640314 0.160769
0.694118 0.635554 0.158297
0.728511 0.616907 0.165103
0.765377 0.609247 0.159579
0.796933 0.602777 0.149752
0.827604 0.596643 0.139132
0.857115 0.590692 0.127230
0.885679 0.584924 0.112978
0.913359 0.579248 0.095460
0.940276 0.573754 0.070314
0.966552 0.568322 0.000000
0.992218 0.562951 0.000000
1.000000 0.557397 0.000000
1.000000 0.552667 0.000000
1.000000 0.550408 0.000000
0.000000 0.624445 0.194491
0.000000 0.624659 0.193790
0.000000 0.625055 0.192905
0.000000 0.625849 0.191226
0.000000 0.627070 0.188540
0.000000 0.628626 0.185672
0.000000 0.630549 0.182406
0.000000 0.632776 0.179934
0.148959 0.634546 0.192691
0.229740 0.636469 0.212863
0.274968 0.640406 0.210666
0.317388 0.644739 0.208347
0.358099 0.649409 0.205539
0.397864 0.654444 0.202426
0.451057 0.659052 0.198825
0.514702 0.663050 0.194919
0.575097 0.667048 0.190402
0.633204 0.671077 0.185000
0.689540 0.675013 0.179141
0.732143 0.667475 0.178897
0.765072 0.648127 0.186069
0.799374 0.638636 0.181857
0.828794 0.630884 0.173037
0.858183 0.624140 0.163760
0.886534 0.617670 0.153475
0.914000 0.611414 0.141817
0.940734 0.605310 0.127749
0.966796 0.599359 0.110048
0.992279 0.593408 0.084627
1.000000 0.587518 0.017945
1.000000 0.581353 0.000000
1.000000 0.574823 0.000000
0.000000 0.659754 0.204471
0.000000 0.659998 0.203738
0.000000 0.660273 0.203128
0.000000 0.661006 0.201633
0.000000 0.662104 0.199557
0.000000 0.663478 0.197086
0.000000 0.665187 0.194949
0.000000 0.667109 0.193606
0.108827 0.669337 0.193820
0.227939 0.669673 0.231052
0.273625 0.673213 0.229404
0.316472 0.677119 0.227420
0.357366 0.681392 0.225223
0.397040 0.685878 0.222629
0.435859 0.690669 0.219760
0.496834 0.694545 0.216739
0.558587 0.698116 0.213321
0.617670 0.701656 0.209415
0.674464 0.705226 0.205081
0.729702 0.708614 0.200046
0.768856 0.698482 0.201419
0.800320 0.678370 0.208957
0.831998 0.667231 0.205783
0.859129 0.658198 0.197879
0.887297 0.650996 0.189670
0.914549 0.644099 0.180453
0.941039 0.637354 0.170138
0.966918 0.630915 0.158083
0.992187 0.624567 0.143099
1.000000 0.618189 0.123476
1.000000 0.611688 0.095796
1.000000 0.604883 0.025818
0.000000 0.694545 0.214389
0.000000 0.694759 0.213962
0.000000 0.695064 0.213382
0.000000 0.695674 0.212192
0.000000 0.696620 0.210544
0.000000 0.697841 0.208865
0.000000 0.699306 0.207584
0.000000 0.701015 0.207248
0.089143 0.702937 0.208682
0.207492 0.703761 0.233707
0.274449 0.705653 0.249546
0.317021 0.709163 0.248081
0.357733 0.712978 0.246159
0.397345 0.717006 0.244236
0.435889 0.721370 0.241917
0.478157 0.725765 0.239384
0.541619 0.728908 0.237003
0.601617 0.732082 0.234165
0.659144 0.735195 0.231174
0.714626 0.738247 0.227573
0.768521 0.741146 0.223636
0.804074 0.728359 0.226535
0.833890 0.707698 0.234134
0.863066 0.694972 0.231449
0.887907 0.684688 0.223819
0.914946 0.677089 0.216342
0.941222 0.669886 0.208164
0.966888 0.662928 0.198764
0.991913 0.656123 0.187900
1.000000 0.649409 0.174624
1.000000 0.642573 0.157931
1.000000 0.635523 0.135866
0.000000 0.728878 0.224552
0.000000 0.729061 0.224247
0.000000 0.729305 0.223819
0.000000 0.729854 0.222873
0.000000 0.730648 0.221805
0.000000 0.731716 0.220676
0.000000 0.733028 0.220340
0.000000 0.734493 0.221073
0.064637 0.736110 0.224033
0.184390 0.737362 0.237186
0.278019 0.737606 0.271305
0.319890 0.740719 0.270176
0.360082 0.744167 0.268894
0.399054 0.747829 0.267277
0.437171 0.751705 0.265537
0.474586 0.755856 0.263584
0.524559 0.759396 0.261723
0.585626 0.762142 0.259892
0.643732 0.764920 0.257725
0.699489 0.767514 0.255375
0.753414 0.770047 0.252659
0.805722 0.772457 0.249485
0.837797 0.757259 0.253544
0.865843 0.735897 0.261173
0.892607 0.721920 0.258915
0.915221 0.710414 0.251164
0.941253 0.702632 0.244266
0.966644 0.695216 0.236790
0.991424 0.688045 0.228153
1.000000 0.680934 0.218204
1.000000 0.673884 0.206149
1.000000 0.666621 0.191623
0.000000 0.762692 0.234653
0.000000 0.762875 0.234348
0.000000 0.763058 0.234104
0.000000 0.763546 0.233585
0.000000 0.764218 0.232944
0.000000 0.765164 0.232670
0.000000 0.766262 0.233249
0.000000 0.767483 0.235355
0.005982 0.768795 0.239567
0.167361 0.770199 0.246983
0.271275 0.770016 0.283116
0.325933 0.771847 0.294285
0.365118 0.774929 0.293248
0.403143 0.778195 0.292149
0.440497 0.781674 0.290898
0.477150 0.785367 0.289464
0.513268 0.789212 0.287907
0.569970 0.791928 0.286625
0.628595 0.794247 0.285405
0.684657 0.796506 0.283970
0.738552 0.798642 0.282261
0.790738 0.800656 0.280247
0.841459 0.802487 0.277775
0.869932 0.785031 0.282719
0.896178 0.763241 0.290135
0.920806 0.748165 0.287907
0.941253 0.735561 0.279728
0.966247 0.727596 0.273503
0.990753 0.720027 0.266606
1.000000 0.712642 0.258762
1.000000 0.705379 0.249790
1.000000 0.698024 0.239292
0.000000 0.796078 0.244755
0.000000 0.796201 0.244633
0.000000 0.796384 0.244480
0.000000 0.796750 0.244327
0.000000 0.797330 0.244205
0.000000 0.798123 0.244816
0.000000 0.799039 0.246372
0.000000 0.800076 0.249638
0.000000 0.801114 0.255314
0.163577 0.802213 0.264195
0.258762 0.802396 0.290196
0.335637 0.802457 0.320378
0.373266 0.805203 0.319738
0.410163 0.808103 0.319066
0.446235 0.811215 0.318212
0.481910 0.814481 0.317266
0.517113 0.817899 0.316136
0.555291 0.821256 0.314977
0.614405 0.823209 0.314427
0.670588 0.825071 0.313756
0.724453 0.826871 0.312871
0.776394 0.828519 0.311772
0.826719 0.830014 0.310338
0.875517 0.831388 0.308690
0.900511 0.811826 0.314153
0.924956 0.789761 0.321111
0.947509 0.773739 0.318761
0.966339 0.760464 0.310185
0.989837 0.752041 0.304204
1.000000 0.744411 0.298009
1.000000 0.736965 0.291051
1.000000 0.729580 0.283482
0.000000 0.829007 0.254704
0.000000 0.829099 0.254765
0.000000 0.829252 0.254765
0.000000 0.829587 0.254856
0.000000 0.830045 0.255467
0.000000 0.830655 0.256901
0.000000 0.831388 0.259617
0.000000 0.832151 0.264073
0.000000 0.832975 0.271489
0.162905 0.833768 0.282017
0.247288 0.834318 0.298741
0.343267 0.833036 0.342687
0.385504 0.834928 0.348486
0.420600 0.837491 0.348150
0.455268 0.840238 0.347723
0.489509 0.843107 0.347051
0.523552 0.846128 0.346410
0.557153 0.849271 0.345586
0.601892 0.851743 0.345251
0.657954 0.853269 0.345220
0.711452 0.854704 0.344976
0.763058 0.856046 0.344732
0.812863 0.857237 0.344030
0.861143 0.858274 0.343175
0.908049 0.859159 0.341985
0.929564 0.837736 0.347784
0.952148 0.815427 0.354192
0.972778 0.798672 0.351354
0.990021 0.784848 0.342321
1.000000 0.775937 0.336553
1.000000 0.768399 0.331518
1.000000 0.760983 0.326146
0.000000 0.861448 0.264561
0.000000 0.861540 0.264683
0.000000 0.861662 0.264927
0.000000 0.861906 0.265476
0.000000 0.862303 0.266728
0.000000 0.862760 0.268986
0.000000 0.863279 0.272892
0.000000 0.863828 0.278874
0.000000 0.864378 0.287816
0.165316 0.864836 0.300237
0.249851 0.865171 0.316655
0.339849 0.864103 0.354040
0.402716 0.863981 0.379828
0.435584 0.866239 0.379736
0.468269 0.868650 0.379644
