其他预设/【213】赛博朋克科幻预设52款/1.LUT预设（视频调色-PR-AE-PS-FCPX-达芬奇用）/赛博朋克科幻__-2.cube
# Created by Adobe Lightroom plugin Export LUT (1.17.0)
# www.johnrellis.com/lightroom/exportlut.htm
# Preset: 赛博朋克科幻[素锦印象]-2
# Color profile: /Library/Application Support/Adobe/Color/Profiles/Recommended/AdobeRGB1998.icc
LUT_3D_SIZE 8
DOMAIN_MIN 0.000000 0.000000 0.000000
DOMAIN_MAX 0.903226 0.903226 0.903226
0.000000 0.085176 0.068605
0.000000 0.085115 0.074098
0.000000 0.084382 0.099489
0.135805 0.052216 0.179690
0.406683 0.000000 0.297093
0.767788 0.000000 0.434150
1.000000 0.000000 0.575555
1.000000 0.000000 0.689570
0.000000 0.106935 0.080873
0.000000 0.105653 0.068116
0.003540 0.084871 0.074617
0.155276 0.045899 0.135500
0.421027 0.000000 0.248569
0.775570 0.000000 0.391058
1.000000 0.000000 0.544152
1.000000 0.000000 0.667170
0.000000 0.245792 0.184543
0.000000 0.240024 0.153292
0.000000 0.229984 0.051484
0.204318 0.182193 0.049317
0.489082 0.000000 0.000702
0.839353 0.000000 0.190494
1.000000 0.000000 0.410437
1.000000 0.000000 0.579065
0.000000 0.545861 0.424750
0.000000 0.539300 0.397009
0.000000 0.518364 0.258427
0.082368 0.512139 0.000000
0.601282 0.408209 0.000000
0.917510 0.000000 0.000000
1.000000 0.000000 0.000000
1.000000 0.000000 0.295781
0.000000 0.775723 0.652918
0.000000 0.772763 0.637446
0.000000 0.762875 0.572168
0.000000 0.747921 0.333776
0.443946 0.722591 0.000000
0.954528 0.608118 0.000000
1.000000 0.449134 0.000000
1.000000 0.000000 0.000000
0.000000 0.910704 0.781247
0.000000 0.911467 0.775265
0.000000 0.905760 0.743954
0.000000 0.891966 0.669184
0.000000 0.885008 0.370794
0.774197 0.835416 0.199802
1.000000 0.768124 0.228458
1.000000 0.637232 0.000000
0.000000 0.983856 0.842496
0.000000 0.982849 0.838529
0.000000 0.977447 0.822934
0.212833 0.963531 0.792782
0.433875 0.952667 0.715480
0.152224 0.966339 0.425330
0.944701 0.902556 0.421271
1.000000 0.873564 0.445441
0.000000 0.996612 0.867460
0.202121 0.993713 0.865629
0.463478 0.982177 0.859617
0.709071 0.960479 0.850950
0.872923 0.938567 0.840787
0.824369 0.947967 0.771237
0.763241 0.960204 0.629175
1.000000 0.925048 0.643244
0.000000 0.087617 0.091646
0.000000 0.090974 0.085176
0.000000 0.091341 0.108553
0.156435 0.057069 0.194278
0.433082 0.000000 0.273747
0.784176 0.000000 0.398108
1.000000 0.000000 0.552728
1.000000 0.000000 0.677729
0.000000 0.108095 0.108431
0.000000 0.109743 0.102296
0.000000 0.107607 0.117952
0.172396 0.060792 0.170657
0.445869 0.000000 0.246983
0.795712 0.000000 0.356237
1.000000 0.000000 0.520378
1.000000 0.000000 0.655024
0.000000 0.240269 0.231724
0.000000 0.246067 0.225772
0.000000 0.236851 0.102632
0.216953 0.166598 0.102449
0.500389 0.000000 0.107881
0.845426 0.000000 0.217685
1.000000 0.000000 0.378546
1.000000 0.000000 0.565789
0.000000 0.550225 0.476783
0.000000 0.545037 0.458320
0.000000 0.526146 0.359991
0.000000 0.506615 0.071321
0.585718 0.393256 0.072419
0.904448 0.000000 0.000000
1.000000 0.000000 0.000000
1.000000 0.000000 0.278508
0.000000 0.778012 0.685298
0.000000 0.774685 0.671351
0.000000 0.764034 0.615473
0.000000 0.744930 0.433051
0.416602 0.718685 0.124758
0.947326 0.603265 0.123201
1.000000 0.438056 0.000000
1.000000 0.000000 0.000000
0.000000 0.909941 0.798184
0.000000 0.908659 0.791196
0.000000 0.902922 0.763027
0.000000 0.889281 0.697475
0.000000 0.881315 0.458228
0.768826 0.834379 0.280522
1.000000 0.766812 0.318242
1.000000 0.636622 0.188815
0.000000 0.982055 0.852079
0.000000 0.980621 0.847898
0.000000 0.975097 0.833310
0.266178 0.960876 0.805295
0.538170 0.943908 0.743008
0.298192 0.960601 0.492653
0.944274 0.900633 0.462470
1.000000 0.871580 0.490089
0.091341 0.995148 0.873136
0.248112 0.992096 0.871397
0.484871 0.980407 0.865354
0.720790 0.958831 0.856657
0.886931 0.936675 0.848722
0.862089 0.942290 0.789975
0.781521 0.957336 0.649897
1.000000 0.924254 0.663478
0.000000 0.099763 0.246860
0.000000 0.104158 0.234257
0.000000 0.121767 0.203281
0.151583 0.129244 0.228611
0.523339 0.000000 0.375097
0.840482 0.000000 0.512932
1.000000 0.000000 0.615595
1.000000 0.000000 0.663081
0.000000 0.116884 0.284092
0.000000 0.129061 0.274266
0.000000 0.152071 0.232273
0.161624 0.162020 0.249393
0.524346 0.000000 0.383581
0.839811 0.000000 0.516167
1.000000 0.000000 0.599054
1.000000 0.000000 0.640681
0.000000 0.233280 0.371099
0.000000 0.232853 0.361883
0.000000 0.244755 0.334905
0.196750 0.280766 0.316899
0.538048 0.000000 0.419654
0.863005 0.000000 0.493446
1.000000 0.000000 0.537774
1.000000 0.000000 0.566644
0.000000 0.473976 0.522301
0.000000 0.479500 0.520256
0.000000 0.503563 0.513024
0.139773 0.525994 0.429877
0.614954 0.387701 0.363256
0.925017 0.000000 0.329931
1.000000 0.000000 0.375463
1.000000 0.000000 0.407416
0.000000 0.763638 0.748074
0.000000 0.766354 0.745449
0.000000 0.777615 0.735500
0.000000 0.756405 0.654322
0.368353 0.727138 0.386053
0.952209 0.605005 0.419593
1.000000 0.438422 0.356695
1.000000 0.000000 0.193027
0.000000 0.916320 0.852842
0.000000 0.914549 0.848478
0.000000 0.906920 0.829740
0.000000 0.889708 0.784848
0.444007 0.864500 0.672724
0.765743 0.832578 0.476020
1.000000 0.768704 0.528222
1.000000 0.647303 0.443458
0.000000 0.980133 0.886137
0.000000 0.978088 0.882994
0.000000 0.970214 0.870726
0.463172 0.952087 0.847562
0.733639 0.924559 0.810178
0.645991 0.934874 0.668025
0.955505 0.897642 0.598138
1.000000 0.871244 0.635065
0.347204 0.988006 0.893278
0.399512 0.985351 0.891081
0.572717 0.973175 0.884916
0.772702 0.952300 0.876219
0.910216 0.932891 0.868009
0.941680 0.928740 0.839414
0.875090 0.942840 0.728176
1.000000 0.922087 0.732204
0.000000 0.122866 0.509514
0.000000 0.129488 0.504540
0.000000 0.151034 0.480323
0.202518 0.176608 0.446998
0.463416 0.126680 0.470253
0.863371 0.000000 0.553735
1.000000 0.000000 0.666773
1.000000 0.000000 0.732387
0.000000 0.157687 0.539544
0.000000 0.163760 0.533196
0.000000 0.183597 0.507897
0.215946 0.215763 0.466316
0.480140 0.182650 0.487434
0.871000 0.000000 0.565423
1.000000 0.000000 0.670527
1.000000 0.000000 0.733883
0.000000 0.256870 0.594202
0.000000 0.257450 0.590845
0.000000 0.286473 0.578851
0.265660 0.327489 0.537407
0.532189 0.337682 0.539605
0.902403 0.178958 0.609003
1.000000 0.000000 0.691768
1.000000 0.000000 0.744015
0.000000 0.478981 0.686213
0.000000 0.479255 0.681270
0.000000 0.484474 0.665095
0.179263 0.499306 0.636530
0.608026 0.532097 0.608606
0.928832 0.423377 0.662623
1.000000 0.000000 0.713649
1.000000 0.000000 0.682856
0.000000 0.680140 0.757992
0.000000 0.680903 0.755215
0.000000 0.685084 0.747189
0.342046 0.689815 0.734249
0.708095 0.694697 0.722683
0.942596 0.613947 0.663935
1.000000 0.478798 0.628840
1.000000 0.219883 0.574762
0.000000 0.852934 0.870420
0.000000 0.854856 0.871092
0.000000 0.855833 0.869200
0.534569 0.857969 0.863981
0.755825 0.848356 0.830991
0.792508 0.827665 0.678096
1.000000 0.775601 0.716091
1.000000 0.684474 0.671260
0.000000 0.947539 0.917113
0.230594 0.947631 0.916594
0.459876 0.948058 0.914488
0.673640 0.937194 0.901244
0.846403 0.913664 0.873899
0.924010 0.898466 0.825284
0.973266 0.892607 0.734188
1.000000 0.871153 0.770108
0.603479 0.970214 0.924132
0.633478 0.967407 0.922118
0.714504 0.958984 0.914824
0.831266 0.944457 0.903624
0.937682 0.928466 0.894255
0.991333 0.919432 0.888640
0.972259 0.924956 0.827787
1.000000 0.919432 0.810025
0.000000 0.167117 0.732174
0.000000 0.172335 0.729946
0.000000 0.187564 0.719783
0.369421 0.216861 0.699519
0.590509 0.233890 0.679652
0.846403 0.139010 0.691341
1.000000 0.311101 0.724361
1.000000 0.000000 0.756100
0.000000 0.208408 0.744076
0.000000 0.213260 0.742580
0.000000 0.227176 0.732723
0.379553 0.254032 0.711055
0.601160 0.284428 0.687373
0.852934 0.226291 0.698665
1.000000 0.362493 0.730495
1.000000 0.000000 0.758968
0.000000 0.282933 0.772549
0.000000 0.306340 0.770993
0.000000 0.339208 0.761318
0.393530 0.368383 0.741970
0.634394 0.421820 0.709407
0.868162 0.396155 0.718807
1.000000 0.485847 0.749905
1.000000 0.000000 0.767544
0.000000 0.475654 0.804685
0.000000 0.477577 0.801999
0.000000 0.485298 0.793118
0.362615 0.529168 0.782712
0.702663 0.551385 0.758358
0.899565 0.558984 0.753597
1.000000 0.588373 0.781765
1.000000 0.221103 0.785214
0.000000 0.660395 0.847868
0.000000 0.661433 0.846098
0.000000 0.664302 0.839231
0.368658 0.665919 0.826322
0.678370 0.660456 0.804929
0.931579 0.680323 0.787442
1.000000 0.662104 0.815335
1.000000 0.522087 0.818082
0.000000 0.782437 0.882170
0.000000 0.782742 0.881224
0.306767 0.782193 0.877165
0.599725 0.778988 0.870085
0.822293 0.778195 0.858579
0.963165 0.792844 0.847196
1.000000 0.777951 0.825406
1.000000 0.709133 0.790921
0.492317 0.878080 0.919341
0.537621 0.877287 0.918853
0.667567 0.875029 0.917418
0.816922 0.875486 0.915648
0.923339 0.887633 0.913512
0.979614 0.893706 0.898039
0.988983 0.886564 0.830411
1.000000 0.873777 0.852689
0.810239 0.911955 0.932647
0.823453 0.912688 0.932280
0.861509 0.916167 0.931182
0.909575 0.924559 0.929595
0.956023 0.925597 0.920500
0.997528 0.918700 0.911315
1.000000 0.917174 0.895384
1.000000 0.917449 0.868650
0.000000 0.251896 0.873106
0.126558 0.257053 0.871885
0.346349 0.271672 0.865721
0.561547 0.299962 0.854826
0.755947 0.357122 0.836423
0.902892 0.393408 0.824186
1.000000 0.409552 0.837552
1.000000 0.556573 0.840146
0.000000 0.290196 0.874144
0.099641 0.294377 0.872587
0.340734 0.308202 0.867124
0.560082 0.334691 0.856413
0.758755 0.386328 0.838773
0.904204 0.426154 0.825559
1.000000 0.439796 0.839384
1.000000 0.573083 0.842008
0.000000 0.403571 0.884276
0.000000 0.407233 0.882628
0.333349 0.420600 0.877195
0.572442 0.442054 0.867124
0.780545 0.475746 0.850980
0.916472 0.519921 0.833860
1.000000 0.526940 0.847745
1.000000 0.627039 0.849271
0.000000 0.502617 0.895811
0.000000 0.506981 0.894499
0.112123 0.526421 0.890623
0.588891 0.569512 0.881712
0.813474 0.582300 0.869200
0.939940 0.616419 0.851560
1.000000 0.628016 0.861082
1.000000 0.703548 0.860868
0.000000 0.646693 0.908568
0.000000 0.648341 0.907561
0.127443 0.652857 0.903746
0.465278 0.656214 0.896147
0.805478 0.668208 0.885252
0.955322 0.691981 0.871733
1.000000 0.722927 0.871916
1.000000 0.758450 0.872557
0.245670 0.748409 0.920195
0.316289 0.749020 0.919585
0.481514 0.749477 0.916655
0.669734 0.749111 0.911376
0.829862 0.751583 0.903593
0.945556 0.764920 0.891722
1.000000 0.815671 0.884367
1.000000 0.805753 0.890349
0.636347 0.821439 0.928923
0.666651 0.821408 0.928405
0.749599 0.821836 0.926482
0.850614 0.826444 0.923308
0.936370 0.839689 0.918944
0.992279 0.862608 0.913207
1.000000 0.885191 0.910613
1.000000 0.880797 0.900420
0.879393 0.875242 0.933806
0.889281 0.876036 0.933562
0.919097 0.879637 0.932708
0.956603 0.887541 0.931548
0.987396 0.899596 0.930388
1.000000 0.914611 0.929198
1.000000 0.916899 0.922972
1.000000 0.916686 0.906371
0.473762 0.416938 0.938964
0.507836 0.423163 0.938231
0.609613 0.440681 0.935119
0.749599 0.469306 0.929534
0.877623 0.510948 0.921294
0.963470 0.565850 0.910613
1.000000 0.587518 0.905577
1.000000 0.616571 0.912139
0.481086 0.445869 0.938567
0.514397 0.450752 0.937774
0.614282 0.464973 0.934813
0.752193 0.488594 0.929259
0.878904 0.525689 0.921233
0.963714 0.576013 0.910796
1.000000 0.599145 0.905272
1.000000 0.625757 0.912016
0.512810 0.526024 0.938659
0.543664 0.528344 0.937865
0.640101 0.536248 0.935027
0.772091 0.550896 0.929961
0.889555 0.576013 0.922728
0.968750 0.615778 0.913481
1.000000 0.645106 0.906950
1.000000 0.668208 0.913664
0.439521 0.586450 0.941619
0.506188 0.595392 0.940154
0.677150 0.618311 0.935607
0.799008 0.624811 0.931334
0.905028 0.640986 0.925292
0.976226 0.672480 0.917540
1.000000 0.709529 0.909361
1.000000 0.727596 0.915221
0.323491 0.655299 0.944182
0.364813 0.656519 0.943511
0.529229 0.662226 0.940734
0.746395 0.673152 0.935454
0.915343 0.704921 0.927886
0.981933 0.731685 0.921202
1.000000 0.770748 0.912596
1.000000 0.792538 0.916197
0.575738 0.731350 0.942870
0.602136 0.731899 0.942321
0.681788 0.733913 0.940490
0.784726 0.738186 0.937469
0.879789 0.747189 0.933227
0.986847 0.794644 0.925231
1.000000 0.828183 0.918639
1.000000 0.852903 0.917876
0.775967 0.790555 0.940337
0.791470 0.791531 0.939940
0.837430 0.795407 0.938476
0.896910 0.804227 0.936187
0.952514 0.820340 0.933104
0.991760 0.843809 0.929320
1.000000 0.867491 0.924498
1.000000 0.895018 0.921386
0.925353 0.848173 0.938201
0.931426 0.849699 0.937926
0.950347 0.855375 0.937072
0.973938 0.865537 0.935668
0.994690 0.879973 0.933837
1.000000 0.895995 0.931853
1.000000 0.910552 0.930053
1.000000 0.917418 0.928618
0.844083 0.624628 0.951781
0.854887 0.627832 0.951324
0.886595 0.637903 0.949798
0.930571 0.657343 0.947234
0.971588 0.685969 0.943847
1.000000 0.722438 0.939696
1.000000 0.763027 0.934844
1.000000 0.763485 0.933593
0.850767 0.634150 0.951293
0.860929 0.637110 0.950835
0.891264 0.646540 0.949401
0.933196 0.664851 0.946899
0.972839 0.692561 0.943572
1.000000 0.727840 0.939544
1.000000 0.767025 0.934752
1.000000 0.768826 0.933349
0.871519 0.663722 0.949889
0.880034 0.666072 0.949493
0.905852 0.673976 0.948180
0.943511 0.691463 0.945892
0.978088 0.716365 0.942809
1.000000 0.747951 0.939025
1.000000 0.783413 0.934539
1.000000 0.789364 0.932738
0.897704 0.705013 0.948058
0.904906 0.707271 0.947723
0.926329 0.714626 0.946532
0.956634 0.729488 0.944488
0.985260 0.751583 0.941711
1.000000 0.779049 0.938323
1.000000 0.808988 0.934386
1.000000 0.819821 0.932006
0.847684 0.713069 0.950103
0.863584 0.717281 0.949462
0.908232 0.732326 0.947326
0.965515 0.767391 0.943328
0.991363 0.789303 0.940642
1.000000 0.812680 0.937713
1.000000 0.837400 0.934295
1.000000 0.853056 0.931395
0.855131 0.749233 0.948089
0.863432 0.750881 0.947784
0.889189 0.756771 0.946807
0.926360 0.768124 0.945159
0.983764 0.805509 0.940978
1.000000 0.847623 0.936919
1.000000 0.867491 0.934508
1.000000 0.882994 0.931334
0.931762 0.803128 0.942718
0.936339 0.804929 0.942473
0.950713 0.811276 0.941680
0.970916 0.822843 0.940337
0.990814 0.839719 0.938598
1.000000 0.859709 0.936736
1.000000 0.891508 0.933837
1.000000 0.902007 0.932067
0.978119 0.851194 0.938109
0.980255 0.852689 0.937957
0.987060 0.858122 0.937377
0.996643 0.867674 0.936400
1.000000 0.880186 0.935210
1.000000 0.893828 0.933959
1.000000 0.906584 0.932860
1.000000 0.916777 0.932006
