其他预设/【213】赛博朋克科幻预设52款/1.LUT预设（视频调色-PR-AE-PS-FCPX-达芬奇用）/赛博朋克科幻__-5 强度4.cube
# Created by Adobe Lightroom plugin Export LUT (1.17.0)
# www.johnrellis.com/lightroom/exportlut.htm
# Preset: 赛博朋克科幻[素锦印象]-5 强度4
# Color profile: /Library/Application Support/Adobe/Color/Profiles/Recommended/AdobeRGB1998.icc
LUT_3D_SIZE 32
0.073732 0.071809 0.060517
0.078492 0.071321 0.062135
0.084810 0.070436 0.064149
0.097993 0.068452 0.068177
0.115145 0.065461 0.073915
0.135164 0.059846 0.080659
0.158724 0.042878 0.089143
0.186679 0.008850 0.099519
0.219852 0.000000 0.112123
0.258915 0.000000 0.127596
0.304479 0.000000 0.146029
0.354742 0.000000 0.166903
0.408209 0.000000 0.189975
0.463447 0.000000 0.214450
0.518669 0.000000 0.239872
0.572778 0.000000 0.265568
0.624262 0.000000 0.290898
0.670985 0.000000 0.314794
0.712551 0.000000 0.336675
0.750973 0.000000 0.357610
0.786770 0.000000 0.377691
0.820340 0.000000 0.397101
0.851774 0.000000 0.415808
0.881193 0.000000 0.433875
0.908843 0.000000 0.451453
0.934844 0.000000 0.468360
0.959289 0.000000 0.484871
0.982422 0.000000 0.501091
1.000000 0.000000 0.517205
1.000000 0.000000 0.533440
1.000000 0.000000 0.550103
1.000000 0.000000 0.567712
0.071962 0.078279 0.065064
0.076295 0.076997 0.060761
0.084810 0.070924 0.061067
0.097780 0.068513 0.067384
0.114656 0.065187 0.073945
0.134524 0.060121 0.080690
0.158358 0.043336 0.089174
0.186130 0.009766 0.099275
0.219303 0.000000 0.111940
0.258427 0.000000 0.127413
0.303929 0.000000 0.145907
0.354223 0.000000 0.166781
0.407691 0.000000 0.189761
0.463020 0.000000 0.214267
0.518364 0.000000 0.239689
0.572473 0.000000 0.265446
0.623865 0.000000 0.290776
0.670802 0.000000 0.314611
0.712337 0.000000 0.336584
0.750820 0.000000 0.357458
0.786648 0.000000 0.377569
0.820249 0.000000 0.397009
0.851652 0.000000 0.415778
0.881163 0.000000 0.433906
0.908782 0.000000 0.451423
0.934813 0.000000 0.468360
0.959289 0.000000 0.484871
0.982391 0.000000 0.501091
1.000000 0.000000 0.517174
1.000000 0.000000 0.533440
1.000000 0.000000 0.550134
1.000000 0.000000 0.567742
0.069276 0.087098 0.070802
0.073548 0.086305 0.067689
0.080354 0.084230 0.060670
0.097871 0.070741 0.062287
0.114565 0.065339 0.070405
0.134157 0.059815 0.080415
0.157534 0.044434 0.088899
0.185428 0.010864 0.099062
0.218479 0.000000 0.111757
0.257694 0.000000 0.127077
0.303166 0.000000 0.145449
0.353521 0.000000 0.166415
0.406989 0.000000 0.189456
0.462409 0.000000 0.213993
0.517693 0.000000 0.239384
0.572107 0.000000 0.265141
0.623560 0.000000 0.290501
0.670375 0.000000 0.314458
0.712154 0.000000 0.336461
0.750576 0.000000 0.357366
0.786526 0.000000 0.377478
0.820127 0.000000 0.396948
0.851591 0.000000 0.415747
0.881071 0.000000 0.433845
0.908751 0.000000 0.451362
0.934783 0.000000 0.468330
0.959258 0.000000 0.484840
0.982391 0.000000 0.501061
1.000000 0.000000 0.517205
1.000000 0.000000 0.533440
1.000000 0.000000 0.550134
1.000000 0.000000 0.567773
0.062104 0.105470 0.082063
0.066194 0.105135 0.080476
0.073396 0.102785 0.075319
0.088441 0.097993 0.061616
0.113191 0.077394 0.063874
0.133577 0.062409 0.069978
0.156710 0.046296 0.082429
0.184115 0.013123 0.097353
0.216983 0.000000 0.111177
0.256077 0.000000 0.126375
0.301610 0.000000 0.144869
0.352026 0.000000 0.165805
0.405524 0.000000 0.188815
0.460914 0.000000 0.213352
0.516655 0.000000 0.238804
0.570977 0.000000 0.264652
0.622675 0.000000 0.290135
0.669703 0.000000 0.314092
0.711513 0.000000 0.336095
0.750088 0.000000 0.357061
0.786160 0.000000 0.377295
0.819852 0.000000 0.396765
0.851408 0.000000 0.415564
0.880888 0.000000 0.433783
0.908629 0.000000 0.451301
0.934691 0.000000 0.468299
0.959228 0.000000 0.484810
0.982391 0.000000 0.501061
1.000000 0.000000 0.517174
1.000000 0.000000 0.533440
1.000000 0.000000 0.550134
1.000000 0.000000 0.567803
0.034577 0.132815 0.099428
0.040070 0.132326 0.098207
0.059693 0.130220 0.094240
0.071778 0.124483 0.082612
0.099641 0.115663 0.061799
0.131716 0.089265 0.064851
0.155825 0.059327 0.067597
0.183200 0.023621 0.082246
0.215671 0.000000 0.099275
0.254154 0.000000 0.119997
0.299168 0.000000 0.143862
0.349615 0.000000 0.164797
0.403388 0.000000 0.187869
0.458869 0.000000 0.212436
0.514763 0.000000 0.238010
0.569299 0.000000 0.263859
0.621271 0.000000 0.289433
0.668544 0.000000 0.313451
0.710628 0.000000 0.335668
0.749447 0.000000 0.356725
0.785580 0.000000 0.377020
0.819455 0.000000 0.396551
0.851072 0.000000 0.415442
0.880674 0.000000 0.433600
0.908446 0.000000 0.451179
0.934600 0.000000 0.468208
0.959106 0.000000 0.484779
0.982361 0.000000 0.500999
1.000000 0.000000 0.517144
1.000000 0.000000 0.533471
1.000000 0.000000 0.550164
1.000000 0.000000 0.567864
0.000000 0.168185 0.122225
0.000000 0.166903 0.121218
0.000000 0.166720 0.118593
0.052766 0.158816 0.107546
0.067475 0.149416 0.089082
0.112825 0.137179 0.060456
0.154025 0.104982 0.064515
0.180636 0.071962 0.067781
0.214267 0.000000 0.079957
0.252628 0.000000 0.101686
0.297551 0.000000 0.125154
0.347631 0.000000 0.151461
0.400732 0.000000 0.180545
0.456275 0.000000 0.211215
0.512352 0.000000 0.236881
0.567254 0.000000 0.262943
0.619440 0.000000 0.288457
0.667018 0.000000 0.312688
0.709377 0.000000 0.334966
0.748501 0.000000 0.356207
0.784848 0.000000 0.376593
0.818875 0.000000 0.396246
0.850645 0.000000 0.415167
0.880369 0.000000 0.433387
0.908232 0.000000 0.451026
0.934417 0.000000 0.468116
0.959014 0.000000 0.484718
0.982269 0.000000 0.500938
1.000000 0.000000 0.517174
1.000000 0.000000 0.533471
1.000000 0.000000 0.550195
1.000000 0.000000 0.567895
0.000000 0.212924 0.152163
0.000000 0.211276 0.151034
0.000000 0.210330 0.148226
0.000000 0.204074 0.138888
0.023774 0.191653 0.120638
0.059358 0.178408 0.095460
0.129427 0.162936 0.056916
0.180453 0.125521 0.062593
0.209781 0.090639 0.068208
0.251194 0.000000 0.072358
0.295903 0.000000 0.101045
0.345953 0.000000 0.129671
0.399359 0.000000 0.159762
0.454780 0.000000 0.191012
0.510613 0.000000 0.223331
0.565057 0.000000 0.255955
0.617212 0.000000 0.287388
0.665217 0.000000 0.311772
0.707973 0.000000 0.334203
0.747311 0.000000 0.355566
0.783932 0.000000 0.376074
0.818204 0.000000 0.395819
0.850126 0.000000 0.414832
0.879973 0.000000 0.433173
0.907927 0.000000 0.450843
0.934203 0.000000 0.467964
0.958892 0.000000 0.484596
0.982208 0.000000 0.500908
1.000000 0.000000 0.517144
1.000000 0.000000 0.533501
1.000000 0.000000 0.550256
1.000000 0.000000 0.567956
0.000000 0.267796 0.190677
0.000000 0.266209 0.189517
0.000000 0.264775 0.186313
0.000000 0.260655 0.178317
0.000000 0.246006 0.159701
0.000000 0.229557 0.134157
0.030091 0.211978 0.102052
0.149264 0.194217 0.046967
0.211887 0.150912 0.059480
0.246891 0.113893 0.065949
0.292943 0.000000 0.069520
0.344244 0.000000 0.094881
0.397864 0.000000 0.130465
0.453437 0.000000 0.165011
0.509422 0.000000 0.199405
0.564263 0.000000 0.233707
0.616358 0.000000 0.267338
0.664057 0.000000 0.299565
0.706447 0.000000 0.329992
0.745876 0.000000 0.354742
0.782834 0.000000 0.375433
0.817288 0.000000 0.395270
0.849454 0.000000 0.414435
0.879515 0.000000 0.432807
0.907561 0.000000 0.450599
0.933959 0.000000 0.467781
0.958709 0.000000 0.484504
0.982116 0.000000 0.500877
1.000000 0.000000 0.517113
1.000000 0.000000 0.533501
1.000000 0.000000 0.550286
1.000000 0.000000 0.568048
0.000000 0.332769 0.239231
0.000000 0.331273 0.237491
0.000000 0.329717 0.234073
0.000000 0.326146 0.226261
0.000000 0.313725 0.209140
0.000000 0.293858 0.182467
0.000000 0.274113 0.149477
0.000000 0.252873 0.106111
0.174166 0.232059 0.021790
0.249699 0.182589 0.046540
0.290745 0.143893 0.060395
0.339117 0.061097 0.066773
0.396307 0.000000 0.077638
0.452155 0.000000 0.125551
0.508293 0.000000 0.165835
0.563348 0.000000 0.203616
0.615839 0.000000 0.239994
0.663935 0.000000 0.274296
0.706538 0.000000 0.306310
0.745846 0.000000 0.336706
0.782315 0.000000 0.365698
0.816342 0.000000 0.394751
0.848722 0.000000 0.413977
0.878904 0.000000 0.432441
0.907164 0.000000 0.450294
0.933684 0.000000 0.467567
0.958556 0.000000 0.484382
0.982025 0.000000 0.500786
1.000000 0.000000 0.517113
1.000000 0.000000 0.533532
1.000000 0.000000 0.550347
1.000000 0.000000 0.568200
0.000000 0.405280 0.297368
0.000000 0.404089 0.294835
0.000000 0.402594 0.291295
0.000000 0.399298 0.283513
0.000000 0.390997 0.268833
0.000000 0.371374 0.241886
0.000000 0.348302 0.206943
0.000000 0.324529 0.166171
0.000000 0.301366 0.103212
0.203799 0.277256 0.000000
0.293736 0.220157 0.016266
0.339788 0.179171 0.041016
0.388769 0.108034 0.061341
0.449073 0.000000 0.066590
0.507134 0.000000 0.111910
0.562554 0.000000 0.161257
0.615320 0.000000 0.203250
0.663722 0.000000 0.241794
0.706752 0.000000 0.276738
0.746304 0.000000 0.309728
0.783078 0.000000 0.340795
0.817288 0.000000 0.370306
0.849119 0.000000 0.398474
0.878386 0.000000 0.430488
0.906706 0.000000 0.450050
0.933318 0.000000 0.467414
0.958343 0.000000 0.484230
0.981903 0.000000 0.500725
1.000000 0.000000 0.517113
1.000000 0.000000 0.533501
1.000000 0.000000 0.550408
1.000000 0.000000 0.568292
0.000000 0.481697 0.363226
0.000000 0.480751 0.360662
0.000000 0.479561 0.357122
0.000000 0.476692 0.349340
0.000000 0.472297 0.337102
0.000000 0.455116 0.311040
0.000000 0.431403 0.275486
0.000000 0.406561 0.232822
0.000000 0.379461 0.183871
0.000000 0.355352 0.093263
0.237827 0.328130 0.000000
0.340612 0.269841 0.000000
0.392523 0.219516 0.003235
0.443519 0.152224 0.037995
0.502007 0.000000 0.058198
0.561578 0.000000 0.083040
0.614649 0.000000 0.149538
0.663416 0.000000 0.197665
0.706935 0.000000 0.238804
0.746883 0.000000 0.275792
0.783963 0.000000 0.310033
0.818357 0.000000 0.342138
0.850340 0.000000 0.372412
0.880095 0.000000 0.400977
0.907805 0.000000 0.430243
0.933379 0.000000 0.462867
0.958099 0.000000 0.484047
0.981811 0.000000 0.500603
1.000000 0.000000 0.517052
1.000000 0.000000 0.533593
1.000000 0.000000 0.550530
1.000000 0.000000 0.568475
0.000000 0.556909 0.434119
0.000000 0.556329 0.431861
0.000000 0.555322 0.428382
0.000000 0.553307 0.421027
0.000000 0.550195 0.409552
0.000000 0.539666 0.387884
0.000000 0.518547 0.353124
0.000000 0.492378 0.308843
0.000000 0.466194 0.258610
0.000000 0.436439 0.201389
0.000000 0.412818 0.068086
0.274907 0.382910 0.000000
0.390509 0.323735 0.000000
0.447547 0.263279 0.000000
0.499214 0.197879 0.000000
0.553979 0.003693 0.036469
0.612482 0.000000 0.060639
0.663172 0.000000 0.128511
0.707027 0.000000 0.186343
0.747494 0.000000 0.231846
0.784848 0.000000 0.271611
0.819455 0.000000 0.307622
0.851652 0.000000 0.340917
0.881590 0.000000 0.372076
0.909545 0.000000 0.401434
0.935698 0.000000 0.429145
0.959716 0.000000 0.462257
0.982147 0.000000 0.495247
1.000000 0.000000 0.516991
1.000000 0.000000 0.533654
1.000000 0.000000 0.550622
1.000000 0.000000 0.568658
0.000000 0.625238 0.503868
0.000000 0.625025 0.501976
0.000000 0.624659 0.499092
0.000000 0.623743 0.492897
0.000000 0.622339 0.482979
0.000000 0.619226 0.468025
0.000000 0.601678 0.435187
0.000000 0.578851 0.392767
0.000000 0.552728 0.341039
0.000000 0.525383 0.283696
0.000000 0.493874 0.218540
0.000000 0.471870 0.000000
0.313603 0.439612 0.000000
0.442847 0.381598 0.000000
0.502708 0.309117 0.000000
0.553979 0.244175 0.000000
0.603906 0.133364 0.007691
0.658778 0.000000 0.044190
0.707210 0.000000 0.092073
0.748074 0.000000 0.169162
0.785763 0.000000 0.221103
0.820676 0.000000 0.264439
0.853056 0.000000 0.302586
0.883146 0.000000 0.337438
0.911254 0.000000 0.369696
0.937469 0.000000 0.399878
0.962097 0.000000 0.428382
0.984894 0.000000 0.460395
1.000000 0.000000 0.495247
1.000000 0.000000 0.529198
1.000000 0.000000 0.550744
1.000000 0.000000 0.568841
0.000000 0.683162 0.566552
0.000000 0.683162 0.564813
0.000000 0.683192 0.562585
0.000000 0.683223 0.557549
0.000000 0.683131 0.549371
0.000000 0.683009 0.537865
0.000000 0.673518 0.513085
0.000000 0.655909 0.475502
0.000000 0.633143 0.427222
0.000000 0.609216 0.370459
0.000000 0.581506 0.306615
0.000000 0.549462 0.234257
0.000000 0.530541 0.000000
0.352575 0.496254 0.000000
0.500908 0.445777 0.000000
0.556725 0.355932 0.000000
0.606195 0.290105 0.000000
0.652613 0.194675 0.000000
0.700679 0.000000 0.024903
0.747127 0.000000 0.065187
0.786679 0.000000 0.144839
0.821836 0.000000 0.206607
0.854459 0.000000 0.254337
0.884764 0.000000 0.295262
0.912963 0.000000 0.332067
0.939300 0.000000 0.365698
0.963989 0.000000 0.396979
0.987274 0.000000 0.426337
1.000000 0.000000 0.457954
1.000000 0.000000 0.494728
1.000000 0.000000 0.530877
1.000000 0.000000 0.567041
0.000000 0.732021 0.621393
0.000000 0.732174 0.620050
0.000000 0.732418 0.618189
0.000000 0.733028 0.614099
0.000000 0.733852 0.607446
0.000000 0.735164 0.598291
0.000000 0.733181 0.582300
0.000000 0.719539 0.549645
0.000000 0.702083 0.508019
0.000000 0.680781 0.455268
0.000000 0.658930 0.394995
0.000000 0.632776 0.326635
0.000000 0.601740 0.248356
0.000000 0.586725 0.000000
0.390692 0.550866 0.000000
0.557397 0.508812 0.000000
0.607996 0.401892 0.000000
0.654139 0.335088 0.000000
0.696864 0.247532 0.000000
0.739773 0.065766 0.010101
0.783627 0.000000 0.062623
0.823056 0.000000 0.109010
0.855863 0.000000 0.187869
0.886351 0.000000 0.241855
0.914702 0.000000 0.286198
0.941161 0.000000 0.325109
0.965942 0.000000 0.360357
0.989319 0.000000 0.392920
1.000000 0.000000 0.423316
1.000000 0.000000 0.455116
1.000000 0.000000 0.494514
1.000000 0.000000 0.533654
0.000000 0.773312 0.669184
0.000000 0.773617 0.668025
0.000000 0.774014 0.666560
0.000000 0.774990 0.663233
0.000000 0.776394 0.657862
0.000000 0.778439 0.650355
0.000000 0.781003 0.640558
0.000000 0.772305 0.614740
0.000000 0.758785 0.578820
0.000000 0.741634 0.533623
0.000000 0.722560 0.477882
0.000000 0.701991 0.414649
0.000000 0.677577 0.342992
0.000000 0.648676 0.259892
0.000000 0.636439 0.000000
0.426337 0.601526 0.000000
0.602472 0.562249 0.000000
0.654597 0.445960 0.000000
0.697536 0.378058 0.000000
0.737911 0.295781 0.000000
0.776272 0.175082 0.005982
0.817685 0.000000 0.064729
0.855955 0.000000 0.087495
0.887938 0.000000 0.164981
0.916442 0.000000 0.227085
0.943023 0.000000 0.275669
0.967926 0.000000 0.317174
0.991302 0.000000 0.354253
1.000000 0.000000 0.388281
1.000000 0.000000 0.419898
1.000000 0.000000 0.452796
1.000000 0.000000 0.495583
0.000000 0.808225 0.710353
0.000000 0.808682 0.709529
0.000000 0.809140 0.708248
0.000000 0.810300 0.705623
0.000000 0.812131 0.701259
0.000000 0.814633 0.695247
0.000000 0.817838 0.687282
0.000000 0.816068 0.670527
0.000000 0.805539 0.640009
0.000000 0.792172 0.601587
0.000000 0.775204 0.553216
0.000000 0.758694 0.495796
0.000000 0.739437 0.430396
0.000000 0.716670 0.355840
0.000000 0.692378 0.254856
0.000000 0.679988 0.000000
0.457893 0.646265 0.000000
0.639124 0.608698 0.000000
0.697017 0.487556 0.000000
0.737728 0.419623 0.000000
0.775998 0.341650 0.000000
0.811978 0.240635 0.000000
0.849485 0.000000 0.072694
0.885679 0.000000 0.095644
0.918059 0.000000 0.136965
0.944762 0.000000 0.211032
0.969726 0.000000 0.264500
0.993225 0.000000 0.309026
1.000000 0.000000 0.348302
1.000000 0.000000 0.384039
1.000000 0.000000 0.416999
1.000000 0.000000 0.452094
0.000000 0.838041 0.745998
0.000000 0.838437 0.745205
0.000000 0.839048 0.744289
0.000000 0.840299 0.742092
0.000000 0.842313 0.738582
0.000000 0.845090 0.733730
0.000000 0.848661 0.727321
0.000000 0.852689 0.718624
0.000000 0.844480 0.692592
0.000000 0.834012 0.659846
0.000000 0.820981 0.619226
0.000000 0.805722 0.568872
0.000000 0.790524 0.510185
0.000000 0.772702 0.443183
0.000000 0.751766 0.366796
0.000000 0.732082 0.246403
0.070710 0.719417 0.000000
0.487373 0.687251 0.000000
0.671656 0.651362 0.000000
0.736446 0.527306 0.000000
0.775143 0.459754 0.000000
0.811337 0.385046 0.000000
0.845365 0.295811 0.003845
0.879179 0.158114 0.088380
0.913390 0.000000 0.109499
0.945220 0.000000 0.126986
0.971405 0.000000 0.194919
0.994995 0.000000 0.254124
1.000000 0.000000 0.301915
1.000000 0.000000 0.343542
1.000000 0.000000 0.381140
1.000000 0.000000 0.415869
0.000000 0.864317 0.777768
0.000000 0.864775 0.777188
0.000000 0.865415 0.776394
0.000000 0.866728 0.774655
0.000000 0.868894 0.771847
0.000000 0.871824 0.767941
0.000000 0.875669 0.762814
0.000000 0.880369 0.756222
0.000000 0.878264 0.738857
0.000000 0.870207 0.711177
0.000000 0.859983 0.676692
0.000000 0.847105 0.634333
0.000000 0.834043 0.582635
0.000000 0.820096 0.522972
0.000000 0.803830 0.455055
0.000000 0.784604 0.376928
0.000000 0.769009 0.234531
0.157931 0.755978 0.000000
0.515526 0.725216 0.000000
0.701137 0.691035 0.000000
0.772946 0.566125 0.000000
0.809842 0.498268 0.000000
0.844175 0.426581 0.000000
0.876371 0.345953 0.033845
0.906828 0.244511 0.109926
0.939269 0.000000 0.129122
0.969512 0.000000 0.145724
0.996551 0.000000 0.180484
1.000000 0.000000 0.246067
1.000000 0.000000 0.297429
1.000000 0.000000 0.341588
1.000000 0.000000 0.381415
0.000000 0.888029 0.806668
0.000000 0.888487 0.806180
0.000000 0.889128 0.805570
0.000000 0.890532 0.804166
0.000000 0.892729 0.801938
0.000000 0.895781 0.798795
0.000000 0.899718 0.794644
0.000000 0.904540 0.789395
0.000000 0.907927 0.779965
0.000000 0.901610 0.756191
0.000000 0.893675 0.726955
0.000000 0.883635 0.691188
0.000000 0.871122 0.647639
0.000000 0.860288 0.595056
0.000000 0.847593 0.534783
0.000000 0.832761 0.466011
0.000000 0.815396 0.386603
0.000000 0.803342 0.220981
0.215976 0.789883 0.000000
0.542321 0.760464 0.000000
0.727779 0.727840 0.000000
0.805112 0.612879 0.000000
0.842100 0.535485 0.000000
0.874632 0.466743 0.000000
0.905119 0.392798 0.070344
0.933715 0.308690 0.129610
0.963378 0.179934 0.154116
0.992187 0.000000 0.170199
1.000000 0.000000 0.185122
1.000000 0.000000 0.242832
1.000000 0.000000 0.297581
1.000000 0.000000 0.344610
0.000000 0.909453 0.832975
0.000000 0.909911 0.832609
0.000000 0.910552 0.832090
0.000000 0.911986 0.830961
0.000000 0.914183 0.829129
0.000000 0.917205 0.826596
0.000000 0.921172 0.823301
0.000000 0.926055 0.819150
0.000000 0.931945 0.813901
0.000000 0.929168 0.795987
0.000000 0.922942 0.770993
0.000000 0.915068 0.740536
0.000000 0.905089 0.704005
0.000000 0.894408 0.659419
0.000000 0.884581 0.606470
0.000000 0.873167 0.545983
0.000000 0.859770 0.476539
0.000000 0.844144 0.396277
0.000000 0.835294 0.205539
0.265232 0.821256 0.000000
0.567681 0.793210 0.000000
0.752102 0.762081 0.000000
0.835080 0.656825 0.000000
0.872129 0.571130 0.000000
0.902983 0.505211 0.000000
0.931853 0.437201 0.098512
0.958892 0.364874 0.152438
0.985779 0.277256 0.184573
1.000000 0.112398 0.200595
1.000000 0.000000 0.216037
1.000000 0.000000 0.247501
1.000000 0.000000 0.305516
0.000000 0.928862 0.856931
0.000000 0.929351 0.856626
0.000000 0.929961 0.856199
0.000000 0.931365 0.855314
0.000000 0.933532 0.853880
0.000000 0.936553 0.851835
0.000000 0.940459 0.849180
0.000000 0.945281 0.845792
0.000000 0.951110 0.841642
0.000000 0.953491 0.831235
0.000000 0.948577 0.809689
0.000000 0.942321 0.783566
0.000000 0.934386 0.752529
0.000000 0.924254 0.715969
0.000000 0.915831 0.670375
0.000000 0.907073 0.617334
0.000000 0.896880 0.556817
0.000000 0.884977 0.487129
0.000000 0.871122 0.406256
0.000000 0.864897 0.189975
0.309789 0.850431 0.000000
0.592737 0.823575 0.000000
0.774533 0.794003 0.000000
0.863127 0.698909 0.000000
0.900053 0.605768 0.000000
0.929381 0.542840 0.008637
0.956756 0.480049 0.128756
0.982391 0.417273 0.179843
1.000000 0.353826 0.220798
1.000000 0.261143 0.237491
1.000000 0.100465 0.254307
1.000000 0.000000 0.271763
0.000000 0.947478 0.878477
0.000000 0.947448 0.878416
0.000000 0.947601 0.878264
0.000000 0.948943 0.877501
0.000000 0.951110 0.876341
0.000000 0.954070 0.874693
0.000000 0.957885 0.872587
0.000000 0.962585 0.869902
0.000000 0.968292 0.866545
0.000000 0.974945 0.862425
0.000000 0.971221 0.843900
0.000000 0.966247 0.821439
0.000000 0.959869 0.794858
0.000000 0.951629 0.763638
0.000000 0.942199 0.727138
0.000000 0.935576 0.680934
0.000000 0.927886 0.628107
0.000000 0.918975 0.567712
0.000000 0.908568 0.498085
0.000000 0.896391 0.416815
0.000000 0.892485 0.176272
0.352544 0.877409 0.000000
0.617090 0.851835 0.000000
0.795285 0.823728 0.000000
0.889250 0.738918 0.000000
0.926085 0.639216 0.000000
0.953948 0.579309 0.092927
0.979950 0.521782 0.162142
1.000000 0.467323 0.211795
1.000000 0.417945 0.256474
1.000000 0.357671 0.281529
1.000000 0.284520 0.301274
0.000000 0.964904 0.898192
0.000000 0.964904 0.898131
0.000000 0.964874 0.898039
0.000000 0.965026 0.897826
0.000000 0.967132 0.896849
0.000000 0.969970 0.895567
0.000000 0.973693 0.893858
0.000000 0.978271 0.891691
0.000000 0.983795 0.889006
0.000000 0.990234 0.885740
0.000000 0.991424 0.874388
0.000000 0.987427 0.854856
0.000000 0.982238 0.831785
0.000000 0.975463 0.805081
0.000000 0.966857 0.774838
0.000000 0.959503 0.737423
0.000000 0.953765 0.691646
0.000000 0.947173 0.639307
0.000000 0.939544 0.579309
0.000000 0.930602 0.509911
0.000000 0.920714 0.422644
0.000000 0.918029 0.167453
0.393622 0.902525 0.000000
0.641352 0.878111 0.000000
0.814817 0.851469 0.000000
0.913695 0.776852 0.000000
0.950378 0.671595 0.000000
0.976928 0.615167 0.138216
1.000000 0.562829 0.198672
1.000000 0.516106 0.248753
1.000000 0.477882 0.296391
1.000000 0.442267 0.334386
0.000000 0.981201 0.916258
0.000000 0.981201 0.916228
0.000000 0.981170 0.916167
0.000000 0.981140 0.916045
0.000000 0.981750 0.915648
0.000000 0.984527 0.914611
0.000000 0.988098 0.913237
0.000000 0.992523 0.911498
0.000000 0.997833 0.909361
0.000000 1.000000 0.906767
0.000000 1.000000 0.901701
0.000000 1.000000 0.884489
0.000000 1.000000 0.864408
0.000000 0.996368 0.841276
0.000000 0.989105 0.815366
0.000000 0.980011 0.786923
0.000000 0.975372 0.748104
0.000000 0.970642 0.703029
0.000000 0.965148 0.651423
0.000000 0.958770 0.592096
0.000000 0.951293 0.523369
0.000000 0.943969 0.424384
0.000000 0.941772 0.166537
0.434730 0.925811 0.000000
0.665492 0.902708 0.000000
0.833463 0.877501 0.000000
0.937224 0.813260 0.000000
0.973175 0.703273 0.101900
0.998383 0.650538 0.182193
1.000000 0.603601 0.239536
1.000000 0.564599 0.291539
1.000000 0.536706 0.343786
0.000000 0.996429 0.932891
0.000000 0.996429 0.932860
0.000000 0.996460 0.932830
0.000000 0.996429 0.932738
0.000000 0.996429 0.932586
0.000000 0.997833 0.932067
0.000000 1.000000 0.930968
0.000000 1.000000 0.929564
0.000000 1.000000 0.927886
0.000000 1.000000 0.925841
0.000000 1.000000 0.923339
0.000000 1.000000 0.911070
0.000000 1.000000 0.893339
0.000000 1.000000 0.873136
0.000000 1.000000 0.850706
0.000000 1.000000 0.826444
0.000000 0.993194 0.798184
0.000000 0.989960 0.759670
0.000000 0.986236 0.715511
0.000000 0.981842 0.664942
0.000000 0.976776 0.606622
0.000000 0.970794 0.538781
0.000000 0.965667 0.429664
0.094728 0.963897 0.178195
0.476234 0.947601 0.000000
0.690120 0.925750 0.000000
0.851560 0.902007 0.000000
0.960906 0.849180 0.000000
0.994476 0.734401 0.160616
1.000000 0.685695 0.228305
1.000000 0.644526 0.285527
1.000000 0.613519 0.341192
0.000000 1.000000 0.948211
0.000000 1.000000 0.948180
0.000000 1.000000 0.948150
0.000000 1.000000 0.948089
0.000000 1.000000 0.947967
0.000000 1.000000 0.947845
0.000000 1.000000 0.947173
0.000000 1.000000 0.946075
0.000000 1.000000 0.944732
0.000000 1.000000 0.943114
0.000000 1.000000 0.941161
0.000000 1.000000 0.934844
0.000000 1.000000 0.919219
0.000000 1.000000 0.901396
0.000000 1.000000 0.881712
0.000000 1.000000 0.860777
0.000000 1.000000 0.839170
0.133791 1.000000 0.809812
0.105531 1.000000 0.772519
0.061830 1.000000 0.729732
0.000000 0.997375 0.680568
0.000000 0.993622 0.623621
0.000000 0.989136 0.557122
0.066407 0.985809 0.440192
0.216007 0.984436 0.202976
0.518761 0.967926 0.135256
0.715694 0.947356 0.131960
0.869535 0.925109 0.126650
0.983001 0.882841 0.138918
1.000000 0.764981 0.214054
1.000000 0.720882 0.278233
1.000000 0.686152 0.338048
0.000000 1.000000 0.962280
0.000000 1.000000 0.962249
0.000000 1.000000 0.962249
0.000000 1.000000 0.962188
0.000000 1.000000 0.962127
0.000000 1.000000 0.962036
0.000000 1.000000 0.961913
0.000000 1.000000 0.961120
0.000000 1.000000 0.960082
0.000000 1.000000 0.958801
0.000000 1.000000 0.957275
0.000000 1.000000 0.955474
0.000000 1.000000 0.942260
0.000000 1.000000 0.926421
0.000000 1.000000 0.909056
