其他预设/【213】赛博朋克科幻预设52款/1.LUT预设（视频调色-PR-AE-PS-FCPX-达芬奇用）/赛博朋克科幻__-11 强度4.cube
# Created by Adobe Lightroom plugin Export LUT (1.17.0)
# www.johnrellis.com/lightroom/exportlut.htm
# Preset: 赛博朋克科幻[素锦印象]-11 强度4
# Color profile: /Library/Application Support/Adobe/Color/Profiles/Recommended/AdobeRGB1998.icc
LUT_3D_SIZE 5
DOMAIN_MIN 0.000000 0.000000 0.000000
DOMAIN_MAX 0.903226 0.903226 0.903226
0.000000 0.000000 0.000000
0.230045 0.000000 0.114351
0.457496 0.000000 0.230076
0.680018 0.000000 0.376440
0.897490 0.000000 0.542443
0.000000 0.215976 0.195987
0.169467 0.152560 0.085573
0.454963 0.000000 0.235538
0.674830 0.000000 0.388128
0.895811 0.000000 0.552514
0.000000 0.532464 0.466346
0.000000 0.483803 0.408087
0.343725 0.330480 0.169192
0.689967 0.000000 0.343908
0.896605 0.000000 0.572137
0.000000 0.830808 0.685084
0.000000 0.813626 0.661433
0.291356 0.729549 0.567193
0.507530 0.591455 0.279850
0.912261 0.206760 0.479896
0.000000 1.000000 0.825895
0.000000 1.000000 0.817350
0.000000 1.000000 0.797208
0.560418 0.954620 0.736873
0.713680 0.896849 0.523796
0.091676 0.000000 0.130831
0.237186 0.000000 0.158480
0.447791 0.000000 0.268894
0.673091 0.000000 0.411383
0.895964 0.000000 0.567132
0.000000 0.183536 0.210391
0.246647 0.123384 0.161868
0.452430 0.000000 0.271550
0.669001 0.000000 0.420111
0.894560 0.000000 0.576013
0.000000 0.530602 0.495094
0.000000 0.475776 0.437415
0.383581 0.318090 0.223880
0.690669 0.000000 0.395758
0.895933 0.000000 0.593774
0.000000 0.831113 0.704585
0.000000 0.812406 0.682277
0.326390 0.730068 0.592737
0.533684 0.585351 0.324102
0.911101 0.270115 0.521172
0.000000 1.000000 0.839261
0.000000 1.000000 0.830259
0.000000 1.000000 0.810544
0.592401 0.953643 0.758358
0.726925 0.894804 0.547723
0.211246 0.000000 0.304540
0.333654 0.000000 0.304997
0.482979 0.000000 0.357519
0.670863 0.000000 0.482979
0.896452 0.000000 0.632380
0.200809 0.187655 0.328405
0.316686 0.102693 0.327214
0.483894 0.000000 0.361181
0.665858 0.000000 0.490944
0.896178 0.000000 0.637690
0.000000 0.468879 0.547234
0.206516 0.431647 0.509331
0.486763 0.276799 0.358190
0.687007 0.028565 0.492378
0.896330 0.000000 0.655604
0.000000 0.841489 0.779355
0.000000 0.822263 0.759152
0.396429 0.743221 0.678859
0.607904 0.566064 0.443183
0.909087 0.400000 0.636378
0.000000 1.000000 0.884154
0.000000 1.000000 0.876768
0.000000 1.000000 0.853605
0.666499 0.956085 0.821653
0.764523 0.889036 0.614527
0.317144 0.000000 0.564294
0.425605 0.000000 0.564996
0.563317 0.000000 0.539544
0.721584 0.000000 0.610559
0.897032 0.000000 0.736385
0.268681 0.126772 0.578393
0.400031 0.000000 0.579309
0.577203 0.000000 0.561456
0.719875 0.000000 0.615076
0.896910 0.000000 0.741268
0.243076 0.433814 0.638727
0.359960 0.423438 0.627893
0.578454 0.320287 0.604791
0.724941 0.000000 0.622126
0.898375 0.000000 0.754879
0.000000 0.761318 0.832700
0.102510 0.753323 0.822873
0.516472 0.716579 0.781308
0.709499 0.530877 0.604608
0.912078 0.384131 0.752499
0.000000 1.000000 0.966369
0.000000 1.000000 0.960418
0.141665 1.000000 0.939330
0.658656 0.980652 0.898100
0.823239 0.878813 0.717647
0.366339 0.000000 0.851225
0.465614 0.000000 0.850614
0.690425 0.000000 0.848325
0.792386 0.000000 0.807340
0.941924 0.000000 0.874998
0.347784 0.000000 0.858457
0.450538 0.000000 0.857816
0.679835 0.000000 0.855070
0.792416 0.000000 0.816617
0.941588 0.000000 0.877714
0.405463 0.533349 0.873259
0.504295 0.504356 0.870207
0.645045 0.340093 0.872221
0.800656 0.000000 0.848417
0.939178 0.000000 0.885405
0.220157 0.728908 0.921202
0.367559 0.731472 0.918578
0.606897 0.734524 0.907012
0.811368 0.648554 0.887785
0.938079 0.355596 0.893706
0.000000 0.935943 0.993103
0.000000 0.937621 0.991821
0.459083 0.944152 0.986664
0.774044 0.951568 0.976532
0.915282 0.853269 0.878752
