其他预设/【213】赛博朋克科幻预设52款/1.LUT预设（视频调色-PR-AE-PS-FCPX-达芬奇用）/赛博朋克科幻__-4 强度5.cube
# Created by Adobe Lightroom plugin Export LUT (1.17.0)
# www.johnrellis.com/lightroom/exportlut.htm
# Preset: 赛博朋克科幻[素锦印象]-4 强度5
# Color profile: /Library/Application Support/Adobe/Color/Profiles/Recommended/AdobeRGB1998.icc
LUT_3D_SIZE 32
0.000000 0.000000 0.000000
0.016175 0.000000 0.006195
0.038880 0.000000 0.014588
0.067475 0.000000 0.031189
0.086091 0.000000 0.051484
0.105715 0.000000 0.066712
0.128756 0.000000 0.080293
0.155764 0.000000 0.095003
0.187381 0.000000 0.112642
0.224430 0.000000 0.133242
0.267216 0.000000 0.156985
0.314092 0.000000 0.182956
0.363989 0.000000 0.210391
0.415839 0.000000 0.239109
0.468116 0.000000 0.268162
0.520012 0.000000 0.296818
0.570214 0.000000 0.324620
0.617060 0.000000 0.350530
0.659236 0.000000 0.373846
0.698695 0.000000 0.395666
0.735958 0.000000 0.416297
0.771328 0.000000 0.435889
0.804898 0.000000 0.454475
0.836759 0.000000 0.472114
0.867094 0.000000 0.488960
0.896056 0.000000 0.504997
0.923674 0.000000 0.520348
0.950195 0.000000 0.535088
0.975769 0.000000 0.549310
1.000000 0.000000 0.563104
1.000000 0.000000 0.576532
1.000000 0.000000 0.589593
0.017060 0.020691 0.000000
0.018799 0.014466 0.000488
0.035279 0.004303 0.011719
0.066926 0.000000 0.031098
0.085420 0.000000 0.050690
0.105196 0.000000 0.066346
0.128084 0.000000 0.079957
0.155062 0.000000 0.094759
0.186831 0.000000 0.112459
0.224002 0.000000 0.133089
0.266667 0.000000 0.156741
0.313573 0.000000 0.182589
0.363561 0.000000 0.210208
0.415412 0.000000 0.238956
0.467811 0.000000 0.267948
0.519707 0.000000 0.296635
0.569879 0.000000 0.324376
0.616785 0.000000 0.350317
0.658991 0.000000 0.373754
0.698543 0.000000 0.395575
0.735805 0.000000 0.416205
0.771206 0.000000 0.435828
0.804776 0.000000 0.454414
0.836698 0.000000 0.472084
0.867063 0.000000 0.488930
0.895995 0.000000 0.504967
0.923674 0.000000 0.520317
0.950164 0.000000 0.535088
0.975738 0.000000 0.549310
1.000000 0.000000 0.563134
1.000000 0.000000 0.576532
1.000000 0.000000 0.589593
0.038514 0.047517 0.000000
0.045808 0.043000 0.000000
0.046265 0.033387 0.000397
0.064759 0.012085 0.024018
0.083406 0.000000 0.053895
0.104341 0.000000 0.065919
0.127260 0.000000 0.079316
0.154208 0.000000 0.094270
0.186007 0.000000 0.112032
0.223239 0.000000 0.132601
0.265904 0.000000 0.156161
0.312840 0.000000 0.182132
0.362829 0.000000 0.209842
0.414771 0.000000 0.238621
0.467170 0.000000 0.267491
0.519249 0.000000 0.296391
0.569482 0.000000 0.324163
0.616419 0.000000 0.350103
0.658808 0.000000 0.373602
0.698238 0.000000 0.395453
0.735653 0.000000 0.416144
0.771084 0.000000 0.435737
0.804685 0.000000 0.454322
0.836606 0.000000 0.472023
0.867002 0.000000 0.488869
0.895964 0.000000 0.504936
0.923644 0.000000 0.520287
0.950164 0.000000 0.535058
0.975738 0.000000 0.549340
1.000000 0.000000 0.563104
1.000000 0.000000 0.576532
1.000000 0.000000 0.589593
0.066590 0.073060 0.000000
0.067720 0.071717 0.000000
0.072572 0.069734 0.000000
0.071992 0.062776 0.000122
0.081025 0.031769 0.031952
0.099062 0.024964 0.069978
0.124208 0.000000 0.080110
0.152651 0.000000 0.093538
0.184390 0.000000 0.110994
0.221439 0.000000 0.131746
0.264286 0.000000 0.155367
0.311376 0.000000 0.181338
0.361334 0.000000 0.209079
0.413367 0.000000 0.237797
0.466041 0.000000 0.266941
0.518181 0.000000 0.295811
0.568597 0.000000 0.323644
0.615625 0.000000 0.349767
0.658137 0.000000 0.373236
0.697749 0.000000 0.395117
0.735225 0.000000 0.415930
0.770748 0.000000 0.435523
0.804440 0.000000 0.454231
0.836362 0.000000 0.471901
0.866819 0.000000 0.488808
0.895811 0.000000 0.504906
0.923522 0.000000 0.520256
0.950103 0.000000 0.535027
0.975708 0.000000 0.549310
1.000000 0.000000 0.563104
1.000000 0.000000 0.576532
1.000000 0.000000 0.589624
0.089876 0.098512 0.000000
0.089082 0.097292 0.000000
0.092073 0.095155 0.000000
0.097322 0.090791 0.000000
0.093050 0.080995 0.002380
0.099763 0.061952 0.041962
0.121126 0.029999 0.072145
0.146212 0.000000 0.095674
0.179782 0.000000 0.111299
0.218326 0.000000 0.130617
0.261753 0.000000 0.153811
0.308995 0.000000 0.180087
0.359167 0.000000 0.207919
0.411353 0.000000 0.236728
0.464210 0.000000 0.265934
0.516442 0.000000 0.294865
0.567102 0.000000 0.322911
0.614405 0.000000 0.349035
0.657160 0.000000 0.372686
0.696986 0.000000 0.394720
0.734585 0.000000 0.415534
0.770260 0.000000 0.435309
0.804013 0.000000 0.453986
0.836088 0.000000 0.471748
0.866575 0.000000 0.488655
0.895659 0.000000 0.504753
0.923400 0.000000 0.520195
0.950011 0.000000 0.534997
0.975647 0.000000 0.549248
1.000000 0.000000 0.563104
1.000000 0.000000 0.576532
1.000000 0.000000 0.589654
0.119173 0.130556 0.000000
0.117647 0.129244 0.000000
0.119417 0.127413 0.000000
0.123751 0.123293 0.000000
0.127535 0.116182 0.000000
0.119539 0.103914 0.003388
0.126192 0.083864 0.042695
0.148653 0.029389 0.070283
0.174960 0.002899 0.106783
0.210880 0.000000 0.130617
0.255497 0.000000 0.153140
0.304295 0.000000 0.178683
0.356085 0.000000 0.206241
0.408728 0.000000 0.235233
0.461738 0.000000 0.264561
0.514336 0.000000 0.293706
0.565179 0.000000 0.321874
0.612726 0.000000 0.348150
0.655756 0.000000 0.371923
0.695888 0.000000 0.394141
0.733700 0.000000 0.415076
0.769558 0.000000 0.434943
0.803494 0.000000 0.453681
0.835660 0.000000 0.471534
0.866239 0.000000 0.488472
0.895384 0.000000 0.504631
0.923217 0.000000 0.520134
0.949889 0.000000 0.534905
0.975555 0.000000 0.549248
1.000000 0.000000 0.563073
1.000000 0.000000 0.576532
1.000000 0.000000 0.589685
0.155428 0.170504 0.000000
0.153902 0.168917 0.000000
0.154513 0.167117 0.000000
0.158358 0.163485 0.000000
0.163119 0.157748 0.000000
0.162844 0.147189 0.000000
0.152987 0.132692 0.000000
0.160037 0.113436 0.039033
0.182589 0.057618 0.069856
0.214847 0.000000 0.110994
0.246677 0.000000 0.152651
0.296117 0.000000 0.177310
0.348608 0.000000 0.204623
0.402930 0.000000 0.233402
0.457740 0.000000 0.262974
0.511589 0.000000 0.292149
0.562737 0.000000 0.320500
0.610803 0.000000 0.347021
0.654139 0.000000 0.371038
0.694545 0.000000 0.393378
0.732662 0.000000 0.414496
0.768704 0.000000 0.434455
0.802792 0.000000 0.453346
0.835142 0.000000 0.471199
0.865843 0.000000 0.488228
0.895109 0.000000 0.504448
0.923003 0.000000 0.519982
0.949737 0.000000 0.534813
0.975494 0.000000 0.549187
1.000000 0.000000 0.563043
1.000000 0.000000 0.576562
1.000000 0.000000 0.589715
0.199496 0.218906 0.000000
0.198032 0.217350 0.000000
0.198550 0.215702 0.000000
0.202152 0.212497 0.000000
0.207614 0.207614 0.000000
0.210178 0.199100 0.000000
0.206638 0.185702 0.000000
0.195193 0.168765 0.000000
0.203098 0.152102 0.025269
0.224216 0.095064 0.076387
0.264073 0.000000 0.111604
0.298741 0.000000 0.164279
0.339361 0.000000 0.203494
0.394598 0.000000 0.231632
0.450324 0.000000 0.260929
0.505241 0.000000 0.290196
0.558251 0.000000 0.318822
0.607965 0.000000 0.345617
0.652125 0.000000 0.369879
0.692958 0.000000 0.392523
0.731350 0.000000 0.413703
0.767666 0.000000 0.433906
0.801968 0.000000 0.452888
0.834501 0.000000 0.470893
0.865324 0.000000 0.487984
0.894682 0.000000 0.504295
0.922698 0.000000 0.519829
0.949554 0.000000 0.534722
0.975372 0.000000 0.549157
1.000000 0.000000 0.563043
1.000000 0.000000 0.576593
1.000000 0.000000 0.589746
0.251591 0.276158 0.000000
0.250065 0.274510 0.000000
0.251713 0.273381 0.000000
0.255344 0.270695 0.000000
0.261173 0.266697 0.000000
0.264164 0.259220 0.000000
0.267613 0.249699 0.000000
0.261387 0.233921 0.000000
0.248783 0.214481 0.000000
0.257908 0.202609 0.000000
0.282200 0.137148 0.076722
0.322545 0.000000 0.103212
0.358770 0.000000 0.172274
0.392065 0.000000 0.225620
0.441047 0.000000 0.259770
0.497169 0.000000 0.288609
0.551324 0.000000 0.316960
0.602075 0.000000 0.344030
0.647852 0.000000 0.368536
0.690272 0.000000 0.391424
0.729793 0.000000 0.412909
0.766476 0.000000 0.433204
0.801022 0.000000 0.452338
0.833707 0.000000 0.470497
0.864744 0.000000 0.487648
0.894285 0.000000 0.504021
0.922393 0.000000 0.519677
0.949310 0.000000 0.534630
0.975250 0.000000 0.549035
1.000000 0.000000 0.563043
1.000000 0.000000 0.576593
1.000000 0.000000 0.589837
0.310124 0.340398 0.000000
0.309850 0.339300 0.000000
0.311650 0.338415 0.000000
0.315740 0.336431 0.000000
0.321904 0.333318 0.000000
0.325689 0.327123 0.000000
0.329717 0.318639 0.000000
0.334936 0.308354 0.000000
0.325811 0.290166 0.000000
0.312840 0.269291 0.000000
0.322942 0.263645 0.000000
0.349462 0.189120 0.071443
0.386023 0.034333 0.107240
0.424933 0.000000 0.175113
0.457252 0.000000 0.238407
0.487068 0.000000 0.288823
0.542626 0.000000 0.316472
0.594873 0.000000 0.343084
0.641962 0.000000 0.367529
0.685451 0.000000 0.390478
0.726070 0.000000 0.412085
0.764157 0.000000 0.432471
0.799863 0.000000 0.451759
0.832822 0.000000 0.470008
0.864073 0.000000 0.487282
0.893767 0.000000 0.503746
0.922026 0.000000 0.519463
0.949096 0.000000 0.534508
0.975097 0.000000 0.548974
1.000000 0.000000 0.563043
1.000000 0.000000 0.576654
1.000000 0.000000 0.589868
0.372808 0.409247 0.000000
0.374121 0.408698 0.000000
0.376104 0.408057 0.000000
0.380255 0.406622 0.000000
0.386572 0.404120 0.000000
0.391272 0.399145 0.000000
0.396216 0.392218 0.000000
0.402441 0.383734 0.000000
0.408209 0.371557 0.000000
0.397559 0.352728 0.000000
0.385077 0.330877 0.000000
0.388434 0.318578 0.000000
0.423529 0.250645 0.057038
0.453651 0.142550 0.121065
0.495216 0.000000 0.170169
0.525322 0.000000 0.246830
0.551293 0.000000 0.304265
0.585443 0.000000 0.344121
0.634424 0.000000 0.368078
0.679438 0.000000 0.390661
0.721218 0.000000 0.412055
0.760189 0.000000 0.432288
0.796658 0.000000 0.451514
0.830900 0.000000 0.469673
0.863157 0.000000 0.486915
0.893156 0.000000 0.503441
0.921630 0.000000 0.519219
0.948791 0.000000 0.534356
0.974914 0.000000 0.548913
1.000000 0.000000 0.563012
1.000000 0.000000 0.576654
1.000000 0.000000 0.589929
0.437812 0.479622 0.000000
0.439307 0.479316 0.000000
0.441260 0.478767 0.000000
0.445441 0.477607 0.000000
0.452094 0.475959 0.000000
0.457465 0.472023 0.000000
0.463264 0.466651 0.000000
0.470283 0.459693 0.000000
0.478920 0.451270 0.000000
0.483528 0.437324 0.000000
0.473304 0.418708 0.000000
0.461921 0.396674 0.000000
0.457557 0.376684 0.000000
0.500755 0.318273 0.000122
0.525750 0.215671 0.134035
0.566186 0.000000 0.156100
0.592767 0.000000 0.250340
0.614679 0.000000 0.314488
0.633448 0.000000 0.364935
0.671504 0.000000 0.393286
0.714839 0.000000 0.414008
0.754971 0.000000 0.433722
0.792508 0.000000 0.452461
0.827573 0.000000 0.470314
0.860563 0.000000 0.487312
0.891600 0.000000 0.503532
0.921019 0.000000 0.519005
0.948486 0.000000 0.534173
0.974731 0.000000 0.548791
1.000000 0.000000 0.562982
1.000000 0.000000 0.576684
1.000000 0.000000 0.590021
0.499916 0.546929 0.000000
0.501366 0.546715 0.000000
0.503319 0.546380 0.000000
0.507530 0.545586 0.000000
0.514153 0.544457 0.000000
0.520714 0.541833 0.000000
0.526940 0.537591 0.000000
0.534569 0.532189 0.000000
0.543969 0.525566 0.000000
0.555383 0.517967 0.000000
0.557855 0.502892 0.000000
0.548943 0.484474 0.000000
0.539147 0.462776 0.000000
0.528130 0.436469 0.000000
0.576593 0.388342 0.000000
0.599115 0.284581 0.140810
0.629572 0.110903 0.179690
0.654688 0.000000 0.249180
0.672450 0.000000 0.320378
0.688991 0.000000 0.375158
0.706172 0.000000 0.419471
0.747982 0.000000 0.438178
0.786740 0.000000 0.456031
0.822934 0.000000 0.473121
0.856809 0.000000 0.489509
0.888670 0.000000 0.505150
0.918791 0.000000 0.520165
0.947295 0.000000 0.534722
0.974487 0.000000 0.548791
1.000000 0.000000 0.562951
1.000000 0.000000 0.576715
1.000000 0.000000 0.590143
0.554376 0.606165 0.000000
0.555749 0.605951 0.000000
0.557610 0.605737 0.000000
0.561700 0.605280 0.000000
0.567956 0.604334 0.000000
0.575494 0.602716 0.000000
0.581994 0.599573 0.000000
0.590082 0.595605 0.000000
0.599817 0.590661 0.000000
0.611627 0.584985 0.000000
0.625635 0.578058 0.000000
0.625849 0.562402 0.000000
0.618982 0.545190 0.000000
0.611414 0.524743 0.000000
0.602777 0.499947 0.000000
0.644862 0.456031 0.000000
0.663752 0.351659 0.150484
0.684749 0.234592 0.209323
0.710140 0.000000 0.247044
0.725734 0.000000 0.324804
0.740475 0.000000 0.383337
0.754818 0.000000 0.431189
0.778683 0.000000 0.463569
0.816251 0.000000 0.479713
0.851286 0.000000 0.495033
0.884215 0.000000 0.509697
0.915190 0.000000 0.523857
0.944518 0.000000 0.537530
0.972442 0.000000 0.550835
0.999115 0.000000 0.563867
1.000000 0.000000 0.576776
1.000000 0.000000 0.590234
0.600946 0.657069 0.000000
0.602228 0.656916 0.000000
0.603876 0.656703 0.000000
0.607813 0.656367 0.000000
0.613794 0.655726 0.000000
0.621942 0.654871 0.000000
0.628656 0.652522 0.000000
0.636591 0.649439 0.000000
0.646174 0.645747 0.000000
0.657832 0.641382 0.000000
0.671412 0.636225 0.000000
0.687526 0.630091 0.000000
0.684657 0.613672 0.000000
0.679652 0.597711 0.000000
0.673945 0.578546 0.000000
0.667567 0.555596 0.000000
0.703395 0.518120 0.000000
0.719265 0.415473 0.163760
0.733059 0.325444 0.244419
0.759609 0.136995 0.256199
0.774350 0.065064 0.330816
0.787625 0.000000 0.391608
0.800626 0.000000 0.441169
0.813718 0.000000 0.483711
0.843351 0.000000 0.505028
0.877379 0.000000 0.518730
0.909453 0.000000 0.531914
0.939757 0.000000 0.544488
0.968597 0.000000 0.556603
0.996155 0.000000 0.568444
1.000000 0.000000 0.580011
1.000000 0.000000 0.591516
0.640864 0.700893 0.000000
0.642084 0.700771 0.000000
0.643641 0.700618 0.000000
0.647211 0.700313 0.000000
0.652735 0.699763 0.000000
0.660365 0.699153 0.000000
0.668238 0.697780 0.000000
0.675868 0.695460 0.000000
0.685084 0.692531 0.000000
0.696071 0.689143 0.000000
0.709041 0.685115 0.000000
0.724300 0.680507 0.000000
0.738491 0.671901 0.000000
0.735531 0.657801 0.000000
0.731777 0.642725 0.000000
0.727687 0.624964 0.000000
0.722896 0.603723 0.000000
0.753628 0.575097 0.000000
0.767727 0.475349 0.181735
0.779782 0.396002 0.270390
0.800992 0.284611 0.295232
0.818112 0.196689 0.341344
0.830076 0.184878 0.402472
0.841947 0.174807 0.452461
0.854063 0.166964 0.495491
0.867979 0.156191 0.532464
0.901091 0.000000 0.544884
0.932311 0.000000 0.556664
0.962097 0.000000 0.567926
0.990539 0.000000 0.578607
1.000000 0.000000 0.588861
1.000000 0.000000 0.598749
0.675105 0.738613 0.000000
0.676173 0.738552 0.000000
0.677699 0.738430 0.000000
0.680964 0.738216 0.000000
0.686122 0.737789 0.000000
0.693111 0.737270 0.000000
0.701930 0.736538 0.000000
0.709194 0.734646 0.000000
0.717830 0.732418 0.000000
0.728145 0.729732 0.000000
0.740261 0.726558 0.000000
0.754421 0.722866 0.000000
0.770687 0.718624 0.000000
0.781857 0.707820 0.000000
0.779416 0.695705 0.000000
0.776730 0.681605 0.000000
0.773709 0.665064 0.000000
0.770474 0.645747 0.000000
0.797787 0.627283 0.000000
0.811032 0.532158 0.204471
0.821897 0.460395 0.296757
0.837430 0.387945 0.338720
0.856809 0.287816 0.358740
0.867704 0.281773 0.417762
0.878599 0.277562 0.466804
0.889921 0.275914 0.509270
0.902037 0.277134 0.547387
0.922271 0.257298 0.573510
0.952758 0.183597 0.584466
0.981903 0.000000 0.594842
1.000000 0.000000 0.604608
1.000000 0.000000 0.613703
0.704524 0.771328 0.000000
0.705562 0.771206 0.000000
0.706935 0.771176 0.000000
0.709926 0.770932 0.000000
0.714687 0.770626 0.000000
0.721065 0.770169 0.000000
0.729274 0.769558 0.000000
0.737667 0.768460 0.000000
0.745785 0.766659 0.000000
0.755428 0.764523 0.000000
0.766781 0.762081 0.000000
0.779812 0.759213 0.000000
0.794919 0.755886 0.000000
0.812284 0.752132 0.000000
0.819913 0.740658 0.000000
0.818418 0.729397 0.000000
0.816800 0.716335 0.000000
0.814969 0.701259 0.000000
0.812924 0.683772 0.000000
0.837308 0.675807 0.000000
0.849577 0.585657 0.231418
0.859068 0.520806 0.325841
0.869261 0.476051 0.385168
0.888975 0.387854 0.393103
0.900511 0.367620 0.438849
0.910674 0.366644 0.485298
0.921355 0.368109 0.526207
0.932952 0.372869 0.563409
0.945739 0.381628 0.598108
0.970825 0.359045 0.615076
0.999115 0.317845 0.625330
1.000000 0.265843 0.635004
0.730648 0.800565 0.000000
0.731563 0.800534 0.000000
0.732876 0.800443 0.000000
0.735653 0.800290 0.000000
0.739986 0.800015 0.000000
0.745937 0.799649 0.000000
0.753445 0.799191 0.000000
0.762631 0.798581 0.000000
0.770871 0.797330 0.000000
0.779873 0.795682 0.000000
0.790433 0.793759 0.000000
0.802548 0.791562 0.000000
0.816556 0.788998 0.000000
0.832609 0.786130 0.000000
0.850706 0.782803 0.000000
0.854704 0.770535 0.000000
0.853971 0.760067 0.000000
0.853147 0.748013 0.000000
0.852171 0.734218 0.000000
0.850980 0.718593 0.000000
0.872526 0.720546 0.077638
0.883574 0.635523 0.262242
0.891814 0.577173 0.357031
0.898131 0.549157 0.427344
0.915160 0.486152 0.439002
0.928954 0.446265 0.464759
0.938567 0.447120 0.507652
0.948791 0.450843 0.546258
0.960021 0.457710 0.581872
0.972503 0.468513 0.615564
0.987396 0.481880 0.646662
1.000000 0.462806 0.657679
0.754147 0.827298 0.000000
0.755001 0.827268 0.000000
0.756191 0.827207 0.000000
0.758694 0.827085 0.000000
0.762753 0.826871 0.000000
0.768246 0.826566 0.000000
0.775174 0.826169 0.000000
0.783658 0.825681 0.000000
0.793576 0.825071 0.000000
0.801938 0.823789 0.000000
0.811734 0.822263 0.000000
0.823056 0.820554 0.000000
0.835996 0.818540 0.000000
0.850736 0.816281 0.000000
0.867399 0.813687 0.000000
0.885557 0.810239 0.000000
0.886412 0.797787 0.000000
0.886259 0.787991 0.000000
0.886015 0.776852 0.000000
0.885649 0.764248 0.000000
0.884977 0.750362 0.000000
0.900786 0.749813 0.147738
0.913573 0.681880 0.295567
0.920470 0.629603 0.389441
0.925872 0.604303 0.457313
0.938262 0.566186 0.482063
0.953887 0.515312 0.492622
0.963043 0.517815 0.531853
0.972930 0.523033 0.567926
0.983886 0.531609 0.601678
0.996094 0.544427 0.634150
1.000000 0.562554 0.665888
0.776028 0.851804 0.000000
0.775967 0.851713 0.000000
0.777096 0.851652 0.000000
0.779446 0.851560 0.000000
0.783169 0.851347 0.000000
0.788205 0.851102 0.000000
0.794644 0.850767 0.000000
0.802426 0.850370 0.000000
0.811765 0.849851 0.000000
0.821958 0.849149 0.000000
0.831052 0.847959 0.000000
0.841520 0.846555 0.000000
0.853513 0.844999 0.000000
0.867063 0.843168 0.000000
0.882353 0.841123 0.000000
0.899535 0.838804 0.000000
0.914458 0.832273 0.000000
0.915190 0.822477 0.000000
0.915465 0.813291 0.000000
0.915526 0.802976 0.000000
0.915496 0.791684 0.000000
0.915190 0.779416 0.048371
0.926085 0.776730 0.202579
0.939818 0.724636 0.330785
0.945647 0.677302 0.421637
0.950439 0.653834 0.486030
0.958740 0.633387 0.521630
0.973968 0.589075 0.528740
0.984527 0.580255 0.556847
0.994079 0.587030 0.590356
1.000000 0.597345 0.622431
1.000000 0.612329 0.653712
0.796536 0.874327 0.000000
0.796445 0.874266 0.000000
0.796323 0.874113 0.000000
0.798062 0.873991 0.000000
0.801511 0.873838 0.000000
0.806180 0.873594 0.000000
0.812100 0.873289 0.000000
0.819303 0.872923 0.000000
0.827939 0.872465 0.000000
0.837919 0.871916 0.000000
0.848600 0.871214 0.000000
0.858335 0.870085 0.000000
0.869383 0.868803 0.000000
0.881834 0.867338 0.000000
0.895872 0.865660 0.000000
0.911650 0.863767 0.000000
0.929137 0.861631 0.000000
0.940673 0.852628 0.000000
0.941314 0.844907 0.000000
0.941772 0.836271 0.000000
0.942107 0.826871 0.000000
0.942168 0.816678 0.000000
0.941955 0.806058 0.147616
0.948730 0.801938 0.251835
0.962860 0.764126 0.366491
0.967895 0.720516 0.452277
0.972137 0.698421 0.513268
0.976837 0.690822 0.557824
0.991028 0.655268 0.564874
1.000000 0.635950 0.581903
1.000000 0.644190 0.613214
1.000000 0.656489 0.643702
0.815366 0.894987 0.000000
0.815305 0.894926 0.000000
0.815244 0.894865 0.000000
0.815030 0.894621 0.000000
0.818021 0.894469 0.000000
0.822354 0.894255 0.000000
0.827817 0.893980 0.000000
0.834470 0.893645 0.000000
0.842466 0.893248 0.000000
0.851713 0.892729 0.000000
0.862303 0.892149 0.000000
0.873625 0.891417 0.000000
0.883818 0.890379 0.000000
0.895323 0.889128 0.000000
0.908263 0.887755 0.000000
0.922698 0.886198 0.000000
0.938750 0.884428 0.000000
0.956451 0.882444 0.000000
0.964172 0.872557 0.000000
0.964935 0.865263 0.000000
0.965515 0.857206 0.000000
0.965850 0.848569 0.000000
0.965881 0.839567 0.033356
0.965576 0.830503 0.208225
0.968933 0.825528 0.298131
0.983093 0.799893 0.400824
0.987457 0.759274 0.481270
0.991180 0.738582 0.538933
0.994781 0.733242 0.583520
1.000000 0.711299 0.597681
1.000000 0.685664 0.606561
1.000000 0.695705 0.636042
0.832731 0.914061 0.000000
0.832700 0.914031 0.000000
0.832609 0.913939 0.000000
0.832486 0.913787 0.000000
0.832853 0.913542 0.000000
0.836820 0.913359 0.000000
0.841947 0.913115 0.000000
0.848112 0.912779 0.000000
0.855528 0.912352 0.000000
0.864073 0.911894 0.000000
0.873899 0.911345 0.000000
0.884916 0.910704 0.000000
0.897093 0.909941 0.000000
0.907713 0.908904 0.000000
0.919585 0.907713 0.000000
0.932830 0.906401 0.000000
0.947570 0.904906 0.000000
0.963806 0.903227 0.000000
0.981598 0.901366 0.000000
0.985504 0.890715 0.000000
0.986267 0.883726 0.000000
0.986816 0.876219 0.000000
0.987030 0.868376 0.000000
0.986877 0.860441 0.152193
0.986297 0.852903 0.260655
0.986877 0.847501 0.341955
1.000000 0.831907 0.433204
1.000000 0.794034 0.508537
1.000000 0.774594 0.563043
1.000000 0.769162 0.605432
1.000000 0.759396 0.627436
1.000000 0.739956 0.636713
0.848783 0.931670 0.000000
0.848753 0.931609 0.000000
0.848692 0.931579 0.000000
0.848569 0.931456 0.000000
0.848417 0.931273 0.000000
0.849943 0.931029 0.000000
0.854643 0.930785 0.000000
0.860410 0.930449 0.000000
0.867247 0.930053 0.000000
0.875212 0.929595 0.000000
0.884276 0.929076 0.000000
0.894560 0.928435 0.000000
0.906004 0.927703 0.000000
0.918669 0.926879 0.000000
0.929992 0.925872 0.000000
0.942199 0.924712 0.000000
0.955688 0.923430 0.000000
0.970611 0.921965 0.000000
0.986908 0.920317 0.000000
1.000000 0.917205 0.000000
1.000000 0.907073 0.000000
1.000000 0.900420 0.000000
1.000000 0.893431 0.000000
1.000000 0.886351 0.000000
1.000000 0.879545 0.213657
1.000000 0.873381 0.307897
1.000000 0.868162 0.382757
1.000000 0.860441 0.463478
1.000000 0.825010 0.534020
1.000000 0.806699 0.585595
1.000000 0.801511 0.626001
1.000000 0.800870 0.654444
0.863584 0.947967 0.000000
0.863584 0.947906 0.000000
0.863523 0.947875 0.000000
0.863462 0.947784 0.000000
0.863310 0.947662 0.000000
0.863157 0.947478 0.000000
0.866087 0.947204 0.000000
0.871427 0.946868 0.000000
0.877806 0.946502 0.000000
0.885161 0.946044 0.000000
0.893614 0.945495 0.000000
0.903105 0.944884 0.000000
0.913725 0.944152 0.000000
0.925505 0.943359 0.000000
0.938415 0.942443 0.000000
0.950835 0.941405 0.000000
0.963256 0.940215 0.000000
0.976898 0.938933 0.000000
0.991913 0.937438 0.000000
1.000000 0.935821 0.000000
1.000000 0.929747 0.000000
1.000000 0.921813 0.000000
1.000000 0.915465 0.000000
1.000000 0.908995 0.000000
1.000000 0.902617 0.138796
1.000000 0.896818 0.264103
1.000000 0.891875 0.351049
1.000000 0.887877 0.420233
1.000000 0.885649 0.491493
1.000000 0.852415 0.557794
1.000000 0.835325 0.606775
1.000000 0.830716 0.645502
0.877317 0.963012 0.000000
0.877317 0.962982 0.000000
0.877287 0.962951 0.000000
0.877226 0.962921 0.000000
0.877134 0.962799 0.000000
0.877043 0.962676 0.000000
0.876860 0.962493 0.000000
0.881346 0.962188 0.000000
0.887236 0.961791 0.000000
0.894102 0.961303 0.000000
0.901915 0.960754 0.000000
0.910735 0.960143 0.000000
0.920592 0.959442 0.000000
0.931518 0.958618 0.000000
0.943511 0.957671 0.000000
0.956603 0.956664 0.000000
0.970275 0.955535 0.000000
0.982818 0.954314 0.000000
0.996551 0.952941 0.000000
1.000000 0.951446 0.000000
1.000000 0.949737 0.000000
1.000000 0.940856 0.000000
1.000000 0.934966 0.000000
1.000000 0.928893 0.000000
1.000000 0.922820 0.000000
1.000000 0.917174 0.200076
1.000000 0.912261 0.308202
1.000000 0.908324 0.389197
1.000000 0.905241 0.453986
1.000000 0.907469 0.517510
1.000000 0.876524 0.580133
1.000000 0.860899 0.626947
0.889982 0.976928 0.000000
0.889982 0.976898 0.000000
0.889982 0.976898 0.000000
0.889952 0.976837 0.000000
0.889860 0.976806 0.000000
0.889799 0.976715 0.000000
0.889708 0.976593 0.000000
0.890105 0.976440 0.000000
0.895598 0.976013 0.000000
0.901976 0.975525 0.000000
0.909270 0.974975 0.000000
0.917479 0.974304 0.000000
0.926635 0.973571 0.000000
0.936797 0.972747 0.000000
0.947906 0.971801 0.000000
