其他预设/【213】赛博朋克科幻预设52款/1.LUT预设（视频调色-PR-AE-PS-FCPX-达芬奇用）/赛博朋克科幻__-5 强度5.cube
# Created by Adobe Lightroom plugin Export LUT (1.17.0)
# www.johnrellis.com/lightroom/exportlut.htm
# Preset: 赛博朋克科幻[素锦印象]-5 强度5
# Color profile: /Library/Application Support/Adobe/Color/Profiles/Recommended/AdobeRGB1998.icc
LUT_3D_SIZE 5
DOMAIN_MIN 0.000000 0.000000 0.000000
DOMAIN_MAX 0.903226 0.903226 0.903226
0.081025 0.078309 0.062196
0.175204 0.046571 0.095430
0.538628 0.000000 0.257420
0.848203 0.000000 0.447547
1.000000 0.000000 0.586145
0.000000 0.265354 0.200839
0.118990 0.185672 0.045716
0.519921 0.000000 0.239994
0.843534 0.000000 0.444190
1.000000 0.000000 0.585657
0.000000 0.702998 0.705959
0.000000 0.714656 0.653803
0.290837 0.581720 0.000000
0.842130 0.000000 0.266972
1.000000 0.000000 0.562585
0.000000 0.844846 0.911040
0.000000 0.851041 0.905058
0.000000 0.938293 0.850950
0.464729 0.861387 0.000000
1.000000 0.207797 0.293614
0.000000 0.917510 1.000000
0.000000 0.917967 1.000000
0.000000 0.958770 0.993622
0.515648 1.000000 0.937469
0.707576 1.000000 0.407019
0.063233 0.106172 0.110903
0.158206 0.037507 0.130159
0.570153 0.000000 0.338293
0.849516 0.000000 0.473213
1.000000 0.000000 0.587091
0.000000 0.167758 0.180728
0.162539 0.155245 0.108248
0.557031 0.000000 0.336950
0.850217 0.000000 0.506065
1.000000 0.000000 0.586633
0.000000 0.640681 0.711116
0.000000 0.653620 0.647639
0.316808 0.560296 0.000000
0.838926 0.000000 0.343847
1.000000 0.000000 0.606439
0.000000 0.813565 0.914702
0.000000 0.825589 0.906523
0.000000 0.913817 0.853941
0.504265 0.853727 0.000000
1.000000 0.332830 0.379919
0.000000 0.903502 1.000000
0.000000 0.903960 1.000000
0.000000 0.944854 0.995209
0.577996 1.000000 0.950866
0.733089 0.998810 0.464118
0.000000 0.340124 0.488808
0.000000 0.216220 0.408606
0.474098 0.000000 0.457923
0.862577 0.000000 0.683772
1.000000 0.000000 0.663539
0.000000 0.454261 0.568963
0.000000 0.311284 0.477333
0.446815 0.000000 0.466377
0.853452 0.000000 0.714443
1.000000 0.000000 0.676814
0.000000 0.490486 0.720577
0.000000 0.469459 0.668360
0.498939 0.478370 0.349371
0.847807 0.000000 0.611383
1.000000 0.000000 0.738766
0.000000 0.702937 0.928801
0.000000 0.721065 0.919463
0.000000 0.818906 0.871824
0.638392 0.824949 0.397711
0.995209 0.555688 0.607721
0.000000 0.846036 1.000000
0.000000 0.848600 1.000000
0.000000 0.888701 1.000000
0.658595 1.000000 0.973480
0.795315 0.987884 0.597925
0.000000 0.500389 0.851926
0.000000 0.441321 0.831022
0.000000 0.000000 0.738582
0.679347 0.000000 0.780026
1.000000 0.000000 0.897368
0.000000 0.519951 0.867247
0.000000 0.456977 0.848814
0.000000 0.000000 0.768460
0.661585 0.000000 0.785672
1.000000 0.000000 0.909575
0.000000 0.624353 0.908171
0.000000 0.635187 0.901549
0.211826 0.568139 0.829160
0.629145 0.000000 0.787381
1.000000 0.000000 0.940459
0.000000 0.594568 0.948333
0.000000 0.595758 0.942290
0.176425 0.669276 0.907622
0.786130 0.771115 0.687709
1.000000 0.444770 0.832059
0.000000 0.716487 1.000000
0.000000 0.718196 1.000000
0.000000 0.756649 1.000000
0.619989 0.938445 0.989563
0.869017 0.971618 0.753506
0.000000 0.572839 1.000000
0.000000 0.543236 1.000000
0.000000 0.416175 0.984100
0.380468 0.000000 0.933837
0.805722 0.000000 0.974456
0.000000 0.578729 1.000000
0.000000 0.550896 1.000000
0.000000 0.431128 0.989014
0.324193 0.000000 0.943023
0.797910 0.000000 0.975769
0.000000 0.688533 1.000000
0.000000 0.685664 1.000000
0.000000 0.525231 1.000000
0.000000 0.000000 0.970520
0.770474 0.000000 0.980285
0.000000 0.662531 1.000000
0.000000 0.667018 1.000000
0.390539 0.792325 1.000000
0.780758 0.864134 0.982666
0.718929 0.000000 0.986694
0.000000 0.628565 1.000000
0.000000 0.628779 1.000000
0.000000 0.633173 1.000000
0.736751 0.874907 1.000000
0.946777 0.942473 0.920012
