其他预设/【213】赛博朋克科幻预设52款/1.LUT预设（视频调色-PR-AE-PS-FCPX-达芬奇用）/赛博朋克科幻__-7 强度1.cube
# Created by Adobe Lightroom plugin Export LUT (1.17.0)
# www.johnrellis.com/lightroom/exportlut.htm
# Preset: 赛博朋克科幻[素锦印象]-7 强度1
# Color profile: /Library/Application Support/Adobe/Color/Profiles/Recommended/AdobeRGB1998.icc
LUT_3D_SIZE 32
0.024048 0.051728 0.037201
0.025422 0.051545 0.037201
0.062806 0.052735 0.035828
0.093843 0.055024 0.032868
0.127687 0.059113 0.027924
0.161685 0.064302 0.020722
0.195712 0.071229 0.011200
0.230228 0.078248 0.000000
0.265232 0.085115 0.000000
0.300694 0.092439 0.000000
0.337041 0.099916 0.000000
0.373816 0.107790 0.000000
0.410956 0.116487 0.000000
0.448341 0.126284 0.000000
0.485878 0.136385 0.000000
0.523552 0.145968 0.000000
0.561273 0.155215 0.000000
0.598413 0.164431 0.000000
0.633509 0.172915 0.000000
0.667781 0.181186 0.000000
0.701564 0.189273 0.000000
0.734951 0.197116 0.000000
0.767819 0.204654 0.000000
0.800076 0.212009 0.000000
0.831815 0.219028 0.000000
0.862974 0.225742 0.000000
0.893462 0.231968 0.000000
0.923369 0.238193 0.000000
0.952728 0.243809 0.000000
0.981689 0.249027 0.000000
1.000000 0.253788 0.000000
1.000000 0.258122 0.000000
0.024048 0.051728 0.037201
0.028992 0.053773 0.036866
0.063630 0.061006 0.034638
0.094148 0.064637 0.031220
0.127810 0.068116 0.026001
0.161593 0.073030 0.018708
0.195773 0.078645 0.009247
0.230167 0.085054 0.000000
0.265110 0.091005 0.000000
0.300725 0.098268 0.000000
0.337011 0.105318 0.000000
0.373754 0.112764 0.000000
0.410864 0.121431 0.000000
0.448310 0.130953 0.000000
0.485908 0.140658 0.000000
0.523491 0.149966 0.000000
0.561212 0.159091 0.000000
0.598352 0.167910 0.000000
0.633448 0.176211 0.000000
0.667750 0.184390 0.000000
0.701534 0.192325 0.000000
0.734920 0.199802 0.000000
0.767788 0.207340 0.000000
0.800107 0.214328 0.000000
0.831846 0.221256 0.000000
0.862943 0.228031 0.000000
0.893462 0.234195 0.000000
0.923339 0.240330 0.000000
0.952728 0.245792 0.000000
0.981720 0.250950 0.000000
1.000000 0.255680 0.000000
1.000000 0.259800 0.000000
0.018158 0.070222 0.036286
0.039307 0.071443 0.033265
0.065583 0.072328 0.031983
0.094545 0.073945 0.028992
0.128023 0.077729 0.023590
0.161868 0.082582 0.016083
0.195773 0.087282 0.006775
0.230045 0.093019 0.000000
0.265171 0.098848 0.000000
0.300725 0.105043 0.000000
0.336980 0.112032 0.000000
0.373754 0.119600 0.000000
0.410803 0.128115 0.000000
0.448249 0.137301 0.000000
0.485756 0.146365 0.000000
0.523552 0.155184 0.000000
0.561181 0.164004 0.000000
0.598260 0.172580 0.000000
0.633478 0.180392 0.000000
0.667750 0.188388 0.000000
0.701534 0.196017 0.000000
0.734890 0.203464 0.000000
0.767758 0.210819 0.000000
0.800076 0.217685 0.000000
0.831846 0.224491 0.000000
0.862974 0.231022 0.000000
0.893462 0.237217 0.000000
0.923339 0.243076 0.000000
0.952758 0.248356 0.000000
0.981689 0.253544 0.000000
1.000000 0.258030 0.000000
1.000000 0.262211 0.000000
0.004761 0.096162 0.032319
0.029053 0.096925 0.027070
0.061494 0.097810 0.025696
0.096223 0.098543 0.022400
0.128237 0.098024 0.017212
0.161837 0.100008 0.010407
0.195865 0.103975 0.000977
0.230228 0.108614 0.000000
0.265110 0.113863 0.000000
0.300633 0.119539 0.000000
0.336858 0.126375 0.000000
0.373510 0.133791 0.000000
0.410590 0.141665 0.000000
0.448005 0.149722 0.000000
0.485664 0.157748 0.000000
0.523400 0.165988 0.000000
0.561120 0.174136 0.000000
0.598230 0.182010 0.000000
0.633356 0.189578 0.000000
0.667628 0.196872 0.000000
0.701503 0.204166 0.000000
0.734859 0.211063 0.000000
0.767758 0.218112 0.000000
0.800046 0.224735 0.000000
0.831815 0.231205 0.000000
0.862974 0.237491 0.000000
0.893462 0.243290 0.000000
0.923339 0.249058 0.000000
0.952758 0.254276 0.000000
0.981689 0.259098 0.000000
1.000000 0.263401 0.000000
1.000000 0.267338 0.000000
0.000000 0.124605 0.029786
0.024292 0.124727 0.036316
0.059571 0.125399 0.034943
0.090425 0.126467 0.031891
0.128084 0.127657 0.024262
0.161654 0.126925 0.016358
0.195499 0.128084 0.006836
0.229862 0.130983 0.000000
0.264866 0.135531 0.000000
0.300267 0.140780 0.000000
0.336461 0.146670 0.000000
0.373297 0.152834 0.000000
0.410407 0.159762 0.000000
0.447791 0.166812 0.000000
0.485451 0.174044 0.000000
0.523247 0.181430 0.000000
0.560967 0.188663 0.000000
0.598016 0.195895 0.000000
0.633204 0.202792 0.000000
0.667567 0.209506 0.000000
0.701411 0.216220 0.000000
0.734798 0.222843 0.000000
0.767727 0.229068 0.000000
0.800046 0.235416 0.000000
0.831785 0.241428 0.000000
0.862943 0.247166 0.000000
0.893431 0.252689 0.000000
0.923369 0.257939 0.000000
0.952758 0.262882 0.000000
0.981689 0.267491 0.000000
1.000000 0.271519 0.000000
1.000000 0.275212 0.000000
0.000000 0.152651 0.040803
0.018769 0.152895 0.047150
0.055970 0.153567 0.046876
0.086091 0.154665 0.042847
0.122621 0.155917 0.037598
0.160678 0.157473 0.028840
0.195254 0.157015 0.020020
0.229648 0.158541 0.009186
0.264256 0.160220 0.000000
0.299840 0.164370 0.000000
0.336095 0.169558 0.000000
0.372900 0.174960 0.000000
0.410010 0.180789 0.000000
0.447608 0.186954 0.000000
0.485206 0.193362 0.000000
0.523064 0.199863 0.000000
0.560784 0.206577 0.000000
0.597833 0.213169 0.000000
0.632990 0.219364 0.000000
0.667384 0.225376 0.000000
0.701289 0.231449 0.000000
0.734737 0.237247 0.000000
0.767636 0.243137 0.000000
0.799985 0.249027 0.000000
0.831754 0.254490 0.000000
0.862913 0.259770 0.000000
0.893431 0.264897 0.000000
0.923339 0.269718 0.000000
0.952758 0.274235 0.000000
0.981750 0.278355 0.000000
1.000000 0.282170 0.000000
1.000000 0.285527 0.000000
0.000000 0.181796 0.051331
0.000000 0.182132 0.049012
0.046693 0.182467 0.054353
0.083375 0.183444 0.052064
0.115328 0.185122 0.048310
0.155428 0.186526 0.041016
0.194095 0.188113 0.032074
0.229435 0.187594 0.022370
0.264378 0.189029 0.010315
0.299687 0.190829 0.000000
0.335637 0.193759 0.000000
0.372442 0.198642 0.000000
0.409644 0.203861 0.000000
0.447272 0.209354 0.000000
0.485023 0.215122 0.000000
0.522759 0.221042 0.000000
0.560540 0.227085 0.000000
0.597650 0.232883 0.000000
0.632807 0.238468 0.000000
0.667231 0.243839 0.000000
0.701137 0.249363 0.000000
0.734646 0.254582 0.000000
0.767544 0.259831 0.000000
0.799954 0.264927 0.000000
0.831724 0.270085 0.000000
0.862852 0.274784 0.000000
0.893400 0.279484 0.000000
0.923339 0.283940 0.000000
0.952758 0.287877 0.000000
0.981720 0.291814 0.000000
1.000000 0.295079 0.000000
1.000000 0.298070 0.000000
0.000000 0.211490 0.061189
0.000000 0.211948 0.057038
0.026612 0.212161 0.060670
0.078279 0.213046 0.059388
0.112642 0.214603 0.056947
0.148501 0.216403 0.052216
0.189334 0.217899 0.045869
0.228550 0.219821 0.035187
0.264500 0.218784 0.025971
0.299901 0.220157 0.012573
0.335973 0.222080 0.000000
0.372198 0.224308 0.000000
0.409277 0.228336 0.000000
0.446876 0.233341 0.000000
0.484718 0.238590 0.000000
0.522545 0.243900 0.000000
0.560327 0.249485 0.000000
0.597375 0.254795 0.000000
0.632563 0.259648 0.000000
0.667048 0.264408 0.000000
0.700954 0.269261 0.000000
0.734524 0.273930 0.000000
0.767453 0.278752 0.000000
0.799863 0.283330 0.000000
0.831662 0.287724 0.000000
0.862852 0.292149 0.000000
0.893339 0.296269 0.000000
0.923308 0.300175 0.000000
0.952758 0.303868 0.000000
0.981750 0.307134 0.000000
1.000000 0.310155 0.000000
1.000000 0.312688 0.000000
0.000000 0.242374 0.067689
0.000000 0.242771 0.064607
0.000000 0.243351 0.062684
0.072267 0.243870 0.065980
0.109682 0.245243 0.063996
0.143862 0.246921 0.062013
0.183078 0.248692 0.058808
0.224155 0.250340 0.050813
0.264195 0.252293 0.039673
0.300389 0.250950 0.030854
0.336461 0.252476 0.014466
0.372930 0.254246 0.000000
0.409583 0.256352 0.000000
0.446509 0.258824 0.000000
0.484291 0.263584 0.000000
0.522179 0.268498 0.000000
0.559991 0.273472 0.000000
0.597131 0.278294 0.000000
0.632258 0.282628 0.000000
0.666804 0.286748 0.000000
0.700771 0.291081 0.000000
0.734340 0.295201 0.000000
0.767330 0.299351 0.000000
0.799771 0.303532 0.000000
0.831540 0.307500 0.000000
0.862760 0.311254 0.000000
0.893309 0.314977 0.000000
0.923278 0.318334 0.000000
0.952728 0.321538 0.000000
0.981750 0.324407 0.000000
1.000000 0.326940 0.000000
1.000000 0.329107 0.000000
0.000000 0.274113 0.074403
0.000000 0.274449 0.071626
0.000000 0.274876 0.067384
0.064942 0.275364 0.072511
0.105867 0.276616 0.071077
0.141909 0.278172 0.068879
0.176028 0.280064 0.066316
0.218631 0.281682 0.062501
0.260014 0.283604 0.056977
0.300542 0.285710 0.045747
0.337041 0.283635 0.036744
0.373693 0.285191 0.016358
0.410437 0.286992 0.000000
0.447425 0.288914 0.000000
0.484382 0.290990 0.000000
0.521813 0.294163 0.000000
0.559716 0.298772 0.000000
0.596765 0.303044 0.000000
0.631891 0.306950 0.000000
0.666438 0.310582 0.000000
0.700526 0.314336 0.000000
0.734096 0.318090 0.000000
0.767178 0.321599 0.000000
0.799588 0.325261 0.000000
0.831449 0.328710 0.000000
0.862669 0.332036 0.000000
0.893248 0.335149 0.000000
0.923247 0.338170 0.000000
0.952728 0.340856 0.000000
0.981750 0.343267 0.000000
1.000000 0.345434 0.000000
1.000000 0.347112 0.000000
0.000000 0.306310 0.081910
0.000000 0.306645 0.079042
0.000000 0.307073 0.075349
0.051240 0.307439 0.080201
0.101228 0.308476 0.078859
0.139254 0.309880 0.077241
0.174716 0.311772 0.074891
0.211643 0.313756 0.071931
0.254856 0.315435 0.067353
0.296605 0.317510 0.062074
0.337682 0.319799 0.052308
0.374578 0.317235 0.043519
0.411505 0.318700 0.021393
0.448554 0.320287 0.000000
0.485695 0.322057 0.000000
0.522606 0.323796 0.000000
0.559442 0.325414 0.000000
0.596246 0.329015 0.000000
0.631556 0.332219 0.000000
0.666133 0.335454 0.000000
0.700252 0.338720 0.000000
0.733883 0.341955 0.000000
0.766995 0.345159 0.000000
0.799435 0.348272 0.000000
0.831327 0.351263 0.000000
0.862577 0.354101 0.000000
0.893156 0.356817 0.000000
0.923156 0.359380 0.000000
0.952667 0.361669 0.000000
0.981689 0.363684 0.000000
1.000000 0.365393 0.000000
1.000000 0.366705 0.000000
0.000000 0.338994 0.088960
0.000000 0.339300 0.086671
0.000000 0.339666 0.083345
0.011200 0.340124 0.084810
0.095155 0.340948 0.086732
0.135805 0.342199 0.085298
0.172671 0.343969 0.083406
0.207767 0.345983 0.080598
0.248508 0.347875 0.077150
0.291783 0.349889 0.072175
0.333898 0.352026 0.066499
0.375525 0.354406 0.058289
0.412665 0.351293 0.050996
0.449928 0.352636 0.026215
0.487007 0.354009 0.000000
0.524010 0.355474 0.000000
0.560906 0.356909 0.000000
0.596643 0.357733 0.000000
0.631006 0.358587 0.000000
0.665736 0.361395 0.000000
0.699947 0.364172 0.000000
0.733577 0.367041 0.000000
0.766720 0.369726 0.000000
0.799252 0.372442 0.000000
0.831205 0.374975 0.000000
0.862425 0.377478 0.000000
0.893034 0.379675 0.000000
0.923064 0.381781 0.000000
0.952575 0.383673 0.000000
0.981659 0.385290 0.000000
1.000000 0.386633 0.000000
1.000000 0.387518 0.000000
0.000000 0.372045 0.096162
0.000000 0.372351 0.094362
0.000000 0.372656 0.091066
0.000000 0.373297 0.086885
0.088258 0.373785 0.095155
0.131777 0.375006 0.093782
0.169986 0.376623 0.091829
0.206241 0.378424 0.089540
0.241459 0.380621 0.086519
0.285618 0.382574 0.082521
0.329076 0.384680 0.077272
0.371679 0.386969 0.070497
0.413855 0.389502 0.062593
0.451148 0.385779 0.059205
0.488472 0.386938 0.032959
0.525536 0.388037 0.001801
0.562463 0.389105 0.000000
0.597986 0.389441 0.000000
0.632074 0.389197 0.000000
0.665705 0.389014 0.000000
0.699580 0.390509 0.000000
0.733303 0.392859 0.000000
0.766476 0.395178 0.000000
0.799039 0.397467 0.000000
0.830991 0.399634 0.000000
0.862272 0.401709 0.000000
0.892912 0.403510 0.000000
0.922972 0.405280 0.000000
0.952514 0.406683 0.000000
0.981598 0.407996 0.000000
1.000000 0.408911 0.000000
1.000000 0.409491 0.000000
0.000000 0.405371 0.103944
0.000000 0.405646 0.101808
0.000000 0.405921 0.099306
0.000000 0.406622 0.093965
0.078553 0.406928 0.103700
0.126955 0.408026 0.102419
0.167239 0.409491 0.100862
0.204288 0.411261 0.098512
0.240238 0.413336 0.095766
0.278355 0.415595 0.092378
0.323217 0.417609 0.088014
0.366918 0.419806 0.082429
0.409766 0.422248 0.075685
0.452461 0.424903 0.066682
0.489448 0.420203 0.064881
0.527245 0.421393 0.041505
0.564050 0.422095 0.007355
0.599420 0.422004 0.000000
0.633417 0.421241 0.000000
0.667018 0.420600 0.000000
0.700160 0.420020 0.000000
0.732937 0.419440 0.000000
0.766140 0.421363 0.000000
0.798764 0.423316 0.000000
0.830747 0.425116 0.000000
0.862089 0.426795 0.000000
0.892729 0.428260 0.000000
0.922789 0.429603 0.000000
0.952392 0.430732 0.000000
0.981476 0.431647 0.000000
1.000000 0.432288 0.000000
1.000000 0.432471 0.000000
0.000000 0.438880 0.111238
0.000000 0.439094 0.109743
0.000000 0.439338 0.107454
0.000000 0.439979 0.102358
0.066316 0.440192 0.112062
0.121279 0.441321 0.111269
0.163577 0.442664 0.109621
0.201907 0.444282 0.107698
0.238560 0.446235 0.105440
0.274510 0.448493 0.102266
0.316197 0.450690 0.098177
0.360998 0.452827 0.093538
0.404852 0.455177 0.087648
0.448219 0.457771 0.080507
0.491341 0.460487 0.071595
0.527611 0.454994 0.070497
0.565759 0.455848 0.053498
0.600916 0.455177 0.021118
0.634821 0.454047 0.000000
0.668421 0.452857 0.000000
0.701472 0.451789 0.000000
0.734157 0.450813 0.000000
0.766384 0.449805 0.000000
0.798489 0.449805 0.000000
0.830472 0.451209 0.000000
0.861845 0.452552 0.000000
0.892515 0.453651 0.000000
0.922637 0.454688 0.000000
0.952239 0.455512 0.000000
0.981353 0.456123 0.000000
1.000000 0.456428 0.000000
1.000000 0.456275 0.000000
0.000000 0.472419 0.118807
0.000000 0.472663 0.117556
0.000000 0.472908 0.115450
0.000000 0.473457 0.111238
0.002564 0.473915 0.114137
0.114748 0.474647 0.120333
0.159121 0.475868 0.118837
0.198947 0.477485 0.117006
0.236576 0.479255 0.114717
0.272984 0.481361 0.112093
0.308965 0.483742 0.108583
0.354131 0.485939 0.104677
0.398962 0.488106 0.099580
0.443091 0.490608 0.093690
0.486702 0.493233 0.086336
0.530144 0.496010 0.076661
0.565332 0.489448 0.076936
0.602441 0.488991 0.064820
0.636378 0.487282 0.043702
0.669856 0.485725 0.010498
0.702876 0.484199 0.000000
0.735439 0.482765 0.000000
0.767544 0.481361 0.000000
0.799222 0.479988 0.000000
0.830350 0.478523 0.000000
0.861570 0.478920 0.000000
0.892271 0.479774 0.000000
0.922393 0.480537 0.000000
0.952026 0.481025 0.000000
0.981140 0.481300 0.000000
1.000000 0.481331 0.000000
1.000000 0.480964 0.000000
0.000000 0.506004 0.126680
0.000000 0.506188 0.125399
0.000000 0.506432 0.123812
0.000000 0.507012 0.119905
0.000000 0.507652 0.116335
0.106905 0.507958 0.129549
0.154543 0.509117 0.128328
0.195682 0.510552 0.126284
0.234195 0.512322 0.124331
0.271366 0.514214 0.121950
0.307683 0.516472 0.119142
0.346227 0.518853 0.115541
0.392126 0.521080 0.111147
0.437018 0.523400 0.106020
0.481239 0.525872 0.099763
0.524865 0.528374 0.092439
0.568261 0.530999 0.083528
0.601282 0.522545 0.085725
0.637873 0.521233 0.075715
0.671290 0.519097 0.064118
0.704250 0.517174 0.039246
0.736751 0.515251 0.001709
0.768765 0.513481 0.000000
0.800320 0.511650 0.000000
0.831327 0.509819 0.000000
0.861814 0.507927 0.000000
0.891966 0.506371 0.000000
0.922118 0.506828 0.000000
0.951781 0.507042 0.000000
0.980926 0.507073 0.000000
1.000000 0.506889 0.000000
1.000000 0.506279 0.000000
0.000000 0.539452 0.134737
0.000000 0.539635 0.133364
0.000000 0.539879 0.131899
0.000000 0.540337 0.128298
0.000000 0.541100 0.123293
0.097597 0.541161 0.139040
0.149294 0.542351 0.137697
0.191958 0.543755 0.136141
0.231540 0.545373 0.134340
0.269291 0.547204 0.132113
0.306065 0.549310 0.129183
0.342229 0.551659 0.126284
0.384344 0.553857 0.122713
0.430152 0.556023 0.118227
0.474830 0.558251 0.113283
0.518822 0.560540 0.106905
0.562493 0.562982 0.099886
0.605707 0.565393 0.091646
0.636652 0.555200 0.095430
0.672816 0.553063 0.087739
0.705745 0.550622 0.077485
0.738125 0.548302 0.065034
0.770047 0.545983 0.039887
0.801480 0.543786 0.000000
0.832334 0.541497 0.000000
0.862699 0.539300 0.000000
0.892576 0.536980 0.000000
0.922057 0.534691 0.000000
0.951476 0.533623 0.000000
0.980652 0.533410 0.000000
1.000000 0.532982 0.000000
1.000000 0.532097 0.000000
0.000000 0.573541 0.142428
0.000000 0.573693 0.141634
0.000000 0.573877 0.139925
0.000000 0.574304 0.137270
0.000000 0.575006 0.132479
0.077302 0.575189 0.144167
0.143313 0.576013 0.147372
0.188022 0.577264 0.145937
0.228641 0.578790 0.144289
0.267063 0.580438 0.142397
0.304356 0.582300 0.139956
0.340856 0.584405 0.137179
0.376928 0.586694 0.134249
0.422492 0.588678 0.130526
0.467933 0.590692 0.126009
0.512413 0.592767 0.120912
0.556268 0.594934 0.115267
0.599664 0.597131 0.108553
0.642756 0.599359 0.101015
0.671870 0.587579 0.106264
0.707240 0.584558 0.100435
0.739528 0.581720 0.091920
0.771359 0.578943 0.081514
0.802609 0.576318 0.068971
0.833341 0.573632 0.048249
0.863584 0.570977 0.003265
0.893339 0.568322 0.000000
0.922667 0.565698 0.000000
0.951690 0.563012 0.000000
0.980346 0.560266 0.000000
1.000000 0.559503 0.000000
1.000000 0.558526 0.000000
0.000000 0.607446 0.150698
0.000000 0.607568 0.150088
0.000000 0.607782 0.148806
0.000000 0.608179 0.146151
0.000000 0.608759 0.142061
0.013062 0.609216 0.147097
0.137240 0.609552 0.157717
0.183993 0.610681 0.156435
0.225620 0.611994 0.154940
0.264805 0.613519 0.153079
0.302556 0.615198 0.151125
0.339452 0.617121 0.148775
0.375708 0.619165 0.145998
0.414130 0.621332 0.142885
0.460395 0.623102 0.139254
0.505425 0.624994 0.134981
0.549676 0.626978 0.130129
0.593286 0.628931 0.124880
0.636500 0.630945 0.118532
0.679347 0.632990 0.111452
0.706600 0.619745 0.117922
0.740932 0.615564 0.113985
0.772671 0.612329 0.106630
0.803799 0.609186 0.098482
0.834379 0.606104 0.088472
0.864469 0.603021 0.076173
0.894041 0.599939 0.058961
0.923247 0.597009 0.012696
0.952117 0.594018 0.000000
0.980621 0.591058 0.000000
1.000000 0.587915 0.000000
1.000000 0.585260 0.000000
0.000000 0.641199 0.159518
0.000000 0.641321 0.158694
0.000000 0.641505 0.157473
0.000000 0.641871 0.155459
0.000000 0.642390 0.151949
0.000000 0.642969 0.150729
0.131502 0.642939 0.168643
0.180179 0.643946 0.167575
0.222904 0.645136 0.166201
0.262638 0.646479 0.164675
0.300725 0.648035 0.162753
0.338048 0.649744 0.160769
0.374426 0.651606 0.158297
0.410468 0.653620 0.155703
0.452247 0.655482 0.152529
0.498054 0.657160 0.148928
0.542748 0.658869 0.145205
0.586664 0.660700 0.140505
0.629999 0.662501 0.135500
0.672847 0.664271 0.130068
0.715267 0.666102 0.123354
0.740871 0.651484 0.130739
0.773983 0.645960 0.128786
0.804990 0.642329 0.122255
0.835447 0.638788 0.114961
0.865324 0.635340 0.106996
0.894743 0.631922 0.097139
0.923766 0.628595 0.084932
0.952514 0.625299 0.066865
0.980865 0.622004 0.019379
1.000000 0.618677 0.000000
1.000000 0.615137 0.000000
0.000000 0.674739 0.168215
0.000000 0.674922 0.167544
0.000000 0.675013 0.166720
0.000000 0.675349 0.165072
0.000000 0.675807 0.162234
0.000000 0.676417 0.158907
0.125399 0.676173 0.179477
0.177096 0.676997 0.179599
0.220706 0.678065 0.178256
0.260960 0.679286 0.176974
0.299474 0.680690 0.175357
0.336828 0.682216 0.173465
0.373419 0.683925 0.171481
0.409522 0.685725 0.169162
0.445136 0.687648 0.166506
0.490272 0.689204 0.163546
0.535332 0.690730 0.160311
0.579675 0.692317 0.156405
0.623194 0.693935 0.152255
0.666163 0.695521 0.147524
0.708675 0.697108 0.142611
0.750729 0.698695 0.136812
0.774594 0.682856 0.144839
0.806149 0.675868 0.144686
0.836454 0.671778 0.139040
0.866178 0.667903 0.132845
0.895445 0.664057 0.125826
0.924315 0.660395 0.117556
0.952850 0.656764 0.107149
0.981048 0.653193 0.093172
1.000000 0.649592 0.073579
1.000000 0.645869 0.018616
0.000000 0.708064 0.177523
0.000000 0.708186 0.177005
0.000000 0.708339 0.176211
0.000000 0.708553 0.174960
0.000000 0.708949 0.172946
0.000000 0.709468 0.170413
0.107057 0.709438 0.184726
0.175174 0.709865 0.192416
0.219303 0.710811 0.191501
0.259892 0.711879 0.190127
0.298589 0.713130 0.188815
0.335973 0.714534 0.187228
0.372503 0.716030 0.185458
0.408698 0.717617 0.183413
0.444343 0.719356 0.181155
0.482033 0.721157 0.178622
0.527764 0.722469 0.175814
0.572351 0.723842 0.172824
0.616175 0.725246 0.169375
0.659297 0.726650 0.165591
0.701778 0.728054 0.161471
0.743832 0.729366 0.156985
0.785397 0.730709 0.151766
0.807614 0.713649 0.160250
0.837461 0.705013 0.161135
0.867002 0.700618 0.156344
0.896086 0.696376 0.151125
0.924804 0.692348 0.144930
0.953155 0.688411 0.137514
0.981170 0.684504 0.128603
1.000000 0.680598 0.116854
1.000000 0.676722 0.100923
0.000000 0.741176 0.187198
0.000000 0.741238 0.186740
0.000000 0.741329 0.186252
0.000000 0.741573 0.185275
0.000000 0.741909 0.183871
0.000000 0.742336 0.182345
0.084443 0.742489 0.190738
0.174960 0.742428 0.206332
0.219181 0.743282 0.205447
0.259861 0.744198 0.204501
0.298436 0.745327 0.203342
0.335760 0.746578 0.201907
0.372320 0.747890 0.200443
0.408392 0.749325 0.198611
0.443885 0.750881 0.196719
0.479164 0.752560 0.194553
0.520012 0.753994 0.192264
0.564996 0.755154 0.189670
0.609064 0.756374 0.186923
0.652247 0.757534 0.183719
0.694789 0.758694 0.180575
0.736782 0.759823 0.176669
0.778286 0.760952 0.172824
0.819303 0.761990 0.168154
0.839933 0.743893 0.176822
0.867826 0.733486 0.179049
0.896696 0.728817 0.174960
0.925231 0.724331 0.170291
0.953399 0.720089 0.164767
0.981201 0.715908 0.158114
1.000000 0.711788 0.150179
1.000000 0.707637 0.139986
0.000000 0.773922 0.197177
0.000000 0.773983 0.196933
0.000000 0.774075 0.196658
0.000000 0.774258 0.196109
0.000000 0.774563 0.195438
0.000000 0.774899 0.194797
0.054200 0.775235 0.198093
0.177432 0.774655 0.221714
0.220981 0.775418 0.221012
0.261173 0.776272 0.220188
0.299413 0.777279 0.219028
0.336706 0.778317 0.217960
0.373083 0.779538 0.216556
0.408728 0.780819 0.215030
0.444129 0.782193 0.213474
0.479103 0.783658 0.211551
0.513848 0.785214 0.209689
0.557580 0.786313 0.207523
0.601801 0.787259 0.205295
0.645167 0.788235 0.202823
0.687709 0.789181 0.200076
0.729641 0.790127 0.197086
0.771084 0.791012 0.193668
0.811917 0.791806 0.190127
0.852354 0.792599 0.186221
0.871550 0.773587 0.194644
0.897429 0.761440 0.198001
0.925628 0.756466 0.194461
0.953582 0.751827 0.190280
0.981170 0.747341 0.185336
1.000000 0.742947 0.179721
1.000000 0.738582 0.172610
0.000000 0.806424 0.207797
0.000000 0.806455 0.207675
0.000000 0.806546 0.207553
0.000000 0.806668 0.207523
0.000000 0.806882 0.207614
0.000000 0.807218 0.208103
0.013611 0.807523 0.209232
0.174868 0.806882 0.233097
0.225193 0.807248 0.237888
0.264317 0.808011 0.237064
0.302098 0.808865 0.236240
0.338720 0.809812 0.235203
0.374701 0.810849 0.234165
0.410163 0.811978 0.232975
0.445106 0.813169 0.231632
0.479774 0.814450 0.230045
0.514183 0.815793 0.228428
0.550378 0.817105 0.226566
0.594873 0.817868 0.224643
0.638209 0.818692 0.222660
0.680812 0.819425 0.220401
0.722683 0.820157 0.218051
0.763912 0.820829 0.215549
0.804654 0.821469 0.212589
0.844846 0.822049 0.209323
0.884550 0.822538 0.205814
0.902403 0.802701 0.214176
0.926726 0.789181 0.218082
0.953704 0.783536 0.215091
0.981079 0.778744 0.211490
1.000000 0.774044 0.207462
1.000000 0.769528 0.202670
0.000000 0.838590 0.218936
0.000000 0.838621 0.219120
0.000000 0.838651 0.219181
0.000000 0.838773 0.219638
0.000000 0.838895 0.220462
0.000000 0.839139 0.221958
0.027466 0.839353 0.224460
0.170291 0.838865 0.243168
0.232425 0.838712 0.256504
0.270237 0.839384 0.255863
0.306828 0.840085 0.255131
0.342687 0.840909 0.254307
0.377935 0.841825 0.253391
0.412757 0.842802 0.252384
0.447242 0.843839 0.251255
0.481453 0.844968 0.249973
0.515435 0.846159 0.248569
0.549187 0.847379 0.246983
0.588281 0.848295 0.245426
0.631678 0.848905 0.243809
0.674159 0.849454 0.242161
0.715969 0.850004 0.240269
0.757076 0.850462 0.238102
0.797574 0.850919 0.235752
0.837552 0.851286 0.233219
0.876982 0.851591 0.230381
0.916014 0.851835 0.227176
0.932586 0.831296 0.235050
0.955291 0.816434 0.239567
0.980865 0.810025 0.236912
1.000000 0.805081 0.234287
1.000000 0.800259 0.231296
0.000000 0.870390 0.230777
0.000000 0.870390 0.231052
0.000000 0.870451 0.231540
0.000000 0.870512 0.232395
0.000000 0.870603 0.234073
0.000000 0.870695 0.236851
0.059541 0.870817 0.240696
0.168551 0.870481 0.254826
0.243137 0.869749 0.276982
0.279057 0.870329 0.276555
0.314244 0.870939 0.275944
0.349035 0.871672 0.275212
0.383307 0.872435 0.274571
0.417273 0.873259 0.273686
0.451026 0.874144 0.272801
