其他预设/【213】赛博朋克科幻预设52款/1.LUT预设（视频调色-PR-AE-PS-FCPX-达芬奇用）/赛博朋克科幻__-8 强度4.cube
# Created by Adobe Lightroom plugin Export LUT (1.17.0)
# www.johnrellis.com/lightroom/exportlut.htm
# Preset: 赛博朋克科幻[素锦印象]-8 强度4
# Color profile: /Library/Application Support/Adobe/Color/Profiles/Recommended/AdobeRGB1998.icc
LUT_3D_SIZE 5
DOMAIN_MIN 0.000000 0.000000 0.000000
DOMAIN_MAX 0.903226 0.903226 0.903226
0.000000 0.056855 0.000000
0.123384 0.073487 0.106203
0.375769 0.000000 0.302129
0.678187 0.000000 0.501488
0.898650 0.340978 0.649226
0.000000 0.185550 0.122408
0.066560 0.177310 0.064424
0.350469 0.094972 0.286687
0.681697 0.000000 0.509606
0.900481 0.337560 0.652613
0.000000 0.410834 0.285496
0.000000 0.415259 0.283024
0.151766 0.470710 0.123751
0.594171 0.309514 0.412573
0.879728 0.482795 0.664637
0.000000 0.674830 0.472755
0.000000 0.665766 0.469581
0.000000 0.708797 0.465614
0.323766 0.759030 0.297093
0.872007 0.529107 0.540612
0.000000 0.949554 0.664424
0.000000 0.948089 0.665431
0.000000 0.945098 0.664057
0.323186 0.948699 0.659632
0.628717 0.958404 0.582116
0.016632 0.058778 0.113466
0.157839 0.030213 0.173678
0.454017 0.000000 0.395758
0.721248 0.000000 0.551171
0.912749 0.344549 0.667506
0.000000 0.157565 0.130098
0.112551 0.175631 0.139528
0.409705 0.125338 0.362188
0.723598 0.000000 0.557733
0.914336 0.341192 0.670497
0.000000 0.379980 0.283452
0.000000 0.400916 0.290776
0.196933 0.469612 0.210086
0.582666 0.404547 0.468086
0.894102 0.496010 0.682765
0.000000 0.655482 0.474708
0.000000 0.645808 0.470985
0.000000 0.698695 0.474678
0.364935 0.756558 0.357733
0.865263 0.582208 0.584741
0.000000 0.947631 0.671962
0.000000 0.946197 0.672969
0.000000 0.943420 0.670985
0.353307 0.946044 0.670863
0.648737 0.956542 0.602106
0.090730 0.000000 0.317632
0.242283 0.000000 0.375494
0.550927 0.000000 0.550530
0.815427 0.000000 0.659510
0.950317 0.358312 0.716945
0.000000 0.217746 0.271855
0.139467 0.171420 0.346044
0.519371 0.000000 0.532464
0.818662 0.000000 0.668940
0.950958 0.356359 0.718318
0.000000 0.305333 0.267155
0.000000 0.330266 0.288945
0.328679 0.462226 0.391852
0.706874 0.529961 0.621942
0.943481 0.455543 0.728389
0.000000 0.597101 0.472053
0.000000 0.604517 0.474372
0.000000 0.660609 0.495735
0.477638 0.748257 0.496315
0.849454 0.703944 0.686824
0.000000 0.938750 0.699001
0.000000 0.938598 0.699397
0.000000 0.940124 0.696254
0.389044 0.938811 0.699184
0.703792 0.951354 0.654444
0.165408 0.000000 0.589685
0.315221 0.000000 0.627405
0.565637 0.000000 0.681147
0.859495 0.000000 0.765255
0.999786 0.357092 0.791562
0.000000 0.162875 0.555901
0.199802 0.141451 0.602960
0.553857 0.000000 0.684199
0.853605 0.000000 0.768154
1.000000 0.354406 0.793515
0.000000 0.385595 0.423377
0.000000 0.404639 0.454597
0.389380 0.479561 0.623621
0.807950 0.541283 0.751888
1.000000 0.349706 0.797513
0.000000 0.479744 0.429175
0.000000 0.488289 0.436713
0.000000 0.538537 0.479347
0.619532 0.734737 0.640101
0.938659 0.785946 0.797940
0.000000 0.919799 0.743404
0.000000 0.919799 0.744350
0.000000 0.924956 0.741665
0.000000 0.934936 0.723781
0.785000 0.943175 0.726741
0.200168 0.000000 0.805173
0.332738 0.000000 0.817746
0.631098 0.000000 0.851560
0.850889 0.000000 0.859342
1.000000 0.307988 0.863310
0.000000 0.095216 0.797421
0.268193 0.000000 0.813046
0.607752 0.000000 0.851133
0.841642 0.000000 0.860899
1.000000 0.302037 0.865324
0.000000 0.503746 0.698146
0.000000 0.479042 0.733913
0.446723 0.468147 0.816373
0.813718 0.354681 0.859739
1.000000 0.281651 0.872343
0.000000 0.619287 0.649805
0.000000 0.620172 0.657984
0.000000 0.624353 0.690333
0.699825 0.753445 0.817777
0.993988 0.754421 0.871733
0.000000 0.856962 0.776761
0.000000 0.854490 0.775875
0.000000 0.849119 0.771328
0.000000 0.843076 0.759731
0.903746 0.928649 0.825650
