其他预设/【213】赛博朋克科幻预设52款/1.LUT预设（视频调色-PR-AE-PS-FCPX-达芬奇用）/赛博朋克科幻__-7 强度1.cube
# Created by Adobe Lightroom plugin Export LUT (1.17.0)
# www.johnrellis.com/lightroom/exportlut.htm
# Preset: 赛博朋克科幻[素锦印象]-7 强度1
# Color profile: /Library/Application Support/Adobe/Color/Profiles/Recommended/AdobeRGB1998.icc
LUT_3D_SIZE 5
DOMAIN_MIN 0.000000 0.000000 0.000000
DOMAIN_MAX 0.903226 0.903226 0.903226
0.024048 0.051728 0.037201
0.230228 0.078248 0.000000
0.485878 0.136385 0.000000
0.734951 0.197116 0.000000
0.952728 0.243809 0.000000
0.000000 0.211490 0.061189
0.228550 0.219821 0.035187
0.484718 0.238590 0.000000
0.734524 0.273930 0.000000
0.952758 0.303868 0.000000
0.000000 0.438880 0.111238
0.201907 0.444282 0.107698
0.491341 0.460487 0.071595
0.734157 0.450813 0.000000
0.952239 0.455512 0.000000
0.000000 0.674739 0.168215
0.177096 0.676997 0.179599
0.445136 0.687648 0.166506
0.750729 0.698695 0.136812
0.952850 0.656764 0.107149
0.000000 0.901884 0.243442
0.170901 0.901732 0.268315
0.456794 0.904143 0.296635
0.704372 0.908904 0.289464
0.976410 0.908476 0.276188
0.000000 0.068788 0.211521
0.217502 0.068208 0.203769
0.478798 0.123415 0.185519
0.730922 0.193637 0.166079
0.952331 0.237797 0.087861
0.000000 0.231144 0.219577
0.213718 0.221561 0.213199
0.476448 0.242710 0.201419
0.730404 0.275547 0.175418
0.952026 0.303410 0.107759
0.000000 0.439216 0.231479
0.199527 0.444221 0.233860
0.482856 0.459571 0.230198
0.728481 0.451728 0.208286
0.950805 0.461097 0.163668
0.000000 0.674220 0.268650
0.164828 0.677089 0.267521
0.447700 0.686458 0.274907
0.745602 0.698543 0.264317
0.950408 0.660883 0.248112
0.000000 0.902068 0.306493
0.140566 0.902098 0.322393
0.466835 0.902831 0.370306
0.703334 0.908537 0.366247
0.972839 0.908965 0.359380
0.000000 0.124392 0.451240
0.166598 0.107362 0.443000
0.458869 0.111421 0.423468
0.719570 0.143862 0.400061
0.944671 0.314061 0.411048
0.000000 0.288945 0.458503
0.156497 0.251408 0.449897
0.457557 0.241978 0.427863
0.719081 0.265599 0.406531
0.945281 0.357641 0.410529
0.000000 0.483040 0.462531
0.158206 0.477150 0.458228
0.450813 0.455207 0.442420
0.715023 0.476509 0.439368
0.945281 0.491066 0.420752
0.000000 0.673457 0.443671
0.140932 0.675807 0.447059
0.447700 0.681819 0.465614
0.726558 0.697261 0.476936
0.942290 0.676234 0.463874
0.000000 0.902159 0.465888
0.000000 0.902708 0.468757
0.451026 0.902037 0.502708
0.699123 0.907042 0.534447
0.961547 0.910643 0.535882
0.000000 0.191592 0.692042
0.000000 0.168887 0.687648
0.435615 0.164065 0.669581
0.702724 0.178134 0.645716
0.933043 0.282444 0.620722
0.000000 0.340581 0.694453
0.000000 0.295903 0.691035
0.433021 0.277653 0.673396
0.701350 0.281651 0.648127
0.932341 0.357824 0.626795
0.000000 0.534661 0.701747
0.075685 0.531090 0.700496
0.436744 0.498451 0.686152
0.696101 0.481514 0.656519
0.931762 0.527337 0.645777
0.000000 0.727382 0.698360
0.000000 0.724636 0.696651
0.428077 0.714199 0.690028
0.687282 0.687984 0.670924
0.932799 0.708980 0.672053
0.000000 0.903960 0.657038
0.000000 0.903380 0.655238
0.389593 0.903624 0.663172
0.690822 0.903563 0.696345
0.944244 0.913420 0.715816
0.000000 0.271397 0.903075
0.000000 0.249516 0.901854
0.372015 0.260563 0.894926
0.687190 0.271672 0.881010
0.930602 0.328618 0.856260
0.000000 0.399908 0.902556
0.000000 0.357702 0.902434
0.377447 0.347631 0.896086
0.686763 0.352117 0.882139
0.929198 0.392615 0.857786
0.000000 0.560143 0.908354
0.000000 0.555627 0.906889
0.420813 0.551293 0.899962
0.686488 0.534783 0.886564
0.925383 0.540703 0.863188
0.000000 0.747921 0.907347
0.000000 0.746975 0.907164
0.403937 0.748379 0.906188
0.695888 0.740200 0.897917
0.919524 0.718166 0.873045
0.000000 0.942596 0.905486
0.000000 0.941619 0.905211
0.334783 0.937346 0.903899
0.670863 0.929015 0.900908
0.910979 0.908141 0.887144
