其他预设/【213】赛博朋克科幻预设52款/1.LUT预设（视频调色-PR-AE-PS-FCPX-达芬奇用）/赛博朋克科幻__-9 强度3.cube
# Created by Adobe Lightroom plugin Export LUT (1.17.0)
# www.johnrellis.com/lightroom/exportlut.htm
# Preset: 赛博朋克科幻[素锦印象]-9 强度3
# Color profile: /Library/Application Support/Adobe/Color/Profiles/Recommended/AdobeRGB1998.icc
LUT_3D_SIZE 5
DOMAIN_MIN 0.000000 0.000000 0.000000
DOMAIN_MAX 0.903226 0.903226 0.903226
0.000000 0.000000 0.000000
0.208530 0.034363 0.009522
0.490761 0.099855 0.000000
0.748898 0.156649 0.000000
0.928435 0.193576 0.000000
0.073762 0.159884 0.114046
0.229374 0.204990 0.017914
0.468482 0.221744 0.000000
0.739956 0.258213 0.000000
0.924468 0.275090 0.044190
0.144869 0.369665 0.254368
0.226566 0.406470 0.254673
0.553643 0.493141 0.000000
0.773526 0.421820 0.000000
0.909819 0.444587 0.178836
0.258244 0.604395 0.423377
0.324987 0.622370 0.431128
0.489418 0.668788 0.429358
0.801144 0.717037 0.146487
0.953674 0.563500 0.000000
0.481300 0.800381 0.618799
0.525689 0.806119 0.630243
0.643671 0.826200 0.667170
0.739528 0.852750 0.655238
0.954650 0.865537 0.371954
0.091798 0.090394 0.172061
0.213230 0.049714 0.176394
0.500908 0.118502 0.112612
0.748501 0.208804 0.000000
0.929992 0.211124 0.000000
0.125093 0.190799 0.203586
0.205356 0.205356 0.205356
0.484657 0.236332 0.171267
0.741909 0.279332 0.008209
0.926268 0.284428 0.062745
0.180545 0.363500 0.298344
0.257939 0.399847 0.317662
0.537041 0.487892 0.220218
0.758114 0.431617 0.155764
0.912230 0.446723 0.182284
0.287053 0.599512 0.456336
0.350927 0.617456 0.467933
0.507469 0.666529 0.483925
0.792203 0.717464 0.298100
0.951385 0.570459 0.000000
0.487861 0.797299 0.633845
0.530541 0.803220 0.644373
0.645289 0.823819 0.678767
0.745266 0.852110 0.678065
0.948486 0.867918 0.456458
0.204562 0.200412 0.427436
0.270817 0.188205 0.410712
0.490089 0.028992 0.401068
0.770108 0.168276 0.325383
0.938567 0.221347 0.210391
0.272343 0.325261 0.462867
0.310185 0.308293 0.446326
0.486641 0.225284 0.415930
0.759548 0.299138 0.364691
0.934966 0.293034 0.243412
0.298863 0.464912 0.496834
0.357702 0.469734 0.493446
0.469245 0.469245 0.469245
0.726772 0.503624 0.464454
0.917479 0.479683 0.375494
0.346471 0.602136 0.545617
0.398474 0.606561 0.548608
0.535119 0.649409 0.579156
0.759823 0.717067 0.534356
0.925872 0.639185 0.463752
0.517937 0.786160 0.681575
0.548394 0.792416 0.687556
0.637415 0.814267 0.706905
0.756924 0.849546 0.733547
0.932189 0.874205 0.619104
0.385809 0.380987 0.682002
0.418402 0.370489 0.673793
0.512993 0.308263 0.636530
0.730404 0.193790 0.605188
0.924956 0.394751 0.568963
0.453651 0.480568 0.695583
0.469368 0.466255 0.687648
0.530602 0.400793 0.652033
0.726314 0.304753 0.615534
0.920836 0.462715 0.592187
0.554894 0.627985 0.725856
0.587427 0.638758 0.726589
0.606043 0.604944 0.698268
0.712734 0.510460 0.648951
0.911498 0.602441 0.646509
0.553155 0.699489 0.731136
0.579400 0.703334 0.730800
0.641749 0.710658 0.726894
0.694667 0.694636 0.694667
0.891264 0.722835 0.696956
0.585382 0.804379 0.772641
0.606744 0.805600 0.772610
0.661524 0.808621 0.770077
0.751095 0.835782 0.782681
0.912169 0.881498 0.762020
0.623224 0.620142 0.850523
0.633173 0.614954 0.848692
0.667262 0.588037 0.840330
0.747066 0.508995 0.823301
0.905913 0.424842 0.775082
0.655543 0.665309 0.854124
0.661982 0.659510 0.852323
0.686091 0.632685 0.844266
0.749081 0.555749 0.825315
0.902892 0.474586 0.781949
0.721889 0.755917 0.866239
0.729335 0.755856 0.865690
0.737575 0.736110 0.858885
0.761196 0.670283 0.836820
0.894804 0.591943 0.802121
0.744442 0.810269 0.873594
0.756802 0.814572 0.874815
0.794430 0.828000 0.879362
0.810971 0.810239 0.870451
0.883940 0.728878 0.832395
0.739132 0.852171 0.878111
0.748928 0.854459 0.878813
0.780606 0.862150 0.881376
0.829404 0.874693 0.885771
0.870054 0.870024 0.870054
