其他预设/【213】赛博朋克科幻预设52款/1.LUT预设（视频调色-PR-AE-PS-FCPX-达芬奇用）/赛博朋克科幻__-10 强度4.cube
# Created by Adobe Lightroom plugin Export LUT (1.17.0)
# www.johnrellis.com/lightroom/exportlut.htm
# Preset: 赛博朋克科幻[素锦印象]-10 强度4
# Color profile: /Library/Application Support/Adobe/Color/Profiles/Recommended/AdobeRGB1998.icc
LUT_3D_SIZE 32
0.069398 0.068391 0.063142
0.069398 0.068391 0.063142
0.069398 0.068391 0.063142
0.084077 0.065583 0.062898
0.120607 0.081544 0.079805
0.156649 0.101595 0.098543
0.193454 0.121889 0.117678
0.230900 0.143557 0.137942
0.268864 0.167330 0.159457
0.306798 0.192325 0.181918
0.344091 0.219150 0.205386
0.380499 0.246708 0.229099
0.415961 0.274235 0.252720
0.450752 0.301274 0.275914
0.484657 0.327825 0.298589
0.517693 0.353826 0.320867
0.550042 0.379339 0.342718
0.581537 0.404303 0.364019
0.612177 0.428534 0.384741
0.642756 0.453101 0.405676
0.672206 0.478706 0.427161
0.700526 0.505364 0.449195
0.727657 0.533165 0.471870
0.753475 0.562036 0.495064
0.778347 0.590661 0.517998
0.802365 0.618769 0.540490
0.825467 0.646387 0.562554
0.847807 0.673579 0.584253
0.869352 0.700404 0.605615
0.890166 0.726925 0.626673
0.910369 0.753170 0.647517
0.929961 0.779141 0.668086
0.069398 0.068391 0.063142
0.069398 0.068391 0.063142
0.069398 0.068391 0.063142
0.083253 0.066194 0.062867
0.119966 0.081056 0.079530
0.155856 0.101045 0.098116
0.192844 0.121462 0.117556
0.230320 0.143069 0.137545
0.268315 0.166781 0.159091
0.306401 0.191958 0.181613
0.343725 0.218845 0.205112
0.380163 0.246433 0.228855
0.415656 0.274022 0.252506
0.450416 0.301152 0.275792
0.484352 0.327703 0.298497
0.517510 0.353704 0.320775
0.549859 0.379187 0.342565
0.581415 0.404089 0.363867
0.611994 0.428351 0.384619
0.642634 0.453010 0.405585
0.672114 0.478584 0.427070
0.700496 0.505272 0.449134
0.727565 0.533165 0.471839
0.753445 0.561975 0.495033
0.778286 0.590661 0.517967
0.802335 0.618738 0.540490
0.825498 0.646357 0.562554
0.847807 0.673548 0.584222
0.869352 0.700374 0.605585
0.890196 0.726955 0.626703
0.910369 0.753170 0.647517
0.929992 0.779141 0.668086
0.067140 0.080049 0.064607
0.068574 0.077058 0.062287
0.069398 0.068391 0.063142
0.083467 0.071138 0.062409
0.118288 0.084504 0.078645
0.154726 0.100587 0.097719
0.191714 0.120943 0.117037
0.229313 0.142672 0.137118
0.267460 0.166476 0.158755
0.305699 0.191592 0.181216
0.343114 0.218509 0.204776
0.379583 0.246067 0.228550
0.415259 0.273655 0.252232
0.450141 0.300816 0.275486
0.484016 0.327306 0.298222
0.517266 0.353491 0.320562
0.549645 0.378973 0.342382
0.581109 0.403876 0.363653
0.611780 0.428290 0.384527
0.642451 0.452857 0.405493
0.672023 0.478462 0.426947
0.700404 0.505180 0.449073
0.727504 0.533043 0.471748
0.753384 0.561913 0.494972
0.778286 0.590570 0.517906
0.802304 0.618708 0.540459
0.825437 0.646326 0.562524
0.847776 0.673518 0.584222
0.869352 0.700404 0.605615
0.890196 0.726955 0.626703
0.910369 0.753170 0.647517
0.929992 0.779171 0.668116
0.033875 0.139559 0.073579
0.040406 0.136629 0.067384
0.065309 0.132113 0.049775
0.101442 0.106416 0.055909
0.118166 0.099855 0.081331
0.152560 0.112398 0.097230
0.188937 0.126467 0.115267
0.227329 0.142794 0.136019
0.265843 0.165408 0.157809
0.304234 0.190707 0.180392
0.341863 0.217655 0.203983
0.378637 0.245365 0.227939
0.414313 0.272923 0.251560
0.449195 0.300175 0.274937
0.483375 0.326848 0.297765
0.516625 0.352972 0.320165
0.549035 0.378546 0.342046
0.580621 0.403571 0.363409
0.611353 0.427893 0.384192
0.642054 0.452552 0.405219
0.671748 0.478218 0.426764
0.700160 0.504936 0.448859
0.727321 0.532830 0.471565
0.753231 0.561730 0.494850
0.778195 0.590448 0.517815
0.802243 0.618616 0.540368
0.825406 0.646265 0.562463
0.847745 0.673487 0.584192
0.869352 0.700374 0.605585
0.890196 0.726955 0.626703
0.910369 0.753201 0.647547
0.930022 0.779232 0.668147
0.000000 0.208103 0.088228
0.000000 0.205173 0.084230
0.000000 0.201602 0.065034
0.087617 0.191043 0.012879
0.142641 0.150851 0.068513
0.152712 0.132509 0.101747
0.188510 0.144778 0.118349
0.225162 0.158511 0.136202
0.262760 0.174289 0.155734
0.301610 0.193912 0.178683
0.340063 0.216220 0.202731
0.376928 0.244083 0.226871
0.412848 0.271824 0.250584
0.447913 0.299138 0.273991
0.482185 0.325902 0.296971
0.515557 0.352148 0.319432
0.548180 0.377752 0.341375
0.579828 0.402838 0.362768
0.610681 0.427344 0.383734
0.641535 0.452094 0.404822
0.671290 0.477760 0.426398
0.699794 0.504601 0.448554
0.727047 0.532525 0.471321
0.753017 0.561547 0.494667
0.778012 0.590234 0.517693
0.802121 0.618494 0.540246
0.825345 0.646143 0.562402
0.847715 0.673426 0.584161
0.869322 0.700374 0.605585
0.890196 0.726955 0.626703
0.910399 0.753262 0.647578
0.930053 0.779294 0.668208
0.000000 0.272068 0.105165
0.000000 0.269780 0.103883
0.000000 0.266728 0.089143
0.000000 0.259648 0.022248
0.135012 0.244511 0.004730
0.185061 0.195865 0.082033
0.188602 0.167330 0.123781
0.225132 0.180240 0.141482
0.262669 0.195010 0.160586
0.300603 0.211612 0.181277
0.338018 0.230655 0.203189
0.374517 0.251347 0.225681
0.410559 0.273594 0.248997
0.446235 0.297917 0.272953
0.480751 0.324712 0.295964
0.514244 0.351171 0.318639
0.547021 0.376867 0.340642
0.578759 0.402045 0.362127
0.609735 0.426551 0.383032
0.640711 0.451453 0.404273
0.670649 0.477211 0.425940
0.699306 0.504143 0.448219
0.726650 0.532128 0.470985
0.752773 0.561151 0.494392
0.777798 0.590021 0.517479
0.801968 0.618280 0.540124
0.825254 0.646082 0.562310
0.847654 0.673365 0.584100
0.869291 0.700343 0.605585
0.890196 0.726986 0.626734
0.910460 0.753292 0.647639
0.930144 0.779355 0.668269
0.000000 0.330327 0.122744
0.000000 0.328344 0.121920
0.000000 0.326116 0.111543
0.000000 0.320928 0.076753
0.047639 0.310674 0.000000
0.181857 0.294530 0.000000
0.227451 0.240665 0.097963
0.225101 0.203799 0.147829
0.262638 0.217716 0.166751
0.300633 0.233433 0.187106
0.337926 0.250919 0.208438
0.374426 0.269780 0.230533
0.410132 0.289830 0.252567
0.445106 0.310369 0.274540
0.479255 0.331212 0.296117
0.512505 0.352270 0.317327
0.545525 0.375769 0.339696
0.577508 0.401007 0.361242
0.608637 0.425666 0.382330
0.639765 0.450690 0.403632
0.669886 0.476539 0.425360
0.698695 0.503532 0.447700
0.726192 0.531640 0.470588
0.752407 0.560754 0.494057
0.777554 0.589685 0.517205
0.801785 0.618067 0.539910
0.825101 0.645899 0.562188
0.847593 0.673274 0.584039
0.869291 0.700313 0.605554
0.890227 0.727016 0.626764
0.910521 0.753384 0.647669
0.930205 0.779477 0.668330
0.000000 0.382757 0.140841
0.000000 0.381415 0.140200
0.000000 0.379675 0.131533
0.000000 0.375830 0.105653
0.000000 0.368566 0.058839
0.127779 0.356878 0.000000
0.227543 0.341009 0.004639
0.269444 0.284825 0.117983
0.262821 0.241886 0.173922
0.300542 0.256413 0.193668
0.337743 0.272557 0.214694
0.374243 0.289830 0.235966
0.409949 0.308232 0.257481
0.444800 0.327184 0.278874
0.479072 0.346715 0.300206
0.512261 0.366430 0.320958
0.544793 0.386236 0.341436
0.576318 0.405890 0.361517
0.607172 0.425666 0.381353
0.638636 0.449714 0.402808
0.669001 0.475715 0.424689
0.697963 0.502831 0.447150
0.725612 0.531060 0.470100
0.751980 0.560296 0.493690
0.777218 0.589319 0.516930
0.801572 0.617762 0.539696
0.824949 0.645716 0.562036
0.847501 0.673213 0.583948
0.869261 0.700282 0.605524
0.890227 0.727016 0.626764
0.910552 0.753445 0.647730
0.930327 0.779599 0.668452
0.000000 0.432319 0.159396
0.000000 0.431159 0.157443
0.000000 0.429938 0.149874
0.000000 0.426886 0.130251
0.000000 0.421546 0.099214
0.000000 0.413184 0.008881
0.183230 0.401099 0.017670
0.271427 0.383948 0.051148
0.311070 0.327733 0.140627
0.300511 0.280217 0.201083
0.337591 0.295048 0.221347
0.373938 0.310826 0.242039
0.409705 0.327794 0.263035
0.444617 0.345495 0.283940
0.478706 0.363622 0.304662
0.512078 0.382147 0.325109
0.544549 0.400793 0.345281
0.576165 0.419501 0.365026
0.607019 0.438148 0.384436
0.637995 0.457588 0.404089
0.667842 0.478096 0.424140
0.697169 0.502037 0.446479
0.725002 0.530327 0.469551
0.751461 0.559747 0.493202
0.776852 0.588891 0.516564
0.801297 0.617456 0.539452
0.824765 0.645502 0.561883
0.847410 0.673060 0.583856
0.869230 0.700252 0.605463
0.890288 0.727047 0.626795
0.910643 0.753536 0.647822
0.930419 0.779751 0.668574
0.000000 0.480049 0.177432
0.000000 0.479286 0.173404
0.000000 0.478340 0.167056
0.000000 0.476020 0.151064
0.000000 0.471778 0.127901
0.000000 0.465492 0.089570
0.107515 0.456275 0.042054
0.233951 0.444343 0.059266
0.314427 0.423499 0.089601
0.351659 0.369879 0.164706
0.337682 0.317845 0.228122
0.373724 0.332311 0.248478
0.409339 0.348089 0.268833
0.444251 0.364446 0.289250
0.478492 0.381445 0.309514
0.511833 0.398901 0.329656
0.544305 0.416480 0.349432
0.575982 0.434150 0.368872
0.606897 0.452033 0.388098
0.637903 0.470588 0.407568
0.667903 0.490364 0.427497
0.696559 0.511315 0.447883
0.723964 0.533532 0.468757
0.750820 0.559472 0.492653
0.776425 0.588434 0.516197
0.800961 0.617121 0.539178
0.824582 0.645289 0.561669
0.847318 0.672938 0.583734
0.869200 0.700252 0.605463
0.890318 0.727108 0.626856
0.910735 0.753658 0.647913
0.930571 0.779965 0.668727
0.000000 0.526696 0.193118
0.000000 0.526116 0.189456
0.000000 0.525322 0.183749
0.000000 0.523491 0.170382
0.000000 0.520043 0.151888
0.000000 0.515099 0.124514
0.000000 0.507897 0.084047
0.180789 0.498512 0.075257
0.282109 0.486915 0.083742
0.356664 0.462440 0.120668
0.391760 0.410834 0.189761
0.379492 0.358373 0.248997
0.408911 0.368811 0.274968
0.443915 0.384131 0.294896
0.478065 0.400122 0.314733
0.511406 0.416541 0.334447
0.543999 0.433112 0.353918
0.575708 0.449866 0.373053
0.606744 0.466926 0.392065
0.637842 0.484749 0.411322
0.667903 0.503716 0.431189
0.696590 0.523857 0.451453
0.724025 0.545403 0.472297
0.750179 0.568048 0.493477
0.775570 0.591882 0.515343
0.800565 0.617548 0.538750
0.824369 0.644984 0.561456
0.847166 0.672786 0.583642
0.869169 0.700191 0.605463
0.890349 0.727138 0.626856
0.910857 0.753811 0.648035
0.930724 0.780179 0.668910
0.000000 0.572198 0.208072
0.000000 0.571740 0.204898
0.000000 0.571008 0.199863
0.000000 0.569543 0.188571
0.000000 0.566735 0.173373
0.000000 0.562707 0.151705
0.000000 0.557092 0.122591
0.089387 0.549187 0.092653
0.239292 0.539727 0.099977
0.328496 0.528801 0.107179
0.397925 0.500664 0.150149
0.430976 0.450813 0.214298
0.419837 0.398047 0.269444
0.443427 0.404273 0.300816
0.477607 0.419196 0.320226
0.510979 0.434638 0.339544
0.543664 0.450416 0.358679
0.575433 0.466316 0.377539
0.606561 0.482582 0.396246
0.637842 0.499794 0.415503
0.667872 0.517998 0.435126
0.696620 0.537377 0.455360
0.724086 0.558007 0.476081
0.750332 0.579858 0.497169
0.775479 0.601862 0.517876
0.799649 0.623926 0.538231
0.823728 0.648524 0.560876
0.846952 0.673487 0.583459
0.869139 0.700130 0.605402
0.890410 0.727260 0.626947
0.910948 0.753964 0.648157
0.930907 0.780423 0.669093
0.000000 0.616541 0.222660
0.000000 0.616175 0.219730
0.000000 0.615625 0.215366
0.000000 0.614435 0.205692
0.000000 0.612116 0.192813
0.000000 0.608789 0.174746
0.000000 0.604150 0.151736
0.000000 0.597681 0.125826
0.181765 0.589593 0.116060
0.290929 0.580499 0.122835
0.373175 0.569879 0.129763
0.438117 0.538262 0.178195
0.469245 0.489937 0.238315
0.459388 0.437324 0.289494
0.476997 0.438575 0.325780
0.510460 0.453346 0.344823
0.543206 0.468269 0.363653
0.574975 0.483436 0.382208
0.606287 0.498970 0.400793
0.637720 0.515465 0.419837
0.667811 0.533074 0.439368
0.696681 0.551598 0.459541
0.724147 0.571527 0.480232
0.750454 0.592340 0.501091
0.775692 0.613336 0.521599
0.799954 0.634516 0.541680
0.823270 0.655787 0.561486
0.846281 0.678889 0.582788
0.868772 0.703365 0.605066
0.890440 0.727932 0.626947
0.911101 0.754147 0.648310
0.931121 0.780667 0.669306
0.000000 0.659388 0.236942
0.000000 0.659022 0.234073
0.000000 0.658625 0.230442
0.000000 0.657679 0.221958
0.000000 0.655756 0.210880
0.000000 0.652949 0.195529
0.000000 0.649165 0.176089
0.000000 0.643946 0.154971
0.089082 0.636896 0.136019
0.245640 0.629114 0.138430
0.339422 0.620233 0.145052
0.416541 0.610101 0.151461
0.477150 0.575280 0.204685
0.506615 0.528161 0.261387
0.499306 0.477333 0.311009
0.509850 0.472175 0.350195
0.542596 0.486458 0.368750
0.574517 0.500938 0.387152
0.606043 0.515862 0.405524
0.637537 0.531853 0.424384
0.667750 0.548638 0.443946
0.696651 0.566491 0.463996
0.724239 0.585595 0.484657
0.750637 0.605463 0.505241
0.775967 0.625513 0.525505
0.800259 0.645777 0.545434
0.823667 0.666163 0.564996
0.846128 0.686732 0.584222
0.868193 0.708705 0.604578
0.890013 0.732723 0.626612
0.910979 0.756893 0.648219
0.931334 0.781247 0.669551
0.000000 0.698573 0.249882
0.000000 0.698329 0.247379
0.000000 0.697963 0.244083
0.000000 0.697230 0.236576
0.000000 0.695674 0.226902
0.000000 0.693507 0.213535
0.000000 0.690394 0.197360
0.000000 0.686091 0.179538
0.000000 0.680507 0.163027
0.187564 0.673487 0.154849
0.300237 0.666102 0.160464
0.384619 0.657679 0.166751
0.457588 0.648096 0.172885
0.515038 0.611322 0.229892
0.543175 0.565393 0.284123
0.537835 0.516106 0.332158
0.541955 0.504875 0.374029
0.573938 0.518730 0.392096
0.605676 0.533257 0.410376
0.637293 0.548669 0.429175
0.667628 0.564782 0.448646
0.696651 0.581903 0.468666
0.724300 0.600153 0.489235
0.750820 0.619013 0.509636
0.776272 0.638117 0.529717
0.800656 0.657527 0.549401
0.824094 0.677089 0.568750
0.846616 0.696895 0.587823
0.868315 0.716884 0.606622
0.889525 0.737972 0.626215
0.910674 0.761624 0.648005
0.931151 0.785519 0.669459
0.000000 0.734249 0.261753
0.000000 0.734035 0.259495
0.000000 0.733761 0.256596
0.000000 0.733150 0.250004
0.000000 0.731838 0.241367
0.000000 0.730068 0.229831
0.000000 0.727565 0.215824
0.000000 0.724117 0.200809
0.000000 0.719417 0.186740
0.109743 0.713466 0.176791
0.255253 0.706813 0.177157
0.349401 0.699733 0.182742
0.426703 0.691707 0.188479
0.496101 0.682673 0.194369
0.550713 0.644587 0.254734
0.578637 0.601648 0.306096
0.575006 0.553887 0.352880
0.573205 0.536767 0.397253
0.605280 0.550896 0.415381
0.637049 0.565850 0.434150
0.667506 0.581292 0.453529
0.696620 0.597742 0.473640
0.724392 0.615137 0.494057
0.751003 0.632959 0.514214
0.776577 0.651209 0.534051
0.801083 0.669734 0.553552
0.824552 0.688472 0.572686
0.847135 0.707485 0.591547
0.868894 0.726741 0.610193
0.889830 0.746242 0.628626
0.910338 0.766781 0.647761
0.930968 0.790188 0.669368
0.000000 0.766629 0.272435
0.000000 0.766506 0.270573
0.000000 0.766262 0.267796
0.000000 0.765774 0.261906
0.000000 0.764736 0.254337
0.000000 0.763241 0.244266
0.000000 0.761135 0.232212
0.000000 0.758236 0.219272
0.000000 0.754360 0.207340
0.000000 0.749325 0.198550
0.203128 0.743130 0.194614
0.311437 0.737026 0.199191
0.394049 0.730220 0.204685
0.465980 0.722530 0.210208
0.532128 0.710750 0.223484
0.583734 0.675227 0.279118
0.611780 0.635218 0.328130
0.611231 0.590784 0.373266
0.604761 0.568719 0.420539
0.636713 0.583215 0.439246
0.667292 0.598108 0.458686
0.696498 0.613764 0.478706
0.724514 0.630274 0.499001
0.751278 0.647272 0.518975
0.776944 0.664607 0.538598
0.801511 0.682246 0.557885
0.825101 0.700221 0.576837
0.847745 0.718471 0.595514
0.869505 0.736995 0.613977
0.890471 0.755795 0.632227
0.910765 0.774899 0.650294
0.930785 0.795193 0.669276
0.000000 0.796139 0.282383
0.000000 0.795987 0.280491
0.000000 0.795865 0.278111
0.000000 0.795438 0.272709
0.000000 0.794583 0.265995
0.000000 0.793332 0.257145
0.000000 0.791562 0.246647
0.000000 0.789120 0.235477
0.000000 0.785855 0.225345
0.000000 0.781582 0.218051
0.143038 0.776425 0.214420
0.271305 0.770535 0.216434
0.360845 0.764736 0.221500
0.435828 0.758328 0.226688
0.503197 0.751217 0.232242
0.566186 0.737331 0.251469
0.615595 0.704128 0.303746
0.643580 0.667292 0.350591
0.646143 0.626398 0.394385
0.636225 0.600732 0.444434
0.667018 0.615076 0.463935
0.696407 0.629999 0.484016
0.724605 0.645624 0.504082
0.751522 0.661799 0.523827
0.777310 0.678279 0.543267
0.801999 0.695155 0.562371
0.825681 0.712306 0.581140
0.848386 0.729824 0.599664
0.870207 0.747555 0.617884
0.891173 0.765682 0.635981
0.911498 0.784085 0.653895
0.931304 0.802945 0.671809
0.000000 0.823911 0.291630
0.000000 0.823819 0.290013
0.000000 0.823667 0.287663
0.000000 0.823392 0.282719
0.000000 0.822690 0.276707
0.000000 0.821653 0.268833
0.000000 0.820249 0.259556
0.000000 0.818204 0.249912
0.000000 0.815488 0.241398
0.000000 0.811917 0.235294
0.000000 0.807492 0.232486
0.229587 0.802121 0.233951
0.328344 0.796841 0.238895
0.406470 0.791440 0.243870
0.475380 0.785428 0.249088
0.538994 0.778744 0.254490
0.599420 0.762997 0.279362
0.646601 0.732174 0.328771
0.674525 0.698054 0.374121
0.679500 0.660548 0.416663
0.667018 0.632227 0.468910
0.696315 0.646326 0.489357
0.724697 0.661097 0.509270
0.751797 0.676448 0.528832
0.777737 0.692134 0.548089
0.802579 0.708217 0.566949
0.826322 0.724636 0.585595
0.849119 0.741390 0.603906
0.870939 0.758450 0.622004
0.891966 0.775845 0.639918
0.912322 0.793606 0.657649
0.932097 0.811795 0.675349
0.000000 0.850523 0.300481
0.000000 0.850431 0.299016
0.000000 0.850370 0.296910
0.000000 0.850156 0.292271
0.000000 0.849638 0.286717
0.000000 0.848814 0.279576
0.000000 0.847562 0.271366
0.000000 0.845884 0.262943
0.000000 0.843595 0.255528
0.000000 0.840513 0.250614
0.000000 0.836728 0.248844
0.181827 0.832120 0.250706
0.297490 0.826780 0.257084
0.379156 0.822141 0.261936
0.449470 0.816983 0.266941
0.513542 0.811337 0.272190
0.573602 0.805173 0.277562
0.631678 0.787900 0.307378
0.676967 0.759213 0.354650
0.704616 0.727718 0.398505
0.711482 0.693263 0.440070
0.700587 0.665248 0.489845
0.724788 0.676600 0.514488
0.752071 0.691157 0.533867
0.778195 0.706142 0.553002
0.803159 0.721492 0.571740
0.827024 0.737179 0.590173
0.849882 0.753201 0.608331
0.871794 0.769558 0.626276
0.892821 0.786252 0.643946
0.913176 0.803342 0.661524
0.933013 0.820920 0.679072
0.000000 0.876005 0.309026
0.000000 0.875975 0.307652
0.000000 0.875914 0.305699
0.000000 0.875761 0.301549
0.000000 0.875334 0.295964
0.000000 0.874662 0.289494
0.000000 0.873655 0.282078
0.000000 0.872282 0.274693
0.000000 0.870268 0.268315
0.000000 0.867643 0.264317
0.000000 0.864347 0.263340
0.116579 0.860319 0.265965
0.263249 0.855589 0.272587
0.354681 0.850736 0.280735
0.426093 0.846311 0.285618
0.490364 0.841428 0.290623
0.550286 0.836118 0.295933
0.607233 0.830350 0.301457
0.663111 0.811826 0.335851
0.706569 0.785183 0.381353
0.733822 0.756222 0.424018
0.742092 0.724605 0.464790
0.732601 0.697047 0.510918
0.752407 0.705928 0.539025
0.778683 0.720211 0.557977
0.803799 0.734859 0.576593
0.827756 0.749844 0.594873
0.850736 0.765164 0.612909
0.872679 0.780819 0.630640
0.893767 0.796841 0.648157
0.914153 0.813291 0.665553
0.933989 0.830259 0.682948
0.000000 0.900389 0.317174
0.000000 0.900389 0.315892
0.000000 0.900298 0.314183
0.000000 0.900206 0.310277
0.000000 0.899992 0.304570
0.000000 0.899413 0.298711
0.000000 0.898589 0.291905
0.000000 0.897368 0.285161
0.000000 0.895689 0.279637
0.000000 0.893370 0.276524
0.000000 0.890440 0.276524
0.000000 0.886870 0.279728
0.225772 0.882628 0.286778
0.331670 0.877714 0.298558
0.406470 0.873503 0.305272
0.470497 0.869230 0.310155
0.529747 0.864622 0.315282
0.585931 0.859648 0.320500
0.639826 0.854276 0.326085
0.693843 0.834745 0.364904
0.735531 0.810117 0.409033
0.762234 0.783444 0.450721
0.771481 0.754604 0.490059
0.763363 0.727810 0.531823
0.779232 0.734310 0.563043
0.804440 0.748287 0.581506
0.828580 0.762600 0.599695
0.851621 0.777279 0.617548
0.873655 0.792264 0.635126
0.894804 0.807614 0.652491
0.915190 0.823392 0.669703
0.935058 0.839719 0.686915
0.000000 0.923796 0.322759
0.000000 0.923735 0.322728
0.000000 0.923674 0.322179
0.000000 0.923583 0.318578
0.000000 0.923461 0.312779
0.000000 0.923033 0.307073
0.000000 0.922362 0.300725
0.000000 0.921355 0.294621
0.000000 0.919860 0.289769
0.000000 0.917845 0.287388
0.000000 0.915190 0.288182
0.000000 0.911955 0.292088
0.180728 0.908141 0.299748
0.303441 0.903624 0.311589
0.391699 0.898802 0.325963
0.454749 0.895079 0.330663
0.512871 0.891020 0.335515
0.567864 0.886656 0.340795
0.620539 0.881895 0.346197
0.671595 0.876860 0.351751
0.723903 0.856657 0.394812
0.763790 0.833860 0.437812
0.789761 0.809445 0.478126
0.799680 0.783261 0.515007
0.792752 0.757412 0.552605
0.805173 0.761685 0.586511
0.829465 0.775418 0.604547
0.852567 0.789425 0.622278
0.874693 0.803769 0.639704
0.895872 0.818479 0.656916
0.916320 0.833616 0.673945
0.936217 0.849332 0.691005
0.000000 0.946258 0.327428
0.000000 0.946197 0.327367
0.000000 0.946105 0.327276
0.000000 0.945983 0.326543
0.000000 0.945922 0.321202
0.000000 0.945678 0.314824
0.000000 0.945129 0.308873
0.000000 0.944274 0.303044
0.000000 0.942992 0.298650
0.000000 0.941161 0.296788
0.000000 0.938750 0.298344
0.000000 0.935790 0.303075
0.119051 0.932219 0.311284
0.273411 0.928099 0.323552
0.372259 0.923308 0.340429
0.444221 0.919066 0.352361
0.500664 0.915465 0.357122
0.553979 0.911589 0.362066
0.604974 0.907439 0.367346
0.654383 0.902953 0.372778
0.703059 0.897276 0.381079
0.753292 0.877562 0.425574
0.791318 0.856565 0.467262
0.816220 0.834257 0.504997
0.826688 0.810544 0.539635
0.820951 0.785885 0.573266
0.830350 0.788205 0.609461
0.853635 0.801633 0.627100
0.875822 0.815366 0.644404
0.897063 0.829435 0.661433
0.917510 0.843931 0.678309
0.937438 0.859068 0.695216
0.000000 0.967803 0.331304
0.000000 0.967773 0.331212
0.000000 0.967742 0.331151
0.000000 0.967590 0.330907
0.000000 0.967437 0.329137
0.000000 0.967407 0.322148
0.000000 0.966949 0.316228
0.000000 0.966247 0.310613
0.000000 0.965118 0.306432
0.000000 0.963470 0.304967
0.000000 0.961273 0.307073
0.000000 0.958465 0.312627
0.000000 0.955169 0.321660
0.240635 0.951263 0.334478
0.349554 0.946777 0.351659
0.437781 0.941650 0.373571
0.493996 0.938201 0.379889
0.544945 0.934752 0.384741
0.593896 0.930999 0.389837
0.641321 0.927062 0.395117
0.687495 0.922820 0.400610
0.734676 0.915709 0.414130
0.782193 0.897429 0.457221
0.817868 0.878233 0.496101
0.841672 0.858000 0.531487
0.852476 0.836545 0.564019
0.848142 0.813535 0.594354
0.854734 0.813809 0.631983
0.877012 0.826932 0.649165
0.898314 0.840391 0.666041
0.918853 0.854307 0.682765
0.938781 0.868864 0.699550
0.000000 0.988525 0.334478
0.000000 0.988495 0.334386
0.000000 0.988464 0.334325
0.000000 0.988373 0.334142
0.000000 0.988220 0.333837
0.000000 0.988128 0.330327
0.000000 0.987945 0.322972
0.000000 0.987396 0.317357
0.000000 0.986419 0.313115
0.000000 0.984924 0.311864
0.000000 0.982849 0.314427
0.000000 0.980255 0.320775
0.000000 0.977081 0.330663
0.202152 0.973327 0.344366
0.326116 0.969024 0.362005
0.420050 0.964111 0.384161
0.493751 0.959319 0.404181
0.541772 0.956207 0.408820
0.588220 0.952850 0.413794
0.633173 0.949279 0.418860
0.677119 0.945495 0.424231
0.720241 0.941466 0.429816
0.765774 0.933257 0.448005
0.810025 0.916472 0.488197
0.843534 0.898985 0.524437
0.866178 0.880674 0.557580
0.877226 0.861357 0.588159
0.874784 0.840757 0.616663
0.878294 0.838499 0.653986
0.899657 0.851377 0.670741
0.920226 0.864714 0.687312
0.940215 0.878691 0.703944
0.000000 1.000000 0.336919
0.000000 1.000000 0.336828
0.000000 1.000000 0.336767
0.000000 1.000000 0.336492
0.000000 1.000000 0.336248
0.000000 1.000000 0.335882
0.000000 1.000000 0.330053
0.000000 1.000000 0.323369
0.000000 1.000000 0.318853
0.000000 1.000000 0.317388
0.000000 1.000000 0.320226
0.000000 1.000000 0.327367
0.000000 0.998077 0.338170
0.150271 0.994446 0.352789
0.301213 0.990234 0.371405
0.402441 0.985443 0.394049
0.488869 0.979980 0.421393
0.545403 0.976074 0.434730
0.588647 0.973022 0.439399
0.630671 0.969787 0.444251
0.671778 0.966369 0.449226
0.712245 0.962768 0.454353
0.752071 0.958984 0.459571
0.795773 0.949920 0.481209
0.836912 0.934630 0.518547
0.868254 0.918822 0.552392
0.889799 0.902312 0.583368
0.900938 0.884977 0.612055
0.900023 0.866575 0.638788
0.901091 0.862333 0.675471
0.921721 0.875120 0.691920
0.941741 0.888518 0.708400
0.000000 1.000000 0.338476
0.000000 1.000000 0.338415
0.000000 1.000000 0.338384
0.000000 1.000000 0.338231
0.000000 1.000000 0.337896
0.000000 1.000000 0.337591
0.000000 1.000000 0.337102
0.000000 1.000000 0.328985
0.000000 1.000000 0.323735
0.000000 1.000000 0.321660
0.000000 1.000000 0.324437
0.000000 1.000000 0.332280
0.000000 1.000000 0.344182
0.032837 1.000000 0.360021
0.273533 1.000000 0.379675
