其他预设/【213】赛博朋克科幻预设52款/1.LUT预设（视频调色-PR-AE-PS-FCPX-达芬奇用）/赛博朋克科幻__-7 强度4.cube
# Created by Adobe Lightroom plugin Export LUT (1.17.0)
# www.johnrellis.com/lightroom/exportlut.htm
# Preset: 赛博朋克科幻[素锦印象]-7 强度4
# Color profile: /Library/Application Support/Adobe/Color/Profiles/Recommended/AdobeRGB1998.icc
LUT_3D_SIZE 5
DOMAIN_MIN 0.000000 0.000000 0.000000
DOMAIN_MAX 0.903226 0.903226 0.903226
0.067628 0.097536 0.087770
0.238468 0.130190 0.074037
0.637964 0.244572 0.000000
0.901488 0.324743 0.000000
1.000000 0.367468 0.000000
0.035676 0.150332 0.092287
0.212345 0.172427 0.090089
0.625360 0.267552 0.000000
0.898863 0.344396 0.000000
1.000000 0.380499 0.000000
0.000000 0.323522 0.121462
0.093141 0.356023 0.136110
0.596674 0.411048 0.128481
0.887327 0.401587 0.000000
1.000000 0.420966 0.000000
0.000000 0.569818 0.179721
0.000000 0.594446 0.175540
0.416114 0.666682 0.296788
0.882872 0.624384 0.310521
1.000000 0.549371 0.222354
0.000000 0.835660 0.239231
0.000000 0.847654 0.222965
0.423865 0.867582 0.422431
0.831235 0.902190 0.573907
1.000000 0.813840 0.583978
0.000000 0.160647 0.172427
0.191257 0.123568 0.148531
0.603296 0.242618 0.080537
0.891814 0.329290 0.000000
1.000000 0.373816 0.000000
0.000000 0.234165 0.196780
0.168215 0.194278 0.176333
0.588159 0.274449 0.131350
0.888792 0.348516 0.000000
1.000000 0.383185 0.000000
0.000000 0.351659 0.199222
0.089631 0.366613 0.188876
0.562860 0.421057 0.240818
0.875944 0.425269 0.168673
1.000000 0.434089 0.000000
0.000000 0.583032 0.234989
0.000000 0.598840 0.222995
0.435157 0.660945 0.363867
0.868772 0.645838 0.394018
1.000000 0.578729 0.323125
0.000000 0.835233 0.268101
0.000000 0.847105 0.255253
0.391272 0.868254 0.421820
0.815915 0.901793 0.602747
1.000000 0.828122 0.618067
0.000000 0.424170 0.470924
0.000000 0.340124 0.434882
0.503624 0.213748 0.331212
0.862699 0.416693 0.322026
1.000000 0.443610 0.248020
0.000000 0.486946 0.482216
0.000000 0.437934 0.463508
0.489448 0.288243 0.350988
0.855283 0.449134 0.353002
1.000000 0.460883 0.268467
0.000000 0.620935 0.514549
0.000000 0.593561 0.495827
0.441901 0.455543 0.416754
0.835721 0.534417 0.428809
1.000000 0.534844 0.358984
0.000000 0.686824 0.460548
0.000000 0.670741 0.436683
0.379767 0.656641 0.421607
0.822782 0.697108 0.551019
1.000000 0.670497 0.516258
0.000000 0.872374 0.454749
0.000000 0.874662 0.429297
0.111696 0.870481 0.397192
0.766567 0.895995 0.664240
1.000000 0.863035 0.695705
0.000000 0.662440 0.739406
0.000000 0.644587 0.735500
0.354894 0.401068 0.665095
0.783536 0.426947 0.540887
1.000000 0.701411 0.629511
0.000000 0.708034 0.739162
0.000000 0.681819 0.736599
0.388190 0.499947 0.678950
0.776303 0.472999 0.556298
1.000000 0.710964 0.636805
0.000000 0.798276 0.746212
0.000000 0.782620 0.742794
0.469642 0.723293 0.721645
0.754971 0.584283 0.599268
1.000000 0.735195 0.652613
0.000000 0.899290 0.743709
0.000000 0.893462 0.740475
0.314458 0.850828 0.727962
0.716518 0.716640 0.657252
1.000000 0.778073 0.679438
0.000000 0.964843 0.702296
0.000000 0.961913 0.687098
0.000000 0.939239 0.644068
0.658686 0.885313 0.651148
0.992767 0.903868 0.780179
0.000000 0.781064 0.893248
0.000000 0.795499 0.890806
0.517205 0.779812 0.876127
0.768368 0.652644 0.824949
0.973022 0.705898 0.745937
0.000000 0.801846 0.892851
0.000000 0.814725 0.890562
0.513024 0.806699 0.880034
0.768002 0.687343 0.831296
0.971221 0.720241 0.752224
0.000000 0.854643 0.893431
0.000000 0.860227 0.892027
0.312383 0.858854 0.887480
0.770382 0.781582 0.852995
0.966155 0.762478 0.771420
0.000000 0.946807 0.893217
0.000000 0.951812 0.892058
0.000000 0.950286 0.889952
0.792386 0.920073 0.881956
0.956939 0.828611 0.802701
0.000000 1.000000 0.894713
0.000000 1.000000 0.893828
0.000000 1.000000 0.874876
0.613519 1.000000 0.877287
0.932555 0.921752 0.846220
