其他预设/【213】赛博朋克科幻预设52款/1.LUT预设（视频调色-PR-AE-PS-FCPX-达芬奇用）/赛博朋克科幻__-7 强度4.cube
# Created by Adobe Lightroom plugin Export LUT (1.17.0)
# www.johnrellis.com/lightroom/exportlut.htm
# Preset: 赛博朋克科幻[素锦印象]-7 强度4
# Color profile: /Library/Application Support/Adobe/Color/Profiles/Recommended/AdobeRGB1998.icc
LUT_3D_SIZE 8
DOMAIN_MIN 0.000000 0.000000 0.000000
DOMAIN_MAX 0.903226 0.903226 0.903226
0.067628 0.097536 0.087770
0.119875 0.104768 0.085573
0.288304 0.143038 0.065278
0.522606 0.209751 0.000000
0.732631 0.273503 0.000000
0.872587 0.316197 0.000000
0.977111 0.346227 0.000000
1.000000 0.367468 0.000000
0.064912 0.107759 0.088258
0.112764 0.115663 0.084657
0.282078 0.151949 0.064302
0.517845 0.219821 0.000000
0.730251 0.282048 0.000000
0.871550 0.322606 0.000000
0.976745 0.351232 0.000000
1.000000 0.371313 0.000000
0.012787 0.168124 0.094392
0.069886 0.178927 0.097749
0.256687 0.199283 0.093812
0.498573 0.241917 0.000000
0.720974 0.301884 0.000000
0.868009 0.340063 0.000000
0.975494 0.368231 0.000000
1.000000 0.384771 0.000000
0.000000 0.263737 0.109438
0.000000 0.274022 0.112184
0.176699 0.311101 0.139467
0.478798 0.336217 0.110109
0.707362 0.354070 0.000000
0.860258 0.372259 0.000000
0.972900 0.392432 0.000000
1.000000 0.406928 0.000000
0.000000 0.387915 0.136965
0.000000 0.397162 0.136965
0.106569 0.428229 0.153384
0.407965 0.487404 0.183780
0.695277 0.477241 0.164309
0.854276 0.455726 0.090120
0.967346 0.438911 0.000000
1.000000 0.441688 0.000000
0.000000 0.530327 0.170535
0.000000 0.538231 0.168399
0.000000 0.565179 0.173068
0.329473 0.605554 0.271061
0.658503 0.662409 0.269352
0.851316 0.596063 0.275731
0.962524 0.554559 0.230472
1.000000 0.515679 0.159243
0.000000 0.686915 0.206119
0.000000 0.692470 0.202090
0.000000 0.710872 0.200900
0.259648 0.735805 0.288304
0.521752 0.773129 0.395392
0.852201 0.795254 0.423163
0.960632 0.708339 0.427344
1.000000 0.659022 0.383825
0.000000 0.835660 0.239231
0.000000 0.839322 0.232242
0.000000 0.851255 0.224002
0.172519 0.864469 0.318761
0.607507 0.868620 0.540795
0.764096 0.898466 0.565728
0.966796 0.882048 0.599908
1.000000 0.813840 0.583978
0.054994 0.111330 0.108827
0.108095 0.097932 0.101839
0.268376 0.140749 0.084688
0.500816 0.207065 0.000000
0.722225 0.273533 0.000000
0.868437 0.319036 0.000000
0.975647 0.350561 0.000000
1.000000 0.369909 0.000000
0.022889 0.137697 0.119875
0.097536 0.126406 0.114076
0.258030 0.153201 0.100160
0.496437 0.215000 0.000000
0.719844 0.279698 0.000000
0.867460 0.323003 0.000000
0.975341 0.355261 0.000000
1.000000 0.373632 0.000000
0.000000 0.177615 0.116274
0.076844 0.186221 0.118227
0.240909 0.203159 0.130465
0.481147 0.243351 0.085420
0.711299 0.302434 0.000000
0.863645 0.340734 0.000000
0.974243 0.367376 0.000000
1.000000 0.386755 0.000000
0.000000 0.271641 0.129641
0.000000 0.280217 0.131472
0.184756 0.313085 0.168795
0.466011 0.337865 0.152132
0.697780 0.354345 0.079408
0.856107 0.376226 0.000000
0.971221 0.395300 0.000000
1.000000 0.407080 0.000000
0.000000 0.392493 0.152010
0.000000 0.401343 0.153689
0.108003 0.431220 0.173251
0.392218 0.487984 0.214115
0.687556 0.481147 0.203281
0.849332 0.460609 0.150210
0.965209 0.446174 0.022583
1.000000 0.446662 0.000000
0.000000 0.532952 0.183749
0.000000 0.540703 0.182620
0.000000 0.566888 0.190890
0.336492 0.604273 0.293309
0.647486 0.662440 0.296483
0.846677 0.602167 0.305486
0.959533 0.562463 0.264683
1.000000 0.523705 0.202121
0.000000 0.687770 0.217227
0.000000 0.693263 0.214084
0.000000 0.711360 0.214908
0.255070 0.736049 0.296880
0.528069 0.771450 0.413031
0.849149 0.799557 0.441688
0.957580 0.715114 0.448310
1.000000 0.667567 0.406744
0.000000 0.835599 0.248325
0.000000 0.839200 0.242435
0.000000 0.851194 0.233982
0.153597 0.864500 0.322271
0.610468 0.867247 0.548821
0.759518 0.898192 0.574884
0.965148 0.885405 0.609155
1.000000 0.818296 0.594842
0.000000 0.186130 0.202579
0.000000 0.161959 0.193118
0.227237 0.132692 0.168887
0.471443 0.211521 0.143160
0.702022 0.275700 0.086671
0.856687 0.324285 0.000000
0.971557 0.353643 0.000000
1.000000 0.372076 0.000000
0.000000 0.215305 0.210513
0.000000 0.198795 0.204288
0.219974 0.158846 0.176730
0.463355 0.224979 0.156924
0.697658 0.285832 0.109163
0.855436 0.330877 0.000000
0.971099 0.358618 0.000000
1.000000 0.375586 0.000000
0.000000 0.278508 0.233036
0.000000 0.266514 0.225132
0.199405 0.224125 0.203769
0.443946 0.263890 0.191714
0.687007 0.317082 0.154971
0.851225 0.354772 0.087037
0.969268 0.377569 0.000000
1.000000 0.388952 0.000000
0.000000 0.316533 0.219089
0.000000 0.309789 0.211063
0.169863 0.321019 0.208286
0.426581 0.349126 0.242405
0.670314 0.369177 0.213199
0.842741 0.399786 0.174411
0.965148 0.415869 0.093324
1.000000 0.417853 0.000000
0.000000 0.423407 0.235111
0.000000 0.426581 0.228550
0.098390 0.438331 0.219394
0.343633 0.486671 0.290837
0.660456 0.495796 0.297795
0.832303 0.481117 0.267369
0.957336 0.477638 0.227634
1.000000 0.472236 0.138552
0.000000 0.556054 0.256107
0.000000 0.557488 0.245457
0.000000 0.571313 0.236545
0.307347 0.606744 0.312047
0.607263 0.661311 0.369879
0.830106 0.622797 0.388190
0.949065 0.590326 0.357641
1.000000 0.555535 0.308629
0.000000 0.698268 0.272770
0.000000 0.698360 0.258396
0.000000 0.712367 0.253544
0.235019 0.736355 0.323125
0.546380 0.764920 0.464393
0.828428 0.804532 0.495003
0.947601 0.735836 0.507897
1.000000 0.695094 0.473457
0.000000 0.835172 0.277226
0.000000 0.838254 0.274205
0.000000 0.850462 0.263890
0.000000 0.864714 0.330846
0.572808 0.869505 0.532250
0.741909 0.896880 0.601923
0.959686 0.896239 0.636805
1.000000 0.832364 0.627955
0.000000 0.334325 0.371313
0.000000 0.323156 0.364935
0.128359 0.177981 0.316350
0.406043 0.179202 0.271641
0.670008 0.315007 0.257755
0.840818 0.363165 0.233707
0.962524 0.394629 0.197177
1.000000 0.395453 0.000000
0.000000 0.362341 0.375525
0.000000 0.344915 0.369512
0.124971 0.222721 0.327398
0.401007 0.205386 0.278050
0.665156 0.327459 0.268070
0.838193 0.373877 0.246250
0.961425 0.402960 0.210147
1.000000 0.400275 0.034913
0.000000 0.422400 0.394293
0.000000 0.408942 0.387304
0.133791 0.355596 0.362951
0.384802 0.276677 0.300389
0.649805 0.365972 0.299351
0.829770 0.408606 0.284611
0.957916 0.430640 0.248844
1.000000 0.421210 0.129183
0.000000 0.503990 0.418341
0.000000 0.494209 0.411139
0.000000 0.456062 0.386450
0.355322 0.373022 0.340795
0.626307 0.421637 0.343572
0.817990 0.459449 0.334630
0.952117 0.476478 0.304845
1.000000 0.464851 0.222263
0.000000 0.539910 0.392798
0.000000 0.532097 0.384649
0.000000 0.500420 0.355932
0.325780 0.485969 0.344945
0.609522 0.519127 0.404059
0.802304 0.522698 0.392981
0.942443 0.540856 0.377966
1.000000 0.531426 0.324743
0.000000 0.607050 0.377325
0.000000 0.608545 0.372412
0.000000 0.609888 0.355016
0.275364 0.609003 0.350988
0.530327 0.654658 0.454810
0.800748 0.652949 0.486824
0.931304 0.634974 0.469123
1.000000 0.616419 0.435248
0.000000 0.734920 0.390570
0.000000 0.735286 0.382635
0.000000 0.734157 0.354162
0.160281 0.735958 0.352544
0.538262 0.757015 0.501335
0.782742 0.802762 0.558556
0.932189 0.763577 0.579950
1.000000 0.732448 0.553460
0.000000 0.857786 0.391577
0.000000 0.858793 0.384344
0.000000 0.858793 0.344152
0.000000 0.864530 0.337743
0.501976 0.871946 0.508110
0.738491 0.890929 0.638849
0.950591 0.912657 0.672938
1.000000 0.852293 0.672602
0.000000 0.507408 0.563104
0.000000 0.502312 0.558953
0.000000 0.409949 0.525597
0.347967 0.239658 0.443915
0.596185 0.258518 0.391302
0.806912 0.459724 0.412238
0.941009 0.503349 0.411231
1.000000 0.516716 0.384955
0.000000 0.531548 0.564019
0.000000 0.517571 0.560662
0.000000 0.444129 0.535668
0.341772 0.267369 0.453895
0.592370 0.281010 0.396826
0.804227 0.468788 0.419318
0.939666 0.511254 0.418463
1.000000 0.522026 0.390143
0.000000 0.576532 0.571527
0.000000 0.565637 0.567681
0.000000 0.523278 0.553857
0.310491 0.353094 0.486885
0.579767 0.346990 0.415869
0.795224 0.497871 0.441779
0.935424 0.536614 0.441627
1.000000 0.538384 0.404974
0.000000 0.646937 0.586145
0.000000 0.639094 0.582300
0.000000 0.607172 0.567254
0.347539 0.537804 0.534447
0.557946 0.437568 0.448554
0.781521 0.540917 0.474830
0.930022 0.572839 0.472541
1.000000 0.557610 0.417578
0.000000 0.716640 0.593408
0.000000 0.711482 0.589776
0.000000 0.689479 0.576165
0.283207 0.636866 0.548028
0.526696 0.536248 0.491096
0.766598 0.588861 0.509575
0.923278 0.618006 0.509514
1.000000 0.611292 0.471962
0.000000 0.746181 0.559442
0.000000 0.742153 0.554955
0.000000 0.724819 0.539086
0.230045 0.681361 0.510704
0.498909 0.643946 0.493080
0.758175 0.677699 0.567651
0.909941 0.678279 0.562799
1.000000 0.682948 0.546593
0.000000 0.798184 0.532860
0.000000 0.795193 0.526421
0.000000 0.783261 0.504814
0.000000 0.774868 0.484749
0.449928 0.756741 0.489631
0.707729 0.794217 0.611505
0.912596 0.790524 0.646082
1.000000 0.769314 0.626703
0.000000 0.888365 0.520378
0.000000 0.889189 0.514702
0.000000 0.891081 0.491554
0.000000 0.886229 0.448157
0.338811 0.875120 0.467659
0.727047 0.880705 0.662898
0.914733 0.914763 0.710597
1.000000 0.874296 0.719448
0.000000 0.636439 0.708919
0.000000 0.639704 0.706569
0.000000 0.595239 0.699001
0.211368 0.441199 0.651789
0.549126 0.329564 0.571618
0.749996 0.387671 0.510246
0.909453 0.605737 0.564630
1.000000 0.670527 0.592248
0.000000 0.655512 0.708492
0.000000 0.650294 0.707057
0.000000 0.614862 0.702632
0.249668 0.478248 0.655634
0.546624 0.349676 0.575280
0.747555 0.403693 0.515160
0.907836 0.616449 0.571588
1.000000 0.673915 0.594934
0.000000 0.693233 0.710353
0.000000 0.685664 0.709316
0.000000 0.657343 0.704433
0.313390 0.578393 0.673091
0.537224 0.418189 0.592035
0.739223 0.454047 0.531823
0.902892 0.648371 0.592615
1.000000 0.684627 0.603113
0.000000 0.746944 0.715602
0.000000 0.741238 0.714290
0.000000 0.719631 0.708797
0.312932 0.679835 0.694972
0.525383 0.534203 0.629267
0.725368 0.525170 0.558373
0.898131 0.671626 0.609369
1.000000 0.699306 0.612940
0.000000 0.813199 0.723049
0.000000 0.809384 0.721675
0.000000 0.793606 0.716091
0.220829 0.758419 0.702968
0.567346 0.699519 0.675807
0.707454 0.601038 0.589929
0.893889 0.699428 0.628046
1.000000 0.715663 0.621241
0.000000 0.868315 0.718166
0.000000 0.866270 0.716854
0.000000 0.856748 0.712154
0.000000 0.830472 0.702815
0.509056 0.780484 0.683314
0.681178 0.683009 0.626276
0.886717 0.735286 0.651881
1.000000 0.748623 0.644831
0.000000 0.898741 0.688411
0.000000 0.897581 0.684230
0.000000 0.891356 0.676356
0.000000 0.871611 0.664607
0.437812 0.825681 0.646998
0.656794 0.778927 0.627222
0.882902 0.812558 0.704860
0.995514 0.804715 0.694850
0.000000 0.948150 0.667567
0.000000 0.947143 0.662654
0.000000 0.943084 0.644007
0.000000 0.930480 0.613245
0.189975 0.910735 0.593561
0.606592 0.882750 0.617182
0.853208 0.909789 0.744015
0.996124 0.897948 0.768063
0.000000 0.725551 0.816770
0.000000 0.731167 0.815335
0.000000 0.714351 0.814450
0.246525 0.660121 0.794797
0.486152 0.519951 0.756100
0.734371 0.476783 0.693202
0.873411 0.548547 0.631464
0.988922 0.728603 0.688472
0.000000 0.737850 0.816342
0.000000 0.742855 0.814939
0.000000 0.723690 0.814420
0.258610 0.676753 0.797330
0.489662 0.539147 0.758938
0.732113 0.490761 0.695155
0.872038 0.557488 0.634882
0.988220 0.734585 0.692256
0.000000 0.770291 0.815976
0.000000 0.773861 0.814786
0.000000 0.753780 0.814542
0.282475 0.728817 0.806210
0.530053 0.616663 0.767239
0.724300 0.534234 0.701839
0.867521 0.586664 0.646082
0.986175 0.754574 0.704891
0.000000 0.813382 0.817014
0.000000 0.816831 0.815824
0.000000 0.800717 0.815427
0.217624 0.780972 0.810819
0.604120 0.732204 0.782559
0.711177 0.596124 0.713497
0.860410 0.630030 0.663722
0.983490 0.786770 0.725216
0.000000 0.866239 0.819089
0.000000 0.869230 0.817990
0.000000 0.860197 0.817014
0.000000 0.838468 0.813718
0.584192 0.814420 0.804105
0.705379 0.698024 0.749508
0.851072 0.681727 0.685969
0.982788 0.810391 0.740352
0.000000 0.925811 0.822049
0.000000 0.928252 0.821103
0.000000 0.926360 0.819394
0.000000 0.908385 0.816495
0.492348 0.876524 0.809018
0.744076 0.834287 0.792325
0.837491 0.742245 0.713008
0.983490 0.828794 0.751492
0.000000 0.978912 0.818143
0.000000 0.978302 0.814939
0.000000 0.976074 0.807156
0.000000 0.966674 0.805783
0.380713 0.937713 0.803799
0.688991 0.895567 0.794339
0.815152 0.810300 0.743526
0.982391 0.854582 0.767117
0.000000 1.000000 0.793118
0.000000 1.000000 0.790219
0.000000 1.000000 0.779782
0.000000 1.000000 0.763729
0.000000 0.983642 0.758145
0.596948 0.939086 0.758358
0.792325 0.896269 0.743160
0.980285 0.920500 0.815366
0.000000 0.781064 0.893248
0.000000 0.785336 0.892546
0.000000 0.789822 0.891264
0.202426 0.779568 0.885588
0.625391 0.758999 0.865873
0.727657 0.670558 0.837644
0.886625 0.645594 0.797147
0.973022 0.705898 0.745937
0.000000 0.788022 0.893065
0.000000 0.792081 0.892363
0.000000 0.796231 0.891112
0.197848 0.788479 0.886442
0.638087 0.772580 0.866514
0.728542 0.681117 0.839292
0.887236 0.651850 0.800320
0.972442 0.710262 0.747829
0.000000 0.807675 0.892851
0.000000 0.811337 0.892210
0.000000 0.817868 0.890654
0.085176 0.812894 0.888762
0.654444 0.806363 0.870634
0.731746 0.715084 0.845151
0.881437 0.674403 0.804562
0.970642 0.724788 0.754238
0.000000 0.833738 0.893492
0.000000 0.837095 0.892851
0.000000 0.848997 0.890623
0.000000 0.838315 0.889708
0.641566 0.847715 0.879454
0.737819 0.766293 0.855711
0.870268 0.709499 0.811093
0.967926 0.747982 0.764736
0.000000 0.878935 0.893278
0.000000 0.880583 0.892882
0.000000 0.885924 0.891478
0.000000 0.880064 0.890898
0.528405 0.878935 0.885405
0.792325 0.858549 0.867613
0.854734 0.753017 0.820890
0.964080 0.778958 0.779141
0.000000 0.932616 0.893187
0.000000 0.934173 0.892821
0.000000 0.939300 0.891569
0.000000 0.944091 0.889891
0.000000 0.921416 0.888487
0.754513 0.913085 0.882506
0.850462 0.834379 0.848539
0.958679 0.817685 0.797482
0.000000 0.990448 0.893584
0.000000 0.991943 0.893278
0.000000 0.997009 0.892180
0.000000 1.000000 0.890135
0.000000 0.992737 0.888975
0.637629 0.960266 0.884581
0.879973 0.936645 0.879484
0.950134 0.864652 0.819974
0.000000 1.000000 0.894713
0.000000 1.000000 0.894469
0.000000 1.000000 0.893492
0.000000 1.000000 0.883177
0.000000 1.000000 0.873075
0.492561 1.000000 0.876493
0.820249 0.981109 0.877531
0.932555 0.921752 0.846220
