其他预设/【213】赛博朋克科幻预设52款/1.LUT预设（视频调色-PR-AE-PS-FCPX-达芬奇用）/赛博朋克科幻__-11 强度1.cube
# Created by Adobe Lightroom plugin Export LUT (1.17.0)
# www.johnrellis.com/lightroom/exportlut.htm
# Preset: 赛博朋克科幻[素锦印象]-11 强度1
# Color profile: /Library/Application Support/Adobe/Color/Profiles/Recommended/AdobeRGB1998.icc
LUT_3D_SIZE 5
DOMAIN_MIN 0.000000 0.000000 0.000000
DOMAIN_MAX 0.903226 0.903226 0.903226
0.000000 0.000000 0.000000
0.229099 0.000000 0.070405
0.458381 0.000000 0.131319
0.686122 0.000000 0.198764
0.910948 0.000000 0.274601
0.000000 0.224308 0.098787
0.216190 0.206851 0.043030
0.459449 0.046082 0.089815
0.689876 0.000000 0.131624
0.915373 0.000000 0.213687
0.000000 0.456672 0.194675
0.000000 0.451728 0.078706
0.431617 0.419440 0.096895
0.685481 0.320989 0.153567
0.914855 0.164187 0.207767
0.000000 0.699306 0.291081
0.000000 0.695155 0.254368
0.317937 0.679713 0.127626
0.642878 0.653040 0.146853
0.908995 0.586725 0.220554
0.000000 0.932158 0.385473
0.000000 0.928985 0.387396
0.100465 0.930846 0.211917
0.533684 0.916350 0.215427
0.851682 0.901457 0.248386
0.040742 0.000000 0.204929
0.232212 0.000000 0.208377
0.454627 0.000000 0.252506
0.682307 0.000000 0.304814
0.907897 0.000000 0.363470
0.020050 0.212772 0.213107
0.231968 0.201480 0.210483
0.458595 0.134920 0.238224
0.685939 0.000000 0.280858
0.910826 0.000000 0.339361
0.000000 0.457801 0.281224
0.201144 0.444862 0.266423
0.438636 0.417090 0.226291
0.686458 0.328161 0.253208
0.915099 0.185519 0.289342
0.000000 0.700313 0.354925
0.111574 0.693660 0.344274
0.336980 0.679408 0.242130
0.647364 0.651850 0.251469
0.909331 0.584222 0.302586
0.000000 0.933471 0.426642
0.000000 0.930297 0.428473
0.246921 0.928191 0.336248
0.543389 0.915801 0.297002
0.855009 0.900847 0.322637
0.093843 0.000000 0.427802
0.258244 0.000000 0.427466
0.469215 0.000000 0.429389
0.680873 0.000000 0.467170
0.907897 0.000000 0.507347
0.104707 0.226841 0.429847
0.248692 0.203677 0.429328
0.468330 0.155337 0.430030
0.682185 0.000000 0.466255
0.909209 0.000000 0.503502
0.005493 0.441596 0.446052
0.235477 0.435004 0.442786
0.461646 0.409705 0.429389
0.687098 0.368231 0.455665
0.911192 0.305089 0.496956
0.000000 0.708522 0.513817
0.160281 0.701625 0.507836
0.441413 0.676417 0.486122
0.662165 0.648066 0.446265
0.910582 0.577966 0.482185
0.000000 0.937072 0.555993
0.000000 0.934813 0.553582
0.409583 0.924743 0.554040
0.581292 0.915587 0.478981
0.865751 0.899077 0.490394
0.121553 0.000000 0.666743
0.271427 0.000000 0.666590
0.502556 0.000000 0.666194
0.705348 0.000000 0.664790
0.909056 0.000000 0.692897
0.103029 0.214206 0.667842
0.264012 0.202243 0.667689
0.498909 0.151278 0.667201
0.704646 0.000000 0.665248
0.908812 0.000000 0.692561
0.126162 0.459876 0.673915
0.265782 0.456336 0.671992
0.484413 0.426154 0.668238
0.700465 0.383124 0.665522
0.910948 0.296147 0.689570
0.000000 0.689876 0.689937
0.233646 0.686702 0.688472
0.472236 0.674434 0.682216
0.685969 0.641352 0.660182
0.911254 0.611658 0.687800
0.000000 0.943328 0.738857
0.000000 0.941222 0.737606
0.425696 0.933593 0.733028
0.673121 0.916136 0.720485
0.882811 0.896269 0.682063
0.126192 0.000000 0.900359
0.270298 0.000000 0.900328
0.500481 0.000000 0.900298
0.729915 0.000000 0.899413
0.934112 0.000000 0.901122
0.124239 0.206180 0.901091
0.268528 0.192203 0.901091
0.498390 0.125399 0.901030
0.730190 0.000000 0.900572
0.933776 0.000000 0.901671
0.213230 0.477150 0.902037
0.320928 0.473976 0.901640
0.498360 0.436286 0.902464
0.726375 0.391699 0.902586
0.931243 0.281224 0.902770
0.145327 0.698421 0.908019
0.279057 0.698268 0.907591
0.499031 0.696498 0.905821
0.714717 0.671809 0.904051
0.923217 0.621881 0.902708
0.000000 0.928344 0.915587
0.203372 0.927276 0.915526
0.469398 0.923613 0.915312
0.704585 0.916655 0.914305
0.906249 0.890745 0.897429
