其他预设/【213】赛博朋克科幻预设52款/1.LUT预设（视频调色-PR-AE-PS-FCPX-达芬奇用）/赛博朋克科幻__-11 强度1.cube
# Created by Adobe Lightroom plugin Export LUT (1.17.0)
# www.johnrellis.com/lightroom/exportlut.htm
# Preset: 赛博朋克科幻[素锦印象]-11 强度1
# Color profile: /Library/Application Support/Adobe/Color/Profiles/Recommended/AdobeRGB1998.icc
LUT_3D_SIZE 32
0.000000 0.000000 0.000000
0.035676 0.000000 0.002625
0.067170 0.000000 0.007233
0.097505 0.000000 0.016236
0.130556 0.000000 0.028565
0.163394 0.000000 0.046571
0.196414 0.000000 0.060731
0.229099 0.000000 0.070405
0.261967 0.000000 0.078950
0.294652 0.000000 0.087160
0.327489 0.000000 0.096101
0.360235 0.000000 0.104372
0.393011 0.000000 0.112764
0.425727 0.000000 0.122011
0.458381 0.000000 0.131319
0.491096 0.000000 0.140658
0.523857 0.000000 0.150057
0.556573 0.000000 0.159579
0.589136 0.000000 0.169131
0.621546 0.000000 0.179019
0.653803 0.000000 0.188815
0.686122 0.000000 0.198764
0.718410 0.000000 0.208835
0.750607 0.000000 0.219150
0.782773 0.000000 0.229709
0.814939 0.000000 0.240513
0.847013 0.000000 0.251469
0.878996 0.000000 0.262791
0.910948 0.000000 0.274601
0.942809 0.000000 0.286870
0.974640 0.000000 0.299748
1.000000 0.000000 0.313390
0.000000 0.035401 0.005829
0.031617 0.032227 0.001953
0.067140 0.019898 0.004822
0.097932 0.001770 0.008881
0.131106 0.000000 0.013184
0.164431 0.000000 0.021118
0.197086 0.000000 0.043427
0.229709 0.000000 0.060456
0.262455 0.000000 0.071260
0.295171 0.000000 0.080446
0.327855 0.000000 0.089876
0.360632 0.000000 0.099031
0.393317 0.000000 0.108156
0.426032 0.000000 0.117769
0.458717 0.000000 0.127108
0.491371 0.000000 0.137148
0.524010 0.000000 0.146639
0.556817 0.000000 0.156435
0.589349 0.000000 0.166323
0.621668 0.000000 0.176272
0.653986 0.000000 0.186130
0.686275 0.000000 0.196353
0.718563 0.000000 0.206668
0.750759 0.000000 0.217197
0.782925 0.000000 0.227695
0.815061 0.000000 0.238590
0.847135 0.000000 0.249638
0.879118 0.000000 0.261295
0.911070 0.000000 0.273045
0.942931 0.000000 0.285466
0.974762 0.000000 0.298344
1.000000 0.000000 0.311955
0.000000 0.066926 0.013886
0.018189 0.066865 0.003510
0.063386 0.064302 0.004761
0.097383 0.049378 0.010376
0.130739 0.018921 0.015961
0.164157 0.000000 0.022736
0.197269 0.000000 0.030060
0.230350 0.000000 0.038911
0.263157 0.000000 0.058228
0.295750 0.000000 0.070314
0.328405 0.000000 0.080934
0.361059 0.000000 0.090883
0.393744 0.000000 0.101350
0.426429 0.000000 0.111696
0.459022 0.000000 0.121767
0.491737 0.000000 0.131930
0.524407 0.000000 0.142000
0.557031 0.000000 0.152316
0.589624 0.000000 0.162478
0.621942 0.000000 0.172580
0.654231 0.000000 0.182803
0.686519 0.000000 0.193118
0.718776 0.000000 0.203525
0.750973 0.000000 0.214267
0.783139 0.000000 0.225071
0.815274 0.000000 0.236057
0.847318 0.000000 0.247288
0.879301 0.000000 0.258946
0.911254 0.000000 0.270939
0.943114 0.000000 0.283391
0.974914 0.000000 0.296452
1.000000 0.000000 0.310277
0.000000 0.096101 0.030671
0.001038 0.095918 0.011933
0.044587 0.094789 0.009003
0.092500 0.091096 0.011292
0.129885 0.081422 0.017945
0.163363 0.063813 0.026947
0.196658 0.023377 0.033112
0.229801 0.000000 0.041871
0.263096 0.000000 0.049104
0.296147 0.000000 0.056367
0.329320 0.000000 0.061341
0.362127 0.000000 0.070008
0.394690 0.000000 0.083650
0.427253 0.000000 0.096345
0.459815 0.000000 0.108339
0.492470 0.000000 0.119875
0.525078 0.000000 0.131411
0.557702 0.000000 0.142336
0.590173 0.000000 0.153292
0.622492 0.000000 0.164187
0.654810 0.000000 0.175021
0.687037 0.000000 0.185977
0.719265 0.000000 0.196811
0.751431 0.000000 0.207950
0.783597 0.000000 0.219059
0.815702 0.000000 0.230381
0.847745 0.000000 0.242039
0.879728 0.000000 0.253849
0.911620 0.000000 0.266148
0.943511 0.000000 0.278904
0.975250 0.000000 0.292149
1.000000 0.000000 0.306218
0.000000 0.128054 0.056672
0.000000 0.127687 0.045411
0.008911 0.127474 0.014862
0.078523 0.124758 0.017609
0.123293 0.119905 0.019989
0.162539 0.111727 0.026246
0.195712 0.092714 0.039673
0.228946 0.074525 0.046265
0.262486 0.025208 0.051728
0.295598 0.000000 0.058747
0.328832 0.000000 0.062226
0.361975 0.000000 0.066865
0.395026 0.000000 0.072267
0.427985 0.000000 0.077577
0.461006 0.000000 0.083162
0.493538 0.000000 0.097444
0.526085 0.000000 0.111604
0.558618 0.000000 0.124971
0.591089 0.000000 0.137636
0.623377 0.000000 0.149905
0.655604 0.000000 0.161715
0.687831 0.000000 0.173678
0.720027 0.000000 0.185489
0.752163 0.000000 0.197421
0.784268 0.000000 0.209171
0.816403 0.000000 0.221195
0.848386 0.000000 0.233310
0.880339 0.000000 0.245731
0.912261 0.000000 0.258457
0.944091 0.000000 0.271672
0.975830 0.000000 0.285313
1.000000 0.000000 0.299870
0.000000 0.160403 0.071656
0.000000 0.159792 0.068116
0.000000 0.159792 0.051789
0.060212 0.158175 0.022187
0.110323 0.154147 0.026368
0.154391 0.148714 0.028901
0.195346 0.142123 0.032013
0.228367 0.124331 0.045747
0.261601 0.104768 0.054383
0.294926 0.082338 0.059724
0.328222 0.026764 0.064027
0.361395 0.000000 0.068879
0.394446 0.000000 0.074067
0.427558 0.000000 0.079255
0.460548 0.000000 0.084718
0.493599 0.000000 0.090578
0.526665 0.000000 0.096590
0.559625 0.000000 0.102419
0.592279 0.000000 0.111940
0.624567 0.000000 0.127230
0.656672 0.000000 0.141665
0.688899 0.000000 0.155489
0.721065 0.000000 0.168856
0.753170 0.000000 0.182071
0.785245 0.000000 0.194858
0.817288 0.000000 0.207950
0.849302 0.000000 0.220859
0.881193 0.000000 0.234226
0.913054 0.000000 0.247593
0.944884 0.000000 0.261448
0.976593 0.000000 0.275761
1.000000 0.000000 0.290837
0.000000 0.192508 0.085115
0.000000 0.191928 0.082307
0.000000 0.191684 0.072999
0.000000 0.191379 0.026490
0.092653 0.188052 0.028748
0.141543 0.183383 0.031922
0.185367 0.177737 0.034485
0.227817 0.172824 0.035920
0.261082 0.155459 0.051759
0.294163 0.134157 0.062379
0.327367 0.116365 0.066865
0.360662 0.090791 0.071504
0.393774 0.034211 0.076509
0.427008 0.000000 0.081483
0.460121 0.000000 0.087037
0.493080 0.000000 0.092775
0.526177 0.000000 0.098329
0.559167 0.000000 0.104311
0.592096 0.000000 0.110292
0.624872 0.000000 0.116609
0.657557 0.000000 0.122866
0.690211 0.000000 0.129519
0.722377 0.000000 0.144198
0.754452 0.000000 0.159884
0.786465 0.000000 0.174746
0.818448 0.000000 0.189425
0.850431 0.000000 0.204013
0.882292 0.000000 0.218448
0.914122 0.000000 0.233066
0.945892 0.000000 0.247898
0.977600 0.000000 0.263157
1.000000 0.000000 0.279088
0.000000 0.224308 0.098787
0.000000 0.223911 0.095979
0.000000 0.223484 0.089540
0.000000 0.223209 0.066896
0.065980 0.221378 0.031708
0.123629 0.217350 0.034546
0.172610 0.212467 0.038514
0.216190 0.206851 0.043030
0.260563 0.203555 0.044251
0.293584 0.186893 0.059724
0.326696 0.167056 0.068177
0.359777 0.147524 0.074647
0.393072 0.127474 0.079438
0.426276 0.100038 0.084504
0.459449 0.046082 0.089815
0.492531 0.000000 0.095338
0.525597 0.000000 0.100984
0.558679 0.000000 0.106783
0.591669 0.000000 0.112642
0.624445 0.000000 0.118776
0.657130 0.000000 0.125124
0.689876 0.000000 0.131624
0.722469 0.000000 0.138521
0.755062 0.000000 0.145541
0.787533 0.000000 0.153170
0.819852 0.000000 0.163912
0.851743 0.000000 0.180758
0.883604 0.000000 0.197330
0.915373 0.000000 0.213687
0.947143 0.000000 0.230014
0.978790 0.000000 0.246708
1.000000 0.000000 0.263981
0.000000 0.256168 0.112062
0.000000 0.255772 0.109468
0.000000 0.255222 0.105837
0.000000 0.254917 0.088411
0.000000 0.254490 0.037171
0.103792 0.251011 0.040101
0.154757 0.246616 0.044343
0.203464 0.241886 0.048310
0.247044 0.236179 0.053223
0.293034 0.234684 0.052522
0.326238 0.218723 0.065064
0.359197 0.199924 0.073976
0.392187 0.177920 0.082948
0.425544 0.160891 0.088045
0.458686 0.139345 0.093172
0.491798 0.110201 0.098695
0.524926 0.060792 0.104128
0.558160 0.000000 0.109499
0.591119 0.000000 0.115419
0.623957 0.000000 0.121370
0.656733 0.000000 0.127565
0.689479 0.000000 0.133913
0.722133 0.000000 0.140749
0.754726 0.000000 0.147768
0.787259 0.000000 0.155367
0.819760 0.000000 0.163241
0.852201 0.000000 0.171481
0.884520 0.000000 0.180240
0.916777 0.000000 0.189792
0.948577 0.000000 0.206577
0.980194 0.000000 0.225437
1.000000 0.000000 0.244511
0.000000 0.288212 0.125551
0.000000 0.287938 0.123262
0.000000 0.287419 0.119966
0.000000 0.286900 0.106966
0.000000 0.286564 0.078340
0.072602 0.284611 0.046662
0.137575 0.280705 0.050080
0.186893 0.276219 0.053895
0.234470 0.271458 0.058625
0.277806 0.265812 0.061585
0.325261 0.265202 0.061372
0.358648 0.250370 0.070924
0.391730 0.232578 0.081025
0.424628 0.211704 0.090150
0.457832 0.192538 0.096712
0.491035 0.174289 0.101991
0.524254 0.151247 0.107271
0.557458 0.120577 0.112673
0.590478 0.071351 0.118379
0.623346 0.000000 0.124178
0.656214 0.000000 0.130220
0.689021 0.000000 0.136599
0.721767 0.000000 0.143252
0.754360 0.000000 0.150454
0.786954 0.000000 0.157778
0.819455 0.000000 0.165621
0.851926 0.000000 0.173739
0.884276 0.000000 0.182712
0.916594 0.000000 0.192203
0.948791 0.000000 0.202365
0.980896 0.000000 0.213596
1.000000 0.000000 0.226108
0.000000 0.320806 0.139345
0.000000 0.320531 0.137179
0.000000 0.320134 0.134249
0.000000 0.319402 0.124971
0.000000 0.318883 0.102419
0.000000 0.318425 0.053742
0.115084 0.314855 0.056367
0.169345 0.310674 0.059846
0.218662 0.306126 0.062074
0.265537 0.301244 0.065339
0.308659 0.295720 0.068635
0.353948 0.293309 0.069612
0.391089 0.282536 0.077180
0.424170 0.265293 0.087098
0.457191 0.245731 0.096620
0.490089 0.223819 0.106081
0.523369 0.207279 0.110933
0.556573 0.187839 0.116121
0.589715 0.163638 0.121675
0.622705 0.132113 0.127321
0.655634 0.083925 0.133333
0.688502 0.000000 0.139559
0.721279 0.000000 0.146334
0.753933 0.000000 0.153201
0.786557 0.000000 0.160678
0.819120 0.000000 0.168338
0.851591 0.000000 0.176608
0.884001 0.000000 0.185367
0.916320 0.000000 0.194827
0.948547 0.000000 0.205020
0.980682 0.000000 0.216251
1.000000 0.000000 0.228977
0.000000 0.353979 0.152987
0.000000 0.353704 0.151339
0.000000 0.353216 0.148775
0.000000 0.352300 0.142550
0.000000 0.351904 0.123507
0.000000 0.351263 0.090852
0.079622 0.349340 0.062104
0.150759 0.345434 0.064179
0.200595 0.340826 0.066682
0.250340 0.336370 0.069093
0.296544 0.331456 0.072206
0.339483 0.326024 0.075776
0.382605 0.321691 0.078187
0.423499 0.314855 0.083162
0.456580 0.298161 0.093751
0.489540 0.279515 0.103761
0.522545 0.258274 0.113161
0.555657 0.239445 0.119844
0.588861 0.222080 0.125185
0.621942 0.201663 0.130617
0.654994 0.176852 0.136660
0.687861 0.145418 0.142824
0.720699 0.099306 0.149325
0.753445 0.000000 0.156313
0.786130 0.000000 0.163607
0.818723 0.000000 0.171389
0.851255 0.000000 0.179568
0.883696 0.000000 0.188296
0.916045 0.000000 0.197696
0.948302 0.000000 0.207919
0.980438 0.000000 0.219364
1.000000 0.000000 0.232029
0.000000 0.387610 0.166842
0.000000 0.387335 0.165347
0.000000 0.386877 0.163058
0.000000 0.385931 0.158328
0.000000 0.385443 0.142824
0.000000 0.384802 0.116701
0.000000 0.384161 0.066865
0.124971 0.380438 0.069245
0.184024 0.376165 0.071229
0.231754 0.371344 0.073213
0.281651 0.367102 0.076081
0.327337 0.362066 0.079469
0.370184 0.356695 0.083131
0.411322 0.350683 0.086824
0.455726 0.347631 0.089082
0.488899 0.331395 0.100191
0.521965 0.313390 0.110201
0.554986 0.293156 0.119661
0.587945 0.271183 0.128847
0.621118 0.255344 0.134463
0.654200 0.237339 0.140108
0.687190 0.216342 0.146304
0.720058 0.191440 0.152773
0.752865 0.160403 0.159579
0.785611 0.117922 0.166812
0.818265 0.000000 0.174441
0.850858 0.000000 0.182589
0.883299 0.000000 0.191470
0.915709 0.000000 0.200809
0.947997 0.000000 0.211215
0.980163 0.000000 0.222538
1.000000 0.000000 0.235447
0.000000 0.421881 0.180758
0.000000 0.421576 0.179294
0.000000 0.421180 0.177462
0.000000 0.420325 0.173465
0.000000 0.419440 0.161654
0.000000 0.418860 0.139345
0.000000 0.418097 0.103578
0.085756 0.415839 0.073976
0.162844 0.411810 0.075624
0.215885 0.407202 0.077974
0.264042 0.402411 0.080201
0.312993 0.398138 0.083223
0.358160 0.393225 0.086732
0.400885 0.387823 0.089998
0.441993 0.381903 0.093812
0.487984 0.380896 0.094728
0.521202 0.364813 0.105959
0.554314 0.347417 0.116457
0.587304 0.328099 0.126528
0.620294 0.306493 0.136385
0.653315 0.288243 0.143862
0.686366 0.272007 0.149844
0.719356 0.253513 0.156283
0.752255 0.232395 0.163058
0.785031 0.207767 0.170138
0.817746 0.177829 0.177829
0.850370 0.138735 0.185916
0.882872 0.076051 0.194614
0.915343 0.000000 0.204166
0.947631 0.000000 0.214603
0.979828 0.000000 0.226139
1.000000 0.000000 0.239231
0.000000 0.456672 0.194675
0.000000 0.456397 0.193576
0.000000 0.455970 0.191806
0.000000 0.455177 0.188022
0.000000 0.454108 0.179477
0.000000 0.453529 0.160006
0.000000 0.452705 0.130739
0.000000 0.451728 0.078706
0.134340 0.447944 0.080568
0.197391 0.443580 0.082521
0.246952 0.438605 0.084382
0.295933 0.434028 0.087129
0.343969 0.429633 0.090150
0.388861 0.424781 0.093507
0.431617 0.419440 0.096895
0.472724 0.413550 0.100832
0.520165 0.414557 0.100435
0.553460 0.398779 0.111666
0.586572 0.381659 0.122683
0.619593 0.363073 0.133272
0.652552 0.342626 0.143740
0.685481 0.320989 0.153567
0.718563 0.306096 0.159823
0.751492 0.289464 0.166567
0.784390 0.270817 0.173617
0.817166 0.250004 0.181247
0.849821 0.226108 0.189364
0.882414 0.198184 0.198215
0.914855 0.164187 0.207767
0.947204 0.118318 0.218265
0.979431 0.000000 0.229953
1.000000 0.000000 0.243107
0.000000 0.492134 0.208835
0.000000 0.491890 0.207706
0.000000 0.491493 0.206271
0.000000 0.490700 0.202853
0.000000 0.489357 0.197116
0.000000 0.488746 0.179629
0.000000 0.487922 0.154452
0.000000 0.487007 0.115572
0.089601 0.484535 0.085023
0.173434 0.480415 0.086641
0.230014 0.475624 0.088777
0.277195 0.470344 0.090669
0.327398 0.466072 0.093568
0.374975 0.461677 0.096742
0.419532 0.456794 0.100252
0.462196 0.451514 0.103761
0.503258 0.445747 0.107729
0.552270 0.448920 0.105226
0.585595 0.433173 0.117494
0.618738 0.416419 0.129091
0.651820 0.398444 0.139834
0.684810 0.378851 0.151003
0.717708 0.357427 0.161776
0.750698 0.339940 0.170077
0.783627 0.324834 0.177188
0.816495 0.308263 0.184756
0.849210 0.290013 0.192935
0.881834 0.270024 0.201816
0.914336 0.248020 0.211643
0.946715 0.223117 0.222110
0.978973 0.195193 0.233982
1.000000 0.163241 0.247410
0.000000 0.527886 0.222995
0.000000 0.527703 0.221836
0.000000 0.527306 0.220615
0.000000 0.526543 0.217563
0.000000 0.525231 0.212894
0.000000 0.524407 0.198703
0.000000 0.523613 0.176455
0.000000 0.522606 0.144137
0.000000 0.521477 0.089845
0.141573 0.517510 0.091188
0.209171 0.512993 0.092958
0.261479 0.507927 0.094881
0.308110 0.502647 0.097139
0.358740 0.498573 0.099947
0.405646 0.494148 0.103304
0.449928 0.489326 0.106905
0.492561 0.484047 0.110506
0.533806 0.478492 0.114260
0.584222 0.483497 0.110719
0.617639 0.468177 0.123140
0.650843 0.451667 0.135256
0.683925 0.434150 0.146792
0.716945 0.415320 0.158236
0.749874 0.394934 0.169924
0.782773 0.373907 0.180819
0.815671 0.360052 0.188449
0.848478 0.345098 0.196780
0.881163 0.329137 0.205631
0.913695 0.311955 0.215549
0.946166 0.293767 0.226322
0.978424 0.274479 0.238285
1.000000 0.254582 0.251926
0.000000 0.562402 0.236667
0.000000 0.562158 0.235721
0.000000 0.561852 0.234562
0.000000 0.561059 0.231724
0.000000 0.559930 0.227573
0.000000 0.558831 0.216678
0.000000 0.558099 0.196902
0.000000 0.557183 0.169192
0.000000 0.556146 0.127718
0.092592 0.553674 0.096590
0.182681 0.549523 0.098177
0.242405 0.544854 0.099733
0.292027 0.539696 0.101595
0.339818 0.534844 0.103944
0.389410 0.530907 0.107057
0.435798 0.526635 0.109987
0.480171 0.521996 0.113558
0.522728 0.517052 0.117098
0.564172 0.511650 0.120638
0.616022 0.517876 0.116945
0.649592 0.503685 0.128695
0.682795 0.487434 0.141665
0.715938 0.470283 0.153841
0.749020 0.452094 0.166079
0.781949 0.432593 0.178286
0.814817 0.411749 0.190738
0.847654 0.395483 0.200687
0.880369 0.381933 0.209781
0.913024 0.367773 0.219547
0.945495 0.353002 0.230625
0.977813 0.337835 0.242741
1.000000 0.322820 0.256718
0.000000 0.596490 0.250248
0.000000 0.596277 0.249424
0.000000 0.595972 0.248203
0.000000 0.595331 0.245945
0.000000 0.594263 0.242161
0.000000 0.593011 0.234501
0.000000 0.592432 0.216464
0.000000 0.591577 0.192203
0.000000 0.590692 0.157870
0.000000 0.589624 0.102693
0.148135 0.585840 0.103700
0.219425 0.581598 0.105074
0.274449 0.576898 0.106752
0.321843 0.571801 0.108095
0.370977 0.567529 0.110536
0.419928 0.563714 0.113710
0.466041 0.559594 0.116854
0.510155 0.555169 0.120424
0.552911 0.550408 0.123934
0.594446 0.545342 0.127596
0.647791 0.552880 0.122988
0.681422 0.539635 0.134829
0.714717 0.523613 0.148165
0.747921 0.506859 0.161349
0.780941 0.489265 0.174258
0.813901 0.470619 0.187228
0.846769 0.450813 0.200626
0.879545 0.431189 0.213840
0.912230 0.418982 0.223972
0.944762 0.406409 0.235080
0.977142 0.393896 0.247562
1.000000 0.381598 0.261814
0.000000 0.630762 0.263737
0.000000 0.630518 0.263127
0.000000 0.630304 0.262119
0.000000 0.629694 0.259922
0.000000 0.628687 0.256626
0.000000 0.627375 0.251957
0.000000 0.626764 0.235447
0.000000 0.626123 0.213535
0.000000 0.625330 0.184054
0.000000 0.624414 0.141146
0.095766 0.622126 0.109957
0.191287 0.618311 0.110903
0.253819 0.614008 0.112245
0.305303 0.609369 0.113863
0.351232 0.604273 0.114961
0.401892 0.600610 0.117800
0.450233 0.596979 0.120729
0.496101 0.593042 0.124056
0.540215 0.588739 0.127382
0.583032 0.584222 0.131014
0.624659 0.579400 0.134768
0.675959 0.585107 0.131838
0.713222 0.576135 0.141024
0.746487 0.560418 0.155245
0.779690 0.543969 0.169284
0.812772 0.526879 0.183108
0.845731 0.508904 0.197147
0.878599 0.490181 0.211643
0.911315 0.470619 0.226871
0.943908 0.456458 0.239933
0.976349 0.445563 0.252537
1.000000 0.435187 0.267094
0.000000 0.665064 0.277409
0.000000 0.664912 0.276799
0.000000 0.664607 0.275944
0.000000 0.664088 0.274022
0.000000 0.663172 0.271061
0.000000 0.661952 0.267063
0.000000 0.661219 0.254093
0.000000 0.660670 0.234348
0.000000 0.659998 0.208011
0.000000 0.659205 0.172427
0.000000 0.658350 0.116579
0.154971 0.654841 0.117464
0.229282 0.650996 0.118624
0.286320 0.646723 0.119692
0.335607 0.642115 0.121004
0.381689 0.637385 0.122316
0.432685 0.634058 0.125277
0.480476 0.630579 0.128359
0.526116 0.626795 0.131655
0.570153 0.622736 0.135073
0.612909 0.618463 0.138582
0.654780 0.613916 0.142367
0.704097 0.617548 0.141146
0.744869 0.612970 0.147799
0.778195 0.597436 0.162905
0.811429 0.581445 0.177951
0.844480 0.564752 0.192874
0.877440 0.547631 0.208103
0.910246 0.529808 0.223972
0.942901 0.511650 0.240635
0.975402 0.494545 0.257847
1.000000 0.485451 0.272801
0.000000 0.699306 0.291081
0.000000 0.699184 0.290501
0.000000 0.698909 0.289677
0.000000 0.698451 0.287999
0.000000 0.697658 0.285466
0.000000 0.696498 0.281987
0.000000 0.695644 0.272465
0.000000 0.695155 0.254368
0.000000 0.694606 0.230869
0.000000 0.693965 0.199771
0.000000 0.693294 0.156161
0.100343 0.691279 0.124880
0.199985 0.687770 0.125887
0.264622 0.683925 0.126589
0.317937 0.679713 0.127626
0.365515 0.675135 0.128664
0.413062 0.671046 0.130526
0.463264 0.667903 0.133425
0.510613 0.664576 0.136477
0.556054 0.660914 0.139834
0.600061 0.657130 0.143282
0.642878 0.653040 0.146853
0.684871 0.648707 0.150790
0.732082 0.650416 0.151308
0.776455 0.650294 0.155459
0.809781 0.635035 0.171756
0.843015 0.619287 0.187747
0.876097 0.603174 0.203891
0.908995 0.586725 0.220554
0.941741 0.569940 0.238041
0.974334 0.553033 0.256718
1.000000 0.536370 0.277104
0.000000 0.733455 0.304631
0.000000 0.733333 0.304143
0.000000 0.733150 0.303563
0.000000 0.732662 0.302037
0.000000 0.731930 0.299779
0.000000 0.730922 0.296788
0.000000 0.729915 0.290684
0.000000 0.729519 0.273991
0.000000 0.729122 0.252659
0.000000 0.728603 0.225162
0.000000 0.728054 0.188296
0.000000 0.727413 0.133272
0.162417 0.724239 0.133791
0.239475 0.720760 0.134554
0.298222 0.717006 0.135348
0.349035 0.712917 0.136080
0.395087 0.708492 0.136873
0.444312 0.705043 0.139101
0.493782 0.701991 0.142275
0.540764 0.698817 0.145541
0.586023 0.695399 0.148928
0.629908 0.691737 0.152560
0.672755 0.687922 0.156374
0.714809 0.683864 0.160220
0.759945 0.683558 0.162264
0.807889 0.687892 0.164065
0.841276 0.672786 0.181552
0.874479 0.657496 0.198856
0.907500 0.641962 0.216434
0.940368 0.626184 0.234806
0.973053 0.610437 0.254337
1.000000 0.595026 0.275578
0.000000 0.767453 0.318273
0.000000 0.767300 0.317815
0.000000 0.767117 0.317205
0.000000 0.766690 0.315984
0.000000 0.766049 0.314122
0.000000 0.765133 0.311589
0.000000 0.763973 0.308568
0.000000 0.763668 0.293370
0.000000 0.763363 0.273747
0.000000 0.762966 0.249058
0.000000 0.762570 0.217075
0.000000 0.762081 0.173281
0.108949 0.760403 0.142824
0.209628 0.757321 0.143435
0.275914 0.753964 0.144076
0.330816 0.750271 0.144808
0.379614 0.746273 0.145571
0.424475 0.742061 0.146212
0.475380 0.739254 0.148836
0.524163 0.736385 0.152041
0.570855 0.733333 0.155489
0.615900 0.730098 0.158999
0.659754 0.726680 0.162814
0.702632 0.723049 0.166720
0.744717 0.719234 0.170779
0.787808 0.716915 0.174166
0.839261 0.725734 0.174044
0.872648 0.710933 0.192844
0.905791 0.696040 0.211643
0.938781 0.680995 0.230991
0.971557 0.666102 0.251499
1.000000 0.651545 0.273777
0.000000 0.801114 0.331731
0.000000 0.800992 0.331365
0.000000 0.800809 0.330877
0.000000 0.800443 0.329870
0.000000 0.799832 0.328344
0.000000 0.799039 0.326390
0.000000 0.797940 0.324010
0.000000 0.797482 0.312749
0.000000 0.797269 0.294743
0.000000 0.797024 0.272343
0.000000 0.796780 0.244022
0.000000 0.796445 0.206760
0.000000 0.796109 0.153445
0.173404 0.793393 0.153902
0.251011 0.790402 0.154391
0.310918 0.787167 0.154757
0.362860 0.783658 0.155489
0.409918 0.779904 0.155978
0.455543 0.776181 0.156710
0.506340 0.773648 0.159915
0.554559 0.770932 0.163394
0.600916 0.768063 0.166903
0.645808 0.765011 0.170474
0.689540 0.761807 0.174441
0.732418 0.758419 0.178561
0.774533 0.754879 0.182803
0.816098 0.751156 0.187167
0.870512 0.763455 0.186191
0.903868 0.749386 0.205997
0.936980 0.734890 0.226596
0.969879 0.720485 0.248295
1.000000 0.706508 0.271489
0.000000 0.834409 0.345190
0.000000 0.834318 0.344884
0.000000 0.834165 0.344549
0.000000 0.833829 0.343816
0.000000 0.833249 0.342657
0.000000 0.832547 0.341192
0.000000 0.831571 0.339452
0.000000 0.830900 0.332097
0.000000 0.830777 0.315496
0.000000 0.830686 0.295048
0.000000 0.830533 0.269566
0.000000 0.830411 0.237278
0.000000 0.830259 0.194156
0.125277 0.828977 0.165560
0.222629 0.826352 0.166049
0.289250 0.823545 0.166415
0.344884 0.820462 0.166842
0.394446 0.817166 0.167391
0.440162 0.813657 0.167697
0.487343 0.810605 0.169223
0.537346 0.808225 0.172641
0.585107 0.805631 0.176120
0.631098 0.802945 0.179904
0.675746 0.800107 0.183688
0.719356 0.797116 0.187839
0.762173 0.793973 0.192111
0.804318 0.790707 0.196811
0.845945 0.787259 0.201450
0.901610 0.800961 0.200931
0.934936 0.788052 0.221469
0.967987 0.774014 0.244266
1.000000 0.760433 0.268864
0.000000 0.867369 0.358679
0.000000 0.867247 0.358465
0.000000 0.867124 0.358221
0.000000 0.866819 0.357671
0.000000 0.866300 0.356939
0.000000 0.865660 0.356054
0.000000 0.864775 0.355016
0.000000 0.863920 0.351629
0.000000 0.863920 0.336278
0.000000 0.863920 0.317601
0.000000 0.863920 0.294591
0.000000 0.863951 0.265995
0.000000 0.864012 0.229435
0.000000 0.864042 0.179049
0.190005 0.861784 0.179416
0.265934 0.859312 0.179660
0.325994 0.856687 0.180240
0.378149 0.853880 0.180484
0.425910 0.850858 0.180850
0.470436 0.847654 0.181094
0.519188 0.845151 0.183474
0.568475 0.842924 0.187106
0.615656 0.840513 0.190799
0.661311 0.838041 0.194736
0.705776 0.835386 0.198978
0.749233 0.832609 0.203433
0.791958 0.829709 0.207950
0.834104 0.826688 0.212741
0.875669 0.823545 0.217868
0.932616 0.838529 0.218173
0.965850 0.826871 0.240024
0.998749 0.813474 0.265934
0.000000 0.899931 0.372045
0.000000 0.899870 0.371984
0.000000 0.899748 0.371893
0.000000 0.899443 0.371618
0.000000 0.899016 0.371283
0.000000 0.898405 0.370916
0.000000 0.897581 0.370672
0.000000 0.896574 0.370581
0.000000 0.896605 0.357366
0.000000 0.896696 0.340154
0.000000 0.896880 0.319249
0.000000 0.897063 0.293553
0.000000 0.897246 0.261784
0.016632 0.897490 0.220676
0.151186 0.896666 0.194553
