其他预设/【213】赛博朋克科幻预设52款/1.LUT预设（视频调色-PR-AE-PS-FCPX-达芬奇用）/赛博朋克科幻__-9 强度1.cube
# Created by Adobe Lightroom plugin Export LUT (1.17.0)
# www.johnrellis.com/lightroom/exportlut.htm
# Preset: 赛博朋克科幻[素锦印象]-9 强度1
# Color profile: /Library/Application Support/Adobe/Color/Profiles/Recommended/AdobeRGB1998.icc
LUT_3D_SIZE 32
0.000000 0.000000 0.000000
0.032898 0.000427 0.000183
0.065278 0.001038 0.000000
0.094026 0.002533 0.000000
0.124941 0.004273 0.000000
0.156100 0.008637 0.000000
0.187839 0.013367 0.000000
0.219821 0.021759 0.000000
0.252628 0.031891 0.000000
0.285740 0.046326 0.000000
0.319799 0.059052 0.000000
0.354467 0.067750 0.000000
0.389563 0.077516 0.000000
0.425177 0.087922 0.000000
0.460792 0.098451 0.000000
0.496498 0.108186 0.000000
0.532036 0.117586 0.000000
0.567102 0.127169 0.000000
0.601373 0.135836 0.000000
0.634791 0.144076 0.000000
0.667659 0.151217 0.000000
0.700069 0.157687 0.000000
0.732052 0.163027 0.000000
0.763516 0.167788 0.000000
0.794522 0.171176 0.000000
0.825132 0.173831 0.000000
0.855283 0.175540 0.000000
0.884947 0.176242 0.000000
0.914275 0.175570 0.000000
0.943175 0.174044 0.000000
0.971801 0.171145 0.000000
1.000000 0.167025 0.000000
0.001129 0.028931 0.005188
0.035737 0.032746 0.000702
0.065156 0.029206 0.000000
0.093263 0.032380 0.000000
0.124117 0.034333 0.000000
0.155520 0.038727 0.000000
0.187381 0.044617 0.000000
0.219425 0.050599 0.000000
0.252171 0.058961 0.000000
0.285435 0.064668 0.000000
0.319463 0.071321 0.000000
0.354223 0.078767 0.000000
0.389349 0.087404 0.000000
0.424964 0.096590 0.000000
0.460609 0.106081 0.000000
0.496345 0.115297 0.000000
0.531792 0.124331 0.000000
0.566949 0.133089 0.000000
0.601221 0.141482 0.000000
0.634668 0.149203 0.000000
0.667536 0.155917 0.000000
0.699947 0.162020 0.000000
0.731960 0.167330 0.000000
0.763455 0.171633 0.000000
0.794491 0.175051 0.000000
0.825071 0.177798 0.000000
0.855222 0.179202 0.000000
0.884916 0.179965 0.000000
0.914214 0.179507 0.000000
0.943145 0.177707 0.000000
0.971771 0.174868 0.000000
0.999969 0.170748 0.000000
0.002747 0.061891 0.011475
0.033234 0.063203 0.008240
0.067506 0.065003 0.001099
0.094209 0.061341 0.000000
0.123323 0.063142 0.000000
0.154696 0.064973 0.000000
0.186587 0.067170 0.000000
0.218753 0.070619 0.000000
0.251621 0.074403 0.000000
0.284947 0.078798 0.000000
0.319127 0.084474 0.000000
0.353826 0.091005 0.000000
0.389075 0.098604 0.000000
0.424689 0.106905 0.000000
0.460304 0.115694 0.000000
0.496162 0.123964 0.000000
0.531640 0.132479 0.000000
0.566735 0.140688 0.000000
0.601099 0.148348 0.000000
0.634485 0.155398 0.000000
0.667414 0.162081 0.000000
0.699916 0.167575 0.000000
0.731838 0.172854 0.000000
0.763363 0.176852 0.000000
0.794430 0.180301 0.000000
0.825010 0.182681 0.000000
0.855161 0.184176 0.000000
0.884855 0.184787 0.000000
0.914183 0.184176 0.000000
0.943114 0.182589 0.000000
0.971710 0.179599 0.000000
0.999969 0.175692 0.000000
0.007752 0.089174 0.025910
0.036622 0.089754 0.024964
0.063752 0.090547 0.020447
0.096742 0.093080 0.002594
0.126009 0.088777 0.000000
0.153964 0.090181 0.000000
0.185153 0.092378 0.000000
0.217472 0.095338 0.000000
0.250523 0.098299 0.000000
0.284062 0.102266 0.000000
0.318242 0.107027 0.000000
0.353124 0.112703 0.000000
0.388342 0.119173 0.000000
0.424048 0.126497 0.000000
0.459815 0.133333 0.000000
0.495644 0.140230 0.000000
0.531212 0.147097 0.000000
0.566339 0.154086 0.000000
0.600732 0.160678 0.000000
0.634180 0.166964 0.000000
0.667170 0.173068 0.000000
0.699641 0.178988 0.000000
0.731624 0.184268 0.000000
0.763149 0.188113 0.000000
0.794247 0.191135 0.000000
0.824857 0.193240 0.000000
0.855039 0.194369 0.000000
0.884733 0.195071 0.000000
0.914061 0.194369 0.000000
0.943023 0.192599 0.000000
0.971618 0.189792 0.000000
0.999878 0.186007 0.000000
0.013977 0.117189 0.047425
0.042451 0.117830 0.047456
0.065492 0.118471 0.043153
0.091798 0.120363 0.031342
0.128634 0.123659 0.005524
0.157656 0.118074 0.000000
0.187808 0.119295 0.000000
0.215763 0.121675 0.000000
0.249027 0.124575 0.000000
0.282658 0.128420 0.000000
0.317052 0.132448 0.000000
0.352026 0.137270 0.000000
0.387457 0.142733 0.000000
0.423194 0.148379 0.000000
0.459083 0.154208 0.000000
0.494881 0.160128 0.000000
0.530602 0.166110 0.000000
0.565789 0.172030 0.000000
0.600275 0.177707 0.000000
0.633814 0.183352 0.000000
0.666804 0.188724 0.000000
0.699336 0.194186 0.000000
0.731319 0.199222 0.000000
0.762844 0.204013 0.000000
0.793942 0.206668 0.000000
0.824613 0.208438 0.000000
0.854795 0.209476 0.000000
0.884550 0.209659 0.000000
0.913878 0.209018 0.000000
0.942870 0.207401 0.000000
0.971496 0.204654 0.000000
0.999756 0.200992 0.000000
0.017517 0.145785 0.062867
0.041474 0.146578 0.060700
0.065064 0.147219 0.058869
0.090669 0.148440 0.053620
0.123049 0.151461 0.037018
0.161410 0.155123 0.006348
0.190005 0.148440 0.000000
0.222324 0.150088 0.000000
0.250401 0.151614 0.000000
0.280919 0.154788 0.000000
0.315465 0.158846 0.000000
0.350622 0.163180 0.000000
0.386175 0.167697 0.000000
0.422156 0.172610 0.000000
0.458076 0.177646 0.000000
0.494148 0.182742 0.000000
0.529839 0.187930 0.000000
0.565026 0.193210 0.000000
0.599542 0.198184 0.000000
0.633234 0.203006 0.000000
0.666255 0.207767 0.000000
0.698909 0.212253 0.000000
0.730953 0.216800 0.000000
0.762509 0.221225 0.000000
0.793606 0.225376 0.000000
0.824308 0.226993 0.000000
0.854520 0.227878 0.000000
0.884276 0.227939 0.000000
0.913634 0.227054 0.000000
0.942687 0.225437 0.000000
0.971313 0.222904 0.000000
0.999603 0.219455 0.000000
0.014099 0.175174 0.072114
0.034455 0.176028 0.069154
0.061372 0.176730 0.066285
0.088960 0.177676 0.063996
0.119234 0.179019 0.059937
0.155581 0.183474 0.037903
0.194614 0.187015 0.006836
0.222873 0.178897 0.000000
0.255772 0.180819 0.000000
0.286290 0.182589 0.000000
0.315831 0.185306 0.000000
0.349065 0.189212 0.000000
0.384771 0.193606 0.000000
0.420874 0.198001 0.000000
0.456977 0.202640 0.000000
0.493019 0.207156 0.000000
0.528832 0.211826 0.000000
0.564172 0.216403 0.000000
0.598779 0.220737 0.000000
0.632502 0.224979 0.000000
0.665614 0.229191 0.000000
0.698299 0.233280 0.000000
0.730434 0.237217 0.000000
0.762081 0.241001 0.000000
0.793210 0.244663 0.000000
0.823880 0.247959 0.000000
0.854124 0.248875 0.000000
0.883940 0.248814 0.000000
0.913359 0.247776 0.000000
0.942412 0.246159 0.000000
0.971069 0.243565 0.000000
0.999420 0.240360 0.000000
0.008545 0.205142 0.081880
0.027771 0.205875 0.079042
0.054231 0.206790 0.074891
0.086275 0.207614 0.072847
0.117800 0.208957 0.069368
0.149905 0.210758 0.064515
0.188968 0.216190 0.038849
0.228397 0.219547 0.006287
0.256596 0.209964 0.000000
0.290105 0.212161 0.000000
0.323186 0.214572 0.000000
0.353216 0.216770 0.000000
0.384009 0.220127 0.000000
0.419318 0.224338 0.000000
0.455573 0.228611 0.000000
0.491768 0.232914 0.000000
0.527642 0.237095 0.000000
0.563104 0.241276 0.000000
0.597772 0.245182 0.000000
0.631647 0.248997 0.000000
0.664851 0.252628 0.000000
0.697627 0.256168 0.000000
0.729824 0.259586 0.000000
0.761532 0.262882 0.000000
0.792721 0.265934 0.000000
0.823453 0.268986 0.000000
0.853666 0.271733 0.000000
0.883574 0.271458 0.000000
0.912993 0.270542 0.000000
0.942077 0.268833 0.000000
0.970794 0.266545 0.000000
0.999145 0.263432 0.000000
0.004730 0.235904 0.092348
0.025116 0.236515 0.090150
0.051972 0.237461 0.086610
0.083467 0.238376 0.083375
0.116335 0.239658 0.080415
0.148470 0.241062 0.076753
0.183108 0.244053 0.068605
0.223239 0.249729 0.040101
0.263157 0.252720 0.003845
0.290959 0.242710 0.000000
0.325566 0.244327 0.000000
0.360235 0.247227 0.000000
0.391394 0.249332 0.000000
0.422370 0.251987 0.000000
0.453925 0.255680 0.000000
0.490181 0.259800 0.000000
0.526238 0.263645 0.000000
0.561822 0.267491 0.000000
0.596551 0.271031 0.000000
0.630518 0.274418 0.000000
0.663905 0.277592 0.000000
0.696803 0.280735 0.000000
0.729091 0.283635 0.000000
0.760861 0.286503 0.000000
0.792142 0.289158 0.000000
0.822934 0.291630 0.000000
0.853239 0.294102 0.000000
0.883085 0.295811 0.000000
0.912596 0.294743 0.000000
0.941741 0.293004 0.000000
0.970459 0.290745 0.000000
0.998840 0.287816 0.000000
0.002686 0.267338 0.103822
0.022889 0.267948 0.101900
0.050446 0.268681 0.098878
0.081544 0.269871 0.094514
0.115023 0.270878 0.092256
0.148043 0.272282 0.088838
0.180636 0.273991 0.084413
0.217350 0.278172 0.072786
0.258579 0.284001 0.043030
0.298680 0.287053 0.000000
0.325933 0.276341 0.000000
0.361730 0.277134 0.000000
0.396887 0.279942 0.000000
0.429999 0.282353 0.000000
0.460883 0.284550 0.000000
0.491920 0.287480 0.000000
0.524620 0.291051 0.000000
0.560266 0.294499 0.000000
0.595178 0.297917 0.000000
0.629267 0.300938 0.000000
0.662806 0.303838 0.000000
0.695796 0.306493 0.000000
0.728237 0.308995 0.000000
0.760067 0.311498 0.000000
0.791440 0.313756 0.000000
0.822293 0.315831 0.000000
0.852689 0.317784 0.000000
0.882597 0.319432 0.000000
0.912139 0.320012 0.000000
0.941314 0.318303 0.000000
0.970092 0.316075 0.000000
0.998505 0.313298 0.000000
0.000366 0.299351 0.116121
0.021912 0.299840 0.114412
0.050599 0.300572 0.111788
0.079103 0.301915 0.106447
0.114199 0.302831 0.104433
0.147372 0.304204 0.101442
0.180514 0.305852 0.097658
0.213291 0.307805 0.092897
0.252689 0.313146 0.076692
0.294774 0.319280 0.044373
0.335210 0.322026 0.000000
0.361883 0.310643 0.000000
0.398688 0.310582 0.000000
0.433967 0.313298 0.000000
0.469032 0.316106 0.000000
0.499611 0.317601 0.000000
0.530144 0.319646 0.000000
0.560510 0.322423 0.000000
0.593530 0.325475 0.000000
0.627832 0.328252 0.000000
0.661524 0.330846 0.000000
0.694636 0.333257 0.000000
0.727199 0.335485 0.000000
0.759121 0.337621 0.000000
0.790585 0.339574 0.000000
0.821561 0.341283 0.000000
0.852018 0.342779 0.000000
0.882017 0.344152 0.000000
0.911589 0.345129 0.000000
0.940795 0.344427 0.000000
0.969665 0.342260 0.000000
0.998108 0.339666 0.000000
0.000000 0.332006 0.128603
0.022400 0.332494 0.127108
0.051789 0.333074 0.125154
0.079927 0.334234 0.120729
0.113375 0.335454 0.117128
0.146944 0.336645 0.114534
0.180301 0.338231 0.111238
0.213596 0.340093 0.106905
0.248356 0.342962 0.099306
0.288853 0.348882 0.080507
0.331670 0.355108 0.045106
0.372412 0.357763 0.000000
0.398230 0.345464 0.000000
0.436011 0.344671 0.000000
0.471260 0.346990 0.000000
0.506279 0.349401 0.000000
0.538048 0.350744 0.000000
0.568017 0.352148 0.000000
0.597406 0.353826 0.000000
0.626856 0.356237 0.000000
0.660029 0.358618 0.000000
0.693294 0.360815 0.000000
0.725948 0.362799 0.000000
0.758022 0.364721 0.000000
0.789670 0.366278 0.000000
0.820676 0.367773 0.000000
0.851255 0.368902 0.000000
0.881346 0.369848 0.000000
0.911009 0.370550 0.000000
0.940307 0.370947 0.000000
0.969177 0.369146 0.000000
0.997681 0.366552 0.000000
0.000397 0.365057 0.141390
0.023102 0.365423 0.140230
0.053346 0.365972 0.138338
0.081239 0.367132 0.134371
0.112276 0.368444 0.130129
0.146700 0.369665 0.127626
0.180240 0.371130 0.124727
0.213565 0.372808 0.120760
0.247135 0.374792 0.115969
0.284001 0.378912 0.104829
0.325475 0.385046 0.084230
0.368933 0.391333 0.042847
0.409918 0.393774 0.000000
0.435126 0.380835 0.000000
0.473487 0.378820 0.000000
0.508446 0.380774 0.000000
0.543145 0.382605 0.000000
0.576013 0.383948 0.000000
0.604700 0.384070 0.000000
0.633539 0.385046 0.000000
0.662409 0.386755 0.000000
0.691737 0.388922 0.000000
0.724575 0.390753 0.000000
0.756802 0.392309 0.000000
0.788510 0.393805 0.000000
0.819669 0.394934 0.000000
0.850370 0.395911 0.000000
0.880522 0.396551 0.000000
0.910307 0.396918 0.000000
0.939666 0.396948 0.000000
0.968658 0.396429 0.000000
0.997223 0.393927 0.000000
0.000641 0.398413 0.154482
0.025086 0.398688 0.153323
0.054566 0.399237 0.151736
0.082399 0.400244 0.148348
0.111238 0.401678 0.143160
0.146304 0.402747 0.141085
0.180362 0.404150 0.138308
0.213718 0.405859 0.134768
0.247379 0.407691 0.130404
0.281163 0.409918 0.125185
0.320348 0.415106 0.110140
0.362432 0.421393 0.087251
0.406500 0.427741 0.040833
0.447669 0.429969 0.000000
0.474098 0.418128 0.000000
0.510857 0.413092 0.000000
0.545373 0.414313 0.000000
0.579248 0.415503 0.000000
0.611810 0.416114 0.000000
0.640589 0.415747 0.000000
0.668910 0.416052 0.000000
0.697230 0.417090 0.000000
0.725612 0.418738 0.000000
0.755428 0.420630 0.000000
0.787228 0.421820 0.000000
0.818540 0.422827 0.000000
0.849302 0.423529 0.000000
0.879576 0.424018 0.000000
0.909453 0.424170 0.000000
0.938903 0.423957 0.000000
0.967987 0.423407 0.000000
0.996674 0.421759 0.000000
0.003082 0.431769 0.167422
0.027131 0.432074 0.166476
0.057374 0.432471 0.165072
0.083284 0.433478 0.162142
0.112123 0.434913 0.157168
0.146242 0.436103 0.154421
0.180179 0.437385 0.151919
0.213931 0.438911 0.148745
0.247532 0.440711 0.144839
0.281407 0.442725 0.140108
0.316014 0.445380 0.133242
0.356847 0.451423 0.115236
0.399542 0.457649 0.090150
0.444068 0.464179 0.037079
0.485267 0.466041 0.000000
0.512840 0.455146 0.000000
0.547845 0.447211 0.000000
0.581476 0.447486 0.000000
0.613855 0.447395 0.000000
0.645869 0.447456 0.000000
0.675746 0.447059 0.000000
0.703578 0.446754 0.000000
0.731411 0.447242 0.000000
0.759274 0.448310 0.000000
0.787167 0.449897 0.000000
0.817227 0.451118 0.000000
0.848112 0.451759 0.000000
0.878508 0.452033 0.000000
0.908476 0.452064 0.000000
0.938018 0.451728 0.000000
0.967224 0.450965 0.000000
0.996094 0.449714 0.000000
0.005707 0.465064 0.180606
0.032105 0.465370 0.179843
0.059937 0.465736 0.178561
0.085115 0.466621 0.175906
0.113313 0.467933 0.171664
0.145937 0.469245 0.167971
0.180117 0.470436 0.165469
0.213962 0.471962 0.162570
0.247654 0.473548 0.159091
0.281407 0.475532 0.154849
0.315435 0.477638 0.149538
0.352117 0.481392 0.139528
0.393256 0.487404 0.120363
0.436500 0.493782 0.093416
0.481086 0.499886 0.039124
0.522332 0.501640 0.000000
0.551141 0.491707 0.000000
0.583185 0.481025 0.000000
0.616083 0.479591 0.000000
0.647913 0.478950 0.000000
0.679377 0.478462 0.000000
0.710140 0.478126 0.000000
0.737484 0.477211 0.000000
0.764889 0.477058 0.000000
0.792325 0.477577 0.000000
0.819730 0.478614 0.000000
0.847135 0.480171 0.000000
0.877287 0.480598 0.000000
0.907347 0.480507 0.000000
0.937011 0.480049 0.000000
0.966308 0.479103 0.000000
0.995270 0.477760 0.000000
0.011719 0.498177 0.193973
0.035828 0.498482 0.193057
0.062196 0.498817 0.192203
0.087434 0.499580 0.189670
0.115389 0.500816 0.185885
0.145693 0.502281 0.181582
0.180056 0.503380 0.179385
0.213993 0.504692 0.176669
0.247684 0.506249 0.173251
0.281437 0.507988 0.169467
0.315373 0.509972 0.164828
0.349462 0.512169 0.159274
0.387945 0.517021 0.145876
0.429664 0.523064 0.125307
0.473091 0.529229 0.096895
0.517174 0.534722 0.044800
0.558251 0.536217 0.000000
0.587915 0.527092 0.000000
0.617060 0.513939 0.000000
0.650080 0.511254 0.000000
0.681331 0.510155 0.000000
0.712245 0.509178 0.000000
0.742733 0.508324 0.000000
0.770718 0.507164 0.000000
0.797665 0.506523 0.000000
0.824613 0.506432 0.000000
0.851591 0.506981 0.000000
0.878599 0.508049 0.000000
0.906096 0.509270 0.000000
0.935851 0.508812 0.000000
0.965240 0.507866 0.000000
0.994324 0.506401 0.000000
0.019898 0.530877 0.207187
0.045319 0.531121 0.206455
0.065888 0.531456 0.205692
0.090455 0.532189 0.203433
0.117830 0.533349 0.199985
0.146212 0.534813 0.195254
0.180453 0.535912 0.193118
0.213931 0.537194 0.190524
0.247807 0.538659 0.187503
0.281529 0.540337 0.183932
0.315221 0.542229 0.179721
0.349126 0.544274 0.174899
0.383429 0.546471 0.169284
0.423804 0.552178 0.152377
0.465553 0.557885 0.130922
0.508690 0.563561 0.101472
0.552331 0.568414 0.055085
0.593194 0.569818 0.000000
0.623621 0.561578 0.000000
0.650202 0.546380 0.000000
0.683436 0.542535 0.000000
0.714137 0.540856 0.000000
0.744503 0.539422 0.000000
0.774502 0.538140 0.000000
0.803189 0.536736 0.000000
0.829709 0.535515 0.000000
0.856229 0.534966 0.000000
0.882841 0.534966 0.000000
0.909453 0.535546 0.000000
0.936187 0.536584 0.000000
0.964050 0.536980 0.000000
0.993194 0.535546 0.000000
0.030671 0.563989 0.220798
0.053803 0.564202 0.220127
0.070466 0.564508 0.219120
0.093507 0.565179 0.217319
0.119997 0.566247 0.214328
0.148623 0.567590 0.210086
0.180850 0.568811 0.207095
0.214603 0.569940 0.204837
0.248386 0.571313 0.202060
0.281804 0.572778 0.198825
0.315404 0.574487 0.194949
0.349187 0.576287 0.190585
0.383124 0.578332 0.185702
0.418860 0.581353 0.177035
0.459205 0.586694 0.159396
0.500908 0.592035 0.137179
0.543847 0.597375 0.106752
0.586816 0.601495 0.064424
0.627466 0.602747 0.000000
0.658747 0.595453 0.000000
0.682826 0.578332 0.000000
0.716182 0.573327 0.000000
0.746334 0.571191 0.000000
0.776150 0.569268 0.000000
0.805570 0.567437 0.000000
0.834653 0.565728 0.000000
0.861051 0.564050 0.000000
0.887205 0.562982 0.000000
0.913420 0.562493 0.000000
0.939757 0.562585 0.000000
0.966186 0.563104 0.000000
0.992737 0.564111 0.000000
0.048219 0.596857 0.234531
0.064179 0.597040 0.234073
0.076875 0.597314 0.233310
0.098238 0.597925 0.231662
0.124544 0.598840 0.228916
0.152407 0.600061 0.225467
0.182986 0.601282 0.221988
0.216403 0.602319 0.219791
0.249607 0.603510 0.217380
0.282872 0.604852 0.214328
0.316106 0.606409 0.211002
0.349554 0.608057 0.206973
0.383154 0.609827 0.202426
0.416938 0.611749 0.197452
0.454078 0.615503 0.185824
0.494301 0.620508 0.167391
0.535851 0.625513 0.144381
0.578393 0.630457 0.113405
0.620783 0.634028 0.073274
0.661128 0.635096 0.000000
0.693172 0.628656 0.000000
0.714748 0.609766 0.000000
0.748257 0.603601 0.000000
0.777829 0.601007 0.000000
0.807095 0.598657 0.000000
0.835996 0.596368 0.000000
0.864591 0.594141 0.000000
0.891691 0.592035 0.000000
0.917510 0.590478 0.000000
0.943450 0.589502 0.000000
0.969482 0.589075 0.000000
0.995697 0.589075 0.000000
0.064118 0.629328 0.248905
0.073945 0.629480 0.248417
0.085695 0.629694 0.247776
0.105776 0.630274 0.246342
0.130953 0.630976 0.244114
0.158145 0.632044 0.241215
0.186893 0.633356 0.237705
0.219242 0.634302 0.235904
0.252049 0.635370 0.233524
0.284825 0.636591 0.230930
0.317510 0.637964 0.227726
0.350622 0.639429 0.224186
0.383673 0.641047 0.220005
0.416999 0.642786 0.215366
0.450629 0.644617 0.210086
0.488930 0.649012 0.195377
0.529076 0.653681 0.176394
0.570214 0.658381 0.152804
0.612390 0.662928 0.121340
0.654108 0.665919 0.084260
0.694087 0.666896 0.023590
0.726925 0.661250 0.000000
0.746090 0.640650 0.000000
0.779629 0.633295 0.000000
0.808682 0.630274 0.000000
0.837369 0.627497 0.000000
0.865751 0.624750 0.000000
0.893919 0.622126 0.000000
0.921660 0.619471 0.000000
0.947173 0.617456 0.000000
0.972869 0.615961 0.000000
0.998688 0.614954 0.000000
0.079103 0.661341 0.263737
0.087282 0.661494 0.263340
0.097139 0.661677 0.262821
0.115419 0.662135 0.261631
0.139162 0.662837 0.259953
0.165652 0.663752 0.257816
0.193729 0.664881 0.255009
0.224521 0.665797 0.252934
0.256138 0.666804 0.250828
0.287968 0.667903 0.248325
0.320104 0.669184 0.245579
0.352514 0.670497 0.242313
0.385107 0.671962 0.238590
0.417914 0.673579 0.234348
0.450843 0.675227 0.229557
0.484993 0.677424 0.222477
0.523552 0.681849 0.206210
0.563348 0.686213 0.186374
0.604059 0.690547 0.162234
0.645777 0.694728 0.130251
0.686854 0.697261 0.095918
0.726436 0.697993 0.056947
0.759976 0.693263 0.000000
0.776791 0.670985 0.000000
0.810269 0.662440 0.000000
0.838773 0.659052 0.000000
0.866972 0.655787 0.000000
0.894926 0.652705 0.000000
0.922698 0.649622 0.000000
0.950317 0.646479 0.000000
0.976257 0.643763 0.000000
1.000000 0.641749 0.000000
0.095857 0.692927 0.279240
0.102724 0.693080 0.278935
0.111177 0.693263 0.278599
0.127932 0.693629 0.277714
0.150210 0.694240 0.276524
0.175418 0.695003 0.274907
0.202762 0.696040 0.273014
0.231754 0.696986 0.271183
0.262181 0.697871 0.269352
0.293034 0.698848 0.267063
0.324224 0.700008 0.264500
0.355718 0.701228 0.261540
0.387488 0.702571 0.258122
0.419684 0.703975 0.254246
0.452064 0.705501 0.249943
0.484688 0.707118 0.244999
0.519585 0.709926 0.234989
0.557855 0.714046 0.217960
0.597131 0.718105 0.197940
0.637385 0.722103 0.173037
0.678584 0.725917 0.140871
0.718959 0.727901 0.109071
0.758145 0.728511 0.076509
0.792264 0.724575 0.000000
0.806851 0.700740 0.000000
0.839872 0.691463 0.000000
0.868162 0.687190 0.000000
0.895903 0.683589 0.000000
0.923461 0.680110 0.000000
0.950896 0.676570 0.000000
0.978180 0.672938 0.000000
1.000000 0.669368 0.000000
0.114504 0.724178 0.295476
0.120272 0.724300 0.295415
0.127840 0.724422 0.295109
0.142794 0.724758 0.294560
0.163272 0.725277 0.293767
0.187381 0.725948 0.292882
0.213718 0.726802 0.291966
0.242039 0.727749 0.290898
0.270695 0.728511 0.289189
0.300114 0.729427 0.287114
0.330114 0.730434 0.284733
0.360540 0.731594 0.281956
0.391394 0.732784 0.278874
0.422675 0.734096 0.275303
0.454261 0.735470 0.271427
0.486122 0.736934 0.266972
0.518273 0.738460 0.262089
0.553979 0.741726 0.249058
0.591699 0.745602 0.231418
0.630488 0.749355 0.210513
0.670161 0.752956 0.185214
0.710719 0.756435 0.152621
0.750393 0.757961 0.123323
0.789120 0.758358 0.093904
0.823850 0.755184 0.045777
0.836210 0.729946 0.031830
0.868467 0.720211 0.000000
0.896880 0.714778 0.000000
0.924224 0.710842 0.000000
0.951446 0.706935 0.000000
0.978485 0.702968 0.000000
1.000000 0.698817 0.000000
0.134585 0.755032 0.312657
0.139620 0.755093 0.312596
0.146273 0.755245 0.312505
0.159792 0.755520 0.312291
0.178805 0.755947 0.311955
0.201602 0.756527 0.311711
0.227268 0.757229 0.311620
0.254917 0.758022 0.311772
0.281956 0.758785 0.310582
0.309758 0.759579 0.308690
0.338231 0.760555 0.306462
0.367498 0.761563 0.303899
0.397192 0.762661 0.301183
0.427344 0.763851 0.297826
0.458045 0.765103 0.294285
0.488930 0.766445 0.290135
0.520226 0.767819 0.285801
0.551995 0.769406 0.280156
0.588037 0.772976 0.264469
0.625177 0.776486 0.246281
0.663264 0.779904 0.224704
0.702327 0.783169 0.198703
0.742275 0.786252 0.165469
0.781186 0.787350 0.138369
0.819364 0.787564 0.111208
0.854673 0.785183 0.074952
0.865385 0.758907 0.069276
0.896544 0.748470 0.000000
0.924956 0.741848 0.000000
0.951934 0.737545 0.000000
0.978759 0.733242 0.000000
1.000000 0.728786 0.000000
0.156466 0.785519 0.330846
0.161074 0.785611 0.330968
0.167056 0.785702 0.330938
0.179538 0.785916 0.331090
0.196963 0.786252 0.331212
0.218509 0.786740 0.331731
0.243046 0.787320 0.332433
0.270115 0.787961 0.333684
0.296544 0.788632 0.333684
0.322240 0.789395 0.331945
0.349126 0.790219 0.329931
0.376715 0.791165 0.327672
0.405066 0.792142 0.324987
0.434150 0.793240 0.322057
0.463539 0.794400 0.318761
0.493416 0.795590 0.315068
0.523705 0.796841 0.310918
0.554253 0.798184 0.306371
0.586481 0.800198 0.297765
0.621790 0.803525 0.281376
0.658198 0.806760 0.262425
0.695644 0.809812 0.240238
0.733944 0.812711 0.213504
0.773129 0.815427 0.179812
0.811337 0.816129 0.154330
0.848966 0.816159 0.128939
0.884855 0.814542 0.095583
0.895262 0.788418 0.088655
0.923949 0.776211 0.032837
0.952392 0.768307 0.000000
0.978973 0.763607 0.000000
1.000000 0.758938 0.000000
0.180362 0.815671 0.350408
0.184482 0.815732 0.350439
0.190066 0.815793 0.350622
0.201022 0.816007 0.351049
0.217716 0.816251 0.351720
0.238041 0.816617 0.352880
0.261845 0.817014 0.354467
0.287968 0.817502 0.356878
0.314763 0.818082 0.358862
0.338415 0.818753 0.357275
0.363226 0.819486 0.355474
0.389105 0.820371 0.353307
0.415808 0.821286 0.350835
0.443275 0.822263 0.348180
0.471382 0.823301 0.345098
0.499947 0.824399 0.341680
0.529076 0.825559 0.337896
0.558495 0.826749 0.333684
0.588403 0.827970 0.329046
0.620722 0.830411 0.317266
0.655177 0.833433 0.300206
0.690822 0.836362 0.280552
0.727443 0.839109 0.257298
0.765011 0.841672 0.229526
0.803433 0.844053 0.195010
0.840848 0.844327 0.171542
0.877989 0.844175 0.146731
0.914366 0.843259 0.114992
0.924468 0.817258 0.106386
0.950805 0.803311 0.071138
0.979095 0.794156 0.000000
1.000000 0.789120 0.000000
0.206577 0.845426 0.371191
0.210117 0.845487 0.371435
0.215091 0.845518 0.371801
0.225559 0.845640 0.372503
0.241215 0.845823 0.373785
0.260533 0.846067 0.375616
0.283391 0.846342 0.378119
0.308782 0.846677 0.381476
0.336492 0.847044 0.385992
0.358251 0.847623 0.384894
0.381018 0.848325 0.383154
0.404944 0.849088 0.381231
0.429786 0.849943 0.379004
0.455604 0.850828 0.376501
0.482002 0.851774 0.373693
