其他预设/【213】赛博朋克科幻预设52款/1.LUT预设（视频调色-PR-AE-PS-FCPX-达芬奇用）/赛博朋克科幻__-12 强度5.cube
# Created by Adobe Lightroom plugin Export LUT (1.17.0)
# www.johnrellis.com/lightroom/exportlut.htm
# Preset: 赛博朋克科幻[素锦印象]-12 强度5
# Color profile: /Library/Application Support/Adobe/Color/Profiles/Recommended/AdobeRGB1998.icc
LUT_3D_SIZE 32
0.100649 0.103853 0.103914
0.100649 0.103853 0.103914
0.100649 0.103853 0.103914
0.100649 0.103853 0.103914
0.100649 0.103853 0.103914
0.100649 0.103853 0.103914
0.105348 0.109010 0.109010
0.116182 0.120333 0.120211
0.127596 0.132631 0.132509
0.140108 0.145785 0.145693
0.154086 0.160586 0.160342
0.169406 0.176883 0.176577
0.186435 0.194797 0.194522
0.205203 0.214572 0.214298
0.225895 0.236606 0.236240
0.248569 0.260594 0.260197
0.272984 0.286473 0.285985
0.298985 0.313909 0.313359
0.326024 0.342504 0.341924
0.354864 0.373053 0.372412
0.385595 0.405615 0.404852
0.418250 0.440223 0.439399
0.452644 0.476600 0.475746
0.488502 0.514641 0.513664
0.525475 0.553765 0.552697
0.562890 0.593378 0.592248
0.599390 0.632013 0.630823
0.634882 0.669612 0.668330
0.669337 0.706142 0.704768
0.702968 0.741756 0.740291
0.735714 0.776455 0.774929
0.767697 0.810300 0.808713
0.100649 0.103853 0.103914
0.100649 0.103853 0.103914
0.100649 0.103853 0.103914
0.100649 0.103853 0.103914
0.100649 0.103853 0.103914
0.100649 0.103853 0.103914
0.107149 0.111025 0.110750
0.117739 0.122103 0.121950
0.129030 0.134188 0.133883
0.141665 0.147463 0.147219
0.155489 0.161959 0.161837
0.170657 0.178103 0.177920
0.187747 0.196170 0.195895
0.206516 0.216098 0.215793
0.227176 0.237949 0.237552
0.249943 0.261997 0.261570
0.274357 0.287846 0.287327
0.300175 0.315190 0.314641
0.327184 0.343786 0.343175
0.355962 0.374273 0.373602
0.386664 0.406775 0.406043
0.419226 0.441230 0.440436
0.453651 0.477699 0.476783
0.489479 0.515587 0.514641
0.526268 0.554620 0.553582
0.563622 0.594171 0.593042
0.600031 0.632746 0.631525
0.635462 0.670222 0.668940
0.669886 0.706691 0.705318
0.703426 0.742245 0.740810
0.736110 0.776852 0.775357
0.768032 0.810636 0.809079
0.100649 0.103853 0.103914
0.100649 0.103853 0.103914
0.100649 0.103853 0.103914
0.100649 0.103853 0.103914
0.100649 0.103853 0.103914
0.100649 0.103853 0.103914
0.108919 0.108919 0.108919
0.119631 0.122805 0.122805
0.131075 0.136202 0.136049
0.143465 0.149416 0.149142
0.157229 0.163973 0.163668
0.172549 0.180240 0.179873
0.189517 0.198154 0.197726
0.208316 0.217960 0.217624
0.229099 0.239902 0.239506
0.251682 0.263890 0.263432
0.276097 0.289708 0.289250
0.301946 0.317052 0.316442
0.328893 0.345556 0.344976
0.357488 0.375921 0.375219
0.388159 0.408362 0.407568
0.420661 0.442817 0.441962
0.454963 0.479103 0.478187
0.490700 0.516960 0.515984
0.527489 0.555932 0.554864
0.564691 0.595331 0.594171
0.601007 0.633722 0.632532
0.636286 0.671107 0.669795
0.670588 0.707424 0.706081
0.704036 0.742885 0.741451
0.736660 0.777401 0.775875
0.768490 0.811154 0.809598
0.100374 0.105623 0.103761
0.100313 0.106142 0.103731
0.100496 0.106844 0.103670
0.101808 0.107851 0.103548
0.103029 0.107424 0.103548
0.110689 0.111635 0.102968
0.109255 0.106661 0.103456
0.121492 0.116426 0.114565
0.133516 0.130587 0.130251
0.146273 0.146761 0.146853
0.160800 0.164675 0.164736
0.176486 0.184329 0.184054
0.193515 0.202304 0.202060
0.212314 0.222293 0.221897
0.232883 0.243992 0.243626
0.255619 0.268040 0.267521
0.280003 0.293797 0.293278
0.305638 0.320989 0.320409
0.332433 0.349310 0.348699
0.360937 0.379522 0.378851
0.391485 0.411872 0.411078
0.423774 0.446052 0.445258
0.457984 0.482307 0.481392
0.493477 0.519860 0.518883
0.530022 0.558556 0.557488
0.566979 0.597711 0.596582
0.602960 0.635798 0.634607
0.637995 0.672938 0.671656
0.672084 0.709041 0.707698
0.705348 0.744259 0.742824
0.737789 0.778622 0.777096
0.769528 0.812222 0.810636
0.097841 0.138582 0.100496
0.097810 0.138766 0.100465
0.097749 0.139132 0.100435
0.098878 0.139559 0.100343
0.111849 0.139071 0.100069
0.121004 0.134768 0.100282
0.125673 0.129885 0.100679
0.139223 0.128969 0.100282
0.135500 0.125948 0.118410
0.148928 0.139803 0.136110
0.163546 0.156191 0.154665
0.179843 0.175235 0.175082
0.197604 0.196994 0.197208
0.217136 0.221134 0.221195
0.238621 0.247868 0.247715
0.261692 0.274418 0.273930
0.285863 0.300023 0.299504
0.311376 0.327092 0.326482
0.337957 0.355230 0.354589
0.366278 0.385199 0.384466
0.396521 0.417212 0.416419
0.428717 0.451301 0.450446
0.462531 0.487098 0.486213
0.497780 0.524437 0.523430
0.534020 0.562829 0.561730
0.570489 0.601465 0.600305
0.606073 0.639124 0.637873
0.640681 0.675807 0.674495
0.674464 0.711574 0.710170
0.707424 0.746456 0.745022
0.739620 0.780575 0.779049
0.771115 0.813901 0.812284
0.094270 0.172366 0.095766
0.094209 0.172519 0.095766
0.094179 0.172671 0.095735
0.094087 0.172946 0.095705
0.103273 0.172732 0.095491
0.124727 0.171237 0.095033
0.140047 0.165530 0.095338
0.147280 0.158877 0.096071
0.164645 0.162417 0.094697
0.171633 0.148440 0.101106
0.166110 0.152255 0.141238
0.182834 0.168551 0.162295
0.201022 0.187961 0.184756
0.220981 0.210452 0.209079
0.242649 0.235691 0.235447
0.266484 0.264195 0.264500
0.291600 0.295171 0.295537
0.317967 0.327977 0.328008
0.345312 0.362310 0.361730
0.373419 0.392767 0.392035
0.403388 0.424506 0.423713
0.435187 0.458198 0.457313
0.468696 0.493660 0.492714
0.503532 0.530510 0.529503
0.539361 0.568475 0.567376
0.575219 0.606470 0.605280
0.610224 0.643519 0.642298
0.644312 0.679622 0.678309
0.677668 0.714931 0.713527
0.710201 0.749447 0.747982
0.742031 0.783139 0.781613
0.773220 0.816129 0.814572
0.088869 0.208713 0.088838
0.088869 0.208713 0.088838
0.088808 0.208835 0.088838
0.089082 0.209018 0.088777
0.088960 0.209354 0.088685
0.113710 0.208103 0.088228
0.141695 0.206394 0.087434
0.161715 0.200229 0.087831
0.170932 0.192508 0.088960
0.180972 0.187350 0.089418
0.212528 0.195804 0.085451
0.209079 0.177707 0.124025
0.203922 0.184573 0.168856
0.224369 0.203433 0.193484
0.246708 0.226017 0.220066
0.270909 0.252140 0.248936
0.296300 0.281468 0.280247
0.322850 0.313268 0.313207
0.350225 0.347143 0.347539
0.379187 0.383276 0.383703
0.409979 0.421485 0.421637
0.442603 0.461738 0.461402
0.476387 0.501732 0.500816
0.510674 0.538109 0.537102
0.545953 0.575463 0.574365
0.581048 0.612634 0.611444
0.615351 0.648951 0.647669
0.648859 0.684443 0.683101
0.681636 0.719112 0.717739
0.713680 0.753109 0.751644
0.745083 0.786343 0.784817
0.775845 0.818936 0.817350
0.080812 0.248966 0.078004
0.080812 0.248966 0.078004
0.081056 0.249210 0.077913
0.081025 0.249302 0.077882
0.080812 0.249668 0.077760
0.091524 0.249607 0.077455
0.130129 0.247745 0.076539
0.163210 0.245792 0.075288
0.187472 0.240085 0.075441
0.198489 0.232059 0.077089
0.209903 0.226535 0.077790
0.232212 0.230747 0.074403
0.259037 0.227420 0.091066
0.254276 0.213107 0.150484
0.249912 0.222751 0.201358
0.274540 0.244938 0.230076
0.300572 0.271122 0.261479
0.327489 0.300603 0.294896
0.355200 0.332677 0.329717
0.384344 0.367926 0.366735
0.415320 0.405707 0.405615
0.447761 0.445869 0.446265
0.481727 0.487892 0.488258
0.516777 0.531243 0.531395
0.552422 0.575067 0.574701
0.587671 0.617914 0.616938
0.621454 0.655390 0.654139
0.654231 0.690120 0.688808
0.686366 0.724117 0.722744
0.717830 0.757473 0.756008
0.748714 0.790219 0.788663
0.779019 0.822293 0.820676
0.067567 0.295232 0.058564
0.067567 0.295232 0.058564
0.067933 0.295384 0.058381
0.067872 0.295445 0.058320
0.067414 0.296056 0.057771
0.067597 0.296391 0.057404
0.109438 0.295567 0.055055
0.152682 0.293950 0.051453
0.189792 0.291905 0.047272
0.218387 0.287266 0.045624
0.231174 0.279057 0.050782
0.243717 0.272892 0.053407
0.258824 0.268376 0.053498
0.306004 0.289281 0.010590
0.313390 0.267369 0.115541
0.308293 0.255253 0.180697
0.304021 0.267674 0.239017
0.331548 0.293065 0.272648
0.359777 0.322087 0.308263
0.389288 0.354925 0.346166
0.420508 0.391028 0.385840
0.453193 0.430304 0.427680
0.487068 0.471962 0.470954
0.521996 0.515465 0.515373
0.557549 0.559960 0.560174
0.592157 0.604334 0.604517
0.625971 0.646601 0.646479
0.658930 0.686976 0.686427
0.691127 0.725582 0.724575
0.722652 0.762600 0.761105
0.752926 0.794644 0.793088
0.782712 0.826200 0.824582
0.028473 0.347143 0.000000
0.029847 0.347143 0.000000
0.029358 0.347326 0.000000
0.028534 0.347631 0.000000
0.027375 0.348028 0.000000
0.027070 0.348638 0.000000
0.062654 0.348974 0.000000
0.133089 0.347387 0.000000
0.180240 0.345861 0.000000
0.220493 0.344030 0.000000
0.253422 0.340093 0.000000
0.268101 0.331914 0.000000
0.282078 0.325658 0.000000
0.298100 0.320623 0.000000
0.323705 0.323919 0.000000
0.376074 0.340612 0.000000
0.373663 0.312108 0.142672
0.367559 0.302342 0.216342
0.363470 0.318364 0.282689
0.393744 0.347265 0.321355
0.425422 0.380438 0.362249
0.458473 0.417456 0.405188
0.492531 0.457557 0.449897
0.527459 0.500328 0.495918
0.562860 0.544854 0.542596
0.597192 0.590051 0.589075
0.630488 0.633631 0.633326
0.662928 0.675410 0.675227
0.694728 0.715358 0.715114
0.725826 0.753628 0.753140
0.756252 0.790280 0.789456
0.786130 0.825498 0.824338
0.000000 0.403326 0.000000
0.000000 0.403418 0.000000
0.000000 0.403632 0.000000
0.000000 0.403876 0.000000
0.000000 0.404211 0.000000
0.000000 0.404944 0.000000
0.000000 0.405768 0.000000
0.091981 0.405310 0.000000
0.160861 0.403723 0.000000
0.211002 0.402136 0.000000
0.254246 0.400336 0.000000
0.291417 0.397253 0.000000
0.307988 0.389197 0.000000
0.323217 0.382849 0.000000
0.340276 0.377630 0.000000
0.359350 0.373175 0.000000
0.411048 0.398230 0.000000
0.439857 0.386145 0.066651
0.437018 0.359716 0.175814
0.431312 0.354681 0.259098
0.429480 0.376440 0.334142
0.463020 0.409644 0.378424
0.497749 0.446998 0.424689
0.532921 0.487800 0.472389
0.568353 0.531182 0.521111
0.602564 0.576165 0.570001
0.635340 0.620722 0.617212
0.667384 0.663569 0.661555
0.698726 0.704646 0.703548
0.729366 0.744076 0.743374
0.759426 0.781857 0.781277
0.788907 0.818204 0.817533
0.000000 0.462074 0.000000
0.000000 0.462226 0.000000
0.000000 0.462287 0.000000
0.000000 0.462440 0.000000
0.000000 0.462959 0.000000
0.000000 0.463600 0.000000
0.000000 0.464546 0.000000
0.000000 0.465400 0.000000
0.123873 0.463966 0.000000
0.191379 0.462470 0.000000
0.243595 0.460792 0.000000
0.289342 0.459052 0.000000
0.330632 0.456550 0.000000
0.349401 0.448768 0.000000
0.365637 0.442359 0.000000
0.383490 0.436805 0.000000
0.403204 0.432044 0.000000
0.428901 0.432074 0.000000
0.497688 0.463844 0.000000
0.506432 0.434119 0.106081
0.505699 0.412879 0.216678
0.501549 0.414954 0.311589
0.502129 0.442725 0.394629
0.537957 0.479988 0.444373
0.573724 0.520836 0.495308
0.608057 0.564233 0.546777
0.640558 0.608698 0.597345
0.672145 0.652033 0.644862
0.703029 0.693965 0.689479
0.733242 0.734371 0.731563
0.762905 0.773190 0.771389
0.792020 0.810575 0.809293
0.000000 0.521447 0.000000
0.000000 0.521599 0.000000
0.000000 0.521660 0.000000
0.000000 0.521996 0.000000
0.000000 0.522454 0.000000
0.000000 0.523064 0.000000
0.000000 0.523827 0.000000
0.000000 0.524712 0.000000
0.000000 0.524773 0.000000
0.155245 0.523400 0.000000
0.222751 0.521813 0.000000
0.276799 0.519829 0.000000
0.324620 0.518059 0.000000
0.368872 0.516106 0.000000
0.390112 0.508354 0.000000
0.407721 0.502037 0.000000
0.426368 0.496468 0.000000
0.446571 0.491493 0.000000
0.468910 0.487465 0.000000
0.519371 0.510979 0.000000
0.573938 0.518486 0.000000
0.577600 0.486671 0.150851
0.578790 0.472267 0.269291
0.575769 0.482216 0.374853
0.578668 0.516136 0.464302
0.613367 0.556237 0.518669
0.645960 0.598871 0.572839
0.677211 0.641932 0.624384
0.707637 0.684108 0.672328
0.737514 0.725124 0.717281
0.766690 0.764645 0.759487
0.795468 0.802914 0.799435
0.000000 0.579644 0.000000
0.000000 0.579706 0.000000
0.000000 0.579828 0.000000
0.000000 0.580133 0.000000
0.000000 0.580499 0.000000
0.000000 0.580987 0.000000
0.000000 0.581720 0.000000
0.000000 0.582696 0.000000
0.000000 0.583642 0.000000
0.078340 0.582727 0.000000
0.187350 0.581079 0.000000
0.253941 0.579339 0.000000
0.309209 0.577386 0.000000
0.358526 0.575372 0.000000
0.404517 0.573205 0.000000
0.428962 0.566339 0.000000
0.448157 0.559960 0.000000
0.467384 0.554498 0.000000
0.488533 0.549950 0.000000
0.512657 0.547417 0.000000
0.540520 0.547295 0.000000
0.616968 0.587823 0.000000
0.644221 0.567926 0.000000
0.649561 0.541741 0.207462
0.651026 0.535454 0.335027
0.648157 0.554101 0.449256
0.651240 0.593378 0.542809
0.682399 0.634607 0.599145
0.712551 0.676020 0.651392
0.741970 0.716915 0.699825
0.770809 0.756771 0.745022
0.799161 0.795590 0.787564
0.000000 0.634668 0.000000
0.000000 0.634699 0.000000
0.000000 0.634760 0.000000
0.000000 0.635096 0.000000
0.000000 0.635370 0.000000
0.000000 0.635920 0.000000
0.000000 0.636530 0.000000
0.000000 0.637232 0.000000
0.000000 0.638148 0.000000
0.000000 0.638788 0.000000
0.123262 0.637171 0.000000
0.217868 0.635340 0.000000
0.283879 0.633326 0.000000
0.339727 0.631281 0.000000
0.390173 0.628992 0.000000
0.437110 0.626551 0.000000
0.464759 0.620294 0.000000
0.485512 0.614282 0.000000
0.505699 0.609644 0.000000
0.528649 0.606958 0.000000
0.554345 0.605951 0.000000
0.583124 0.606622 0.000000
0.633021 0.627558 0.000000
0.698634 0.646326 0.000000
0.710872 0.615381 0.093111
0.716152 0.596582 0.279606
0.716793 0.600305 0.415137
0.713436 0.628565 0.534508
0.717586 0.671107 0.625513
0.746700 0.710780 0.678462
0.775204 0.750240 0.727443
0.803159 0.789181 0.773190
0.000000 0.684016 0.000000
0.000000 0.684047 0.000000
0.000000 0.684077 0.000000
0.000000 0.684291 0.000000
0.000000 0.684565 0.000000
0.000000 0.684993 0.000000
0.000000 0.685512 0.000000
0.000000 0.686152 0.000000
0.000000 0.686854 0.000000
0.000000 0.687800 0.000000
0.000000 0.687312 0.000000
0.159945 0.685573 0.000000
0.246159 0.683528 0.000000
0.311223 0.681331 0.000000
0.367163 0.678920 0.000000
0.417914 0.676478 0.000000
0.465217 0.673671 0.000000
0.495705 0.668177 0.000000
0.518700 0.663264 0.000000
0.540459 0.660548 0.000000
0.564691 0.659510 0.000000
0.591577 0.659876 0.000000
0.621271 0.661707 0.000000
0.653773 0.664729 0.000000
0.721706 0.699550 0.000000
0.764279 0.690272 0.000000
0.773037 0.662196 0.194949
0.777066 0.653223 0.366979
0.776211 0.668727 0.508202
0.773190 0.704219 0.624475
0.779782 0.746120 0.705989
0.807401 0.784329 0.755703
0.000000 0.727413 0.000000
0.000000 0.727504 0.000000
0.000000 0.727565 0.000000
0.000000 0.727749 0.000000
0.000000 0.727932 0.000000
0.000000 0.728298 0.000000
0.000000 0.728725 0.000000
0.000000 0.729274 0.000000
0.000000 0.729854 0.000000
0.000000 0.730587 0.000000
0.000000 0.731441 0.000000
0.000000 0.729976 0.000000
0.191440 0.728023 0.000000
0.272251 0.725795 0.000000
0.336004 0.723415 0.000000
0.391363 0.720912 0.000000
0.442145 0.718196 0.000000
0.489540 0.715450 0.000000
0.523033 0.711360 0.000000
0.547936 0.708248 0.000000
0.571527 0.707088 0.000000
0.596704 0.707393 0.000000
0.624384 0.708949 0.000000
0.654688 0.711849 0.000000
0.687709 0.715724 0.000000
0.734829 0.732753 0.000000
0.799619 0.754147 0.000000
0.822934 0.730129 0.000000
0.830320 0.710414 0.297917
0.831846 0.713802 0.470588
0.829831 0.740200 0.608972
0.829313 0.778286 0.712245
0.000000 0.765927 0.000000
0.000000 0.765927 0.000000
0.000000 0.766049 0.000000
0.000000 0.766140 0.000000
0.000000 0.766354 0.000000
0.000000 0.766629 0.000000
0.000000 0.767025 0.000000
0.000000 0.767514 0.000000
0.000000 0.768032 0.000000
0.000000 0.768734 0.000000
0.000000 0.769497 0.000000
0.000000 0.769833 0.000000
0.092317 0.768002 0.000000
0.219730 0.766049 0.000000
0.296147 0.763912 0.000000
0.358251 0.761654 0.000000
0.413367 0.759274 0.000000
0.463813 0.756741 0.000000
0.511162 0.754055 0.000000
0.547784 0.751095 0.000000
0.573724 0.749630 0.000000
0.599512 0.749599 0.000000
0.625422 0.751095 0.000000
0.653590 0.753811 0.000000
0.684230 0.757565 0.000000
0.717464 0.762448 0.000000
0.753323 0.768307 0.000000
0.811368 0.796475 0.000000
0.865507 0.797421 0.000000
0.877653 0.770413 0.181369
0.881834 0.762448 0.415259
0.880522 0.779599 0.585870
0.000000 0.801205 0.000000
0.000000 0.801236 0.000000
0.000000 0.801266 0.000000
0.000000 0.801419 0.000000
0.000000 0.801633 0.000000
0.000000 0.801968 0.000000
0.000000 0.802365 0.000000
0.000000 0.802792 0.000000
0.000000 0.803403 0.000000
0.000000 0.804044 0.000000
0.000000 0.804807 0.000000
0.000000 0.805692 0.000000
0.000000 0.805356 0.000000
0.136110 0.803555 0.000000
0.243961 0.801694 0.000000
0.317388 0.799619 0.000000
0.378485 0.797452 0.000000
0.432990 0.795132 0.000000
0.483375 0.792691 0.000000
0.530632 0.790188 0.000000
0.570062 0.787900 0.000000
0.596826 0.787716 0.000000
0.624445 0.788754 0.000000
0.651240 0.791257 0.000000
0.679683 0.794888 0.000000
0.710536 0.799527 0.000000
0.743862 0.805203 0.000000
0.779782 0.811856 0.000000
0.825071 0.826627 0.000000
0.890227 0.852506 0.000000
0.919524 0.832090 0.000000
0.927276 0.813809 0.329870
0.000000 0.834195 0.000000
0.000000 0.834195 0.000000
0.000000 0.834318 0.000000
0.000000 0.834440 0.000000
0.000000 0.834653 0.000000
0.000000 0.834989 0.000000
0.000000 0.835325 0.000000
0.000000 0.835813 0.000000
0.000000 0.836393 0.000000
0.000000 0.837003 0.000000
0.000000 0.837766 0.000000
0.000000 0.838682 0.000000
0.000000 0.839628 0.000000
0.000000 0.838651 0.000000
0.167758 0.836881 0.000000
0.265415 0.834989 0.000000
0.336370 0.833066 0.000000
0.396612 0.830961 0.000000
0.450721 0.828733 0.000000
0.500877 0.826383 0.000000
0.548089 0.823941 0.000000
0.590234 0.822019 0.000000
0.617548 0.822995 0.000000
0.645686 0.825040 0.000000
0.674617 0.828244 0.000000
0.703273 0.832700 0.000000
0.734127 0.838132 0.000000
0.767422 0.844633 0.000000
0.803281 0.852018 0.000000
0.841611 0.860349 0.000000
0.894957 0.883543 0.000000
0.949981 0.889982 0.000000
0.000000 0.865110 0.000000
0.000000 0.865171 0.000000
0.000000 0.865232 0.000000
0.000000 0.865385 0.000000
0.000000 0.865568 0.000000
0.000000 0.865873 0.000000
0.000000 0.866239 0.000000
0.000000 0.866697 0.000000
0.000000 0.867216 0.000000
0.000000 0.867857 0.000000
0.000000 0.868650 0.000000
0.000000 0.869474 0.000000
0.000000 0.870420 0.000000
0.000000 0.871397 0.000000
0.000000 0.869841 0.000000
0.192538 0.868162 0.000000
0.284001 0.866331 0.000000
0.353399 0.864439 0.000000
0.412848 0.862425 0.000000
0.466651 0.860197 0.000000
0.516442 0.857969 0.000000
0.563622 0.855589 0.000000
0.608545 0.853727 0.000000
0.636255 0.855680 0.000000
0.664790 0.858610 0.000000
0.694331 0.862577 0.000000
0.724666 0.867613 0.000000
0.755550 0.873869 0.000000
0.788693 0.881041 0.000000
0.824247 0.889128 0.000000
0.862394 0.898100 0.000000
0.906828 0.911986 0.000000
0.000000 0.894102 0.000000
0.000000 0.894194 0.000000
0.000000 0.894224 0.000000
0.000000 0.894347 0.000000
0.000000 0.894591 0.000000
0.000000 0.894865 0.000000
0.000000 0.895201 0.000000
0.000000 0.895659 0.000000
0.000000 0.896208 0.000000
0.000000 0.896818 0.000000
0.000000 0.897551 0.000000
0.000000 0.898344 0.000000
0.000000 0.899260 0.000000
0.000000 0.900298 0.000000
0.000000 0.900725 0.000000
0.000000 0.899199 0.000000
0.213016 0.897551 0.000000
0.300359 0.895781 0.000000
0.368322 0.893950 0.000000
0.427283 0.891936 0.000000
0.480659 0.889891 0.000000
0.530327 0.887663 0.000000
0.577386 0.885374 0.000000
0.622675 0.883604 0.000000
0.653071 0.886107 0.000000
0.681849 0.889891 0.000000
0.711727 0.894591 0.000000
0.742794 0.900298 0.000000
0.775051 0.907012 0.000000
0.807980 0.914824 0.000000
0.843290 0.923583 0.000000
0.881254 0.933379 0.000000
0.000000 0.921355 0.000000
0.000000 0.921386 0.000000
0.000000 0.921477 0.000000
0.000000 0.921599 0.000000
0.000000 0.921813 0.000000
0.000000 0.922057 0.000000
0.000000 0.922454 0.000000
0.000000 0.922881 0.000000
0.000000 0.923400 0.000000
0.000000 0.923949 0.000000
0.000000 0.924681 0.000000
0.000000 0.925475 0.000000
0.000000 0.926360 0.000000
0.000000 0.927276 0.000000
0.000000 0.928374 0.000000
0.000000 0.928405 0.000000
0.070924 0.926879 0.000000
0.229892 0.925261 0.000000
0.314488 0.923522 0.000000
0.381567 0.921721 0.000000
0.439979 0.919799 0.000000
0.493141 0.917754 0.000000
0.542596 0.915648 0.000000
0.589502 0.913420 0.000000
0.634546 0.911620 0.000000
0.668208 0.914611 0.000000
0.697200 0.919066 0.000000
0.727260 0.924498 0.000000
0.758511 0.930877 0.000000
0.791196 0.938140 0.000000
0.825406 0.946471 0.000000
0.860929 0.955962 0.000000
0.000000 0.947051 0.000000
0.000000 0.947082 0.000000
0.000000 0.947112 0.000000
0.000000 0.947265 0.000000
0.000000 0.947448 0.000000
0.000000 0.947723 0.000000
0.000000 0.948058 0.000000
0.000000 0.948486 0.000000
0.000000 0.948974 0.000000
0.000000 0.949554 0.000000
0.000000 0.950225 0.000000
0.000000 0.950958 0.000000
0.000000 0.951812 0.000000
0.000000 0.952728 0.000000
0.000000 0.953765 0.000000
0.000000 0.954894 0.000000
0.000000 0.954498 0.000000
0.106325 0.953002 0.000000
0.244083 0.951446 0.000000
0.326421 0.949767 0.000000
0.392798 0.947997 0.000000
0.450874 0.946136 0.000000
0.503838 0.944152 0.000000
0.553246 0.942107 0.000000
0.600000 0.939971 0.000000
0.644923 0.938018 0.000000
0.681971 0.941344 0.000000
0.711055 0.946563 0.000000
0.741268 0.952667 0.000000
0.772702 0.959655 0.000000
0.805539 0.967590 0.000000
0.840024 0.976623 0.000000
0.000000 0.971283 0.000000
0.000000 0.971313 0.000000
0.000000 0.971374 0.000000
0.000000 0.971496 0.000000
0.000000 0.971679 0.000000
0.000000 0.971954 0.000000
0.000000 0.972259 0.000000
0.000000 0.972686 0.000000
0.000000 0.973144 0.000000
0.000000 0.973693 0.000000
0.000000 0.974365 0.000000
0.000000 0.975067 0.000000
0.000000 0.975891 0.000000
0.000000 0.976776 0.000000
0.000000 0.977783 0.000000
0.000000 0.978851 0.000000
0.000000 0.980011 0.000000
0.000000 0.979339 0.000000
0.127138 0.977874 0.000000
0.255344 0.976349 0.000000
0.336431 0.974701 0.000000
0.402380 0.972992 0.000000
0.460273 0.971191 0.000000
0.513054 0.969299 0.000000
0.562402 0.967315 0.000000
0.609125 0.965270 0.000000
0.653895 0.963104 0.000000
0.694514 0.966705 0.000000
0.723690 0.972564 0.000000
0.753964 0.979278 0.000000
0.785489 0.986908 0.000000
0.818540 0.995544 0.000000
0.000000 0.994324 0.000000
0.000000 0.994354 0.000000
0.000000 0.994415 0.000000
0.000000 0.994537 0.000000
0.000000 0.994720 0.000000
0.000000 0.994965 0.000000
0.000000 0.995300 0.000000
0.000000 0.995666 0.000000
0.000000 0.996124 0.000000
0.000000 0.996674 0.000000
0.000000 0.997284 0.000000
0.000000 0.997986 0.000000
0.000000 0.998779 0.000000
0.000000 0.999664 0.000000
0.000000 1.000000 0.000000
0.000000 1.000000 0.000000
0.000000 1.000000 0.000000
0.000000 1.000000 0.000000
0.000000 1.000000 0.000000
0.140627 1.000000 0.000000
0.263920 1.000000 0.000000
0.344488 0.998596 0.000000
0.410163 0.996948 0.000000
0.467964 0.995239 0.000000
0.520775 0.993408 0.000000
0.570123 0.991485 0.000000
0.616907 0.989532 0.000000
0.661677 0.987457 0.000000
0.705867 0.990814 0.000000
0.735073 0.997284 0.000000
0.765438 1.000000 0.000000
0.797116 1.000000 0.000000
0.000000 1.000000 0.000000
0.000000 1.000000 0.000000
0.000000 1.000000 0.000000
0.000000 1.000000 0.000000
0.000000 1.000000 0.000000
0.000000 1.000000 0.000000
0.000000 1.000000 0.000000
0.000000 1.000000 0.000000
0.000000 1.000000 0.000000
0.000000 1.000000 0.000000
0.000000 1.000000 0.000000
0.000000 1.000000 0.000000
0.000000 1.000000 0.000000
0.000000 1.000000 0.000000
0.000000 1.000000 0.000000
0.000000 1.000000 0.000000
0.000000 1.000000 0.000000
0.000000 1.000000 0.000000
0.000000 1.000000 0.000000
0.000000 1.000000 0.000000
0.148806 1.000000 0.000000
0.270207 1.000000 0.000000
0.350439 1.000000 0.000000
0.416236 1.000000 0.000000
0.474250 1.000000 0.000000
0.527123 1.000000 0.000000
0.576532 1.000000 0.000000
0.623407 1.000000 0.000000
0.668208 1.000000 0.000000
0.713191 1.000000 0.000000
0.745388 1.000000 0.000000
0.775753 1.000000 0.000000
0.000000 1.000000 0.000000
0.000000 1.000000 0.000000
0.000000 1.000000 0.000000
0.000000 1.000000 0.000000
0.000000 1.000000 0.000000
0.000000 1.000000 0.000000
0.000000 1.000000 0.000000
0.000000 1.000000 0.000000
0.000000 1.000000 0.000000
0.000000 1.000000 0.000000
0.000000 1.000000 0.000000
0.000000 1.000000 0.000000
0.000000 1.000000 0.000000
0.000000 1.000000 0.000000
0.000000 1.000000 0.000000
