其他预设/【213】赛博朋克科幻预设52款/1.LUT预设（视频调色-PR-AE-PS-FCPX-达芬奇用）/赛博朋克科幻__-11 强度4.cube
# Created by Adobe Lightroom plugin Export LUT (1.17.0)
# www.johnrellis.com/lightroom/exportlut.htm
# Preset: 赛博朋克科幻[素锦印象]-11 强度4
# Color profile: /Library/Application Support/Adobe/Color/Profiles/Recommended/AdobeRGB1998.icc
LUT_3D_SIZE 8
DOMAIN_MIN 0.000000 0.000000 0.000000
DOMAIN_MAX 0.903226 0.903226 0.903226
0.000000 0.000000 0.000000
0.130312 0.000000 0.071504
0.262974 0.000000 0.129183
0.393011 0.000000 0.193484
0.521782 0.000000 0.269383
0.648585 0.000000 0.354223
0.773800 0.000000 0.445411
0.897490 0.000000 0.542443
0.000000 0.119844 0.106447
0.099947 0.092836 0.060090
0.260166 0.000000 0.131807
0.388983 0.000000 0.198550
0.518914 0.000000 0.273564
0.646784 0.000000 0.357824
0.772793 0.000000 0.448676
0.897002 0.000000 0.545403
0.000000 0.250553 0.228305
0.000000 0.231113 0.202335
0.194278 0.173495 0.095918
0.396857 0.000000 0.174960
0.519310 0.000000 0.276005
0.640650 0.000000 0.369879
0.769345 0.000000 0.459998
0.895262 0.000000 0.555840
0.000000 0.428840 0.384741
0.000000 0.412512 0.364324
0.157717 0.348791 0.289433
0.294926 0.271031 0.144076
0.529107 0.000000 0.207187
0.655970 0.000000 0.353521
0.772702 0.000000 0.463172
0.892180 0.000000 0.574273
0.000000 0.628779 0.538811
0.000000 0.618402 0.525628
0.000000 0.576471 0.476234
0.237064 0.492897 0.368536
0.390326 0.397803 0.194888
0.659052 0.000000 0.263035
0.785000 0.000000 0.415595
0.901213 0.000000 0.570184
0.000000 0.793820 0.658747
0.000000 0.788296 0.650843
0.000000 0.765713 0.622095
0.113252 0.715267 0.564691
0.315984 0.636591 0.440131
0.483009 0.550225 0.259037
0.786893 0.321172 0.345098
0.909911 0.156069 0.504082
0.000000 0.929961 0.755032
0.000000 0.927337 0.750332
0.000000 0.916136 0.734340
0.000000 0.891020 0.705470
0.384619 0.842893 0.659998
0.421485 0.785122 0.527642
0.587793 0.719966 0.362005
0.903807 0.578912 0.465034
0.000000 1.000000 0.825895
0.000000 1.000000 0.823911
0.000000 1.000000 0.814694
0.000000 1.000000 0.802853
0.350286 0.990265 0.792386
0.558251 0.960357 0.759762
0.563561 0.931823 0.646662
0.713680 0.896849 0.523796
0.042847 0.000000 0.080873
0.134981 0.000000 0.094270
0.256413 0.000000 0.147311
0.385626 0.000000 0.211826
0.516289 0.000000 0.285069
0.645045 0.000000 0.367529
0.771908 0.000000 0.456306
0.896757 0.000000 0.550652
0.000000 0.105989 0.115572
0.139773 0.079011 0.096193
0.258640 0.000000 0.148470
0.382544 0.000000 0.215122
0.513970 0.000000 0.288212
0.643519 0.000000 0.370550
0.771054 0.000000 0.459266
0.896330 0.000000 0.553491
0.000000 0.244602 0.236393
0.060304 0.221256 0.209812
0.220340 0.165286 0.125490
0.398138 0.000000 0.200381
0.518181 0.000000 0.287541
0.638483 0.000000 0.380560
0.767849 0.000000 0.469612
0.894713 0.000000 0.563409
0.000000 0.423774 0.390906
0.000000 0.405158 0.369787
0.182712 0.344427 0.299901
0.311284 0.266087 0.165225
0.530144 0.000000 0.230259
0.655024 0.000000 0.364752
0.772183 0.000000 0.471412
0.891783 0.000000 0.581109
0.000000 0.625666 0.544610
0.000000 0.615320 0.531945
0.000000 0.573785 0.484077
0.266209 0.489357 0.380468
0.401495 0.394659 0.211734
0.660365 0.000000 0.276005
0.784878 0.000000 0.429938
0.900908 0.000000 0.577081
0.000000 0.792905 0.664271
0.000000 0.787320 0.656641
0.000000 0.764797 0.628626
0.145602 0.714687 0.572198
0.337102 0.635035 0.451179
0.491676 0.548119 0.273411
0.787259 0.316716 0.358587
0.909514 0.184329 0.516411
0.000000 0.930022 0.759762
0.000000 0.927367 0.755245
0.000000 0.916136 0.739651
0.000000 0.891081 0.711238
0.392859 0.843168 0.666285
0.437201 0.784360 0.537621
0.594568 0.718624 0.373999
0.904173 0.575219 0.475654
0.000000 1.000000 0.830076
0.000000 1.000000 0.827543
0.000000 1.000000 0.818540
0.000000 1.000000 0.806821
0.355016 0.990509 0.796323
0.568566 0.959960 0.766049
0.572442 0.931426 0.653864
0.717769 0.896178 0.531121
0.107332 0.000000 0.150546
0.175387 0.000000 0.150149
0.271916 0.000000 0.182315
0.383764 0.000000 0.241520
0.511650 0.000000 0.315465
0.639490 0.000000 0.399207
0.768734 0.000000 0.485084
0.895842 0.000000 0.574182
0.110567 0.105074 0.163577
0.173037 0.066255 0.163546
0.272496 0.000000 0.183627
0.381323 0.000000 0.244266
0.508568 0.000000 0.318791
0.638117 0.000000 0.401709
0.767941 0.000000 0.487617
0.895445 0.000000 0.576684
0.000000 0.213504 0.248234
0.129061 0.197116 0.231876
0.281834 0.140230 0.186038
0.397040 0.000000 0.244785
0.516106 0.000000 0.319371
0.637079 0.000000 0.406989
0.765194 0.000000 0.496651
0.894011 0.000000 0.585748
0.000000 0.425940 0.427985
0.000000 0.405829 0.406622
0.224887 0.339879 0.337224
0.355505 0.251133 0.218967
0.533745 0.069245 0.295354
0.652613 0.000000 0.397925
0.770901 0.000000 0.497383
0.891417 0.000000 0.602075
0.000000 0.629206 0.574548
0.000000 0.616327 0.561089
0.000000 0.570397 0.513451
0.334630 0.482124 0.420661
0.435340 0.384253 0.261021
0.664332 0.098726 0.321965
0.784573 0.000000 0.476600
0.900267 0.000000 0.599542
0.000000 0.795010 0.686915
0.000000 0.788052 0.679225
0.000000 0.763638 0.652125
0.210575 0.714717 0.598627
0.399664 0.630762 0.488716
0.519280 0.541131 0.318425
0.788602 0.301488 0.402014
0.908354 0.255192 0.556481
0.000000 0.931609 0.777279
0.000000 0.928557 0.773068
0.000000 0.917021 0.758419
0.000000 0.892241 0.731319
0.415930 0.845243 0.687984
0.485481 0.782498 0.571038
0.616388 0.714229 0.412024
0.905669 0.562036 0.509911
0.000000 1.000000 0.843534
0.000000 1.000000 0.840665
0.000000 1.000000 0.832120
0.000000 1.000000 0.820523
0.364965 0.991943 0.809812
0.601526 0.959106 0.787289
0.601190 0.930480 0.678126
0.731136 0.894133 0.555200
0.176089 0.000000 0.246281
0.230991 0.000000 0.246860
0.302464 0.000000 0.241062
0.412512 0.000000 0.293339
0.510704 0.000000 0.355352
0.638880 0.000000 0.437659
0.767666 0.000000 0.524010
0.896361 0.000000 0.608942
0.156893 0.073548 0.256657
0.221439 0.000000 0.256748
0.313268 0.000000 0.251713
0.411200 0.000000 0.294774
0.512169 0.000000 0.359228
0.636957 0.000000 0.440406
0.766751 0.000000 0.526635
0.896269 0.000000 0.610712
0.152590 0.196597 0.286748
0.205509 0.189670 0.283268
0.320134 0.135225 0.276127
0.416144 0.000000 0.296880
0.514580 0.000000 0.361852
0.635889 0.000000 0.446632
0.763882 0.000000 0.535119
0.895232 0.000000 0.618250
0.000000 0.373449 0.442908
0.000000 0.360082 0.428809
0.274205 0.312322 0.379644
0.419745 0.223514 0.295903
0.532891 0.138949 0.363928
0.650141 0.000000 0.445594
0.769680 0.000000 0.537469
0.892912 0.000000 0.633143
0.000000 0.636774 0.631556
0.000000 0.624109 0.618830
0.027375 0.577783 0.572381
0.373602 0.485817 0.481575
0.487251 0.366247 0.333684
0.666529 0.222141 0.416083
0.783108 0.113954 0.531060
0.900298 0.000000 0.634455
0.000000 0.801083 0.729915
0.000000 0.794308 0.722774
0.000000 0.769223 0.696681
0.273350 0.719142 0.645686
0.489906 0.625879 0.553765
0.562982 0.529381 0.387213
0.792813 0.309117 0.460334
0.906950 0.337438 0.619165
0.000000 0.935576 0.809903
0.000000 0.932494 0.806119
0.000000 0.920958 0.792569
0.000000 0.897429 0.766995
0.443214 0.851835 0.725429
0.554467 0.781888 0.626093
0.649531 0.707240 0.468452
0.908873 0.537560 0.561852
0.000000 1.000000 0.867582
0.000000 1.000000 0.865141
0.000000 1.000000 0.856992
0.000000 1.000000 0.844358
0.361303 0.996368 0.832731
0.623072 0.962371 0.814603
0.645289 0.930114 0.718318
0.752041 0.890959 0.592462
0.242985 0.000000 0.369207
0.287938 0.000000 0.369757
0.387030 0.000000 0.369482
0.426612 0.000000 0.347448
0.553094 0.000000 0.426703
0.646632 0.000000 0.491554
0.767636 0.000000 0.574273
0.896544 0.000000 0.658930
0.226078 0.000000 0.377203
0.275639 0.000000 0.377569
0.391272 0.000000 0.378668
0.432654 0.000000 0.356115
0.552148 0.000000 0.428260
0.647883 0.000000 0.494881
0.766781 0.000000 0.576440
0.896422 0.000000 0.660548
0.228153 0.221927 0.396765
0.271000 0.200748 0.393652
0.365148 0.120760 0.395270
0.459052 0.000000 0.383215
0.553918 0.000000 0.431525
0.651087 0.000000 0.503166
0.764187 0.000000 0.583673
0.896330 0.000000 0.665675
0.171328 0.324651 0.454108
0.222690 0.319310 0.450050
0.339391 0.299382 0.433967
0.466133 0.234287 0.414160
0.556909 0.141268 0.432136
0.649805 0.000000 0.500237
0.768734 0.000000 0.588220
0.897215 0.000000 0.672419
0.000000 0.558679 0.639185
0.000000 0.550713 0.631098
0.241825 0.520653 0.600610
0.427314 0.457862 0.538293
0.552331 0.339055 0.424598
0.665309 0.268040 0.499947
0.782101 0.086641 0.585565
0.901976 0.000000 0.678096
0.000000 0.793515 0.780972
0.000000 0.789914 0.776730
0.000000 0.776242 0.760739
0.327672 0.731838 0.715938
0.523674 0.645869 0.630976
0.616114 0.513054 0.469429
0.793942 0.391089 0.558129
0.907378 0.368078 0.681941
0.000000 0.941192 0.858579
0.000000 0.938201 0.855161
0.000000 0.927184 0.842802
0.088289 0.905577 0.819364
0.456703 0.867765 0.779904
0.634058 0.787137 0.701167
0.689235 0.698207 0.535180
0.914672 0.516289 0.620264
0.000000 1.000000 0.903899
0.000000 1.000000 0.901854
0.000000 1.000000 0.894743
0.000000 1.000000 0.881926
0.298863 1.000000 0.865141
0.620752 0.971984 0.846738
0.700465 0.932067 0.773281
0.778714 0.886839 0.639490
0.303410 0.000000 0.522759
0.342901 0.000000 0.523217
0.443824 0.000000 0.523980
0.519371 0.000000 0.509758
0.568292 0.000000 0.489754
0.688563 0.000000 0.572869
0.779141 0.000000 0.638239
0.896880 0.000000 0.719875
0.288304 0.000000 0.528588
0.330205 0.000000 0.528832
0.439673 0.000000 0.529839
0.523247 0.000000 0.516869
0.567987 0.000000 0.492164
0.687953 0.000000 0.574273
0.779965 0.000000 0.640650
0.896788 0.000000 0.721370
0.261509 0.192050 0.540948
0.283421 0.165011 0.541955
0.412482 0.083650 0.543236
0.543328 0.000000 0.541650
0.577996 0.000000 0.507134
0.686824 0.000000 0.578943
0.782895 0.000000 0.649042
0.896727 0.000000 0.726375
0.254734 0.363043 0.577813
0.292485 0.359472 0.574304
0.392737 0.342321 0.560967
0.515190 0.243656 0.559380
0.607660 0.134401 0.541955
0.690974 0.000000 0.582361
0.785946 0.000000 0.656306
0.897490 0.000000 0.733730
0.163272 0.490883 0.637690
0.221744 0.487678 0.634852
0.349798 0.475380 0.623743
0.486824 0.450172 0.599268
0.609430 0.378271 0.570520
0.691524 0.282750 0.581842
0.782834 0.080903 0.651423
0.902129 0.000000 0.738460
0.000000 0.724239 0.798398
0.000000 0.721065 0.794797
0.210788 0.709010 0.781247
0.432868 0.683253 0.753353
0.582971 0.630182 0.699855
0.678828 0.489143 0.567254
0.792416 0.424811 0.648249
0.910582 0.298436 0.736172
0.000000 0.915526 0.897154
0.000000 0.914946 0.895750
0.000000 0.912535 0.890684
0.269383 0.907103 0.880858
0.508019 0.882383 0.852354
0.666133 0.816983 0.784543
0.738491 0.684932 0.617456
0.915740 0.579706 0.712276
0.000000 1.000000 0.952453
0.000000 1.000000 0.950683
0.000000 1.000000 0.944305
0.000000 1.000000 0.932708
0.347295 1.000000 0.915770
0.603510 0.986572 0.891447
0.771267 0.937499 0.845762
0.813199 0.880766 0.700038
0.347082 0.000000 0.690211
0.381262 0.000000 0.690211
0.478859 0.000000 0.690211
0.601923 0.000000 0.688808
0.651148 0.000000 0.661616
0.718288 0.000000 0.659236
0.818418 0.000000 0.724361
0.906432 0.000000 0.788846
0.338689 0.000000 0.694209
0.375463 0.000000 0.694240
0.478096 0.000000 0.694301
0.603510 0.000000 0.693202
0.652613 0.000000 0.666316
0.717647 0.000000 0.660731
0.817990 0.000000 0.725399
0.906981 0.000000 0.790372
0.300542 0.155001 0.704189
0.342229 0.133425 0.704250
0.453834 0.000000 0.704646
0.591791 0.000000 0.705074
0.660487 0.000000 0.683070
0.714717 0.000000 0.665614
0.816678 0.000000 0.729122
0.908904 0.000000 0.795560
0.336553 0.412116 0.718715
0.372351 0.398596 0.717006
0.442359 0.336004 0.714382
0.560632 0.249607 0.717372
0.686030 0.077760 0.712367
0.718624 0.000000 0.673335
0.816098 0.000000 0.735164
0.912352 0.000000 0.804044
0.273686 0.534752 0.761654
0.312871 0.533593 0.759579
0.418524 0.529229 0.751400
0.540215 0.517845 0.732906
0.662226 0.417212 0.728664
0.745205 0.305699 0.707424
0.820340 0.000000 0.739803
0.916838 0.000000 0.814603
0.123781 0.669429 0.808621
0.203433 0.668482 0.807309
0.354040 0.664851 0.802152
0.503777 0.656123 0.790829
0.631586 0.634028 0.767361
0.744320 0.559533 0.735897
0.818509 0.450294 0.739376
0.912047 0.268711 0.810758
0.000000 0.855802 0.918883
0.000000 0.855467 0.917754
0.171054 0.854093 0.913451
0.426795 0.850736 0.905119
0.600061 0.841093 0.889525
0.731746 0.809903 0.854368
0.799435 0.663722 0.719814
0.914733 0.600610 0.804410
0.000000 0.995605 0.974731
0.000000 0.996063 0.974395
0.000000 0.997681 0.973297
0.000000 0.999939 0.971130
0.456550 1.000000 0.967468
0.655848 0.992218 0.953063
0.797879 0.959136 0.915373
0.857511 0.871153 0.777615
0.366339 0.000000 0.851225
0.398749 0.000000 0.851041
0.493599 0.000000 0.850431
0.621546 0.000000 0.849210
0.722560 0.000000 0.839445
0.779019 0.000000 0.814786
0.857755 0.000000 0.826383
0.941924 0.000000 0.874998
0.364752 0.000000 0.853422
0.396735 0.000000 0.853239
0.490974 0.000000 0.852567
0.618769 0.000000 0.851286
0.722225 0.000000 0.842008
0.778988 0.000000 0.817502
0.856962 0.000000 0.827115
0.942107 0.000000 0.876127
0.342779 0.082521 0.860502
0.376440 0.000000 0.860349
0.474159 0.000000 0.859739
0.604852 0.000000 0.858396
0.720211 0.000000 0.850858
0.778378 0.000000 0.826932
0.853880 0.000000 0.829648
0.941314 0.000000 0.878447
0.434760 0.415351 0.865965
0.432166 0.389227 0.866850
0.463416 0.316564 0.868467
0.586481 0.228244 0.868162
0.724025 0.000000 0.867033
0.779660 0.000000 0.843931
0.847257 0.000000 0.833616
0.940093 0.000000 0.882597
0.369085 0.593042 0.886290
0.399939 0.594293 0.884916
0.486305 0.597375 0.879667
0.610498 0.550744 0.872953
0.697078 0.435462 0.876402
0.806821 0.287053 0.869261
0.844205 0.000000 0.839109
0.937865 0.000000 0.888762
0.265751 0.700435 0.914458
0.310979 0.701381 0.913573
0.424872 0.704005 0.910338
0.553979 0.705898 0.903471
0.675471 0.702235 0.889677
0.790433 0.608881 0.885374
0.864866 0.471107 0.864897
0.938628 0.217777 0.893339
0.000000 0.823301 0.947509
0.000000 0.823087 0.946288
0.295537 0.822049 0.941588
0.484352 0.820981 0.934539
0.640833 0.822660 0.928374
0.766171 0.816403 0.915312
0.867491 0.756283 0.894163
0.933837 0.623346 0.893706
0.000000 0.935943 0.993103
0.000000 0.936431 0.992737
0.000000 0.938231 0.991333
0.326909 0.941863 0.988556
0.566247 0.946624 0.984375
0.738216 0.950958 0.978454
0.864195 0.949218 0.967620
0.915282 0.853269 0.878752
