其他预设/【213】赛博朋克科幻预设52款/1.LUT预设（视频调色-PR-AE-PS-FCPX-达芬奇用）/赛博朋克科幻__-9 强度1.cube
# Created by Adobe Lightroom plugin Export LUT (1.17.0)
# www.johnrellis.com/lightroom/exportlut.htm
# Preset: 赛博朋克科幻[素锦印象]-9 强度1
# Color profile: /Library/Application Support/Adobe/Color/Profiles/Recommended/AdobeRGB1998.icc
LUT_3D_SIZE 8
DOMAIN_MIN 0.000000 0.000000 0.000000
DOMAIN_MAX 0.903226 0.903226 0.903226
0.000000 0.000000 0.000000
0.124941 0.004273 0.000000
0.252628 0.031891 0.000000
0.389563 0.077516 0.000000
0.532036 0.117586 0.000000
0.667659 0.151217 0.000000
0.794522 0.171176 0.000000
0.914275 0.175570 0.000000
0.013977 0.117189 0.047425
0.128634 0.123659 0.005524
0.249027 0.124575 0.000000
0.387457 0.142733 0.000000
0.530602 0.166110 0.000000
0.666804 0.188724 0.000000
0.793942 0.206668 0.000000
0.913878 0.209018 0.000000
0.004730 0.235904 0.092348
0.116335 0.239658 0.080415
0.263157 0.252720 0.003845
0.391394 0.249332 0.000000
0.526238 0.263645 0.000000
0.663905 0.277592 0.000000
0.792142 0.289158 0.000000
0.912596 0.294743 0.000000
0.000397 0.365057 0.141390
0.112276 0.368444 0.130129
0.247135 0.374792 0.115969
0.409918 0.393774 0.000000
0.543145 0.382605 0.000000
0.662409 0.386755 0.000000
0.788510 0.393805 0.000000
0.910307 0.396918 0.000000
0.011719 0.498177 0.193973
0.115389 0.500816 0.185885
0.247684 0.506249 0.173251
0.387945 0.517021 0.145876
0.558251 0.536217 0.000000
0.681331 0.510155 0.000000
0.797665 0.506523 0.000000
0.906096 0.509270 0.000000
0.064118 0.629328 0.248905
0.130953 0.630976 0.244114
0.252049 0.635370 0.233524
0.383673 0.641047 0.220005
0.529076 0.653681 0.176394
0.694087 0.666896 0.023590
0.808682 0.630274 0.000000
0.921660 0.619471 0.000000
0.134585 0.755032 0.312657
0.178805 0.755947 0.311955
0.281956 0.758785 0.310582
0.397192 0.762661 0.301183
0.520226 0.767819 0.285801
0.663264 0.779904 0.224704
0.819364 0.787564 0.111208
0.924956 0.741848 0.000000
0.235050 0.874815 0.393805
0.267613 0.874998 0.397559
0.360021 0.875578 0.413825
0.447578 0.878141 0.409766
0.547478 0.881743 0.398779
0.657435 0.886290 0.379431
0.789609 0.895811 0.296910
0.934081 0.898405 0.184085
0.027283 0.026368 0.117464
0.123964 0.018402 0.117128
0.256107 0.014405 0.101747
0.391150 0.082399 0.093660
0.533440 0.112001 0.058808
0.668879 0.141726 0.000000
0.795560 0.166781 0.000000
0.914946 0.185183 0.000000
0.031678 0.119387 0.123537
0.123934 0.123934 0.123934
0.251835 0.129458 0.115938
0.389410 0.142061 0.100191
0.532189 0.160678 0.067720
0.668025 0.181216 0.000000
0.795010 0.199832 0.000000
0.914641 0.213779 0.000000
0.052796 0.235111 0.147799
0.128176 0.240299 0.148104
0.260075 0.252049 0.124971
0.387610 0.250278 0.117952
0.527642 0.263859 0.096620
0.664973 0.275914 0.019837
0.793057 0.285954 0.000000
0.913451 0.292363 0.000000
0.067567 0.364202 0.186435
0.131502 0.367773 0.182986
0.250065 0.375219 0.169986
0.407813 0.392920 0.123354
0.541894 0.382727 0.095918
0.660365 0.387823 0.104829
0.789090 0.393957 0.003296
0.910857 0.395880 0.000000
0.079744 0.497353 0.230655
0.134646 0.499947 0.225193
0.251408 0.506310 0.212284
0.387182 0.516106 0.192874
0.556695 0.535607 0.122347
0.680446 0.510460 0.083680
0.796323 0.507317 0.064302
0.906340 0.510216 0.068177
0.095003 0.628595 0.277195
0.146700 0.630274 0.273655
0.257053 0.635126 0.263493
0.385748 0.640925 0.251804
0.528283 0.653071 0.217350
0.693080 0.666560 0.136049
0.808042 0.630823 0.086610
0.920775 0.620264 0.000000
0.147189 0.754421 0.333715
0.188174 0.755367 0.333257
0.289494 0.758328 0.334112
0.401221 0.762295 0.325536
0.522271 0.767575 0.311620
0.662989 0.779538 0.259068
0.818631 0.787472 0.171145
0.924559 0.742550 0.108339
0.236942 0.874479 0.407263
0.268986 0.874723 0.410773
0.361151 0.875303 0.426246
0.453346 0.877592 0.428168
0.551110 0.881346 0.417792
0.659083 0.885801 0.401007
0.789609 0.895598 0.324224
0.933501 0.898436 0.224887
0.065034 0.063386 0.239261
0.131411 0.061433 0.237400
0.250767 0.048127 0.236606
0.393805 0.000000 0.230289
0.540002 0.000000 0.207462
0.672267 0.116640 0.199893
0.798276 0.144381 0.171420
0.917723 0.152407 0.103365
0.078126 0.137209 0.244419
0.138277 0.137758 0.242954
0.251102 0.131197 0.240024
0.393713 0.125216 0.232120
0.537835 0.136965 0.215793
0.671199 0.168185 0.204166
0.797574 0.185580 0.175753
0.917235 0.190372 0.111269
0.078004 0.243198 0.251835
0.141360 0.244785 0.251499
0.250370 0.250370 0.250370
0.389502 0.255680 0.243900
0.532036 0.264378 0.233280
0.667720 0.274449 0.217838
0.795163 0.282689 0.192081
0.915496 0.283818 0.137331
0.087953 0.361395 0.273045
0.146120 0.364630 0.274296
0.256443 0.375250 0.274632
0.400366 0.390478 0.253178
0.532952 0.384527 0.248325
0.661311 0.392065 0.242802
0.790646 0.396612 0.220706
0.912169 0.396094 0.178408
0.097993 0.494697 0.307744
0.153506 0.497108 0.308049
0.262760 0.505058 0.306096
0.387030 0.514458 0.295354
0.550835 0.533349 0.257816
0.676631 0.512505 0.244083
0.790860 0.512383 0.247013
0.906981 0.514244 0.231662
0.120485 0.626368 0.346593
0.170260 0.627924 0.346807
0.274479 0.633112 0.345251
0.392920 0.640070 0.337346
0.526146 0.650721 0.318334
0.688960 0.665370 0.269444
0.805447 0.633387 0.248081
0.917205 0.624720 0.227939
0.167453 0.752712 0.392493
0.206577 0.753506 0.393347
0.302525 0.756374 0.395880
0.414984 0.760861 0.396918
0.529198 0.766598 0.386450
0.662104 0.778073 0.351690
0.815824 0.787198 0.291997
0.922759 0.745449 0.257755
0.237888 0.873625 0.449378
0.267002 0.873930 0.451087
0.359869 0.874510 0.464271
0.472297 0.875761 0.484688
0.563256 0.879881 0.476204
0.665705 0.884672 0.463203
0.789731 0.894774 0.403998
0.931365 0.898466 0.327062
0.090852 0.087861 0.374517
0.150729 0.089967 0.372808
0.260105 0.091798 0.366339
0.387182 0.068757 0.364996
0.533165 0.000000 0.360143
0.672572 0.021546 0.343236
0.801633 0.122377 0.325322
0.919829 0.147127 0.299657
0.109133 0.158145 0.378424
0.159213 0.157778 0.376593
0.262577 0.153811 0.370031
0.387335 0.139162 0.367132
0.533257 0.120394 0.361456
0.672480 0.135714 0.345129
0.800595 0.176944 0.329564
0.919493 0.185061 0.300877
0.122774 0.269352 0.387152
0.171939 0.270939 0.386908
0.268711 0.268223 0.381079
0.387366 0.257420 0.374151
0.533288 0.256107 0.366766
0.671901 0.269688 0.353735
0.797452 0.286900 0.342290
0.917632 0.283177 0.310582
0.113497 0.378027 0.391699
0.163668 0.378820 0.391272
0.269200 0.381476 0.389502
0.385840 0.385840 0.385840
0.528466 0.392615 0.381689
0.664088 0.399939 0.374517
0.792386 0.404913 0.361212
0.913664 0.401617 0.333715
0.123049 0.490517 0.403906
0.169497 0.492134 0.404456
0.273014 0.499794 0.407691
0.393835 0.512322 0.410834
0.539452 0.528954 0.393072
0.665827 0.519036 0.390570
0.784939 0.524224 0.389593
0.907683 0.522942 0.368109
0.142000 0.622553 0.436652
0.185183 0.624018 0.437232
0.286656 0.628931 0.439460
0.405646 0.637079 0.442573
0.525872 0.646387 0.436652
0.681117 0.663050 0.405127
0.799802 0.639612 0.393256
0.909483 0.636225 0.390326
0.185580 0.749752 0.473610
0.220920 0.750576 0.474403
0.312444 0.753292 0.477241
0.428473 0.757900 0.484657
0.541588 0.764309 0.485756
0.661341 0.774960 0.467231
0.810636 0.786557 0.423835
0.918975 0.751492 0.399512
0.253574 0.871550 0.519982
0.280034 0.871855 0.521111
0.356023 0.873106 0.525017
0.470558 0.874510 0.541344
0.578759 0.877714 0.553948
0.674739 0.883207 0.544518
0.789883 0.893187 0.507836
0.927520 0.898619 0.449287
0.129549 0.124880 0.514702
0.177371 0.126955 0.512963
0.280308 0.129152 0.507042
0.393164 0.122530 0.495766
0.525536 0.087739 0.495430
0.663233 0.000000 0.485206
0.794827 0.114199 0.472084
0.916533 0.197360 0.462409
0.144259 0.184054 0.517449
0.186496 0.183719 0.515740
0.283360 0.181186 0.509758
0.394385 0.172244 0.498390
0.525505 0.150393 0.496834
0.663172 0.129610 0.486458
0.794675 0.171450 0.474067
0.916228 0.234501 0.465644
0.164492 0.293828 0.526085
0.202670 0.294041 0.524437
0.291417 0.290196 0.518395
0.398291 0.280827 0.506889
0.525231 0.267338 0.501671
0.662776 0.262821 0.491524
0.793973 0.289403 0.482063
0.915038 0.331579 0.477852
0.168276 0.406500 0.532158
0.207889 0.407782 0.531884
0.305241 0.411963 0.530663
0.408545 0.408118 0.520806
0.523919 0.394629 0.510002
0.661952 0.398871 0.502434
0.792844 0.420233 0.498451
0.914397 0.419318 0.478859
0.158877 0.514733 0.533227
0.199039 0.515251 0.532799
0.296147 0.516869 0.531090
0.409400 0.519310 0.527611
0.521294 0.521294 0.521294
0.657771 0.529381 0.519646
0.787045 0.535119 0.513237
0.909239 0.532830 0.495674
0.169986 0.622980 0.539696
0.207095 0.623468 0.539696
0.299992 0.624781 0.539483
0.412726 0.630854 0.542168
0.531609 0.642237 0.546838
0.669062 0.658869 0.533501
0.789120 0.649531 0.531243
0.900633 0.653010 0.530053
0.210727 0.745266 0.566949
0.241489 0.746029 0.567590
0.325414 0.748714 0.569787
0.433112 0.753414 0.573785
0.547784 0.760800 0.579461
0.659937 0.770108 0.577630
0.803098 0.785428 0.549218
0.913390 0.760616 0.534508
0.275456 0.868345 0.605432
0.299290 0.868711 0.606195
0.369757 0.869932 0.608820
0.463813 0.872496 0.612451
0.575189 0.876219 0.622309
0.681270 0.881712 0.627893
0.788083 0.891112 0.609186
0.922515 0.898833 0.566827
0.176120 0.171115 0.648829
0.212711 0.172427 0.647669
0.303593 0.174258 0.643427
0.412360 0.170993 0.635401
0.528405 0.156710 0.625574
0.658961 0.128115 0.621485
0.786740 0.119692 0.607019
0.910735 0.187198 0.595056
0.189090 0.218387 0.650507
0.221927 0.218235 0.649287
0.307744 0.216922 0.645106
0.414069 0.211551 0.637049
0.528710 0.198428 0.626673
0.658717 0.177279 0.622400
0.786435 0.171817 0.607996
0.910430 0.224887 0.596948
0.217685 0.322332 0.656031
0.244816 0.321630 0.654871
0.320806 0.318730 0.650660
0.420356 0.312200 0.642573
0.529686 0.299290 0.630304
0.657832 0.285893 0.625666
0.785336 0.282261 0.611566
0.909483 0.321752 0.603662
0.244388 0.437018 0.665492
0.271855 0.437934 0.664363
0.347570 0.440497 0.660090
0.436805 0.435737 0.651820
0.535149 0.421698 0.638788
0.655818 0.408667 0.631312
0.783963 0.408453 0.619684
0.908049 0.438911 0.615991
0.242710 0.540368 0.665492
0.271641 0.541711 0.665309
0.353185 0.546349 0.664576
0.458198 0.554650 0.663020
0.549279 0.548852 0.652216
0.652857 0.530999 0.639246
0.783444 0.536797 0.633143
0.907134 0.559106 0.632898
0.236606 0.642329 0.664576
0.265080 0.642847 0.664302
0.344305 0.644495 0.663325
0.446174 0.647028 0.661219
0.548791 0.649592 0.657527
0.649592 0.649561 0.649592
0.780880 0.658930 0.649989
0.903532 0.662074 0.642329
0.244785 0.749691 0.672755
0.271550 0.749783 0.672633
0.347417 0.750027 0.672114
0.445319 0.750301 0.670741
0.548852 0.754391 0.670741
0.661067 0.765743 0.675135
0.792233 0.782467 0.665492
0.904967 0.771969 0.661158
0.302586 0.864012 0.697414
0.323552 0.864347 0.697841
0.387152 0.865599 0.699306
0.472816 0.868345 0.700862
0.570214 0.872984 0.702510
0.679683 0.879576 0.708278
0.785794 0.887572 0.708980
0.916228 0.899138 0.680903
0.235630 0.230533 0.773556
0.262089 0.231571 0.772793
0.336919 0.233707 0.770138
0.435584 0.233219 0.765103
0.543999 0.226658 0.757076
0.661372 0.211765 0.750393
0.785855 0.192966 0.742031
0.904875 0.207767 0.725582
0.247807 0.267796 0.774472
0.272160 0.267948 0.773739
0.342809 0.268009 0.771084
0.438666 0.266056 0.766018
0.545312 0.258793 0.757992
0.661402 0.244388 0.750942
0.785489 0.228214 0.742672
0.904601 0.239780 0.726497
0.281865 0.362127 0.777676
0.301793 0.361608 0.776944
0.362799 0.360143 0.774289
0.450050 0.356268 0.769253
0.550622 0.347448 0.761135
0.661646 0.333104 0.752743
0.784207 0.319982 0.744930
0.903593 0.325597 0.729793
0.325658 0.473610 0.783352
0.346014 0.475502 0.782620
0.402899 0.478645 0.779934
0.474769 0.473243 0.774838
0.562615 0.462715 0.766720
0.662562 0.445167 0.755795
0.781857 0.432715 0.748898
0.902129 0.431525 0.735317
0.346471 0.575280 0.788327
0.367742 0.577783 0.788296
0.432837 0.586511 0.788174
0.508751 0.590723 0.784115
0.582391 0.581506 0.775784
0.666957 0.561517 0.762875
0.778988 0.546014 0.754665
0.900755 0.544244 0.743282
0.344182 0.668360 0.787411
0.364446 0.669703 0.787320
0.426581 0.674281 0.787137
0.509819 0.680903 0.786893
0.601434 0.688655 0.786831
0.680964 0.680568 0.776791
0.775692 0.659449 0.762417
0.900145 0.665797 0.757076
0.339025 0.761868 0.786526
0.358373 0.762356 0.786465
0.416724 0.764096 0.786069
0.495796 0.766903 0.785428
0.585534 0.770443 0.784146
0.679438 0.773617 0.781186
0.772061 0.772030 0.772061
0.898436 0.781765 0.773404
0.343175 0.869718 0.800931
0.361089 0.869718 0.800748
0.415381 0.869841 0.800015
0.491981 0.870268 0.798520
0.580743 0.871000 0.795987
0.677119 0.874388 0.794217
0.784939 0.884733 0.798154
0.908049 0.898802 0.790341
0.317815 0.313176 0.888365
0.335760 0.314061 0.887968
0.392126 0.316350 0.886625
0.474556 0.318303 0.884062
0.571374 0.317174 0.880095
0.676204 0.308537 0.874296
0.792081 0.294041 0.871244
0.907683 0.281010 0.858732
0.329686 0.341955 0.888640
0.346502 0.342443 0.888273
0.399847 0.343603 0.886961
0.479469 0.344274 0.884428
0.574029 0.342016 0.880430
0.677241 0.332647 0.874662
0.791989 0.318242 0.871427
0.907256 0.305211 0.859190
0.365881 0.422980 0.889738
0.379828 0.422980 0.889372
0.425513 0.422583 0.888060
0.496437 0.421088 0.885588
0.583642 0.416297 0.881682
0.681178 0.405219 0.875975
0.791653 0.389960 0.872099
0.905852 0.376562 0.860777
0.423865 0.530785 0.891844
0.434333 0.530419 0.891508
0.469520 0.528801 0.890257
0.527092 0.525200 0.887877
0.601556 0.517937 0.884092
0.688777 0.504265 0.878447
0.790982 0.485512 0.873411
0.903685 0.469093 0.863676
0.453895 0.622339 0.895781
0.466377 0.623835 0.895476
0.505730 0.627710 0.894438
0.561517 0.629664 0.892485
0.622309 0.621057 0.888792
0.697780 0.606622 0.883116
0.789578 0.584985 0.875883
0.901030 0.569940 0.868009
0.461097 0.705013 0.897185
0.474434 0.706600 0.897154
0.516960 0.711727 0.897215
0.580407 0.719356 0.897581
0.649134 0.723293 0.896269
0.714229 0.713436 0.890898
0.791470 0.691737 0.881529
0.897917 0.675257 0.873899
0.456641 0.787411 0.897642
0.469062 0.788296 0.897673
0.508904 0.791043 0.897704
0.570520 0.795621 0.897887
0.647059 0.802213 0.898375
0.732448 0.810971 0.899474
0.805325 0.804929 0.893767
0.894591 0.782376 0.881559
0.448737 0.872709 0.898863
0.460273 0.873106 0.898863
0.497993 0.874540 0.898833
0.557885 0.877165 0.898833
0.632502 0.880949 0.898833
0.715694 0.885710 0.898772
0.803494 0.890929 0.898100
0.890929 0.890929 0.890929
