其他预设/【213】赛博朋克科幻预设52款/1.LUT预设（视频调色-PR-AE-PS-FCPX-达芬奇用）/赛博朋克科幻__-8 强度3.cube
# Created by Adobe Lightroom plugin Export LUT (1.17.0)
# www.johnrellis.com/lightroom/exportlut.htm
# Preset: 赛博朋克科幻[素锦印象]-8 强度3
# Color profile: /Library/Application Support/Adobe/Color/Profiles/Recommended/AdobeRGB1998.icc
LUT_3D_SIZE 32
0.000000 0.047822 0.000000
0.010163 0.048157 0.004425
0.033143 0.048554 0.014588
0.065309 0.051911 0.037903
0.082765 0.058412 0.061799
0.100984 0.060609 0.075868
0.120943 0.060273 0.090333
0.143374 0.056733 0.105806
0.168338 0.045563 0.122896
0.196567 0.023346 0.141909
0.228244 0.000000 0.163333
0.262913 0.000000 0.186557
0.300084 0.000000 0.211398
0.339727 0.000000 0.237766
0.381201 0.000000 0.264744
0.423835 0.000000 0.291936
0.467262 0.000000 0.318944
0.510185 0.000000 0.345190
0.550652 0.000000 0.369360
0.589776 0.000000 0.392432
0.627985 0.000000 0.414435
0.665339 0.000000 0.435584
0.701778 0.000000 0.456123
0.737179 0.000000 0.475898
0.771542 0.000000 0.495155
0.804837 0.000000 0.514153
0.837003 0.000000 0.532921
0.867979 0.000000 0.551843
0.897887 0.000000 0.571221
0.926696 0.000000 0.591394
0.954406 0.145998 0.612787
0.980835 0.242008 0.635767
0.000000 0.063264 0.007202
0.002197 0.062074 0.000610
0.035340 0.052033 0.006592
0.063874 0.059937 0.040253
0.082429 0.057679 0.061830
0.100404 0.060334 0.075929
0.120729 0.060365 0.090333
0.143008 0.056153 0.105837
0.168215 0.044556 0.122896
0.196445 0.022339 0.142092
0.228092 0.000000 0.163607
0.262760 0.000000 0.186923
0.300114 0.000000 0.211795
0.339849 0.000000 0.238102
0.381231 0.000000 0.264988
0.424018 0.000000 0.292363
0.467353 0.000000 0.319280
0.510216 0.000000 0.345525
0.550683 0.000000 0.369665
0.589837 0.000000 0.392676
0.628046 0.000000 0.414618
0.665431 0.000000 0.435798
0.701839 0.000000 0.456275
0.737240 0.000000 0.476081
0.771603 0.000000 0.495369
0.804898 0.000000 0.514275
0.837034 0.000000 0.533043
0.868040 0.000000 0.551995
0.897917 0.000000 0.571344
0.926757 0.000000 0.591485
0.954437 0.145937 0.612848
0.980865 0.241947 0.635828
0.000000 0.075715 0.022827
0.000000 0.074800 0.017365
0.014893 0.073487 0.005280
0.066926 0.059693 0.019532
0.080659 0.067628 0.061524
0.099336 0.065705 0.075929
0.119966 0.060151 0.090639
0.142611 0.055604 0.106081
0.167666 0.045228 0.123293
0.196109 0.021576 0.142580
0.227817 0.000000 0.163882
0.262638 0.000000 0.187259
0.299992 0.000000 0.212314
0.339788 0.000000 0.238621
0.381201 0.000000 0.265599
0.424018 0.000000 0.292821
0.467414 0.000000 0.319829
0.510307 0.000000 0.345892
0.550805 0.000000 0.370123
0.589899 0.000000 0.393042
0.628168 0.000000 0.415015
0.665461 0.000000 0.436164
0.701869 0.000000 0.456580
0.737301 0.000000 0.476356
0.771664 0.000000 0.495613
0.804959 0.000000 0.514488
0.837095 0.000000 0.533257
0.868101 0.000000 0.552178
0.897978 0.000000 0.571496
0.926818 0.000000 0.591638
0.954498 0.145632 0.612970
0.980926 0.241917 0.635950
0.000000 0.096071 0.050355
0.000000 0.095216 0.049622
0.000000 0.093782 0.041932
0.040589 0.091707 0.018799
0.084871 0.070924 0.033997
0.100313 0.070802 0.067109
0.116426 0.077150 0.087221
0.139376 0.070619 0.103761
0.165927 0.057282 0.122194
0.195499 0.021271 0.143221
0.227420 0.000000 0.164736
0.262333 0.000000 0.188205
0.299840 0.000000 0.213413
0.339727 0.000000 0.239750
0.381262 0.000000 0.266667
0.424140 0.000000 0.293889
0.467628 0.000000 0.320928
0.510521 0.000000 0.346960
0.550958 0.000000 0.370977
0.590051 0.000000 0.393835
0.628382 0.000000 0.415808
0.665705 0.000000 0.436896
0.702113 0.000000 0.457252
0.737484 0.000000 0.476936
0.771847 0.000000 0.496162
0.805142 0.000000 0.515007
0.837247 0.000000 0.533684
0.868223 0.000000 0.552544
0.898100 0.000000 0.571862
0.926909 0.000000 0.591974
0.954559 0.145480 0.613245
0.981018 0.241794 0.636194
0.000000 0.119661 0.069978
0.000000 0.118807 0.069734
0.000000 0.118044 0.069215
0.007843 0.115724 0.059480
0.062226 0.113039 0.033814
0.101808 0.094667 0.044739
0.122133 0.072541 0.066682
0.139681 0.078889 0.092287
0.159731 0.085084 0.114870
0.188632 0.075135 0.135744
0.221988 0.049958 0.159365
0.258762 0.000000 0.185306
0.298436 0.000000 0.213321
0.339666 0.000000 0.241398
0.381323 0.000000 0.268406
0.424231 0.000000 0.295506
0.467842 0.000000 0.322515
0.510643 0.000000 0.348425
0.551232 0.000000 0.372473
0.590417 0.000000 0.395209
0.628626 0.000000 0.417060
0.666041 0.000000 0.438056
0.702419 0.000000 0.458320
0.737789 0.000000 0.477913
0.772122 0.000000 0.497047
0.805386 0.000000 0.515831
0.837491 0.000000 0.534417
0.868467 0.000000 0.553185
0.898314 0.000000 0.572412
0.927092 0.000000 0.592432
0.954742 0.145113 0.613703
0.981140 0.241642 0.636561
0.000000 0.144717 0.086275
0.000000 0.144045 0.086061
0.000000 0.143038 0.085542
0.000000 0.141939 0.081788
0.010895 0.139193 0.066011
0.074281 0.136446 0.044556
0.119997 0.123781 0.049256
0.145144 0.086244 0.068238
0.165988 0.079713 0.093904
0.188205 0.086366 0.122133
0.213413 0.093111 0.148959
0.248539 0.079133 0.174838
0.288090 0.034424 0.202487
0.330297 0.000000 0.231754
0.374456 0.000000 0.261906
0.420264 0.000000 0.292607
0.466835 0.000000 0.323064
0.511009 0.000000 0.350500
0.551568 0.000000 0.374365
0.590753 0.000000 0.396948
0.629053 0.000000 0.418677
0.666468 0.000000 0.439582
0.702846 0.000000 0.459663
0.738186 0.000000 0.479194
0.772519 0.000000 0.498146
0.805753 0.000000 0.516838
0.837827 0.000000 0.535332
0.868742 0.000000 0.554009
0.898558 0.000000 0.573144
0.927337 0.000000 0.593103
0.954955 0.144320 0.614282
0.981353 0.241398 0.637079
0.000000 0.170901 0.103548
0.000000 0.170077 0.103426
0.000000 0.169162 0.103059
0.000000 0.168948 0.100710
0.000000 0.167544 0.090700
0.008881 0.164706 0.070253
0.086946 0.162264 0.052369
0.139803 0.155550 0.050202
0.170047 0.107546 0.071809
0.195804 0.080201 0.091035
0.220249 0.087282 0.126925
0.247379 0.094209 0.158633
0.276585 0.101747 0.189242
0.316777 0.083558 0.218692
0.361242 0.012390 0.248966
0.407355 0.000000 0.279973
0.454353 0.000000 0.310979
0.501244 0.000000 0.341283
0.545739 0.000000 0.369512
0.588586 0.000000 0.396185
0.629541 0.000000 0.420783
0.667018 0.000000 0.441474
0.703304 0.000000 0.461463
0.738705 0.000000 0.480751
0.772976 0.000000 0.499641
0.806149 0.000000 0.518120
0.838224 0.000000 0.536522
0.869108 0.000000 0.555077
0.898924 0.000000 0.574121
0.927642 0.000000 0.593927
0.955230 0.143557 0.614984
0.981598 0.241093 0.637720
0.000000 0.198062 0.121706
0.000000 0.197482 0.121584
0.000000 0.196506 0.121523
0.000000 0.196719 0.119387
0.000000 0.197238 0.114412
0.000000 0.195529 0.098787
0.003388 0.193210 0.073762
0.101137 0.191104 0.058412
0.161837 0.190188 0.049928
0.196963 0.138491 0.075593
0.227390 0.096986 0.092348
0.255314 0.086213 0.128328
0.284092 0.093935 0.165896
0.314824 0.102205 0.200381
0.347204 0.111330 0.233707
0.390814 0.090059 0.265202
0.438453 0.000305 0.296757
0.486458 0.000000 0.327977
0.532525 0.000000 0.357519
0.576867 0.000000 0.385595
0.619837 0.000000 0.412238
0.661463 0.000000 0.437446
0.701625 0.000000 0.461250
0.739284 0.000000 0.482765
0.773526 0.000000 0.501366
0.806699 0.000000 0.519707
0.838682 0.000000 0.537987
0.869535 0.000000 0.556390
0.899321 0.000000 0.575250
0.927977 0.000000 0.594965
0.955535 0.142519 0.615900
0.981903 0.240757 0.638544
0.000000 0.227115 0.141360
0.000000 0.226505 0.141299
0.000000 0.225803 0.141238
0.000000 0.226230 0.139437
0.000000 0.227481 0.135592
0.000000 0.227970 0.126345
0.000000 0.226963 0.107607
0.000000 0.225925 0.071473
0.117342 0.223270 0.062470
0.186801 0.229282 0.044282
0.225467 0.179843 0.077638
0.260807 0.125948 0.097871
0.293248 0.083680 0.123903
0.323308 0.091890 0.169894
0.355047 0.101411 0.209018
0.388128 0.111635 0.245365
0.422217 0.123751 0.280064
0.467475 0.102937 0.312474
0.515648 0.029145 0.343542
0.561883 0.000000 0.373266
0.606592 0.000000 0.401373
0.649775 0.000000 0.428168
0.691341 0.000000 0.453498
0.731380 0.000000 0.477394
0.769833 0.000000 0.499916
0.806790 0.000000 0.521233
0.839261 0.000000 0.539696
0.870054 0.000000 0.557885
0.899779 0.000000 0.576593
0.928435 0.000000 0.596155
0.955932 0.141512 0.616938
0.982238 0.240330 0.639460
0.000000 0.258061 0.162295
0.000000 0.257542 0.162203
0.000000 0.256840 0.162051
0.000000 0.257694 0.160616
0.000000 0.259495 0.157565
0.000000 0.261997 0.152529
0.000000 0.262242 0.138521
0.000000 0.261997 0.115938
0.006561 0.261906 0.074830
0.135317 0.259098 0.066560
0.209323 0.266209 0.038483
0.256199 0.222934 0.078279
0.296452 0.157198 0.103426
0.331975 0.101839 0.123171
0.364446 0.087892 0.169467
0.396796 0.099062 0.214542
0.430396 0.110933 0.254429
0.464424 0.125521 0.291752
0.498634 0.141665 0.326726
0.543023 0.127810 0.358892
0.589868 0.092256 0.388952
0.634974 0.000000 0.417578
0.678370 0.000000 0.444617
0.719936 0.000000 0.470222
0.759884 0.000000 0.494362
0.798062 0.000000 0.517174
0.834470 0.000000 0.538689
0.869169 0.000000 0.559045
0.900359 0.000000 0.578149
0.928954 0.000000 0.597528
0.956420 0.140108 0.618158
0.982666 0.239811 0.640528
0.000000 0.290806 0.184360
0.000000 0.290349 0.184298
0.000000 0.289738 0.184024
0.000000 0.290806 0.182895
0.000000 0.293004 0.180331
0.000000 0.295933 0.176333
0.000000 0.298772 0.168215
0.000000 0.299626 0.150668
0.000000 0.300450 0.124178
0.037140 0.300786 0.079835
0.155306 0.297826 0.069734
0.231601 0.301274 0.044617
0.289006 0.268528 0.077363
0.333745 0.192721 0.107912
0.371130 0.139986 0.130098
0.407111 0.080964 0.163638
0.439826 0.094514 0.216434
0.473091 0.110262 0.260868
0.506676 0.127779 0.300938
0.540215 0.148196 0.338170
0.573754 0.171237 0.373571
0.616602 0.167941 0.405249
0.662165 0.150607 0.434485
0.705715 0.131563 0.462104
0.747402 0.111025 0.488197
0.787167 0.088685 0.512840
0.824979 0.063752 0.536156
0.860899 0.024048 0.558221
0.895109 0.000000 0.579278
0.927733 0.002380 0.599359
0.956939 0.138766 0.619562
0.983154 0.239261 0.641779
0.000000 0.324865 0.207065
0.000000 0.324468 0.207034
0.000000 0.323796 0.206912
0.000000 0.325017 0.205783
0.000000 0.327489 0.203799
0.000000 0.330755 0.200504
0.000000 0.335027 0.195804
0.000000 0.337591 0.183108
0.000000 0.339483 0.162509
0.000000 0.341527 0.131777
0.067628 0.342077 0.084901
0.176516 0.338994 0.073091
0.255009 0.338109 0.050721
0.323461 0.315892 0.074739
0.370153 0.244785 0.110872
0.411170 0.177096 0.137209
0.449592 0.099580 0.160281
0.483223 0.089723 0.214542
0.515862 0.109834 0.264439
0.548699 0.132540 0.307988
0.581567 0.157443 0.347967
0.614343 0.184939 0.385351
0.647089 0.214664 0.421088
0.688167 0.222049 0.452674
0.732052 0.217441 0.481178
0.773770 0.214847 0.508049
0.813352 0.214847 0.533501
0.850767 0.218173 0.557641
0.886229 0.225040 0.580591
0.919860 0.235233 0.602686
0.951720 0.249027 0.623926
0.982055 0.265995 0.644465
0.000000 0.359899 0.230289
0.000000 0.359594 0.230259
0.000000 0.359014 0.230045
0.000000 0.360174 0.229221
0.000000 0.362676 0.227481
0.000000 0.366217 0.224949
0.000000 0.370733 0.221164
0.000000 0.375799 0.214511
0.000000 0.378424 0.197665
0.000000 0.381506 0.174075
0.000000 0.384680 0.138735
0.089082 0.384924 0.090455
0.199313 0.381598 0.077272
0.279301 0.376623 0.057954
0.359228 0.364477 0.069459
0.407446 0.295842 0.112795
0.452003 0.213779 0.143832
0.490517 0.149660 0.168948
0.526329 0.084657 0.208499
0.558312 0.112123 0.265507
0.590356 0.140352 0.313451
0.622522 0.169833 0.356481
0.654597 0.201572 0.396368
0.686610 0.235294 0.434180
0.718379 0.271183 0.470497
0.757412 0.288365 0.502190
0.799222 0.294377 0.530236
0.838560 0.303105 0.556847
0.875578 0.314549 0.582208
0.910491 0.329015 0.606561
0.943389 0.346441 0.629969
0.974487 0.366827 0.652766
0.000000 0.395697 0.253880
0.000000 0.395331 0.253758
0.000000 0.394873 0.253666
0.000000 0.395758 0.253025
0.000000 0.398260 0.251530
0.000000 0.401801 0.249332
0.000000 0.406409 0.246159
0.000000 0.412207 0.241764
0.000000 0.416938 0.230747
0.000000 0.420600 0.211734
0.000000 0.424659 0.185122
0.000000 0.429145 0.145083
0.111330 0.428809 0.096864
0.223026 0.425177 0.081697
0.307286 0.419898 0.060792
0.395941 0.413977 0.061616
0.445289 0.346166 0.114534
0.492958 0.250462 0.150698
0.530877 0.193362 0.178042
0.568231 0.105531 0.204623
0.600183 0.118074 0.264561
0.631617 0.151614 0.317632
0.663020 0.185794 0.364202
0.694423 0.221378 0.406897
0.725643 0.258885 0.447028
0.756619 0.298650 0.485542
0.787289 0.341009 0.522850
0.823911 0.367346 0.555230
0.862943 0.382879 0.583429
0.899535 0.400916 0.610346
0.933867 0.420905 0.636133
0.966155 0.442695 0.660914
0.000000 0.431830 0.277592
0.000000 0.431495 0.277501
0.000000 0.430976 0.277348
0.000000 0.431556 0.276890
0.000000 0.434028 0.275578
0.000000 0.437629 0.273716
0.000000 0.442176 0.271153
0.000000 0.447883 0.267460
0.000000 0.454780 0.262394
0.000000 0.458930 0.246494
0.000000 0.463539 0.225284
0.000000 0.468727 0.195834
0.000000 0.474189 0.151095
0.134585 0.472938 0.104219
0.247837 0.468910 0.087922
0.336065 0.463264 0.064637
0.433234 0.463508 0.046052
0.483101 0.396124 0.116060
0.530663 0.304967 0.156619
0.570581 0.234409 0.187900
0.607599 0.168124 0.216739
0.641718 0.128084 0.261784
0.672389 0.166476 0.320745
0.703090 0.204929 0.371588
0.733669 0.244541 0.417487
0.764096 0.285771 0.460304
0.794217 0.329442 0.501183
0.823911 0.375677 0.540887
0.852995 0.424475 0.579736
0.887022 0.457923 0.612909
0.923308 0.479500 0.641016
0.957214 0.502617 0.667872
0.000000 0.468269 0.301305
0.000000 0.467933 0.301305
0.000000 0.467536 0.301152
0.000000 0.467414 0.300786
0.000000 0.469734 0.299626
0.000000 0.473213 0.298070
0.000000 0.477607 0.295689
0.000000 0.483192 0.292638
0.000000 0.489876 0.288518
0.000000 0.496254 0.279301
0.000000 0.501213 0.261692
0.000000 0.506798 0.238376
0.000000 0.512749 0.206241
0.000000 0.518883 0.150271
0.159274 0.516533 0.113466
0.273075 0.512291 0.096315
0.364660 0.506188 0.072389
0.470527 0.512779 0.020783
0.520348 0.444709 0.118654
0.567712 0.358801 0.163699
0.609796 0.274022 0.198886
0.646448 0.218662 0.230076
0.682399 0.150332 0.260838
0.712642 0.185031 0.323888
0.742519 0.227512 0.379156
0.772366 0.271000 0.428626
0.801907 0.316106 0.474464
0.831052 0.363561 0.518090
0.859617 0.413825 0.560357
0.887846 0.464271 0.600977
0.915831 0.514366 0.640009
0.947570 0.551446 0.673335
0.000000 0.504570 0.324956
0.000000 0.504295 0.324895
0.000000 0.503868 0.324834
0.000000 0.503075 0.324590
0.000000 0.505394 0.323583
0.000000 0.508629 0.322057
0.000000 0.512718 0.320043
0.000000 0.517967 0.317296
0.000000 0.524376 0.313725
0.000000 0.532006 0.309209
0.000000 0.537560 0.295415
0.000000 0.543236 0.276158
0.000000 0.549584 0.250950
0.000000 0.556298 0.216464
0.000000 0.562219 0.144350
0.184421 0.559106 0.124941
0.298466 0.554467 0.107240
0.393042 0.548211 0.082734
0.507530 0.560693 0.000763
0.557153 0.492531 0.123049
0.604273 0.410468 0.172030
0.648463 0.312474 0.211154
0.684688 0.264164 0.244755
0.720119 0.213870 0.277836
0.752316 0.207370 0.327489
0.781399 0.253727 0.387671
0.810300 0.300938 0.440986
0.838865 0.350042 0.490181
0.866850 0.401556 0.536858
0.894499 0.454017 0.581323
0.921965 0.505333 0.623407
0.949218 0.556542 0.663874
0.000000 0.540673 0.348394
0.000000 0.540368 0.348333
0.000000 0.540063 0.348302
0.000000 0.539239 0.348089
0.000000 0.540673 0.347265
0.000000 0.543603 0.345892
0.000000 0.547509 0.343969
0.000000 0.552361 0.341405
0.000000 0.558312 0.338323
0.000000 0.565454 0.334386
0.000000 0.572656 0.326970
0.000000 0.578210 0.310765
0.000000 0.584375 0.290135
0.000000 0.591058 0.263249
0.000000 0.598230 0.227146
0.000000 0.603296 0.153384
0.210727 0.599878 0.139071
0.324193 0.595209 0.121279
0.421027 0.588739 0.097688
0.539910 0.603723 0.008362
0.593622 0.539147 0.129854
0.640497 0.459998 0.182315
0.685389 0.362432 0.224460
0.722499 0.307286 0.260960
0.757321 0.267216 0.296544
0.791257 0.234165 0.332708
0.819486 0.283452 0.397833
0.847379 0.334630 0.455329
0.874815 0.387732 0.508080
0.901823 0.442145 0.557610
0.928710 0.495216 0.603723
0.955352 0.547967 0.647456
0.000000 0.577356 0.372076
0.000000 0.577142 0.372015
0.000000 0.576806 0.371954
0.000000 0.576135 0.371832
0.000000 0.576410 0.371283
0.000000 0.579095 0.369909
0.000000 0.582666 0.368078
0.000000 0.586938 0.365667
0.000000 0.592279 0.362646
0.000000 0.598596 0.359045
0.000000 0.605951 0.354772
0.000000 0.612055 0.343084
0.000000 0.618006 0.325750
0.000000 0.624475 0.303929
0.000000 0.631403 0.275975
0.000000 0.638758 0.239017
0.000000 0.642664 0.170596
0.237766 0.639185 0.156222
0.350256 0.634424 0.138949
0.448676 0.627863 0.116518
0.564599 0.639612 0.058808
0.629908 0.584466 0.139559
0.676478 0.507683 0.195010
0.720851 0.418402 0.239384
0.759670 0.348852 0.278904
0.793881 0.316472 0.317113
0.827115 0.294194 0.356054
0.856687 0.316960 0.410559
0.883452 0.372259 0.472358
0.909819 0.428687 0.528649
0.936004 0.483894 0.580011
0.962036 0.538323 0.627955
0.000000 0.614069 0.395514
0.000000 0.613825 0.395483
0.000000 0.613581 0.395422
0.000000 0.613062 0.395422
0.000000 0.612116 0.395239
0.000000 0.614527 0.393896
0.000000 0.617609 0.392004
0.000000 0.621424 0.389593
0.000000 0.626062 0.386725
0.000000 0.631617 0.383246
0.000000 0.638087 0.379339
0.000000 0.645136 0.373724
0.000000 0.650721 0.358862
0.000000 0.656855 0.340642
0.000000 0.663447 0.317967
0.000000 0.670497 0.289647
0.000000 0.678004 0.253086
0.082673 0.680537 0.190768
0.265995 0.677028 0.176455
0.376806 0.672145 0.159457
0.476143 0.665461 0.138338
0.589715 0.672755 0.095979
0.665827 0.628717 0.152590
0.711971 0.554253 0.209964
0.755917 0.470954 0.256626
0.796262 0.389532 0.298833
0.829770 0.363561 0.339940
0.862119 0.349828 0.381964
0.892882 0.354498 0.426673
0.918517 0.413397 0.492683
0.943999 0.470985 0.551232
0.969360 0.527398 0.604639
0.000000 0.650690 0.418677
0.000000 0.650507 0.418708
0.000000 0.650324 0.418647
0.000000 0.649866 0.418677
0.000000 0.649042 0.418555
0.000000 0.649866 0.417670
0.000000 0.652491 0.415778
0.000000 0.655879 0.413458
0.000000 0.659846 0.410590
0.000000 0.664668 0.407233
0.000000 0.670344 0.403540
0.000000 0.676783 0.399695
0.000000 0.682795 0.390143
0.000000 0.688533 0.374548
0.000000 0.694667 0.355718
0.000000 0.701320 0.332769
0.000000 0.708339 0.304692
0.000000 0.715755 0.269596
0.142519 0.716976 0.213504
0.295293 0.713344 0.199527
0.403815 0.708461 0.182834
0.503593 0.701717 0.162753
0.614984 0.704738 0.129793
0.701564 0.671412 0.169100
0.747219 0.598932 0.227848
0.790494 0.521050 0.276585
0.831601 0.435462 0.321233
0.864866 0.409796 0.365332
0.896208 0.403204 0.410620
0.926146 0.413062 0.457374
0.952636 0.456397 0.515770
0.977264 0.515129 0.576471
0.000000 0.687282 0.441657
0.000000 0.687160 0.441657
0.000000 0.686946 0.441657
0.000000 0.686580 0.441688
0.000000 0.685908 0.441657
0.000000 0.685267 0.441535
0.000000 0.687556 0.439673
0.000000 0.690364 0.437263
0.000000 0.693812 0.434424
0.000000 0.697932 0.431128
0.000000 0.702754 0.427558
0.000000 0.708309 0.423835
0.000000 0.714504 0.420233
0.000000 0.719753 0.406683
0.000000 0.725399 0.390600
0.000000 0.731533 0.371588
0.000000 0.738003 0.348943
0.000000 0.744900 0.321904
0.000000 0.752071 0.289433
0.190585 0.751888 0.239017
0.325658 0.748348 0.225193
0.431678 0.743343 0.209110
0.531121 0.736629 0.190158
0.639673 0.735836 0.162814
0.736965 0.713008 0.188754
0.782040 0.642542 0.248631
0.824582 0.569238 0.299596
0.864805 0.493294 0.346563
0.899107 0.455818 0.393530
0.929381 0.456092 0.442237
0.958312 0.471138 0.491463
0.985840 0.501183 0.541924
0.000000 0.723873 0.464424
0.000000 0.723781 0.464454
0.000000 0.723629 0.464454
0.000000 0.723262 0.464515
0.000000 0.722774 0.464515
0.000000 0.722011 0.464607
0.000000 0.722713 0.463539
0.000000 0.725093 0.461158
0.000000 0.728023 0.458350
0.000000 0.731502 0.455085
0.000000 0.735561 0.451514
0.000000 0.740200 0.447852
0.000000 0.745418 0.444617
0.000000 0.750729 0.437568
0.000000 0.755856 0.423621
0.000000 0.761410 0.407416
0.000000 0.767269 0.388556
0.000000 0.773495 0.366827
0.000000 0.780026 0.341741
0.070985 0.786557 0.307683
0.235203 0.785489 0.267277
0.357641 0.781827 0.253696
0.460456 0.776913 0.238193
0.558923 0.770138 0.220005
0.664179 0.766018 0.196445
0.772061 0.753323 0.211582
0.816342 0.684749 0.272770
0.858091 0.615930 0.325689
0.897337 0.548241 0.375341
0.932464 0.502068 0.424811
0.961669 0.508354 0.476661
0.989715 0.527306 0.527489
0.000000 0.760525 0.487037
0.000000 0.760433 0.487068
0.000000 0.760311 0.487068
0.000000 0.760037 0.487129
0.000000 0.759609 0.487251
0.000000 0.759060 0.487312
0.000000 0.758358 0.487465
0.000000 0.760189 0.485206
0.000000 0.762570 0.482338
0.000000 0.765438 0.479103
0.000000 0.768795 0.475593
0.000000 0.772580 0.471992
0.000000 0.776852 0.468757
0.000000 0.781643 0.466468
0.000000 0.786252 0.455390
0.000000 0.791165 0.441382
0.000000 0.796414 0.425422
0.000000 0.801907 0.407385
0.000000 0.807736 0.387213
0.000000 0.813779 0.364721
0.144533 0.819303 0.325780
0.279088 0.817655 0.298344
0.390936 0.814023 0.285191
0.490333 0.809079 0.269963
0.587121 0.802365 0.252506
0.688716 0.795285 0.231449
0.806729 0.792142 0.238010
0.850217 0.725795 0.300175
0.890929 0.661402 0.355352
0.929137 0.601160 0.407843
0.964874 0.549126 0.459419
0.993133 0.559838 0.513054
0.000000 0.797116 0.509422
0.000000 0.797055 0.509453
0.000000 0.796963 0.509453
0.000000 0.796750 0.509545
0.000000 0.796414 0.509667
0.000000 0.795987 0.509819
0.000000 0.795407 0.510033
0.000000 0.795529 0.509361
0.000000 0.797452 0.506493
0.000000 0.799802 0.503258
0.000000 0.802518 0.499825
0.000000 0.805539 0.496284
0.000000 0.808957 0.493111
0.000000 0.812711 0.490761
0.000000 0.816739 0.486519
0.000000 0.821012 0.474220
0.000000 0.825528 0.460487
0.000000 0.830350 0.445258
0.000000 0.835355 0.428534
0.000000 0.840574 0.410529
0.147219 0.845975 0.391424
0.201205 0.850614 0.348211
0.323888 0.848356 0.332372
0.426246 0.844816 0.319371
0.521538 0.839963 0.304692
0.616236 0.833341 0.287938
0.714199 0.824369 0.268315
0.841001 0.829648 0.267948
0.883482 0.765743 0.331365
0.923125 0.705837 0.388922
0.960143 0.652827 0.444312
0.994781 0.609857 0.497505
0.000000 0.833616 0.531609
0.000000 0.833555 0.531670
0.000000 0.833494 0.531670
0.000000 0.833341 0.531792
0.000000 0.833066 0.531914
0.000000 0.832761 0.532158
0.000000 0.832334 0.532403
0.000000 0.831815 0.532738
0.000000 0.832731 0.530816
0.000000 0.834562 0.527642
0.000000 0.836637 0.524224
0.000000 0.839017 0.520775
0.000000 0.841642 0.517632
0.000000 0.844480 0.515373
0.000000 0.847501 0.514641
0.000000 0.850980 0.506584
0.000000 0.854795 0.494636
0.000000 0.858854 0.481575
0.000000 0.863096 0.467506
0.000000 0.867491 0.452674
0.146304 0.872038 0.437354
0.220676 0.876677 0.422126
0.263371 0.880247 0.380713
0.370184 0.877806 0.369421
0.463935 0.874327 0.356817
0.554498 0.869596 0.342626
0.646387 0.863096 0.326452
0.742306 0.854337 0.307897
0.873777 0.865385 0.301701
0.916167 0.804623 0.366369
0.954650 0.749416 0.426612
0.990509 0.702937 0.483589
0.000000 0.869841 0.553582
0.000000 0.869780 0.553613
0.000000 0.869718 0.553613
0.000000 0.869657 0.553765
0.000000 0.869444 0.553948
0.000000 0.869230 0.554192
0.000000 0.868956 0.554498
0.000000 0.868589 0.554864
0.000000 0.868193 0.555322
0.000000 0.869596 0.552178
0.000000 0.871183 0.548821
0.000000 0.872953 0.545525
0.000000 0.874876 0.542504
0.000000 0.876890 0.540307
0.000000 0.878996 0.539574
0.000000 0.881193 0.538994
0.000000 0.884337 0.528496
0.000000 0.887633 0.517205
0.000000 0.891051 0.505364
0.000000 0.894621 0.492958
0.158907 0.898283 0.480507
0.230411 0.902037 0.468391
0.287938 0.905791 0.457099
0.328038 0.908293 0.420539
0.418830 0.905943 0.409735
0.504356 0.902586 0.397559
0.589807 0.898009 0.383795
0.678126 0.891722 0.368292
0.771206 0.883268 0.350652
0.895079 0.892546 0.342046
0.948180 0.842557 0.405707
0.985534 0.791928 0.467353
0.000000 0.905577 0.575311
0.000000 0.905577 0.575341
0.000000 0.905547 0.575402
0.000000 0.905486 0.575494
0.000000 0.905394 0.575738
0.000000 0.905241 0.575982
0.000000 0.905089 0.576379
0.000000 0.904906 0.576776
0.000000 0.904631 0.577295
0.000000 0.904753 0.576806
0.000000 0.905943 0.573602
0.000000 0.907195 0.570459
0.000000 0.908507 0.567712
0.000000 0.909819 0.565759
0.000000 0.911070 0.565179
