其他预设/【213】赛博朋克科幻预设52款/1.LUT预设（视频调色-PR-AE-PS-FCPX-达芬奇用）/赛博朋克科幻__-5 强度2.cube
# Created by Adobe Lightroom plugin Export LUT (1.17.0)
# www.johnrellis.com/lightroom/exportlut.htm
# Preset: 赛博朋克科幻[素锦印象]-5 强度2
# Color profile: /Library/Application Support/Adobe/Color/Profiles/Recommended/AdobeRGB1998.icc
LUT_3D_SIZE 5
DOMAIN_MIN 0.000000 0.000000 0.000000
DOMAIN_MAX 0.903226 0.903226 0.903226
0.049470 0.048371 0.041199
0.208835 0.000000 0.092439
0.482246 0.000000 0.176455
0.755367 0.000000 0.270787
0.965667 0.000000 0.359167
0.000000 0.241001 0.144472
0.193881 0.210941 0.029358
0.484321 0.000000 0.048524
0.759945 0.000000 0.186923
0.970336 0.000000 0.293889
0.000000 0.579950 0.341314
0.000000 0.559380 0.262150
0.451392 0.495277 0.000000
0.752193 0.311070 0.000000
0.976074 0.000000 0.021515
0.000000 0.837034 0.511864
0.000000 0.829160 0.474067
0.000000 0.807187 0.241947
0.682856 0.748959 0.000000
0.962860 0.557000 0.000000
0.000000 1.000000 0.638025
0.000000 1.000000 0.620722
0.000000 0.996796 0.551904
0.000000 0.995178 0.197726
0.868406 0.946838 0.000000
0.000000 0.060090 0.183261
0.197940 0.000000 0.183688
0.491310 0.000000 0.281315
0.757168 0.000000 0.352667
0.966217 0.000000 0.408026
0.000000 0.203098 0.190341
0.201694 0.197238 0.172244
0.481331 0.004669 0.225498
0.754788 0.000000 0.303502
0.967010 0.000000 0.372351
0.000000 0.579614 0.400916
0.000000 0.553948 0.343633
0.452399 0.487800 0.140871
0.754269 0.296178 0.171664
0.977295 0.000000 0.181643
0.000000 0.837583 0.553246
0.000000 0.829038 0.520562
0.000000 0.802976 0.341375
0.686183 0.746029 0.106813
0.961944 0.559533 0.202853
0.000000 1.000000 0.665126
0.000000 1.000000 0.648829
0.211612 0.992462 0.609400
0.235721 0.991211 0.321447
0.872740 0.945495 0.221866
0.000000 0.029603 0.490211
0.143526 0.000000 0.468116
0.474281 0.000000 0.453162
0.757778 0.000000 0.549248
0.970367 0.000000 0.573358
0.000000 0.291508 0.498360
0.000000 0.178042 0.475929
0.472084 0.000000 0.447089
0.759243 0.000000 0.526757
0.973388 0.000000 0.546410
0.000000 0.512902 0.503014
0.000000 0.501213 0.485176
0.472023 0.462898 0.412116
0.745235 0.393652 0.459632
0.959930 0.274846 0.507103
0.000000 0.844968 0.692012
0.000000 0.835996 0.668330
0.363653 0.795712 0.581598
0.702083 0.735348 0.415534
0.956023 0.586053 0.450019
0.000000 1.000000 0.759548
0.000000 1.000000 0.745510
0.187015 0.996735 0.708766
0.503655 0.978088 0.574975
0.886900 0.940887 0.463874
0.000000 0.000000 0.779507
0.000000 0.000000 0.770535
0.379278 0.000000 0.737942
0.715145 0.000000 0.728939
0.958862 0.000000 0.792294
0.000000 0.273503 0.782162
0.000000 0.159792 0.775753
0.360082 0.000000 0.743191
0.715480 0.000000 0.727535
0.960662 0.000000 0.789975
0.000000 0.564202 0.794888
0.000000 0.563043 0.790402
0.414130 0.483009 0.753994
0.720546 0.328496 0.716396
0.967285 0.000000 0.742550
0.000000 0.754330 0.782071
0.000000 0.754055 0.776852
0.439704 0.752987 0.754574
0.723140 0.715694 0.676112
0.941711 0.667811 0.712520
0.000000 1.000000 0.919829
0.000000 1.000000 0.909850
0.127993 1.000000 0.874571
0.667750 0.971008 0.815915
0.905119 0.933410 0.689357
0.000000 0.148135 0.969787
0.000000 0.000000 0.968017
0.000000 0.000000 0.958862
0.557519 0.000000 0.940826
0.892332 0.000000 0.942870
0.000000 0.191287 0.971496
0.000000 0.000000 0.970153
0.000000 0.000000 0.961151
0.550805 0.000000 0.943359
0.890623 0.000000 0.944152
0.000000 0.563775 0.973938
0.051331 0.572290 0.970245
0.180789 0.432227 0.966522
0.533562 0.253819 0.949615
0.891936 0.000000 0.946380
0.000000 0.737179 0.972717
0.000000 0.745388 0.971740
0.513573 0.784543 0.967529
0.722042 0.761746 0.952880
0.910460 0.591577 0.934813
0.000000 0.902953 0.966247
0.000000 0.905516 0.965454
0.345647 0.917601 0.961364
0.730861 0.935485 0.953338
0.921721 0.919249 0.906737
