其他预设/【213】赛博朋克科幻预设52款/1.LUT预设（视频调色-PR-AE-PS-FCPX-达芬奇用）/赛博朋克科幻__-6 强度4.cube
# Created by Adobe Lightroom plugin Export LUT (1.17.0)
# www.johnrellis.com/lightroom/exportlut.htm
# Preset: 赛博朋克科幻[素锦印象]-6 强度4
# Color profile: /Library/Application Support/Adobe/Color/Profiles/Recommended/AdobeRGB1998.icc
LUT_3D_SIZE 5
DOMAIN_MIN 0.000000 0.000000 0.000000
DOMAIN_MAX 0.903226 0.903226 0.903226
0.109743 0.088228 0.082765
0.222324 0.000000 0.109407
0.439704 0.000000 0.189639
0.710567 0.000000 0.299962
0.931273 0.000000 0.379706
0.216098 0.215824 0.033997
0.245518 0.187564 0.048096
0.472755 0.000000 0.106813
0.731075 0.000000 0.269078
0.938109 0.000000 0.362432
0.365972 0.379614 0.000000
0.388434 0.377264 0.000000
0.478767 0.371801 0.000000
0.771817 0.422889 0.000000
0.962310 0.000000 0.199130
0.536797 0.572747 0.000000
0.552880 0.573144 0.000000
0.620325 0.584649 0.000000
0.744686 0.587243 0.000000
0.952972 0.587701 0.000000
0.759487 0.836484 0.000000
0.771756 0.836149 0.000000
0.815579 0.834775 0.000000
0.902251 0.839811 0.000000
0.963531 0.768490 0.000000
0.117067 0.076051 0.221958
0.238193 0.000000 0.231510
0.425299 0.000000 0.276097
0.686580 0.000000 0.370642
0.922454 0.000000 0.434791
0.159976 0.217716 0.112367
0.234348 0.211185 0.184634
0.449592 0.016480 0.243503
0.711208 0.000000 0.344793
0.929656 0.000000 0.419989
0.371984 0.379065 0.000000
0.393225 0.379553 0.000000
0.482246 0.376043 0.000000
0.771328 0.381964 0.107454
0.956115 0.150271 0.331762
0.542596 0.571954 0.000000
0.559350 0.572107 0.000000
0.629938 0.588403 0.000000
0.747982 0.585229 0.000000
0.956420 0.587518 0.000000
0.761074 0.836820 0.000000
0.773312 0.836484 0.000000
0.817014 0.835172 0.000000
0.903838 0.840330 0.000000
0.964324 0.766964 0.000000
0.154269 0.000000 0.469764
0.280247 0.000000 0.473945
0.485634 0.000000 0.492531
0.683345 0.000000 0.520592
0.904845 0.000000 0.566217
0.087190 0.228458 0.438849
0.242069 0.189059 0.445502
0.473091 0.000000 0.468788
0.692561 0.000000 0.508019
0.909850 0.000000 0.552636
0.217563 0.389746 0.135836
0.265690 0.403113 0.186740
0.473365 0.448188 0.380591
0.729213 0.335210 0.441382
0.935332 0.000000 0.482979
0.517052 0.581842 0.000000
0.534539 0.583825 0.000000
0.600641 0.591028 0.000000
0.750942 0.600244 0.000000
0.958221 0.606226 0.301854
0.768826 0.837247 0.000000
0.779141 0.837644 0.000000
0.816159 0.838865 0.000000
0.904875 0.842527 0.000000
0.967071 0.762081 0.000000
0.189883 0.000000 0.679683
0.292515 0.000000 0.681117
0.485145 0.000000 0.686946
0.674922 0.000000 0.697292
0.887785 0.000000 0.738247
0.112551 0.180514 0.670314
0.255985 0.143832 0.672358
0.471626 0.000000 0.679500
0.678462 0.000000 0.691554
0.899046 0.000000 0.735225
0.000000 0.521080 0.619593
0.239414 0.489448 0.632959
0.472877 0.426917 0.647944
0.690455 0.289647 0.666194
0.918669 0.000000 0.700343
0.256779 0.564813 0.123964
0.287022 0.574609 0.165164
0.412696 0.612634 0.299901
0.734279 0.707454 0.594720
0.920562 0.626551 0.627558
0.680720 0.841672 0.000000
0.696407 0.842435 0.000000
0.747189 0.845274 0.000000
0.849516 0.845914 0.000000
0.960327 0.777127 0.112703
0.195956 0.000000 0.802823
0.269718 0.000000 0.803250
0.425971 0.000000 0.804776
0.595850 0.000000 0.807614
0.763973 0.000000 0.811734
0.155001 0.098451 0.800687
0.247745 0.000000 0.801297
0.424353 0.000000 0.803464
0.602472 0.000000 0.806882
0.770535 0.000000 0.811276
0.249668 0.452399 0.788388
0.328740 0.449500 0.788876
0.448524 0.380499 0.793088
0.604211 0.148226 0.800717
0.790158 0.000000 0.809506
0.124910 0.788479 0.743862
0.268742 0.771542 0.747982
0.530175 0.722194 0.761166
0.725093 0.687221 0.771847
0.846799 0.528710 0.787472
0.295232 0.879759 0.000000
0.311711 0.878721 0.000000
0.379950 0.874174 0.177249
0.563226 0.860594 0.409583
0.912047 0.884276 0.740627
