其他预设/【213】赛博朋克科幻预设52款/1.LUT预设（视频调色-PR-AE-PS-FCPX-达芬奇用）/赛博朋克科幻__-10 强度4.cube
# Created by Adobe Lightroom plugin Export LUT (1.17.0)
# www.johnrellis.com/lightroom/exportlut.htm
# Preset: 赛博朋克科幻[素锦印象]-10 强度4
# Color profile: /Library/Application Support/Adobe/Color/Profiles/Recommended/AdobeRGB1998.icc
LUT_3D_SIZE 8
DOMAIN_MIN 0.000000 0.000000 0.000000
DOMAIN_MAX 0.903226 0.903226 0.903226
0.069398 0.068391 0.063142
0.120607 0.081544 0.079805
0.268864 0.167330 0.159457
0.415961 0.274235 0.252720
0.550042 0.379339 0.342718
0.672206 0.478706 0.427161
0.778347 0.590661 0.517998
0.869352 0.700404 0.605615
0.000000 0.208103 0.088228
0.142641 0.150851 0.068513
0.262760 0.174289 0.155734
0.412848 0.271824 0.250584
0.548180 0.377752 0.341375
0.671290 0.477760 0.426398
0.778012 0.590234 0.517693
0.869322 0.700374 0.605585
0.000000 0.432319 0.159396
0.000000 0.421546 0.099214
0.311070 0.327733 0.140627
0.409705 0.327794 0.263035
0.544549 0.400793 0.345281
0.667842 0.478096 0.424140
0.776852 0.588891 0.516564
0.869230 0.700252 0.605463
0.000000 0.616541 0.222660
0.000000 0.612116 0.192813
0.181765 0.589593 0.116060
0.469245 0.489937 0.238315
0.543206 0.468269 0.363653
0.667811 0.533074 0.439368
0.775692 0.613336 0.521599
0.868772 0.703365 0.605066
0.000000 0.766629 0.272435
0.000000 0.764736 0.254337
0.000000 0.754360 0.207340
0.394049 0.730220 0.204685
0.611780 0.635218 0.328130
0.667292 0.598108 0.458686
0.776944 0.664607 0.538598
0.869505 0.736995 0.613977
0.000000 0.876005 0.309026
0.000000 0.875334 0.295964
0.000000 0.870268 0.268315
0.263249 0.855589 0.272587
0.550286 0.836118 0.295933
0.733822 0.756222 0.424018
0.778683 0.720211 0.557977
0.872679 0.780819 0.630640
0.000000 0.967803 0.331304
0.000000 0.967437 0.329137
0.000000 0.965118 0.306432
0.000000 0.955169 0.321660
0.493996 0.938201 0.379889
0.687495 0.922820 0.400610
0.841672 0.858000 0.531487
0.877012 0.826932 0.649165
0.000000 1.000000 0.339300
0.000000 1.000000 0.338750
0.000000 1.000000 0.328099
0.000000 1.000000 0.348394
0.464271 1.000000 0.440772
0.676417 1.000000 0.501579
0.812314 0.990112 0.519188
0.934478 0.942504 0.634424
0.069642 0.065797 0.115084
0.129183 0.067536 0.099245
0.259129 0.161929 0.166293
0.405890 0.267124 0.254124
0.544640 0.375341 0.342046
0.670893 0.477424 0.426123
0.778073 0.590326 0.517754
0.869596 0.700710 0.605859
0.000000 0.182467 0.141573
0.152712 0.149477 0.131350
0.272709 0.198947 0.186160
0.402777 0.266453 0.255131
0.541466 0.372900 0.341863
0.669398 0.476204 0.425757
0.777829 0.590021 0.517479
0.869566 0.700679 0.605859
0.000000 0.417029 0.197879
0.000000 0.400549 0.170443
0.314702 0.324285 0.189914
0.419867 0.344488 0.285313
0.551202 0.415869 0.361730
0.669642 0.487037 0.433722
0.776577 0.588617 0.516594
0.869535 0.700649 0.605798
0.000000 0.606775 0.246189
0.000000 0.600183 0.227298
0.189242 0.578027 0.177829
0.470802 0.487098 0.266300
0.549371 0.476722 0.376593
0.672084 0.541680 0.450080
0.778408 0.620996 0.529656
0.869139 0.703914 0.605463
0.000000 0.761257 0.289464
0.000000 0.759060 0.276341
0.000000 0.748409 0.240848
0.397681 0.724147 0.239872
0.612848 0.633478 0.345556
0.671229 0.603265 0.467475
0.779538 0.669642 0.545251
0.871244 0.740932 0.618585
0.000000 0.873472 0.321355
0.000000 0.872557 0.311376
0.000000 0.867308 0.288762
0.270268 0.852659 0.292851
0.554070 0.832975 0.318669
0.735042 0.755306 0.436072
0.781186 0.723262 0.563439
0.874388 0.783566 0.634485
0.000000 0.966674 0.344244
0.000000 0.966400 0.339208
0.000000 0.963867 0.320287
0.000000 0.953857 0.334905
0.500511 0.936431 0.394293
0.691493 0.921233 0.416144
0.842771 0.857755 0.538689
0.878660 0.828702 0.652369
0.000000 1.000000 0.348272
0.000000 1.000000 0.347753
0.000000 1.000000 0.337285
0.000000 1.000000 0.356451
0.462013 1.000000 0.445289
0.680476 1.000000 0.510094
0.814969 0.989471 0.528008
0.935241 0.942504 0.638239
0.085481 0.039124 0.225650
0.181064 0.000000 0.230564
0.276127 0.107546 0.202090
0.392401 0.258427 0.267155
0.528923 0.364324 0.349126
0.657130 0.466590 0.430243
0.774014 0.586358 0.519646
0.871061 0.702571 0.607355
0.000000 0.123873 0.235203
0.157687 0.088960 0.243290
0.286503 0.139620 0.216190
0.388952 0.259709 0.269139
0.524529 0.361089 0.348669
0.655177 0.465003 0.430030
0.773129 0.585412 0.519554
0.871061 0.702571 0.607355
0.000000 0.371923 0.277409
0.000000 0.361944 0.273594
0.323827 0.315740 0.269383
0.436255 0.367864 0.323400
0.550622 0.426032 0.382483
0.660975 0.486641 0.442573
0.769924 0.582025 0.519463
0.870054 0.701503 0.607752
0.000000 0.586053 0.316655
0.000000 0.578790 0.306584
0.192508 0.552483 0.284642
0.474281 0.478767 0.327092
0.567193 0.498512 0.410376
0.684657 0.565270 0.479744
0.787137 0.641962 0.552514
0.871397 0.710750 0.615015
0.000000 0.749722 0.345037
0.000000 0.745907 0.336919
0.000000 0.731746 0.319066
0.398047 0.705806 0.316594
0.615320 0.627283 0.392187
0.683253 0.618677 0.493599
0.788144 0.684627 0.565209
0.877165 0.752834 0.632715
0.000000 0.866941 0.364050
0.000000 0.865110 0.357977
0.000000 0.858091 0.346105
0.282109 0.843595 0.348363
0.563195 0.822690 0.378943
0.738582 0.752163 0.471717
0.789456 0.732906 0.580377
0.880156 0.792142 0.646754
0.000000 0.963470 0.381659
0.000000 0.963134 0.374151
0.000000 0.959930 0.362432
0.026032 0.949981 0.374304
0.515068 0.931151 0.434058
0.703151 0.916045 0.461524
0.846220 0.856870 0.560967
0.884184 0.834592 0.662745
0.000000 1.000000 0.377569
0.000000 1.000000 0.376349
0.000000 1.000000 0.367376
0.000000 1.000000 0.381170
0.448341 1.000000 0.458625
0.691768 0.999878 0.535973
0.822751 0.987457 0.554772
0.937774 0.942565 0.650446
0.118959 0.000000 0.319829
0.195010 0.000000 0.326574
0.337194 0.000000 0.331304
0.415137 0.177584 0.301549
0.511681 0.352728 0.359808
0.644648 0.457557 0.438361
0.766598 0.579370 0.525444
0.869780 0.701900 0.612604
0.091402 0.000244 0.328801
0.184146 0.000000 0.334539
0.340581 0.000000 0.341436
0.417456 0.159518 0.305913
0.507683 0.349828 0.359106
0.641810 0.455299 0.437964
0.765469 0.578149 0.525353
0.869718 0.701808 0.612787
0.000000 0.289342 0.339269
0.000000 0.269993 0.340063
0.292271 0.234592 0.359289
0.439551 0.303563 0.339269
0.526757 0.403449 0.385107
0.644465 0.472847 0.448157
0.761959 0.574487 0.525139
0.868894 0.700954 0.613336
0.000000 0.531975 0.393317
0.000000 0.527764 0.391852
0.131624 0.509850 0.389105
0.476081 0.463630 0.391943
0.582086 0.516472 0.444953
0.686213 0.573968 0.501152
0.781155 0.635492 0.558221
0.866941 0.698939 0.614343
0.000000 0.728695 0.423529
0.000000 0.724880 0.418891
0.000000 0.710140 0.407416
0.379980 0.679866 0.401678
0.616419 0.615473 0.448646
0.700984 0.639948 0.528099
0.801724 0.705196 0.592798
0.887022 0.769314 0.653010
0.000000 0.855863 0.429877
0.000000 0.853910 0.426093
0.000000 0.846006 0.418738
0.276707 0.830014 0.419318
0.567010 0.805417 0.448463
0.742336 0.746273 0.517235
0.802518 0.747127 0.604517
0.889769 0.804776 0.664820
0.000000 0.958434 0.434852
0.000000 0.957794 0.430732
0.000000 0.954314 0.423072
0.000000 0.945068 0.428199
0.497993 0.926574 0.469245
0.714473 0.908049 0.516777
0.851011 0.855253 0.591852
0.893431 0.843809 0.678523
0.000000 1.000000 0.428260
0.000000 1.000000 0.427131
0.000000 1.000000 0.416876
0.000000 1.000000 0.415930
0.402808 1.000000 0.476173
0.703059 0.996918 0.571008
0.832090 0.984649 0.591241
0.941711 0.942718 0.668696
0.152377 0.000000 0.396368
0.207614 0.000000 0.402594
0.339818 0.000000 0.422889
0.464363 0.000000 0.408881
0.537774 0.260655 0.391211
0.626062 0.444312 0.448127
0.757107 0.570642 0.533898
0.866728 0.699641 0.620569
0.170016 0.000000 0.402808
0.220737 0.000000 0.408515
0.345342 0.000000 0.427405
0.466285 0.000000 0.414435
0.539117 0.249699 0.393622
0.623560 0.442359 0.447608
0.756008 0.569574 0.533806
0.866667 0.699580 0.620783
0.000000 0.199985 0.395056
0.000000 0.179080 0.407721
0.279850 0.150301 0.429786
0.472877 0.122683 0.441260
0.548943 0.296178 0.410224
0.618341 0.442817 0.448951
0.752682 0.566033 0.533593
0.866636 0.699672 0.621576
0.000000 0.430945 0.432685
0.000000 0.422614 0.432776
0.084291 0.388556 0.432776
0.427283 0.375891 0.458778
0.574578 0.449989 0.449744
0.658961 0.539513 0.495125
0.764706 0.607050 0.554162
0.867613 0.700984 0.623102
0.000000 0.670588 0.493690
0.000000 0.667994 0.492988
0.000000 0.657496 0.491524
0.323705 0.635401 0.492317
0.611048 0.594720 0.500511
0.712581 0.651270 0.555047
0.804410 0.705501 0.606561
0.884367 0.755825 0.653529
0.000000 0.838346 0.509545
0.000000 0.836393 0.507469
0.000000 0.828519 0.502403
0.223667 0.812894 0.498909
0.530175 0.787991 0.506065
0.742916 0.735958 0.560449
0.819089 0.763272 0.631434
0.902708 0.818936 0.685847
0.000000 0.950164 0.504936
0.000000 0.949432 0.502556
0.000000 0.945861 0.497627
0.000000 0.937682 0.497200
0.440589 0.923400 0.510643
0.713405 0.898131 0.566766
0.855650 0.852537 0.624872
0.905821 0.855161 0.697505
0.000000 1.000000 0.493568
0.000000 1.000000 0.492714
0.000000 1.000000 0.483864
0.000000 1.000000 0.475502
0.260716 1.000000 0.495552
0.669337 0.998993 0.584253
0.838346 0.981811 0.629603
0.946685 0.943023 0.690669
0.175784 0.000000 0.468330
0.218692 0.000000 0.473945
0.331548 0.000000 0.492714
0.485389 0.000000 0.522545
0.588128 0.000000 0.487648
0.660609 0.350011 0.481361
0.744381 0.559045 0.544244
0.863035 0.697078 0.631250
0.193790 0.000000 0.473243
0.231510 0.000000 0.478340
0.336675 0.000000 0.496223
0.486671 0.000000 0.525780
0.589502 0.000000 0.491798
0.661555 0.343053 0.482918
0.743404 0.558007 0.544182
0.862943 0.697047 0.631464
0.000000 0.107271 0.472755
0.102266 0.091493 0.478248
0.284550 0.000000 0.497414
0.465644 0.000000 0.530327
0.594720 0.000000 0.507408
0.664881 0.318425 0.488930
0.740139 0.554681 0.543969
0.862943 0.697139 0.632319
0.000000 0.335332 0.463630
0.000000 0.322118 0.462684
0.000000 0.282139 0.474739
0.390387 0.282597 0.521172
0.602686 0.305364 0.540215
0.679103 0.434394 0.514488
0.743069 0.571679 0.552483
0.863767 0.698299 0.634058
0.000000 0.570001 0.528862
0.000000 0.564599 0.528344
0.000000 0.543664 0.526207
0.224765 0.497749 0.521904
0.539971 0.486122 0.551965
0.699916 0.575647 0.550958
0.777707 0.664302 0.594842
0.871672 0.720089 0.645228
0.000000 0.793210 0.582208
0.000000 0.791531 0.581842
0.000000 0.784878 0.581170
0.072663 0.771450 0.581506
0.450690 0.749386 0.585260
0.732753 0.712917 0.598413
0.829709 0.770230 0.652552
0.906889 0.815213 0.695369
0.000000 0.938140 0.585687
0.000000 0.937316 0.584527
0.000000 0.933776 0.581750
0.000000 0.926116 0.579889
0.373754 0.912688 0.582238
0.667567 0.888396 0.605066
0.857816 0.845853 0.659449
0.921721 0.869200 0.720241
0.000000 1.000000 0.569451
0.000000 1.000000 0.568902
0.000000 1.000000 0.562127
0.000000 1.000000 0.555840
0.066163 1.000000 0.559899
0.576471 1.000000 0.596124
0.838468 0.978180 0.669306
0.952789 0.943267 0.717220
0.190890 0.000000 0.556634
0.228672 0.000000 0.561120
0.331273 0.000000 0.576379
0.471626 0.000000 0.601648
0.622950 0.000000 0.613428
0.726101 0.065736 0.580163
0.783200 0.474220 0.575647
0.859068 0.694728 0.644739
0.199771 0.000000 0.559716
0.235172 0.000000 0.563958
0.333593 0.000000 0.578576
0.471443 0.000000 0.603235
0.622248 0.000000 0.615747
0.726589 0.000000 0.582788
0.783993 0.470039 0.576532
0.859037 0.694697 0.644984
0.126436 0.000000 0.561700
0.184421 0.000000 0.566369
0.312047 0.000000 0.582116
0.467048 0.000000 0.607935
0.618402 0.000000 0.623651
0.728054 0.000000 0.592401
0.786740 0.455482 0.580041
0.859007 0.694789 0.645930
0.000000 0.252079 0.531518
0.000000 0.236606 0.539849
0.000000 0.187869 0.565820
0.368505 0.141665 0.596521
0.586603 0.000000 0.634974
0.729549 0.138949 0.610651
0.791348 0.429755 0.586938
0.859617 0.695796 0.647913
0.000000 0.484077 0.570825
0.000000 0.474678 0.569055
0.000000 0.437446 0.561975
0.000000 0.354894 0.551171
0.477974 0.361913 0.613672
0.721981 0.405646 0.636347
0.799893 0.552911 0.610620
0.860899 0.697688 0.650843
0.000000 0.716121 0.633356
0.000000 0.711910 0.632624
0.000000 0.695827 0.629664
0.000000 0.661494 0.623194
0.268711 0.592828 0.610315
0.637537 0.578851 0.637873
0.814511 0.691432 0.643763
0.887541 0.775662 0.685328
0.000000 0.912779 0.667323
0.000000 0.911803 0.667140
0.000000 0.907713 0.666682
0.000000 0.899016 0.666682
0.226658 0.883268 0.667964
0.572534 0.855619 0.673152
0.844907 0.821836 0.688655
0.933257 0.875395 0.738766
0.000000 1.000000 0.653071
0.000000 1.000000 0.652857
0.000000 1.000000 0.649287
0.000000 1.000000 0.646418
0.000000 1.000000 0.647395
0.498543 1.000000 0.660304
0.789975 0.977935 0.694606
0.958953 0.942168 0.747738
0.194034 0.000000 0.675471
0.232425 0.000000 0.677974
0.333928 0.000000 0.686671
0.467628 0.000000 0.701503
0.623407 0.000000 0.721523
0.773739 0.000000 0.714260
0.866850 0.343175 0.677882
0.899931 0.647120 0.676173
0.192508 0.000000 0.677028
0.230686 0.000000 0.679469
0.331823 0.000000 0.687892
0.465064 0.000000 0.702510
0.620600 0.000000 0.722255
0.772000 0.000000 0.715969
0.867247 0.336248 0.679652
0.900572 0.645533 0.676722
0.168795 0.000000 0.681270
0.210697 0.000000 0.683558
0.316747 0.000000 0.691554
0.452216 0.000000 0.705470
0.608606 0.000000 0.724544
0.764981 0.000000 0.721981
0.868498 0.309789 0.686061
0.902831 0.639857 0.678706
0.000000 0.106294 0.673304
0.000000 0.085664 0.676448
0.127993 0.000000 0.687312
0.382422 0.000000 0.705257
0.580041 0.000000 0.727718
0.748135 0.000000 0.732601
0.869993 0.249027 0.698756
0.906859 0.630030 0.682490
0.000000 0.423316 0.660304
0.000000 0.408667 0.657832
0.000000 0.352880 0.654658
0.000000 0.236942 0.683436
0.443275 0.173587 0.713680
0.698909 0.000000 0.745754
0.865568 0.165072 0.717098
0.912779 0.613764 0.688746
0.000000 0.663050 0.711482
0.000000 0.656092 0.710384
0.000000 0.628992 0.705959
0.000000 0.568627 0.695613
0.000000 0.433570 0.671809
0.555352 0.412329 0.722255
0.842191 0.480171 0.736599
0.918608 0.666682 0.704982
0.000000 0.875944 0.749630
0.000000 0.873106 0.749294
0.000000 0.861936 0.747982
0.000000 0.838437 0.744808
0.000000 0.793851 0.737850
0.271702 0.702602 0.721431
0.731197 0.662806 0.732204
0.926635 0.799619 0.733669
0.000000 1.000000 0.750668
0.000000 1.000000 0.750820
0.000000 1.000000 0.751034
0.000000 1.000000 0.750973
0.000000 1.000000 0.752316
0.305699 0.997925 0.755642
0.685695 0.963287 0.761532
0.951019 0.924926 0.773983
