其他预设/【213】赛博朋克科幻预设52款/1.LUT预设（视频调色-PR-AE-PS-FCPX-达芬奇用）/赛博朋克科幻__-11 强度4.cube
# Created by Adobe Lightroom plugin Export LUT (1.17.0)
# www.johnrellis.com/lightroom/exportlut.htm
# Preset: 赛博朋克科幻[素锦印象]-11 强度4
# Color profile: /Library/Application Support/Adobe/Color/Profiles/Recommended/AdobeRGB1998.icc
LUT_3D_SIZE 32
0.000000 0.000000 0.000000
0.035523 0.000000 0.010193
0.067384 0.000000 0.024567
0.097078 0.000000 0.051606
0.130312 0.000000 0.071504
0.164004 0.000000 0.085695
0.197269 0.000000 0.100008
0.230045 0.000000 0.114351
0.262974 0.000000 0.129183
0.295537 0.000000 0.144350
0.328191 0.000000 0.160037
0.360693 0.000000 0.176455
0.393011 0.000000 0.193484
0.425330 0.000000 0.211368
0.457496 0.000000 0.230076
0.489601 0.000000 0.249393
0.521782 0.000000 0.269383
0.553887 0.000000 0.289982
0.585657 0.000000 0.311040
0.617212 0.000000 0.332433
0.648585 0.000000 0.354223
0.680018 0.000000 0.376440
0.711391 0.000000 0.399054
0.742611 0.000000 0.422065
0.773800 0.000000 0.445411
0.804959 0.000000 0.469154
0.835935 0.000000 0.493172
0.866789 0.000000 0.517601
0.897490 0.000000 0.542443
0.928099 0.000000 0.567712
0.958465 0.000000 0.593591
0.988556 0.000000 0.620111
0.000000 0.032410 0.022492
0.018860 0.022431 0.007416
0.067567 0.000397 0.020447
0.096101 0.000000 0.055573
0.129274 0.000000 0.072908
0.162905 0.000000 0.086549
0.196384 0.000000 0.100740
0.229282 0.000000 0.115175
0.262272 0.000000 0.129763
0.295048 0.000000 0.144961
0.327703 0.000000 0.160616
0.360266 0.000000 0.176974
0.392676 0.000000 0.194034
0.424903 0.000000 0.211887
0.457160 0.000000 0.230533
0.489326 0.000000 0.249882
0.521477 0.000000 0.269841
0.553613 0.000000 0.290471
0.585443 0.000000 0.311437
0.616999 0.000000 0.332860
0.648432 0.000000 0.354559
0.679835 0.000000 0.376806
0.711208 0.000000 0.399390
0.742489 0.000000 0.422370
0.773709 0.000000 0.445716
0.804837 0.000000 0.469429
0.835843 0.000000 0.493507
0.866697 0.000000 0.517937
0.897459 0.000000 0.542718
0.928038 0.000000 0.568048
0.958434 0.000000 0.593866
0.988525 0.000000 0.620386
0.000000 0.063874 0.051331
0.018952 0.058961 0.041932
0.047669 0.051057 0.017182
0.097688 0.002960 0.046662
0.129274 0.000000 0.073610
0.161532 0.000000 0.088014
0.195041 0.000000 0.101930
0.228183 0.000000 0.116030
0.261418 0.000000 0.130648
0.294163 0.000000 0.145602
0.326970 0.000000 0.161318
0.359594 0.000000 0.177584
0.392065 0.000000 0.194705
0.424414 0.000000 0.212589
0.456611 0.000000 0.231144
0.488930 0.000000 0.250462
0.521080 0.000000 0.270420
0.553246 0.000000 0.290959
0.585168 0.000000 0.311986
0.616663 0.000000 0.333318
0.648188 0.000000 0.355047
0.679622 0.000000 0.377264
0.711025 0.000000 0.399847
0.742367 0.000000 0.422827
0.773587 0.000000 0.446143
0.804715 0.000000 0.469856
0.835752 0.000000 0.493935
0.866636 0.000000 0.518364
0.897398 0.000000 0.543175
0.927977 0.000000 0.568414
0.958404 0.000000 0.594232
0.988495 0.000000 0.620752
0.000000 0.089784 0.078889
0.000000 0.086427 0.075959
0.048310 0.081239 0.070649
0.076722 0.073884 0.041535
0.130892 0.006409 0.060761
0.164370 0.000000 0.085420
0.194522 0.000000 0.102296
0.226017 0.000000 0.118074
0.259495 0.000000 0.132265
0.292576 0.000000 0.147341
0.325475 0.000000 0.162966
0.358282 0.000000 0.179202
0.390814 0.000000 0.196170
0.423255 0.000000 0.213993
0.455695 0.000000 0.232517
0.487984 0.000000 0.251774
0.520256 0.000000 0.271702
0.552453 0.000000 0.292180
0.584436 0.000000 0.313115
0.616052 0.000000 0.334417
0.647669 0.000000 0.356176
0.679164 0.000000 0.378302
0.710628 0.000000 0.400916
0.742000 0.000000 0.423865
0.773281 0.000000 0.447120
0.804501 0.000000 0.470802
0.835538 0.000000 0.494850
0.866453 0.000000 0.519219
0.897246 0.000000 0.544030
0.927855 0.000000 0.569268
0.958282 0.000000 0.595056
0.988434 0.000000 0.621546
0.000000 0.119844 0.106447
0.000000 0.117281 0.103761
0.000000 0.112612 0.098817
0.067750 0.104341 0.086244
0.099947 0.092836 0.060090
0.163729 0.014221 0.068086
0.197910 0.000000 0.091615
0.230014 0.000000 0.113954
0.260166 0.000000 0.131807
0.290440 0.000000 0.149447
0.323186 0.000000 0.165286
0.356146 0.000000 0.181521
0.388983 0.000000 0.198550
0.421546 0.000000 0.216251
0.454047 0.000000 0.234562
0.486519 0.000000 0.253727
0.518914 0.000000 0.273564
0.551232 0.000000 0.293950
0.583337 0.000000 0.314885
0.615137 0.000000 0.336156
0.646784 0.000000 0.357824
0.678462 0.000000 0.379950
0.710018 0.000000 0.402502
0.741482 0.000000 0.425422
0.772793 0.000000 0.448676
0.804105 0.000000 0.472328
0.835203 0.000000 0.496315
0.866178 0.000000 0.520684
0.897002 0.000000 0.545403
0.927672 0.000000 0.570611
0.958160 0.000000 0.596399
0.988312 0.000000 0.622827
0.000000 0.151308 0.135683
0.000000 0.149111 0.133028
0.000000 0.145144 0.128603
0.039857 0.136965 0.118288
0.080781 0.126680 0.098817
0.122499 0.112337 0.068147
0.197787 0.055756 0.075441
0.231296 0.000000 0.095827
0.264530 0.000000 0.123110
0.295293 0.000000 0.144472
0.325353 0.000000 0.163394
0.355596 0.000000 0.182528
0.386358 0.000000 0.201480
0.419318 0.000000 0.219059
0.451972 0.000000 0.237308
0.484627 0.000000 0.256382
0.517205 0.000000 0.276066
0.549584 0.000000 0.296361
0.581842 0.000000 0.317174
0.613855 0.000000 0.338384
0.645686 0.000000 0.360052
0.677516 0.000000 0.382147
0.709194 0.000000 0.404639
0.740749 0.000000 0.427527
0.772183 0.000000 0.450721
0.803555 0.000000 0.474342
0.834775 0.000000 0.498299
0.865812 0.000000 0.522606
0.896666 0.000000 0.547265
0.927459 0.000000 0.572442
0.957946 0.000000 0.598169
0.988190 0.000000 0.624598
0.000000 0.183566 0.165560
0.000000 0.181125 0.162722
0.000000 0.177859 0.158755
0.000000 0.170687 0.149630
0.077241 0.159396 0.134829
0.095216 0.148379 0.109926
0.145754 0.132113 0.076112
0.231846 0.083436 0.082826
0.264622 0.000000 0.099397
0.297826 0.000000 0.129915
0.330724 0.000000 0.157321
0.360449 0.000000 0.177676
0.390326 0.000000 0.197971
0.420417 0.000000 0.218509
0.450599 0.000000 0.239475
0.482216 0.000000 0.259556
0.514977 0.000000 0.279118
0.547570 0.000000 0.299321
0.579980 0.000000 0.320073
0.612238 0.000000 0.341222
0.644312 0.000000 0.362799
0.676265 0.000000 0.384894
0.708095 0.000000 0.407263
0.739834 0.000000 0.430091
0.771420 0.000000 0.453254
0.802853 0.000000 0.476814
0.834165 0.000000 0.500725
0.865324 0.000000 0.524987
0.896300 0.000000 0.549676
0.927092 0.000000 0.574792
0.957702 0.000000 0.600397
0.988006 0.000000 0.626795
0.000000 0.215976 0.195987
0.000000 0.213870 0.193332
0.000000 0.211032 0.189578
0.000000 0.204623 0.181308
0.000580 0.194705 0.167971
0.096223 0.181918 0.148714
0.111849 0.169741 0.120516
0.169467 0.152560 0.085573
0.265721 0.109712 0.091890
0.297734 0.000000 0.105257
0.330968 0.000000 0.136690
0.363836 0.000000 0.166354
0.395392 0.000000 0.192386
0.425116 0.000000 0.213931
0.454963 0.000000 0.235538
0.484932 0.000000 0.257511
0.514946 0.000000 0.279942
0.545159 0.000000 0.302678
0.577844 0.000000 0.323339
0.610376 0.000000 0.344488
0.642634 0.000000 0.366125
0.674830 0.000000 0.388128
0.706844 0.000000 0.410468
0.738735 0.000000 0.433265
0.770443 0.000000 0.456367
0.802060 0.000000 0.479866
0.833463 0.000000 0.503716
0.864744 0.000000 0.527886
0.895811 0.000000 0.552514
0.926696 0.000000 0.577539
0.957397 0.000000 0.603174
0.987762 0.000000 0.629480
0.000000 0.250553 0.228305
0.000000 0.248539 0.225772
0.000000 0.245945 0.222293
0.000000 0.240085 0.214542
0.000000 0.231113 0.202335
0.073335 0.218540 0.185702
0.115114 0.205112 0.162417
0.130220 0.191836 0.131807
0.194278 0.173495 0.095918
0.299443 0.137728 0.101595
0.330083 0.000000 0.118654
0.364111 0.000000 0.143252
0.396857 0.000000 0.174960
0.429480 0.000000 0.205386
0.459876 0.000000 0.230350
0.489509 0.000000 0.253086
0.519310 0.000000 0.276005
0.549218 0.000000 0.299290
0.579095 0.000000 0.323033
0.609064 0.000000 0.347204
0.640650 0.000000 0.369879
0.673152 0.000000 0.391882
0.705379 0.000000 0.414191
0.737453 0.000000 0.436866
0.769345 0.000000 0.459998
0.801114 0.000000 0.483406
0.832670 0.000000 0.507195
0.864073 0.000000 0.531304
0.895262 0.000000 0.555840
0.926268 0.000000 0.580865
0.957031 0.000000 0.606409
0.987488 0.000000 0.632624
0.000000 0.288273 0.263218
0.000000 0.286534 0.260868
0.000000 0.284154 0.257664
0.000000 0.278752 0.250340
0.000000 0.270237 0.238956
0.000000 0.258549 0.223484
0.113954 0.242985 0.203799
0.134981 0.229435 0.176425
0.149844 0.214725 0.143252
0.219150 0.195773 0.107362
0.328435 0.164523 0.112551
0.363561 0.015259 0.130770
0.397192 0.000000 0.149905
0.429877 0.000000 0.183566
0.462379 0.000000 0.215763
0.494759 0.000000 0.247257
0.524163 0.000000 0.271122
0.553735 0.000000 0.295109
0.583337 0.000000 0.319158
0.613001 0.000000 0.343603
0.642786 0.000000 0.368505
0.672694 0.000000 0.393927
0.703700 0.000000 0.418372
0.735958 0.000000 0.441016
0.768093 0.000000 0.464057
0.799985 0.000000 0.487465
0.831754 0.000000 0.511192
0.863279 0.000000 0.535241
0.894621 0.000000 0.559747
0.925780 0.000000 0.584619
0.956634 0.000000 0.610101
0.987213 0.000000 0.636286
0.000000 0.330480 0.301183
0.000000 0.328740 0.298955
0.000000 0.326421 0.295872
0.000000 0.321233 0.289006
0.000000 0.312993 0.278080
0.000000 0.301762 0.263493
0.066499 0.287022 0.245029
0.140047 0.270085 0.221714
0.155520 0.255222 0.190921
0.169680 0.238682 0.155093
0.244450 0.219242 0.119234
0.349828 0.187747 0.125338
0.397162 0.090669 0.142794
0.430396 0.000000 0.156069
0.462959 0.000000 0.191806
0.495399 0.000000 0.225803
0.527672 0.000000 0.259220
0.558770 0.000000 0.289403
0.588037 0.000000 0.314397
0.617395 0.000000 0.339361
0.646845 0.000000 0.364721
0.676478 0.000000 0.390356
0.706264 0.000000 0.416419
0.736049 0.000000 0.442878
0.766629 0.000000 0.468666
0.798764 0.000000 0.492042
0.830686 0.000000 0.515679
0.862394 0.000000 0.539666
0.893889 0.000000 0.564111
0.925170 0.000000 0.588922
0.956176 0.000000 0.614313
0.986847 0.000000 0.640406
0.000000 0.377386 0.342016
0.000000 0.375799 0.339910
0.000000 0.373358 0.336828
0.000000 0.368292 0.330297
0.000000 0.360296 0.320043
0.000000 0.349248 0.306065
0.000000 0.334936 0.288487
0.116793 0.317082 0.267063
0.161379 0.299290 0.239536
0.176425 0.282444 0.205783
0.189517 0.263981 0.167300
0.269841 0.244266 0.131533
0.372625 0.211002 0.138857
0.430640 0.131533 0.154818
0.462715 0.000000 0.169650
0.496010 0.000000 0.199741
0.528374 0.000000 0.235630
0.560540 0.000000 0.270512
0.592340 0.000000 0.305028
0.622126 0.000000 0.333745
0.651240 0.000000 0.359869
0.680507 0.000000 0.386175
0.709987 0.000000 0.412726
0.739559 0.000000 0.439490
0.769284 0.000000 0.466651
0.799039 0.000000 0.494057
0.829496 0.000000 0.520623
0.861418 0.000000 0.544610
0.893065 0.000000 0.568933
0.924529 0.000000 0.593713
0.955627 0.000000 0.619043
0.986450 0.000000 0.645045
0.000000 0.428840 0.384741
0.000000 0.427344 0.382849
0.000000 0.425086 0.380011
0.000000 0.420264 0.373907
0.000000 0.412512 0.364324
0.000000 0.401740 0.351171
0.000000 0.387640 0.334295
0.000000 0.370062 0.313756
0.157717 0.348791 0.289433
0.181430 0.330632 0.257603
0.196445 0.311437 0.221103
0.210361 0.291722 0.177462
0.294926 0.271031 0.144076
0.395361 0.236057 0.152438
0.463905 0.169833 0.166690
0.494850 0.000000 0.185306
0.529107 0.000000 0.207187
0.561395 0.000000 0.244938
0.593378 0.000000 0.281559
0.624903 0.000000 0.317723
0.655970 0.000000 0.353521
0.684932 0.000000 0.380865
0.714015 0.000000 0.408209
0.743313 0.000000 0.435584
0.772702 0.000000 0.463172
0.802243 0.000000 0.491005
0.831907 0.000000 0.519036
0.861631 0.000000 0.547356
0.892180 0.000000 0.574273
0.923796 0.000000 0.598993
0.955077 0.000000 0.624231
0.986023 0.000000 0.650172
0.000000 0.481178 0.426612
0.000000 0.479683 0.424689
0.000000 0.477699 0.422217
0.000000 0.473335 0.416754
0.000000 0.466255 0.408057
0.000000 0.456367 0.396002
0.000000 0.443427 0.380713
0.000000 0.427100 0.361791
0.102419 0.406775 0.338964
0.183017 0.383948 0.311192
0.200626 0.363806 0.275761
0.215274 0.342138 0.236393
0.230411 0.321416 0.187655
0.319493 0.299748 0.156588
0.420508 0.265385 0.165255
0.496895 0.208591 0.178408
0.527886 0.009827 0.199161
0.562188 0.000000 0.214206
0.594415 0.000000 0.254063
0.626123 0.000000 0.292607
0.657435 0.000000 0.330724
0.688380 0.000000 0.368200
0.718318 0.000000 0.402533
0.747250 0.000000 0.430915
0.776364 0.000000 0.459236
0.805600 0.000000 0.487678
0.834989 0.000000 0.516197
0.864469 0.000000 0.544945
0.894041 0.000000 0.573846
0.923766 0.000000 0.602930
0.954437 0.000000 0.629877
0.985534 0.000000 0.655787
0.000000 0.532464 0.466346
0.000000 0.531121 0.464698
0.000000 0.529320 0.462470
0.000000 0.525444 0.457557
0.000000 0.519036 0.449683
0.000000 0.510307 0.439033
0.000000 0.498634 0.425238
0.000000 0.483803 0.408087
0.000000 0.465553 0.387457
0.149905 0.443397 0.362890
0.200931 0.420935 0.331701
0.218387 0.399023 0.293736
0.233219 0.374731 0.251774
0.249577 0.353216 0.197635
0.343725 0.330480 0.169192
0.445624 0.296574 0.178225
0.529625 0.248905 0.190280
0.561181 0.117494 0.212406
0.594965 0.000000 0.225528
0.627405 0.000000 0.263340
0.658900 0.000000 0.304082
0.689967 0.000000 0.343908
0.720668 0.000000 0.383124
0.751003 0.000000 0.422217
0.780148 0.000000 0.454658
0.809018 0.000000 0.483986
0.838102 0.000000 0.513298
0.867308 0.000000 0.542687
0.896605 0.000000 0.572137
0.926024 0.000000 0.601770
0.955596 0.000000 0.631434
0.985260 0.000000 0.661250
0.000000 0.581933 0.503899
0.000000 0.580774 0.502403
0.000000 0.579217 0.500450
0.000000 0.575769 0.496010
0.000000 0.570062 0.488991
0.000000 0.562219 0.479438
0.000000 0.551934 0.467140
0.000000 0.538842 0.451942
0.000000 0.522484 0.433356
0.057343 0.502678 0.411353
0.191012 0.478798 0.385351
0.218936 0.457404 0.350744
0.235721 0.434394 0.311040
0.250126 0.408698 0.266819
0.268132 0.386999 0.207156
0.367437 0.363348 0.181857
0.470161 0.329870 0.191348
0.562005 0.291997 0.201846
0.594324 0.171908 0.226200
0.627100 0.000000 0.243565
0.660365 0.000000 0.273075
0.691676 0.000000 0.316014
0.722499 0.000000 0.357794
0.752926 0.000000 0.398840
0.782895 0.000000 0.439582
0.812497 0.000000 0.479896
0.841184 0.000000 0.510246
0.870024 0.000000 0.540581
0.899046 0.000000 0.570855
0.928130 0.000000 0.601160
0.957366 0.000000 0.631647
0.986694 0.000000 0.662196
0.000000 0.628779 0.538811
0.000000 0.627802 0.537530
0.000000 0.626398 0.535698
0.000000 0.623346 0.531792
0.000000 0.618402 0.525628
0.000000 0.611536 0.517082
0.000000 0.602441 0.506218
0.000000 0.590814 0.492653
0.000000 0.576471 0.476234
0.000000 0.558953 0.456672
0.133974 0.537865 0.433509
0.218845 0.514061 0.405432
0.237064 0.492897 0.368536
0.253056 0.468940 0.327306
0.266789 0.442267 0.281285
0.286107 0.421698 0.216648
0.390326 0.397803 0.194888
0.494240 0.365270 0.204654
0.593957 0.337743 0.213687
0.627070 0.222843 0.240574
0.659052 0.000000 0.263035
0.693355 0.000000 0.283635
0.724331 0.000000 0.328740
0.754879 0.000000 0.372595
0.785000 0.000000 0.415595
0.814633 0.000000 0.458137
0.843870 0.000000 0.500420
0.872618 0.000000 0.538781
0.901213 0.000000 0.570184
0.929931 0.000000 0.601526
0.958770 0.000000 0.632929
0.987701 0.000000 0.664485
0.000000 0.672633 0.571130
0.000000 0.671687 0.569848
0.000000 0.670527 0.568383
0.000000 0.667811 0.564813
0.000000 0.663508 0.559350
0.000000 0.657557 0.551904
0.000000 0.649653 0.542229
0.000000 0.639551 0.530297
0.000000 0.627008 0.515892
0.000000 0.611780 0.498634
0.000000 0.593469 0.478340
0.185519 0.571618 0.454536
0.238499 0.549340 0.423743
0.255589 0.527672 0.385626
0.270573 0.503380 0.343206
0.283360 0.476326 0.295903
0.304448 0.457313 0.226322
0.413062 0.433661 0.208774
0.517784 0.402411 0.218936
0.625330 0.386297 0.226261
0.659358 0.273686 0.255924
0.691554 0.109743 0.281926
0.726223 0.000000 0.295872
0.756954 0.000000 0.342840
0.787137 0.000000 0.388830
0.816861 0.000000 0.433906
0.846128 0.000000 0.478309
0.874876 0.000000 0.522606
0.903075 0.000000 0.566827
0.931243 0.000000 0.603113
0.959594 0.000000 0.635767
0.988037 0.000000 0.668605
0.000000 0.714504 0.601587
0.000000 0.713771 0.600641
0.000000 0.712734 0.599176
0.000000 0.710445 0.596155
0.000000 0.706783 0.591394
0.000000 0.701656 0.584833
0.000000 0.694881 0.576379
0.000000 0.686213 0.565942
0.000000 0.675532 0.553368
0.000000 0.662440 0.538415
0.000000 0.646662 0.520684
0.117556 0.627832 0.499886
0.230930 0.605463 0.475776
0.258946 0.585138 0.442237
0.274540 0.563439 0.403235
0.288518 0.538933 0.359625
0.300420 0.511589 0.311040
0.323125 0.494484 0.236973
0.436042 0.471107 0.223819
0.541344 0.441260 0.234531
0.648402 0.428962 0.241855
0.691127 0.325872 0.272526
0.723934 0.190188 0.301091
0.757687 0.000000 0.320195
0.789334 0.000000 0.358862
0.819150 0.000000 0.407019
0.848447 0.000000 0.454231
0.877165 0.000000 0.500969
0.905333 0.000000 0.547448
0.932921 0.000000 0.593744
0.959960 0.130922 0.639521
0.987762 0.099092 0.673701
0.000000 0.755032 0.630884
0.000000 0.754360 0.629999
0.000000 0.753506 0.628748
0.000000 0.751583 0.626123
0.000000 0.748470 0.621881
0.000000 0.744106 0.616175
0.000000 0.738277 0.608820
0.000000 0.730922 0.599756
0.000000 0.721859 0.588830
0.000000 0.710658 0.575830
0.000000 0.697261 0.560510
0.000000 0.681239 0.542626
0.184451 0.662104 0.521752
0.265110 0.640497 0.496529
0.280491 0.621393 0.461067
0.294621 0.599756 0.421302
0.307317 0.575402 0.376806
0.318151 0.548058 0.327031
0.342748 0.533013 0.248631
0.459419 0.509972 0.240452
0.564721 0.481575 0.251774
0.666773 0.469123 0.259953
0.722316 0.380102 0.290532
0.755673 0.257389 0.322026
0.788785 0.103822 0.346960
0.821378 0.000000 0.377386
0.850706 0.000000 0.427955
0.879484 0.000000 0.477577
0.907591 0.078126 0.526604
0.935180 0.137850 0.574945
0.962097 0.191104 0.623011
0.988281 0.245396 0.671077
0.000000 0.793820 0.658747
0.000000 0.793301 0.657984
0.000000 0.792569 0.656855
0.000000 0.790951 0.654566
0.000000 0.788296 0.650843
0.000000 0.784573 0.645808
0.000000 0.779721 0.639460
0.000000 0.773495 0.631617
0.000000 0.765713 0.622095
0.000000 0.756283 0.610925
0.000000 0.744991 0.597803
0.000000 0.731380 0.582422
0.113252 0.715267 0.564691
0.239445 0.696101 0.544121
0.289860 0.676539 0.516411
0.303349 0.657862 0.480507
0.315984 0.636591 0.440131
0.327184 0.612573 0.394842
0.336797 0.585412 0.343999
0.363531 0.572656 0.261723
0.483009 0.550225 0.259037
0.588159 0.523278 0.270848
0.687495 0.508904 0.280705
0.752926 0.435615 0.310460
0.786893 0.321172 0.345098
0.819364 0.187594 0.376593
0.853025 0.096010 0.399359
0.881773 0.123018 0.452399
0.909911 0.156069 0.504082
0.937499 0.193729 0.554864
0.964355 0.236027 0.605097
0.990448 0.283604 0.655238
0.000000 0.830808 0.685084
0.000000 0.830381 0.684443
0.000000 0.829740 0.683467
0.000000 0.828397 0.681392
0.000000 0.826200 0.678187
0.000000 0.823056 0.673823
0.000000 0.818936 0.668269
0.000000 0.813626 0.661433
0.000000 0.807156 0.653315
0.000000 0.799161 0.643641
0.000000 0.789609 0.632471
0.000000 0.778164 0.619409
0.000000 0.764614 0.604364
0.196902 0.748562 0.587121
0.291356 0.729549 0.567193
0.316533 0.712428 0.536797
0.328161 0.694331 0.500664
0.338964 0.673732 0.459876
0.348516 0.650355 0.414069
0.356573 0.623682 0.362219
0.385595 0.613428 0.277012
0.507530 0.591455 0.279850
0.611872 0.566064 0.292424
0.708583 0.549432 0.303990
0.782834 0.492958 0.332769
0.817258 0.385260 0.370855
0.849699 0.267247 0.407568
0.883116 0.198489 0.431312
0.912261 0.206760 0.479896
0.939818 0.238163 0.533349
0.966613 0.275334 0.586114
0.992645 0.318822 0.638544
0.000000 0.865843 0.709926
0.000000 0.865476 0.709346
0.000000 0.864988 0.708522
0.000000 0.863828 0.706691
0.000000 0.861936 0.703853
0.000000 0.859342 0.700038
0.000000 0.855894 0.695247
0.000000 0.851499 0.689387
0.000000 0.845975 0.682399
0.000000 0.839261 0.674128
0.000000 0.831235 0.664576
0.000000 0.821622 0.653620
0.000000 0.810300 0.641016
0.139162 0.796811 0.626581
0.262547 0.781003 0.610193
0.335302 0.763058 0.590082
0.345342 0.747921 0.557946
0.354955 0.730648 0.521691
0.363806 0.710933 0.480781
0.371710 0.688472 0.434577
0.378241 0.662867 0.381964
0.409552 0.654902 0.295018
0.532891 0.633692 0.303593
0.635920 0.609796 0.316777
0.729610 0.590784 0.330114
0.812039 0.551659 0.357916
0.846830 0.449622 0.399786
0.879576 0.346838 0.439277
0.912169 0.281010 0.469123
0.942168 0.276982 0.510491
0.968963 0.311284 0.566003
0.994873 0.352087 0.621057
0.000000 0.898924 0.733272
0.000000 0.898619 0.732753
0.000000 0.898161 0.731991
0.000000 0.897215 0.730404
0.000000 0.895720 0.727932
0.000000 0.893553 0.724605
0.000000 0.890654 0.720455
0.000000 0.886961 0.715389
0.000000 0.882322 0.709377
0.000000 0.876677 0.702358
0.000000 0.869932 0.694301
0.000000 0.861875 0.685115
0.000000 0.852354 0.674647
0.000000 0.841154 0.662806
0.230167 0.828000 0.649439
0.323888 0.812497 0.634302
0.368933 0.796994 0.611963
0.376898 0.782803 0.580072
0.384466 0.766629 0.544060
0.391211 0.748104 0.503166
0.397040 0.726864 0.456886
0.404303 0.704341 0.402075
0.436713 0.696956 0.317601
0.559564 0.676539 0.330694
0.660548 0.654261 0.344762
0.750729 0.633051 0.359625
0.840513 0.610895 0.386725
0.875700 0.514183 0.431159
0.908568 0.422065 0.473335
0.940490 0.355535 0.509545
0.971283 0.344945 0.544793
0.997162 0.383978 0.602747
0.000000 0.929961 0.755032
0.000000 0.929717 0.754574
0.000000 0.929381 0.753933
0.000000 0.928618 0.752529
0.000000 0.927337 0.750332
0.000000 0.925536 0.747433
0.000000 0.923125 0.743832
0.000000 0.920043 0.739498
0.000000 0.916136 0.734340
0.000000 0.911406 0.728389
0.000000 0.905760 0.721706
0.000000 0.898985 0.714015
0.000000 0.891020 0.705470
0.000000 0.881682 0.695888
0.192905 0.870726 0.685237
0.304540 0.857939 0.673365
0.384619 0.842893 0.659998
0.405219 0.830228 0.634943
0.411322 0.817166 0.603601
0.416846 0.802243 0.568048
0.421485 0.785122 0.527642
0.425269 0.765469 0.481514
0.433448 0.746090 0.425208
0.470192 0.738949 0.347967
0.587793 0.719966 0.362005
0.686091 0.699397 0.376837
0.772702 0.677028 0.392432
0.868406 0.670527 0.418067
0.903807 0.578912 0.465034
0.936736 0.495552 0.510033
0.967926 0.428412 0.553063
0.999054 0.418280 0.585657
0.000000 0.958984 0.775296
0.000000 0.958770 0.774838
0.000000 0.958495 0.774319
0.000000 0.957885 0.773068
0.000000 0.956847 0.771145
0.000000 0.955413 0.768612
0.000000 0.953429 0.765469
0.000000 0.950835 0.761715
0.000000 0.947570 0.757351
0.000000 0.943603 0.752377
0.000000 0.938811 0.746761
0.000000 0.933135 0.740536
0.000000 0.926452 0.733608
0.000000 0.918608 0.726009
0.145541 0.909514 0.717769
0.285222 0.898894 0.708736
0.374273 0.886564 0.698695
0.437507 0.872984 0.685756
0.442451 0.862730 0.658839
0.447028 0.851011 0.628351
0.451148 0.837552 0.593713
0.454353 0.822080 0.554223
0.456519 0.804257 0.508904
0.466194 0.788144 0.452247
0.506035 0.781308 0.382788
0.617304 0.763851 0.397070
0.712184 0.745022 0.412055
0.796658 0.724697 0.427802
0.895689 0.730251 0.452216
0.931121 0.643824 0.501854
0.963897 0.568719 0.549981
0.994507 0.507591 0.598627
0.000000 0.985992 0.794095
0.000000 0.985840 0.793668
0.000000 0.985626 0.793149
0.000000 0.985138 0.792050
0.000000 0.984314 0.790311
0.000000 0.983154 0.788083
0.000000 0.981506 0.785306
0.000000 0.979370 0.782101
0.000000 0.976654 0.778439
0.000000 0.973297 0.774289
0.000000 0.969268 0.769680
0.000000 0.964477 0.764645
0.000000 0.958831 0.759213
0.000000 0.952239 0.753353
0.068208 0.944549 0.747158
0.265873 0.935668 0.740658
0.364874 0.925505 0.733516
0.438758 0.914122 0.725154
0.476692 0.903380 0.709560
0.480476 0.894469 0.683680
0.483864 0.884245 0.654353
0.486702 0.872557 0.620996
0.488777 0.859037 0.582757
0.489723 0.843412 0.538689
0.501091 0.830442 0.482551
0.543114 0.824033 0.421027
0.647974 0.808133 0.435401
0.739040 0.791012 0.450507
0.820920 0.772702 0.466316
0.922087 0.789242 0.489754
0.957580 0.708766 0.542229
0.989960 0.642206 0.594018
0.000000 1.000000 0.811276
0.000000 1.000000 0.810971
0.000000 1.000000 0.810513
0.000000 1.000000 0.809506
0.000000 1.000000 0.807950
0.000000 1.000000 0.805905
0.000000 1.000000 0.803464
0.000000 1.000000 0.800687
0.000000 1.000000 0.797574
0.000000 1.000000 0.794156
0.000000 0.997131 0.790402
0.000000 0.993011 0.786435
0.000000 0.988190 0.782254
0.000000 0.982544 0.777981
0.000000 0.975982 0.773617
