其他预设/【213】赛博朋克科幻预设52款/1.LUT预设（视频调色-PR-AE-PS-FCPX-达芬奇用）/赛博朋克科幻__-8 强度4.cube
# Created by Adobe Lightroom plugin Export LUT (1.17.0)
# www.johnrellis.com/lightroom/exportlut.htm
# Preset: 赛博朋克科幻[素锦印象]-8 强度4
# Color profile: /Library/Application Support/Adobe/Color/Profiles/Recommended/AdobeRGB1998.icc
LUT_3D_SIZE 32
0.000000 0.056855 0.000000
0.004273 0.058595 0.003449
0.020081 0.059754 0.014679
0.052125 0.062837 0.038056
0.070832 0.067384 0.061006
0.085573 0.070710 0.075013
0.102937 0.072755 0.089693
0.123384 0.073487 0.106203
0.147616 0.072724 0.125826
0.175937 0.069581 0.148531
0.208804 0.061921 0.174868
0.245640 0.037842 0.203799
0.286015 0.000000 0.235111
0.329717 0.000000 0.268223
0.375769 0.000000 0.302129
0.423407 0.000000 0.335882
0.471595 0.000000 0.368933
0.517296 0.000000 0.399390
0.559838 0.000000 0.427131
0.600732 0.000000 0.453193
0.640162 0.000000 0.477913
0.678187 0.000000 0.501488
0.714656 0.000000 0.524163
0.749599 0.000000 0.545953
0.782803 0.104494 0.567041
0.814328 0.172854 0.587701
0.844022 0.230777 0.608118
0.872099 0.286046 0.628534
0.898650 0.340978 0.649226
0.923796 0.396063 0.670344
0.947784 0.449500 0.691585
0.970672 0.501122 0.712917
0.000000 0.066468 0.007630
0.000000 0.064759 0.000214
0.018494 0.061769 0.012146
0.051240 0.062440 0.038178
0.069947 0.067109 0.061067
0.085328 0.070375 0.074678
0.102724 0.072419 0.089418
0.123140 0.073579 0.106203
0.147250 0.072480 0.125856
0.175601 0.069306 0.148684
0.208591 0.061128 0.174899
0.245518 0.036835 0.204013
0.286076 0.000000 0.235477
0.329808 0.000000 0.268681
0.375830 0.000000 0.302434
0.423682 0.000000 0.336400
0.471717 0.000000 0.369329
0.517388 0.000000 0.399786
0.559960 0.000000 0.427497
0.600855 0.000000 0.453468
0.640223 0.000000 0.478157
0.678248 0.000000 0.501701
0.714748 0.000000 0.524315
0.749691 0.000000 0.546136
0.782895 0.103792 0.567193
0.814389 0.172641 0.587854
0.844114 0.230503 0.608240
0.872190 0.285893 0.628687
0.898711 0.340826 0.649317
0.923857 0.395972 0.670436
0.947814 0.449409 0.691676
0.970703 0.501061 0.712947
0.000000 0.076356 0.023713
0.000000 0.075196 0.021607
0.003967 0.073671 0.006592
0.050660 0.067445 0.031708
0.068513 0.070710 0.060761
0.084627 0.070100 0.074739
0.101869 0.072236 0.089479
0.122499 0.072999 0.106264
0.146700 0.072328 0.125887
0.175296 0.069032 0.148867
0.208316 0.060822 0.175143
0.245274 0.034882 0.204349
0.285954 0.000000 0.235843
0.329839 0.000000 0.269139
0.375952 0.000000 0.302953
0.423713 0.000000 0.336858
0.471901 0.000000 0.369848
0.517510 0.000000 0.400183
0.560143 0.000000 0.427863
0.600946 0.000000 0.453834
0.640406 0.000000 0.478523
0.678401 0.000000 0.502037
0.714870 0.000000 0.524620
0.749783 0.000000 0.546349
0.783047 0.103182 0.567437
0.814481 0.172213 0.588006
0.844205 0.230289 0.608392
0.872251 0.285679 0.628809
0.898802 0.340703 0.649500
0.923888 0.395941 0.670527
0.947845 0.449378 0.691768
0.970764 0.501061 0.713039
0.000000 0.093141 0.052705
0.000000 0.092287 0.052918
0.000000 0.090791 0.049592
0.019409 0.088380 0.022583
0.071229 0.072480 0.044526
0.079774 0.082673 0.073091
0.099184 0.077424 0.088075
0.121370 0.072206 0.106325
0.145815 0.071504 0.125948
0.174533 0.068147 0.149203
0.207767 0.060212 0.175692
0.244968 0.032898 0.205112
0.285832 0.000000 0.236820
0.329778 0.000000 0.270115
0.376074 0.000000 0.303960
0.424018 0.000000 0.337896
0.472175 0.000000 0.370916
0.517845 0.000000 0.401221
0.560479 0.000000 0.428779
0.601251 0.000000 0.454658
0.640711 0.000000 0.479286
0.678676 0.000000 0.502770
0.715206 0.000000 0.525261
0.750088 0.000000 0.546929
0.783261 0.101839 0.567895
0.814725 0.171481 0.588464
0.844388 0.229801 0.608759
0.872435 0.285374 0.629175
0.898955 0.340368 0.649744
0.924041 0.395666 0.670802
0.947967 0.449195 0.691951
0.970855 0.500847 0.713191
0.000000 0.113985 0.070771
0.000000 0.112856 0.070588
0.000000 0.111482 0.069947
0.004669 0.109316 0.065309
0.034852 0.106172 0.038636
0.086885 0.080293 0.051484
0.097566 0.086732 0.079896
0.113680 0.091829 0.099977
0.140627 0.083223 0.121798
0.172793 0.069459 0.149081
0.206790 0.058930 0.176608
0.244450 0.027741 0.206271
0.285618 0.000000 0.238346
0.329808 0.000000 0.271641
0.376287 0.000000 0.305699
0.424292 0.000000 0.339544
0.472633 0.000000 0.372503
0.518273 0.000000 0.402747
0.560967 0.000000 0.430274
0.601831 0.000000 0.455970
0.641199 0.000000 0.480507
0.679225 0.000000 0.503899
0.715694 0.000000 0.526238
0.750546 0.000000 0.547875
0.783658 0.099550 0.568750
0.815122 0.170382 0.589166
0.844694 0.229007 0.609430
0.872740 0.284794 0.629664
0.899199 0.339879 0.650233
0.924254 0.395239 0.671168
0.948150 0.448890 0.692287
0.971008 0.500633 0.713466
0.000000 0.136202 0.086854
0.000000 0.135073 0.086427
0.000000 0.133608 0.085756
0.000000 0.132326 0.083955
0.007202 0.129305 0.075196
0.050050 0.126680 0.050721
0.101808 0.105348 0.057801
0.118410 0.090455 0.084352
0.132692 0.103029 0.111299
0.159854 0.101656 0.136965
0.196963 0.088075 0.167544
0.239445 0.062135 0.202914
0.285222 0.000000 0.240269
0.329808 0.000000 0.273808
0.376471 0.000000 0.307774
0.424811 0.000000 0.341833
0.473213 0.000000 0.374731
0.518883 0.000000 0.404791
0.561547 0.000000 0.432105
0.602472 0.000000 0.457801
0.641932 0.000000 0.482124
0.679896 0.000000 0.505394
0.716335 0.000000 0.527611
0.751125 0.000000 0.549035
0.784237 0.096193 0.569787
0.815549 0.168643 0.590112
0.845182 0.227939 0.610254
0.873106 0.283879 0.630426
0.899535 0.339239 0.650813
0.924559 0.394812 0.671717
0.948394 0.448463 0.692744
0.971221 0.500328 0.713863
0.000000 0.160098 0.104067
0.000000 0.158999 0.103517
0.000000 0.157626 0.102968
0.000000 0.155947 0.101686
0.000000 0.155825 0.098054
0.004608 0.152285 0.085176
0.059571 0.149996 0.059236
0.118593 0.135866 0.059968
0.142794 0.093874 0.086213
0.159396 0.108186 0.121553
0.179446 0.123903 0.152499
0.221256 0.112093 0.185946
0.268009 0.091554 0.223911
0.319097 0.033661 0.264744
0.373510 0.000000 0.307134
0.425330 0.000000 0.344640
0.473823 0.000000 0.377417
0.519677 0.000000 0.407294
0.562371 0.000000 0.434516
0.603296 0.000000 0.460029
0.642725 0.000000 0.484199
0.680720 0.000000 0.507256
0.717098 0.000000 0.529320
0.751858 0.000000 0.550561
0.784878 0.091554 0.571160
0.816159 0.166354 0.591333
0.845701 0.226413 0.611322
0.873594 0.282811 0.631342
0.899962 0.338506 0.651637
0.924926 0.394141 0.672389
0.948699 0.448035 0.693294
0.971496 0.499916 0.714321
0.000000 0.185550 0.122408
0.000000 0.184787 0.121920
0.000000 0.183505 0.121523
0.000000 0.180758 0.120302
0.000000 0.181643 0.118044
0.000000 0.182132 0.111574
0.000000 0.178927 0.095796
0.066560 0.177310 0.064424
0.138064 0.170809 0.061097
0.171084 0.100862 0.085786
0.190494 0.113405 0.130678
0.212406 0.131014 0.167941
0.244755 0.140047 0.203830
0.295689 0.123934 0.243992
0.350469 0.094972 0.286687
0.407752 0.000000 0.329992
0.465919 0.000000 0.372229
0.520470 0.000000 0.410407
0.563195 0.000000 0.437385
0.604273 0.000000 0.462745
0.643793 0.000000 0.486763
0.681697 0.000000 0.509606
0.718013 0.000000 0.531426
0.752804 0.000000 0.552483
0.785733 0.085756 0.572839
0.816953 0.163638 0.592828
0.846372 0.224643 0.612573
0.874205 0.281559 0.632441
0.900481 0.337560 0.652613
0.925383 0.393378 0.673182
0.949096 0.447395 0.693996
0.971801 0.499428 0.714931
0.000000 0.213077 0.142428
0.000000 0.212192 0.142061
0.000000 0.211093 0.141543
0.000000 0.208438 0.140444
0.000000 0.209171 0.139101
0.000000 0.211795 0.135897
0.000000 0.212253 0.126345
0.000000 0.210300 0.108583
0.074372 0.209384 0.069795
0.160678 0.211734 0.059846
0.201389 0.124636 0.091920
0.225284 0.117891 0.137057
0.249058 0.137819 0.181888
0.275151 0.159976 0.221897
0.321599 0.159243 0.263066
0.379736 0.139620 0.307012
0.439643 0.104738 0.351080
0.498024 0.000000 0.392554
0.551720 0.000000 0.429603
0.602350 0.000000 0.463294
0.644892 0.000000 0.489662
0.682856 0.000000 0.512291
0.719203 0.000000 0.533867
0.753811 0.000000 0.554650
0.786679 0.078279 0.574792
0.817838 0.160403 0.594598
0.847196 0.222477 0.614130
0.874876 0.280003 0.633783
0.901091 0.336217 0.653742
0.925902 0.392432 0.674159
0.949554 0.446632 0.694789
0.972198 0.498909 0.715602
0.000000 0.242710 0.164034
0.000000 0.241947 0.163699
0.000000 0.240848 0.163180
0.000000 0.238499 0.162234
0.000000 0.238285 0.161135
0.000000 0.241733 0.159426
0.000000 0.246525 0.156069
0.000000 0.246891 0.142916
0.000000 0.246311 0.122683
0.083589 0.246098 0.075898
0.183078 0.254002 0.057832
0.232059 0.170077 0.096956
0.263645 0.122194 0.139559
0.288609 0.144503 0.193942
0.315862 0.169284 0.239414
0.345312 0.195804 0.281071
0.406561 0.182956 0.326146
0.468452 0.161807 0.370489
0.526177 0.131991 0.410925
0.580255 0.085054 0.447761
0.631189 0.000000 0.481209
0.678889 0.000000 0.511467
0.720455 0.000000 0.536645
0.755001 0.000000 0.557183
0.787808 0.068391 0.577050
0.818845 0.156588 0.596582
0.848081 0.220096 0.615900
0.875700 0.278141 0.635309
0.901854 0.334905 0.655085
0.926543 0.391363 0.675288
0.950103 0.445777 0.695766
0.972656 0.498207 0.716396
0.000000 0.274174 0.186862
0.000000 0.273350 0.186496
0.000000 0.272465 0.186160
0.000000 0.270268 0.185275
0.000000 0.268559 0.184054
0.000000 0.272770 0.183322
0.000000 0.278447 0.181735
0.000000 0.284092 0.176394
0.000000 0.285496 0.160922
0.000000 0.286625 0.138216
0.094026 0.286839 0.082521
0.201266 0.292149 0.060792
0.264530 0.221805 0.100343
0.304784 0.125521 0.136568
0.330846 0.150881 0.203220
0.358801 0.178683 0.254856
0.388312 0.208133 0.300298
0.430457 0.225010 0.343908
0.493507 0.213016 0.388281
0.552239 0.197665 0.428962
0.607141 0.179202 0.465949
0.658381 0.155612 0.499367
0.706050 0.125612 0.529473
0.750271 0.077485 0.556481
0.789120 0.049928 0.579706
0.820005 0.151949 0.598901
0.849149 0.217014 0.617945
0.876646 0.276036 0.637049
0.902647 0.333349 0.656580
0.927245 0.390021 0.676539
0.950713 0.444800 0.696834
0.973175 0.497444 0.717311
0.000000 0.306920 0.210697
0.000000 0.306279 0.210483
0.000000 0.305303 0.209995
0.000000 0.303227 0.209140
0.000000 0.300175 0.207706
0.000000 0.304295 0.207614
0.000000 0.310491 0.207034
0.000000 0.318334 0.205447
0.000000 0.324071 0.196963
0.000000 0.327306 0.179995
0.000000 0.330449 0.155001
0.106050 0.330571 0.090059
0.220645 0.330480 0.068452
0.299016 0.275425 0.103059
0.345892 0.154788 0.143404
0.375006 0.157229 0.209445
0.403388 0.188022 0.268040
0.432807 0.220127 0.317479
0.463081 0.253361 0.361852
0.516533 0.261448 0.405707
0.576654 0.255772 0.447089
0.632319 0.249241 0.484474
0.683864 0.241184 0.518090
0.731441 0.232212 0.548272
0.775296 0.221469 0.575250
0.815457 0.208469 0.599268
0.850309 0.213718 0.620233
0.877684 0.273777 0.639063
0.903563 0.331395 0.658259
0.928069 0.388647 0.678004
0.951385 0.443702 0.698085
0.973754 0.496559 0.718349
0.000000 0.340856 0.235142
0.000000 0.340246 0.234958
0.000000 0.339391 0.234531
0.000000 0.337499 0.233707
0.000000 0.334539 0.232364
0.000000 0.336339 0.232029
0.000000 0.342687 0.232242
0.000000 0.350774 0.231785
0.000000 0.360998 0.230289
0.000000 0.366491 0.218448
0.000000 0.371557 0.200137
0.000000 0.376440 0.167849
0.119417 0.376318 0.099275
0.240787 0.371038 0.078218
0.335119 0.330663 0.104982
0.388006 0.191409 0.153231
0.420569 0.163729 0.212070
0.448646 0.197604 0.278691
0.477668 0.232731 0.332555
0.507347 0.269657 0.379980
0.538048 0.307897 0.423285
0.599542 0.310338 0.465675
0.656001 0.312566 0.503746
0.707851 0.314061 0.537896
0.755337 0.314977 0.568261
0.798581 0.315068 0.595300
0.838010 0.314061 0.619379
0.874052 0.311192 0.640833
0.904570 0.329503 0.660212
0.928954 0.387121 0.679652
0.952148 0.442512 0.699458
0.974395 0.495613 0.719509
0.000000 0.375525 0.260227
0.000000 0.374914 0.259922
0.000000 0.374212 0.259525
0.000000 0.372412 0.258732
0.000000 0.369635 0.257511
0.000000 0.368627 0.256596
0.000000 0.375006 0.257237
0.000000 0.383154 0.257633
0.000000 0.393286 0.257420
0.000000 0.404273 0.254185
0.000000 0.410681 0.240330
0.000000 0.417487 0.220920
0.000000 0.423926 0.181094
0.134615 0.423377 0.110201
0.264652 0.417639 0.087098
0.372473 0.387121 0.106569
0.428138 0.252140 0.162051
0.466682 0.170413 0.210819
0.493996 0.208408 0.287022
0.522179 0.247562 0.345983
0.551049 0.288334 0.396765
0.580346 0.330755 0.442329
0.621118 0.362615 0.484840
0.678462 0.372229 0.524010
0.730617 0.381353 0.558801
0.777920 0.389715 0.589715
0.820584 0.397314 0.617060
0.859190 0.403754 0.641352
0.894438 0.408270 0.663020
0.926818 0.410163 0.682277
0.953002 0.441077 0.701015
0.975128 0.494545 0.720790
0.000000 0.410834 0.285496
0.000000 0.410346 0.285283
0.000000 0.409613 0.284886
0.000000 0.407965 0.284184
0.000000 0.405371 0.283024
0.000000 0.401923 0.281468
0.000000 0.407324 0.282170
0.000000 0.415259 0.283024
0.000000 0.425147 0.283543
0.000000 0.437324 0.283482
0.000000 0.447700 0.277226
0.000000 0.455695 0.262608
0.000000 0.464271 0.242313
0.000000 0.471687 0.194034
0.151766 0.470710 0.123751
0.289128 0.464607 0.099428
0.410559 0.443763 0.108766
0.467231 0.316716 0.170840
0.511009 0.194461 0.214511
0.538811 0.221439 0.293431
0.566155 0.264927 0.358282
0.594171 0.309514 0.412573
0.622675 0.355383 0.460700
0.651392 0.402899 0.504723
0.699977 0.429236 0.545190
0.752499 0.444923 0.580987
0.799557 0.459297 0.612482
0.841733 0.472023 0.640192
0.879728 0.482795 0.664637
0.914244 0.491646 0.686336
0.945769 0.498299 0.705653
0.974823 0.502129 0.722866
0.000000 0.446723 0.311192
0.000000 0.446204 0.310948
0.000000 0.445563 0.310643
0.000000 0.444038 0.309972
0.000000 0.441535 0.308812
0.000000 0.438270 0.307378
0.000000 0.439796 0.307164
0.000000 0.447333 0.308141
0.000000 0.456703 0.309026
0.000000 0.468177 0.309667
0.000000 0.482124 0.309880
0.000000 0.491737 0.300237
0.000000 0.501030 0.285100
0.000000 0.511101 0.264317
0.000000 0.518914 0.207187
0.170260 0.517418 0.139651
0.313481 0.510857 0.114473
0.448829 0.500145 0.111482
0.505608 0.377295 0.180606
0.552941 0.238651 0.229557
0.582940 0.237278 0.298985
0.609491 0.285008 0.369909
0.636713 0.333349 0.428138
0.664210 0.382849 0.479103
0.692103 0.433234 0.525048
0.720912 0.483467 0.567285
0.774014 0.503685 0.603967
0.821073 0.521782 0.635798
0.862913 0.537804 0.663783
0.900359 0.551873 0.688380
0.934142 0.564172 0.710262
0.964813 0.574731 0.729793
0.000000 0.482918 0.337072
0.000000 0.482490 0.336858
0.000000 0.481788 0.336522
0.000000 0.480385 0.335912
0.000000 0.478065 0.334936
0.000000 0.475044 0.333562
0.000000 0.472633 0.332158
0.000000 0.479561 0.333196
0.000000 0.488228 0.334234
0.000000 0.498817 0.335180
0.000000 0.511681 0.335851
0.000000 0.525719 0.334600
0.000000 0.535363 0.322972
0.000000 0.545830 0.307347
0.000000 0.556970 0.286534
0.000000 0.564691 0.221073
0.190158 0.562615 0.158175
0.337713 0.555840 0.132906
0.486732 0.554772 0.117525
0.543420 0.435645 0.192447
0.594202 0.281743 0.245945
0.626398 0.256077 0.304295
0.652064 0.307744 0.381567
0.678340 0.359930 0.443854
0.705013 0.412665 0.497658
0.731960 0.466011 0.545739
0.759487 0.517296 0.588861
0.795895 0.556909 0.627070
0.843046 0.578149 0.659480
0.884581 0.597131 0.687739
0.921416 0.614038 0.712581
0.954437 0.629450 0.734737
0.000000 0.519371 0.363043
0.000000 0.518853 0.362799
0.000000 0.518303 0.362615
0.000000 0.516930 0.361944
0.000000 0.514763 0.361028
0.000000 0.511925 0.359747
0.000000 0.508263 0.358129
0.000000 0.512078 0.358343
0.000000 0.519982 0.359319
0.000000 0.529625 0.360296
0.000000 0.541344 0.361151
0.000000 0.555322 0.362005
0.000000 0.568078 0.357641
0.000000 0.578454 0.345556
0.000000 0.589532 0.329839
0.000000 0.601068 0.309392
0.000000 0.608301 0.236057
0.211917 0.605921 0.179568
0.361608 0.598932 0.154757
0.524315 0.607813 0.127199
0.580896 0.491646 0.206546
0.632471 0.344854 0.263310
0.668971 0.278965 0.310735
0.693874 0.333593 0.393957
0.719142 0.389349 0.460365
0.744869 0.445258 0.516960
0.771054 0.499794 0.566613
0.797971 0.550866 0.610407
0.825376 0.599207 0.649805
0.865904 0.630030 0.683558
0.907103 0.651606 0.712215
0.943359 0.671229 0.737392
0.000000 0.557061 0.389868
0.000000 0.556634 0.389685
0.000000 0.556054 0.389410
0.000000 0.554864 0.388891
0.000000 0.552972 0.388067
0.000000 0.550317 0.386938
0.000000 0.547021 0.385504
0.000000 0.546227 0.384558
0.000000 0.553399 0.385382
0.000000 0.562005 0.386236
0.000000 0.572442 0.386969
0.000000 0.584680 0.387610
0.000000 0.598901 0.388434
0.000000 0.609796 0.380499
0.000000 0.620417 0.368170
0.000000 0.631617 0.352514
0.000000 0.643275 0.333379
0.000000 0.649866 0.253696
0.236118 0.647150 0.204471
0.385718 0.640040 0.180331
0.550378 0.649866 0.147585
0.617975 0.545281 0.223362
0.669032 0.412482 0.282902
0.708156 0.328618 0.333532
0.734615 0.362554 0.407813
0.758999 0.421454 0.478126
0.783780 0.479652 0.537224
0.809323 0.533989 0.587762
0.835538 0.584924 0.632166
0.862364 0.633265 0.672084
0.890105 0.678676 0.708309
0.930938 0.702693 0.737362
0.000000 0.595972 0.417426
0.000000 0.595605 0.417273
0.000000 0.595178 0.417090
0.000000 0.594141 0.416632
0.000000 0.592432 0.415961
0.000000 0.590204 0.415045
0.000000 0.587243 0.413794
0.000000 0.583734 0.412329
0.000000 0.588403 0.412451
0.000000 0.595758 0.412787
0.000000 0.604608 0.413123
0.000000 0.615045 0.413306
0.000000 0.627222 0.413703
0.000000 0.640406 0.413123
0.000000 0.650355 0.403174
0.000000 0.660945 0.390906
0.000000 0.672084 0.376196
0.000000 0.683650 0.359014
0.000000 0.689387 0.274083
0.262730 0.686366 0.232334
0.410376 0.679164 0.208988
0.569085 0.686152 0.173526
0.654627 0.597070 0.243198
0.704891 0.475074 0.304906
0.746487 0.376806 0.358343
0.774441 0.394415 0.423743
0.797696 0.456336 0.497627
0.821775 0.514611 0.558099
0.846647 0.568780 0.609461
0.872190 0.619654 0.654414
0.898436 0.667872 0.694667
0.925261 0.713924 0.731411
0.000000 0.635248 0.445075
0.000000 0.634913 0.444923
0.000000 0.634546 0.444800
0.000000 0.633661 0.444434
0.000000 0.632197 0.443915
0.000000 0.630243 0.443153
0.000000 0.627771 0.442176
0.000000 0.624689 0.441016
0.000000 0.624323 0.440070
0.000000 0.630457 0.439918
0.000000 0.637812 0.439704
0.000000 0.646601 0.439399
0.000000 0.656794 0.439216
0.000000 0.668605 0.439521
0.000000 0.679866 0.436011
0.000000 0.689662 0.426093
0.000000 0.700008 0.414313
0.000000 0.710842 0.400855
0.000000 0.721950 0.386419
0.104067 0.727016 0.297673
0.291661 0.723659 0.263279
0.435706 0.716457 0.240543
0.590112 0.718929 0.208377
0.690883 0.646448 0.266270
0.740291 0.533074 0.329778
0.783871 0.424231 0.385290
0.813016 0.429450 0.442359
0.835386 0.492409 0.518425
0.858762 0.550286 0.579889
0.883024 0.604242 0.631861
0.908019 0.655085 0.677333
0.933715 0.703395 0.718013
0.000000 0.674830 0.472755
0.000000 0.674586 0.472694
0.000000 0.674220 0.472541
0.000000 0.673426 0.472297
0.000000 0.672236 0.471870
0.000000 0.670558 0.471260
0.000000 0.668391 0.470527
0.000000 0.665766 0.469581
0.000000 0.662684 0.468544
0.000000 0.666255 0.467750
0.000000 0.672297 0.467018
0.000000 0.679530 0.466163
0.000000 0.687953 0.465339
0.000000 0.697719 0.464942
0.000000 0.708797 0.465614
0.000000 0.718318 0.459174
0.000000 0.727687 0.449500
0.000000 0.737545 0.438605
0.000000 0.747829 0.427131
0.138399 0.758267 0.415961
0.160983 0.762661 0.324987
0.323766 0.759030 0.297093
0.462409 0.751919 0.275242
0.611597 0.749966 0.246769
0.726711 0.693904 0.292546
0.775021 0.588403 0.357580
0.818631 0.484474 0.414801
0.849027 0.476112 0.469886
0.872007 0.529107 0.540612
0.894804 0.586725 0.602655
0.918456 0.640589 0.655268
0.942962 0.691524 0.701167
0.000000 0.714656 0.500511
0.000000 0.714443 0.500420
0.000000 0.714168 0.500389
0.000000 0.713466 0.500114
0.000000 0.712428 0.499855
0.000000 0.711055 0.499428
0.000000 0.709255 0.498909
0.000000 0.707027 0.498207
0.000000 0.704402 0.497414
0.000000 0.703395 0.496407
0.000000 0.708217 0.495125
0.000000 0.713924 0.493751
0.000000 0.720668 0.492348
0.000000 0.728511 0.491127
0.000000 0.737545 0.490852
0.000000 0.747372 0.491066
0.000000 0.755673 0.482795
0.000000 0.764431 0.473762
0.000000 0.773556 0.464332
0.089601 0.782986 0.455268
0.207248 0.792508 0.447333
0.213870 0.796384 0.355596
0.358953 0.792508 0.333837
0.490730 0.785458 0.312566
0.633234 0.779782 0.286748
0.761990 0.739284 0.322057
0.809018 0.640711 0.388495
0.851194 0.550622 0.447181
0.883452 0.526024 0.501579
0.907683 0.566644 0.564324
0.929839 0.624079 0.626856
0.952972 0.678126 0.679896
0.000000 0.754726 0.528313
0.000000 0.754543 0.528252
0.000000 0.754299 0.528191
0.000000 0.753719 0.528038
0.000000 0.752865 0.527825
0.000000 0.751705 0.527550
0.000000 0.750210 0.527184
0.000000 0.748379 0.526726
0.000000 0.746181 0.526177
0.000000 0.743587 0.525536
0.000000 0.745357 0.524041
0.000000 0.749813 0.522179
0.000000 0.755093 0.520256
0.000000 0.761196 0.518395
0.000000 0.768215 0.517174
0.000000 0.776211 0.517388
0.000000 0.784237 0.515190
0.000000 0.791775 0.507378
0.000000 0.799741 0.499458
0.000000 0.807889 0.491859
0.186740 0.816220 0.485542
0.264469 0.824186 0.475410
0.267796 0.828153 0.390723
0.397436 0.824094 0.372992
0.521202 0.817227 0.352697
0.655604 0.808408 0.328862
0.796658 0.782223 0.354986
0.842222 0.690639 0.422400
0.883146 0.610956 0.480781
0.917021 0.574243 0.534142
0.942290 0.605127 0.589715
0.963897 0.662806 0.652705
0.000000 0.794797 0.556023
0.000000 0.794644 0.555993
0.000000 0.794461 0.555962
0.000000 0.794003 0.555871
0.000000 0.793301 0.555749
0.000000 0.792355 0.555596
0.000000 0.791104 0.555383
0.000000 0.789639 0.555108
0.000000 0.787839 0.554833
0.000000 0.785702 0.554406
0.000000 0.783780 0.553826
0.000000 0.787137 0.551476
0.000000 0.791104 0.549035
0.000000 0.795682 0.546654
0.000000 0.800931 0.544701
0.000000 0.806943 0.543847
0.000000 0.813535 0.545098
0.000000 0.820035 0.540459
0.000000 0.826627 0.533471
0.000000 0.833494 0.526879
0.172305 0.840452 0.521386
0.261997 0.847501 0.517937
0.320806 0.854063 0.505180
0.326665 0.857816 0.431098
0.439307 0.853880 0.414557
0.554253 0.847288 0.395300
0.680079 0.836606 0.372900
0.830716 0.822965 0.391180
0.874846 0.737728 0.457801
0.914641 0.666621 0.515282
0.949737 0.621363 0.567620
0.975463 0.647333 0.618891
0.000000 0.834653 0.583551
0.000000 0.834562 0.583551
0.000000 0.834348 0.583551
0.000000 0.834012 0.583520
0.000000 0.833463 0.583459
0.000000 0.832731 0.583429
0.000000 0.831785 0.583368
0.000000 0.830564 0.583276
0.000000 0.829129 0.583185
0.000000 0.827512 0.583001
0.000000 0.825559 0.582849
0.000000 0.825559 0.581567
0.000000 0.828397 0.578729
0.000000 0.831693 0.575860
0.000000 0.835477 0.573388
0.000000 0.839689 0.571679
0.000000 0.844327 0.571618
0.000000 0.849271 0.573510
0.000000 0.854520 0.567224
0.000000 0.859983 0.561364
0.169986 0.865537 0.556481
0.260105 0.871214 0.553124
0.330938 0.877012 0.551507
0.376013 0.882383 0.535851
0.383856 0.885863 0.471504
0.483436 0.882048 0.456519
0.589868 0.875731 0.439185
0.708675 0.865568 0.418891
0.864134 0.861509 0.429145
0.907012 0.782132 0.494057
0.945586 0.718807 0.550927
0.980682 0.674464 0.602838
0.000000 0.873960 0.610803
0.000000 0.873838 0.610803
0.000000 0.873716 0.610803
0.000000 0.873503 0.610803
0.000000 0.873045 0.610864
0.000000 0.872496 0.610895
0.000000 0.871763 0.610956
0.000000 0.870848 0.611017
0.000000 0.869780 0.611109
0.000000 0.868528 0.611231
0.000000 0.867094 0.611292
0.000000 0.865446 0.611444
0.000000 0.866636 0.609003
0.000000 0.868864 0.605890
0.000000 0.871366 0.602960
0.000000 0.874113 0.600763
0.000000 0.877012 0.599878
0.000000 0.880064 0.601373
0.000000 0.883452 0.601465
0.000000 0.887510 0.596094
0.184451 0.891661 0.591547
0.268559 0.895933 0.588098
0.336034 0.900328 0.585931
0.396521 0.904845 0.585504
0.431159 0.909270 0.567315
0.440803 0.912474 0.511833
0.529503 0.908812 0.498207
0.627741 0.902770 0.482673
0.738979 0.893156 0.464515
0.896788 0.897459 0.467903
0.938659 0.824125 0.531487
0.975982 0.768246 0.588159
0.000000 0.912322 0.637690
0.000000 0.912261 0.637690
0.000000 0.912169 0.637720
0.000000 0.911986 0.637781
0.000000 0.911681 0.637903
0.000000 0.911254 0.637995
0.000000 0.910765 0.638178
0.000000 0.910124 0.638392
0.000000 0.909361 0.638575
0.000000 0.908476 0.638849
0.000000 0.907439 0.639155
0.000000 0.906279 0.639551
0.000000 0.905211 0.639612
0.000000 0.906584 0.636347
0.000000 0.908080 0.633295
