其他预设/【213】赛博朋克科幻预设52款/1.LUT预设（视频调色-PR-AE-PS-FCPX-达芬奇用）/赛博朋克科幻__-8 强度3.cube
# Created by Adobe Lightroom plugin Export LUT (1.17.0)
# www.johnrellis.com/lightroom/exportlut.htm
# Preset: 赛博朋克科幻[素锦印象]-8 强度3
# Color profile: /Library/Application Support/Adobe/Color/Profiles/Recommended/AdobeRGB1998.icc
LUT_3D_SIZE 5
DOMAIN_MIN 0.000000 0.000000 0.000000
DOMAIN_MAX 0.903226 0.903226 0.903226
0.000000 0.047822 0.000000
0.143374 0.056733 0.105806
0.381201 0.000000 0.264744
0.665339 0.000000 0.435584
0.897887 0.000000 0.571221
0.000000 0.198062 0.121706
0.101137 0.191104 0.058412
0.347204 0.111330 0.233707
0.661463 0.000000 0.437446
0.899321 0.000000 0.575250
0.000000 0.431830 0.277592
0.000000 0.447883 0.267460
0.247837 0.468910 0.087922
0.641718 0.128084 0.261784
0.852995 0.424475 0.579736
0.000000 0.687282 0.441657
0.000000 0.690364 0.437263
0.000000 0.725399 0.390600
0.431678 0.743343 0.209110
0.899107 0.455818 0.393530
0.000000 0.940826 0.596979
0.000000 0.940551 0.598596
0.000000 0.943633 0.591455
0.281193 0.953704 0.555596
0.667933 0.951659 0.473671
0.013245 0.043763 0.140261
0.170687 0.000000 0.181827
0.443427 0.000000 0.358007
0.703304 0.000000 0.493812
0.911589 0.000000 0.596674
0.000000 0.179385 0.151644
0.134951 0.188693 0.158633
0.393133 0.148775 0.312016
0.688594 0.000000 0.484077
0.912749 0.000000 0.600092
0.000000 0.416114 0.293767
0.000000 0.434394 0.292607
0.269993 0.467903 0.199496
0.630976 0.283177 0.364385
0.863737 0.456641 0.610437
0.000000 0.672724 0.455665
0.000000 0.681483 0.450507
0.000000 0.718990 0.428229
0.453223 0.741512 0.293523
0.894743 0.493782 0.455055
0.000000 0.938933 0.609552
0.000000 0.938689 0.611109
0.000000 0.942016 0.602930
0.332952 0.950591 0.582544
0.685420 0.949676 0.511131
0.058961 0.000000 0.356481
0.236606 0.000000 0.399176
0.512902 0.000000 0.518029
0.789639 0.000000 0.623774
0.949004 0.000000 0.666163
0.000000 0.227939 0.326116
0.140230 0.182895 0.374823
0.486519 0.076997 0.498878
0.776608 0.000000 0.618738
0.949432 0.000000 0.667109
0.000000 0.370184 0.326055
0.000000 0.387060 0.341192
0.356085 0.460822 0.406683
0.671534 0.480232 0.567315
0.916350 0.456703 0.680415
0.000000 0.640528 0.487098
0.000000 0.649958 0.487587
0.000000 0.690059 0.496193
0.525994 0.734401 0.474220
0.881804 0.603449 0.602533
0.000000 0.930480 0.653986
0.000000 0.931334 0.654139
0.000000 0.938689 0.639460
0.435676 0.941192 0.652308
0.733822 0.944305 0.601862
0.086061 0.000000 0.613764
0.268833 0.000000 0.640223
0.544823 0.000000 0.694087
0.816770 0.000000 0.753719
0.998535 0.000000 0.774655
0.000000 0.177401 0.592798
0.156588 0.161837 0.622248
0.527672 0.000000 0.693019
0.810544 0.000000 0.753201
0.999084 0.000000 0.776242
0.000000 0.433021 0.511864
0.000000 0.438605 0.530053
0.378119 0.461524 0.636622
0.768704 0.505394 0.735836
0.985626 0.365209 0.781735
0.000000 0.581201 0.519188
0.000000 0.587976 0.525200
0.000000 0.619562 0.553338
0.630518 0.722621 0.651759
0.914916 0.745113 0.775143
0.000000 0.912902 0.724269
0.000000 0.914977 0.722835
0.000000 0.924132 0.713130
0.345159 0.932036 0.708705
0.804440 0.936217 0.713680
0.117891 0.000000 0.832334
0.275364 0.000000 0.840787
0.549157 0.000000 0.865751
0.800809 0.000000 0.879942
1.000000 0.000000 0.882231
0.000000 0.138064 0.825223
0.181674 0.092073 0.835264
0.525780 0.000000 0.864286
0.794217 0.000000 0.881346
1.000000 0.000000 0.884367
0.000000 0.496986 0.772671
0.000000 0.478767 0.789609
0.398230 0.445136 0.837827
0.778775 0.418219 0.876677
1.000000 0.000000 0.890959
0.000000 0.672358 0.743893
0.000000 0.668940 0.748104
0.000000 0.659632 0.764218
0.664668 0.722896 0.838590
0.977600 0.744228 0.886137
0.000000 0.888487 0.800626
0.000000 0.888151 0.800259
0.000000 0.886778 0.798703
0.000000 0.882841 0.794888
0.901762 0.923369 0.846983
