其他预设/【213】赛博朋克科幻预设52款/1.LUT预设（视频调色-PR-AE-PS-FCPX-达芬奇用）/赛博朋克科幻__-8 强度2.cube
# Created by Adobe Lightroom plugin Export LUT (1.17.0)
# www.johnrellis.com/lightroom/exportlut.htm
# Preset: 赛博朋克科幻[素锦印象]-8 强度2
# Color profile: /Library/Application Support/Adobe/Color/Profiles/Recommended/AdobeRGB1998.icc
LUT_3D_SIZE 5
DOMAIN_MIN 0.000000 0.000000 0.000000
DOMAIN_MAX 0.903226 0.903226 0.903226
0.000000 0.024048 0.000000
0.171603 0.000000 0.101503
0.402594 0.000000 0.227970
0.662409 0.000000 0.361608
0.897093 0.000000 0.477302
0.000000 0.209720 0.115358
0.142397 0.203891 0.046693
0.398596 0.000000 0.151186
0.640284 0.000000 0.336004
0.887877 0.000000 0.475624
0.000000 0.449714 0.247593
0.000000 0.460700 0.214633
0.327764 0.463661 0.063752
0.660639 0.268009 0.177157
0.894377 0.036744 0.373907
0.000000 0.693050 0.379980
0.000000 0.700038 0.365270
0.000000 0.722621 0.236881
0.530907 0.719051 0.136965
0.902190 0.542382 0.268711
0.000000 0.928466 0.506981
0.000000 0.930297 0.499214
0.000000 0.935668 0.476783
0.262181 0.950652 0.352209
0.743771 0.936431 0.333562
0.008392 0.020050 0.170596
0.190585 0.000000 0.194766
0.434089 0.000000 0.306554
0.681422 0.000000 0.416175
0.907836 0.000000 0.511894
0.000000 0.196445 0.174960
0.165866 0.201297 0.181918
0.401617 0.168307 0.275761
0.661555 0.000000 0.396277
0.897795 0.000000 0.510033
0.000000 0.440620 0.285740
0.000000 0.451331 0.277531
0.340215 0.462593 0.201755
0.658778 0.286229 0.271977
0.886381 0.279088 0.458412
0.000000 0.686946 0.406348
0.000000 0.693568 0.396918
0.000000 0.717067 0.323857
0.541588 0.717830 0.249332
0.902129 0.539544 0.348363
0.000000 0.927001 0.527153
0.000000 0.928893 0.519402
0.000000 0.932158 0.518486
0.307286 0.948302 0.404547
0.754391 0.934966 0.396948
0.005249 0.000000 0.392157
0.229831 0.000000 0.415900
0.483803 0.000000 0.481636
0.748806 0.000000 0.565301
0.939910 0.000000 0.605219
0.000000 0.230594 0.375555
0.162448 0.195804 0.402319
0.466712 0.145174 0.469917
0.732326 0.000000 0.554742
0.933684 0.000000 0.602747
0.000000 0.411353 0.371527
0.000000 0.421088 0.381476
0.391485 0.456855 0.420996
0.655207 0.449165 0.514244
0.893980 0.442481 0.612818
0.000000 0.665766 0.480568
0.000000 0.672023 0.478889
0.247654 0.695521 0.483436
0.581323 0.712825 0.456275
0.896361 0.583032 0.529503
0.000000 0.921019 0.592462
0.000000 0.923369 0.586114
0.000000 0.929381 0.574975
0.449104 0.937652 0.557671
0.786130 0.930724 0.537591
0.000000 0.000000 0.632471
0.239078 0.000000 0.647333
0.516442 0.000000 0.690272
0.768673 0.000000 0.727077
0.978210 0.000000 0.746334
0.000000 0.192660 0.621424
0.157839 0.182132 0.637171
0.497780 0.120821 0.686061
0.762020 0.000000 0.724025
0.977142 0.000000 0.747127
0.000000 0.452430 0.577844
0.000000 0.451881 0.586908
0.394598 0.451484 0.645502
0.731289 0.474952 0.710048
0.957214 0.427436 0.752804
0.000000 0.635737 0.576898
0.000000 0.639887 0.581323
0.219730 0.656092 0.599451
0.645228 0.704372 0.656550
0.896880 0.703334 0.737148
0.000000 0.908354 0.694575
0.000000 0.910552 0.691951
0.000000 0.917632 0.683680
0.505669 0.922667 0.694423
0.834134 0.924529 0.692653
0.000000 0.000000 0.851377
0.235752 0.000000 0.856687
0.501701 0.000000 0.873777
0.759457 0.000000 0.889677
0.989258 0.000000 0.894957
0.000000 0.169192 0.847257
0.151278 0.147829 0.852903
0.476783 0.000000 0.870970
0.753841 0.000000 0.889738
0.989593 0.000000 0.896941
0.000000 0.481880 0.820981
0.000000 0.471931 0.828672
0.396063 0.437263 0.854459
0.746151 0.441901 0.884947
0.979156 0.297459 0.895750
0.000000 0.686061 0.804623
0.000000 0.682307 0.806699
0.000000 0.672511 0.814328
0.653681 0.696590 0.855009
0.956909 0.719600 0.892027
0.000000 0.902525 0.820737
0.000000 0.902434 0.820951
0.000000 0.901274 0.821592
0.425574 0.895323 0.823056
0.900755 0.915129 0.861936
