其他预设/【213】赛博朋克科幻预设52款/1.LUT预设（视频调色-PR-AE-PS-FCPX-达芬奇用）/赛博朋克科幻__-5 强度3.cube
# Created by Adobe Lightroom plugin Export LUT (1.17.0)
# www.johnrellis.com/lightroom/exportlut.htm
# Preset: 赛博朋克科幻[素锦印象]-5 强度3
# Color profile: /Library/Application Support/Adobe/Color/Profiles/Recommended/AdobeRGB1998.icc
LUT_3D_SIZE 32
0.062257 0.060975 0.050752
0.069947 0.060029 0.053742
0.079377 0.058289 0.058869
0.097505 0.052796 0.064454
0.119417 0.040986 0.071931
0.143282 0.021668 0.079713
0.169375 0.000000 0.088777
0.198154 0.000000 0.098878
0.230350 0.000000 0.110719
0.266636 0.000000 0.124331
0.307744 0.000000 0.140169
0.352361 0.000000 0.157534
0.399512 0.000000 0.176303
0.448249 0.000000 0.196078
0.497353 0.000000 0.216342
0.546044 0.000000 0.236820
0.593164 0.000000 0.256962
0.637537 0.000000 0.276432
0.677699 0.000000 0.294377
0.715389 0.000000 0.311467
0.751095 0.000000 0.328099
0.785153 0.000000 0.344152
0.817594 0.000000 0.359899
0.848478 0.000000 0.375128
0.877989 0.000000 0.389929
0.906249 0.000000 0.404486
0.933288 0.000000 0.418830
0.959258 0.000000 0.432959
0.984314 0.000000 0.447150
1.000000 0.000000 0.461341
1.000000 0.000000 0.475837
1.000000 0.000000 0.490822
0.059449 0.071229 0.060090
0.067384 0.069429 0.051575
0.079500 0.062318 0.052003
0.097688 0.053010 0.060121
0.119265 0.041199 0.071199
0.142916 0.022126 0.079377
0.169070 0.000000 0.088502
0.197757 0.000000 0.098909
0.230014 0.000000 0.110719
0.266453 0.000000 0.124331
0.307530 0.000000 0.140017
0.352087 0.000000 0.157382
0.399298 0.000000 0.176181
0.448066 0.000000 0.195987
0.497230 0.000000 0.216251
0.545892 0.000000 0.236728
0.593042 0.000000 0.256901
0.637415 0.000000 0.276341
0.677577 0.000000 0.294316
0.715297 0.000000 0.311498
0.751034 0.000000 0.328099
0.785122 0.000000 0.344152
0.817563 0.000000 0.359777
0.848447 0.000000 0.375097
0.877989 0.000000 0.389929
0.906249 0.000000 0.404517
0.933318 0.000000 0.418891
0.959258 0.000000 0.432959
0.984314 0.000000 0.447150
1.000000 0.000000 0.461402
1.000000 0.000000 0.475868
1.000000 0.000000 0.490852
0.052827 0.083375 0.067292
0.061677 0.082124 0.061921
0.075166 0.079469 0.051637
0.097292 0.065248 0.054261
0.119966 0.041505 0.061128
0.143221 0.022370 0.074006
0.168765 0.000000 0.086488
0.197360 0.000000 0.098665
0.229709 0.000000 0.110536
0.266087 0.000000 0.124178
0.307134 0.000000 0.139864
0.351781 0.000000 0.157259
0.398932 0.000000 0.176089
0.447761 0.000000 0.195895
0.496834 0.000000 0.216068
0.545678 0.000000 0.236637
0.592828 0.000000 0.256809
0.637171 0.000000 0.276371
0.677485 0.000000 0.294255
0.715175 0.000000 0.311437
0.750973 0.000000 0.328038
0.785061 0.000000 0.344152
0.817533 0.000000 0.359777
0.848447 0.000000 0.375097
0.877989 0.000000 0.389929
0.906249 0.000000 0.404486
0.933318 0.000000 0.418891
0.959289 0.000000 0.433021
0.984344 0.000000 0.447150
1.000000 0.000000 0.461402
1.000000 0.000000 0.475868
1.000000 0.000000 0.490883
0.032105 0.106386 0.080415
0.053040 0.104921 0.077119
0.060578 0.103151 0.069856
0.089570 0.097963 0.052766
0.118288 0.076905 0.056641
0.143221 0.042634 0.058015
0.169223 0.000000 0.070130
0.197574 0.000000 0.085756
0.229587 0.000000 0.102144
0.265690 0.000000 0.119753
0.306432 0.000000 0.138918
0.351049 0.000000 0.157015
0.398260 0.000000 0.175723
0.447028 0.000000 0.195590
0.496407 0.000000 0.215885
0.545190 0.000000 0.236393
0.592370 0.000000 0.256687
0.636835 0.000000 0.276097
0.677180 0.000000 0.294133
0.714900 0.000000 0.311315
0.750790 0.000000 0.327977
0.784939 0.000000 0.344121
0.817441 0.000000 0.359808
0.848386 0.000000 0.375036
0.877958 0.000000 0.389990
0.906249 0.000000 0.404517
0.933318 0.000000 0.418891
0.959319 0.000000 0.433051
0.984375 0.000000 0.447181
1.000000 0.000000 0.461433
1.000000 0.000000 0.475959
1.000000 0.000000 0.490913
0.000000 0.136538 0.097993
0.014008 0.134768 0.095033
0.048798 0.132265 0.090059
0.058961 0.128756 0.074800
0.106905 0.120119 0.053498
0.140871 0.095125 0.057923
0.167178 0.068727 0.060517
0.197818 0.000000 0.062684
0.229709 0.000000 0.081422
0.265782 0.000000 0.100099
0.306401 0.000000 0.119722
0.350866 0.000000 0.141634
0.397986 0.000000 0.164523
0.446571 0.000000 0.188022
0.495705 0.000000 0.212192
0.544335 0.000000 0.236088
0.591669 0.000000 0.256321
0.636225 0.000000 0.275883
0.676722 0.000000 0.293950
0.714626 0.000000 0.311131
0.750546 0.000000 0.327825
0.784756 0.000000 0.343999
0.817319 0.000000 0.359747
0.848356 0.000000 0.374975
0.877958 0.000000 0.389899
0.906249 0.000000 0.404486
0.933318 0.000000 0.418891
0.959350 0.000000 0.433051
0.984436 0.000000 0.447181
1.000000 0.000000 0.461463
1.000000 0.000000 0.475990
1.000000 0.000000 0.491005
0.000000 0.171023 0.119173
0.000000 0.169131 0.116091
0.000000 0.166598 0.111452
0.036072 0.161593 0.099825
0.053132 0.155856 0.076600
0.126284 0.144503 0.052705
0.165896 0.116701 0.058534
0.193668 0.091493 0.062409
0.228061 0.020111 0.063294
0.265812 0.000000 0.072511
0.306493 0.000000 0.096498
0.350988 0.000000 0.120394
0.397925 0.000000 0.144198
0.446723 0.000000 0.168612
0.495888 0.000000 0.192966
0.544640 0.000000 0.217594
0.591821 0.000000 0.241764
0.636225 0.000000 0.265324
0.676448 0.000000 0.288212
0.714137 0.000000 0.310399
0.750179 0.000000 0.327703
0.784543 0.000000 0.343908
0.817166 0.000000 0.359686
0.848234 0.000000 0.374945
0.877897 0.000000 0.389899
0.906218 0.000000 0.404517
0.933379 0.000000 0.418891
0.959411 0.000000 0.433082
0.984527 0.000000 0.447242
1.000000 0.000000 0.461524
1.000000 0.000000 0.476051
1.000000 0.000000 0.491096
0.000000 0.210086 0.143618
0.000000 0.208194 0.140414
0.000000 0.205600 0.136202
0.000000 0.200015 0.126345
0.010071 0.193332 0.107149
0.042115 0.185428 0.074372
0.148287 0.171878 0.047486
0.193820 0.141482 0.054963
0.224735 0.116365 0.061616
0.262242 0.074464 0.064057
0.305547 0.000000 0.065217
0.351080 0.000000 0.085512
0.398077 0.000000 0.115480
0.446906 0.000000 0.143435
0.496223 0.000000 0.170443
0.544945 0.000000 0.196811
0.592248 0.000000 0.222477
0.636683 0.000000 0.246952
0.677119 0.000000 0.269841
0.714931 0.000000 0.291569
0.750881 0.000000 0.312322
0.784909 0.000000 0.334813
0.817136 0.000000 0.356847
0.848112 0.000000 0.374884
0.877836 0.000000 0.389899
0.906218 0.000000 0.404517
0.933410 0.000000 0.418891
0.959503 0.000000 0.433143
0.984649 0.000000 0.447303
1.000000 0.000000 0.461616
1.000000 0.000000 0.476204
1.000000 0.000000 0.491188
0.000000 0.254398 0.171786
0.000000 0.252567 0.168887
0.000000 0.249943 0.164645
0.000000 0.244419 0.155215
0.000000 0.236271 0.138796
0.000000 0.227878 0.112886
0.027985 0.218753 0.059083
0.173251 0.202853 0.037049
0.225376 0.169589 0.049836
0.260441 0.145083 0.058808
0.300786 0.108339 0.062928
0.348089 0.000000 0.063752
0.397955 0.000000 0.066102
0.447242 0.000000 0.101961
0.496590 0.000000 0.136507
0.545434 0.000000 0.167269
0.592737 0.000000 0.196078
0.637263 0.000000 0.222995
0.677760 0.000000 0.247807
0.715785 0.000000 0.271366
0.751766 0.000000 0.293767
0.785946 0.000000 0.315068
0.818418 0.000000 0.335393
0.849210 0.000000 0.358099
0.878447 0.000000 0.380926
0.906340 0.000000 0.403204
0.933471 0.000000 0.418921
0.959625 0.000000 0.433173
0.984771 0.000000 0.447364
1.000000 0.000000 0.461677
1.000000 0.000000 0.476295
1.000000 0.000000 0.491341
0.000000 0.305638 0.205203
0.000000 0.303777 0.202274
0.000000 0.301244 0.198306
0.000000 0.295567 0.189242
0.000000 0.287053 0.173983
0.000000 0.277409 0.150759
0.000000 0.266667 0.118318
0.048341 0.256321 0.020264
0.202060 0.238193 0.018372
0.261418 0.202029 0.035492
0.300969 0.177981 0.048707
0.343420 0.143618 0.058900
0.393286 0.074403 0.059876
0.445136 0.000000 0.061891
0.497139 0.000000 0.071199
0.546014 0.000000 0.120607
0.593347 0.000000 0.157778
0.638025 0.000000 0.189944
0.678614 0.000000 0.218753
0.716701 0.000000 0.245151
0.752773 0.000000 0.269718
0.787076 0.000000 0.292973
0.819608 0.000000 0.315038
0.850584 0.000000 0.335882
0.880034 0.000000 0.357000
0.907958 0.000000 0.381048
0.934630 0.000000 0.404578
0.960143 0.000000 0.427893
0.984955 0.000000 0.447486
1.000000 0.000000 0.461830
1.000000 0.000000 0.476448
1.000000 0.000000 0.491524
0.000000 0.363134 0.243900
0.000000 0.361364 0.241032
0.000000 0.358984 0.237186
0.000000 0.353552 0.228244
0.000000 0.345159 0.213779
0.000000 0.334142 0.192416
0.000000 0.323125 0.162539
0.000000 0.310155 0.122133
0.089540 0.298253 0.000000
0.234958 0.278874 0.000000
0.301366 0.240391 0.007080
0.345159 0.214054 0.023804
0.390387 0.180880 0.040040
0.439948 0.126192 0.049409
0.492714 0.000000 0.053162
0.544793 0.000000 0.059846
0.594324 0.000000 0.089570
0.638911 0.000000 0.140414
0.679591 0.000000 0.177859
0.717800 0.000000 0.210025
0.754025 0.000000 0.238621
0.788327 0.000000 0.264958
0.820920 0.000000 0.289433
0.851926 0.000000 0.312383
0.881468 0.000000 0.334142
0.909728 0.000000 0.354803
0.936431 0.000000 0.379492
0.961975 0.000000 0.404547
0.986511 0.000000 0.429328
1.000000 0.000000 0.454047
1.000000 0.000000 0.476600
1.000000 0.000000 0.491737
0.000000 0.425238 0.287419
0.000000 0.423560 0.284642
0.000000 0.421302 0.280735
0.000000 0.416205 0.272160
0.000000 0.408087 0.258061
0.000000 0.397314 0.238041
0.000000 0.385229 0.209964
0.000000 0.372320 0.173617
0.000000 0.357397 0.124025
0.125277 0.344366 0.000000
0.271519 0.323888 0.000000
0.344152 0.284977 0.000000
0.392187 0.253452 0.000000
0.439155 0.220401 0.007080
0.487404 0.171939 0.027558
0.539879 0.066712 0.033906
0.590753 0.000000 0.045136
0.638697 0.000000 0.058228
0.680781 0.000000 0.109926
0.719112 0.000000 0.159091
0.755398 0.000000 0.196353
0.789761 0.000000 0.228550
0.822446 0.000000 0.257053
0.853422 0.000000 0.283055
0.883024 0.000000 0.307286
0.911284 0.000000 0.330114
0.938323 0.000000 0.351507
0.964050 0.000000 0.376471
0.988586 0.000000 0.403265
1.000000 0.000000 0.429786
1.000000 0.000000 0.456214
1.000000 0.000000 0.482887
0.000000 0.489601 0.334478
0.000000 0.488106 0.331823
0.000000 0.485817 0.327916
0.000000 0.481178 0.319585
0.000000 0.473793 0.306065
0.000000 0.463569 0.286900
0.000000 0.450721 0.260807
0.000000 0.438056 0.226474
0.000000 0.423438 0.183047
0.000000 0.406897 0.122988
0.162203 0.393133 0.000000
0.310491 0.371679 0.000000
0.389410 0.332494 0.000000
0.440833 0.295140 0.000000
0.488380 0.261692 0.000000
0.535607 0.215793 0.000000
0.585565 0.141726 0.008362
0.633997 0.000000 0.021668
0.678370 0.000000 0.042908
0.720150 0.000000 0.060517
0.756924 0.000000 0.130220
0.791348 0.000000 0.177279
0.824002 0.000000 0.214206
0.855100 0.000000 0.245792
0.884733 0.000000 0.274083
0.912993 0.000000 0.299992
0.940063 0.000000 0.323919
0.966064 0.000000 0.346441
0.990845 0.000000 0.372290
1.000000 0.000000 0.401160
1.000000 0.000000 0.429603
1.000000 0.000000 0.458198
0.000000 0.553368 0.383459
0.000000 0.552117 0.380987
0.000000 0.550103 0.377264
0.000000 0.545983 0.369329
0.000000 0.539330 0.356420
0.000000 0.530236 0.338231
0.000000 0.518242 0.313787
0.000000 0.505028 0.281498
0.000000 0.491066 0.241093
0.000000 0.475227 0.190677
0.000000 0.458259 0.110475
0.200229 0.443427 0.000000
0.351049 0.421241 0.000000
0.436561 0.382727 0.000000
0.489784 0.337957 0.000000
0.537072 0.303593 0.000000
0.583093 0.258854 0.000000
0.628595 0.196231 0.000000
0.673640 0.060609 0.000000
0.715969 0.000000 0.024628
0.755856 0.000000 0.050904
0.793149 0.000000 0.081025
0.825834 0.000000 0.150484
0.856901 0.000000 0.195224
0.886595 0.000000 0.231083
0.914855 0.000000 0.262303
0.941894 0.000000 0.290227
0.967926 0.000000 0.315801
0.993011 0.000000 0.339574
1.000000 0.000000 0.367285
1.000000 0.000000 0.398535
1.000000 0.000000 0.429511
0.000000 0.613733 0.432349
0.000000 0.612512 0.429786
0.000000 0.610925 0.426490
0.000000 0.607507 0.419074
0.000000 0.601740 0.406928
0.000000 0.593805 0.389776
0.000000 0.583429 0.367102
0.000000 0.570062 0.337438
0.000000 0.557397 0.299443
0.000000 0.542809 0.253574
0.000000 0.526024 0.195651
0.000000 0.510552 0.066407
0.238651 0.493721 0.000000
0.391882 0.470954 0.000000
0.488319 0.437720 0.000000
0.538048 0.381201 0.000000
0.583978 0.345251 0.000000
0.627710 0.301183 0.000000
0.668452 0.243626 0.000000
0.711177 0.156435 0.000000
0.751614 0.000000 0.008240
0.789761 0.000000 0.040589
0.825864 0.000000 0.063569
0.858915 0.000000 0.110384
0.888548 0.000000 0.170199
0.916808 0.000000 0.212894
0.943908 0.000000 0.247776
0.969879 0.000000 0.278294
0.994965 0.000000 0.305882
1.000000 0.000000 0.331151
1.000000 0.000000 0.361700
1.000000 0.000000 0.395941
0.000000 0.666896 0.477394
0.000000 0.665949 0.475135
0.000000 0.664607 0.472053
0.000000 0.661830 0.465217
0.000000 0.657160 0.454078
0.000000 0.650782 0.438636
0.000000 0.642237 0.418006
0.000000 0.631250 0.391180
0.000000 0.619074 0.356664
0.000000 0.606439 0.314183
0.000000 0.591730 0.263096
0.000000 0.574640 0.198032
0.000000 0.561334 0.000000
0.277165 0.542657 0.000000
0.432044 0.519615 0.000000
0.539086 0.491951 0.000000
0.584405 0.423743 0.000000
0.627955 0.385992 0.000000
0.668666 0.341405 0.000000
0.707546 0.287816 0.000000
0.746883 0.216342 0.000000
0.785550 0.073365 0.000000
0.822049 0.000000 0.032380
0.856687 0.000000 0.062562
0.889586 0.000000 0.076417
0.918914 0.000000 0.136599
0.945953 0.000000 0.190036
0.971984 0.000000 0.230411
0.997040 0.000000 0.264347
1.000000 0.000000 0.294194
1.000000 0.000000 0.321294
1.000000 0.000000 0.356390
0.000000 0.713558 0.518303
0.000000 0.712764 0.516228
0.000000 0.711696 0.513512
0.000000 0.709346 0.507256
0.000000 0.705501 0.497200
0.000000 0.700252 0.483131
0.000000 0.693294 0.464607
0.000000 0.684413 0.440742
0.000000 0.673060 0.410254
0.000000 0.662348 0.371405
0.000000 0.650019 0.325109
0.000000 0.635859 0.269444
0.000000 0.619593 0.197604
0.000000 0.609094 0.000000
0.315282 0.588647 0.000000
0.470253 0.565881 0.000000
0.583337 0.540642 0.000000
0.627497 0.464607 0.000000
0.668421 0.424872 0.000000
0.707393 0.380652 0.000000
0.744564 0.329625 0.000000
0.780850 0.266819 0.000000
0.817868 0.174594 0.000000
0.852842 0.000000 0.034821
0.886107 0.000000 0.064942
0.917754 0.000000 0.079805
0.947875 0.000000 0.091981
0.974121 0.000000 0.161318
0.999176 0.000000 0.209934
1.000000 0.000000 0.248173
1.000000 0.000000 0.281132
1.000000 0.000000 0.310369
0.000000 0.754330 0.555077
0.000000 0.753750 0.553277
0.000000 0.752834 0.550774
0.000000 0.750942 0.545159
0.000000 0.747768 0.536126
0.000000 0.743465 0.523522
0.000000 0.737697 0.506889
0.000000 0.730343 0.485481
0.000000 0.721035 0.458534
0.000000 0.710658 0.424323
0.000000 0.700435 0.382208
0.000000 0.688594 0.332677
0.000000 0.675074 0.272892
0.000000 0.659541 0.194369
0.000000 0.650294 0.000000
0.350683 0.630091 0.000000
0.504875 0.607813 0.000000
0.620630 0.583429 0.000000
0.667506 0.503288 0.000000
0.706661 0.462745 0.000000
0.743954 0.418738 0.000000
0.779599 0.369574 0.000000
0.813657 0.312322 0.000000
0.848600 0.238010 0.000153
0.882231 0.106935 0.048402
0.914214 0.000000 0.071931
0.944671 0.000000 0.087129
0.973846 0.000000 0.099519
1.000000 0.000000 0.123781
1.000000 0.000000 0.186069
1.000000 0.000000 0.230442
1.000000 0.000000 0.267063
0.000000 0.790219 0.588159
0.000000 0.789639 0.586389
0.000000 0.788968 0.584222
0.000000 0.787350 0.579126
0.000000 0.784756 0.570977
0.000000 0.781186 0.559747
0.000000 0.776455 0.544854
0.000000 0.770382 0.525872
0.000000 0.762722 0.502068
0.000000 0.753231 0.472724
0.000000 0.744350 0.434882
0.000000 0.734554 0.390265
0.000000 0.723354 0.337774
0.000000 0.710567 0.274052
0.000000 0.696132 0.188846
0.000000 0.687861 0.000000
0.385107 0.668330 0.000000
0.537438 0.646937 0.000000
0.654810 0.623438 0.000000
0.705257 0.540612 0.000000
0.742885 0.499428 0.000000
0.778653 0.455512 0.000000
0.812802 0.407874 0.000000
0.845518 0.354650 0.000000
0.877897 0.290776 0.026429
0.910246 0.201144 0.066773
0.941070 0.000000 0.084352
0.970520 0.000000 0.098604
0.998840 0.000000 0.110903
1.000000 0.000000 0.121767
1.000000 0.000000 0.158480
1.000000 0.000000 0.211795
0.000000 0.822782 0.618647
0.000000 0.822416 0.617212
0.000000 0.821744 0.615106
0.000000 0.820493 0.610590
0.000000 0.818387 0.603388
0.000000 0.815427 0.593286
0.000000 0.811551 0.579980
0.000000 0.806577 0.563134
0.000000 0.800381 0.542107
0.000000 0.792630 0.516533
0.000000 0.783871 0.484260
0.000000 0.775845 0.443793
0.000000 0.766690 0.396887
0.000000 0.756252 0.341711
0.000000 0.744381 0.274540
0.000000 0.732235 0.167636
0.136721 0.723323 0.000000
0.418006 0.704433 0.000000
0.568414 0.683803 0.000000
0.686702 0.661280 0.000000
0.739864 0.582055 0.000000
0.777157 0.534783 0.000000
0.811551 0.491218 0.000000
0.844358 0.445014 0.000000
0.875731 0.394781 0.000000
0.905882 0.338476 0.064607
0.937072 0.265782 0.085206
0.966857 0.155642 0.101320
0.995422 0.000000 0.115053
1.000000 0.000000 0.127443
1.000000 0.000000 0.138155
1.000000 0.000000 0.148226
0.000000 0.852995 0.647364
0.000000 0.852659 0.646021
0.000000 0.852171 0.644160
0.000000 0.851102 0.640131
0.000000 0.849424 0.633661
0.000000 0.847044 0.624598
0.000000 0.843809 0.612696
0.000000 0.839750 0.597681
0.000000 0.834653 0.579156
0.000000 0.828275 0.556573
0.000000 0.820371 0.529442
0.000000 0.813199 0.493935
0.000000 0.805661 0.451575
0.000000 0.797116 0.402625
0.000000 0.787411 0.344945
0.000000 0.776425 0.274083
0.000000 0.767086 0.130495
0.205295 0.756863 0.000000
0.450111 0.738613 0.000000
0.597955 0.718746 0.000000
0.716487 0.697047 0.000000
0.772549 0.622675 0.000000
0.809751 0.569055 0.000000
0.842771 0.525994 0.000000
0.874266 0.481056 0.000000
0.904509 0.433478 0.000000
0.933440 0.381994 0.082063
0.962737 0.321172 0.108278
0.991608 0.241154 0.123201
1.000000 0.098665 0.136477
1.000000 0.000000 0.148592
1.000000 0.000000 0.160037
0.000000 0.881041 0.674311
0.000000 0.880735 0.673121
0.000000 0.880339 0.671412
0.000000 0.879484 0.667781
0.000000 0.878050 0.661891
0.000000 0.876097 0.653773
0.000000 0.873503 0.643153
0.000000 0.870176 0.629847
0.000000 0.865965 0.613336
0.000000 0.860716 0.593439
0.000000 0.854276 0.569787
0.000000 0.846860 0.540703
0.000000 0.840757 0.502556
0.000000 0.833799 0.458656
0.000000 0.825925 0.407660
0.000000 0.817044 0.347723
0.000000 0.806943 0.273442
0.000000 0.800076 0.066560
0.259098 0.788602 0.000000
0.481086 0.770932 0.000000
0.626032 0.751797 0.000000
0.744442 0.730922 0.000000
0.803708 0.661463 0.000000
0.840665 0.602075 0.000000
0.872465 0.559533 0.000000
0.902800 0.515923 0.000000
0.931914 0.470771 0.020203
0.959869 0.423560 0.102358
0.987366 0.371801 0.135134
1.000000 0.307164 0.149233
1.000000 0.222446 0.162661
1.000000 0.000000 0.175479
0.000000 0.906950 0.699458
0.000000 0.906737 0.698360
0.000000 0.906371 0.696864
0.000000 0.905669 0.693568
0.000000 0.904540 0.688289
0.000000 0.902953 0.680964
0.000000 0.900816 0.671473
0.000000 0.898070 0.659541
0.000000 0.894652 0.644923
0.000000 0.890288 0.627314
0.000000 0.884947 0.606561
0.000000 0.878233 0.582361
0.000000 0.872404 0.549950
0.000000 0.866789 0.510582
0.000000 0.860410 0.465278
0.000000 0.853239 0.412634
0.000000 0.845182 0.350561
0.000000 0.836088 0.272984
0.000000 0.831418 0.000000
0.306249 0.818631 0.000000
0.511223 0.801633 0.000000
0.653193 0.783139 0.000000
0.770779 0.763149 0.000000
0.833341 0.699001 0.000000
0.870085 0.634241 0.000000
0.900725 0.592340 0.000000
0.930053 0.550042 0.000000
0.958190 0.507195 0.074098
0.985199 0.463661 0.125612
1.000000 0.419257 0.163058
1.000000 0.365911 0.180026
1.000000 0.302525 0.194186
0.000000 0.930968 0.722927
0.000000 0.930816 0.721981
0.000000 0.930541 0.720668
0.000000 0.929931 0.717586
0.000000 0.929015 0.712825
0.000000 0.927703 0.706233
0.000000 0.925994 0.697688
0.000000 0.923766 0.687068
0.000000 0.920928 0.674006
0.000000 0.917327 0.658412
0.000000 0.912871 0.640162
0.000000 0.907256 0.619196
0.000000 0.900847 0.594354
0.000000 0.896361 0.558831
0.000000 0.891325 0.518334
0.000000 0.885649 0.471778
0.000000 0.879210 0.417731
0.000000 0.872007 0.353704
0.000000 0.863890 0.273259
0.000000 0.861143 0.000000
0.349523 0.847105 0.000000
0.540826 0.830686 0.000000
0.679286 0.812985 0.000000
0.795682 0.793759 0.000000
0.861570 0.735164 0.000000
0.898131 0.665461 0.000000
0.927764 0.624231 0.000000
0.956115 0.583459 0.000000
0.983337 0.542931 0.106264
1.000000 0.502770 0.152132
1.000000 0.463600 0.189975
1.000000 0.421637 0.216129
0.000000 0.953368 0.745022
0.000000 0.953246 0.744137
0.000000 0.953002 0.742855
0.000000 0.952544 0.740139
0.000000 0.951781 0.735805
0.000000 0.950713 0.729885
0.000000 0.949310 0.722194
0.000000 0.947478 0.712612
0.000000 0.945129 0.700893
0.000000 0.942138 0.687037
0.000000 0.938384 0.670985
0.000000 0.933654 0.652705
0.000000 0.927764 0.632319
0.000000 0.922911 0.603906
0.000000 0.918975 0.567681
0.000000 0.914519 0.526238
0.000000 0.909483 0.478676
0.000000 0.903868 0.423438
0.000000 0.897581 0.357794
0.000000 0.890501 0.274754
0.000000 0.888762 0.000000
0.390265 0.874174 0.000000
0.569604 0.858366 0.000000
0.704646 0.841306 0.000000
0.819242 0.822934 0.000000
0.888548 0.769986 0.000000
0.924956 0.695766 0.000000
0.953643 0.655543 0.000000
0.981140 0.616358 0.078004
1.000000 0.578119 0.138766
1.000000 0.541558 0.182193
1.000000 0.507530 0.221622
0.000000 0.974273 0.765621
0.000000 0.974151 0.764858
0.000000 0.973968 0.763699
0.000000 0.973602 0.761257
0.000000 0.972961 0.757290
0.000000 0.972137 0.751919
0.000000 0.970977 0.744930
0.000000 0.969451 0.736324
0.000000 0.967498 0.725826
0.000000 0.965026 0.713497
0.000000 0.961883 0.699306
0.000000 0.957824 0.683314
0.000000 0.952758 0.665766
0.000000 0.946777 0.646113
0.000000 0.943755 0.613733
0.000000 0.940337 0.576867
0.000000 0.936522 0.534722
0.000000 0.932219 0.486488
0.000000 0.927459 0.430365
0.000000 0.922087 0.363348
0.000000 0.916960 0.264317
0.000000 0.913970 0.000000
0.429786 0.899870 0.000000
0.598138 0.884764 0.000000
0.729213 0.868406 0.000000
0.841978 0.850797 0.000000
0.914977 0.804074 0.000000
0.950713 0.725307 0.000000
0.978515 0.686275 0.000000
1.000000 0.648768 0.121401
1.000000 0.613153 0.173098
1.000000 0.580316 0.216709
0.000000 0.993835 0.785092
0.000000 0.993744 0.784298
0.000000 0.993591 0.783261
0.000000 0.993317 0.781003
0.000000 0.992828 0.777462
0.000000 0.992126 0.772549
0.000000 0.991180 0.766262
0.000000 0.989960 0.758419
0.000000 0.988312 0.748989
0.000000 0.986267 0.738033
0.000000 0.983551 0.725399
0.000000 0.980072 0.711482
0.000000 0.975677 0.696345
0.000000 0.970153 0.680446
0.000000 0.965972 0.657038
0.000000 0.963470 0.624231
0.000000 0.960662 0.586908
0.000000 0.957519 0.544427
0.000000 0.954009 0.495613
0.000000 0.950072 0.438819
0.000000 0.945647 0.370916
0.000000 0.942321 0.254856
0.197330 0.938048 0.000000
0.468147 0.924529 0.000000
0.626551 0.910033 0.000000
0.753323 0.894408 0.000000
0.863828 0.877623 0.000000
0.941985 0.838285 0.000000
0.975463 0.754299 0.000000
1.000000 0.716548 0.098512
1.000000 0.681025 0.162020
1.000000 0.648371 0.210880
0.000000 1.000000 0.803342
0.000000 1.000000 0.802640
0.000000 1.000000 0.801694
0.000000 1.000000 0.799649
0.000000 1.000000 0.796323
0.000000 1.000000 0.791867
0.000000 1.000000 0.786130
0.000000 1.000000 0.779080
0.000000 1.000000 0.770535
0.000000 1.000000 0.760708
0.000000 1.000000 0.749538
0.000000 1.000000 0.737331
0.000000 0.996765 0.724392
0.000000 0.991852 0.711086
0.000000 0.985809 0.697871
0.000000 0.984100 0.668818
0.000000 0.982147 0.635828
0.000000 0.979980 0.598413
0.000000 0.977569 0.555779
0.000000 0.974853 0.506767
0.000000 0.971801 0.449775
0.000000 0.968444 0.381445
0.000000 0.966583 0.250278
0.282628 0.961089 0.000000
0.506371 0.948150 0.000000
0.655116 0.934295 0.000000
0.777310 0.919402 0.000000
0.885191 0.903410 0.000000
0.967864 0.871153 0.000000
0.998932 0.784848 0.060670
1.000000 0.746548 0.148745
1.000000 0.713405 0.204379
0.000000 1.000000 0.820462
0.000000 1.000000 0.819852
0.000000 1.000000 0.818997
0.000000 1.000000 0.817075
0.000000 1.000000 0.814084
0.000000 1.000000 0.809995
0.000000 1.000000 0.804746
0.000000 1.000000 0.798276
0.000000 1.000000 0.790585
0.000000 1.000000 0.781735
0.000000 1.000000 0.771786
0.000000 1.000000 0.761135
0.000000 1.000000 0.750088
0.000000 1.000000 0.739040
0.000000 1.000000 0.728481
