其他预设/【213】赛博朋克科幻预设52款/1.LUT预设（视频调色-PR-AE-PS-FCPX-达芬奇用）/赛博朋克科幻__-3 强度1.cube
# Created by Adobe Lightroom plugin Export LUT (1.17.0)
# www.johnrellis.com/lightroom/exportlut.htm
# Preset: 赛博朋克科幻[素锦印象]-3 强度1
# Color profile: /Library/Application Support/Adobe/Color/Profiles/Recommended/AdobeRGB1998.icc
LUT_3D_SIZE 32
0.033631 0.039246 0.056550
0.059571 0.034089 0.056245
0.075044 0.028138 0.057404
0.101411 0.013794 0.057923
0.131716 0.000000 0.057862
0.161990 0.000000 0.058137
0.192752 0.000000 0.059419
0.224033 0.000000 0.060090
0.256229 0.000000 0.061707
0.289433 0.000000 0.062806
0.324376 0.000000 0.065034
0.360510 0.000000 0.067262
0.397681 0.000000 0.069703
0.435828 0.000000 0.073182
0.474403 0.000000 0.076020
0.513268 0.000000 0.078889
0.552148 0.000000 0.081819
0.590661 0.000000 0.084291
0.627314 0.000000 0.087312
0.662959 0.000000 0.090303
0.697902 0.000000 0.092988
0.732265 0.000000 0.095338
0.765988 0.000000 0.097932
0.799008 0.000000 0.100282
0.831388 0.000000 0.102419
0.863127 0.000000 0.104646
0.894163 0.000000 0.106233
0.924590 0.000000 0.107515
0.954467 0.000000 0.108705
0.983856 0.000000 0.108949
1.000000 0.000000 0.108278
1.000000 0.000000 0.106538
0.030243 0.063081 0.059022
0.055909 0.062654 0.056458
0.074159 0.059144 0.056886
0.100923 0.047883 0.056672
0.131380 0.023804 0.055787
0.161715 0.000000 0.056062
0.192599 0.000000 0.056519
0.223911 0.000000 0.057893
0.256107 0.000000 0.058595
0.289525 0.000000 0.059297
0.324376 0.000000 0.059907
0.360632 0.000000 0.060792
0.397925 0.000000 0.062745
0.436103 0.000000 0.064851
0.474678 0.000000 0.066194
0.513573 0.000000 0.068910
0.552422 0.000000 0.071260
0.590845 0.000000 0.074830
0.627527 0.000000 0.078004
0.663142 0.000000 0.081086
0.698085 0.000000 0.084138
0.732448 0.000000 0.087068
0.766140 0.000000 0.089693
0.799191 0.000000 0.093080
0.831571 0.000000 0.095155
0.863279 0.000000 0.097566
0.894347 0.000000 0.099580
0.924743 0.000000 0.101167
0.954589 0.000000 0.102205
0.983978 0.000000 0.102693
1.000000 0.000000 0.101991
1.000000 0.000000 0.099886
0.023804 0.079591 0.062257
0.045808 0.079683 0.056886
0.071077 0.078248 0.056184
0.100282 0.072999 0.056703
0.130495 0.063661 0.056825
0.161166 0.043122 0.057008
0.192020 0.000610 0.057527
0.223484 0.000000 0.058167
0.255802 0.000000 0.058686
0.289189 0.000000 0.059419
0.324163 0.000000 0.059998
0.360357 0.000000 0.061189
0.397650 0.000000 0.063172
0.435889 0.000000 0.064851
0.474495 0.000000 0.066896
0.513481 0.000000 0.068086
0.552361 0.000000 0.069459
0.590845 0.000000 0.070436
0.627619 0.000000 0.072206
0.663264 0.000000 0.073335
0.698268 0.000000 0.074586
0.732692 0.000000 0.075807
0.766445 0.000000 0.077058
0.799435 0.000000 0.080842
0.831785 0.000000 0.083864
0.863493 0.000000 0.086946
0.894530 0.000000 0.088960
0.924926 0.000000 0.091035
0.954772 0.000000 0.092775
0.984161 0.000000 0.093324
1.000000 0.000000 0.092836
1.000000 0.000000 0.090944
0.013184 0.108278 0.068086
0.023926 0.108553 0.059632
0.060487 0.108064 0.058198
0.095216 0.105623 0.055848
0.129274 0.099886 0.056489
0.159976 0.088563 0.057649
0.191043 0.076875 0.058106
0.222538 0.058015 0.059144
0.255039 0.000000 0.059022
0.288579 0.000000 0.059693
0.323552 0.000000 0.060670
0.359930 0.000000 0.061830
0.397192 0.000000 0.063630
0.435370 0.000000 0.065553
0.474098 0.000000 0.066865
0.513115 0.000000 0.068330
0.552056 0.000000 0.069734
0.590539 0.000000 0.070619
0.627314 0.000000 0.072023
0.662959 0.000000 0.073182
0.698085 0.000000 0.074403
0.732479 0.000000 0.075685
0.766262 0.000000 0.076967
0.799313 0.000000 0.078035
0.831785 0.000000 0.078920
0.863554 0.000000 0.079316
0.894621 0.000000 0.079622
0.925078 0.000000 0.079408
0.954986 0.000000 0.078462
0.984405 0.000000 0.076539
1.000000 0.000000 0.072663
1.000000 0.000000 0.066316
0.000000 0.140871 0.077455
0.010254 0.140688 0.071443
0.025696 0.141024 0.059083
0.081575 0.139345 0.058137
0.121706 0.135805 0.055970
0.157961 0.130983 0.054719
0.189242 0.118624 0.059113
0.221195 0.107851 0.059571
0.253880 0.094362 0.059846
0.287449 0.075288 0.060883
0.322698 0.023774 0.061738
0.359014 0.000000 0.063264
0.396490 0.000000 0.064942
0.434730 0.000000 0.066316
0.473548 0.000000 0.067109
0.512535 0.000000 0.068116
0.551568 0.000000 0.069429
0.590082 0.000000 0.070680
0.626886 0.000000 0.072053
0.662654 0.000000 0.072847
0.697688 0.000000 0.074434
0.732174 0.000000 0.075746
0.765988 0.000000 0.077028
0.799100 0.000000 0.078096
0.831540 0.000000 0.079042
0.863340 0.000000 0.079164
0.894408 0.000000 0.079774
0.924895 0.000000 0.079652
0.954803 0.000000 0.078767
0.984253 0.000000 0.076783
1.000000 0.000000 0.073030
1.000000 0.000000 0.066743
0.000000 0.173739 0.088350
0.000000 0.173617 0.084443
0.000000 0.173770 0.071534
0.061463 0.173312 0.059205
0.107759 0.170748 0.057740
0.148409 0.166629 0.055055
0.186801 0.163210 0.052949
0.219120 0.151980 0.059236
0.252140 0.139376 0.061738
0.286107 0.128634 0.062654
0.321386 0.114717 0.063752
0.358068 0.094026 0.064729
0.395483 0.060151 0.066133
0.433936 0.000000 0.066957
0.472724 0.000000 0.067628
0.511925 0.000000 0.068574
0.550927 0.000000 0.069795
0.589410 0.000000 0.070588
0.626276 0.000000 0.071565
0.662104 0.000000 0.072694
0.697200 0.000000 0.074342
0.731777 0.000000 0.075654
0.765621 0.000000 0.076661
0.798764 0.000000 0.077821
0.831235 0.000000 0.078401
0.863035 0.000000 0.079225
0.894163 0.000000 0.079896
0.924651 0.000000 0.079835
0.954589 0.000000 0.078950
0.984070 0.000000 0.077089
1.000000 0.000000 0.073396
1.000000 0.000000 0.067567
0.000000 0.206790 0.099794
0.000000 0.206546 0.096956
0.000000 0.206699 0.087160
0.000000 0.207156 0.060182
0.088075 0.205539 0.059052
0.135164 0.202213 0.057679
0.176059 0.197818 0.056825
0.216129 0.195926 0.052552
0.249607 0.185428 0.060029
0.284245 0.173037 0.064057
0.319890 0.162661 0.065736
0.356634 0.150942 0.066407
0.394324 0.135439 0.067262
0.432868 0.113893 0.067933
0.471870 0.080232 0.068421
0.511009 0.000000 0.068818
0.550103 0.000000 0.069551
0.588678 0.000000 0.070283
0.625574 0.000000 0.071260
0.661433 0.000000 0.072847
0.696651 0.000000 0.074037
0.731197 0.000000 0.075441
0.765072 0.000000 0.076478
0.798306 0.000000 0.077333
0.830808 0.000000 0.078676
0.862638 0.000000 0.079530
0.893797 0.000000 0.079927
0.924315 0.000000 0.080232
0.954284 0.000000 0.079469
0.983764 0.000000 0.077974
1.000000 0.000000 0.074098
1.000000 0.000000 0.068421
0.000000 0.239963 0.112001
0.000000 0.239872 0.109316
0.000000 0.239902 0.102632
0.000000 0.240482 0.079500
0.058289 0.239902 0.060792
0.115633 0.238193 0.059693
0.163638 0.234257 0.059236
0.204532 0.229618 0.058869
0.246433 0.229191 0.054566
0.281285 0.219669 0.060548
0.317632 0.208774 0.065126
0.354986 0.196384 0.068025
0.392889 0.186282 0.068635
0.431556 0.173312 0.068666
0.470680 0.156008 0.069429
0.509911 0.133272 0.069245
0.549096 0.099672 0.069429
0.587762 0.000549 0.070466
0.624720 0.000000 0.071412
0.660639 0.000000 0.072602
0.695918 0.000000 0.074220
0.730556 0.000000 0.075257
0.764492 0.000000 0.076356
0.797757 0.000000 0.077943
0.830320 0.000000 0.078676
0.862181 0.000000 0.079927
0.893339 0.000000 0.080690
0.923919 0.000000 0.080751
0.953887 0.000000 0.080079
0.983398 0.000000 0.078370
1.000000 0.000000 0.075257
1.000000 0.000000 0.069856
0.000000 0.273991 0.124849
0.000000 0.273869 0.122133
0.000000 0.273930 0.118288
0.000000 0.274266 0.099916
0.000000 0.274876 0.063020
0.092775 0.273472 0.061860
0.145144 0.271458 0.060700
0.192477 0.267308 0.060273
0.233890 0.262547 0.059876
0.277806 0.263401 0.053285
0.314366 0.255131 0.059785
0.352117 0.244968 0.064149
0.390967 0.232853 0.068666
0.430121 0.221561 0.069917
0.469306 0.210025 0.069978
0.508598 0.195438 0.070039
0.547875 0.176791 0.070466
0.586725 0.152895 0.070527
0.623651 0.119753 0.071504
0.659724 0.061921 0.072694
0.695064 0.000000 0.073976
0.729824 0.000000 0.075105
0.763790 0.000000 0.076570
0.797116 0.000000 0.077882
0.829709 0.000000 0.079316
0.861631 0.000000 0.080354
0.892851 0.000000 0.081178
0.923430 0.000000 0.081636
0.953460 0.000000 0.080812
0.983001 0.000000 0.079530
1.000000 0.000000 0.076905
1.000000 0.000000 0.071717
0.000000 0.309209 0.137972
0.000000 0.309087 0.135378
0.000000 0.309056 0.132021
0.000000 0.309453 0.117617
0.000000 0.310246 0.086061
0.042939 0.309972 0.063081
0.124208 0.308476 0.061830
0.176028 0.305882 0.060639
0.222843 0.301640 0.060151
0.264714 0.296666 0.059327
0.310307 0.297795 0.050355
0.348577 0.290898 0.055451
0.387610 0.281651 0.062135
0.427375 0.270268 0.067018
0.467720 0.256840 0.071290
0.507286 0.246250 0.070710
0.546624 0.233127 0.070558
0.585443 0.216739 0.070619
0.622461 0.197055 0.071473
0.658595 0.172061 0.072724
0.694087 0.139834 0.074006
0.728908 0.090974 0.075135
0.762997 0.000000 0.076753
0.796323 0.000000 0.078096
0.829038 0.000000 0.079713
0.860990 0.000000 0.081086
0.892271 0.000000 0.081697
0.922881 0.000000 0.082277
0.952972 0.000000 0.082155
0.982513 0.000000 0.081025
1.000000 0.000000 0.078523
1.000000 0.000000 0.073610
0.000000 0.345708 0.151369
0.000000 0.345678 0.149355
0.000000 0.345708 0.146059
0.000000 0.345861 0.135012
0.000000 0.346532 0.109468
0.000000 0.347387 0.064088
0.094667 0.346258 0.062196
0.155154 0.344915 0.060243
0.207553 0.341558 0.059144
0.254612 0.337041 0.058595
0.296910 0.331914 0.057740
0.341283 0.330694 0.048432
0.383734 0.327581 0.048432
0.423774 0.318853 0.057374
0.464302 0.308049 0.063264
0.505058 0.294865 0.069490
0.545037 0.282139 0.071290
0.583917 0.269871 0.071138
0.621088 0.254887 0.072053
0.657374 0.237125 0.072572
0.692988 0.216342 0.074281
0.727840 0.191287 0.075502
0.762051 0.159823 0.077455
0.795468 0.116274 0.078920
0.828214 0.000000 0.080537
0.860227 0.000000 0.082033
0.891539 0.000000 0.083101
0.922240 0.000000 0.083742
0.952331 0.000000 0.083742
0.981964 0.000000 0.082765
1.000000 0.000000 0.080842
1.000000 0.000000 0.076539
0.000000 0.383215 0.165347
0.000000 0.383246 0.163394
0.000000 0.383215 0.160433
0.000000 0.383215 0.152560
0.000000 0.383978 0.130617
0.000000 0.385016 0.090669
0.001740 0.384894 0.062989
0.130678 0.383795 0.060426
0.186496 0.382452 0.057008
0.240269 0.378241 0.055116
0.287236 0.373388 0.053346
0.330175 0.368017 0.050782
0.372900 0.364202 0.044862
0.419654 0.364691 0.032990
0.460273 0.356207 0.045380
0.501152 0.345739 0.057099
0.542046 0.332982 0.065003
0.582330 0.317723 0.071809
0.619532 0.305486 0.072755
0.656001 0.291447 0.073579
0.691707 0.275303 0.075044
0.726680 0.256962 0.076570
0.760952 0.235569 0.078309
0.794491 0.210727 0.080171
0.827329 0.180117 0.081880
0.859403 0.140230 0.083436
0.890776 0.073945 0.084901
0.921477 0.000000 0.085695
0.951659 0.000000 0.086091
0.981323 0.000000 0.085603
1.000000 0.000000 0.083803
1.000000 0.000000 0.080232
0.000000 0.421485 0.179416
0.000000 0.421485 0.177646
0.000000 0.421454 0.174868
0.000000 0.421454 0.169070
0.000000 0.422156 0.150179
0.000000 0.423133 0.118288
0.000000 0.424079 0.062867
0.091157 0.423133 0.060182
0.164920 0.422004 0.055390
0.220401 0.420020 0.049409
0.273503 0.415442 0.047486
0.320745 0.410254 0.045319
0.364385 0.404639 0.041657
0.405524 0.398444 0.035981
0.455756 0.401862 0.012024
0.496773 0.393591 0.027039
0.537835 0.383215 0.044404
0.578271 0.370672 0.059419
0.617151 0.355230 0.069154
0.654475 0.340429 0.074708
0.690303 0.327092 0.075807
0.725429 0.312047 0.077424
0.759762 0.295262 0.079225
0.793393 0.276371 0.081483
0.826291 0.254856 0.082948
0.858457 0.230014 0.085267
0.889891 0.200565 0.086519
0.920684 0.163272 0.088014
0.950896 0.108980 0.088594
0.980591 0.000000 0.088746
1.000000 0.000000 0.087221
1.000000 0.000000 0.083955
0.000000 0.460182 0.193790
0.000000 0.460121 0.191958
0.000000 0.460121 0.189517
0.000000 0.460212 0.184268
0.000000 0.460609 0.169131
0.000000 0.461524 0.141970
0.000000 0.462745 0.092958
0.000000 0.462745 0.059419
0.134249 0.461707 0.054627
0.198581 0.460609 0.046937
0.254948 0.457740 0.039246
0.307469 0.452857 0.035492
0.354833 0.447456 0.031861
0.398962 0.441535 0.026032
0.440589 0.435157 0.020203
0.491890 0.439155 0.000000
0.533074 0.430671 0.005432
0.573754 0.420294 0.025757
0.612879 0.407324 0.050813
0.651179 0.392279 0.066041
0.688685 0.375097 0.076814
0.723995 0.361975 0.078920
0.758450 0.347845 0.081086
0.792172 0.332158 0.083131
0.825132 0.314885 0.085298
0.857389 0.295537 0.087373
0.888884 0.273930 0.089082
0.919738 0.249210 0.090669
0.950042 0.220432 0.091859
0.979797 0.185000 0.091951
1.000000 0.137240 0.091432
1.000000 0.014679 0.088777
0.000000 0.498909 0.207889
0.000000 0.498939 0.206424
0.000000 0.498909 0.204196
0.000000 0.498939 0.199283
0.000000 0.499184 0.187442
0.000000 0.500114 0.163638
0.000000 0.501274 0.125185
0.000000 0.502251 0.058808
0.082551 0.501396 0.052430
0.172335 0.500420 0.044831
0.232303 0.499275 0.032563
0.289647 0.495308 0.025696
0.341711 0.490150 0.020844
0.389288 0.484535 0.014740
0.433814 0.478340 0.008911
0.475929 0.471717 0.000885
0.527855 0.476143 0.000000
0.568719 0.467353 0.000000
0.608240 0.456336 0.006867
0.646906 0.443366 0.036927
0.684688 0.428687 0.061982
0.721584 0.412268 0.074983
0.756985 0.396429 0.082887
0.790860 0.382666 0.085359
0.823911 0.367864 0.087892
0.856229 0.351659 0.090028
0.887846 0.333928 0.092103
0.918761 0.314458 0.094270
0.949096 0.292760 0.095583
0.978882 0.268223 0.096101
1.000000 0.239872 0.096010
1.000000 0.205417 0.094209
0.000000 0.537469 0.222202
0.000000 0.537469 0.220829
0.000000 0.537469 0.218875
0.000000 0.537469 0.214359
0.000000 0.537499 0.205509
0.000000 0.538384 0.183963
0.000000 0.539483 0.151827
0.000000 0.540856 0.094057
0.000000 0.540764 0.050843
0.134615 0.539879 0.042664
0.208560 0.538811 0.029114
0.266361 0.537438 0.016022
0.324224 0.532525 0.011231
0.375982 0.527123 0.005188
0.423651 0.521172 0.000000
0.468421 0.514794 0.000000
0.510735 0.507897 0.000000
0.563165 0.512718 0.000000
0.603143 0.503105 0.000000
0.642176 0.491859 0.000000
0.680323 0.479072 0.022065
0.717556 0.464607 0.056672
0.753841 0.448646 0.073365
0.789212 0.430976 0.086458
0.822538 0.416968 0.090639
0.854948 0.402777 0.093660
0.886625 0.387335 0.095827
0.917632 0.370825 0.098054
0.948058 0.352789 0.099947
0.977905 0.333013 0.101045
1.000000 0.311101 0.101411
1.000000 0.286442 0.100343
0.000000 0.575219 0.236423
0.000000 0.575250 0.235142
0.000000 0.575219 0.233341
0.000000 0.575219 0.229160
0.000000 0.575158 0.222507
0.000000 0.575921 0.203952
0.000000 0.576898 0.175906
0.000000 0.578088 0.131350
0.000000 0.579095 0.051545
0.066621 0.578180 0.043732
0.177401 0.577203 0.031250
0.243687 0.575982 0.018219
0.301823 0.573541 0.005035
0.358495 0.568383 0.000000
0.409735 0.562707 0.000000
0.457221 0.556664 0.000000
0.502098 0.550103 0.000000
0.544793 0.543236 0.000000
0.597955 0.548394 0.000000
0.637018 0.538445 0.000000
0.675563 0.527092 0.000000
0.713161 0.514214 0.006897
0.749783 0.500023 0.049073
0.785489 0.484474 0.072084
0.820218 0.467292 0.086854
0.853574 0.450629 0.097078
0.885313 0.436896 0.100038
0.916411 0.422248 0.102571
0.946899 0.406439 0.105043
0.976806 0.389532 0.106691
1.000000 0.371130 0.107393
1.000000 0.350988 0.107027
0.000000 0.610712 0.250126
0.000000 0.610681 0.248783
0.000000 0.610712 0.247166
0.000000 0.610651 0.243381
0.000000 0.610620 0.237339
0.000000 0.611109 0.222629
0.000000 0.612024 0.197787
0.000000 0.613062 0.161227
0.000000 0.614405 0.096193
0.000000 0.614252 0.051606
0.134035 0.613336 0.040742
0.216037 0.612238 0.027771
0.277714 0.610956 0.012726
0.336400 0.607568 0.000580
0.391791 0.602411 0.000000
0.442451 0.596826 0.000000
0.489998 0.590875 0.000000
0.534936 0.584466 0.000000
0.577874 0.577691 0.000000
0.632410 0.583520 0.000000
0.670344 0.573449 0.000000
0.708370 0.561852 0.000000
0.745449 0.548974 0.000000
0.781491 0.534997 0.041627
0.816526 0.519646 0.070893
0.850584 0.503014 0.087861
0.883665 0.484993 0.102510
0.915068 0.470436 0.107759
0.945617 0.456245 0.110262
0.975647 0.441169 0.112398
1.000000 0.424994 0.113893
1.000000 0.407568 0.114504
0.000000 0.644892 0.263462
0.000000 0.644923 0.262333
0.000000 0.644892 0.260746
0.000000 0.644892 0.257389
0.000000 0.644831 0.252018
0.000000 0.645106 0.240757
0.000000 0.646021 0.218601
0.000000 0.647059 0.187411
0.000000 0.648341 0.138796
0.000000 0.649317 0.060822
0.039124 0.648493 0.053529
0.181582 0.647547 0.042512
0.252811 0.646479 0.027253
0.311223 0.645228 0.009033
0.370306 0.640986 0.000000
0.424689 0.635828 0.000000
0.475013 0.630304 0.000000
0.522240 0.624475 0.000000
0.567315 0.618189 0.000000
0.610468 0.611597 0.000000
0.665339 0.617365 0.000000
0.703212 0.607996 0.000000
0.740688 0.596277 0.000000
0.777157 0.583459 0.000000
0.812589 0.569482 0.034913
0.847013 0.554314 0.070527
0.880430 0.538018 0.089113
0.912902 0.520653 0.104891
0.944274 0.503410 0.116365
0.974365 0.489631 0.118959
1.000000 0.475044 0.121065
1.000000 0.459510 0.122194
0.000000 0.678492 0.276677
0.000000 0.678492 0.275669
0.000000 0.678523 0.274327
0.000000 0.678492 0.271336
0.000000 0.678462 0.266514
0.000000 0.678523 0.258335
0.000000 0.679347 0.238499
0.000000 0.680415 0.211276
0.000000 0.681636 0.171695
0.000000 0.683070 0.102846
0.000000 0.682918 0.064637
0.134005 0.682124 0.059327
0.223117 0.681147 0.047761
0.288029 0.680110 0.032929
0.345373 0.678462 0.013428
0.403937 0.673701 0.001556
0.457313 0.668727 0.000000
0.507073 0.663294 0.000000
0.554223 0.657527 0.000000
0.599268 0.651423 0.000000
0.642481 0.644984 0.000000
0.694972 0.648524 0.000000
0.735561 0.642237 0.000000
0.772427 0.630396 0.000000
0.808316 0.617487 0.000000
0.843137 0.603540 0.029541
0.876890 0.588586 0.071351
0.909758 0.572625 0.091676
0.941680 0.555627 0.108461
0.972717 0.537560 0.123018
1.000000 0.522423 0.128664
1.000000 0.508263 0.130739
0.000000 0.711452 0.289891
0.000000 0.711482 0.288945
0.000000 0.711452 0.287663
0.000000 0.711452 0.284977
0.000000 0.711421 0.280797
0.000000 0.711330 0.274998
0.000000 0.712123 0.257694
0.000000 0.713100 0.233524
0.000000 0.714260 0.199893
0.000000 0.715663 0.149050
0.000000 0.716670 0.074739
0.010407 0.715938 0.070436
0.186221 0.715084 0.065003
0.261509 0.714137 0.057740
0.322362 0.713008 0.042145
0.379980 0.710567 0.024475
0.437018 0.705928 0.009552
0.489509 0.700984 0.000000
0.538781 0.695705 0.000000
0.585718 0.690059 0.000000
0.630640 0.684108 0.000000
0.673945 0.677913 0.000000
0.724208 0.679286 0.000000
0.767391 0.676051 0.000000
0.803708 0.664118 0.000000
0.838926 0.651209 0.000000
0.873136 0.637232 0.028931
0.906340 0.622461 0.073396
0.938659 0.606653 0.094667
0.970062 0.590051 0.112428
1.000000 0.572442 0.127810
1.000000 0.554772 0.139986
0.000000 0.743801 0.302922
0.000000 0.743832 0.302098
0.000000 0.743771 0.300938
0.000000 0.743832 0.298589
0.000000 0.743801 0.294957
0.000000 0.743709 0.289891
0.000000 0.744259 0.276402
0.000000 0.745174 0.254704
0.000000 0.746304 0.225437
0.000000 0.747616 0.183841
0.000000 0.749111 0.114839
0.000000 0.749050 0.082490
0.136995 0.748318 0.078035
0.230503 0.747433 0.072694
0.298192 0.746456 0.066041
0.355993 0.745357 0.056855
0.414038 0.742061 0.042664
0.469673 0.737514 0.025635
0.521263 0.732723 0.006012
0.570153 0.727535 0.000000
0.616815 0.722072 0.000000
0.661585 0.716335 0.000000
0.704891 0.710323 0.000000
0.752834 0.709712 0.000000
0.798795 0.709682 0.000000
0.834501 0.697597 0.000000
0.869108 0.684535 0.000000
0.902739 0.670649 0.030640
0.935424 0.655940 0.076539
0.967193 0.640375 0.099062
0.998047 0.624018 0.117586
1.000000 0.606806 0.133547
0.000000 0.775540 0.315892
0.000000 0.775570 0.315160
0.000000 0.775601 0.314244
0.000000 0.775540 0.312139
0.000000 0.775509 0.308873
0.000000 0.775448 0.304540
0.000000 0.775723 0.294743
0.000000 0.776669 0.275151
0.000000 0.777737 0.249119
0.000000 0.778958 0.213870
0.000000 0.780423 0.162295
0.000000 0.781399 0.095491
0.007782 0.780758 0.091829
0.193423 0.779965 0.087800
0.271000 0.779110 0.082612
0.333562 0.778134 0.076387
0.388891 0.777005 0.068757
0.447486 0.773037 0.061189
0.501793 0.768582 0.049195
0.552728 0.763882 0.027222
0.601068 0.758877 0.003021
0.647456 0.753597 0.000000
0.692042 0.748104 0.000000
0.735256 0.742306 0.000000
0.780972 0.739834 0.000000
0.829709 0.743008 0.000000
0.864805 0.730739 0.000000
0.898894 0.717678 0.000000
0.931975 0.703792 0.038056
0.964141 0.689082 0.081544
0.995361 0.673671 0.104616
1.000000 0.657527 0.123568
0.000000 0.806760 0.328832
0.000000 0.806729 0.328191
0.000000 0.806699 0.327337
0.000000 0.806668 0.325566
0.000000 0.806668 0.322759
0.000000 0.806577 0.319127
0.000000 0.806607 0.312963
0.000000 0.807462 0.295018
0.000000 0.808530 0.271611
0.000000 0.809689 0.241123
0.000000 0.811063 0.199039
0.000000 0.812619 0.132052
0.000000 0.812497 0.106569
0.144747 0.811795 0.103029
0.240116 0.811002 0.099123
0.309209 0.810117 0.094240
0.367987 0.809079 0.088838
0.423194 0.807401 0.082063
0.480446 0.803372 0.075257
0.533593 0.799039 0.067018
0.583764 0.794491 0.055299
0.631556 0.789700 0.030549
0.677577 0.784665 0.000336
0.722011 0.779355 0.000000
0.765103 0.773861 0.000000
0.808621 0.769619 0.000000
0.860227 0.776089 0.000000
0.894774 0.763668 0.000000
0.928344 0.750515 0.000000
0.960906 0.736568 0.049531
0.992523 0.721950 0.087495
1.000000 0.706630 0.111421
0.000000 0.837278 0.341619
0.000000 0.837278 0.341070
0.000000 0.837247 0.340368
0.000000 0.837247 0.338933
0.000000 0.837156 0.336614
0.000000 0.837064 0.333623
0.000000 0.836942 0.330144
0.000000 0.837675 0.314672
0.000000 0.838621 0.293553
0.000000 0.839780 0.266606
0.000000 0.841093 0.230930
0.000000 0.842557 0.179934
0.000000 0.843534 0.122621
0.055451 0.842893 0.119509
0.204532 0.842161 0.116274
0.282536 0.841367 0.112367
0.345769 0.840421 0.107851
0.401648 0.839414 0.102632
0.457252 0.837034 0.097017
0.512779 0.833127 0.090700
0.564843 0.828977 0.083070
0.614252 0.824582 0.074311
0.661616 0.820005 0.062104
0.707240 0.815213 0.034119
0.751461 0.810208 0.000000
0.794430 0.805020 0.000000
0.836332 0.799619 0.000000
0.890837 0.808713 0.000000
0.924468 0.796384 0.000000
0.957488 0.783108 0.000000
0.989502 0.769131 0.061830
1.000000 0.754482 0.095521
0.000000 0.867247 0.354376
0.000000 0.867216 0.353979
0.000000 0.867216 0.353399
0.000000 0.867185 0.352209
0.000000 0.867063 0.350408
0.000000 0.866972 0.348089
0.000000 0.866819 0.345434
0.000000 0.867247 0.334203
0.000000 0.868162 0.315068
0.000000 0.869230 0.291020
0.000000 0.870481 0.259892
0.000000 0.871885 0.218387
0.000000 0.873442 0.155734
0.000000 0.873289 0.136965
0.160708 0.872618 0.134127
0.253574 0.871885 0.130892
0.322454 0.871031 0.127230
0.381231 0.870085 0.123079
0.434699 0.869047 0.118166
0.490730 0.866117 0.112703
0.544701 0.862364 0.106355
0.595789 0.858427 0.099367
0.644465 0.854246 0.091035
0.691249 0.849912 0.080537
0.736477 0.845396 0.066529
0.780423 0.840665 0.038148
0.823239 0.835813 0.000000
0.865171 0.830747 0.000000
0.921050 0.841123 0.000000
0.953887 0.828946 0.000000
0.986389 0.815488 0.000000
1.000000 0.801480 0.072053
0.000000 0.896666 0.367132
0.000000 0.896635 0.366796
0.000000 0.896605 0.366369
0.000000 0.896574 0.365454
0.000000 0.896452 0.364141
0.000000 0.896330 0.362463
0.000000 0.896086 0.360754
0.000000 0.896208 0.353735
0.000000 0.897124 0.336370
0.000000 0.898161 0.314641
0.000000 0.899321 0.287388
0.000000 0.900664 0.252049
0.000000 0.902159 0.203647
0.000000 0.903075 0.155245
0.097688 0.902464 0.153017
0.221683 0.901762 0.150149
0.297887 0.900999 0.146944
0.360357 0.900145 0.143374
0.415930 0.899168 0.139559
0.467445 0.898070 0.134920
0.523583 0.894713 0.129824
0.576318 0.891173 0.123720
0.626337 0.887419 0.116487
0.674250 0.883543 0.108522
0.720516 0.879454 0.098909
0.765347 0.875181 0.087190
0.808988 0.870787 0.071138
0.851713 0.866270 0.040864
0.893614 0.861570 0.000000
0.950927 0.873259 0.000000
0.983062 0.861295 0.000000
1.000000 0.847684 0.005493
0.000000 0.925628 0.379736
0.000000 0.925597 0.379553
0.000000 0.925566 0.379309
0.000000 0.925505 0.378698
0.000000 0.925383 0.377874
0.000000 0.925170 0.376989
0.000000 0.924926 0.376196
0.000000 0.924681 0.373663
0.000000 0.925536 0.357702
0.000000 0.926543 0.338109
0.000000 0.927642 0.313664
0.000000 0.928954 0.283024
0.000000 0.930358 0.243137
0.000000 0.931914 0.186679
0.000000 0.931701 0.172946
