其他预设/【213】赛博朋克科幻预设52款/1.LUT预设（视频调色-PR-AE-PS-FCPX-达芬奇用）/赛博朋克科幻__-6 强度3.cube
# Created by Adobe Lightroom plugin Export LUT (1.17.0)
# www.johnrellis.com/lightroom/exportlut.htm
# Preset: 赛博朋克科幻[素锦印象]-6 强度3
# Color profile: /Library/Application Support/Adobe/Color/Profiles/Recommended/AdobeRGB1998.icc
LUT_3D_SIZE 32
0.091707 0.075990 0.073304
0.098695 0.074403 0.074250
0.108492 0.071901 0.075135
0.128756 0.065370 0.077699
0.151583 0.052216 0.081025
0.174838 0.022675 0.085512
0.198947 0.000000 0.091249
0.224247 0.000000 0.097475
0.251225 0.000000 0.104707
0.279973 0.000000 0.112917
0.310674 0.000000 0.122560
0.342931 0.000000 0.133120
0.376867 0.000000 0.144594
0.411994 0.000000 0.157198
0.448157 0.000000 0.170443
0.485267 0.000000 0.184054
0.523003 0.000000 0.197879
0.561151 0.000000 0.212009
0.599237 0.000000 0.225986
0.637110 0.000000 0.239750
0.674525 0.000000 0.253025
0.711360 0.000000 0.265660
0.747280 0.000000 0.277714
0.782040 0.000000 0.288914
0.815488 0.000000 0.299229
0.847379 0.000000 0.308751
0.877470 0.000000 0.317082
0.905760 0.000000 0.324285
0.932250 0.000000 0.330663
0.957275 0.000000 0.335943
0.980987 0.000000 0.340429
1.000000 0.000000 0.343969
0.097078 0.085206 0.072267
0.101228 0.083040 0.072328
0.109468 0.081880 0.072084
0.129732 0.074861 0.074250
0.152590 0.061433 0.078004
0.175845 0.028565 0.083223
0.199893 0.000000 0.089601
0.225162 0.000000 0.096193
0.251987 0.000000 0.103548
0.280735 0.000000 0.112032
0.311345 0.000000 0.121767
0.343664 0.000000 0.132387
0.377447 0.000000 0.144106
0.412634 0.000000 0.156893
0.448798 0.000000 0.170016
0.485786 0.000000 0.183780
0.523430 0.000000 0.197543
0.561547 0.000000 0.211612
0.599664 0.000000 0.225589
0.637537 0.000000 0.239384
0.674891 0.000000 0.252598
0.711666 0.000000 0.265263
0.747555 0.000000 0.277348
0.782345 0.000000 0.288579
0.815732 0.000000 0.298894
0.847623 0.000000 0.308293
0.877714 0.000000 0.316716
0.905913 0.000000 0.324041
0.932403 0.000000 0.330266
0.957427 0.000000 0.335546
0.981109 0.000000 0.339971
1.000000 0.000000 0.343572
0.104372 0.097932 0.070619
0.109773 0.096407 0.070588
0.114076 0.092988 0.070771
0.130709 0.090272 0.070222
0.153414 0.080415 0.073793
0.177066 0.063813 0.078248
0.201144 0.019135 0.084413
0.226261 0.000000 0.091951
0.253239 0.000000 0.100343
0.281773 0.000000 0.109957
0.312261 0.000000 0.120577
0.344549 0.000000 0.131472
0.378302 0.000000 0.143435
0.413397 0.000000 0.156283
0.449409 0.000000 0.169497
0.486549 0.000000 0.183169
0.524132 0.000000 0.197086
0.562158 0.000000 0.211093
0.600275 0.000000 0.225223
0.638056 0.000000 0.238773
0.675410 0.000000 0.252018
0.712154 0.000000 0.264714
0.747982 0.000000 0.276829
0.782712 0.000000 0.287999
0.816098 0.000000 0.298405
0.847898 0.000000 0.307774
0.877958 0.000000 0.316136
0.906126 0.000000 0.323522
0.932616 0.000000 0.329778
0.957610 0.000000 0.335088
0.981262 0.000000 0.339452
1.000000 0.000000 0.343084
0.119295 0.120790 0.066590
0.123690 0.119661 0.066560
0.129732 0.118135 0.066468
0.137881 0.111391 0.067018
0.154849 0.105440 0.066743
0.178225 0.098970 0.069703
0.202579 0.082826 0.075502
0.228336 0.056489 0.082460
0.255833 0.000000 0.089235
0.284428 0.000000 0.099489
0.315007 0.000000 0.110750
0.347204 0.000000 0.122652
0.380896 0.000000 0.135622
0.415869 0.000000 0.149172
0.451942 0.000000 0.163119
0.488808 0.000000 0.177401
0.526390 0.000000 0.191989
0.564294 0.000000 0.206516
0.602136 0.000000 0.221134
0.639643 0.000000 0.235630
0.676722 0.000000 0.249882
0.713100 0.000000 0.263706
0.748898 0.000000 0.275700
0.783505 0.000000 0.287022
0.816800 0.000000 0.297276
0.848539 0.000000 0.306676
0.878538 0.000000 0.315007
0.906676 0.000000 0.322332
0.933074 0.000000 0.328588
0.958007 0.000000 0.333928
0.981628 0.000000 0.338323
1.000000 0.000000 0.341894
0.136873 0.146426 0.060426
0.140444 0.145357 0.060395
0.145296 0.144076 0.060365
0.154971 0.141329 0.060243
0.163546 0.132204 0.061463
0.179507 0.123537 0.061738
0.204410 0.123720 0.062654
0.230014 0.109651 0.069764
0.257481 0.089265 0.078187
0.287022 0.050446 0.086030
0.318608 0.000000 0.093599
0.351568 0.000000 0.104982
0.385168 0.000000 0.119539
0.420081 0.000000 0.134524
0.456092 0.000000 0.149386
0.492897 0.000000 0.164614
0.530327 0.000000 0.180087
0.568170 0.000000 0.195254
0.605859 0.000000 0.210727
0.643153 0.000000 0.225681
0.679927 0.000000 0.240238
0.716091 0.000000 0.254551
0.751339 0.000000 0.268437
0.785428 0.000000 0.281712
0.818143 0.000000 0.294499
0.849577 0.000000 0.304967
0.879423 0.000000 0.313237
0.907469 0.000000 0.320562
0.933776 0.000000 0.326787
0.958618 0.000000 0.332097
0.982208 0.000000 0.336461
1.000000 0.000000 0.340032
0.155215 0.171450 0.047547
0.158267 0.170718 0.047456
0.162173 0.169558 0.047456
0.169955 0.167147 0.047425
0.181979 0.164462 0.046662
0.189700 0.153841 0.050355
0.204990 0.143404 0.051942
0.231479 0.145052 0.051820
0.259464 0.139345 0.061555
0.288853 0.123262 0.071809
0.320439 0.099123 0.080720
0.353979 0.046937 0.089815
0.389044 0.000000 0.098878
0.425666 0.000000 0.108095
0.461891 0.000000 0.125063
0.498634 0.000000 0.142855
0.535973 0.000000 0.160342
0.573541 0.000000 0.177096
0.610956 0.000000 0.193668
0.647913 0.000000 0.209934
0.684321 0.000000 0.225620
0.720150 0.000000 0.241001
0.755001 0.000000 0.255711
0.788754 0.000000 0.269749
0.821134 0.000000 0.283116
0.851987 0.000000 0.295689
0.881193 0.000000 0.307225
0.908568 0.000000 0.318090
0.934752 0.000000 0.324315
0.959533 0.000000 0.329564
0.982971 0.000000 0.333989
1.000000 0.000000 0.337499
0.174228 0.196323 0.024964
0.176638 0.195621 0.024964
0.179751 0.194797 0.024903
0.186526 0.192813 0.024903
0.196445 0.190311 0.024353
0.209751 0.187930 0.022583
0.216770 0.175967 0.029480
0.231479 0.164492 0.032868
0.259953 0.167727 0.031800
0.291325 0.171420 0.041840
0.322728 0.158053 0.061707
0.356115 0.139132 0.072236
0.391119 0.110079 0.082948
0.427680 0.044343 0.092958
0.465461 0.000000 0.103426
0.504082 0.000000 0.114351
0.542962 0.000000 0.127779
0.580377 0.000000 0.148684
0.617456 0.000000 0.168215
0.653864 0.000000 0.186862
0.689906 0.000000 0.204318
0.725277 0.000000 0.221439
0.759670 0.000000 0.237369
0.792996 0.000000 0.252842
0.824979 0.000000 0.267277
0.855406 0.000000 0.280827
0.884154 0.000000 0.293431
0.911131 0.000000 0.305058
0.936553 0.000000 0.315740
0.960693 0.000000 0.325383
0.983948 0.000000 0.330694
1.000000 0.000000 0.334203
0.193851 0.220890 0.000000
0.195804 0.220310 0.000000
0.198550 0.219608 0.000000
0.204166 0.218265 0.000000
0.212680 0.215885 0.000000
0.224460 0.214115 0.000000
0.239048 0.212314 0.000000
0.245060 0.199557 0.002258
0.259495 0.186923 0.007294
0.290227 0.192081 0.006348
0.324010 0.197604 0.013855
0.358679 0.193912 0.031739
0.393591 0.178256 0.058747
0.429999 0.155825 0.071534
0.467628 0.121920 0.083558
0.506188 0.045777 0.095613
0.545495 0.000000 0.107912
0.585138 0.000000 0.120089
0.624201 0.000000 0.132418
0.661036 0.000000 0.152071
0.696529 0.000000 0.174044
0.731319 0.000000 0.194339
0.765286 0.000000 0.212924
0.798032 0.000000 0.230442
0.829465 0.000000 0.246586
0.859403 0.000000 0.261662
0.887663 0.000000 0.275517
0.914214 0.000000 0.288334
0.939300 0.000000 0.299962
0.963012 0.000000 0.310643
0.985657 0.000000 0.320378
1.000000 0.000000 0.329076
0.214389 0.245762 0.000000
0.216129 0.245335 0.000000
0.218448 0.244816 0.000000
0.223362 0.243656 0.000000
0.230869 0.241886 0.000000
0.240635 0.239841 0.000000
0.254002 0.239231 0.000000
0.269718 0.238376 0.000000
0.275059 0.224460 0.000000
0.288914 0.211490 0.000000
0.322179 0.217868 0.000000
0.358068 0.224796 0.000000
0.396521 0.231327 0.000000
0.432776 0.217838 0.012696
0.470253 0.199283 0.045716
0.508598 0.173587 0.067811
0.547753 0.134737 0.083162
0.587335 0.054658 0.097475
0.626001 0.000000 0.112001
0.664149 0.000000 0.126131
0.701625 0.000000 0.140505
0.738338 0.000000 0.154940
0.771633 0.000000 0.179294
0.803799 0.000000 0.200778
0.834623 0.000000 0.220188
0.863951 0.000000 0.237888
0.891630 0.000000 0.253849
0.917662 0.000000 0.268284
0.942260 0.000000 0.281285
0.965606 0.000000 0.293126
0.987884 0.000000 0.303777
1.000000 0.000000 0.313359
0.235538 0.271153 0.000000
0.237064 0.270878 0.000000
0.239139 0.270481 0.000000
0.243442 0.269566 0.000000
0.250095 0.268254 0.000000
0.258732 0.266331 0.000000
0.270420 0.265721 0.000000
0.285130 0.265782 0.000000
0.301579 0.265354 0.000000
0.306676 0.251041 0.000000
0.319707 0.237644 0.000000
0.355383 0.244511 0.000000
0.393256 0.252964 0.000000
0.433539 0.261143 0.000000
0.473121 0.258030 0.000000
0.511406 0.242100 0.000000
0.550439 0.220676 0.019287
0.589746 0.191073 0.061494
0.628077 0.148623 0.081849
0.665888 0.067964 0.099825
0.703212 0.000000 0.116670
0.739651 0.000000 0.133333
0.774899 0.000000 0.149935
0.808743 0.000000 0.166812
0.840177 0.000000 0.186740
0.868833 0.000000 0.209079
0.895842 0.000000 0.228489
0.921233 0.000000 0.245762
0.945312 0.000000 0.261173
0.968200 0.000000 0.274754
0.990082 0.000000 0.286625
1.000000 0.000000 0.297124
0.256992 0.297185 0.000000
0.258366 0.297002 0.000000
0.260105 0.296666 0.000000
0.263981 0.295995 0.000000
0.269932 0.294896 0.000000
0.277745 0.293431 0.000000
0.287724 0.291936 0.000000
0.301396 0.292790 0.000000
0.317388 0.293614 0.000000
0.333379 0.292454 0.000000
0.339788 0.278935 0.000000
0.351659 0.264683 0.000000
0.389715 0.272313 0.000000
0.429358 0.281956 0.000000
0.471138 0.291295 0.000000
0.514549 0.299077 0.000000
0.553307 0.284703 0.000000
0.592340 0.265965 0.000000
0.630335 0.241062 0.000000
0.667903 0.208377 0.052216
0.704891 0.163577 0.081544
0.741054 0.084993 0.103151
0.776120 0.000000 0.123262
0.809689 0.000000 0.142824
0.841703 0.000000 0.162051
0.871733 0.000000 0.181460
0.899687 0.000000 0.201328
0.924804 0.000000 0.222477
0.948241 0.000000 0.241245
0.970520 0.000000 0.257511
0.991913 0.000000 0.271733
1.000000 0.000000 0.283818
0.278630 0.323552 0.000000
0.279881 0.323461 0.000000
0.281468 0.323156 0.000000
0.284886 0.322606 0.000000
0.290318 0.321782 0.000000
0.297551 0.320623 0.000000
0.306371 0.319219 0.000000
0.318364 0.319402 0.000000
0.333501 0.320958 0.000000
0.350866 0.322698 0.000000
0.366491 0.320745 0.000000
0.373968 0.307866 0.000000
0.384619 0.292668 0.000000
0.424933 0.300725 0.000000
0.466072 0.311559 0.000000
0.509056 0.321660 0.000000
0.553613 0.331060 0.000000
0.595209 0.327367 0.000000
0.632776 0.309728 0.000000
0.670008 0.287694 0.000000
0.706722 0.260136 0.000000
0.742580 0.225284 0.043214
0.777340 0.179080 0.083711
0.810727 0.107240 0.109804
0.842496 0.000000 0.133089
0.872374 0.000000 0.155306
0.900206 0.000000 0.177371
0.926085 0.000000 0.199435
0.950072 0.000000 0.222385
0.972412 0.000000 0.245762
0.993133 0.000000 0.262974
1.000000 0.000000 0.277684
0.300237 0.350286 0.000000
0.301366 0.350103 0.000000
0.302831 0.349920 0.000000
0.306035 0.349523 0.000000
0.310979 0.348943 0.000000
0.317540 0.348058 0.000000
0.325811 0.346868 0.000000
0.335546 0.345464 0.000000
0.349859 0.347601 0.000000
0.366461 0.350042 0.000000
0.385138 0.352636 0.000000
0.400397 0.349859 0.000000
0.409064 0.337743 0.000000
0.418677 0.321538 0.000000
0.460670 0.329747 0.000000
0.503014 0.341436 0.000000
0.547051 0.352422 0.000000
0.591852 0.362188 0.000000
0.635401 0.368811 0.000000
0.672297 0.352270 0.000000
0.708614 0.332036 0.000000
0.744198 0.307439 0.000000
0.778653 0.277836 0.000000
0.811795 0.241672 0.045136
0.843290 0.196109 0.090486
0.872984 0.131380 0.120241
0.900694 0.000000 0.146609
0.926452 0.000000 0.171664
0.950500 0.000000 0.196445
0.972900 0.000000 0.221866
0.993713 0.000000 0.248173
1.000000 0.000000 0.276341
0.321904 0.377203 0.000000
0.322881 0.377081 0.000000
0.324224 0.376928 0.000000
0.327184 0.376593 0.000000
0.331762 0.375982 0.000000
0.337896 0.375341 0.000000
0.345525 0.374487 0.000000
0.354681 0.373297 0.000000
0.366522 0.373785 0.000000
0.382330 0.376654 0.000000
0.400153 0.379797 0.000000
0.420203 0.383215 0.000000
0.435126 0.379797 0.000000
0.444862 0.368170 0.000000
0.455634 0.352911 0.000000
0.496773 0.359075 0.000000
0.540185 0.371557 0.000000
0.584680 0.383001 0.000000
0.628595 0.392370 0.000000
0.671870 0.400000 0.000000
0.710628 0.393591 0.000000
0.745846 0.374487 0.000000
0.779995 0.351751 0.000000
0.812833 0.325170 0.000000
0.844114 0.294163 0.000000
0.873564 0.257542 0.060090
0.901091 0.213931 0.102998
0.926787 0.158480 0.135164
0.950805 0.064668 0.164157
0.973236 0.000000 0.192142
0.994171 0.000000 0.220340
1.000000 0.000000 0.249424
0.343450 0.404120 0.000000
0.344396 0.404089 0.000000
0.345647 0.403937 0.000000
0.348425 0.403754 0.000000
0.352667 0.403265 0.000000
0.358373 0.402747 0.000000
0.365484 0.402075 0.000000
0.373999 0.401190 0.000000
0.383917 0.400153 0.000000
0.398444 0.402747 0.000000
0.415351 0.406317 0.000000
0.434546 0.410285 0.000000
0.455879 0.414405 0.000000
0.470405 0.410254 0.000000
0.481270 0.399145 0.000000
0.493019 0.384588 0.000000
0.533013 0.388647 0.000000
0.577111 0.401617 0.000000
0.621149 0.412879 0.000000
0.664668 0.422217 0.000000
0.707057 0.429541 0.000000
0.747585 0.433845 0.000000
0.781338 0.415290 0.000000
0.813870 0.393652 0.000000
0.844846 0.368688 0.000000
0.874083 0.340459 0.000000
0.901396 0.308629 0.000000
0.927001 0.273136 0.077272
0.950988 0.233066 0.120027
0.973480 0.187533 0.154116
0.994537 0.133394 0.185794
1.000000 0.050752 0.217288
0.365057 0.431373 0.000000
0.366003 0.431281 0.000000
0.367102 0.431189 0.000000
0.369635 0.430976 0.000000
0.373632 0.430701 0.000000
0.379004 0.430243 0.000000
0.385626 0.429755 0.000000
0.393683 0.429023 0.000000
0.403082 0.428168 0.000000
0.414649 0.428443 0.000000
0.430884 0.432288 0.000000
0.449165 0.436622 0.000000
0.469520 0.441230 0.000000
0.492103 0.446143 0.000000
0.506004 0.440986 0.000000
0.517876 0.430426 0.000000
0.530571 0.416480 0.000000
0.568994 0.418616 0.000000
0.613458 0.431342 0.000000
0.657130 0.442512 0.000000
0.699825 0.451514 0.000000
0.741176 0.458381 0.000000
0.780514 0.463233 0.000000
0.814908 0.454170 0.000000
0.845548 0.433051 0.000000
0.874510 0.409155 0.000000
0.901640 0.382513 0.000000
0.927123 0.353613 0.000000
0.951049 0.322240 0.000000
0.973571 0.288640 0.097932
0.994720 0.253635 0.140719
1.000000 0.218723 0.177127
0.386755 0.458747 0.000000
0.387518 0.458686 0.000000
0.388678 0.458595 0.000000
0.391058 0.458473 0.000000
0.394812 0.458259 0.000000
0.399817 0.457893 0.000000
0.406073 0.457435 0.000000
0.413611 0.456855 0.000000
0.422461 0.456245 0.000000
0.432502 0.455451 0.000000
0.446693 0.457923 0.000000
0.464118 0.462379 0.000000
0.483558 0.467292 0.000000
0.504967 0.472572 0.000000
0.528649 0.478157 0.000000
0.541985 0.472023 0.000000
0.554589 0.461891 0.000000
0.568353 0.448676 0.000000
0.604669 0.449073 0.000000
0.649348 0.460822 0.000000
0.692378 0.471626 0.000000
0.734066 0.480140 0.000000
0.773953 0.486336 0.000000
0.811551 0.490394 0.000000
0.846250 0.491066 0.000000
0.874876 0.470039 0.000000
0.901793 0.446632 0.000000
0.927123 0.421271 0.000000
0.950988 0.393866 0.000000
0.973510 0.365026 0.000000
0.994751 0.335058 0.059724
1.000000 0.304967 0.121096
0.408545 0.486427 0.000000
0.409339 0.486305 0.000000
0.410346 0.486305 0.000000
0.412604 0.486152 0.000000
0.416114 0.485939 0.000000
0.420813 0.485664 0.000000
0.426734 0.485359 0.000000
0.433875 0.484932 0.000000
0.442329 0.484443 0.000000
0.451972 0.483894 0.000000
0.462959 0.483467 0.000000
0.479561 0.488136 0.000000
0.498207 0.493324 0.000000
0.518853 0.498878 0.000000
0.541497 0.504906 0.000000
0.566308 0.511223 0.000000
0.579065 0.504082 0.000000
0.592340 0.494270 0.000000
0.606500 0.481239 0.000000
0.640070 0.479377 0.000000
0.684657 0.489876 0.000000
0.726802 0.500053 0.000000
0.767178 0.507897 0.000000
0.805386 0.513268 0.000000
0.840970 0.516228 0.000000
0.873625 0.517082 0.000000
0.901793 0.504723 0.000000
0.926970 0.481727 0.000000
0.950774 0.456947 0.000000
0.973297 0.430671 0.000000
0.994598 0.403296 0.000000
1.000000 0.375311 0.000000
0.431189 0.515221 0.000000
0.431861 0.515221 0.000000
0.432837 0.515190 0.000000
0.435004 0.515129 0.000000
0.438300 0.514946 0.000000
0.442817 0.514763 0.000000
0.448493 0.514611 0.000000
0.455329 0.514305 0.000000
0.463478 0.514031 0.000000
0.472633 0.513664 0.000000
0.483009 0.513207 0.000000
0.496559 0.515038 0.000000
0.514427 0.520409 0.000000
0.534173 0.526116 0.000000
0.555810 0.532219 0.000000
0.579309 0.538537 0.000000
0.603662 0.544030 0.000000
0.616419 0.536553 0.000000
0.630060 0.526635 0.000000
0.644495 0.513725 0.000000
0.675074 0.509392 0.000000
0.719295 0.518364 0.000000
0.760189 0.527764 0.000000
0.798947 0.534722 0.000000
0.835172 0.538994 0.000000
0.868559 0.540826 0.000000
0.899046 0.540551 0.000000
0.926757 0.537285 0.000000
0.950408 0.514427 0.000000
0.972900 0.490059 0.000000
0.994202 0.464485 0.000000
1.000000 0.437964 0.000000
0.454841 0.545800 0.000000
0.455543 0.545739 0.000000
0.456458 0.545708 0.000000
0.458473 0.545708 0.000000
0.461646 0.545617 0.000000
0.465980 0.545525 0.000000
0.471412 0.545342 0.000000
0.477974 0.545220 0.000000
0.485725 0.544976 0.000000
0.494575 0.544732 0.000000
0.504570 0.544518 0.000000
0.515709 0.544213 0.000000
0.531701 0.548241 0.000000
0.550469 0.553857 0.000000
0.570977 0.559777 0.000000
0.593256 0.565972 0.000000
0.617426 0.572503 0.000000
0.640833 0.576806 0.000000
0.653803 0.569055 0.000000
0.667567 0.558923 0.000000
0.681971 0.545800 0.000000
0.709468 0.539086 0.000000
0.753017 0.546227 0.000000
0.792355 0.554650 0.000000
0.829252 0.560388 0.000000
0.863340 0.563500 0.000000
0.894499 0.564080 0.000000
0.923003 0.562768 0.000000
0.949157 0.559899 0.000000
0.972320 0.545098 0.000000
0.993652 0.520989 0.000000
1.000000 0.495735 0.000000
0.478950 0.577173 0.000000
0.479530 0.577203 0.000000
0.480446 0.577173 0.000000
0.482460 0.577203 0.000000
0.485481 0.577111 0.000000
0.489601 0.577020 0.000000
0.494759 0.576989 0.000000
0.501061 0.576867 0.000000
0.508507 0.576745 0.000000
0.517052 0.576562 0.000000
0.526726 0.576501 0.000000
0.537469 0.576318 0.000000
0.549889 0.576776 0.000000
0.567651 0.582116 0.000000
0.587060 0.587823 0.000000
0.608179 0.593866 0.000000
0.631006 0.600092 0.000000
0.655634 0.606622 0.000000
0.678004 0.609583 0.000000
0.690974 0.601404 0.000000
0.704555 0.590936 0.000000
0.718868 0.577478 0.000000
0.743160 0.568200 0.000000
0.785733 0.573327 0.000000
0.823209 0.580468 0.000000
0.857969 0.584894 0.000000
0.889799 0.586633 0.000000
0.918944 0.586175 0.000000
0.945708 0.583886 0.000000
0.970306 0.580194 0.000000
0.992889 0.573999 0.000000
1.000000 0.549950 0.000000
0.503410 0.609522 0.000000
0.504051 0.609552 0.000000
0.504875 0.609552 0.000000
0.506798 0.609522 0.000000
0.509728 0.609491 0.000000
0.513695 0.609461 0.000000
0.518700 0.609430 0.000000
0.524743 0.609369 0.000000
0.531884 0.609369 0.000000
0.540063 0.609247 0.000000
0.549401 0.609186 0.000000
0.559808 0.609064 0.000000
0.571313 0.608911 0.000000
0.585809 0.611292 0.000000
0.604150 0.616632 0.000000
0.624170 0.622339 0.000000
0.645686 0.628260 0.000000
0.668940 0.634394 0.000000
0.693751 0.640742 0.000000
0.715023 0.642176 0.000000
0.727779 0.633509 0.000000
0.741085 0.622461 0.000000
0.754940 0.608606 0.000000
0.775998 0.596704 0.000000
0.817136 0.599481 0.000000
0.852628 0.605158 0.000000
0.885130 0.608087 0.000000
0.914916 0.608667 0.000000
0.942290 0.607141 0.000000
0.967437 0.604028 0.000000
0.990661 0.599542 0.000000
1.000000 0.593957 0.000000
0.528435 0.642817 0.000000
0.529046 0.642817 0.000000
0.529808 0.642817 0.000000
0.531640 0.642756 0.000000
0.534447 0.642786 0.000000
0.538262 0.642756 0.000000
0.543053 0.642786 0.000000
0.548882 0.642756 0.000000
0.555840 0.642725 0.000000
0.563714 0.642695 0.000000
0.572717 0.642664 0.000000
0.582727 0.642634 0.000000
0.593805 0.642603 0.000000
0.605951 0.642481 0.000000
0.622370 0.646418 0.000000
0.641230 0.651667 0.000000
0.661555 0.657130 0.000000
0.683436 0.662837 0.000000
0.706783 0.668666 0.000000
0.731685 0.674678 0.000000
0.751583 0.674525 0.000000
0.763912 0.665064 0.000000
0.776730 0.653346 0.000000
0.790005 0.638911 0.000000
0.807736 0.624384 0.000000
0.847105 0.624598 0.000000
0.880430 0.628595 0.000000
0.910918 0.630060 0.000000
0.938872 0.629450 0.000000
0.964599 0.627039 0.000000
0.988373 0.623133 0.000000
1.000000 0.618006 0.000000
0.553796 0.676997 0.000000
0.554376 0.676997 0.000000
0.555200 0.676967 0.000000
0.556909 0.676997 0.000000
0.559594 0.676997 0.000000
0.563287 0.676997 0.000000
0.567895 0.676997 0.000000
0.573510 0.676997 0.000000
0.580194 0.676967 0.000000
0.587823 0.676967 0.000000
0.596551 0.676967 0.000000
0.606165 0.676967 0.000000
0.616907 0.676936 0.000000
0.628595 0.676905 0.000000
0.641627 0.677211 0.000000
0.659388 0.681971 0.000000
0.678492 0.686915 0.000000
0.699062 0.692073 0.000000
0.721035 0.697383 0.000000
0.744381 0.702724 0.000000
0.769070 0.708186 0.000000
0.787503 0.706355 0.000000
0.799222 0.696010 0.000000
0.811307 0.683406 0.000000
0.823789 0.668208 0.000000
0.838254 0.651087 0.000000
0.875303 0.649378 0.000000
0.906828 0.650996 0.000000
0.935485 0.651148 0.000000
0.961822 0.649348 0.000000
0.986145 0.645960 0.000000
1.000000 0.641199 0.000000
0.579400 0.711910 0.000000
0.579950 0.711910 0.000000
0.580743 0.711910 0.000000
0.582422 0.711879 0.000000
0.585046 0.711910 0.000000
0.588586 0.711910 0.000000
0.593042 0.711910 0.000000
0.598474 0.711940 0.000000
0.604852 0.711910 0.000000
0.612268 0.711910 0.000000
0.620661 0.711940 0.000000
0.630030 0.711910 0.000000
0.640375 0.711879 0.000000
0.651728 0.711849 0.000000
0.664088 0.711818 0.000000
0.678645 0.713313 0.000000
0.696590 0.717678 0.000000
0.715877 0.722225 0.000000
0.736385 0.726833 0.000000
0.758236 0.731563 0.000000
0.781277 0.736294 0.000000
0.805631 0.740993 0.000000
0.822446 0.737362 0.000000
0.833371 0.726040 0.000000
0.844572 0.712490 0.000000
0.856107 0.696345 0.000000
0.867948 0.677180 0.000000
0.902098 0.673182 0.000000
0.932006 0.672389 0.000000
0.958953 0.671351 0.000000
0.983886 0.668544 0.000000
1.000000 0.664240 0.000000
0.605066 0.747311 0.000000
0.605646 0.747311 0.000000
0.606348 0.747311 0.000000
0.607965 0.747341 0.000000
0.610468 0.747311 0.000000
0.613886 0.747311 0.000000
0.618189 0.747341 0.000000
0.623407 0.747341 0.000000
0.629633 0.747311 0.000000
0.636744 0.747280 0.000000
0.644831 0.747250 0.000000
0.653956 0.747250 0.000000
0.663966 0.747219 0.000000
0.675013 0.747189 0.000000
0.686946 0.747127 0.000000
0.699855 0.747036 0.000000
0.715541 0.749325 0.000000
0.733516 0.753170 0.000000
0.752712 0.757076 0.000000
0.773037 0.761044 0.000000
0.794553 0.764981 0.000000
0.817258 0.768948 0.000000
0.841032 0.772824 0.000000
0.856138 0.767269 0.000000
0.866087 0.754879 0.000000
0.876310 0.740291 0.000000
0.886839 0.723232 0.000000
0.897612 0.703304 0.000000
0.927733 0.696162 0.000000
0.956115 0.693050 0.000000
0.981659 0.690913 0.000000
1.000000 0.687160 0.000000
0.630365 0.782803 0.000000
0.630884 0.782803 0.000000
0.631586 0.782773 0.000000
0.633143 0.782773 0.000000
0.635554 0.782773 0.000000
0.638849 0.782773 0.000000
0.643000 0.782742 0.000000
0.648066 0.782712 0.000000
0.654047 0.782681 0.000000
0.660945 0.782681 0.000000
0.668757 0.782589 0.000000
0.677546 0.782589 0.000000
0.687221 0.782528 0.000000
0.697902 0.782437 0.000000
0.709438 0.782315 0.000000
0.721889 0.782193 0.000000
0.735317 0.782040 0.000000
0.751766 0.784695 0.000000
0.769619 0.787839 0.000000
0.788540 0.790982 0.000000
0.808530 0.794156 0.000000
0.829618 0.797269 0.000000
0.851713 0.800351 0.000000
0.874876 0.803342 0.000000
0.888334 0.795987 0.000000
0.897368 0.782498 0.000000
0.906615 0.766934 0.000000
0.916167 0.749020 0.000000
0.925963 0.728359 0.000000
0.952422 0.718318 0.000000
0.979431 0.713039 0.000000
1.000000 0.709926 0.000000
0.654719 0.817624 0.000000
0.655177 0.817624 0.000000
0.655909 0.817624 0.000000
0.657374 0.817594 0.000000
0.659693 0.817594 0.000000
0.662898 0.817533 0.000000
0.666896 0.817533 0.000000
0.671778 0.817472 0.000000
0.677516 0.817441 0.000000
0.684230 0.817380 0.000000
0.691768 0.817258 0.000000
0.700221 0.817197 0.000000
0.709621 0.817075 0.000000
0.719905 0.816953 0.000000
0.731075 0.816800 0.000000
