其他预设/【213】赛博朋克科幻预设52款/1.LUT预设（视频调色-PR-AE-PS-FCPX-达芬奇用）/赛博朋克科幻__-1.cube
# Created by Adobe Lightroom plugin Export LUT (1.17.0)
# www.johnrellis.com/lightroom/exportlut.htm
# Preset: 赛博朋克科幻[素锦印象]-1
# Color profile: /Library/Application Support/Adobe/Color/Profiles/Recommended/AdobeRGB1998.icc
LUT_3D_SIZE 5
DOMAIN_MIN 0.000000 0.000000 0.000000
DOMAIN_MAX 0.903226 0.903226 0.903226
0.000000 0.085176 0.068605
0.000000 0.086702 0.086336
0.191684 0.000000 0.206394
0.734798 0.000000 0.433936
1.000000 0.000000 0.675715
0.000000 0.182620 0.057221
0.000000 0.172793 0.065248
0.264897 0.000000 0.104097
0.798276 0.000000 0.350958
1.000000 0.000000 0.627314
0.000000 0.645899 0.000000
0.000000 0.628992 0.000000
0.195254 0.607813 0.000000
0.940795 0.000000 0.000000
1.000000 0.000000 0.299901
0.281529 0.904265 0.000000
0.308782 0.900298 0.071962
0.310002 0.887083 0.314397
0.764736 0.845945 0.155123
1.000000 0.659327 0.000000
0.661891 0.971069 0.412482
0.716274 0.964111 0.484016
0.862242 0.941192 0.653773
0.800809 0.950500 0.643000
0.989807 0.925505 0.583062
0.000000 0.103151 0.153017
0.000000 0.104952 0.126314
0.228183 0.067903 0.241550
0.777768 0.000000 0.452186
1.000000 0.000000 0.661128
0.000000 0.247410 0.192233
0.000000 0.212802 0.203067
0.268528 0.150790 0.279210
0.823026 0.000000 0.415229
1.000000 0.000000 0.611353
0.000000 0.660243 0.000000
0.000000 0.644953 0.089082
0.000000 0.606836 0.207584
0.942260 0.000000 0.209903
1.000000 0.000000 0.360662
0.399268 0.902983 0.072023
0.438788 0.897642 0.234043
0.546197 0.874846 0.463142
0.758846 0.845548 0.362890
1.000000 0.656947 0.344976
0.714321 0.965209 0.455299
0.765530 0.957977 0.521599
0.896666 0.936400 0.682795
0.897002 0.935607 0.715206
0.996277 0.923095 0.658442
0.000000 0.186923 0.521355
0.000000 0.138918 0.511009
0.286473 0.178012 0.476265
0.850980 0.000000 0.562005
1.000000 0.000000 0.729854
0.000000 0.372930 0.550958
0.000000 0.311681 0.566644
0.330938 0.298833 0.526268
0.870787 0.232639 0.597650
1.000000 0.000000 0.742275
0.000000 0.733089 0.614069
0.000000 0.723049 0.624872
0.227054 0.648646 0.645838
0.909392 0.553979 0.691676
1.000000 0.313237 0.728206
0.337530 0.911772 0.344182
0.531334 0.897917 0.433570
0.845212 0.856413 0.627771
0.825803 0.831998 0.690425
1.000000 0.676417 0.696223
0.871885 0.943297 0.600031
0.894438 0.939239 0.636408
0.948211 0.928588 0.728878
1.000000 0.915435 0.845945
1.000000 0.917388 0.796201
0.000000 0.344396 0.823117
0.000000 0.264775 0.823514
0.377356 0.278141 0.810758
0.892821 0.321263 0.793729
1.000000 0.501457 0.819272
0.000000 0.514916 0.829374
0.000000 0.449287 0.830259
0.299779 0.368109 0.823087
0.902068 0.438972 0.802609
1.000000 0.563470 0.826688
0.000000 0.760098 0.832517
0.000000 0.736446 0.828061
0.233982 0.664942 0.842649
0.931792 0.630793 0.827512
1.000000 0.706874 0.850523
0.000000 0.950561 0.830167
0.000000 0.943389 0.835508
0.517296 0.911559 0.853910
0.906859 0.820279 0.867521
1.000000 0.818021 0.889036
0.813962 0.948974 0.722133
0.862943 0.941924 0.739223
0.974670 0.923674 0.804868
1.000000 0.915740 0.877806
1.000000 0.913878 0.895598
0.000000 0.562219 0.955505
0.000000 0.536919 0.955627
0.553948 0.536889 0.949218
0.970611 0.627893 0.932494
1.000000 0.665888 0.925963
0.000000 0.633082 0.953002
0.000000 0.612299 0.953002
0.525841 0.574365 0.949157
0.967803 0.647852 0.932860
1.000000 0.694942 0.925566
0.000000 0.776364 0.946960
0.115724 0.761318 0.946715
0.596124 0.702358 0.945647
0.956878 0.704219 0.934905
1.000000 0.777310 0.925170
0.325994 0.924346 0.940063
0.418128 0.913329 0.939940
0.624781 0.870298 0.939757
0.957061 0.811124 0.935973
1.000000 0.866850 0.926177
0.859403 0.948119 0.891722
0.883207 0.944457 0.894560
0.946746 0.933959 0.904692
0.997742 0.924529 0.920012
1.000000 0.917021 0.931060
