其他预设/【213】赛博朋克科幻预设52款/1.LUT预设（视频调色-PR-AE-PS-FCPX-达芬奇用）/赛博朋克科幻__-10 强度5.cube
# Created by Adobe Lightroom plugin Export LUT (1.17.0)
# www.johnrellis.com/lightroom/exportlut.htm
# Preset: 赛博朋克科幻[素锦印象]-10 强度5
# Color profile: /Library/Application Support/Adobe/Color/Profiles/Recommended/AdobeRGB1998.icc
LUT_3D_SIZE 32
0.076326 0.074983 0.067597
0.076326 0.074983 0.067597
0.076326 0.074983 0.067597
0.076326 0.074983 0.067597
0.105989 0.103670 0.090425
0.138186 0.134768 0.115267
0.171786 0.167208 0.140780
0.206699 0.200931 0.167330
0.242741 0.235721 0.194766
0.279454 0.271153 0.222660
0.316289 0.306737 0.250584
0.352300 0.341497 0.277958
0.387549 0.375525 0.304662
0.421881 0.408698 0.330724
0.455268 0.440925 0.356085
0.487648 0.472175 0.380621
0.519219 0.502647 0.404517
0.549676 0.532067 0.427619
0.579095 0.560479 0.449928
0.608606 0.588983 0.472297
0.637964 0.617304 0.494514
0.666377 0.644739 0.516014
0.693690 0.671107 0.536736
0.719936 0.696468 0.556634
0.745235 0.720882 0.575799
0.769589 0.744381 0.594232
0.792996 0.766964 0.611963
0.815610 0.788785 0.629084
0.837430 0.809873 0.645594
0.858518 0.830259 0.661585
0.878996 0.850004 0.677089
0.898863 0.869169 0.692134
0.076326 0.074983 0.067597
0.076326 0.074983 0.067597
0.076326 0.074983 0.067597
0.076326 0.074983 0.067597
0.104860 0.102571 0.089723
0.137087 0.133700 0.114382
0.170932 0.166384 0.140078
0.205814 0.200076 0.166659
0.241947 0.234928 0.194095
0.278752 0.270481 0.222110
0.315709 0.306157 0.250187
0.351873 0.341100 0.277653
0.387152 0.375158 0.304387
0.421546 0.408362 0.330480
0.454963 0.440620 0.355810
0.487434 0.471992 0.380438
0.518914 0.502373 0.404303
0.549432 0.531823 0.427436
0.578851 0.560235 0.449775
0.608392 0.588769 0.472145
0.637812 0.617151 0.494392
0.666224 0.644587 0.515953
0.693599 0.671015 0.536645
0.719875 0.696376 0.556573
0.745174 0.720821 0.575738
0.769528 0.744320 0.594202
0.792966 0.766964 0.611933
0.815549 0.788754 0.629053
0.837400 0.809842 0.645594
0.858518 0.830228 0.661585
0.878965 0.849973 0.677089
0.898863 0.869169 0.692134
0.075013 0.082185 0.068482
0.076081 0.076844 0.067414
0.076326 0.074983 0.067597
0.076326 0.074983 0.067597
0.103334 0.101076 0.088533
0.135958 0.132601 0.113497
0.169558 0.165072 0.139101
0.204623 0.198917 0.165743
0.240879 0.233921 0.193271
0.277775 0.269566 0.221378
0.314885 0.305364 0.249485
0.351141 0.340398 0.277012
0.386572 0.374578 0.303899
0.420966 0.407813 0.330053
0.454383 0.440070 0.355352
0.487007 0.471565 0.380102
0.518547 0.502007 0.404028
0.549065 0.531487 0.427192
0.578637 0.560021 0.449592
0.608148 0.588525 0.471962
0.637629 0.616968 0.494240
0.666072 0.644434 0.515801
0.693446 0.670863 0.536553
0.719783 0.696284 0.556481
0.745113 0.720760 0.575677
0.769467 0.744259 0.594141
0.792935 0.766903 0.611902
0.815518 0.788724 0.629023
0.837369 0.809812 0.645594
0.858518 0.830228 0.661585
0.878965 0.849973 0.677089
0.898863 0.869200 0.692164
0.043854 0.151003 0.080201
0.050172 0.146304 0.076722
0.060487 0.139986 0.060182
0.101534 0.107515 0.062623
0.106416 0.104067 0.090913
0.134676 0.131350 0.112398
0.166659 0.162264 0.136843
0.202121 0.196475 0.163821
0.238651 0.231754 0.191562
0.275914 0.267735 0.219944
0.313146 0.303685 0.248173
0.349676 0.338964 0.275944
0.385168 0.373236 0.302861
0.419745 0.406622 0.329107
0.453437 0.439124 0.354620
0.486091 0.470680 0.379400
0.517784 0.501274 0.403479
0.548394 0.530816 0.426642
0.577996 0.559411 0.449073
0.607599 0.587976 0.471504
0.637171 0.616541 0.493965
0.665705 0.644068 0.515496
0.693172 0.670619 0.536339
0.719539 0.696040 0.556298
0.744930 0.720546 0.575525
0.769345 0.744137 0.594018
0.792813 0.766812 0.611841
0.815457 0.788632 0.628962
0.837308 0.809751 0.645533
0.858488 0.830198 0.661555
0.878935 0.849943 0.677058
0.898863 0.869200 0.692164
0.000000 0.229801 0.098482
0.000000 0.225254 0.097200
0.000000 0.219547 0.084230
0.062257 0.206088 0.017639
0.144717 0.155978 0.072511
0.139956 0.136446 0.116487
0.169314 0.164828 0.138979
0.200778 0.195224 0.162905
0.235172 0.228428 0.189090
0.272740 0.264683 0.217502
0.310399 0.301061 0.246159
0.347356 0.336706 0.274144
0.383124 0.371283 0.301335
0.417945 0.404883 0.327794
0.451820 0.437598 0.353460
0.484657 0.469306 0.378363
0.516503 0.500053 0.402472
0.547234 0.529686 0.425788
0.577020 0.558465 0.448371
0.606775 0.587182 0.470893
0.636469 0.615869 0.493385
0.665156 0.643549 0.515099
0.692683 0.670130 0.536004
0.719203 0.695735 0.556085
0.744625 0.720272 0.575311
0.769100 0.743923 0.593866
0.792630 0.766629 0.611688
0.815335 0.788540 0.628870
0.837217 0.809689 0.645441
0.858427 0.830137 0.661494
0.878935 0.849943 0.677058
0.898863 0.869200 0.692164
0.000000 0.301793 0.118563
0.000000 0.298405 0.117372
0.000000 0.293767 0.111879
0.000000 0.283940 0.072999
0.117220 0.264591 0.007813
0.189975 0.205112 0.088746
0.175448 0.170718 0.143496
0.206210 0.200443 0.166995
0.238895 0.231998 0.191745
0.273106 0.265019 0.217746
0.307927 0.298650 0.244266
0.344182 0.333684 0.271794
0.380285 0.368536 0.299168
0.415564 0.402594 0.325933
0.449683 0.435554 0.351812
0.482856 0.467536 0.376989
0.514885 0.498482 0.401221
0.545769 0.528313 0.424689
0.575677 0.557183 0.447364
0.605646 0.586114 0.470069
0.635554 0.614954 0.492683
0.664393 0.642817 0.514549
0.692073 0.669551 0.535515
0.718654 0.695216 0.555657
0.744228 0.719905 0.575036
0.768795 0.743587 0.593622
0.792416 0.766415 0.611505
0.815152 0.788357 0.628717
0.837125 0.809567 0.645380
0.858366 0.830076 0.661463
0.878904 0.849912 0.677028
0.898894 0.869200 0.692134
0.000000 0.365606 0.138552
0.000000 0.362799 0.137606
0.000000 0.359197 0.136477
0.000000 0.351965 0.111910
0.000000 0.339422 0.040986
0.168826 0.318181 0.006226
0.235416 0.253513 0.108034
0.212711 0.206729 0.171939
0.244755 0.237675 0.196353
0.278569 0.270298 0.221927
0.312718 0.303288 0.247898
0.346715 0.336095 0.273716
0.380285 0.368536 0.299168
0.412238 0.399390 0.323430
0.447120 0.433051 0.349859
0.480476 0.465248 0.375189
0.512779 0.496468 0.399695
0.543969 0.526574 0.423285
0.574121 0.555657 0.446143
0.604242 0.584741 0.468971
0.634333 0.613794 0.491768
0.663447 0.641901 0.513817
0.691279 0.668757 0.534936
0.718044 0.694636 0.555200
0.743740 0.719417 0.574670
0.768399 0.743221 0.593317
0.792142 0.766140 0.611292
0.814939 0.788174 0.628565
0.836973 0.809445 0.645289
0.858274 0.830014 0.661402
0.878874 0.849882 0.676997
0.898894 0.869200 0.692134
0.000000 0.422400 0.158206
0.000000 0.420386 0.157443
0.000000 0.417670 0.156558
0.000000 0.412085 0.140902
0.000000 0.403113 0.100862
0.000000 0.388464 0.000000
0.218540 0.367437 0.026337
0.280278 0.300877 0.131014
0.251835 0.244480 0.201602
0.284550 0.276097 0.226505
0.318181 0.308568 0.252018
0.351568 0.340795 0.277409
0.384558 0.372625 0.302373
0.417060 0.404028 0.327092
0.449012 0.434852 0.351263
0.477882 0.462745 0.373175
0.510369 0.494118 0.397803
0.541772 0.524437 0.421607
0.572137 0.553735 0.444648
0.602533 0.583093 0.467659
0.632929 0.612451 0.490730
0.662257 0.640772 0.512932
0.690333 0.667872 0.534203
0.717342 0.693904 0.554620
0.743130 0.718837 0.574212
0.767941 0.742794 0.592981
0.791745 0.765774 0.611017
0.814694 0.787930 0.628382
0.836790 0.809262 0.645136
0.858183 0.829892 0.661311
0.878843 0.849851 0.676967
0.898894 0.869200 0.692164
0.000000 0.475471 0.177798
0.000000 0.473793 0.177249
0.000000 0.471656 0.176547
0.000000 0.467140 0.165530
0.000000 0.460700 0.135561
0.000000 0.450141 0.091341
0.135195 0.434760 0.034028
0.266728 0.414984 0.064515
0.324407 0.346746 0.156344
0.291325 0.282628 0.231601
0.324010 0.314183 0.256474
0.356634 0.345708 0.281254
0.389197 0.377142 0.305974
0.421363 0.408179 0.330297
0.452796 0.438544 0.354192
0.483497 0.468177 0.377447
0.513390 0.497047 0.400153
0.541497 0.524163 0.421424
0.569543 0.551263 0.442664
0.600580 0.581201 0.466224
0.631281 0.610864 0.489479
0.660914 0.639460 0.511894
0.689296 0.666835 0.533410
0.716396 0.693050 0.553979
0.742428 0.718166 0.573663
0.767391 0.742245 0.592554
0.791348 0.765377 0.610712
0.814389 0.787625 0.628168
0.836606 0.809079 0.644984
0.858061 0.829801 0.661250
0.878782 0.849790 0.676936
0.898894 0.869230 0.692164
0.000000 0.526146 0.196597
0.000000 0.524895 0.196262
0.000000 0.523186 0.195712
0.000000 0.519768 0.187533
0.000000 0.514641 0.164675
0.000000 0.506737 0.132998
0.000000 0.495308 0.084474
0.202213 0.479774 0.074281
0.314427 0.461067 0.090944
0.367742 0.391577 0.183078
0.330053 0.320043 0.261112
0.362158 0.351019 0.285374
0.394171 0.381933 0.309697
0.425788 0.412451 0.333654
0.456886 0.442481 0.357244
0.487373 0.471901 0.380346
0.516960 0.500481 0.402838
0.545769 0.528313 0.424689
0.573816 0.555383 0.445960
0.601984 0.582574 0.467262
0.628992 0.608637 0.487739
0.659327 0.637934 0.510704
0.687984 0.665614 0.532433
0.715419 0.692073 0.553185
0.741634 0.717372 0.573053
0.766781 0.741665 0.592096
0.790860 0.764920 0.610346
0.814054 0.787289 0.627924
0.836393 0.808865 0.644831
0.857908 0.829648 0.661128
0.878721 0.849760 0.676875
0.898924 0.869261 0.692195
0.000000 0.575250 0.214878
0.000000 0.574304 0.214542
0.000000 0.572900 0.214115
0.000000 0.570031 0.208255
0.000000 0.565942 0.189792
0.000000 0.559838 0.164675
0.000000 0.551049 0.130861
0.072969 0.538903 0.090150
0.259983 0.523827 0.102602
0.361212 0.506065 0.117006
0.410254 0.434943 0.210178
0.373541 0.360113 0.285191
0.399237 0.386816 0.313542
0.430457 0.416968 0.337224
0.461219 0.446662 0.360540
0.491463 0.475868 0.383459
0.520806 0.504204 0.405768
0.549432 0.531823 0.427436
0.577356 0.558801 0.448615
0.605432 0.585901 0.469917
0.633600 0.613092 0.491218
0.660731 0.639307 0.511772
0.686427 0.664088 0.531243
0.714229 0.690944 0.552300
0.740719 0.716518 0.572351
0.766049 0.740963 0.591547
0.790311 0.764401 0.609949
0.813657 0.786923 0.627619
0.836118 0.808591 0.644617
0.857786 0.829526 0.661006
0.878691 0.849699 0.676875
0.898955 0.869261 0.692195
0.000000 0.622827 0.232181
0.000000 0.622004 0.231968
0.000000 0.620752 0.231662
0.000000 0.618250 0.227695
0.000000 0.615076 0.212314
0.000000 0.610224 0.191165
0.000000 0.603357 0.164920
0.000000 0.593805 0.133547
0.180636 0.581079 0.116274
0.313146 0.566857 0.129488
0.406439 0.546685 0.149935
0.451545 0.477089 0.236545
0.418158 0.401678 0.305913
0.435309 0.421637 0.340917
0.465705 0.450996 0.363928
0.495583 0.479835 0.386603
0.524865 0.508110 0.408820
0.553246 0.535485 0.430304
0.581079 0.562402 0.451423
0.609186 0.589532 0.472724
0.637171 0.616541 0.493935
0.664149 0.642573 0.514366
0.690089 0.667628 0.534020
0.715053 0.691707 0.552911
0.739712 0.715511 0.571588
0.765255 0.740200 0.590936
0.789761 0.763851 0.609522
0.813230 0.786496 0.627283
0.835813 0.808316 0.644404
0.857603 0.829343 0.660914
0.878599 0.849638 0.676814
0.898985 0.869291 0.692226
0.000000 0.668574 0.248508
0.000000 0.667933 0.248356
0.000000 0.666957 0.247959
0.000000 0.664851 0.245914
0.000000 0.662287 0.232792
0.000000 0.658473 0.214542
0.000000 0.652888 0.192844
0.000000 0.645228 0.167391
0.000000 0.634852 0.143221
0.250431 0.622583 0.142672
0.362890 0.608850 0.155276
0.450141 0.585168 0.182437
0.491707 0.518090 0.262211
0.461463 0.442969 0.326421
0.470222 0.455360 0.367407
0.499886 0.483986 0.389868
0.528954 0.512047 0.411933
0.557122 0.539269 0.433295
0.584955 0.566125 0.454383
0.613123 0.593317 0.475685
0.640925 0.620172 0.496773
0.667720 0.646052 0.517082
0.693538 0.670954 0.536614
0.718318 0.694881 0.555383
0.742123 0.717861 0.573419
0.764950 0.739895 0.590723
0.789090 0.763210 0.608972
0.812772 0.786069 0.626917
0.835508 0.808042 0.644190
0.857450 0.829191 0.660761
0.878569 0.849577 0.676753
0.899016 0.869322 0.692256
0.000000 0.710506 0.263279
0.000000 0.709895 0.262974
0.000000 0.709163 0.262699
0.000000 0.707454 0.262211
0.000000 0.705348 0.251408
0.000000 0.702419 0.235142
0.000000 0.698116 0.217014
0.000000 0.692256 0.195560
0.000000 0.684199 0.174136
0.163119 0.673671 0.159854
0.309514 0.662196 0.168368
0.410101 0.649378 0.179843
0.492012 0.622889 0.212406
0.530724 0.557824 0.286961
0.505608 0.485878 0.348852
0.504143 0.488136 0.393072
0.533013 0.515984 0.414984
0.561212 0.543206 0.436378
0.588983 0.570031 0.457404
0.617121 0.597192 0.478737
0.644862 0.623957 0.499763
0.671534 0.649714 0.519951
0.697169 0.674464 0.539391
0.721828 0.698268 0.558068
0.745480 0.721096 0.575982
0.768154 0.743008 0.593164
0.790005 0.764096 0.609705
0.812253 0.785580 0.626551
0.835172 0.807706 0.643915
0.857267 0.829007 0.660639
0.878477 0.849485 0.676692
0.899077 0.869383 0.692287
0.000000 0.748104 0.276127
0.000000 0.747646 0.276036
0.000000 0.747005 0.275700
0.000000 0.745663 0.275242
0.000000 0.743893 0.267643
0.000000 0.741817 0.253086
0.000000 0.738308 0.237613
0.000000 0.733639 0.219333
0.000000 0.727382 0.200870
0.000000 0.719051 0.186435
0.242832 0.708736 0.182712
0.362005 0.698238 0.193454
0.453895 0.686275 0.204196
0.531487 0.658045 0.241032
0.568658 0.596368 0.311192
0.547417 0.527031 0.371008
0.537133 0.519951 0.418128
0.565179 0.547051 0.439368
0.593042 0.573938 0.460487
0.621271 0.601190 0.481880
0.648829 0.627802 0.502739
0.675441 0.653468 0.522881
0.700984 0.678126 0.542260
0.725490 0.701808 0.560815
0.748989 0.724514 0.578637
0.771603 0.746304 0.595758
0.793271 0.767239 0.612177
0.814176 0.787411 0.628016
0.834806 0.807340 0.643641
0.857023 0.828794 0.660456
0.878416 0.849454 0.676661
0.899138 0.869444 0.692317
0.000000 0.782010 0.287541
0.000000 0.781613 0.287419
0.000000 0.781125 0.287205
0.000000 0.779995 0.286900
0.000000 0.778408 0.282200
0.000000 0.776730 0.269413
0.000000 0.774105 0.255436
0.000000 0.770443 0.239750
0.000000 0.765347 0.223667
0.000000 0.758694 0.210513
0.163394 0.750149 0.203708
0.307927 0.740505 0.208042
0.409857 0.730648 0.218204
0.494850 0.719509 0.228550
0.568200 0.689723 0.269017
0.604822 0.633021 0.334722
0.587457 0.566888 0.392554
0.569116 0.550835 0.442359
0.597162 0.577905 0.463600
0.625422 0.605188 0.485054
0.652918 0.631739 0.505852
0.679438 0.657313 0.525902
0.704891 0.681910 0.545190
0.729305 0.705470 0.563714
0.752712 0.728084 0.581445
0.775204 0.749783 0.598474
0.796719 0.770565 0.614801
0.817472 0.790616 0.630518
0.837522 0.809964 0.645686
0.856870 0.828641 0.660334
0.878355 0.849363 0.676600
0.899199 0.869505 0.692378
0.000000 0.812467 0.297704
0.000000 0.812192 0.297520
0.000000 0.811734 0.297429
0.000000 0.810819 0.297063
0.000000 0.809415 0.295109
0.000000 0.808072 0.284001
0.000000 0.806027 0.271000
0.000000 0.803037 0.257176
0.000000 0.798947 0.243076
0.000000 0.793515 0.231418
0.000000 0.786496 0.224552
0.247410 0.777829 0.224582
0.363256 0.769070 0.232944
0.453895 0.759762 0.242679
0.532921 0.749355 0.252598
0.602258 0.718563 0.296239
0.638148 0.666316 0.358221
0.626032 0.605524 0.413672
0.601160 0.581750 0.466651
0.629511 0.609125 0.488136
0.657008 0.635706 0.508965
0.683436 0.661189 0.528954
0.708858 0.685756 0.548241
0.733211 0.709255 0.566674
0.756527 0.731777 0.584344
0.778897 0.753384 0.601282
0.800320 0.774075 0.617548
0.820981 0.793973 0.633143
0.840879 0.813199 0.648219
0.860075 0.831724 0.662745
0.878691 0.849699 0.676875
0.899260 0.869566 0.692439
0.000000 0.839933 0.306615
0.000000 0.839628 0.306523
0.000000 0.839322 0.306401
0.000000 0.838529 0.306096
0.000000 0.837278 0.305669
0.000000 0.836179 0.296849
0.000000 0.834592 0.284672
0.000000 0.832212 0.272404
0.000000 0.828855 0.259983
0.000000 0.824399 0.249424
0.000000 0.818692 0.243076
0.176028 0.811460 0.242283
0.314977 0.802853 0.248722
0.413214 0.795102 0.257786
0.495308 0.786526 0.267185
0.568902 0.776974 0.276860
0.634974 0.745541 0.323613
0.670039 0.697780 0.382177
0.662715 0.642481 0.435554
0.633478 0.612970 0.491127
0.661036 0.639582 0.511986
0.687465 0.665095 0.532036
0.712856 0.689601 0.551263
0.737209 0.713130 0.569696
0.760464 0.735592 0.587335
0.782773 0.757107 0.604211
0.804105 0.777707 0.620386
0.824613 0.797513 0.635920
0.844358 0.816556 0.650874
0.863432 0.834958 0.665309
0.881926 0.852842 0.679316
0.899992 0.870268 0.692988
0.000000 0.865537 0.314672
0.000000 0.865324 0.314549
0.000000 0.865049 0.314427
0.000000 0.864408 0.314214
0.000000 0.863401 0.313878
0.000000 0.862364 0.308629
0.000000 0.861265 0.296941
0.000000 0.859312 0.286015
0.000000 0.856687 0.274815
0.000000 0.853056 0.265446
0.000000 0.848264 0.259495
0.000000 0.842283 0.258671
0.262303 0.835050 0.263554
0.373724 0.827176 0.273899
0.459419 0.819974 0.282841
0.534752 0.811978 0.292088
0.603845 0.803281 0.301732
0.666621 0.771542 0.351019
0.700984 0.727626 0.407111
0.697322 0.677485 0.458625
0.664973 0.643397 0.514977
0.691493 0.668971 0.535058
0.716915 0.693538 0.554345
0.741238 0.717006 0.572747
0.764492 0.739437 0.590356
0.786709 0.760891 0.607202
0.807980 0.781430 0.623316
0.828397 0.801144 0.638788
0.848020 0.820096 0.653651
0.866941 0.838376 0.667964
0.885313 0.856077 0.681849
0.903227 0.873411 0.695460
0.000000 0.889891 0.321904
0.000000 0.889738 0.321904
0.000000 0.889494 0.321721
0.000000 0.889006 0.321538
0.000000 0.888182 0.321202
0.000000 0.887175 0.319493
0.000000 0.886320 0.308812
0.000000 0.884886 0.298314
0.000000 0.882780 0.288060
0.000000 0.879789 0.279362
0.000000 0.875792 0.274235
0.000000 0.870756 0.273472
0.200687 0.864591 0.277775
0.332738 0.857298 0.288396
0.426734 0.850278 0.299779
0.503380 0.843503 0.308537
0.572839 0.836179 0.317723
0.637629 0.828153 0.327276
0.697627 0.796323 0.379156
0.731014 0.756130 0.432929
0.730129 0.710536 0.482338
0.697047 0.673732 0.536706
0.720912 0.697383 0.557366
0.745266 0.720882 0.575830
0.768521 0.743343 0.593439
0.790707 0.764767 0.610224
0.811948 0.785275 0.626337
0.832303 0.804929 0.641718
0.851804 0.823728 0.656489
0.870573 0.841855 0.670710
0.888792 0.859464 0.684504
0.906615 0.876646 0.697993
0.000000 0.913054 0.328435
0.000000 0.912902 0.328344
0.000000 0.912718 0.328222
0.000000 0.912322 0.328038
0.000000 0.911650 0.327794
0.000000 0.910765 0.327459
0.000000 0.910002 0.320134
0.000000 0.908995 0.309453
0.000000 0.907286 0.299962
0.000000 0.904814 0.291936
0.000000 0.901518 0.287083
0.000000 0.897124 0.286656
0.109010 0.891844 0.290867
0.286656 0.885496 0.300450
0.396796 0.878141 0.316594
0.475898 0.872099 0.326146
0.545434 0.865751 0.334936
0.609735 0.858946 0.344091
0.670466 0.851591 0.353552
0.727871 0.819883 0.407874
0.760037 0.783200 0.459541
0.761288 0.741909 0.505577
0.731502 0.705470 0.554772
0.749264 0.724758 0.578851
0.772580 0.747280 0.596490
0.794827 0.768734 0.613336
0.816007 0.789181 0.629389
0.836271 0.808743 0.644739
0.855680 0.827481 0.659449
0.874357 0.845518 0.673579
0.892424 0.862974 0.687251
0.910094 0.880034 0.700679
0.000000 0.935027 0.334173
0.000000 0.934905 0.334081
0.000000 0.934752 0.334020
0.000000 0.934417 0.333806
0.000000 0.933898 0.333623
0.000000 0.933196 0.333288
0.000000 0.932403 0.330541
0.000000 0.931762 0.319646
0.000000 0.930419 0.310735
0.000000 0.928374 0.303044
0.000000 0.925566 0.298466
0.000000 0.921782 0.298283
0.000000 0.917144 0.302708
0.234440 0.911559 0.311833
0.358770 0.905028 0.326665
0.453834 0.898039 0.344976
0.522515 0.892546 0.353368
0.585931 0.886656 0.362066
0.645533 0.880339 0.371252
0.702876 0.872557 0.382849
0.757412 0.842252 0.437446
0.787961 0.808804 0.485725
0.790799 0.771572 0.528435
0.764218 0.736080 0.572534
0.776669 0.751217 0.599573
0.798917 0.772702 0.616480
0.820127 0.793179 0.632502
0.840360 0.812680 0.647822
0.859678 0.831357 0.662470
0.878233 0.849241 0.676509
0.896178 0.866575 0.690120
0.913756 0.883543 0.703426
0.000000 0.955932 0.339269
0.000000 0.955840 0.339178
0.000000 0.955749 0.339147
0.000000 0.955444 0.338933
0.000000 0.955016 0.338781
0.000000 0.954437 0.338415
0.000000 0.953735 0.337987
0.000000 0.953155 0.330144
0.000000 0.952209 0.320470
0.000000 0.950591 0.312932
0.000000 0.948211 0.308446
0.000000 0.944915 0.308476
0.000000 0.940764 0.313024
0.168154 0.935729 0.322118
0.319036 0.929900 0.336278
0.425483 0.923156 0.356359
0.505547 0.916930 0.372961
0.567285 0.911742 0.381353
0.625330 0.906188 0.390173
0.680537 0.900298 0.399390
0.735073 0.891203 0.415320
0.785916 0.863340 0.466773
0.814633 0.833127 0.511192
0.818814 0.799557 0.550683
0.795071 0.765316 0.590021
0.802976 0.776638 0.619532
0.824277 0.797147 0.635645
0.844480 0.816678 0.650965
0.863737 0.835264 0.665522
0.882200 0.853086 0.679500
0.900053 0.870329 0.693050
0.917479 0.887144 0.706233
0.000000 0.975891 0.343694
0.000000 0.975799 0.343603
0.000000 0.975708 0.343572
0.000000 0.975463 0.343481
0.000000 0.975158 0.343236
0.000000 0.974670 0.342931
0.000000 0.974090 0.342565
0.000000 0.973449 0.340154
0.000000 0.972930 0.329442
0.000000 0.971618 0.321904
0.000000 0.969604 0.317235
0.000000 0.966735 0.317052
0.000000 0.962982 0.321874
0.000000 0.958434 0.331121
0.275090 0.953094 0.345159
0.392645 0.946899 0.364355
0.489448 0.939788 0.389532
0.554955 0.934508 0.402014
0.610681 0.929656 0.410437
0.663783 0.924437 0.419226
0.714717 0.918944 0.428412
0.766384 0.908782 0.447883
0.813077 0.883391 0.494972
0.840055 0.856016 0.535912
0.845274 0.825956 0.572442
0.824277 0.793332 0.607263
0.828367 0.801114 0.638758
0.848631 0.820706 0.654108
0.867887 0.839261 0.668666
0.886259 0.856992 0.682582
0.903990 0.874144 0.696040
0.921324 0.890867 0.709163
0.000000 0.994873 0.347478
0.000000 0.994842 0.347448
0.000000 0.994751 0.347356
0.000000 0.994598 0.347295
0.000000 0.994324 0.347051
0.000000 0.993957 0.346807
0.000000 0.993500 0.346441
0.000000 0.992920 0.346014
0.000000 0.992493 0.338811
0.000000 0.991577 0.330114
0.000000 0.989960 0.324956
0.000000 0.987427 0.324498
0.000000 0.984009 0.329320
0.000000 0.979797 0.338842
0.222965 0.974823 0.352941
0.358495 0.969055 0.371862
0.461891 0.962432 0.396124
0.549889 0.955291 0.424109
0.602594 0.950896 0.432105
0.652827 0.946258 0.440345
0.701076 0.941405 0.448737
0.747677 0.936339 0.457374
0.796231 0.925414 0.479133
0.839048 0.902434 0.522087
0.864317 0.877745 0.559899
0.870329 0.850767 0.593713
0.852232 0.820432 0.624720
0.852811 0.824704 0.657282
0.872068 0.843290 0.671839
0.890379 0.860990 0.685725
0.908019 0.878019 0.699062
0.925261 0.894682 0.712154
0.000000 1.000000 0.350713
0.000000 1.000000 0.350652
0.000000 1.000000 0.350561
0.000000 1.000000 0.350500
0.000000 1.000000 0.350286
0.000000 1.000000 0.350042
0.000000 1.000000 0.349706
0.000000 1.000000 0.349279
0.000000 1.000000 0.348486
0.000000 1.000000 0.337774
0.000000 1.000000 0.331731
0.000000 1.000000 0.330571
0.000000 1.000000 0.335241
0.000000 1.000000 0.345159
0.149691 0.995361 0.359533
0.321447 0.989899 0.378546
0.434028 0.983612 0.402441
0.529198 0.976501 0.431617
0.600855 0.970275 0.454505
0.647608 0.966155 0.461952
0.692744 0.961822 0.469612
0.736538 0.957305 0.477577
0.779080 0.952605 0.485603
0.824643 0.941192 0.509087
0.863859 0.920409 0.548425
0.887480 0.898283 0.583154
0.894072 0.874205 0.614405
0.879698 0.847257 0.643091
0.876249 0.847349 0.674983
0.894560 0.865019 0.688869
0.912139 0.881987 0.702205
0.929290 0.898558 0.715175
0.000000 1.000000 0.353277
0.000000 1.000000 0.353216
0.000000 1.000000 0.353185
0.000000 1.000000 0.352972
0.000000 1.000000 0.352819
0.000000 1.000000 0.352605
0.000000 1.000000 0.352239
0.000000 1.000000 0.351843
0.000000 1.000000 0.351446
0.000000 1.000000 0.346502
0.000000 1.000000 0.338048
0.000000 1.000000 0.335576
0.000000 1.000000 0.339727
0.000000 1.000000 0.349920
0.000000 1.000000 0.364782
0.279057 1.000000 0.384192
0.405188 1.000000 0.408270
0.506310 0.996674 0.437079
0.594110 0.989197 0.469368
0.648371 0.984253 0.484260
0.689998 0.980346 0.491249
0.730617 0.976257 0.498451
0.770230 0.972015 0.505760
0.808957 0.967651 0.513207
0.851652 0.956023 0.537957
0.887572 0.937377 0.573846
0.909575 0.917632 0.605737
0.916533 0.896208 0.634546
0.905241 0.872374 0.660975
0.898772 0.869078 0.692073
0.916289 0.886015 0.705348
0.933379 0.902495 0.718288
0.000000 1.000000 0.355108
0.000000 1.000000 0.355077
0.000000 1.000000 0.355016
0.000000 1.000000 0.354925
0.000000 1.000000 0.354742
0.000000 1.000000 0.354528
0.000000 1.000000 0.354223
0.000000 1.000000 0.353796
0.000000 1.000000 0.353338
0.000000 1.000000 0.352850
0.000000 1.000000 0.344182
0.000000 1.000000 0.339696
0.000000 1.000000 0.342596
0.000000 1.000000 0.352850
0.000000 1.000000 0.368475
