其他预设/【213】赛博朋克科幻预设52款/1.LUT预设（视频调色-PR-AE-PS-FCPX-达芬奇用）/赛博朋克科幻__-10 强度2.cube
# Created by Adobe Lightroom plugin Export LUT (1.17.0)
# www.johnrellis.com/lightroom/exportlut.htm
# Preset: 赛博朋克科幻[素锦印象]-10 强度2
# Color profile: /Library/Application Support/Adobe/Color/Profiles/Recommended/AdobeRGB1998.icc
LUT_3D_SIZE 8
DOMAIN_MIN 0.000000 0.000000 0.000000
DOMAIN_MAX 0.903226 0.903226 0.903226
0.039704 0.039063 0.035798
0.132357 0.013519 0.053864
0.276799 0.000000 0.091554
0.418341 0.000000 0.132174
0.553826 0.000000 0.184665
0.682948 0.084962 0.242954
0.803586 0.172213 0.306188
0.913817 0.280705 0.390967
0.000000 0.165225 0.052430
0.136385 0.139895 0.049348
0.273350 0.126040 0.090974
0.416236 0.116518 0.135073
0.552422 0.127779 0.189914
0.682002 0.157443 0.246555
0.802945 0.212192 0.309178
0.913451 0.301213 0.390204
0.000000 0.339391 0.088624
0.059876 0.334264 0.000000
0.281254 0.288914 0.091798
0.409674 0.269627 0.156130
0.547509 0.273075 0.206302
0.678614 0.283330 0.258732
0.800565 0.310399 0.319127
0.911925 0.366430 0.392462
0.000000 0.497536 0.130220
0.000000 0.495460 0.094423
0.254429 0.484474 0.064698
0.421790 0.432471 0.156924
0.539239 0.408515 0.230014
0.672847 0.412757 0.277714
0.796475 0.427070 0.335729
0.908751 0.463478 0.408209
0.000000 0.647486 0.169467
0.000000 0.646174 0.151217
0.170047 0.639918 0.115267
0.407630 0.627588 0.117739
0.556786 0.570092 0.221653
0.664729 0.540917 0.301366
0.790677 0.548150 0.357855
0.904265 0.571557 0.430426
0.000000 0.772915 0.205173
0.000000 0.772061 0.196139
0.000000 0.768307 0.175601
0.351629 0.761166 0.175357
0.542229 0.747494 0.188663
0.682216 0.697566 0.291539
0.783352 0.669245 0.384924
0.898619 0.683009 0.458900
0.000000 0.887053 0.236179
0.000000 0.886412 0.233249
0.000000 0.883543 0.232639
0.307042 0.878233 0.243076
0.498146 0.871397 0.245945
0.666957 0.854246 0.280766
0.799435 0.815549 0.380224
0.892271 0.792660 0.492317
0.000000 0.991241 0.257298
0.000000 0.990539 0.259770
0.000000 0.987518 0.277440
0.312352 0.980743 0.330419
0.481025 0.975891 0.333440
0.633448 0.969146 0.336370
0.786069 0.950988 0.395056
0.908415 0.922942 0.499153
0.035126 0.029114 0.126589
0.138857 0.000000 0.118654
0.272862 0.038697 0.145663
0.414588 0.077333 0.185977
0.551415 0.104982 0.229068
0.682063 0.143404 0.276249
0.803403 0.206119 0.332280
0.913756 0.293797 0.400641
0.000000 0.153719 0.135500
0.142123 0.140597 0.132326
0.279454 0.146151 0.157107
0.417884 0.153841 0.191928
0.552850 0.169162 0.234165
0.682124 0.192111 0.279911
0.802792 0.238407 0.334630
0.913298 0.315160 0.402930
0.000000 0.331182 0.158694
0.081880 0.323461 0.145235
0.283268 0.288029 0.160494
0.412085 0.279606 0.203738
0.548516 0.286778 0.244083
0.679072 0.297978 0.288609
0.800626 0.325200 0.342596
0.911620 0.380041 0.410925
0.000000 0.491707 0.183536
0.000000 0.488411 0.170108
0.254917 0.478248 0.152407
0.422766 0.431403 0.203220
0.540917 0.413062 0.260624
0.673610 0.419043 0.303197
0.796689 0.434821 0.356603
0.908568 0.472206 0.425147
0.000000 0.643244 0.212039
0.000000 0.641901 0.200656
0.175204 0.635706 0.174441
0.408209 0.623804 0.178531
0.557397 0.569360 0.252903
0.665827 0.543359 0.322942
0.791135 0.552117 0.376257
0.904234 0.576928 0.445808
0.000000 0.770504 0.237797
0.000000 0.769650 0.231357
0.000000 0.765927 0.216251
0.354742 0.758785 0.215671
0.543297 0.746609 0.225010
0.682856 0.697139 0.314366
0.783963 0.670924 0.401221
0.898741 0.685969 0.472663
0.000000 0.885863 0.261143
0.000000 0.885222 0.258915
0.000000 0.882383 0.258610
0.313420 0.876860 0.270939
0.501366 0.870115 0.274846
0.668513 0.853910 0.304387
0.800107 0.815366 0.397162
0.892638 0.793790 0.503807
0.000000 0.990906 0.275151
0.000000 0.990234 0.277317
0.000000 0.987243 0.293339
0.312749 0.980377 0.343938
0.486244 0.975128 0.353399
0.636713 0.968475 0.357183
0.787716 0.950835 0.410864
0.908995 0.922881 0.510063
0.055543 0.000000 0.247318
0.157961 0.000000 0.249302
0.282109 0.000000 0.237858
0.405188 0.078981 0.256260
0.541619 0.135683 0.294072
0.673548 0.187808 0.337102
0.797940 0.232517 0.380377
0.911620 0.304387 0.435096
0.000000 0.125032 0.251469
0.138979 0.112337 0.254307
0.285252 0.112520 0.244877
0.409186 0.162142 0.264866
0.544518 0.194705 0.301915
0.675746 0.227634 0.342290
0.799191 0.267674 0.386145
0.911772 0.335943 0.442969
0.000000 0.307591 0.267704
0.065675 0.303593 0.267033
0.289494 0.285710 0.265110
0.421271 0.297734 0.291112
0.553613 0.311192 0.322545
0.681758 0.328161 0.358434
0.801694 0.359930 0.403906
0.911284 0.416266 0.463172
0.000000 0.480293 0.284977
0.000000 0.476600 0.280186
0.249058 0.463539 0.271977
0.425299 0.428351 0.294347
0.546807 0.423774 0.332586
0.676783 0.434943 0.368383
0.798123 0.456092 0.414466
0.908476 0.497597 0.474952
0.000000 0.635157 0.300633
0.000000 0.632654 0.296971
0.191348 0.624170 0.288731
0.406378 0.612329 0.288334
0.558923 0.566705 0.330297
0.669673 0.550561 0.382635
0.792935 0.564172 0.429938
0.904479 0.593530 0.492195
0.000000 0.765011 0.314916
0.000000 0.763455 0.313268
0.093843 0.758633 0.308873
0.361425 0.751217 0.308507
0.545861 0.741543 0.316472
0.684688 0.695674 0.378637
0.786252 0.676356 0.450385
0.899535 0.695094 0.513848
0.000000 0.882719 0.327672
0.000000 0.881834 0.327306
0.000000 0.878843 0.328008
0.328252 0.872587 0.343969
0.510704 0.866026 0.352026
0.673274 0.852842 0.371313
0.802396 0.814786 0.449042
0.894163 0.797421 0.539147
0.000000 0.990143 0.328222
0.000000 0.989654 0.328191
0.000000 0.986694 0.339727
0.298650 0.979980 0.379492
0.502556 0.972656 0.413062
0.647242 0.966278 0.418830
0.792905 0.950408 0.459144
0.910979 0.922759 0.543938
0.090730 0.000000 0.356573
0.170382 0.000000 0.359411
0.303014 0.000000 0.368048
0.418250 0.000000 0.350683
0.527642 0.110933 0.360876
0.662837 0.168399 0.396155
0.790738 0.224430 0.434241
0.908934 0.280552 0.474189
0.018708 0.085176 0.360449
0.147280 0.069551 0.362676
0.296422 0.000000 0.370245
0.419989 0.006653 0.354681
0.530419 0.176028 0.366613
0.664729 0.216007 0.401526
0.791836 0.261631 0.439368
0.909300 0.310796 0.479286
0.000000 0.266148 0.363989
0.000000 0.257359 0.364508
0.269566 0.246159 0.374090
0.423499 0.261265 0.367926
0.539971 0.302251 0.386053
0.671473 0.328252 0.420050
0.795773 0.360906 0.457679
0.910002 0.406867 0.501762
0.000000 0.449714 0.389532
0.000000 0.447913 0.389502
0.226169 0.440040 0.389563
0.428412 0.422492 0.390265
0.556451 0.437903 0.417548
0.682429 0.456580 0.449805
0.801083 0.486549 0.490852
0.909697 0.530816 0.541192
0.000000 0.620935 0.407050
0.000000 0.618555 0.405066
0.174319 0.610101 0.399786
0.395636 0.594476 0.396948
0.560479 0.561425 0.420752
0.675990 0.561303 0.460304
0.796384 0.582696 0.502708
0.906371 0.614923 0.553552
0.000000 0.756252 0.411658
0.000000 0.754757 0.410529
0.081025 0.749508 0.408209
0.360266 0.740383 0.409216
0.546715 0.729946 0.421332
0.687312 0.692714 0.461646
0.790494 0.684962 0.517876
0.902281 0.707179 0.569421
0.000000 0.877775 0.415320
0.000000 0.876951 0.414954
0.000000 0.873960 0.414954
0.315099 0.868284 0.421698
0.522148 0.859281 0.446387
0.679652 0.851408 0.458381
0.805905 0.813809 0.518486
0.897673 0.802884 0.588464
0.000000 0.987945 0.410071
0.000000 0.987488 0.409766
0.000000 0.985809 0.410163
0.239597 0.980713 0.427771
0.522942 0.969116 0.491554
0.661097 0.963073 0.499092
0.799313 0.950439 0.522942
0.914122 0.922728 0.591821
0.126833 0.000000 0.455665
0.184878 0.000000 0.458320
0.300786 0.000000 0.467079
0.433600 0.000000 0.471351
0.545830 0.000000 0.456275
0.655451 0.095216 0.465278
0.781186 0.195560 0.496193
0.904723 0.267765 0.530846
0.096223 0.000000 0.458015
0.162722 0.000000 0.460334
0.290776 0.000000 0.468421
0.432319 0.000000 0.475013
0.546746 0.000000 0.458961
0.655879 0.169924 0.468635
0.782315 0.235477 0.499886
0.905119 0.284855 0.533135
0.000000 0.222507 0.456855
0.000000 0.216068 0.461616
0.258762 0.206943 0.470375
0.426581 0.191531 0.484291
0.549371 0.230533 0.468482
0.657191 0.303807 0.480568
0.786160 0.337713 0.513024
0.906645 0.374823 0.546410
0.000000 0.397040 0.470283
0.000000 0.393286 0.470527
0.198154 0.379492 0.471077
0.399359 0.376867 0.485481
0.553582 0.399023 0.485023
0.667689 0.436500 0.504234
0.793149 0.463966 0.537346
0.909545 0.492866 0.570916
0.000000 0.581689 0.502800
0.000000 0.580529 0.502953
0.145724 0.575952 0.503441
0.368017 0.566918 0.504997
0.559960 0.551995 0.508690
0.684535 0.573327 0.539910
0.803311 0.599359 0.575677
0.911772 0.632319 0.616327
0.000000 0.743038 0.516930
0.000000 0.741695 0.516075
0.000000 0.736721 0.513725
0.337346 0.728054 0.511437
0.532677 0.715297 0.515831
0.689052 0.687526 0.544182
0.798001 0.693477 0.586023
0.908171 0.717983 0.627985
0.000000 0.870359 0.514611
0.000000 0.869596 0.514183
0.000000 0.866819 0.513207
0.286870 0.861967 0.513512
0.502617 0.853971 0.524773
0.681636 0.843687 0.549950
0.809751 0.812375 0.588617
0.903960 0.808896 0.642420
0.000000 0.984619 0.505058
0.000000 0.984222 0.504692
0.000000 0.982696 0.504051
0.154055 0.979858 0.505150
0.460243 0.972442 0.528405
0.668391 0.960113 0.577417
0.803433 0.951904 0.589624
0.918242 0.922881 0.645594
0.151400 0.000000 0.557275
0.198520 0.000000 0.559594
0.307713 0.000000 0.567346
0.435492 0.000000 0.580072
0.564569 0.000000 0.577569
0.674617 0.000000 0.562646
0.783322 0.000000 0.568841
0.899687 0.270848 0.598230
0.133333 0.000000 0.558831
0.182589 0.000000 0.560876
0.294347 0.000000 0.568078
0.429236 0.000000 0.580713
0.564080 0.000000 0.579889
0.675013 0.000000 0.564508
0.783383 0.122866 0.570977
0.900053 0.271489 0.598871
0.000000 0.177401 0.559167
0.064149 0.173129 0.561242
0.254063 0.155947 0.568444
0.410620 0.114351 0.581140
0.561975 0.066957 0.586999
0.676204 0.174502 0.570886
0.783474 0.279362 0.578637
0.901579 0.342016 0.606256
0.000000 0.348852 0.551781
0.000000 0.342931 0.551568
0.171450 0.332860 0.562432
0.376196 0.329900 0.579492
0.554894 0.330053 0.597833
0.677790 0.365423 0.582116
0.783352 0.426429 0.593042
0.904356 0.462318 0.622919
0.000000 0.527703 0.580072
0.000000 0.525078 0.579980
0.072786 0.515373 0.579583
0.312840 0.495552 0.578851
0.516625 0.492317 0.595209
0.679896 0.524102 0.598322
0.790372 0.564691 0.617700
0.909636 0.590112 0.648249
0.000000 0.709621 0.612421
0.000000 0.708675 0.612451
0.000000 0.705348 0.612726
0.292515 0.699001 0.613550
0.490913 0.688991 0.615778
0.685847 0.675929 0.622004
0.808011 0.701442 0.656062
0.917174 0.728695 0.691035
0.000000 0.859037 0.619043
0.000000 0.858610 0.618860
0.000000 0.856901 0.618372
0.240513 0.852354 0.617090
0.467659 0.844785 0.618616
0.663783 0.832914 0.630884
0.812650 0.808774 0.660975
0.913024 0.816007 0.702144
0.000000 0.980163 0.607599
0.000000 0.979797 0.607233
0.000000 0.978485 0.606134
0.000000 0.975982 0.605219
0.411383 0.970703 0.610712
0.635401 0.960693 0.635950
0.806455 0.949004 0.669032
0.923430 0.923125 0.706325
0.158541 0.000000 0.668727
0.202335 0.000000 0.670283
0.306950 0.000000 0.675685
0.433387 0.000000 0.685054
0.572473 0.000000 0.698085
0.699275 0.000000 0.689052
0.804471 0.000000 0.669215
0.909331 0.173953 0.673732
0.167391 0.000000 0.670283
0.206821 0.000000 0.671748
0.305791 0.000000 0.676844
0.430579 0.000000 0.685939
0.570001 0.000000 0.698848
0.699001 0.000000 0.690303
0.804685 0.000000 0.670375
0.909819 0.173922 0.674464
0.000000 0.106600 0.669276
0.083101 0.094362 0.670771
0.253117 0.000000 0.676020
0.402106 0.000000 0.685420
0.554345 0.000000 0.698756
0.696162 0.000000 0.694453
0.804562 0.000000 0.674464
0.911070 0.210086 0.677455
0.000000 0.305119 0.661555
0.000000 0.299107 0.663935
0.131380 0.282963 0.671717
0.355077 0.269749 0.681819
0.529656 0.246220 0.696162
0.689509 0.235843 0.700710
0.804044 0.300114 0.681636
0.909667 0.384497 0.686793
0.000000 0.482033 0.668482
0.000000 0.477424 0.667933
0.000000 0.459632 0.665736
0.244572 0.430884 0.669276
0.476173 0.427192 0.689662
0.674434 0.435798 0.709010
0.802701 0.480598 0.692317
0.906828 0.544823 0.702754
0.000000 0.660914 0.694972
0.000000 0.658656 0.694636
0.000000 0.650172 0.693538
0.182620 0.632776 0.691127
0.395758 0.601862 0.686580
0.629633 0.603418 0.701320
0.801724 0.645075 0.707759
0.909941 0.686458 0.727077
0.000000 0.838590 0.722103
0.000000 0.837858 0.722072
0.000000 0.835080 0.721950
0.082673 0.829831 0.721889
0.399451 0.820706 0.722042
0.613001 0.807187 0.723507
0.807553 0.795743 0.731594
0.924773 0.823667 0.766873
0.000000 0.972412 0.714534
0.000000 0.972259 0.714412
0.000000 0.971679 0.714046
0.000000 0.970306 0.713924
0.360906 0.965484 0.715755
0.594202 0.956329 0.723110
0.789487 0.944366 0.741360
0.929015 0.922728 0.772457
0.134493 0.000000 0.795926
0.184939 0.000000 0.796719
0.296483 0.000000 0.799496
0.425147 0.000000 0.804410
0.562249 0.000000 0.811368
0.705013 0.000000 0.817411
0.839231 0.000000 0.807462
0.935393 0.000000 0.777127
0.140200 0.000000 0.796902
0.188205 0.000000 0.797665
0.297307 0.000000 0.800351
0.424903 0.000000 0.805203
0.561517 0.000000 0.812100
0.704280 0.000000 0.818235
0.838895 0.000000 0.808286
0.935729 0.000000 0.778012
0.000000 0.000000 0.798123
0.096284 0.000000 0.798917
0.257939 0.000000 0.801694
0.403235 0.000000 0.806699
0.549645 0.000000 0.813870
0.699611 0.000000 0.821164
0.837369 0.000000 0.811246
0.937041 0.000000 0.781033
0.000000 0.230137 0.795499
0.000000 0.225345 0.796353
0.012177 0.205905 0.799374
0.333318 0.160647 0.804776
0.509728 0.000000 0.812558
0.676631 0.000000 0.822446
0.830076 0.000000 0.815000
0.937377 0.000000 0.786007
0.000000 0.436439 0.787015
0.000000 0.430121 0.787747
0.000000 0.408026 0.791623
0.141695 0.366308 0.799313
0.439734 0.346502 0.808103
0.640223 0.312810 0.819120
0.816312 0.301213 0.819516
0.934112 0.387976 0.793210
0.000000 0.626551 0.804196
0.000000 0.622675 0.803799
0.000000 0.607721 0.802335
0.000000 0.575799 0.799069
0.280552 0.523522 0.796414
0.575525 0.520775 0.811032
0.795590 0.535576 0.824460
0.928649 0.592065 0.803311
0.000000 0.803830 0.821256
0.000000 0.801999 0.821073
0.000000 0.794980 0.820401
0.000000 0.781003 0.818845
0.229068 0.757229 0.815610
0.483314 0.718807 0.808408
0.741390 0.711879 0.814603
0.923766 0.761196 0.816892
0.000000 0.974853 0.836301
0.000000 0.974304 0.836271
0.000000 0.972259 0.836149
0.000000 0.967926 0.835874
0.179049 0.959899 0.835294
0.507347 0.946288 0.834134
0.730129 0.927794 0.833005
0.926696 0.913054 0.838804
