其他预设/【213】赛博朋克科幻预设52款/1.LUT预设（视频调色-PR-AE-PS-FCPX-达芬奇用）/赛博朋克科幻__-9 强度1.cube
# Created by Adobe Lightroom plugin Export LUT (1.17.0)
# www.johnrellis.com/lightroom/exportlut.htm
# Preset: 赛博朋克科幻[素锦印象]-9 强度1
# Color profile: /Library/Application Support/Adobe/Color/Profiles/Recommended/AdobeRGB1998.icc
LUT_3D_SIZE 5
DOMAIN_MIN 0.000000 0.000000 0.000000
DOMAIN_MAX 0.903226 0.903226 0.903226
0.000000 0.000000 0.000000
0.219821 0.021759 0.000000
0.460792 0.098451 0.000000
0.700069 0.157687 0.000000
0.914275 0.175570 0.000000
0.008545 0.205142 0.081880
0.228397 0.219547 0.006287
0.455573 0.228611 0.000000
0.697627 0.256168 0.000000
0.912993 0.270542 0.000000
0.003082 0.431769 0.167422
0.213931 0.438911 0.148745
0.485267 0.466041 0.000000
0.703578 0.446754 0.000000
0.908476 0.452064 0.000000
0.079103 0.661341 0.263737
0.224521 0.665797 0.252934
0.450843 0.675227 0.229557
0.726436 0.697993 0.056947
0.922698 0.649622 0.000000
0.235050 0.874815 0.393805
0.332891 0.875425 0.408026
0.496071 0.879820 0.404974
0.688716 0.888914 0.363043
0.934081 0.898405 0.184085
0.060334 0.059083 0.207370
0.218265 0.037140 0.205875
0.467933 0.000000 0.180331
0.703548 0.130556 0.153780
0.917021 0.159579 0.000000
0.068818 0.211337 0.218753
0.217960 0.217960 0.217960
0.461128 0.229435 0.202579
0.700557 0.249332 0.169589
0.915496 0.260014 0.030457
0.086671 0.429053 0.267216
0.227390 0.438361 0.265141
0.478828 0.463600 0.221836
0.697017 0.449958 0.211612
0.909575 0.453773 0.162509
0.125765 0.659174 0.338231
0.247044 0.663752 0.336034
0.456306 0.674586 0.320592
0.722988 0.697169 0.240482
0.921111 0.652644 0.182345
0.236393 0.873960 0.435767
0.333867 0.874571 0.447883
0.511345 0.878233 0.463752
0.692683 0.887388 0.433234
0.932036 0.898466 0.298497
0.109010 0.105287 0.444953
0.242039 0.109712 0.438880
0.456764 0.077119 0.430640
0.701717 0.053498 0.412451
0.918975 0.194064 0.390326
0.140597 0.253422 0.454810
0.251347 0.250278 0.448859
0.456977 0.230747 0.436378
0.701320 0.238346 0.419013
0.917815 0.277867 0.393072
0.132876 0.447120 0.463264
0.253147 0.449073 0.461677
0.454383 0.454383 0.454383
0.694026 0.467079 0.447181
0.911681 0.466926 0.416938
0.164034 0.652430 0.493538
0.270695 0.656580 0.495766
0.474311 0.669703 0.503593
0.709773 0.693568 0.474983
0.908873 0.670619 0.461891
0.263951 0.870085 0.561425
0.340673 0.871244 0.564538
0.523430 0.875120 0.581506
0.703334 0.884062 0.583368
0.925170 0.898711 0.508659
0.189639 0.184695 0.680934
0.286046 0.187411 0.677302
0.473457 0.180392 0.663661
0.691218 0.142214 0.652064
0.909148 0.184085 0.627314
0.222843 0.302464 0.685725
0.302922 0.300359 0.682155
0.477974 0.289036 0.668421
0.690303 0.264012 0.654932
0.908263 0.291508 0.632746
0.268223 0.497505 0.697780
0.350896 0.504875 0.697414
0.503227 0.502403 0.683680
0.686366 0.474739 0.664393
0.906035 0.495247 0.651972
0.260319 0.673030 0.696010
0.338598 0.674678 0.695216
0.507134 0.679316 0.692012
0.680659 0.680629 0.680659
0.902190 0.692897 0.676356
0.310552 0.863462 0.721370
0.373480 0.863890 0.721859
0.522332 0.869169 0.724147
0.705989 0.880705 0.730434
0.914397 0.899168 0.708797
0.317815 0.313176 0.888365
0.375006 0.315740 0.887053
0.521691 0.318273 0.882292
0.703334 0.304540 0.872496
0.907683 0.281010 0.858732
0.354528 0.399176 0.889403
0.402502 0.399329 0.888151
0.534203 0.396765 0.883421
0.705959 0.379248 0.873747
0.906279 0.355444 0.860258
0.439307 0.576471 0.893645
0.481239 0.581415 0.892485
0.576196 0.574670 0.888121
0.715267 0.549981 0.878691
0.902403 0.518669 0.865629
0.460182 0.725277 0.897246
0.502373 0.729732 0.897276
0.615625 0.742275 0.897948
0.737148 0.736507 0.891569
0.897093 0.701869 0.875669
0.448737 0.872709 0.898863
0.486183 0.874083 0.898833
0.593805 0.878904 0.898833
0.737301 0.887022 0.898741
0.890929 0.890929 0.890929
