其他预设/【213】赛博朋克科幻预设52款/1.LUT预设（视频调色-PR-AE-PS-FCPX-达芬奇用）/赛博朋克科幻__-12 强度2.cube
# Created by Adobe Lightroom plugin Export LUT (1.17.0)
# www.johnrellis.com/lightroom/exportlut.htm
# Preset: 赛博朋克科幻[素锦印象]-12 强度2
# Color profile: /Library/Application Support/Adobe/Color/Profiles/Recommended/AdobeRGB1998.icc
LUT_3D_SIZE 32
0.064729 0.065309 0.065248
0.064729 0.065309 0.065248
0.064729 0.065309 0.065248
0.078676 0.063539 0.064973
0.104524 0.059541 0.064240
0.128176 0.062715 0.070253
0.152438 0.067323 0.078279
0.177829 0.072267 0.085969
0.204471 0.077028 0.094423
0.232822 0.082033 0.103273
0.262913 0.087037 0.113252
0.294194 0.093385 0.124056
0.326604 0.100496 0.135470
0.359716 0.109071 0.148013
0.393317 0.118288 0.161227
0.427131 0.128237 0.175051
0.460945 0.139101 0.189395
0.494514 0.150790 0.204227
0.527367 0.163424 0.219425
0.560723 0.176791 0.235325
0.594781 0.191440 0.252262
0.628687 0.207767 0.270207
0.661891 0.225956 0.289494
0.694301 0.246342 0.310094
0.726070 0.268498 0.332250
0.757168 0.293217 0.356085
0.787564 0.320317 0.381750
0.817319 0.350042 0.409644
0.846372 0.382605 0.439948
0.874723 0.418280 0.472938
0.902190 0.457343 0.508904
0.928771 0.499886 0.547936
0.064729 0.065309 0.065248
0.064729 0.065309 0.065248
0.064729 0.065309 0.065248
0.078981 0.067842 0.064607
0.104219 0.067353 0.063600
0.128115 0.069337 0.068177
0.152346 0.074220 0.076478
0.177554 0.078706 0.084962
0.204379 0.083314 0.093233
0.232822 0.088167 0.102419
0.262913 0.093355 0.112215
0.294194 0.099214 0.123140
0.326574 0.106600 0.134768
0.359747 0.114626 0.147372
0.393286 0.123598 0.160647
0.427161 0.133364 0.174624
0.460945 0.143801 0.188907
0.494423 0.155154 0.203677
0.527306 0.167086 0.218936
0.560662 0.180423 0.234867
0.594751 0.194736 0.251743
0.628717 0.210483 0.269749
0.661921 0.228519 0.289067
0.694362 0.248569 0.309697
0.726070 0.270695 0.331762
0.757168 0.295048 0.355688
0.787564 0.321843 0.381353
0.817319 0.351446 0.409400
0.846403 0.383795 0.439612
0.874723 0.419318 0.472694
0.902220 0.458167 0.508568
0.928801 0.500572 0.547662
0.064546 0.066621 0.065126
0.065309 0.068177 0.065003
0.067506 0.069490 0.064820
0.082612 0.076204 0.063661
0.103700 0.076539 0.062715
0.128115 0.077790 0.065888
0.152132 0.082490 0.074403
0.177371 0.086793 0.083101
0.204288 0.091157 0.091798
0.232609 0.095888 0.101137
0.262821 0.101106 0.111055
0.294102 0.106966 0.122072
0.326543 0.113924 0.133974
0.359686 0.121584 0.146639
0.393286 0.130526 0.159945
0.427131 0.139590 0.173892
0.460945 0.149844 0.188205
0.494392 0.160555 0.203037
0.527337 0.172427 0.218326
0.560632 0.185183 0.234226
0.594751 0.199069 0.251072
0.628687 0.214603 0.269200
0.661891 0.232242 0.288426
0.694331 0.251835 0.309117
0.726101 0.273625 0.331273
0.757137 0.297581 0.355200
0.787594 0.324041 0.380926
0.817319 0.353399 0.408942
0.846464 0.385382 0.439185
0.874784 0.420691 0.472236
0.902251 0.459358 0.508202
0.928862 0.501549 0.547326
0.059571 0.097627 0.061738
0.065309 0.097902 0.061524
0.073945 0.098299 0.061219
0.089082 0.099001 0.060578
0.109773 0.101442 0.059266
0.129915 0.097017 0.058717
0.151553 0.098543 0.069856
0.177005 0.102266 0.079103
0.203952 0.106386 0.088533
0.232395 0.111025 0.098146
0.262577 0.116335 0.108522
0.294102 0.121859 0.119753
0.326421 0.128695 0.131868
0.359625 0.136080 0.144839
0.393225 0.143801 0.158053
0.427039 0.152590 0.172274
0.460853 0.162020 0.186831
0.494301 0.172122 0.201572
0.527245 0.183108 0.216892
0.560540 0.195071 0.232883
0.594720 0.208225 0.249851
0.628656 0.223026 0.267918
0.661891 0.239902 0.287236
0.694301 0.258762 0.307988
0.726070 0.279759 0.330114
0.757168 0.303044 0.354101
0.787594 0.328801 0.379858
0.817411 0.357488 0.407904
0.846494 0.389044 0.438209
0.874846 0.423713 0.471290
0.902342 0.461799 0.507256
0.928954 0.503593 0.546441
0.046998 0.131594 0.053864
0.057832 0.131807 0.053498
0.071199 0.131838 0.052796
0.092500 0.131563 0.051453
0.114473 0.131899 0.049317
0.133059 0.127840 0.048737
0.159426 0.127077 0.044892
0.177615 0.123873 0.070710
0.203342 0.127077 0.082887
0.232029 0.131563 0.093416
0.262303 0.136629 0.104250
0.293797 0.142275 0.116091
0.326238 0.148653 0.128695
0.359380 0.155428 0.141848
0.393042 0.162783 0.155428
0.426886 0.170718 0.169467
0.460700 0.179416 0.184176
0.494209 0.188754 0.199100
0.527184 0.198550 0.214542
0.560540 0.209751 0.230716
0.594659 0.221836 0.247776
0.628626 0.235874 0.265934
0.661830 0.251591 0.285344
0.694362 0.269200 0.306188
0.726070 0.289158 0.328435
0.757229 0.311376 0.352392
0.787655 0.336278 0.378241
0.817472 0.363867 0.406287
0.846586 0.394476 0.436713
0.874968 0.428412 0.469795
0.902464 0.465827 0.505882
0.929137 0.506920 0.545129
0.020905 0.166140 0.036591
0.038056 0.166232 0.036103
0.063722 0.166201 0.035157
0.089326 0.165835 0.033234
0.117494 0.165347 0.030121
0.141329 0.165469 0.026276
0.161440 0.160678 0.025574
0.191043 0.162112 0.017853
0.210513 0.155764 0.062348
0.231388 0.155306 0.086732
0.261845 0.160525 0.098299
0.293492 0.165896 0.111025
0.325963 0.171786 0.123995
0.359228 0.178286 0.137575
0.392889 0.185092 0.151278
0.426764 0.192538 0.165835
0.460578 0.200473 0.180697
0.494026 0.208835 0.195834
0.526970 0.217899 0.211429
0.560388 0.227878 0.227634
0.594568 0.239139 0.244846
0.628534 0.251835 0.263249
0.661799 0.266361 0.282658
0.694301 0.282811 0.303624
0.726101 0.301488 0.325902
0.757259 0.322423 0.349920
0.787716 0.346075 0.375891
0.817563 0.372412 0.404059
0.846708 0.401923 0.434577
0.875151 0.434760 0.467750
0.902678 0.471138 0.503899
0.929381 0.511406 0.543328
0.000000 0.201511 0.010803
0.009339 0.201358 0.010315
0.049775 0.201175 0.009400
0.084596 0.200870 0.007324
0.115633 0.200504 0.004028
0.144320 0.199863 0.000000
0.169162 0.199924 0.000000
0.191318 0.195590 0.000000
0.221073 0.197696 0.000000
0.245579 0.192599 0.040192
0.267704 0.189853 0.081025
0.292943 0.191775 0.104067
0.325566 0.197543 0.117800
0.358862 0.203677 0.131746
0.392615 0.210025 0.146029
0.426459 0.216892 0.160800
0.460304 0.224125 0.175906
0.493721 0.231693 0.191501
0.526757 0.239811 0.207156
0.560235 0.248905 0.223697
0.594446 0.259251 0.241062
0.628473 0.270756 0.259464
0.661707 0.284062 0.279149
0.694270 0.299199 0.300206
0.726101 0.316381 0.322667
0.757259 0.335882 0.346838
0.787778 0.358099 0.372930
0.817655 0.383093 0.401221
0.846860 0.411231 0.431830
0.875303 0.442756 0.465187
0.902953 0.477882 0.501366
0.929686 0.517052 0.541009
0.000000 0.237491 0.000000
0.000000 0.237430 0.000000
0.028595 0.237247 0.000000
0.079011 0.236973 0.000000
0.113466 0.236667 0.000000
0.143984 0.236210 0.000000
0.172274 0.235782 0.000000
0.198550 0.236027 0.000000
0.222751 0.232609 0.000000
0.251011 0.233005 0.000000
0.282536 0.232975 0.000000
0.305760 0.228061 0.069551
0.329808 0.227085 0.101625
0.358373 0.230777 0.124147
0.392187 0.236912 0.139284
0.426123 0.243137 0.154360
0.459907 0.249882 0.169863
0.493446 0.256687 0.185641
0.526513 0.263981 0.201755
0.559991 0.272282 0.218662
0.594293 0.281743 0.236271
0.628351 0.292271 0.254948
0.661616 0.304326 0.274784
0.694240 0.318059 0.296025
0.726101 0.333623 0.318639
0.757321 0.351751 0.343114
0.787839 0.372351 0.369268
0.817777 0.395697 0.397620
0.847044 0.422309 0.428412
0.875547 0.452308 0.461860
0.903227 0.486152 0.498329
0.930022 0.523949 0.538079
0.000000 0.275059 0.000000
0.000000 0.274937 0.000000
0.013092 0.274907 0.000000
0.076020 0.274540 0.000000
0.109865 0.274449 0.000000
0.141665 0.274205 0.000000
0.173342 0.273960 0.000000
0.202090 0.273869 0.000000
0.229679 0.274022 0.000000
0.255985 0.271794 0.000000
0.278386 0.265812 0.000000
0.320897 0.276005 0.000000
0.344976 0.269352 0.038422
0.369635 0.266178 0.092287
0.394659 0.266514 0.125093
0.425574 0.271244 0.145998
0.459419 0.277287 0.162295
0.493080 0.283635 0.178470
0.526055 0.290135 0.195285
0.559747 0.297612 0.212406
0.594049 0.306279 0.230289
0.628168 0.315770 0.249241
0.661524 0.326574 0.269474
0.694087 0.339086 0.290867
0.726040 0.353307 0.313756
0.757321 0.369665 0.338415
0.787930 0.388617 0.364813
0.817929 0.410315 0.393317
0.847288 0.435157 0.424262
0.875853 0.463600 0.457923
0.903563 0.495735 0.494545
0.930449 0.532158 0.534569
0.000000 0.314275 0.000000
0.000000 0.314214 0.000000
0.000000 0.314214 0.000000
0.064820 0.314122 0.000000
0.103914 0.314061 0.000000
0.138705 0.313909 0.000000
0.171817 0.313787 0.000000
0.204929 0.313481 0.000000
0.233860 0.313603 0.000000
0.262516 0.313909 0.000000
0.290471 0.312474 0.000000
0.314153 0.306798 0.000000
0.354559 0.316442 0.000000
0.384771 0.312627 0.000000
0.409735 0.307530 0.075410
0.434882 0.305608 0.116732
0.460182 0.306645 0.150149
0.492439 0.311833 0.169650
0.525597 0.317906 0.186893
0.559350 0.324590 0.204746
0.593774 0.332555 0.222995
0.627893 0.341161 0.242435
0.661341 0.350927 0.262852
0.693965 0.362036 0.284672
0.725978 0.374823 0.307897
0.757321 0.389685 0.332738
0.787991 0.406806 0.359380
0.818051 0.426856 0.388128
0.847501 0.449897 0.419348
0.876188 0.476417 0.453193
0.903990 0.506828 0.490028
0.930938 0.541558 0.530358
0.000000 0.355077 0.000000
0.000000 0.355108 0.000000
0.000000 0.355169 0.000000
0.033692 0.355047 0.000000
0.095430 0.354955 0.000000
0.133852 0.354925 0.000000
0.169528 0.354833 0.000000
0.203830 0.354650 0.000000
0.237919 0.354376 0.000000
0.267155 0.354742 0.000000
0.296635 0.355016 0.000000
0.325811 0.354345 0.000000
0.350500 0.348943 0.000000
0.388617 0.357061 0.000000
0.424933 0.357641 0.000000
0.449958 0.350652 0.026215
0.474891 0.346410 0.102815
0.499733 0.345129 0.143221
0.524987 0.346899 0.176730
0.558831 0.352972 0.195224
0.593408 0.360204 0.214328
0.627588 0.368078 0.234134
0.661067 0.376776 0.255192
0.693812 0.386725 0.277317
0.725856 0.398077 0.300969
0.757321 0.411383 0.326085
0.788052 0.426856 0.353002
0.818235 0.445106 0.382086
0.847745 0.466346 0.413519
0.876524 0.490974 0.447639
0.904448 0.519463 0.484840
0.931456 0.552331 0.525414
0.000000 0.396918 0.000000
0.000000 0.397009 0.000000
0.000000 0.396948 0.000000
0.000000 0.396826 0.000000
0.082887 0.396826 0.000000
0.127291 0.396704 0.000000
0.165713 0.396765 0.000000
0.201846 0.396643 0.000000
0.237095 0.396429 0.000000
0.271519 0.396277 0.000000
0.301213 0.396582 0.000000
0.331365 0.396857 0.000000
0.361578 0.396735 0.000000
0.387274 0.391608 0.000000
0.421393 0.395056 0.000000
0.463172 0.401984 0.000000
0.489754 0.394446 0.000000
0.514275 0.388190 0.080842
0.538781 0.384863 0.132021
0.564355 0.385138 0.171695
0.592950 0.389349 0.203738
0.627192 0.396460 0.224399
0.660700 0.404150 0.246006
0.693568 0.412879 0.268711
0.725734 0.423011 0.292760
0.757229 0.434791 0.318303
0.788113 0.448676 0.345617
0.818387 0.465064 0.374975
0.848020 0.484382 0.406806
0.876860 0.507103 0.441260
0.904906 0.533562 0.478706
0.932067 0.564477 0.519738
0.000000 0.439124 0.000000
0.000000 0.439185 0.000000
0.000000 0.439155 0.000000
0.000000 0.439124 0.000000
0.064118 0.439155 0.000000
0.118288 0.439094 0.000000
0.160372 0.439002 0.000000
0.198550 0.438880 0.000000
0.235416 0.438636 0.000000
0.271550 0.438514 0.000000
0.305303 0.438392 0.000000
0.335607 0.438575 0.000000
0.366186 0.438911 0.000000
0.397314 0.439185 0.000000
0.423651 0.434150 0.000000
0.450111 0.429694 0.000000
0.497017 0.443275 0.000000
0.528649 0.438575 0.000000
0.553033 0.430610 0.014954
0.578485 0.426215 0.115450
0.604517 0.425299 0.162875
0.630701 0.427253 0.203708
0.660304 0.432898 0.235111
0.693202 0.440589 0.258549
0.725521 0.449409 0.283116
0.757137 0.459754 0.309239
0.788113 0.472114 0.337072
0.818509 0.486671 0.366888
0.848234 0.504082 0.399023
0.877287 0.524743 0.433875
0.905394 0.549187 0.471687
0.932738 0.577905 0.513054
0.000000 0.481392 0.000000
0.000000 0.481392 0.000000
0.000000 0.481361 0.000000
0.000000 0.481331 0.000000
0.008240 0.481300 0.000000
0.106020 0.481209 0.000000
0.153017 0.481117 0.000000
0.193729 0.481056 0.000000
0.232425 0.480751 0.000000
0.269596 0.480598 0.000000
0.306126 0.480232 0.000000
0.339117 0.480171 0.000000
0.369757 0.480385 0.000000
0.400763 0.480598 0.000000
0.432074 0.480720 0.000000
0.459358 0.476234 0.000000
0.486305 0.471748 0.000000
0.529992 0.484077 0.000000
0.567010 0.482918 0.000000
0.592279 0.474281 0.000000
0.617853 0.468513 0.089784
0.643549 0.465858 0.150881
0.669337 0.466255 0.198093
0.695155 0.470039 0.240909
0.725246 0.477272 0.271916
0.756985 0.486244 0.298741
0.788113 0.496925 0.327092
0.818631 0.509819 0.357488
0.848539 0.525353 0.390051
0.877653 0.543999 0.425391
0.905974 0.566308 0.463722
0.933410 0.592859 0.505455
0.000000 0.522942 0.000000
0.000000 0.522911 0.000000
0.000000 0.522881 0.000000
0.000000 0.522911 0.000000
0.000000 0.522820 0.000000
0.089509 0.522789 0.000000
0.143404 0.522667 0.000000
0.187350 0.522454 0.000000
0.227726 0.522240 0.000000
0.266453 0.521965 0.000000
0.303685 0.521599 0.000000
0.340398 0.521202 0.000000
0.372381 0.521172 0.000000
0.403326 0.521294 0.000000
0.434577 0.521355 0.000000
0.466102 0.521386 0.000000
0.494057 0.517266 0.000000
0.521263 0.512810 0.000000
0.563012 0.522576 0.000000
0.602350 0.525566 0.000000
0.630610 0.517967 0.000000
0.655970 0.510796 0.018738
0.681422 0.506615 0.133577
0.706813 0.505516 0.190036
0.732204 0.507897 0.238590
0.757534 0.514061 0.284276
0.788022 0.523247 0.315618
0.818692 0.534539 0.346654
0.848753 0.548211 0.379858
0.878050 0.564843 0.415595
0.906523 0.584924 0.454505
0.934173 0.609186 0.496803
0.000000 0.563531 0.000000
0.000000 0.563531 0.000000
0.000000 0.563561 0.000000
0.000000 0.563531 0.000000
0.000000 0.563378 0.000000
0.064698 0.563256 0.000000
0.131136 0.563165 0.000000
0.179049 0.563012 0.000000
0.221744 0.562707 0.000000
0.261631 0.562402 0.000000
0.299931 0.561975 0.000000
0.337194 0.561608 0.000000
0.373938 0.561059 0.000000
0.405066 0.561028 0.000000
0.436103 0.560937 0.000000
0.467384 0.560906 0.000000
0.498817 0.560693 0.000000
0.527337 0.557092 0.000000
0.555627 0.553307 0.000000
0.592432 0.557885 0.000000
0.634943 0.566186 0.000000
0.667720 0.561212 0.000000
0.692927 0.552819 0.000000
0.718105 0.547265 0.108888
0.743313 0.544915 0.178805
0.768399 0.546136 0.234440
0.793454 0.551202 0.285405
0.818692 0.560693 0.334173
0.848936 0.572595 0.368200
0.878416 0.587121 0.404547
0.907073 0.605097 0.444099
0.934905 0.627039 0.487037
0.000000 0.602747 0.000000
0.000000 0.602716 0.000000
0.000000 0.602655 0.000000
0.000000 0.602625 0.000000
0.000000 0.602502 0.000000
0.000000 0.602411 0.000000
0.115114 0.602167 0.000000
0.169131 0.601923 0.000000
0.213962 0.601587 0.000000
0.255253 0.601160 0.000000
0.294469 0.600671 0.000000
0.332403 0.600061 0.000000
0.369543 0.599420 0.000000
0.405371 0.598688 0.000000
0.436011 0.598505 0.000000
0.466865 0.598199 0.000000
0.497963 0.597894 0.000000
0.529351 0.597528 0.000000
0.558953 0.594995 0.000000
0.588617 0.592615 0.000000
0.619654 0.591516 0.000000
0.667018 0.606409 0.000000
0.703670 0.603967 0.000000
0.728817 0.594537 0.000000
0.753933 0.587823 0.064393
0.778897 0.584314 0.163729
0.803830 0.584436 0.228214
0.828611 0.588769 0.285679
0.853147 0.597650 0.341253
0.878752 0.611078 0.392004
0.907622 0.626825 0.432136
0.935698 0.646448 0.475868
0.000000 0.639094 0.000000
0.000000 0.639033 0.000000
0.000000 0.639033 0.000000
0.000000 0.638941 0.000000
0.000000 0.638819 0.000000
0.000000 0.638605 0.000000
0.094514 0.638392 0.000000
0.156374 0.638056 0.000000
0.204440 0.637690 0.000000
0.247349 0.637232 0.000000
0.287266 0.636744 0.000000
0.325841 0.636164 0.000000
0.363439 0.635492 0.000000
0.400366 0.634791 0.000000
0.434882 0.634211 0.000000
0.465461 0.633936 0.000000
0.496345 0.633661 0.000000
0.527367 0.633356 0.000000
0.558648 0.632959 0.000000
0.589166 0.631525 0.000000
0.620050 0.630396 0.000000
0.652308 0.630396 0.000000
0.698756 0.644373 0.000000
0.734981 0.643519 0.000000
0.763729 0.635798 0.000000
0.788785 0.628138 0.000000
0.813748 0.623621 0.142245
0.838560 0.622827 0.219699
0.863127 0.626307 0.284764
0.887297 0.634730 0.346746
0.910887 0.648798 0.408698
0.936492 0.667323 0.463233
0.000000 0.673732 0.000000
0.000000 0.673732 0.000000
0.000000 0.673671 0.000000
0.000000 0.673640 0.000000
0.000000 0.673518 0.000000
0.000000 0.673365 0.000000
0.062654 0.673152 0.000000
0.140841 0.672847 0.000000
0.193088 0.672511 0.000000
0.237675 0.672145 0.000000
0.279088 0.671626 0.000000
0.318303 0.671138 0.000000
0.356420 0.670558 0.000000
0.393713 0.669886 0.000000
0.430396 0.669154 0.000000
0.463661 0.668605 0.000000
0.494179 0.668391 0.000000
0.524865 0.668116 0.000000
0.555901 0.667781 0.000000
0.587091 0.667475 0.000000
0.618250 0.666804 0.000000
0.650172 0.666835 0.000000
0.683497 0.667872 0.000000
0.729519 0.681025 0.000000
0.765560 0.682399 0.000000
0.797848 0.676722 0.000000
0.822995 0.668147 0.000000
0.847929 0.662745 0.108705
0.872679 0.661067 0.207614
0.897002 0.663844 0.282658
0.920836 0.671931 0.352239
0.944091 0.686305 0.421515
0.000000 0.707485 0.000000
0.000000 0.707485 0.000000
0.000000 0.707485 0.000000
0.000000 0.707424 0.000000
0.000000 0.707301 0.000000
0.000000 0.707179 0.000000
0.000000 0.706935 0.000000
0.122133 0.706722 0.000000
0.179721 0.706447 0.000000
0.227115 0.706050 0.000000
0.269963 0.705623 0.000000
0.310094 0.705135 0.000000
0.348760 0.704585 0.000000
0.386358 0.704036 0.000000
0.423377 0.703334 0.000000
0.459754 0.702541 0.000000
0.491707 0.702205 0.000000
0.522179 0.701961 0.000000
0.552850 0.701656 0.000000
0.583703 0.701381 0.000000
0.614740 0.700984 0.000000
0.646235 0.700893 0.000000
0.679103 0.701991 0.000000
0.713344 0.704128 0.000000
0.754025 0.711971 0.000000
0.795834 0.721065 0.000000
0.830411 0.716640 0.000000
0.856504 0.707881 0.000000
0.881498 0.701625 0.004364
0.906157 0.699153 0.190555
0.930388 0.701289 0.278294
0.954009 0.709285 0.357519
0.000000 0.740414 0.000000
0.000000 0.740352 0.000000
0.000000 0.740352 0.000000
0.000000 0.740322 0.000000
0.000000 0.740200 0.000000
0.000000 0.740047 0.000000
0.000000 0.739895 0.000000
0.098238 0.739651 0.000000
0.164889 0.739406 0.000000
0.214908 0.739071 0.000000
0.259495 0.738735 0.000000
0.300938 0.738277 0.000000
0.340246 0.737758 0.000000
0.378302 0.737240 0.000000
0.415564 0.736599 0.000000
0.452247 0.735897 0.000000
0.488472 0.735103 0.000000
0.519158 0.734890 0.000000
0.549462 0.734646 0.000000
0.580011 0.734371 0.000000
0.610712 0.734035 0.000000
0.641657 0.733700 0.000000
0.673274 0.733883 0.000000
0.706966 0.735988 0.000000
0.742123 0.739132 0.000000
0.778805 0.743313 0.000000
0.825986 0.758206 0.000000
0.860136 0.754757 0.000000
0.889403 0.747341 0.000000
0.914519 0.740261 0.000000
0.939239 0.736995 0.165042
0.963439 0.738735 0.271641
0.000000 0.772427 0.000000
0.000000 0.772457 0.000000
0.000000 0.772396 0.000000
0.000000 0.772366 0.000000
0.000000 0.772244 0.000000
0.000000 0.772122 0.000000
0.000000 0.772000 0.000000
0.062440 0.771756 0.000000
0.147677 0.771542 0.000000
0.202182 0.771206 0.000000
0.248051 0.770962 0.000000
0.290837 0.770535 0.000000
0.330968 0.770108 0.000000
0.369604 0.769589 0.000000
0.407172 0.769009 0.000000
0.444160 0.768368 0.000000
0.480507 0.767666 0.000000
0.515862 0.766964 0.000000
0.545861 0.766781 0.000000
0.576074 0.766537 0.000000
0.606531 0.766293 0.000000
0.637110 0.765957 0.000000
0.667872 0.765652 0.000000
0.699397 0.765896 0.000000
0.733852 0.769009 0.000000
0.769772 0.773159 0.000000
0.807401 0.778317 0.000000
0.856077 0.794186 0.000000
0.889677 0.792630 0.000000
0.921752 0.786465 0.000000
0.947112 0.778622 0.000000
0.972107 0.774716 0.121767
0.000000 0.803799 0.000000
0.000000 0.803799 0.000000
0.000000 0.803769 0.000000
0.000000 0.803677 0.000000
0.000000 0.803525 0.000000
0.000000 0.803403 0.000000
0.000000 0.803281 0.000000
0.000000 0.803098 0.000000
0.127382 0.802884 0.000000
0.188022 0.802579 0.000000
0.236515 0.802335 0.000000
0.280003 0.801999 0.000000
0.320653 0.801602 0.000000
0.360235 0.801114 0.000000
0.398260 0.800595 0.000000
0.435462 0.800046 0.000000
0.472023 0.799374 0.000000
0.508110 0.798703 0.000000
0.542107 0.798123 0.000000
0.572045 0.797910 0.000000
0.602136 0.797696 0.000000
0.632410 0.797391 0.000000
0.662837 0.797116 0.000000
0.693416 0.796811 0.000000
0.724697 0.796994 0.000000
0.759854 0.801083 0.000000
0.796536 0.806180 0.000000
0.834989 0.812345 0.000000
0.882689 0.826963 0.000000
0.919097 0.830381 0.000000
0.952239 0.824552 0.000000
0.979553 0.816892 0.000000
0.000000 0.834714 0.000000
0.000000 0.834714 0.000000
0.000000 0.834653 0.000000
0.000000 0.834562 0.000000
0.000000 0.834470 0.000000
0.000000 0.834257 0.000000
0.000000 0.834073 0.000000
0.000000 0.833829 0.000000
0.096162 0.833494 0.000000
0.172183 0.833188 0.000000
0.223972 0.832944 0.000000
0.269108 0.832639 0.000000
0.310857 0.832273 0.000000
0.350378 0.831876 0.000000
0.388617 0.831449 0.000000
0.426154 0.830930 0.000000
0.463050 0.830320 0.000000
0.499306 0.829648 0.000000
0.535119 0.829007 0.000000
0.567773 0.828519 0.000000
0.597589 0.828305 0.000000
0.627527 0.828092 0.000000
0.657679 0.827848 0.000000
0.687922 0.827543 0.000000
0.718349 0.827237 0.000000
0.749233 0.827207 0.000000
0.785031 0.832242 0.000000
0.822538 0.838346 0.000000
0.861753 0.845457 0.000000
0.906096 0.856687 0.000000
0.948608 0.867430 0.000000
0.981689 0.862119 0.000000
0.000000 0.864958 0.000000
0.000000 0.864897 0.000000
0.000000 0.864897 0.000000
0.000000 0.864805 0.000000
0.000000 0.864683 0.000000
0.000000 0.864561 0.000000
0.000000 0.864317 0.000000
0.000000 0.864073 0.000000
0.000000 0.863798 0.000000
0.132540 0.863462 0.000000
0.200778 0.863127 0.000000
0.254154 0.862669 0.000000
0.300359 0.862242 0.000000
0.340734 0.861845 0.000000
0.379309 0.861479 0.000000
0.416846 0.861021 0.000000
0.453529 0.860533 0.000000
0.489967 0.859953 0.000000
0.525933 0.859312 0.000000
0.561547 0.858610 0.000000
0.592828 0.858274 0.000000
0.622492 0.858091 0.000000
0.652308 0.857877 0.000000
0.682307 0.857633 0.000000
0.712459 0.857389 0.000000
0.742733 0.857084 0.000000
0.773159 0.856748 0.000000
0.809567 0.862638 0.000000
0.847715 0.869688 0.000000
0.887724 0.877775 0.000000
0.929839 0.886992 0.000000
0.978515 0.902953 0.000000
0.000000 0.894560 0.000000
0.000000 0.894560 0.000000
0.000000 0.894499 0.000000
0.000000 0.894469 0.000000
0.000000 0.894316 0.000000
0.000000 0.894194 0.000000
0.000000 0.894041 0.000000
0.000000 0.893797 0.000000
0.000000 0.893492 0.000000
0.024567 0.893217 0.000000
0.161532 0.892851 0.000000
0.225101 0.892485 0.000000
0.277043 0.892027 0.000000
0.323491 0.891539 0.000000
0.366308 0.891020 0.000000
0.407172 0.890471 0.000000
0.444526 0.889982 0.000000
0.480781 0.889464 0.000000
0.516594 0.888945 0.000000
0.552026 0.888365 0.000000
0.587457 0.887663 0.000000
0.617456 0.887449 0.000000
0.646967 0.887297 0.000000
0.676661 0.887144 0.000000
0.706447 0.886961 0.000000
0.736446 0.886687 0.000000
0.766629 0.886442 0.000000
0.796902 0.886137 0.000000
0.833402 0.892363 0.000000
0.872251 0.900328 0.000000
0.913115 0.909392 0.000000
0.956207 0.919768 0.000000
0.000000 0.923705 0.000000
0.000000 0.923674 0.000000
0.000000 0.923613 0.000000
0.000000 0.923583 0.000000
0.000000 0.923491 0.000000
0.000000 0.923369 0.000000
0.000000 0.923186 0.000000
0.000000 0.922972 0.000000
0.000000 0.922698 0.000000
0.000000 0.922454 0.000000
0.095125 0.922087 0.000000
0.186587 0.921752 0.000000
0.247379 0.921355 0.000000
0.298589 0.920897 0.000000
0.344793 0.920439 0.000000
0.387732 0.919890 0.000000
0.428748 0.919341 0.000000
0.468086 0.918730 0.000000
0.506340 0.918090 0.000000
0.542992 0.917449 0.000000
0.578058 0.916869 0.000000
0.612512 0.916258 0.000000
0.641566 0.916197 0.000000
0.670954 0.916075 0.000000
0.700496 0.915923 0.000000
0.730190 0.915740 0.000000
0.760037 0.915557 0.000000
0.790097 0.915312 0.000000
0.820279 0.915038 0.000000
0.856657 0.921416 0.000000
0.896239 0.930297 0.000000
0.937926 0.940459 0.000000
0.000000 0.952392 0.000000
0.000000 0.952392 0.000000
0.000000 0.952361 0.000000
0.000000 0.952300 0.000000
0.000000 0.952209 0.000000
0.000000 0.952087 0.000000
0.000000 0.951934 0.000000
0.000000 0.951751 0.000000
0.000000 0.951507 0.000000
0.000000 0.951263 0.000000
0.000000 0.950958 0.000000
0.126864 0.950622 0.000000
0.208560 0.950256 0.000000
0.268162 0.949828 0.000000
0.318883 0.949401 0.000000
