其他预设/【213】赛博朋克科幻预设52款/1.LUT预设（视频调色-PR-AE-PS-FCPX-达芬奇用）/赛博朋克科幻__-6 强度5.cube
# Created by Adobe Lightroom plugin Export LUT (1.17.0)
# www.johnrellis.com/lightroom/exportlut.htm
# Preset: 赛博朋克科幻[素锦印象]-6 强度5
# Color profile: /Library/Application Support/Adobe/Color/Profiles/Recommended/AdobeRGB1998.icc
LUT_3D_SIZE 8
DOMAIN_MIN 0.000000 0.000000 0.000000
DOMAIN_MAX 0.903226 0.903226 0.903226
0.127687 0.100710 0.091035
0.167178 0.089296 0.101198
0.241855 0.023499 0.126619
0.355657 0.000000 0.172854
0.501305 0.000000 0.238224
0.659968 0.000000 0.310582
0.809659 0.000000 0.376776
0.924987 0.000000 0.424292
0.176272 0.152407 0.081819
0.179446 0.132174 0.084810
0.254368 0.075868 0.106233
0.366888 0.000000 0.164553
0.511620 0.000000 0.232395
0.668116 0.000000 0.305394
0.814969 0.000000 0.371496
0.927733 0.000000 0.418769
0.252842 0.228916 0.047395
0.259770 0.225040 0.048371
0.272496 0.195712 0.061646
0.403235 0.211063 0.046601
0.564446 0.000000 0.148287
0.700832 0.000000 0.273136
0.833158 0.000000 0.350195
0.937224 0.000000 0.397955
0.334478 0.309361 0.000000
0.340124 0.308537 0.000000
0.358679 0.303990 0.000000
0.402045 0.289860 0.000000
0.576745 0.342351 0.000000
0.752407 0.240055 0.000000
0.880247 0.000000 0.218326
0.956298 0.000000 0.334783
0.415991 0.391302 0.000000
0.420539 0.391455 0.000000
0.437079 0.391821 0.000000
0.476081 0.398444 0.000000
0.549371 0.399969 0.000000
0.730495 0.446601 0.000000
0.889097 0.453681 0.000000
0.972107 0.219120 0.142367
0.514336 0.491646 0.000000
0.518181 0.492012 0.000000
0.532189 0.493507 0.000000
0.556512 0.494026 0.000000
0.621698 0.516472 0.000000
0.707393 0.519829 0.000000
0.858152 0.535149 0.000000
0.966125 0.563775 0.000000
0.663142 0.645716 0.000000
0.666377 0.645838 0.000000
0.678096 0.646448 0.000000
0.700252 0.647608 0.000000
0.732082 0.647395 0.000000
0.790555 0.654475 0.000000
0.854490 0.632959 0.000000
0.948333 0.599573 0.000000
0.830228 0.822477 0.000000
0.832914 0.822293 0.000000
0.842618 0.821775 0.000000
0.860655 0.820798 0.000000
0.888090 0.819211 0.000000
0.911345 0.803586 0.000000
0.936187 0.773465 0.000000
0.963622 0.718563 0.000000
0.128389 0.098299 0.143038
0.169558 0.085725 0.150515
0.240391 0.018189 0.161288
0.348974 0.000000 0.204593
0.488533 0.000000 0.262852
0.648493 0.000000 0.331395
0.802335 0.000000 0.394812
0.921538 0.000000 0.439216
0.156985 0.152773 0.099519
0.173037 0.145327 0.126192
0.246738 0.101320 0.149630
0.356817 0.000000 0.196201
0.498512 0.000000 0.258640
0.656703 0.000000 0.327214
0.807767 0.000000 0.390021
0.924346 0.000000 0.433997
0.255589 0.226230 0.048615
0.261295 0.220066 0.055573
0.272465 0.196841 0.079500
0.401190 0.189425 0.106996
0.552087 0.000000 0.199924
0.692103 0.000000 0.297185
0.826383 0.000000 0.370916
0.934051 0.000000 0.414160
0.337346 0.308171 0.000000
0.343328 0.306981 0.000000
0.361852 0.303288 0.000000
0.403662 0.288365 0.000000
0.581598 0.345922 0.000000
0.751369 0.208560 0.102541
0.874571 0.000000 0.258396
0.953582 0.000000 0.354437
0.418585 0.390845 0.000000
0.423102 0.390997 0.000000
0.439368 0.391455 0.000000
0.479164 0.398871 0.000000
0.551293 0.399451 0.000000
0.733242 0.448280 0.000000
0.889586 0.439796 0.000000
0.970886 0.224338 0.198032
0.516136 0.491341 0.000000
0.519982 0.491768 0.000000
0.533837 0.493233 0.000000
0.556786 0.492653 0.000000
0.623987 0.516899 0.000000
0.708858 0.519463 0.000000
0.859556 0.535790 0.000000
0.967163 0.564416 0.000000
0.664179 0.645411 0.000000
0.667445 0.645563 0.000000
0.679133 0.646235 0.000000
0.701198 0.647486 0.000000
0.733364 0.647639 0.000000
0.791562 0.654383 0.000000
0.855222 0.632441 0.000000
0.949126 0.599756 0.000000
0.830686 0.822477 0.000000
0.833402 0.822354 0.000000
0.843076 0.821836 0.000000
0.861082 0.820859 0.000000
0.888518 0.819303 0.000000
0.911620 0.803525 0.000000
0.936400 0.773281 0.000000
0.963836 0.718105 0.000000
0.137484 0.086671 0.249638
0.180697 0.069306 0.253758
0.274266 0.000000 0.265934
0.356695 0.000000 0.273442
0.489357 0.000000 0.326482
0.639399 0.000000 0.389166
0.786038 0.000000 0.443763
0.910185 0.000000 0.482124
0.139681 0.150698 0.228275
0.177371 0.137179 0.232120
0.267582 0.084871 0.247257
0.358801 0.000000 0.265721
0.494636 0.000000 0.322911
0.643214 0.000000 0.384649
0.788724 0.000000 0.438758
0.913176 0.000000 0.477668
0.207309 0.232578 0.113497
0.217685 0.233738 0.130922
0.263066 0.234195 0.195834
0.377142 0.167636 0.231449
0.514244 0.000000 0.287633
0.661982 0.000000 0.356390
0.804593 0.000000 0.423438
0.923552 0.000000 0.460914
0.337530 0.314824 0.000000
0.343359 0.315526 0.000000
0.363622 0.315221 0.023316
0.408545 0.299290 0.072663
0.588159 0.327459 0.135531
0.740566 0.152255 0.266789
0.855100 0.000000 0.350958
0.943938 0.000000 0.412818
0.422583 0.390723 0.000000
0.427863 0.390600 0.000000
0.443458 0.388800 0.000000
0.485603 0.401556 0.000000
0.556756 0.403296 0.000000
0.746487 0.457038 0.000000
0.888975 0.397650 0.140322
0.962310 0.315801 0.347570
0.519951 0.491310 0.000000
0.524285 0.491524 0.000000
0.539025 0.492805 0.000000
0.564843 0.495521 0.000000
0.631006 0.518151 0.000000
0.713649 0.518151 0.000000
0.866178 0.539361 0.000000
0.969940 0.554833 0.000000
0.667140 0.645197 0.000000
0.670497 0.645258 0.000000
0.682338 0.645869 0.000000
0.704280 0.647272 0.000000
0.737331 0.648524 0.000000
0.794736 0.654108 0.000000
0.857633 0.630762 0.000000
0.952117 0.600244 0.000000
0.832090 0.822904 0.000000
0.834592 0.822904 0.000000
0.844266 0.822385 0.000000
0.862272 0.821378 0.000000
0.889647 0.819791 0.000000
0.912444 0.803647 0.000000
0.937194 0.772885 0.000000
0.964630 0.716548 0.000000
0.163607 0.028351 0.396185
0.209598 0.000000 0.398383
0.310948 0.000000 0.407233
0.422278 0.000000 0.424994
0.521599 0.000000 0.434852
0.643244 0.000000 0.470588
0.787503 0.000000 0.521965
0.905394 0.000000 0.550774
0.142000 0.131350 0.379004
0.192111 0.116243 0.382116
0.299931 0.000000 0.393164
0.418952 0.000000 0.413184
0.521660 0.000000 0.426856
0.647242 0.000000 0.467353
0.790158 0.000000 0.518090
0.907012 0.000000 0.545953
0.127718 0.296269 0.324346
0.166171 0.274266 0.335454
0.267460 0.221408 0.352239
0.399420 0.141451 0.374640
0.516564 0.000000 0.396857
0.660182 0.000000 0.449744
0.799405 0.000000 0.503258
0.912779 0.000000 0.528832
0.259617 0.321019 0.116487
0.268345 0.325811 0.130007
0.304936 0.342412 0.182773
0.400000 0.369696 0.302007
0.538415 0.294499 0.342779
0.683375 0.122286 0.395483
0.818997 0.000000 0.448768
0.926055 0.000000 0.492439
0.414252 0.410803 0.000000
0.419867 0.412482 0.000000
0.441199 0.418524 0.000000
0.482551 0.426154 0.000000
0.566583 0.424750 0.102785
0.760037 0.477790 0.225315
0.873136 0.434028 0.396338
0.950469 0.257664 0.435859
0.524498 0.492287 0.000000
0.527855 0.493050 0.000000
0.540887 0.496071 0.000000
0.563378 0.498726 0.000000
0.628840 0.524437 0.000000
0.718593 0.526482 0.000000
0.879332 0.552697 0.000000
0.966857 0.533043 0.245853
0.671656 0.645472 0.000000
0.675044 0.645563 0.000000
0.686854 0.646235 0.000000
0.708431 0.647944 0.000000
0.742550 0.650141 0.000000
0.799344 0.654139 0.000000
0.861204 0.628809 0.000000
0.957916 0.602380 0.000000
0.835386 0.823026 0.000000
0.837797 0.823087 0.000000
0.846250 0.823423 0.000000
0.862943 0.823331 0.000000
0.890501 0.821561 0.000000
0.913664 0.805081 0.000000
0.938384 0.773007 0.000000
0.966003 0.713863 0.000000
0.192874 0.000000 0.542351
0.234287 0.000000 0.543572
0.334874 0.000000 0.548547
0.446052 0.000000 0.558160
0.558434 0.000000 0.572259
0.665461 0.000000 0.584588
0.788022 0.000000 0.615839
0.903227 0.000000 0.640284
0.165438 0.094270 0.532891
0.213199 0.068208 0.534539
0.321935 0.000000 0.540612
0.443549 0.000000 0.551415
0.562249 0.000000 0.566583
0.668482 0.000000 0.580591
0.791165 0.000000 0.612879
0.904784 0.000000 0.636286
0.058381 0.260288 0.505486
0.128267 0.241367 0.507500
0.277806 0.199802 0.514977
0.419562 0.098360 0.527886
0.551751 0.000000 0.545556
0.672663 0.000000 0.565362
0.800748 0.000000 0.600946
0.910277 0.000000 0.621180
0.056214 0.468482 0.404303
0.123995 0.462013 0.414282
0.254459 0.424689 0.450324
0.402564 0.355718 0.480934
0.545617 0.276097 0.503014
0.681086 0.065278 0.532341
0.814237 0.000000 0.567895
0.920256 0.000000 0.589624
0.305913 0.399725 0.111391
0.313268 0.405280 0.123049
0.343084 0.425696 0.167056
0.414618 0.465217 0.259800
0.560204 0.528649 0.426368
0.700496 0.451789 0.463905
0.829740 0.308110 0.499062
0.932921 0.000000 0.519982
0.492836 0.515496 0.000000
0.497841 0.517296 0.000000
0.516320 0.523827 0.000000
0.553246 0.535729 0.000000
0.612390 0.547539 0.000000
0.725521 0.554986 0.163210
0.884672 0.621210 0.355291
0.940246 0.643366 0.529992
0.662562 0.645350 0.000000
0.665278 0.645594 0.000000
0.675654 0.646815 0.000000
0.696590 0.649714 0.000000
0.726070 0.649470 0.000000
0.787716 0.660304 0.000000
0.861936 0.635401 0.000000
0.964446 0.619471 0.000000
0.840208 0.823331 0.000000
0.842618 0.823392 0.000000
0.850919 0.823880 0.000000
0.865599 0.825071 0.000000
0.889158 0.825742 0.000000
0.914885 0.809689 0.000000
0.939757 0.774929 0.000000
0.968017 0.710048 0.000000
0.214664 0.000000 0.650019
0.248753 0.000000 0.650629
0.337438 0.000000 0.653010
0.439796 0.000000 0.657496
0.544244 0.000000 0.663996
0.647913 0.000000 0.672114
0.754543 0.000000 0.689204
0.869078 0.000000 0.715145
0.192172 0.000000 0.645960
0.230503 0.000000 0.646723
0.326146 0.000000 0.649470
0.439094 0.000000 0.654475
0.550408 0.000000 0.661494
0.652308 0.000000 0.669978
0.758450 0.000000 0.687800
0.873075 0.000000 0.714168
0.082612 0.221836 0.632929
0.158785 0.211917 0.633906
0.286992 0.171603 0.637385
0.416785 0.000000 0.643488
0.541283 0.000000 0.651881
0.658076 0.000000 0.662043
0.772183 0.000000 0.682734
0.887785 0.000000 0.710506
0.085878 0.426246 0.604883
0.152407 0.414679 0.607630
0.270024 0.385901 0.612177
0.404791 0.337163 0.620142
0.536187 0.253819 0.631189
0.660334 0.000000 0.644739
0.787625 0.000000 0.671107
0.915740 0.000000 0.702083
0.000000 0.633814 0.474556
0.000000 0.632959 0.483253
0.205325 0.619440 0.510796
0.394842 0.574517 0.558434
0.559503 0.514458 0.592218
0.682185 0.432013 0.611536
0.817166 0.238682 0.644068
0.927276 0.000000 0.654841
0.350500 0.480262 0.083894
0.355810 0.484657 0.095460
0.376654 0.501122 0.134829
0.424598 0.534783 0.207004
0.523705 0.591028 0.333623
0.714656 0.682002 0.546319
0.830838 0.616876 0.574182
0.925597 0.481209 0.583551
0.584436 0.642969 0.000000
0.589014 0.644862 0.000000
0.606439 0.652216 0.000000
0.636957 0.661707 0.000000
0.682429 0.670832 0.000000
0.751888 0.677241 0.000000
0.858061 0.669703 0.242344
0.947173 0.748226 0.503258
0.818082 0.824155 0.000000
0.820615 0.824308 0.000000
0.829984 0.824949 0.000000
0.848234 0.826413 0.000000
0.877256 0.828153 0.000000
0.911955 0.821744 0.000000
0.936126 0.786618 0.000000
0.967193 0.713924 0.000000
0.225895 0.000000 0.721614
0.252873 0.000000 0.721859
0.322728 0.000000 0.722805
0.412116 0.000000 0.724605
0.507744 0.000000 0.727230
0.603662 0.000000 0.730648
0.697169 0.000000 0.734768
0.793851 0.000000 0.750332
0.209598 0.000000 0.720150
0.239231 0.000000 0.720424
0.319005 0.000000 0.721553
0.418616 0.000000 0.723568
0.513207 0.000000 0.726345
0.607813 0.000000 0.729885
0.700679 0.000000 0.734127
0.796994 0.000000 0.749935
0.152987 0.190036 0.714870
0.193118 0.178775 0.715267
0.288426 0.131380 0.716701
0.398749 0.000000 0.719234
0.510735 0.000000 0.722774
0.619074 0.000000 0.727138
0.712825 0.000000 0.731930
0.808316 0.000000 0.748562
0.166476 0.386725 0.702724
0.204654 0.381415 0.703212
0.297246 0.361395 0.705074
0.398810 0.311589 0.708705
0.506798 0.217533 0.713832
0.616022 0.000000 0.720119
0.723110 0.000000 0.727077
0.829313 0.000000 0.745846
0.110445 0.609400 0.666499
0.176364 0.600122 0.669459
0.314580 0.567742 0.679530
0.451514 0.537346 0.687922
0.551476 0.494118 0.694575
0.642725 0.401343 0.704005
0.743252 0.229343 0.714778
0.858793 0.000000 0.739528
0.000000 0.740871 0.493935
0.000000 0.746487 0.506126
0.104921 0.765560 0.549584
0.316655 0.764126 0.604120
0.552850 0.708309 0.647364
0.712001 0.670069 0.672297
0.795834 0.596918 0.686183
0.905974 0.363592 0.716579
0.421118 0.612818 0.000000
0.423407 0.614191 0.000000
0.432441 0.619654 0.000000
0.453346 0.631739 0.106294
0.501671 0.656764 0.218631
0.623468 0.706813 0.400458
0.835355 0.801999 0.640070
0.912261 0.755154 0.655695
0.717189 0.824430 0.000000
0.719936 0.824796 0.000000
0.730282 0.826230 0.000000
0.751400 0.829007 0.000000
0.787320 0.832273 0.000000
0.838499 0.833921 0.000000
0.910857 0.824765 0.000000
0.950072 0.760922 0.341497
0.207370 0.000000 0.767941
0.228672 0.000000 0.768063
0.289830 0.000000 0.768460
0.370672 0.000000 0.769162
0.458442 0.000000 0.770230
0.547387 0.000000 0.771664
0.635187 0.000000 0.773434
0.720577 0.000000 0.775448
0.212741 0.000000 0.767544
0.235752 0.000000 0.767697
0.296483 0.000000 0.768124
0.375189 0.000000 0.768887
0.461707 0.000000 0.769986
0.549981 0.000000 0.771450
0.637476 0.000000 0.773251
0.722774 0.000000 0.775326
0.174441 0.136965 0.765225
0.201663 0.120882 0.765408
0.275669 0.000000 0.766171
0.369848 0.000000 0.767422
0.470466 0.000000 0.769070
0.558129 0.000000 0.770687
0.645045 0.000000 0.772610
0.730404 0.000000 0.774838
0.247562 0.365118 0.757961
0.261234 0.357183 0.758358
0.305455 0.326970 0.759670
0.374090 0.263493 0.762020
0.459724 0.118929 0.765133
0.557580 0.000000 0.768521
0.657130 0.000000 0.771542
0.743801 0.000000 0.774044
0.308019 0.534356 0.746395
0.329534 0.533196 0.746548
0.395727 0.530358 0.747036
0.489662 0.528893 0.747829
0.524712 0.455543 0.753140
0.581415 0.328191 0.759792
0.662531 0.000000 0.766812
0.762722 0.000000 0.772457
0.184726 0.761166 0.714412
0.228580 0.754543 0.715755
0.342443 0.731838 0.720424
0.493050 0.698329 0.727596
0.633082 0.681270 0.732967
0.697353 0.648524 0.737972
0.736629 0.542260 0.747921
0.798245 0.309545 0.760616
0.000000 0.869841 0.508293
0.000000 0.871916 0.518181
0.000000 0.878935 0.553185
0.246098 0.889372 0.614588
0.469764 0.882261 0.683162
0.711116 0.814664 0.707332
0.832059 0.793149 0.720424
0.878691 0.730800 0.730953
0.561395 0.857786 0.000000
0.562005 0.857481 0.000000
0.564599 0.856291 0.000000
0.570733 0.854032 0.000000
0.584771 0.850248 0.000000
0.620691 0.844388 0.230381
0.729549 0.837827 0.465492
0.913207 0.879423 0.700587
