其他预设/【213】赛博朋克科幻预设52款/1.LUT预设（视频调色-PR-AE-PS-FCPX-达芬奇用）/赛博朋克科幻__-3 强度3.cube
# Created by Adobe Lightroom plugin Export LUT (1.17.0)
# www.johnrellis.com/lightroom/exportlut.htm
# Preset: 赛博朋克科幻[素锦印象]-3 强度3
# Color profile: /Library/Application Support/Adobe/Color/Profiles/Recommended/AdobeRGB1998.icc
LUT_3D_SIZE 32
0.064057 0.075776 0.095705
0.071656 0.074922 0.097658
0.081605 0.073793 0.100740
0.101015 0.070802 0.106966
0.123751 0.065492 0.115602
0.148379 0.056703 0.125460
0.175174 0.030640 0.136721
0.204532 0.000000 0.149722
0.237888 0.000000 0.164553
0.275822 0.000000 0.181491
0.319646 0.000000 0.200870
0.367712 0.000000 0.221744
0.419257 0.000000 0.243870
0.472908 0.000000 0.266636
0.526848 0.000000 0.289494
0.579919 0.000000 0.311864
0.629908 0.000000 0.332952
0.674922 0.000000 0.352026
0.715389 0.000000 0.369390
0.753048 0.000000 0.385657
0.788449 0.000000 0.401068
0.821653 0.000000 0.415930
0.852873 0.000000 0.430030
0.882139 0.000000 0.443488
0.909667 0.000000 0.456489
0.935668 0.000000 0.468910
0.960174 0.000000 0.480934
0.983429 0.000000 0.492622
1.000000 0.000000 0.504143
1.000000 0.000000 0.515526
1.000000 0.000000 0.527001
1.000000 0.000000 0.538567
0.060395 0.085542 0.100374
0.068544 0.084108 0.096376
0.082155 0.077241 0.096559
0.101656 0.070893 0.102327
0.123690 0.065583 0.114565
0.148043 0.056123 0.125277
0.174716 0.031312 0.136721
0.204288 0.000000 0.149569
0.237461 0.000000 0.164431
0.275731 0.000000 0.181491
0.319280 0.000000 0.200748
0.367529 0.000000 0.221744
0.418982 0.000000 0.243809
0.472694 0.000000 0.266575
0.526696 0.000000 0.289433
0.579767 0.000000 0.311803
0.629694 0.000000 0.332830
0.674769 0.000000 0.352026
0.715267 0.000000 0.369299
0.752987 0.000000 0.385595
0.788327 0.000000 0.401099
0.821622 0.000000 0.415869
0.852842 0.000000 0.429999
0.882139 0.000000 0.443488
0.909667 0.000000 0.456489
0.935668 0.000000 0.468910
0.960174 0.000000 0.480934
0.983429 0.000000 0.492622
1.000000 0.000000 0.504143
1.000000 0.000000 0.515587
1.000000 0.000000 0.527031
1.000000 0.000000 0.538567
0.051637 0.098634 0.106538
0.062104 0.097597 0.102113
0.074586 0.095308 0.096956
0.101442 0.080720 0.098116
0.125338 0.065705 0.103548
0.148928 0.056367 0.118349
0.174594 0.032013 0.134340
0.203799 0.000000 0.149294
0.237186 0.000000 0.164340
0.275212 0.000000 0.181277
0.318853 0.000000 0.200565
0.367102 0.000000 0.221469
0.418647 0.000000 0.243565
0.472328 0.000000 0.266423
0.526390 0.000000 0.289220
0.579583 0.000000 0.311681
0.629541 0.000000 0.332708
0.674617 0.000000 0.351873
0.715175 0.000000 0.369238
0.752865 0.000000 0.385565
0.788296 0.000000 0.401068
0.821592 0.000000 0.415839
0.852811 0.000000 0.429999
0.882109 0.000000 0.443488
0.909667 0.000000 0.456489
0.935668 0.000000 0.468910
0.960174 0.000000 0.480934
0.983429 0.000000 0.492683
1.000000 0.000000 0.504143
1.000000 0.000000 0.515587
1.000000 0.000000 0.527031
1.000000 0.000000 0.538598
0.021149 0.123415 0.119234
0.047364 0.122103 0.116609
0.058625 0.121065 0.109255
0.086641 0.116487 0.098299
0.122713 0.096925 0.100282
0.149752 0.068177 0.101320
0.176425 0.033448 0.114412
0.204868 0.000000 0.133822
0.237461 0.000000 0.154116
0.274937 0.000000 0.175937
0.318151 0.000000 0.199405
0.366430 0.000000 0.221195
0.417853 0.000000 0.243320
0.471504 0.000000 0.266148
0.525780 0.000000 0.289036
0.579034 0.000000 0.311437
0.629114 0.000000 0.332616
0.674281 0.000000 0.351751
0.714870 0.000000 0.369116
0.752621 0.000000 0.385412
0.788144 0.000000 0.400977
0.821469 0.000000 0.415778
0.852750 0.000000 0.429969
0.882078 0.000000 0.443458
0.909667 0.000000 0.456489
0.935668 0.000000 0.468910
0.960174 0.000000 0.480903
0.983459 0.000000 0.492683
1.000000 0.000000 0.504143
1.000000 0.000000 0.515587
1.000000 0.000000 0.527062
1.000000 0.000000 0.538628
0.000000 0.154177 0.136416
0.000000 0.152956 0.134066
0.033753 0.151034 0.130251
0.052705 0.148928 0.113710
0.100862 0.141085 0.100587
0.144381 0.123751 0.101839
0.174044 0.089357 0.105318
0.206180 0.016449 0.107179
0.238621 0.000000 0.129580
0.276158 0.000000 0.152132
0.319280 0.000000 0.176364
0.366827 0.000000 0.202976
0.417975 0.000000 0.230045
0.471260 0.000000 0.257450
0.525109 0.000000 0.284794
0.578058 0.000000 0.311040
0.628382 0.000000 0.332311
0.673640 0.000000 0.351476
0.714443 0.000000 0.368872
0.752285 0.000000 0.385290
0.787869 0.000000 0.400855
0.821317 0.000000 0.415747
0.852659 0.000000 0.429908
0.882017 0.000000 0.443458
0.909606 0.000000 0.456428
0.935668 0.000000 0.468910
0.960204 0.000000 0.480964
0.983520 0.000000 0.492653
1.000000 0.000000 0.504234
1.000000 0.000000 0.515648
1.000000 0.000000 0.527092
1.000000 0.000000 0.538689
0.000000 0.187289 0.156069
0.000000 0.186343 0.153658
0.000000 0.184665 0.150149
0.016144 0.181735 0.139834
0.042512 0.178744 0.114168
0.116976 0.167910 0.102724
0.167361 0.154177 0.103151
0.200687 0.114351 0.109621
0.237003 0.069825 0.110628
0.276738 0.000000 0.120974
0.319646 0.000000 0.149386
0.367285 0.000000 0.177829
0.418280 0.000000 0.206332
0.471687 0.000000 0.234897
0.525658 0.000000 0.263005
0.578790 0.000000 0.290318
0.628840 0.000000 0.316197
0.673823 0.000000 0.340215
0.714260 0.000000 0.362951
0.751888 0.000000 0.384527
0.787533 0.000000 0.400702
0.821073 0.000000 0.415625
0.852506 0.000000 0.429847
0.881926 0.000000 0.443427
0.909606 0.000000 0.456397
0.935668 0.000000 0.468879
0.960235 0.000000 0.480964
0.983551 0.000000 0.492714
1.000000 0.000000 0.504204
1.000000 0.000000 0.515709
1.000000 0.000000 0.527153
1.000000 0.000000 0.538750
0.000000 0.223239 0.177615
0.000000 0.222293 0.175418
0.000000 0.220951 0.172213
0.000000 0.217838 0.164797
0.000000 0.214908 0.145907
0.025086 0.211154 0.110170
0.134951 0.196963 0.104433
0.192172 0.187259 0.103975
0.230167 0.149050 0.111727
0.272068 0.104036 0.115175
0.318517 0.000000 0.116884
0.367620 0.000000 0.138918
0.418494 0.000000 0.173556
0.471870 0.000000 0.205966
0.525963 0.000000 0.237308
0.578973 0.000000 0.267124
0.629206 0.000000 0.295048
0.674372 0.000000 0.320562
0.715053 0.000000 0.343664
0.752895 0.000000 0.365118
0.788449 0.000000 0.385229
0.821561 0.000000 0.406622
0.852476 0.000000 0.427161
0.881834 0.000000 0.443397
0.909575 0.000000 0.456367
0.935668 0.000000 0.468879
0.960266 0.000000 0.480964
0.983612 0.000000 0.492775
1.000000 0.000000 0.504295
1.000000 0.000000 0.515770
1.000000 0.000000 0.527184
1.000000 0.000000 0.538842
0.000000 0.262089 0.201328
0.000000 0.261234 0.199374
0.000000 0.260105 0.196506
0.000000 0.257511 0.189883
0.000000 0.253971 0.176547
0.000000 0.251011 0.150088
0.041871 0.245548 0.105379
0.155184 0.229404 0.105928
0.220005 0.222843 0.104128
0.263493 0.187839 0.112612
0.311955 0.138338 0.119387
0.363561 0.060273 0.120821
0.418494 0.000000 0.123201
0.472297 0.000000 0.160739
0.526360 0.000000 0.199588
0.579431 0.000000 0.234440
0.629694 0.000000 0.266270
0.674952 0.000000 0.294835
0.715755 0.000000 0.320592
0.753719 0.000000 0.344396
0.789273 0.000000 0.366491
0.822751 0.000000 0.386938
0.854032 0.000000 0.406134
0.883055 0.000000 0.427222
0.910216 0.000000 0.447913
0.935760 0.000000 0.467689
0.960327 0.000000 0.480964
0.983703 0.000000 0.492805
1.000000 0.000000 0.504356
1.000000 0.000000 0.515831
1.000000 0.000000 0.527337
1.000000 0.000000 0.538964
0.000000 0.305455 0.228122
0.000000 0.304662 0.226169
0.000000 0.303746 0.223728
0.000000 0.301366 0.217563
0.000000 0.298161 0.206973
0.000000 0.295018 0.186343
0.000000 0.291966 0.152865
0.072236 0.284215 0.104646
0.178317 0.265812 0.106172
0.248386 0.259892 0.103334
0.300938 0.230533 0.111788
0.355993 0.177523 0.122133
0.411872 0.115602 0.124361
0.469490 0.000000 0.126558
0.527001 0.000000 0.134463
0.580102 0.000000 0.184390
0.630426 0.000000 0.225040
0.675837 0.000000 0.259434
0.716640 0.000000 0.289921
0.754757 0.000000 0.317266
0.790402 0.000000 0.342077
0.823911 0.000000 0.365057
0.855192 0.000000 0.386267
0.884550 0.000000 0.405829
0.911986 0.000000 0.425208
0.937499 0.000000 0.447059
0.961517 0.000000 0.467903
0.984222 0.000000 0.488075
1.000000 0.000000 0.504417
1.000000 0.000000 0.515923
1.000000 0.000000 0.527459
1.000000 0.000000 0.539086
0.000000 0.353338 0.257633
0.000000 0.352667 0.255924
0.000000 0.351873 0.253513
0.000000 0.349981 0.247990
0.000000 0.347234 0.238499
0.000000 0.343664 0.222995
0.000000 0.341131 0.195438
0.000000 0.338201 0.152895
0.097383 0.327428 0.102144
0.204959 0.307134 0.104280
0.276463 0.296086 0.102144
0.341985 0.275456 0.108797
0.401862 0.227481 0.120485
0.462226 0.161318 0.127413
0.520928 0.000000 0.129763
0.578454 0.000000 0.132876
0.631586 0.000000 0.157382
0.676875 0.000000 0.208072
0.717769 0.000000 0.247532
0.755917 0.000000 0.281071
0.791714 0.000000 0.310643
0.825223 0.000000 0.337194
0.856565 0.000000 0.361242
0.885924 0.000000 0.383215
0.913481 0.000000 0.403510
0.939452 0.000000 0.422217
0.963470 0.000000 0.444709
0.986114 0.000000 0.466957
1.000000 0.000000 0.488411
1.000000 0.000000 0.509178
1.000000 0.000000 0.527611
1.000000 0.000000 0.539239
0.000000 0.404761 0.289464
0.000000 0.404273 0.287907
0.000000 0.403571 0.285679
0.000000 0.401984 0.280552
0.000000 0.399573 0.271855
0.000000 0.396338 0.258976
0.000000 0.393561 0.236881
0.000000 0.391394 0.203067
0.000000 0.388739 0.149142
0.124575 0.374334 0.097658
0.234775 0.352087 0.100404
0.308782 0.335637 0.099397
0.385473 0.323064 0.102754
0.449287 0.277928 0.116823
0.513512 0.205417 0.130190
0.571679 0.117891 0.132815
0.626886 0.000000 0.136110
0.676631 0.000000 0.140566
0.719173 0.000000 0.181857
0.757443 0.000000 0.229862
0.793240 0.000000 0.268315
0.826780 0.000000 0.300847
0.858183 0.000000 0.329473
0.887510 0.000000 0.355047
0.915068 0.000000 0.378210
0.940978 0.000000 0.399329
0.965454 0.000000 0.418677
0.988281 0.000000 0.441260
1.000000 0.000000 0.465034
1.000000 0.000000 0.488014
1.000000 0.000000 0.510155
1.000000 0.000000 0.531853
0.000000 0.458381 0.322606
0.000000 0.457954 0.321141
0.000000 0.457282 0.319005
0.000000 0.455940 0.314275
0.000000 0.454017 0.306432
0.000000 0.451240 0.294896
0.000000 0.447944 0.278050
0.000000 0.446296 0.249271
0.000000 0.444312 0.208255
0.000000 0.442176 0.140047
0.154177 0.423621 0.090639
0.267521 0.399756 0.093599
0.343084 0.377356 0.094697
0.430762 0.372076 0.092866
0.496773 0.328801 0.110658
0.562280 0.259220 0.129091
0.620020 0.178470 0.136233
0.670527 0.000000 0.140444
0.716182 0.000000 0.145571
0.758755 0.000000 0.150820
0.795071 0.000000 0.205783
0.828611 0.000000 0.251072
0.859953 0.000000 0.287907
0.889311 0.000000 0.319158
0.916838 0.000000 0.346715
0.942718 0.000000 0.371252
0.967163 0.000000 0.393408
0.990387 0.000000 0.413550
1.000000 0.000000 0.436805
1.000000 0.000000 0.462562
1.000000 0.000000 0.487098
1.000000 0.000000 0.510948
0.000000 0.512444 0.355993
0.000000 0.512139 0.354650
0.000000 0.511620 0.352728
0.000000 0.510582 0.348333
0.000000 0.508965 0.341253
0.000000 0.506706 0.330907
0.000000 0.503746 0.316411
0.000000 0.501457 0.293584
0.000000 0.500084 0.259556
0.000000 0.498634 0.210513
0.000000 0.495918 0.116945
0.185824 0.473945 0.079835
0.302251 0.448646 0.083742
0.378912 0.420905 0.087373
0.476356 0.421607 0.077485
0.543175 0.379217 0.101778
0.607691 0.314946 0.124727
0.663630 0.229435 0.140871
0.710140 0.121950 0.145907
0.753475 0.000000 0.151644
0.793759 0.000000 0.157259
0.830777 0.000000 0.172122
0.862028 0.000000 0.229099
0.891356 0.000000 0.271550
0.918822 0.000000 0.306310
0.944671 0.000000 0.336309
0.969055 0.000000 0.362493
0.992218 0.000000 0.385992
1.000000 0.000000 0.407080
1.000000 0.000000 0.431922
1.000000 0.000000 0.459663
1.000000 0.000000 0.486305
0.000000 0.565576 0.388830
0.000000 0.565270 0.387518
0.000000 0.564904 0.385748
0.000000 0.564050 0.381842
0.000000 0.562707 0.375311
0.000000 0.560784 0.365972
0.000000 0.558404 0.353185
0.000000 0.555322 0.335760
0.000000 0.554437 0.306554
0.000000 0.553491 0.267094
0.000000 0.552331 0.209537
0.000000 0.547692 0.059022
0.218753 0.523949 0.064881
0.337957 0.497566 0.069490
0.419043 0.468818 0.073762
0.521233 0.470954 0.048219
0.587640 0.428443 0.089906
0.648341 0.367163 0.119936
0.703182 0.277104 0.146609
0.747463 0.194827 0.152956
0.788479 0.000000 0.159213
0.826596 0.000000 0.165438
0.862089 0.000000 0.171542
0.893675 0.000000 0.200778
0.921050 0.000000 0.251682
0.946777 0.000000 0.291234
0.971130 0.000000 0.324041
0.994202 0.000000 0.352270
1.000000 0.000000 0.377173
1.000000 0.000000 0.399268
1.000000 0.000000 0.426612
1.000000 0.000000 0.457008
0.000000 0.615625 0.419715
0.000000 0.615351 0.418585
0.000000 0.615045 0.416876
0.000000 0.614466 0.413306
0.000000 0.613306 0.407446
0.000000 0.611902 0.399084
0.000000 0.609949 0.387732
0.000000 0.607416 0.372656
0.000000 0.605676 0.349950
0.000000 0.605127 0.316716
0.000000 0.604517 0.271794
0.000000 0.603784 0.204776
0.000000 0.596063 0.021485
0.252720 0.572229 0.031556
0.373938 0.545281 0.042359
0.458717 0.515953 0.051179
0.564446 0.519066 0.000000
0.628016 0.475471 0.075807
0.685481 0.416175 0.115236
0.738064 0.336370 0.146395
0.782589 0.251164 0.161868
0.821408 0.141909 0.168551
0.857420 0.000000 0.175082
0.890990 0.000000 0.181582
0.922240 0.000000 0.187533
0.949157 0.000000 0.228061
0.973358 0.000000 0.273655
0.996368 0.000000 0.310094
1.000000 0.000000 0.340673
1.000000 0.000000 0.367132
1.000000 0.000000 0.390295
1.000000 0.000000 0.421698
0.000000 0.660578 0.447486
0.000000 0.660365 0.446418
0.000000 0.660151 0.444953
0.000000 0.659632 0.441657
0.000000 0.658747 0.436316
0.000000 0.657588 0.428840
0.000000 0.656001 0.418830
0.000000 0.654108 0.405737
0.000000 0.651606 0.388556
0.000000 0.651179 0.360571
0.000000 0.650904 0.323522
0.000000 0.650690 0.273350
0.000000 0.650263 0.196567
0.000000 0.639734 0.000000
0.286625 0.616327 0.000000
0.408423 0.590112 0.000000
0.496315 0.561151 0.004181
0.604486 0.565026 0.000000
0.665278 0.520134 0.058808
0.720577 0.462898 0.111055
0.770962 0.389960 0.146792
0.815610 0.300755 0.172976
0.852262 0.219120 0.180026
0.886320 0.000000 0.186893
0.917998 0.000000 0.193515
0.947692 0.000000 0.199619
0.975494 0.000000 0.204990
0.998657 0.000000 0.253849
1.000000 0.000000 0.294774
1.000000 0.000000 0.327977
1.000000 0.000000 0.356146
1.000000 0.000000 0.380316
0.000000 0.700710 0.472267
0.000000 0.700618 0.471321
0.000000 0.700374 0.470039
0.000000 0.700008 0.467048
0.000000 0.699275 0.462287
0.000000 0.698360 0.455573
0.000000 0.697108 0.446754
0.000000 0.695521 0.435187
0.000000 0.693446 0.420539
0.000000 0.691951 0.399451
0.000000 0.691920 0.368109
0.000000 0.691920 0.327642
0.000000 0.691920 0.272618
0.000000 0.691859 0.185428
0.050172 0.678584 0.000000
0.318761 0.655909 0.000000
0.440009 0.630488 0.000000
0.530419 0.602686 0.000000
0.634394 0.602502 0.000000
0.700496 0.563592 0.018952
0.753689 0.507958 0.107820
0.801877 0.439948 0.148623
0.845487 0.354223 0.181979
0.881132 0.278538 0.193912
0.913329 0.180484 0.201053
0.943359 0.000000 0.207919
0.971557 0.000000 0.213931
0.998138 0.000000 0.219333
1.000000 0.000000 0.232761
1.000000 0.000000 0.278691
1.000000 0.000000 0.314672
1.000000 0.000000 0.344610
0.000000 0.736812 0.494636
0.000000 0.736629 0.493690
0.000000 0.736538 0.492561
0.000000 0.736172 0.489845
0.000000 0.735653 0.485542
0.000000 0.734859 0.479561
0.000000 0.733822 0.471687
0.000000 0.732540 0.461555
0.000000 0.730861 0.448890
0.000000 0.728817 0.433173
0.000000 0.728634 0.407324
0.000000 0.728878 0.373510
0.000000 0.729122 0.329931
0.000000 0.729488 0.269932
0.000000 0.729915 0.172030
0.140963 0.714229 0.000000
0.350469 0.692500 0.000000
0.470314 0.668299 0.000000
0.562158 0.641810 0.000000
0.659052 0.636072 0.000000
0.733913 0.605646 0.000000
0.784970 0.551232 0.105989
0.831022 0.486976 0.152316
0.872496 0.410132 0.188724
0.908080 0.330632 0.210666
0.938567 0.255406 0.218143
0.967132 0.134829 0.224857
0.994079 0.000000 0.230961
1.000000 0.000000 0.236057
1.000000 0.000000 0.240269
1.000000 0.000000 0.262486
1.000000 0.000000 0.301732
0.000000 0.770291 0.515312
0.000000 0.770230 0.514549
0.000000 0.770077 0.513420
0.000000 0.769833 0.511040
0.000000 0.769406 0.507164
0.000000 0.768795 0.501823
0.000000 0.768032 0.494789
0.000000 0.766995 0.485817
0.000000 0.765713 0.474830
0.000000 0.764034 0.461524
0.000000 0.762753 0.442878
0.000000 0.763210 0.414038
0.000000 0.763760 0.377935
0.000000 0.764401 0.331365
0.000000 0.765103 0.267094
0.000000 0.764675 0.145327
0.196017 0.748013 0.015106
0.381445 0.727199 0.000000
0.499580 0.704097 0.000000
0.592279 0.678920 0.000000
0.686458 0.669825 0.000000
0.765682 0.646174 0.000000
0.814542 0.592859 0.106966
0.858427 0.531792 0.158022
0.897917 0.461219 0.197269
0.933318 0.378607 0.229953
0.962280 0.315526 0.237430
0.989532 0.233646 0.244327
1.000000 0.074281 0.250401
1.000000 0.000000 0.255314
1.000000 0.000000 0.259068
1.000000 0.000000 0.261326
0.000000 0.802029 0.534936
0.000000 0.801938 0.534203
0.000000 0.801877 0.533196
0.000000 0.801694 0.531029
0.000000 0.801389 0.527520
0.000000 0.800931 0.522728
0.000000 0.800290 0.516411
0.000000 0.799466 0.508507
0.000000 0.798428 0.498878
0.000000 0.797055 0.487312
0.000000 0.795315 0.473762
0.000000 0.795315 0.450690
0.000000 0.796017 0.420050
0.000000 0.796841 0.381933
0.000000 0.797726 0.332738
0.000000 0.798703 0.264317
0.000000 0.797116 0.103426
0.242496 0.779965 0.061830
0.412024 0.760067 0.033204
0.527916 0.738125 0.000000
0.620813 0.714199 0.000000
0.712276 0.702449 0.000000
0.795804 0.685542 0.000000
0.842496 0.633265 0.111238
0.884367 0.574609 0.166262
0.921904 0.508934 0.207797
0.955718 0.434424 0.243412
0.984558 0.369146 0.259770
1.000000 0.303899 0.266606
1.000000 0.216800 0.272465
1.000000 0.000000 0.277226
1.000000 0.000000 0.280705
0.000000 0.832090 0.553491
0.000000 0.832059 0.552850
0.000000 0.831998 0.551934
0.000000 0.831876 0.549981
0.000000 0.831571 0.546746
0.000000 0.831235 0.542382
0.000000 0.830747 0.536736
0.000000 0.830106 0.529747
0.000000 0.829221 0.521202
0.000000 0.828092 0.511162
0.000000 0.826658 0.499641
0.000000 0.825315 0.484382
0.000000 0.826139 0.457984
0.000000 0.827054 0.425788
0.000000 0.828061 0.385992
0.000000 0.829221 0.334447
0.000000 0.830442 0.262486
0.000000 0.826963 0.100923
0.285344 0.810117 0.089784
0.442267 0.791165 0.075654
0.555200 0.770474 0.051148
0.647822 0.747829 0.000000
0.736812 0.733791 0.000000
0.824460 0.723537 0.000000
0.869047 0.672114 0.119600
0.908965 0.615656 0.177127
0.944732 0.553918 0.220798
0.976928 0.486610 0.257969
1.000000 0.418799 0.284520
1.000000 0.363836 0.291386
1.000000 0.297887 0.297368
1.000000 0.208408 0.302190
0.000000 0.860624 0.571069
0.000000 0.860624 0.570459
0.000000 0.860533 0.569635
0.000000 0.860441 0.567834
0.000000 0.860258 0.564935
0.000000 0.859953 0.560967
0.000000 0.859586 0.555871
0.000000 0.859037 0.549584
0.000000 0.858335 0.542077
0.000000 0.857359 0.533257
0.000000 0.856077 0.523369
0.000000 0.854276 0.512505
0.000000 0.854246 0.492653
0.000000 0.855222 0.465126
0.000000 0.856321 0.431769
0.000000 0.857511 0.390417
0.000000 0.858824 0.337285
0.000000 0.860288 0.262516
0.000000 0.854643 0.129122
0.325963 0.838560 0.118166
0.471962 0.820706 0.104555
0.581933 0.801114 0.086915
0.673610 0.779843 0.061982
0.759670 0.764034 0.000000
0.851743 0.760616 0.000000
0.894377 0.709865 0.131472
0.932433 0.655116 0.190494
0.966552 0.596918 0.235721
0.997253 0.535027 0.274418
1.000000 0.468971 0.308843
1.000000 0.418585 0.319066
1.000000 0.364813 0.325200
0.000000 0.887663 0.587732
0.000000 0.887633 0.587152
0.000000 0.887633 0.586419
0.000000 0.887510 0.584741
0.000000 0.887358 0.582086
0.000000 0.887144 0.578485
0.000000 0.886839 0.573846
0.000000 0.886412 0.568261
0.000000 0.885801 0.561517
0.000000 0.884947 0.553796
0.000000 0.883787 0.545251
0.000000 0.882139 0.536156
0.000000 0.880461 0.525017
0.000000 0.881468 0.501030
0.000000 0.882597 0.472541
0.000000 0.883879 0.438178
0.000000 0.885191 0.395850
0.000000 0.886656 0.341466
0.000000 0.888243 0.265476
0.105501 0.880674 0.158297
0.365148 0.865476 0.147311
0.501457 0.848600 0.134127
0.607935 0.830259 0.117861
0.698238 0.810330 0.096986
0.781308 0.793179 0.057404
0.877867 0.796597 0.000000
0.918639 0.746334 0.146670
0.954986 0.693355 0.206455
0.987488 0.638117 0.252995
1.000000 0.580774 0.293065
1.000000 0.521782 0.329015
1.000000 0.470527 0.349737
0.000000 0.913359 0.603479
0.000000 0.913359 0.602991
0.000000 0.913298 0.602258
0.000000 0.913237 0.600732
0.000000 0.913115 0.598291
0.000000 0.912963 0.595026
0.000000 0.912718 0.590845
0.000000 0.912352 0.585748
0.000000 0.911772 0.579736
0.000000 0.911040 0.572930
0.000000 0.909941 0.565515
0.000000 0.908415 0.557885
0.000000 0.906310 0.550347
0.000000 0.905974 0.534325
0.000000 0.907073 0.509728
0.000000 0.908324 0.480629
0.000000 0.909667 0.445655
0.000000 0.911131 0.402747
0.000000 0.912749 0.347967
0.000000 0.914458 0.271702
0.206363 0.905150 0.188449
0.403204 0.890837 0.177249
0.530571 0.875090 0.164340
0.633448 0.857908 0.148470
0.721828 0.839414 0.129549
0.801877 0.821256 0.102968
0.902556 0.830991 0.055451
0.942046 0.781827 0.164797
0.976745 0.730373 0.224979
1.000000 0.677699 0.272862
1.000000 0.624567 0.314336
1.000000 0.571557 0.351904
0.000000 0.937835 0.618433
0.000000 0.937835 0.617975
0.000000 0.937835 0.617334
0.000000 0.937743 0.615930
0.000000 0.937682 0.613672
0.000000 0.937530 0.610681
0.000000 0.937316 0.606867
0.000000 0.936980 0.602228
0.000000 0.936492 0.596857
0.000000 0.935790 0.590845
0.000000 0.934783 0.584466
0.000000 0.933288 0.577996
0.000000 0.931243 0.571954
0.000000 0.928832 0.565667
0.000000 0.929931 0.544274
0.000000 0.931151 0.519280
0.000000 0.932464 0.489815
0.000000 0.933928 0.454627
0.000000 0.935485 0.411749
0.000000 0.937163 0.357275
0.000000 0.938079 0.274113
0.275578 0.928222 0.220157
0.440986 0.914855 0.208774
0.559686 0.900206 0.195529
0.658473 0.884306 0.180087
0.744747 0.867216 0.161746
0.822049 0.848905 0.139406
0.917906 0.856962 0.103792
0.964721 0.816434 0.185885
0.997742 0.766354 0.246128
1.000000 0.716121 0.295506
1.000000 0.666773 0.338781
0.000000 0.961273 0.632715
0.000000 0.961273 0.632288
0.000000 0.961273 0.631678
0.000000 0.961212 0.630396
0.000000 0.961151 0.628351
0.000000 0.961028 0.625574
0.000000 0.960845 0.622034
0.000000 0.960571 0.617853
0.000000 0.960082 0.613031
0.000000 0.959442 0.607721
0.000000 0.958434 0.602167
0.000000 0.957000 0.596796
0.000000 0.954955 0.592065
0.000000 0.952209 0.588403
0.000000 0.951293 0.576867
0.000000 0.952453 0.555230
0.000000 0.953735 0.530053
0.000000 0.955138 0.500572
0.000000 0.956664 0.465583
0.000000 0.958282 0.423163
0.000000 0.960052 0.369787
0.066163 0.960296 0.281010
0.335180 0.950042 0.253208
0.478431 0.937652 0.241672
0.588952 0.924163 0.228336
0.683284 0.909545 0.213077
0.766995 0.893889 0.195163
0.843015 0.877134 0.173861
0.932647 0.882444 0.140261
0.986694 0.850217 0.209659
1.000000 0.801450 0.270512
1.000000 0.753719 0.321538
0.000000 0.983825 0.646357
0.000000 0.983795 0.645960
0.000000 0.983795 0.645380
0.000000 0.983764 0.644160
0.000000 0.983673 0.642237
0.000000 0.983612 0.639673
0.000000 0.983429 0.636500
0.000000 0.983185 0.632624
0.000000 0.982757 0.628290
0.000000 0.982116 0.623590
0.000000 0.981109 0.618830
0.000000 0.979675 0.614374
0.000000 0.977600 0.610773
0.000000 0.974823 0.608484
0.094667 0.971221 0.607935
0.106813 0.972351 0.589197
0.116640 0.973571 0.567529
0.126680 0.974914 0.542535
0.136843 0.976349 0.513420
0.146120 0.977905 0.479042
0.156405 0.979583 0.437720
0.166506 0.981353 0.386297
0.195102 0.980987 0.298314
0.390326 0.970672 0.287999
0.516167 0.959289 0.276341
0.618555 0.946990 0.262974
0.708095 0.933715 0.247532
0.788907 0.919493 0.230045
0.863279 0.904295 0.209506
0.948241 0.907683 0.177981
1.000000 0.883146 0.236606
1.000000 0.835752 0.298680
0.000000 1.000000 0.659419
0.000000 1.000000 0.658991
0.000000 1.000000 0.658503
0.000000 1.000000 0.657343
0.000000 1.000000 0.655573
0.000000 1.000000 0.653162
0.000000 1.000000 0.650202
0.000000 1.000000 0.646693
0.000000 1.000000 0.642725
0.000000 1.000000 0.638544
0.000000 1.000000 0.634394
0.000000 1.000000 0.630854
0.000000 0.999237 0.628290
0.000000 0.996338 0.627222
0.049042 0.992615 0.628077
