其他预设/【213】赛博朋克科幻预设52款/1.LUT预设（视频调色-PR-AE-PS-FCPX-达芬奇用）/赛博朋克科幻__-3 强度4.cube
# Created by Adobe Lightroom plugin Export LUT (1.17.0)
# www.johnrellis.com/lightroom/exportlut.htm
# Preset: 赛博朋克科幻[素锦印象]-3 强度4
# Color profile: /Library/Application Support/Adobe/Color/Profiles/Recommended/AdobeRGB1998.icc
LUT_3D_SIZE 5
DOMAIN_MIN 0.000000 0.000000 0.000000
DOMAIN_MAX 0.903226 0.903226 0.903226
0.070100 0.089570 0.116335
0.190036 0.062959 0.169863
0.566186 0.000000 0.345739
0.868589 0.000000 0.485542
1.000000 0.000000 0.571496
0.000000 0.273472 0.234073
0.123690 0.226291 0.125307
0.555230 0.000000 0.298466
0.865812 0.000000 0.484138
1.000000 0.000000 0.571466
0.000000 0.679469 0.509453
0.000000 0.667292 0.467506
0.304601 0.587335 0.055055
0.871580 0.000000 0.230625
1.000000 0.000000 0.498939
0.000000 0.909911 0.664607
0.000000 0.907958 0.646784
0.000000 0.896849 0.566339
0.497292 0.847257 0.154482
1.000000 0.451301 0.396216
0.000000 1.000000 0.748928
0.000000 1.000000 0.747860
0.000000 1.000000 0.718135
0.495552 1.000000 0.664149
0.714137 0.997589 0.437140
0.000000 0.088014 0.199496
0.187686 0.013489 0.211856
0.570886 0.000000 0.388739
0.868162 0.000000 0.505150
1.000000 0.000000 0.572107
0.000000 0.213870 0.231052
0.160739 0.196231 0.203799
0.549462 0.000000 0.368322
0.866423 0.000000 0.513756
1.000000 0.000000 0.572107
0.000000 0.656336 0.522820
0.000000 0.638270 0.485725
0.326574 0.564752 0.198459
0.860594 0.000000 0.363928
1.000000 0.000000 0.551049
0.000000 0.903716 0.677089
0.000000 0.900847 0.660578
0.000000 0.883940 0.597589
0.531762 0.838865 0.272251
1.000000 0.496925 0.462837
0.000000 1.000000 0.759152
0.000000 1.000000 0.758053
0.000000 1.000000 0.728756
0.559594 1.000000 0.687129
0.741115 0.993500 0.485512
0.000000 0.054658 0.470069
0.256626 0.000000 0.422217
0.538293 0.000000 0.467384
0.857145 0.000000 0.575830
1.000000 0.000000 0.611292
0.000000 0.345312 0.513359
0.167147 0.156558 0.465675
0.528222 0.000000 0.468544
0.848753 0.000000 0.582086
1.000000 0.000000 0.614405
0.000000 0.552178 0.532097
0.000000 0.535515 0.513512
0.458381 0.481666 0.438422
0.838865 0.325292 0.569512
1.000000 0.000000 0.619745
0.000000 0.876738 0.715572
0.000000 0.881743 0.709926
0.172061 0.860105 0.660487
0.645502 0.808072 0.484901
1.000000 0.599451 0.599786
0.000000 1.000000 0.796597
0.000000 1.000000 0.794308
0.000000 1.000000 0.764645
0.692073 0.999145 0.746029
0.806302 0.982696 0.590326
0.000000 0.000000 0.719417
0.263462 0.000000 0.701350
0.587457 0.000000 0.642267
0.842344 0.000000 0.673335
1.000000 0.000000 0.693874
0.000000 0.132052 0.730678
0.207645 0.000000 0.713436
0.591150 0.000000 0.653559
0.840604 0.000000 0.679835
1.000000 0.000000 0.696834
0.000000 0.641627 0.744076
0.000000 0.651392 0.742031
0.525719 0.494789 0.700496
0.829740 0.000000 0.681270
1.000000 0.000000 0.703548
0.000000 0.780667 0.733150
0.000000 0.779202 0.728908
0.380041 0.776638 0.710079
0.761379 0.744381 0.655909
0.998993 0.661250 0.733822
0.000000 0.998688 0.833433
0.000000 1.000000 0.833341
0.000000 1.000000 0.831937
0.637720 1.000000 0.795163
0.882261 0.967102 0.701045
0.000000 0.000000 0.861753
0.000000 0.000000 0.856840
0.564843 0.000000 0.836576
0.839963 0.000000 0.810239
1.000000 0.000000 0.802243
0.000000 0.000000 0.864469
0.000000 0.000000 0.859892
0.547265 0.000000 0.840726
0.834043 0.000000 0.813840
1.000000 0.000000 0.805783
0.000000 0.634852 0.866636
0.296117 0.624964 0.861173
0.394110 0.264958 0.856352
0.806638 0.000000 0.825864
1.000000 0.000000 0.817807
0.000000 0.780758 0.858122
0.000000 0.785611 0.857755
0.593713 0.841215 0.850492
0.812772 0.768276 0.834195
1.000000 0.000000 0.828733
0.000000 0.918547 0.855924
0.000000 0.917693 0.855772
0.000000 0.922576 0.852476
0.699336 0.938933 0.838285
0.954833 0.930694 0.807553
