其他预设/【213】赛博朋克科幻预设52款/1.LUT预设（视频调色-PR-AE-PS-FCPX-达芬奇用）/赛博朋克科幻__-11 强度5.cube
# Created by Adobe Lightroom plugin Export LUT (1.17.0)
# www.johnrellis.com/lightroom/exportlut.htm
# Preset: 赛博朋克科幻[素锦印象]-11 强度5
# Color profile: /Library/Application Support/Adobe/Color/Profiles/Recommended/AdobeRGB1998.icc
LUT_3D_SIZE 8
DOMAIN_MIN 0.000000 0.000000 0.000000
DOMAIN_MAX 0.903226 0.903226 0.903226
0.000000 0.000000 0.000000
0.130434 0.000000 0.072145
0.263249 0.000000 0.127871
0.392950 0.000000 0.194766
0.520836 0.000000 0.278172
0.646296 0.000000 0.374456
0.769802 0.000000 0.480568
0.891356 0.000000 0.595117
0.000000 0.113771 0.114534
0.091920 0.083101 0.065492
0.253941 0.000000 0.131960
0.387152 0.000000 0.198672
0.516686 0.000000 0.281590
0.643671 0.000000 0.377661
0.768276 0.000000 0.483680
0.890471 0.000000 0.598108
0.000000 0.250034 0.268162
0.000000 0.225772 0.235874
0.174258 0.152621 0.107607
0.394568 0.000000 0.197116
0.504997 0.000000 0.291142
0.634577 0.000000 0.388220
0.762783 0.000000 0.494484
0.887358 0.000000 0.608789
0.000000 0.464057 0.480781
0.000000 0.443030 0.455756
0.101167 0.359472 0.358587
0.268162 0.242893 0.163302
0.527214 0.000000 0.256962
0.642054 0.000000 0.390173
0.753689 0.000000 0.512078
0.881743 0.000000 0.627436
0.000000 0.684108 0.667689
0.000000 0.672389 0.653315
0.000000 0.623804 0.596674
0.261784 0.510765 0.472694
0.353643 0.370611 0.227878
0.657282 0.000000 0.317998
0.775265 0.000000 0.500542
0.884367 0.000000 0.639155
0.000000 0.849454 0.800198
0.000000 0.843870 0.792264
0.000000 0.820706 0.762051
0.000000 0.766629 0.698238
0.384771 0.658564 0.573663
0.442481 0.528710 0.311589
0.784360 0.160403 0.404242
0.896117 0.248081 0.622065
0.000000 0.972961 0.894347
0.000000 0.971649 0.893187
0.000000 0.961700 0.876799
0.000000 0.937163 0.844541
0.331029 0.888518 0.791104
0.518456 0.806851 0.683742
0.556451 0.706447 0.437903
0.901061 0.487892 0.540917
0.000000 1.000000 0.951415
0.000000 1.000000 0.952392
0.000000 1.000000 0.950774
0.000000 1.000000 0.933318
0.233005 1.000000 0.910307
0.597925 0.982849 0.881102
0.667475 0.943175 0.804135
0.694301 0.893065 0.612238
0.053101 0.000000 0.069886
0.131838 0.000000 0.085664
0.256138 0.000000 0.139406
0.384619 0.000000 0.207126
0.514641 0.000000 0.289220
0.642390 0.000000 0.384192
0.767788 0.000000 0.488838
0.890623 0.000000 0.601465
0.000000 0.096712 0.113588
0.141695 0.064607 0.088411
0.252995 0.000000 0.141787
0.380011 0.000000 0.209720
0.511192 0.000000 0.291783
0.640040 0.000000 0.386938
0.766384 0.000000 0.491707
0.889799 0.000000 0.604395
0.000000 0.237400 0.264866
0.000000 0.212406 0.233280
0.210544 0.141176 0.126253
0.393469 0.000000 0.208347
0.504692 0.000000 0.298314
0.631800 0.000000 0.396246
0.761257 0.000000 0.501732
0.886870 0.000000 0.614618
0.000000 0.455390 0.480751
0.000000 0.432074 0.454261
0.144533 0.351934 0.361975
0.290349 0.236210 0.176944
0.528710 0.000000 0.272282
0.641505 0.000000 0.397314
0.753475 0.000000 0.517571
0.881437 0.000000 0.632654
0.000000 0.679622 0.669764
0.000000 0.667872 0.655634
0.000000 0.619440 0.600000
0.276555 0.507897 0.478218
0.368872 0.366430 0.239231
0.658076 0.000000 0.331945
0.774777 0.000000 0.507225
0.884215 0.000000 0.644038
0.000000 0.848051 0.803220
0.000000 0.842435 0.795499
0.000000 0.819150 0.765652
0.000000 0.765255 0.702510
0.402258 0.656458 0.579980
0.454078 0.525963 0.321416
0.784573 0.180850 0.416602
0.896025 0.262760 0.630060
0.000000 0.973602 0.899687
0.000000 0.971557 0.896239
0.000000 0.961425 0.880034
0.000000 0.936858 0.848051
0.342596 0.888365 0.794980
0.529534 0.806180 0.689143
0.564294 0.704860 0.445686
0.901488 0.484047 0.548547
0.000000 1.000000 0.954376
0.000000 1.000000 0.955383
0.000000 1.000000 0.953277
0.000000 1.000000 0.935882
0.241947 1.000000 0.912810
0.600702 0.983062 0.883543
0.673487 0.942992 0.807889
0.698512 0.892363 0.616876
0.114687 0.000000 0.121492
0.164065 0.000000 0.120485
0.264195 0.000000 0.161440
0.383154 0.000000 0.228519
0.509880 0.000000 0.311254
0.636530 0.000000 0.407782
0.764584 0.000000 0.510887
0.889952 0.000000 0.619715
0.118502 0.090333 0.138827
0.180728 0.027893 0.138705
0.264469 0.000000 0.163394
0.377203 0.000000 0.230411
0.505638 0.000000 0.313756
0.634363 0.000000 0.410071
0.763302 0.000000 0.513390
0.889158 0.000000 0.622400
0.000000 0.195743 0.255467
0.122805 0.176150 0.232212
0.285771 0.103944 0.169039
0.392493 0.000000 0.234928
0.504021 0.000000 0.318853
0.627070 0.000000 0.417426
0.758694 0.000000 0.522210
0.886442 0.000000 0.631830
0.000000 0.426795 0.482490
0.000000 0.408087 0.460334
0.203189 0.341344 0.383276
0.346990 0.215824 0.215122
0.531701 0.000000 0.314336
0.640223 0.000000 0.419196
0.753017 0.000000 0.535363
0.881376 0.000000 0.648676
0.000000 0.663630 0.676753
0.000000 0.654170 0.665126
0.000000 0.611627 0.616480
0.312993 0.503136 0.499855
0.413825 0.352544 0.274388
0.660975 0.059480 0.376806
0.773526 0.000000 0.528801
0.884001 0.000000 0.660121
0.000000 0.840940 0.812222
0.000000 0.837888 0.806973
0.000000 0.815885 0.779721
0.000000 0.762692 0.718654
0.449653 0.651850 0.601740
0.490517 0.516838 0.353979
0.785550 0.235386 0.456306
0.895964 0.305791 0.656916
0.000000 0.973541 0.911162
0.000000 0.972168 0.907836
0.000000 0.961395 0.892027
0.000000 0.936858 0.860807
0.374121 0.889006 0.808835
0.564782 0.804623 0.707912
0.589624 0.699611 0.471107
0.903105 0.470436 0.573602
0.000000 1.000000 0.964599
0.000000 1.000000 0.965270
0.000000 1.000000 0.962432
0.000000 1.000000 0.945068
0.259586 1.000000 0.921660
0.608484 0.984253 0.892119
0.693263 0.942718 0.820859
0.712459 0.890166 0.632319
0.189639 0.000000 0.197910
0.239658 0.000000 0.198917
0.279240 0.000000 0.191073
0.399969 0.000000 0.262760
0.509911 0.000000 0.341283
0.636713 0.000000 0.437415
0.764187 0.000000 0.541192
0.891142 0.000000 0.646906
0.178805 0.033417 0.213382
0.238437 0.000000 0.213565
0.294621 0.000000 0.205112
0.399207 0.000000 0.265080
0.505882 0.000000 0.342626
0.633967 0.000000 0.439582
0.762661 0.000000 0.543664
0.890684 0.000000 0.648890
0.162539 0.164858 0.255711
0.214237 0.156710 0.251652
0.331914 0.085908 0.242832
0.409003 0.000000 0.270878
0.506981 0.000000 0.349371
0.625055 0.000000 0.446723
0.757961 0.000000 0.551843
0.888457 0.000000 0.657069
0.000000 0.363867 0.482399
0.000000 0.347967 0.463355
0.270359 0.289738 0.394568
0.425422 0.175296 0.274418
0.529320 0.000000 0.354742
0.639063 0.000000 0.451972
0.752590 0.000000 0.563806
0.883696 0.000000 0.672694
0.000000 0.624231 0.684565
0.000000 0.615045 0.673365
0.000000 0.580468 0.631678
0.360479 0.499886 0.540887
0.479530 0.328313 0.329717
0.665034 0.181216 0.445197
0.772274 0.000000 0.561944
0.884245 0.000000 0.686336
0.000000 0.813901 0.818845
0.000000 0.810849 0.813870
0.000000 0.799069 0.795346
0.182712 0.763210 0.750057
0.485817 0.655360 0.638025
0.545892 0.501427 0.405676
0.787655 0.304021 0.517815
0.896117 0.307195 0.685359
0.000000 0.953582 0.915923
0.000000 0.953826 0.914122
0.000000 0.953979 0.907561
0.000000 0.940032 0.885100
0.409308 0.893278 0.834318
0.617456 0.804868 0.740871
0.627924 0.691157 0.510369
0.905486 0.470130 0.615991
0.000000 1.000000 0.978485
0.000000 1.000000 0.978515
0.000000 1.000000 0.977203
0.000000 1.000000 0.962432
0.251011 1.000000 0.937774
0.615381 0.987671 0.907408
0.724666 0.943511 0.843320
0.734401 0.886687 0.656977
0.268070 0.000000 0.303410
0.307836 0.000000 0.304387
0.367895 0.000000 0.298039
0.417517 0.000000 0.302495
0.534417 0.000000 0.389258
0.637537 0.000000 0.476387
0.765286 0.000000 0.580865
0.892302 0.000000 0.686488
0.260258 0.000000 0.316625
0.304997 0.000000 0.317266
0.379400 0.000000 0.311772
0.418250 0.000000 0.306493
0.534447 0.000000 0.391852
0.635035 0.000000 0.477943
0.763912 0.000000 0.582971
0.891875 0.000000 0.688289
0.249454 0.191135 0.347539
0.290227 0.165621 0.343511
0.387762 0.000000 0.346227
0.439399 0.000000 0.325719
0.537499 0.000000 0.399878
0.636591 0.000000 0.487373
0.759518 0.000000 0.589929
0.890684 0.000000 0.694362
0.180728 0.285740 0.431525
0.231785 0.279973 0.426246
0.350652 0.257755 0.405158
0.481361 0.180087 0.379034
0.551324 0.000000 0.405982
0.643885 0.000000 0.493599
0.753079 0.000000 0.600610
0.889616 0.000000 0.703304
0.000000 0.551751 0.691554
0.000000 0.543603 0.681605
0.219425 0.511742 0.643366
0.432136 0.440497 0.561547
0.559136 0.290257 0.402991
0.662654 0.193393 0.495644
0.771572 0.000000 0.602350
0.885191 0.000000 0.720912
0.000000 0.770199 0.829191
0.000000 0.767483 0.824582
0.000000 0.756741 0.807156
0.312230 0.732235 0.771115
0.521599 0.671015 0.696223
0.609735 0.480323 0.468849
0.791104 0.375982 0.595605
0.897795 0.274968 0.720638
0.000000 0.921660 0.923156
0.000000 0.921904 0.921538
0.000000 0.922393 0.915496
0.000000 0.921996 0.903624
0.425635 0.906249 0.874601
0.644862 0.819974 0.784756
0.673945 0.680049 0.559411
0.907591 0.520684 0.677546
0.000000 1.000000 0.983368
0.000000 1.000000 0.982940
0.000000 1.000000 0.981323
0.000000 1.000000 0.978058
0.069306 1.000000 0.963195
0.610803 0.995148 0.930297
0.765621 0.947021 0.875669
0.762722 0.882109 0.689143
0.345678 0.000000 0.448585
0.380163 0.000000 0.449287
0.467720 0.000000 0.449195
0.492958 0.000000 0.420996
0.566705 0.000000 0.452949
0.666468 0.000000 0.534936
0.767208 0.000000 0.628687
0.894041 0.000000 0.735256
0.340795 0.000000 0.459632
0.378363 0.000000 0.460334
0.475349 0.000000 0.461158
0.499672 0.000000 0.432532
0.567193 0.000000 0.456367
0.666560 0.000000 0.537194
0.765988 0.000000 0.630396
0.893675 0.000000 0.736934
0.294926 0.146731 0.482307
0.325933 0.112428 0.483589
0.451514 0.000000 0.486488
0.531243 0.000000 0.471656
0.570123 0.000000 0.467445
0.666957 0.000000 0.545037
0.766903 0.000000 0.638178
0.892576 0.000000 0.742580
0.280369 0.327825 0.542748
0.316747 0.323857 0.537804
0.413672 0.309300 0.518303
0.543969 0.180758 0.516625
0.591150 0.000000 0.484138
0.675135 0.000000 0.554833
0.768887 0.000000 0.648890
0.891569 0.000000 0.751492
0.129763 0.479042 0.660945
0.209964 0.471046 0.650782
0.358495 0.442084 0.614893
0.501610 0.415625 0.581109
0.627283 0.332341 0.540612
0.686915 0.209537 0.559808
0.776455 0.000000 0.653651
0.890654 0.000000 0.763149
0.000000 0.708980 0.847227
0.000000 0.706935 0.843168
0.168887 0.698756 0.827756
0.436622 0.678737 0.795132
0.596674 0.625940 0.729488
0.685664 0.448188 0.548852
0.789578 0.366155 0.650965
0.900359 0.156161 0.764920
0.000000 0.875944 0.933135
0.000000 0.876402 0.931731
0.000000 0.877958 0.926421
0.246586 0.880064 0.916075
0.511894 0.878080 0.897124
0.672328 0.846921 0.847684
0.731594 0.663355 0.622950
0.909819 0.582666 0.756832
0.000000 0.985077 0.988739
0.000000 0.986328 0.988342
0.000000 0.990723 0.986816
0.000000 0.998505 0.983825
0.258213 1.000000 0.978637
0.587427 1.000000 0.963622
0.790158 0.958648 0.913085
0.800107 0.875181 0.732387
0.412940 0.000000 0.625544
0.444404 0.000000 0.625727
0.536400 0.000000 0.626154
0.598962 0.000000 0.608453
0.625818 0.000000 0.569512
0.713283 0.000000 0.624018
0.794217 0.000000 0.690852
0.896727 0.000000 0.790494
0.414588 0.000000 0.633295
0.447761 0.000000 0.633448
0.537285 0.000000 0.633387
0.602136 0.000000 0.616449
0.629358 0.000000 0.577813
0.713191 0.000000 0.626215
0.794186 0.000000 0.692378
0.896361 0.000000 0.791989
0.366125 0.065339 0.651087
0.405188 0.000000 0.651453
0.512871 0.000000 0.652613
0.619348 0.000000 0.645533
0.640284 0.000000 0.605280
0.712306 0.000000 0.633570
0.794186 0.000000 0.697841
0.895415 0.000000 0.797238
0.368902 0.399115 0.678340
0.402899 0.385138 0.675013
0.473915 0.295293 0.670649
0.605707 0.173312 0.676234
0.679774 0.000000 0.653864
0.715145 0.000000 0.645655
0.794125 0.000000 0.707362
0.897459 0.000000 0.806668
0.294133 0.512474 0.748928
0.334081 0.511681 0.745876
0.442420 0.508232 0.733669
0.563806 0.495247 0.705440
0.693690 0.376013 0.697810
0.732265 0.204440 0.657710
0.802914 0.000000 0.718135
0.899535 0.000000 0.816220
0.000000 0.676600 0.859525
0.141756 0.675013 0.855436
0.348791 0.667994 0.839139
0.517571 0.644526 0.801328
0.649866 0.617456 0.761349
0.763027 0.530114 0.714778
0.813413 0.392615 0.723384
0.904387 0.000000 0.823423
0.000000 0.821805 0.953491
0.000000 0.822904 0.952270
0.000000 0.826963 0.947631
0.422065 0.833585 0.938506
0.614496 0.836637 0.921599
0.751186 0.815793 0.882628
0.804990 0.635523 0.706996
0.910796 0.554864 0.816068
0.000000 0.935088 0.995392
0.000000 0.936370 0.995026
0.000000 0.941192 0.993591
0.000000 0.950256 0.990784
0.440436 0.962829 0.985992
0.663050 0.975463 0.978698
0.808072 0.976379 0.959838
0.849760 0.863615 0.790982
0.461158 0.000000 0.806668
0.490517 0.000000 0.806455
0.579553 0.000000 0.805631
0.690639 0.000000 0.801236
0.728695 0.000000 0.772519
0.773342 0.000000 0.750454
0.851621 0.000000 0.798581
0.918486 0.000000 0.851926
0.457374 0.000000 0.810483
0.486610 0.000000 0.810239
0.575433 0.000000 0.809293
0.691035 0.000000 0.805722
0.729366 0.000000 0.777340
0.772274 0.000000 0.751949
0.851194 0.000000 0.799649
0.918425 0.000000 0.852781
0.428077 0.000000 0.822843
0.459419 0.000000 0.822599
0.553429 0.000000 0.821500
0.682002 0.000000 0.819089
0.730770 0.000000 0.793576
0.767880 0.000000 0.756954
0.849454 0.000000 0.803311
0.918242 0.000000 0.855772
0.480842 0.397131 0.834012
0.477363 0.362158 0.835325
0.520897 0.271550 0.837247
0.648371 0.095460 0.837003
0.744839 0.000000 0.823880
0.770352 0.000000 0.783230
0.845457 0.000000 0.809323
0.917998 0.000000 0.861143
0.405310 0.590112 0.871763
0.435981 0.591882 0.869535
0.521538 0.596155 0.860716
0.642695 0.540642 0.846708
0.743465 0.394903 0.852110
0.803799 0.087922 0.826810
0.836912 0.000000 0.817380
0.917144 0.000000 0.869108
0.268925 0.687953 0.916655
0.319646 0.690089 0.915373
0.443671 0.696681 0.910430
0.579889 0.703792 0.899748
0.701076 0.701778 0.877287
0.822049 0.590967 0.868040
0.855619 0.376074 0.828794
0.918578 0.000000 0.879179
0.000000 0.800717 0.979034
0.000000 0.802548 0.977844
0.246494 0.809323 0.973175
0.485267 0.819547 0.963317
0.661158 0.824125 0.943206
0.787716 0.818235 0.917449
0.884672 0.747097 0.883726
0.926574 0.573327 0.884245
0.000000 0.874235 1.000000
0.000000 0.875792 1.000000
0.000000 0.881956 1.000000
0.241917 0.895598 1.000000
0.558434 0.915557 0.998901
0.751980 0.936828 0.991699
0.882475 0.950561 0.980529
0.918120 0.840696 0.872984
