其他预设/【213】赛博朋克科幻预设52款/1.LUT预设（视频调色-PR-AE-PS-FCPX-达芬奇用）/赛博朋克科幻__-2.cube
# Created by Adobe Lightroom plugin Export LUT (1.17.0)
# www.johnrellis.com/lightroom/exportlut.htm
# Preset: 赛博朋克科幻[素锦印象]-2
# Color profile: /Library/Application Support/Adobe/Color/Profiles/Recommended/AdobeRGB1998.icc
LUT_3D_SIZE 5
DOMAIN_MIN 0.000000 0.000000 0.000000
DOMAIN_MAX 0.903226 0.903226 0.903226
0.000000 0.085176 0.068605
0.000000 0.084901 0.089876
0.258701 0.000000 0.235630
0.851225 0.000000 0.469947
1.000000 0.000000 0.689570
0.000000 0.195560 0.142458
0.000000 0.184573 0.063691
0.323217 0.000000 0.051881
0.898955 0.000000 0.319036
1.000000 0.000000 0.611963
0.000000 0.683070 0.554955
0.000000 0.667109 0.470832
0.274235 0.640955 0.000000
0.986999 0.355688 0.000000
1.000000 0.000000 0.000000
0.000000 0.937011 0.803311
0.000000 0.933165 0.779965
0.000000 0.914244 0.641291
0.835264 0.857267 0.255131
1.000000 0.703182 0.194797
0.000000 0.996612 0.867460
0.398199 0.986084 0.861448
0.793210 0.949706 0.844511
0.797513 0.952575 0.741024
1.000000 0.925048 0.643244
0.000000 0.096193 0.189090
0.000000 0.110506 0.155428
0.341558 0.000000 0.290593
0.882475 0.000000 0.521569
1.000000 0.000000 0.665400
0.000000 0.190829 0.289555
0.000000 0.197513 0.260166
0.350195 0.095857 0.324926
0.916411 0.000000 0.455604
1.000000 0.000000 0.584802
0.000000 0.670985 0.651148
0.000000 0.684352 0.635431
0.156069 0.641199 0.284276
0.985229 0.317052 0.268315
1.000000 0.000000 0.096773
0.000000 0.939971 0.853086
0.000000 0.934508 0.836973
0.387152 0.902770 0.754513
0.836484 0.855222 0.458503
1.000000 0.709865 0.443397
0.306706 0.990051 0.887297
0.508812 0.978637 0.881346
0.841886 0.943236 0.866148
0.908080 0.935363 0.804349
1.000000 0.922820 0.715908
0.000000 0.142214 0.634882
0.000000 0.160494 0.620081
0.386206 0.203494 0.573663
0.914519 0.000000 0.627375
1.000000 0.000000 0.739498
0.000000 0.227359 0.684321
0.000000 0.271366 0.673426
0.434852 0.340978 0.616632
0.928588 0.345037 0.657252
1.000000 0.000000 0.749264
0.000000 0.585107 0.781216
0.000000 0.588647 0.771054
0.445777 0.598779 0.734890
0.966918 0.606897 0.740230
1.000000 0.229923 0.753872
0.000000 0.846281 0.886625
0.256077 0.846250 0.884672
0.768307 0.845304 0.881468
0.929870 0.837125 0.786679
1.000000 0.755795 0.764614
0.710323 0.946258 0.931456
0.773251 0.946929 0.930266
0.905760 0.933501 0.912444
1.000000 0.917845 0.898619
1.000000 0.918273 0.840787
0.159945 0.279973 0.894072
0.360510 0.297063 0.890196
0.703304 0.357031 0.873075
0.945373 0.442939 0.849699
1.000000 0.570764 0.860227
0.136446 0.395850 0.900145
0.357458 0.409369 0.895964
0.715511 0.452033 0.879728
0.950774 0.525261 0.854520
1.000000 0.619165 0.864805
0.000000 0.580499 0.914336
0.000000 0.589502 0.911040
0.742977 0.628046 0.897002
0.971099 0.667475 0.874449
1.000000 0.743954 0.879210
0.433692 0.761715 0.928954
0.554711 0.761837 0.926452
0.804868 0.765377 0.918700
0.974762 0.793210 0.903532
1.000000 0.845426 0.902129
0.891691 0.865995 0.934142
0.920073 0.870085 0.933318
0.977081 0.887083 0.931334
1.000000 0.912474 0.929625
1.000000 0.916594 0.912352
0.844083 0.624628 0.951781
0.876982 0.634577 0.950286
0.952209 0.670588 0.945647
1.000000 0.732479 0.938567
1.000000 0.763485 0.933593
0.866087 0.655238 0.950286
0.894041 0.663447 0.948974
0.959533 0.695338 0.944701
1.000000 0.750881 0.938109
1.000000 0.783505 0.932952
0.874510 0.707149 0.949126
0.922026 0.728176 0.946563
0.975921 0.758846 0.942535
1.000000 0.801480 0.937133
1.000000 0.836271 0.931670
0.878569 0.763485 0.946624
0.901549 0.769436 0.945708
0.955535 0.790402 0.942962
1.000000 0.860014 0.936034
1.000000 0.888426 0.931548
0.978119 0.851194 0.938109
0.984985 0.856352 0.937560
1.000000 0.873655 0.935821
1.000000 0.897154 0.933684
1.000000 0.916777 0.932006
