其他预设/【213】赛博朋克科幻预设52款/1.LUT预设（视频调色-PR-AE-PS-FCPX-达芬奇用）/赛博朋克科幻__-7 强度3.cube
# Created by Adobe Lightroom plugin Export LUT (1.17.0)
# www.johnrellis.com/lightroom/exportlut.htm
# Preset: 赛博朋克科幻[素锦印象]-7 强度3
# Color profile: /Library/Application Support/Adobe/Color/Profiles/Recommended/AdobeRGB1998.icc
LUT_3D_SIZE 8
DOMAIN_MIN 0.000000 0.000000 0.000000
DOMAIN_MAX 0.903226 0.903226 0.903226
0.041291 0.081605 0.069551
0.135805 0.094606 0.064729
0.312200 0.142428 0.002136
0.518639 0.204654 0.000000
0.708431 0.264225 0.000000
0.845029 0.306767 0.000000
0.954742 0.338781 0.000000
1.000000 0.362493 0.000000
0.019654 0.113375 0.070741
0.126833 0.119081 0.068025
0.306767 0.155398 0.000000
0.514763 0.217014 0.000000
0.706325 0.273960 0.000000
0.844083 0.314061 0.000000
0.954437 0.344396 0.000000
1.000000 0.366918 0.000000
0.000000 0.193179 0.081666
0.072938 0.204257 0.097047
0.282811 0.219638 0.092012
0.498360 0.248569 0.000000
0.697780 0.299504 0.000000
0.840482 0.335210 0.000000
0.953246 0.363684 0.000000
1.000000 0.382391 0.000000
0.000000 0.298802 0.110872
0.000000 0.307866 0.116487
0.200961 0.339269 0.152651
0.481270 0.350286 0.130800
0.685664 0.360357 0.002808
0.832670 0.374365 0.000000
0.950256 0.393805 0.000000
1.000000 0.407660 0.000000
0.000000 0.417792 0.142275
0.000000 0.425147 0.144442
0.158022 0.448646 0.180819
0.414496 0.495827 0.206455
0.674372 0.482338 0.193637
0.827085 0.463813 0.138796
0.943999 0.448402 0.000000
1.000000 0.451240 0.000000
0.000000 0.546929 0.175051
0.000000 0.553155 0.175479
0.000000 0.573602 0.197086
0.350225 0.605310 0.287602
0.637842 0.652735 0.284947
0.825589 0.597620 0.289311
0.940459 0.563592 0.248783
1.000000 0.531548 0.187472
0.000000 0.688777 0.207034
0.000000 0.693263 0.206149
0.000000 0.707393 0.223453
0.311315 0.726406 0.317845
0.521263 0.760678 0.394232
0.832761 0.790097 0.411048
0.942992 0.706905 0.417639
1.000000 0.664088 0.378149
0.000000 0.830381 0.233921
0.000000 0.833494 0.231235
0.000000 0.842954 0.243961
0.255772 0.853300 0.345281
0.595239 0.860288 0.525689
0.746578 0.889281 0.544640
0.957031 0.881987 0.571344
1.000000 0.809842 0.560967
0.000000 0.108980 0.112825
0.119692 0.094423 0.103395
0.293248 0.147005 0.080873
0.499794 0.207858 0.000000
0.698573 0.267430 0.000000
0.840848 0.310430 0.000000
0.953277 0.343542 0.000000
1.000000 0.365179 0.000000
0.000000 0.150790 0.126375
0.107118 0.135012 0.118746
0.283696 0.164187 0.101930
0.496071 0.218265 0.009155
0.696407 0.275059 0.000000
0.839811 0.316411 0.000000
0.953002 0.348882 0.000000
1.000000 0.369482 0.000000
0.000000 0.202823 0.117006
0.082124 0.211978 0.125490
0.267185 0.225711 0.140841
0.483070 0.254215 0.100710
0.688563 0.303166 0.000000
0.835935 0.338079 0.000000
0.951629 0.364569 0.000000
1.000000 0.384527 0.000000
0.000000 0.303746 0.131624
0.000000 0.313176 0.141451
0.211063 0.340459 0.186313
0.469642 0.353826 0.174136
0.676417 0.363500 0.121035
0.828244 0.380743 0.000000
0.948241 0.398779 0.000000
1.000000 0.409796 0.000000
0.000000 0.421302 0.160647
0.000000 0.428382 0.164157
0.155734 0.451270 0.196292
0.401373 0.496254 0.235386
0.667109 0.486427 0.228244
0.822019 0.469276 0.184451
0.941650 0.456489 0.116487
1.000000 0.457740 0.000000
0.000000 0.548913 0.189822
0.000000 0.554955 0.191470
0.000000 0.574792 0.214023
0.356847 0.604089 0.308049
0.628321 0.652705 0.309178
0.821134 0.602869 0.315862
0.937530 0.570520 0.278843
1.000000 0.538872 0.223606
0.000000 0.689448 0.219303
0.000000 0.693812 0.219059
0.000000 0.707759 0.236362
0.301061 0.727077 0.320287
0.526543 0.759182 0.410559
0.826078 0.790280 0.429480
0.940154 0.712581 0.437201
1.000000 0.671168 0.399023
0.000000 0.830289 0.244358
0.000000 0.833433 0.241154
0.000000 0.842893 0.252445
0.245121 0.853330 0.348821
0.598932 0.858885 0.534813
0.742245 0.889006 0.554009
0.955444 0.884977 0.580926
1.000000 0.813840 0.571862
0.000000 0.199619 0.225101
0.000000 0.170932 0.214389
0.252964 0.142580 0.187289
0.473304 0.224399 0.165255
0.679042 0.279911 0.128023
0.828214 0.325383 0.064546
0.948241 0.352941 0.000000
1.000000 0.369390 0.000000
0.000000 0.233738 0.232334
0.000000 0.216403 0.226139
0.245884 0.175326 0.196201
0.466163 0.240421 0.179568
0.674891 0.292119 0.146487
0.826902 0.333349 0.087648
0.947723 0.359075 0.000000
1.000000 0.373754 0.000000
0.000000 0.304326 0.253544
0.000000 0.292332 0.246006
0.226200 0.249393 0.224735
0.449256 0.283513 0.214328
0.665003 0.327214 0.186648
0.822629 0.360571 0.140200
0.945617 0.381933 0.000000
1.000000 0.390845 0.000000
0.000000 0.337713 0.228611
0.000000 0.337926 0.225162
0.200778 0.346807 0.230472
0.434607 0.367559 0.262699
0.649958 0.381537 0.238193
0.814298 0.408545 0.207126
0.941222 0.424628 0.147829
1.000000 0.426398 0.000000
0.000000 0.443275 0.237797
0.000000 0.445258 0.232425
0.152865 0.456764 0.241794
0.362402 0.494942 0.307256
0.642206 0.500298 0.313481
0.805173 0.489052 0.286351
0.933532 0.487251 0.250767
1.000000 0.485054 0.177646
0.000000 0.560937 0.247105
0.000000 0.561669 0.238651
0.000000 0.578027 0.257664
0.340459 0.604852 0.333806
0.593988 0.651514 0.375402
0.805539 0.620020 0.389960
0.927520 0.594110 0.361639
1.000000 0.564721 0.316838
0.000000 0.690425 0.253696
0.000000 0.694911 0.254948
0.000000 0.708492 0.272374
0.286839 0.727291 0.344579
0.542229 0.753506 0.458625
0.802792 0.790402 0.481483
0.930755 0.730159 0.493660
1.000000 0.694362 0.460945
0.000000 0.829770 0.276188
0.000000 0.832761 0.272007
0.000000 0.842588 0.277348
0.191196 0.853574 0.357366
0.576043 0.859098 0.532067
0.725429 0.887846 0.581903
0.950195 0.894774 0.609979
1.000000 0.826596 0.605432
0.000000 0.336370 0.384222
0.000000 0.323857 0.378546
0.162203 0.193576 0.334997
0.415137 0.204044 0.291478
0.648280 0.327123 0.281865
0.811612 0.370581 0.262089
0.937957 0.401770 0.231907
1.000000 0.403754 0.125490
0.000000 0.363958 0.387213
0.000000 0.347539 0.382147
0.154299 0.232792 0.344701
0.410773 0.229648 0.297734
0.643946 0.339452 0.290806
0.809079 0.381201 0.272709
0.936858 0.410163 0.242588
1.000000 0.409003 0.136019
0.000000 0.424384 0.402167
0.000000 0.412085 0.396124
0.181125 0.365576 0.375097
0.396918 0.298405 0.318791
0.630274 0.377050 0.318212
0.801114 0.415137 0.305486
0.933471 0.437598 0.274510
1.000000 0.431250 0.179446
0.000000 0.505791 0.422309
0.000000 0.496956 0.416236
0.099245 0.462074 0.394934
0.372839 0.389593 0.354955
0.609888 0.430274 0.356664
0.790280 0.463752 0.348150
0.928099 0.481819 0.321386
1.000000 0.475196 0.250736
0.000000 0.534569 0.387579
0.000000 0.527459 0.380774
0.073487 0.498421 0.357885
0.349615 0.493568 0.360723
0.596765 0.520287 0.409430
0.776333 0.523552 0.397894
0.919463 0.542260 0.383124
1.000000 0.538201 0.335882
0.000000 0.604700 0.369451
0.000000 0.605493 0.365637
0.000000 0.604669 0.354498
0.312016 0.606989 0.368261
0.528466 0.645716 0.453651
0.778012 0.644984 0.480293
0.910857 0.631128 0.462531
1.000000 0.616083 0.430121
0.000000 0.722713 0.373083
0.000000 0.722744 0.366369
0.000000 0.720211 0.346044
0.237064 0.726955 0.372625
0.541405 0.745205 0.502007
0.761257 0.788540 0.543725
0.916014 0.754208 0.563378
1.000000 0.726528 0.537346
0.000000 0.844022 0.368597
0.000000 0.844999 0.361334
0.000000 0.843137 0.322820
0.000000 0.853819 0.363134
0.510460 0.861509 0.510765
0.721462 0.882414 0.620508
0.936461 0.906096 0.649287
1.000000 0.845121 0.651453
0.000000 0.486915 0.556146
0.000000 0.479225 0.552697
0.000000 0.392584 0.518975
0.363378 0.259831 0.450568
0.581018 0.279759 0.402258
0.779599 0.452522 0.417334
0.917449 0.498817 0.417517
1.000000 0.516411 0.394903
0.000000 0.508202 0.556786
0.000000 0.495277 0.553796
0.000000 0.425910 0.527733
0.358862 0.286107 0.458808
0.577813 0.299840 0.407172
0.776944 0.465095 0.425360
0.916197 0.506188 0.423774
1.000000 0.521416 0.399176
0.000000 0.554223 0.562615
0.000000 0.544274 0.559136
0.000000 0.507439 0.546715
0.337499 0.364904 0.486275
0.567376 0.359533 0.423926
0.768795 0.492622 0.444739
0.912413 0.529992 0.443458
1.000000 0.536828 0.411383
0.000000 0.624140 0.574640
0.000000 0.616785 0.571160
0.000000 0.587854 0.557458
0.369665 0.528557 0.528435
0.549645 0.442481 0.452308
0.756649 0.533562 0.473365
0.907805 0.564416 0.469978
1.000000 0.555749 0.421149
0.000000 0.697169 0.582757
0.000000 0.692012 0.579370
0.000000 0.670222 0.566766
0.317723 0.621851 0.540581
0.524743 0.534417 0.489631
0.743557 0.580072 0.504082
0.902159 0.607996 0.502159
1.000000 0.605921 0.467536
0.000000 0.723110 0.543725
0.000000 0.718959 0.539727
0.000000 0.701198 0.526238
0.282048 0.660121 0.500999
0.502556 0.635889 0.493996
0.738064 0.665705 0.557153
0.890257 0.666590 0.550256
1.000000 0.673640 0.533959
0.000000 0.771603 0.509728
0.000000 0.768276 0.503960
0.000000 0.765499 0.492470
0.149203 0.756161 0.478340
0.463600 0.745052 0.494972
0.692317 0.780575 0.597803
0.896757 0.778225 0.629145
0.999298 0.759152 0.609247
0.000000 0.873533 0.499550
0.000000 0.874388 0.494209
0.000000 0.875059 0.472480
0.000000 0.868406 0.440284
0.377996 0.863706 0.482216
0.716091 0.871672 0.653376
0.898924 0.906462 0.690761
1.000000 0.866209 0.700923
0.000000 0.605707 0.695521
0.000000 0.604822 0.693690
0.000000 0.558679 0.681941
0.238224 0.418128 0.639033
0.543694 0.341558 0.567193
0.724514 0.384314 0.510979
0.890105 0.558404 0.540917
0.997925 0.652369 0.582361
0.000000 0.625299 0.694972
0.000000 0.616327 0.693996
0.000000 0.580194 0.686336
0.269810 0.454078 0.642512
0.541650 0.359899 0.570336
0.722408 0.399176 0.515129
0.888548 0.570336 0.547967
0.997650 0.655726 0.584802
0.000000 0.660517 0.696712
0.000000 0.653407 0.695644
0.000000 0.628656 0.690639
0.338293 0.553429 0.656947
0.534051 0.421668 0.585046
0.715358 0.446143 0.529351
0.883604 0.608850 0.571038
0.997040 0.666468 0.592218
0.000000 0.715694 0.701259
0.000000 0.710201 0.699916
0.000000 0.690730 0.694270
0.343511 0.656031 0.681056
0.523644 0.525444 0.618067
0.703639 0.514000 0.552697
0.877867 0.652155 0.597772
0.997284 0.681453 0.600916
0.000000 0.783322 0.707851
0.000000 0.779477 0.706477
0.000000 0.763912 0.700771
0.276524 0.731960 0.687984
0.560418 0.679408 0.662531
0.688624 0.588006 0.581323
0.874418 0.680720 0.615076
0.999237 0.698817 0.608057
0.000000 0.845609 0.706874
0.000000 0.843229 0.705562
0.000000 0.832273 0.700649
0.149386 0.806119 0.690486
0.506615 0.759426 0.669978
0.666835 0.669703 0.615473
0.868193 0.718074 0.637446
0.997650 0.732845 0.629572
0.000000 0.876188 0.672328
0.000000 0.874632 0.670130
0.000000 0.866850 0.663172
0.000000 0.845640 0.652064
0.447120 0.801144 0.631556
0.646418 0.765957 0.619257
0.866880 0.798306 0.689876
0.987732 0.791257 0.678462
0.000000 0.927398 0.647852
0.000000 0.926329 0.642908
0.000000 0.921965 0.624445
0.000000 0.908415 0.599390
0.264347 0.893309 0.585718
0.603693 0.873259 0.614740
0.837613 0.901823 0.729183
0.991028 0.889647 0.753628
0.000000 0.694575 0.807248
0.000000 0.700130 0.805814
0.000000 0.681209 0.804807
0.281010 0.626947 0.780880
0.485756 0.499886 0.743099
0.715908 0.465888 0.684108
0.850492 0.520287 0.623804
0.981659 0.676387 0.660578
0.000000 0.707424 0.806760
0.000000 0.712276 0.805386
0.000000 0.691768 0.805020
0.289860 0.643641 0.783627
0.488136 0.518120 0.745968
0.713985 0.479133 0.685969
0.849271 0.529473 0.626825
0.980957 0.683467 0.664729
0.000000 0.741360 0.806332
0.000000 0.740200 0.805753
0.000000 0.723201 0.805020
0.307622 0.695949 0.793271
0.507713 0.582177 0.755306
0.707362 0.520775 0.692317
0.845243 0.559258 0.637110
0.978882 0.707210 0.678584
0.000000 0.786496 0.807279
0.000000 0.785550 0.806729
0.000000 0.771206 0.805905
0.272068 0.755367 0.801144
0.586847 0.702541 0.769497
0.695766 0.580591 0.703426
0.838956 0.603815 0.653468
0.976165 0.745327 0.701045
0.000000 0.841855 0.809262
0.000000 0.843229 0.808408
0.000000 0.832059 0.807523
0.000000 0.812894 0.803891
0.573602 0.791501 0.794766
0.689143 0.677333 0.738003
0.830686 0.657435 0.674556
0.973938 0.790188 0.727871
0.000000 0.904234 0.812192
0.000000 0.906523 0.811215
0.000000 0.900481 0.809934
0.000000 0.882963 0.806607
0.490944 0.854765 0.799252
0.725734 0.814939 0.782650
0.818570 0.721370 0.701015
0.975311 0.810605 0.738949
0.000000 0.963165 0.810758
0.000000 0.962493 0.807645
0.000000 0.959594 0.803098
0.000000 0.947845 0.801144
0.393591 0.920684 0.797147
0.670253 0.880278 0.785031
0.798917 0.795315 0.732357
0.974823 0.839628 0.754635
0.000000 0.993378 0.784207
0.000000 0.993042 0.781369
0.000000 0.991699 0.771023
0.000000 0.987182 0.758450
0.000000 0.966186 0.753292
0.586236 0.923644 0.746273
0.778500 0.888273 0.735103
0.974182 0.912657 0.806271
0.000000 0.753658 0.891325
0.000000 0.757900 0.890623
0.000000 0.758663 0.889738
0.247257 0.748867 0.881224
0.581842 0.715877 0.862333
0.709041 0.638697 0.832212
0.872862 0.616968 0.794705
0.962036 0.666621 0.736843
0.000000 0.761074 0.891112
0.000000 0.765072 0.890410
0.000000 0.765438 0.889647
0.244785 0.758114 0.882261
0.595026 0.730739 0.863066
0.709499 0.649348 0.833951
0.871183 0.624170 0.795743
0.961547 0.671473 0.738705
0.000000 0.782193 0.890929
0.000000 0.785763 0.890288
0.000000 0.787900 0.889250
0.203311 0.787625 0.886107
0.630640 0.775540 0.866300
0.711177 0.683925 0.840116
0.865232 0.647761 0.799435
0.959838 0.687648 0.745083
0.000000 0.810422 0.891600
0.000000 0.813687 0.890990
0.000000 0.825223 0.888762
0.000000 0.816098 0.887755
0.618555 0.820127 0.876219
0.714351 0.736965 0.851316
0.854826 0.684199 0.806180
0.957275 0.713558 0.755642
0.000000 0.858732 0.891478
0.000000 0.860258 0.891081
0.000000 0.865141 0.889708
0.000000 0.855650 0.889403
0.524651 0.859373 0.884276
0.764004 0.831571 0.864378
0.839719 0.729976 0.816342
0.953643 0.748531 0.770352
0.000000 0.915984 0.891508
0.000000 0.917418 0.891142
0.000000 0.922148 0.889921
0.000000 0.922026 0.888731
0.200961 0.902800 0.886961
0.736172 0.897337 0.881895
0.833890 0.813962 0.844663
0.948455 0.792599 0.789487
0.000000 0.977630 0.892149
0.000000 0.979034 0.891814
0.000000 0.983795 0.890745
0.000000 0.992248 0.888670
0.000000 0.974426 0.887541
0.624872 0.947417 0.883665
0.865568 0.925841 0.878752
0.940063 0.846677 0.813413
0.000000 1.000000 0.893645
0.000000 1.000000 0.893370
0.000000 1.000000 0.892393
0.000000 1.000000 0.884611
0.000000 1.000000 0.877958
0.495796 1.000000 0.878813
0.802090 0.976318 0.877287
0.923430 0.913725 0.842527
