其他预设/【213】赛博朋克科幻预设52款/1.LUT预设（视频调色-PR-AE-PS-FCPX-达芬奇用）/赛博朋克科幻__-8 强度3.cube
# Created by Adobe Lightroom plugin Export LUT (1.17.0)
# www.johnrellis.com/lightroom/exportlut.htm
# Preset: 赛博朋克科幻[素锦印象]-8 强度3
# Color profile: /Library/Application Support/Adobe/Color/Profiles/Recommended/AdobeRGB1998.icc
LUT_3D_SIZE 8
DOMAIN_MIN 0.000000 0.000000 0.000000
DOMAIN_MAX 0.903226 0.903226 0.903226
0.000000 0.047822 0.000000
0.082765 0.058412 0.061799
0.168338 0.045563 0.122896
0.300084 0.000000 0.211398
0.467262 0.000000 0.318944
0.627985 0.000000 0.414435
0.771542 0.000000 0.495155
0.897887 0.000000 0.571221
0.000000 0.119661 0.069978
0.062226 0.113039 0.033814
0.159731 0.085084 0.114870
0.298436 0.000000 0.213321
0.467842 0.000000 0.322515
0.628626 0.000000 0.417060
0.772122 0.000000 0.497047
0.898314 0.000000 0.572412
0.000000 0.227115 0.141360
0.000000 0.227481 0.135592
0.117342 0.223270 0.062470
0.293248 0.083680 0.123903
0.422217 0.123751 0.280064
0.606592 0.000000 0.401373
0.769833 0.000000 0.499916
0.899779 0.000000 0.576593
0.000000 0.359899 0.230289
0.000000 0.362676 0.227481
0.000000 0.378424 0.197665
0.199313 0.381598 0.077272
0.452003 0.213779 0.143832
0.590356 0.140352 0.313451
0.718379 0.271183 0.470497
0.875578 0.314549 0.582208
0.000000 0.504570 0.324956
0.000000 0.505394 0.323583
0.000000 0.524376 0.313725
0.000000 0.549584 0.250950
0.298466 0.554467 0.107240
0.604273 0.410468 0.172030
0.752316 0.207370 0.327489
0.866850 0.401556 0.536858
0.000000 0.650690 0.418677
0.000000 0.649042 0.418555
0.000000 0.659846 0.410590
0.000000 0.682795 0.390143
0.000000 0.708339 0.304692
0.403815 0.708461 0.182834
0.747219 0.598932 0.227848
0.896208 0.403204 0.410620
0.000000 0.797116 0.509422
0.000000 0.796414 0.509667
0.000000 0.797452 0.506493
0.000000 0.808957 0.493111
0.000000 0.825528 0.460487
0.147219 0.845975 0.391424
0.521538 0.839963 0.304692
0.883482 0.765743 0.331365
0.000000 0.940826 0.596979
0.000000 0.940734 0.597467
0.000000 0.940459 0.599176
0.000000 0.942382 0.593164
0.000000 0.943938 0.597833
0.226383 0.951690 0.563867
0.415564 0.959960 0.534051
0.667933 0.951659 0.473671
0.000000 0.048005 0.083375
0.091188 0.041413 0.094697
0.183474 0.005554 0.155276
0.321965 0.000000 0.249668
0.489296 0.000000 0.351995
0.642695 0.000000 0.437110
0.780362 0.000000 0.509636
0.902281 0.000000 0.579553
0.000000 0.112306 0.090517
0.078523 0.111788 0.089509
0.169467 0.101595 0.143008
0.310399 0.000000 0.237705
0.487831 0.000000 0.352544
0.643122 0.000000 0.439246
0.780850 0.000000 0.511254
0.902678 0.000000 0.580652
0.000000 0.221042 0.153170
0.000000 0.222599 0.149630
0.126955 0.222629 0.104463
0.287938 0.141726 0.171603
0.432624 0.149905 0.303380
0.615930 0.000000 0.418067
0.775570 0.000000 0.511467
0.904021 0.000000 0.584527
0.000000 0.353338 0.237034
0.000000 0.358434 0.235019
0.000000 0.376379 0.216922
0.206332 0.381262 0.120546
0.451209 0.218723 0.176242
0.587060 0.197421 0.340246
0.720729 0.296880 0.485878
0.879454 0.322484 0.590295
0.000000 0.496620 0.329839
0.000000 0.501518 0.328252
0.000000 0.520348 0.320775
0.000000 0.547509 0.269596
0.304723 0.554162 0.148226
0.605280 0.401923 0.205051
0.749416 0.253025 0.357000
0.864286 0.428779 0.553124
0.000000 0.644739 0.423407
0.000000 0.644800 0.422644
0.000000 0.656977 0.415229
0.000000 0.680690 0.400732
0.000000 0.706752 0.322881
0.410224 0.707942 0.213687
0.747677 0.594507 0.257420
0.894713 0.418647 0.429328
0.000000 0.794339 0.514031
0.000000 0.793668 0.514275
0.000000 0.795743 0.510216
0.000000 0.807187 0.497688
0.000000 0.823972 0.470375
0.182681 0.844663 0.407050
0.528008 0.839322 0.325963
0.883574 0.763058 0.354253
0.000000 0.940185 0.600793
0.000000 0.940124 0.601282
0.000000 0.939849 0.602960
0.000000 0.941863 0.596765
0.000000 0.943389 0.601465
0.247471 0.950713 0.571954
0.427710 0.959106 0.543511
0.673274 0.951019 0.485481
0.020020 0.041169 0.163943
0.104311 0.020417 0.173007
0.206394 0.000000 0.220523
0.378576 0.000000 0.334813
0.541588 0.000000 0.425879
0.681483 0.000000 0.495399
0.805356 0.000000 0.549737
0.915709 0.000000 0.604120
0.000000 0.128206 0.161318
0.080323 0.110353 0.172091
0.195560 0.090852 0.211643
0.362310 0.000000 0.319310
0.532067 0.000000 0.417914
0.680690 0.000000 0.496162
0.805722 0.000000 0.551110
0.916014 0.000000 0.605066
0.000000 0.204440 0.174624
0.000000 0.208011 0.177584
0.158694 0.220615 0.187564
0.303960 0.214664 0.269078
0.482582 0.173007 0.376013
0.648829 0.004303 0.470680
0.796323 0.000000 0.548180
0.917235 0.000000 0.608576
0.000000 0.341100 0.255894
0.000000 0.346166 0.256687
0.000000 0.364904 0.258061
0.231724 0.380041 0.211521
0.445136 0.262882 0.273198
0.575311 0.320684 0.418341
0.746883 0.327642 0.528222
0.893614 0.336156 0.615564
0.000000 0.483986 0.342657
0.000000 0.488685 0.342657
0.000000 0.507134 0.342290
0.000000 0.540398 0.326635
0.327611 0.552667 0.242832
0.607782 0.377813 0.294652
0.739162 0.367651 0.442481
0.856352 0.504662 0.601984
0.000000 0.631891 0.435615
0.000000 0.634882 0.434485
0.000000 0.646815 0.430457
0.000000 0.671138 0.424903
0.107057 0.700771 0.378332
0.432654 0.706050 0.297368
0.749142 0.580163 0.341802
0.889860 0.467567 0.486885
0.000000 0.786160 0.528191
0.000000 0.785122 0.528588
0.000000 0.789731 0.522911
0.000000 0.801175 0.512963
0.000000 0.818357 0.502678
0.267063 0.839963 0.455207
0.550408 0.837034 0.390021
0.884031 0.754269 0.423377
0.000000 0.938231 0.613916
0.000000 0.938354 0.614038
0.000000 0.938109 0.615625
0.000000 0.940215 0.608972
0.000000 0.941863 0.611719
0.304234 0.947417 0.597803
0.464668 0.956237 0.573083
0.690883 0.949065 0.522210
0.047822 0.022644 0.285008
0.124788 0.000000 0.297490
0.239780 0.000000 0.328130
0.400427 0.000000 0.416083
0.603113 0.000000 0.524254
0.733333 0.000000 0.570825
0.840757 0.000000 0.605859
0.936187 0.000000 0.641382
0.000000 0.110536 0.281041
0.084627 0.104341 0.293034
0.232883 0.063966 0.328923
0.391333 0.000000 0.408576
0.597742 0.000000 0.520195
0.732479 0.000000 0.572351
0.841245 0.000000 0.607691
0.936339 0.000000 0.641779
0.000000 0.230594 0.258732
0.000000 0.233616 0.267277
0.161654 0.218967 0.309667
0.356573 0.208621 0.382086
0.565484 0.175021 0.495308
0.704097 0.084627 0.554162
0.832181 0.000000 0.606104
0.937163 0.000000 0.644282
0.000000 0.314519 0.275181
0.000000 0.319402 0.279545
0.000000 0.337743 0.295720
0.282139 0.376104 0.328893
0.466194 0.382696 0.425513
0.638422 0.377203 0.517113
0.790585 0.360998 0.593713
0.919341 0.321202 0.652583
0.000000 0.460365 0.361578
0.000000 0.465095 0.363561
0.000000 0.483589 0.371069
0.137545 0.520256 0.387121
0.371527 0.549218 0.359777
0.599145 0.429084 0.413367
0.721767 0.504112 0.552361
0.869596 0.560723 0.657679
0.000000 0.613306 0.452949
0.000000 0.616419 0.452949
0.000000 0.628534 0.453223
0.000000 0.652949 0.456153
0.254826 0.688838 0.456489
0.473518 0.702266 0.405341
0.750912 0.561913 0.453132
0.878630 0.561822 0.581506
0.000000 0.772152 0.550011
0.000000 0.773098 0.548943
0.000000 0.778836 0.544152
0.000000 0.790433 0.537072
0.076722 0.807889 0.542657
0.360174 0.831296 0.521721
0.587366 0.833158 0.475959
0.885863 0.739590 0.512993
0.000000 0.933684 0.638178
0.000000 0.933898 0.638270
0.000000 0.934813 0.638087
0.000000 0.938109 0.630121
0.000000 0.940032 0.628412
0.369940 0.942077 0.636225
0.515282 0.951659 0.615412
0.717983 0.946044 0.573907
0.065431 0.000000 0.430335
0.143130 0.000000 0.442725
0.289616 0.000000 0.484749
0.417975 0.000000 0.513329
0.612390 0.000000 0.601282
0.771237 0.000000 0.654078
0.883848 0.000000 0.678737
0.962860 0.000000 0.694057
0.000000 0.099062 0.423987
0.091188 0.087709 0.436286
0.267552 0.000000 0.478492
0.412970 0.000000 0.513298
0.607355 0.000000 0.598444
0.769253 0.000000 0.654841
0.884245 0.000000 0.680385
0.963012 0.000000 0.694484
0.000000 0.263859 0.385412
0.000000 0.253819 0.401953
0.167330 0.214176 0.450111
0.390936 0.198276 0.509300
0.584802 0.116182 0.583856
0.757046 0.000000 0.648524
0.878355 0.000000 0.681117
0.963409 0.000000 0.695369
0.000000 0.337896 0.359747
0.000000 0.342382 0.367163
0.000000 0.358221 0.393713
0.290288 0.376287 0.466499
0.532647 0.399268 0.551049
0.723720 0.428168 0.637201
0.846403 0.378882 0.674434
0.955962 0.176699 0.695735
0.000000 0.425055 0.376257
0.000000 0.429358 0.380133
0.000000 0.446021 0.395026
0.148135 0.481270 0.426398
0.433906 0.542992 0.482673
0.621393 0.562188 0.574975
0.783017 0.568536 0.651331
0.914733 0.555566 0.707668
0.000000 0.582727 0.471687
0.000000 0.585931 0.473121
0.000000 0.598352 0.478553
0.000000 0.623651 0.490211
0.284855 0.664668 0.515099
0.527703 0.696712 0.514946
0.745235 0.598474 0.562615
0.864958 0.664485 0.680415
0.000000 0.753872 0.574640
0.000000 0.755306 0.573999
0.000000 0.760891 0.571740
0.000000 0.772580 0.568566
0.000000 0.792020 0.569909
0.439826 0.817868 0.589837
0.631800 0.828397 0.561456
0.890623 0.718868 0.602319
0.000000 0.926543 0.671901
0.000000 0.926787 0.672053
0.000000 0.927947 0.671962
0.000000 0.933227 0.662593
0.000000 0.938811 0.652644
0.400092 0.936004 0.675166
0.568109 0.945525 0.663172
0.751522 0.942351 0.631586
0.081361 0.000000 0.578668
0.158999 0.000000 0.587762
0.305577 0.000000 0.617365
0.473213 0.000000 0.655970
0.598383 0.000000 0.670161
0.780087 0.000000 0.728023
0.904051 0.000000 0.748714
0.991516 0.000000 0.757534
0.000000 0.069612 0.573022
0.102937 0.031189 0.582208
0.282017 0.000000 0.612665
0.466407 0.000000 0.655848
0.595758 0.000000 0.670588
0.778439 0.000000 0.728756
0.903471 0.000000 0.749630
0.991699 0.000000 0.758053
0.000000 0.236973 0.545373
0.000000 0.210544 0.556634
0.177340 0.204898 0.590997
0.421271 0.183352 0.643549
0.582910 0.077333 0.668818
0.767819 0.000000 0.723873
0.900237 0.000000 0.751431
0.992309 0.000000 0.759457
0.000000 0.385077 0.488777
0.000000 0.386114 0.494942
0.000000 0.387060 0.526024
0.301823 0.374578 0.600946
0.556695 0.401465 0.659113
0.741085 0.392187 0.711788
0.885893 0.374060 0.753048
0.989532 0.000000 0.760830
0.000000 0.450538 0.464363
0.000000 0.454353 0.469978
0.000000 0.468177 0.490150
0.114443 0.494575 0.526818
0.448524 0.544793 0.609766
0.694423 0.591333 0.687617
0.863279 0.618799 0.755032
0.961303 0.528710 0.767269
0.000000 0.546868 0.487770
0.000000 0.549371 0.489998
0.000000 0.559075 0.498665
0.000000 0.579889 0.517205
0.262028 0.618219 0.551690
0.591119 0.689540 0.620294
0.775967 0.711727 0.704616
0.914397 0.711879 0.761959
0.000000 0.726192 0.600458
0.000000 0.727535 0.600610
0.000000 0.732662 0.601282
0.000000 0.743557 0.603204
0.000000 0.762661 0.608331
0.433936 0.792721 0.634699
0.685359 0.822263 0.649470
0.890196 0.739559 0.692927
0.000000 0.916106 0.713069
0.000000 0.916411 0.713344
0.000000 0.918761 0.711086
0.000000 0.923888 0.705013
0.000000 0.930694 0.696071
0.236484 0.934386 0.695094
0.622370 0.935821 0.716915
0.792874 0.937591 0.696468
0.103243 0.000000 0.712978
0.174319 0.000000 0.718502
0.315465 0.000000 0.736904
0.483925 0.000000 0.765408
0.629175 0.000000 0.782681
0.762722 0.000000 0.791592
0.913207 0.000000 0.818631
1.000000 0.000000 0.817350
0.000000 0.000000 0.709071
0.121340 0.000000 0.714809
0.291936 0.000000 0.733791
0.471077 0.000000 0.763424
0.627588 0.000000 0.783444
0.761257 0.000000 0.792355
0.912627 0.000000 0.819455
1.000000 0.000000 0.817868
0.000000 0.204501 0.691493
0.000000 0.201511 0.698024
0.190890 0.188907 0.719570
0.420661 0.150820 0.752895
0.614527 0.000000 0.782559
0.754482 0.000000 0.793027
0.910582 0.000000 0.822080
1.000000 0.000000 0.819577
0.000000 0.416480 0.637324
0.000000 0.410407 0.646937
0.000000 0.375402 0.679774
0.315129 0.368902 0.724453
0.585534 0.398108 0.772000
0.740658 0.352117 0.788632
0.898314 0.281376 0.819089
1.000000 0.000000 0.821897
0.000000 0.506706 0.605585
0.000000 0.506767 0.608942
0.000000 0.507591 0.621271
0.000000 0.512383 0.645808
0.464393 0.543786 0.728115
0.720912 0.591028 0.778592
0.877226 0.581567 0.813199
0.986908 0.501488 0.829221
0.000000 0.577111 0.583093
0.000000 0.578637 0.585931
0.000000 0.584192 0.596307
0.000000 0.595270 0.615839
0.230900 0.618952 0.648127
0.610986 0.692012 0.732845
0.846006 0.743099 0.800168
0.970397 0.742550 0.839475
0.000000 0.697047 0.625238
0.000000 0.697444 0.625605
0.000000 0.699153 0.627070
0.000000 0.703609 0.630854
0.000000 0.714443 0.640314
0.380529 0.741543 0.665553
0.748257 0.814267 0.740078
0.917266 0.833646 0.812741
0.000000 0.901976 0.757961
0.000000 0.902647 0.757748
0.000000 0.905089 0.756832
0.000000 0.909667 0.754788
0.000000 0.915557 0.750423
0.000000 0.920043 0.744808
0.588586 0.921752 0.754788
0.842344 0.931518 0.767727
0.117891 0.000000 0.832334
0.180575 0.000000 0.834867
0.310552 0.000000 0.843503
0.464485 0.000000 0.857450
0.639338 0.000000 0.874540
0.767575 0.000000 0.878996
0.904295 0.000000 0.883177
1.000000 0.000000 0.882231
0.000000 0.000000 0.830747
0.141360 0.000000 0.833585
0.298894 0.000000 0.843046
0.460792 0.000000 0.857664
0.635706 0.000000 0.874693
0.765652 0.000000 0.879423
0.902220 0.000000 0.883177
1.000000 0.000000 0.882841
0.000000 0.187076 0.822110
0.000000 0.181155 0.825254
0.203067 0.153628 0.835874
0.415290 0.000000 0.852720
0.613123 0.000000 0.872831
0.758083 0.000000 0.880888
0.896574 0.000000 0.884550
1.000000 0.000000 0.885069
0.000000 0.412329 0.796109
0.000000 0.391791 0.801175
0.000000 0.345830 0.816739
0.324010 0.351415 0.837644
0.565972 0.343481 0.861692
0.747829 0.255528 0.878355
0.885649 0.000000 0.885374
1.000000 0.000000 0.889036
0.000000 0.556817 0.757076
0.000000 0.554345 0.758663
0.000000 0.544488 0.766476
0.121706 0.532158 0.799252
0.475746 0.533867 0.837766
0.740841 0.570367 0.869139
0.873381 0.497932 0.878691
1.000000 0.362463 0.889494
0.000000 0.649622 0.746548
0.000000 0.648371 0.747860
0.000000 0.643885 0.752590
0.000000 0.636683 0.761624
0.091127 0.635920 0.776394
0.627832 0.688685 0.838193
0.863035 0.727382 0.871092
0.981720 0.694636 0.886687
0.000000 0.738705 0.736477
0.000000 0.738491 0.737453
0.000000 0.737575 0.740902
0.000000 0.736080 0.747494
0.000000 0.736202 0.758480
0.347967 0.748714 0.776608
0.771023 0.816281 0.841093
0.965789 0.855467 0.883940
0.000000 0.888487 0.800626
0.000000 0.888396 0.800504
0.000000 0.888029 0.800137
0.000000 0.887327 0.799344
0.000000 0.886046 0.797879
0.000000 0.883696 0.795529
0.499886 0.881193 0.795590
0.901762 0.923369 0.846983
