其他预设/【213】赛博朋克科幻预设52款/1.LUT预设（视频调色-PR-AE-PS-FCPX-达芬奇用）/赛博朋克科幻__-8 强度5.cube
# Created by Adobe Lightroom plugin Export LUT (1.17.0)
# www.johnrellis.com/lightroom/exportlut.htm
# Preset: 赛博朋克科幻[素锦印象]-8 强度5
# Color profile: /Library/Application Support/Adobe/Color/Profiles/Recommended/AdobeRGB1998.icc
LUT_3D_SIZE 5
DOMAIN_MIN 0.000000 0.000000 0.000000
DOMAIN_MAX 0.903226 0.903226 0.903226
0.000000 0.062501 0.000000
0.104891 0.083040 0.103914
0.376287 0.067475 0.345525
0.694087 0.237461 0.565637
0.898802 0.544396 0.707088
0.000000 0.171389 0.117128
0.018219 0.162875 0.071626
0.376776 0.037720 0.355596
0.700404 0.223941 0.574182
0.901488 0.541375 0.710048
0.000000 0.379950 0.278294
0.000000 0.362432 0.267552
0.000000 0.469184 0.185916
0.560418 0.456306 0.507286
0.911345 0.529839 0.721279
0.000000 0.653620 0.486885
0.000000 0.638483 0.478828
0.000000 0.662013 0.480598
0.249729 0.769009 0.408484
0.823148 0.690639 0.660121
0.000000 0.959533 0.718654
0.000000 0.956939 0.718898
0.000000 0.946807 0.719600
0.243992 0.943114 0.707332
0.644678 0.959228 0.666407
0.015808 0.064668 0.088167
0.144442 0.061219 0.168612
0.463050 0.000000 0.436774
0.737728 0.232212 0.605737
0.911894 0.548791 0.719234
0.000000 0.135439 0.108736
0.090639 0.162478 0.121065
0.440040 0.097963 0.426734
0.742519 0.217807 0.612970
0.914305 0.545800 0.721981
0.000000 0.344030 0.263188
0.000000 0.350072 0.266911
0.113588 0.468696 0.241428
0.609949 0.499763 0.553429
0.923247 0.534325 0.732540
0.000000 0.629786 0.479011
0.000000 0.611292 0.468757
0.000000 0.650538 0.480537
0.310216 0.766567 0.444068
0.819730 0.719539 0.678798
0.000000 0.957916 0.723110
0.000000 0.955261 0.723293
0.000000 0.945037 0.723964
0.225559 0.941619 0.709560
0.661555 0.957794 0.675532
0.097871 0.028138 0.269413
0.212100 0.000000 0.326757
0.586999 0.000000 0.583337
0.829465 0.239353 0.689601
0.946349 0.563653 0.751553
0.000000 0.198886 0.215885
0.141573 0.163333 0.315740
0.550347 0.000000 0.568292
0.835142 0.215732 0.699153
0.947631 0.561517 0.753231
0.000000 0.237125 0.205356
0.000000 0.267338 0.232456
0.294163 0.464088 0.377325
0.750240 0.594202 0.672175
0.953826 0.550896 0.761379
0.000000 0.545373 0.439185
0.000000 0.519982 0.422187
0.000000 0.605463 0.474159
0.443275 0.759457 0.528161
0.845426 0.791135 0.733333
0.000000 0.949889 0.738888
0.000000 0.948638 0.739101
0.000000 0.944305 0.739376
0.000000 0.938415 0.718257
0.709224 0.953918 0.701137
0.205295 0.000000 0.557580
0.358312 0.000000 0.609369
0.573907 0.000000 0.657923
0.890379 0.183902 0.771817
0.992004 0.573358 0.799008
0.000000 0.150820 0.515496
0.251926 0.123781 0.584741
0.565942 0.000000 0.666804
0.883970 0.132387 0.774441
0.993347 0.570886 0.800992
0.000000 0.313756 0.321630
0.000000 0.350256 0.366979
0.414679 0.512840 0.612909
0.841398 0.582971 0.762875
0.996796 0.564294 0.806210
0.000000 0.372045 0.333928
0.000000 0.379248 0.340459
0.000000 0.436042 0.390173
0.603418 0.747372 0.628016
0.961059 0.822538 0.808560
0.000000 0.908232 0.746578
0.000000 0.905272 0.745785
0.000000 0.898619 0.744381
0.000000 0.935607 0.746059
0.783810 0.947387 0.740719
0.288640 0.000000 0.779751
0.415564 0.000000 0.796994
0.678248 0.000000 0.824796
0.915801 0.252720 0.844602
1.000000 0.560204 0.844358
0.188846 0.000000 0.772274
0.367285 0.000000 0.794095
0.662745 0.000000 0.827085
0.901366 0.228275 0.843473
1.000000 0.556054 0.845975
0.000000 0.485206 0.594018
0.000000 0.472602 0.662531
0.528954 0.518517 0.797208
0.843381 0.188540 0.840482
1.000000 0.541466 0.851621
0.000000 0.496132 0.499794
0.000000 0.508019 0.516808
0.000000 0.552361 0.584680
0.753841 0.795041 0.799466
1.000000 0.750149 0.854887
0.000000 0.848173 0.768215
0.000000 0.841337 0.765469
0.000000 0.815976 0.754269
0.000000 0.799557 0.732113
0.904601 0.934051 0.804044
