其他预设/【213】赛博朋克科幻预设52款/1.LUT预设（视频调色-PR-AE-PS-FCPX-达芬奇用）/赛博朋克科幻__-2.cube
# Created by Adobe Lightroom plugin Export LUT (1.17.0)
# www.johnrellis.com/lightroom/exportlut.htm
# Preset: 赛博朋克科幻[素锦印象]-2
# Color profile: /Library/Application Support/Adobe/Color/Profiles/Recommended/AdobeRGB1998.icc
LUT_3D_SIZE 32
0.000000 0.085176 0.068605
0.000000 0.085176 0.068605
0.000000 0.085176 0.068605
0.000000 0.085115 0.070893
0.000000 0.085115 0.074098
0.000000 0.085298 0.077790
0.000000 0.085176 0.082887
0.000000 0.084901 0.089876
0.000000 0.084382 0.099489
0.000000 0.083467 0.112856
0.036896 0.080415 0.130495
0.086976 0.073396 0.152895
0.135805 0.052216 0.179690
0.193851 0.000000 0.207156
0.258701 0.000000 0.235630
0.329442 0.000000 0.265660
0.406683 0.000000 0.297093
0.490547 0.000000 0.329564
0.580591 0.000000 0.363256
0.675807 0.000000 0.398352
0.767788 0.000000 0.434150
0.851225 0.000000 0.469947
0.921630 0.000000 0.504906
0.977966 0.000000 0.539391
1.000000 0.000000 0.575555
1.000000 0.000000 0.609094
1.000000 0.000000 0.639216
1.000000 0.000000 0.666072
1.000000 0.000000 0.689570
1.000000 0.000000 0.709346
1.000000 0.000000 0.726192
1.000000 0.000000 0.740261
0.000000 0.085176 0.068605
0.000000 0.085176 0.068605
0.000000 0.085176 0.068605
0.000000 0.085115 0.070893
0.000000 0.085115 0.074098
0.000000 0.085298 0.077790
0.000000 0.085176 0.083192
0.000000 0.084901 0.089876
0.000000 0.084382 0.099489
0.000000 0.083467 0.112856
0.036896 0.080415 0.130495
0.087190 0.073396 0.152316
0.136873 0.052308 0.175753
0.194614 0.000000 0.202182
0.259159 0.000000 0.230777
0.329656 0.000000 0.260441
0.405951 0.000000 0.291905
0.489265 0.000000 0.324590
0.578912 0.000000 0.357733
0.674220 0.000000 0.393164
0.766140 0.000000 0.429114
0.849790 0.000000 0.465034
0.920439 0.000000 0.500572
0.977478 0.000000 0.535943
1.000000 0.000000 0.571862
1.000000 0.000000 0.605158
1.000000 0.000000 0.635920
1.000000 0.000000 0.663050
1.000000 0.000000 0.686763
1.000000 0.000000 0.706966
1.000000 0.000000 0.723964
1.000000 0.000000 0.738369
0.000000 0.086763 0.069215
0.000000 0.086763 0.069215
0.000000 0.086763 0.068818
0.000000 0.085451 0.068544
0.000000 0.085420 0.071931
0.000000 0.085298 0.076478
0.000000 0.085176 0.081971
0.000000 0.084901 0.089326
0.000000 0.084657 0.098238
0.000000 0.083406 0.110689
0.042542 0.080385 0.126864
0.090303 0.073213 0.146731
0.139223 0.051728 0.169924
0.196994 0.000000 0.195865
0.261143 0.000000 0.224002
0.331029 0.000000 0.254002
0.407630 0.000000 0.285161
0.490486 0.000000 0.317693
0.580133 0.000000 0.351843
0.674830 0.000000 0.387304
0.766812 0.000000 0.423285
0.850309 0.000000 0.459510
0.920897 0.000000 0.495491
0.978180 0.000000 0.531212
1.000000 0.000000 0.567376
1.000000 0.000000 0.601068
1.000000 0.000000 0.632013
1.000000 0.000000 0.659480
1.000000 0.000000 0.683528
1.000000 0.000000 0.704005
1.000000 0.000000 0.721492
1.000000 0.000000 0.736172
0.000000 0.094972 0.072755
0.000000 0.094972 0.072419
0.000000 0.094972 0.070253
0.000000 0.094911 0.067903
0.000000 0.091920 0.068238
0.000000 0.086915 0.068757
0.000000 0.085512 0.073671
0.000000 0.085206 0.081300
0.000000 0.084627 0.090364
0.008881 0.083589 0.101564
0.058015 0.080385 0.116793
0.097597 0.072480 0.135348
0.145846 0.048920 0.156832
0.202853 0.000000 0.181888
0.266636 0.000000 0.210147
0.336370 0.000000 0.239780
0.412238 0.000000 0.271122
0.494850 0.000000 0.303899
0.583795 0.000000 0.337926
0.677913 0.000000 0.373663
0.768917 0.000000 0.410742
0.852018 0.000000 0.447578
0.922393 0.000000 0.484230
0.980377 0.000000 0.521447
1.000000 0.000000 0.558556
1.000000 0.000000 0.592828
1.000000 0.000000 0.624598
1.000000 0.000000 0.652644
1.000000 0.000000 0.677302
1.000000 0.000000 0.698451
1.000000 0.000000 0.716213
1.000000 0.000000 0.731411
0.000000 0.106935 0.080873
0.000000 0.106691 0.079957
0.000000 0.106691 0.077974
0.000000 0.106203 0.071809
0.000000 0.105653 0.068116
0.000000 0.102510 0.067323
0.000000 0.097475 0.067933
0.000000 0.090517 0.068666
0.003540 0.084871 0.074617
0.027008 0.083406 0.085939
0.068849 0.080262 0.099367
0.107240 0.071809 0.115755
0.155276 0.045899 0.135500
0.212100 0.000000 0.159213
0.275303 0.000000 0.186465
0.344884 0.000000 0.216953
0.421027 0.000000 0.248569
0.503471 0.000000 0.282109
0.592493 0.000000 0.316991
0.685420 0.000000 0.353429
0.775570 0.000000 0.391058
0.857450 0.000000 0.429084
0.926635 0.000000 0.466926
0.984619 0.000000 0.506188
1.000000 0.000000 0.544152
1.000000 0.000000 0.579492
1.000000 0.000000 0.612177
1.000000 0.000000 0.641627
1.000000 0.000000 0.667170
1.000000 0.000000 0.689082
1.000000 0.000000 0.707729
1.000000 0.000000 0.723629
0.000000 0.126040 0.092409
0.000000 0.125856 0.090791
0.000000 0.125216 0.088930
0.000000 0.124636 0.083436
0.000000 0.123384 0.071656
0.000000 0.122896 0.069093
0.000000 0.118410 0.067781
0.000000 0.114107 0.066407
0.000000 0.108064 0.066712
0.040681 0.097627 0.067720
0.082155 0.079652 0.070802
0.120150 0.069978 0.087556
0.167880 0.035370 0.105196
0.224857 0.000000 0.126894
0.288060 0.000000 0.152804
0.357641 0.000000 0.182712
0.433570 0.000000 0.215335
0.516075 0.000000 0.250462
0.604913 0.000000 0.286107
0.697230 0.000000 0.324102
0.786007 0.000000 0.362951
0.866484 0.000000 0.402655
0.948425 0.000000 0.450141
1.000000 0.000000 0.492561
1.000000 0.000000 0.532097
1.000000 0.000000 0.568627
1.000000 0.000000 0.601923
1.000000 0.000000 0.631556
1.000000 0.000000 0.657099
1.000000 0.000000 0.679286
1.000000 0.000000 0.698116
1.000000 0.000000 0.714290
0.000000 0.156069 0.112459
0.000000 0.155428 0.110384
0.000000 0.154971 0.107362
0.000000 0.153689 0.100984
0.000000 0.151919 0.087892
0.000000 0.149630 0.068940
0.000000 0.148928 0.068238
0.000000 0.143496 0.068025
0.000000 0.139040 0.066712
0.034150 0.133120 0.065766
0.086671 0.123354 0.064881
0.132998 0.103304 0.064973
0.186313 0.054505 0.065766
0.245060 0.000000 0.081392
0.308904 0.000000 0.106081
0.378515 0.000000 0.135286
0.454841 0.000000 0.168490
0.537438 0.000000 0.205417
0.626581 0.000000 0.243992
0.717739 0.000000 0.284459
0.805325 0.000000 0.325933
0.883879 0.000000 0.368719
0.953948 0.000000 0.413977
1.000000 0.000000 0.459388
1.000000 0.000000 0.502403
1.000000 0.000000 0.542351
1.000000 0.000000 0.578088
1.000000 0.000000 0.609888
1.000000 0.000000 0.637354
1.000000 0.000000 0.661402
1.000000 0.000000 0.682124
1.000000 0.000000 0.699886
0.000000 0.195560 0.142458
0.000000 0.195102 0.139925
0.000000 0.194369 0.136172
0.000000 0.192782 0.127962
0.000000 0.190188 0.113497
0.000000 0.187442 0.089998
0.000000 0.184207 0.064424
0.000000 0.184573 0.063691
0.000000 0.181003 0.063905
0.015534 0.171420 0.064210
0.088106 0.163119 0.063264
0.138369 0.149966 0.062074
0.194308 0.126680 0.060121
0.256321 0.079927 0.056306
0.323217 0.000000 0.051881
0.395056 0.000000 0.063905
0.471687 0.000000 0.098787
0.554955 0.000000 0.137362
0.643458 0.000000 0.179324
0.733089 0.000000 0.225071
0.818662 0.000000 0.270420
0.898955 0.000000 0.319036
0.964630 0.000000 0.367620
1.000000 0.000000 0.416449
1.000000 0.000000 0.463386
1.000000 0.000000 0.506828
1.000000 0.000000 0.546197
1.000000 0.000000 0.581506
1.000000 0.000000 0.611963
1.000000 0.000000 0.638544
1.000000 0.000000 0.661433
1.000000 0.000000 0.681331
0.000000 0.245792 0.184543
0.000000 0.245243 0.182101
0.000000 0.244511 0.178073
0.000000 0.242649 0.168948
0.000000 0.240024 0.153292
0.000000 0.236454 0.128359
0.000000 0.232700 0.090761
0.000000 0.229007 0.052125
0.000000 0.229984 0.051484
0.000000 0.227573 0.051087
0.086610 0.213565 0.055024
0.145022 0.200626 0.053346
0.204318 0.182193 0.049317
0.267582 0.153140 0.044800
0.335882 0.098207 0.033661
0.409339 0.000000 0.020356
0.489082 0.000000 0.000702
0.575128 0.000000 0.000000
0.663569 0.000000 0.076326
0.752468 0.000000 0.133608
0.839353 0.000000 0.190494
0.915160 0.000000 0.247562
0.976837 0.000000 0.302861
1.000000 0.000000 0.357610
1.000000 0.000000 0.410437
1.000000 0.000000 0.459632
1.000000 0.000000 0.504570
1.000000 0.000000 0.544427
1.000000 0.000000 0.579065
1.000000 0.000000 0.609339
1.000000 0.000000 0.635248
1.000000 0.000000 0.657862
0.000000 0.306432 0.236057
0.000000 0.305882 0.233402
0.000000 0.304753 0.229160
0.000000 0.302770 0.219821
0.000000 0.299901 0.203861
0.000000 0.295903 0.180117
0.000000 0.291264 0.141146
0.000000 0.286625 0.085878
0.000000 0.282933 0.014252
0.000000 0.284825 0.013947
0.065888 0.282872 0.011536
0.148867 0.264408 0.021241
0.213779 0.246250 0.017456
0.279759 0.222019 0.011627
0.349645 0.186923 0.000885
0.424811 0.125551 0.000000
0.506340 0.000000 0.000000
0.594659 0.000000 0.000000
0.687617 0.000000 0.000000
0.778225 0.000000 0.000000
0.860807 0.000000 0.000000
0.931731 0.000000 0.131441
0.989166 0.000000 0.207889
1.000000 0.000000 0.275517
1.000000 0.000000 0.337682
1.000000 0.000000 0.395697
1.000000 0.000000 0.448219
1.000000 0.000000 0.495430
1.000000 0.000000 0.536431
1.000000 0.000000 0.571862
1.000000 0.000000 0.602319
1.000000 0.000000 0.628687
0.000000 0.376867 0.292912
0.000000 0.376257 0.289982
0.000000 0.375372 0.285954
0.000000 0.373297 0.276799
0.000000 0.370336 0.262150
0.000000 0.366155 0.240330
0.000000 0.360815 0.207279
0.000000 0.355505 0.153140
0.000000 0.349920 0.070008
0.000000 0.346471 0.000000
0.000000 0.348974 0.000000
0.131289 0.347234 0.000000
0.220432 0.324834 0.000000
0.292790 0.301061 0.000000
0.366491 0.271427 0.000000
0.444923 0.230137 0.000000
0.528832 0.162570 0.000000
0.618708 0.000000 0.000000
0.709194 0.000000 0.000000
0.796475 0.000000 0.000000
0.876921 0.000000 0.000000
0.946044 0.000000 0.000000
1.000000 0.000000 0.000000
1.000000 0.000000 0.141787
1.000000 0.000000 0.232303
1.000000 0.000000 0.306889
1.000000 0.000000 0.371862
1.000000 0.000000 0.429419
1.000000 0.000000 0.479622
1.000000 0.000000 0.522972
1.000000 0.000000 0.559869
1.000000 0.000000 0.591363
0.000000 0.456611 0.353918
0.000000 0.456092 0.351049
0.000000 0.455146 0.347448
0.000000 0.453132 0.338964
0.000000 0.450050 0.324987
0.000000 0.445838 0.304417
0.000000 0.440742 0.275547
0.000000 0.434302 0.232700
0.000000 0.428687 0.162387
0.000000 0.422950 0.000855
0.000000 0.421241 0.000000
0.000000 0.425025 0.000000
0.216770 0.435767 0.000000
0.320256 0.410742 0.000000
0.406470 0.379095 0.000000
0.489967 0.340642 0.000000
0.577813 0.288975 0.000000
0.667231 0.212100 0.000000
0.752834 0.000000 0.000000
0.834592 0.000000 0.000000
0.907805 0.000000 0.000000
0.969482 0.000000 0.000000
1.000000 0.000000 0.000000
1.000000 0.000000 0.000000
1.000000 0.000000 0.000000
1.000000 0.000000 0.168215
1.000000 0.000000 0.264286
1.000000 0.000000 0.340093
1.000000 0.000000 0.404120
1.000000 0.000000 0.458747
1.000000 0.000000 0.504997
1.000000 0.000000 0.544396
0.000000 0.545861 0.424750
0.000000 0.545373 0.422126
0.000000 0.544274 0.418402
0.000000 0.542229 0.410071
0.000000 0.539300 0.397009
0.000000 0.535180 0.377874
0.000000 0.530236 0.351537
0.000000 0.524285 0.315221
0.000000 0.518364 0.258427
0.000000 0.513176 0.170687
0.000000 0.507683 0.000000
0.000000 0.508202 0.000000
0.082368 0.512139 0.000000
0.293614 0.510796 0.000000
0.411780 0.486488 0.000000
0.511070 0.451484 0.000000
0.601282 0.408209 0.000000
0.688808 0.353124 0.000000
0.771420 0.278904 0.000000
0.848631 0.161257 0.000000
0.917510 0.000000 0.000000
0.976165 0.000000 0.000000
1.000000 0.000000 0.000000
1.000000 0.000000 0.000000
1.000000 0.000000 0.000000
1.000000 0.000000 0.000000
1.000000 0.000000 0.000000
1.000000 0.000000 0.201328
1.000000 0.000000 0.295781
1.000000 0.000000 0.369421
1.000000 0.000000 0.430701
1.000000 0.000000 0.482002
0.000000 0.621118 0.492927
0.000000 0.620569 0.490639
0.000000 0.619593 0.486915
0.000000 0.617792 0.479561
0.000000 0.614832 0.467109
0.000000 0.611170 0.449714
0.000000 0.606806 0.426276
0.000000 0.601617 0.394476
0.000000 0.595972 0.351965
0.000000 0.590967 0.281071
0.000000 0.586023 0.176364
0.000000 0.580713 0.000000
0.000000 0.581811 0.000000
0.182284 0.582574 0.000000
0.380316 0.577020 0.000000
0.528527 0.558465 0.000000
0.622950 0.515282 0.000000
0.708705 0.471290 0.000000
0.788296 0.417151 0.000000
0.861936 0.351080 0.000000
0.926879 0.265293 0.000000
0.981750 0.122621 0.000000
1.000000 0.000000 0.000000
1.000000 0.000000 0.000000
1.000000 0.000000 0.000000
1.000000 0.000000 0.000000
1.000000 0.000000 0.000000
1.000000 0.000000 0.000000
1.000000 0.000000 0.102358
1.000000 0.000000 0.238834
1.000000 0.000000 0.327337
1.000000 0.000000 0.397589
0.000000 0.683070 0.554955
0.000000 0.682673 0.553033
0.000000 0.681849 0.549645
0.000000 0.680354 0.543084
0.000000 0.677882 0.532494
0.000000 0.674891 0.517479
0.000000 0.671199 0.497566
0.000000 0.667109 0.470832
0.000000 0.662379 0.435218
0.000000 0.657343 0.383398
0.000000 0.653285 0.301244
0.000000 0.648951 0.179629
0.000000 0.643793 0.000000
0.000000 0.644282 0.000000
0.274235 0.640955 0.000000
0.473976 0.630182 0.000000
0.633051 0.608179 0.000000
0.729671 0.565545 0.000000
0.805844 0.522698 0.000000
0.875181 0.474586 0.000000
0.935668 0.419593 0.000000
0.986999 0.355688 0.000000
1.000000 0.275822 0.000000
1.000000 0.148745 0.000000
1.000000 0.000000 0.000000
1.000000 0.000000 0.000000
1.000000 0.000000 0.000000
1.000000 0.000000 0.000000
1.000000 0.000000 0.000000
1.000000 0.000000 0.000000
1.000000 0.000000 0.164309
1.000000 0.000000 0.278660
0.000000 0.733455 0.607935
0.000000 0.733394 0.606470
0.000000 0.732876 0.604089
0.000000 0.731838 0.598779
0.000000 0.730098 0.589746
0.000000 0.727871 0.577356
0.000000 0.725246 0.560876
0.000000 0.722194 0.539361
0.000000 0.718410 0.510704
0.000000 0.713863 0.472175
0.000000 0.709712 0.410620
0.000000 0.705806 0.319615
0.000000 0.701167 0.182010
0.000000 0.695399 0.000000
0.000000 0.693874 0.000000
0.360113 0.686152 0.000000
0.563867 0.670710 0.000000
0.725429 0.646632 0.000000
0.820951 0.606958 0.000000
0.889342 0.567041 0.000000
0.945861 0.525505 0.000000
0.993469 0.480751 0.000000
1.000000 0.431403 0.000000
1.000000 0.374487 0.000000
1.000000 0.303807 0.000000
1.000000 0.199496 0.000000
1.000000 0.000000 0.000000
1.000000 0.000000 0.000000
1.000000 0.000000 0.000000
1.000000 0.000000 0.000000
1.000000 0.000000 0.000000
1.000000 0.000000 0.000000
0.000000 0.775723 0.652918
0.000000 0.775448 0.651484
0.000000 0.774990 0.649531
0.000000 0.774136 0.644800
0.000000 0.772763 0.637446
0.000000 0.770962 0.626978
0.000000 0.768734 0.613336
0.000000 0.766079 0.595178
0.000000 0.762875 0.572168
0.000000 0.759121 0.541619
0.000000 0.754604 0.501274
0.000000 0.751522 0.430823
0.000000 0.747921 0.333776
0.000000 0.743648 0.180880
0.000000 0.737789 0.000000
0.158694 0.734066 0.000000
0.443946 0.722591 0.000000
0.648585 0.703426 0.000000
0.806699 0.679042 0.000000
0.896117 0.644343 0.000000
0.954528 0.608118 0.000000
0.998566 0.572137 0.000000
1.000000 0.534478 0.000000
1.000000 0.494301 0.000000
1.000000 0.449134 0.000000
1.000000 0.396277 0.000000
1.000000 0.329656 0.000000
1.000000 0.233951 0.000000
1.000000 0.000000 0.000000
1.000000 0.000000 0.000000
1.000000 0.000000 0.000000
1.000000 0.000000 0.000000
0.000000 0.814023 0.692317
0.000000 0.813931 0.691157
0.000000 0.821164 0.697230
0.000000 0.820340 0.693050
0.000000 0.819028 0.686671
0.000000 0.817258 0.677760
0.000000 0.815091 0.666285
0.000000 0.812345 0.651057
0.000000 0.809262 0.631647
0.000000 0.805631 0.607233
0.000000 0.801236 0.575555
0.000000 0.796994 0.528161
0.000000 0.793851 0.454597
0.000000 0.790127 0.350439
0.000000 0.785824 0.183108
0.000000 0.779934 0.000000
0.279637 0.772641 0.000000
0.538781 0.757137 0.000000
0.736507 0.735073 0.000000
0.881376 0.712337 0.000000
0.960357 0.683589 0.000000
1.000000 0.650263 0.000000
1.000000 0.618036 0.000000
1.000000 0.585077 0.000000
1.000000 0.549584 0.000000
1.000000 0.510307 0.000000
1.000000 0.465187 0.000000
1.000000 0.411109 0.000000
1.000000 0.343633 0.000000
1.000000 0.246433 0.000000
1.000000 0.000000 0.000000
1.000000 0.000000 0.000000
0.000000 0.851041 0.728115
0.000000 0.851743 0.727871
0.000000 0.852384 0.727352
0.000000 0.852598 0.724788
0.000000 0.852171 0.720180
0.000000 0.851102 0.713252
0.000000 0.849332 0.703456
0.000000 0.847105 0.690944
0.000000 0.844480 0.675227
0.000000 0.841306 0.655421
0.000000 0.837400 0.630030
0.000000 0.832700 0.597955
0.000000 0.829648 0.543725
0.000000 0.826841 0.466835
0.000000 0.823484 0.357885
0.000000 0.819547 0.174777
0.000000 0.813138 0.040864
0.373541 0.802914 0.068910
0.620661 0.784451 0.069734
0.805905 0.762112 0.055329
0.933135 0.742763 0.020356
1.000000 0.721126 0.052308
1.000000 0.689754 0.062715
1.000000 0.659663 0.000000
1.000000 0.628534 0.000000
1.000000 0.595514 0.000000
1.000000 0.559136 0.000000
1.000000 0.518303 0.000000
1.000000 0.470680 0.000000
1.000000 0.413764 0.000000
1.000000 0.343084 0.000000
1.000000 0.200259 0.000000
0.000000 0.882475 0.756649
0.000000 0.883055 0.756588
0.000000 0.883604 0.755947
0.000000 0.883787 0.753811
0.000000 0.883482 0.749996
0.000000 0.882536 0.743954
0.000000 0.881041 0.735836
0.000000 0.879149 0.725338
0.000000 0.876921 0.712459
0.000000 0.874113 0.696254
0.000000 0.870787 0.676112
0.000000 0.866667 0.650660
0.000000 0.862181 0.615656
0.000000 0.860410 0.557305
0.000000 0.858122 0.478309
0.000000 0.855283 0.364630
0.000000 0.851926 0.165835
0.000000 0.844205 0.129763
0.466773 0.830900 0.137545
0.699336 0.810300 0.139315
0.865568 0.788937 0.138186
0.972839 0.773678 0.137758
1.000000 0.761685 0.141848
1.000000 0.729000 0.159243
1.000000 0.699123 0.121187
1.000000 0.668147 0.041718
1.000000 0.635401 0.000000
1.000000 0.600336 0.000000
1.000000 0.561578 0.000000
1.000000 0.517357 0.000000
1.000000 0.465980 0.000000
1.000000 0.404761 0.000000
0.000000 0.910704 0.781247
0.000000 0.911192 0.781064
0.000000 0.911620 0.780545
0.000000 0.911772 0.778714
0.000000 0.911467 0.775265
0.000000 0.910674 0.770169
0.000000 0.909453 0.763455
0.000000 0.907805 0.754849
0.000000 0.905760 0.743954
0.000000 0.903319 0.730831
0.000000 0.900359 0.714565
0.000000 0.896574 0.694362
0.000000 0.891966 0.669184
0.000000 0.889372 0.628443
0.000000 0.888243 0.568719
0.000000 0.886839 0.488014
0.000000 0.885008 0.370794
0.000000 0.882017 0.199893
0.243595 0.873136 0.187808
0.561395 0.856748 0.195895
0.774197 0.835416 0.199802
0.916625 0.816770 0.203128
1.000000 0.805295 0.207401
1.000000 0.801999 0.210605
1.000000 0.768124 0.228458
1.000000 0.737423 0.205264
1.000000 0.705715 0.168399
1.000000 0.672511 0.115450
1.000000 0.637232 0.000000
1.000000 0.599115 0.000000
1.000000 0.556756 0.000000
1.000000 0.508476 0.000000
0.000000 0.937011 0.803311
0.000000 0.937163 0.802853
0.000000 0.937163 0.802090
0.000000 0.936980 0.800290
0.000000 0.936461 0.797238
0.000000 0.935637 0.792752
0.000000 0.934569 0.787167
0.000000 0.933165 0.779965
0.000000 0.931456 0.771084
0.000000 0.929290 0.760250
0.000000 0.926665 0.747402
0.000000 0.923278 0.731441
0.000000 0.919066 0.711940
0.000000 0.914061 0.687343
0.000000 0.914244 0.641291
0.000000 0.914122 0.581323
0.000000 0.913634 0.500084
0.000000 0.912871 0.380896
0.000000 0.909361 0.245274
0.373999 0.897765 0.243046
0.648737 0.878447 0.250340
0.835264 0.857267 0.255131
0.952453 0.841215 0.260441
1.000000 0.832181 0.265354
1.000000 0.830747 0.270146
1.000000 0.800931 0.283635
1.000000 0.768856 0.269657
1.000000 0.736721 0.237125
1.000000 0.703182 0.194797
1.000000 0.667781 0.132235
1.000000 0.629877 0.000000
1.000000 0.588525 0.000000
0.000000 0.956451 0.819181
0.000000 0.956542 0.818845
0.000000 0.956573 0.818204
0.000000 0.956359 0.816648
0.000000 0.955901 0.814023
0.000000 0.955138 0.810300
0.000000 0.954070 0.805417
0.000000 0.952758 0.799313
0.000000 0.951080 0.792050
0.000000 0.949004 0.783078
0.000000 0.946441 0.772519
0.000000 0.943175 0.759884
0.000000 0.939117 0.744656
0.000000 0.934051 0.726497
0.087251 0.931853 0.697047
0.000000 0.933227 0.650904
0.000000 0.934295 0.590997
0.000000 0.934997 0.510246
0.000000 0.935393 0.390997
0.000000 0.931060 0.289097
0.486671 0.916167 0.297002
0.725582 0.895323 0.304417
0.882628 0.875914 0.311254
0.978149 0.862547 0.317418
1.000000 0.854215 0.319188
1.000000 0.853941 0.324712
1.000000 0.828946 0.336034
1.000000 0.795499 0.328496
1.000000 0.763302 0.297765
1.000000 0.729610 0.257328
1.000000 0.694331 0.202823
1.000000 0.656672 0.110780
0.000000 0.972717 0.832792
0.000000 0.972778 0.832486
0.000000 0.972717 0.831876
0.000000 0.972412 0.830472
0.000000 0.971862 0.828183
0.000000 0.971069 0.825040
0.000000 0.969940 0.820829
0.000000 0.968505 0.815671
0.000000 0.966705 0.809415
0.000000 0.964446 0.801999
0.000000 0.961639 0.793301
0.000000 0.958221 0.783047
0.000000 0.953918 0.771237
0.214084 0.948669 0.757290
0.354162 0.942351 0.740871
0.297154 0.944610 0.705470
0.218723 0.947082 0.659815
0.107729 0.949248 0.600702
0.000000 0.951171 0.520623
0.000000 0.952789 0.402899
0.260380 0.946441 0.339574
0.585229 0.928435 0.349432
0.788174 0.907591 0.357397
0.916960 0.890471 0.364141
0.994781 0.879149 0.369757
1.000000 0.872892 0.374334
1.000000 0.873045 0.381048
1.000000 0.853086 0.389868
1.000000 0.818631 0.387732
1.000000 0.786526 0.357305
1.000000 0.753231 0.317144
1.000000 0.718257 0.264836
0.000000 0.983856 0.842496
0.000000 0.983856 0.842161
0.000000 0.983734 0.841703
0.000000 0.983429 0.840482
0.000000 0.982849 0.838529
0.000000 0.981964 0.835813
0.000000 0.980835 0.832364
0.000000 0.979339 0.828092
0.000000 0.977447 0.822934
0.000000 0.975006 0.816953
0.000000 0.972015 0.809964
0.000000 0.968231 0.801938
0.212833 0.963531 0.792782
0.353368 0.957885 0.782406
0.457343 0.951324 0.770565
0.487495 0.948913 0.750271
0.433875 0.952667 0.715480
0.373358 0.956481 0.671504
0.306523 0.960113 0.614221
0.234501 0.963409 0.537438
0.152224 0.966339 0.425330
0.425757 0.956085 0.398627
0.678035 0.936339 0.407294
0.842649 0.916960 0.414710
0.944701 0.902556 0.421271
1.000000 0.893217 0.426825
1.000000 0.887907 0.430823
1.000000 0.888212 0.437842
1.000000 0.873564 0.445441
1.000000 0.838560 0.448493
1.000000 0.807248 0.419104
1.000000 0.774838 0.380316
0.000000 0.991852 0.850431
0.000000 0.991760 0.850156
0.000000 0.991577 0.849699
0.000000 0.991180 0.848661
0.000000 0.990478 0.846983
0.000000 0.989502 0.844724
0.000000 0.988190 0.841794
0.000000 0.986481 0.838163
0.000000 0.984283 0.833982
0.000000 0.981506 0.829129
0.000000 0.977996 0.823545
0.238315 0.973632 0.817319
0.367193 0.968353 0.810391
0.466835 0.962249 0.802762
0.551720 0.955535 0.794034
0.626459 0.948394 0.784298
0.593713 0.951751 0.758785
0.547387 0.956237 0.725948
0.494850 0.960967 0.684108
0.437537 0.965728 0.630213
0.375586 0.970367 0.557519
0.352392 0.972625 0.469703
0.559258 0.959533 0.455818
0.757534 0.939940 0.463844
0.885496 0.923247 0.470619
0.965393 0.911406 0.476570
1.000000 0.903716 0.481453
1.000000 0.899260 0.484321
1.000000 0.899290 0.491279
1.000000 0.889891 0.497749
1.000000 0.855711 0.502556
1.000000 0.825315 0.477668
0.000000 0.996582 0.856687
0.000000 0.996429 0.856443
0.000000 0.996216 0.856046
0.000000 0.995727 0.855161
0.000000 0.994903 0.853849
0.000000 0.993744 0.851957
0.000000 0.992187 0.849668
0.000000 0.990112 0.846952
0.000000 0.987396 0.843717
0.167239 0.983917 0.840116
0.313512 0.979614 0.836088
0.418555 0.974426 0.831601
0.507561 0.968536 0.826749
0.586694 0.962005 0.821408
0.657435 0.955108 0.815610
0.719265 0.948180 0.809293
0.738491 0.945983 0.796445
0.705745 0.950347 0.772152
0.667292 0.955230 0.742031
0.623896 0.960449 0.704402
0.574823 0.966003 0.655940
0.520256 0.971801 0.591241
0.521141 0.972717 0.528557
0.689448 0.957641 0.523644
0.832578 0.940459 0.530480
0.924132 0.927367 0.536339
0.983307 0.918181 0.541039
1.000000 0.912169 0.544427
1.000000 0.908537 0.546532
1.000000 0.908324 0.552667
1.000000 0.904082 0.558465
1.000000 0.871733 0.563531
0.000000 0.998260 0.862699
0.000000 0.998016 0.862516
0.000000 0.997742 0.862242
0.000000 0.997070 0.861479
0.000000 0.996002 0.860319
0.000000 0.994507 0.858854
0.000000 0.992462 0.856992
0.178866 0.989776 0.854795
0.294743 0.986419 0.852293
0.387030 0.982238 0.849485
0.468086 0.977386 0.846403
0.543725 0.971801 0.843046
0.613611 0.965698 0.839475
0.678157 0.959197 0.835782
0.735897 0.952605 0.831876
0.786618 0.946227 0.827970
