其他预设/【213】赛博朋克科幻预设52款/1.LUT预设（视频调色-PR-AE-PS-FCPX-达芬奇用）/赛博朋克科幻__-4 强度5.cube
# Created by Adobe Lightroom plugin Export LUT (1.17.0)
# www.johnrellis.com/lightroom/exportlut.htm
# Preset: 赛博朋克科幻[素锦印象]-4 强度5
# Color profile: /Library/Application Support/Adobe/Color/Profiles/Recommended/AdobeRGB1998.icc
LUT_3D_SIZE 5
DOMAIN_MIN 0.000000 0.000000 0.000000
DOMAIN_MAX 0.903226 0.903226 0.903226
0.000000 0.000000 0.000000
0.155764 0.000000 0.095003
0.468116 0.000000 0.268162
0.771328 0.000000 0.435889
0.975769 0.000000 0.549310
0.199496 0.218906 0.000000
0.195193 0.168765 0.000000
0.450324 0.000000 0.260929
0.767666 0.000000 0.433906
0.975372 0.000000 0.549157
0.600946 0.657069 0.000000
0.636591 0.649439 0.000000
0.673945 0.578546 0.000000
0.787625 0.000000 0.391608
0.968597 0.000000 0.556603
0.796536 0.874327 0.000000
0.819303 0.872923 0.000000
0.895872 0.865660 0.000000
0.942168 0.816678 0.000000
0.991028 0.655268 0.564874
0.901610 0.989685 0.000000
0.901366 0.989410 0.000000
0.951568 0.984863 0.000000
1.000000 0.974945 0.000000
1.000000 0.937621 0.381262
0.058045 0.072023 0.094484
0.140139 0.002350 0.120455
0.487221 0.000000 0.281498
0.779843 0.000000 0.440223
0.980102 0.000000 0.551476
0.113466 0.181796 0.001801
0.148257 0.144900 0.126009
0.472175 0.000000 0.273991
0.776852 0.000000 0.438544
0.979797 0.000000 0.551324
0.551720 0.636591 0.000000
0.571221 0.615137 0.000000
0.632563 0.551995 0.110994
0.754665 0.219181 0.450507
0.973571 0.000000 0.558282
0.785550 0.871336 0.000000
0.803433 0.868254 0.000000
0.876097 0.860441 0.000000
0.928099 0.818357 0.281407
0.986084 0.660060 0.583551
0.901701 0.989776 0.000000
0.901457 0.989502 0.000000
0.953002 0.984863 0.000000
1.000000 0.975463 0.000000
1.000000 0.943572 0.473854
0.066712 0.143252 0.250706
0.199557 0.120974 0.252018
0.426947 0.000000 0.349889
0.778775 0.000000 0.498482
0.995789 0.000000 0.559380
0.124636 0.306889 0.278569
0.195560 0.225986 0.289250
0.431617 0.000000 0.353033
0.775784 0.000000 0.496559
0.995789 0.000000 0.559442
0.323278 0.557916 0.000000
0.334752 0.535729 0.000000
0.455848 0.443122 0.369268
0.776944 0.142519 0.477699
0.993683 0.000000 0.560937
0.696193 0.860044 0.000000
0.713954 0.855131 0.000000
0.804166 0.836667 0.358984
0.881743 0.813535 0.520104
0.958038 0.685786 0.648310
0.866758 0.992004 0.000000
0.869657 0.991791 0.000000
0.921233 0.986938 0.000000
1.000000 0.976226 0.374304
1.000000 0.955779 0.617700
0.154238 0.290043 0.491066
0.277104 0.258274 0.492256
0.509239 0.269474 0.495613
0.737728 0.000000 0.598352
0.985840 0.000000 0.661280
0.268528 0.438056 0.507073
0.294438 0.367315 0.509789
0.516899 0.324895 0.502617
0.736049 0.000000 0.596185
0.987243 0.000000 0.659358
0.122835 0.670802 0.477974
0.299290 0.671046 0.517205
0.539330 0.549950 0.548058
0.741115 0.357641 0.598230
0.994263 0.000000 0.648737
0.485634 0.832731 0.000000
0.504082 0.825986 0.000000
0.605188 0.796170 0.354955
0.747066 0.725338 0.598962
0.979614 0.530755 0.653193
0.764187 0.997009 0.000000
0.774655 0.996429 0.000000
0.841215 0.989654 0.192203
0.964233 0.975006 0.604059
1.000000 0.965759 0.721340
0.510979 0.587732 0.699794
0.532647 0.567437 0.701625
0.677180 0.589502 0.700374
0.809293 0.589715 0.714351
0.954864 0.327947 0.770871
0.546654 0.637659 0.700404
0.556085 0.605341 0.701961
0.673274 0.588342 0.700221
0.808072 0.591241 0.713649
0.955566 0.326818 0.771115
0.603998 0.811704 0.701717
0.653101 0.792691 0.705348
0.686183 0.703456 0.711269
0.813046 0.664607 0.708675
0.958129 0.324071 0.772122
0.308385 0.921660 0.555016
0.421332 0.916564 0.594202
0.643183 0.901213 0.689784
0.814267 0.806943 0.728603
0.953277 0.650385 0.765194
0.575250 1.000000 0.000000
0.583642 1.000000 0.000000
0.663905 1.000000 0.207034
0.832364 0.974029 0.577386
0.953521 0.925505 0.761776
