其他预设/【213】赛博朋克科幻预设52款/1.LUT预设（视频调色-PR-AE-PS-FCPX-达芬奇用）/赛博朋克科幻__-10 强度4.cube
# Created by Adobe Lightroom plugin Export LUT (1.17.0)
# www.johnrellis.com/lightroom/exportlut.htm
# Preset: 赛博朋克科幻[素锦印象]-10 强度4
# Color profile: /Library/Application Support/Adobe/Color/Profiles/Recommended/AdobeRGB1998.icc
LUT_3D_SIZE 5
DOMAIN_MIN 0.000000 0.000000 0.000000
DOMAIN_MAX 0.903226 0.903226 0.903226
0.069398 0.068391 0.063142
0.230900 0.143557 0.137942
0.484657 0.327825 0.298589
0.700526 0.505364 0.449195
0.869352 0.700404 0.605615
0.000000 0.382757 0.140841
0.269444 0.284825 0.117983
0.479072 0.346715 0.300206
0.697963 0.502831 0.447150
0.869261 0.700282 0.605524
0.000000 0.698573 0.249882
0.000000 0.686091 0.179538
0.543175 0.565393 0.284123
0.696651 0.581903 0.468666
0.868315 0.716884 0.606622
0.000000 0.900389 0.317174
0.000000 0.897368 0.285161
0.406470 0.873503 0.305272
0.762234 0.783444 0.450721
0.873655 0.792264 0.635126
0.000000 1.000000 0.339300
0.000000 1.000000 0.336522
0.241123 1.000000 0.386755
0.710842 1.000000 0.505913
0.934478 0.942504 0.634424
0.079866 0.051179 0.199313
0.239078 0.096407 0.175814
0.465309 0.314244 0.305394
0.691890 0.497780 0.450507
0.870512 0.701869 0.606806
0.000000 0.328069 0.245670
0.282536 0.275608 0.236118
0.485908 0.372564 0.336400
0.686458 0.493019 0.450050
0.870542 0.701869 0.606806
0.000000 0.680568 0.314122
0.000000 0.662531 0.284581
0.546197 0.558007 0.344152
0.708003 0.602808 0.496895
0.874144 0.731075 0.622126
0.000000 0.894469 0.355779
0.000000 0.889738 0.338567
0.422522 0.864591 0.361608
0.766079 0.781064 0.484535
0.879271 0.800168 0.646998
0.000000 1.000000 0.368109
0.000000 1.000000 0.365454
0.221042 1.000000 0.406592
0.721950 0.997650 0.532677
0.936980 0.942535 0.646662
0.137057 0.000000 0.359960
0.305943 0.000000 0.380804
0.478065 0.219516 0.347509
0.669856 0.480293 0.464027
0.868376 0.700801 0.616236
0.000000 0.184878 0.363012
0.252720 0.134615 0.389868
0.489174 0.257755 0.365728
0.662531 0.474159 0.463020
0.868193 0.700710 0.616938
0.000000 0.603937 0.445380
0.000000 0.591974 0.442725
0.545434 0.530999 0.447791
0.723751 0.629328 0.543114
0.874815 0.726741 0.633509
0.000000 0.876860 0.468605
0.000000 0.870939 0.461250
0.393347 0.845457 0.464393
0.772671 0.772213 0.556359
0.896605 0.820859 0.678065
0.000000 1.000000 0.459358
0.000000 1.000000 0.454108
0.000000 1.000000 0.453346
0.738705 0.992706 0.594110
0.944060 0.942870 0.679164
0.180148 0.000000 0.488197
0.299077 0.000000 0.506126
0.548943 0.000000 0.538354
0.691859 0.376867 0.504723
0.862058 0.696437 0.634333
0.122652 0.000000 0.494118
0.277531 0.000000 0.512047
0.549371 0.000000 0.548699
0.694850 0.355962 0.509606
0.861936 0.696437 0.635157
0.000000 0.428901 0.503685
0.000000 0.394232 0.499641
0.449378 0.357946 0.551049
0.714382 0.499763 0.547173
0.863615 0.698787 0.638483
0.000000 0.823178 0.603632
0.000000 0.817685 0.602869
0.248814 0.794919 0.603845
0.761532 0.740902 0.621576
0.913176 0.830259 0.706142
0.000000 1.000000 0.589807
0.000000 1.000000 0.585077
0.000000 1.000000 0.577508
0.635981 0.999786 0.621759
0.954437 0.943236 0.724544
0.194034 0.000000 0.675471
0.304753 0.000000 0.683864
0.542840 0.000000 0.710964
0.805692 0.000000 0.707301
0.899931 0.647120 0.676173
0.178958 0.000000 0.680049
0.293034 0.000000 0.687892
0.532311 0.000000 0.713649
0.800961 0.000000 0.713283
0.902129 0.641657 0.678035
0.000000 0.295872 0.656641
0.000000 0.216739 0.671229
0.405921 0.000000 0.709499
0.773709 0.000000 0.733700
0.909575 0.622950 0.685237
0.000000 0.718563 0.722316
0.000000 0.698085 0.719234
0.000000 0.601434 0.702876
0.592279 0.470222 0.724514
0.919951 0.701198 0.711574
0.000000 1.000000 0.750668
0.000000 1.000000 0.751186
0.000000 1.000000 0.751431
0.423743 0.990692 0.756924
0.951019 0.924926 0.773983
