其他预设/【213】赛博朋克科幻预设52款/1.LUT预设（视频调色-PR-AE-PS-FCPX-达芬奇用）/赛博朋克科幻__-1.cube
# Created by Adobe Lightroom plugin Export LUT (1.17.0)
# www.johnrellis.com/lightroom/exportlut.htm
# Preset: 赛博朋克科幻[素锦印象]-1
# Color profile: /Library/Application Support/Adobe/Color/Profiles/Recommended/AdobeRGB1998.icc
LUT_3D_SIZE 32
0.000000 0.085176 0.068605
0.000000 0.085176 0.068605
0.000000 0.085176 0.068605
0.000000 0.085420 0.070497
0.000000 0.085756 0.073671
0.000000 0.086000 0.076753
0.000000 0.086580 0.080934
0.000000 0.086702 0.086336
0.000000 0.087007 0.093751
0.000000 0.086976 0.104097
0.000000 0.086183 0.117800
0.045930 0.084016 0.135470
0.090700 0.077852 0.156863
0.137331 0.062409 0.180819
0.191684 0.000000 0.206394
0.251835 0.000000 0.234348
0.316564 0.000000 0.263584
0.387121 0.000000 0.294316
0.463355 0.000000 0.325963
0.548577 0.000000 0.359777
0.641566 0.000000 0.396674
0.734798 0.000000 0.433936
0.821408 0.000000 0.471199
0.897368 0.000000 0.507958
0.962463 0.000000 0.546136
1.000000 0.000000 0.582238
1.000000 0.000000 0.615961
1.000000 0.000000 0.647242
1.000000 0.000000 0.675715
1.000000 0.000000 0.700374
1.000000 0.000000 0.721431
1.000000 0.000000 0.739437
0.000000 0.085176 0.068605
0.000000 0.085176 0.068605
0.000000 0.085176 0.068605
0.000000 0.085420 0.070863
0.000000 0.085756 0.073671
0.000000 0.086000 0.076753
0.000000 0.086519 0.080934
0.000000 0.086702 0.086641
0.000000 0.087007 0.093751
0.000000 0.086976 0.104097
0.000000 0.086183 0.117800
0.046571 0.084016 0.134951
0.091341 0.077852 0.155154
0.138460 0.062257 0.178134
0.192294 0.000000 0.203708
0.252140 0.000000 0.230961
0.316716 0.000000 0.260349
0.386725 0.000000 0.290837
0.462470 0.000000 0.322362
0.547478 0.000000 0.356420
0.640406 0.000000 0.393133
0.733242 0.000000 0.430732
0.819913 0.000000 0.467964
0.896574 0.000000 0.505241
0.961273 0.000000 0.543236
1.000000 0.000000 0.579187
1.000000 0.000000 0.613245
1.000000 0.000000 0.644587
1.000000 0.000000 0.673213
1.000000 0.000000 0.698299
1.000000 0.000000 0.719631
1.000000 0.000000 0.737819
0.000000 0.086763 0.068421
0.000000 0.086763 0.068421
0.000000 0.086763 0.068421
0.000000 0.085451 0.068940
0.000000 0.085756 0.072602
0.000000 0.086000 0.076112
0.000000 0.086519 0.080629
0.000000 0.086702 0.086061
0.000000 0.086976 0.093233
0.000000 0.086976 0.103395
0.001129 0.086152 0.116182
0.051972 0.083833 0.132540
0.094209 0.077180 0.151919
0.140993 0.061097 0.174807
0.194430 0.000000 0.200015
0.253849 0.000000 0.227420
0.318425 0.000000 0.256596
0.388006 0.000000 0.287114
0.463996 0.000000 0.318700
0.548455 0.000000 0.352789
0.641474 0.000000 0.389441
0.734188 0.000000 0.427100
0.820676 0.000000 0.464729
0.897459 0.000000 0.502464
0.961639 0.000000 0.540246
1.000000 0.000000 0.576410
1.000000 0.000000 0.610407
1.000000 0.000000 0.642176
1.000000 0.000000 0.671015
1.000000 0.000000 0.696132
1.000000 0.000000 0.717800
1.000000 0.000000 0.736080
0.000000 0.094331 0.067964
0.000000 0.094331 0.067964
0.000000 0.094331 0.067964
0.000000 0.094331 0.067964
0.000000 0.090455 0.068391
0.000000 0.085634 0.070832
0.000000 0.086213 0.076051
0.000000 0.086336 0.082155
0.000000 0.086580 0.089174
0.000000 0.086549 0.098817
0.011505 0.085939 0.111330
0.062348 0.083009 0.126619
0.101106 0.075837 0.145357
0.147066 0.059174 0.167575
0.200351 0.000000 0.192538
0.259678 0.000000 0.219730
0.323674 0.000000 0.249027
0.392981 0.000000 0.279271
0.468391 0.000000 0.311162
0.552422 0.000000 0.345068
0.644862 0.000000 0.381872
0.736934 0.000000 0.419745
0.823117 0.000000 0.457557
0.900145 0.000000 0.496132
0.963500 0.000000 0.534325
1.000000 0.000000 0.571069
1.000000 0.000000 0.605676
1.000000 0.000000 0.637720
1.000000 0.000000 0.666835
1.000000 0.000000 0.692287
1.000000 0.000000 0.714046
1.000000 0.000000 0.732753
0.000000 0.104921 0.066651
0.000000 0.104921 0.067445
0.000000 0.104677 0.069429
0.000000 0.104433 0.069459
0.000000 0.103914 0.067964
0.000000 0.100130 0.067628
0.000000 0.090852 0.068696
0.000000 0.085969 0.072877
0.000000 0.086183 0.081483
0.001038 0.086030 0.090455
0.029938 0.084901 0.102296
0.072755 0.081544 0.116732
0.110628 0.074220 0.134524
0.156802 0.052399 0.155795
0.209628 0.000000 0.180301
0.268620 0.000000 0.207218
0.332860 0.000000 0.236667
0.402350 0.000000 0.267369
0.477607 0.000000 0.299382
0.561547 0.000000 0.334142
0.653040 0.000000 0.371069
0.744289 0.000000 0.408881
0.829038 0.000000 0.447272
0.905852 0.000000 0.486854
0.967315 0.000000 0.525475
1.000000 0.000000 0.562524
1.000000 0.000000 0.597681
1.000000 0.000000 0.630518
1.000000 0.000000 0.659937
1.000000 0.000000 0.685939
1.000000 0.000000 0.708309
1.000000 0.000000 0.727352
0.000000 0.121706 0.066163
0.000000 0.121706 0.067353
0.000000 0.121248 0.068971
0.000000 0.120394 0.071351
0.000000 0.119326 0.070436
0.000000 0.118807 0.068940
0.000000 0.114839 0.067536
0.000000 0.106020 0.067170
0.000000 0.091951 0.068818
0.019623 0.085054 0.076173
0.055543 0.083497 0.088014
0.086336 0.079774 0.101961
0.124636 0.070436 0.118776
0.170596 0.037842 0.138766
0.223453 0.000000 0.162844
0.282383 0.000000 0.189487
0.346319 0.000000 0.219242
0.415717 0.000000 0.250340
0.491188 0.000000 0.283177
0.575372 0.000000 0.317967
0.666285 0.000000 0.355749
0.755978 0.000000 0.394293
0.858793 0.000000 0.441718
0.932158 0.000000 0.483162
0.988617 0.000000 0.522911
1.000000 0.000000 0.560479
1.000000 0.000000 0.595514
1.000000 0.000000 0.627710
1.000000 0.000000 0.656550
1.000000 0.000000 0.681849
1.000000 0.000000 0.703609
1.000000 0.000000 0.722377
0.000000 0.147921 0.063691
0.000000 0.147372 0.065095
0.000000 0.146853 0.066346
0.000000 0.145846 0.068910
0.000000 0.144320 0.070375
0.000000 0.142367 0.069184
0.000000 0.141726 0.068482
0.000000 0.137484 0.068025
0.000000 0.128084 0.067994
0.020478 0.114290 0.067903
0.072877 0.090944 0.068757
0.105867 0.075868 0.079561
0.145113 0.063081 0.096101
0.192233 0.009064 0.115511
0.245426 0.000000 0.138827
0.304173 0.000000 0.165591
0.368200 0.000000 0.195529
0.437629 0.000000 0.228092
0.513481 0.000000 0.261692
0.598871 0.000000 0.298436
0.689479 0.000000 0.337011
0.779141 0.000000 0.377447
0.865629 0.000000 0.420478
0.937285 0.000000 0.463111
0.992859 0.000000 0.504631
1.000000 0.000000 0.543786
1.000000 0.000000 0.580163
1.000000 0.000000 0.613703
1.000000 0.000000 0.643763
1.000000 0.000000 0.669947
1.000000 0.000000 0.692653
1.000000 0.000000 0.712459
0.000000 0.182620 0.057221
0.000000 0.182254 0.058869
0.000000 0.181460 0.060395
0.000000 0.180240 0.062928
0.000000 0.178103 0.067567
0.000000 0.175540 0.067048
0.000000 0.172763 0.065766
0.000000 0.172793 0.065248
0.000000 0.169772 0.064973
0.000000 0.157656 0.065797
0.068757 0.140932 0.067262
0.113863 0.114961 0.068177
0.161837 0.069734 0.069062
0.211276 0.000000 0.081514
0.264897 0.000000 0.104097
0.323522 0.000000 0.130404
0.387579 0.000000 0.160678
0.457130 0.000000 0.194064
0.533135 0.000000 0.229618
0.617945 0.000000 0.268009
0.707454 0.000000 0.307774
0.798276 0.000000 0.350958
0.879698 0.000000 0.394751
0.947173 0.000000 0.438666
0.999725 0.000000 0.481666
1.000000 0.000000 0.522545
1.000000 0.000000 0.560693
1.000000 0.000000 0.595880
1.000000 0.000000 0.627314
1.000000 0.000000 0.654902
1.000000 0.000000 0.678981
1.000000 0.000000 0.699916
0.000000 0.227359 0.031373
0.000000 0.226841 0.033997
0.000000 0.226230 0.036744
0.000000 0.224491 0.044862
0.000000 0.222232 0.055085
0.000000 0.219211 0.062196
0.000000 0.215946 0.060334
0.000000 0.212711 0.057435
0.000000 0.213413 0.056458
0.000000 0.211521 0.056397
0.057465 0.197696 0.059632
0.115572 0.175387 0.061616
0.169284 0.143191 0.064271
0.226566 0.085542 0.065827
0.285557 0.000000 0.065248
0.345953 0.000000 0.083772
0.411078 0.000000 0.112093
0.481178 0.000000 0.146761
0.557488 0.000000 0.185153
0.643214 0.000000 0.226627
0.733059 0.000000 0.269932
0.819272 0.000000 0.315160
0.895933 0.000000 0.361059
0.959106 0.000000 0.406958
1.000000 0.000000 0.452247
1.000000 0.000000 0.495949
1.000000 0.000000 0.536339
1.000000 0.000000 0.573480
1.000000 0.000000 0.606989
1.000000 0.000000 0.636347
1.000000 0.000000 0.662165
1.000000 0.000000 0.684535
0.000000 0.281712 0.000000
0.000000 0.281163 0.000000
0.000000 0.280369 0.000000
0.000000 0.278752 0.000000
0.000000 0.276127 0.010315
0.000000 0.272648 0.030671
0.000000 0.268498 0.040955
0.000000 0.264652 0.033448
0.000000 0.261234 0.028504
0.000000 0.262852 0.026307
0.000000 0.261479 0.023499
0.111666 0.246677 0.030793
0.174502 0.218021 0.041718
0.235630 0.178622 0.049134
0.299046 0.113588 0.055055
0.366461 0.000000 0.055390
0.435645 0.000000 0.051087
0.509392 0.000000 0.086366
0.590265 0.000000 0.121431
0.675837 0.000000 0.167514
0.761471 0.000000 0.216678
0.842069 0.000000 0.266361
0.912932 0.000000 0.315709
0.971252 0.000000 0.364996
1.000000 0.000000 0.413581
1.000000 0.000000 0.460578
1.000000 0.000000 0.504814
1.000000 0.000000 0.545312
1.000000 0.000000 0.581537
1.000000 0.000000 0.613489
1.000000 0.000000 0.641413
1.000000 0.000000 0.666041
0.000000 0.345037 0.000000
0.000000 0.344549 0.000000
0.000000 0.343694 0.000000
0.000000 0.341924 0.000000
0.000000 0.339117 0.000000
0.000000 0.335546 0.000000
0.000000 0.330938 0.000000
0.000000 0.326543 0.000000
0.000000 0.321599 0.000000
0.000000 0.318578 0.000000
0.000000 0.320928 0.000000
0.085695 0.319951 0.000000
0.173220 0.302342 0.000000
0.244175 0.270176 0.000000
0.312535 0.223697 0.002502
0.383520 0.152255 0.011353
0.458625 0.000000 0.016114
0.538628 0.000000 0.006989
0.620569 0.000000 0.013886
0.705409 0.000000 0.085389
0.788663 0.000000 0.136690
0.864897 0.000000 0.195621
0.931182 0.000000 0.253727
0.985443 0.000000 0.309606
1.000000 0.000000 0.363928
1.000000 0.000000 0.415656
1.000000 0.000000 0.464881
1.000000 0.000000 0.509483
1.000000 0.000000 0.549676
1.000000 0.000000 0.584955
1.000000 0.000000 0.615991
1.000000 0.000000 0.643000
0.000000 0.418402 0.000000
0.000000 0.417914 0.000000
0.000000 0.416938 0.000000
0.000000 0.415198 0.000000
0.000000 0.412329 0.000000
0.000000 0.408576 0.000000
0.000000 0.403784 0.000000
0.000000 0.398322 0.000000
0.000000 0.393652 0.000000
0.000000 0.388586 0.000000
0.000000 0.386847 0.000000
0.000000 0.390539 0.000000
0.164248 0.401862 0.000000
0.261692 0.381384 0.000000
0.343786 0.344121 0.000000
0.421027 0.285435 0.000000
0.500786 0.201938 0.000000
0.584771 0.000000 0.000000
0.671015 0.000000 0.000000
0.755581 0.000000 0.000000
0.833707 0.000000 0.000000
0.904143 0.000000 0.088380
0.962585 0.000000 0.164340
1.000000 0.000000 0.235935
1.000000 0.000000 0.300908
1.000000 0.000000 0.360937
1.000000 0.000000 0.416419
1.000000 0.000000 0.466957
1.000000 0.000000 0.511650
1.000000 0.000000 0.551263
1.000000 0.000000 0.585626
1.000000 0.000000 0.615930
0.000000 0.504967 0.000000
0.000000 0.504601 0.000000
0.000000 0.503502 0.000000
0.000000 0.501518 0.000000
0.000000 0.498451 0.000000
0.000000 0.494209 0.000000
0.000000 0.489357 0.000000
0.000000 0.483650 0.000000
0.000000 0.478187 0.000000
0.000000 0.473548 0.000000
0.000000 0.468208 0.000000
0.000000 0.468849 0.000000
0.000000 0.473732 0.000000
0.231083 0.474220 0.000000
0.351324 0.461006 0.000000
0.434302 0.417792 0.000000
0.518761 0.353460 0.000000
0.604578 0.264286 0.000000
0.690517 0.080507 0.000000
0.774228 0.000000 0.000000
0.852964 0.000000 0.000000
0.920867 0.000000 0.000000
0.976928 0.000000 0.000000
1.000000 0.000000 0.107332
1.000000 0.000000 0.203220
1.000000 0.000000 0.280125
1.000000 0.000000 0.347082
1.000000 0.000000 0.406500
1.000000 0.000000 0.459632
1.000000 0.000000 0.506004
1.000000 0.000000 0.546075
1.000000 0.000000 0.581445
0.000000 0.581170 0.000000
0.000000 0.580468 0.000000
0.000000 0.579583 0.000000
0.000000 0.577722 0.000000
0.000000 0.574701 0.000000
0.000000 0.570855 0.000000
0.000000 0.566400 0.000000
0.000000 0.561395 0.000000
0.000000 0.555444 0.000000
0.000000 0.551141 0.000000
0.000000 0.546441 0.000000
0.000000 0.541344 0.000000
0.000000 0.542962 0.000000
0.101778 0.545617 0.000000
0.305455 0.543145 0.000000
0.439399 0.528679 0.000000
0.533410 0.489570 0.000000
0.621363 0.424720 0.000000
0.706996 0.336248 0.000000
0.789242 0.195926 0.000000
0.865873 0.000000 0.000000
0.932952 0.000000 0.000000
0.988830 0.000000 0.000000
1.000000 0.000000 0.000000
1.000000 0.000000 0.000000
1.000000 0.000000 0.155825
1.000000 0.000000 0.251347
1.000000 0.000000 0.326390
1.000000 0.000000 0.391638
1.000000 0.000000 0.447791
1.000000 0.000000 0.496529
1.000000 0.000000 0.538537
0.000000 0.645899 0.000000
0.000000 0.645563 0.000000
0.000000 0.644678 0.000000
0.000000 0.643153 0.000000
0.000000 0.640467 0.000000
0.000000 0.637293 0.000000
0.000000 0.633326 0.000000
0.000000 0.628992 0.000000
0.000000 0.623957 0.000000
0.000000 0.619379 0.000000
0.000000 0.615625 0.000000
0.000000 0.611353 0.000000
0.000000 0.606439 0.000000
0.000000 0.608392 0.000000
0.195254 0.607813 0.000000
0.387640 0.601282 0.000000
0.534691 0.583917 0.000000
0.636072 0.548272 0.000000
0.722713 0.488869 0.000000
0.802945 0.409308 0.000000
0.876463 0.294835 0.000000
0.940795 0.000000 0.000000
0.994842 0.000000 0.000000
1.000000 0.000000 0.000000
1.000000 0.000000 0.000000
1.000000 0.000000 0.000000
1.000000 0.000000 0.074922
1.000000 0.000000 0.211795
1.000000 0.000000 0.299901
1.000000 0.000000 0.371557
1.000000 0.000000 0.432227
1.000000 0.000000 0.484565
0.000000 0.699245 0.000000
0.000000 0.698970 0.000000
0.000000 0.698482 0.000000
0.000000 0.697322 0.000000
0.000000 0.695491 0.000000
0.000000 0.693202 0.000000
0.000000 0.690486 0.000000
0.000000 0.687282 0.000000
0.000000 0.683406 0.000000
0.000000 0.678950 0.000000
0.000000 0.675349 0.000000
0.000000 0.671839 0.000000
0.000000 0.667475 0.000000
0.000000 0.662104 0.000000
0.000000 0.662562 0.000000
0.278965 0.658259 0.000000
0.472236 0.647547 0.000000
0.627771 0.627680 0.000000
0.732815 0.593530 0.000000
0.817594 0.542229 0.000000
0.887541 0.473945 0.000000
0.948211 0.384253 0.000000
0.999481 0.247868 0.000000
1.000000 0.000000 0.000000
1.000000 0.000000 0.000000
1.000000 0.000000 0.000000
1.000000 0.000000 0.000000
1.000000 0.000000 0.000000
1.000000 0.000000 0.157443
1.000000 0.000000 0.265965
1.000000 0.000000 0.347112
1.000000 0.000000 0.413733
0.000000 0.742641 0.000000
0.000000 0.742367 0.000000
0.000000 0.741939 0.000000
0.000000 0.740993 0.000000
0.000000 0.739528 0.000000
0.000000 0.737728 0.000000
0.000000 0.735531 0.000000
0.000000 0.732784 0.000000
0.000000 0.729641 0.000000
0.000000 0.725948 0.000000
0.000000 0.721981 0.067109
0.000000 0.719661 0.000000
0.000000 0.716640 0.000000
0.000000 0.712734 0.000000
0.000000 0.708064 0.000000
0.000000 0.706722 0.000000
0.359319 0.698939 0.000000
0.555352 0.684627 0.000000
0.715297 0.663172 0.000000
0.821408 0.631952 0.000000
0.897704 0.588251 0.000000
0.954162 0.529686 0.000000
1.000000 0.458595 0.000000
1.000000 0.364324 0.000000
1.000000 0.204715 0.000000
1.000000 0.000000 0.000000
1.000000 0.000000 0.000000
1.000000 0.000000 0.000000
1.000000 0.000000 0.000000
1.000000 0.000000 0.065919
1.000000 0.000000 0.225101
1.000000 0.000000 0.319219
0.000000 0.780606 0.000000
0.000000 0.780575 0.000000
0.000000 0.787625 0.000000
0.000000 0.786831 0.000000
0.000000 0.785519 0.000000
0.000000 0.783749 0.000000
0.000000 0.781521 0.000000
0.000000 0.778897 0.000000
0.000000 0.775998 0.000000
0.000000 0.772549 0.000000
0.000000 0.768673 0.116487
0.000000 0.765652 0.126925
0.000000 0.763302 0.076387
0.000000 0.760464 0.000000
0.000000 0.756832 0.000000
0.000000 0.753079 0.000000
0.182498 0.748531 0.000000
0.449348 0.737209 0.000000
0.646052 0.719081 0.000000
0.802762 0.696773 0.000000
0.902586 0.669886 0.000000
0.965423 0.633295 0.000000
1.000000 0.582269 0.000000
1.000000 0.523705 0.000000
1.000000 0.450660 0.000000
1.000000 0.350011 0.000000
1.000000 0.156558 0.000000
1.000000 0.000000 0.000000
1.000000 0.000000 0.000000
1.000000 0.000000 0.000000
1.000000 0.000000 0.000000
1.000000 0.000000 0.176150
0.000000 0.817105 0.000000
0.000000 0.817807 0.000000
0.000000 0.818448 0.000000
0.000000 0.818662 0.000000
0.000000 0.818173 0.000000
0.000000 0.817075 0.000000
0.000000 0.815335 0.000000
0.000000 0.813077 0.000000
0.000000 0.810636 0.000000
0.000000 0.807706 0.052644
0.000000 0.804257 0.138430
0.034791 0.800259 0.191379
0.000000 0.798764 0.165682
0.000000 0.796902 0.124117
0.000000 0.794430 0.051972
0.000000 0.791257 0.000000
0.000000 0.787930 0.000000
0.282261 0.781003 0.000000
0.530449 0.766781 0.000000
0.721981 0.746883 0.000000
0.867887 0.726009 0.000000
0.966247 0.709010 0.000000
1.000000 0.675013 0.000000
1.000000 0.629145 0.000000
1.000000 0.577813 0.000000
1.000000 0.517357 0.000000
1.000000 0.439796 0.000000
1.000000 0.326574 0.000000
1.000000 0.000000 0.000000
1.000000 0.000000 0.000000
1.000000 0.000000 0.000000
1.000000 0.000000 0.000000
0.114321 0.848447 0.000000
0.118685 0.849027 0.000000
0.122866 0.849577 0.000000
0.128023 0.849699 0.000000
0.132784 0.849363 0.000000
0.137606 0.848386 0.000000
0.143618 0.846891 0.000000
0.150942 0.845029 0.000000
0.159792 0.842863 0.000000
0.169680 0.840330 0.103212
0.181216 0.837400 0.165164
0.192813 0.833951 0.214450
0.171145 0.831144 0.234012
0.000000 0.830381 0.203006
0.000000 0.829099 0.165438
0.000000 0.827176 0.115572
0.000000 0.824582 0.000000
0.000000 0.821042 0.000000
0.374823 0.811521 0.000000
0.611383 0.794736 0.000000
0.792264 0.773983 0.000000
0.921111 0.756039 0.000000
1.000000 0.745357 0.000000
1.000000 0.714870 0.000000
1.000000 0.673579 0.000000
1.000000 0.625910 0.000000
1.000000 0.571984 0.000000
1.000000 0.506310 0.000000
1.000000 0.419806 0.000000
1.000000 0.284855 0.000000
1.000000 0.000000 0.000000
1.000000 0.000000 0.000000
0.206638 0.877012 0.000000
0.209262 0.877501 0.000000
0.211948 0.877958 0.000000
0.215244 0.878050 0.000000
0.219608 0.877684 0.000000
0.224277 0.876860 0.000000
0.229526 0.875608 0.000000
0.236240 0.874052 0.000000
0.244297 0.872099 0.072023
0.254215 0.869810 0.144656
0.265141 0.867277 0.195407
0.277440 0.864134 0.240818
0.289158 0.860502 0.282383
0.240452 0.859770 0.271336
0.144656 0.859770 0.241032
0.000000 0.859373 0.205173
0.000000 0.858457 0.162112
0.000000 0.857084 0.102419
0.062806 0.852934 0.073610
0.469123 0.840726 0.081086
0.693263 0.822019 0.075410
0.857237 0.802182 0.061402
0.965454 0.787839 0.030701
1.000000 0.781704 0.000000
1.000000 0.756069 0.063752
1.000000 0.718166 0.000000
1.000000 0.671351 0.000000
1.000000 0.619989 0.000000
1.000000 0.560815 0.000000
1.000000 0.487892 0.000000
1.000000 0.387152 0.000000
1.000000 0.210117 0.000000
0.281529 0.904265 0.000000
0.282689 0.904387 0.000000
0.284306 0.904417 0.000000
0.286717 0.904204 0.000000
0.290471 0.903655 0.000000
0.295201 0.902800 0.000000
0.301274 0.901701 0.000000
0.308782 0.900298 0.071962
0.318303 0.898680 0.139590
0.329503 0.896788 0.189029
0.342168 0.894560 0.233310
0.356817 0.891844 0.275303
0.372045 0.888548 0.315404
0.373877 0.885771 0.342016
0.310002 0.887083 0.314397
0.229404 0.888060 0.283391
0.090639 0.888579 0.248478
0.000000 0.888640 0.208042
0.000000 0.888243 0.159548
0.259739 0.881682 0.151827
0.559106 0.866178 0.155581
0.764736 0.845945 0.155123
0.905699 0.827756 0.152468
0.994598 0.816159 0.151095
1.000000 0.812772 0.149050
1.000000 0.791989 0.160555
1.000000 0.755703 0.155276
1.000000 0.709560 0.113375
1.000000 0.659327 0.000000
1.000000 0.603723 0.000000
1.000000 0.538354 0.000000
1.000000 0.454505 0.000000
0.340063 0.924926 0.000000
0.341772 0.925017 0.000000
0.343603 0.925048 0.000000
0.346349 0.924834 0.000000
0.350408 0.924315 0.000000
0.355718 0.923522 0.000000
0.362615 0.922515 0.096132
0.371038 0.921202 0.146883
0.381811 0.919677 0.190372
0.394293 0.917876 0.231022
0.409125 0.915709 0.270634
0.425696 0.913176 0.309758
0.443671 0.910124 0.347997
0.462776 0.906554 0.385901
0.434668 0.906798 0.383001
0.372229 0.909178 0.355627
0.297246 0.911284 0.324834
0.197665 0.912993 0.290715
0.000000 0.914244 0.252689
0.000000 0.915099 0.208011
0.379461 0.905028 0.211521
0.642603 0.886870 0.215915
0.824582 0.866911 0.217563
0.942351 0.851225 0.219181
1.000000 0.840574 0.215793
1.000000 0.839048 0.217319
1.000000 0.823239 0.225620
1.000000 0.788205 0.227756
1.000000 0.742519 0.195926
1.000000 0.693233 0.150576
1.000000 0.639643 0.064240
1.000000 0.579156 0.000000
0.399207 0.942351 0.000000
0.400732 0.942382 0.000000
0.402411 0.942351 0.018524
0.405554 0.942016 0.075868
0.410040 0.941466 0.109895
0.415869 0.940673 0.142855
0.423743 0.939574 0.175509
0.432990 0.938231 0.208621
0.444709 0.936584 0.242863
0.458350 0.934722 0.277409
0.474464 0.932464 0.313024
0.492622 0.929839 0.349004
0.512779 0.926787 0.385351
0.534691 0.923217 0.421302
0.550530 0.919890 0.450782
0.496437 0.923278 0.425635
0.434333 0.926604 0.397803
0.361212 0.929747 0.366827
0.272740 0.932647 0.333074
0.138094 0.935149 0.295598
0.000000 0.936278 0.258061
0.483009 0.922179 0.266117
0.713741 0.902556 0.271183
0.869657 0.883665 0.273747
0.966979 0.870085 0.276463
1.000000 0.861906 0.277867
1.000000 0.861387 0.281224
1.000000 0.850706 0.287236
1.000000 0.816312 0.294530
1.000000 0.771267 0.264775
1.000000 0.723232 0.224735
1.000000 0.671351 0.166232
0.449592 0.954345 0.143771
0.451331 0.954345 0.149599
0.453285 0.954223 0.156619
0.456703 0.953918 0.169528
0.461830 0.953338 0.187320
0.468727 0.952514 0.209384
0.477607 0.951446 0.234287
0.488441 0.950134 0.261784
0.501701 0.948516 0.291661
0.517601 0.946593 0.323735
0.535760 0.944335 0.356725
0.556512 0.941650 0.391089
0.579553 0.938506 0.425879
0.604303 0.934905 0.460487
0.630457 0.930816 0.494392
0.616297 0.931243 0.496590
0.564019 0.935576 0.472084
0.503380 0.940093 0.444739
0.433906 0.944488 0.414923
0.352514 0.948669 0.382391
0.248112 0.952483 0.345830
0.276768 0.951720 0.318761
0.581811 0.934600 0.325841
0.778317 0.914794 0.330999
0.906432 0.898009 0.335027
0.986145 0.886503 0.337652
1.000000 0.879606 0.339422
1.000000 0.879484 0.344945
1.000000 0.874937 0.349981
1.000000 0.839078 0.357488
1.000000 0.796689 0.334386
1.000000 0.750179 0.295781
0.500511 0.963073 0.219425
0.502373 0.962982 0.223667
0.504326 0.962829 0.228367
0.507774 0.962463 0.237461
0.513268 0.961822 0.251316
0.520775 0.960937 0.268894
0.530510 0.959777 0.290318
0.542443 0.958373 0.314305
0.557214 0.956603 0.341497
0.574395 0.954559 0.370733
0.594537 0.952087 0.402014
0.617304 0.949218 0.434485
0.642512 0.945861 0.467689
0.669551 0.942046 0.500877
0.697780 0.937774 0.533654
0.723659 0.933532 0.563409
0.681849 0.938170 0.542443
0.631891 0.943297 0.518364
0.574273 0.948730 0.492103
0.507683 0.954192 0.463172
0.430488 0.959564 0.431464
0.338018 0.964599 0.396674
0.428351 0.960449 0.378759
0.669490 0.941772 0.385229
0.831235 0.923125 0.390173
0.934356 0.908782 0.394568
0.999237 0.899138 0.397681
1.000000 0.893339 0.398657
1.000000 0.893065 0.405554
1.000000 0.893980 0.410132
1.000000 0.857908 0.417426
1.000000 0.818296 0.400092
0.550042 0.968536 0.282933
0.551751 0.968383 0.286137
0.553735 0.968200 0.290135
0.557733 0.967803 0.298131
0.564111 0.967102 0.310430
0.572961 0.966125 0.326696
0.584558 0.964874 0.346715
0.598901 0.963317 0.369970
0.616175 0.961395 0.396185
0.636530 0.959075 0.424842
0.659632 0.956298 0.455146
0.685359 0.953063 0.486824
0.713191 0.949340 0.519097
0.741665 0.945251 0.550896
0.769528 0.940948 0.581415
0.795926 0.936584 0.610224
0.792660 0.936614 0.614923
0.756985 0.941375 0.595636
0.714565 0.946715 0.574304
0.663630 0.952636 0.550256
0.603021 0.959014 0.523247
0.531579 0.965576 0.493111
0.446418 0.972076 0.459205
0.571252 0.963439 0.450233
0.757015 0.944884 0.456153
0.879942 0.928954 0.460945
0.958923 0.917327 0.464698
1.000000 0.909483 0.467536
1.000000 0.904723 0.468055
1.000000 0.904143 0.474769
1.000000 0.905760 0.480507
1.000000 0.874601 0.487007
0.607904 0.971191 0.351904
0.609583 0.971008 0.354681
0.611597 0.970794 0.357977
0.615808 0.970275 0.364996
0.622675 0.969451 0.375799
0.632044 0.968322 0.390265
0.644129 0.966888 0.407996
0.658869 0.965087 0.428779
0.676631 0.962860 0.452338
0.697505 0.960174 0.478645
0.720699 0.957061 0.506340
0.746029 0.953521 0.535393
0.772000 0.949706 0.564477
0.797940 0.945678 0.593194
0.822965 0.941588 0.621057
0.846525 0.937530 0.647730
