其他预设/【213】赛博朋克科幻预设52款/1.LUT预设（视频调色-PR-AE-PS-FCPX-达芬奇用）/赛博朋克科幻__-5 强度3.cube
# Created by Adobe Lightroom plugin Export LUT (1.17.0)
# www.johnrellis.com/lightroom/exportlut.htm
# Preset: 赛博朋克科幻[素锦印象]-5 强度3
# Color profile: /Library/Application Support/Adobe/Color/Profiles/Recommended/AdobeRGB1998.icc
LUT_3D_SIZE 5
DOMAIN_MIN 0.000000 0.000000 0.000000
DOMAIN_MAX 0.903226 0.903226 0.903226
0.062257 0.060975 0.050752
0.198154 0.000000 0.098878
0.497353 0.000000 0.216342
0.785153 0.000000 0.344152
0.984314 0.000000 0.447150
0.000000 0.254398 0.171786
0.173251 0.202853 0.037049
0.496590 0.000000 0.136507
0.785946 0.000000 0.315068
0.984771 0.000000 0.447364
0.000000 0.666896 0.477394
0.000000 0.631250 0.391180
0.432044 0.519615 0.000000
0.785550 0.073365 0.000000
0.997040 0.000000 0.264347
0.000000 0.906950 0.699458
0.000000 0.898070 0.659541
0.000000 0.860410 0.465278
0.653193 0.783139 0.000000
0.985199 0.463661 0.125612
0.000000 1.000000 0.836515
0.000000 1.000000 0.816129
0.000000 1.000000 0.756405
0.160098 1.000000 0.537957
0.825406 0.966583 0.167819
0.000000 0.088869 0.159396
0.184512 0.000000 0.165805
0.514122 0.000000 0.317784
0.791623 0.000000 0.421424
0.986084 0.000000 0.460517
0.000000 0.192538 0.180514
0.188998 0.183139 0.148684
0.497658 0.000000 0.252750
0.787320 0.000000 0.387060
0.986786 0.000000 0.473030
0.000000 0.665766 0.527855
0.000000 0.626520 0.448249
0.434943 0.507774 0.091676
0.788296 0.000000 0.165377
0.993744 0.000000 0.344244
0.000000 0.907469 0.732082
0.000000 0.897948 0.694789
0.000000 0.855894 0.523033
0.660945 0.778775 0.000000
0.983093 0.476570 0.244083
0.000000 1.000000 0.857267
0.000000 1.000000 0.837797
0.000000 1.000000 0.778927
0.317510 1.000000 0.591028
0.834958 0.964324 0.281895
0.000000 0.200259 0.501183
0.000000 0.000000 0.465583
0.481422 0.000000 0.459541
0.790585 0.000000 0.604456
0.992737 0.000000 0.607996
0.000000 0.342718 0.523583
0.000000 0.205295 0.483650
0.473304 0.000000 0.450935
0.790188 0.000000 0.594965
0.993530 0.000000 0.612940
0.000000 0.537407 0.558221
0.000000 0.518975 0.527550
0.480171 0.466957 0.390417
0.775937 0.344274 0.485908
0.985107 0.000000 0.558129
0.000000 0.871641 0.808103
0.000000 0.881285 0.798062
0.239200 0.856291 0.695644
0.696407 0.762661 0.402411
0.976593 0.529992 0.463478
0.000000 1.000000 0.931090
0.000000 1.000000 0.914885
0.000000 1.000000 0.854154
0.557610 0.995514 0.740139
0.862638 0.957275 0.493874
0.000000 0.290837 0.811948
0.000000 0.147921 0.801358
0.285496 0.000000 0.751431
0.714290 0.000000 0.750607
0.977783 0.000000 0.833310
0.000000 0.357824 0.818082
0.000000 0.254978 0.808255
0.245243 0.000000 0.760739
0.706325 0.000000 0.752712
0.978027 0.000000 0.838346
0.000000 0.601831 0.839200
0.000000 0.602502 0.833555
0.381964 0.508659 0.783200
0.713893 0.176486 0.739071
0.984466 0.000000 0.820920
0.000000 0.748196 0.840269
0.000000 0.749783 0.833524
0.403388 0.764096 0.802304
0.743008 0.732509 0.675837
0.958312 0.650874 0.740291
0.000000 0.954284 0.966094
0.000000 0.963867 0.965026
0.000000 0.998108 0.959594
0.647211 0.996796 0.900053
0.896513 0.946441 0.702998
0.000000 0.365057 0.986389
0.000000 0.302464 0.984649
0.000000 0.000000 0.974701
0.479927 0.000000 0.947021
0.872160 0.000000 0.956115
0.000000 0.368170 0.988434
0.000000 0.308751 0.986786
0.000000 0.000000 0.977600
0.464546 0.000000 0.950652
0.868376 0.000000 0.957305
0.000000 0.605646 0.994873
0.000000 0.615167 0.990112
0.000000 0.434913 0.985168
0.378607 0.000000 0.963165
0.855558 0.000000 0.961547
0.000000 0.730373 0.993744
0.000000 0.739498 0.992828
0.509178 0.807553 0.985931
0.744228 0.799863 0.966857
0.882902 0.457649 0.952422
0.000000 0.850370 0.992554
0.000000 0.852567 0.992004
0.000000 0.877317 0.986816
0.741146 0.931182 0.973510
0.929717 0.926390 0.909209
