其他预设/【213】赛博朋克科幻预设52款/1.LUT预设（视频调色-PR-AE-PS-FCPX-达芬奇用）/赛博朋克科幻__-6 强度1.cube
# Created by Adobe Lightroom plugin Export LUT (1.17.0)
# www.johnrellis.com/lightroom/exportlut.htm
# Preset: 赛博朋克科幻[素锦印象]-6 强度1
# Color profile: /Library/Application Support/Adobe/Color/Profiles/Recommended/AdobeRGB1998.icc
LUT_3D_SIZE 8
DOMAIN_MIN 0.000000 0.000000 0.000000
DOMAIN_MAX 0.903226 0.903226 0.903226
0.051362 0.036835 0.037812
0.136263 0.007568 0.041962
0.257145 0.000000 0.054963
0.387701 0.000000 0.065461
0.525780 0.000000 0.078401
0.665034 0.000000 0.094026
0.798947 0.000000 0.113558
0.922454 0.000000 0.139742
0.080842 0.135744 0.006500
0.143343 0.131807 0.009888
0.258122 0.116152 0.030762
0.388342 0.071382 0.054841
0.526238 0.000000 0.071107
0.665278 0.000000 0.086854
0.799039 0.000000 0.107546
0.922454 0.000000 0.134859
0.139223 0.255955 0.000000
0.177157 0.254276 0.000000
0.269444 0.251408 0.000000
0.390021 0.246738 0.000000
0.527916 0.231601 0.000366
0.666194 0.196567 0.047333
0.799435 0.131533 0.080903
0.922423 0.000000 0.113527
0.201328 0.379095 0.000000
0.226932 0.378515 0.000000
0.300053 0.376776 0.000000
0.403754 0.378851 0.000000
0.526696 0.374578 0.000000
0.668116 0.374334 0.000000
0.800259 0.349462 0.000000
0.922484 0.313512 0.032227
0.262791 0.504723 0.000000
0.281865 0.504479 0.000000
0.341253 0.503380 0.000000
0.430243 0.504784 0.000000
0.542321 0.510369 0.000000
0.662562 0.502403 0.000000
0.799863 0.504417 0.000000
0.922667 0.484810 0.000000
0.323613 0.631617 0.000000
0.339055 0.631495 0.000000
0.388556 0.631189 0.000000
0.465339 0.630518 0.000000
0.564782 0.635615 0.000000
0.681300 0.642267 0.000000
0.793362 0.626276 0.000000
0.920256 0.621851 0.000000
0.383459 0.759182 0.000000
0.396155 0.759152 0.000000
0.438453 0.759091 0.000000
0.506493 0.758907 0.000000
0.594079 0.759792 0.000000
0.698695 0.764797 0.000000
0.815640 0.769558 0.000000
0.915984 0.742824 0.000000
0.440406 0.886137 0.000000
0.451240 0.886107 0.000000
0.488014 0.886046 0.000000
0.548760 0.885985 0.000000
0.628260 0.885679 0.000000
0.722499 0.887083 0.000000
0.828397 0.889189 0.000000
0.943359 0.890318 0.000000
0.049104 0.031952 0.134768
0.137148 0.001099 0.136080
0.254795 0.000000 0.141543
0.385626 0.000000 0.150668
0.524926 0.000000 0.152163
0.664698 0.000000 0.157687
0.798672 0.000000 0.170108
0.922148 0.000000 0.188693
0.055909 0.138094 0.123903
0.137819 0.132174 0.129091
0.257511 0.115663 0.132448
0.387884 0.066835 0.137453
0.525841 0.000000 0.144411
0.665003 0.000000 0.153048
0.798825 0.000000 0.165743
0.922148 0.000000 0.184665
0.113344 0.257847 0.084138
0.170230 0.254948 0.105776
0.267521 0.251804 0.107454
0.390723 0.246098 0.113375
0.527855 0.227268 0.123293
0.666163 0.191196 0.134340
0.799313 0.125093 0.148714
0.922271 0.000000 0.168917
0.188846 0.380621 0.018738
0.218753 0.379675 0.042573
0.295811 0.377539 0.043458
0.403021 0.379370 0.050172
0.527794 0.374517 0.071504
0.668269 0.371252 0.085298
0.800290 0.346502 0.107485
0.922454 0.311681 0.133211
0.253513 0.505913 0.000000
0.273899 0.505669 0.000000
0.336126 0.504509 0.000000
0.427619 0.505303 0.000000
0.541985 0.510765 0.000000
0.663386 0.502495 0.000000
0.800473 0.504021 0.000000
0.922728 0.483162 0.000000
0.315740 0.632441 0.000000
0.331670 0.632319 0.000000
0.383032 0.631952 0.000000
0.461860 0.631250 0.000000
0.562951 0.635859 0.000000
0.681056 0.642512 0.000000
0.793973 0.626459 0.000000
0.920592 0.621668 0.000000
0.375952 0.759731 0.000000
0.389105 0.759731 0.000000
0.432624 0.759640 0.000000
0.502312 0.759396 0.000000
0.591333 0.759915 0.000000
0.697292 0.764950 0.000000
0.815335 0.769680 0.000000
0.916350 0.742916 0.000000
0.432868 0.886656 0.000000
0.443977 0.886656 0.000000
0.481758 0.886595 0.000000
0.543847 0.886473 0.000000
0.624781 0.886107 0.000000
0.720241 0.887297 0.000000
0.827298 0.889372 0.000000
0.943175 0.890410 0.000000
0.056794 0.017029 0.258183
0.138613 0.000000 0.258305
0.258091 0.000000 0.258824
0.381170 0.000000 0.264103
0.518822 0.000000 0.276799
0.658869 0.000000 0.288731
0.795071 0.000000 0.292485
0.920256 0.000000 0.297032
0.061921 0.133516 0.253605
0.138766 0.129610 0.253727
0.257511 0.115999 0.255131
0.383154 0.082856 0.261173
0.520714 0.000000 0.272801
0.660670 0.000000 0.282292
0.796292 0.000000 0.286534
0.920684 0.000000 0.294926
0.078523 0.262303 0.231998
0.142733 0.260655 0.234958
0.259403 0.253239 0.244907
0.389441 0.240635 0.249271
0.526848 0.217319 0.254826
0.665370 0.177798 0.261814
0.798642 0.110811 0.271489
0.921233 0.000000 0.285496
0.098024 0.384894 0.168399
0.149142 0.385199 0.172946
0.282811 0.381659 0.214389
0.399512 0.380957 0.216678
0.530510 0.375860 0.226078
0.667994 0.362768 0.237064
0.800015 0.339361 0.248844
0.921813 0.309331 0.263890
0.196780 0.510796 0.132753
0.241428 0.510002 0.161868
0.320470 0.508263 0.175357
0.418799 0.506706 0.175845
0.540093 0.512139 0.182345
0.665736 0.503990 0.196872
0.801877 0.503288 0.209323
0.922545 0.479316 0.226413
0.285374 0.635615 0.081910
0.305943 0.635309 0.091920
0.366186 0.634607 0.106081
0.451209 0.633753 0.105653
0.556695 0.636683 0.109651
0.679469 0.643366 0.119570
0.795621 0.627680 0.145449
0.921538 0.622034 0.160464
0.351110 0.761654 0.000000
0.366339 0.761532 0.000000
0.414527 0.761349 0.000000
0.489143 0.761013 0.000000
0.582177 0.760342 0.000000
0.692409 0.765347 0.000000
0.813993 0.770138 0.000000
0.917418 0.743648 0.000000
0.408453 0.888304 0.000000
0.420050 0.888365 0.000000
0.461280 0.888243 0.000000
0.527947 0.887968 0.000000
0.613397 0.887480 0.000000
0.712825 0.887907 0.000000
0.823453 0.889891 0.000000
0.942199 0.890715 0.000000
0.067262 0.000000 0.388952
0.143618 0.000000 0.388983
0.264225 0.000000 0.389227
0.387640 0.000000 0.390539
0.514519 0.000000 0.395361
0.651942 0.000000 0.406317
0.788968 0.000000 0.414282
0.916686 0.000000 0.411780
0.061646 0.128511 0.385718
0.140291 0.124910 0.385962
0.262455 0.109560 0.386755
0.387335 0.066682 0.388495
0.515435 0.000000 0.393469
0.653285 0.000000 0.404150
0.789975 0.000000 0.411627
0.917327 0.000000 0.408942
0.061402 0.265263 0.377234
0.137636 0.260410 0.378454
0.259464 0.250645 0.379736
0.387732 0.237217 0.381689
0.518303 0.216342 0.386572
0.657862 0.184329 0.396979
0.793271 0.116121 0.403540
0.918608 0.000000 0.405158
0.084810 0.393256 0.345739
0.144839 0.392645 0.347784
0.259403 0.390082 0.355627
0.390387 0.383948 0.369970
0.527367 0.373938 0.375830
0.665095 0.359014 0.383185
0.797482 0.340917 0.392889
0.918975 0.323125 0.405707
0.111116 0.511070 0.277958
0.157137 0.511650 0.280980
0.258946 0.513939 0.292119
0.406836 0.512596 0.334417
0.535210 0.514855 0.339452
0.668391 0.508995 0.351690
0.800443 0.498268 0.364385
0.920684 0.480018 0.378088
0.117617 0.641840 0.187533
0.175082 0.641779 0.200320
0.317052 0.640101 0.264134
0.434089 0.638361 0.292576
0.545525 0.637995 0.293614
0.675959 0.645106 0.304265
0.797482 0.631342 0.321080
0.922087 0.626093 0.335546
0.281254 0.765591 0.181094
0.312108 0.765072 0.202121
0.385595 0.764004 0.233463
0.466835 0.763760 0.229496
0.567468 0.762905 0.228916
0.683406 0.765896 0.235386
0.810910 0.771054 0.249363
0.918425 0.745846 0.269932
0.381170 0.889464 0.147402
0.393317 0.889555 0.142245
0.432868 0.890074 0.114168
0.500877 0.890410 0.054871
0.593927 0.889677 0.034302
0.699550 0.888823 0.009888
0.816312 0.890623 0.067994
0.939818 0.891295 0.099367
0.076844 0.000000 0.524346
0.148226 0.000000 0.524315
0.269383 0.000000 0.524620
0.394995 0.000000 0.525444
0.521813 0.000000 0.527153
0.649622 0.000000 0.530022
0.781399 0.000000 0.534722
0.911162 0.000000 0.534234
0.062409 0.120516 0.522210
0.142428 0.116457 0.522332
0.266392 0.097932 0.522881
0.393683 0.022766 0.523980
0.521538 0.000000 0.525689
0.650294 0.000000 0.528710
0.782101 0.000000 0.533043
0.911772 0.000000 0.532219
0.000000 0.258000 0.516808
0.126162 0.254490 0.516869
0.259495 0.246769 0.517601
0.391089 0.233005 0.518822
0.521508 0.210208 0.520714
0.652216 0.173526 0.524010
0.785122 0.082124 0.528130
0.913756 0.000000 0.525841
0.004883 0.404547 0.501518
0.127810 0.402106 0.502678
0.257786 0.392859 0.506950
0.390234 0.381445 0.509972
0.522759 0.369146 0.511986
0.654841 0.350622 0.515068
0.790066 0.325933 0.520470
0.916716 0.274510 0.516564
0.081605 0.526299 0.461250
0.143343 0.526116 0.463020
0.258549 0.525231 0.469276
0.387243 0.523125 0.481086
0.526055 0.519280 0.499428
0.663569 0.513115 0.507805
0.795102 0.505760 0.517998
0.915343 0.498848 0.530114
0.120821 0.637263 0.385199
0.163668 0.637781 0.387579
0.261631 0.639704 0.396277
0.379461 0.643519 0.412757
0.532372 0.643885 0.454108
0.669581 0.647974 0.464027
0.798489 0.640650 0.481636
0.918975 0.630762 0.496407
0.126772 0.768399 0.314763
0.166842 0.768704 0.316655
0.260685 0.769863 0.322942
0.414252 0.768490 0.374212
0.546014 0.766873 0.399298
0.668940 0.766384 0.402228
0.805386 0.772427 0.421057
0.918242 0.751522 0.442603
0.211765 0.896452 0.235050
0.252506 0.895903 0.250950
0.359045 0.893889 0.300572
0.484962 0.890898 0.360906
0.564660 0.892760 0.320470
0.679988 0.891020 0.319860
0.805203 0.891447 0.330663
0.935271 0.891997 0.350225
0.083192 0.000000 0.653223
0.151034 0.000000 0.653285
0.269902 0.000000 0.653498
0.395239 0.000000 0.654078
0.521904 0.000000 0.655085
0.649042 0.000000 0.656580
0.781186 0.000000 0.662257
0.906523 0.000000 0.659022
0.068391 0.109010 0.652094
0.144045 0.104067 0.652155
0.266758 0.082124 0.652491
0.393744 0.000000 0.653132
0.521447 0.000000 0.654200
0.649195 0.000000 0.655726
0.781552 0.000000 0.661219
0.906828 0.000000 0.657588
0.000000 0.250584 0.648646
0.126253 0.248783 0.648737
0.259770 0.241642 0.649165
0.390753 0.227604 0.649928
0.520653 0.204410 0.651118
0.649928 0.165957 0.652796
0.782742 0.009705 0.657435
0.907683 0.000000 0.652338
0.000000 0.394141 0.642908
0.127749 0.392401 0.643000
0.258122 0.386786 0.643427
0.390112 0.378271 0.644251
0.521477 0.365637 0.645533
0.651972 0.347326 0.647395
0.784298 0.312810 0.650294
0.909392 0.244175 0.643732
0.000000 0.543664 0.623499
0.115969 0.542138 0.624353
0.253941 0.536492 0.627344
0.391333 0.526726 0.633234
0.525719 0.516869 0.637415
0.655818 0.504326 0.639521
0.785458 0.484291 0.640131
0.911650 0.458747 0.638636
0.048829 0.663539 0.580285
0.132509 0.663203 0.581445
0.253239 0.661982 0.585748
0.381720 0.659480 0.593866
0.518029 0.655573 0.606836
0.660426 0.653346 0.627680
0.792233 0.650690 0.637995
0.911803 0.647669 0.648981
0.126040 0.763790 0.491585
0.166690 0.764034 0.493355
0.261418 0.765042 0.499672
0.374273 0.766964 0.511498
0.501854 0.769772 0.532311
0.658534 0.769467 0.576501
0.796414 0.774655 0.591577
0.915526 0.766171 0.612177
0.145113 0.895659 0.432471
0.180148 0.895781 0.433845
0.267491 0.896239 0.438453
0.375006 0.897032 0.447181
0.527428 0.894682 0.492866
0.663386 0.892607 0.514183
0.791897 0.890929 0.519707
0.926787 0.892760 0.543786
0.087282 0.000000 0.774350
0.150942 0.000000 0.774380
0.267399 0.000000 0.774533
0.390967 0.000000 0.774960
0.516197 0.000000 0.775662
0.641993 0.000000 0.776638
0.768154 0.000000 0.778012
0.905089 0.000000 0.787564
0.073610 0.091127 0.773709
0.144778 0.084443 0.773770
0.264500 0.047730 0.774014
0.389593 0.000000 0.774441
0.515618 0.000000 0.775143
0.641962 0.000000 0.776181
0.768460 0.000000 0.777554
0.905333 0.000000 0.786648
0.022492 0.244114 0.771695
0.132906 0.242008 0.771786
0.259434 0.234562 0.772030
0.387213 0.219760 0.772549
0.514916 0.194095 0.773312
0.642298 0.149325 0.774411
0.769802 0.000000 0.775875
0.906004 0.000000 0.783352
0.049653 0.387488 0.768002
0.137301 0.386267 0.768093
0.262577 0.382269 0.768368
0.389441 0.373816 0.768948
0.516777 0.360204 0.769833
0.644343 0.339910 0.771054
0.772488 0.309300 0.772763
0.906920 0.223880 0.777035
0.063294 0.533043 0.759487
0.142794 0.531426 0.760006
0.269932 0.526055 0.762051
0.399145 0.521172 0.763394
0.524865 0.513481 0.764462
0.649958 0.499947 0.765866
0.776974 0.481697 0.767697
0.906706 0.441596 0.768307
0.000000 0.680049 0.741695
0.112032 0.678828 0.742184
0.252628 0.674495 0.744015
0.388952 0.667018 0.747555
0.528801 0.658228 0.753658
0.659998 0.651057 0.758114
0.782589 0.639155 0.760037
0.905486 0.617151 0.758694
0.000000 0.799435 0.698268
0.115877 0.798886 0.698970
0.245151 0.796933 0.701534
0.374334 0.793179 0.706416
0.509789 0.787411 0.714443
0.647883 0.781216 0.727169
0.787686 0.780331 0.749142
0.909270 0.780301 0.760433
0.136873 0.892302 0.599817
0.174075 0.892393 0.601099
0.263645 0.892760 0.605707
0.374792 0.893187 0.614984
0.499123 0.893278 0.631037
0.629633 0.893431 0.654261
0.781125 0.890867 0.695155
0.915496 0.893919 0.713832
0.082216 0.000000 0.885405
0.146029 0.000000 0.885466
0.260227 0.000000 0.885618
0.381262 0.000000 0.885954
0.504051 0.000000 0.886473
0.627497 0.000000 0.887236
0.751583 0.000000 0.888304
0.876890 0.000000 0.889708
0.070985 0.048096 0.885100
0.140719 0.020264 0.885161
0.257786 0.000000 0.885344
0.380102 0.000000 0.885679
0.503532 0.000000 0.886198
0.627344 0.000000 0.886992
0.751736 0.000000 0.888090
0.877287 0.000000 0.889525
0.061433 0.234287 0.883970
0.136629 0.231998 0.884001
0.255955 0.223056 0.884215
0.379217 0.205112 0.884581
0.503258 0.172183 0.885161
0.627588 0.103548 0.885985
0.752529 0.000000 0.887144
0.878813 0.000000 0.888701
0.110872 0.382940 0.881590
0.161898 0.381598 0.881651
0.268009 0.376257 0.881865
0.386053 0.366186 0.882292
0.507469 0.349584 0.882994
0.630396 0.323735 0.883970
0.754910 0.282963 0.885252
0.881834 0.211948 0.887022
0.140993 0.521080 0.877897
0.185977 0.520775 0.877928
0.289525 0.520012 0.878141
0.409339 0.519310 0.878508
0.521874 0.507683 0.879332
0.639765 0.491005 0.880430
0.761440 0.467750 0.881834
0.886656 0.435584 0.883604
0.130526 0.666865 0.869139
0.180026 0.665766 0.869383
0.288975 0.662257 0.870359
0.415015 0.656886 0.872282
0.541924 0.653620 0.874022
0.658350 0.647395 0.875090
0.773220 0.632807 0.876555
0.893126 0.613458 0.878355
0.065522 0.813107 0.856077
0.141756 0.812070 0.856321
0.264591 0.808225 0.857176
0.395453 0.801633 0.858793
0.529198 0.792844 0.861448
0.664302 0.784115 0.865934
0.787015 0.778042 0.869688
0.900175 0.765866 0.871580
0.030426 0.935058 0.816678
0.128542 0.934447 0.817105
0.251469 0.932097 0.818662
0.379004 0.927642 0.821653
0.508690 0.920867 0.826230
0.639918 0.911772 0.832792
0.771633 0.901610 0.842496
0.905913 0.898375 0.862028
