其他预设/【213】赛博朋克科幻预设52款/1.LUT预设（视频调色-PR-AE-PS-FCPX-达芬奇用）/赛博朋克科幻__-10 强度1.cube
# Created by Adobe Lightroom plugin Export LUT (1.17.0)
# www.johnrellis.com/lightroom/exportlut.htm
# Preset: 赛博朋克科幻[素锦印象]-10 强度1
# Color profile: /Library/Application Support/Adobe/Color/Profiles/Recommended/AdobeRGB1998.icc
LUT_3D_SIZE 5
DOMAIN_MIN 0.000000 0.000000 0.000000
DOMAIN_MAX 0.903226 0.903226 0.903226
0.019532 0.019532 0.019532
0.237217 0.000000 0.051118
0.476234 0.000000 0.096040
0.704372 0.000000 0.162692
0.917693 0.055909 0.249332
0.000000 0.263371 0.028962
0.237736 0.240818 0.048737
0.472999 0.223819 0.110536
0.702419 0.214481 0.173068
0.916564 0.236759 0.256962
0.000000 0.515984 0.087953
0.203006 0.512352 0.055055
0.473304 0.479377 0.129274
0.696010 0.460914 0.202090
0.912657 0.463386 0.281254
0.000000 0.746120 0.144106
0.113832 0.744533 0.128756
0.451545 0.738064 0.128023
0.696742 0.705287 0.216770
0.906004 0.688106 0.320745
0.000000 0.952605 0.206027
0.034272 0.950683 0.227909
0.419440 0.947112 0.229007
0.674037 0.939239 0.237095
0.904845 0.914794 0.355871
0.032197 0.000000 0.225437
0.240543 0.000000 0.220890
0.472297 0.047547 0.244358
0.703120 0.089357 0.282841
0.916594 0.161990 0.337255
0.000000 0.249210 0.233158
0.241581 0.239994 0.231662
0.474617 0.242496 0.254124
0.702144 0.243931 0.286748
0.915557 0.271885 0.341802
0.000000 0.509392 0.246860
0.205814 0.504265 0.240238
0.474098 0.477882 0.259922
0.696620 0.467536 0.299962
0.912016 0.475929 0.357794
0.000000 0.742397 0.266545
0.142550 0.740322 0.261967
0.454292 0.734401 0.261845
0.697536 0.704616 0.308721
0.905821 0.692226 0.387182
0.000000 0.952117 0.282048
0.000000 0.950195 0.296269
0.429847 0.945556 0.317784
0.677607 0.938964 0.320775
0.905760 0.914611 0.415747
0.080354 0.000000 0.433356
0.246738 0.000000 0.437140
0.473915 0.000000 0.433234
0.692042 0.082490 0.447150
0.913603 0.156252 0.478767
0.000000 0.213718 0.434913
0.227909 0.207248 0.439399
0.474861 0.209659 0.438270
0.694148 0.251316 0.454902
0.914031 0.282994 0.487495
0.000000 0.484871 0.452064
0.189517 0.482185 0.452338
0.475929 0.472450 0.454231
0.699794 0.483833 0.480262
0.911864 0.508690 0.521721
0.000000 0.733730 0.461250
0.136049 0.731319 0.460273
0.454353 0.723598 0.463325
0.699763 0.702113 0.488594
0.906737 0.703975 0.538567
0.000000 0.949248 0.458381
0.000000 0.948333 0.458930
0.432319 0.943206 0.480629
0.688838 0.935851 0.502403
0.908843 0.914336 0.553216
0.116426 0.000000 0.634516
0.250614 0.000000 0.637293
0.475959 0.000000 0.646815
0.700130 0.000000 0.638849
0.908263 0.003845 0.644282
0.000000 0.172152 0.635187
0.222812 0.162661 0.637812
0.469551 0.122866 0.647120
0.700099 0.138643 0.641291
0.908415 0.238315 0.648127
0.000000 0.438575 0.634516
0.146456 0.431250 0.634180
0.444007 0.425605 0.646052
0.699123 0.438911 0.649470
0.910216 0.475044 0.663142
0.000000 0.708400 0.659571
0.000000 0.706813 0.659724
0.417151 0.701503 0.660761
0.699031 0.693782 0.666102
0.913756 0.713405 0.697780
0.000000 0.944121 0.658259
0.000000 0.943420 0.657740
0.384741 0.940429 0.658595
0.685115 0.932372 0.677729
0.913939 0.914275 0.707546
0.129885 0.000000 0.853208
0.255619 0.000000 0.854246
0.471565 0.000000 0.858030
0.707668 0.000000 0.863523
0.931334 0.000000 0.847654
0.000000 0.000000 0.853422
0.205447 0.000000 0.854490
0.455390 0.000000 0.858183
0.702602 0.000000 0.864500
0.930694 0.000000 0.848692
0.000000 0.391028 0.850950
0.000000 0.379400 0.852476
0.407874 0.360021 0.856626
0.684077 0.325109 0.863798
0.927672 0.339727 0.852018
0.000000 0.667842 0.856657
0.000000 0.661738 0.856229
0.308446 0.637079 0.854032
0.646906 0.626520 0.858305
0.920043 0.649775 0.857786
0.000000 0.936095 0.869718
0.000000 0.934997 0.869688
0.282719 0.930114 0.869322
0.628901 0.919646 0.868315
0.915801 0.908782 0.871916
