其他预设/【213】赛博朋克科幻预设52款/1.LUT预设（视频调色-PR-AE-PS-FCPX-达芬奇用）/赛博朋克科幻__-4 强度2.cube
# Created by Adobe Lightroom plugin Export LUT (1.17.0)
# www.johnrellis.com/lightroom/exportlut.htm
# Preset: 赛博朋克科幻[素锦印象]-4 强度2
# Color profile: /Library/Application Support/Adobe/Color/Profiles/Recommended/AdobeRGB1998.icc
LUT_3D_SIZE 8
DOMAIN_MIN 0.000000 0.000000 0.000000
DOMAIN_MAX 0.903226 0.903226 0.903226
0.000000 0.000000 0.000000
0.111910 0.000000 0.051087
0.226932 0.000000 0.108034
0.368566 0.000000 0.172549
0.526055 0.000000 0.243381
0.673640 0.000000 0.309911
0.806790 0.000000 0.370245
0.929900 0.000000 0.426459
0.065370 0.120180 0.000000
0.118379 0.112551 0.000000
0.230777 0.000000 0.063569
0.369787 0.000000 0.156832
0.525689 0.000000 0.235080
0.673518 0.000000 0.303685
0.806760 0.000000 0.366155
0.929839 0.000000 0.424262
0.142947 0.256382 0.000000
0.177646 0.253330 0.000000
0.255863 0.242924 0.000000
0.386969 0.182498 0.079438
0.549248 0.000000 0.115999
0.686976 0.000000 0.241093
0.810422 0.000000 0.341955
0.928161 0.000000 0.423346
0.237308 0.428199 0.000000
0.263432 0.427283 0.000000
0.341772 0.423865 0.000000
0.439277 0.416785 0.000000
0.575036 0.358404 0.072694
0.712245 0.218448 0.150301
0.837797 0.000000 0.202731
0.946380 0.000000 0.332158
0.333074 0.604944 0.000000
0.353491 0.604547 0.000000
0.419318 0.602930 0.000000
0.519005 0.599451 0.000000
0.625269 0.593042 0.000000
0.738094 0.524590 0.061921
0.851499 0.419074 0.214664
0.959350 0.286503 0.283024
0.409400 0.744289 0.000000
0.425116 0.744106 0.000000
0.477607 0.743374 0.000000
0.562676 0.741787 0.000000
0.665339 0.738949 0.000000
0.774441 0.734829 0.000000
0.872404 0.671473 0.110414
0.965759 0.583093 0.300664
0.473579 0.862699 0.000000
0.485939 0.862516 0.000000
0.528130 0.861967 0.000000
0.598627 0.860716 0.000000
0.692195 0.858457 0.000000
0.791012 0.855528 0.000000
0.896941 0.851560 0.000000
0.979492 0.795773 0.185824
0.525109 0.963989 0.000000
0.535119 0.963775 0.000000
0.569635 0.963043 0.000000
0.628443 0.961517 0.000000
0.707973 0.958953 0.000000
0.804044 0.954925 0.000000
0.895842 0.950774 0.000000
0.994995 0.945220 0.000000
0.002747 0.027741 0.098970
0.110201 0.000000 0.104341
0.229679 0.000000 0.138643
0.370184 0.000000 0.196231
0.527245 0.000000 0.261540
0.674281 0.000000 0.324102
0.807279 0.000000 0.381506
0.930358 0.000000 0.435096
0.013306 0.116396 0.084871
0.110292 0.109346 0.104341
0.226383 0.073579 0.136843
0.369238 0.000000 0.190127
0.526726 0.000000 0.255375
0.674128 0.000000 0.318975
0.807218 0.000000 0.377935
0.930266 0.000000 0.433173
0.105898 0.252995 0.003021
0.162051 0.245914 0.086305
0.248386 0.237705 0.099092
0.384131 0.176089 0.133455
0.543816 0.000000 0.175906
0.680995 0.000000 0.282353
0.805814 0.000000 0.370397
0.928588 0.000000 0.432624
0.213840 0.423529 0.000000
0.246708 0.420783 0.000000
0.330083 0.418097 0.000000
0.432959 0.411810 0.049653
0.570855 0.353063 0.142397
0.709560 0.213077 0.189059
0.835630 0.000000 0.232670
0.943053 0.000000 0.364172
0.318425 0.600977 0.000000
0.340093 0.600671 0.000000
0.408820 0.599207 0.000000
0.513115 0.596002 0.000000
0.621271 0.590112 0.000000
0.735348 0.521569 0.146822
0.849638 0.420142 0.248295
0.957824 0.293919 0.308873
0.399817 0.742397 0.000000
0.416052 0.742184 0.000000
0.470192 0.741512 0.000000
0.557183 0.740078 0.000000
0.662379 0.737392 0.000000
0.772244 0.733455 0.000000
0.870603 0.670619 0.180697
0.963897 0.587518 0.332860
0.467170 0.862028 0.000000
0.479866 0.861875 0.000000
0.523003 0.861295 0.000000
0.594812 0.860075 0.000000
0.689540 0.857877 0.000000
0.789792 0.854948 0.000000
0.895689 0.851164 0.000000
0.978119 0.795956 0.238804
0.520104 0.964019 0.000000
0.530327 0.963806 0.000000
0.565545 0.963043 0.000000
0.625360 0.961486 0.000000
0.705928 0.958892 0.000000
0.802701 0.954833 0.000000
0.895354 0.950652 0.000000
0.994141 0.945129 0.083955
0.000000 0.068238 0.195651
0.112642 0.057618 0.196201
0.225864 0.000000 0.209903
0.381659 0.000000 0.252750
0.535302 0.000000 0.309789
0.678431 0.000000 0.365667
0.810086 0.000000 0.415564
0.932769 0.000000 0.462043
0.067506 0.151705 0.198093
0.105837 0.123079 0.201144
0.226719 0.090394 0.210849
0.381353 0.000000 0.249699
0.534356 0.000000 0.307042
0.678126 0.000000 0.362585
0.809934 0.000000 0.413031
0.932677 0.000000 0.460365
0.012940 0.240513 0.169223
0.109743 0.237705 0.178378
0.227970 0.225406 0.211704
0.373754 0.191775 0.248600
0.530144 0.100496 0.300053
0.675868 0.000000 0.354986
0.808316 0.000000 0.408484
0.930968 0.000000 0.460151
0.000000 0.419532 0.000000
0.131380 0.415503 0.092561
0.291752 0.402625 0.197116
0.413214 0.397223 0.215610
0.557549 0.335790 0.256718
0.699672 0.190738 0.279149
0.820310 0.035706 0.363256
0.931182 0.000000 0.454536
0.227481 0.597620 0.000000
0.267033 0.594903 0.000000
0.374212 0.587121 0.160678
0.489113 0.584649 0.182376
0.606928 0.579706 0.213626
0.725093 0.513542 0.282536
0.842618 0.423957 0.336278
0.952392 0.316167 0.381628
0.344732 0.740169 0.000000
0.371740 0.738430 0.000000
0.447211 0.734829 0.103029
0.539849 0.733730 0.136416
0.652766 0.731624 0.178347
0.763943 0.728542 0.227207
0.863737 0.668910 0.318029
0.957458 0.603113 0.421546
0.434211 0.861082 0.000000
0.455299 0.859983 0.000000
0.508782 0.858518 0.000000
0.584070 0.857389 0.000000
0.681727 0.855436 0.117617
0.786038 0.852720 0.189639
0.891051 0.849638 0.259831
0.973053 0.797513 0.364904
0.501335 0.964172 0.000000
0.517540 0.963470 0.000000
0.554925 0.962646 0.000000
0.617517 0.960998 0.000000
0.700740 0.958343 0.000000
0.799313 0.954253 0.039612
0.894041 0.949981 0.191928
0.990936 0.944884 0.289006
0.000000 0.093111 0.318578
0.099367 0.086275 0.319188
0.247227 0.044007 0.320684
0.371435 0.000000 0.342962
0.539849 0.000000 0.389807
0.688869 0.000000 0.424720
0.816800 0.000000 0.466468
0.938048 0.000000 0.504234
0.000000 0.172946 0.321752
0.079561 0.142916 0.323247
0.244694 0.122225 0.324224
0.372503 0.000000 0.343908
0.541131 0.000000 0.387396
0.688258 0.000000 0.423102
0.816556 0.000000 0.464912
0.938170 0.000000 0.502281
0.000000 0.301183 0.322881
0.118990 0.293645 0.325383
0.225559 0.241764 0.333562
0.374823 0.203494 0.345892
0.544823 0.068086 0.378027
0.685023 0.000000 0.420661
0.814725 0.000000 0.462409
0.937102 0.000000 0.500053
0.000000 0.397101 0.272160
0.076326 0.395514 0.277989
0.226108 0.388464 0.301122
0.375891 0.371313 0.346563
0.532067 0.340795 0.383734
0.675990 0.295964 0.426551
0.807645 0.231540 0.471046
0.929992 0.113069 0.515923
0.000000 0.588647 0.145602
0.000000 0.587060 0.155184
0.234958 0.579767 0.217350
0.445594 0.562310 0.342016
0.578668 0.559686 0.368109
0.704677 0.505425 0.414954
0.828916 0.424964 0.436439
0.938384 0.386511 0.494514
0.179873 0.738216 0.000000
0.231113 0.736568 0.000000
0.360540 0.730312 0.207187
0.513695 0.720577 0.332647
0.633997 0.719966 0.360388
0.747585 0.718929 0.395605
0.850462 0.669184 0.459480
0.949584 0.615686 0.512139
0.338628 0.861875 0.000000
0.366522 0.860777 0.000000
0.455329 0.856657 0.192874
0.571893 0.851164 0.314031
0.671687 0.849912 0.343481
0.780575 0.848142 0.382635
0.882170 0.846647 0.429328
0.964538 0.800931 0.499794
0.432624 0.966857 0.000000
0.453101 0.966064 0.000000
0.522423 0.962921 0.135378
0.611872 0.959045 0.260746
0.697169 0.956420 0.294804
0.796201 0.952575 0.339178
0.892821 0.948455 0.392065
0.985229 0.944396 0.450629
0.000000 0.125978 0.454871
0.010803 0.120058 0.455146
0.252903 0.092226 0.456123
0.396704 0.000000 0.458900
0.528099 0.000000 0.486061
0.684199 0.000000 0.520012
0.825010 0.000000 0.535363
0.945312 0.000000 0.562127
0.000000 0.189853 0.457343
0.000000 0.168551 0.458106
0.246464 0.148287 0.458778
0.396735 0.100496 0.459907
0.528679 0.000000 0.486580
0.684962 0.000000 0.518730
0.825834 0.000000 0.532525
0.945495 0.000000 0.560479
0.091218 0.343481 0.459022
0.154757 0.333349 0.461280
0.215366 0.263462 0.466011
0.390845 0.240604 0.466651
0.530297 0.156374 0.487922
0.686915 0.000000 0.514458
0.825071 0.000000 0.529412
0.945312 0.000000 0.556878
0.000000 0.472114 0.458961
0.034974 0.467018 0.460731
0.244541 0.447456 0.466346
0.376226 0.389532 0.476326
0.531334 0.353155 0.488624
0.688502 0.279362 0.507042
0.819364 0.174472 0.533532
0.942473 0.000000 0.557427
0.000000 0.562066 0.382025
0.000000 0.560784 0.386664
0.221012 0.555383 0.404578
0.379461 0.543694 0.439307
0.531212 0.524468 0.488106
0.673945 0.499519 0.520562
0.805020 0.468574 0.556023
0.927276 0.431098 0.593225
0.000000 0.726802 0.263035
0.000000 0.725826 0.270756
0.206607 0.722194 0.301671
0.392157 0.714565 0.369604
0.598077 0.699580 0.493629
0.721736 0.701991 0.524865
0.832395 0.664668 0.569848
0.941070 0.608606 0.586267
0.000000 0.862516 0.000000
0.130343 0.861418 0.112856
0.313146 0.857237 0.237705
0.490852 0.849302 0.371527
0.655695 0.840513 0.491554
0.769070 0.840726 0.523339
0.869993 0.841642 0.558770
0.955505 0.801846 0.609003
0.294804 0.970703 0.000000
0.326574 0.969848 0.000000
0.422431 0.966644 0.198245
0.558007 0.960418 0.350622
0.694301 0.953063 0.467842
0.791958 0.949981 0.499428
0.890532 0.946593 0.537133
0.978546 0.943908 0.578607
0.000000 0.166171 0.589380
0.000000 0.161471 0.589532
0.243656 0.141176 0.589960
0.406134 0.086427 0.590661
0.543206 0.000000 0.597620
0.673762 0.000000 0.619013
0.816190 0.000000 0.640711
0.947417 0.000000 0.647364
0.000000 0.211002 0.590906
0.000000 0.202060 0.591180
0.235782 0.185275 0.591485
0.403143 0.149020 0.592004
0.543114 0.000000 0.597986
0.674037 0.000000 0.619287
0.816678 0.000000 0.639979
0.948180 0.000000 0.645319
0.115633 0.373480 0.591608
0.130800 0.354711 0.592645
0.204868 0.292271 0.595697
0.393225 0.271824 0.595972
0.543511 0.234653 0.598718
0.674708 0.000000 0.619745
0.817960 0.000000 0.637568
0.950530 0.000000 0.638148
0.100374 0.511192 0.589715
0.167819 0.506645 0.590661
0.297063 0.485328 0.594965
0.378820 0.413977 0.601373
0.542321 0.394293 0.601587
0.674647 0.327123 0.619532
0.818814 0.192325 0.633692
0.952880 0.000000 0.627893
0.000000 0.643214 0.589319
0.000000 0.639124 0.590326
0.238804 0.624231 0.593744
0.407050 0.597314 0.599329
0.534356 0.542718 0.607752
0.673610 0.508049 0.618280
0.818601 0.437629 0.628809
0.944549 0.329381 0.639857
0.000000 0.711635 0.485115
0.000000 0.710475 0.489174
0.228336 0.705898 0.504143
0.387366 0.696742 0.532128
0.535515 0.682643 0.571283
0.672877 0.664149 0.617182
0.803128 0.642451 0.645960
0.925109 0.617182 0.676967
0.000000 0.850523 0.361975
0.000000 0.849912 0.368719
0.209720 0.847654 0.394415
0.384009 0.843351 0.442573
0.546990 0.837095 0.513024
0.737209 0.825315 0.628565
0.850706 0.830381 0.662013
0.943969 0.799496 0.700526
0.000000 0.973816 0.168215
0.000000 0.973449 0.185946
0.198550 0.971405 0.252384
0.427436 0.965118 0.376745
0.618921 0.955505 0.509392
0.780941 0.945983 0.622919
0.884215 0.943908 0.654810
0.970733 0.942992 0.688533
0.000000 0.220462 0.714565
0.000000 0.217044 0.714595
0.235355 0.203586 0.714687
0.405676 0.173831 0.714870
0.555718 0.111696 0.715175
0.681025 0.000000 0.724269
0.807248 0.000000 0.740902
0.940551 0.000000 0.754055
0.000000 0.254459 0.715236
0.000000 0.251194 0.715236
0.230655 0.238865 0.715328
0.403449 0.214023 0.715450
0.554589 0.169955 0.715724
0.680964 0.000000 0.724300
0.807340 0.000000 0.740993
0.940978 0.000000 0.753475
0.108156 0.398871 0.714412
0.124269 0.382055 0.715206
0.216495 0.335393 0.717128
0.397559 0.318578 0.717159
0.551507 0.292088 0.717311
0.681300 0.221073 0.723995
0.807431 0.000000 0.740993
0.942168 0.000000 0.751614
0.248325 0.550835 0.711818
0.281682 0.546380 0.712490
0.351171 0.522301 0.714992
0.393957 0.450172 0.719326
0.548760 0.431769 0.719387
0.683803 0.397284 0.722683
0.806882 0.279728 0.740322
0.943267 0.000000 0.748501
0.170474 0.669978 0.710170
0.218723 0.666743 0.710689
0.333928 0.655818 0.712398
0.466865 0.634607 0.715785
0.544366 0.568872 0.722072
0.685359 0.549279 0.722286
0.805234 0.482612 0.738521
0.942382 0.348425 0.745296
0.000000 0.802823 0.708553
0.000000 0.799374 0.709163
0.248417 0.786984 0.711147
0.415045 0.764523 0.714565
0.562463 0.733547 0.719387
0.676661 0.681209 0.726955
0.803372 0.648524 0.736507
0.939818 0.575860 0.742550
0.000000 0.847929 0.580774
0.000000 0.846891 0.584253
0.242618 0.842985 0.596979
0.395880 0.835508 0.620142
0.541070 0.824155 0.652979
0.676112 0.809537 0.692134
0.802487 0.791958 0.735256
0.924376 0.772213 0.761746
0.000000 0.965087 0.443793
0.000000 0.964660 0.449500
0.180026 0.963134 0.470222
0.368566 0.959808 0.510277
0.533318 0.954406 0.569329
0.683345 0.948272 0.638117
0.861570 0.937316 0.748135
0.960388 0.939910 0.781399
0.000000 0.304662 0.832395
0.063935 0.302403 0.832395
0.267124 0.293767 0.832364
0.420478 0.275944 0.832334
0.564263 0.245029 0.832334
0.701839 0.191806 0.832486
0.811215 0.000000 0.842832
0.933288 0.000000 0.856016
0.000000 0.332891 0.832456
0.082704 0.330663 0.832425
0.269932 0.322087 0.832425
0.421454 0.305516 0.832395
0.564446 0.277806 0.832425
0.701564 0.232792 0.832547
0.811185 0.000000 0.842679
0.933379 0.000000 0.856046
0.204166 0.449439 0.830716
0.211612 0.435920 0.831327
0.281651 0.405707 0.832486
0.426123 0.392065 0.832486
0.565881 0.370245 0.832547
0.701015 0.337835 0.832700
0.811429 0.194827 0.841917
0.933318 0.000000 0.855955
0.385504 0.608392 0.826444
0.388586 0.599084 0.827085
0.399145 0.564263 0.829282
0.439063 0.508507 0.832395
0.570947 0.491035 0.832517
0.701106 0.465949 0.832792
0.812772 0.388922 0.840116
0.932708 0.116701 0.855222
0.358404 0.716426 0.824063
0.381659 0.713466 0.824399
0.450660 0.702968 0.825620
0.542870 0.683101 0.827939
0.570886 0.609827 0.833127
0.698268 0.589258 0.833433
0.815793 0.549889 0.837308
0.930602 0.426520 0.853086
0.269474 0.822812 0.823514
0.301701 0.820249 0.823758
0.390478 0.811246 0.824643
0.501396 0.795224 0.826291
0.618708 0.771481 0.829068
0.690608 0.708705 0.835203
0.817350 0.688441 0.835599
0.927886 0.618250 0.850278
0.000000 0.945708 0.814298
0.078889 0.944823 0.816434
0.265782 0.940276 0.822843
0.422522 0.921019 0.824979
0.566979 0.893614 0.828153
0.701839 0.860075 0.832395
0.807370 0.809049 0.839078
0.925566 0.775448 0.847776
0.000000 0.976837 0.668238
0.000000 0.975952 0.671290
0.230442 0.972595 0.682185
0.393835 0.966003 0.702724
0.540520 0.956390 0.731350
0.676722 0.944060 0.766018
0.804288 0.929290 0.804898
0.924498 0.912291 0.846403
