其他预设/【213】赛博朋克科幻预设52款/1.LUT预设（视频调色-PR-AE-PS-FCPX-达芬奇用）/赛博朋克科幻__-7 强度2.cube
# Created by Adobe Lightroom plugin Export LUT (1.17.0)
# www.johnrellis.com/lightroom/exportlut.htm
# Preset: 赛博朋克科幻[素锦印象]-7 强度2
# Color profile: /Library/Application Support/Adobe/Color/Profiles/Recommended/AdobeRGB1998.icc
LUT_3D_SIZE 5
DOMAIN_MIN 0.000000 0.000000 0.000000
DOMAIN_MAX 0.903226 0.903226 0.903226
0.049317 0.070375 0.063386
0.227329 0.098665 0.035065
0.528252 0.184421 0.000000
0.793942 0.263279 0.000000
0.994446 0.313085 0.000000
0.000000 0.185458 0.075044
0.217777 0.195743 0.065980
0.524559 0.247593 0.000000
0.792752 0.306950 0.000000
0.994446 0.350591 0.000000
0.000000 0.410254 0.136507
0.173037 0.423346 0.134646
0.522576 0.445289 0.095338
0.789364 0.439094 0.000000
0.993866 0.449042 0.000000
0.000000 0.659754 0.204471
0.000000 0.667109 0.193606
0.435859 0.690669 0.219760
0.800320 0.678370 0.208957
0.992187 0.624567 0.143099
0.000000 0.893462 0.274113
0.000000 0.895048 0.293828
0.486000 0.896422 0.414466
0.742184 0.909697 0.416236
1.000000 0.864469 0.427283
0.000000 0.117098 0.192081
0.203738 0.088746 0.179263
0.512169 0.169955 0.146883
0.787167 0.255619 0.073732
0.994354 0.307561 0.000000
0.000000 0.227634 0.208133
0.194980 0.207218 0.195651
0.507225 0.250126 0.172030
0.785885 0.306767 0.105196
0.994018 0.344671 0.000000
0.000000 0.412604 0.219120
0.161044 0.425513 0.226322
0.506798 0.447303 0.232395
0.780575 0.444129 0.185428
0.991943 0.457221 0.053040
0.000000 0.659876 0.275120
0.000000 0.666865 0.276890
0.442847 0.688106 0.310796
0.791653 0.683162 0.314275
0.987976 0.635065 0.268986
0.000000 0.893553 0.320500
0.000000 0.895201 0.335424
0.504356 0.893553 0.469825
0.738979 0.909026 0.474067
0.996429 0.870329 0.487678
0.000000 0.253574 0.454994
0.000000 0.146670 0.437629
0.468849 0.136690 0.395117
0.771664 0.217197 0.339147
0.984436 0.384649 0.355138
0.000000 0.354070 0.468544
0.094759 0.309117 0.452308
0.464912 0.247654 0.403510
0.764034 0.360418 0.388952
0.984497 0.413642 0.360204
0.000000 0.523308 0.480354
0.000000 0.509880 0.470771
0.448676 0.455085 0.434241
0.755520 0.497017 0.431983
0.982269 0.514672 0.394446
0.000000 0.664759 0.426337
0.000000 0.665644 0.422705
0.435737 0.680476 0.467079
0.761288 0.697108 0.510613
0.973999 0.671595 0.480568
0.000000 0.893614 0.448219
0.000000 0.895720 0.451453
0.410498 0.897215 0.506310
0.723720 0.906523 0.597559
0.982879 0.885985 0.617151
0.000000 0.392340 0.711421
0.000000 0.335882 0.702510
0.411627 0.232303 0.667506
0.727840 0.253391 0.611383
0.962127 0.441138 0.589441
0.000000 0.469368 0.719356
0.000000 0.436744 0.709804
0.405829 0.328801 0.675319
0.724636 0.334356 0.617182
0.960571 0.490120 0.602319
0.000000 0.619654 0.723537
0.000000 0.611200 0.721218
0.458167 0.576440 0.699947
0.714137 0.512016 0.636988
0.958099 0.618280 0.641627
0.000000 0.786130 0.722805
0.000000 0.780606 0.719844
0.400580 0.757656 0.707668
0.697322 0.697505 0.667750
0.958618 0.735286 0.673426
0.000000 0.910643 0.650813
0.000000 0.909880 0.646509
0.275181 0.902586 0.636225
0.691646 0.900603 0.698146
0.963745 0.906493 0.753079
0.000000 0.501274 0.904082
0.000000 0.494484 0.900908
0.272709 0.402075 0.892424
0.704799 0.410376 0.862882
0.945373 0.483742 0.808347
0.000000 0.549035 0.906401
0.000000 0.543450 0.903380
0.308446 0.474250 0.894133
0.705135 0.472480 0.865232
0.943572 0.521752 0.812345
0.000000 0.668574 0.910643
0.000000 0.661555 0.910948
0.458137 0.679957 0.899168
0.704555 0.620356 0.874998
0.938750 0.621515 0.824979
0.000000 0.821408 0.908232
0.000000 0.816953 0.908263
0.274601 0.811643 0.906645
0.739986 0.814725 0.895995
0.931243 0.755306 0.846098
0.000000 0.988647 0.906920
0.000000 0.987182 0.906676
0.000000 0.977752 0.904845
0.662013 0.956390 0.900053
0.917754 0.912352 0.874754
