其他预设/【237】莫兰迪灰色调LR预设合集/Abloom/Lightroom Desktop/Abloom no.3.lrtemplate
s = {
	id = "B81BE020-3C23-4D0F-A113-8FD76A1273FD",
	internalName = "Abloom no.3",
	title = "Abloom no.3",
	type = "Develop",
	value = {
		settings = {
			AutoLateralCA = 0,
			Blacks2012 = 81,
			BlueHue = -13,
			BlueSaturation = -12,
			CameraProfile = "Adobe Standard",
			ChromaticAberrationB = 0,
			ChromaticAberrationR = 0,
			Clarity2012 = 15,
			ColorNoiseReduction = 0,
			ColorNoiseReductionDetail = 50,
			ColorNoiseReductionSmoothness = 50,
			Contrast2012 = 0,
			ConvertToGrayscale = false,
			CropConstrainToWarp = 0,
			Defringe = 0,
			DefringeGreenAmount = 0,
			DefringeGreenHueHi = 60,
			DefringeGreenHueLo = 40,
			DefringePurpleAmount = 0,
			DefringePurpleHueHi = 70,
			DefringePurpleHueLo = 30,
			Dehaze = 0,
			EnableCalibration = true,
			EnableColorAdjustments = true,
			EnableDetail = true,
			EnableEffects = true,
			EnableLensCorrections = true,
			EnableSplitToning = true,
			Exposure2012 = 0,
			GrainAmount = 0,
			GrainFrequency = 50,
			GrainSize = 25,
			GreenHue = 100,
			GreenSaturation = -45,
			Highlights2012 = -86,
			HueAdjustmentAqua = 53,
			HueAdjustmentBlue = 61,
			HueAdjustmentGreen = 39,
			HueAdjustmentMagenta = 20,
			HueAdjustmentOrange = -11,
			HueAdjustmentPurple = 0,
			HueAdjustmentRed = -11,
			HueAdjustmentYellow = -41,
			LensManualDistortionAmount = 0,
			LuminanceAdjustmentAqua = -11,
			LuminanceAdjustmentBlue = -14,
			LuminanceAdjustmentGreen = -64,
			LuminanceAdjustmentMagenta = 5,
			LuminanceAdjustmentOrange = -23,
			LuminanceAdjustmentPurple = 15,
			LuminanceAdjustmentRed = -9,
			LuminanceAdjustmentYellow = 14,
			LuminanceNoiseReductionContrast = 0,
			LuminanceNoiseReductionDetail = 50,
			LuminanceSmoothing = 0,
			ParametricDarks = 0,
			ParametricHighlightSplit = 75,
			ParametricHighlights = 0,
			ParametricLights = 0,
			ParametricMidtoneSplit = 43,
			ParametricShadowSplit = 14,
			ParametricShadows = 0,
			PostCropVignetteAmount = 0,
			PostCropVignetteFeather = 50,
			PostCropVignetteHighlightContrast = 0,
			PostCropVignetteMidpoint = 50,
			PostCropVignetteRoundness = 0,
			PostCropVignetteStyle = 1,
			ProcessVersion = "10.0",
			RedHue = 49,
			RedSaturation = 13,
			Saturation = -25,
			SaturationAdjustmentAqua = -64,
			SaturationAdjustmentBlue = -76,
			SaturationAdjustmentGreen = -59,
			SaturationAdjustmentMagenta = -35,
			SaturationAdjustmentOrange = -23,
			SaturationAdjustmentPurple = -40,
			SaturationAdjustmentRed = -56,
			SaturationAdjustmentYellow = -52,
			ShadowTint = -5,
			Shadows2012 = 79,
			SharpenDetail = 25,
			SharpenEdgeMasking = 0,
			SharpenRadius = 1,
			Sharpness = 0,
			SplitToningBalance = 30,
			SplitToningHighlightHue = 0,
			SplitToningHighlightSaturation = 0,
			SplitToningShadowHue = 57,
			SplitToningShadowSaturation = 13,
			Temperature = 4714,
			Tint = 15,
			ToneCurveName2012 = "Custom",
			ToneCurvePV2012 = {
				0,
				0,
				48,
				44,
				122,
				120,
				255,
				255,
			},
			ToneCurvePV2012Blue = {
				0,
				0,
				43,
				22,
				121,
				122,
				175,
				200,
				255,
				255,
			},
			ToneCurvePV2012Green = {
				0,
				0,
				67,
				36,
				120,
				125,
				179,
				205,
				255,
				255,
			},
			ToneCurvePV2012Red = {
				0,
				0,
				20,
				3,
				60,
				20,
				119,
				121,
				177,
				202,
				255,
				255,
			},
			Vibrance = -1,
			VignetteAmount = 0,
			VignetteMidpoint = 50,
			WhiteBalance = "Custom",
			Whites2012 = 28,
		},
		uuid = "E65ADBF2-B285-4171-B8CF-CDCECE7770BF",
	},
	version = 0,
}
