其他预设/【237】莫兰迪灰色调LR预设合集/Abloom/Lightroom Desktop/Abloom no.4.lrtemplate
s = {
	id = "AD0CBA0F-9E42-4B11-BC8D-5DCCD201A09D",
	internalName = "Abloom no.4",
	title = "Abloom no.4",
	type = "Develop",
	value = {
		settings = {
			AutoLateralCA = 0,
			Blacks2012 = -50,
			BlueHue = 0,
			BlueSaturation = 0,
			CameraProfile = "Adobe Standard",
			ChromaticAberrationB = 0,
			ChromaticAberrationR = 0,
			Clarity2012 = 30,
			ColorNoiseReduction = 27,
			ColorNoiseReductionDetail = 50,
			ColorNoiseReductionSmoothness = 50,
			Contrast2012 = 18,
			ConvertToGrayscale = false,
			CropConstrainToWarp = 0,
			Defringe = 0,
			DefringeGreenAmount = 0,
			DefringeGreenHueHi = 60,
			DefringeGreenHueLo = 40,
			DefringePurpleAmount = 0,
			DefringePurpleHueHi = 70,
			DefringePurpleHueLo = 30,
			Dehaze = 0,
			EnableCalibration = true,
			EnableColorAdjustments = true,
			EnableDetail = true,
			EnableEffects = true,
			EnableLensCorrections = true,
			EnableSplitToning = true,
			Exposure2012 = 0,
			GrainAmount = 0,
			GrainFrequency = 50,
			GrainSize = 25,
			GreenHue = 0,
			GreenSaturation = 0,
			Highlights2012 = -80,
			HueAdjustmentAqua = 0,
			HueAdjustmentBlue = -13,
			HueAdjustmentGreen = -23,
			HueAdjustmentMagenta = 0,
			HueAdjustmentOrange = 0,
			HueAdjustmentPurple = 0,
			HueAdjustmentRed = 0,
			HueAdjustmentYellow = 0,
			LensManualDistortionAmount = 0,
			LuminanceAdjustmentAqua = 0,
			LuminanceAdjustmentBlue = 32,
			LuminanceAdjustmentGreen = -13,
			LuminanceAdjustmentMagenta = 0,
			LuminanceAdjustmentOrange = -17,
			LuminanceAdjustmentPurple = 0,
			LuminanceAdjustmentRed = 0,
			LuminanceAdjustmentYellow = 0,
			LuminanceNoiseReductionContrast = 0,
			LuminanceNoiseReductionDetail = 50,
			LuminanceSmoothing = 45,
			ParametricDarks = 52,
			ParametricHighlightSplit = 90,
			ParametricHighlights = 0,
			ParametricLights = 0,
			ParametricMidtoneSplit = 59,
			ParametricShadowSplit = 10,
			ParametricShadows = 0,
			PostCropVignetteAmount = 0,
			PostCropVignetteFeather = 50,
			PostCropVignetteHighlightContrast = 0,
			PostCropVignetteMidpoint = 50,
			PostCropVignetteRoundness = 0,
			PostCropVignetteStyle = 1,
			ProcessVersion = "10.0",
			RedHue = 0,
			RedSaturation = 0,
			Saturation = -27,
			SaturationAdjustmentAqua = -4,
			SaturationAdjustmentBlue = -9,
			SaturationAdjustmentGreen = -45,
			SaturationAdjustmentMagenta = -9,
			SaturationAdjustmentOrange = -23,
			SaturationAdjustmentPurple = -34,
			SaturationAdjustmentRed = 0,
			SaturationAdjustmentYellow = -23,
			ShadowTint = 0,
			Shadows2012 = 75,
			SharpenDetail = 25,
			SharpenEdgeMasking = 0,
			SharpenRadius = 1,
			Sharpness = 0,
			SplitToningBalance = 45,
			SplitToningHighlightHue = 50,
			SplitToningHighlightSaturation = 9,
			SplitToningShadowHue = 285,
			SplitToningShadowSaturation = 7,
			Temperature = 5249,
			Tint = 30,
			ToneCurveName2012 = "Custom",
			ToneCurvePV2012 = {
				0,
				29,
				77,
				84,
				172,
				184,
				255,
				255,
			},
			ToneCurvePV2012Blue = {
				0,
				0,
				255,
				255,
			},
			ToneCurvePV2012Green = {
				0,
				0,
				255,
				255,
			},
			ToneCurvePV2012Red = {
				0,
				0,
				255,
				255,
			},
			Vibrance = 10,
			VignetteAmount = 0,
			VignetteMidpoint = 50,
			WhiteBalance = "Custom",
			Whites2012 = 57,
		},
		uuid = "76FF92F6-A7F0-4248-897B-A90EBC65564E",
	},
	version = 0,
}
