其他预设/【237】莫兰迪灰色调LR预设合集/Abloom/Lightroom Desktop/Abloom no.5.lrtemplate
s = {
	id = "A295E702-9497-4EDB-BC05-0723D9B49DB6",
	internalName = "Abloom no.5",
	title = "Abloom no.5",
	type = "Develop",
	value = {
		settings = {
			AutoLateralCA = 0,
			Blacks2012 = 0,
			BlueHue = 0,
			BlueSaturation = 0,
			CameraProfile = "Adobe Standard",
			ChromaticAberrationB = 0,
			ChromaticAberrationR = 0,
			Clarity2012 = 10,
			ColorNoiseReduction = 25,
			ColorNoiseReductionDetail = 50,
			ColorNoiseReductionSmoothness = 50,
			Contrast2012 = -61,
			ConvertToGrayscale = false,
			CropConstrainToWarp = 0,
			Defringe = 0,
			DefringeGreenAmount = 0,
			DefringeGreenHueHi = 60,
			DefringeGreenHueLo = 40,
			DefringePurpleAmount = 0,
			DefringePurpleHueHi = 70,
			DefringePurpleHueLo = 30,
			Dehaze = 0,
			EnableCalibration = true,
			EnableColorAdjustments = true,
			EnableDetail = true,
			EnableEffects = true,
			EnableLensCorrections = true,
			EnableSplitToning = true,
			Exposure2012 = -0.45,
			GrainAmount = 0,
			GrainFrequency = 50,
			GrainSize = 25,
			GreenHue = 0,
			GreenSaturation = 0,
			Highlights2012 = 6,
			HueAdjustmentAqua = 0,
			HueAdjustmentBlue = -15,
			HueAdjustmentGreen = -20,
			HueAdjustmentMagenta = 48,
			HueAdjustmentOrange = 10,
			HueAdjustmentPurple = 0,
			HueAdjustmentRed = 48,
			HueAdjustmentYellow = -15,
			LensManualDistortionAmount = 0,
			LuminanceAdjustmentAqua = -20,
			LuminanceAdjustmentBlue = -25,
			LuminanceAdjustmentGreen = -5,
			LuminanceAdjustmentMagenta = -11,
			LuminanceAdjustmentOrange = 10,
			LuminanceAdjustmentPurple = 0,
			LuminanceAdjustmentRed = -15,
			LuminanceAdjustmentYellow = 12,
			LuminanceNoiseReductionContrast = 0,
			LuminanceNoiseReductionDetail = 50,
			LuminanceSmoothing = 0,
			ParametricDarks = 0,
			ParametricHighlightSplit = 75,
			ParametricHighlights = 0,
			ParametricLights = 0,
			ParametricMidtoneSplit = 50,
			ParametricShadowSplit = 25,
			ParametricShadows = 0,
			PostCropVignetteAmount = 0,
			PostCropVignetteFeather = 50,
			PostCropVignetteHighlightContrast = 0,
			PostCropVignetteMidpoint = 50,
			PostCropVignetteRoundness = 0,
			PostCropVignetteStyle = 1,
			ProcessVersion = "10.0",
			RedHue = 0,
			RedSaturation = 0,
			Saturation = -10,
			SaturationAdjustmentAqua = 25,
			SaturationAdjustmentBlue = -20,
			SaturationAdjustmentGreen = -41,
			SaturationAdjustmentMagenta = -10,
			SaturationAdjustmentOrange = 10,
			SaturationAdjustmentPurple = -51,
			SaturationAdjustmentRed = 20,
			SaturationAdjustmentYellow = 0,
			ShadowTint = 0,
			Shadows2012 = 6,
			SharpenDetail = 25,
			SharpenEdgeMasking = 0,
			SharpenRadius = 1,
			Sharpness = 25,
			SplitToningBalance = 0,
			SplitToningHighlightHue = 0,
			SplitToningHighlightSaturation = 0,
			SplitToningShadowHue = 0,
			SplitToningShadowSaturation = 0,
			ToneCurveName2012 = "Custom",
			ToneCurvePV2012 = {
				0,
				0,
				255,
				255,
			},
			ToneCurvePV2012Blue = {
				0,
				18,
				26,
				28,
				51,
				41,
				77,
				66,
				102,
				100,
				128,
				135,
				153,
				169,
				179,
				194,
				204,
				216,
				230,
				232,
				255,
				247,
			},
			ToneCurvePV2012Green = {
				0,
				18,
				26,
				25,
				51,
				36,
				77,
				57,
				102,
				92,
				128,
				132,
				153,
				166,
				179,
				193,
				204,
				215,
				230,
				231,
				255,
				246,
			},
			ToneCurvePV2012Red = {
				0,
				18,
				26,
				23,
				51,
				33,
				77,
				53,
				102,
				88,
				128,
				132,
				153,
				168,
				179,
				195,
				204,
				216,
				230,
				232,
				255,
				247,
			},
			Vibrance = 0,
			VignetteAmount = 0,
			VignetteMidpoint = 50,
			WhiteBalance = "As Shot",
			Whites2012 = 6,
		},
		uuid = "CB234CF2-11CD-4F1B-B41D-9CD372DEAE25",
	},
	version = 0,
}
