其他预设/【240】TEZZA调色预设合集24款/1.LUT预设（视频调色-PR-AE-PS-FCPX-达芬奇用）/Tezza万事达-Tezza01.cube
# Created by Adobe Lightroom plugin Export LUT (1.17.0)
# www.johnrellis.com/lightroom/exportlut.htm
# Preset: Tezza万事达-Tezza01
# Color profile: /Library/Application Support/Adobe/Color/Profiles/Recommended/AdobeRGB1998.icc
LUT_3D_SIZE 32
0.030579 0.035340 0.050355
0.048402 0.040406 0.052918
0.060761 0.047456 0.056977
0.078096 0.058625 0.061952
0.109529 0.064515 0.064881
0.153872 0.066346 0.065248
0.208713 0.063203 0.063386
0.272618 0.042756 0.059327
0.344854 0.000000 0.047456
0.420081 0.000000 0.023865
0.492836 0.000000 0.000000
0.557397 0.000000 0.000000
0.611963 0.000000 0.000000
0.670710 0.004364 0.000000
0.714199 0.124483 0.000000
0.748287 0.181338 0.000000
0.775875 0.228763 0.000000
0.798520 0.270115 0.000000
0.817411 0.307012 0.000000
0.834257 0.341161 0.000000
0.849699 0.373693 0.000000
0.864500 0.404547 0.061402
0.878325 0.433173 0.104402
0.891234 0.460151 0.140688
0.903258 0.485603 0.176486
0.914427 0.510277 0.213596
0.924773 0.534997 0.253971
0.934142 0.559899 0.298039
0.942382 0.585290 0.346380
0.949248 0.611353 0.398627
0.954559 0.637720 0.452644
0.958190 0.662928 0.504021
0.030945 0.048524 0.056001
0.043091 0.048646 0.059266
0.059663 0.055573 0.060029
0.077333 0.062959 0.063783
0.107973 0.069184 0.065736
0.151156 0.072786 0.065675
0.205142 0.071809 0.063874
0.267613 0.063081 0.059968
0.338781 0.019471 0.049042
0.413672 0.000000 0.026398
0.486275 0.000000 0.000000
0.551263 0.000000 0.000000
0.607568 0.000000 0.000000
0.664698 0.041474 0.000000
0.707729 0.126772 0.000000
0.741817 0.180301 0.000000
0.769833 0.225803 0.000000
0.793118 0.266117 0.000000
0.812711 0.302770 0.000000
0.830167 0.336919 0.000000
0.845914 0.369207 0.000000
0.860990 0.399939 0.042634
0.875059 0.428687 0.096284
0.888304 0.455787 0.133272
0.900633 0.481544 0.168917
0.912139 0.506523 0.206241
0.922881 0.531395 0.246616
0.932616 0.556695 0.290837
0.941222 0.582300 0.339361
0.948425 0.608576 0.391974
0.954009 0.635065 0.446418
0.957824 0.660517 0.498451
0.033082 0.060029 0.060975
0.048402 0.059815 0.063874
0.054292 0.059663 0.066621
0.075471 0.068055 0.066285
0.106142 0.075105 0.067231
0.148165 0.080415 0.066712
0.200687 0.081758 0.064607
0.262058 0.077241 0.060731
0.332433 0.062013 0.049866
0.407050 0.000916 0.028992
0.479866 0.000000 0.000580
0.545586 0.000000 0.000000
0.604089 0.000000 0.000000
0.660151 0.075441 0.000000
0.702907 0.136294 0.000000
0.737270 0.184939 0.000000
0.765621 0.228183 0.000000
0.789334 0.267430 0.000000
0.809506 0.303105 0.000000
0.827420 0.337011 0.000000
0.843534 0.368902 0.000000
0.858793 0.399451 0.032868
0.873075 0.428107 0.092653
0.886534 0.454963 0.129824
0.899046 0.480568 0.165682
0.910765 0.505516 0.202792
0.921691 0.530480 0.243290
0.931640 0.555718 0.287572
0.940490 0.581415 0.336156
0.947845 0.607782 0.388983
0.953582 0.634211 0.443549
0.957519 0.659663 0.495796
0.038972 0.073487 0.069184
0.052308 0.073793 0.070192
0.061799 0.072847 0.072267
0.068391 0.072511 0.076326
0.100130 0.086458 0.073091
0.143587 0.095277 0.068452
0.194553 0.099702 0.066224
0.254673 0.100191 0.061952
0.323583 0.093935 0.053132
0.397742 0.079988 0.032288
0.470741 0.060060 0.003815
0.537255 0.040192 0.000000
0.598718 0.070527 0.000000
0.653285 0.114137 0.000000
0.696010 0.157198 0.000000
0.730526 0.198795 0.000000
0.759457 0.237949 0.000000
0.783810 0.273899 0.000000
0.804440 0.307591 0.000000
0.822782 0.339879 0.000000
0.839200 0.370459 0.000000
0.854734 0.399969 0.017548
0.869505 0.428351 0.087007
0.883635 0.455543 0.126040
0.896880 0.481758 0.163088
0.909270 0.507347 0.201755
0.920684 0.532738 0.243290
0.930938 0.558190 0.288487
0.939879 0.583703 0.337438
0.947326 0.609644 0.389929
0.953063 0.635523 0.443763
0.957061 0.660334 0.495094
0.037751 0.095277 0.077333
0.051484 0.096071 0.077455
0.063050 0.095796 0.078645
0.076295 0.093904 0.082643
0.086458 0.092226 0.089815
0.130678 0.112551 0.081514
0.184024 0.123049 0.069917
0.242130 0.127138 0.064332
0.309270 0.127199 0.056794
0.382300 0.122988 0.037415
0.455421 0.116487 0.010254
0.523522 0.114137 0.000000
0.588647 0.126894 0.000000
0.642298 0.153262 0.000000
0.685786 0.185489 0.000000
0.721767 0.219974 0.000000
0.752377 0.254765 0.000000
0.778164 0.288670 0.000000
0.799893 0.320195 0.000000
0.818906 0.350317 0.000000
0.835721 0.378882 0.000000
0.851469 0.406897 0.015625
0.866484 0.433814 0.086366
0.880919 0.460273 0.125307
0.894560 0.485817 0.162600
0.907317 0.510979 0.201358
0.918975 0.535973 0.243076
0.929503 0.560845 0.288151
0.938659 0.585931 0.336919
0.946288 0.611536 0.389380
0.952209 0.636988 0.442939
0.956359 0.661585 0.494514
0.021118 0.129854 0.086885
0.036286 0.130983 0.086336
0.056580 0.132265 0.086885
0.077974 0.130068 0.090425
0.098695 0.125154 0.097322
0.112490 0.121767 0.107027
0.168917 0.147463 0.093843
0.230533 0.158145 0.075715
0.294926 0.161288 0.060273
0.367285 0.162173 0.043610
0.440681 0.161349 0.015900
0.512413 0.163363 0.000000
0.578241 0.174807 0.000000
0.632074 0.194125 0.000000
0.676295 0.219516 0.000000
0.713527 0.248264 0.000000
0.745296 0.278752 0.000000
0.772427 0.309331 0.000000
0.795315 0.338506 0.000000
0.815244 0.366583 0.000000
0.832822 0.393683 0.000000
0.849149 0.419837 0.033356
0.881621 0.480537 0.143923
0.894682 0.503471 0.179416
0.906584 0.525566 0.215854
0.917418 0.547173 0.254002
0.927123 0.568688 0.294499
0.935637 0.590387 0.338109
0.942931 0.612604 0.384619
0.948974 0.635401 0.433570
0.953521 0.658045 0.481971
0.956664 0.679744 0.527581
0.000000 0.185977 0.099245
0.000000 0.186648 0.098512
0.016693 0.188022 0.098360
0.071107 0.187716 0.100649
0.109407 0.184024 0.110018
0.136110 0.173648 0.119570
0.154208 0.167117 0.133181
0.224643 0.196841 0.113344
0.296971 0.206668 0.086519
0.366613 0.207492 0.057832
0.438392 0.208835 0.016999
0.518639 0.218326 0.000000
0.584466 0.231632 0.000000
0.637446 0.249821 0.000000
0.680568 0.271031 0.000000
0.716365 0.294652 0.000000
0.747311 0.319921 0.000000
0.774014 0.345861 0.000000
0.796933 0.371679 0.000000
0.817472 0.397620 0.000000
0.836088 0.423560 0.000000
0.853971 0.450263 0.082155
0.871061 0.477058 0.126101
0.886961 0.503014 0.167025
0.901152 0.527581 0.208164
0.913420 0.550408 0.249241
0.924010 0.572229 0.291417
0.933104 0.593683 0.335607
0.940887 0.615503 0.382452
0.947234 0.637751 0.431281
0.952117 0.659754 0.479469
0.955505 0.681117 0.525414
0.000000 0.245853 0.111849
0.000000 0.246586 0.111360
0.000000 0.247593 0.111421
0.033356 0.248875 0.111330
0.106477 0.245090 0.121462
0.151583 0.237217 0.133608
0.180789 0.223056 0.145388
0.201572 0.215030 0.161685
0.281498 0.246159 0.138491
0.360143 0.256229 0.104768
0.436591 0.261082 0.068666
0.500633 0.261173 0.000000
0.566308 0.272374 0.000000
0.620325 0.286870 0.000000
0.665003 0.303990 0.000000
0.702571 0.323217 0.000000
0.735195 0.344793 0.000000
0.763607 0.367651 0.000000
0.788174 0.390875 0.000000
0.810025 0.414435 0.000000
0.829648 0.438117 0.000549
0.847959 0.462470 0.083406
0.865507 0.487160 0.126040
0.881865 0.511345 0.166323
0.896605 0.534600 0.206668
0.909483 0.556481 0.247623
0.920623 0.577447 0.289647
0.930266 0.598260 0.333898
0.938506 0.619562 0.381018
0.945281 0.641321 0.430274
0.950469 0.662837 0.478523
0.954162 0.683772 0.524743
0.000000 0.315862 0.127871
0.000000 0.316442 0.127779
0.000000 0.317632 0.128206
0.000000 0.319646 0.132143
0.097139 0.316747 0.137331
0.161257 0.311284 0.151247
0.208133 0.297826 0.164675
0.238682 0.280125 0.177646
0.263951 0.272374 0.197513
0.358129 0.309392 0.173495
0.439277 0.321691 0.132601
0.504448 0.322850 0.089937
0.555169 0.319982 0.005158
0.603082 0.324102 0.000000
0.649561 0.338262 0.000000
0.688960 0.354559 0.000000
0.723293 0.372930 0.000000
0.753506 0.393103 0.000000
0.779660 0.413642 0.000000
0.802884 0.434821 0.000000
0.823514 0.456275 0.015106
0.842405 0.478004 0.087892
0.860410 0.500511 0.129244
0.877165 0.523033 0.168643
0.892393 0.544732 0.208865
0.905760 0.565362 0.249424
0.917388 0.585321 0.291295
0.927489 0.605249 0.335515
0.936126 0.625605 0.382422
0.943267 0.646693 0.431617
0.948699 0.667231 0.479286
0.952636 0.687556 0.525383
0.000000 0.392950 0.147860
0.000000 0.393378 0.148348
0.000000 0.393957 0.149081
0.000000 0.395758 0.153689
0.078645 0.394598 0.157321
0.166110 0.389410 0.171633
0.233829 0.381750 0.188693
0.280491 0.364111 0.202640
0.316442 0.349248 0.219486
0.344884 0.341497 0.242039
0.432258 0.373358 0.213474
0.502770 0.382086 0.166171
0.556634 0.381415 0.120272
0.598627 0.377111 0.065858
0.632868 0.372351 0.000000
0.674678 0.385992 0.000000
0.711818 0.402869 0.000000
0.744259 0.421180 0.000000
0.772183 0.439826 0.000000
0.796445 0.458381 0.000000
0.817777 0.476997 0.040650
0.836698 0.495644 0.094514
0.854612 0.515007 0.132937
0.871458 0.534722 0.170108
0.886961 0.554406 0.208743
0.900877 0.573693 0.248753
0.913268 0.592920 0.290806
0.924102 0.612329 0.335821
0.933379 0.632441 0.384039
0.941039 0.653223 0.434424
0.946838 0.673243 0.482399
0.951049 0.693324 0.529381
0.000000 0.467781 0.173312
0.000000 0.468299 0.174166
0.000000 0.468971 0.175357
0.000000 0.470344 0.180301
0.050843 0.471077 0.182864
0.171969 0.466590 0.196933
0.258000 0.465248 0.216831
0.326146 0.456764 0.236118
0.370733 0.438392 0.251225
0.399634 0.418708 0.266636
0.422980 0.407782 0.288670
0.497627 0.433631 0.257481
0.555901 0.439734 0.205417
0.600336 0.437476 0.156802
0.635920 0.432105 0.106630
0.665888 0.426703 0.011139
0.696834 0.429480 0.000000
0.731258 0.445716 0.000000
0.761349 0.462562 0.000000
0.787442 0.479377 0.000000
0.810147 0.496437 0.057252
0.830106 0.513237 0.100465
0.848722 0.530968 0.137911
0.866209 0.549157 0.174868
0.882261 0.567468 0.213230
0.896696 0.585260 0.252720
0.909514 0.603174 0.294591
0.920806 0.621485 0.339208
0.930510 0.640497 0.386999
0.938506 0.660090 0.436774
0.944640 0.679347 0.484779
0.949187 0.698756 0.531640
0.000000 0.539513 0.206302
0.000000 0.540551 0.207797
0.000000 0.541619 0.210208
0.000000 0.543816 0.216220
0.091646 0.546960 0.228946
0.193454 0.545434 0.234531
0.285710 0.541405 0.252995
0.365209 0.535668 0.274540
0.418647 0.520592 0.290135
0.454231 0.501610 0.303502
0.475959 0.481697 0.317235
0.494636 0.470558 0.338445
0.590539 0.526360 0.338537
0.633967 0.527306 0.278874
0.667811 0.521477 0.223331
0.695796 0.513603 0.170474
0.720180 0.506340 0.115969
0.742184 0.500969 0.008515
0.769009 0.510399 0.003479
0.793820 0.523583 0.068666
0.815305 0.536645 0.103670
0.834379 0.549920 0.137362
0.852201 0.564141 0.171023
0.868925 0.579126 0.206271
0.884306 0.594446 0.243442
0.898100 0.609888 0.282261
0.910338 0.625544 0.323217
0.920958 0.641627 0.366491
0.930114 0.658534 0.412329
0.937621 0.675959 0.458961
0.943420 0.693294 0.504143
0.947753 0.711116 0.548638
0.000000 0.623926 0.263706
0.000000 0.624201 0.265446
0.000000 0.623743 0.267369
0.000000 0.623255 0.273014
0.149203 0.622095 0.283970
0.239200 0.618708 0.287266
0.328557 0.612177 0.303197
0.406531 0.604974 0.322454
0.471382 0.597253 0.344121
0.509667 0.581872 0.356664
0.537865 0.566735 0.370642
0.556023 0.551446 0.385016
0.572381 0.544305 0.407843
0.620264 0.560906 0.379431
0.660334 0.563470 0.323064
0.691646 0.559258 0.269322
0.717708 0.552483 0.217868
0.740261 0.545708 0.168215
0.760647 0.540185 0.116457
0.781613 0.540581 0.072450
0.805051 0.553033 0.105867
0.825376 0.565118 0.138674
0.844053 0.577996 0.172122
0.861540 0.591699 0.207034
0.877714 0.605798 0.243687
0.892302 0.620172 0.282475
0.905272 0.634974 0.323522
0.916686 0.650263 0.367193
0.926513 0.666499 0.413428
0.934508 0.682979 0.459968
0.940826 0.699733 0.505608
0.945556 0.717098 0.550835
0.000000 0.672938 0.309606
0.000000 0.672755 0.311376
0.000000 0.671901 0.313115
0.039094 0.670375 0.318090
0.193942 0.667689 0.327367
0.276005 0.664302 0.331762
0.356481 0.657649 0.344091
0.429389 0.650477 0.360693
0.492409 0.643885 0.380987
0.538018 0.634791 0.398383
0.567315 0.621271 0.409918
0.588769 0.607874 0.421973
0.601740 0.593774 0.433814
0.613703 0.586267 0.453162
0.651484 0.597986 0.426337
0.685542 0.598749 0.370672
0.713130 0.593835 0.316930
0.736599 0.587152 0.266850
0.757473 0.580652 0.220005
0.776944 0.575769 0.176120
0.795621 0.573022 0.131930
0.816129 0.580682 0.140475
0.835813 0.592493 0.174136
0.854246 0.605280 0.209293
0.871275 0.618555 0.246159
0.886717 0.632074 0.285222
0.900481 0.645991 0.326543
0.912596 0.660578 0.370642
0.923033 0.676112 0.417639
0.931456 0.691554 0.463630
0.938170 0.707698 0.509789
0.943297 0.724453 0.555383
0.000000 0.712062 0.354559
0.000000 0.711818 0.356420
0.000000 0.710780 0.358068
0.152712 0.708705 0.362646
0.243809 0.705287 0.370916
0.329564 0.700862 0.384741
0.386816 0.695644 0.386206
0.452979 0.688808 0.400427
0.510552 0.682673 0.417914
0.559838 0.677668 0.438758
0.591241 0.667597 0.450752
0.613855 0.655879 0.460670
0.629755 0.643641 0.470344
0.638972 0.630182 0.479042
0.647578 0.622553 0.494942
0.677577 0.630335 0.469734
0.707088 0.630121 0.416968
0.731502 0.624964 0.365393
0.753017 0.618647 0.317479
0.772885 0.612879 0.273686
0.791531 0.608576 0.234348
0.809323 0.605890 0.198276
0.826993 0.606775 0.174868
0.846403 0.618738 0.210513
0.864439 0.631220 0.248081
0.880919 0.644343 0.288060
0.895750 0.658015 0.331243
0.908782 0.672572 0.377722
0.919890 0.687617 0.425879
0.928862 0.702876 0.473518
0.935973 0.718807 0.521141
0.941253 0.735225 0.567620
0.088319 0.743282 0.397406
0.129824 0.742947 0.399481
0.165988 0.742184 0.401587
0.226658 0.740291 0.406683
0.297429 0.737209 0.415290
0.372229 0.733150 0.428748
0.425360 0.729427 0.432776
0.482551 0.723751 0.445624
0.533837 0.718257 0.460853
0.578027 0.713313 0.478126
0.614160 0.708064 0.495338
0.635309 0.697322 0.501640
0.651362 0.685878 0.507622
0.662257 0.673426 0.513115
0.667811 0.659754 0.517845
0.673701 0.651759 0.530236
0.698299 0.657130 0.507622
0.724331 0.656703 0.459785
0.746822 0.652399 0.413001
0.767514 0.647578 0.369696
0.786740 0.643183 0.330632
0.804898 0.639765 0.296117
0.822538 0.637934 0.265537
0.840299 0.638087 0.238682
0.858732 0.646357 0.254673
0.876127 0.658991 0.296239
0.891752 0.672145 0.340612
0.905425 0.686061 0.388220
0.916808 0.700008 0.435950
0.926085 0.714290 0.483284
0.933440 0.729061 0.530022
0.938933 0.744411 0.575555
0.199863 0.766262 0.435492
0.218418 0.765682 0.437018
0.241550 0.764736 0.439094
0.285801 0.762783 0.443946
0.343328 0.759731 0.452125
0.406439 0.755734 0.464454
0.462593 0.751827 0.476356
0.504265 0.747555 0.481697
0.549035 0.742611 0.494575
0.589105 0.737972 0.509331
0.624018 0.733883 0.525750
0.649439 0.727810 0.537224
0.666041 0.718471 0.542138
0.678614 0.708309 0.546380
0.687007 0.697078 0.549920
0.691066 0.684718 0.552422
0.695796 0.677394 0.563073
0.715999 0.680995 0.543664
0.739223 0.680629 0.500816
0.760006 0.677241 0.459358
0.779446 0.673243 0.421057
0.797757 0.669612 0.386511
0.815732 0.667231 0.355871
0.833738 0.666590 0.329961
0.851774 0.667628 0.308415
0.869841 0.671351 0.298833
0.886534 0.684291 0.344854
0.901061 0.697749 0.393713
0.913054 0.710964 0.441932
0.922942 0.724758 0.490150
0.930724 0.739010 0.537713
0.936553 0.753872 0.583886
0.278721 0.785122 0.472114
0.294194 0.784756 0.474434
0.355749 0.793637 0.499825
0.386816 0.791531 0.504692
0.428748 0.788327 0.512627
0.475257 0.784329 0.523674
0.523491 0.779812 0.538659
0.552514 0.776364 0.541009
0.586786 0.771817 0.550683
0.618647 0.767575 0.562066
0.647242 0.763607 0.574792
0.672328 0.759915 0.588373
0.687922 0.752804 0.592737
0.699580 0.744259 0.594446
0.708309 0.735012 0.595789
0.714199 0.724971 0.596582
0.717128 0.714076 0.597070
0.720760 0.707607 0.605554
0.736416 0.709285 0.588769
0.756497 0.708492 0.550835
0.775021 0.705318 0.514458
0.793088 0.702022 0.481361
0.811002 0.699519 0.451759
0.828824 0.698054 0.425971
0.846464 0.697719 0.403815
0.864012 0.698817 0.386419
0.881376 0.701289 0.374273
0.896727 0.709865 0.400061
0.909209 0.722072 0.447791
0.919615 0.735073 0.496376
0.927855 0.748745 0.544427
0.934020 0.762844 0.590784
0.355718 0.802274 0.511284
0.370886 0.802823 0.515740
0.389471 0.803067 0.520867
0.419593 0.802243 0.528191
0.457527 0.800229 0.537621
0.499092 0.797055 0.549096
0.541405 0.793179 0.563165
0.571527 0.790097 0.569818
0.600305 0.786343 0.577691
0.628168 0.782589 0.587427
0.653986 0.779049 0.598383
0.677180 0.775723 0.610224
0.696529 0.771939 0.620935
0.707607 0.764553 0.622095
0.716670 0.756710 0.622889
0.723659 0.748348 0.623224
0.728450 0.739437 0.623346
0.730953 0.730037 0.623438
0.734401 0.724788 0.631647
0.747951 0.726284 0.618402
0.766415 0.726192 0.585504
0.784482 0.724758 0.554986
0.802426 0.723293 0.527428
0.820340 0.722408 0.503380
0.838071 0.722255 0.483040
0.855711 0.723262 0.467048
0.873106 0.725521 0.456031
0.889708 0.728328 0.448859
0.905241 0.733181 0.453407
0.916258 0.745632 0.502800
0.924956 0.758663 0.551415
0.931487 0.772152 0.598199
0.404181 0.814481 0.539727
0.416876 0.814847 0.543847
0.431830 0.815030 0.548394
0.456306 0.814237 0.555138
0.488319 0.812375 0.564019
0.523522 0.809567 0.574578
0.560235 0.806088 0.587488
0.596582 0.802426 0.603021
0.615442 0.800046 0.604364
0.639704 0.796780 0.612757
0.662745 0.793698 0.622400
0.683894 0.790707 0.632685
0.702663 0.787747 0.643183
0.716487 0.783261 0.649348
0.725307 0.776303 0.649805
0.732357 0.768978 0.649989
0.737819 0.761257 0.649928
0.741634 0.753292 0.649866
0.743832 0.745266 0.650050
0.747189 0.741238 0.658076
0.758968 0.742794 0.648188
0.776638 0.743954 0.620417
0.794369 0.744198 0.595148
0.812070 0.744228 0.572808
0.829679 0.744594 0.553704
0.847196 0.745815 0.538720
0.864195 0.747463 0.527184
0.880613 0.749996 0.520165
0.896422 0.753658 0.518639
0.911192 0.758236 0.522545
0.921843 0.768124 0.556695
0.928801 0.781033 0.604120
0.446937 0.826108 0.567132
0.457404 0.826383 0.570855
0.469825 0.826535 0.575158
0.490303 0.825772 0.581445
0.517235 0.824094 0.589593
0.547387 0.821530 0.599359
0.578973 0.818418 0.611017
0.610834 0.815091 0.624964
0.631220 0.812802 0.630121
0.652033 0.809934 0.637201
0.672175 0.807156 0.645228
0.691096 0.804440 0.653864
0.708309 0.801755 0.662745
0.723903 0.799191 0.671809
0.733730 0.794034 0.674311
0.741085 0.787808 0.674830
0.747280 0.781460 0.675502
0.752255 0.775051 0.676448
0.755917 0.768643 0.677699
0.758236 0.762417 0.679377
0.761959 0.760098 0.687892
0.773190 0.762844 0.682399
0.790066 0.765438 0.661097
0.807492 0.767605 0.642451
0.824887 0.769467 0.626459
0.842008 0.771389 0.613489
0.858549 0.773342 0.603388
0.874510 0.776120 0.597711
0.889738 0.779690 0.596765
0.903929 0.784024 0.600397
0.916686 0.788968 0.608331
0.927031 0.795499 0.625299
0.498054 0.840024 0.601953
0.504845 0.839872 0.604303
0.512871 0.839567 0.606958
0.528222 0.838468 0.611627
0.549493 0.836606 0.618311
0.574456 0.834165 0.626825
0.601465 0.831357 0.637415
0.629358 0.828397 0.650172
0.654566 0.825803 0.662654
0.668696 0.824063 0.665034
0.686091 0.821836 0.671992
0.702724 0.819608 0.679255
0.718105 0.817288 0.686641
0.732296 0.815030 0.694087
0.744778 0.812528 0.701015
0.751888 0.807126 0.701259
0.758083 0.801541 0.701625
0.763302 0.795834 0.702144
0.767514 0.790158 0.702998
0.770535 0.784482 0.704067
0.772427 0.778897 0.705440
0.775845 0.776944 0.712734
0.785855 0.779538 0.708949
0.801297 0.782345 0.691432
0.817807 0.785397 0.677333
0.834073 0.787839 0.665095
0.850217 0.790463 0.655848
0.865904 0.793576 0.650446
0.880949 0.797330 0.649195
0.895018 0.801694 0.652003
0.907683 0.806638 0.658961
0.918700 0.812253 0.669764
0.530114 0.849973 0.626184
0.535973 0.849882 0.628412
0.542931 0.849607 0.630945
0.556146 0.848631 0.635370
0.574273 0.846983 0.641627
0.595544 0.844755 0.649348
0.618982 0.842161 0.658900
0.643122 0.839445 0.670008
0.666926 0.836851 0.682429
0.680568 0.835386 0.685786
0.695705 0.833402 0.691463
0.710414 0.831418 0.697536
0.724453 0.829374 0.703761
0.737728 0.827359 0.710170
0.750027 0.825406 0.716670
0.759792 0.822477 0.720912
0.766232 0.817746 0.721401
0.771939 0.812955 0.722103
0.776852 0.808133 0.723110
0.780880 0.803372 0.724361
0.783963 0.798734 0.725948
0.786069 0.794186 0.727810
0.789914 0.793149 0.734890
0.799344 0.796109 0.733394
0.811337 0.796506 0.715389
0.826810 0.799985 0.704341
0.842435 0.803372 0.696010
0.857786 0.807004 0.690791
0.872648 0.811032 0.689143
0.886656 0.815610 0.691279
0.899474 0.820768 0.697292
0.910643 0.826505 0.706966
0.567834 0.861295 0.655512
0.572808 0.861234 0.657710
0.578576 0.860929 0.659968
0.589014 0.859953 0.663691
0.603632 0.858335 0.669001
0.621241 0.856260 0.675746
0.640558 0.853849 0.683772
0.660487 0.851316 0.692836
0.680385 0.848814 0.702693
0.696803 0.846799 0.710262
0.706996 0.845151 0.711727
0.719539 0.843198 0.716182
0.731899 0.841184 0.721004
0.743771 0.839200 0.725887
0.754940 0.837095 0.730861
0.765560 0.835080 0.735988
0.772885 0.831449 0.737667
0.778592 0.827085 0.737972
0.783871 0.822843 0.738827
0.788632 0.818814 0.740169
0.792721 0.814969 0.742000
0.795987 0.811215 0.744015
0.798123 0.807279 0.745907
0.801541 0.806210 0.752102
0.809598 0.808377 0.750942
0.822416 0.811002 0.738308
0.837125 0.815091 0.730526
0.851774 0.819059 0.725307
0.866148 0.823301 0.723171
0.879881 0.827909 0.724361
0.892607 0.833066 0.729091
0.903868 0.838804 0.737423
0.591516 0.869505 0.675715
0.595789 0.869474 0.677729
0.600855 0.869169 0.679835
0.609949 0.868315 0.683314
0.622675 0.866880 0.688228
0.638025 0.865019 0.694301
0.654932 0.862943 0.701564
0.672511 0.860777 0.709621
0.690242 0.858610 0.718379
0.707454 0.856687 0.727504
0.716823 0.855558 0.729000
0.728237 0.853941 0.733028
0.739651 0.852293 0.737301
0.750790 0.850584 0.741787
0.761563 0.848844 0.746426
0.771817 0.847074 0.751247
0.781582 0.845457 0.756344
0.787503 0.841886 0.756954
0.793027 0.838376 0.757870
0.798215 0.835050 0.759274
0.802762 0.831754 0.760922
0.806455 0.828336 0.762509
0.809354 0.824949 0.764157
0.811307 0.821500 0.765835
0.814694 0.820798 0.771786
0.822019 0.822904 0.771847
0.833860 0.825559 0.761166
0.847898 0.830228 0.756130
0.861753 0.834928 0.753964
0.875090 0.839811 0.754879
0.887480 0.845090 0.759091
0.898466 0.850858 0.766720
0.615991 0.877806 0.696925
0.619532 0.877714 0.698634
0.623407 0.877379 0.700221
0.630854 0.876524 0.703090
0.641352 0.875212 0.707149
0.654170 0.873533 0.712337
0.668635 0.871672 0.718471
0.684047 0.869688 0.725399
0.699794 0.867765 0.733028
0.715175 0.866026 0.740932
0.728206 0.864622 0.746914
0.736873 0.863523 0.748592
0.747463 0.862119 0.752590
0.757961 0.860624 0.756741
0.768093 0.859098 0.760983
0.777890 0.857542 0.765347
0.787289 0.856046 0.769986
0.795438 0.854276 0.773770
0.800870 0.851255 0.774563
0.805936 0.848234 0.775570
0.810605 0.845335 0.776883
0.814725 0.842466 0.778439
0.818265 0.839597 0.780056
0.821012 0.836759 0.781765
0.823026 0.833890 0.783474
0.826352 0.833494 0.789181
0.833005 0.835599 0.790280
0.843961 0.838346 0.781460
0.857053 0.843259 0.778592
0.870024 0.848478 0.778988
0.882139 0.853941 0.782467
0.893034 0.859770 0.789120
0.635645 0.885161 0.714931
0.638422 0.885008 0.716243
0.641810 0.884703 0.717678
0.648188 0.884001 0.720241
0.657679 0.882933 0.724147
0.669398 0.881621 0.729244
0.682918 0.880217 0.735470
0.697322 0.878843 0.742489
0.712184 0.877562 0.750027
0.727321 0.876371 0.758297
0.742672 0.875181 0.767239
0.751522 0.874693 0.769924
0.761624 0.873777 0.774197
0.771511 0.872770 0.778408
0.781064 0.871641 0.782589
0.790127 0.870390 0.786587
0.798672 0.869047 0.790494
0.806790 0.867796 0.794583
0.813169 0.865965 0.796963
0.817990 0.863554 0.797910
0.822599 0.861204 0.799100
0.826841 0.858915 0.800504
0.830564 0.856626 0.801999
0.833738 0.854398 0.803616
0.836393 0.852140 0.805264
0.838407 0.849943 0.807065
0.841611 0.849943 0.812436
0.847471 0.851957 0.814176
0.857176 0.854673 0.807645
0.868742 0.859525 0.806790
0.880095 0.864927 0.809445
0.890288 0.870420 0.814817
0.662257 0.894133 0.738766
0.664363 0.893950 0.739742
0.666896 0.893645 0.740780
0.671992 0.893004 0.742855
0.679652 0.891997 0.745968
0.689174 0.890837 0.750027
0.700160 0.889525 0.754910
0.712184 0.888151 0.760464
0.725277 0.886748 0.766934
0.739040 0.885344 0.774197
0.752956 0.883940 0.781949
0.765072 0.882811 0.788327
0.771939 0.882017 0.789731
0.780453 0.880919 0.792935
0.788846 0.879728 0.796201
0.797024 0.878508 0.799557
