其他预设/【240】TEZZA调色预设合集24款/1.LUT预设（视频调色-PR-AE-PS-FCPX-达芬奇用）/Tezza自然__-6.cube
# Created by Adobe Lightroom plugin Export LUT (1.17.0)
# www.johnrellis.com/lightroom/exportlut.htm
# Preset: Tezza自然[素锦印象]-6
# Color profile: /Library/Application Support/Adobe/Color/Profiles/Recommended/AdobeRGB1998.icc
LUT_3D_SIZE 32
0.030579 0.035340 0.050355
0.058930 0.047028 0.059113
0.070527 0.057832 0.064820
0.103487 0.066835 0.072541
0.166171 0.071443 0.077455
0.244053 0.066529 0.080476
0.331182 0.033265 0.082765
0.420539 0.000000 0.085603
0.503838 0.000000 0.089693
0.575647 0.000000 0.095979
0.635431 0.082887 0.106447
0.684779 0.149996 0.120241
0.737484 0.227146 0.143435
0.776516 0.294285 0.170901
0.804898 0.350561 0.201328
0.825711 0.396429 0.233555
0.841581 0.434852 0.266972
0.855131 0.469032 0.301244
0.867674 0.500237 0.336187
0.879606 0.530266 0.372686
0.890593 0.558709 0.410132
0.900298 0.585168 0.447089
0.908507 0.609339 0.482216
0.915282 0.631708 0.515709
0.920836 0.652461 0.547631
0.925292 0.672145 0.578363
0.928771 0.691341 0.608606
0.931395 0.710109 0.638148
0.933165 0.728542 0.666957
0.934295 0.745815 0.693599
0.934997 0.761440 0.717006
0.935393 0.775387 0.737514
0.028870 0.060761 0.060975
0.056458 0.060060 0.063294
0.070802 0.064210 0.066346
0.103944 0.073152 0.073091
0.165805 0.080079 0.077790
0.241825 0.079255 0.080720
0.327520 0.065858 0.082795
0.415412 0.020874 0.085756
0.498421 0.000000 0.089509
0.570733 0.015869 0.095644
0.630579 0.097749 0.105623
0.681086 0.156374 0.119356
0.732784 0.228580 0.141573
0.771328 0.292088 0.167666
0.800168 0.346258 0.196475
0.821530 0.391608 0.227481
0.837949 0.429664 0.259831
0.851682 0.463539 0.293523
0.864439 0.494789 0.328008
0.876677 0.524834 0.364324
0.888029 0.553429 0.401648
0.898131 0.580194 0.438819
0.906706 0.604730 0.474464
0.913878 0.627466 0.508476
0.919768 0.648585 0.540887
0.924468 0.668666 0.572290
0.928222 0.688197 0.603143
0.931029 0.707362 0.633448
0.932952 0.726101 0.662867
0.934173 0.743801 0.690211
0.934936 0.759731 0.714290
0.935363 0.773983 0.735286
0.026917 0.072663 0.067811
0.054078 0.071351 0.070375
0.069306 0.072541 0.072114
0.104707 0.082887 0.074311
0.165164 0.091371 0.078126
0.239811 0.094148 0.080842
0.323491 0.086763 0.083009
0.410254 0.071809 0.085542
0.493019 0.058808 0.089357
0.565637 0.073671 0.095583
0.626215 0.115297 0.105135
0.678645 0.168643 0.118990
0.729213 0.234134 0.140291
0.767483 0.294163 0.165591
0.796628 0.346777 0.193637
0.818570 0.390906 0.224033
0.835416 0.428534 0.255741
0.849363 0.461677 0.289006
0.862303 0.492775 0.323308
0.874784 0.522728 0.359472
0.886412 0.551415 0.397009
0.896757 0.578302 0.434516
0.905608 0.602960 0.470375
0.912993 0.625727 0.504692
0.919036 0.646998 0.537438
0.923949 0.667140 0.569085
0.927855 0.686824 0.600244
0.930785 0.706142 0.630915
0.932799 0.725032 0.660731
0.934081 0.742947 0.688472
0.934874 0.759030 0.712917
0.935332 0.773373 0.734157
0.015900 0.105165 0.082185
0.047608 0.107027 0.081758
0.066255 0.104585 0.082673
0.105043 0.110719 0.086061
0.169162 0.123690 0.083589
0.237827 0.122499 0.080873
0.319127 0.120760 0.082979
0.404517 0.114809 0.085817
0.486549 0.110292 0.089204
0.559228 0.119844 0.095460
0.620142 0.148104 0.104585
0.675563 0.193820 0.118990
0.724147 0.249790 0.139437
0.761959 0.303593 0.163455
0.791684 0.351904 0.190249
0.814237 0.394079 0.219852
0.831754 0.430091 0.250889
0.845975 0.462013 0.283513
0.859007 0.491829 0.317052
0.871611 0.520775 0.352483
0.883482 0.548821 0.389563
0.894224 0.575433 0.426978
0.903593 0.600458 0.463600
0.911528 0.623926 0.499306
0.918120 0.645899 0.533532
0.923400 0.666896 0.566766
0.927520 0.687098 0.599115
0.930541 0.706691 0.630457
0.932616 0.725643 0.660548
0.933928 0.743343 0.688228
0.934752 0.759243 0.712459
0.935241 0.773373 0.733547
0.000000 0.165591 0.100923
0.000000 0.173007 0.099153
0.023133 0.171969 0.093446
0.092378 0.170504 0.099886
0.170687 0.180331 0.104341
0.251041 0.183780 0.094911
0.315465 0.165774 0.084291
0.393439 0.159304 0.084779
0.474617 0.158358 0.088746
0.547845 0.165652 0.094636
0.609827 0.186130 0.103456
0.668116 0.225010 0.118074
0.715358 0.270237 0.137362
0.753384 0.316808 0.159945
0.784421 0.361273 0.185794
0.808591 0.401129 0.214847
0.827543 0.435950 0.246494
0.842649 0.466957 0.279515
0.856199 0.495705 0.313481
0.869139 0.523613 0.348852
0.881224 0.550622 0.385626
0.892241 0.576532 0.422797
0.901915 0.601068 0.459663
0.910216 0.624292 0.495674
0.917082 0.646265 0.530510
0.922637 0.667201 0.564263
0.926909 0.687373 0.597009
0.930114 0.706844 0.628595
0.932311 0.725704 0.658961
0.933684 0.743343 0.686824
0.934569 0.759213 0.711330
0.935058 0.773434 0.732692
0.000000 0.241917 0.120851
0.000000 0.250706 0.118471
0.000000 0.255528 0.118044
0.000549 0.255283 0.104250
0.147890 0.256657 0.122103
0.262699 0.266636 0.127504
0.352758 0.258610 0.112520
0.411017 0.230503 0.096193
0.463874 0.207401 0.087129
0.537346 0.213382 0.093355
0.603388 0.231754 0.103182
0.660975 0.262669 0.117586
0.707485 0.299474 0.135744
0.746029 0.338903 0.157717
0.777981 0.378058 0.182986
0.803464 0.414679 0.212039
0.823484 0.446876 0.243717
0.839445 0.475868 0.276951
0.853483 0.503136 0.311406
0.866941 0.529992 0.347295
0.879515 0.556329 0.384741
0.891020 0.581720 0.422797
0.910582 0.635187 0.505364
0.916991 0.655299 0.538659
0.922118 0.674128 0.570092
0.926116 0.691981 0.600000
0.929107 0.709224 0.628687
0.931243 0.725978 0.656306
0.932738 0.742123 0.682429
0.933745 0.756985 0.705867
0.934386 0.770321 0.726375
0.934783 0.782132 0.744137
0.000000 0.337102 0.144137
0.000000 0.346197 0.141543
0.000000 0.356970 0.140871
0.000000 0.362066 0.129580
0.096986 0.364538 0.149203
0.245518 0.366674 0.156344
0.392126 0.374853 0.164126
0.475380 0.358282 0.144381
0.519158 0.321202 0.119814
0.556237 0.289708 0.102052
0.611353 0.293156 0.104341
0.668299 0.320348 0.120638
0.714168 0.351904 0.141146
0.751797 0.385077 0.164889
0.782345 0.417273 0.191409
0.806088 0.446296 0.220829
0.825193 0.473030 0.252476
0.840696 0.497932 0.286137
0.855039 0.522850 0.321538
0.869047 0.548730 0.359472
0.882383 0.575067 0.400153
0.894591 0.601312 0.442206
0.905028 0.626490 0.483742
0.913512 0.649928 0.523247
0.919982 0.671412 0.559960
0.924743 0.690761 0.593256
0.928191 0.708644 0.623835
0.930602 0.725612 0.652399
0.932250 0.741909 0.679408
0.933349 0.756710 0.703212
0.934112 0.770077 0.724208
0.934539 0.782040 0.742489
0.000000 0.422644 0.166598
0.000000 0.431159 0.165103
0.000000 0.442878 0.164889
0.000000 0.451789 0.165438
0.000000 0.459510 0.148165
0.206882 0.462043 0.191043
0.360327 0.459449 0.198032
0.500145 0.466316 0.209812
0.570214 0.453223 0.191135
0.606073 0.420294 0.160678
0.633051 0.387793 0.136568
0.654566 0.357916 0.116609
0.701045 0.381842 0.136202
0.739803 0.408606 0.159457
0.772061 0.435920 0.185397
0.797635 0.461341 0.214115
0.818265 0.485206 0.245762
0.834989 0.507713 0.279149
0.849851 0.530388 0.314366
0.864408 0.554406 0.352575
0.878325 0.579309 0.393103
0.891112 0.604242 0.435218
0.902129 0.628382 0.476936
0.911131 0.651148 0.516808
0.918151 0.672084 0.553979
0.923308 0.691157 0.587915
0.927123 0.708827 0.619135
0.929808 0.725734 0.648524
0.931640 0.742123 0.676387
0.932891 0.756893 0.700740
0.933715 0.770413 0.722377
0.934234 0.782437 0.741176
0.000000 0.505303 0.194553
0.000000 0.512474 0.194553
0.000000 0.522545 0.196414
0.000000 0.533654 0.209934
0.000000 0.542412 0.191775
0.155459 0.549065 0.216709
0.338537 0.546349 0.244450
0.480781 0.545190 0.256168
0.599573 0.557336 0.278874
0.648341 0.542412 0.257786
0.671229 0.508385 0.217472
0.689082 0.474403 0.184512
0.704372 0.443793 0.158145
0.728267 0.435828 0.154086
0.762112 0.458412 0.179965
0.789548 0.480323 0.208743
0.811704 0.501183 0.240269
0.829648 0.521202 0.273747
0.845090 0.541466 0.309422
0.860227 0.563409 0.347662
0.874662 0.586542 0.388128
0.887968 0.609979 0.430396
0.899504 0.632929 0.472358
0.908965 0.654627 0.512383
0.916381 0.674830 0.549981
0.921965 0.693324 0.584344
0.926055 0.710658 0.616144
0.928985 0.727260 0.646021
0.930999 0.743343 0.674220
0.932372 0.757961 0.699062
0.933288 0.771328 0.721035
0.933867 0.783291 0.740139
0.000000 0.576806 0.228702
0.000000 0.582330 0.230259
0.000000 0.589807 0.233188
0.000000 0.600488 0.246372
0.000000 0.608728 0.243290
0.085389 0.616999 0.235752
0.324620 0.623713 0.304051
0.472847 0.620111 0.315770
0.579126 0.616724 0.328466
0.665339 0.624079 0.350317
0.699947 0.606928 0.326329
0.716182 0.574273 0.279271
0.729671 0.542412 0.240238
0.742153 0.513512 0.208255
0.754788 0.489052 0.182528
0.781216 0.501061 0.202762
0.805509 0.520134 0.235447
0.824979 0.538262 0.270237
0.841184 0.556329 0.306889
0.856687 0.575769 0.345220
0.871427 0.596399 0.385260
0.884794 0.617395 0.426368
0.896513 0.638056 0.466987
0.906279 0.657984 0.506218
0.914122 0.676936 0.543420
0.920165 0.694850 0.578332
0.924712 0.711971 0.611200
0.928008 0.728603 0.642359
0.930266 0.744747 0.671717
0.931762 0.759518 0.697627
0.932830 0.773037 0.720455
0.933471 0.785122 0.740200
0.000000 0.633692 0.266087
0.000000 0.638117 0.268376
0.000000 0.645014 0.272801
0.000000 0.656733 0.287083
0.000000 0.666377 0.300755
0.109102 0.676326 0.295323
0.303807 0.682673 0.327367
0.463508 0.679896 0.377173
0.568353 0.674067 0.386999
0.646113 0.670100 0.398657
0.712093 0.675654 0.419257
0.738125 0.658412 0.394659
0.750668 0.628107 0.344518
0.761807 0.598505 0.301152
0.772549 0.571984 0.265446
0.783230 0.549035 0.237278
0.797238 0.537621 0.227390
0.818296 0.553613 0.262760
0.835508 0.569360 0.299840
0.851713 0.586755 0.338689
0.867033 0.605615 0.379339
0.881132 0.625177 0.420905
0.893492 0.644770 0.462409
0.903868 0.663630 0.502190
0.912169 0.681727 0.540063
0.918608 0.698787 0.575311
0.923461 0.715175 0.608515
0.927001 0.731289 0.640070
0.929442 0.746853 0.669551
0.931121 0.761349 0.695949
0.932250 0.774685 0.719295
0.933013 0.786648 0.739467
0.000000 0.689601 0.311711
0.000000 0.693233 0.314763
0.000000 0.698207 0.319677
0.000000 0.707424 0.332341
0.000000 0.713680 0.358007
0.147036 0.720668 0.352544
0.292699 0.726833 0.358495
0.455024 0.726436 0.422675
0.559808 0.721126 0.445197
0.635706 0.716213 0.454383
0.694820 0.712795 0.464729
0.746761 0.716762 0.484138
0.782010 0.721279 0.501183
0.791897 0.694087 0.449958
0.800961 0.667170 0.403174
0.809720 0.642084 0.362921
0.818479 0.620111 0.330266
0.827512 0.601801 0.305516
0.841550 0.604486 0.323735
0.857450 0.618860 0.363622
0.872129 0.634394 0.404089
0.885252 0.650599 0.444465
0.896483 0.666682 0.483436
0.905882 0.682643 0.521080
0.913390 0.698116 0.556725
0.919249 0.713191 0.590326
0.923644 0.727810 0.621912
0.926848 0.742245 0.651728
0.929046 0.756069 0.679042
0.930632 0.769070 0.703578
0.931762 0.781064 0.725277
0.932464 0.791989 0.744259
0.000000 0.745174 0.367132
0.000000 0.747646 0.370275
0.000000 0.750576 0.374487
0.000000 0.756680 0.385473
0.000000 0.759274 0.409918
0.210483 0.761929 0.414893
0.330968 0.764828 0.418219
0.449226 0.765408 0.447608
0.564050 0.762234 0.508873
0.634089 0.757626 0.517571
0.690639 0.754788 0.528679
0.736904 0.753323 0.541131
0.778286 0.757015 0.562036
0.794430 0.742885 0.544854
0.804318 0.720119 0.500008
0.813291 0.696956 0.457923
0.821897 0.674800 0.419928
0.830594 0.655024 0.387884
0.839841 0.638666 0.363348
0.850645 0.628443 0.351110
0.866239 0.642481 0.392676
0.880278 0.657374 0.434150
0.892363 0.672389 0.474128
0.902525 0.687312 0.512627
0.910735 0.702022 0.549248
0.917144 0.716365 0.583795
0.922026 0.730465 0.616358
0.925597 0.744503 0.647120
0.928069 0.757992 0.675380
0.929870 0.770901 0.700923
0.931121 0.782895 0.723507
0.931945 0.793851 0.743252
0.000000 0.775540 0.402502
0.000000 0.777401 0.405371
0.000000 0.779232 0.409064
0.000000 0.783200 0.418616
0.000000 0.784909 0.438605
0.246677 0.784756 0.456245
0.351080 0.786343 0.458534
0.444404 0.787320 0.471931
0.550011 0.785153 0.523461
0.625666 0.781888 0.559777
0.678218 0.778531 0.568597
0.722164 0.776425 0.578882
0.759396 0.775113 0.589563
0.794461 0.778256 0.607172
0.808469 0.765713 0.591150
0.816861 0.744747 0.548455
0.824857 0.723445 0.508263
0.833005 0.703487 0.472724
0.841733 0.685939 0.442878
0.851377 0.671870 0.420325
0.862028 0.661494 0.405280
0.875151 0.665309 0.423529
0.888212 0.679316 0.465064
0.899229 0.693416 0.504967
0.908110 0.707362 0.542901
0.915099 0.721035 0.578637
0.920470 0.734615 0.612360
0.924376 0.748013 0.643793
0.927092 0.761135 0.672969
0.929076 0.773800 0.699367
0.930449 0.785641 0.722713
0.931395 0.796445 0.743099
0.000000 0.800229 0.433936
0.000000 0.801511 0.436652
0.000000 0.802640 0.439826
0.000000 0.805081 0.448157
0.000000 0.806119 0.465034
0.285313 0.803250 0.492714
0.374548 0.803738 0.494881
0.456672 0.804013 0.505425
0.535821 0.803891 0.532067
0.621576 0.801846 0.590753
0.671839 0.799313 0.606195
0.712612 0.797269 0.614588
0.747921 0.795834 0.623285
0.778927 0.794614 0.631739
0.809354 0.797177 0.646174
0.821042 0.785336 0.630701
0.828244 0.766262 0.591516
0.835538 0.747005 0.554253
0.843503 0.729335 0.521752
0.852354 0.714199 0.495247
0.862119 0.701991 0.475380
0.872709 0.692988 0.462196
0.883696 0.686885 0.455055
0.895598 0.699947 0.496376
0.905333 0.713161 0.535882
0.913024 0.726406 0.573388
0.918914 0.739773 0.609094
0.923186 0.752926 0.642206
0.926207 0.766079 0.673060
0.928313 0.778714 0.700710
0.929778 0.790463 0.725002
0.930755 0.801083 0.745846
0.000000 0.820310 0.461585
0.000000 0.821256 0.464302
0.000000 0.822110 0.467506
0.000000 0.823636 0.475410
0.000000 0.824582 0.490150
0.296788 0.821134 0.517510
0.405066 0.820096 0.531090
0.477211 0.820584 0.541039
0.543877 0.821286 0.559777
0.615045 0.820584 0.600732
0.673701 0.819516 0.643977
0.709255 0.817014 0.649439
0.740871 0.814786 0.655116
0.769406 0.812741 0.660670
0.795285 0.810758 0.665949
0.821500 0.812284 0.676753
0.831418 0.801450 0.663325
0.838010 0.784604 0.628382
0.845182 0.767849 0.595727
0.853361 0.752956 0.567926
0.862455 0.740352 0.545678
0.872282 0.730190 0.529259
0.882536 0.722591 0.518517
0.893034 0.717433 0.513542
0.903166 0.721523 0.532341
0.911406 0.734157 0.571679
0.917632 0.746761 0.608484
0.922148 0.759274 0.642481
0.925292 0.771817 0.674006
0.927520 0.783780 0.701930
0.929107 0.794858 0.726162
0.930114 0.804929 0.746975
0.000000 0.836454 0.485328
0.000000 0.836942 0.487465
0.000000 0.837461 0.490578
0.000000 0.838407 0.497841
0.000000 0.839200 0.510979
0.295171 0.836149 0.534936
0.427222 0.833127 0.559014
0.490517 0.833616 0.567681
0.550378 0.834257 0.583093
0.604852 0.835080 0.606317
0.667323 0.833982 0.653468
0.707454 0.832822 0.677363
0.736233 0.830686 0.681880
0.762570 0.828641 0.686213
0.786923 0.826535 0.690181
0.809232 0.824369 0.693721
0.832334 0.825406 0.702296
0.840879 0.815640 0.691463
0.846952 0.801022 0.661799
0.853941 0.786679 0.633661
0.861967 0.773861 0.609735
0.870817 0.762966 0.590631
0.880217 0.754177 0.576715
0.889952 0.747677 0.568292
0.899687 0.743313 0.564996
0.909087 0.741176 0.567193
0.915923 0.752529 0.603967
0.920836 0.764614 0.639704
0.924285 0.776761 0.672633
0.926696 0.788388 0.701686
0.928374 0.799191 0.726772
0.929473 0.809018 0.748226
0.000000 0.852018 0.508751
0.000000 0.852598 0.511406
0.000000 0.862150 0.530114
0.000000 0.862211 0.537285
0.159945 0.861662 0.549767
0.342138 0.858396 0.570672
0.476143 0.852995 0.601831
0.530205 0.852689 0.611078
0.580011 0.852750 0.624201
0.626215 0.853025 0.643091
0.672999 0.852720 0.673335
0.716182 0.852140 0.709834
0.741909 0.850095 0.716670
0.764675 0.847684 0.718929
0.786221 0.845274 0.721065
0.806516 0.842893 0.723110
0.825589 0.840543 0.725154
0.845518 0.840848 0.731258
0.852476 0.831907 0.722652
0.857664 0.819455 0.698878
0.864012 0.807309 0.675929
0.871489 0.796353 0.655909
0.879728 0.786893 0.639796
0.888304 0.779232 0.628168
0.896941 0.773220 0.620813
0.905364 0.769009 0.617884
0.913359 0.766415 0.619013
0.919585 0.770840 0.637690
0.923247 0.782101 0.671168
0.925811 0.793149 0.701045
0.927611 0.803555 0.726864
0.928832 0.812985 0.748806
0.000000 0.868498 0.534722
0.000000 0.869749 0.538628
0.000000 0.870909 0.543511
0.000000 0.871733 0.551904
0.180484 0.871611 0.564569
0.340795 0.869413 0.583368
0.468452 0.864256 0.611444
0.540978 0.861875 0.630518
0.585992 0.861814 0.641840
0.628046 0.861906 0.657649
0.666529 0.862211 0.677668
0.707851 0.861479 0.709285
0.739834 0.860838 0.733730
0.760616 0.858549 0.735409
0.780606 0.856229 0.736995
0.799649 0.853910 0.738491
0.817838 0.851591 0.740017
0.835080 0.849424 0.741665
0.853269 0.849699 0.747127
0.859586 0.841764 0.740871
0.864439 0.831174 0.721614
0.870512 0.821195 0.703761
0.877562 0.812192 0.688228
0.885222 0.804410 0.675929
0.893156 0.798032 0.666987
0.900999 0.792935 0.661463
0.908568 0.789456 0.660060
0.915679 0.787808 0.662928
0.922087 0.788052 0.670130
0.924956 0.798306 0.700496
0.926879 0.808255 0.727138
0.928130 0.817350 0.749722
0.000000 0.880400 0.553429
0.000000 0.881315 0.557122
0.000000 0.882139 0.561578
0.000000 0.882475 0.569177
0.209476 0.881865 0.580804
0.344579 0.880064 0.596918
0.464424 0.875029 0.622095
0.553521 0.870603 0.649714
0.593896 0.870420 0.659541
0.632441 0.870298 0.673091
0.667933 0.870390 0.690028
0.701167 0.870390 0.711025
0.734890 0.869688 0.738125
0.758602 0.868467 0.750759
0.777035 0.866270 0.752010
0.794797 0.864042 0.753231
0.811887 0.861875 0.754452
0.828336 0.859770 0.755825
0.844114 0.857877 0.757504
0.860594 0.858122 0.762936
0.866392 0.851072 0.758145
0.871061 0.842100 0.742367
0.876738 0.833829 0.728542
0.883238 0.826383 0.716793
0.890105 0.819852 0.707179
0.897185 0.814359 0.700343
0.904234 0.810208 0.696834
0.910979 0.807645 0.697078
0.917235 0.806699 0.701106
0.922728 0.807340 0.708553
0.926085 0.812863 0.726589
0.927459 0.821561 0.749905
0.000000 0.891600 0.571527
0.000000 0.892241 0.574884
0.000000 0.892760 0.579004
0.000000 0.892699 0.586114
0.237858 0.891661 0.596796
0.356146 0.889525 0.611475
0.462074 0.885344 0.633021
0.554833 0.880003 0.661677
0.603388 0.878325 0.676936
0.638331 0.877958 0.688563
0.670558 0.877836 0.702571
0.699062 0.877928 0.717769
0.728878 0.877409 0.739010
0.756771 0.876738 0.761501
0.775326 0.874998 0.766506
0.791897 0.873106 0.767849
0.808103 0.871275 0.769436
0.823789 0.869566 0.771298
0.838956 0.868070 0.773495
0.853452 0.866819 0.776089
0.868315 0.867338 0.782071
0.873716 0.861479 0.779263
0.878325 0.853941 0.765682
0.883757 0.847196 0.754757
0.889616 0.841154 0.746090
0.895689 0.835996 0.739681
0.901915 0.831785 0.735744
0.908019 0.828855 0.734646
0.913756 0.827146 0.736507
0.918914 0.826749 0.741054
0.923308 0.827451 0.747921
0.926726 0.829465 0.757107
0.000000 0.904784 0.594965
0.000000 0.904784 0.597375
0.000000 0.904631 0.600244
0.155825 0.903746 0.606073
0.276371 0.901976 0.615381
0.376257 0.899382 0.628565
0.467842 0.895842 0.647028
0.555993 0.890349 0.673457
0.618616 0.886625 0.697505
0.649989 0.886137 0.707820
0.678859 0.885893 0.719722
0.704616 0.885863 0.732296
0.727382 0.885924 0.745113
0.754879 0.884825 0.766079
0.778408 0.883696 0.783902
0.793179 0.881926 0.785000
0.807614 0.880217 0.786252
0.821805 0.878569 0.787747
0.835538 0.877104 0.789517
0.848844 0.875761 0.791531
0.861540 0.874571 0.793790
0.874418 0.874815 0.799039
0.878965 0.869535 0.796689
0.883055 0.862699 0.784024
0.888090 0.856718 0.774197
0.893492 0.851499 0.766720
0.899138 0.847135 0.761746
0.904753 0.843839 0.759426
0.910155 0.841672 0.759823
0.915068 0.840635 0.762753
0.919310 0.840818 0.768185
0.922637 0.842283 0.775967
0.000000 0.913878 0.611139
0.000000 0.913756 0.613458
0.093141 0.913481 0.616236
0.207706 0.912383 0.621851
0.302953 0.910399 0.630457
0.390600 0.907622 0.642512
0.472297 0.904234 0.658717
0.553491 0.899077 0.682033
0.624598 0.893797 0.710353
0.658137 0.892485 0.722621
0.684138 0.892027 0.732509
0.707576 0.891814 0.742977
0.728450 0.891722 0.753506
0.751369 0.891051 0.768521
0.776028 0.889738 0.787716
0.794430 0.888457 0.798672
0.807523 0.886931 0.799954
0.820401 0.885527 0.801450
0.833036 0.884215 0.803189
0.845274 0.883024 0.805173
0.857084 0.881987 0.807370
0.868254 0.880980 0.809659
0.879454 0.881193 0.814450
0.883452 0.876707 0.813107
0.886595 0.869718 0.799405
0.891295 0.864683 0.791196
0.896330 0.860349 0.785275
0.901488 0.856901 0.781796
0.906523 0.854398 0.780911
0.911223 0.853025 0.782620
0.915312 0.852934 0.787015
0.918547 0.854093 0.793851
0.115511 0.923644 0.631373
0.161227 0.923461 0.633631
0.204318 0.922911 0.636286
0.269108 0.921538 0.641260
0.342596 0.919219 0.649165
0.416846 0.916136 0.660182
0.488930 0.912474 0.674861
0.559411 0.907897 0.694728
0.626276 0.902281 0.720333
0.670405 0.898894 0.739681
0.692561 0.898161 0.747189
0.713130 0.897642 0.755337
0.732143 0.897246 0.763912
0.750912 0.896696 0.774075
0.773526 0.895232 0.790311
0.794797 0.893706 0.806973
0.808316 0.892302 0.811856
0.819699 0.890929 0.812924
0.831113 0.889738 0.814359
0.842313 0.888609 0.816129
0.853147 0.887633 0.818143
0.863523 0.886748 0.820249
0.873381 0.885893 0.822324
0.883116 0.885985 0.826444
0.886564 0.881926 0.825376
0.889891 0.876738 0.815427
0.894194 0.872618 0.808865
0.898741 0.869139 0.804379
0.903319 0.866514 0.802335
0.907713 0.864866 0.802792
0.911559 0.864439 0.805966
0.914702 0.865232 0.811612
0.183078 0.930541 0.644923
0.212619 0.930236 0.647089
0.245365 0.929656 0.649653
0.298528 0.928161 0.654414
0.362951 0.925780 0.661891
0.430457 0.922637 0.672358
0.497475 0.918914 0.686213
0.560754 0.914885 0.703639
0.624994 0.909392 0.727474
0.677821 0.904570 0.752041
0.700679 0.903441 0.760494
0.719448 0.902861 0.767361
0.737484 0.902312 0.775143
0.755489 0.901549 0.784360
0.773800 0.900572 0.795621
0.794766 0.898924 0.811337
0.812924 0.897520 0.825620
0.822751 0.896330 0.826474
0.832639 0.895232 0.827634
0.842466 0.894255 0.829160
0.852079 0.893339 0.830838
0.861357 0.892515 0.832670
0.870207 0.891722 0.834470
0.878599 0.891020 0.836271
0.886931 0.891051 0.839750
0.889860 0.887663 0.839292
0.892851 0.883330 0.830961
0.896757 0.880217 0.826291
0.900786 0.877775 0.823758
0.904692 0.876158 0.823453
0.908263 0.875547 0.825559
0.911192 0.876066 0.830076
0.240787 0.937072 0.659541
0.262821 0.936614 0.661524
0.286748 0.935943 0.663722
0.330510 0.934386 0.668116
0.385901 0.931884 0.675044
0.446326 0.928679 0.684779
0.507561 0.924865 0.697658
0.566766 0.920745 0.713863
0.624964 0.915862 0.734798
0.676265 0.910887 0.757717
0.709255 0.908110 0.773098
0.726345 0.907439 0.778988
0.743618 0.906645 0.786191
0.760861 0.905760 0.794583
0.777218 0.904753 0.803647
0.794949 0.903349 0.815610
0.812680 0.901762 0.828946
0.826200 0.900511 0.837827
0.834806 0.899565 0.838804
0.843412 0.898650 0.840085
0.851896 0.897856 0.841550
0.860166 0.897093 0.843137
0.868101 0.896422 0.844724
0.875669 0.895781 0.846342
0.882841 0.895140 0.847898
0.889982 0.895171 0.850858
0.892485 0.892302 0.850858
0.895171 0.888731 0.844022
0.898619 0.886442 0.840787
0.902129 0.884855 0.839811
0.905394 0.884123 0.841001
0.908202 0.884367 0.844419
0.279271 0.942596 0.672053
0.296666 0.942077 0.673793
0.317693 0.941375 0.675929
0.355688 0.939788 0.680232
0.406806 0.937285 0.687221
0.463569 0.934081 0.697139
0.522179 0.930327 0.710292
0.579095 0.926268 0.726711
0.632288 0.922148 0.746059
0.682155 0.917327 0.768307
0.721523 0.913512 0.788052
0.741115 0.912291 0.796262
0.757839 0.911345 0.803372
0.774044 0.910277 0.811154
0.789303 0.909209 0.819333
0.803311 0.908110 0.827604
0.819089 0.906554 0.838773
0.833127 0.905180 0.849332
0.842466 0.904265 0.854002
0.849454 0.903563 0.855009
0.856382 0.902861 0.856168
0.863188 0.902251 0.857450
0.869749 0.901671 0.858701
0.876036 0.901122 0.859983
0.882048 0.900572 0.861234
0.887846 0.900084 0.862486
0.893523 0.900084 0.864836
0.895567 0.897826 0.864988
0.897795 0.895140 0.859922
0.900633 0.893584 0.858091
0.903410 0.892882 0.858579
0.905852 0.892912 0.860838
0.343969 0.948058 0.690455
0.357031 0.947478 0.692103
0.372961 0.946715 0.694026
0.403906 0.945037 0.698207
0.446845 0.942473 0.704982
0.495552 0.939178 0.714382
0.546715 0.935332 0.726619
0.597009 0.931182 0.741634
0.644190 0.927001 0.758846
0.687037 0.922728 0.777310
0.724269 0.918639 0.795224
0.752865 0.915587 0.809506
0.767727 0.914458 0.815427
0.782254 0.913237 0.821958
0.796017 0.912078 0.828855
0.808896 0.910918 0.835966
