其他预设/【240】TEZZA调色预设合集24款/1.LUT预设（视频调色-PR-AE-PS-FCPX-达芬奇用）/Tezza自然__-5.cube
# Created by Adobe Lightroom plugin Export LUT (1.17.0)
# www.johnrellis.com/lightroom/exportlut.htm
# Preset: Tezza自然[素锦印象]-5
# Color profile: /Library/Application Support/Adobe/Color/Profiles/Recommended/AdobeRGB1998.icc
LUT_3D_SIZE 5
DOMAIN_MIN 0.000000 0.000000 0.000000
DOMAIN_MAX 0.903226 0.903226 0.903226
0.000000 0.000000 0.000000
0.264714 0.000000 0.015106
0.649653 0.000000 0.000000
0.825040 0.000000 0.120516
0.921416 0.369116 0.347143
0.051423 0.297093 0.122683
0.215885 0.274693 0.082155
0.616999 0.158877 0.000000
0.809903 0.248386 0.141085
0.919554 0.468421 0.398108
0.407752 0.665705 0.442084
0.413794 0.633539 0.410590
0.559594 0.604028 0.297551
0.778256 0.554070 0.239292
0.894835 0.608148 0.459998
0.645411 0.789120 0.678431
0.647761 0.783536 0.673579
0.611170 0.750881 0.593713
0.700587 0.736873 0.519371
0.874876 0.769131 0.582666
0.761929 0.862852 0.805539
0.762509 0.862364 0.804379
0.753902 0.855192 0.787289
0.754055 0.863188 0.758511
0.833341 0.871946 0.756497
0.000000 0.059480 0.167361
0.266178 0.000000 0.224674
0.625940 0.000000 0.074006
0.796506 0.000000 0.100923
0.907897 0.338354 0.308049
0.000000 0.305272 0.258976
0.282719 0.290929 0.261387
0.612818 0.196994 0.138186
0.786587 0.267826 0.121981
0.902708 0.424262 0.338018
0.446662 0.663600 0.492226
0.468818 0.637201 0.482765
0.548913 0.582788 0.359411
0.758358 0.530144 0.241794
0.888792 0.597070 0.438300
0.656031 0.789670 0.693935
0.660090 0.784543 0.691676
0.630884 0.751705 0.626459
0.698878 0.732418 0.542107
0.872282 0.764218 0.573816
0.763943 0.862119 0.808621
0.764614 0.861570 0.807614
0.770260 0.861540 0.806210
0.760739 0.867399 0.771817
0.833951 0.871824 0.761074
0.000000 0.110994 0.476417
0.110689 0.098604 0.514214
0.659144 0.218997 0.585077
0.809201 0.050965 0.390600
0.908263 0.335546 0.327825
0.000000 0.313634 0.487678
0.147066 0.284001 0.525872
0.653285 0.420783 0.600000
0.795407 0.229801 0.363592
0.904601 0.412299 0.357519
0.390143 0.667140 0.613550
0.474525 0.652827 0.610834
0.615229 0.615198 0.587976
0.757290 0.545068 0.464179
0.888457 0.577081 0.454994
0.687526 0.796811 0.738460
0.688228 0.789731 0.734157
0.689723 0.767208 0.717189
0.706783 0.732052 0.625818
0.866087 0.737392 0.593072
0.769833 0.859190 0.817624
0.772702 0.859770 0.818997
0.777890 0.860410 0.818875
0.765347 0.859525 0.788510
0.834989 0.871122 0.774838
0.000000 0.206882 0.685847
0.000000 0.196567 0.699367
0.609705 0.295506 0.737484
0.778897 0.530266 0.750759
0.880583 0.517357 0.687739
0.000000 0.376074 0.680720
0.000000 0.330785 0.695521
0.596338 0.412634 0.731289
0.771206 0.577417 0.750393
0.875547 0.532708 0.679438
0.224643 0.632380 0.698207
0.303227 0.613642 0.690822
0.545037 0.581811 0.710109
0.756130 0.671321 0.753841
0.871061 0.579858 0.651575
0.621454 0.788815 0.768551
0.636133 0.784115 0.766751
0.687495 0.775113 0.768276
0.735744 0.747402 0.744717
0.862577 0.708461 0.674098
0.782010 0.860075 0.836332
0.788327 0.860624 0.839048
0.800259 0.861997 0.844541
0.803738 0.861540 0.840818
0.835569 0.866331 0.800381
0.000000 0.359686 0.819089
0.000000 0.332006 0.822416
0.535943 0.401495 0.829191
0.754299 0.539269 0.835843
0.846647 0.659998 0.834684
0.000000 0.455268 0.811978
0.085725 0.421057 0.816251
0.522728 0.451179 0.825193
0.750118 0.568017 0.833402
0.844266 0.672877 0.834653
0.000000 0.624506 0.800015
0.211856 0.609796 0.801785
0.470314 0.567864 0.814359
0.737758 0.642145 0.831907
0.841978 0.721065 0.840970
0.560296 0.797024 0.833951
0.562005 0.790127 0.831205
0.572290 0.762966 0.823758
0.679561 0.717372 0.829465
0.844907 0.797543 0.858122
0.739773 0.868040 0.857389
0.742428 0.867704 0.858091
0.760281 0.866789 0.860441
0.796689 0.864256 0.865232
0.845029 0.860899 0.867338
