其他预设/【240】TEZZA调色预设合集24款/1.LUT预设（视频调色-PR-AE-PS-FCPX-达芬奇用）/Tezza万事达-Gabe-Tezza.cube
# Created by Adobe Lightroom plugin Export LUT (1.17.0)
# www.johnrellis.com/lightroom/exportlut.htm
# Preset: Tezza万事达-Gabe-Tezza
# Color profile: /Library/Application Support/Adobe/Color/Profiles/Recommended/AdobeRGB1998.icc
LUT_3D_SIZE 5
DOMAIN_MIN 0.000000 0.000000 0.000000
DOMAIN_MAX 0.903226 0.903226 0.903226
0.000000 0.000000 0.000000
0.290349 0.000000 0.016510
0.783810 0.000000 0.098268
0.897368 0.366583 0.357916
0.922332 0.568811 0.574029
0.067506 0.275303 0.158572
0.370703 0.319036 0.167575
0.747707 0.258701 0.123110
0.882322 0.453285 0.374395
0.917418 0.602777 0.592340
0.583185 0.731563 0.631708
0.674434 0.743130 0.690486
0.772457 0.749660 0.675288
0.854582 0.622248 0.451331
0.905089 0.681880 0.636194
0.754025 0.840208 0.805966
0.781033 0.845365 0.822019
0.819272 0.850340 0.845029
0.839811 0.839994 0.820066
0.893370 0.760494 0.675532
0.821561 0.870420 0.863188
0.831052 0.869444 0.867857
0.844022 0.868070 0.875181
0.847990 0.867369 0.875731
0.852842 0.861295 0.858946
0.004120 0.040040 0.075166
0.267247 0.000000 0.069245
0.739986 0.000000 0.081270
0.876677 0.352331 0.308629
0.921202 0.576806 0.578363
0.015381 0.246342 0.182467
0.350713 0.285374 0.185245
0.717037 0.281498 0.106569
0.866423 0.440681 0.334020
0.916655 0.607874 0.595178
0.540459 0.707698 0.600793
0.663416 0.725460 0.677211
0.752071 0.719783 0.631403
0.841337 0.601617 0.405798
0.904875 0.683101 0.636866
0.748684 0.837064 0.802457
0.779690 0.842954 0.820951
0.818601 0.849119 0.844724
0.838651 0.837949 0.816464
0.893400 0.760281 0.675502
0.818753 0.870817 0.862150
0.829648 0.869657 0.867399
0.844205 0.868254 0.875425
0.848295 0.867552 0.876310
0.852873 0.861234 0.858762
0.000000 0.088655 0.222568
0.183383 0.138888 0.222843
0.745663 0.000000 0.260990
0.874357 0.379461 0.316594
0.921202 0.576928 0.578424
0.000000 0.248569 0.334325
0.350866 0.308171 0.350469
0.731777 0.348943 0.328283
0.862760 0.460792 0.339300
0.917357 0.603174 0.592615
0.375097 0.672145 0.570459
0.613733 0.687709 0.639857
0.735256 0.690242 0.615930
0.838315 0.611292 0.446448
0.906126 0.675380 0.632654
0.711269 0.825803 0.783017
0.755337 0.829099 0.804318
0.816312 0.845945 0.845121
0.836301 0.833188 0.812375
0.893950 0.756161 0.673671
0.805936 0.871794 0.857481
0.818967 0.870756 0.862943
0.841764 0.868772 0.874205
0.849088 0.868070 0.877958
0.852995 0.861021 0.858244
0.000000 0.166903 0.448951
0.237949 0.260349 0.454719
0.658045 0.316472 0.528313
0.857725 0.451575 0.527337
0.920775 0.579400 0.580194
0.000000 0.294285 0.506950
0.318273 0.353948 0.513939
0.675319 0.440711 0.554192
0.848356 0.544091 0.574792
0.916808 0.604730 0.596368
0.214633 0.600275 0.610620
0.434333 0.613336 0.620325
0.699611 0.638575 0.631922
0.823972 0.640955 0.607202
0.907378 0.663172 0.631525
0.606653 0.804746 0.754818
0.677424 0.808011 0.771817
0.804379 0.837156 0.838346
0.827604 0.817258 0.798154
0.894804 0.739956 0.675502
0.775540 0.874784 0.851255
0.791806 0.873228 0.855589
0.832609 0.869963 0.870603
0.851011 0.869169 0.881041
0.853391 0.861418 0.860197
0.000000 0.284581 0.668910
0.206912 0.339330 0.672816
0.617487 0.556176 0.679988
0.816403 0.582788 0.710658
0.896422 0.634028 0.704738
0.000000 0.341741 0.673487
0.196384 0.377020 0.680354
0.630945 0.597436 0.689601
0.814572 0.610407 0.719814
0.893828 0.654139 0.715816
0.000000 0.513878 0.699336
0.000000 0.491035 0.692226
0.632074 0.642451 0.726558
0.813657 0.696162 0.761013
0.884916 0.714748 0.753414
0.372198 0.791318 0.800259
0.444038 0.785977 0.797360
0.611109 0.771572 0.791623
0.805203 0.788785 0.810666
0.872587 0.782193 0.795010
0.657679 0.888487 0.850370
0.679500 0.886046 0.850767
0.760433 0.878294 0.858488
0.843748 0.869718 0.877470
0.854063 0.863157 0.868254
