其他预设/【240】TEZZA调色预设合集24款/1.LUT预设（视频调色-PR-AE-PS-FCPX-达芬奇用）/Tezza自然__-7.cube
# Created by Adobe Lightroom plugin Export LUT (1.17.0)
# www.johnrellis.com/lightroom/exportlut.htm
# Preset: Tezza自然[素锦印象]-7
# Color profile: /Library/Application Support/Adobe/Color/Profiles/Recommended/AdobeRGB1998.icc
LUT_3D_SIZE 8
DOMAIN_MIN 0.000000 0.000000 0.000000
DOMAIN_MAX 0.903226 0.903226 0.903226
0.000000 0.000000 0.000000
0.097292 0.000000 0.017762
0.306004 0.000000 0.013062
0.540642 0.000000 0.000000
0.687648 0.000000 0.000000
0.790768 0.000000 0.081025
0.866667 0.000000 0.182559
0.924712 0.161044 0.320287
0.065003 0.085328 0.074617
0.090944 0.105928 0.059876
0.281865 0.021424 0.015839
0.504875 0.000000 0.000000
0.664088 0.000000 0.000000
0.771908 0.000000 0.068025
0.850278 0.000000 0.162356
0.914763 0.174716 0.299718
0.195834 0.271153 0.228824
0.208499 0.263951 0.235294
0.274357 0.303349 0.120668
0.475349 0.251011 0.000000
0.646296 0.177920 0.000000
0.764553 0.164492 0.071260
0.855100 0.261112 0.198001
0.918608 0.384741 0.352544
0.417823 0.498543 0.438300
0.419135 0.488045 0.436042
0.396460 0.447608 0.409705
0.519127 0.531823 0.274266
0.672969 0.503532 0.064668
0.753079 0.459052 0.075654
0.838712 0.469306 0.214145
0.905913 0.514702 0.373083
0.594629 0.647700 0.613825
0.593835 0.643427 0.611810
0.587427 0.627710 0.601556
0.549157 0.613428 0.559045
0.634821 0.640986 0.417212
0.742336 0.616632 0.231693
0.805264 0.591516 0.200137
0.889616 0.622187 0.389929
0.680140 0.726101 0.711116
0.687709 0.731655 0.719295
0.686366 0.724575 0.715846
0.670619 0.704524 0.696101
0.634668 0.703517 0.643946
0.708675 0.718990 0.556146
0.811978 0.722835 0.441199
0.882841 0.730098 0.474556
0.745296 0.789029 0.784878
0.746883 0.789700 0.786282
0.745266 0.785397 0.783749
0.740322 0.776913 0.777310
0.725307 0.759152 0.759792
0.708614 0.773922 0.723629
0.770260 0.788815 0.672358
0.867308 0.808591 0.625696
0.796170 0.835355 0.836088
0.796292 0.835111 0.836118
0.797940 0.835294 0.837339
0.802945 0.837339 0.841459
0.789761 0.824521 0.828763
0.788937 0.824552 0.828000
0.792386 0.851194 0.812985
0.845762 0.865141 0.786770
0.009735 0.046876 0.068391
0.084993 0.036042 0.085603
0.278691 0.000000 0.045624
0.497200 0.000000 0.000000
0.659144 0.000000 0.000000
0.764492 0.000000 0.059174
0.844205 0.000000 0.149966
0.909453 0.000000 0.277043
0.050477 0.099519 0.090883
0.103426 0.109010 0.104555
0.280278 0.051057 0.065919
0.483619 0.000000 0.000000
0.646357 0.000000 0.000000
0.753933 0.000000 0.048463
0.831479 0.000000 0.137362
0.898833 0.000000 0.257298
0.194400 0.268254 0.226444
0.222110 0.272618 0.246281
0.289311 0.303258 0.168276
0.466957 0.247318 0.000000
0.625055 0.195315 0.000000
0.741787 0.161257 0.028504
0.828214 0.202487 0.151766
0.900114 0.322545 0.293706
0.402441 0.483406 0.423224
0.410773 0.478614 0.427283
0.404669 0.450324 0.415534
0.491676 0.500786 0.275151
0.631983 0.458808 0.072175
0.716274 0.416938 0.000000
0.809079 0.422004 0.153689
0.886656 0.471015 0.309819
0.590692 0.643977 0.609308
0.588251 0.638331 0.605432
0.581994 0.621057 0.594873
0.535424 0.592401 0.544732
0.615412 0.619715 0.398993
0.723629 0.594903 0.216678
0.788327 0.571435 0.164096
0.876493 0.600793 0.347082
0.671992 0.718257 0.701534
0.672450 0.717037 0.701534
0.672023 0.710536 0.698970
0.659724 0.692988 0.682887
0.626001 0.692836 0.635157
0.703731 0.712764 0.552117
0.805478 0.714412 0.426551
0.873320 0.716396 0.443671
0.735317 0.779599 0.774014
0.733822 0.777310 0.772122
0.733669 0.774166 0.771023
0.732265 0.768490 0.768154
0.719234 0.752621 0.752712
0.700282 0.765103 0.714382
0.760159 0.777218 0.655818
0.855467 0.793332 0.595209
0.790738 0.830808 0.830991
0.791714 0.831296 0.831815
0.793820 0.831785 0.833463
0.799161 0.834043 0.837888
0.797116 0.831144 0.835782
0.792905 0.826902 0.831693
0.789670 0.848508 0.810758
0.841154 0.861540 0.782498
0.000000 0.089052 0.177523
0.000000 0.087587 0.192660
0.311467 0.000000 0.283787
0.557824 0.000000 0.210086
0.677394 0.000000 0.097993
0.770840 0.000000 0.090425
0.849912 0.000000 0.166751
0.915557 0.169131 0.300725
0.000000 0.139345 0.206516
0.082124 0.148074 0.225650
0.317510 0.139040 0.291936
0.536584 0.000000 0.197696
0.665156 0.000000 0.110475
0.760830 0.000000 0.091218
0.840238 0.000000 0.156832
0.909331 0.203372 0.291356
0.140871 0.314153 0.284398
0.192691 0.317754 0.293462
0.328130 0.312596 0.299077
0.517266 0.230198 0.205875
0.660853 0.192874 0.149874
0.751766 0.213138 0.114199
0.830869 0.263737 0.161379
0.901915 0.344671 0.302983
0.441749 0.523796 0.460334
0.457465 0.525811 0.471717
0.479042 0.511437 0.482948
0.536400 0.525963 0.378668
0.637140 0.455634 0.199832
0.731838 0.429877 0.151369
0.816770 0.451789 0.172396
0.892882 0.490272 0.331426
0.601862 0.655238 0.621546
0.604303 0.653315 0.622889
0.607172 0.643091 0.621851
0.583307 0.609613 0.592035
0.635798 0.633936 0.470680
0.723598 0.594598 0.292363
0.793027 0.576410 0.203922
0.879942 0.606714 0.358190
0.678798 0.725429 0.709468
0.679927 0.724605 0.710140
0.679805 0.718441 0.708003
0.670588 0.701442 0.694636
0.636133 0.688685 0.650996
0.702144 0.708339 0.569451
0.798154 0.705898 0.446479
0.876066 0.718929 0.449500
0.741756 0.786038 0.781033
0.741176 0.784665 0.780148
0.739681 0.780362 0.777676
0.738582 0.773892 0.774838
0.723812 0.756252 0.757504
0.704005 0.764462 0.723171
0.765286 0.781613 0.673182
0.863737 0.802701 0.619989
0.792142 0.832242 0.832334
0.791592 0.831479 0.831724
0.792752 0.831113 0.832486
0.800015 0.835019 0.838682
0.799039 0.832334 0.837400
0.795773 0.828305 0.834134
0.792264 0.849516 0.815976
0.845121 0.864744 0.790372
0.000000 0.148409 0.328252
0.000000 0.152224 0.350042
0.222232 0.211337 0.400122
0.557214 0.128511 0.505699
0.710262 0.000000 0.439490
0.778866 0.000000 0.311284
0.844541 0.000000 0.220890
0.909483 0.104280 0.281987
0.000000 0.207523 0.357733
0.000000 0.209476 0.373480
0.253147 0.254887 0.418219
0.559808 0.222263 0.511131
0.705928 0.000000 0.439948
0.772396 0.000000 0.300328
0.838804 0.000000 0.222721
0.906065 0.167178 0.280186
0.000000 0.324437 0.387427
0.099947 0.319158 0.389410
0.296757 0.348669 0.435126
0.558434 0.390814 0.518303
0.690211 0.269871 0.424140
0.770291 0.143343 0.295964
0.842710 0.247135 0.271000
0.908019 0.352819 0.318456
0.340581 0.544091 0.501610
0.367254 0.542473 0.503593
0.447211 0.538933 0.512779
0.547539 0.524102 0.505974
0.659205 0.455329 0.405066
0.741451 0.415106 0.327153
0.819669 0.422705 0.289189
0.895964 0.487068 0.337285
0.610773 0.672480 0.639307
0.617945 0.672450 0.642725
0.631861 0.669642 0.650355
0.631312 0.650294 0.643702
0.657923 0.647517 0.558770
0.717617 0.584436 0.386145
0.801694 0.571832 0.337102
0.884977 0.604852 0.387304
0.696742 0.744045 0.730343
0.702846 0.748165 0.736812
0.701900 0.741634 0.733944
0.699763 0.730037 0.728511
0.674525 0.699428 0.696864
0.714321 0.717556 0.620111
0.794247 0.701625 0.498512
0.878386 0.710811 0.458778
0.748440 0.793210 0.788296
0.749660 0.793576 0.789334
0.751980 0.793027 0.791043
0.753780 0.789944 0.791592
0.744930 0.776181 0.780545
0.719722 0.771054 0.748135
0.770413 0.784970 0.695247
0.864622 0.801724 0.639124
0.798123 0.837552 0.837919
0.798917 0.837888 0.838560
0.800015 0.837766 0.839353
0.802976 0.838224 0.841581
0.805936 0.837613 0.843534
0.800992 0.832456 0.838865
0.795315 0.849577 0.823514
0.847898 0.865507 0.796414
0.000000 0.236118 0.482399
0.000000 0.241886 0.496742
0.177829 0.270665 0.533379
0.458137 0.354772 0.579034
0.688808 0.359472 0.658137
0.782773 0.316197 0.614588
0.837522 0.237003 0.522942
0.902556 0.190616 0.444282
0.000000 0.278752 0.491371
0.000000 0.285588 0.506737
0.209476 0.303624 0.542351
0.472816 0.393317 0.584771
0.686793 0.398535 0.658198
0.778988 0.352972 0.614496
0.835477 0.265141 0.520928
0.902129 0.204166 0.436072
0.000000 0.345434 0.485725
0.106081 0.362615 0.501183
0.291478 0.397559 0.544701
0.513359 0.491035 0.602228
0.678248 0.491157 0.655665
0.762325 0.426093 0.602716
0.825620 0.318608 0.500633
0.899657 0.225772 0.394690
0.244907 0.533532 0.558160
0.268864 0.528405 0.556664
0.342107 0.511223 0.554620
0.522759 0.546593 0.604181
0.672511 0.591363 0.660060
0.744778 0.503075 0.583307
0.819852 0.383856 0.455146
0.893889 0.405005 0.412970
0.514458 0.663355 0.638788
0.525872 0.662745 0.640131
0.558556 0.658930 0.642390
0.605615 0.654139 0.647364
0.648127 0.635401 0.629419
0.719112 0.579034 0.545220
0.797940 0.541894 0.469245
0.880766 0.556146 0.452369
0.667353 0.730800 0.711635
0.672236 0.731899 0.714382
0.686183 0.734035 0.721828
0.702663 0.735744 0.732296
0.692775 0.712795 0.716609
0.715816 0.712673 0.655482
0.780667 0.676539 0.528557
0.873442 0.686854 0.521721
0.754177 0.799741 0.794400
0.754055 0.798886 0.794064
0.755123 0.797330 0.794491
0.757931 0.795468 0.796139
0.757168 0.788327 0.793576
0.735164 0.764981 0.768551
0.769680 0.780819 0.710780
0.856840 0.786160 0.641382
0.796841 0.837003 0.836698
0.796963 0.836820 0.836759
0.797910 0.836576 0.837369
0.804593 0.840238 0.843107
0.807523 0.839994 0.845151
0.805936 0.835874 0.843107
0.794553 0.843534 0.828489
0.845151 0.862119 0.799802
0.000000 0.354620 0.617212
0.000000 0.358862 0.624048
0.223972 0.369909 0.642115
0.473610 0.465431 0.675685
0.617853 0.507317 0.701198
0.753841 0.524285 0.746059
0.825437 0.516686 0.726955
0.881407 0.477913 0.678859
0.000000 0.372137 0.609003
0.071382 0.375006 0.615198
0.246403 0.389044 0.637324
0.471443 0.471107 0.670436
0.615869 0.518181 0.696895
0.749966 0.534356 0.742550
0.822904 0.522423 0.724300
0.879454 0.481453 0.675380
0.140475 0.441047 0.612726
0.205722 0.449317 0.619318
0.324498 0.464820 0.641871
0.493385 0.516960 0.676204
0.632105 0.579492 0.704829
0.747585 0.585534 0.744900
0.819120 0.559197 0.725032
0.877073 0.509117 0.672602
0.181033 0.521263 0.616571
0.196262 0.511467 0.612238
0.321416 0.517906 0.624567
0.523003 0.576623 0.676356
0.661555 0.653651 0.724147
0.750637 0.653529 0.755856
0.814084 0.613672 0.727871
0.877256 0.547021 0.665278
0.450263 0.660151 0.674952
0.458595 0.657984 0.674403
0.485389 0.649409 0.671656
0.524834 0.630304 0.665461
0.638392 0.656977 0.703334
0.739712 0.692073 0.748653
0.797482 0.628656 0.695247
0.876188 0.544732 0.604150
0.616358 0.734188 0.724453
0.622980 0.735653 0.727016
0.637140 0.734798 0.728878
0.659815 0.732937 0.731655
0.686671 0.728817 0.733547
0.716762 0.714168 0.719265
0.782803 0.673121 0.656580
0.871275 0.660609 0.618952
0.731502 0.794003 0.786465
0.735286 0.795773 0.789059
0.744167 0.798398 0.793881
0.760372 0.804318 0.803738
0.777768 0.810330 0.815274
0.768154 0.792935 0.803250
0.779324 0.786130 0.747890
0.860594 0.775906 0.668452
0.799924 0.841306 0.840543
0.800961 0.841489 0.841123
0.804257 0.842313 0.843168
0.808042 0.843687 0.846220
0.811917 0.844511 0.849241
0.815610 0.844175 0.851804
0.808042 0.838590 0.844755
0.846830 0.861295 0.811215
0.203952 0.464454 0.704219
0.243015 0.469703 0.709316
0.338018 0.480232 0.720180
0.481025 0.521904 0.737850
0.626032 0.607446 0.756588
0.698787 0.599481 0.769680
0.796933 0.611841 0.800565
0.856718 0.625208 0.796017
0.213107 0.471351 0.697963
0.248569 0.475746 0.702785
0.340063 0.485878 0.714382
0.473213 0.519951 0.731960
0.621088 0.605035 0.751644
0.694636 0.600366 0.764981
0.792599 0.610651 0.795956
0.853452 0.618952 0.790677
0.271153 0.516625 0.697993
0.297154 0.518425 0.701381
0.376287 0.525841 0.712367
0.488716 0.549371 0.731685
0.625757 0.621637 0.752987
0.700252 0.632380 0.768917
0.793454 0.640955 0.799710
0.855497 0.640101 0.794888
0.230472 0.550408 0.689784
0.265782 0.551995 0.691402
0.380285 0.565820 0.702602
0.511406 0.593561 0.727077
0.628260 0.643061 0.755245
0.711879 0.679408 0.778073
0.795499 0.683711 0.806119
0.857450 0.664088 0.796963
0.399207 0.650416 0.713313
0.399023 0.645197 0.710536
0.402441 0.627405 0.702846
0.445716 0.605432 0.699275
0.610071 0.653834 0.740841
0.718196 0.717403 0.780789
0.791836 0.718379 0.806363
0.854337 0.688746 0.791897
0.581567 0.742245 0.757687
0.583764 0.741085 0.757259
0.591180 0.736629 0.755581
0.603204 0.727565 0.752407
0.614801 0.705684 0.742885
0.705043 0.727993 0.774472
0.795102 0.764553 0.814878
0.852842 0.714321 0.779629
0.691798 0.796231 0.793912
0.694362 0.796750 0.794827
0.701076 0.796750 0.796078
0.713252 0.797177 0.798703
0.729885 0.796597 0.801389
0.753109 0.795895 0.805356
0.775784 0.781918 0.792721
0.853605 0.753323 0.747982
0.772885 0.833890 0.830594
0.774502 0.834440 0.831418
0.782010 0.837613 0.835752
0.792844 0.841428 0.841459
0.808286 0.846799 0.849973
0.826749 0.853971 0.861662
0.828641 0.851865 0.862577
0.850767 0.861295 0.832120
0.414160 0.581659 0.783688
0.429664 0.583886 0.785580
0.470436 0.586481 0.788327
0.537835 0.600244 0.795895
0.631342 0.643702 0.804227
0.707973 0.689296 0.814633
0.760372 0.670619 0.824826
0.836484 0.678645 0.844877
0.411963 0.583825 0.780606
0.427436 0.585901 0.782559
0.469642 0.589258 0.786069
0.535973 0.601495 0.793362
0.628382 0.643030 0.802365
0.707332 0.691066 0.813291
0.758450 0.671656 0.823026
0.834836 0.678767 0.843351
0.418708 0.601190 0.777401
0.432502 0.602258 0.778927
0.472114 0.603388 0.781827
0.543847 0.618524 0.792508
0.626459 0.649744 0.802213
0.709834 0.701839 0.813504
0.758816 0.686213 0.823453
0.834134 0.691066 0.843809
0.395850 0.623987 0.774899
0.416114 0.626184 0.776608
0.476020 0.631708 0.779599
0.546258 0.641199 0.789364
0.618952 0.659236 0.802365
0.709926 0.712032 0.815671
0.762448 0.713191 0.827115
0.834928 0.714504 0.846677
0.406683 0.668605 0.776913
0.405371 0.664973 0.776822
0.418067 0.653986 0.774990
0.504967 0.658412 0.781552
0.609064 0.677211 0.795895
0.698817 0.716121 0.814237
0.765682 0.743313 0.830442
0.835935 0.744472 0.850523
0.575830 0.756069 0.803677
0.573877 0.753384 0.802304
0.568536 0.744442 0.798520
0.559014 0.726772 0.792844
0.548577 0.692592 0.784695
0.681239 0.726986 0.811307
0.778988 0.785183 0.840665
0.841123 0.786404 0.859495
0.683558 0.819852 0.833280
0.683589 0.818997 0.832822
0.684138 0.816403 0.831693
0.687282 0.812589 0.830991
0.692164 0.805325 0.829679
0.697139 0.788663 0.826291
0.766598 0.795254 0.840970
0.843442 0.824002 0.865812
0.754269 0.847715 0.847410
0.755154 0.847837 0.847684
0.758633 0.848325 0.848692
0.765560 0.849332 0.850767
0.776974 0.851164 0.854276
0.793820 0.854215 0.859953
0.817258 0.856535 0.866026
0.847074 0.857267 0.868681
