其他预设/【240】TEZZA调色预设合集24款/1.LUT预设（视频调色-PR-AE-PS-FCPX-达芬奇用）/Tezza万事达-Tezza04.cube
# Created by Adobe Lightroom plugin Export LUT (1.17.0)
# www.johnrellis.com/lightroom/exportlut.htm
# Preset: Tezza万事达-Tezza04
# Color profile: /Library/Application Support/Adobe/Color/Profiles/Recommended/AdobeRGB1998.icc
LUT_3D_SIZE 5
DOMAIN_MIN 0.000000 0.000000 0.000000
DOMAIN_MAX 0.903226 0.903226 0.903226
0.000000 0.000000 0.000000
0.316289 0.000000 0.035828
0.755642 0.000000 0.163210
0.868315 0.449012 0.436042
0.905455 0.617273 0.626123
0.092683 0.328069 0.199252
0.396551 0.364782 0.235843
0.728176 0.334478 0.210178
0.852964 0.511864 0.453162
0.901488 0.643488 0.640040
0.592706 0.726253 0.643488
0.671260 0.739498 0.690700
0.763394 0.757900 0.712673
0.825772 0.645289 0.520165
0.891600 0.708248 0.674617
0.745083 0.834684 0.800534
0.775051 0.840513 0.818296
0.819699 0.850340 0.848508
0.836027 0.843992 0.833738
0.879332 0.786374 0.728237
0.818235 0.870298 0.862028
0.828519 0.869352 0.866880
0.843626 0.868315 0.875120
0.849088 0.868040 0.877989
0.851408 0.864683 0.869261
0.000000 0.058961 0.099306
0.288548 0.000000 0.105409
0.722835 0.115267 0.157870
0.847349 0.434607 0.393317
0.904540 0.623407 0.629358
0.000000 0.293828 0.231052
0.382849 0.338537 0.254398
0.703273 0.351446 0.197696
0.836942 0.499489 0.419409
0.900877 0.647547 0.642145
0.550774 0.703822 0.615747
0.657221 0.721004 0.675105
0.741176 0.729641 0.678523
0.812284 0.626154 0.483925
0.891447 0.709285 0.675166
0.737911 0.830838 0.796139
0.771847 0.837064 0.815976
0.818845 0.848997 0.848142
0.834592 0.841947 0.830900
0.879515 0.785733 0.727138
0.815030 0.870665 0.860929
0.825834 0.869657 0.865782
0.843900 0.868498 0.875517
0.849393 0.868193 0.878477
0.851408 0.864622 0.869139
0.000000 0.142428 0.364172
0.217990 0.201114 0.278172
0.714717 0.232425 0.372686
0.844541 0.460121 0.419257
0.904479 0.623682 0.629511
0.144625 0.395483 0.501335
0.387182 0.389807 0.409186
0.712215 0.442359 0.446448
0.832090 0.523980 0.458930
0.901427 0.643915 0.640314
0.379522 0.667384 0.589685
0.589258 0.680903 0.635798
0.722805 0.702022 0.661006
0.808286 0.642084 0.545251
0.892424 0.702754 0.671717
0.695521 0.816648 0.775509
0.736538 0.820340 0.793088
0.815946 0.845182 0.847745
0.831540 0.837583 0.827573
0.883330 0.773404 0.706569
0.799435 0.871366 0.855589
0.812772 0.870573 0.860777
0.840574 0.868894 0.873869
0.850248 0.868681 0.879820
0.851530 0.864591 0.869017
0.079866 0.349859 0.645716
0.355596 0.384863 0.594110
0.634241 0.416510 0.586389
0.819089 0.533623 0.605463
0.900023 0.636896 0.658350
0.375128 0.526299 0.688930
0.458106 0.500969 0.646052
0.650446 0.511223 0.610071
0.816068 0.581720 0.626673
0.897246 0.654383 0.667933
0.489357 0.687526 0.720394
0.566674 0.683467 0.712490
0.688319 0.662135 0.676356
0.800656 0.672724 0.667933
0.890135 0.699214 0.691402
0.576715 0.788296 0.747463
0.642390 0.792325 0.759670
0.779202 0.820096 0.818051
0.819944 0.820737 0.812039
0.881285 0.762020 0.721889
0.762722 0.874205 0.849363
0.779294 0.872953 0.853117
0.823880 0.870207 0.867277
0.851133 0.869383 0.881315
0.852049 0.865141 0.870787
0.448768 0.572869 0.801755
0.516747 0.577447 0.783047
0.636225 0.622583 0.699428
0.786679 0.622095 0.740810
0.877836 0.668940 0.741512
0.516808 0.635615 0.813413
0.560754 0.629816 0.797391
0.650935 0.647791 0.712673
0.785397 0.642664 0.746120
0.876463 0.684627 0.749660
0.561791 0.737270 0.843442
0.605371 0.737911 0.842741
0.691493 0.715633 0.794644
0.786893 0.708248 0.774380
0.871977 0.731746 0.776242
0.646540 0.826261 0.850187
0.665095 0.824460 0.848905
0.723232 0.819394 0.846220
0.787076 0.790860 0.817472
0.863737 0.799771 0.818540
0.691249 0.884276 0.861021
0.699245 0.883268 0.860197
0.737118 0.880644 0.860288
0.833280 0.870481 0.874174
0.853025 0.866148 0.874846
