其他预设/【240】TEZZA调色预设合集24款/1.LUT预设（视频调色-PR-AE-PS-FCPX-达芬奇用）/Tezza万事达-Cole01.cube
# Created by Adobe Lightroom plugin Export LUT (1.17.0)
# www.johnrellis.com/lightroom/exportlut.htm
# Preset: Tezza万事达-Cole01
# Color profile: /Library/Application Support/Adobe/Color/Profiles/Recommended/AdobeRGB1998.icc
LUT_3D_SIZE 8
DOMAIN_MIN 0.000000 0.000000 0.000000
DOMAIN_MAX 0.903226 0.903226 0.903226
0.154971 0.114900 0.092195
0.169070 0.118013 0.092775
0.201297 0.124239 0.093324
0.262943 0.132296 0.090913
0.366918 0.142000 0.081300
0.517205 0.157809 0.039948
0.691615 0.208865 0.000000
0.842100 0.302617 0.000000
0.158938 0.130068 0.095552
0.169924 0.129763 0.095552
0.203616 0.131807 0.092805
0.265293 0.140719 0.089845
0.369146 0.152377 0.079530
0.515679 0.170321 0.034058
0.686213 0.219577 0.000000
0.838621 0.310948 0.000000
0.166201 0.171695 0.103090
0.176608 0.171633 0.103059
0.213962 0.174899 0.101137
0.288487 0.178958 0.088472
0.397375 0.193057 0.067689
0.547143 0.220615 0.000000
0.714900 0.279149 0.000000
0.854643 0.363043 0.000000
0.172000 0.270817 0.119417
0.184665 0.269566 0.117952
0.229435 0.259190 0.118685
0.339940 0.300694 0.108766
0.489265 0.314000 0.044587
0.603693 0.313787 0.000000
0.743435 0.366186 0.000000
0.866606 0.433600 0.000000
0.160098 0.450690 0.164065
0.181064 0.449165 0.160342
0.250828 0.444251 0.153841
0.345190 0.413184 0.158572
0.546654 0.497078 0.149447
0.689326 0.499855 0.023468
0.777432 0.482521 0.000000
0.881559 0.521691 0.000000
0.152773 0.646174 0.279850
0.192386 0.650324 0.282780
0.294408 0.643610 0.278630
0.424384 0.622339 0.285405
0.534234 0.604425 0.283360
0.727474 0.679652 0.333532
0.834043 0.678828 0.301549
0.906706 0.661494 0.159670
0.285374 0.795132 0.455116
0.318547 0.794339 0.458442
0.409796 0.786801 0.465888
0.529473 0.773861 0.490883
0.611780 0.749599 0.489204
0.709560 0.757351 0.511040
0.836851 0.804410 0.575341
0.908293 0.809049 0.583948
0.497292 0.889250 0.632898
0.517479 0.887572 0.637018
0.578698 0.882536 0.651789
0.659968 0.875639 0.677211
0.721553 0.861448 0.689418
0.765805 0.850217 0.686610
0.837949 0.867582 0.718502
0.911376 0.892638 0.754696
0.158480 0.121889 0.099001
0.168032 0.121706 0.099306
0.202365 0.128786 0.097353
0.264500 0.138796 0.093446
0.367437 0.150942 0.080049
0.510369 0.166873 0.039704
0.679866 0.211856 0.000000
0.833036 0.299199 0.000000
0.160464 0.133730 0.102205
0.173037 0.133242 0.102144
0.206119 0.137972 0.099763
0.268650 0.146639 0.094087
0.371923 0.159579 0.079988
0.513420 0.178470 0.030152
0.677363 0.223056 0.000000
0.829435 0.306920 0.000000
0.168429 0.174868 0.109743
0.181155 0.175601 0.110567
0.217288 0.178439 0.109987
0.288426 0.180545 0.096712
0.397040 0.195346 0.077852
0.539239 0.222263 0.000000
0.699306 0.275151 0.000000
0.843595 0.355657 0.000000
0.175418 0.272648 0.129397
0.189425 0.272801 0.128786
0.235080 0.266514 0.128939
0.333959 0.295140 0.122591
0.467079 0.300481 0.078279
0.582940 0.302495 0.000000
0.726223 0.354864 0.000000
0.856321 0.424964 0.000000
0.165377 0.454078 0.182193
0.186099 0.451545 0.178195
0.254337 0.444739 0.170321
0.346532 0.412512 0.171725
0.533959 0.485389 0.168551
0.676570 0.489509 0.085969
0.767605 0.472999 0.000000
0.875792 0.515953 0.000000
0.159030 0.643153 0.295689
0.194247 0.642115 0.293675
0.292210 0.636164 0.289158
0.422919 0.618585 0.297948
0.529625 0.598383 0.295689
0.723934 0.677211 0.352911
0.829679 0.676204 0.318547
0.902464 0.656947 0.175418
0.279484 0.790066 0.459724
0.309270 0.787533 0.459754
0.401038 0.781216 0.467170
0.523461 0.770230 0.492378
0.611231 0.748043 0.497017
0.705318 0.753170 0.515190
0.832425 0.800412 0.577600
0.904417 0.804990 0.582971
0.489937 0.887541 0.633692
0.511437 0.886259 0.638483
0.574090 0.881468 0.653285
0.656641 0.874815 0.678340
0.728206 0.864988 0.701350
0.768856 0.852293 0.694759
0.836973 0.866819 0.721401
0.909941 0.891569 0.756313
0.163851 0.136172 0.115450
0.168978 0.135683 0.113619
0.203189 0.137850 0.119142
0.276555 0.129488 0.110353
0.380438 0.153506 0.100130
0.527855 0.174929 0.071321
0.694850 0.228824 0.000000
0.843015 0.315099 0.000000
0.168948 0.147433 0.122194
0.178683 0.148989 0.121065
0.208865 0.149599 0.122896
0.280461 0.148348 0.113985
0.385687 0.164858 0.102144
0.529808 0.185855 0.072023
0.693690 0.238682 0.000000
0.842130 0.324529 0.000000
0.171542 0.189853 0.135775
0.183688 0.190066 0.135988
0.227054 0.189273 0.136263
0.301183 0.194949 0.125368
0.415778 0.207126 0.107668
0.554437 0.229679 0.070802
0.708431 0.282536 0.000000
0.849516 0.365667 0.000000
0.173648 0.295293 0.168917
0.190127 0.298222 0.169406
0.246860 0.297337 0.166995
0.349737 0.311406 0.169863
0.472236 0.302434 0.124605
0.597681 0.315251 0.074800
0.735195 0.361303 0.000000
0.863066 0.432898 0.000000
0.154818 0.477119 0.243473
0.183841 0.476783 0.241978
0.268376 0.472206 0.237339
0.377325 0.449256 0.235996
0.547417 0.501305 0.252476
0.676417 0.493080 0.178561
0.765927 0.469612 0.000000
0.877775 0.519951 0.000000
0.156985 0.658198 0.363226
0.202243 0.657252 0.363409
0.309117 0.650782 0.361212
0.437812 0.635737 0.363256
0.533135 0.598322 0.353460
0.719875 0.678187 0.422797
0.822629 0.676814 0.383673
0.899748 0.657069 0.248020
0.295933 0.798398 0.511192
0.328008 0.796139 0.512230
0.416785 0.788785 0.516869
0.532769 0.776638 0.533349
0.625360 0.755825 0.544060
0.706294 0.753201 0.552605
0.832059 0.804349 0.619409
0.903410 0.810880 0.621729
0.491585 0.890593 0.657832
0.508934 0.888853 0.659510
0.571038 0.883696 0.671199
0.656703 0.877867 0.694972
0.732906 0.868589 0.719570
0.774289 0.856199 0.714809
0.837156 0.867582 0.736721
0.910246 0.893736 0.772763
0.168704 0.162203 0.151675
0.174655 0.162051 0.150454
0.195590 0.164981 0.143496
0.280613 0.165530 0.170626
0.410986 0.131777 0.158328
0.537469 0.145235 0.121675
0.690394 0.211398 0.076997
0.841367 0.304417 0.000000
0.178470 0.179385 0.164858
0.184146 0.177981 0.162661
0.205295 0.177676 0.153841
0.288792 0.179141 0.177523
0.417823 0.145327 0.160159
0.538323 0.174685 0.125246
0.692317 0.225284 0.079957
0.841978 0.314214 0.000000
0.175143 0.217563 0.189303
0.186893 0.217441 0.190372
0.233402 0.222263 0.189090
0.313817 0.227054 0.200870
0.439826 0.200046 0.167971
0.566369 0.237766 0.141451
0.717006 0.282261 0.092958
0.854154 0.359503 0.000000
0.164431 0.322393 0.244785
0.181552 0.323033 0.245426
0.242130 0.325078 0.247990
0.360266 0.325841 0.252781
0.479164 0.322454 0.215244
0.604425 0.331395 0.175296
0.736446 0.364141 0.121553
0.864195 0.428473 0.000000
0.131868 0.494087 0.341039
0.165866 0.497169 0.343206
0.266239 0.510735 0.355566
0.405371 0.498970 0.348028
0.554498 0.515312 0.367681
0.666590 0.487190 0.275395
0.769467 0.484230 0.198764
0.878752 0.525353 0.142458
0.139559 0.687709 0.477790
0.199435 0.689754 0.480903
0.323735 0.681209 0.475593
0.462287 0.666438 0.472419
0.571740 0.636347 0.468788
0.719661 0.686946 0.522850
0.813809 0.678126 0.465614
0.893980 0.649714 0.321477
0.309728 0.810178 0.586084
0.343786 0.808896 0.587732
0.436011 0.803372 0.592584
0.548943 0.792782 0.601892
0.651606 0.776120 0.618372
0.709194 0.755337 0.606104
0.830747 0.808804 0.670893
0.899901 0.813413 0.659968
0.508171 0.896788 0.704524
0.525872 0.895689 0.706447
0.576349 0.891508 0.710964
0.651545 0.884672 0.721706
0.730770 0.875486 0.740108
0.782498 0.863523 0.745296
0.836027 0.867826 0.757290
0.910277 0.896391 0.794888
0.166659 0.207828 0.230381
0.173617 0.207309 0.228855
0.199039 0.206149 0.220188
0.244511 0.207279 0.213687
0.423713 0.210239 0.295293
0.591791 0.178683 0.286839
0.723415 0.011505 0.189517
0.839292 0.298100 0.159670
0.174166 0.225864 0.248569
0.181460 0.224918 0.247105
0.207370 0.221683 0.236973
0.252720 0.221836 0.224613
0.431098 0.227543 0.304601
0.595850 0.197726 0.291173
0.723873 0.122744 0.196078
0.840940 0.310643 0.163851
0.168154 0.265019 0.289769
0.185702 0.269413 0.292027
0.232700 0.273320 0.288334
0.290898 0.277226 0.267552
0.454047 0.286381 0.335119
0.604334 0.253635 0.301823
0.721370 0.246952 0.216434
0.844968 0.348974 0.175296
0.137362 0.360296 0.355718
0.159243 0.359838 0.356298
0.228763 0.358312 0.359564
0.356146 0.371588 0.363836
0.494850 0.389136 0.393683
0.624537 0.336400 0.315648
0.730068 0.370581 0.254978
0.858122 0.414435 0.196017
0.000000 0.516136 0.457496
0.107759 0.516777 0.458381
0.233341 0.517357 0.460182
0.382940 0.517113 0.464393
0.542443 0.513970 0.469612
0.651209 0.493446 0.400885
0.759091 0.488808 0.330449
0.872068 0.517906 0.272038
0.102876 0.668727 0.548363
0.167666 0.670588 0.550713
0.300237 0.674800 0.557855
0.457221 0.683192 0.574945
0.585016 0.666255 0.566125
0.709071 0.684810 0.596582
0.795529 0.658076 0.512016
0.885405 0.648035 0.422126
0.323186 0.820249 0.669947
0.355901 0.819883 0.671962
0.445991 0.815732 0.674525
0.552911 0.806332 0.674464
0.647974 0.793057 0.671748
0.720180 0.768612 0.666773
0.826047 0.809689 0.714992
0.893706 0.807614 0.683711
0.516167 0.901396 0.754696
0.531731 0.900145 0.755123
0.579370 0.896269 0.756832
0.648127 0.892515 0.762081
0.718349 0.884703 0.765560
0.789670 0.873716 0.779965
0.829831 0.864744 0.775448
0.908843 0.897704 0.816403
0.122835 0.283055 0.382269
0.136233 0.281926 0.380346
0.178195 0.277836 0.369818
0.244419 0.281437 0.353979
0.351263 0.281010 0.366125
0.596094 0.304814 0.490913
0.750057 0.345068 0.500694
0.866331 0.300969 0.417670
0.131777 0.298405 0.395880
0.144808 0.296696 0.393103
0.186069 0.292210 0.384009
0.253056 0.293858 0.366339
0.357549 0.295293 0.374304
0.598199 0.321386 0.495216
0.749722 0.357183 0.502525
0.865690 0.309331 0.414954
0.132479 0.348913 0.447150
0.161257 0.351995 0.447608
0.212955 0.347723 0.439368
0.287694 0.345983 0.421973
0.388464 0.352148 0.414893
0.613947 0.383429 0.521324
0.753536 0.403174 0.515526
0.866941 0.342473 0.409400
0.000000 0.417334 0.502708
0.076936 0.414679 0.501549
0.205936 0.417731 0.503807
0.352026 0.440223 0.508782
0.457099 0.455390 0.486610
0.641444 0.482887 0.567254
0.761563 0.469856 0.534630
0.865232 0.430365 0.424567
0.000000 0.551019 0.576928
0.000000 0.550469 0.577050
0.203586 0.548028 0.577447
0.355749 0.541680 0.577630
0.526482 0.552636 0.578210
0.662928 0.580072 0.608515
0.763851 0.521935 0.526024
0.858518 0.530816 0.440314
0.000000 0.691066 0.653407
0.120607 0.691890 0.654963
0.272007 0.690669 0.655848
0.422309 0.687709 0.657313
0.566033 0.683284 0.659174
0.697658 0.682673 0.665797
0.776852 0.655146 0.599603
0.873838 0.650385 0.535149
0.302922 0.805112 0.719539
0.336004 0.805814 0.721614
0.426978 0.806119 0.726253
0.543206 0.807736 0.735592
0.656184 0.812863 0.749996
0.737819 0.800412 0.742397
0.822843 0.812680 0.762875
0.886687 0.792844 0.700587
0.521080 0.902617 0.801846
0.536492 0.902190 0.802823
0.585657 0.901244 0.806851
0.656306 0.901610 0.814908
0.720089 0.895903 0.813291
0.782406 0.887724 0.810880
0.833371 0.872129 0.808988
0.908446 0.900664 0.843107
0.000000 0.393286 0.578882
0.000000 0.393317 0.579004
0.095491 0.389532 0.572442
0.227024 0.388739 0.559777
0.351446 0.403937 0.535729
0.515557 0.395361 0.568017
0.735836 0.462684 0.666346
0.850614 0.561975 0.695155
0.000000 0.403937 0.582971
0.000000 0.403540 0.582757
0.118654 0.399451 0.576440
0.237064 0.397131 0.562921
0.357458 0.410559 0.539086
0.514916 0.403754 0.566888
0.732113 0.467140 0.662806
0.847135 0.558770 0.689601
0.000000 0.453834 0.616907
0.087068 0.451972 0.615045
0.178561 0.446448 0.608179
0.279973 0.442603 0.596063
0.393896 0.451728 0.574182
0.535546 0.454871 0.590204
0.739712 0.516045 0.677882
0.851041 0.587793 0.700984
0.000000 0.497932 0.650355
0.000000 0.499519 0.649409
0.214054 0.509422 0.648676
0.348119 0.515953 0.643793
0.453651 0.519829 0.627283
0.571862 0.535363 0.627527
0.752071 0.585199 0.701930
0.855436 0.622156 0.711360
0.000000 0.594690 0.691463
0.000000 0.591852 0.689723
0.155276 0.583215 0.685725
0.319738 0.570703 0.680323
0.511223 0.596490 0.678065
0.614252 0.617334 0.660060
0.761074 0.648951 0.722255
0.858335 0.652003 0.712184
0.017914 0.713771 0.741299
0.132479 0.712825 0.741054
0.263157 0.709316 0.740017
0.395239 0.702571 0.738064
0.524987 0.690059 0.732845
0.672847 0.699458 0.731350
0.782589 0.728511 0.758755
0.864469 0.682673 0.700191
0.298375 0.818845 0.790707
0.326390 0.818723 0.791318
0.403784 0.816648 0.791653
0.505943 0.813474 0.792508
0.610346 0.808713 0.792782
0.712551 0.804623 0.794247
0.808377 0.804013 0.798795
0.871580 0.777340 0.741421
0.487892 0.892668 0.832456
0.503014 0.891966 0.832609
0.555566 0.892638 0.836454
0.625971 0.893217 0.841428
0.705196 0.894957 0.848631
0.785061 0.899992 0.859831
0.842924 0.893889 0.856199
0.907500 0.903410 0.872007
0.000000 0.535027 0.751034
0.000000 0.535149 0.750637
0.173220 0.532311 0.745480
0.297978 0.533288 0.737972
0.421790 0.543511 0.724422
0.534417 0.560204 0.709621
0.686152 0.560845 0.736446
0.838041 0.634760 0.798184
0.000000 0.542290 0.752346
0.072236 0.542321 0.751949
0.191958 0.539696 0.747311
0.307347 0.539483 0.739345
0.427558 0.548852 0.726040
0.540673 0.568933 0.709468
0.685389 0.566033 0.735866
0.836820 0.637263 0.797238
0.148226 0.572290 0.763119
0.175479 0.571710 0.762295
0.245792 0.567559 0.757076
0.347723 0.569177 0.752224
0.456092 0.575616 0.739254
0.566522 0.601099 0.718044
0.691554 0.594659 0.742763
0.838193 0.657130 0.801480
0.047089 0.603693 0.780148
0.158633 0.606897 0.780087
0.315557 0.617212 0.777523
0.399390 0.615045 0.771664
0.497475 0.618799 0.761166
0.597040 0.637201 0.743740
0.704250 0.640864 0.757137
0.842771 0.691279 0.811093
0.000000 0.652979 0.801633
0.000000 0.650813 0.801328
0.158724 0.645167 0.797971
0.371740 0.653986 0.793606
0.533013 0.669093 0.785977
0.625025 0.677455 0.772091
0.717281 0.691005 0.773037
0.849180 0.733394 0.823972
0.154788 0.753964 0.830106
0.187167 0.751827 0.829068
0.270237 0.744656 0.826139
0.370336 0.731350 0.821408
0.477729 0.708461 0.813291
0.660182 0.734829 0.808713
0.748074 0.757259 0.798123
0.862028 0.786862 0.845029
0.357763 0.844114 0.860655
0.373541 0.843076 0.860227
0.423468 0.839658 0.858976
0.498390 0.834257 0.857511
0.583948 0.825681 0.854948
0.671565 0.812039 0.850034
0.784024 0.813230 0.845060
0.874113 0.837095 0.865080
0.511833 0.911803 0.889799
0.521447 0.911192 0.889647
0.555169 0.909483 0.889616
0.610010 0.907164 0.890196
0.676600 0.904051 0.890837
0.747738 0.900633 0.891630
0.820584 0.897581 0.892882
0.896056 0.896208 0.895567
