其他预设/【240】TEZZA调色预设合集24款/1.LUT预设（视频调色-PR-AE-PS-FCPX-达芬奇用）/Tezza古董__-1.cube
# Created by Adobe Lightroom plugin Export LUT (1.17.0)
# www.johnrellis.com/lightroom/exportlut.htm
# Preset: Tezza古董[素锦印象]-1
# Color profile: /Library/Application Support/Adobe/Color/Profiles/Recommended/AdobeRGB1998.icc
LUT_3D_SIZE 8
DOMAIN_MIN 0.000000 0.000000 0.000000
DOMAIN_MAX 0.903226 0.903226 0.903226
0.000000 0.000000 0.000000
0.104616 0.000000 0.027710
0.366552 0.000000 0.030732
0.627008 0.000000 0.000000
0.776974 0.000000 0.071717
0.853208 0.000000 0.165072
0.903380 0.000000 0.284215
0.938933 0.248753 0.440711
0.012909 0.108858 0.062745
0.125246 0.112886 0.032502
0.342199 0.000000 0.007813
0.597681 0.000000 0.000000
0.755612 0.000000 0.039582
0.835019 0.000000 0.139223
0.892638 0.000000 0.250095
0.936156 0.227878 0.415595
0.000000 0.394385 0.167819
0.118288 0.409857 0.233066
0.440986 0.351904 0.000000
0.594934 0.248539 0.000000
0.739193 0.131563 0.053254
0.825681 0.088136 0.161410
0.892546 0.250278 0.301915
0.932311 0.402869 0.453803
0.268223 0.664637 0.423285
0.364172 0.664912 0.470069
0.466651 0.677577 0.469032
0.700862 0.604364 0.186984
0.733455 0.507195 0.119509
0.811917 0.466255 0.207462
0.876463 0.475319 0.339818
0.922057 0.531365 0.489876
0.496010 0.751644 0.586694
0.541131 0.750362 0.614679
0.621027 0.761501 0.676112
0.654597 0.760952 0.605158
0.772183 0.692317 0.381292
0.795407 0.624445 0.303044
0.850156 0.603235 0.356847
0.909453 0.634760 0.524529
0.618494 0.807492 0.693446
0.648554 0.812039 0.717281
0.689754 0.817716 0.750607
0.736568 0.826932 0.788052
0.741390 0.812070 0.692775
0.818112 0.762264 0.565179
0.849058 0.728786 0.529503
0.900633 0.732235 0.572503
0.701228 0.851041 0.771603
0.713619 0.851682 0.780941
0.739651 0.852384 0.800198
0.771084 0.856138 0.823880
0.777951 0.857847 0.816281
0.798428 0.848051 0.762783
0.853391 0.816770 0.694240
0.887205 0.805264 0.686610
0.761257 0.875669 0.823087
0.767086 0.874937 0.826902
0.787869 0.872862 0.840482
0.808652 0.871458 0.854124
0.822690 0.869078 0.862852
0.821195 0.870390 0.851408
0.838712 0.870909 0.826444
0.873991 0.853056 0.779355
0.000000 0.009522 0.063722
0.098939 0.001587 0.070283
0.325780 0.000000 0.011078
0.588220 0.000000 0.000000
0.748165 0.000000 0.021088
0.828244 0.000000 0.126406
0.888548 0.000000 0.233951
0.932677 0.161318 0.403143
0.012207 0.098360 0.070588
0.116426 0.104463 0.074647
0.324254 0.000000 0.016938
0.576349 0.000000 0.000000
0.736812 0.000000 0.021149
0.818479 0.000000 0.122683
0.879179 0.000000 0.222263
0.928161 0.105165 0.370703
0.000000 0.358282 0.158114
0.158328 0.371221 0.237278
0.420752 0.331548 0.042756
0.566430 0.251621 0.000000
0.716548 0.148470 0.001099
0.807248 0.068635 0.135775
0.874601 0.176486 0.251469
0.925505 0.348058 0.412879
0.217472 0.627649 0.380285
0.337835 0.631617 0.439857
0.445960 0.652247 0.448432
0.665766 0.565728 0.167605
0.702693 0.470436 0.058534
0.785245 0.426276 0.152651
0.857511 0.430762 0.278508
0.913176 0.491524 0.441840
0.483589 0.742367 0.574701
0.530144 0.739284 0.602411
0.609125 0.749325 0.662196
0.637842 0.744442 0.582147
0.756405 0.672297 0.349859
0.783383 0.608148 0.269718
0.839567 0.586664 0.322911
0.902434 0.616327 0.492317
0.604852 0.799557 0.680323
0.626978 0.799832 0.696345
0.673487 0.806119 0.733761
0.726864 0.818204 0.778408
0.734554 0.804868 0.682582
0.814725 0.757015 0.554253
0.845304 0.722469 0.514916
0.896666 0.720668 0.554772
0.686549 0.844663 0.758389
0.696101 0.843778 0.765133
0.726833 0.845518 0.788510
0.762905 0.851804 0.816739
0.773831 0.855100 0.812650
0.793942 0.844175 0.755795
0.848966 0.809628 0.677821
0.881468 0.794888 0.665370
0.752621 0.874296 0.816678
0.759762 0.873869 0.821500
0.781949 0.872099 0.836210
0.805264 0.871092 0.851743
0.825864 0.869383 0.865049
0.822843 0.870451 0.853391
0.837980 0.870512 0.825284
0.874022 0.852995 0.779202
0.000000 0.036194 0.156893
0.040040 0.039033 0.179660
0.370916 0.000000 0.169436
0.604211 0.000000 0.040528
0.752163 0.000000 0.047486
0.829923 0.000000 0.142458
0.891386 0.000000 0.255680
0.936248 0.226658 0.418128
0.000000 0.098970 0.171908
0.100740 0.110567 0.193027
0.362219 0.000000 0.153841
0.593896 0.000000 0.069062
0.737087 0.000000 0.032593
0.820371 0.000000 0.136507
0.884123 0.000000 0.247257
0.933288 0.232547 0.403174
0.000000 0.307225 0.154971
0.137728 0.330388 0.211154
0.398535 0.310307 0.186862
0.587213 0.251438 0.115785
0.724147 0.232883 0.064637
0.809689 0.214298 0.148226
0.875334 0.250431 0.264530
0.926055 0.368139 0.421454
0.134035 0.611780 0.341131
0.303624 0.617670 0.415259
0.498665 0.637629 0.515648
0.657771 0.558251 0.263432
0.704921 0.478889 0.139834
0.789914 0.456184 0.169070
0.861662 0.459876 0.299443
0.916289 0.509117 0.460121
0.429511 0.732509 0.539055
0.498451 0.730831 0.578210
0.613855 0.740627 0.662287
0.650599 0.742336 0.614282
0.753750 0.673610 0.409522
0.786618 0.615595 0.292576
0.841459 0.594629 0.332464
0.904204 0.621515 0.500816
0.586877 0.794919 0.665766
0.613916 0.795071 0.684871
0.672267 0.799649 0.730343
0.726345 0.812802 0.777005
0.732937 0.799130 0.687953
0.807828 0.750118 0.560449
0.843320 0.719295 0.507530
0.898253 0.722774 0.560113
0.680293 0.844297 0.753628
0.691646 0.843717 0.761807
0.726406 0.843595 0.787533
0.761379 0.849668 0.815000
0.777462 0.853666 0.817899
0.794156 0.843290 0.761318
0.849912 0.811490 0.686275
0.886015 0.801938 0.679988
0.744900 0.874784 0.811429
0.750088 0.873960 0.814786
0.772549 0.871946 0.829709
0.803250 0.871092 0.850401
0.824887 0.869505 0.864439
0.824582 0.870329 0.856168
0.838254 0.870603 0.828916
0.874083 0.852781 0.778805
0.000000 0.055360 0.311406
0.000000 0.055207 0.345342
0.334417 0.000000 0.366308
0.633875 0.000000 0.321233
0.751461 0.000000 0.226871
0.824369 0.000000 0.152682
0.883940 0.000000 0.241215
0.933043 0.178470 0.401312
0.000000 0.107820 0.328099
0.000000 0.103700 0.356329
0.379370 0.000000 0.385473
0.634852 0.000000 0.318547
0.748531 0.000000 0.201389
0.818509 0.000000 0.160159
0.879088 0.000000 0.240116
0.931853 0.194064 0.391394
0.000000 0.290959 0.346899
0.000000 0.285832 0.350774
0.409796 0.290288 0.376898
0.612482 0.164584 0.270665
0.733974 0.160616 0.217746
0.812406 0.230564 0.204562
0.879362 0.303258 0.284459
0.929503 0.374945 0.434241
0.000000 0.539757 0.299229
0.146242 0.544793 0.307500
0.482673 0.577508 0.505272
0.618402 0.522332 0.363043
0.701747 0.461891 0.268498
0.788327 0.448463 0.246311
0.860105 0.464637 0.298283
0.918242 0.505486 0.463630
0.335790 0.712306 0.481483
0.408453 0.713191 0.517906
0.590112 0.713558 0.633539
0.656855 0.731685 0.645655
0.741299 0.664790 0.469642
0.777066 0.606775 0.349065
0.845457 0.601312 0.352331
0.907500 0.622583 0.510246
0.549828 0.790921 0.639216
0.588983 0.794034 0.666835
0.664790 0.793637 0.722316
0.730343 0.810269 0.779232
0.740871 0.800656 0.717342
0.803250 0.749294 0.594049
0.841947 0.717891 0.523980
0.900725 0.722591 0.566064
0.656886 0.841154 0.735286
0.671901 0.841489 0.746365
0.714931 0.842679 0.778714
0.762783 0.849149 0.815854
0.793332 0.855802 0.835996
0.798123 0.845487 0.778592
0.848569 0.811704 0.699367
0.888090 0.802853 0.682399
0.735470 0.876707 0.805478
0.742458 0.876219 0.810208
0.763485 0.874235 0.824186
0.798428 0.871397 0.847227
0.823239 0.869841 0.863432
0.828122 0.870085 0.861540
0.838071 0.870634 0.834653
0.873991 0.852506 0.779141
0.000000 0.068238 0.481819
0.000000 0.068696 0.507622
0.247684 0.065370 0.575677
0.635309 0.000000 0.563012
0.757046 0.000000 0.472694
0.820920 0.000000 0.393744
0.883055 0.000000 0.313542
0.933867 0.194034 0.403906
0.000000 0.114015 0.482765
0.000000 0.109255 0.509667
0.301183 0.166873 0.578515
0.637812 0.000000 0.559472
0.752193 0.000000 0.467262
0.817655 0.000000 0.393378
0.882628 0.000000 0.304814
0.933196 0.223606 0.400855
0.000000 0.226993 0.454231
0.000000 0.245945 0.479255
0.354284 0.333562 0.554559
0.630396 0.259617 0.536248
0.732631 0.223178 0.448127
0.809354 0.106477 0.339147
0.871763 0.214206 0.321569
0.925841 0.330175 0.407813
0.000000 0.530053 0.508812
0.000000 0.528191 0.509026
0.329351 0.516899 0.513878
0.599634 0.484016 0.488808
0.709102 0.441962 0.422004
0.789517 0.420935 0.373877
0.858946 0.427558 0.363592
0.919615 0.462867 0.444648
0.149813 0.660243 0.430457
0.238071 0.661097 0.432197
0.469856 0.672389 0.533867
0.651484 0.703639 0.671412
0.705318 0.632166 0.513603
0.762051 0.577295 0.411780
0.841184 0.569512 0.408789
0.908354 0.593194 0.491920
0.439643 0.760128 0.559014
0.480964 0.761166 0.582605
0.586664 0.765194 0.652552
0.695796 0.778012 0.740963
0.725521 0.783444 0.723934
0.786648 0.732174 0.603937
0.831601 0.698024 0.523033
0.901457 0.708919 0.559258
0.610864 0.830014 0.697932
0.624872 0.830228 0.707790
0.671870 0.831968 0.742580
0.739925 0.836332 0.795132
0.790341 0.850462 0.835691
0.794278 0.843076 0.791196
0.841917 0.805173 0.703639
0.886503 0.792874 0.670588
0.703639 0.874296 0.782040
0.709926 0.874052 0.786404
0.733028 0.872679 0.802365
0.776303 0.872007 0.832334
0.814206 0.870054 0.857481
0.835325 0.869261 0.870207
0.835630 0.869932 0.840330
0.873075 0.852110 0.783932
0.000000 0.086885 0.629236
0.000000 0.087556 0.643732
0.088472 0.118715 0.686946
0.573205 0.113680 0.697993
0.755612 0.000000 0.664240
0.819760 0.000000 0.582940
0.870787 0.215976 0.538628
0.922423 0.340215 0.537224
0.000000 0.128756 0.617884
0.000000 0.120363 0.633417
0.156405 0.172885 0.676478
0.572992 0.208011 0.688472
0.749416 0.000000 0.655085
0.814603 0.139162 0.577447
0.867430 0.248661 0.536065
0.921569 0.343999 0.529839
0.000000 0.252262 0.597528
0.000000 0.266087 0.613245
0.242130 0.309392 0.661646
0.595697 0.416785 0.688045
0.742763 0.324285 0.647730
0.804593 0.330144 0.576776
0.860441 0.359716 0.541650
0.921843 0.380346 0.517906
0.000000 0.451270 0.589227
0.000000 0.441810 0.588128
0.186069 0.420356 0.596918
0.619074 0.588159 0.686702
0.727504 0.524285 0.643549
0.790127 0.494911 0.586053
0.860014 0.445716 0.524804
0.920989 0.466712 0.524285
0.000000 0.670558 0.616846
0.000000 0.669032 0.617456
0.310826 0.660945 0.619928
0.565393 0.644343 0.629603
0.686549 0.614984 0.607599
0.766751 0.581018 0.558404
0.841337 0.558831 0.530449
0.910430 0.564050 0.540551
0.300938 0.733669 0.540887
0.347356 0.734615 0.545495
0.466041 0.732815 0.559777
0.635279 0.749416 0.682338
0.728389 0.776730 0.757534
0.764828 0.714748 0.638453
0.824949 0.675715 0.566033
0.901457 0.681361 0.592584
0.540429 0.815183 0.645014
0.562615 0.816526 0.659632
0.619806 0.819089 0.699428
0.696468 0.826780 0.759121
0.775326 0.839048 0.821775
0.796078 0.844694 0.817716
0.836057 0.801450 0.722194
0.887541 0.784970 0.674006
0.667567 0.871366 0.755276
0.674434 0.870970 0.759945
0.698756 0.870451 0.777096
0.740352 0.871427 0.807126
0.794095 0.869413 0.843748
0.833127 0.869261 0.869841
0.834958 0.869627 0.852811
0.871397 0.851743 0.792233
0.000000 0.108522 0.720119
0.000000 0.105470 0.730922
0.000000 0.143557 0.756832
0.519249 0.298528 0.790555
0.711330 0.236057 0.765042
0.818326 0.228733 0.728817
0.861143 0.301884 0.664790
0.906584 0.401434 0.649195
0.000000 0.142245 0.708400
0.000000 0.133303 0.719387
0.000000 0.175937 0.746944
0.517601 0.329839 0.781003
0.704860 0.273564 0.756771
0.811734 0.248997 0.720424
0.855314 0.304417 0.655970
0.902739 0.393011 0.639826
0.000000 0.258854 0.692561
0.000000 0.256809 0.702785
0.000000 0.274296 0.733516
0.536492 0.444923 0.770901
0.704158 0.426734 0.754391
0.805509 0.389380 0.719814
0.850645 0.409827 0.663478
0.901335 0.463233 0.653925
0.000000 0.357855 0.653101
0.000000 0.342351 0.651453
0.000000 0.400793 0.689235
0.521141 0.524681 0.747433
0.704005 0.578759 0.756863
0.794919 0.536950 0.725093
0.842771 0.526055 0.678004
0.897704 0.538933 0.669062
0.000000 0.609247 0.675013
0.000000 0.603204 0.673152
0.000000 0.581964 0.670405
0.333135 0.531640 0.670100
0.691157 0.672694 0.754665
0.772763 0.622522 0.717556
0.827268 0.599939 0.677211
0.895872 0.587121 0.662287
0.000000 0.748531 0.688045
0.000000 0.746853 0.688350
0.283085 0.740414 0.689967
0.475349 0.729213 0.697200
0.636652 0.716518 0.712886
0.746334 0.695949 0.706508
0.820096 0.673091 0.674556
0.893980 0.659266 0.666804
0.417914 0.800626 0.647761
0.439918 0.800443 0.650172
0.503136 0.798367 0.656855
0.586847 0.796262 0.670466
0.704158 0.808713 0.758511
0.802487 0.838804 0.839994
0.817075 0.784695 0.738369
0.884611 0.756680 0.688808
0.587121 0.863462 0.697536
0.597314 0.863401 0.704097
0.635004 0.865293 0.730068
0.687282 0.866300 0.767300
0.749783 0.867643 0.812528
0.819333 0.867704 0.860258
0.840360 0.869444 0.870970
0.868376 0.851377 0.806516
0.000000 0.131685 0.793423
0.000000 0.121706 0.799130
0.000000 0.154025 0.812284
0.413855 0.266148 0.832853
0.663935 0.437049 0.841215
0.805539 0.369543 0.833158
0.863706 0.395300 0.783261
0.896544 0.460060 0.741176
0.000000 0.159670 0.786862
0.000000 0.151583 0.792844
0.000000 0.175814 0.807584
0.412360 0.291234 0.828183
0.663264 0.461860 0.838621
0.801724 0.391424 0.830167
0.860929 0.406165 0.780972
0.894896 0.466896 0.740047
0.000000 0.251316 0.770809
0.000000 0.247501 0.776883
0.000000 0.233707 0.793851
0.413947 0.372534 0.820005
0.671168 0.551629 0.837247
0.793393 0.476722 0.826017
0.855924 0.471748 0.782467
0.892180 0.513542 0.745876
0.000000 0.328130 0.737423
0.000000 0.334722 0.744747
0.000000 0.369512 0.765621
0.340063 0.430304 0.801328
0.667994 0.617670 0.831479
0.780728 0.584924 0.822995
0.849973 0.564538 0.790494
0.887846 0.572137 0.754177
0.000000 0.537224 0.736233
0.000000 0.528588 0.736629
0.000000 0.484474 0.732784
0.000000 0.460212 0.750393
0.600153 0.614099 0.806668
0.762692 0.676692 0.822995
0.842191 0.649836 0.801724
0.881407 0.633478 0.764340
0.000000 0.733883 0.767117
0.000000 0.729763 0.765805
0.000000 0.715023 0.762600
0.000000 0.683680 0.758785
0.363165 0.616236 0.753872
0.753506 0.756802 0.832944
0.830106 0.726650 0.812955
0.875090 0.703395 0.781888
0.218723 0.837675 0.781643
0.243442 0.836027 0.781308
0.316747 0.830564 0.781094
0.423194 0.821500 0.783078
0.543511 0.807614 0.787747
0.669581 0.784878 0.793515
0.803098 0.780514 0.810025
0.871092 0.753384 0.782650
0.521874 0.867704 0.750668
0.528191 0.866941 0.750454
0.553063 0.865446 0.751919
0.598230 0.864073 0.757321
0.659052 0.861601 0.767025
0.739071 0.859861 0.802365
0.836515 0.865354 0.871061
0.862242 0.849760 0.831876
