其他预设/【240】TEZZA调色预设合集24款/1.LUT预设（视频调色-PR-AE-PS-FCPX-达芬奇用）/Tezza古董__-3.cube
# Created by Adobe Lightroom plugin Export LUT (1.17.0)
# www.johnrellis.com/lightroom/exportlut.htm
# Preset: Tezza古董[素锦印象]-3
# Color profile: /Library/Application Support/Adobe/Color/Profiles/Recommended/AdobeRGB1998.icc
LUT_3D_SIZE 5
DOMAIN_MIN 0.000000 0.000000 0.000000
DOMAIN_MAX 0.903226 0.903226 0.903226
0.104891 0.063813 0.072328
0.318578 0.000000 0.056001
0.802121 0.130068 0.000000
0.983795 0.380591 0.000000
1.000000 0.533898 0.000000
0.114229 0.148745 0.104463
0.262211 0.202609 0.102663
0.675441 0.212863 0.000000
0.946990 0.402808 0.000000
1.000000 0.561181 0.000000
0.068971 0.388098 0.198489
0.224979 0.421332 0.210788
0.726833 0.692470 0.421607
0.855192 0.539330 0.000000
1.000000 0.581415 0.000000
0.000000 0.621942 0.327642
0.188968 0.639704 0.339300
0.487648 0.663203 0.384863
0.866453 0.843381 0.654017
0.968597 0.816251 0.536919
0.043549 0.794614 0.477241
0.252018 0.794369 0.482918
0.534722 0.784421 0.526024
0.699367 0.789029 0.580835
0.950469 0.933318 0.784939
0.118166 0.089174 0.123629
0.222263 0.039704 0.126162
0.756283 0.156588 0.000000
0.944091 0.362676 0.000000
1.000000 0.518486 0.000000
0.119600 0.161074 0.157839
0.242893 0.182406 0.169436
0.674830 0.249607 0.000000
0.912444 0.384314 0.000000
1.000000 0.536339 0.000000
0.057404 0.375341 0.232212
0.220920 0.412665 0.247990
0.669490 0.634455 0.428809
0.813687 0.503563 0.141787
1.000000 0.571710 0.000000
0.000000 0.613245 0.349950
0.182742 0.632197 0.362463
0.499458 0.664240 0.414405
0.856992 0.835111 0.667384
0.961883 0.810697 0.547112
0.000000 0.789822 0.484810
0.208377 0.789975 0.488594
0.533379 0.792660 0.542229
0.706172 0.794736 0.595056
0.951080 0.934997 0.797208
0.116030 0.207919 0.344518
0.216129 0.220676 0.328161
0.578790 0.000000 0.345769
0.963806 0.441810 0.251255
1.000000 0.527276 0.000000
0.140444 0.274449 0.386084
0.287755 0.306676 0.382177
0.589899 0.251652 0.372473
0.936095 0.516564 0.316777
1.000000 0.548394 0.000000
0.000000 0.430091 0.391424
0.210513 0.448615 0.399115
0.583246 0.546471 0.476112
0.831601 0.573266 0.388830
1.000000 0.605798 0.071412
0.000000 0.584802 0.414374
0.000000 0.599359 0.418708
0.490455 0.654231 0.479286
0.831632 0.811978 0.691829
0.930266 0.766049 0.546258
0.000000 0.767208 0.512413
0.000000 0.772946 0.514611
0.417243 0.783261 0.535485
0.693324 0.791989 0.604578
0.944945 0.930571 0.812436
0.197971 0.409949 0.595819
0.295232 0.426093 0.593225
0.515312 0.496315 0.574060
0.784604 0.351781 0.558892
1.000000 0.491310 0.477150
0.284947 0.463325 0.605890
0.365179 0.477058 0.602228
0.551629 0.538933 0.584253
0.774289 0.425330 0.563317
1.000000 0.584863 0.526726
0.162814 0.522179 0.594903
0.297368 0.531701 0.597986
0.586328 0.594903 0.608850
0.768063 0.575128 0.594659
1.000000 0.767727 0.638758
0.000000 0.635309 0.577111
0.150729 0.637110 0.575769
0.448646 0.655390 0.586206
0.750973 0.728359 0.661555
0.941711 0.753445 0.590692
0.000000 0.755825 0.592309
0.000000 0.755581 0.587915
0.149630 0.763302 0.580499
0.628351 0.784787 0.622248
0.935851 0.924071 0.835416
0.436988 0.603388 0.746944
0.479774 0.610956 0.743252
0.599786 0.644495 0.732143
0.700038 0.627619 0.719081
0.891752 0.538598 0.704402
0.462806 0.620264 0.745357
0.500053 0.626246 0.742306
0.608057 0.654139 0.733028
0.703456 0.649378 0.717861
0.887053 0.561456 0.704921
0.326818 0.612696 0.747127
0.418921 0.628382 0.744808
0.616785 0.679377 0.739040
0.731807 0.718624 0.726162
0.881315 0.635279 0.718349
0.187076 0.694575 0.733486
0.274479 0.693416 0.732357
0.478035 0.698177 0.735531
0.730922 0.747677 0.752804
0.881987 0.734890 0.747677
0.000000 0.782284 0.720485
0.000000 0.781094 0.718837
0.292638 0.781277 0.717678
0.560510 0.781064 0.716487
0.862272 0.849851 0.795956
