其他预设/【240】TEZZA调色预设合集24款/1.LUT预设（视频调色-PR-AE-PS-FCPX-达芬奇用）/Tezza自然__-3.cube
# Created by Adobe Lightroom plugin Export LUT (1.17.0)
# www.johnrellis.com/lightroom/exportlut.htm
# Preset: Tezza自然[素锦印象]-3
# Color profile: /Library/Application Support/Adobe/Color/Profiles/Recommended/AdobeRGB1998.icc
LUT_3D_SIZE 8
DOMAIN_MIN 0.000000 0.000000 0.000000
DOMAIN_MAX 0.903226 0.903226 0.903226
0.011719 0.008331 0.007660
0.100099 0.040925 0.017334
0.312993 0.000000 0.000000
0.548150 0.000000 0.000000
0.748653 0.171511 0.000000
0.872404 0.316930 0.000000
0.958190 0.442359 0.153964
1.000000 0.567346 0.302312
0.009949 0.092714 0.049714
0.102144 0.120333 0.026947
0.335424 0.106935 0.000000
0.553368 0.107301 0.000000
0.738338 0.207095 0.000000
0.856260 0.319799 0.000000
0.947387 0.437842 0.130037
1.000000 0.563287 0.283421
0.000000 0.288640 0.115114
0.053834 0.293767 0.128267
0.369726 0.377844 0.000000
0.649378 0.357031 0.000000
0.779202 0.364721 0.000000
0.877165 0.420294 0.000000
0.965301 0.516045 0.159945
1.000000 0.614313 0.311864
0.000000 0.533562 0.249821
0.000000 0.533318 0.258793
0.303075 0.521935 0.268925
0.688380 0.667079 0.223056
0.859922 0.634516 0.148043
0.911711 0.581659 0.056092
0.974548 0.610132 0.177920
1.000000 0.668177 0.316014
0.000000 0.713039 0.393469
0.086946 0.709621 0.398871
0.378546 0.701747 0.427405
0.532219 0.679988 0.430365
0.811673 0.795224 0.402441
0.932616 0.773312 0.360937
0.973602 0.726467 0.290013
1.000000 0.740719 0.332464
0.180026 0.829099 0.516655
0.286351 0.833616 0.532464
0.462379 0.823697 0.557580
0.587701 0.809781 0.565789
0.697932 0.801358 0.577142
0.888731 0.878996 0.577600
0.979492 0.875090 0.585748
1.000000 0.848203 0.545006
0.402289 0.915129 0.637751
0.449042 0.913573 0.646265
0.559533 0.903593 0.666041
0.683589 0.891844 0.701930
0.736538 0.880430 0.693660
0.819669 0.892027 0.707912
0.937743 0.933959 0.716640
1.000000 0.932586 0.741878
0.577752 0.970855 0.745846
0.602441 0.968597 0.751003
0.675074 0.962188 0.769650
0.764767 0.955108 0.800900
0.803708 0.944518 0.799771
0.851316 0.940612 0.813962
0.907652 0.955749 0.827878
0.974426 0.973907 0.831662
0.001007 0.012055 0.067536
0.103883 0.000000 0.076570
0.271214 0.067323 0.082246
0.510430 0.080171 0.080598
0.708766 0.178317 0.075471
0.835630 0.294072 0.101472
0.934905 0.418158 0.174960
1.000000 0.547601 0.301152
0.000000 0.090120 0.082277
0.099245 0.109895 0.088624
0.304753 0.126314 0.084993
0.529290 0.142916 0.074372
0.712184 0.216129 0.067201
0.832181 0.310979 0.092470
0.927733 0.419776 0.160616
1.000000 0.542840 0.282231
0.000000 0.277928 0.147402
0.094148 0.286687 0.167056
0.356115 0.356909 0.135622
0.610834 0.335454 0.049561
0.749081 0.350134 0.007446
0.851865 0.402411 0.089052
0.940612 0.485847 0.173098
1.000000 0.590204 0.302220
0.000000 0.508812 0.265873
0.028016 0.511559 0.278477
0.309026 0.506340 0.291051
0.646998 0.623224 0.249119
0.818448 0.589685 0.174075
0.880705 0.546715 0.111482
0.951568 0.579278 0.184146
1.000000 0.646296 0.306126
0.000000 0.703670 0.408576
0.126040 0.698848 0.411322
0.380560 0.688808 0.436378
0.519677 0.661250 0.429603
0.791592 0.773404 0.403662
0.917906 0.755642 0.364782
0.962402 0.711330 0.295262
1.000000 0.729732 0.337072
0.182650 0.818204 0.517754
0.266453 0.816220 0.523888
0.442206 0.807828 0.546654
0.576013 0.797024 0.559686
0.688533 0.789548 0.575006
0.883909 0.873991 0.585290
0.974853 0.870573 0.590600
1.000000 0.842008 0.541131
0.377478 0.905669 0.628168
0.416999 0.901884 0.631403
0.535088 0.893431 0.652277
0.669184 0.884154 0.691829
0.730037 0.874693 0.689418
0.812650 0.885283 0.702815
0.932769 0.928557 0.709987
0.998260 0.927489 0.731685
0.559350 0.967620 0.739223
0.587518 0.965881 0.745724
0.663874 0.959716 0.764828
0.757198 0.952850 0.796628
0.812863 0.947967 0.810605
0.854459 0.942046 0.819333
0.906249 0.954314 0.827909
0.973083 0.972412 0.829740
0.000000 0.016449 0.183658
0.000000 0.051942 0.180728
0.346868 0.000000 0.203311
0.507378 0.000000 0.174807
0.687037 0.220951 0.222629
0.823423 0.330266 0.248753
0.928405 0.446754 0.301122
1.000000 0.572686 0.402686
0.000000 0.082734 0.199313
0.056977 0.111513 0.210147
0.332830 0.050843 0.204868
0.492164 0.189242 0.216983
0.689174 0.251133 0.223697
0.820859 0.343542 0.243992
0.924224 0.450202 0.291630
1.000000 0.573266 0.393042
0.000000 0.283055 0.252171
0.067689 0.298344 0.261387
0.358465 0.340856 0.279728
0.588830 0.339818 0.249943
0.736660 0.372564 0.245426
0.841978 0.424323 0.256138
0.931762 0.502129 0.299107
1.000000 0.603265 0.394354
0.000000 0.524834 0.353368
0.058442 0.530083 0.364721
0.377264 0.532097 0.398444
0.648188 0.617121 0.389685
0.801572 0.581323 0.322393
0.874693 0.558892 0.284703
0.946075 0.594568 0.321691
1.000000 0.661158 0.407599
0.000000 0.703639 0.459998
0.159274 0.702113 0.467628
0.412726 0.695247 0.494636
0.558862 0.677424 0.502403
0.793484 0.774472 0.507439
0.906615 0.753384 0.462715
0.953857 0.709255 0.381079
1.000000 0.736477 0.430549
0.206943 0.818418 0.553094
0.295415 0.816129 0.560235
0.464576 0.806973 0.581353
0.598383 0.796139 0.598413
0.690455 0.777707 0.606836
0.876982 0.867247 0.628260
0.965637 0.865965 0.629938
1.000000 0.842222 0.584344
0.396735 0.907408 0.654047
0.438392 0.904051 0.658473
0.547204 0.894408 0.674464
0.670710 0.883574 0.704829
0.736660 0.873655 0.707271
0.813321 0.881285 0.721828
0.932738 0.929290 0.741390
0.996063 0.930327 0.763516
0.551263 0.968292 0.748165
0.573510 0.965911 0.751186
0.651026 0.959045 0.767636
0.752041 0.953094 0.800656
0.818784 0.946899 0.821836
0.856931 0.942351 0.827359
0.907195 0.953613 0.837827
0.973449 0.972992 0.843626
0.000000 0.028443 0.350683
0.000000 0.060975 0.356542
0.198367 0.064271 0.368505
0.598718 0.000000 0.369024
0.715541 0.000000 0.278264
0.785000 0.312718 0.349737
0.894804 0.442939 0.404364
0.982391 0.574426 0.490547
0.000000 0.103670 0.372778
0.000000 0.115267 0.377081
0.231632 0.155886 0.386664
0.600580 0.000000 0.375891
0.705287 0.001831 0.293797
0.778958 0.350988 0.365179
0.894377 0.452033 0.402777
0.982238 0.577935 0.486213
0.000000 0.251560 0.397009
0.000000 0.261814 0.401007
0.319188 0.320897 0.430396
0.573663 0.299657 0.395575
0.685786 0.383642 0.397040
0.811154 0.438819 0.400092
0.915160 0.523552 0.437568
0.989990 0.621393 0.506981
0.000000 0.521050 0.472023
0.000000 0.527642 0.476326
0.376776 0.543359 0.495460
0.632410 0.591272 0.520348
0.758022 0.551232 0.452918
0.842985 0.555810 0.435462
0.924071 0.595392 0.449348
0.993194 0.669764 0.513970
0.000000 0.714412 0.549187
0.161257 0.710231 0.550286
0.419440 0.702113 0.563409
0.606439 0.696407 0.592248
0.788602 0.767208 0.612757
0.885557 0.741299 0.560784
0.942840 0.712734 0.499428
0.998749 0.743801 0.540246
0.235843 0.826596 0.614527
0.328161 0.828916 0.625238
0.489570 0.817594 0.638911
0.644892 0.806790 0.669276
0.720272 0.791196 0.669764
0.875364 0.866087 0.697353
0.955016 0.861845 0.685573
0.998413 0.837644 0.630121
0.400275 0.908049 0.687861
0.445747 0.906188 0.693355
0.559594 0.899321 0.710079
0.679988 0.890593 0.735409
0.758907 0.882048 0.748074
0.818967 0.878660 0.756008
0.931762 0.928862 0.778988
0.991608 0.929259 0.790890
0.557305 0.970489 0.771878
0.582025 0.968963 0.775937
0.648096 0.963409 0.786709
0.738186 0.955596 0.807736
0.822568 0.947570 0.836240
0.860288 0.943511 0.840085
0.907164 0.951537 0.851072
0.973449 0.973114 0.861173
0.000000 0.051698 0.522698
0.000000 0.070497 0.527703
0.000000 0.141054 0.537926
0.506828 0.000000 0.554803
0.773007 0.000000 0.526513
0.843351 0.000000 0.424048
0.906554 0.334051 0.446326
0.963897 0.586786 0.586328
0.000000 0.106661 0.529992
0.000000 0.119722 0.537102
0.000000 0.190860 0.548669
0.515679 0.068513 0.561151
0.767880 0.000000 0.525475
0.837461 0.087007 0.429999
0.899962 0.383185 0.465858
0.959411 0.605676 0.597436
0.000000 0.197940 0.521141
0.000000 0.230106 0.534874
0.248875 0.308476 0.567895
0.537865 0.340856 0.582269
0.747951 0.253941 0.525994
0.810636 0.327794 0.451972
0.873320 0.500908 0.519402
0.960204 0.622004 0.594018
0.000000 0.464973 0.576043
0.000000 0.471412 0.577935
0.299931 0.494209 0.590600
0.593469 0.557183 0.624567
0.711757 0.537957 0.576379
0.794827 0.552850 0.554070
0.888273 0.589075 0.555200
0.970733 0.664057 0.599634
0.000000 0.693080 0.630213
0.000000 0.695521 0.632837
0.401465 0.700404 0.641993
0.617426 0.701961 0.660639
0.769162 0.740719 0.681270
0.844450 0.693629 0.611109
0.913268 0.691615 0.590082
0.980133 0.731991 0.617334
0.214511 0.818387 0.670405
0.296086 0.815915 0.672236
0.461860 0.806119 0.677546
0.622400 0.796506 0.694392
0.725643 0.788693 0.707851
0.863523 0.852262 0.741787
0.938079 0.841917 0.715023
0.989105 0.823880 0.669429
0.392187 0.906035 0.727840
0.432410 0.903197 0.729763
0.542077 0.895537 0.738674
0.662257 0.887602 0.755459
0.762814 0.881315 0.777615
0.817044 0.871336 0.779355
0.926818 0.923583 0.807706
0.984894 0.921080 0.805173
0.529839 0.967712 0.789731
0.553491 0.965820 0.791867
0.621942 0.960266 0.799557
0.716426 0.956359 0.818509
0.798734 0.949310 0.837095
0.859037 0.943725 0.852049
0.901671 0.944762 0.860899
0.971679 0.971099 0.874846
0.000000 0.067170 0.677729
0.000000 0.083070 0.680201
0.000000 0.144686 0.685206
0.363561 0.222171 0.697841
0.753841 0.000000 0.729854
0.877043 0.000000 0.641627
0.940459 0.137514 0.570611
0.997925 0.425910 0.588251
0.000000 0.111055 0.670893
0.000000 0.124086 0.673182
0.000000 0.184909 0.681209
0.378393 0.278660 0.694545
0.747219 0.000000 0.724056
0.870726 0.000000 0.637690
0.934844 0.209354 0.570581
0.994110 0.444862 0.590356
0.000000 0.244511 0.671382
0.000000 0.261418 0.678706
0.130282 0.298985 0.690700
0.457496 0.421851 0.707729
0.744808 0.313207 0.726650
0.860685 0.257694 0.641718
0.922271 0.368261 0.584649
0.981598 0.537469 0.623011
0.000000 0.401221 0.679438
0.000000 0.401953 0.678035
0.222904 0.405921 0.679438
0.544945 0.534722 0.720516
0.746212 0.560815 0.739559
0.844175 0.510826 0.664637
0.903593 0.534752 0.620569
0.960601 0.668421 0.686519
0.000000 0.644526 0.708797
0.000000 0.647242 0.709895
0.295598 0.655604 0.714107
0.554040 0.672236 0.725277
0.743954 0.715938 0.751431
0.802823 0.687282 0.705135
0.874784 0.687160 0.684138
0.955474 0.734493 0.707424
0.000000 0.811185 0.741024
0.215824 0.812619 0.743832
0.434424 0.811063 0.748348
0.624994 0.810910 0.760159
0.746883 0.807706 0.771847
0.856413 0.842069 0.795682
0.913359 0.804440 0.737972
0.972869 0.811032 0.734340
0.403265 0.910063 0.784085
0.446906 0.908751 0.786679
0.551049 0.902068 0.791318
0.664363 0.894224 0.799741
0.761318 0.887572 0.811337
0.830961 0.881895 0.820615
0.924834 0.920867 0.845884
0.978637 0.911131 0.825406
0.517601 0.969085 0.823270
0.540795 0.967224 0.824430
0.609216 0.961852 0.829068
0.698238 0.956054 0.839170
0.781491 0.950195 0.851743
0.855039 0.945464 0.869230
0.899443 0.940734 0.876402
0.970611 0.969665 0.894926
0.000000 0.075074 0.789548
0.000000 0.090608 0.793179
0.000000 0.145968 0.796811
0.238682 0.265476 0.802823
0.613642 0.234043 0.800717
0.871641 0.000000 0.820249
0.950134 0.000000 0.735256
1.000000 0.282292 0.693721
0.000000 0.107820 0.780667
0.000000 0.122835 0.784146
0.000000 0.176486 0.788479
0.265110 0.288853 0.794430
0.607080 0.281315 0.793027
0.861875 0.000000 0.811398
0.941466 0.000000 0.725734
1.000000 0.289647 0.684718
0.000000 0.234989 0.781827
0.000000 0.240818 0.783444
0.000000 0.273381 0.787839
0.366247 0.379706 0.795377
0.623499 0.436652 0.796841
0.856687 0.284245 0.812467
0.936797 0.259495 0.732601
0.996094 0.423041 0.703090
0.000000 0.300237 0.762753
0.000000 0.318578 0.765103
0.164248 0.395514 0.777981
0.449714 0.481300 0.795621
0.663905 0.616297 0.808286
0.850645 0.512535 0.820432
0.927398 0.477302 0.747341
0.985168 0.558404 0.725216
0.000000 0.568261 0.783841
0.000000 0.565759 0.781521
0.000000 0.559045 0.777279
0.400214 0.544915 0.774380
0.670100 0.656580 0.801541
0.827024 0.673579 0.817685
0.903166 0.628992 0.754452
0.967102 0.672328 0.744808
0.000000 0.773739 0.804288
0.000000 0.773739 0.804318
0.221622 0.773037 0.804746
0.484779 0.772885 0.807523
0.669673 0.775051 0.813169
0.826444 0.811826 0.837247
0.878904 0.782620 0.796048
0.939513 0.803372 0.799954
0.200168 0.903868 0.831388
0.281254 0.903227 0.832547
0.444892 0.898680 0.834165
0.606195 0.893309 0.838956
0.740688 0.889677 0.847379
0.836515 0.888304 0.859098
0.917418 0.910857 0.878569
0.964019 0.881254 0.833433
0.468635 0.968719 0.857267
0.498390 0.967254 0.858274
0.588525 0.964141 0.864195
0.682582 0.958373 0.870512
0.770779 0.952117 0.878447
0.846342 0.947753 0.889433
0.903105 0.945190 0.900084
0.968902 0.967285 0.918181
0.000000 0.071839 0.878904
0.000000 0.085115 0.880125
0.000000 0.132113 0.879393
0.000000 0.234592 0.881224
0.499306 0.395270 0.880522
0.770779 0.231083 0.877287
0.951812 0.000000 0.889189
1.000000 0.000000 0.819760
0.000000 0.097078 0.874296
0.000000 0.110323 0.875639
0.000000 0.157198 0.876036
0.008148 0.255924 0.877317
0.503044 0.425360 0.877256
0.765805 0.277958 0.874205
0.947326 0.000000 0.885801
1.000000 0.091432 0.817624
0.000000 0.195621 0.868803
0.000000 0.200412 0.869749
0.000000 0.228672 0.869627
0.217685 0.328954 0.875395
0.539452 0.482277 0.875456
0.759884 0.414221 0.872129
0.940124 0.261906 0.884489
1.000000 0.294499 0.820401
0.000000 0.289921 0.858335
0.000000 0.310124 0.860716
0.000000 0.351781 0.864897
0.287083 0.409247 0.870603
0.576379 0.548486 0.873960
0.758877 0.579461 0.874388
0.930755 0.466712 0.887785
0.994965 0.475074 0.831205
0.000000 0.444526 0.853239
0.000000 0.439399 0.853391
0.000000 0.410895 0.848814
0.202487 0.454902 0.855467
0.565942 0.582971 0.867460
0.758663 0.716518 0.876646
0.916197 0.630640 0.892332
0.982238 0.620294 0.840452
0.000000 0.703700 0.869932
0.000000 0.700160 0.868650
0.000000 0.688685 0.865293
0.000000 0.665431 0.860563
0.456275 0.625849 0.854734
0.750942 0.746853 0.877562
0.896605 0.790188 0.897856
0.967437 0.753597 0.856321
0.000000 0.885985 0.889525
0.000000 0.884611 0.889128
0.000000 0.880125 0.888396
0.350408 0.873503 0.889036
0.588098 0.865995 0.891051
0.744961 0.855039 0.890501
0.883726 0.878477 0.904295
0.944762 0.856107 0.874968
0.014740 0.980163 0.905486
0.186221 0.978332 0.905089
0.373205 0.972656 0.904784
0.550164 0.964233 0.905943
0.698116 0.955077 0.908476
0.814664 0.948516 0.914153
0.899748 0.946777 0.925017
0.961334 0.958709 0.941314
