其他预设/【240】TEZZA调色预设合集24款/1.LUT预设（视频调色-PR-AE-PS-FCPX-达芬奇用）/Tezza自然__-9.cube
# Created by Adobe Lightroom plugin Export LUT (1.17.0)
# www.johnrellis.com/lightroom/exportlut.htm
# Preset: Tezza自然[素锦印象]-9
# Color profile: /Library/Application Support/Adobe/Color/Profiles/Recommended/AdobeRGB1998.icc
LUT_3D_SIZE 5
DOMAIN_MIN 0.000000 0.000000 0.000000
DOMAIN_MAX 0.903226 0.903226 0.903226
0.030579 0.035340 0.050355
0.576532 0.000000 0.000000
0.919463 0.234806 0.108370
0.964508 0.495583 0.369329
0.966430 0.640864 0.580285
0.000000 0.339757 0.155856
0.420386 0.361608 0.127108
0.835630 0.427161 0.000000
0.948028 0.552331 0.355200
0.959472 0.675929 0.604547
0.000000 0.782925 0.442573
0.000000 0.757168 0.299107
0.811276 0.763058 0.541375
0.886687 0.653956 0.248936
0.944823 0.726772 0.597742
0.169528 0.892973 0.623468
0.477455 0.875181 0.640558
0.519402 0.864500 0.453498
0.867948 0.851225 0.757595
0.915740 0.814786 0.686488
0.546868 0.930388 0.748196
0.645838 0.919646 0.771511
0.699062 0.909819 0.756283
0.796872 0.903166 0.764889
0.895262 0.894591 0.859220
0.013794 0.096468 0.170260
0.649409 0.000000 0.369177
0.892699 0.421668 0.393378
0.939788 0.580652 0.519921
0.952300 0.683925 0.651362
0.000000 0.373083 0.286656
0.455024 0.395789 0.285313
0.830716 0.487190 0.294408
0.929015 0.603082 0.488991
0.948089 0.701289 0.655085
0.000000 0.777584 0.505394
0.276097 0.752010 0.432227
0.793362 0.750820 0.580194
0.870481 0.642969 0.292699
0.936950 0.741573 0.644831
0.322728 0.887175 0.653803
0.534325 0.870176 0.671565
0.555779 0.858824 0.514916
0.865171 0.851560 0.773861
0.912963 0.815518 0.697353
0.552056 0.929747 0.756130
0.648035 0.919280 0.777646
0.728481 0.908629 0.783963
0.801450 0.903288 0.778958
0.895171 0.895598 0.864042
0.109834 0.353124 0.556786
0.509361 0.513481 0.551080
0.869017 0.685451 0.765103
0.906279 0.750973 0.768551
0.925261 0.781704 0.789792
0.218936 0.473304 0.594842
0.606317 0.608850 0.610224
0.848112 0.732357 0.753414
0.900023 0.745663 0.746242
0.924376 0.783719 0.785153
0.303929 0.793179 0.678035
0.566400 0.770779 0.673426
0.781186 0.758389 0.686702
0.870542 0.715419 0.607630
0.920409 0.789090 0.760372
0.471351 0.880522 0.726162
0.599542 0.865385 0.734615
0.655512 0.848356 0.666835
0.859831 0.853117 0.801999
0.907958 0.813107 0.716518
0.587091 0.925261 0.784848
0.658137 0.917906 0.798795
0.768795 0.903563 0.826566
0.793484 0.901610 0.791775
0.893584 0.895689 0.869963
0.550286 0.645472 0.779629
0.685878 0.721584 0.776699
0.811460 0.653529 0.842069
0.895262 0.816556 0.856413
0.906126 0.863981 0.877714
0.573236 0.664149 0.780758
0.692042 0.729824 0.782254
0.816373 0.705592 0.836393
0.890257 0.838743 0.863127
0.906065 0.859953 0.872679
0.530449 0.759884 0.790402
0.648127 0.766567 0.789273
0.806058 0.798306 0.812131
0.875151 0.829038 0.834012
0.905211 0.852232 0.858793
0.616358 0.877592 0.813291
0.680446 0.869718 0.814542
0.775448 0.854398 0.816892
0.852354 0.852354 0.827146
0.901366 0.837736 0.811704
0.651270 0.919982 0.830289
0.695491 0.914946 0.836545
0.779385 0.904692 0.851377
0.807828 0.899535 0.836942
0.892332 0.897154 0.879881
0.729305 0.788876 0.865995
0.768063 0.811460 0.864012
0.840726 0.858701 0.863706
0.890929 0.779904 0.894011
0.905821 0.866178 0.892454
0.726833 0.788968 0.865904
0.764645 0.810575 0.864775
0.843381 0.861173 0.865293
0.887968 0.797543 0.892424
0.904540 0.872007 0.894194
0.618311 0.765286 0.869413
0.674617 0.773526 0.866789
0.823545 0.849485 0.868864
0.880034 0.837675 0.890593
0.901640 0.886748 0.899413
0.636591 0.861723 0.877684
0.685359 0.861357 0.876768
0.780728 0.861448 0.875181
0.861326 0.875914 0.882231
0.898741 0.894987 0.900420
0.673732 0.920409 0.875303
0.710170 0.916503 0.876646
0.793515 0.907836 0.882292
0.851896 0.900816 0.888243
0.890043 0.899351 0.894408
