其他预设/【240】TEZZA调色预设合集24款/1.LUT预设（视频调色-PR-AE-PS-FCPX-达芬奇用）/Tezza万事达-Tezza01.cube
# Created by Adobe Lightroom plugin Export LUT (1.17.0)
# www.johnrellis.com/lightroom/exportlut.htm
# Preset: Tezza万事达-Tezza01
# Color profile: /Library/Application Support/Adobe/Color/Profiles/Recommended/AdobeRGB1998.icc
LUT_3D_SIZE 5
DOMAIN_MIN 0.000000 0.000000 0.000000
DOMAIN_MAX 0.903226 0.903226 0.903226
0.030579 0.035340 0.050355
0.272618 0.042756 0.059327
0.714199 0.124483 0.000000
0.864500 0.404547 0.061402
0.942382 0.585290 0.346380
0.000000 0.245853 0.111849
0.201572 0.215030 0.161685
0.665003 0.303990 0.000000
0.847959 0.462470 0.083406
0.938506 0.619562 0.381018
0.000000 0.712062 0.354559
0.452979 0.688808 0.400427
0.647578 0.622553 0.494942
0.809323 0.605890 0.198276
0.919890 0.687617 0.425879
0.498054 0.840024 0.601953
0.629358 0.828397 0.650172
0.744778 0.812528 0.701015
0.775845 0.776944 0.712734
0.880949 0.797330 0.649195
0.678157 0.900725 0.754177
0.723354 0.895354 0.774105
0.791989 0.884733 0.803586
0.838865 0.877562 0.825132
0.860868 0.870115 0.841489
0.044007 0.081544 0.128420
0.339361 0.000000 0.174929
0.713191 0.216617 0.169741
0.847501 0.426246 0.212284
0.932494 0.592981 0.402319
0.000000 0.283940 0.240818
0.295171 0.298802 0.262974
0.677455 0.356390 0.182101
0.835782 0.477272 0.218936
0.927947 0.619104 0.419226
0.075013 0.709438 0.434668
0.504112 0.690669 0.481697
0.646174 0.624994 0.530419
0.798276 0.596796 0.244785
0.913787 0.691188 0.469520
0.525200 0.837736 0.631830
0.643977 0.827207 0.673365
0.750057 0.813565 0.718379
0.776608 0.779232 0.724025
0.879667 0.796414 0.655085
0.673365 0.901366 0.758572
0.719570 0.895872 0.777218
0.798367 0.887114 0.814176
0.841825 0.879576 0.831968
0.862333 0.871916 0.845762
0.000000 0.189456 0.339178
0.232059 0.261692 0.274693
0.766537 0.394354 0.502007
0.844694 0.527428 0.490578
0.916564 0.650752 0.582391
0.036744 0.337804 0.478798
0.409155 0.433509 0.465034
0.744442 0.519158 0.536126
0.833371 0.561578 0.490791
0.914366 0.665858 0.586236
0.183169 0.728298 0.626581
0.527428 0.720974 0.630518
0.698390 0.686152 0.634913
0.802945 0.640742 0.482887
0.904387 0.712734 0.596948
0.534051 0.839322 0.696010
0.640101 0.828214 0.713832
0.757992 0.818479 0.753536
0.783902 0.790524 0.756191
0.880400 0.790555 0.662379
0.664027 0.901854 0.777829
0.706722 0.897704 0.790249
0.792752 0.889097 0.823087
0.843839 0.881895 0.842741
0.862058 0.872343 0.850858
0.136019 0.360510 0.557824
0.307500 0.397742 0.517540
0.671229 0.538689 0.672267
0.845151 0.659419 0.705684
0.896727 0.742367 0.753353
0.299779 0.470253 0.634150
0.433417 0.504448 0.604700
0.692500 0.611994 0.693996
0.836515 0.683680 0.713466
0.894560 0.744808 0.749538
0.371771 0.669886 0.716213
0.531884 0.682918 0.721096
0.730343 0.739528 0.739590
0.812345 0.727718 0.719234
0.890806 0.760494 0.743954
0.549126 0.840482 0.781888
0.635248 0.837034 0.786343
0.758633 0.831174 0.796292
0.800687 0.808774 0.787900
0.883513 0.794095 0.730831
0.655360 0.905272 0.817594
0.694972 0.901305 0.822690
0.777981 0.893584 0.838437
0.844114 0.887999 0.858549
0.864988 0.876555 0.863188
0.387518 0.547234 0.727016
0.454170 0.559747 0.706081
0.595422 0.599939 0.608545
0.832792 0.732692 0.822843
0.895323 0.786770 0.822629
0.436927 0.582238 0.747311
0.490303 0.592096 0.730037
0.612268 0.624475 0.648859
0.830198 0.744961 0.823941
0.893126 0.792782 0.824949
0.341833 0.631891 0.793210
0.443885 0.630945 0.788846
0.666529 0.702296 0.754726
0.823667 0.783566 0.832853
0.888029 0.813107 0.834806
0.485817 0.805814 0.835996
0.556298 0.804349 0.834684
0.693141 0.806516 0.834867
0.803799 0.822080 0.825193
0.880858 0.844236 0.851530
0.606470 0.907408 0.863890
0.647425 0.903899 0.864134
0.742367 0.897856 0.868254
0.833433 0.892973 0.877440
0.871519 0.883848 0.878904
