其他预设/【240】TEZZA调色预设合集24款/1.LUT预设（视频调色-PR-AE-PS-FCPX-达芬奇用）/Tezza自然__-7.cube
# Created by Adobe Lightroom plugin Export LUT (1.17.0)
# www.johnrellis.com/lightroom/exportlut.htm
# Preset: Tezza自然[素锦印象]-7
# Color profile: /Library/Application Support/Adobe/Color/Profiles/Recommended/AdobeRGB1998.icc
LUT_3D_SIZE 5
DOMAIN_MIN 0.000000 0.000000 0.000000
DOMAIN_MAX 0.903226 0.903226 0.903226
0.000000 0.000000 0.000000
0.245335 0.000000 0.019348
0.625086 0.000000 0.000000
0.814267 0.000000 0.107362
0.924712 0.161044 0.320287
0.153140 0.217624 0.183932
0.224399 0.252384 0.098787
0.578607 0.106203 0.000000
0.796994 0.000000 0.106325
0.923369 0.360449 0.356512
0.521263 0.588006 0.537926
0.513512 0.562615 0.524285
0.593500 0.600671 0.355047
0.752377 0.527825 0.091646
0.896574 0.568200 0.377203
0.702998 0.748013 0.737484
0.704646 0.745113 0.737942
0.682856 0.715358 0.710079
0.725338 0.737758 0.589044
0.877836 0.752590 0.520317
0.796170 0.835355 0.836088
0.797208 0.835050 0.836759
0.791257 0.826352 0.830228
0.786191 0.831693 0.825254
0.845762 0.865141 0.786770
0.000000 0.077363 0.138003
0.237858 0.000000 0.222660
0.604303 0.000000 0.076081
0.783322 0.000000 0.082460
0.909178 0.090150 0.280522
0.107027 0.253086 0.230900
0.266117 0.256748 0.247135
0.582757 0.110933 0.116976
0.770565 0.146822 0.078370
0.903624 0.302251 0.296574
0.527794 0.594934 0.544274
0.534325 0.578119 0.543786
0.578790 0.576440 0.390845
0.731899 0.502220 0.124392
0.889097 0.556603 0.353460
0.705379 0.750576 0.740169
0.707820 0.748287 0.741451
0.689357 0.720089 0.716915
0.723507 0.733639 0.600977
0.874876 0.747189 0.508385
0.796201 0.835599 0.836118
0.797208 0.835264 0.836790
0.802274 0.835752 0.840543
0.794827 0.835233 0.833768
0.846433 0.865263 0.789822
0.000000 0.190219 0.409644
0.102388 0.214450 0.457130
0.633295 0.239200 0.589288
0.797787 0.000000 0.454353
0.910277 0.000000 0.312291
0.000000 0.294163 0.426246
0.225681 0.332921 0.477058
0.634821 0.408972 0.599969
0.784390 0.217655 0.434913
0.906554 0.263737 0.330816
0.434363 0.613977 0.578943
0.485939 0.608270 0.581720
0.605432 0.586664 0.573999
0.749691 0.492409 0.420935
0.889494 0.522850 0.392096
0.715694 0.762905 0.752071
0.714900 0.757656 0.749813
0.715267 0.743587 0.745815
0.730251 0.734218 0.653864
0.867826 0.718349 0.497383
0.795499 0.835630 0.835477
0.798184 0.836820 0.837705
0.804471 0.838499 0.842679
0.799710 0.830503 0.837400
0.843992 0.861845 0.794858
0.000000 0.372015 0.632898
0.196078 0.385840 0.652399
0.562158 0.532738 0.703822
0.763607 0.546014 0.759030
0.874632 0.511620 0.711910
0.151766 0.438514 0.630274
0.275761 0.450599 0.649928
0.569207 0.559014 0.702022
0.757931 0.582757 0.756161
0.869413 0.527092 0.704768
0.291386 0.584222 0.645106
0.322454 0.565484 0.638331
0.565515 0.605188 0.686488
0.748165 0.664057 0.754391
0.864347 0.576562 0.684718
0.641535 0.753994 0.747311
0.649592 0.750881 0.745968
0.683986 0.748440 0.750546
0.730892 0.730709 0.737636
0.863432 0.676570 0.644007
0.794766 0.839933 0.838193
0.799863 0.841703 0.841337
0.813260 0.846891 0.850675
0.820340 0.847410 0.855833
0.846342 0.860044 0.813779
0.414160 0.581659 0.783688
0.457221 0.585107 0.787259
0.584100 0.619104 0.800015
0.718593 0.685573 0.817136
0.836484 0.678645 0.844877
0.420539 0.597650 0.779568
0.462776 0.600458 0.783566
0.579095 0.624323 0.798154
0.719814 0.696712 0.816129
0.834989 0.688655 0.844327
0.375128 0.637690 0.772854
0.424170 0.637476 0.775051
0.575372 0.656519 0.790494
0.723934 0.726070 0.817472
0.834897 0.727687 0.847929
0.610773 0.776883 0.813687
0.607507 0.770352 0.810727
0.597467 0.744381 0.802487
0.701045 0.742153 0.817044
0.841550 0.795529 0.860899
0.754269 0.847715 0.847410
0.757504 0.848142 0.848356
0.770626 0.850126 0.852293
0.798856 0.854704 0.861234
0.847074 0.857267 0.868681
