其他预设/【240】TEZZA调色预设合集24款/1.LUT预设（视频调色-PR-AE-PS-FCPX-达芬奇用）/Tezza万事达-Tezza01.cube
# Created by Adobe Lightroom plugin Export LUT (1.17.0)
# www.johnrellis.com/lightroom/exportlut.htm
# Preset: Tezza万事达-Tezza01
# Color profile: /Library/Application Support/Adobe/Color/Profiles/Recommended/AdobeRGB1998.icc
LUT_3D_SIZE 8
DOMAIN_MIN 0.000000 0.000000 0.000000
DOMAIN_MAX 0.903226 0.903226 0.903226
0.030579 0.035340 0.050355
0.109529 0.064515 0.064881
0.344854 0.000000 0.047456
0.611963 0.000000 0.000000
0.775875 0.228763 0.000000
0.849699 0.373693 0.000000
0.903258 0.485603 0.176486
0.942382 0.585290 0.346380
0.037751 0.095277 0.077333
0.086458 0.092226 0.089815
0.309270 0.127199 0.056794
0.588647 0.126894 0.000000
0.752377 0.254765 0.000000
0.835721 0.378882 0.000000
0.894560 0.485817 0.162600
0.938659 0.585931 0.336919
0.000000 0.315862 0.127871
0.097139 0.316747 0.137331
0.263951 0.272374 0.197513
0.555169 0.319982 0.005158
0.723293 0.372930 0.000000
0.823514 0.456275 0.015106
0.892393 0.544732 0.208865
0.936126 0.625605 0.382422
0.000000 0.623926 0.263706
0.149203 0.622095 0.283970
0.471382 0.597253 0.344121
0.572381 0.544305 0.407843
0.717708 0.552483 0.217868
0.805051 0.553033 0.105867
0.877714 0.605798 0.243687
0.926513 0.666499 0.413428
0.199863 0.766262 0.435492
0.343328 0.759731 0.452125
0.549035 0.742611 0.494575
0.666041 0.718471 0.542138
0.695796 0.677394 0.563073
0.779446 0.673243 0.421057
0.851774 0.667628 0.308415
0.913054 0.710964 0.441932
0.446937 0.826108 0.567132
0.517235 0.824094 0.589593
0.631220 0.812802 0.630121
0.708309 0.801755 0.662745
0.747280 0.781460 0.675502
0.761959 0.760098 0.687892
0.824887 0.769467 0.626459
0.889738 0.779690 0.596765
0.591516 0.869505 0.675715
0.622675 0.866880 0.688228
0.690242 0.858610 0.718379
0.739651 0.852293 0.737301
0.781582 0.845457 0.756344
0.802762 0.831754 0.760922
0.814694 0.820798 0.771786
0.861753 0.834928 0.753964
0.678157 0.900725 0.754177
0.693416 0.898863 0.760586
0.735714 0.893980 0.780301
0.782712 0.889342 0.804623
0.807828 0.882811 0.810483
0.834379 0.878965 0.823453
0.850370 0.873533 0.830655
0.860868 0.870115 0.841489
0.048463 0.062318 0.081849
0.117281 0.060060 0.092653
0.343481 0.042329 0.092378
0.607385 0.080171 0.075990
0.756313 0.239506 0.049287
0.834165 0.366918 0.092470
0.892058 0.477089 0.192996
0.936309 0.578027 0.345983
0.021271 0.102419 0.106874
0.104707 0.114137 0.117006
0.324102 0.149081 0.102724
0.590967 0.169924 0.079744
0.742763 0.272068 0.050538
0.826230 0.381842 0.089021
0.885252 0.480537 0.184634
0.932403 0.577844 0.335180
0.000000 0.319951 0.167086
0.141543 0.329503 0.186587
0.290227 0.296635 0.237858
0.549828 0.324804 0.097932
0.712306 0.372656 0.065766
0.812680 0.450019 0.104341
0.879576 0.529473 0.210300
0.929473 0.614099 0.370642
0.000000 0.608789 0.291875
0.201511 0.609583 0.315312
0.477333 0.589410 0.369360
0.554681 0.528191 0.408881
0.694179 0.528466 0.222721
0.787381 0.532708 0.125246
0.864134 0.587823 0.233555
0.920043 0.654749 0.397650
0.253239 0.761471 0.457496
0.368536 0.754482 0.470192
0.553368 0.737209 0.506218
0.659785 0.710109 0.542351
0.686122 0.667048 0.557671
0.771603 0.663844 0.415381
0.844511 0.658045 0.300877
0.908537 0.704433 0.435492
0.453132 0.821225 0.572351
0.509270 0.816922 0.585901
0.625879 0.806119 0.626703
0.703944 0.796384 0.659602
0.744503 0.777981 0.674800
0.760250 0.758572 0.689021
0.822354 0.766537 0.624201
0.887297 0.774777 0.587884
0.582330 0.865660 0.671077
0.610040 0.862089 0.679896
0.681941 0.854246 0.711452
0.735897 0.848905 0.734157
0.779446 0.843198 0.754971
0.800229 0.829160 0.758816
0.810849 0.816739 0.767514
0.858213 0.830106 0.746426
0.671321 0.899535 0.750942
0.688045 0.897826 0.758114
0.731594 0.893034 0.778042
0.781369 0.888334 0.804227
0.811429 0.884459 0.815793
0.835782 0.879820 0.826261
0.849912 0.873136 0.830716
0.859586 0.868833 0.840116
0.031983 0.091188 0.153201
0.094972 0.111116 0.130434
0.443214 0.000000 0.216434
0.663020 0.159609 0.215335
0.773953 0.310918 0.214328
0.836576 0.424414 0.245274
0.890898 0.517418 0.316411
0.932280 0.606012 0.437171
0.011658 0.133761 0.207187
0.136385 0.169619 0.200107
0.430152 0.183810 0.240665
0.642420 0.237644 0.218723
0.759548 0.339300 0.213809
0.829526 0.434363 0.240085
0.885985 0.520836 0.309117
0.929931 0.608576 0.432898
0.000000 0.367681 0.300694
0.140597 0.386511 0.301854
0.393072 0.381292 0.329717
0.604486 0.387121 0.233127
0.736873 0.432044 0.224613
0.817655 0.489204 0.247166
0.878141 0.556207 0.319402
0.924987 0.632105 0.445441
0.000000 0.637263 0.405097
0.241611 0.637781 0.418372
0.534478 0.620325 0.469459
0.596551 0.573754 0.490669
0.709499 0.553552 0.304814
0.795743 0.560204 0.255497
0.865354 0.609339 0.337438
0.917296 0.671168 0.470558
0.275578 0.764828 0.514092
0.404242 0.758694 0.528191
0.592523 0.744442 0.571527
0.681605 0.724910 0.601984
0.701839 0.688991 0.608118
0.774350 0.674281 0.464363
0.844388 0.662257 0.346563
0.905913 0.713313 0.491524
0.474708 0.821805 0.605737
0.533288 0.817227 0.619409
0.647822 0.806363 0.660609
0.713252 0.797665 0.684596
0.748775 0.780667 0.695155
0.761166 0.761471 0.703395
0.820890 0.767208 0.636683
0.887236 0.776455 0.602899
0.595850 0.866606 0.692042
0.623743 0.863340 0.700832
0.687922 0.855650 0.725521
0.740841 0.849729 0.746639
0.782010 0.843992 0.764401
0.802701 0.831296 0.768460
0.813962 0.820890 0.777646
0.861448 0.834836 0.757900
0.667323 0.900511 0.756680
0.681483 0.898589 0.761471
0.725887 0.893400 0.779599
0.782498 0.888579 0.809445
0.812406 0.884825 0.820279
0.837552 0.880888 0.831357
0.851377 0.874510 0.835386
0.861143 0.870726 0.844541
0.000000 0.147494 0.269596
0.099855 0.170016 0.251499
0.339300 0.207218 0.365240
0.711910 0.265232 0.414679
0.786618 0.392218 0.404669
0.834775 0.468879 0.396460
0.881621 0.548852 0.440009
0.922545 0.628016 0.524376
0.047028 0.213596 0.343389
0.155825 0.237278 0.323857
0.412116 0.277317 0.411536
0.705745 0.342901 0.431128
0.779477 0.421363 0.405402
0.829679 0.482765 0.395972
0.878325 0.554894 0.437751
0.921294 0.631067 0.522484
0.000000 0.368750 0.428656
0.188602 0.398596 0.442695
0.528771 0.483406 0.490822
0.669764 0.480751 0.447517
0.758145 0.498695 0.409522
0.819577 0.539147 0.412146
0.875364 0.597742 0.462959
0.919066 0.658564 0.542718
0.000000 0.658900 0.549187
0.242313 0.662837 0.552056
0.564508 0.654322 0.565301
0.643610 0.622309 0.560998
0.721279 0.575067 0.405188
0.797818 0.592035 0.407172
0.860960 0.631495 0.456764
0.911742 0.688350 0.552880
0.316930 0.774716 0.602960
0.423102 0.767849 0.606104
0.610559 0.753872 0.632868
0.705409 0.742214 0.667567
0.719844 0.713558 0.659144
0.777646 0.685512 0.521782
0.844907 0.680232 0.461250
0.902220 0.726345 0.567529
0.499184 0.826963 0.657954
0.556603 0.824674 0.670619
0.659907 0.813901 0.697200
0.729885 0.806699 0.723537
0.762051 0.793057 0.731533
0.769070 0.773129 0.731533
0.822965 0.772335 0.660945
0.888426 0.775998 0.617273
0.601038 0.868193 0.717708
0.628992 0.865721 0.725521
0.692287 0.859678 0.746242
0.751431 0.854765 0.770596
0.789822 0.849638 0.784268
0.809537 0.837888 0.786923
0.817655 0.825956 0.790829
0.863676 0.837217 0.766262
0.670558 0.902281 0.772885
0.684962 0.900847 0.777462
0.722377 0.896574 0.789609
0.774258 0.890867 0.811124
0.813718 0.886351 0.828000
0.840208 0.882963 0.839445
0.853330 0.876555 0.842039
0.862791 0.872923 0.850187
0.000000 0.234501 0.406409
0.116396 0.252445 0.390723
0.294682 0.318181 0.327367
0.690425 0.399390 0.590753
0.796475 0.495216 0.572747
0.831876 0.565637 0.578668
0.872740 0.612665 0.586267
0.909972 0.677699 0.640162
0.110445 0.296971 0.460822
0.187320 0.312596 0.446052
0.351385 0.370733 0.383612
0.699641 0.455421 0.600397
0.791012 0.521386 0.579461
0.828763 0.575402 0.578424
0.871000 0.619074 0.586938
0.909300 0.680781 0.640131
0.148379 0.413062 0.554009
0.278935 0.435401 0.562188
0.492897 0.508995 0.535668
0.712123 0.576410 0.623560
0.773434 0.590570 0.601282
0.816678 0.598993 0.570520
0.864134 0.634668 0.582940
0.906584 0.687770 0.635035
0.203189 0.615625 0.616266
0.330114 0.623804 0.621027
0.562676 0.655543 0.644160
0.691798 0.668055 0.640223
0.748623 0.643641 0.591333
0.800717 0.639918 0.565637
0.855558 0.663447 0.580926
0.904417 0.705501 0.633295
0.351141 0.772671 0.684688
0.438209 0.771939 0.687800
0.607660 0.762753 0.691676
0.718990 0.756100 0.713954
0.734005 0.730770 0.692256
0.777707 0.680995 0.553887
0.842069 0.695064 0.567376
0.897276 0.734768 0.635431
0.498390 0.826932 0.706447
0.544579 0.823148 0.709560
0.646204 0.813199 0.721340
0.729366 0.807401 0.744350
0.766293 0.798428 0.753414
0.774563 0.780087 0.747189
0.824033 0.769924 0.671534
0.888121 0.774685 0.647639
0.601282 0.869383 0.748226
0.625360 0.866728 0.751980
0.684993 0.860533 0.764126
0.744839 0.855741 0.781460
0.788876 0.852232 0.796750
0.813291 0.842466 0.802029
0.819181 0.828824 0.801633
0.864958 0.835325 0.767605
0.661402 0.902464 0.787106
0.675074 0.900877 0.790097
0.712459 0.896696 0.798978
0.762997 0.892882 0.815854
0.810605 0.888060 0.835294
0.839231 0.884489 0.845151
0.854276 0.878172 0.848295
0.862913 0.873564 0.854185
0.107973 0.339574 0.535454
0.187869 0.353826 0.525048
0.340307 0.395789 0.475776
0.523278 0.484871 0.558312
0.797513 0.597864 0.700160
0.837186 0.636530 0.685389
0.868070 0.682033 0.701778
0.899290 0.733120 0.737453
0.193820 0.383673 0.563439
0.245945 0.392981 0.551324
0.375891 0.427253 0.504387
0.539544 0.508446 0.567590
0.796353 0.615320 0.701228
0.833280 0.644404 0.686702
0.865141 0.688319 0.704768
0.898497 0.733700 0.735897
0.284581 0.473976 0.640986
0.369512 0.499886 0.636805
0.496101 0.538659 0.606958
0.604211 0.594263 0.613855
0.788663 0.669245 0.716426
0.824704 0.676967 0.699672
0.859586 0.705806 0.711086
0.897032 0.740169 0.735470
0.335546 0.611841 0.689570
0.404639 0.617304 0.690608
0.563500 0.642847 0.699733
0.686885 0.693843 0.691005
0.780545 0.725124 0.737453
0.813413 0.717983 0.716457
0.854490 0.724849 0.711604
0.895628 0.752285 0.735622
0.415717 0.741329 0.729549
0.472114 0.743130 0.731472
0.602991 0.751247 0.739254
0.717281 0.770291 0.757839
0.757626 0.754665 0.735805
0.792721 0.732357 0.696681
0.843046 0.737148 0.695521
0.891966 0.761044 0.723476
0.518364 0.827268 0.763363
0.558618 0.826749 0.766262
0.649439 0.824674 0.773190
0.727871 0.819547 0.777951
0.781949 0.816312 0.790341
0.788357 0.795010 0.771359
0.828000 0.761410 0.678279
0.886992 0.785580 0.718288
0.609155 0.873411 0.788968
0.632258 0.871702 0.791348
0.686152 0.866453 0.796475
0.742794 0.861723 0.804685
0.794919 0.858610 0.819181
0.822385 0.852934 0.825406
0.826322 0.837003 0.817136
0.870909 0.835721 0.774777
0.657557 0.904723 0.811215
0.670466 0.903258 0.812863
0.706691 0.899260 0.818173
0.754391 0.894743 0.827939
0.801358 0.890379 0.840848
0.836667 0.887419 0.852842
0.857115 0.882048 0.858396
0.864683 0.876036 0.861418
0.244022 0.443488 0.637812
0.289677 0.453956 0.631250
0.396735 0.477485 0.595514
0.516045 0.518242 0.520256
0.711788 0.617884 0.725917
0.846860 0.703822 0.772305
0.869627 0.720089 0.761807
0.895781 0.759640 0.784115
0.278386 0.462654 0.646632
0.317266 0.471260 0.640009
0.413733 0.491768 0.606561
0.523491 0.527367 0.534539
0.708553 0.621790 0.721706
0.841764 0.702144 0.767605
0.865721 0.717006 0.756954
0.893980 0.757504 0.781033
0.371069 0.534966 0.700374
0.428992 0.553277 0.696590
0.496132 0.565698 0.669184
0.578515 0.588830 0.610651
0.717006 0.667109 0.731350
0.837461 0.725582 0.775418
0.863066 0.735561 0.766323
0.892454 0.770474 0.789334
0.372839 0.604028 0.743496
0.416815 0.606287 0.742061
0.543206 0.631067 0.737514
0.651972 0.676478 0.713039
0.729366 0.722438 0.746273
0.833005 0.758511 0.789059
0.859037 0.760983 0.779507
0.888701 0.789639 0.801389
0.430335 0.713466 0.766262
0.466529 0.713680 0.765225
0.565545 0.718502 0.764706
0.672023 0.733120 0.768765
0.744442 0.758389 0.757656
0.821561 0.783078 0.795712
0.849546 0.781125 0.785489
0.885985 0.796567 0.797177
0.503807 0.805905 0.795224
0.534600 0.805875 0.795743
0.616388 0.806729 0.798062
0.699947 0.812131 0.804685
0.771145 0.824033 0.817777
0.806638 0.810544 0.800961
0.838651 0.796994 0.778531
0.882933 0.808835 0.791989
0.595148 0.871000 0.821897
0.616663 0.870298 0.823239
0.669947 0.868284 0.826474
0.729519 0.868223 0.832761
0.786038 0.863951 0.836606
0.829709 0.861326 0.846006
0.834043 0.844755 0.831235
0.875853 0.826566 0.777523
0.642359 0.906645 0.837095
0.655970 0.905364 0.837949
0.696681 0.902434 0.842008
0.745541 0.898009 0.847074
0.794553 0.893400 0.854246
0.836454 0.890471 0.864561
0.861601 0.888273 0.872129
0.867857 0.879698 0.869322
0.387518 0.547234 0.727016
0.412207 0.552972 0.722499
0.472267 0.563439 0.698116
0.555261 0.586175 0.649195
0.637659 0.636774 0.665278
0.805814 0.715419 0.814023
0.881102 0.772732 0.826596
0.895323 0.786770 0.822629
0.397772 0.554406 0.730495
0.420966 0.559655 0.726192
0.479347 0.570459 0.703792
0.557458 0.590204 0.655909
0.637568 0.637995 0.661036
0.803769 0.717556 0.812619
0.879973 0.774777 0.826871
0.894316 0.787045 0.822110
0.445930 0.590448 0.752621
0.465034 0.594659 0.748562
0.510369 0.601160 0.728908
0.584222 0.622980 0.694728
0.651545 0.654780 0.658839
0.801511 0.732204 0.813687
0.877317 0.785000 0.830564
0.892332 0.794125 0.825254
0.332738 0.583734 0.783627
0.395422 0.598413 0.781338
0.534813 0.640742 0.770108
0.623377 0.671565 0.746822
0.678553 0.688350 0.695094
0.794339 0.757565 0.813138
0.873686 0.801694 0.837522
0.889830 0.806638 0.831693
0.373327 0.685512 0.803037
0.409766 0.686610 0.803037
0.495918 0.685908 0.799557
0.596124 0.687037 0.794491
0.708400 0.736629 0.770138
0.778195 0.780728 0.803983
0.868284 0.818997 0.844572
0.886229 0.820981 0.838895
0.452827 0.781796 0.826963
0.477394 0.781003 0.826139
0.549432 0.779629 0.824338
0.637324 0.780453 0.823117
0.715175 0.784878 0.824094
0.786313 0.806455 0.814450
0.862852 0.841123 0.855009
0.882811 0.839384 0.849058
0.548241 0.861967 0.854276
0.566430 0.861021 0.853941
0.618280 0.858518 0.853147
0.681605 0.856413 0.853086
0.744167 0.855741 0.854307
0.806149 0.858488 0.859129
0.851591 0.860624 0.861906
0.875822 0.851774 0.849180
0.606470 0.907408 0.863890
0.619471 0.906188 0.863828
0.659327 0.903014 0.864378
0.713130 0.899565 0.866484
0.771145 0.896269 0.870665
0.822629 0.893767 0.876249
0.861509 0.891722 0.882933
0.871519 0.883848 0.878904
