其他预设/【240】TEZZA调色预设合集24款/1.LUT预设（视频调色-PR-AE-PS-FCPX-达芬奇用）/Tezza古董__-2.cube
# Created by Adobe Lightroom plugin Export LUT (1.17.0)
# www.johnrellis.com/lightroom/exportlut.htm
# Preset: Tezza古董[素锦印象]-2
# Color profile: /Library/Application Support/Adobe/Color/Profiles/Recommended/AdobeRGB1998.icc
LUT_3D_SIZE 8
DOMAIN_MIN 0.000000 0.000000 0.000000
DOMAIN_MAX 0.903226 0.903226 0.903226
0.104891 0.063813 0.072328
0.157900 0.044739 0.072847
0.382971 0.000000 0.057801
0.674952 0.000000 0.000000
0.831052 0.000000 0.000000
0.943969 0.000000 0.000000
1.000000 0.000000 0.000000
1.000000 0.207584 0.000000
0.115877 0.092744 0.086580
0.142031 0.090761 0.081422
0.293400 0.039216 0.068635
0.587945 0.000000 0.000000
0.789395 0.000000 0.000000
0.915587 0.000000 0.000000
0.995819 0.000000 0.000000
1.000000 0.236851 0.000000
0.136141 0.238163 0.147768
0.179477 0.239261 0.144686
0.280491 0.221439 0.102388
0.454231 0.188663 0.018341
0.714961 0.208499 0.000000
0.881865 0.248234 0.000000
0.987945 0.326085 0.000000
1.000000 0.400916 0.045289
0.169345 0.493782 0.280064
0.224674 0.489601 0.273320
0.318120 0.468208 0.226261
0.555810 0.512230 0.178714
0.725338 0.466194 0.000000
0.820829 0.424720 0.000000
0.947539 0.474006 0.000000
1.000000 0.528161 0.142702
0.321996 0.704646 0.455940
0.363134 0.699489 0.452735
0.481666 0.686336 0.453162
0.513298 0.642176 0.369146
0.701015 0.664942 0.315312
0.815091 0.610773 0.200290
0.890532 0.576471 0.092592
0.984924 0.624659 0.208438
0.501457 0.799802 0.585077
0.542077 0.805661 0.599237
0.603143 0.796628 0.600397
0.643397 0.779416 0.572595
0.662928 0.745754 0.506584
0.798550 0.768093 0.481544
0.893706 0.751919 0.430823
0.963073 0.748043 0.379675
0.645502 0.874144 0.699550
0.660273 0.874296 0.702754
0.691585 0.867552 0.700801
0.737209 0.859098 0.700496
0.736355 0.839719 0.652125
0.776761 0.829038 0.623896
0.872068 0.846830 0.611170
0.944427 0.844541 0.591028
0.741695 0.931975 0.788022
0.748348 0.931029 0.788113
0.771786 0.929046 0.790555
0.809232 0.928069 0.797726
0.820615 0.912963 0.774990
0.829465 0.905333 0.747524
0.877195 0.911315 0.742672
0.942809 0.921508 0.730220
0.107607 0.074250 0.097353
0.129244 0.079500 0.088563
0.333684 0.000000 0.071138
0.586999 0.000000 0.000000
0.786954 0.000000 0.000000
0.909087 0.000000 0.000000
0.991333 0.000000 0.000000
1.000000 0.171481 0.000000
0.111025 0.106569 0.110811
0.153658 0.099855 0.104311
0.295720 0.073396 0.085115
0.531884 0.000000 0.000000
0.756832 0.000000 0.000000
0.889952 0.000000 0.000000
0.975067 0.000000 0.000000
1.000000 0.200961 0.000000
0.144961 0.234806 0.167880
0.194919 0.241245 0.170413
0.291295 0.232120 0.138277
0.447517 0.193362 0.074464
0.675471 0.207065 0.000000
0.850614 0.238346 0.000000
0.958618 0.286351 0.000000
1.000000 0.361334 0.000000
0.183383 0.476051 0.292119
0.240146 0.481117 0.292973
0.333593 0.468055 0.254276
0.515801 0.469642 0.199954
0.669947 0.416541 0.073518
0.766812 0.375311 0.000000
0.913359 0.426337 0.000000
1.000000 0.488075 0.071046
0.332647 0.697505 0.466011
0.367376 0.690425 0.460060
0.473335 0.674006 0.453468
0.500999 0.622797 0.367346
0.673182 0.636561 0.309575
0.792264 0.587457 0.203952
0.872435 0.553338 0.008942
0.972564 0.599023 0.168551
0.489540 0.789303 0.579278
0.513085 0.787289 0.580438
0.577691 0.779141 0.582086
0.633417 0.765316 0.565698
0.651331 0.733272 0.501335
0.791806 0.761685 0.486732
0.886076 0.744320 0.433783
0.955627 0.732204 0.350408
0.623713 0.862119 0.684474
0.632105 0.858824 0.682033
0.669123 0.853574 0.682887
0.722683 0.848356 0.688014
0.729000 0.832364 0.646357
0.765988 0.819089 0.614984
0.860563 0.834836 0.597833
0.933989 0.830289 0.571862
0.730037 0.926146 0.780179
0.738674 0.926116 0.781827
0.763577 0.924620 0.784970
0.802640 0.924132 0.792782
0.833036 0.919921 0.790646
0.834623 0.908751 0.755795
0.874632 0.908965 0.741787
0.938628 0.917113 0.725277
0.042390 0.133730 0.255711
0.149294 0.121614 0.182345
0.239445 0.173465 0.173037
0.683680 0.000000 0.113405
0.807797 0.000000 0.000000
0.905638 0.000000 0.000000
0.992737 0.150546 0.000000
1.000000 0.238529 0.000000
0.000000 0.187533 0.308293
0.165896 0.175082 0.252995
0.270878 0.197910 0.196384
0.646082 0.000000 0.130922
0.788266 0.000000 0.003388
0.889281 0.119417 0.000000
0.979828 0.193545 0.000000
1.000000 0.269139 0.000000
0.053864 0.336034 0.309087
0.179843 0.317601 0.286259
0.341833 0.284642 0.247898
0.545495 0.258671 0.179812
0.743496 0.269444 0.109865
0.861662 0.290257 0.000000
0.958221 0.327367 0.000000
1.000000 0.380438 0.000000
0.203738 0.537621 0.401221
0.275731 0.543755 0.403388
0.431800 0.537987 0.394873
0.563592 0.523430 0.334630
0.694209 0.455421 0.214817
0.803738 0.423560 0.103395
0.920043 0.453132 0.000000
1.000000 0.507134 0.104189
0.359808 0.708400 0.521050
0.408423 0.705745 0.521935
0.520623 0.694881 0.522515
0.576532 0.664668 0.477058
0.698268 0.665797 0.431373
0.798459 0.612696 0.319799
0.874540 0.565789 0.176150
0.975830 0.606836 0.180392
0.513725 0.794522 0.612848
0.539818 0.792782 0.615015
0.600824 0.784573 0.615442
0.668360 0.771420 0.612909
0.664546 0.733669 0.541741
0.788449 0.760555 0.532219
0.878813 0.746700 0.483528
0.955657 0.738125 0.386023
0.642115 0.867735 0.708339
0.652216 0.865354 0.707240
0.682979 0.858671 0.704463
0.728328 0.850858 0.703120
0.741970 0.835996 0.669245
0.770565 0.819821 0.638056
0.865415 0.841978 0.634211
0.939239 0.843961 0.617334
0.731533 0.927459 0.789456
0.736263 0.925902 0.788113
0.759426 0.923400 0.789090
0.802365 0.924987 0.799710
0.838651 0.920714 0.802274
0.840360 0.911528 0.768856
0.877012 0.910918 0.755642
0.941100 0.921111 0.744198
0.000000 0.276555 0.532708
0.000000 0.264988 0.481178
0.348638 0.281224 0.265629
0.429938 0.366461 0.339239
0.810513 0.000000 0.314366
0.930907 0.000000 0.195926
0.988159 0.167300 0.045747
1.000000 0.221927 0.000000
0.000000 0.357153 0.584375
0.065888 0.339635 0.538079
0.378241 0.321721 0.327581
0.456519 0.395087 0.364233
0.818021 0.119478 0.317205
0.919036 0.157626 0.210422
0.979675 0.219577 0.079377
1.000000 0.256504 0.000000
0.000000 0.497200 0.599664
0.000000 0.482887 0.584802
0.397925 0.436988 0.504723
0.557214 0.451453 0.433295
0.813230 0.368719 0.358984
0.895232 0.373083 0.277989
0.974029 0.385779 0.179232
1.000000 0.387762 0.000000
0.000000 0.658259 0.595941
0.212741 0.647669 0.583032
0.445624 0.610376 0.540429
0.602472 0.568963 0.494514
0.717830 0.510094 0.388891
0.834653 0.493660 0.321752
0.932677 0.492836 0.243412
1.000000 0.506523 0.108614
0.406348 0.743557 0.617884
0.453223 0.734615 0.612482
0.559350 0.719539 0.603510
0.659266 0.708095 0.598108
0.720974 0.694179 0.554772
0.799588 0.642878 0.454017
0.881437 0.594232 0.324529
0.983490 0.624018 0.267124
0.560510 0.811673 0.673976
0.592920 0.815518 0.681910
0.642939 0.806180 0.676997
0.703914 0.795377 0.672175
0.722011 0.768978 0.631342
0.800320 0.776913 0.613001
0.877317 0.760433 0.558190
0.952331 0.744442 0.458991
0.657923 0.873136 0.738521
0.670619 0.872892 0.739986
0.705104 0.870512 0.741543
0.748806 0.865995 0.741207
0.787839 0.855619 0.733120
0.786618 0.829831 0.682368
0.869627 0.849271 0.677668
0.939208 0.849943 0.654444
0.744564 0.933104 0.812528
0.751400 0.933043 0.813260
0.769894 0.931182 0.812772
0.801694 0.928740 0.813809
0.839567 0.924590 0.815579
0.850187 0.917174 0.791073
0.878843 0.912749 0.774868
0.942809 0.924926 0.768215
0.000000 0.435615 0.706996
0.000000 0.437079 0.687160
0.387976 0.447974 0.589227
0.528649 0.474556 0.434913
0.629511 0.586877 0.539178
0.862028 0.479622 0.539910
0.990143 0.365118 0.417060
1.000000 0.316045 0.257023
0.000000 0.490242 0.721920
0.154330 0.491035 0.706020
0.423041 0.490883 0.621393
0.561456 0.511101 0.468330
0.639277 0.597742 0.549493
0.864927 0.494209 0.544427
0.989166 0.404425 0.429969
1.000000 0.346960 0.267521
0.000000 0.569757 0.751034
0.192538 0.579156 0.743832
0.493721 0.593439 0.691371
0.629114 0.586450 0.538689
0.665553 0.623835 0.575769
0.870420 0.520317 0.541588
0.970367 0.484138 0.451453
1.000000 0.418616 0.287663
0.104707 0.714321 0.749508
0.265568 0.710201 0.742763
0.492317 0.697963 0.721584
0.656886 0.668086 0.670039
0.732662 0.648981 0.615045
0.866972 0.608484 0.562097
0.941527 0.578515 0.483162
1.000000 0.519982 0.325109
0.378088 0.790127 0.726162
0.433295 0.785855 0.721798
0.554467 0.768276 0.703304
0.668269 0.739864 0.673243
0.729488 0.706264 0.635126
0.794491 0.653040 0.546380
0.895262 0.643030 0.493660
0.987976 0.638117 0.411749
0.542504 0.825040 0.722255
0.567590 0.821469 0.720424
0.631434 0.807462 0.711543
0.699245 0.794095 0.702205
0.749233 0.780728 0.688136
0.798093 0.777859 0.664179
0.868070 0.756130 0.602747
0.947570 0.733303 0.504997
0.670588 0.876768 0.771878
0.678981 0.875029 0.770443
0.707424 0.871275 0.767910
0.748257 0.867643 0.765621
0.789029 0.861448 0.759121
0.801938 0.839597 0.722408
0.866087 0.848417 0.710536
0.932860 0.843626 0.673426
0.740597 0.930327 0.826810
0.745754 0.929564 0.826200
0.763058 0.927611 0.824796
0.798306 0.930358 0.830716
0.831113 0.927123 0.828031
0.865721 0.921355 0.823728
0.873869 0.909026 0.789456
0.938903 0.922759 0.784970
0.174228 0.586481 0.811307
0.291264 0.592279 0.800259
0.494697 0.612268 0.756039
0.664485 0.652064 0.661494
0.679377 0.642298 0.592370
0.741787 0.711604 0.660975
0.899443 0.664515 0.683803
1.000000 0.582940 0.615625
0.265660 0.610742 0.811002
0.343420 0.614160 0.800870
0.513329 0.629328 0.762142
0.661097 0.653620 0.670771
0.682399 0.645655 0.595636
0.741421 0.711177 0.660548
0.899565 0.664485 0.682033
1.000000 0.584009 0.611872
0.379980 0.690455 0.840543
0.449256 0.696376 0.833158
0.584619 0.700710 0.798337
0.686488 0.696468 0.725124
0.718929 0.686244 0.635584
0.757290 0.728847 0.678431
0.907897 0.680201 0.688960
1.000000 0.613245 0.617548
0.393591 0.762295 0.845884
0.448005 0.760433 0.841459
0.579767 0.758114 0.831235
0.720394 0.762844 0.792996
0.771359 0.744472 0.694484
0.793790 0.757565 0.713008
0.926116 0.710079 0.701289
1.000000 0.675105 0.636530
0.445197 0.830503 0.830900
0.488655 0.829252 0.828824
0.593866 0.823941 0.821042
0.698665 0.811795 0.805447
0.774807 0.781064 0.766995
0.821256 0.759182 0.721920
0.925597 0.735470 0.688228
0.993194 0.706600 0.618738
0.551110 0.866148 0.809873
0.579065 0.865629 0.809934
0.643122 0.857939 0.802670
0.713375 0.843748 0.787655
0.773068 0.822568 0.764401
0.814054 0.798123 0.734585
0.871122 0.760922 0.665095
0.964233 0.764340 0.628107
0.666835 0.903502 0.825193
0.681361 0.902892 0.825681
0.716823 0.897307 0.822141
0.763943 0.888853 0.816556
0.806699 0.879637 0.808072
0.839902 0.868315 0.792660
0.873014 0.859312 0.763180
0.934936 0.845396 0.710018
0.746304 0.937835 0.857511
0.752193 0.936522 0.856657
0.772519 0.932891 0.854856
0.800168 0.932677 0.855161
0.831327 0.931243 0.852995
0.865446 0.928099 0.848356
0.882567 0.916136 0.822690
0.938170 0.924804 0.814633
0.424811 0.699519 0.875517
0.472206 0.705135 0.869810
0.582757 0.717037 0.845945
0.697230 0.734066 0.796811
0.778622 0.752590 0.702815
0.763577 0.735805 0.685573
0.809812 0.787259 0.739223
0.930724 0.766476 0.773098
0.460487 0.715816 0.877317
0.498817 0.719478 0.871824
0.594354 0.727108 0.849180
0.697932 0.737758 0.800839
0.780728 0.754910 0.705257
0.763973 0.736263 0.686030
0.808804 0.786130 0.738033
0.930053 0.763729 0.770199
0.528130 0.763699 0.893187
0.571710 0.768643 0.887114
0.636591 0.767025 0.867369
0.715633 0.765438 0.826078
0.786557 0.769986 0.743130
0.778866 0.752834 0.703090
0.818997 0.797543 0.750210
0.937407 0.773434 0.777523
0.494423 0.793912 0.908263
0.533471 0.796353 0.904814
0.640589 0.806638 0.893309
0.738643 0.808743 0.863279
0.795438 0.797086 0.799100
0.807797 0.785000 0.736812
0.834470 0.814786 0.768887
0.948608 0.784756 0.784573
0.520073 0.853361 0.900694
0.549126 0.852567 0.899199
0.628779 0.850278 0.894987
0.716182 0.844511 0.889158
0.802060 0.836088 0.856046
0.835080 0.815488 0.769650
0.852049 0.826474 0.785306
0.962860 0.794888 0.785397
0.573754 0.900145 0.893248
0.594598 0.899290 0.892515
0.653040 0.896391 0.889982
0.723079 0.891691 0.886107
0.790921 0.882444 0.877775
0.851652 0.860349 0.849302
0.884703 0.841642 0.808652
0.977050 0.822568 0.785122
0.653559 0.926970 0.883757
0.666194 0.926268 0.883421
0.702693 0.923156 0.881163
0.751705 0.918212 0.876890
0.802792 0.909697 0.867704
0.850858 0.895750 0.851225
0.881437 0.871672 0.819974
0.939940 0.843076 0.757595
0.722744 0.954559 0.894621
0.730343 0.953826 0.894316
0.756008 0.952148 0.894347
0.792294 0.948791 0.892943
0.834379 0.943908 0.890471
0.875181 0.938750 0.887083
0.906218 0.933745 0.878294
0.939361 0.929870 0.855467
0.582879 0.791440 0.930297
0.605066 0.793881 0.927001
0.664942 0.799191 0.913603
0.740597 0.807767 0.887144
0.811887 0.820188 0.837552
0.845579 0.827176 0.782528
0.843351 0.824704 0.779782
0.873411 0.858274 0.817655
0.596460 0.799313 0.931914
0.616419 0.801205 0.928771
0.671656 0.805203 0.916045
0.742672 0.811551 0.890227
0.811765 0.822080 0.842161
0.847471 0.829282 0.784878
0.843839 0.825254 0.780392
0.873533 0.858396 0.817807
0.633783 0.824887 0.940063
0.648463 0.825345 0.937224
0.691341 0.825406 0.925780
0.753567 0.828336 0.903929
0.815030 0.832853 0.860929
0.856809 0.839719 0.796536
0.849943 0.832059 0.787961
0.878019 0.863432 0.823606
0.584314 0.837247 0.952483
0.615808 0.841337 0.950958
0.697780 0.852049 0.944335
0.767391 0.854551 0.925261
0.820249 0.852110 0.890440
0.870512 0.856840 0.821073
0.861326 0.844785 0.802243
0.886809 0.873228 0.835050
0.570520 0.870542 0.954650
0.593500 0.870909 0.954437
0.654475 0.870176 0.953155
0.737667 0.873564 0.947753
0.824918 0.879454 0.924773
0.869596 0.872465 0.872099
0.878538 0.864012 0.824277
0.898589 0.886381 0.850706
0.592615 0.915465 0.952117
0.609888 0.914794 0.951598
0.661311 0.912657 0.950225
0.729152 0.909239 0.948608
0.801419 0.905028 0.946960
0.876310 0.905394 0.926757
0.905913 0.894560 0.860594
0.914794 0.904387 0.872709
0.649836 0.950805 0.949432
0.661128 0.950225 0.949218
0.696254 0.948455 0.948699
0.748226 0.946044 0.948302
0.807034 0.943236 0.947692
0.866880 0.939330 0.945251
0.919890 0.929595 0.928466
0.939727 0.916686 0.894621
0.713710 0.972320 0.944762
0.720729 0.971832 0.944518
0.744533 0.970397 0.944030
0.782528 0.968353 0.943511
0.827878 0.965820 0.942412
0.874907 0.962707 0.940002
0.918181 0.957061 0.933257
0.946899 0.942687 0.913420
