其他预设/【240】TEZZA调色预设合集24款/1.LUT预设（视频调色-PR-AE-PS-FCPX-达芬奇用）/Tezza自然__-6.cube
# Created by Adobe Lightroom plugin Export LUT (1.17.0)
# www.johnrellis.com/lightroom/exportlut.htm
# Preset: Tezza自然[素锦印象]-6
# Color profile: /Library/Application Support/Adobe/Color/Profiles/Recommended/AdobeRGB1998.icc
LUT_3D_SIZE 8
DOMAIN_MIN 0.000000 0.000000 0.000000
DOMAIN_MAX 0.903226 0.903226 0.903226
0.030579 0.035340 0.050355
0.166171 0.071443 0.077455
0.503838 0.000000 0.089693
0.737484 0.227146 0.143435
0.841581 0.434852 0.266972
0.890593 0.558709 0.410132
0.920836 0.652461 0.547631
0.933165 0.728542 0.666957
0.000000 0.165591 0.100923
0.170687 0.180331 0.104341
0.474617 0.158358 0.088746
0.715358 0.270237 0.137362
0.827543 0.435950 0.246494
0.881224 0.550622 0.385626
0.917082 0.646265 0.530510
0.932311 0.725704 0.658961
0.000000 0.505303 0.194553
0.000000 0.542412 0.191775
0.599573 0.557336 0.278874
0.704372 0.443793 0.158145
0.811704 0.501183 0.240269
0.874662 0.586542 0.388128
0.916381 0.674830 0.549981
0.930999 0.743343 0.674220
0.000000 0.745174 0.367132
0.000000 0.759274 0.409918
0.564050 0.762234 0.508873
0.778286 0.757015 0.562036
0.821897 0.674800 0.419928
0.866239 0.642481 0.392676
0.910735 0.702022 0.549248
0.928069 0.757992 0.675380
0.000000 0.836454 0.485328
0.000000 0.839200 0.510979
0.550378 0.834257 0.583093
0.736233 0.830686 0.681880
0.832334 0.825406 0.702296
0.861967 0.773861 0.609735
0.899687 0.743313 0.564996
0.924285 0.776761 0.672633
0.000000 0.891600 0.571527
0.237858 0.891661 0.596796
0.603388 0.878325 0.676936
0.728878 0.877409 0.739010
0.808103 0.871275 0.769436
0.868315 0.867338 0.782071
0.889616 0.841154 0.746090
0.913756 0.827146 0.736507
0.183078 0.930541 0.644923
0.362951 0.925780 0.661891
0.624994 0.909392 0.727474
0.737484 0.902312 0.775143
0.812924 0.897520 0.825620
0.852079 0.893339 0.830838
0.886931 0.891051 0.839750
0.900786 0.877775 0.823758
0.369757 0.952087 0.701259
0.464973 0.946441 0.715785
0.651667 0.930938 0.768185
0.779538 0.916991 0.828031
0.821805 0.911864 0.846708
0.860288 0.908110 0.871183
0.880644 0.906584 0.875883
0.897581 0.905394 0.880705
0.056367 0.057496 0.110506
0.188815 0.075959 0.127474
0.502770 0.131472 0.161807
0.720333 0.289403 0.213870
0.824216 0.444007 0.299931
0.876036 0.552575 0.414557
0.913390 0.646479 0.543847
0.930358 0.724269 0.662654
0.000000 0.158663 0.146578
0.195224 0.203189 0.169558
0.490974 0.221866 0.166690
0.708583 0.323369 0.208072
0.816526 0.453437 0.289433
0.870970 0.553704 0.403510
0.910246 0.643091 0.531456
0.929381 0.720851 0.653803
0.000000 0.493294 0.235843
0.142519 0.544121 0.272435
0.600458 0.558770 0.349340
0.691859 0.448157 0.211154
0.800137 0.503502 0.273655
0.863828 0.582788 0.398260
0.908232 0.663996 0.538079
0.928252 0.736080 0.664881
0.000000 0.727749 0.384649
0.155428 0.745785 0.435309
0.578027 0.752529 0.529686
0.765560 0.743221 0.562615
0.806088 0.657679 0.411872
0.851164 0.626307 0.382574
0.902098 0.688838 0.531823
0.925414 0.750423 0.664607
0.000000 0.831357 0.502403
0.161807 0.832670 0.526665
0.565301 0.827970 0.595544
0.733333 0.823880 0.681941
0.825315 0.818296 0.699245
0.855222 0.767025 0.604669
0.894530 0.736629 0.557336
0.922118 0.772976 0.668086
0.000000 0.885557 0.577081
0.252323 0.883635 0.596246
0.601984 0.872343 0.675196
0.726802 0.873472 0.736995
0.806607 0.868833 0.769497
0.866819 0.866087 0.783841
0.887816 0.839658 0.745998
0.912505 0.824643 0.733181
0.165408 0.926421 0.642786
0.341344 0.921538 0.656306
0.611078 0.906798 0.719600
0.734401 0.900114 0.772671
0.811612 0.896391 0.824582
0.850797 0.892180 0.829770
0.885588 0.889586 0.837613
0.899779 0.875517 0.819486
0.340734 0.951904 0.697963
0.445350 0.946380 0.712520
0.641932 0.930816 0.764401
0.777340 0.916503 0.826993
0.826200 0.912016 0.851102
0.861631 0.908232 0.873075
0.880552 0.906401 0.876158
0.897276 0.905058 0.880278
0.020996 0.064546 0.241001
0.138643 0.165774 0.190402
0.597040 0.256901 0.345525
0.743648 0.410498 0.381842
0.821866 0.516991 0.433692
0.869322 0.604578 0.514977
0.906798 0.681300 0.611200
0.925078 0.745632 0.701869
0.048951 0.095796 0.285069
0.246677 0.277928 0.304814
0.574853 0.358373 0.365637
0.730037 0.431678 0.371527
0.814084 0.521447 0.421241
0.865049 0.603418 0.503990
0.904723 0.678920 0.602319
0.924468 0.744869 0.697963
0.000000 0.476753 0.339208
0.185183 0.552361 0.395392
0.624292 0.587396 0.479316
0.708675 0.506432 0.356207
0.803586 0.560754 0.409674
0.859648 0.623194 0.496193
0.902098 0.690486 0.599268
0.923186 0.751888 0.697841
0.000000 0.715999 0.449622
0.162234 0.742031 0.493782
0.631495 0.758114 0.610437
0.768002 0.753628 0.642145
0.801602 0.670314 0.488441
0.849607 0.655146 0.477790
0.898039 0.711879 0.595026
0.921172 0.765774 0.699794
0.000000 0.822232 0.533898
0.221714 0.825040 0.561517
0.622034 0.824704 0.652796
0.751461 0.828061 0.723476
0.827970 0.824430 0.735927
0.851560 0.773709 0.643305
0.890654 0.742214 0.589837
0.918334 0.783169 0.697871
0.000000 0.879850 0.599695
0.311070 0.877592 0.620661
0.636652 0.867826 0.705745
0.737545 0.871702 0.752407
0.811124 0.868254 0.784298
0.865080 0.865782 0.796414
0.885191 0.839933 0.755734
0.911040 0.826627 0.744076
0.224277 0.923674 0.660548
0.375494 0.918822 0.674311
0.614099 0.906004 0.728725
0.743374 0.898314 0.784115
0.815396 0.895689 0.830198
0.853208 0.892241 0.838010
0.885527 0.890562 0.846555
0.899382 0.878294 0.829862
0.303288 0.952697 0.702907
0.404242 0.947753 0.713222
0.620386 0.931762 0.760678
0.776486 0.916228 0.829587
0.828122 0.911528 0.854185
0.863584 0.908171 0.876524
0.881498 0.906584 0.879545
0.897276 0.905516 0.883604
0.000000 0.071138 0.375830
0.107179 0.172915 0.356207
0.600397 0.330510 0.526207
0.768093 0.532036 0.565698
0.814145 0.599725 0.581964
0.859190 0.649958 0.610376
0.895567 0.710018 0.672114
0.917754 0.762203 0.735897
0.200931 0.104402 0.428229
0.246952 0.250584 0.451942
0.646143 0.451392 0.557244
0.756405 0.581567 0.590295
0.810910 0.605158 0.576745
0.856474 0.651850 0.605676
0.894255 0.710079 0.668177
0.917479 0.762356 0.734035
0.000000 0.315679 0.490303
0.107820 0.425727 0.531487
0.650660 0.619654 0.596643
0.737972 0.607385 0.562493
0.801755 0.626307 0.561639
0.852995 0.671870 0.606104
0.894591 0.728176 0.678492
0.917327 0.772366 0.739590
0.000000 0.682704 0.515709
0.000000 0.711910 0.545556
0.656367 0.757565 0.667536
0.764920 0.757198 0.696620
0.789425 0.672358 0.552819
0.842557 0.688289 0.582757
0.889769 0.736355 0.663050
0.915648 0.781521 0.737423
0.000000 0.808804 0.579217
0.126741 0.813046 0.597375
0.640589 0.819547 0.694331
0.768429 0.832700 0.762600
0.830228 0.829862 0.770626
0.846067 0.779294 0.684382
0.885527 0.757931 0.651514
0.913664 0.796628 0.736110
0.000000 0.873259 0.630976
0.301946 0.873503 0.650385
0.624353 0.868040 0.718135
0.755856 0.872160 0.778805
0.822202 0.871519 0.811490
0.865660 0.868833 0.819425
0.882933 0.842130 0.773190
0.909453 0.827268 0.756222
0.194919 0.919951 0.679652
0.357183 0.916075 0.691676
0.604547 0.904753 0.739437
0.756954 0.897154 0.803403
0.823026 0.896300 0.841093
0.858122 0.893492 0.852079
0.885283 0.891722 0.857664
0.898405 0.879881 0.838956
0.296239 0.952148 0.719661
0.397681 0.947662 0.728878
0.590234 0.934356 0.762478
0.746304 0.919951 0.818204
0.829679 0.911131 0.858579
0.866087 0.908232 0.881559
0.882597 0.906889 0.884092
0.897185 0.906004 0.887785
0.070069 0.081575 0.485573
0.117830 0.167330 0.484749
0.450629 0.453803 0.477699
0.794888 0.585595 0.679774
0.823941 0.677577 0.698238
0.852506 0.718227 0.717494
0.886931 0.750790 0.741970
0.909758 0.789670 0.781369
0.234562 0.127718 0.522240
0.255772 0.216129 0.542199
0.518029 0.516991 0.524071
0.787778 0.625238 0.689387
0.817807 0.691585 0.704799
0.851225 0.719844 0.715419
0.886473 0.752377 0.741329
0.909667 0.790341 0.780819
0.146304 0.137118 0.566369
0.350286 0.197177 0.597559
0.623835 0.626276 0.650050
0.767666 0.702602 0.713405
0.803586 0.711025 0.705135
0.845182 0.721675 0.703395
0.884031 0.755184 0.735622
0.909239 0.790829 0.776333
0.000000 0.576501 0.618097
0.000000 0.630671 0.640406
0.595575 0.742214 0.695460
0.763027 0.758938 0.734951
0.791531 0.719265 0.677363
0.838590 0.732570 0.689418
0.882048 0.764096 0.729641
0.909697 0.795956 0.773007
0.000000 0.778164 0.616052
0.000000 0.789548 0.631434
0.576074 0.804410 0.696529
0.777127 0.834318 0.790677
0.825315 0.827146 0.788724
0.834318 0.768612 0.699153
0.878508 0.775204 0.714504
0.908721 0.806424 0.768948
0.000000 0.855161 0.653254
0.121370 0.855833 0.663752
0.561700 0.854154 0.712337
0.757382 0.863981 0.791562
0.823636 0.869749 0.826810
0.863432 0.868498 0.834226
0.879057 0.838590 0.782498
0.907286 0.825559 0.768856
0.000000 0.913573 0.700069
0.274662 0.910277 0.707301
0.555169 0.900328 0.740902
0.736477 0.894774 0.801633
0.818418 0.894835 0.842130
0.859892 0.893614 0.862364
0.884337 0.891936 0.866484
0.897154 0.878721 0.843320
0.180209 0.951354 0.733516
0.314519 0.947356 0.739254
0.537163 0.934905 0.763485
0.709468 0.921813 0.810086
0.822660 0.910857 0.859709
0.864012 0.908324 0.881926
0.882811 0.906950 0.888060
0.896757 0.906065 0.891112
0.141268 0.070802 0.573297
0.163638 0.149172 0.580316
0.393835 0.424231 0.553552
0.699733 0.620172 0.714565
0.848386 0.714717 0.768826
0.864286 0.754757 0.775998
0.881956 0.795499 0.804135
0.901366 0.825223 0.829404
0.250401 0.104891 0.589197
0.261967 0.172915 0.605737
0.431312 0.450721 0.583673
0.708461 0.643214 0.721828
0.843320 0.724117 0.769894
0.860838 0.758968 0.777005
0.881224 0.794736 0.802060
0.901244 0.824735 0.828183
0.391516 0.000000 0.605280
0.439277 0.125948 0.635340
0.554406 0.525750 0.682704
0.739986 0.718349 0.753872
0.833921 0.757107 0.781216
0.852018 0.780331 0.788876
0.880278 0.797391 0.799893
0.901183 0.826413 0.827329
0.000000 0.252232 0.662959
0.000000 0.287510 0.679225
0.506615 0.502922 0.731197
0.776883 0.789761 0.794553
0.821653 0.795895 0.798520
0.848203 0.788327 0.783932
0.879667 0.804410 0.798428
0.901579 0.830472 0.826719
0.000000 0.712001 0.703029
0.000000 0.735927 0.715389
0.441749 0.790372 0.747860
0.760830 0.826383 0.799557
0.823453 0.827268 0.811093
0.836667 0.789822 0.762325
0.876066 0.805783 0.784146
0.901976 0.830350 0.817594
0.000000 0.836973 0.684657
0.000000 0.841245 0.692439
0.452125 0.844785 0.724086
0.731624 0.857359 0.795682
0.835233 0.874296 0.852293
0.862272 0.869444 0.849363
0.874205 0.828946 0.787228
0.902464 0.839475 0.811704
0.000000 0.907286 0.727321
0.000000 0.905852 0.732692
0.484840 0.897704 0.754208
0.704250 0.891173 0.802121
0.823270 0.892607 0.853971
0.863462 0.895201 0.875303
0.884520 0.893523 0.877592
0.896849 0.878172 0.850980
0.000000 0.951598 0.756435
0.160067 0.948241 0.759609
0.463813 0.936828 0.774472
0.668055 0.922454 0.809140
0.792599 0.912688 0.850401
0.858244 0.908446 0.880858
0.883543 0.907408 0.893462
0.896605 0.906554 0.895842
0.206455 0.000000 0.654719
0.212619 0.093355 0.663722
0.342870 0.349462 0.650477
0.635859 0.637781 0.646479
0.821042 0.731533 0.819699
0.880705 0.780880 0.822019
0.887572 0.811734 0.831113
0.896635 0.849943 0.859678
0.270146 0.000000 0.654810
0.273991 0.102541 0.667750
0.370123 0.355474 0.661769
0.643061 0.645411 0.647822
0.819181 0.736416 0.817990
0.877562 0.781704 0.820340
0.885527 0.811276 0.829618
0.895659 0.849729 0.859007
0.396857 0.000000 0.663264
0.429511 0.074220 0.683284
0.481209 0.376287 0.715175
0.674098 0.681727 0.686824
0.824186 0.766415 0.826047
0.872557 0.800900 0.828458
0.882383 0.824247 0.837644
0.894804 0.855436 0.862882
0.196323 0.000000 0.683711
0.294285 0.000000 0.690455
0.554589 0.104372 0.720150
0.698207 0.702907 0.768826
0.831174 0.808927 0.840452
0.866117 0.826749 0.841093
0.877531 0.841886 0.849088
0.895109 0.857877 0.862974
0.000000 0.408515 0.730709
0.000000 0.425360 0.735470
0.000000 0.495216 0.755489
0.600824 0.640528 0.791287
0.829709 0.843076 0.849668
0.855924 0.843961 0.847868
0.874968 0.841642 0.842435
0.895201 0.859068 0.860319
0.000000 0.777310 0.764462
0.000000 0.786831 0.768551
0.000000 0.814206 0.783291
0.582269 0.838743 0.803098
0.804776 0.864164 0.846006
0.858854 0.867216 0.860472
0.872221 0.846433 0.834562
0.895750 0.862303 0.856657
0.000000 0.898039 0.767697
0.000000 0.898466 0.765896
0.125795 0.895537 0.766629
0.595300 0.886717 0.795712
0.782925 0.887785 0.843748
0.866423 0.895720 0.884398
0.883268 0.893370 0.884611
0.895964 0.869535 0.849363
0.000000 0.951110 0.781369
0.000000 0.949187 0.782742
0.284031 0.940764 0.791287
0.588006 0.925444 0.812558
0.750759 0.913756 0.845396
0.853635 0.907836 0.883635
0.884306 0.908141 0.899535
0.896483 0.907195 0.900847
0.321386 0.000000 0.757504
0.314153 0.000000 0.763424
0.376257 0.293309 0.751553
0.593286 0.613703 0.715541
0.745449 0.742733 0.785214
0.875914 0.801816 0.865080
0.897337 0.839414 0.866178
0.899931 0.858396 0.872953
0.354833 0.000000 0.753353
0.350011 0.000000 0.759487
0.389593 0.280156 0.755215
0.588098 0.607538 0.721614
0.745266 0.745418 0.783597
0.875029 0.805051 0.865354
0.896513 0.840879 0.866636
0.899443 0.858885 0.873045
0.445747 0.000000 0.747982
0.451637 0.000000 0.755398
0.449866 0.222385 0.770413
0.587732 0.594903 0.751278
0.750332 0.759609 0.783688
0.873503 0.819760 0.868833
0.894347 0.848386 0.870085
0.898161 0.863279 0.875608
0.458778 0.000000 0.729549
0.496620 0.000000 0.731807
0.532677 0.000000 0.762142
0.606714 0.540673 0.790494
0.761135 0.776852 0.778836
0.871458 0.841062 0.875334
0.891447 0.859464 0.875608
0.896452 0.870420 0.880095
0.000000 0.028168 0.775204
0.000000 0.007630 0.776608
0.159884 0.000000 0.777981
0.564630 0.000000 0.784451
0.745693 0.755001 0.822690
0.864256 0.856504 0.878691
0.887785 0.870024 0.880797
0.894316 0.878264 0.884947
0.000000 0.533349 0.812711
0.000000 0.534142 0.812924
0.000000 0.539757 0.815457
0.000000 0.558160 0.823941
0.603967 0.643336 0.839384
0.851316 0.868070 0.870298
0.883940 0.882109 0.887358
0.893095 0.885283 0.889006
0.000000 0.838254 0.841825
0.000000 0.840818 0.842130
0.000000 0.848997 0.843687
0.066102 0.858640 0.848051
0.609888 0.870634 0.857939
0.811307 0.884794 0.872984
0.879698 0.890349 0.889830
0.892302 0.888029 0.887388
0.000000 0.955993 0.851469
0.000000 0.955291 0.849821
0.000000 0.951904 0.844724
0.230320 0.939879 0.837888
0.615198 0.920806 0.842313
0.798062 0.908202 0.871916
0.882872 0.907378 0.901854
0.895842 0.907683 0.906004
