其他预设/【240】TEZZA调色预设合集24款/1.LUT预设（视频调色-PR-AE-PS-FCPX-达芬奇用）/Tezza古董__-3.cube
# Created by Adobe Lightroom plugin Export LUT (1.17.0)
# www.johnrellis.com/lightroom/exportlut.htm
# Preset: Tezza古董[素锦印象]-3
# Color profile: /Library/Application Support/Adobe/Color/Profiles/Recommended/AdobeRGB1998.icc
LUT_3D_SIZE 32
0.104891 0.063813 0.072328
0.109560 0.063233 0.072541
0.114992 0.063294 0.072297
0.128206 0.062623 0.072053
0.153597 0.059815 0.071504
0.193973 0.045686 0.069276
0.249699 0.002930 0.065278
0.318578 0.000000 0.056001
0.399237 0.000000 0.026795
0.487404 0.000000 0.000000
0.576226 0.000000 0.000000
0.653223 0.000000 0.000000
0.715145 0.000000 0.000000
0.763455 0.066438 0.000000
0.802121 0.130068 0.000000
0.834257 0.172641 0.000000
0.861723 0.207767 0.000000
0.885740 0.239048 0.000000
0.912047 0.274174 0.000000
0.940795 0.314641 0.000000
0.964263 0.349798 0.000000
0.983795 0.380591 0.000000
1.000000 0.407507 0.000000
1.000000 0.431525 0.000000
1.000000 0.453162 0.000000
1.000000 0.473579 0.000000
1.000000 0.493721 0.000000
1.000000 0.513787 0.000000
1.000000 0.533898 0.000000
1.000000 0.553857 0.000000
1.000000 0.573327 0.000000
1.000000 0.592187 0.000000
0.105898 0.066529 0.073518
0.108705 0.065736 0.073457
0.113985 0.065431 0.073274
0.127169 0.064912 0.072328
0.150881 0.063020 0.071809
0.188296 0.055421 0.069825
0.241032 0.022675 0.066133
0.306645 0.000000 0.058869
0.384436 0.000000 0.032227
0.470924 0.000000 0.000000
0.559533 0.000000 0.000000
0.638148 0.000000 0.000000
0.702235 0.000000 0.000000
0.752468 0.067933 0.000000
0.792782 0.127993 0.000000
0.825864 0.169863 0.000000
0.854307 0.204318 0.000000
0.879179 0.235386 0.000000
0.906188 0.270237 0.000000
0.934325 0.308782 0.000000
0.957733 0.342657 0.000000
0.977630 0.372961 0.000000
0.994263 0.399634 0.000000
1.000000 0.423804 0.000000
1.000000 0.445777 0.000000
1.000000 0.466773 0.000000
1.000000 0.487526 0.000000
1.000000 0.508263 0.000000
1.000000 0.528985 0.000000
1.000000 0.549676 0.000000
1.000000 0.569696 0.000000
1.000000 0.588922 0.000000
0.106722 0.070436 0.075319
0.109987 0.069490 0.075624
0.113436 0.069306 0.075105
0.124453 0.068299 0.074311
0.147555 0.066285 0.072145
0.182223 0.062013 0.070741
0.231418 0.044739 0.067018
0.293675 0.000000 0.060517
0.369268 0.000000 0.038483
0.453712 0.000000 0.000000
0.542809 0.000000 0.000000
0.623407 0.000000 0.000000
0.690211 0.000000 0.000000
0.742733 0.076814 0.000000
0.784451 0.131991 0.000000
0.819120 0.171237 0.000000
0.848081 0.204929 0.000000
0.873747 0.235264 0.000000
0.901976 0.270146 0.000000
0.929808 0.306920 0.000000
0.953460 0.340063 0.000000
0.973632 0.369909 0.000000
0.990600 0.396490 0.000000
1.000000 0.420447 0.000000
1.000000 0.442512 0.000000
1.000000 0.463569 0.000000
1.000000 0.484627 0.000000
1.000000 0.505669 0.000000
1.000000 0.526818 0.000000
1.000000 0.547814 0.000000
1.000000 0.568170 0.000000
1.000000 0.587610 0.000000
0.109285 0.077882 0.078920
0.113222 0.077607 0.079133
0.116091 0.076509 0.079103
0.124697 0.076967 0.078340
0.142367 0.076112 0.076234
0.168368 0.072145 0.073518
0.217350 0.065553 0.068696
0.275395 0.047272 0.062654
0.346593 0.000000 0.046845
0.428534 0.000000 0.006012
0.516014 0.000000 0.000000
0.599420 0.000000 0.000000
0.670008 0.004700 0.000000
0.725978 0.098482 0.000000
0.770962 0.142367 0.000000
0.807523 0.178012 0.000000
0.838193 0.209384 0.000000
0.864988 0.237797 0.000000
0.894774 0.272190 0.000000
0.921874 0.305760 0.000000
0.945403 0.336553 0.000000
0.965820 0.365270 0.000000
0.983764 0.391730 0.000000
0.999664 0.416449 0.000000
1.000000 0.440101 0.000000
1.000000 0.462684 0.000000
1.000000 0.484871 0.000000
1.000000 0.506737 0.000000
1.000000 0.528099 0.000000
1.000000 0.548821 0.000000
1.000000 0.568688 0.000000
1.000000 0.587762 0.000000
0.111452 0.088746 0.083253
0.114778 0.088624 0.083436
0.119173 0.088502 0.083894
0.124453 0.085664 0.083314
0.141451 0.089998 0.082124
0.170230 0.089631 0.078279
0.191470 0.081758 0.075135
0.241520 0.075929 0.068544
0.312688 0.064881 0.056458
0.388952 0.040284 0.024903
0.473945 0.007507 0.000000
0.560327 0.022217 0.000000
0.636927 0.078737 0.000000
0.699855 0.120211 0.000000
0.750088 0.156252 0.000000
0.790982 0.188571 0.000000
0.825162 0.218021 0.000000
0.855222 0.245975 0.000000
0.887358 0.279728 0.000000
0.914488 0.310460 0.000000
0.938109 0.338933 0.000000
0.958862 0.366186 0.000000
0.977356 0.391730 0.000000
0.993957 0.416022 0.000000
1.000000 0.439551 0.000000
1.000000 0.462379 0.000000
1.000000 0.484810 0.000000
1.000000 0.506676 0.000000
1.000000 0.528008 0.000000
1.000000 0.548882 0.000000
1.000000 0.569055 0.000000
1.000000 0.588281 0.000000
0.113283 0.102663 0.088899
0.115999 0.103182 0.088746
0.120119 0.103395 0.088594
0.126986 0.102754 0.087800
0.136446 0.099855 0.087953
0.167361 0.112184 0.086549
0.213535 0.115541 0.080507
0.238102 0.103700 0.073976
0.259251 0.089631 0.070344
0.342382 0.086885 0.049500
0.431525 0.083864 0.000000
0.518212 0.091279 0.000000
0.600031 0.113008 0.000000
0.670497 0.142977 0.000000
0.726741 0.173892 0.000000
0.772366 0.203037 0.000000
0.809934 0.230228 0.000000
0.846128 0.260349 0.000000
0.878782 0.290623 0.000000
0.906767 0.319097 0.000000
0.931304 0.346471 0.000000
0.953307 0.372747 0.000000
1.000000 0.449073 0.000000
1.000000 0.471107 0.000000
1.000000 0.491188 0.000000
1.000000 0.510063 0.000000
1.000000 0.527764 0.000000
1.000000 0.545037 0.000000
1.000000 0.562219 0.000000
1.000000 0.578943 0.000000
1.000000 0.594995 0.000000
1.000000 0.610315 0.000000
0.113924 0.126497 0.096986
0.116854 0.127077 0.096834
0.120851 0.127840 0.096620
0.130953 0.129335 0.096834
0.140352 0.126558 0.093965
0.160311 0.129580 0.095796
0.215518 0.156741 0.093538
0.291966 0.171084 0.084352
0.321447 0.152407 0.067384
0.338933 0.128695 0.061219
0.381567 0.116213 0.040894
0.486152 0.128725 0.000000
0.583001 0.150576 0.000000
0.656733 0.177615 0.000000
0.715572 0.204440 0.000000
0.762417 0.229252 0.000000
0.803830 0.255497 0.000000
0.844999 0.286748 0.000000
0.878538 0.315160 0.000000
0.908354 0.343389 0.000000
0.935607 0.372473 0.000000
0.960601 0.401923 0.000000
0.982971 0.431159 0.000000
1.000000 0.458930 0.000000
1.000000 0.484138 0.000000
1.000000 0.506096 0.000000
1.000000 0.525658 0.000000
1.000000 0.543908 0.000000
1.000000 0.561486 0.000000
1.000000 0.578546 0.000000
1.000000 0.594995 0.000000
1.000000 0.610590 0.000000
0.114229 0.148745 0.104463
0.117098 0.149355 0.104311
0.120760 0.150362 0.104311
0.130129 0.152346 0.104219
0.144411 0.153780 0.103273
0.157076 0.148013 0.101839
0.188937 0.162783 0.104402
0.262211 0.202609 0.102663
0.365637 0.233860 0.094575
0.396704 0.210391 0.062776
0.418585 0.184451 0.028504
0.426978 0.153841 0.020142
0.496712 0.156497 0.000000
0.596551 0.184024 0.000000
0.675441 0.212863 0.000000
0.730861 0.238682 0.000000
0.783993 0.269963 0.000000
0.825925 0.297154 0.000000
0.860685 0.322576 0.000000
0.891966 0.348302 0.000000
0.920653 0.375067 0.000000
0.946990 0.402808 0.000000
0.970642 0.430518 0.000000
0.991485 0.457404 0.000000
1.000000 0.482307 0.000000
1.000000 0.504387 0.000000
1.000000 0.524315 0.000000
1.000000 0.543084 0.000000
1.000000 0.561181 0.000000
1.000000 0.578698 0.000000
1.000000 0.595727 0.000000
1.000000 0.611810 0.000000
0.113924 0.174228 0.113649
0.116762 0.175021 0.113466
0.120394 0.176120 0.113222
0.129610 0.178561 0.113222
0.146456 0.181979 0.114260
0.158022 0.180697 0.108675
0.178347 0.173465 0.112062
0.225956 0.205966 0.116548
0.319341 0.260624 0.116091
0.453864 0.316564 0.115602
0.484657 0.288609 0.064607
0.506188 0.257145 0.000000
0.514336 0.222019 0.000000
0.510613 0.183474 0.000000
0.606958 0.213596 0.000000
0.694789 0.251194 0.000000
0.758877 0.281712 0.000000
0.803616 0.307256 0.000000
0.840970 0.330938 0.000000
0.874449 0.355108 0.000000
0.905058 0.380255 0.000000
0.933043 0.406439 0.000000
0.958251 0.432929 0.000000
0.980377 0.458869 0.000000
0.999542 0.483162 0.000000
1.000000 0.505058 0.000000
1.000000 0.525170 0.000000
1.000000 0.544152 0.000000
1.000000 0.562646 0.000000
1.000000 0.580468 0.000000
1.000000 0.597559 0.000000
1.000000 0.613825 0.000000
0.112978 0.202029 0.123598
0.115511 0.202823 0.123598
0.119387 0.203952 0.123323
0.128756 0.206577 0.123262
0.144778 0.210422 0.123903
0.166720 0.214420 0.125154
0.179660 0.209293 0.119509
0.203647 0.203830 0.124636
0.271489 0.257847 0.132021
0.382635 0.326635 0.134401
0.530724 0.397833 0.143313
0.568292 0.373632 0.084291
0.585046 0.336492 0.000000
0.602319 0.305730 0.000000
0.604730 0.266789 0.000000
0.631342 0.251041 0.000000
0.712062 0.287205 0.000000
0.773251 0.316320 0.000000
0.820523 0.340734 0.000000
0.856596 0.363989 0.000000
0.888670 0.387243 0.000000
0.917540 0.410895 0.000000
0.943389 0.434699 0.000000
0.966308 0.458289 0.000000
0.986603 0.481239 0.000000
1.000000 0.502983 0.000000
1.000000 0.523674 0.000000
1.000000 0.543816 0.000000
1.000000 0.563500 0.000000
1.000000 0.582574 0.000000
1.000000 0.600732 0.000000
1.000000 0.617975 0.000000
0.110750 0.229343 0.133700
0.113497 0.230320 0.133639
0.117800 0.231662 0.133516
0.126802 0.234592 0.133700
0.142550 0.239078 0.134432
0.166476 0.245396 0.137057
0.183474 0.246281 0.132387
0.205203 0.240909 0.132906
0.240360 0.251286 0.140749
0.326268 0.319829 0.152071
0.453193 0.401312 0.159884
0.605921 0.483558 0.186130
0.656001 0.472572 0.138552
0.671778 0.433967 0.033661
0.681727 0.395331 0.000000
0.682124 0.352636 0.000000
0.673762 0.305852 0.000000
0.719081 0.313848 0.000000
0.778775 0.342718 0.000000
0.826963 0.367224 0.000000
0.866880 0.390021 0.000000
0.898741 0.413367 0.000000
0.927031 0.436866 0.000000
0.952087 0.460182 0.000000
0.974060 0.482795 0.000000
0.993317 0.504387 0.000000
1.000000 0.524926 0.000000
1.000000 0.544976 0.000000
1.000000 0.564874 0.000000
1.000000 0.584283 0.000000
1.000000 0.603021 0.000000
1.000000 0.620722 0.000000
0.107118 0.259831 0.145357
0.110170 0.260838 0.145296
0.114443 0.262333 0.145266
0.124025 0.265324 0.145510
0.139895 0.270329 0.146456
0.163119 0.277012 0.148806
0.192996 0.284703 0.152621
0.204410 0.282109 0.142275
0.235050 0.277623 0.149355
0.290440 0.315282 0.163607
0.402075 0.405524 0.184237
0.546563 0.500969 0.207553
0.728481 0.626734 0.324712
0.771695 0.616144 0.291783
0.780148 0.570092 0.194736
0.783444 0.521996 0.088258
0.782864 0.475441 0.000000
0.772854 0.423316 0.000000
0.763729 0.375891 0.000000
0.816983 0.402747 0.000000
0.860685 0.425208 0.000000
0.897978 0.445411 0.000000
0.928435 0.465126 0.000000
0.952819 0.486213 0.000000
0.974334 0.506828 0.000000
0.993286 0.526604 0.000000
1.000000 0.545525 0.000000
1.000000 0.563775 0.000000
1.000000 0.581842 0.000000
1.000000 0.599573 0.000000
1.000000 0.616754 0.000000
1.000000 0.633204 0.000000
0.098695 0.304387 0.162722
0.102266 0.305333 0.162783
0.107698 0.306188 0.162692
0.118959 0.308659 0.162753
0.136294 0.314336 0.163821
0.161135 0.322484 0.166445
0.194736 0.333928 0.172244
0.220188 0.340581 0.169406
0.245121 0.341344 0.166995
0.282933 0.341375 0.178256
0.370153 0.414862 0.205356
0.508507 0.521447 0.246860
0.648768 0.609552 0.302220
0.752773 0.662287 0.375708
0.800290 0.664973 0.372137
0.809415 0.622675 0.273899
0.813230 0.576226 0.175845
0.813413 0.529992 0.042817
0.807370 0.482124 0.000000
0.797940 0.433478 0.000000
0.815457 0.419684 0.000000
0.859953 0.443336 0.000000
0.897459 0.463752 0.000000
0.930114 0.482704 0.000000
0.955932 0.502190 0.000000
0.977142 0.522332 0.000000
0.996002 0.542077 0.000000
1.000000 0.561151 0.000000
1.000000 0.580072 0.000000
1.000000 0.599023 0.000000
1.000000 0.617426 0.000000
1.000000 0.635035 0.000000
0.086183 0.347356 0.180758
0.091127 0.348791 0.180911
0.097444 0.349828 0.180758
0.110933 0.352728 0.181125
0.130343 0.357336 0.182010
0.156863 0.364050 0.184024
0.190249 0.373816 0.188205
0.232273 0.386389 0.196536
0.246403 0.387793 0.183139
0.283268 0.388403 0.190097
0.323674 0.389227 0.203494
0.438636 0.491279 0.244572
0.573480 0.585840 0.300206
0.693233 0.656489 0.365576
0.777279 0.697719 0.430884
0.824308 0.707424 0.445441
0.831571 0.667109 0.349828
0.835691 0.622522 0.250797
0.837217 0.577935 0.152804
0.835477 0.534325 0.000000
0.828824 0.488624 0.000000
0.821286 0.444007 0.000000
0.859922 0.460731 0.000000
0.898192 0.482399 0.000000
0.931060 0.501793 0.000000
0.959625 0.519493 0.000000
0.981353 0.539513 0.000000
1.000000 0.559533 0.000000
1.000000 0.579522 0.000000
1.000000 0.599573 0.000000
1.000000 0.619074 0.000000
1.000000 0.637903 0.000000
0.068971 0.388098 0.198489
0.075135 0.389471 0.198825
0.083345 0.390295 0.198703
0.099489 0.392493 0.198886
0.122042 0.396094 0.199191
0.149783 0.401526 0.200473
0.183719 0.409918 0.204044
0.224979 0.421332 0.210788
0.257420 0.429938 0.210330
0.279240 0.432380 0.201724
0.323095 0.433845 0.214786
0.377691 0.454780 0.235782
0.503319 0.556115 0.290166
0.625452 0.634394 0.356359
0.726833 0.692470 0.421607
0.797269 0.726375 0.476387
0.843809 0.741726 0.504234
0.849729 0.705776 0.418830
0.854673 0.664790 0.323461
0.858091 0.623041 0.228489
0.859831 0.582635 0.131991
0.855192 0.539330 0.000000
0.849180 0.496010 0.000000
0.860380 0.477546 0.000000
0.899168 0.500175 0.000000
0.932616 0.520867 0.000000
0.962066 0.539940 0.000000
0.987427 0.559136 0.000000
1.000000 0.581415 0.000000
1.000000 0.603571 0.000000
1.000000 0.625055 0.000000
1.000000 0.645380 0.000000
0.025605 0.425757 0.215885
0.043153 0.427405 0.216403
0.062409 0.428779 0.216464
0.084077 0.431281 0.216739
0.111055 0.435645 0.217655
0.141909 0.441962 0.219394
0.177523 0.450904 0.223148
0.219486 0.462593 0.229679
0.269810 0.476997 0.241093
0.289281 0.480659 0.229038
0.323186 0.481910 0.230320
0.367254 0.481514 0.244388
0.438575 0.521172 0.275547
0.559075 0.606806 0.338445
0.664363 0.669764 0.404974
0.750729 0.718044 0.463416
0.813321 0.749081 0.511254
0.859800 0.769131 0.549279
0.865385 0.738857 0.477516
0.871519 0.704219 0.394415
0.877348 0.667018 0.304051
0.881773 0.629603 0.212375
0.879789 0.589288 0.137728
0.876249 0.548577 0.004486
0.871916 0.508293 0.000000
0.904356 0.523186 0.000000
0.938354 0.545403 0.000000
0.968170 0.566003 0.000000
0.994629 0.585229 0.000000
1.000000 0.606134 0.000000
1.000000 0.628229 0.000000
1.000000 0.649012 0.000000
0.000000 0.458747 0.231785
0.000000 0.459632 0.231907
0.011200 0.460731 0.231998
0.064271 0.463111 0.232395
0.097566 0.467201 0.233249
0.131594 0.472877 0.234867
0.168307 0.480995 0.238315
0.210422 0.491157 0.243870
0.259007 0.503624 0.253391
0.299107 0.513329 0.256809
0.317113 0.516320 0.243320
0.361822 0.516564 0.255375
0.404791 0.516075 0.270573
0.493141 0.572900 0.315740
0.603876 0.644556 0.384283
0.695949 0.698116 0.447456
0.771237 0.740261 0.500084
0.828397 0.769589 0.542016
0.874907 0.793515 0.587976
0.879942 0.767758 0.526574
0.885985 0.738277 0.455207
0.892332 0.705257 0.373419
0.898070 0.670069 0.283696
0.898772 0.632776 0.209812
0.897002 0.594354 0.140383
0.894865 0.556451 0.020813
0.907805 0.542901 0.000000
0.942473 0.567285 0.000000
0.972992 0.589776 0.000000
0.999908 0.610437 0.000000
1.000000 0.629114 0.000000
1.000000 0.651698 0.000000
0.000000 0.492714 0.249241
0.000000 0.494636 0.249882
0.000000 0.532311 0.270695
0.000000 0.534325 0.271000
0.077180 0.537255 0.271672
0.124819 0.541192 0.272953
0.169924 0.546685 0.275669
0.216831 0.553704 0.280491
0.268681 0.562829 0.289281
0.326970 0.573663 0.303716
0.351904 0.576806 0.294804
0.379889 0.577356 0.290074
0.424475 0.574762 0.304204
0.464118 0.571527 0.319280
0.565637 0.635828 0.384497
0.661097 0.693202 0.453223
0.738613 0.737758 0.510063
0.802579 0.774228 0.553857
0.852873 0.800961 0.589136
0.895781 0.824430 0.634028
0.900999 0.803891 0.584649
0.905638 0.778378 0.523613
0.911192 0.749325 0.452064
0.917327 0.717403 0.368963
0.919341 0.681575 0.292088
0.918578 0.643946 0.223423
0.917296 0.606348 0.153231
0.916411 0.570275 0.062959
0.948180 0.591241 0.000000
0.978698 0.614893 0.000000
1.000000 0.636500 0.000000
1.000000 0.655177 0.000000
0.000000 0.533379 0.271763
0.000000 0.538842 0.274571
0.000000 0.544396 0.277531
0.000000 0.550469 0.280644
0.055818 0.556390 0.283330
0.113527 0.561669 0.285679
0.160128 0.567102 0.288457
0.207065 0.573419 0.292851
0.257420 0.581445 0.300450
0.312535 0.590478 0.312322
0.360052 0.597864 0.320531
0.378607 0.599359 0.308141
0.415167 0.597955 0.313359
0.456153 0.594903 0.327581
0.498360 0.597589 0.346746
0.602289 0.663935 0.419654
0.687617 0.714229 0.483650
0.756985 0.754482 0.534478
0.815885 0.788540 0.575067
0.863340 0.814786 0.608392
0.902861 0.836362 0.649561
0.912474 0.823880 0.616419
0.917082 0.802121 0.563104
0.922454 0.777554 0.501793
0.928740 0.749569 0.428077
0.932097 0.718044 0.357671
0.933318 0.684016 0.291630
0.934417 0.649958 0.226932
0.936065 0.617426 0.163088
0.954437 0.616022 0.122866
0.985046 0.641321 0.104433
1.000000 0.663569 0.065888
0.000000 0.558434 0.286320
0.000000 0.563256 0.289097
0.000000 0.568231 0.291997
0.000000 0.573571 0.294804
0.004883 0.578882 0.297398
0.101534 0.583520 0.299565
0.151308 0.588220 0.302068
0.198062 0.593683 0.306157
0.247654 0.600488 0.312657
0.301061 0.608179 0.322911
0.359777 0.616663 0.338811
0.388281 0.619837 0.334936
0.407691 0.620447 0.324651
0.449836 0.617700 0.338231
0.487098 0.614191 0.352117
0.542382 0.632380 0.384833
0.636469 0.690059 0.454780
0.712642 0.734829 0.513176
0.775875 0.772030 0.559747
0.830228 0.804074 0.597620
0.874998 0.829557 0.628901
0.911315 0.849485 0.667140
0.924224 0.843198 0.646784
0.928527 0.824186 0.599390
0.933562 0.802670 0.544579
0.939544 0.778592 0.480537
0.943420 0.750973 0.417670
0.945953 0.721340 0.358312
0.948974 0.691188 0.298161
0.952728 0.661921 0.238987
0.960693 0.640955 0.187289
0.990967 0.667353 0.183413
0.000000 0.583337 0.301640
0.000000 0.587610 0.304326
0.000000 0.592126 0.307042
0.000000 0.596918 0.309697
0.000000 0.601495 0.312108
0.089052 0.605371 0.314092
0.142672 0.609308 0.316472
0.190524 0.613733 0.319829
0.239597 0.619226 0.325475
0.291051 0.625452 0.334386
0.346929 0.632410 0.347601
0.397864 0.638300 0.360113
0.415534 0.639094 0.349584
0.443214 0.638361 0.349096
0.481941 0.635554 0.363043
0.516472 0.632471 0.377417
0.584588 0.664668 0.424414
0.670558 0.716487 0.492317
0.740536 0.758724 0.547387
0.799557 0.794705 0.592309
0.850095 0.825620 0.628962
0.892515 0.851041 0.659724
0.925261 0.869078 0.695094
0.940551 0.867887 0.685725
0.944701 0.851560 0.643519
0.949432 0.833494 0.596307
0.955261 0.813626 0.541894
0.959319 0.791531 0.491524
0.962890 0.767514 0.442237
0.967437 0.742702 0.389960
0.973022 0.717830 0.336400
0.980072 0.694881 0.283513
0.000000 0.621942 0.327642
0.000000 0.623987 0.328954
0.000000 0.625910 0.330114
0.000000 0.628016 0.331304
0.000000 0.630488 0.332464
0.082643 0.632990 0.333867
0.139773 0.635920 0.335912
0.188968 0.639704 0.339300
0.238407 0.644556 0.344884
0.290166 0.650050 0.353399
0.345586 0.656184 0.365972
0.404761 0.662226 0.383978
0.436591 0.664698 0.385168
0.454078 0.665187 0.376410
0.487648 0.663203 0.384863
0.522301 0.660334 0.398413
0.553368 0.657527 0.412482
0.629938 0.699031 0.471321
0.705867 0.744869 0.532677
0.768063 0.783017 0.581598
0.820859 0.815457 0.621332
0.866453 0.843381 0.654017
0.905180 0.866453 0.681300
0.933684 0.881285 0.712184
0.950317 0.883085 0.710262
0.954131 0.868101 0.670649
0.958770 0.851957 0.627253
0.964599 0.834836 0.578729
0.968597 0.816251 0.536919
0.972503 0.796445 0.495735
0.977600 0.776242 0.452399
0.984222 0.756924 0.408362
0.000000 0.644770 0.343786
0.000000 0.646723 0.345129
0.000000 0.648585 0.346471
0.000000 0.650568 0.347753
0.000000 0.652491 0.348760
0.073610 0.654353 0.349889
0.134981 0.656519 0.351568
0.184573 0.659236 0.354253
0.233555 0.662837 0.359075
0.284123 0.667201 0.366339
0.337407 0.672114 0.377356
0.393957 0.676997 0.392889
0.447822 0.681331 0.410285
0.464820 0.682094 0.402045
0.484688 0.682155 0.397620
0.520226 0.679896 0.411017
0.552361 0.677668 0.424994
0.581415 0.675654 0.439612
0.665583 0.725917 0.508415
0.733822 0.767788 0.564233
0.790799 0.803311 0.609186
0.839414 0.833616 0.646082
0.881437 0.859648 0.676844
0.917601 0.881559 0.702815
0.939727 0.890166 0.724269
0.957824 0.894865 0.729702
0.961730 0.881254 0.692500
0.966491 0.866941 0.652308
0.972351 0.851987 0.608423
0.976135 0.836149 0.573754
0.980591 0.820340 0.540093
0.986236 0.805447 0.507103
0.000000 0.678035 0.369635
0.000000 0.679957 0.371099
0.000000 0.681270 0.372168
0.000000 0.682338 0.372900
0.000000 0.683192 0.373358
0.083589 0.683925 0.373816
0.141756 0.684718 0.374762
0.190097 0.685786 0.376654
0.237705 0.687434 0.379889
0.286015 0.689662 0.385534
0.336522 0.692195 0.394079
0.389929 0.695216 0.406897
0.445533 0.698207 0.424537
0.477852 0.699519 0.428656
0.492592 0.699001 0.420264
0.516716 0.697017 0.422065
0.547845 0.693904 0.433906
0.576715 0.691279 0.446723
0.616083 0.700435 0.472816
0.693263 0.747066 0.536950
0.755795 0.786069 0.588281
0.808438 0.819150 0.629847
0.853239 0.847166 0.663844
0.891722 0.870817 0.691981
0.925078 0.890623 0.715328
0.947417 0.900938 0.739925
0.966155 0.907591 0.751308
0.969879 0.894957 0.715663
0.974548 0.881926 0.677913
0.980255 0.868772 0.638270
0.983978 0.855863 0.610773
0.988708 0.843961 0.584741
0.000000 0.697780 0.385382
0.000000 0.699580 0.386969
0.000000 0.700862 0.387945
0.000000 0.701686 0.388678
0.000000 0.702358 0.389105
0.083680 0.702937 0.389685
0.142519 0.703639 0.390723
0.190249 0.704616 0.392584
0.237308 0.705989 0.395972
0.285069 0.707973 0.401434
0.334936 0.710231 0.409430
0.387518 0.712825 0.421485
0.441657 0.715389 0.437507
0.494026 0.718044 0.456733
0.508782 0.718044 0.449561
0.523644 0.717830 0.443214
0.552758 0.715572 0.452613
0.581903 0.713375 0.465156
0.609094 0.711818 0.478889
0.657740 0.731533 0.515679
0.726162 0.773648 0.573022
0.782376 0.809110 0.618952
0.829801 0.838956 0.656214
0.870298 0.864225 0.687098
0.905241 0.885527 0.712978
0.935668 0.903410 0.734676
0.955566 0.912108 0.756832
0.974334 0.920134 0.773526
0.978210 0.908873 0.740414
0.983062 0.897459 0.705684
0.988373 0.886412 0.672480
0.992462 0.876677 0.650996
0.000000 0.721218 0.405371
0.000000 0.722408 0.406500
0.000000 0.723018 0.407019
0.000000 0.723293 0.407324
0.000000 0.723232 0.407294
0.092622 0.723140 0.407385
0.146334 0.723171 0.408026
0.193301 0.723507 0.409461
0.238987 0.724392 0.412390
0.285557 0.725765 0.417334
0.334295 0.727443 0.424750
0.385443 0.729519 0.435737
0.437903 0.731563 0.450172
0.489326 0.733577 0.467689
0.522850 0.734676 0.475410
0.536980 0.734554 0.469276
0.554833 0.733883 0.467842
0.583948 0.731685 0.479591
0.610986 0.730159 0.492256
0.636103 0.729213 0.505821
0.691646 0.757534 0.550652
0.753017 0.795773 0.601984
0.803830 0.827848 0.643153
0.846921 0.854978 0.677089
0.883909 0.877867 0.705531
0.915984 0.897185 0.729519
0.944030 0.913451 0.749874
0.961975 0.920836 0.770016
0.980346 0.929686 0.791073
0.984344 0.919554 0.760067
0.989288 0.909606 0.728328
0.994263 0.900816 0.702083
0.000000 0.741146 0.423102
0.000000 0.741848 0.423804
0.000000 0.742336 0.424353
0.000000 0.742672 0.424720
0.002472 0.743008 0.425269
0.107393 0.743618 0.426307
0.159213 0.745052 0.428626
0.206638 0.746883 0.432105
0.254337 0.749294 0.437324
0.303014 0.752071 0.444617
0.353704 0.754879 0.454322
0.406043 0.757534 0.466865
0.457618 0.759976 0.481758
0.507591 0.762051 0.498726
0.555047 0.763912 0.517815
0.571862 0.764401 0.515343
0.585351 0.764523 0.511009
0.606775 0.763516 0.515740
0.632868 0.762112 0.527428
0.656947 0.761166 0.539544
0.678920 0.760586 0.551995
0.737240 0.794614 0.600793
0.790005 0.827756 0.644556
0.834257 0.855589 0.680476
0.871916 0.879088 0.710597
0.904448 0.898863 0.736294
0.932769 0.915496 0.758206
0.957366 0.929320 0.776638
0.972320 0.934752 0.794369
0.987732 0.941711 0.814603
0.992157 0.933501 0.788540
0.997009 0.925109 0.760281
0.000000 0.774685 0.456641
0.000000 0.775051 0.457191
0.000000 0.775051 0.457313
0.069642 0.774838 0.457313
0.114168 0.774472 0.457374
0.153628 0.774166 0.457832
0.193393 0.774166 0.459113
0.234134 0.774472 0.461402
0.276585 0.775051 0.465126
0.321477 0.775845 0.470649
0.367987 0.776608 0.478187
0.415595 0.777432 0.488045
0.462837 0.778195 0.499886
0.509148 0.778927 0.513939
0.553735 0.779690 0.529992
0.585809 0.780514 0.539635
