其他预设/【240】TEZZA调色预设合集24款/1.LUT预设（视频调色-PR-AE-PS-FCPX-达芬奇用）/Tezza万事达-Tezza01JPG.cube
# Created by Adobe Lightroom plugin Export LUT (1.17.0)
# www.johnrellis.com/lightroom/exportlut.htm
# Preset: Tezza万事达-Tezza01JPG
# Color profile: /Library/Application Support/Adobe/Color/Profiles/Recommended/AdobeRGB1998.icc
LUT_3D_SIZE 5
DOMAIN_MIN 0.000000 0.000000 0.000000
DOMAIN_MAX 0.903226 0.903226 0.903226
0.035828 0.033722 0.039582
0.203464 0.063203 0.061372
0.586786 0.000000 0.003510
0.807431 0.299351 0.050263
0.924895 0.503838 0.200717
0.000000 0.176242 0.096773
0.172274 0.179324 0.116091
0.593194 0.257237 0.052064
0.804501 0.397894 0.092134
0.923674 0.549310 0.234501
0.000000 0.516777 0.216464
0.173373 0.518395 0.236545
0.547112 0.515770 0.301823
0.792416 0.599634 0.261906
0.913573 0.661036 0.334203
0.000000 0.764248 0.413764
0.230045 0.757809 0.428290
0.600763 0.732021 0.495247
0.745693 0.725643 0.545922
0.876249 0.774624 0.582788
0.197910 0.896178 0.580987
0.425727 0.886015 0.601221
0.679164 0.863279 0.671687
0.784970 0.854246 0.722683
0.861631 0.860838 0.755489
0.000000 0.085084 0.189212
0.226078 0.081331 0.200687
0.564080 0.132876 0.203494
0.787381 0.334630 0.234745
0.912718 0.518791 0.314580
0.000000 0.205447 0.219120
0.220188 0.242405 0.232822
0.579400 0.292546 0.235111
0.787289 0.417700 0.255680
0.910643 0.558251 0.337407
0.000000 0.540337 0.325017
0.196231 0.543816 0.336004
0.560296 0.534112 0.386755
0.785733 0.610040 0.354742
0.904234 0.667597 0.421302
0.000000 0.768002 0.476631
0.267979 0.760952 0.488014
0.616602 0.738033 0.543694
0.746517 0.731167 0.586206
0.874693 0.779751 0.611872
0.160891 0.898100 0.606073
0.411994 0.887999 0.622309
0.678248 0.867308 0.686732
0.788785 0.857481 0.737301
0.862699 0.863249 0.767819
0.000000 0.192172 0.501915
0.000000 0.188998 0.517144
0.643519 0.228977 0.525139
0.782345 0.395605 0.462043
0.887541 0.561822 0.522850
0.000000 0.309911 0.498695
0.245121 0.346288 0.515435
0.632532 0.373541 0.536248
0.770260 0.457404 0.479377
0.887449 0.590631 0.532891
0.000000 0.563470 0.548486
0.235080 0.572381 0.549096
0.615930 0.610590 0.572992
0.763485 0.625849 0.554406
0.885100 0.680110 0.576623
0.000000 0.780575 0.625025
0.246342 0.773983 0.624109
0.618860 0.755032 0.635737
0.754421 0.750057 0.671473
0.876188 0.791287 0.671748
0.061891 0.902495 0.690303
0.362066 0.894896 0.693874
0.639887 0.875944 0.715419
0.791470 0.863951 0.767330
0.863462 0.866972 0.794278
0.000000 0.371527 0.727321
0.077333 0.362341 0.732235
0.458717 0.398688 0.745449
0.797452 0.530755 0.725277
0.887388 0.654017 0.705867
0.278569 0.481117 0.719112
0.343938 0.480690 0.723598
0.509667 0.487068 0.739071
0.790555 0.578454 0.727596
0.883116 0.666987 0.708339
0.289342 0.600366 0.718563
0.418769 0.607294 0.716213
0.628229 0.652247 0.724331
0.775113 0.674250 0.736233
0.872251 0.701869 0.712856
0.271305 0.756710 0.746792
0.405158 0.754726 0.745144
0.615869 0.757137 0.745480
0.768856 0.780392 0.761105
0.870268 0.785000 0.744533
0.223972 0.901457 0.801419
0.375738 0.897185 0.800870
0.597955 0.889128 0.801389
0.770840 0.878172 0.804288
0.869047 0.876524 0.834409
0.427466 0.579248 0.862058
0.452613 0.575189 0.863035
0.546410 0.578454 0.866758
0.708766 0.634760 0.869078
0.890715 0.713619 0.850034
0.504295 0.629297 0.856291
0.520378 0.625513 0.857481
0.576776 0.617273 0.862577
0.705440 0.659052 0.867491
0.888640 0.725948 0.850950
0.511681 0.674556 0.849638
0.557183 0.684840 0.849516
0.656580 0.712612 0.852140
0.722530 0.718959 0.862486
0.885527 0.766323 0.857694
0.490059 0.769070 0.858610
0.536919 0.769314 0.856748
0.644282 0.772244 0.853086
0.765164 0.798032 0.857389
0.882383 0.824002 0.869993
0.462287 0.873014 0.876921
0.515373 0.872435 0.876677
0.634577 0.872770 0.876249
0.758450 0.877592 0.876555
0.880858 0.893797 0.886717
