其他预设/【240】TEZZA调色预设合集24款/1.LUT预设（视频调色-PR-AE-PS-FCPX-达芬奇用）/Tezza万事达-Tezza02.cube
# Created by Adobe Lightroom plugin Export LUT (1.17.0)
# www.johnrellis.com/lightroom/exportlut.htm
# Preset: Tezza万事达-Tezza02
# Color profile: /Library/Application Support/Adobe/Color/Profiles/Recommended/AdobeRGB1998.icc
LUT_3D_SIZE 32
0.039857 0.074037 0.083894
0.048920 0.074647 0.084688
0.062440 0.074891 0.086275
0.080751 0.076692 0.089998
0.108797 0.077363 0.094820
0.143801 0.074983 0.099031
0.185702 0.066896 0.102785
0.232395 0.041016 0.106477
0.283421 0.000000 0.109987
0.337713 0.000000 0.113375
0.394385 0.000000 0.116732
0.451667 0.000000 0.120699
0.507500 0.000000 0.125154
0.560693 0.000000 0.130159
0.610529 0.000000 0.136172
0.662196 0.000000 0.143954
0.713191 0.000000 0.153658
0.756893 0.000000 0.164584
0.795010 0.000000 0.176638
0.830045 0.000000 0.190341
0.861814 0.000000 0.205875
0.890196 0.006378 0.223545
0.915007 0.134249 0.243107
0.936553 0.191257 0.264530
0.955200 0.238468 0.287938
0.971435 0.282231 0.313664
0.985718 0.324834 0.342412
0.998169 0.366735 0.373968
1.000000 0.409155 0.408881
1.000000 0.452247 0.446754
1.000000 0.496254 0.487678
1.000000 0.541070 0.531151
0.038605 0.078035 0.086549
0.047059 0.077272 0.086275
0.061433 0.078584 0.087160
0.079835 0.081025 0.091096
0.107607 0.082124 0.095827
0.141939 0.080598 0.099733
0.183352 0.073732 0.103243
0.229557 0.059785 0.106935
0.279973 0.005127 0.110018
0.334173 0.000000 0.113619
0.390265 0.000000 0.117037
0.447333 0.000000 0.121004
0.502983 0.000000 0.125124
0.556207 0.000000 0.130159
0.606104 0.000000 0.136049
0.657801 0.000000 0.143587
0.707759 0.000000 0.152804
0.751003 0.000000 0.163180
0.789273 0.000000 0.175082
0.824521 0.000000 0.188327
0.856809 0.000000 0.203586
0.885771 0.010864 0.220951
0.911162 0.132753 0.240269
0.933318 0.189059 0.261295
0.952483 0.236240 0.284672
0.969207 0.280095 0.310307
0.983917 0.322210 0.339086
0.996735 0.364294 0.370672
1.000000 0.406714 0.405524
1.000000 0.449866 0.443610
1.000000 0.493904 0.484565
1.000000 0.538689 0.527977
0.037568 0.085939 0.091035
0.048127 0.085542 0.089082
0.058839 0.083528 0.090486
0.078462 0.086671 0.092897
0.105867 0.088228 0.096986
0.140078 0.087282 0.100832
0.180728 0.082338 0.104280
0.226261 0.071382 0.107301
0.276524 0.040620 0.110567
0.330022 0.000000 0.113954
0.386267 0.000000 0.117586
0.443244 0.000000 0.121157
0.499062 0.000000 0.125460
0.552331 0.000000 0.130282
0.602228 0.000000 0.135988
0.654780 0.000000 0.143587
0.703975 0.000000 0.152804
0.746914 0.000000 0.162844
0.785367 0.000000 0.174319
0.820859 0.000000 0.187411
0.853605 0.000000 0.202579
0.883024 0.057679 0.219944
0.908812 0.140108 0.239078
0.931304 0.193301 0.259983
0.950805 0.239139 0.283268
0.967803 0.281712 0.308904
0.982727 0.323339 0.337316
0.995758 0.365057 0.368963
1.000000 0.407080 0.403906
1.000000 0.450050 0.441993
1.000000 0.493874 0.483009
1.000000 0.538506 0.526604
0.035035 0.102419 0.100496
0.051881 0.102510 0.100374
0.061250 0.101289 0.097169
0.073884 0.096132 0.100374
0.102663 0.100282 0.100832
0.136538 0.100130 0.102876
0.176272 0.097688 0.105745
0.221408 0.090913 0.108675
0.271061 0.077974 0.111666
0.324376 0.047547 0.115023
0.380041 0.000000 0.118379
0.436774 0.000000 0.122103
0.492378 0.000000 0.126131
0.545953 0.000000 0.130892
0.596490 0.000000 0.136721
0.649928 0.000000 0.144076
0.698085 0.000000 0.152529
0.740841 0.000000 0.162417
0.779080 0.000000 0.173434
0.814755 0.000000 0.186130
0.847807 0.000000 0.201053
0.877775 0.095644 0.217807
0.904448 0.156405 0.236728
0.927947 0.204440 0.258030
0.948455 0.248081 0.281865
0.966186 0.289982 0.307958
0.981659 0.330694 0.337102
0.994934 0.371832 0.369299
1.000000 0.413123 0.404334
1.000000 0.454963 0.442451
1.000000 0.497566 0.483070
1.000000 0.541253 0.526390
0.026795 0.127474 0.112947
0.045991 0.127749 0.111940
0.060029 0.127504 0.107973
0.078676 0.123262 0.105623
0.095491 0.114107 0.110780
0.131014 0.119387 0.110231
0.169345 0.116182 0.108156
0.213535 0.113344 0.110719
0.262364 0.106783 0.113619
0.314611 0.095277 0.116487
0.370001 0.075441 0.119753
0.426429 0.022004 0.123354
0.482338 0.000000 0.127138
0.536400 0.000000 0.131594
0.590112 0.000000 0.137606
0.642725 0.000000 0.144656
0.691096 0.000000 0.153017
0.734493 0.000000 0.162661
0.773404 0.000000 0.173434
0.809567 0.000000 0.186099
0.842985 0.084840 0.200595
0.873442 0.139071 0.217288
0.900603 0.183841 0.236088
0.924712 0.224918 0.257237
0.945769 0.264408 0.280980
0.964050 0.303075 0.307469
0.979797 0.341955 0.336645
0.993408 0.380835 0.368841
1.000000 0.420569 0.403876
1.000000 0.461219 0.441993
1.000000 0.502739 0.482734
1.000000 0.545464 0.526085
0.004486 0.161044 0.127382
0.025177 0.161685 0.125917
0.054444 0.162081 0.124269
0.073274 0.159609 0.114504
0.104799 0.150179 0.115389
0.124483 0.137636 0.122530
0.166690 0.144717 0.121431
0.205966 0.137453 0.114382
0.252964 0.134340 0.115999
0.304753 0.129335 0.118471
0.359716 0.120882 0.121553
0.415961 0.108186 0.125002
0.472084 0.091035 0.128786
0.527398 0.069215 0.133120
0.583307 0.029267 0.139132
0.635218 0.000000 0.145907
0.683619 0.000000 0.153719
0.727596 0.038239 0.163058
0.767422 0.081239 0.173892
0.804532 0.114717 0.186343
0.838865 0.148898 0.201205
0.870207 0.183597 0.217868
0.917967 0.255283 0.255100
0.939330 0.288518 0.277836
0.957641 0.321050 0.302586
0.973480 0.353826 0.329747
0.987121 0.387243 0.359228
0.998901 0.421637 0.391302
1.000000 0.457160 0.426062
1.000000 0.493935 0.463447
1.000000 0.532036 0.503349
1.000000 0.571069 0.545006
0.000000 0.207004 0.144991
0.000000 0.207553 0.143587
0.022705 0.208347 0.141268
0.064179 0.207980 0.129610
0.102174 0.202274 0.123964
0.142977 0.187564 0.127565
0.165530 0.171420 0.137270
0.214725 0.180331 0.136538
0.256352 0.171359 0.125704
0.300023 0.161837 0.121736
0.355322 0.159091 0.124575
0.412238 0.153933 0.127565
0.469703 0.147494 0.131472
0.530175 0.141543 0.136324
0.585657 0.136873 0.142123
0.636957 0.135744 0.149294
0.684901 0.139681 0.157229
0.728756 0.148531 0.166537
0.768917 0.164065 0.177554
0.807065 0.184634 0.190738
0.842954 0.210575 0.206607
0.876005 0.239872 0.225559
0.905303 0.271885 0.247410
0.930541 0.304479 0.271824
0.951629 0.337346 0.298619
0.969116 0.369329 0.326909
0.983734 0.401221 0.357183
0.996124 0.433906 0.389746
1.000000 0.467628 0.424659
1.000000 0.502708 0.462196
1.000000 0.539269 0.501946
1.000000 0.577050 0.543938
0.000000 0.254948 0.163272
0.000000 0.255528 0.161746
0.000000 0.256352 0.159579
0.062257 0.257511 0.153536
0.091920 0.253666 0.136172
0.141939 0.244785 0.135042
0.185916 0.226780 0.141695
0.210666 0.208774 0.153048
0.264042 0.219303 0.153933
0.306676 0.210025 0.139101
0.343114 0.192630 0.128542
0.399725 0.191135 0.130282
0.459907 0.190707 0.134127
0.518059 0.189456 0.138643
0.572778 0.188815 0.144045
0.623468 0.189822 0.150423
0.671717 0.194064 0.157961
0.716487 0.201663 0.166934
0.757809 0.213138 0.177584
0.796963 0.229221 0.190433
0.833921 0.249882 0.206058
0.867948 0.274662 0.224735
0.898253 0.301854 0.246189
0.924407 0.330663 0.270390
0.946502 0.359747 0.296941
0.964721 0.389014 0.325475
0.980011 0.418280 0.355749
0.992981 0.448707 0.388586
1.000000 0.480568 0.423835
1.000000 0.513909 0.461555
1.000000 0.549035 0.501732
1.000000 0.585473 0.543908
0.000000 0.308507 0.183902
0.000000 0.309209 0.182162
0.000000 0.310155 0.180575
0.041901 0.311803 0.176669
0.077028 0.310491 0.152743
0.136294 0.304173 0.148318
0.192477 0.291661 0.150820
0.237003 0.272557 0.159335
0.263066 0.252842 0.172152
0.323522 0.268132 0.177035
0.368444 0.259312 0.157778
0.405280 0.240635 0.142977
0.447089 0.227543 0.137087
0.504601 0.229526 0.141176
0.558709 0.231418 0.146090
0.609735 0.234470 0.152193
0.658717 0.239384 0.159518
0.704524 0.246830 0.168063
0.746914 0.257115 0.178439
0.787228 0.271244 0.191226
0.825223 0.288975 0.206546
0.860349 0.310399 0.224979
0.891539 0.334295 0.246372
0.918608 0.359655 0.270298
0.941466 0.385870 0.296849
0.960449 0.412085 0.325536
0.976349 0.438849 0.355901
0.989807 0.466896 0.388769
1.000000 0.496529 0.424201
1.000000 0.527855 0.462135
1.000000 0.561120 0.502464
1.000000 0.595911 0.544884
0.000000 0.366247 0.206821
0.000000 0.366888 0.205417
0.000000 0.367559 0.203708
0.000000 0.369299 0.200229
0.086122 0.369604 0.184451
0.128542 0.365515 0.165530
0.188632 0.359777 0.163210
0.251743 0.345464 0.170993
0.298619 0.327398 0.182315
0.327581 0.308049 0.196841
0.388830 0.323857 0.205112
0.430518 0.312657 0.180423
0.463813 0.291966 0.161013
0.490486 0.265904 0.145480
0.542901 0.267521 0.148653
0.595483 0.272831 0.154360
0.646021 0.279667 0.161624
0.693568 0.288212 0.169986
0.737240 0.298405 0.180270
0.778347 0.311376 0.192752
0.817014 0.327276 0.207889
0.852323 0.345800 0.225772
0.883940 0.366155 0.246464
0.911498 0.388159 0.269810
0.935119 0.411078 0.295872
0.954986 0.434821 0.324437
0.971771 0.459663 0.355261
0.986023 0.485847 0.388708
0.998108 0.513878 0.424781
1.000000 0.543755 0.463508
1.000000 0.575616 0.504570
1.000000 0.609216 0.547997
0.000000 0.427588 0.233036
0.000000 0.428382 0.231937
0.000000 0.429419 0.230533
0.000000 0.431647 0.227909
0.103975 0.434363 0.221103
0.117983 0.433631 0.187167
0.190646 0.428931 0.184970
0.254002 0.421149 0.184756
0.317937 0.404181 0.195560
0.363958 0.385504 0.208743
0.392798 0.365026 0.224186
0.453040 0.381476 0.236820
0.490700 0.368444 0.207156
0.520378 0.346136 0.183047
0.544152 0.319097 0.163607
0.578485 0.305882 0.156893
0.629938 0.313878 0.163607
0.678614 0.323461 0.171756
0.723903 0.334081 0.181704
0.766445 0.346563 0.193790
0.806363 0.361761 0.208896
0.843137 0.378912 0.226566
0.876066 0.398077 0.247349
0.904814 0.418189 0.270878
0.929351 0.439277 0.296971
0.949981 0.460761 0.325536
0.967437 0.483162 0.356390
0.982238 0.507164 0.389929
0.994751 0.532982 0.426246
1.000000 0.560784 0.465126
1.000000 0.590753 0.506615
1.000000 0.622644 0.550378
0.000000 0.491981 0.263218
0.000000 0.492653 0.262394
0.000000 0.493446 0.260960
0.000000 0.495155 0.258427
0.114717 0.497810 0.255100
0.140139 0.497963 0.227970
0.189151 0.495216 0.209201
0.255711 0.489937 0.206485
0.324163 0.479011 0.211215
0.385382 0.462501 0.223819
0.430213 0.444312 0.238376
0.458930 0.424689 0.255314
0.546319 0.469184 0.290074
0.577996 0.452674 0.252171
0.602441 0.426886 0.220340
0.622309 0.397040 0.194278
0.639185 0.365332 0.172976
0.687068 0.374945 0.180819
0.731838 0.386023 0.191318
0.773678 0.398566 0.204166
0.812650 0.412696 0.219821
0.848081 0.428138 0.238346
0.879515 0.444648 0.259190
0.907012 0.462074 0.283024
0.930571 0.480232 0.309514
0.950500 0.499092 0.338384
0.967376 0.518700 0.369451
0.981659 0.539849 0.402838
0.993744 0.562676 0.438697
1.000000 0.587701 0.477394
1.000000 0.614771 0.518334
1.000000 0.643946 0.561425
0.000000 0.566491 0.302586
0.000000 0.566796 0.301793
0.000000 0.566735 0.300145
0.000000 0.567132 0.297490
0.128176 0.567834 0.293858
0.175723 0.567498 0.276585
0.191714 0.565637 0.239567
0.264256 0.560388 0.236820
0.328496 0.554986 0.233860
0.401740 0.542962 0.245274
0.461799 0.529168 0.260960
0.507103 0.514580 0.279088
0.537591 0.499001 0.299351
0.593927 0.518791 0.325628
0.624537 0.504326 0.285710
0.648005 0.480812 0.251286
0.666804 0.452064 0.222019
0.682918 0.421485 0.197299
0.714076 0.413153 0.192386
0.757809 0.426215 0.205081
0.798489 0.440467 0.220249
0.835752 0.455665 0.238529
0.868803 0.471595 0.259220
0.897765 0.488228 0.283177
0.922698 0.505058 0.309361
0.943816 0.522667 0.338262
0.961669 0.540917 0.369451
0.976776 0.560449 0.403265
0.989563 0.581689 0.439582
1.000000 0.605127 0.478737
1.000000 0.630762 0.520562
1.000000 0.658106 0.564019
0.000000 0.620020 0.334569
0.000000 0.620386 0.333654
0.000000 0.620264 0.332494
0.000000 0.620417 0.329839
0.140017 0.620630 0.326390
0.208499 0.621027 0.320958
0.216709 0.619898 0.283940
0.265843 0.616724 0.265293
0.332891 0.612055 0.262852
0.398627 0.606165 0.263767
0.468605 0.594446 0.278752
0.523888 0.582025 0.295995
0.565057 0.568597 0.315160
0.592767 0.553338 0.335668
0.643641 0.572168 0.367315
0.670039 0.556634 0.324254
0.690242 0.532586 0.286046
0.707240 0.504784 0.253605
0.722805 0.475898 0.226444
0.740993 0.451179 0.206394
0.783688 0.466072 0.221286
0.822873 0.481788 0.239506
0.857847 0.497749 0.260227
0.888487 0.514092 0.283970
0.914885 0.530541 0.310460
0.937224 0.547082 0.339605
0.956085 0.564202 0.371221
0.971984 0.582422 0.405463
0.985443 0.602289 0.442329
0.996674 0.624262 0.482124
1.000000 0.648524 0.524681
1.000000 0.673823 0.568139
0.000000 0.670283 0.367681
0.000000 0.670649 0.367224
0.000000 0.670466 0.365972
0.075685 0.670283 0.363561
0.159213 0.669978 0.360754
0.228153 0.670130 0.357610
0.252384 0.669703 0.332616
0.269200 0.668696 0.296330
0.337407 0.664759 0.294347
0.400580 0.660822 0.292332
0.468208 0.653559 0.299382
0.531212 0.643122 0.315648
0.580835 0.631983 0.333806
0.618067 0.619409 0.353277
0.643183 0.604944 0.374121
0.687312 0.620783 0.410285
0.710262 0.604852 0.365148
0.728298 0.581567 0.324559
0.744503 0.555474 0.289830
0.760372 0.529015 0.260472
0.776730 0.503410 0.235874
0.809262 0.505821 0.240543
0.846067 0.522087 0.261234
0.878538 0.538506 0.285130
0.906554 0.554864 0.311864
0.930358 0.571252 0.341558
0.950469 0.587915 0.374090
0.967437 0.605737 0.409613
0.981720 0.624933 0.447913
0.993530 0.646113 0.489357
1.000000 0.669306 0.533257
1.000000 0.693019 0.577234
0.000000 0.715633 0.401343
0.000000 0.716030 0.401129
0.014130 0.716152 0.400183
0.120729 0.716243 0.398840
0.186587 0.716365 0.396521
0.249729 0.716762 0.394781
0.293828 0.717311 0.383551
0.301732 0.717708 0.347204
0.347997 0.715572 0.330602
0.410224 0.711818 0.329046
0.467414 0.707759 0.326909
0.533104 0.698482 0.339635
0.587732 0.687678 0.355657
0.630854 0.675898 0.373175
0.663050 0.663050 0.391455
0.685084 0.649104 0.411475
0.723964 0.663111 0.452247
0.744869 0.648219 0.406744
0.762448 0.627192 0.365606
0.779141 0.604364 0.330297
0.795712 0.581109 0.300206
0.812680 0.558343 0.274601
0.835538 0.547021 0.264347
0.869780 0.563958 0.288457
0.899351 0.580529 0.315923
0.924468 0.596796 0.346258
0.945556 0.613031 0.379706
0.963256 0.629969 0.416052
0.978058 0.648005 0.454963
0.990204 0.667720 0.496956
0.999786 0.688716 0.540581
1.000000 0.710262 0.584222
0.040558 0.754849 0.433814
0.083528 0.754971 0.433478
0.114992 0.754879 0.432807
0.161746 0.754818 0.431586
0.214908 0.754879 0.430152
0.271458 0.754971 0.428779
0.330510 0.755367 0.428382
0.339788 0.755764 0.398077
0.355779 0.755886 0.364660
0.416449 0.752377 0.363226
0.472663 0.748775 0.361852
0.527642 0.744045 0.363317
0.587366 0.734768 0.378637
0.635706 0.724727 0.395178
0.673701 0.713649 0.411994
0.702113 0.701564 0.429603
0.722072 0.688869 0.449622
0.756344 0.701839 0.495094
0.776028 0.688563 0.450233
0.793149 0.669978 0.409400
0.809659 0.649836 0.373999
0.826078 0.628992 0.343359
0.842985 0.608759 0.317266
0.860685 0.589929 0.295811
0.890257 0.602747 0.318029
0.917021 0.619196 0.349035
0.939452 0.635401 0.383337
0.958190 0.651911 0.420539
0.973754 0.669276 0.460609
0.986450 0.687922 0.503685
0.996399 0.707362 0.547753
1.000000 0.727443 0.591760
0.137087 0.790738 0.467018
0.153109 0.791165 0.467262
0.197604 0.805722 0.482002
0.229007 0.805417 0.481147
0.270909 0.804746 0.479896
0.318456 0.803952 0.478981
0.370794 0.803098 0.478767
0.397040 0.802701 0.462226
0.403662 0.802914 0.427985
0.442298 0.800565 0.413458
0.494423 0.796750 0.412116
0.542962 0.792599 0.410254
0.595453 0.785794 0.416266
0.646601 0.776486 0.431067
0.687892 0.766629 0.446387
0.720577 0.756130 0.462470
0.745327 0.745083 0.479133
0.762966 0.733944 0.499397
0.791379 0.744594 0.548669
0.809079 0.732174 0.503563
0.825040 0.715419 0.462470
0.840726 0.697261 0.426856
0.856535 0.678614 0.395941
0.872709 0.660609 0.369940
0.889281 0.643336 0.348211
0.911040 0.643458 0.355505
0.933989 0.658534 0.389319
0.953216 0.673823 0.426398
0.969360 0.690089 0.466957
0.982452 0.707179 0.510033
0.992859 0.725277 0.554620
1.000000 0.743801 0.598993
0.202792 0.825376 0.503502
0.216495 0.826993 0.505272
0.233158 0.828550 0.506859
0.261601 0.829679 0.508232
0.299565 0.830228 0.508995
0.343175 0.829923 0.509300
0.390875 0.829099 0.510094
0.433570 0.828214 0.507256
0.439246 0.828672 0.477913
0.452277 0.828611 0.448310
0.501427 0.825132 0.447150
0.547723 0.821439 0.446143
0.590814 0.817350 0.444068
0.641718 0.809751 0.455207
0.686122 0.801114 0.469703
0.722347 0.792081 0.484657
0.751278 0.782712 0.500206
0.773373 0.773007 0.516350
0.789822 0.763943 0.538140
0.814359 0.773617 0.590265
0.830930 0.763027 0.548089
0.846769 0.749233 0.509270
0.862333 0.733822 0.474983
0.877897 0.717952 0.445594
0.893675 0.702358 0.420661
0.909911 0.687831 0.400855
0.927611 0.679347 0.394079
0.947997 0.694545 0.432349
0.964782 0.710048 0.473640
0.978393 0.725978 0.517082
0.989258 0.742855 0.562249
0.997833 0.760037 0.606928
0.250370 0.850675 0.533715
0.261936 0.851835 0.535241
0.275547 0.853025 0.536950
0.299565 0.853758 0.538293
0.332464 0.854002 0.539422
0.371099 0.853422 0.540185
0.414038 0.852384 0.541497
0.460456 0.851164 0.544182
0.476020 0.851194 0.525872
0.482002 0.851743 0.496559
0.512810 0.850065 0.483986
0.555901 0.846738 0.483192
0.596460 0.843076 0.481758
0.636561 0.838743 0.482063
0.683223 0.831022 0.495521
0.721889 0.823117 0.509728
0.753719 0.815091 0.524407
0.779232 0.806912 0.539788
0.799130 0.798734 0.555627
0.814359 0.791714 0.578851
0.835050 0.800015 0.631525
0.850431 0.791196 0.593256
0.865660 0.779812 0.557946
0.880735 0.766934 0.525994
0.895811 0.753475 0.498207
0.911070 0.740322 0.475288
0.926757 0.728267 0.457832
0.942901 0.718013 0.446265
0.959869 0.728481 0.479408
0.974060 0.743618 0.523796
0.985473 0.759335 0.569451
0.994507 0.775326 0.614466
0.295720 0.872831 0.563561
0.305425 0.873716 0.565118
0.317113 0.874571 0.566705
0.338018 0.875029 0.568200
0.366644 0.874968 0.569635
0.400916 0.874174 0.570916
0.439338 0.872984 0.572686
0.481727 0.871427 0.575830
0.513420 0.870420 0.571954
0.518639 0.870878 0.547204
0.527947 0.871214 0.521324
0.567193 0.868132 0.520623
0.604669 0.864836 0.519677
0.640284 0.861387 0.518303
0.679408 0.856382 0.523125
0.720058 0.849577 0.536980
0.754269 0.842893 0.551537
0.782589 0.836484 0.566766
0.805753 0.830198 0.582513
0.824186 0.824063 0.598993
0.838529 0.819303 0.624384
0.855863 0.826688 0.677607
0.869902 0.819455 0.643549
0.884306 0.810544 0.613001
0.898741 0.800351 0.585443
0.913176 0.789853 0.561913
0.927947 0.779690 0.542809
0.942718 0.770199 0.528557
0.957702 0.762234 0.520195
0.971832 0.766415 0.542138
0.983215 0.780667 0.587579
0.992157 0.795285 0.632136
0.350195 0.895476 0.598810
0.357366 0.895689 0.599603
0.365484 0.895781 0.600366
0.382055 0.895476 0.601282
0.406378 0.894804 0.602258
0.436225 0.893645 0.603723
0.470863 0.892180 0.606134
0.509789 0.890440 0.610101
0.551446 0.888579 0.616175
0.560327 0.888884 0.599023
0.565911 0.889616 0.575830
0.587823 0.888396 0.564141
0.621393 0.885527 0.563653
0.653437 0.882475 0.562737
0.683955 0.879240 0.561364
0.721065 0.873899 0.570153
0.755642 0.867887 0.583337
0.784878 0.862058 0.596918
0.809323 0.856474 0.611109
0.829374 0.851041 0.625788
0.845396 0.845731 0.640650
0.857969 0.841794 0.666316
0.871733 0.847288 0.714931
0.883909 0.840848 0.685664
0.897276 0.833524 0.658808
0.910826 0.825406 0.635309
0.924498 0.816831 0.615045
0.938384 0.808774 0.599634
0.952392 0.801816 0.589624
0.966369 0.796292 0.585382
0.979431 0.796078 0.596124
0.988769 0.809903 0.641077
0.392340 0.911315 0.627070
0.398779 0.911467 0.627924
0.406317 0.911498 0.628748
0.420935 0.911131 0.629847
0.442359 0.910307 0.631342
0.468818 0.909026 0.633082
0.500114 0.907378 0.635920
0.534905 0.905486 0.640009
0.572534 0.903410 0.645869
0.595941 0.902434 0.642603
0.600610 0.903014 0.623316
0.606104 0.903563 0.601373
0.635767 0.901030 0.601190
0.664668 0.898344 0.600732
0.692439 0.895598 0.599908
0.719417 0.892760 0.599084
0.754299 0.887388 0.611414
0.784207 0.882231 0.624201
0.809628 0.877348 0.637507
0.831022 0.872679 0.651118
0.848753 0.868162 0.665095
0.863035 0.863767 0.679225
0.874296 0.861051 0.705776
0.885863 0.865385 0.748226
0.895109 0.858427 0.722316
0.907469 0.852537 0.699397
0.920195 0.846036 0.679500
0.933196 0.839597 0.663569
0.946410 0.833738 0.652338
0.959594 0.829099 0.646662
0.972473 0.826261 0.647395
0.984619 0.825620 0.654719
0.442481 0.926909 0.659327
0.448005 0.927001 0.660395
0.454688 0.926879 0.661189
0.467170 0.926299 0.662226
0.485603 0.925261 0.663813
0.508721 0.923796 0.665797
0.535943 0.921965 0.668574
0.566186 0.919829 0.672328
0.599084 0.917510 0.677607
0.633356 0.915038 0.684871
0.637232 0.915251 0.669215
0.640894 0.915618 0.650752
0.654658 0.914733 0.639338
0.679347 0.912230 0.638453
0.703426 0.909575 0.637201
0.726833 0.906889 0.635676
0.752590 0.903471 0.637751
0.782132 0.898589 0.648951
0.807889 0.894072 0.661036
0.830076 0.889921 0.673732
0.848936 0.886015 0.686702
0.864591 0.882261 0.699825
0.877165 0.878508 0.713069
0.886961 0.876097 0.738399
0.896574 0.879088 0.773983
0.905455 0.874540 0.756680
0.916930 0.870146 0.738186
0.928801 0.865385 0.722652
0.940978 0.860838 0.711055
0.953277 0.857176 0.704372
0.965362 0.855009 0.703548
0.976837 0.854826 0.708980
0.481971 0.938018 0.685267
0.486763 0.938048 0.686244
0.492927 0.937926 0.687190
0.503990 0.937316 0.688441
0.520165 0.936278 0.690028
0.540826 0.934874 0.692256
0.565148 0.933135 0.695308
0.592462 0.931090 0.699397
0.622431 0.928862 0.704952
0.653956 0.926482 0.712154
0.671595 0.925383 0.709987
0.674983 0.925811 0.695491
0.678492 0.926238 0.678737
0.698085 0.924437 0.676661
0.719112 0.922271 0.675959
0.739651 0.920043 0.675044
0.759792 0.917815 0.673884
0.784298 0.914397 0.679561
0.809506 0.910307 0.690455
0.831449 0.906523 0.701625
0.850340 0.902861 0.712856
0.866453 0.899382 0.724025
0.879850 0.895933 0.734920
0.890776 0.892821 0.749203
0.899321 0.890715 0.770840
0.907591 0.892973 0.800381
0.915160 0.889311 0.787961
0.925841 0.886503 0.774258
0.936950 0.883574 0.763546
0.948272 0.881132 0.756924
0.959533 0.879759 0.755093
0.970306 0.880003 0.758724
0.523217 0.948333 0.712001
0.527428 0.948272 0.712795
0.532219 0.947997 0.713497
0.541711 0.947356 0.714595
0.555596 0.946288 0.716121
0.573571 0.944854 0.718349
0.595087 0.943114 0.721309
0.619654 0.941100 0.725429
0.646632 0.938872 0.730861
0.675135 0.936553 0.737789
0.704067 0.934173 0.746181
0.707088 0.934569 0.735012
0.710201 0.935027 0.722072
0.718227 0.934752 0.712154
0.735988 0.932921 0.711635
0.753506 0.930999 0.710780
0.770748 0.929046 0.709651
0.787747 0.927092 0.708675
0.810697 0.923613 0.716426
0.832090 0.920043 0.726131
0.850797 0.916716 0.735958
0.867094 0.913573 0.745815
0.880949 0.910460 0.755306
0.892607 0.907347 0.764401
0.902342 0.904845 0.779507
0.909880 0.903044 0.798001
0.917144 0.904753 0.822446
0.923705 0.901915 0.813962
0.933562 0.900237 0.803799
0.943938 0.898924 0.797269
0.954376 0.898314 0.794705
0.964508 0.898955 0.796750
0.560784 0.957061 0.736324
0.564324 0.956909 0.736965
0.568536 0.956664 0.737667
0.576867 0.956023 0.738857
0.589776 0.955047 0.740688
0.606439 0.953765 0.743435
0.626886 0.952239 0.747280
0.650080 0.950500 0.752255
0.675593 0.948608 0.758572
0.702235 0.946593 0.766171
0.729152 0.944518 0.774929
0.744228 0.943786 0.775784
0.747402 0.944335 0.766812
0.750362 0.944854 0.756191
0.761868 0.943938 0.753170
0.776150 0.942443 0.752651
0.790341 0.940887 0.752010
0.804379 0.939330 0.751156
0.819364 0.937591 0.751553
0.838987 0.934417 0.759365
0.856504 0.931456 0.767391
0.872007 0.928618 0.775326
0.885466 0.925811 0.782956
0.897063 0.923033 0.790280
0.906889 0.920256 0.797269
0.915404 0.918303 0.812497
0.921965 0.916747 0.827573
0.928099 0.917845 0.846799
0.933776 0.915770 0.841306
0.942596 0.915068 0.834318
0.952026 0.915190 0.831357
0.961303 0.916075 0.831937
0.606104 0.965942 0.764401
0.608972 0.965759 0.764950
0.612360 0.965484 0.765530
0.619562 0.964813 0.766598
0.630579 0.963806 0.768368
0.644923 0.962463 0.770871
0.662318 0.960906 0.774289
0.682124 0.959106 0.778653
0.703883 0.957153 0.784115
0.726772 0.955077 0.790616
0.749874 0.952972 0.797940
0.772641 0.950927 0.806149
0.775265 0.951232 0.799130
0.777249 0.951568 0.790585
0.780514 0.951720 0.782193
0.792355 0.950469 0.781796
