其他预设/【240】TEZZA调色预设合集24款/1.LUT预设（视频调色-PR-AE-PS-FCPX-达芬奇用）/Tezza古董__-6.cube
# Created by Adobe Lightroom plugin Export LUT (1.17.0)
# www.johnrellis.com/lightroom/exportlut.htm
# Preset: Tezza古董[素锦印象]-6
# Color profile: /Library/Application Support/Adobe/Color/Profiles/Recommended/AdobeRGB1998.icc
LUT_3D_SIZE 8
DOMAIN_MIN 0.000000 0.000000 0.000000
DOMAIN_MAX 0.903226 0.903226 0.903226
0.104891 0.063813 0.072328
0.158419 0.040681 0.071839
0.381720 0.000000 0.052705
0.666621 0.000000 0.000000
0.834012 0.000000 0.000000
0.938109 0.000000 0.000000
1.000000 0.000000 0.000000
1.000000 0.000000 0.000000
0.110201 0.093355 0.086458
0.135348 0.084993 0.081331
0.300359 0.019226 0.068147
0.598138 0.000000 0.000000
0.804471 0.000000 0.000000
0.913725 0.000000 0.000000
0.990204 0.000000 0.000000
1.000000 0.000000 0.000000
0.106630 0.198489 0.130434
0.148135 0.208652 0.134096
0.229831 0.167880 0.100679
0.438025 0.181064 0.068208
0.724575 0.197848 0.000000
0.876890 0.196323 0.000000
0.982086 0.234745 0.000000
1.000000 0.281224 0.000000
0.000000 0.379004 0.213474
0.120424 0.394141 0.220737
0.232242 0.410620 0.209262
0.415839 0.354864 0.146059
0.634913 0.384802 0.069581
0.810300 0.413977 0.000000
0.938537 0.443641 0.000000
1.000000 0.478737 0.000000
0.000000 0.546441 0.307164
0.000000 0.556298 0.313054
0.267460 0.588342 0.337957
0.351385 0.593133 0.274235
0.560540 0.508385 0.203647
0.721401 0.511162 0.148684
0.859373 0.553002 0.201511
0.977539 0.621790 0.273167
0.000000 0.677790 0.403021
0.000000 0.693599 0.417578
0.288121 0.708156 0.445563
0.445899 0.716701 0.457801
0.535302 0.700160 0.394141
0.688685 0.644526 0.317449
0.821988 0.657649 0.318547
0.931914 0.726650 0.439582
0.000000 0.798703 0.516381
0.000000 0.801846 0.522850
0.325505 0.800870 0.539544
0.540490 0.801755 0.582055
0.608911 0.801724 0.580041
0.682490 0.786557 0.528344
0.792081 0.756283 0.480385
0.895811 0.782376 0.518242
0.274662 0.905303 0.653986
0.326238 0.903532 0.656886
0.466987 0.899290 0.672328
0.632258 0.896757 0.707088
0.696407 0.884337 0.701595
0.751980 0.889799 0.712642
0.821073 0.884062 0.680568
0.899229 0.871305 0.661158
0.108827 0.069368 0.086000
0.150118 0.053223 0.084443
0.329168 0.000000 0.062287
0.597772 0.000000 0.000000
0.799832 0.000000 0.000000
0.906889 0.000000 0.000000
0.985412 0.000000 0.000000
1.000000 0.000000 0.000000
0.109651 0.093385 0.096498
0.148592 0.092775 0.096101
0.285344 0.073793 0.078889
0.542260 0.000000 0.000000
0.771695 0.000000 0.000000
0.889097 0.000000 0.000000
0.972656 0.000000 0.000000
1.000000 0.000000 0.000000
0.111666 0.194980 0.137972
0.165835 0.210300 0.148470
0.245762 0.179416 0.120241
0.424414 0.184146 0.081727
0.684108 0.199008 0.000000
0.848966 0.198245 0.000000
0.955596 0.208743 0.000000
1.000000 0.250919 0.000000
0.070130 0.355901 0.211063
0.139651 0.375189 0.221622
0.249668 0.398016 0.220554
0.395087 0.330571 0.157504
0.584985 0.343603 0.089754
0.765743 0.373877 0.000000
0.909178 0.405737 0.000000
1.000000 0.445899 0.000000
0.000000 0.537224 0.309300
0.000000 0.545006 0.313725
0.280308 0.576257 0.341955
0.352911 0.571984 0.280827
0.539483 0.484077 0.206882
0.701076 0.491341 0.153292
0.842985 0.531701 0.175875
0.967163 0.599115 0.241672
0.000000 0.662928 0.396490
0.000000 0.668910 0.401923
0.267521 0.686549 0.428717
0.435828 0.700984 0.447517
0.528344 0.689723 0.392218
0.683955 0.638849 0.323644
0.815122 0.650080 0.318212
0.924559 0.711604 0.415747
0.000000 0.780117 0.499733
0.000000 0.778958 0.500450
0.285710 0.782528 0.518456
0.525689 0.789425 0.569665
0.600885 0.793301 0.572442
0.672663 0.777584 0.520104
0.779690 0.742702 0.464485
0.883696 0.764858 0.494148
0.217807 0.895689 0.638880
0.284550 0.895598 0.644068
0.440314 0.892576 0.660853
0.616663 0.891081 0.697719
0.710445 0.891722 0.715755
0.757717 0.892576 0.719081
0.818418 0.881651 0.679316
0.893797 0.865324 0.653925
0.112551 0.083162 0.124819
0.146578 0.096681 0.118074
0.358312 0.000000 0.132784
0.640803 0.000000 0.008240
0.797635 0.000000 0.000000
0.900725 0.000000 0.000000
0.988647 0.000000 0.000000
1.000000 0.000000 0.000000
0.115877 0.095552 0.138125
0.162448 0.116182 0.146883
0.366217 0.000000 0.131991
0.606744 0.000000 0.051698
0.769772 0.000000 0.000000
0.882475 0.000000 0.000000
0.976349 0.000000 0.000000
1.000000 0.000000 0.000000
0.107759 0.201297 0.178073
0.154971 0.223575 0.186526
0.302739 0.225437 0.188052
0.508782 0.232212 0.140597
0.715084 0.241886 0.000000
0.845335 0.259098 0.000000
0.954162 0.262882 0.000000
1.000000 0.277104 0.000000
0.000000 0.369024 0.244968
0.124483 0.392462 0.258091
0.324834 0.443671 0.295537
0.455268 0.385748 0.232212
0.630121 0.390204 0.170535
0.780545 0.403357 0.082734
0.913420 0.432471 0.000000
1.000000 0.464424 0.000000
0.000000 0.531487 0.327092
0.000000 0.545953 0.336706
0.311101 0.588342 0.380529
0.438758 0.601862 0.379919
0.583307 0.526390 0.282017
0.722133 0.519829 0.227481
0.846891 0.542748 0.193118
0.969848 0.606714 0.252415
0.000000 0.660487 0.410895
0.000000 0.667536 0.417731
0.275364 0.685420 0.444678
0.476936 0.701137 0.480537
0.553246 0.693263 0.437171
0.689448 0.642908 0.369238
0.814206 0.654780 0.358862
0.927184 0.715785 0.422644
0.000000 0.782559 0.513695
0.000000 0.782559 0.515831
0.280766 0.783536 0.529534
0.533745 0.787533 0.580926
0.616083 0.791501 0.587366
0.683711 0.780514 0.546380
0.788571 0.752071 0.502342
0.893675 0.782254 0.536492
0.155550 0.895872 0.642573
0.222354 0.893553 0.642878
0.398138 0.889311 0.655604
0.597589 0.890593 0.696162
0.713588 0.890013 0.721492
0.763455 0.893065 0.726741
0.822416 0.884642 0.692531
0.898283 0.870512 0.670466
0.109926 0.104219 0.186496
0.140932 0.120760 0.197330
0.259525 0.164614 0.217197
0.635554 0.000000 0.233494
0.828458 0.000000 0.103944
0.906249 0.000000 0.000000
0.977722 0.000000 0.000000
1.000000 0.000000 0.000000
0.119265 0.119356 0.204562
0.155978 0.140566 0.220005
0.294774 0.209781 0.242649
0.651240 0.000000 0.241215
0.817716 0.000000 0.118837
0.896910 0.000000 0.000000
0.968292 0.010376 0.000000
1.000000 0.000000 0.000000
0.103914 0.170748 0.219455
0.136080 0.184360 0.234104
0.359258 0.300847 0.303197
0.637476 0.235325 0.259342
0.777646 0.245274 0.176883
0.872374 0.268925 0.075105
0.959991 0.302007 0.000000
1.000000 0.277073 0.000000
0.000000 0.354498 0.297368
0.085634 0.378027 0.309392
0.313420 0.456092 0.354803
0.526726 0.452827 0.355810
0.670253 0.436896 0.284184
0.808713 0.434974 0.209903
0.918090 0.440772 0.092134
1.000000 0.460456 0.000000
0.000000 0.532586 0.367041
0.000000 0.543755 0.373724
0.275395 0.586023 0.409522
0.530144 0.627192 0.472694
0.632746 0.575006 0.399176
0.748318 0.560876 0.337621
0.862913 0.570703 0.294377
0.977020 0.610132 0.255467
0.000000 0.664118 0.442451
0.000000 0.678126 0.454597
0.257023 0.693568 0.475959
0.551446 0.717372 0.547997
0.612177 0.719356 0.525444
0.715572 0.669520 0.459907
0.824033 0.676570 0.436683
0.931426 0.723110 0.454780
0.000000 0.779202 0.529412
0.000000 0.782162 0.533684
0.248936 0.788449 0.549981
0.516716 0.794675 0.595300
0.655146 0.801907 0.628138
0.710231 0.794675 0.598352
0.798428 0.762600 0.550134
0.899077 0.792233 0.572137
0.000153 0.901305 0.660304
0.177737 0.901335 0.663539
0.357092 0.898131 0.672145
0.551934 0.893309 0.696040
0.720180 0.890349 0.735653
0.771420 0.894285 0.739315
0.826200 0.888487 0.711635
0.902312 0.875273 0.690700
0.093874 0.134096 0.265873
0.125429 0.152804 0.284672
0.322362 0.278721 0.324773
0.534691 0.206943 0.437659
0.808438 0.000000 0.362310
0.922057 0.000000 0.203922
0.987030 0.000000 0.085878
1.000000 0.000000 0.000000
0.106447 0.145754 0.274784
0.137362 0.166476 0.296666
0.329076 0.292332 0.348516
0.550072 0.260624 0.451942
0.807034 0.000000 0.366705
0.917113 0.000000 0.229984
0.983703 0.000000 0.100038
1.000000 0.028168 0.000000
0.091737 0.144442 0.248295
0.111269 0.150607 0.263798
0.306767 0.298222 0.382483
0.574701 0.396399 0.477729
0.799924 0.240238 0.377111
0.891234 0.257755 0.273747
0.968475 0.248325 0.136782
1.000000 0.246799 0.000000
0.000000 0.272343 0.311528
0.070008 0.289342 0.326329
0.237827 0.363928 0.387671
0.601099 0.547143 0.510704
0.752041 0.506767 0.439979
0.846708 0.472633 0.354040
0.937865 0.442573 0.244694
1.000000 0.411536 0.000000
0.000000 0.484871 0.403845
0.000000 0.504570 0.415564
0.210666 0.566094 0.452430
0.550744 0.631708 0.525689
0.665949 0.609949 0.508995
0.762295 0.586389 0.440528
0.882414 0.581170 0.370977
0.989044 0.583185 0.259007
0.000000 0.637446 0.461402
0.000000 0.644404 0.466194
0.153567 0.664027 0.483040
0.476295 0.694118 0.534661
0.649378 0.717403 0.584894
0.729366 0.683375 0.531456
0.830533 0.689235 0.501518
0.936797 0.722133 0.494118
0.000000 0.766476 0.545678
0.000000 0.767361 0.546685
0.106508 0.773068 0.555627
0.437263 0.782467 0.587793
0.667750 0.797116 0.652491
0.721920 0.801144 0.639429
0.801114 0.765286 0.589410
0.899565 0.791531 0.594507
0.000000 0.889006 0.658656
0.000000 0.888304 0.659113
0.207004 0.886381 0.663874
0.467811 0.891112 0.692256
0.657862 0.887846 0.723049
0.771695 0.891417 0.749020
0.822751 0.888762 0.728481
0.899168 0.872099 0.702358
0.000000 0.174868 0.367041
0.074403 0.195102 0.389197
0.273838 0.304997 0.457557
0.571557 0.524193 0.515312
0.736812 0.355200 0.589593
0.892424 0.172274 0.481544
0.992370 0.000000 0.331579
1.000000 0.180392 0.261814
0.036622 0.178439 0.360815
0.091829 0.198459 0.383856
0.270848 0.303685 0.454383
0.582635 0.537346 0.516197
0.731533 0.382666 0.585595
0.887663 0.227359 0.483192
0.987732 0.000000 0.338872
1.000000 0.219821 0.265019
0.015320 0.160647 0.319554
0.075532 0.187564 0.354742
0.251011 0.303624 0.456947
0.628199 0.589380 0.552819
0.736019 0.492988 0.600458
0.882383 0.382025 0.508995
0.973968 0.342840 0.408789
1.000000 0.334874 0.287938
0.000000 0.212650 0.322545
0.000000 0.218936 0.332708
0.133883 0.248295 0.378546
0.544457 0.532403 0.561425
0.748196 0.615320 0.630182
0.875517 0.543359 0.552453
0.954681 0.534264 0.485206
1.000000 0.462928 0.325139
0.000000 0.379248 0.403571
0.000000 0.393835 0.415351
0.082429 0.449775 0.459144
0.418677 0.557763 0.540581
0.737881 0.685267 0.638727
0.824491 0.656764 0.582849
0.914702 0.629023 0.517235
1.000000 0.584649 0.387823
0.000000 0.597467 0.503044
0.000000 0.610803 0.511925
0.000000 0.645380 0.533471
0.400122 0.693294 0.570520
0.679744 0.733181 0.639673
0.761288 0.719356 0.628260
0.847440 0.709590 0.580743
0.963317 0.724147 0.534081
0.000000 0.757595 0.581262
0.000000 0.763149 0.584619
0.000000 0.772732 0.590661
0.348913 0.782528 0.610315
0.615991 0.794430 0.656092
0.758541 0.814939 0.702571
0.817716 0.783719 0.653254
0.914061 0.806729 0.645075
0.000000 0.886870 0.680415
0.000000 0.886198 0.680018
0.000000 0.885222 0.681666
0.340734 0.886168 0.694881
0.576532 0.884611 0.718868
0.761074 0.889006 0.762478
0.824033 0.895720 0.760342
0.900969 0.874662 0.728359
0.000000 0.224399 0.480995
0.000000 0.245060 0.501518
0.220737 0.334905 0.553399
0.585443 0.572503 0.605859
0.675380 0.601984 0.640894
0.835660 0.496223 0.675227
0.946929 0.383856 0.589990
1.000000 0.159243 0.465492
0.000000 0.220218 0.465827
0.000000 0.240269 0.487160
0.211398 0.327611 0.544091
0.569299 0.559350 0.601678
0.675837 0.609308 0.637934
0.829770 0.504601 0.670405
0.941527 0.392615 0.585534
1.000000 0.193606 0.463142
0.000000 0.200992 0.423316
0.000000 0.226688 0.453803
0.171847 0.310765 0.526452
0.534203 0.538689 0.607660
0.703487 0.659113 0.653407
0.828183 0.569055 0.680507
0.938476 0.480964 0.608392
1.000000 0.375586 0.505913
0.000000 0.160586 0.317388
0.000000 0.159335 0.320745
0.000000 0.213687 0.414527
0.413031 0.460700 0.586023
0.750515 0.722591 0.679164
0.828122 0.651026 0.699977
0.935332 0.581262 0.638758
1.000000 0.525780 0.557031
0.000000 0.289158 0.402136
0.000000 0.291264 0.406073
0.000000 0.302373 0.425299
0.118196 0.327428 0.471168
0.652613 0.643214 0.651148
0.818296 0.712825 0.712825
0.924224 0.659571 0.655055
1.000000 0.659327 0.614099
0.000000 0.489235 0.502098
0.000000 0.495369 0.506676
0.000000 0.519036 0.524468
0.024842 0.566155 0.561059
0.496315 0.645716 0.624201
0.812650 0.780758 0.738003
0.895842 0.757961 0.691646
0.983062 0.740261 0.639918
0.000000 0.704555 0.605768
0.000000 0.711849 0.610864
0.000000 0.732387 0.624292
0.007691 0.755520 0.639185
0.499550 0.780331 0.666163
0.754574 0.813382 0.727840
0.838224 0.807187 0.726528
0.930480 0.811521 0.692866
0.000000 0.868376 0.705531
0.000000 0.869688 0.705898
0.000000 0.877440 0.711208
0.000000 0.884489 0.716884
0.462104 0.884276 0.731655
0.694270 0.886107 0.762173
0.841062 0.900084 0.805020
0.906065 0.881468 0.768643
0.000000 0.303685 0.620203
0.000000 0.322301 0.630915
0.196323 0.396948 0.657069
0.544030 0.579370 0.688960
0.787076 0.762203 0.713527
0.780484 0.671992 0.739651
0.911437 0.614038 0.762234
0.995880 0.529595 0.697444
0.000000 0.295079 0.608362
0.000000 0.313146 0.620050
0.171054 0.386847 0.650233
0.527581 0.568017 0.685389
0.782437 0.758511 0.713832
0.779904 0.679347 0.738918
0.908721 0.619776 0.760830
0.993957 0.537407 0.697566
0.000000 0.267613 0.572229
0.000000 0.283940 0.586419
0.000000 0.351049 0.625940
0.471565 0.535119 0.680598
0.762173 0.744289 0.720882
0.785519 0.711666 0.744350
0.905455 0.652155 0.766262
0.991150 0.579614 0.708949
0.000000 0.185458 0.447456
0.000000 0.199344 0.472938
0.000000 0.265263 0.553155
0.293980 0.439155 0.651453
0.707790 0.704250 0.720699
0.801358 0.761440 0.758114
0.902861 0.702327 0.779873
0.988922 0.642176 0.729793
0.000000 0.251896 0.455909
0.000000 0.247623 0.455512
0.000000 0.226505 0.445777
0.000000 0.224460 0.486732
0.511376 0.566705 0.680598
0.830991 0.812100 0.773495
0.898070 0.755978 0.797208
0.985107 0.702296 0.748348
0.000000 0.450996 0.572320
0.000000 0.446693 0.570123
0.000000 0.433173 0.564813
0.000000 0.408789 0.559716
0.000000 0.369085 0.561212
0.717922 0.721920 0.738033
0.893523 0.816312 0.821927
0.982818 0.768063 0.770932
0.000000 0.677699 0.677607
0.000000 0.676753 0.676692
0.000000 0.674281 0.674495
0.000000 0.673213 0.674067
0.000000 0.676539 0.678126
0.453773 0.700221 0.699702
0.883726 0.870298 0.833005
0.964508 0.846189 0.803281
0.000000 0.845029 0.748623
0.000000 0.846006 0.748745
0.000000 0.852293 0.752132
0.000000 0.865660 0.761044
0.000000 0.877745 0.770901
0.547936 0.879759 0.780484
0.802640 0.894041 0.817990
0.918608 0.900206 0.842863
