其他预设/【240】TEZZA调色预设合集24款/1.LUT预设（视频调色-PR-AE-PS-FCPX-达芬奇用）/Tezza自然__-5.cube
# Created by Adobe Lightroom plugin Export LUT (1.17.0)
# www.johnrellis.com/lightroom/exportlut.htm
# Preset: Tezza自然[素锦印象]-5
# Color profile: /Library/Application Support/Adobe/Color/Profiles/Recommended/AdobeRGB1998.icc
LUT_3D_SIZE 8
DOMAIN_MIN 0.000000 0.000000 0.000000
DOMAIN_MAX 0.903226 0.903226 0.903226
0.000000 0.000000 0.000000
0.102144 0.013581 0.018219
0.329747 0.000000 0.006653
0.568292 0.000000 0.000000
0.707301 0.000000 0.000000
0.804532 0.000000 0.092470
0.870939 0.159335 0.201297
0.921416 0.369116 0.347143
0.039734 0.108431 0.062531
0.091859 0.116976 0.055055
0.310643 0.024628 0.015167
0.538476 0.000000 0.000000
0.687892 0.000000 0.000000
0.786648 0.000000 0.082521
0.856168 0.174990 0.183108
0.912718 0.367681 0.329320
0.080507 0.363348 0.154696
0.132021 0.346441 0.159640
0.260899 0.325719 0.099428
0.527672 0.266789 0.000000
0.682124 0.238102 0.003906
0.782010 0.275731 0.119478
0.860624 0.377020 0.243717
0.915373 0.481880 0.398260
0.282353 0.592248 0.334478
0.294774 0.577142 0.327916
0.298161 0.535027 0.273960
0.488594 0.542962 0.230472
0.692531 0.541314 0.140597
0.776944 0.492500 0.197269
0.847288 0.516747 0.300633
0.903441 0.569238 0.441535
0.499733 0.709194 0.525719
0.500359 0.703182 0.519951
0.499397 0.682277 0.494240
0.472511 0.650172 0.398688
0.601770 0.641382 0.351263
0.745998 0.647730 0.261387
0.820554 0.611627 0.339940
0.888060 0.649744 0.487617
0.616236 0.771176 0.645960
0.626246 0.774594 0.654414
0.624872 0.764492 0.642817
0.600916 0.742977 0.592584
0.597406 0.720546 0.515373
0.681788 0.717617 0.483558
0.809842 0.749111 0.445960
0.879301 0.745357 0.567834
0.698848 0.823453 0.738735
0.700710 0.823545 0.739620
0.698238 0.818143 0.732387
0.692103 0.808408 0.715541
0.664363 0.792111 0.661585
0.689754 0.787594 0.629450
0.751827 0.791684 0.618677
0.863096 0.831968 0.628321
0.761929 0.862852 0.805539
0.761868 0.862608 0.804990
0.763210 0.862455 0.804410
0.768490 0.863828 0.805814
0.749844 0.855497 0.778256
0.745724 0.860410 0.758328
0.789731 0.871031 0.764034
0.833341 0.871946 0.756497
0.000000 0.027619 0.076265
0.093172 0.028260 0.087282
0.299168 0.000000 0.040986
0.529625 0.000000 0.000000
0.683009 0.000000 0.000000
0.779385 0.000000 0.070954
0.850706 0.098421 0.167514
0.908232 0.322820 0.302708
0.017609 0.115785 0.101320
0.108949 0.120516 0.110109
0.304265 0.076600 0.069459
0.519982 0.000000 0.000000
0.673304 0.000000 0.000000
0.769894 0.000000 0.070649
0.839322 0.143526 0.157687
0.898863 0.321660 0.285191
0.114656 0.350439 0.186770
0.169894 0.341680 0.205112
0.276829 0.325017 0.161166
0.514061 0.264073 0.070497
0.662593 0.243015 0.000000
0.761379 0.261204 0.097810
0.837034 0.328466 0.193027
0.899626 0.434943 0.338140
0.286534 0.575067 0.343603
0.308324 0.565179 0.345861
0.322820 0.528923 0.307683
0.463172 0.513909 0.243656
0.656031 0.499336 0.133700
0.744778 0.450385 0.146548
0.822202 0.472816 0.236454
0.887633 0.530846 0.379644
0.502800 0.704128 0.531426
0.501244 0.697139 0.523857
0.502892 0.674220 0.502281
0.456092 0.633173 0.395300
0.582391 0.621637 0.342901
0.728939 0.627222 0.249424
0.807187 0.593683 0.305272
0.877714 0.629664 0.449256
0.609003 0.764065 0.639307
0.610132 0.761929 0.637812
0.610407 0.752163 0.627924
0.591608 0.731960 0.584070
0.587030 0.710567 0.508751
0.676417 0.711269 0.482948
0.803464 0.740902 0.433112
0.871611 0.733089 0.542870
0.687556 0.815244 0.726864
0.685664 0.812833 0.723476
0.685237 0.808194 0.718166
0.684047 0.800137 0.706813
0.658442 0.785092 0.655543
0.680018 0.778134 0.618189
0.740291 0.778897 0.599939
0.851102 0.817411 0.597406
0.755550 0.858915 0.799619
0.756619 0.859190 0.800168
0.758572 0.859220 0.800137
0.763973 0.860624 0.801633
0.759854 0.861173 0.789914
0.750820 0.863005 0.765255
0.786404 0.868284 0.760830
0.832670 0.871794 0.757443
0.000000 0.065705 0.215824
0.000000 0.056214 0.232700
0.345525 0.000000 0.285313
0.577203 0.000000 0.168521
0.694087 0.000000 0.098909
0.784665 0.000000 0.102388
0.855833 0.223850 0.191226
0.913390 0.365667 0.329839
0.000000 0.146975 0.241215
0.000000 0.129366 0.259098
0.345892 0.141573 0.297581
0.555108 0.000000 0.155093
0.686030 0.000000 0.117800
0.775479 0.125093 0.107881
0.847227 0.247623 0.184939
0.907866 0.375860 0.323674
0.000000 0.375616 0.317784
0.165255 0.368841 0.319768
0.346044 0.351232 0.315343
0.541558 0.284764 0.228580
0.683742 0.278080 0.178927
0.768460 0.308690 0.152865
0.839536 0.366461 0.209415
0.901122 0.449134 0.349126
0.375250 0.606592 0.442512
0.400671 0.601984 0.450690
0.440467 0.568322 0.445991
0.509758 0.537011 0.369177
0.668544 0.498604 0.274083
0.753902 0.472419 0.232517
0.828885 0.497780 0.260777
0.892699 0.546990 0.402197
0.537194 0.710292 0.575158
0.543267 0.706050 0.575586
0.553582 0.688594 0.567590
0.518578 0.650324 0.490883
0.606317 0.635920 0.431434
0.732692 0.627008 0.340459
0.809659 0.598840 0.333837
0.880430 0.635126 0.459297
0.626429 0.768551 0.663264
0.628748 0.766598 0.663203
0.630457 0.757107 0.656153
0.619593 0.735561 0.625360
0.593835 0.707240 0.542596
0.675593 0.706996 0.513298
0.797574 0.731716 0.463569
0.873869 0.735134 0.548669
0.700069 0.819608 0.743069
0.699367 0.817929 0.741176
0.697597 0.812406 0.734951
0.695827 0.802853 0.724269
0.670832 0.785702 0.676783
0.682033 0.777279 0.634272
0.745876 0.783291 0.623896
0.860380 0.825742 0.622980
0.759426 0.859190 0.804685
0.758541 0.858488 0.803342
0.759396 0.857755 0.802304
0.767178 0.860380 0.806394
0.764736 0.859892 0.797177
0.755886 0.862577 0.774075
0.788357 0.869322 0.768521
0.834134 0.871794 0.762295
0.000000 0.091310 0.390143
0.000000 0.083650 0.410346
0.305211 0.000000 0.454994
0.588647 0.079927 0.503868
0.723659 0.000000 0.405158
0.789151 0.000000 0.237034
0.848295 0.175723 0.230014
0.908141 0.340978 0.309606
0.000000 0.181155 0.415747
0.000000 0.154543 0.429969
0.312383 0.147982 0.467353
0.588190 0.216526 0.511467
0.718502 0.061311 0.403082
0.780911 0.000000 0.247623
0.842954 0.219608 0.235477
0.905058 0.358343 0.310887
0.000000 0.377386 0.451148
0.000000 0.367651 0.448707
0.280613 0.332036 0.471839
0.579583 0.415106 0.526574
0.701442 0.278904 0.374823
0.775540 0.310552 0.309880
0.846311 0.380468 0.301061
0.906340 0.456611 0.363775
0.282322 0.609735 0.544549
0.329259 0.603693 0.543053
0.451850 0.583734 0.540429
0.561303 0.559411 0.522545
0.669917 0.503716 0.437324
0.751644 0.478798 0.372625
0.826322 0.490578 0.346197
0.895323 0.545251 0.405707
0.582544 0.723476 0.639490
0.594141 0.721553 0.642054
0.607141 0.708522 0.639612
0.611383 0.677729 0.619776
0.633082 0.650172 0.547448
0.733547 0.621851 0.464149
0.811337 0.606012 0.432441
0.884306 0.636652 0.477577
0.661067 0.781857 0.707851
0.669001 0.784207 0.714382
0.669825 0.775113 0.708400
0.668544 0.758053 0.693965
0.630457 0.720760 0.621515
0.689723 0.715633 0.585565
0.796353 0.726772 0.533959
0.875486 0.727687 0.571374
0.714961 0.824125 0.762875
0.716518 0.823911 0.763546
0.719478 0.821775 0.763272
0.720974 0.815946 0.758419
0.707179 0.799985 0.729915
0.694453 0.784054 0.673793
0.751278 0.786374 0.655085
0.862577 0.822568 0.645258
0.770748 0.861631 0.817288
0.771572 0.861814 0.817655
0.772244 0.861540 0.816922
0.774624 0.861479 0.816251
0.777768 0.860472 0.813870
0.766079 0.862303 0.790463
0.789578 0.869566 0.779232
0.835264 0.871580 0.770809
0.000000 0.134096 0.548699
0.000000 0.120577 0.559930
0.190982 0.122896 0.586877
0.546990 0.118471 0.615900
0.709194 0.342657 0.651087
0.790799 0.327550 0.592279
0.848020 0.249699 0.463722
0.907134 0.313298 0.389929
0.000000 0.208530 0.555108
0.000000 0.189700 0.567651
0.207370 0.187655 0.593286
0.552575 0.216617 0.621149
0.705715 0.390600 0.652491
0.786831 0.363470 0.591943
0.845945 0.276432 0.460365
0.905272 0.339208 0.396246
0.000000 0.368200 0.548577
0.000000 0.371130 0.559075
0.218265 0.342321 0.592493
0.560296 0.398627 0.631800
0.692958 0.499947 0.654139
0.769802 0.433875 0.577447
0.836301 0.326299 0.431708
0.896941 0.401282 0.407080
0.150851 0.595331 0.618799
0.210422 0.588586 0.615778
0.343114 0.565454 0.608026
0.521813 0.541039 0.625360
0.681880 0.608087 0.664973
0.752132 0.504234 0.547082
0.820249 0.476875 0.468727
0.891814 0.499977 0.444800
0.481422 0.709194 0.668727
0.499886 0.706874 0.669154
0.551354 0.697200 0.668055
0.616663 0.682155 0.666499
0.655879 0.658778 0.640711
0.725704 0.614801 0.573114
0.802304 0.591669 0.515984
0.879393 0.606592 0.509819
0.647486 0.772122 0.718166
0.654414 0.772122 0.720424
0.674464 0.770962 0.726284
0.688045 0.762783 0.726314
0.677607 0.732235 0.697536
0.694545 0.713130 0.643366
0.788418 0.706630 0.594720
0.871397 0.710262 0.600061
0.730312 0.827695 0.783047
0.730404 0.826627 0.782345
0.732113 0.823819 0.781338
0.735317 0.819547 0.779538
0.732509 0.808804 0.767971
0.697444 0.780026 0.705409
0.749386 0.780209 0.680842
0.855711 0.805081 0.661769
0.774197 0.859159 0.822873
0.774289 0.858915 0.822568
0.775021 0.858366 0.822049
0.782010 0.860777 0.826169
0.783230 0.860166 0.823362
0.777951 0.858915 0.809567
0.783322 0.863828 0.785611
0.836057 0.871000 0.781582
0.000000 0.197238 0.671962
0.000000 0.179568 0.676875
0.074311 0.189975 0.687587
0.509728 0.231693 0.713375
0.679683 0.342596 0.723812
0.769680 0.508324 0.737911
0.833768 0.511986 0.712306
0.888243 0.484657 0.646998
0.000000 0.251835 0.663996
0.000000 0.234470 0.668360
0.086793 0.229038 0.683192
0.501030 0.273991 0.706813
0.674128 0.372778 0.718837
0.765194 0.522667 0.735286
0.830320 0.521324 0.709743
0.886412 0.488167 0.642817
0.000000 0.413886 0.665278
0.000000 0.409644 0.668910
0.178164 0.369146 0.685267
0.498909 0.408331 0.707942
0.674434 0.486519 0.723415
0.760372 0.584405 0.740444
0.824247 0.564141 0.710689
0.884123 0.515190 0.638636
0.000000 0.572351 0.675776
0.107607 0.563226 0.671595
0.271366 0.541009 0.667872
0.489906 0.541741 0.704829
0.682094 0.607385 0.737087
0.759976 0.660334 0.755123
0.818784 0.616724 0.711818
0.884581 0.551720 0.626642
0.411841 0.707301 0.720302
0.428107 0.704433 0.719326
0.477546 0.693629 0.715114
0.543236 0.671931 0.706142
0.637629 0.653468 0.716152
0.745785 0.701472 0.750240
0.802640 0.627771 0.669184
0.875303 0.599084 0.608515
0.594385 0.771603 0.747982
0.603876 0.772152 0.750057
0.626337 0.768765 0.750729
0.660212 0.762539 0.751369
0.697810 0.751980 0.749752
0.722103 0.732082 0.727077
0.787259 0.700038 0.677668
0.869749 0.694759 0.652613
0.717830 0.824735 0.793484
0.722560 0.825772 0.795743
0.734096 0.826627 0.799649
0.754055 0.829129 0.807706
0.767330 0.827420 0.811002
0.754238 0.805539 0.787747
0.759884 0.784939 0.734401
0.859342 0.793179 0.710842
0.787076 0.860807 0.836728
0.787839 0.860685 0.836881
0.788907 0.860288 0.836942
0.792782 0.860685 0.838621
0.796078 0.860655 0.838865
0.796994 0.859922 0.834958
0.782101 0.860533 0.804868
0.836484 0.868284 0.796811
0.000000 0.265324 0.750729
0.000000 0.253178 0.755245
0.000000 0.256565 0.762356
0.454810 0.297856 0.773739
0.658717 0.394598 0.786435
0.748226 0.481849 0.785702
0.810300 0.596582 0.791989
0.862577 0.620783 0.786343
0.000000 0.304814 0.743404
0.000000 0.292760 0.747707
0.000000 0.278721 0.756069
0.443214 0.317693 0.766781
0.650111 0.406653 0.780117
0.742123 0.486732 0.779934
0.805142 0.595239 0.786831
0.859007 0.612757 0.779629
0.000000 0.442298 0.741543
0.000000 0.432898 0.744137
0.133761 0.392401 0.752834
0.438331 0.409888 0.764736
0.642176 0.484169 0.778012
0.740352 0.549584 0.782010
0.804746 0.632563 0.792569
0.861021 0.636378 0.784298
0.000000 0.560266 0.734279
0.000000 0.555840 0.734798
0.263645 0.546441 0.741115
0.431434 0.523491 0.759060
0.629480 0.572534 0.776364
0.741054 0.625330 0.788998
0.804959 0.683314 0.802029
0.861448 0.665400 0.786587
0.340093 0.687495 0.756313
0.347356 0.682429 0.753719
0.376410 0.665370 0.746731
0.419318 0.628717 0.734615
0.584497 0.625574 0.761715
0.732601 0.678584 0.788540
0.798550 0.722316 0.804288
0.857115 0.691493 0.780026
0.549218 0.778653 0.789364
0.554284 0.777188 0.788876
0.570947 0.771725 0.786954
0.597498 0.761257 0.783627
0.627863 0.739040 0.774502
0.702113 0.722652 0.783200
0.799649 0.772549 0.816220
0.856321 0.715267 0.762478
0.673243 0.824735 0.809751
0.677211 0.824887 0.810575
0.687892 0.823850 0.811490
0.706386 0.822324 0.813535
0.730678 0.818753 0.815091
0.762356 0.813626 0.817197
0.779263 0.794858 0.797238
0.853239 0.773678 0.763272
0.761257 0.856504 0.835843
0.763241 0.856687 0.836484
0.772122 0.858305 0.840085
0.785000 0.859831 0.844663
0.802976 0.861723 0.851499
0.819333 0.863432 0.858488
0.817319 0.861509 0.851835
0.838712 0.864775 0.824002
0.000000 0.359686 0.819089
0.000000 0.349493 0.821103
0.125643 0.336736 0.822873
0.436316 0.371771 0.826810
0.617823 0.439124 0.831632
0.737484 0.523247 0.836118
0.802640 0.582483 0.835325
0.846647 0.659998 0.834684
0.000000 0.387060 0.815000
0.000000 0.377356 0.817075
0.097047 0.351568 0.820218
0.427161 0.383978 0.823728
0.612360 0.448524 0.828977
0.734981 0.530022 0.834195
0.799710 0.584802 0.833066
0.844663 0.660212 0.833005
0.000000 0.479988 0.808865
0.000000 0.471595 0.810483
0.167269 0.434699 0.813565
0.413031 0.441047 0.821775
0.603143 0.495430 0.826688
0.732631 0.565393 0.833066
0.796475 0.609613 0.832670
0.843137 0.675959 0.834195
0.000000 0.577996 0.803525
0.114992 0.575616 0.805020
0.281285 0.563165 0.807126
0.398718 0.528405 0.816281
0.583703 0.556329 0.824033
0.722286 0.613489 0.832944
0.794308 0.651881 0.835508
0.842741 0.705074 0.838804
0.261723 0.679652 0.804990
0.267582 0.675715 0.804929
0.266056 0.654475 0.800412
0.389837 0.632410 0.805447
0.538872 0.611719 0.816526
0.695125 0.651514 0.828763
0.789456 0.695216 0.837766
0.842222 0.741024 0.844877
0.514672 0.775051 0.825528
0.514275 0.772244 0.824277
0.515221 0.762814 0.820859
0.518975 0.744442 0.815824
0.522728 0.706477 0.807095
0.652338 0.695094 0.825376
0.790982 0.751644 0.847349
0.845396 0.788235 0.856596
0.650813 0.843198 0.850217
0.651728 0.842222 0.849821
0.655604 0.839231 0.848783
0.665248 0.834531 0.848051
0.680446 0.826108 0.846738
0.700923 0.809323 0.843687
0.759396 0.786007 0.846616
0.844755 0.827329 0.864439
0.739773 0.868040 0.857389
0.740200 0.867979 0.857694
0.743984 0.867582 0.858274
0.753506 0.867155 0.859556
0.768399 0.866178 0.861448
0.790005 0.864683 0.864256
0.819730 0.862974 0.868894
0.845029 0.860899 0.867338
