其他预设/【240】TEZZA调色预设合集24款/1.LUT预设（视频调色-PR-AE-PS-FCPX-达芬奇用）/Tezza万事达-Tezza04.cube
# Created by Adobe Lightroom plugin Export LUT (1.17.0)
# www.johnrellis.com/lightroom/exportlut.htm
# Preset: Tezza万事达-Tezza04
# Color profile: /Library/Application Support/Adobe/Color/Profiles/Recommended/AdobeRGB1998.icc
LUT_3D_SIZE 32
0.000000 0.000000 0.000000
0.015351 0.000916 0.001678
0.038087 0.002899 0.005249
0.071199 0.011841 0.012757
0.109133 0.013764 0.023835
0.166537 0.000000 0.030762
0.236637 0.000000 0.035187
0.316289 0.000000 0.035828
0.399817 0.000000 0.032532
0.480842 0.000000 0.031037
0.554131 0.000000 0.043854
0.616266 0.000000 0.066285
0.667018 0.000000 0.088014
0.715206 0.000000 0.120638
0.755642 0.000000 0.163210
0.783780 0.004334 0.202579
0.804715 0.180545 0.240787
0.821347 0.253635 0.278691
0.835142 0.311162 0.316442
0.847471 0.362615 0.356023
0.858549 0.408362 0.396246
0.868315 0.449012 0.436042
0.876738 0.484413 0.473213
0.884031 0.516289 0.508263
0.890379 0.545373 0.541192
0.896056 0.572595 0.572717
0.901335 0.598260 0.602716
0.905180 0.619043 0.627070
0.905455 0.617273 0.626123
0.905699 0.615473 0.625116
0.906004 0.613581 0.624170
0.906310 0.611505 0.623041
0.003723 0.016663 0.008270
0.012451 0.017517 0.010132
0.039246 0.023651 0.010010
0.071901 0.033570 0.018494
0.110201 0.033845 0.028565
0.166232 0.001007 0.034607
0.234928 0.000000 0.038148
0.312108 0.000000 0.038087
0.394018 0.000000 0.035401
0.474403 0.000000 0.035431
0.547234 0.000000 0.047425
0.609522 0.000000 0.066621
0.660914 0.000000 0.087190
0.710567 0.000000 0.120089
0.749599 0.000000 0.158785
0.777401 0.000000 0.195651
0.798581 0.168826 0.231754
0.815732 0.241459 0.267979
0.830045 0.299107 0.304936
0.843015 0.350561 0.343603
0.854582 0.396979 0.383642
0.864805 0.438483 0.423835
0.873686 0.474464 0.461311
0.881437 0.507073 0.497169
0.888182 0.536889 0.530816
0.894224 0.565057 0.563348
0.899840 0.591852 0.594812
0.904784 0.617395 0.624933
0.905333 0.618128 0.626520
0.905577 0.616327 0.625635
0.905882 0.614374 0.624598
0.906188 0.612238 0.623468
0.008698 0.042298 0.023377
0.021393 0.040040 0.027558
0.034730 0.045991 0.028870
0.073182 0.055573 0.026093
0.111818 0.056184 0.033845
0.167056 0.029053 0.038636
0.233341 0.000000 0.041138
0.308537 0.000000 0.041321
0.389319 0.000000 0.038819
0.468574 0.000000 0.040314
0.541772 0.000000 0.051606
0.604395 0.000000 0.068055
0.656336 0.000000 0.088746
0.707881 0.000000 0.121218
0.745785 0.000000 0.158114
0.773220 0.028107 0.193088
0.794461 0.172519 0.227878
0.811887 0.240787 0.263035
0.826658 0.296788 0.299474
0.839994 0.347692 0.338048
0.852049 0.393927 0.378149
0.862669 0.435248 0.418311
0.871824 0.471412 0.456123
0.879789 0.503960 0.492103
0.886778 0.533928 0.526146
0.893004 0.562249 0.559075
0.898833 0.589288 0.590936
0.904021 0.615167 0.621546
0.905150 0.619287 0.627161
0.905425 0.617426 0.626184
0.905730 0.615320 0.625055
0.906065 0.613153 0.623926
0.024964 0.072724 0.053773
0.041627 0.072572 0.055909
0.054932 0.071992 0.060090
0.072908 0.077180 0.060426
0.117586 0.079744 0.045136
0.171664 0.072816 0.047700
0.235904 0.036774 0.049012
0.308904 0.000000 0.048005
0.387182 0.000000 0.046754
0.464698 0.000000 0.049195
0.536553 0.000000 0.060304
0.598840 0.000000 0.073487
0.650690 0.000000 0.092714
0.704799 0.000000 0.126253
0.740749 0.000000 0.159701
0.767636 0.110628 0.192966
0.788907 0.191684 0.225986
0.806485 0.250462 0.259617
0.821500 0.300694 0.294072
0.835111 0.347417 0.330846
0.847440 0.391241 0.369696
0.858518 0.431250 0.408972
0.868376 0.467781 0.447913
0.877134 0.501427 0.485664
0.884916 0.532738 0.521782
0.891752 0.562768 0.557214
0.897978 0.590753 0.590600
0.903441 0.616968 0.621973
0.904784 0.621759 0.628443
0.905089 0.619654 0.627344
0.905425 0.617487 0.626215
0.905760 0.615167 0.624964
0.040620 0.108400 0.075135
0.060029 0.109133 0.077821
0.067933 0.109133 0.078645
0.085389 0.110231 0.083742
0.119753 0.120211 0.082582
0.179232 0.118135 0.063203
0.236149 0.100832 0.055634
0.305547 0.075502 0.055360
0.380560 0.000000 0.055787
0.455787 0.000000 0.059602
0.526726 0.000000 0.067445
0.589136 0.000000 0.080446
0.648920 0.000000 0.102632
0.698390 0.000000 0.131930
0.733394 0.084504 0.162570
0.760708 0.167117 0.194766
0.782986 0.225254 0.227543
0.801480 0.274784 0.260899
0.817227 0.319341 0.295476
0.831266 0.361028 0.331212
0.843870 0.400885 0.369299
0.855253 0.437873 0.407568
0.865415 0.472480 0.446174
0.874601 0.504906 0.483803
0.882780 0.535454 0.520165
0.890013 0.564935 0.555840
0.896574 0.592584 0.589471
0.902342 0.618280 0.620905
0.904234 0.625513 0.630426
0.904570 0.623194 0.629206
0.904936 0.620783 0.627955
0.905303 0.618372 0.626673
0.043061 0.163149 0.103120
0.066957 0.164736 0.106813
0.081971 0.165743 0.108858
0.110109 0.166201 0.121767
0.136812 0.169986 0.119814
0.190829 0.183200 0.117372
0.258152 0.174289 0.083192
0.307408 0.140078 0.062684
0.379065 0.121065 0.064851
0.452064 0.093233 0.069459
0.521416 0.052369 0.077607
0.586877 0.008087 0.091768
0.647974 0.080140 0.114687
0.693874 0.132631 0.142031
0.727962 0.180972 0.171084
0.755123 0.225956 0.201877
0.777798 0.268498 0.233585
0.796933 0.308629 0.266819
0.813352 0.346868 0.301305
0.827970 0.384192 0.337621
0.841123 0.420203 0.375555
0.853086 0.454688 0.414679
0.879545 0.549706 0.525628
0.886656 0.574792 0.557794
0.892973 0.597375 0.586969
0.898558 0.618280 0.613855
0.902678 0.635615 0.635859
0.903075 0.633021 0.634455
0.903471 0.630518 0.633173
0.903838 0.627863 0.631739
0.904265 0.625208 0.630304
0.904662 0.622461 0.628840
0.060182 0.249058 0.151003
0.086030 0.250462 0.155459
0.110719 0.252598 0.160708
0.143709 0.257603 0.169375
0.192142 0.261631 0.192996
0.228641 0.264866 0.182010
0.301274 0.279973 0.177310
0.370977 0.262486 0.126223
0.407416 0.209445 0.085634
0.470161 0.190341 0.084474
0.545525 0.190555 0.098268
0.615747 0.206973 0.119783
0.669429 0.231144 0.145357
0.708858 0.257816 0.173678
0.738399 0.284428 0.202762
0.762264 0.311742 0.232181
0.782773 0.340215 0.262699
0.800595 0.369574 0.295109
0.816526 0.400305 0.329900
0.831449 0.432776 0.368231
0.845457 0.466835 0.410224
0.858488 0.501427 0.454688
0.870176 0.534844 0.498238
0.880125 0.566339 0.539818
0.888548 0.594232 0.576654
0.895415 0.617792 0.607935
0.901061 0.638483 0.635035
0.902098 0.639460 0.637873
0.902556 0.636469 0.636255
0.903014 0.633570 0.634699
0.903471 0.630518 0.633112
0.903899 0.627527 0.631525
0.092683 0.328069 0.199252
0.117067 0.329625 0.204196
0.144869 0.331426 0.211307
0.179141 0.337682 0.218540
0.236393 0.344701 0.247288
0.277470 0.347997 0.253788
0.320256 0.348699 0.240208
0.396551 0.364782 0.235843
0.464790 0.351751 0.181521
0.504448 0.306188 0.135592
0.548180 0.272801 0.114931
0.610407 0.284428 0.134981
0.660456 0.299901 0.157870
0.698726 0.316960 0.183597
0.728176 0.334478 0.210178
0.752529 0.353399 0.238102
0.773678 0.374945 0.267582
0.792264 0.398199 0.298528
0.809018 0.423468 0.332189
0.824643 0.451179 0.369329
0.839322 0.480873 0.409949
0.852964 0.511864 0.453162
0.865202 0.542443 0.495979
0.875822 0.571557 0.536706
0.884855 0.597925 0.573388
0.892332 0.620569 0.604639
0.898558 0.640650 0.632197
0.900969 0.646876 0.641871
0.901488 0.643488 0.640040
0.902007 0.640131 0.638270
0.902495 0.636835 0.636530
0.903014 0.633478 0.634668
0.146761 0.410010 0.257023
0.168093 0.411322 0.262028
0.195193 0.413062 0.269535
0.229801 0.419348 0.277562
0.279240 0.428443 0.296666
0.345769 0.434333 0.336400
0.376562 0.436378 0.325200
0.431434 0.447486 0.322118
0.510704 0.471962 0.327672
0.565179 0.460090 0.268223
0.590906 0.414618 0.209934
0.605737 0.353063 0.154147
0.651820 0.360357 0.172122
0.689815 0.371954 0.196139
0.719387 0.383886 0.222080
0.744076 0.397162 0.248356
0.765835 0.413001 0.276707
0.785122 0.431128 0.306859
0.802518 0.451423 0.339513
0.818723 0.474617 0.375769
0.833951 0.500328 0.415381
0.848081 0.527459 0.457038
0.860807 0.554864 0.498604
0.871946 0.581323 0.538018
0.881468 0.605707 0.574090
0.889525 0.626795 0.604913
0.896239 0.645808 0.632136
0.899687 0.655177 0.646326
0.900267 0.651362 0.644282
0.900847 0.647547 0.642206
0.901427 0.643885 0.640253
0.902007 0.640192 0.638270
0.218235 0.486397 0.321660
0.235843 0.487129 0.326268
0.260197 0.489418 0.334173
0.297917 0.498695 0.346960
0.348150 0.511559 0.368536
0.417243 0.524315 0.411780
0.461830 0.531487 0.431342
0.492622 0.533928 0.422705
0.531090 0.535363 0.412696
0.588769 0.551537 0.415106
0.626825 0.536339 0.352453
0.644862 0.495735 0.287480
0.655482 0.441230 0.222812
0.678370 0.417121 0.207126
0.709895 0.427100 0.232944
0.736324 0.438483 0.260960
0.759487 0.451820 0.290043
0.779812 0.466773 0.320867
0.797757 0.483558 0.353338
0.814267 0.502251 0.387945
0.829435 0.523125 0.425086
0.843351 0.545251 0.463294
0.856016 0.567834 0.501122
0.867247 0.590356 0.537713
0.877104 0.612085 0.572107
0.885740 0.631647 0.602441
0.893187 0.649989 0.630182
0.898314 0.664118 0.651118
0.898985 0.659785 0.648768
0.899596 0.655634 0.646571
0.900237 0.651575 0.644373
0.900847 0.647547 0.642206
0.314946 0.565942 0.404822
0.330022 0.566949 0.409766
0.350500 0.568139 0.416693
0.381964 0.573144 0.427619
0.422858 0.581353 0.444617
0.472724 0.590814 0.472877
0.530907 0.599054 0.518975
0.547753 0.599664 0.510948
0.570764 0.599573 0.501701
0.599542 0.598962 0.491524
0.641047 0.609155 0.493141
0.668116 0.592828 0.433631
0.682002 0.557702 0.368536
0.691096 0.511681 0.300053
0.699611 0.464302 0.243381
0.726955 0.473121 0.271061
0.750942 0.483528 0.299992
0.771969 0.495613 0.330205
0.790616 0.509056 0.361456
0.807767 0.524834 0.395361
0.823545 0.542779 0.431403
0.838132 0.562249 0.468788
0.851408 0.582635 0.505852
0.863218 0.603204 0.541955
0.873625 0.622858 0.575311
0.882719 0.640711 0.604852
0.890623 0.657527 0.631830
0.896818 0.673610 0.656306
0.897581 0.668910 0.653742
0.898283 0.664332 0.651240
0.898955 0.659876 0.648890
0.899626 0.655512 0.646479
0.401617 0.621515 0.476295
0.413001 0.621942 0.480293
0.428656 0.622339 0.485817
0.453956 0.625147 0.495308
0.485756 0.630671 0.509148
0.523125 0.637263 0.530297
0.568261 0.643732 0.565545
0.596124 0.647700 0.584680
0.609003 0.647761 0.577813
0.626276 0.647425 0.570245
0.647547 0.646571 0.561791
0.678981 0.654841 0.564019
0.728573 0.679774 0.576593
0.737911 0.649531 0.516167
0.745052 0.610010 0.445441
0.750454 0.562005 0.365698
0.767269 0.553643 0.365667
0.785946 0.561456 0.394507
0.802518 0.570520 0.423743
0.817868 0.581750 0.454505
0.832090 0.594659 0.486244
0.845121 0.609064 0.518425
0.856901 0.624018 0.549584
0.867582 0.639216 0.579339
0.877226 0.653773 0.606561
0.885649 0.667689 0.631403
0.892668 0.681361 0.654749
0.895323 0.683558 0.661585
0.896117 0.678401 0.658808
0.896880 0.673426 0.656153
0.897612 0.668666 0.653620
0.898344 0.663935 0.651087
0.509545 0.678798 0.566064
0.516930 0.678859 0.569085
0.525902 0.678187 0.572290
0.542351 0.678370 0.578912
0.561730 0.680751 0.587549
0.584710 0.683925 0.600336
0.611780 0.688777 0.620203
0.642512 0.694728 0.648768
0.653223 0.695918 0.648920
0.664820 0.697108 0.645502
0.680354 0.699153 0.643061
0.698878 0.701350 0.640955
0.725154 0.710903 0.646326
0.741268 0.700465 0.610864
0.750942 0.677394 0.564324
0.758724 0.645441 0.505333
0.765286 0.605554 0.435035
0.775875 0.579034 0.396033
0.793637 0.587030 0.425086
0.809781 0.596704 0.455543
0.824735 0.608087 0.486641
0.838560 0.620844 0.518364
0.850950 0.634333 0.549310
0.862364 0.647974 0.578424
0.872618 0.661280 0.605341
0.881651 0.674189 0.630060
0.889403 0.686915 0.653254
0.893767 0.693721 0.666957
0.894621 0.688197 0.664088
0.895415 0.682918 0.661280
0.896208 0.677699 0.658473
0.897002 0.672694 0.655756
0.555200 0.703243 0.607172
0.560876 0.703395 0.609766
0.567224 0.702998 0.612207
0.579828 0.703029 0.617700
0.593774 0.705013 0.623957
0.611322 0.708064 0.633600
0.631525 0.712673 0.647456
0.656825 0.718135 0.669612
0.677180 0.723201 0.687648
0.684932 0.724208 0.684840
0.695857 0.725887 0.682795
0.709438 0.727901 0.681178
0.724636 0.729244 0.678889
0.745876 0.736263 0.682216
0.757961 0.725338 0.649714
0.765011 0.704280 0.609033
0.771145 0.676509 0.558892
0.777584 0.642329 0.497292
0.784634 0.602991 0.427161
0.801694 0.611109 0.456367
0.817533 0.621515 0.487587
0.832151 0.633204 0.519310
0.845365 0.645624 0.550317
0.857542 0.658259 0.579461
0.868467 0.670619 0.606287
0.878172 0.682612 0.631006
0.886534 0.694575 0.654261
0.892210 0.704036 0.672389
0.893095 0.698177 0.669337
0.893950 0.692500 0.666316
0.894774 0.687037 0.663416
0.895598 0.681727 0.660639
0.592706 0.726253 0.643488
0.597040 0.726619 0.645686
0.601465 0.726375 0.647425
0.611292 0.726162 0.651942
0.621637 0.727840 0.656458
0.635096 0.730404 0.663661
0.651667 0.734432 0.674708
0.671260 0.739498 0.690700
0.694331 0.745632 0.713130
0.705440 0.748592 0.719234
0.713039 0.750057 0.717647
0.722774 0.751736 0.716396
0.734066 0.752956 0.714534
0.746548 0.753475 0.711757
0.763394 0.757900 0.712673
0.772183 0.746334 0.682033
0.777798 0.727077 0.645380
0.782650 0.703151 0.603662
0.788785 0.674769 0.553307
0.796811 0.641840 0.493355
0.810483 0.634699 0.488716
0.825772 0.645289 0.520165
0.839658 0.656611 0.550896
0.852537 0.668330 0.580194
0.864195 0.680018 0.607233
0.874754 0.691554 0.632349
0.883940 0.703487 0.656611
0.890684 0.714443 0.677821
0.891600 0.708248 0.674617
0.892485 0.702296 0.671534
0.893339 0.696529 0.668482
0.894224 0.690883 0.665431
0.622827 0.747311 0.674464
0.626337 0.747799 0.676448
0.630243 0.748013 0.678401
0.638636 0.748501 0.682765
0.648554 0.750362 0.687984
0.660639 0.753414 0.695155
0.675044 0.757534 0.705013
0.691218 0.762631 0.717769
0.710780 0.768215 0.735744
0.728969 0.773953 0.753475
0.733364 0.774228 0.751125
0.739162 0.774472 0.748592
0.746090 0.774228 0.745480
0.754147 0.773342 0.741482
0.764340 0.772946 0.737789
0.776730 0.774136 0.735348
0.783505 0.762966 0.707546
0.788540 0.746059 0.675257
0.793515 0.725826 0.640223
0.799832 0.703151 0.601312
0.808469 0.677394 0.555047
0.820829 0.659602 0.525078
0.835660 0.670558 0.556542
0.849271 0.681666 0.585931
0.861662 0.692744 0.613214
0.872831 0.703822 0.638575
0.882444 0.715267 0.663050
0.889250 0.724819 0.683101
0.890135 0.718379 0.679805
0.891051 0.712154 0.676631
0.891936 0.706081 0.673457
0.892790 0.700221 0.670405
0.646845 0.764675 0.699702
0.649317 0.764920 0.701015
0.652461 0.765011 0.702541
0.659419 0.765499 0.706264
0.668391 0.766964 0.711269
0.678614 0.769741 0.717403
0.690852 0.773373 0.725704
0.704707 0.777798 0.736202
0.720394 0.782742 0.749569
0.738064 0.788022 0.766232
0.748531 0.791196 0.774136
0.752682 0.791379 0.772091
0.757748 0.791318 0.769680
0.763577 0.790646 0.766476
0.770138 0.789242 0.762264
0.779171 0.788907 0.758999
0.788632 0.788327 0.755154
0.794003 0.777951 0.730343
0.798703 0.763302 0.702235
0.803708 0.746151 0.672511
0.810178 0.727199 0.640131
0.818692 0.706325 0.603937
0.830076 0.682856 0.560845
0.844450 0.691646 0.586542
0.857694 0.702358 0.614221
0.869596 0.713069 0.640162
0.879942 0.724269 0.665309
0.887846 0.735164 0.688228
0.888762 0.728420 0.684871
0.889616 0.721950 0.681636
0.890532 0.715663 0.678431
0.891386 0.709590 0.675319
0.669917 0.781460 0.723995
0.672694 0.782101 0.725856
0.696651 0.797574 0.749477
0.701869 0.797971 0.752346
0.709071 0.798825 0.756374
0.716548 0.800687 0.760647
0.725521 0.803006 0.766262
0.735866 0.805966 0.773373
0.747402 0.809476 0.782132
0.761257 0.813169 0.793942
0.775082 0.817166 0.806424
0.778347 0.817105 0.805814
0.780667 0.816129 0.802884
0.783658 0.814847 0.799435
0.787320 0.813077 0.795377
0.791745 0.810819 0.790616
0.799069 0.810208 0.787442
0.805356 0.807980 0.782345
0.808957 0.798245 0.760494
0.812894 0.785550 0.736477
0.817533 0.770962 0.711330
0.824033 0.755032 0.684138
0.832731 0.737789 0.654505
0.844053 0.719295 0.621820
0.856992 0.717342 0.623713
0.868559 0.726253 0.647639
0.878569 0.735622 0.670985
0.886534 0.745327 0.693141
0.887388 0.738369 0.689845
0.888304 0.731716 0.686488
0.889189 0.725216 0.683314
0.890043 0.718929 0.680110
0.695369 0.799741 0.750515
0.699489 0.801694 0.754025
0.704372 0.803738 0.757931
0.711147 0.805722 0.762722
0.719631 0.807614 0.768368
0.727108 0.809903 0.773037
0.735378 0.812253 0.778256
0.744594 0.814847 0.784390
0.754910 0.817960 0.791836
0.766293 0.821286 0.800870
0.779171 0.824643 0.811887
0.788449 0.827085 0.819303
0.789883 0.826261 0.816831
0.791775 0.825132 0.813901
0.794156 0.823606 0.810422
0.797177 0.821714 0.806394
0.800931 0.819455 0.801907
0.807614 0.819028 0.799435
0.812894 0.816739 0.794491
0.816159 0.808255 0.775509
0.820157 0.797543 0.754849
0.825162 0.785794 0.734401
0.831968 0.772824 0.712154
0.840940 0.758846 0.688014
0.852476 0.743740 0.661341
0.865812 0.735805 0.649500
0.876555 0.745144 0.673793
0.885374 0.755062 0.697749
0.886168 0.748257 0.694575
0.887022 0.741329 0.691249
0.887877 0.734707 0.688045
0.888762 0.728206 0.684810
0.710414 0.810788 0.766232
0.714015 0.812436 0.769162
0.718135 0.814115 0.772427
0.723934 0.815793 0.776486
0.731380 0.817411 0.781369
0.738399 0.819211 0.785641
0.745693 0.821225 0.790127
0.753841 0.823484 0.795377
0.762966 0.826139 0.801694
0.772732 0.829068 0.808927
0.784024 0.831968 0.818082
0.795132 0.834928 0.827543
0.799405 0.835477 0.829435
0.800565 0.834562 0.827024
0.802029 0.833310 0.824155
0.804013 0.831754 0.820798
0.806577 0.829923 0.817075
0.809903 0.827878 0.813046
0.815976 0.827756 0.811368
0.820401 0.825498 0.806760
0.823392 0.818173 0.790311
0.827481 0.809354 0.772885
0.832639 0.799832 0.756039
0.839536 0.789364 0.737911
0.848508 0.778042 0.718227
0.860136 0.766140 0.697200
0.874510 0.754299 0.675959
0.883757 0.763760 0.700252
0.885039 0.757961 0.699062
0.885863 0.750881 0.695735
0.886687 0.744076 0.692561
0.887541 0.737423 0.689326
0.724666 0.821073 0.780758
0.727779 0.822446 0.783261
0.731380 0.823850 0.786038
0.736446 0.825284 0.789548
0.742977 0.826658 0.793668
0.749599 0.827970 0.797696
0.755947 0.829648 0.801419
0.763119 0.831479 0.805814
0.771115 0.833646 0.811093
0.779660 0.836027 0.817105
0.788815 0.838499 0.824033
0.798978 0.840848 0.832303
0.808103 0.843168 0.840055
0.808774 0.842435 0.838102
0.809781 0.841550 0.835874
0.811246 0.840513 0.833402
0.813321 0.839414 0.830838
0.816068 0.838285 0.828214
0.819669 0.837186 0.825650
0.825498 0.837736 0.825467
0.829465 0.836118 0.821988
0.832517 0.830503 0.808804
0.836698 0.823697 0.794888
0.842222 0.816770 0.782101
0.849516 0.809354 0.768765
0.858854 0.801633 0.754940
0.870512 0.793759 0.740963
0.881224 0.780301 0.718135
0.884031 0.767544 0.703304
0.884794 0.760311 0.700099
0.885588 0.753323 0.696925
0.886351 0.746670 0.693812
0.745083 0.834684 0.800534
0.746883 0.835264 0.801846
0.748959 0.835782 0.803159
0.752377 0.836362 0.805234
0.757290 0.837034 0.808042
0.763333 0.837705 0.811490
0.768765 0.838987 0.814572
0.775051 0.840513 0.818296
0.782132 0.842313 0.822812
0.789792 0.844327 0.828000
0.797696 0.846433 0.833646
0.806302 0.848356 0.840299
0.814511 0.850187 0.846983
0.819303 0.851041 0.850340
0.819699 0.850340 0.848508
0.820462 0.849485 0.846525
0.821622 0.848600 0.844388
0.823331 0.847623 0.842161
0.825620 0.846647 0.839902
0.828550 0.845640 0.837613
0.833188 0.845914 0.837461
0.836027 0.843992 0.833738
0.838590 0.838987 0.821958
0.842283 0.833036 0.809537
0.847654 0.827451 0.798825
0.854765 0.821805 0.788205
0.863890 0.816281 0.778012
0.872679 0.807095 0.762417
0.879332 0.786374 0.728237
0.883818 0.769619 0.704219
0.884550 0.762539 0.701106
0.885252 0.755947 0.698146
0.757046 0.842374 0.811826
0.758724 0.842893 0.812955
0.760555 0.843351 0.814145
0.763699 0.843839 0.815976
0.767941 0.844358 0.818357
0.773159 0.844816 0.821256
0.778317 0.845640 0.824125
0.783627 0.846738 0.827115
0.789731 0.848051 0.830777
0.796323 0.849577 0.835019
0.803189 0.851194 0.839719
0.810178 0.852842 0.844816
0.817655 0.854185 0.850614
0.824369 0.855589 0.856107
0.826230 0.855619 0.856565
0.826658 0.855039 0.855009
0.827451 0.854398 0.853422
0.828611 0.853727 0.851743
0.830228 0.853086 0.850065
0.832364 0.852415 0.848356
0.835019 0.851743 0.846677
0.838895 0.852079 0.847013
0.841245 0.850431 0.843748
0.843717 0.846525 0.834073
0.846128 0.839963 0.820676
0.851438 0.835691 0.812009
0.858457 0.831693 0.803952
0.866117 0.826535 0.794491
0.871458 0.810910 0.768643
0.877592 0.791836 0.737270
0.883635 0.771756 0.705165
0.884276 0.765133 0.702235
0.773129 0.851530 0.826017
0.774624 0.851957 0.827024
0.776120 0.852232 0.827939
0.778439 0.852445 0.829191
0.781765 0.852628 0.830930
0.785916 0.852811 0.833097
0.790677 0.853086 0.835599
0.794766 0.853666 0.837675
0.799496 0.854368 0.840269
0.804654 0.855192 0.843320
0.810056 0.856138 0.846738
0.815610 0.857145 0.850523
0.821530 0.858091 0.854856
0.827237 0.858915 0.859312
0.831907 0.859678 0.863035
0.831785 0.859068 0.861540
0.831907 0.858396 0.859953
0.832456 0.857755 0.858396
0.833494 0.857237 0.856962
0.835050 0.856779 0.855711
0.837034 0.856352 0.854490
0.839384 0.855924 0.853239
0.842588 0.856138 0.853727
0.844419 0.854551 0.850462
0.846616 0.851133 0.841794
0.849943 0.847105 0.832547
0.855131 0.844144 0.825895
0.861082 0.840543 0.818540
0.865293 0.828916 0.798550
0.870207 0.814603 0.774716
0.875792 0.797513 0.746609
0.881987 0.777859 0.714046
0.782345 0.856504 0.833982
0.783658 0.856840 0.834867
0.784970 0.857053 0.835660
0.787045 0.857176 0.836728
0.789914 0.857298 0.838193
0.793576 0.857389 0.840085
0.798093 0.857572 0.842466
0.802090 0.857939 0.844541
0.806302 0.858457 0.846799
0.810880 0.859098 0.849454
0.815671 0.859800 0.852354
0.820615 0.860563 0.855619
0.825406 0.861326 0.858946
0.830503 0.861936 0.862791
0.834989 0.862547 0.866331
0.837308 0.862760 0.867857
0.837308 0.862333 0.866728
0.837583 0.861936 0.865599
0.838193 0.861540 0.864561
0.839170 0.861234 0.863554
0.840452 0.860929 0.862608
0.842039 0.860594 0.861662
0.843870 0.860227 0.860624
0.846250 0.860319 0.861082
0.847654 0.858976 0.858213
0.849790 0.856504 0.851286
0.853117 0.853635 0.844022
0.857237 0.850431 0.836759
0.860533 0.842008 0.821134
0.864439 0.831357 0.802640
0.868894 0.818509 0.781186
0.873747 0.803891 0.757107
0.792447 0.861295 0.842374
0.793484 0.861479 0.842985
0.794400 0.861540 0.843473
0.795987 0.861540 0.844236
0.798245 0.861479 0.845304
0.801266 0.861448 0.846769
0.804990 0.861418 0.848661
0.809018 0.861570 0.850767
0.812558 0.861845 0.852598
0.816495 0.862242 0.854734
0.820645 0.862669 0.857206
0.824918 0.863218 0.859922
0.829099 0.863706 0.862699
0.833219 0.864164 0.865660
0.837156 0.864530 0.868650
0.840543 0.864927 0.871397
0.841306 0.864836 0.871458
0.841367 0.864530 0.870573
0.841672 0.864256 0.869749
0.842222 0.864012 0.868986
0.843015 0.863798 0.868254
0.844053 0.863584 0.867521
0.845304 0.863340 0.866758
0.846769 0.863096 0.866056
0.848569 0.863096 0.866423
0.849729 0.862089 0.864042
0.851835 0.860380 0.858579
0.854368 0.857267 0.850767
0.856901 0.851255 0.838315
0.859953 0.843473 0.823789
0.863493 0.833951 0.807065
0.867369 0.823026 0.788663
0.800656 0.864744 0.848936
0.801358 0.864866 0.849332
0.802182 0.864866 0.849760
0.803586 0.864866 0.850431
0.805722 0.864836 0.851469
0.808621 0.864805 0.852934
0.812375 0.864897 0.854948
0.816831 0.865049 0.857420
0.820645 0.865354 0.859525
0.824491 0.865690 0.861723
0.828336 0.866026 0.864012
0.832120 0.866300 0.866392
0.835630 0.866606 0.868711
0.838773 0.866850 0.870909
0.841825 0.867002 0.873136
0.844388 0.867155 0.875120
0.846403 0.867338 0.876799
0.846342 0.867155 0.876280
0.846433 0.867033 0.875761
0.846647 0.866911 0.875273
0.846983 0.866758 0.874815
0.847471 0.866667 0.874327
0.848112 0.866514 0.873838
0.848905 0.866361 0.873289
0.849912 0.866300 0.872953
0.850950 0.866270 0.873167
0.851377 0.864805 0.869596
0.852445 0.861875 0.861601
0.854215 0.857664 0.851591
0.856565 0.852049 0.839902
0.859342 0.845090 0.826719
0.862394 0.836973 0.812284
0.813352 0.868864 0.858396
0.813870 0.868864 0.858640
0.814359 0.868833 0.858854
0.815335 0.868742 0.859281
0.816892 0.868559 0.859983
0.818967 0.868406 0.860960
0.821683 0.868223 0.862272
0.824918 0.868070 0.863951
0.828214 0.868009 0.865690
0.830900 0.867979 0.867063
0.833616 0.867948 0.868589
0.836332 0.867918 0.870176
0.838956 0.867918 0.871763
0.841367 0.867948 0.873350
0.843595 0.867979 0.874937
0.845731 0.868009 0.876555
