其他预设/【240】TEZZA调色预设合集24款/1.LUT预设（视频调色-PR-AE-PS-FCPX-达芬奇用）/Tezza万事达-Cole01.cube
# Created by Adobe Lightroom plugin Export LUT (1.17.0)
# www.johnrellis.com/lightroom/exportlut.htm
# Preset: Tezza万事达-Cole01
# Color profile: /Library/Application Support/Adobe/Color/Profiles/Recommended/AdobeRGB1998.icc
LUT_3D_SIZE 5
DOMAIN_MIN 0.000000 0.000000 0.000000
DOMAIN_MAX 0.903226 0.903226 0.903226
0.154971 0.114900 0.092195
0.191135 0.122438 0.093385
0.309300 0.137240 0.087312
0.562127 0.165988 0.004913
0.842100 0.302617 0.000000
0.164218 0.157717 0.100679
0.198703 0.159091 0.099367
0.329381 0.171511 0.080995
0.583276 0.216068 0.000000
0.854032 0.350713 0.000000
0.169375 0.351568 0.135348
0.222690 0.348333 0.129274
0.443580 0.399115 0.117372
0.668269 0.392737 0.000000
0.872953 0.475074 0.000000
0.173861 0.692683 0.324468
0.286564 0.688319 0.323644
0.498817 0.651453 0.331395
0.760830 0.716243 0.397314
0.909758 0.702113 0.279576
0.497292 0.889250 0.632898
0.560388 0.884001 0.646906
0.690028 0.867002 0.681209
0.776608 0.847593 0.686549
0.911376 0.892638 0.754696
0.162631 0.131563 0.109834
0.191135 0.132753 0.112062
0.318242 0.147311 0.100923
0.560571 0.182132 0.028473
0.836912 0.308141 0.000000
0.169100 0.170626 0.123598
0.208377 0.169711 0.123720
0.340368 0.182864 0.106355
0.580499 0.222690 0.013275
0.845335 0.350103 0.000000
0.169894 0.372686 0.182193
0.234165 0.369940 0.177676
0.438453 0.395514 0.179110
0.651148 0.377325 0.000000
0.871366 0.475044 0.000000
0.187839 0.702052 0.389136
0.305638 0.697688 0.390967
0.518395 0.664942 0.399786
0.756802 0.717311 0.462959
0.904723 0.701930 0.338415
0.497414 0.891569 0.654749
0.560296 0.886381 0.666621
0.697566 0.873228 0.703487
0.783719 0.852934 0.709407
0.911559 0.894743 0.771176
0.169619 0.182345 0.184054
0.191196 0.181613 0.177432
0.343908 0.184207 0.220829
0.601038 0.015686 0.152560
0.840970 0.298253 0.064637
0.176608 0.225010 0.224033
0.217594 0.230106 0.221195
0.372381 0.236210 0.250828
0.605921 0.198825 0.172061
0.848417 0.338079 0.077089
0.129366 0.416663 0.344335
0.213321 0.417975 0.346075
0.451331 0.418433 0.355383
0.659388 0.408637 0.259861
0.869169 0.469795 0.160464
0.172274 0.729702 0.557061
0.312291 0.726284 0.557671
0.546593 0.702815 0.553002
0.748653 0.722652 0.598260
0.890776 0.686397 0.434913
0.508690 0.898100 0.726741
0.562432 0.894774 0.731472
0.684962 0.884154 0.743160
0.793881 0.863767 0.757961
0.908873 0.896208 0.803799
0.094972 0.304601 0.425147
0.149844 0.301152 0.418402
0.286870 0.310948 0.386999
0.634180 0.337133 0.537713
0.862150 0.373266 0.505943
0.122927 0.358312 0.474464
0.177493 0.352270 0.466346
0.320958 0.355688 0.434577
0.643366 0.392889 0.555169
0.861112 0.398596 0.502800
0.000000 0.489570 0.566125
0.139773 0.483619 0.564630
0.427710 0.500694 0.564233
0.670466 0.539666 0.608362
0.862333 0.480079 0.489052
0.110475 0.729427 0.695186
0.264439 0.726436 0.694209
0.507988 0.720424 0.696254
0.728359 0.716487 0.703548
0.871275 0.681178 0.590082
0.515465 0.900481 0.809659
0.565942 0.899870 0.813474
0.690608 0.901335 0.827390
0.799100 0.889769 0.823392
0.908080 0.901152 0.849790
0.000000 0.535027 0.751034
0.140536 0.532830 0.746975
0.359899 0.536706 0.732204
0.566491 0.555505 0.716396
0.838041 0.634760 0.798184
0.122133 0.564019 0.760678
0.211643 0.561303 0.756832
0.391669 0.562493 0.742977
0.578088 0.581353 0.721523
0.838407 0.652399 0.801022
0.000000 0.620203 0.789700
0.187930 0.623774 0.786954
0.465522 0.639429 0.777096
0.630793 0.659998 0.749599
0.845182 0.710536 0.816464
0.222385 0.780117 0.839292
0.295262 0.774441 0.836881
0.457282 0.753872 0.829282
0.691310 0.753140 0.816129
0.864591 0.798947 0.849516
0.511833 0.911803 0.889799
0.544427 0.909972 0.889586
0.642390 0.905730 0.890532
0.765835 0.899809 0.891905
0.896056 0.896208 0.895567
