其他预设/【240】TEZZA调色预设合集24款/1.LUT预设（视频调色-PR-AE-PS-FCPX-达芬奇用）/Tezza万事达-Tezza02.cube
# Created by Adobe Lightroom plugin Export LUT (1.17.0)
# www.johnrellis.com/lightroom/exportlut.htm
# Preset: Tezza万事达-Tezza02
# Color profile: /Library/Application Support/Adobe/Color/Profiles/Recommended/AdobeRGB1998.icc
LUT_3D_SIZE 5
DOMAIN_MIN 0.000000 0.000000 0.000000
DOMAIN_MAX 0.903226 0.903226 0.903226
0.039857 0.074037 0.083894
0.232395 0.041016 0.106477
0.610529 0.000000 0.136172
0.890196 0.006378 0.223545
1.000000 0.409155 0.408881
0.000000 0.254948 0.163272
0.210666 0.208774 0.153048
0.572778 0.188815 0.144045
0.867948 0.274662 0.224735
1.000000 0.480568 0.423835
0.000000 0.670283 0.367681
0.269200 0.668696 0.296330
0.643183 0.604944 0.374121
0.809262 0.505821 0.240543
0.981720 0.624933 0.447913
0.350195 0.895476 0.598810
0.509789 0.890440 0.610101
0.683955 0.879240 0.561364
0.857969 0.841794 0.666316
0.952392 0.801816 0.589624
0.639002 0.972503 0.785306
0.707759 0.966033 0.799741
0.797055 0.956664 0.805966
0.874723 0.948272 0.811276
0.938842 0.934813 0.865293
0.055573 0.110872 0.156466
0.259220 0.069184 0.158328
0.587671 0.000000 0.138399
0.864897 0.179904 0.215000
1.000000 0.411353 0.399359
0.000000 0.261295 0.241978
0.270420 0.254124 0.236179
0.553002 0.224674 0.144991
0.848447 0.303655 0.218357
0.998627 0.473518 0.409064
0.000000 0.660182 0.417334
0.360784 0.663691 0.390356
0.650172 0.611536 0.437201
0.794827 0.499092 0.233585
0.980255 0.623957 0.444251
0.378424 0.892271 0.625910
0.531762 0.887144 0.637812
0.700649 0.877256 0.605127
0.859190 0.844175 0.690578
0.952575 0.800565 0.587274
0.633783 0.972625 0.792264
0.703059 0.966155 0.805173
0.813657 0.956542 0.827115
0.878691 0.949279 0.824521
0.939696 0.935485 0.867033
0.125399 0.245090 0.364935
0.312078 0.303197 0.317845
0.709651 0.112093 0.360693
0.873381 0.239597 0.242496
1.000000 0.427192 0.409430
0.167056 0.337682 0.436805
0.391485 0.390570 0.425849
0.686061 0.311498 0.372107
0.859251 0.350286 0.270909
1.000000 0.478676 0.418982
0.092317 0.661738 0.566796
0.398932 0.670222 0.561181
0.697780 0.663569 0.586633
0.821225 0.540734 0.344305
0.985199 0.618158 0.451331
0.384039 0.887572 0.699184
0.527733 0.880949 0.700710
0.733242 0.874632 0.703944
0.868284 0.858946 0.772946
0.956603 0.788357 0.566003
0.625574 0.971405 0.817746
0.687129 0.966613 0.825315
0.818662 0.955352 0.853452
0.880461 0.950347 0.848112
0.940246 0.936248 0.875700
0.330205 0.477272 0.638605
0.465400 0.515679 0.622126
0.679286 0.513024 0.672297
0.919677 0.454719 0.604028
1.000000 0.497414 0.512627
0.402136 0.542016 0.675715
0.509728 0.568963 0.666316
0.707759 0.597650 0.698482
0.908721 0.515404 0.609766
0.999481 0.535088 0.522728
0.336828 0.676509 0.721736
0.473854 0.680934 0.722164
0.746609 0.740169 0.738674
0.867857 0.645472 0.623621
0.986694 0.637110 0.555962
0.414374 0.884520 0.801297
0.521050 0.880735 0.799802
0.755184 0.873442 0.805356
0.875700 0.870207 0.833707
0.964569 0.770016 0.618158
0.620111 0.971374 0.863371
0.675319 0.966979 0.865629
0.798520 0.957305 0.876982
0.886564 0.952972 0.887114
0.944610 0.942473 0.905699
0.595819 0.718929 0.849210
0.657038 0.738247 0.842924
0.810727 0.815946 0.815305
0.906523 0.760342 0.876677
0.979675 0.705470 0.792935
0.609247 0.736477 0.855985
0.665888 0.752865 0.851438
0.810971 0.821408 0.832303
0.904417 0.787808 0.880003
0.975463 0.734432 0.804501
0.465400 0.745785 0.870512
0.545556 0.747127 0.868070
0.794827 0.828153 0.865568
0.900694 0.850034 0.893309
0.965667 0.800748 0.834531
0.540978 0.888182 0.899626
0.595544 0.884794 0.898070
0.734615 0.876127 0.894316
0.899321 0.905211 0.902007
0.952544 0.864012 0.864591
0.620752 0.973449 0.919677
0.660090 0.970062 0.919097
0.769345 0.961212 0.919860
0.881743 0.952758 0.924712
0.950622 0.950927 0.939452
