其他预设/【240】TEZZA调色预设合集24款/1.LUT预设（视频调色-PR-AE-PS-FCPX-达芬奇用）/Tezza万事达-Tezza03JPG.cube
# Created by Adobe Lightroom plugin Export LUT (1.17.0)
# www.johnrellis.com/lightroom/exportlut.htm
# Preset: Tezza万事达-Tezza03JPG
# Color profile: /Library/Application Support/Adobe/Color/Profiles/Recommended/AdobeRGB1998.icc
LUT_3D_SIZE 32
0.077272 0.069551 0.036072
0.079561 0.069947 0.036866
0.083131 0.070832 0.038483
0.091920 0.071687 0.041749
0.103944 0.073396 0.047364
0.119478 0.074830 0.051240
0.139956 0.074586 0.054536
0.165652 0.073091 0.056764
0.197086 0.067750 0.058625
0.234134 0.056641 0.059052
0.274632 0.021454 0.058839
0.316991 0.000000 0.059236
0.359777 0.000000 0.059266
0.402289 0.000000 0.060060
0.443366 0.000000 0.061280
0.482216 0.000000 0.065736
0.518456 0.000000 0.071504
0.551415 0.000000 0.078920
0.581170 0.062776 0.087678
0.609216 0.116976 0.098116
0.635645 0.161685 0.110842
0.660822 0.203891 0.124697
0.684871 0.245548 0.141543
0.707546 0.287144 0.160922
0.728359 0.327123 0.183536
0.747372 0.366003 0.210544
0.764401 0.403601 0.244541
0.779629 0.440131 0.284672
0.793271 0.475410 0.329381
0.805417 0.510216 0.377783
0.816617 0.544762 0.427985
0.827207 0.579034 0.480079
0.077699 0.071839 0.036561
0.080476 0.071717 0.037446
0.084871 0.072023 0.038025
0.093355 0.073274 0.042267
0.105776 0.074861 0.046906
0.121309 0.075807 0.050843
0.142031 0.076081 0.053956
0.168032 0.073945 0.056214
0.199649 0.069154 0.057862
0.236637 0.059266 0.058534
0.277165 0.024598 0.058778
0.319432 0.000000 0.058656
0.362036 0.000000 0.058534
0.404486 0.000000 0.059266
0.445197 0.000000 0.061311
0.483955 0.000000 0.065614
0.519768 0.000000 0.071077
0.552483 0.000000 0.078492
0.582147 0.071687 0.087739
0.609949 0.122072 0.098177
0.636316 0.165225 0.110475
0.661433 0.206821 0.124727
0.685328 0.248508 0.141482
0.707973 0.289250 0.160769
0.728695 0.329259 0.183963
0.747555 0.367742 0.210941
0.764614 0.404852 0.244846
0.779843 0.441260 0.284642
0.793423 0.476448 0.329412
0.805570 0.511040 0.377966
0.816739 0.545403 0.428138
0.827268 0.579614 0.480323
0.078401 0.074769 0.037934
0.081941 0.074525 0.037690
0.085878 0.074495 0.039490
0.095644 0.075837 0.041382
0.108095 0.076844 0.046113
0.124178 0.077852 0.050111
0.145205 0.077852 0.053162
0.171267 0.075929 0.055299
0.203189 0.071168 0.056794
0.240177 0.061524 0.057313
0.280491 0.031525 0.057496
0.322606 0.000000 0.057130
0.365270 0.000000 0.057527
0.407202 0.000000 0.057984
0.447639 0.000000 0.060578
0.485939 0.000000 0.065003
0.521599 0.000000 0.071351
0.554040 0.000000 0.078645
0.583551 0.081392 0.087282
0.611139 0.128237 0.097963
0.637293 0.170535 0.110414
0.662287 0.211063 0.124666
0.686061 0.251957 0.141421
0.708522 0.292363 0.161013
0.729183 0.331884 0.183688
0.747951 0.369848 0.210971
0.764950 0.406806 0.244511
0.780087 0.442786 0.284947
0.793576 0.477760 0.329717
0.805722 0.512139 0.378180
0.816831 0.546319 0.428443
0.827420 0.580316 0.480415
0.080690 0.082795 0.038788
0.083650 0.082643 0.039643
0.088716 0.081758 0.040497
0.097414 0.080720 0.044190
0.113344 0.082490 0.044953
0.130648 0.083192 0.048219
0.152285 0.082643 0.051179
0.178775 0.080842 0.053010
0.210727 0.076051 0.054292
0.247898 0.066926 0.054475
0.287938 0.046509 0.054292
0.329564 0.002258 0.053529
0.371679 0.000000 0.053559
0.413001 0.000000 0.056001
0.452796 0.000000 0.059785
0.490608 0.000000 0.064302
0.525505 0.000000 0.070649
0.557397 0.042329 0.077852
0.586358 0.100191 0.086946
0.613458 0.141695 0.098054
0.639399 0.181338 0.110353
0.663996 0.220127 0.124758
0.687495 0.259983 0.141756
0.709743 0.299168 0.161440
0.730129 0.337652 0.184482
0.748714 0.374762 0.211765
0.765591 0.410803 0.244846
0.780606 0.446113 0.285222
0.794003 0.480598 0.330297
0.806058 0.514488 0.378637
0.817136 0.548241 0.428717
0.827665 0.581933 0.480873
0.083253 0.093446 0.041718
0.085786 0.093660 0.041413
0.090639 0.093172 0.042176
0.100557 0.090852 0.045075
0.113924 0.089906 0.047730
0.137148 0.092836 0.046784
0.164004 0.092683 0.047059
0.191226 0.090303 0.048585
0.223514 0.085542 0.049439
0.260319 0.077577 0.049989
0.299535 0.065217 0.049409
0.340642 0.039216 0.049561
0.381628 0.000793 0.050660
0.422004 0.000000 0.053285
0.460731 0.000000 0.058381
0.497627 0.000000 0.063081
0.531456 0.036225 0.069337
0.562402 0.087678 0.077028
0.590661 0.124758 0.086549
0.617273 0.160616 0.097292
0.642573 0.197116 0.110231
0.666743 0.234165 0.125032
0.689815 0.272068 0.142306
0.711666 0.309850 0.162295
0.731655 0.346593 0.185519
0.749935 0.382361 0.213138
0.766629 0.416968 0.245365
0.781430 0.451331 0.285924
0.794675 0.484993 0.330907
0.806607 0.518151 0.379187
0.817563 0.551324 0.429694
0.828061 0.584405 0.481544
0.086488 0.108370 0.043488
0.088869 0.108797 0.043091
0.092897 0.108736 0.042695
0.103456 0.106416 0.045655
0.117494 0.102937 0.048829
0.136843 0.102632 0.049928
0.169284 0.106661 0.047272
0.208133 0.106935 0.041962
0.240726 0.101686 0.042634
0.276829 0.094453 0.042878
0.315312 0.085603 0.042237
0.354986 0.074983 0.042847
0.394720 0.064210 0.044495
0.433783 0.055207 0.047761
0.471229 0.056397 0.053681
0.506676 0.071412 0.060578
0.539361 0.094392 0.067353
0.569085 0.122164 0.075715
0.596277 0.152255 0.085481
0.622065 0.184237 0.096834
0.646723 0.217533 0.109438
0.670314 0.252171 0.124971
0.692836 0.287541 0.142611
0.714137 0.323583 0.162814
0.733608 0.358251 0.186801
0.751522 0.392157 0.214267
0.767971 0.425238 0.246342
0.782559 0.458259 0.286412
0.795560 0.490639 0.331792
0.807309 0.523064 0.380438
0.818173 0.555444 0.430488
0.828611 0.587823 0.482490
0.088991 0.129122 0.041566
0.091829 0.129580 0.042115
0.095644 0.129946 0.041535
0.106142 0.128450 0.043214
0.122438 0.124239 0.046235
0.140597 0.118624 0.049378
0.167208 0.119265 0.050141
0.209445 0.124788 0.043580
0.255619 0.124941 0.034150
0.297459 0.120241 0.029572
0.334661 0.113130 0.029572
0.372900 0.106508 0.030396
0.410895 0.101564 0.032258
0.448310 0.100099 0.037018
0.484230 0.104738 0.044526
0.517754 0.116732 0.055299
0.548913 0.134951 0.063355
0.577173 0.157595 0.072572
0.603265 0.183627 0.083650
0.628046 0.211368 0.095399
0.651789 0.242039 0.109346
0.674678 0.273747 0.124666
0.696590 0.306737 0.142916
0.717189 0.339940 0.163790
0.736110 0.372473 0.188113
0.753506 0.404089 0.216342
0.769589 0.435554 0.248142
0.783902 0.466804 0.287694
0.796658 0.497932 0.333043
0.808194 0.529198 0.381598
0.818936 0.560540 0.431800
0.829282 0.592004 0.483680
0.091676 0.156374 0.036896
0.094484 0.156924 0.036286
0.098390 0.157473 0.035492
0.108125 0.157443 0.035431
0.126772 0.153201 0.038666
0.148501 0.147005 0.042908
0.170169 0.138430 0.049073
0.205447 0.140902 0.048005
0.255772 0.147921 0.034943
0.306554 0.149813 0.020996
0.357031 0.149325 0.008423
0.393408 0.144472 0.008972
0.429603 0.141756 0.012421
0.465034 0.143130 0.018189
0.498817 0.148836 0.026856
0.530480 0.159823 0.040406
0.559716 0.175998 0.057343
0.586481 0.195346 0.068360
0.611261 0.217655 0.080323
0.634974 0.242588 0.093629
0.657832 0.269963 0.107973
0.679774 0.298924 0.124971
0.700954 0.328985 0.143587
0.720729 0.359258 0.165499
0.738979 0.388647 0.190005
0.755825 0.418189 0.218692
0.771389 0.447486 0.250980
0.785550 0.476722 0.288609
0.797940 0.506462 0.334569
0.809262 0.536400 0.383215
0.819821 0.566674 0.433326
0.830076 0.597040 0.485328
0.093568 0.191562 0.023743
0.096223 0.191958 0.024231
0.100557 0.192721 0.023102
0.109773 0.193912 0.021027
0.129763 0.190219 0.024323
0.154879 0.183749 0.029175
0.182376 0.175601 0.035676
0.206790 0.162783 0.045686
0.249699 0.167361 0.041108
0.304784 0.177005 0.023407
0.357641 0.182528 0.004334
0.411444 0.188815 0.000000
0.450416 0.189334 0.000000
0.483467 0.190738 0.000000
0.514977 0.196323 0.001007
0.544396 0.205844 0.016449
0.571771 0.219333 0.039887
0.596887 0.236057 0.061036
0.620203 0.254948 0.075868
0.642725 0.276493 0.090852
0.664485 0.300755 0.107027
0.685603 0.326482 0.124483
0.705898 0.353216 0.144381
0.724819 0.380255 0.166903
0.742306 0.406897 0.192660
0.758480 0.433814 0.221775
0.773556 0.460975 0.254215
0.787350 0.488136 0.290379
0.799466 0.516228 0.336370
0.810513 0.544762 0.385016
0.820920 0.573632 0.435096
0.831052 0.602838 0.486885
0.093751 0.233616 0.002167
0.097017 0.234104 0.001312
0.101595 0.234684 0.000183
0.111574 0.236057 0.000000
0.131106 0.234592 0.000000
0.159243 0.228061 0.005127
0.190524 0.219577 0.012604
0.222782 0.208499 0.022309
0.249424 0.191623 0.039643
0.296483 0.198703 0.029725
0.354223 0.212650 0.006256
0.406867 0.222812 0.000000
0.459632 0.235203 0.000000
0.502922 0.244327 0.000000
0.532036 0.247868 0.000000
0.559258 0.255253 0.000000
0.584558 0.265599 0.007111
0.607935 0.278965 0.042512
0.629816 0.294774 0.068879
0.651118 0.313024 0.086793
0.671870 0.333745 0.104738
0.692012 0.356115 0.124422
0.711299 0.379187 0.145388
0.729213 0.402808 0.169100
0.745907 0.426642 0.195743
0.761440 0.451026 0.225132
0.775937 0.475654 0.257725
0.789242 0.500908 0.294316
0.801175 0.527092 0.338262
0.811948 0.554040 0.386847
0.822141 0.581567 0.437232
0.832151 0.609339 0.488960
0.091951 0.281956 0.000000
0.095888 0.282383 0.000000
0.100923 0.283207 0.000000
0.112032 0.284306 0.000000
0.130129 0.285283 0.000000
0.161135 0.278904 0.000000
0.196170 0.270024 0.000000
0.232364 0.259098 0.000000
0.267765 0.245548 0.003418
0.293034 0.223636 0.030610
0.343725 0.235782 0.014466
0.401495 0.254124 0.000000
0.453101 0.268376 0.000000
0.502922 0.284337 0.000000
0.548699 0.302647 0.000000
0.574670 0.307744 0.000000
0.597864 0.314549 0.000000
0.619623 0.324468 0.009430
0.640131 0.336645 0.058412
0.660151 0.351049 0.081056
0.679744 0.368170 0.102541
0.698848 0.386725 0.124575
0.717006 0.406439 0.147585
0.733974 0.426612 0.172091
0.749844 0.447517 0.198978
0.764645 0.469215 0.229374
0.778470 0.491615 0.262181
0.791318 0.514855 0.298711
0.803037 0.538994 0.340764
0.813474 0.564263 0.389624
0.823514 0.590143 0.439521
0.833402 0.616510 0.491218
0.089021 0.333989 0.000000
0.093477 0.334264 0.000000
0.099733 0.334722 0.000000
0.112093 0.335943 0.000000
0.130373 0.337743 0.000000
0.161990 0.333227 0.000000
0.199924 0.324712 0.000000
0.239109 0.313939 0.000000
0.277958 0.300450 0.000000
0.313664 0.285222 0.000000
0.336065 0.258366 0.023224
0.389502 0.276646 0.000000
0.445930 0.297612 0.000000
0.495430 0.315007 0.000000
0.541039 0.333471 0.000000
0.582544 0.353307 0.000000
0.611627 0.364874 0.000000
0.631800 0.370764 0.000000
0.650813 0.378882 0.031708
0.669642 0.389746 0.075380
0.688136 0.402838 0.100679
0.706111 0.417792 0.124849
0.723018 0.433967 0.149599
0.738979 0.451118 0.175570
0.753964 0.469184 0.203494
0.768063 0.488289 0.233555
0.781247 0.508507 0.267033
0.793545 0.529595 0.303502
0.804990 0.551812 0.343572
0.815213 0.575250 0.392187
0.825040 0.599512 0.442237
0.834775 0.624262 0.493782
0.087465 0.385443 0.000000
0.092531 0.385809 0.000000
0.099428 0.386206 0.000000
0.113375 0.387335 0.000000
0.133364 0.388800 0.000000
0.162936 0.387427 0.000000
0.203098 0.379400 0.000000
0.244602 0.368780 0.000000
0.285618 0.355932 0.000000
0.323888 0.341161 0.000000
0.358831 0.324559 0.000000
0.377630 0.295109 0.014160
0.432410 0.317967 0.000000
0.486732 0.341100 0.000000
0.532586 0.359838 0.000000
0.574426 0.379034 0.000000
0.612299 0.398413 0.000000
0.644221 0.415473 0.000000
0.662013 0.419928 0.001312
0.679561 0.427314 0.069734
0.696864 0.437110 0.099977
0.713527 0.448585 0.126619
0.729305 0.461616 0.152987
0.744228 0.475807 0.179904
0.758297 0.491279 0.208377
0.771603 0.508049 0.239017
0.784115 0.526024 0.272679
0.795895 0.545159 0.308904
0.807034 0.565362 0.348119
0.817075 0.586969 0.395270
0.826688 0.609369 0.445319
0.836271 0.632471 0.496559
0.092592 0.434424 0.000000
0.097688 0.434730 0.000000
0.104524 0.435096 0.000000
0.119844 0.435737 0.000000
0.140322 0.436805 0.000000
0.165896 0.438148 0.000000
0.207736 0.430884 0.000000
0.250645 0.421027 0.000000
0.292607 0.409247 0.000000
0.332708 0.395422 0.000000
0.369360 0.379767 0.000000
0.401587 0.362219 0.000000
0.419471 0.334630 0.006378
0.472297 0.358221 0.000000
0.522850 0.381903 0.000000
0.565515 0.400946 0.000000
0.603937 0.419379 0.000000
0.638544 0.437507 0.000000
0.669886 0.455482 0.000000
0.689815 0.463874 0.063905
0.705745 0.470527 0.099550
0.721096 0.479103 0.129671
0.735714 0.489082 0.156954
0.749538 0.500664 0.185061
0.762753 0.513634 0.214084
0.775265 0.528069 0.245243
0.787167 0.543969 0.278508
0.798367 0.561212 0.314916
0.809110 0.579522 0.353765
0.819059 0.599115 0.398718
0.828489 0.619715 0.448646
0.837919 0.641199 0.499825
0.106081 0.478035 0.000000
0.111055 0.478309 0.000000
0.117861 0.478340 0.000000
0.132448 0.478920 0.000000
0.153536 0.479591 0.000000
0.178683 0.480568 0.000000
0.215152 0.476661 0.000000
0.258061 0.467872 0.000000
0.300420 0.457374 0.000000
0.341375 0.444770 0.000000
0.378851 0.430396 0.000000
0.412512 0.414435 0.000000
0.437324 0.392554 0.000000
0.458381 0.372381 0.007111
0.508415 0.396002 0.000000
0.555108 0.418616 0.000000
0.594751 0.437110 0.000000
0.629969 0.454353 0.007202
0.662165 0.471534 0.045350
0.691920 0.489479 0.074739
0.714565 0.502647 0.102174
0.728664 0.508568 0.133181
0.742061 0.516167 0.162661
0.754940 0.525261 0.191196
0.767239 0.536065 0.220645
0.779049 0.548394 0.251621
0.790249 0.562310 0.285252
0.800992 0.577569 0.321202
0.811276 0.594049 0.359777
0.821164 0.611566 0.402411
0.830411 0.630426 0.452247
0.839628 0.650202 0.503258
0.127535 0.515892 0.000000
0.132174 0.516045 0.000000
0.138766 0.516136 0.000000
0.151980 0.516472 0.000000
0.171420 0.516747 0.000000
0.195590 0.517327 0.000000
0.225925 0.516320 0.000000
0.267765 0.508476 0.000000
0.309728 0.498970 0.000000
0.350378 0.487831 0.000000
0.388312 0.474922 0.000000
0.422736 0.460609 0.000000
0.452796 0.444831 0.000000
0.471778 0.421393 0.000000
0.494148 0.407141 0.022614
0.541009 0.429786 0.019867
0.583948 0.450752 0.031373
0.620844 0.468574 0.058473
0.653986 0.485512 0.076112
0.684443 0.502800 0.094759
0.711696 0.519982 0.116823
0.735470 0.536370 0.139895
0.748440 0.542626 0.169528
0.760342 0.549615 0.198184
0.771817 0.558465 0.227726
0.782803 0.568902 0.259434
0.793423 0.580774 0.292485
0.803616 0.594110 0.328313
0.813596 0.608728 0.366155
0.823453 0.624353 0.406500
0.832486 0.641413 0.456062
0.841520 0.659510 0.506828
0.153750 0.548791 0.000000
0.158114 0.548791 0.000000
0.163577 0.548943 0.000000
0.175631 0.549096 0.000000
0.193271 0.549310 0.000000
0.216159 0.549401 0.000000
0.242344 0.549554 0.000000
0.280522 0.543755 0.000000
0.321233 0.535058 0.000000
0.360906 0.524865 0.000000
0.398322 0.513451 0.000000
0.432776 0.500542 0.000000
0.463355 0.486519 0.000000
0.489448 0.471168 0.000000
0.503593 0.447272 0.003204
0.526360 0.438239 0.056794
0.570001 0.459541 0.065248
0.610132 0.479530 0.077852
0.644984 0.497261 0.093446
0.676478 0.514244 0.111299
0.704860 0.531365 0.132113
0.729458 0.547539 0.153933
0.750881 0.563378 0.178897
0.765652 0.573632 0.206394
0.776333 0.580560 0.236027
0.786618 0.589075 0.267613
0.796597 0.599145 0.300664
0.806363 0.610681 0.335882
0.816037 0.623438 0.372717
0.825681 0.637263 0.412085
0.834684 0.652491 0.460151
0.843473 0.669001 0.510826
0.182284 0.577722 0.000000
0.185977 0.577752 0.000000
0.191257 0.577752 0.000000
0.201694 0.577844 0.000000
0.218082 0.577844 0.000000
0.238590 0.577722 0.000000
0.263127 0.577661 0.000000
0.294896 0.574731 0.000000
0.334112 0.566827 0.000000
0.372656 0.557702 0.000000
0.409308 0.547265 0.000000
0.443366 0.535668 0.000000
0.473823 0.522911 0.000000
0.500450 0.509483 0.000000
0.522820 0.494820 0.000000
0.532830 0.470954 0.057862
0.556695 0.466835 0.079530
0.597284 0.487068 0.091585
0.634760 0.506157 0.107118
0.667842 0.523980 0.124788
0.697353 0.541131 0.144900
0.723079 0.557488 0.166690
0.745327 0.573205 0.191104
0.764675 0.588525 0.217533
0.780728 0.602106 0.245548
0.790402 0.608942 0.276616
0.799893 0.617273 0.309087
0.809201 0.627039 0.343938
0.818540 0.638056 0.380072
0.828031 0.650172 0.418494
0.836942 0.663691 0.464698
0.845487 0.678645 0.515099
0.211948 0.604273 0.000000
0.215183 0.604211 0.000000
0.219913 0.604150 0.000000
0.229526 0.604150 0.000000
0.243961 0.604028 0.000000
0.262882 0.603876 0.000000
0.285771 0.603632 0.000000
0.311528 0.603143 0.000000
0.349310 0.596002 0.000000
0.386389 0.587518 0.000000
0.421881 0.578119 0.000000
0.455238 0.567651 0.000000
0.485389 0.556237 0.000000
0.511772 0.543969 0.000000
0.534539 0.530846 0.015656
0.553704 0.517021 0.055207
0.560388 0.493538 0.085359
0.585077 0.493477 0.102541
0.623377 0.512963 0.118105
0.658289 0.531670 0.135897
0.689357 0.549432 0.155978
0.716274 0.566094 0.177829
0.739498 0.582025 0.202304
0.759640 0.597375 0.228611
0.777218 0.612055 0.256382
0.792721 0.626154 0.286168
0.803189 0.634913 0.317967
0.812100 0.643091 0.352209
0.821225 0.652491 0.387518
0.830472 0.663020 0.425177
0.839322 0.674861 0.469703
0.847623 0.688319 0.519677
0.242008 0.629206 0.000000
0.245060 0.629206 0.000000
0.249454 0.629084 0.000000
0.257908 0.628992 0.000000
0.271275 0.628870 0.000000
0.288853 0.628626 0.000000
0.310002 0.628260 0.000000
0.334051 0.627680 0.000000
0.366278 0.623255 0.000000
0.401740 0.615534 0.000000
0.436103 0.606928 0.000000
0.468360 0.597284 0.000000
0.497597 0.586847 0.002960
0.523644 0.575769 0.038544
0.546532 0.563928 0.065705
0.566155 0.551324 0.078553
0.582574 0.538079 0.089815
0.586725 0.515099 0.110445
0.612421 0.518883 0.126558
0.648432 0.537987 0.145022
0.680842 0.556298 0.165133
0.708980 0.573480 0.187198
0.733333 0.589746 0.211643
0.754391 0.605310 0.238346
0.772702 0.620142 0.266728
0.788815 0.634302 0.296483
0.803220 0.647761 0.328344
0.815091 0.658747 0.360906
0.823911 0.666621 0.395544
0.833005 0.675685 0.432166
0.841764 0.686000 0.474739
0.849790 0.698054 0.524437
0.272923 0.652979 0.004028
0.275822 0.652979 0.003967
0.279301 0.652888 0.000671
0.287541 0.652766 0.000000
0.299748 0.652522 0.000000
0.315862 0.652186 0.000000
0.335393 0.651728 0.000000
0.357763 0.651087 0.000000
0.384710 0.649134 0.000000
0.418799 0.642115 0.004822
0.451698 0.634058 0.033326
0.482612 0.625269 0.060243
0.510948 0.615717 0.072145
0.536431 0.605615 0.083894
0.559075 0.594781 0.094087
0.578698 0.583276 0.101930
0.595666 0.571313 0.110903
0.609339 0.558160 0.118654
0.611902 0.535943 0.134218
0.638727 0.543542 0.152041
0.672358 0.562402 0.172885
0.701778 0.580163 0.195224
0.726772 0.596368 0.219852
0.748928 0.612238 0.246586
0.768063 0.627405 0.275456
0.784817 0.641779 0.306279
0.799710 0.655360 0.338079
0.813443 0.668147 0.370794
0.826505 0.680110 0.403906
0.835599 0.688106 0.439826
0.844297 0.697047 0.480049
0.852018 0.707912 0.529473
0.304112 0.675319 0.088228
0.306523 0.675288 0.086824
0.309880 0.675166 0.086519
0.317296 0.675044 0.087221
0.328832 0.674769 0.086305
0.343694 0.674311 0.086213
0.361761 0.673762 0.083528
0.382788 0.672969 0.081910
0.406012 0.672084 0.079042
0.436744 0.666712 0.084688
0.468177 0.659541 0.092744
0.497780 0.651637 0.099916
0.525109 0.643030 0.106783
0.549981 0.633783 0.114046
0.572168 0.623987 0.121462
0.591852 0.613519 0.127565
0.608881 0.602564 0.134005
0.623499 0.590967 0.139864
0.632593 0.576043 0.146639
0.636469 0.557061 0.159365
0.664149 0.568017 0.178653
0.695003 0.586542 0.202243
0.720974 0.603113 0.227176
0.743191 0.618402 0.253849
0.763302 0.633997 0.283452
0.780728 0.648646 0.314733
0.796170 0.662409 0.347051
0.810330 0.675380 0.380072
0.823728 0.687373 0.413672
0.836606 0.698634 0.448096
0.846891 0.708064 0.485695
0.854307 0.717861 0.534722
0.335241 0.695705 0.128145
0.337560 0.695613 0.128206
0.340612 0.695583 0.128695
0.347478 0.695338 0.128267
0.357794 0.694972 0.127565
0.371557 0.694453 0.127352
0.388220 0.693874 0.126833
0.407446 0.693080 0.125338
0.429023 0.692134 0.124636
0.454780 0.689204 0.125124
0.484474 0.682765 0.129213
0.512810 0.675715 0.135073
0.539147 0.668147 0.139925
0.563470 0.659907 0.144778
0.585534 0.651270 0.150027
0.605188 0.641993 0.154910
0.622400 0.632136 0.159609
0.637324 0.621759 0.164096
0.649989 0.610773 0.168215
0.655756 0.594812 0.174014
0.660670 0.578485 0.185641
0.688655 0.592615 0.208164
0.716030 0.610071 0.234257
0.738888 0.625605 0.261692
0.758297 0.639796 0.290135
0.776547 0.654871 0.322057
0.792630 0.668940 0.354955
0.807248 0.682124 0.388464
0.821042 0.694301 0.422858
0.834165 0.705745 0.457862
0.846586 0.716609 0.493874
0.856626 0.727901 0.540154
0.366217 0.714351 0.164736
0.368444 0.714260 0.165164
0.371313 0.714168 0.165133
0.377325 0.713924 0.164431
0.386786 0.713527 0.164218
0.399390 0.713039 0.163912
0.414496 0.712367 0.163607
0.432044 0.711574 0.162936
0.451881 0.710597 0.161959
0.472969 0.709529 0.160952
0.500847 0.703914 0.164828
0.527581 0.697658 0.168032
0.553063 0.690883 0.172335
0.576684 0.683619 0.175875
0.598260 0.676020 0.179904
0.617823 0.667872 0.183658
0.635157 0.659297 0.187381
0.650507 0.650263 0.191043
0.663813 0.640772 0.194064
0.675135 0.630732 0.197116
0.679561 0.615320 0.202914
0.684504 0.600793 0.213931
0.711513 0.616876 0.240299
0.735592 0.633295 0.269718
0.755520 0.647700 0.298894
0.772366 0.660517 0.328161
0.789090 0.675044 0.362066
0.804196 0.688563 0.396582
0.818357 0.700984 0.431586
0.831846 0.712520 0.467109
0.844572 0.723568 0.503105
0.855436 0.735409 0.549371
0.396918 0.731563 0.200473
0.398718 0.731441 0.199771
0.401312 0.731319 0.200076
0.406989 0.731044 0.200259
0.415564 0.730678 0.199893
0.426947 0.730098 0.199374
0.440681 0.729458 0.199130
0.456489 0.728695 0.198337
0.474372 0.727749 0.198489
0.493690 0.726650 0.197757
0.517082 0.723323 0.199191
0.542596 0.717708 0.201602
0.566949 0.711696 0.204715
0.589624 0.705318 0.207919
0.610651 0.698573 0.211154
0.629847 0.691524 0.214755
0.647303 0.684077 0.217929
0.662745 0.676295 0.220706
0.676417 0.668177 0.223728
0.688411 0.659602 0.225864
0.698665 0.650538 0.228031
0.702296 0.636072 0.234440
0.707607 0.623682 0.245853
0.732937 0.641138 0.277134
0.753750 0.656306 0.308324
0.771054 0.669429 0.339025
0.785611 0.680751 0.368261
0.801205 0.694545 0.403754
0.815732 0.707332 0.439796
0.829587 0.719173 0.476020
0.842588 0.730434 0.512963
0.853727 0.742428 0.559350
0.427008 0.747494 0.235477
0.428748 0.747402 0.235233
0.430945 0.747280 0.235416
0.436103 0.747036 0.235203
0.443763 0.746639 0.234928
0.453712 0.746181 0.234867
0.466224 0.745510 0.234775
0.480568 0.744717 0.234501
0.496559 0.743832 0.234134
0.513970 0.742855 0.233677
0.533349 0.741299 0.233707
0.557519 0.736324 0.235935
0.580621 0.730983 0.238926
0.602594 0.725399 0.241611
0.622889 0.719539 0.244785
0.641657 0.713344 0.247623
0.658839 0.706905 0.250492
0.674372 0.700252 0.252995
0.688258 0.693294 0.255711
0.700587 0.686091 0.258274
0.711482 0.678523 0.260258
0.720943 0.670710 0.262181
0.724178 0.657435 0.269810
0.731258 0.649470 0.284794
0.752956 0.665431 0.318486
0.770779 0.679133 0.351263
0.785763 0.690822 0.382208
0.798642 0.700740 0.411383
0.813260 0.713405 0.447395
0.827481 0.725582 0.484901
0.840787 0.737118 0.522606
0.852171 0.749294 0.569238
0.456489 0.762661 0.271763
0.458015 0.762570 0.271550
0.460121 0.762448 0.271489
0.464576 0.762234 0.271489
0.471382 0.761868 0.271458
0.480354 0.761379 0.271214
0.491402 0.760769 0.270817
0.504265 0.760037 0.270603
0.518791 0.759213 0.270542
0.534752 0.758267 0.270695
0.551537 0.757290 0.270237
0.572656 0.753872 0.272068
0.594507 0.749172 0.274357
0.615442 0.744259 0.277379
0.635035 0.739071 0.279881
0.653315 0.733761 0.282658
0.670130 0.728237 0.285771
0.685481 0.722591 0.288365
0.699397 0.716732 0.291356
0.711940 0.710689 0.293858
0.723201 0.704463 0.296239
0.733242 0.698085 0.298711
0.742184 0.691432 0.300816
0.745205 0.679713 0.311009
0.753262 0.675380 0.330114
0.771603 0.689662 0.365026
0.786893 0.701686 0.398047
0.800046 0.711788 0.428748
0.811643 0.720241 0.457038
0.825498 0.731777 0.493355
0.839109 0.743618 0.532036
0.850767 0.756008 0.579339
0.485573 0.777310 0.308812
0.486702 0.777249 0.308782
0.488685 0.777127 0.308904
0.492531 0.776944 0.308843
0.498634 0.776577 0.308415
0.506706 0.776150 0.308568
0.516533 0.775570 0.308751
0.528069 0.774929 0.308324
0.541131 0.774136 0.308507
0.555352 0.773342 0.308598
0.570611 0.772427 0.308415
0.587976 0.770657 0.309026
0.608667 0.766537 0.311589
0.628443 0.762234 0.314427
0.647150 0.757748 0.317082
