其他预设/【240】TEZZA调色预设合集24款/1.LUT预设（视频调色-PR-AE-PS-FCPX-达芬奇用）/Tezza万事达-Tezza01JPG.cube
# Created by Adobe Lightroom plugin Export LUT (1.17.0)
# www.johnrellis.com/lightroom/exportlut.htm
# Preset: Tezza万事达-Tezza01JPG
# Color profile: /Library/Application Support/Adobe/Color/Profiles/Recommended/AdobeRGB1998.icc
LUT_3D_SIZE 32
0.035828 0.033722 0.039582
0.051606 0.037812 0.042054
0.064881 0.042939 0.045289
0.080323 0.052888 0.051362
0.102113 0.061433 0.058503
0.130404 0.064515 0.060639
0.164248 0.065492 0.061067
0.203464 0.063203 0.061372
0.248631 0.055543 0.060182
0.299962 0.027100 0.057343
0.357794 0.000000 0.051484
0.418647 0.000000 0.041321
0.478981 0.000000 0.028351
0.536065 0.000000 0.015503
0.586786 0.000000 0.003510
0.631159 0.000000 0.000000
0.669978 0.079530 0.000000
0.705928 0.135561 0.000000
0.737148 0.182712 0.000000
0.763760 0.224674 0.000000
0.786893 0.263310 0.019471
0.807431 0.299351 0.050263
0.826413 0.333074 0.070985
0.844266 0.365179 0.088899
0.861357 0.395239 0.107057
0.877836 0.423835 0.126833
0.893919 0.451270 0.148867
0.909636 0.477913 0.173281
0.924895 0.503838 0.200717
0.939696 0.529473 0.231601
0.953887 0.554894 0.266117
0.967315 0.580194 0.304448
0.036774 0.046265 0.045014
0.049775 0.046204 0.047669
0.063935 0.052033 0.048310
0.080049 0.060304 0.053101
0.101900 0.066011 0.059480
0.130037 0.069306 0.061097
0.163912 0.070649 0.061921
0.202945 0.069581 0.061738
0.247807 0.064271 0.060548
0.298955 0.049073 0.057923
0.356481 0.003510 0.052064
0.417151 0.000000 0.043214
0.477424 0.000000 0.030182
0.534295 0.000000 0.017395
0.585107 0.000000 0.005432
0.629511 0.000000 0.000000
0.668391 0.090333 0.000000
0.704280 0.140902 0.000000
0.735256 0.185763 0.000000
0.761776 0.226566 0.000000
0.785000 0.264134 0.017853
0.805631 0.299474 0.048798
0.824704 0.332982 0.070436
0.842649 0.364782 0.087984
0.859800 0.394812 0.105898
0.876432 0.423316 0.125734
0.892668 0.450690 0.147372
0.908507 0.477394 0.172000
0.923888 0.503288 0.199313
0.938811 0.528954 0.229862
0.953094 0.554314 0.264347
0.966613 0.579644 0.302556
0.037446 0.059937 0.051606
0.053346 0.059663 0.053712
0.062348 0.059937 0.056611
0.078096 0.065675 0.059205
0.101503 0.071839 0.060700
0.129732 0.075257 0.062257
0.163485 0.077211 0.062593
0.202426 0.077089 0.062318
0.247166 0.073762 0.061494
0.298405 0.065309 0.059113
0.355688 0.037781 0.053529
0.416266 0.000000 0.044862
0.476539 0.000000 0.032654
0.533562 0.000000 0.019379
0.584283 0.000000 0.008301
0.628717 0.047608 0.000000
0.667567 0.104707 0.000000
0.703456 0.150149 0.000000
0.734249 0.192111 0.000000
0.760708 0.231327 0.000641
0.783993 0.268070 0.021118
0.804685 0.302434 0.050843
0.823758 0.335363 0.070741
0.841794 0.366735 0.088014
0.858976 0.396368 0.105989
0.875639 0.424598 0.125673
0.891936 0.451881 0.147463
0.907836 0.478340 0.171878
0.923308 0.504143 0.199191
0.938262 0.529686 0.229801
0.952605 0.554894 0.264012
0.966155 0.580102 0.302251
0.042084 0.073182 0.061006
0.058259 0.073213 0.063416
0.066041 0.072480 0.065003
0.075441 0.073243 0.066987
0.096223 0.080232 0.067170
0.129702 0.088594 0.064210
0.163363 0.091463 0.064393
0.202640 0.092988 0.063874
0.247410 0.091493 0.062440
0.298619 0.087007 0.060273
0.355932 0.077821 0.055116
0.416388 0.063783 0.047181
0.476478 0.038849 0.036347
0.533104 0.029480 0.024750
0.583856 0.061433 0.012879
0.628168 0.094545 0.003571
0.666957 0.130068 0.000000
0.702815 0.169253 0.000000
0.733028 0.206668 0.000000
0.759152 0.242466 0.006439
0.782315 0.276890 0.025727
0.802976 0.309667 0.054047
0.822202 0.341466 0.072969
0.840452 0.372168 0.089723
0.857969 0.401434 0.107912
0.874937 0.429358 0.127504
0.891447 0.456275 0.149538
0.907469 0.482521 0.174197
0.922972 0.507897 0.201511
0.937896 0.532952 0.231785
0.952178 0.557671 0.265782
0.965698 0.582300 0.303532
0.045960 0.090272 0.068940
0.057679 0.090181 0.069978
0.066011 0.090517 0.071595
0.077577 0.089570 0.074220
0.091798 0.091218 0.076387
0.116884 0.098116 0.075715
0.158022 0.109651 0.070192
0.202243 0.115633 0.065949
0.247318 0.116182 0.064332
0.298497 0.115114 0.062196
0.355810 0.110903 0.059205
0.416236 0.105623 0.052522
0.476204 0.101198 0.042237
0.532891 0.102419 0.030457
0.583551 0.114107 0.019471
0.627924 0.135744 0.009888
0.666773 0.163455 0.003021
0.702815 0.196658 0.000305
0.732723 0.229221 0.004364
0.758602 0.261723 0.015137
0.781460 0.293004 0.036591
0.802060 0.323613 0.061189
0.821225 0.353399 0.076936
0.839475 0.382300 0.093660
0.857023 0.410285 0.111666
0.874052 0.437232 0.131228
0.890623 0.463172 0.152895
0.906676 0.488441 0.177157
0.922179 0.513146 0.204379
0.937102 0.537530 0.234592
0.951446 0.561669 0.268223
0.964965 0.585840 0.305852
0.039979 0.112581 0.077272
0.052369 0.112795 0.077485
0.062928 0.113100 0.078279
0.076204 0.113405 0.080232
0.093355 0.111971 0.084840
0.112642 0.114290 0.086824
0.141115 0.120851 0.087190
0.189364 0.135073 0.079347
0.245670 0.145846 0.069337
0.300114 0.147921 0.065217
0.357763 0.147189 0.062013
0.418341 0.145724 0.058198
0.478065 0.145785 0.050202
0.534478 0.149569 0.039979
0.584863 0.159945 0.028504
0.628901 0.177981 0.019287
0.668299 0.201663 0.013825
0.703517 0.229953 0.010590
0.732937 0.258274 0.015503
0.758602 0.286900 0.029877
0.781399 0.315373 0.051820
0.801907 0.343328 0.068971
0.830716 0.388037 0.095827
0.848264 0.413947 0.112886
0.865049 0.438788 0.130861
0.881254 0.462684 0.150668
0.896910 0.486030 0.172580
0.912108 0.508751 0.196780
0.926787 0.531273 0.223697
0.941009 0.553735 0.253696
0.954528 0.576196 0.287053
0.967346 0.598657 0.323674
0.023224 0.142733 0.086519
0.036072 0.142916 0.086671
0.052094 0.143343 0.087068
0.071748 0.144320 0.088930
0.092988 0.143099 0.092683
0.115145 0.142397 0.097810
0.140352 0.145205 0.100496
0.171908 0.149966 0.102541
0.229038 0.167514 0.092409
0.295262 0.180728 0.080171
0.366949 0.190219 0.065919
0.428229 0.191104 0.062074
0.487678 0.193545 0.057435
0.542962 0.199130 0.048737
0.591730 0.209476 0.038300
0.634211 0.225193 0.031220
0.673976 0.247196 0.025360
0.708186 0.271427 0.026581
0.736904 0.296086 0.035187
0.762234 0.321569 0.053071
0.785092 0.347723 0.067903
0.806058 0.373999 0.082551
0.825864 0.400244 0.098909
0.844633 0.425910 0.116487
0.862394 0.450477 0.135409
0.879210 0.473732 0.155520
0.895171 0.496132 0.177615
0.910521 0.517845 0.201846
0.925322 0.539391 0.228428
0.939513 0.560845 0.258000
0.953155 0.582391 0.290745
0.965972 0.604150 0.327245
0.000000 0.176242 0.096773
0.006622 0.176425 0.096681
0.024384 0.176761 0.097017
0.061067 0.177493 0.098116
0.087465 0.178317 0.100923
0.115206 0.175570 0.107820
0.142092 0.176028 0.112947
0.172274 0.179324 0.116091
0.205325 0.181521 0.121035
0.270603 0.202152 0.109316
0.345068 0.218051 0.095918
0.422889 0.232303 0.077852
0.490364 0.241398 0.063294
0.545037 0.247471 0.058869
0.593194 0.257237 0.052064
0.636347 0.271489 0.045869
0.675135 0.290227 0.043183
0.708186 0.310185 0.046174
0.736294 0.330816 0.055024
0.761166 0.352544 0.066194
0.783719 0.375006 0.078187
0.804501 0.397894 0.092134
0.824125 0.421057 0.107637
0.842832 0.443946 0.124880
0.860563 0.466316 0.143008
0.877379 0.487831 0.162966
0.893400 0.508568 0.184512
0.908812 0.528923 0.208072
0.923674 0.549310 0.234501
0.937987 0.569665 0.263767
0.951659 0.590326 0.296391
0.964569 0.611170 0.332403
0.000000 0.214786 0.108797
0.000000 0.214908 0.108705
0.000000 0.215244 0.108980
0.028229 0.215793 0.109743
0.079011 0.217288 0.113680
0.111940 0.216129 0.118074
0.143923 0.212924 0.126497
0.175509 0.214572 0.130953
0.210544 0.218235 0.134524
0.244511 0.217105 0.143221
0.318761 0.241123 0.130282
0.398474 0.260410 0.115450
0.476234 0.278538 0.096864
0.546532 0.297490 0.070680
0.596368 0.308171 0.062745
0.639643 0.321386 0.061067
0.676967 0.336248 0.060945
0.709010 0.352575 0.063416
0.736324 0.369055 0.070069
0.760800 0.386969 0.078706
0.782986 0.405768 0.090150
0.803525 0.425025 0.103761
0.822995 0.444953 0.118746
0.841489 0.465248 0.135317
0.859129 0.485237 0.153292
0.875883 0.504540 0.172763
0.891905 0.523583 0.193912
0.907317 0.542321 0.216983
0.922179 0.561242 0.242802
0.936492 0.580346 0.271702
0.950134 0.599847 0.303807
0.963104 0.619684 0.339178
0.000000 0.257664 0.122133
0.000000 0.257786 0.122042
0.000000 0.257939 0.122316
0.000000 0.258427 0.123110
0.061250 0.259586 0.126009
0.104372 0.260807 0.130343
0.143648 0.257755 0.138155
0.179202 0.253941 0.147982
0.215854 0.257389 0.151522
0.255833 0.260929 0.155337
0.291966 0.257908 0.165438
0.370581 0.283330 0.153964
0.451301 0.306218 0.138155
0.525811 0.327611 0.119417
0.591333 0.351415 0.096559
0.643305 0.373175 0.072480
0.679774 0.385046 0.073365
0.710842 0.397436 0.077607
0.737484 0.410376 0.084535
0.761257 0.424109 0.093690
0.782834 0.438849 0.104860
0.802731 0.454292 0.117708
0.821714 0.470710 0.131746
0.839841 0.487709 0.147250
0.857206 0.504997 0.164523
0.873899 0.522210 0.183322
0.890013 0.539483 0.203861
0.905516 0.556847 0.226719
0.920500 0.574487 0.252476
0.934905 0.592554 0.281193
0.948699 0.610986 0.313268
0.961761 0.629908 0.348547
0.000000 0.304051 0.136629
0.000000 0.304265 0.136721
0.000000 0.304448 0.136904
0.000000 0.304875 0.137942
0.000000 0.305821 0.140414
0.093904 0.307469 0.146212
0.139498 0.307073 0.151431
0.182528 0.303563 0.161013
0.222080 0.300908 0.170504
0.264164 0.304631 0.174319
0.309178 0.308080 0.178439
0.346410 0.303288 0.188602
0.424598 0.329259 0.180423
0.504692 0.356054 0.164096
0.573388 0.380682 0.146273
0.630121 0.404547 0.126314
0.677455 0.427344 0.102846
0.711757 0.441840 0.093629
0.737728 0.450660 0.100740
0.761044 0.460731 0.109682
0.782162 0.472053 0.120668
0.801938 0.484413 0.132845
0.820737 0.498146 0.146822
0.838682 0.512505 0.162112
0.855955 0.527459 0.178622
0.872496 0.542443 0.196872
0.888457 0.557671 0.216739
0.903868 0.573236 0.239048
0.918791 0.589227 0.264042
0.933196 0.605768 0.292119
0.946990 0.622950 0.323522
0.960052 0.640711 0.358404
0.000000 0.355077 0.153170
0.000000 0.355230 0.153384
0.000000 0.355444 0.153689
0.000000 0.355810 0.154543
0.000000 0.356756 0.156802
0.070680 0.358190 0.161715
0.135439 0.360266 0.169741
0.182467 0.357244 0.175662
0.229343 0.353063 0.186679
0.273350 0.351904 0.195132
0.320043 0.355322 0.199161
0.368658 0.359350 0.203952
0.420294 0.365179 0.221012
0.496010 0.391760 0.217441
0.568078 0.420478 0.200839
0.627008 0.445319 0.183566
0.675502 0.467140 0.165927
0.714656 0.485817 0.148104
0.746517 0.501671 0.130373
0.768704 0.508476 0.136904
0.788418 0.515557 0.147494
0.807065 0.524315 0.159365
0.824857 0.534234 0.172305
0.842008 0.545342 0.186709
0.858579 0.557122 0.202396
0.874510 0.569451 0.219974
0.889952 0.582147 0.239139
0.904875 0.595392 0.260441
0.919341 0.609247 0.284550
0.933318 0.623896 0.311711
0.946746 0.639246 0.342077
0.959472 0.655482 0.375891
0.000000 0.413581 0.173190
0.000000 0.413733 0.173465
0.000000 0.413642 0.173648
0.000000 0.413550 0.174441
0.000000 0.413825 0.176364
0.000000 0.414374 0.180362
0.122927 0.415686 0.187564
0.179599 0.415167 0.192630
0.235050 0.410986 0.203281
0.285496 0.406378 0.215732
0.335485 0.408362 0.224308
0.387762 0.414343 0.230350
0.439551 0.420233 0.237095
0.475685 0.414557 0.248783
0.542168 0.438178 0.250370
0.605798 0.466011 0.234501
0.657862 0.488685 0.218265
0.700099 0.507347 0.202609
0.734340 0.523064 0.187900
0.763363 0.537041 0.174228
0.787137 0.548119 0.167575
0.805600 0.554192 0.178439
0.823148 0.561730 0.190768
0.840116 0.570428 0.204257
0.856535 0.580041 0.219272
0.872435 0.590326 0.235752
0.887785 0.601282 0.254307
0.902678 0.612848 0.275029
0.917144 0.625208 0.298344
0.931151 0.638514 0.324895
0.944579 0.652644 0.354589
0.957427 0.667811 0.387823
0.000000 0.466285 0.193668
0.000000 0.466224 0.193820
0.000000 0.466133 0.194095
0.000000 0.466163 0.194888
0.000000 0.466041 0.196597
0.000000 0.466316 0.200015
0.103151 0.467140 0.206027
0.181277 0.468208 0.216129
0.236149 0.465278 0.220920
0.294896 0.462104 0.233829
0.347875 0.458625 0.248417
0.399329 0.461952 0.255650
0.449714 0.466438 0.261997
0.497292 0.470771 0.268620
0.526390 0.462348 0.278935
0.582147 0.481514 0.285710
0.637903 0.506584 0.270024
0.683528 0.526604 0.255009
0.720638 0.542748 0.241032
0.751675 0.556725 0.228641
0.778378 0.569390 0.217899
0.802457 0.581659 0.208042
0.821744 0.589715 0.211704
0.838621 0.596307 0.224430
0.854887 0.603967 0.238590
0.870634 0.612390 0.254429
0.885924 0.621546 0.272068
0.900755 0.631556 0.292027
0.915129 0.642451 0.314733
0.929137 0.654353 0.340459
0.942596 0.667231 0.369574
0.955444 0.681270 0.401984
0.000000 0.516777 0.216464
0.000000 0.516838 0.216770
0.000000 0.516625 0.216922
0.000000 0.516503 0.217594
0.000000 0.516258 0.219211
0.000000 0.516258 0.222141
0.076356 0.517174 0.227726
0.173373 0.518395 0.236545
0.237675 0.518486 0.241794
0.302098 0.514580 0.254185
0.359442 0.510491 0.268040
0.410407 0.506798 0.282750
0.459693 0.509789 0.288762
0.505638 0.512840 0.295232
0.547112 0.515770 0.301823
0.571283 0.507042 0.310918
0.616205 0.520439 0.322210
0.665339 0.543023 0.306920
0.705501 0.560601 0.293095
0.738888 0.575219 0.281163
0.767239 0.587884 0.270939
0.792416 0.599634 0.261906
0.815457 0.611048 0.253819
0.837003 0.622187 0.246738
0.853239 0.628077 0.259892
0.868956 0.634852 0.274968
0.884245 0.642573 0.292058
0.899107 0.651331 0.311894
0.913573 0.661036 0.334203
0.927611 0.671809 0.359808
0.941100 0.683680 0.388556
0.954009 0.696681 0.420600
0.000000 0.564538 0.242405
0.000000 0.564752 0.242985
0.000000 0.564782 0.243290
0.000000 0.564965 0.244144
0.000000 0.565118 0.245853
0.000000 0.565484 0.248844
0.024811 0.565850 0.253605
0.168521 0.566217 0.261448
0.251255 0.566369 0.273259
0.309361 0.563500 0.277806
0.370397 0.558465 0.290745
0.423621 0.553338 0.305211
0.469856 0.549920 0.317479
0.513329 0.551324 0.323064
0.552544 0.552850 0.328832
0.588006 0.554559 0.334874
0.609461 0.546715 0.343206
0.644923 0.554894 0.358587
0.688869 0.575647 0.344823
0.725093 0.592004 0.333165
0.755489 0.605554 0.323339
0.781949 0.617487 0.315129
0.806119 0.628840 0.307927
0.828489 0.639704 0.301732
0.849485 0.650080 0.296666
0.867918 0.658534 0.299138
0.883055 0.664698 0.315526
0.897795 0.671870 0.334264
0.912108 0.680171 0.356023
0.925963 0.689509 0.380285
0.939330 0.700008 0.407721
0.952056 0.711757 0.438483
0.000000 0.608057 0.270848
0.000000 0.608026 0.271031
0.000000 0.607935 0.271397
0.000000 0.607843 0.272099
0.000000 0.607660 0.273564
0.000000 0.607446 0.276127
0.000000 0.607233 0.280339
0.164797 0.606714 0.286778
0.250858 0.605951 0.296635
0.314122 0.604608 0.301732
0.377569 0.599512 0.313848
0.432929 0.594110 0.327123
0.480140 0.588708 0.341680
0.520745 0.586511 0.351720
0.558312 0.587274 0.357000
0.592218 0.588190 0.362493
0.623072 0.589380 0.368292
0.642573 0.582757 0.376013
0.670314 0.586603 0.395331
0.709377 0.605615 0.383581
0.742031 0.620508 0.373724
0.769955 0.633051 0.365515
0.795163 0.644587 0.358648
0.818479 0.655512 0.353216
0.840269 0.665858 0.348791
0.860777 0.675624 0.345800
0.880156 0.684932 0.344091
0.895964 0.691920 0.356939
0.910185 0.698878 0.377569
0.924010 0.707057 0.401038
0.937346 0.716426 0.427436
0.950103 0.727169 0.457496
0.000000 0.646723 0.299779
0.000000 0.646845 0.300206
0.000000 0.655421 0.307836
0.000000 0.655177 0.308446
0.000000 0.654688 0.309819
0.000000 0.653895 0.311894
0.000000 0.652857 0.315526
0.175784 0.651453 0.320928
0.263523 0.649683 0.329534
0.341405 0.647303 0.342321
0.394781 0.643610 0.346075
0.450355 0.637842 0.358251
0.497414 0.632013 0.371344
0.536339 0.626398 0.385351
0.570764 0.624903 0.392554
0.602625 0.624903 0.397223
0.631708 0.625177 0.402350
0.658167 0.625818 0.407660
0.675257 0.619898 0.414557
0.696590 0.620447 0.435187
0.730068 0.636561 0.426917
0.759213 0.649897 0.418647
0.785336 0.661738 0.411658
0.809262 0.672602 0.406226
0.831510 0.682582 0.401709
0.852354 0.691920 0.398657
0.872007 0.700740 0.396948
0.890715 0.709346 0.397040
0.908293 0.717739 0.400397
0.921965 0.724697 0.422522
0.935210 0.732906 0.447883
0.947906 0.742580 0.476844
0.000000 0.682948 0.330816
0.000000 0.683986 0.332006
0.000000 0.684871 0.333227
0.000000 0.685542 0.334905
0.000000 0.685634 0.336767
0.000000 0.685054 0.339208
0.000000 0.683864 0.342473
0.181064 0.682124 0.347509
0.268437 0.679896 0.355200
0.344793 0.677119 0.366155
0.403906 0.674372 0.372869
0.457252 0.669032 0.382574
0.504082 0.663416 0.394720
0.543328 0.657984 0.407507
0.576043 0.652705 0.420813
0.606256 0.652155 0.425452
0.633997 0.651972 0.429969
0.659510 0.652125 0.434943
0.683009 0.652766 0.440345
0.698848 0.648066 0.447181
0.716365 0.647364 0.466621
0.745480 0.661128 0.464424
0.772915 0.674250 0.457862
0.797940 0.685969 0.452827
0.821042 0.696529 0.448890
0.842679 0.706203 0.446296
0.863035 0.715236 0.445258
0.882261 0.723995 0.446082
0.900542 0.732662 0.449042
0.917967 0.741360 0.454353
0.933074 0.749630 0.469490
0.945678 0.758328 0.497444
0.000000 0.712032 0.358038
0.000000 0.712825 0.359289
0.000000 0.713558 0.360540
0.000000 0.713985 0.362097
0.000000 0.713863 0.363989
0.000000 0.713039 0.366308
0.042237 0.711635 0.369604
0.191257 0.709621 0.374243
0.276707 0.707088 0.381323
0.351812 0.704005 0.391180
0.420752 0.700557 0.404944
0.465919 0.696925 0.408759
0.511559 0.691585 0.419715
0.550561 0.686458 0.431434
0.583459 0.681453 0.443671
0.611414 0.677455 0.454627
0.637629 0.676997 0.458747
0.661952 0.676814 0.463264
0.684443 0.677058 0.468238
0.705348 0.677882 0.473732
0.719875 0.674159 0.480598
0.734279 0.672572 0.498878
0.760128 0.684871 0.501884
0.786221 0.697810 0.497078
0.810208 0.709194 0.493507
0.832547 0.719448 0.491188
0.853544 0.728817 0.490425
0.873289 0.737758 0.491768
0.892027 0.746578 0.495247
0.909819 0.755398 0.500999
0.926726 0.764431 0.509453
0.942718 0.773831 0.521141
0.000000 0.738064 0.384619
0.000000 0.738705 0.385809
0.000000 0.739254 0.386999
0.000000 0.739467 0.388678
0.000000 0.739162 0.390570
0.000000 0.738155 0.392950
0.089937 0.736538 0.396124
0.206577 0.734310 0.400702
0.288884 0.731533 0.407263
0.361486 0.728176 0.416449
0.427924 0.724453 0.428687
0.480934 0.721035 0.439216
0.520012 0.716579 0.445289
0.557946 0.711696 0.456092
0.590509 0.707118 0.467414
0.618372 0.702815 0.479408
0.642908 0.700343 0.488472
0.666072 0.700343 0.493263
0.687739 0.700740 0.498543
0.707912 0.701595 0.504326
0.726711 0.702876 0.510613
0.740383 0.700587 0.517998
0.752651 0.698787 0.535210
0.776028 0.710384 0.543145
0.800900 0.723110 0.540276
0.824002 0.734279 0.538689
0.845579 0.744228 0.538598
0.865812 0.753597 0.540459
0.884916 0.762600 0.544305
0.902953 0.771603 0.550469
0.920073 0.780667 0.559167
0.936187 0.789944 0.570428
0.000000 0.764248 0.413764
0.000000 0.764431 0.414496
0.000000 0.764431 0.415198
0.000000 0.764096 0.416297
0.000000 0.763333 0.417945
0.000000 0.762020 0.420264
0.132082 0.760189 0.423560
0.230045 0.757809 0.428290
0.307591 0.754940 0.434852
0.377539 0.751492 0.443824
0.441077 0.747799 0.455604
0.498177 0.743984 0.470497
0.533867 0.740841 0.475135
0.569604 0.736355 0.484901
0.600763 0.732021 0.495247
0.627924 0.727932 0.506218
0.651270 0.724208 0.517754
0.672328 0.722896 0.524773
0.692409 0.723079 0.529473
0.711299 0.723568 0.534569
0.729030 0.724453 0.540124
0.745693 0.725643 0.545922
0.758175 0.723903 0.552514
0.768460 0.721462 0.567254
0.789609 0.731930 0.578363
0.813443 0.744289 0.576867
0.835721 0.755154 0.576959
0.856626 0.765133 0.578851
0.876249 0.774624 0.582788
0.894774 0.783902 0.588861
0.912322 0.793210 0.597345
0.928771 0.802487 0.607843
0.000000 0.785794 0.438483
0.000000 0.785885 0.439277
0.000000 0.785916 0.440070
0.000000 0.785519 0.441260
0.000000 0.784634 0.443061
0.000000 0.783169 0.445380
0.167086 0.781186 0.448707
0.252323 0.778592 0.453376
0.325414 0.775570 0.459846
0.391882 0.772061 0.468421
0.452338 0.768307 0.479530
0.506645 0.764523 0.493416
0.551812 0.761044 0.507317
0.580041 0.757656 0.511162
0.609766 0.753719 0.520836
0.636072 0.750027 0.531060
0.659022 0.746578 0.541863
0.679042 0.743557 0.553094
0.697658 0.743435 0.558465
0.715450 0.743954 0.563256
0.732296 0.744808 0.568383
0.748348 0.745968 0.573816
0.763638 0.747463 0.579583
0.775448 0.746456 0.585901
0.783047 0.741970 0.596002
0.802518 0.751583 0.610010
0.825559 0.763699 0.610163
0.847105 0.774594 0.611994
0.867369 0.784665 0.615778
0.886503 0.794430 0.621698
0.904601 0.804135 0.630030
0.921447 0.813565 0.639948
0.000000 0.808194 0.465675
0.000000 0.808286 0.466499
0.000000 0.808194 0.467231
0.000000 0.807584 0.468421
0.000000 0.806455 0.470130
0.107881 0.804776 0.472450
0.206699 0.802487 0.475837
0.281498 0.799649 0.480385
0.348852 0.796262 0.486519
0.410681 0.792508 0.494575
0.466957 0.788602 0.504845
0.517845 0.784695 0.517601
0.563867 0.780819 0.533043
0.592340 0.778012 0.538445
0.619959 0.774166 0.546807
0.644495 0.770504 0.555627
0.666285 0.767117 0.564904
0.685634 0.764096 0.574792
0.702876 0.761868 0.584527
0.719600 0.762387 0.588891
0.735653 0.763241 0.593713
0.751034 0.764370 0.598749
0.765713 0.765591 0.603906
0.779721 0.766995 0.609064
0.790860 0.766171 0.614588
0.798184 0.762509 0.624903
0.816220 0.771267 0.641199
0.838315 0.783108 0.642756
0.859098 0.793881 0.646204
0.878721 0.804166 0.651759
0.897215 0.814115 0.659449
0.914519 0.823819 0.669215
0.000000 0.827024 0.488746
0.000000 0.827085 0.489570
0.000000 0.826963 0.490425
0.000000 0.826291 0.491646
0.000000 0.825132 0.493477
0.160708 0.823362 0.496040
0.239506 0.821073 0.499672
0.307256 0.818204 0.504448
0.370092 0.814878 0.510796
0.428351 0.811276 0.518975
0.481483 0.807523 0.529107
0.530327 0.803738 0.541650
0.574365 0.800076 0.556481
0.612116 0.796780 0.572107
0.631983 0.794247 0.573907
0.654963 0.791043 0.581933
0.675715 0.788052 0.590356
0.694362 0.785367 0.599207
0.711147 0.783047 0.608576
0.726467 0.781888 0.616480
0.741482 0.782620 0.620813
0.756069 0.783597 0.625330
0.770016 0.784726 0.629999
0.783566 0.785946 0.634760
0.796719 0.787289 0.639582
0.807492 0.786862 0.644678
0.813718 0.782742 0.653376
0.830411 0.790890 0.671901
0.851743 0.802731 0.675410
0.871855 0.813748 0.681056
0.890623 0.824033 0.688350
0.908324 0.834195 0.698085
0.000000 0.845579 0.512383
0.000000 0.845548 0.513115
0.000000 0.845243 0.513756
0.000000 0.844450 0.515038
0.128756 0.843107 0.516869
0.206210 0.841245 0.519493
0.272343 0.838834 0.523156
0.333989 0.835904 0.528130
0.392340 0.832578 0.534600
0.446509 0.829068 0.542718
0.496925 0.825345 0.552819
0.543206 0.821744 0.565087
0.585107 0.818204 0.579278
0.621698 0.815000 0.594446
0.643732 0.812955 0.599634
0.665095 0.810056 0.606744
0.684627 0.807309 0.614313
0.702419 0.804868 0.622217
0.718715 0.802731 0.630640
0.733486 0.800931 0.639429
0.747433 0.800656 0.645655
0.761196 0.801511 0.649775
0.774563 0.802518 0.654017
0.787655 0.803616 0.658442
0.800412 0.804837 0.662959
0.812863 0.806149 0.667659
0.823362 0.806119 0.672755
0.828733 0.801816 0.680568
0.843931 0.809354 0.701198
0.864439 0.821134 0.706447
0.883635 0.832059 0.713497
0.901793 0.842710 0.722957
0.000000 0.862638 0.534417
0.000000 0.862486 0.535088
0.002960 0.862150 0.535790
0.120699 0.861387 0.537133
0.187045 0.860075 0.539361
0.248081 0.858274 0.542535
0.307225 0.856077 0.546929
0.364324 0.853452 0.552789
0.419287 0.850523 0.560266
0.470771 0.847410 0.569421
0.518761 0.844144 0.580377
0.562921 0.840909 0.593225
0.602075 0.837827 0.607141
0.636042 0.835080 0.621454
0.665400 0.832670 0.635767
0.680018 0.831022 0.636866
0.698024 0.828672 0.643580
0.714656 0.826535 0.650660
0.730098 0.824613 0.658167
0.744350 0.822995 0.666072
0.757565 0.821592 0.674372
0.770382 0.821927 0.679225
0.783078 0.822782 0.683223
0.795529 0.823697 0.687404
0.807706 0.824765 0.691737
0.819638 0.825956 0.696254
0.831327 0.827268 0.700954
0.841428 0.827604 0.706142
0.846006 0.823484 0.713313
0.859831 0.830289 0.733333
0.878874 0.841581 0.741238
0.897215 0.852659 0.750149
0.128725 0.880919 0.559991
0.146212 0.880705 0.560571
0.166354 0.880308 0.561273
0.202518 0.879362 0.562707
0.247501 0.877897 0.564996
0.296544 0.875944 0.568261
0.347295 0.873533 0.572778
0.397650 0.870756 0.578515
0.446998 0.867674 0.585840
0.494331 0.864378 0.594812
0.538506 0.860960 0.605402
0.579156 0.857603 0.617456
0.615015 0.854551 0.630121
0.646418 0.851804 0.643061
0.673884 0.849393 0.656001
