其他预设/【240】TEZZA调色预设合集24款/1.LUT预设（视频调色-PR-AE-PS-FCPX-达芬奇用）/Tezza自然__-1.cube
# Created by Adobe Lightroom plugin Export LUT (1.17.0)
# www.johnrellis.com/lightroom/exportlut.htm
# Preset: Tezza自然[素锦印象]-1
# Color profile: /Library/Application Support/Adobe/Color/Profiles/Recommended/AdobeRGB1998.icc
LUT_3D_SIZE 32
0.104891 0.063813 0.072328
0.108675 0.063508 0.072908
0.113375 0.062867 0.073457
0.123445 0.062470 0.074800
0.138979 0.061219 0.076478
0.161532 0.053681 0.077790
0.191989 0.030243 0.078920
0.229862 0.000000 0.079683
0.274907 0.000000 0.079805
0.326543 0.000000 0.079316
0.383856 0.000000 0.078523
0.444953 0.000000 0.077516
0.506859 0.000000 0.076265
0.566583 0.000000 0.075135
0.619165 0.000000 0.075959
0.665187 0.000000 0.078767
0.704494 0.000000 0.085054
0.738125 0.000000 0.093751
0.775113 0.000000 0.108797
0.812100 0.000000 0.130709
0.842130 0.000000 0.154696
0.867460 0.070832 0.180728
0.888762 0.165438 0.207706
0.907286 0.225528 0.235813
0.923613 0.275486 0.265110
0.938598 0.322087 0.296330
0.952880 0.369055 0.331151
0.966644 0.416602 0.369512
0.980041 0.464363 0.410773
0.993042 0.512047 0.453864
1.000000 0.558251 0.496956
1.000000 0.600977 0.538018
0.106172 0.066011 0.073915
0.108675 0.066163 0.073426
0.114229 0.065339 0.073243
0.123964 0.065064 0.074586
0.139681 0.063294 0.076295
0.161563 0.058808 0.077607
0.191348 0.038361 0.078431
0.228244 0.000000 0.078889
0.272099 0.000000 0.079103
0.322637 0.000000 0.079042
0.378668 0.000000 0.078065
0.438331 0.000000 0.076967
0.499489 0.000000 0.075227
0.558953 0.000000 0.073610
0.611719 0.000000 0.073976
0.658167 0.000000 0.076387
0.698024 0.000000 0.082307
0.732265 0.000000 0.090425
0.769863 0.000000 0.104738
0.805936 0.000000 0.125063
0.835721 0.000000 0.148409
0.861051 0.009369 0.173220
0.882658 0.148714 0.198947
0.901579 0.210483 0.226230
0.918425 0.261540 0.254948
0.933928 0.308934 0.285710
0.948821 0.356207 0.320287
0.963073 0.404761 0.358892
0.976959 0.453864 0.400702
0.990417 0.502647 0.444587
1.000000 0.550256 0.488930
1.000000 0.594354 0.531273
0.107851 0.069245 0.075715
0.110262 0.069398 0.075593
0.113710 0.069215 0.075105
0.124666 0.068635 0.074281
0.140505 0.066926 0.075685
0.162264 0.062684 0.076997
0.191073 0.049683 0.077821
0.227085 0.013458 0.078309
0.270237 0.000000 0.078553
0.319829 0.000000 0.078187
0.375097 0.000000 0.077272
0.434455 0.000000 0.075898
0.495094 0.000000 0.073793
0.554437 0.000000 0.072236
0.607416 0.000000 0.072206
0.654139 0.000000 0.074403
0.694240 0.000000 0.079622
0.728847 0.000000 0.088014
0.767330 0.000000 0.102174
0.802670 0.000000 0.121828
0.832395 0.000000 0.143862
0.857786 0.003998 0.168338
0.879515 0.145602 0.194125
0.898589 0.206088 0.220768
0.915648 0.256931 0.249424
0.931395 0.303746 0.279942
0.946563 0.351019 0.314275
0.961151 0.399725 0.352911
0.975311 0.449287 0.395270
0.988983 0.498665 0.439612
1.000000 0.546593 0.484352
1.000000 0.591119 0.527123
0.111818 0.075837 0.079316
0.114748 0.076478 0.079805
0.116548 0.076356 0.079408
0.124422 0.077058 0.078676
0.142519 0.076387 0.076539
0.165286 0.072297 0.075807
0.193820 0.064820 0.076600
0.229191 0.043427 0.077028
0.271275 0.000000 0.076875
0.319738 0.000000 0.076448
0.373846 0.000000 0.075135
0.431922 0.000000 0.073243
0.491524 0.000000 0.071077
0.550134 0.000000 0.068605
0.602960 0.000000 0.067842
0.649805 0.000000 0.069459
0.690150 0.000000 0.074647
0.724849 0.000000 0.082856
0.764340 0.000000 0.097383
0.797940 0.000000 0.115419
0.826749 0.000000 0.136294
0.851896 0.023194 0.159731
0.874144 0.144411 0.185367
0.894224 0.204288 0.212558
0.912566 0.255833 0.242283
0.929473 0.304356 0.274662
0.945525 0.352728 0.310246
0.960632 0.402014 0.350103
0.974975 0.451514 0.393103
0.988586 0.499886 0.437263
1.000000 0.546899 0.481697
1.000000 0.590387 0.523919
0.115328 0.085054 0.084047
0.117922 0.085664 0.084504
0.121614 0.086641 0.084871
0.124971 0.086458 0.083833
0.140627 0.089937 0.082490
0.169070 0.089723 0.078676
0.197360 0.084016 0.075135
0.230167 0.074586 0.074311
0.270848 0.055665 0.074098
0.317662 0.000000 0.073213
0.370306 0.000000 0.071778
0.427039 0.000000 0.068940
0.485847 0.000000 0.066072
0.544182 0.000000 0.062837
0.597620 0.000000 0.061036
0.645380 0.000000 0.061524
0.686946 0.000000 0.066621
0.725185 0.000000 0.075746
0.764187 0.000000 0.090730
0.796445 0.000000 0.109255
0.824338 0.000000 0.129946
0.849027 0.093751 0.152682
0.871122 0.161013 0.177890
0.891356 0.213657 0.205386
0.910033 0.261662 0.235050
0.927337 0.308263 0.267765
0.943664 0.355138 0.303868
0.959014 0.402655 0.343511
0.973449 0.451301 0.386603
0.987243 0.499153 0.431128
1.000000 0.545953 0.476173
1.000000 0.589593 0.519158
0.118868 0.097047 0.089509
0.121309 0.098146 0.089876
0.124544 0.099580 0.090425
0.130129 0.101747 0.089998
0.137270 0.101198 0.088655
0.165469 0.111269 0.086763
0.209598 0.114443 0.080964
0.243473 0.106996 0.074037
0.275151 0.094209 0.069581
0.321172 0.079286 0.067994
0.372717 0.045991 0.065675
0.428260 0.000000 0.062013
0.485878 0.000000 0.057374
0.543633 0.000000 0.049256
0.596765 0.000000 0.042420
0.644373 0.000000 0.042359
0.686091 0.000000 0.051148
0.728756 0.000000 0.065309
0.765713 0.000000 0.081910
0.797177 0.000000 0.101747
0.824765 0.084352 0.123262
0.849516 0.145724 0.147829
0.907408 0.285557 0.223758
0.924651 0.326299 0.256199
0.939879 0.364752 0.289067
0.953674 0.403082 0.323949
0.966400 0.441718 0.360510
0.978485 0.480659 0.398596
0.990112 0.519493 0.437354
1.000000 0.558312 0.477028
1.000000 0.595026 0.514824
1.000000 0.628809 0.550378
0.123049 0.116884 0.097963
0.125521 0.118410 0.098207
0.128939 0.120333 0.098878
0.137423 0.124727 0.100099
0.143709 0.126436 0.096925
0.160769 0.130800 0.096681
0.209812 0.152804 0.093477
0.280156 0.164584 0.085695
0.322332 0.154574 0.067933
0.358587 0.139132 0.058289
0.398138 0.121950 0.044709
0.454749 0.107515 0.031800
0.511864 0.087922 0.017487
0.566827 0.062013 0.005127
0.615900 0.003174 0.000000
0.659449 0.000000 0.000305
0.702602 0.000000 0.013031
0.745022 0.060456 0.046632
0.779904 0.103151 0.075227
0.810910 0.143069 0.100191
0.839658 0.183993 0.127687
0.866514 0.226932 0.158816
0.891203 0.271733 0.193149
0.913237 0.316503 0.230045
0.932372 0.359930 0.268193
0.948547 0.400702 0.306615
0.962554 0.440040 0.345586
0.975341 0.478859 0.385168
0.987427 0.517601 0.425513
0.998871 0.555810 0.465675
1.000000 0.592645 0.504936
1.000000 0.626703 0.541558
0.126802 0.136843 0.106386
0.129183 0.138277 0.106600
0.132387 0.140444 0.107149
0.140597 0.145113 0.108553
0.153017 0.151461 0.109316
0.160891 0.150851 0.105043
0.188937 0.164218 0.105348
0.254398 0.196902 0.102419
0.348028 0.222446 0.095857
0.393957 0.211337 0.065614
0.435218 0.196719 0.020813
0.467262 0.176303 0.000000
0.511192 0.162264 0.000000
0.565026 0.153994 0.000000
0.613397 0.146548 0.000000
0.659419 0.142947 0.000000
0.706722 0.150912 0.000000
0.744900 0.161196 0.000000
0.777523 0.176120 0.043580
0.807401 0.196780 0.080842
0.835416 0.223667 0.111482
0.861753 0.255680 0.143709
0.886229 0.291508 0.178225
0.908324 0.329595 0.214817
0.927703 0.368017 0.253117
0.944274 0.405249 0.291417
0.958862 0.441993 0.330297
0.972076 0.479469 0.370947
0.984619 0.517510 0.412604
0.996429 0.555230 0.454200
1.000000 0.592248 0.495033
1.000000 0.626551 0.533165
0.131380 0.160220 0.116396
0.133516 0.161868 0.116915
0.136934 0.164034 0.117556
0.145022 0.168917 0.118898
0.159457 0.176913 0.121859
0.167910 0.181277 0.117006
0.183291 0.180392 0.116091
0.225925 0.207736 0.117861
0.308934 0.252873 0.115999
0.427924 0.297459 0.115023
0.476875 0.285985 0.070680
0.518212 0.269657 0.000000
0.549126 0.248753 0.000000
0.570550 0.223026 0.000000
0.618585 0.218997 0.000000
0.669337 0.221897 0.000000
0.711116 0.224521 0.000000
0.746212 0.228580 0.000000
0.777127 0.235904 0.000000
0.805905 0.248417 0.048890
0.833219 0.266728 0.092103
0.859098 0.290440 0.127840
0.883238 0.319036 0.163943
0.905150 0.350683 0.201175
0.924590 0.384039 0.239689
0.941375 0.416968 0.278172
0.956237 0.450782 0.317967
0.969726 0.485695 0.358923
0.982483 0.521904 0.401251
0.994476 0.558373 0.443885
1.000000 0.594446 0.485634
1.000000 0.628382 0.524865
0.136477 0.186191 0.127932
0.138643 0.187930 0.128359
0.142000 0.189975 0.129091
0.150088 0.195010 0.130678
0.163882 0.202914 0.133700
0.183200 0.213107 0.137026
0.189975 0.214206 0.128817
0.209323 0.213809 0.128939
0.271183 0.259648 0.133761
0.369909 0.316838 0.134066
0.497536 0.371923 0.137850
0.557427 0.368383 0.091585
0.592370 0.347753 0.000000
0.629908 0.333379 0.000000
0.654017 0.310735 0.000000
0.677577 0.290929 0.000000
0.716793 0.290654 0.000000
0.750362 0.291264 0.000000
0.779995 0.294560 0.000000
0.807431 0.301366 0.000000
0.833158 0.312596 0.065583
0.857298 0.328527 0.108736
0.879881 0.348486 0.146395
0.900694 0.372412 0.183688
0.919677 0.399054 0.221836
0.936675 0.427497 0.260594
0.952209 0.458137 0.300664
0.966552 0.491615 0.343420
0.980011 0.527428 0.388434
0.992737 0.563745 0.433204
1.000000 0.600183 0.477760
1.000000 0.634363 0.519158
0.141329 0.212589 0.140078
0.143740 0.214237 0.140597
0.147341 0.216709 0.141299
0.155062 0.221592 0.143099
0.168582 0.229953 0.146212
0.188846 0.241489 0.151186
0.202152 0.249332 0.147433
0.216861 0.250950 0.143648
0.246891 0.262577 0.146304
0.325109 0.321294 0.154788
0.440986 0.392645 0.160311
0.577752 0.461128 0.176974
0.645747 0.467292 0.144289
0.676326 0.444373 0.071199
0.700435 0.419501 0.000000
0.717372 0.392126 0.000000
0.728420 0.361639 0.000000
0.750088 0.347265 0.000000
0.778744 0.346166 0.000000
0.805447 0.348516 0.000000
0.830777 0.355291 0.000000
0.854795 0.366186 0.080781
0.877348 0.381506 0.126345
0.898222 0.400641 0.167575
0.917235 0.422461 0.207004
0.934264 0.446632 0.246799
0.949828 0.473243 0.287358
0.964263 0.503014 0.330053
0.977844 0.536004 0.375769
0.990723 0.570336 0.421607
1.000000 0.605310 0.467018
1.000000 0.638941 0.510002
0.147005 0.242069 0.153780
0.149416 0.243656 0.154391
0.152926 0.246006 0.155245
0.160708 0.251164 0.157168
0.173953 0.259556 0.160464
0.193271 0.271061 0.165377
0.219974 0.286412 0.172580
0.224216 0.290410 0.159731
0.249882 0.295445 0.162356
0.299107 0.329351 0.171511
0.401129 0.407813 0.188663
0.532311 0.490578 0.206577
0.703426 0.604517 0.299779
0.758053 0.606043 0.288640
0.776883 0.573480 0.210666
0.791379 0.539391 0.129427
0.802884 0.506157 0.000000
0.808194 0.470680 0.000000
0.812619 0.436957 0.000000
0.834073 0.432593 0.000000
0.855619 0.434058 0.000000
0.876158 0.439918 0.085786
0.895293 0.449134 0.136690
0.913268 0.462379 0.180026
0.929870 0.478737 0.220645
0.945037 0.498024 0.261418
0.958923 0.520012 0.302953
0.971801 0.544884 0.345769
0.983978 0.572168 0.389349
0.995727 0.601282 0.433143
1.000000 0.631281 0.476478
1.000000 0.660456 0.517327
0.154330 0.284092 0.174044
0.156985 0.285740 0.174746
0.160647 0.287663 0.175509
0.169100 0.293584 0.177859
0.183169 0.303075 0.181857
0.203220 0.316014 0.187594
0.231479 0.333837 0.196262
0.253117 0.348913 0.196384
0.269200 0.357580 0.189670
0.301823 0.366827 0.194797
0.379126 0.428717 0.215549
0.504173 0.520134 0.250889
0.633051 0.597803 0.295995
0.731472 0.643702 0.352117
0.787716 0.655207 0.367163
0.805203 0.625330 0.289677
0.818479 0.591699 0.210697
0.828916 0.558007 0.126040
0.835233 0.524620 0.000000
0.839994 0.492195 0.000000
0.850431 0.471595 0.000000
0.870909 0.473091 0.000000
0.890074 0.478187 0.100526
0.908171 0.487190 0.152377
0.924926 0.499428 0.196994
0.940398 0.514641 0.239261
0.954742 0.533135 0.281773
0.968109 0.554955 0.325383
0.980774 0.580255 0.371038
0.992920 0.608057 0.417151
1.000000 0.637110 0.462623
1.000000 0.666102 0.506157
0.162020 0.328191 0.196231
0.165133 0.330022 0.196963
0.168887 0.332067 0.197757
0.177493 0.336950 0.199802
0.191196 0.344762 0.203220
0.211032 0.356054 0.208438
0.238224 0.371862 0.216159
0.273472 0.392340 0.227481
0.283330 0.401984 0.215732
0.310216 0.411292 0.216159
0.346380 0.422065 0.222660
0.447272 0.503655 0.257328
0.568872 0.584283 0.304692
0.679438 0.646571 0.359106
0.760861 0.683864 0.412329
0.812863 0.698421 0.440406
0.827237 0.669368 0.364538
0.839261 0.636896 0.284855
0.849699 0.604517 0.206638
0.858213 0.573663 0.133211
0.863767 0.543389 0.068086
0.869566 0.514946 0.000000
0.885679 0.510033 0.022614
0.904082 0.515526 0.121218
0.921141 0.524346 0.172854
0.936980 0.536309 0.218296
0.951720 0.551537 0.262638
0.965454 0.570520 0.308110
0.978515 0.593378 0.355322
0.991028 0.619348 0.403632
1.000000 0.646967 0.450965
1.000000 0.675135 0.496651
0.169375 0.368811 0.217441
0.172457 0.370764 0.218326
0.176211 0.372381 0.219059
0.184909 0.376562 0.220768
0.198672 0.383093 0.223667
0.217777 0.392889 0.228275
0.243473 0.406806 0.235355
0.276921 0.425360 0.245884
0.305058 0.442847 0.249332
0.317479 0.453254 0.237766
0.353460 0.463386 0.244633
0.398444 0.482490 0.256291
0.511254 0.566674 0.305150
0.621332 0.633387 0.361852
0.715450 0.684504 0.416693
0.785061 0.716945 0.463630
0.833707 0.733944 0.500145
0.845640 0.707790 0.431830
0.857145 0.678462 0.357794
0.868223 0.648371 0.281254
0.878630 0.619715 0.206394
0.884764 0.591455 0.157473
0.890806 0.564050 0.104524
0.899870 0.544945 0.073335
0.917357 0.550713 0.142947
0.933837 0.560174 0.195102
0.949401 0.573571 0.244053
0.964172 0.591272 0.293584
0.978088 0.613245 0.345006
0.991363 0.638544 0.396857
1.000000 0.665644 0.447669
1.000000 0.692958 0.495827
0.176730 0.407202 0.238346
0.179812 0.409369 0.239506
0.183566 0.411353 0.240330
0.192538 0.415839 0.242313
0.206424 0.422797 0.245701
0.226047 0.433051 0.250767
0.251743 0.446876 0.258366
0.284733 0.464851 0.268925
0.326452 0.486366 0.283604
0.341924 0.497932 0.275364
0.364630 0.506920 0.271275
0.401404 0.515038 0.278782
0.460090 0.545953 0.300053
0.566735 0.615991 0.355749
0.661494 0.669551 0.412116
0.741360 0.712062 0.461494
0.803494 0.742000 0.502495
0.851011 0.762631 0.546593
0.861875 0.740932 0.489479
0.873655 0.716915 0.425727
0.885588 0.691615 0.357641
0.897337 0.665675 0.285283
0.905150 0.640009 0.234623
0.912139 0.614954 0.190158
0.919341 0.591455 0.146273
0.933501 0.590539 0.175998
0.949371 0.601617 0.230076
0.964385 0.616785 0.282475
0.978424 0.636042 0.335912
0.991577 0.658350 0.389288
1.000000 0.682338 0.440589
1.000000 0.706966 0.489204
0.183597 0.441840 0.257939
0.186313 0.443214 0.258701
0.190494 0.444984 0.259434
0.199100 0.448890 0.261448
0.212863 0.455451 0.264714
0.231785 0.464790 0.269596
0.256870 0.477241 0.276768
0.288182 0.492683 0.286564
0.327550 0.511131 0.300053
0.362951 0.528466 0.308782
0.373938 0.537926 0.296239
0.406165 0.545830 0.300816
0.442420 0.553307 0.309422
0.514763 0.594995 0.344060
0.611963 0.653468 0.403235
0.694240 0.698909 0.456214
0.763882 0.736172 0.500633
0.820523 0.764706 0.536797
0.865904 0.786496 0.582086
0.877348 0.770352 0.537743
0.888182 0.750271 0.484016
0.899809 0.728389 0.423194
0.911620 0.705257 0.356756
0.920653 0.682338 0.304906
0.928435 0.659663 0.262394
0.936522 0.638392 0.222507
0.947082 0.625971 0.207797
0.962676 0.638880 0.264408
0.977295 0.655909 0.320653
0.990845 0.676326 0.376989
1.000000 0.698787 0.431098
1.000000 0.722011 0.482277
0.192233 0.478096 0.279576
0.195407 0.480507 0.280919
0.212192 0.517967 0.305303
0.222049 0.521294 0.307103
0.237156 0.526329 0.310216
0.257572 0.533043 0.314611
0.283909 0.542046 0.320989
0.316045 0.553429 0.330053
0.355596 0.567468 0.342962
0.402594 0.583856 0.360723
0.423529 0.593408 0.357580
0.439887 0.600305 0.349706
0.473304 0.604700 0.357580
0.505638 0.608850 0.365576
0.585687 0.653864 0.415045
0.668421 0.700984 0.471901
0.737697 0.739254 0.518578
0.797086 0.771725 0.555657
0.847013 0.797848 0.585840
0.886198 0.816495 0.623529
0.899504 0.806699 0.594202
0.908537 0.789487 0.547967
0.918486 0.770871 0.496651
0.929412 0.750637 0.437812
0.938140 0.729305 0.386481
0.945617 0.708125 0.344335
0.953674 0.687617 0.303441
0.962768 0.669429 0.266239
0.976226 0.677089 0.304906
0.989960 0.694820 0.363226
1.000000 0.715084 0.419745
1.000000 0.736263 0.472847
0.205631 0.521447 0.307530
0.210391 0.527123 0.311376
0.216892 0.533288 0.315557
0.227939 0.540307 0.320317
0.243961 0.548058 0.325505
0.264378 0.555627 0.330999
0.289555 0.563989 0.337377
0.320348 0.573968 0.345922
0.357397 0.585962 0.357580
0.400855 0.599634 0.373358
0.442481 0.612726 0.388006
0.453773 0.619379 0.377966
0.476539 0.624292 0.377478
0.507012 0.627863 0.385016
0.536004 0.630915 0.392126
0.622034 0.681300 0.451362
0.695735 0.722866 0.503441
0.757992 0.757839 0.545373
0.812467 0.788174 0.579492
0.859648 0.813901 0.607996
0.895598 0.831144 0.642695
0.912169 0.827695 0.626459
0.920806 0.813321 0.586328
0.930236 0.797787 0.541924
0.940459 0.780789 0.491493
0.949493 0.763119 0.446479
0.957519 0.745693 0.410193
0.966461 0.729488 0.375830
0.976806 0.715663 0.344976
0.989258 0.714504 0.349248
1.000000 0.732540 0.408515
1.000000 0.751766 0.463722
0.216251 0.549706 0.327092
0.221286 0.554833 0.330724
0.227573 0.560204 0.334691
0.238285 0.566491 0.339178
0.253941 0.573236 0.344182
0.273594 0.579828 0.349279
0.297826 0.587060 0.355352
0.326970 0.595270 0.363134
0.362066 0.605402 0.373724
0.402960 0.616815 0.388190
0.449744 0.629450 0.407324
0.473732 0.637995 0.409613
0.484199 0.643824 0.399847
0.511864 0.647181 0.406012
0.539330 0.649928 0.413031
0.577691 0.662074 0.430426
0.656275 0.707271 0.487495
0.721950 0.744778 0.534234
0.778622 0.777188 0.572473
0.828946 0.805844 0.604395
0.873350 0.830808 0.631189
0.906126 0.846708 0.663386
0.925170 0.848081 0.657710
0.933196 0.835630 0.621637
0.941863 0.822049 0.581933
0.951476 0.807614 0.537560
0.960143 0.793088 0.499702
0.968353 0.779232 0.469886
0.977844 0.767025 0.442329
0.988769 0.756985 0.417609
1.000000 0.749966 0.396674
1.000000 0.766629 0.452247
0.228641 0.577874 0.347753
0.234134 0.582544 0.351324
0.240238 0.587488 0.355200
0.251286 0.593072 0.359564
0.266453 0.598749 0.364324
0.285466 0.604273 0.369024
0.308659 0.610040 0.374487
0.336187 0.616815 0.381628
0.369390 0.624903 0.391180
0.407630 0.634241 0.404028
0.450813 0.644648 0.420966
0.492775 0.655360 0.438483
0.502770 0.660548 0.430396
0.517906 0.665217 0.426459
0.544579 0.668116 0.433845
0.570153 0.671015 0.441138
0.619013 0.692561 0.471260
0.690425 0.734188 0.524987
0.751034 0.770108 0.569299
0.804013 0.801724 0.606409
0.851072 0.829618 0.637781
0.892790 0.854246 0.664729
0.922606 0.869017 0.694850
0.942748 0.873899 0.697810
0.950256 0.863249 0.665400
0.958404 0.851987 0.630610
0.967498 0.840238 0.592798
0.975952 0.829282 0.563012
0.984344 0.819547 0.540887
0.993957 0.811368 0.520928
1.000000 0.805020 0.503227
1.000000 0.801907 0.490333
0.255985 0.620478 0.382391
0.260197 0.622705 0.384344
0.265110 0.624872 0.386267
0.274632 0.627619 0.388800
0.288487 0.630915 0.391974
0.306126 0.634516 0.395789
0.328466 0.638972 0.400732
0.355261 0.644526 0.407599
0.387335 0.651362 0.417029
0.424475 0.659266 0.429541
0.465156 0.668177 0.445411
0.508019 0.677790 0.464271
0.532677 0.684932 0.470069
0.542382 0.689784 0.463142
0.561669 0.693019 0.465156
0.585657 0.695644 0.472450
0.608759 0.698329 0.479683
0.663478 0.726375 0.518029
0.726070 0.763729 0.565393
0.780117 0.796292 0.604608
0.827573 0.824704 0.637476
0.869627 0.849638 0.665553
0.906981 0.871397 0.689570
0.933135 0.883635 0.715419
0.953491 0.890166 0.724117
0.960388 0.880278 0.693233
0.968139 0.870176 0.661067
0.977050 0.860288 0.627070
0.985290 0.851530 0.602869
0.993683 0.844022 0.585046
1.000000 0.838285 0.569940
1.000000 0.835325 0.559258
0.276799 0.646967 0.405737
0.281193 0.649042 0.407782
0.286412 0.651087 0.409857
0.295689 0.653529 0.412482
0.309026 0.656123 0.415381
0.325536 0.658839 0.418677
0.346288 0.662043 0.423011
0.371069 0.666102 0.428870
0.401129 0.671321 0.437232
0.435462 0.677546 0.448402
0.472908 0.684810 0.462318
0.512108 0.692775 0.478767
0.552117 0.701320 0.497841
0.561791 0.705989 0.492500
0.571374 0.710567 0.486702
0.594202 0.713313 0.493935
0.616632 0.716274 0.501396
0.638483 0.719509 0.509300
0.698238 0.753719 0.554528
0.755093 0.788357 0.597681
0.804593 0.818631 0.633845
0.848295 0.845121 0.664790
0.886870 0.868284 0.691463
0.921019 0.888243 0.714382
0.940978 0.894652 0.730953
0.961761 0.902861 0.745235
0.968414 0.893919 0.716304
0.976074 0.884977 0.686244
0.984833 0.876402 0.655024
0.992737 0.869444 0.636164
1.000000 0.864439 0.623224
1.000000 0.861662 0.614191
0.316045 0.683925 0.442481
0.321080 0.686000 0.444770
0.325963 0.687465 0.446601
0.334142 0.688838 0.448402
0.345739 0.690059 0.450385
0.360723 0.691341 0.452827
0.379126 0.692927 0.455970
0.401373 0.694881 0.460517
0.427588 0.697749 0.466835
0.457221 0.701534 0.475319
0.489235 0.706050 0.486000
0.523827 0.711696 0.499245
0.559625 0.718044 0.514977
0.582910 0.723445 0.522057
0.590112 0.726741 0.515435
0.602075 0.729427 0.513054
0.621851 0.731136 0.518669
0.641810 0.733486 0.525109
0.665217 0.739223 0.535668
0.726162 0.776150 0.583337
0.778408 0.808469 0.623133
0.824186 0.836576 0.656764
0.864103 0.860777 0.685359
0.899138 0.881498 0.709651
0.929839 0.898955 0.730007
0.950378 0.907408 0.749935
0.970581 0.916320 0.768704
0.976806 0.907897 0.740902
0.984100 0.899748 0.712551
0.992676 0.892302 0.683833
1.000000 0.887480 0.671168
1.000000 0.884642 0.662989
0.344274 0.707057 0.467170
0.349248 0.708980 0.469581
0.354223 0.710353 0.471321
0.361700 0.711360 0.473030
0.372717 0.712337 0.474922
0.386572 0.713283 0.477241
0.403998 0.714504 0.480507
0.424475 0.716182 0.484840
0.448707 0.718563 0.490822
0.476112 0.721920 0.498756
0.505821 0.725856 0.508568
0.537987 0.730800 0.520867
0.570916 0.736446 0.534936
0.603326 0.742672 0.550134
0.613581 0.746487 0.547662
0.620935 0.750027 0.542199
0.636622 0.752438 0.544762
0.655604 0.754910 0.551171
0.674769 0.758114 0.558343
0.705715 0.771267 0.577661
0.759823 0.804715 0.619959
0.806790 0.833738 0.655604
0.847623 0.858701 0.685878
0.883238 0.880095 0.711818
0.914549 0.898253 0.733944
0.942046 0.913542 0.752651
0.960021 0.920378 0.770535
0.978943 0.929290 0.792721
0.985046 0.921904 0.767178
0.992309 0.915068 0.741817
1.000000 0.909270 0.718502
1.000000 0.906310 0.710628
0.383429 0.733852 0.498451
0.387823 0.735164 0.500359
0.391516 0.735805 0.501549
0.397925 0.736141 0.502525
0.406714 0.736324 0.503655
0.418280 0.736538 0.505058
0.433051 0.736965 0.507378
0.451057 0.737942 0.510887
0.472541 0.739620 0.515984
0.497047 0.742153 0.522911
0.524102 0.745388 0.531701
0.553307 0.749599 0.542626
0.583093 0.754482 0.554925
0.612543 0.759854 0.568109
0.634333 0.764858 0.576135
0.641138 0.768124 0.571313
0.648951 0.771420 0.567071
0.666743 0.773648 0.572930
0.684810 0.776577 0.579614
0.703120 0.780209 0.587182
0.739498 0.799008 0.612696
0.787991 0.828977 0.650416
0.830137 0.854795 0.682429
0.866758 0.876951 0.709957
0.898802 0.895750 0.733516
0.926909 0.911650 0.753719
0.951720 0.925078 0.771115
0.967559 0.930571 0.787076
0.984070 0.937896 0.807675
0.990997 0.932769 0.788998
0.998047 0.926879 0.765988
1.000000 0.922667 0.748867
0.420783 0.757168 0.527550
0.423987 0.757992 0.528862
0.427375 0.758541 0.529839
0.432990 0.758968 0.530907
0.441749 0.759457 0.532586
0.453681 0.760403 0.535241
0.469581 0.762264 0.539513
0.488930 0.764797 0.545251
0.511559 0.768154 0.552850
0.536858 0.772213 0.562066
0.563439 0.776883 0.572503
0.590723 0.782071 0.583825
0.617762 0.787564 0.595697
0.644282 0.793118 0.607813
0.669886 0.798764 0.620111
0.681056 0.802731 0.620386
0.687709 0.806149 0.616327
0.698665 0.809171 0.616419
0.715358 0.811887 0.622675
0.732082 0.815122 0.629419
0.748775 0.818753 0.636683
0.786984 0.840177 0.665064
0.828061 0.864897 0.697017
0.863584 0.886015 0.724575
0.894499 0.903929 0.748440
0.921660 0.919127 0.769223
0.945464 0.931945 0.787259
0.966278 0.942535 0.802670
0.978912 0.946014 0.816434
0.991180 0.950195 0.833402
0.997650 0.946258 0.819883
1.000000 0.941161 0.799252
0.489357 0.795438 0.579522
0.491768 0.795926 0.580468
0.493812 0.796017 0.580804
0.497871 0.795865 0.581262
0.503929 0.795682 0.581903
0.512688 0.795651 0.583185
0.524346 0.796109 0.585565
0.538720 0.797086 0.589075
0.555444 0.798703 0.593774
0.574426 0.800870 0.599573
0.594751 0.803555 0.606409
0.616144 0.806790 0.614191
0.638178 0.810361 0.622644
0.660365 0.814267 0.631647
0.682490 0.818448 0.641199
0.701717 0.822751 0.648859
