其他预设/【240】TEZZA调色预设合集24款/1.LUT预设（视频调色-PR-AE-PS-FCPX-达芬奇用）/Tezza自然__-6.cube
# Created by Adobe Lightroom plugin Export LUT (1.17.0)
# www.johnrellis.com/lightroom/exportlut.htm
# Preset: Tezza自然[素锦印象]-6
# Color profile: /Library/Application Support/Adobe/Color/Profiles/Recommended/AdobeRGB1998.icc
LUT_3D_SIZE 5
DOMAIN_MIN 0.000000 0.000000 0.000000
DOMAIN_MAX 0.903226 0.903226 0.903226
0.030579 0.035340 0.050355
0.420539 0.000000 0.085603
0.804898 0.350561 0.201328
0.900298 0.585168 0.447089
0.933165 0.728542 0.666957
0.000000 0.422644 0.166598
0.500145 0.466316 0.209812
0.772061 0.435920 0.185397
0.891112 0.604242 0.435218
0.931640 0.742123 0.676387
0.000000 0.800229 0.433936
0.456672 0.804013 0.505425
0.809354 0.797177 0.646174
0.872709 0.692988 0.462196
0.926207 0.766079 0.673060
0.000000 0.904784 0.594965
0.555993 0.890349 0.673457
0.778408 0.883696 0.783902
0.874418 0.874815 0.799039
0.910155 0.841672 0.759823
0.369757 0.952087 0.701259
0.607141 0.935119 0.751888
0.797604 0.914061 0.833280
0.865629 0.907683 0.872404
0.897581 0.905394 0.880705
0.038544 0.063478 0.203037
0.510185 0.180545 0.281743
0.785458 0.436957 0.354650
0.880308 0.605798 0.505180
0.926299 0.736477 0.686275
0.000000 0.398840 0.287907
0.543969 0.505455 0.396216
0.764828 0.495521 0.339239
0.874723 0.622339 0.496651
0.925078 0.744930 0.688350
0.000000 0.782773 0.481971
0.547784 0.792599 0.581994
0.798184 0.789151 0.677546
0.858610 0.686702 0.487190
0.921263 0.772366 0.693660
0.103395 0.897429 0.619196
0.577478 0.886351 0.691310
0.787137 0.882414 0.797269
0.872892 0.874601 0.810086
0.908385 0.842069 0.766415
0.334203 0.952758 0.704891
0.589685 0.935821 0.751186
0.806424 0.913787 0.842557
0.868315 0.907958 0.876982
0.897581 0.905791 0.883940
0.001801 0.077180 0.435828
0.372045 0.384985 0.413886
0.799527 0.615839 0.639918
0.865141 0.694759 0.674800
0.913878 0.774899 0.757961
0.104738 0.132631 0.518791
0.570611 0.571221 0.592432
0.780575 0.662104 0.652094
0.860288 0.701198 0.666194
0.913725 0.779141 0.757351
0.000000 0.734859 0.569207
0.512840 0.775998 0.650752
0.797910 0.796689 0.749874
0.848051 0.725856 0.636439
0.912139 0.794308 0.753658
0.000000 0.880949 0.656611
0.524743 0.873899 0.702144
0.795346 0.879240 0.814298
0.871214 0.876219 0.838071
0.905180 0.839811 0.779202
0.239841 0.951598 0.724514
0.517021 0.938323 0.752621
0.790127 0.914519 0.841337
0.870329 0.907713 0.883818
0.896818 0.905791 0.888792
0.151919 0.061585 0.588373
0.289311 0.315953 0.584344
0.791928 0.679469 0.777584
0.871092 0.768338 0.789639
0.899290 0.832090 0.838163
0.366583 0.000000 0.617487
0.460212 0.386603 0.667597
0.801602 0.732784 0.790677
0.863279 0.783261 0.796262
0.898955 0.831296 0.835172
0.000000 0.433509 0.684810
0.246281 0.555779 0.725551
0.811673 0.817899 0.820096
0.849699 0.794980 0.786862
0.899290 0.834775 0.830533
0.000000 0.852720 0.703334
0.275120 0.855924 0.723171
0.784268 0.871183 0.827420
0.868406 0.876493 0.859831
0.900572 0.845304 0.818723
0.000000 0.951659 0.762478
0.368292 0.941100 0.773892
0.725399 0.917784 0.828946
0.866270 0.908415 0.886412
0.896513 0.906645 0.896971
0.321386 0.000000 0.757504
0.347417 0.213565 0.756161
0.700221 0.709194 0.712062
0.888212 0.815915 0.865324
0.899931 0.858396 0.872953
0.428565 0.000000 0.752407
0.422217 0.157748 0.768856
0.705074 0.716182 0.720516
0.886442 0.828916 0.869200
0.898589 0.862303 0.875151
0.249943 0.000000 0.751736
0.428687 0.000000 0.751919
0.680995 0.665064 0.801907
0.881193 0.857542 0.879698
0.895384 0.874052 0.882292
0.000000 0.643824 0.823728
0.000000 0.652766 0.825711
0.401343 0.689509 0.835996
0.868254 0.882597 0.887022
0.892912 0.885679 0.888609
0.000000 0.955993 0.851469
0.000000 0.953246 0.846311
0.462501 0.930663 0.835752
0.829465 0.906554 0.880674
0.895842 0.907683 0.906004
