其他预设/【240】TEZZA调色预设合集24款/1.LUT预设（视频调色-PR-AE-PS-FCPX-达芬奇用）/Tezza古董__-4.cube
# Created by Adobe Lightroom plugin Export LUT (1.17.0)
# www.johnrellis.com/lightroom/exportlut.htm
# Preset: Tezza古董[素锦印象]-4
# Color profile: /Library/Application Support/Adobe/Color/Profiles/Recommended/AdobeRGB1998.icc
LUT_3D_SIZE 8
DOMAIN_MIN 0.000000 0.000000 0.000000
DOMAIN_MAX 0.903226 0.903226 0.903226
0.104891 0.063813 0.072328
0.164889 0.026398 0.071443
0.471199 0.000000 0.023316
0.784634 0.000000 0.000000
0.918975 0.000000 0.000000
1.000000 0.000000 0.000000
1.000000 0.000000 0.000000
1.000000 0.000000 0.000000
0.112367 0.099489 0.087526
0.143130 0.092164 0.082765
0.355352 0.000000 0.049744
0.709133 0.000000 0.000000
0.882353 0.000000 0.000000
0.990936 0.000000 0.000000
1.000000 0.000000 0.000000
1.000000 0.000000 0.000000
0.089082 0.292943 0.157656
0.165377 0.266697 0.143862
0.301061 0.247593 0.115908
0.529870 0.237186 0.000000
0.805875 0.236393 0.000000
0.955535 0.231266 0.000000
1.000000 0.266819 0.000000
1.000000 0.279545 0.000000
0.000000 0.587640 0.314061
0.163516 0.562493 0.293675
0.318181 0.483894 0.232609
0.598566 0.566247 0.261448
0.786465 0.549493 0.148348
0.859251 0.471260 0.000000
1.000000 0.488380 0.000000
1.000000 0.498207 0.000000
0.257359 0.768673 0.488563
0.326238 0.757229 0.481819
0.481209 0.719265 0.471107
0.525170 0.642664 0.394354
0.734401 0.708797 0.448127
0.857145 0.697749 0.388922
0.921813 0.638331 0.196811
1.000000 0.636805 0.000000
0.466194 0.852537 0.614435
0.519738 0.853849 0.626886
0.600366 0.832731 0.621942
0.656184 0.794461 0.592096
0.662715 0.733455 0.527276
0.823697 0.803037 0.591547
0.921508 0.820859 0.592584
0.980591 0.799588 0.480354
0.610468 0.919799 0.723629
0.631312 0.917845 0.725673
0.677119 0.904692 0.719966
0.733639 0.883879 0.711574
0.738674 0.848264 0.659419
0.779507 0.827176 0.645991
0.891508 0.875120 0.690028
0.964446 0.890105 0.700862
0.697078 0.969940 0.802121
0.708583 0.967864 0.801907
0.745266 0.961883 0.802731
0.796414 0.953918 0.806302
0.820768 0.930114 0.783230
0.827695 0.910643 0.748501
0.880888 0.915892 0.760769
0.952544 0.938689 0.782284
0.109407 0.075319 0.097230
0.142641 0.064454 0.091951
0.404608 0.000000 0.056947
0.708858 0.000000 0.000000
0.880583 0.000000 0.000000
0.985931 0.000000 0.000000
1.000000 0.000000 0.000000
1.000000 0.000000 0.000000
0.108675 0.111940 0.116884
0.153140 0.100221 0.105440
0.348150 0.000000 0.074861
0.660700 0.000000 0.000000
0.854215 0.000000 0.000000
0.968658 0.000000 0.000000
1.000000 0.000000 0.000000
1.000000 0.000000 0.000000
0.088716 0.296574 0.192294
0.176791 0.276951 0.179446
0.304509 0.250492 0.155886
0.510460 0.234745 0.068666
0.773587 0.246464 0.000000
0.928222 0.233097 0.000000
1.000000 0.236271 0.000000
1.000000 0.247562 0.000000
0.000000 0.572381 0.334478
0.178683 0.555016 0.320226
0.340856 0.491157 0.269657
0.554437 0.519707 0.267491
0.736049 0.500572 0.161318
0.810239 0.426703 0.000000
0.974731 0.446937 0.000000
1.000000 0.467781 0.000000
0.273045 0.764553 0.504326
0.331884 0.751827 0.494850
0.472450 0.711727 0.475135
0.514244 0.627710 0.392432
0.707668 0.681361 0.430640
0.836515 0.675319 0.380346
0.906859 0.616571 0.163699
1.000000 0.616388 0.000000
0.455116 0.844266 0.611994
0.490059 0.838651 0.611658
0.575555 0.817929 0.606622
0.647669 0.782071 0.587274
0.649195 0.719020 0.518669
0.816861 0.796353 0.592859
0.914672 0.814633 0.593744
0.974334 0.787320 0.458961
0.589807 0.910002 0.711910
0.604486 0.904936 0.708522
0.655909 0.892851 0.705074
0.719966 0.874662 0.701167
0.731960 0.841794 0.654627
0.768215 0.816098 0.636500
0.881071 0.864286 0.679530
0.956176 0.880125 0.689296
0.685145 0.965850 0.796689
0.698726 0.964477 0.797787
0.737087 0.958801 0.799069
0.789944 0.951110 0.802853
0.833188 0.937224 0.799161
0.832914 0.914702 0.756771
0.878111 0.913237 0.759457
0.949157 0.935241 0.778958
0.071107 0.134432 0.247868
0.134340 0.121309 0.198795
0.310369 0.000641 0.188632
0.771054 0.000000 0.088838
0.900725 0.000000 0.000000
0.985412 0.000000 0.000000
1.000000 0.000000 0.000000
1.000000 0.000000 0.000000
0.010346 0.193484 0.310918
0.173800 0.180514 0.254582
0.317052 0.120943 0.201846
0.751125 0.000000 0.012238
0.879820 0.000000 0.000000
0.970550 0.000000 0.000000
1.000000 0.000000 0.000000
1.000000 0.000000 0.000000
0.000000 0.380652 0.356359
0.158907 0.357366 0.328161
0.340429 0.287175 0.257389
0.619593 0.277287 0.188540
0.831113 0.286290 0.101839
0.940307 0.292790 0.000000
1.000000 0.299870 0.000000
1.000000 0.280613 0.000000
0.000000 0.646998 0.482918
0.181857 0.636957 0.470558
0.422614 0.579065 0.419287
0.580743 0.549737 0.391821
0.738796 0.528008 0.302983
0.862669 0.481361 0.128939
0.981384 0.478370 0.000000
1.000000 0.486000 0.000000
0.294377 0.783139 0.575189
0.372992 0.773648 0.571191
0.520378 0.740139 0.555108
0.588190 0.676356 0.497841
0.721950 0.698329 0.520043
0.833066 0.694484 0.476234
0.902617 0.631312 0.287724
1.000000 0.623529 0.000000
0.480598 0.854063 0.655207
0.518730 0.848539 0.655268
0.599084 0.828458 0.647364
0.671534 0.793454 0.628382
0.669612 0.729244 0.558312
0.811185 0.792081 0.618860
0.907622 0.814145 0.622431
0.972137 0.792844 0.500008
0.608301 0.918151 0.741665
0.624567 0.913970 0.739437
0.669581 0.900999 0.731960
0.725948 0.881163 0.721096
0.748989 0.848417 0.682765
0.768368 0.813535 0.650721
0.885100 0.870054 0.705715
0.960266 0.889708 0.719905
0.684688 0.968933 0.809934
0.694057 0.966491 0.808225
0.731441 0.959991 0.807248
0.789151 0.953948 0.812985
0.834318 0.939971 0.808927
0.838987 0.919432 0.770626
0.879301 0.914336 0.770138
0.951385 0.938689 0.794980
0.000000 0.277653 0.510735
0.000000 0.268803 0.478279
0.280980 0.248173 0.328435
0.557580 0.068757 0.367956
0.889403 0.000000 0.316075
1.000000 0.000000 0.131777
1.000000 0.000000 0.000000
1.000000 0.000000 0.000000
0.000000 0.364721 0.559564
0.159884 0.349218 0.526024
0.321660 0.300450 0.383154
0.564721 0.180453 0.382452
0.891966 0.000000 0.321996
1.000000 0.000000 0.164157
1.000000 0.000000 0.031769
1.000000 0.000000 0.000000
0.000000 0.508049 0.605432
0.147311 0.498054 0.591943
0.418402 0.452064 0.509331
0.579736 0.370031 0.424506
0.908690 0.000000 0.251133
0.973541 0.335607 0.300359
1.000000 0.369177 0.196628
1.000000 0.281102 0.000000
0.073274 0.693080 0.639124
0.245640 0.683162 0.627192
0.458289 0.645533 0.584161
0.595758 0.566369 0.502922
0.762173 0.563958 0.453620
0.894285 0.561852 0.404578
0.992370 0.542992 0.295476
1.000000 0.485451 0.000000
0.361212 0.812985 0.683345
0.421027 0.804044 0.676509
0.556268 0.778622 0.657465
0.661189 0.731044 0.617639
0.728756 0.707912 0.595483
0.823880 0.704768 0.555261
0.910979 0.660487 0.419898
1.000000 0.646479 0.197269
0.527245 0.877989 0.731716
0.570794 0.877867 0.736599
0.638697 0.858274 0.721798
0.707057 0.828733 0.698268
0.726497 0.774929 0.643030
0.817380 0.801083 0.669612
0.904540 0.819608 0.664698
0.967651 0.794461 0.551354
0.622400 0.928557 0.782376
0.641291 0.926390 0.782254
0.690181 0.917845 0.778439
0.746029 0.902586 0.768002
0.790768 0.874357 0.746395
0.781460 0.822995 0.685359
0.887999 0.875212 0.737392
0.959808 0.893370 0.745205
0.696620 0.976349 0.839353
0.708003 0.975097 0.839322
0.738888 0.969848 0.836423
0.786130 0.961151 0.832822
0.835019 0.947662 0.827298
0.849424 0.928679 0.794949
0.878538 0.914122 0.783627
0.953002 0.941955 0.815610
0.000000 0.448341 0.686183
0.132937 0.447944 0.672663
0.339147 0.435981 0.608789
0.465492 0.386389 0.513268
0.736019 0.316686 0.546410
0.947875 0.193820 0.519280
1.000000 0.000000 0.430976
1.000000 0.000000 0.266911
0.213077 0.509209 0.700130
0.278630 0.507958 0.689265
0.400671 0.487404 0.631312
0.497078 0.439307 0.530114
0.734218 0.369055 0.553491
0.945098 0.294591 0.535760
1.000000 0.160800 0.443030
1.000000 0.000000 0.282811
0.262089 0.597436 0.744625
0.367864 0.606500 0.734188
0.529564 0.606012 0.682551
0.582849 0.560143 0.576226
0.726497 0.488228 0.570306
0.934813 0.445014 0.563226
1.000000 0.354314 0.458167
1.000000 0.333440 0.317418
0.352392 0.725948 0.755734
0.418494 0.722560 0.749203
0.560204 0.711910 0.729061
0.665766 0.676661 0.675227
0.726833 0.613245 0.602533
0.948272 0.527703 0.552819
1.000000 0.606989 0.547539
1.000000 0.521324 0.372686
0.448035 0.817624 0.763333
0.492927 0.813413 0.759091
0.590051 0.796078 0.740566
0.675166 0.762844 0.703243
0.720974 0.700404 0.637293
0.826566 0.698390 0.603845
0.942962 0.709682 0.577081
1.000000 0.682612 0.469490
0.533959 0.879057 0.780301
0.561273 0.875364 0.777829
0.627955 0.861814 0.766781
0.701778 0.842466 0.748928
0.750240 0.800626 0.704524
0.804471 0.789517 0.693446
0.890837 0.804410 0.678584
0.966522 0.778500 0.571405
0.633143 0.939117 0.830625
0.647425 0.935973 0.827939
0.690700 0.926879 0.819974
0.745022 0.913695 0.807279
0.791989 0.892271 0.783993
0.804074 0.845914 0.730526
0.882078 0.871000 0.758145
0.953765 0.886381 0.754177
0.691127 0.978759 0.865629
0.700710 0.977081 0.864317
0.730648 0.971954 0.860258
0.780362 0.967926 0.859586
0.824826 0.956420 0.848386
0.868925 0.937621 0.835935
0.867491 0.905486 0.788357
0.950042 0.940368 0.830198
0.353826 0.612543 0.795315
0.395697 0.613825 0.787198
0.490944 0.611505 0.754360
0.594873 0.616114 0.694667
0.659388 0.554162 0.656916
0.824338 0.512627 0.663294
0.985595 0.461280 0.659052
1.000000 0.468879 0.629938
0.419593 0.638453 0.794278
0.446021 0.636255 0.786007
0.524590 0.634363 0.758755
0.603723 0.625513 0.697993
0.659602 0.568627 0.653895
0.819181 0.527642 0.661585
0.981781 0.490517 0.664393
1.000000 0.492134 0.635096
0.529137 0.721035 0.829313
0.565332 0.722530 0.819883
0.623621 0.714168 0.790951
0.663539 0.688380 0.736843
0.689418 0.639277 0.671138
0.817014 0.595605 0.675288
0.976715 0.586114 0.693629
1.000000 0.577173 0.662043
0.540063 0.786282 0.851072
0.570581 0.784237 0.846525
0.653346 0.781186 0.835691
0.734157 0.771206 0.793973
0.745296 0.727260 0.708858
0.823148 0.682643 0.703761
0.978058 0.692622 0.734798
1.000000 0.684047 0.702144
0.563409 0.844633 0.846067
0.590051 0.843259 0.843900
0.658228 0.837430 0.835691
0.730159 0.824826 0.819913
0.780392 0.789517 0.776577
0.812680 0.733089 0.709407
0.983337 0.747890 0.737972
1.000000 0.739498 0.688441
0.600092 0.892607 0.846921
0.623102 0.892241 0.847105
0.675135 0.885191 0.840055
0.733486 0.871702 0.825071
0.778653 0.845579 0.793973
0.806577 0.793179 0.735042
0.903624 0.800534 0.714565
0.999664 0.808316 0.688930
0.660853 0.946654 0.876188
0.676295 0.945953 0.876463
0.714260 0.940734 0.872435
0.763638 0.933318 0.865934
0.811643 0.922393 0.853483
0.843839 0.889738 0.811795
0.882017 0.873381 0.791653
0.952850 0.881193 0.769894
0.702754 0.984985 0.903532
0.711177 0.983734 0.902708
0.738918 0.980224 0.900511
0.781247 0.975555 0.897154
0.824796 0.967041 0.886625
0.866300 0.953338 0.869169
0.883665 0.923491 0.828305
0.949310 0.941711 0.854215
0.529198 0.725460 0.866148
0.549371 0.726802 0.862272
0.600183 0.725185 0.844724
0.661860 0.720974 0.809873
0.711299 0.711025 0.743435
0.763607 0.641901 0.739010
0.885374 0.618158 0.746029
1.000000 0.547143 0.738582
0.560906 0.741115 0.867704
0.576287 0.741054 0.863798
0.617517 0.736812 0.846830
0.669184 0.727840 0.811704
0.714168 0.715023 0.746731
0.762020 0.649866 0.737118
0.881590 0.623438 0.743374
1.000000 0.559075 0.738857
0.633783 0.789364 0.884367
0.651179 0.789883 0.879667
0.674250 0.780758 0.863890
0.707454 0.765408 0.831998
0.738430 0.744167 0.772366
0.771878 0.692256 0.746517
0.881743 0.663478 0.753231
1.000000 0.627466 0.759426
0.621759 0.824613 0.913085
0.640375 0.824826 0.909453
0.702968 0.826658 0.894560
0.757015 0.818753 0.865110
0.775143 0.790677 0.814115
0.790097 0.748562 0.764218
0.883116 0.715969 0.768154
1.000000 0.705013 0.784604
0.630182 0.870878 0.912657
0.646876 0.870054 0.911254
0.696986 0.867491 0.907286
0.759823 0.862089 0.900603
0.812924 0.845182 0.862333
0.813779 0.800809 0.780331
0.880369 0.762692 0.778958
1.000000 0.780423 0.811643
0.655146 0.913451 0.912993
0.669245 0.912688 0.912261
0.710750 0.910063 0.909697
0.764248 0.905516 0.905211
0.816617 0.896544 0.896056
0.859037 0.870939 0.862852
0.883207 0.818662 0.799283
1.000000 0.865965 0.854490
0.685542 0.949096 0.917540
0.696956 0.948486 0.917296
0.729946 0.945830 0.915373
0.774563 0.941680 0.911711
0.820645 0.934417 0.903441
0.860624 0.919219 0.883482
0.877348 0.870268 0.822477
0.967834 0.876524 0.803830
0.711574 0.986755 0.935729
0.720089 0.985992 0.935363
0.748592 0.984070 0.934874
0.788113 0.980652 0.932921
0.833341 0.976165 0.929442
0.879057 0.970794 0.924193
0.910826 0.952331 0.896605
0.948547 0.943511 0.883848
0.645350 0.810422 0.927825
0.654841 0.810361 0.925566
0.681666 0.807889 0.915526
0.721614 0.804288 0.896361
0.763577 0.798764 0.861845
0.789700 0.778622 0.821073
0.857145 0.724636 0.828244
0.945953 0.705928 0.829923
0.659785 0.818204 0.929290
0.668055 0.817899 0.927062
0.692103 0.814878 0.917510
0.728023 0.809842 0.898466
0.767147 0.802945 0.864591
0.791897 0.783139 0.821256
0.855222 0.729213 0.826719
0.944488 0.709682 0.829282
0.702083 0.843809 0.937285
0.707485 0.842802 0.935149
0.723720 0.837919 0.926116
0.752651 0.831937 0.909911
0.783230 0.821347 0.878264
0.808103 0.805966 0.825834
0.854978 0.751827 0.829068
0.943572 0.729885 0.833219
0.686061 0.861387 0.953918
0.704921 0.863706 0.951904
0.755764 0.869261 0.943389
0.786740 0.864652 0.928527
0.808225 0.851286 0.901579
0.828977 0.834257 0.851133
0.859373 0.789609 0.838926
0.943816 0.762509 0.841978
0.676020 0.889311 0.963134
0.689998 0.889586 0.963012
0.729519 0.889128 0.961700
0.783810 0.890349 0.953887
0.837675 0.888548 0.930724
0.850797 0.866728 0.889006
0.865934 0.831540 0.851347
0.944335 0.802274 0.853910
0.687831 0.925780 0.963104
0.698238 0.925261 0.962737
0.731228 0.923827 0.961700
0.778805 0.921691 0.960540
0.834867 0.919127 0.958343
0.885893 0.914458 0.935698
0.888579 0.882963 0.873716
0.947417 0.850950 0.873075
0.711757 0.958129 0.964691
0.720394 0.957702 0.964477
0.748013 0.956268 0.963806
0.790036 0.954467 0.963073
0.839322 0.952514 0.962005
0.889158 0.950347 0.959930
0.928374 0.939788 0.941863
0.948058 0.897459 0.891508
0.733120 0.984405 0.966857
0.739986 0.983978 0.966674
0.763180 0.982666 0.966247
0.800168 0.980865 0.965759
0.844175 0.978759 0.964843
0.889281 0.976532 0.963012
0.929351 0.972351 0.957153
0.946227 0.943999 0.917296
