其他预设/【240】TEZZA调色预设合集24款/1.LUT预设（视频调色-PR-AE-PS-FCPX-达芬奇用）/Tezza万事达-Tezza04.cube
# Created by Adobe Lightroom plugin Export LUT (1.17.0)
# www.johnrellis.com/lightroom/exportlut.htm
# Preset: Tezza万事达-Tezza04
# Color profile: /Library/Application Support/Adobe/Color/Profiles/Recommended/AdobeRGB1998.icc
LUT_3D_SIZE 8
DOMAIN_MIN 0.000000 0.000000 0.000000
DOMAIN_MAX 0.903226 0.903226 0.903226
0.000000 0.000000 0.000000
0.109133 0.013764 0.023835
0.399817 0.000000 0.032532
0.667018 0.000000 0.088014
0.804715 0.180545 0.240787
0.858549 0.408362 0.396246
0.890379 0.545373 0.541192
0.905455 0.617273 0.626123
0.040620 0.108400 0.075135
0.119753 0.120211 0.082582
0.380560 0.000000 0.055787
0.648920 0.000000 0.102632
0.782986 0.225254 0.227543
0.843870 0.400885 0.369299
0.882780 0.535454 0.520165
0.904234 0.625513 0.630426
0.146761 0.410010 0.257023
0.279240 0.428443 0.296666
0.510704 0.471962 0.327672
0.651820 0.360357 0.172122
0.765835 0.413001 0.276707
0.833951 0.500328 0.415381
0.881468 0.605707 0.574090
0.900267 0.651362 0.644282
0.509545 0.678798 0.566064
0.561730 0.680751 0.587549
0.653223 0.695918 0.648920
0.725154 0.710903 0.646326
0.765286 0.605554 0.435035
0.824735 0.608087 0.486641
0.872618 0.661280 0.605341
0.894621 0.688197 0.664088
0.646845 0.764675 0.699702
0.668391 0.766964 0.711269
0.720394 0.782742 0.749569
0.757748 0.791318 0.769680
0.788632 0.788327 0.755154
0.810178 0.727199 0.640131
0.857694 0.702358 0.614221
0.888762 0.728420 0.684871
0.724666 0.821073 0.780758
0.742977 0.826658 0.793668
0.771115 0.833646 0.811093
0.808103 0.843168 0.840055
0.813321 0.839414 0.830838
0.829465 0.836118 0.821988
0.849516 0.809354 0.768765
0.884031 0.767544 0.703304
0.782345 0.856504 0.833982
0.789914 0.857298 0.838193
0.806302 0.858457 0.846799
0.825406 0.861326 0.858946
0.837308 0.862333 0.866728
0.840452 0.860929 0.862608
0.847654 0.858976 0.858213
0.860533 0.842008 0.821134
0.818235 0.870298 0.862028
0.821439 0.869963 0.863462
0.831632 0.869139 0.868528
0.840391 0.868528 0.873198
0.847440 0.868345 0.877989
0.849058 0.868162 0.878477
0.849699 0.867521 0.876280
0.851408 0.864683 0.869261
0.000000 0.021454 0.054231
0.096010 0.024811 0.056092
0.357977 0.000000 0.044221
0.634424 0.000000 0.091188
0.776486 0.182528 0.212131
0.839353 0.371466 0.347814
0.880705 0.515099 0.501671
0.904997 0.620203 0.627680
0.009461 0.107820 0.091737
0.124331 0.120211 0.093721
0.360693 0.097780 0.061463
0.631189 0.045258 0.106661
0.765164 0.242039 0.214664
0.830869 0.387457 0.343420
0.874144 0.512749 0.488746
0.902953 0.622278 0.625391
0.139376 0.381109 0.252079
0.287327 0.402472 0.300664
0.487831 0.446937 0.315465
0.623865 0.343786 0.155550
0.746639 0.394354 0.249302
0.820066 0.477028 0.379095
0.869657 0.571496 0.526360
0.900053 0.652949 0.645136
0.461707 0.647578 0.525109
0.531701 0.653834 0.555596
0.633509 0.673854 0.625116
0.697841 0.677302 0.600916
0.740902 0.572992 0.384405
0.804013 0.570428 0.425727
0.858701 0.629541 0.557153
0.894499 0.688991 0.664454
0.640162 0.757015 0.692164
0.660578 0.758083 0.702266
0.710689 0.772671 0.738186
0.744259 0.777127 0.753140
0.776089 0.773098 0.734401
0.800656 0.714137 0.619806
0.849180 0.687984 0.590723
0.888701 0.728695 0.685023
0.715908 0.814450 0.772335
0.728573 0.816281 0.779721
0.759152 0.824582 0.799222
0.800504 0.836973 0.832547
0.808377 0.834836 0.825223
0.827237 0.833371 0.817868
0.847044 0.805570 0.762997
0.884001 0.767575 0.703334
0.772824 0.852171 0.826596
0.778470 0.852018 0.829099
0.797879 0.854337 0.839780
0.820829 0.859068 0.854917
0.835447 0.861143 0.864897
0.838682 0.859464 0.860288
0.846159 0.856840 0.854337
0.860563 0.841917 0.820981
0.815763 0.870085 0.860655
0.819516 0.869902 0.862425
0.830472 0.869200 0.867887
0.840055 0.868559 0.872984
0.847562 0.868406 0.878111
0.849180 0.868223 0.878630
0.849760 0.867582 0.876432
0.851408 0.864652 0.869230
0.000000 0.066621 0.127504
0.076509 0.081788 0.100587
0.376226 0.000000 0.132845
0.651301 0.000000 0.127352
0.778470 0.265080 0.233402
0.838651 0.427100 0.375738
0.881498 0.546075 0.526085
0.904417 0.624048 0.629694
0.000275 0.139956 0.192142
0.137179 0.149172 0.159823
0.400916 0.127810 0.168399
0.641840 0.162234 0.156283
0.764309 0.305516 0.231968
0.830808 0.437110 0.369879
0.876555 0.546838 0.518242
0.903319 0.631434 0.633570
0.023926 0.367803 0.287816
0.262211 0.391882 0.317693
0.482429 0.430884 0.334386
0.635950 0.385657 0.238529
0.751858 0.435645 0.273899
0.821561 0.507561 0.402228
0.870054 0.587732 0.540276
0.899687 0.655207 0.646296
0.419684 0.643702 0.527947
0.516777 0.649653 0.561059
0.640284 0.674098 0.639643
0.697658 0.675715 0.609613
0.745327 0.589624 0.421088
0.807767 0.587793 0.445197
0.861967 0.644251 0.574762
0.894347 0.689967 0.664973
0.617853 0.748623 0.681392
0.648280 0.751949 0.696590
0.711513 0.770565 0.740383
0.749142 0.780026 0.762264
0.778805 0.775814 0.741909
0.804166 0.722896 0.633845
0.850828 0.693050 0.597131
0.888670 0.728817 0.685115
0.707301 0.811215 0.768307
0.722286 0.813321 0.776608
0.757534 0.821683 0.798367
0.797940 0.834440 0.830350
0.806332 0.832303 0.824125
0.824643 0.830014 0.814237
0.845670 0.803647 0.760098
0.884062 0.767239 0.703151
0.770138 0.852262 0.826444
0.776852 0.852384 0.829526
0.797360 0.853880 0.840208
0.819699 0.858396 0.854246
0.835538 0.860990 0.865324
0.838956 0.859586 0.861173
0.846769 0.857481 0.855497
0.860746 0.841428 0.820157
0.812131 0.870512 0.859434
0.814847 0.870085 0.860410
0.826261 0.869139 0.865690
0.839414 0.868711 0.872801
0.847318 0.868498 0.878019
0.849516 0.868406 0.879088
0.849943 0.867735 0.876860
0.851438 0.864622 0.869078
0.000000 0.105989 0.270787
0.074922 0.122560 0.240391
0.301122 0.132204 0.261448
0.648341 0.048981 0.286870
0.772549 0.289586 0.304082
0.833280 0.418982 0.363195
0.876646 0.536675 0.510521
0.904570 0.623163 0.629206
0.000000 0.203708 0.343481
0.150637 0.197604 0.306126
0.357397 0.207797 0.299596
0.663447 0.221714 0.318822
0.766384 0.345220 0.323674
0.827665 0.440833 0.367529
0.873045 0.544762 0.510796
0.903593 0.629694 0.632715
0.115755 0.400916 0.422217
0.247074 0.405341 0.416571
0.468696 0.404974 0.392828
0.647181 0.427619 0.381323
0.750729 0.469825 0.383917
0.820951 0.525872 0.423346
0.872770 0.605341 0.559411
0.900114 0.652369 0.644800
0.288090 0.614984 0.524437
0.403143 0.621149 0.538659
0.615930 0.650874 0.621942
0.679652 0.649165 0.591211
0.728237 0.569757 0.444282
0.802792 0.595972 0.475074
0.860868 0.644739 0.573358
0.894743 0.687312 0.663600
0.577630 0.738705 0.672175
0.610803 0.740230 0.682521
0.695094 0.756100 0.727535
0.748806 0.777157 0.766751
0.775845 0.770932 0.741329
0.800809 0.715084 0.633997
0.854032 0.699031 0.606317
0.889006 0.726436 0.683894
0.691829 0.808682 0.764981
0.712428 0.813840 0.776852
0.754818 0.819730 0.799496
0.799466 0.835843 0.832700
0.811002 0.835813 0.832029
0.825254 0.830289 0.816800
0.846952 0.803464 0.760769
0.884245 0.765377 0.702358
0.758206 0.850431 0.822080
0.766903 0.851255 0.826169
0.792477 0.853758 0.839109
0.820218 0.859037 0.855741
0.839109 0.862943 0.869505
0.841001 0.861173 0.864897
0.847257 0.857939 0.856840
0.861295 0.839994 0.817563
0.808011 0.871641 0.859068
0.811429 0.871275 0.860319
0.822019 0.870176 0.864561
0.837247 0.868986 0.871977
0.846525 0.868681 0.877501
0.850065 0.868681 0.879850
0.850248 0.867979 0.877653
0.851438 0.864530 0.868833
0.000000 0.189364 0.454627
0.000000 0.196201 0.428138
0.285801 0.257633 0.349035
0.579828 0.261418 0.426398
0.755917 0.347204 0.451850
0.827970 0.468269 0.480049
0.875914 0.542870 0.518425
0.904417 0.624201 0.629786
0.003632 0.279637 0.496742
0.172091 0.275639 0.473274
0.346685 0.323003 0.395758
0.597803 0.323766 0.451423
0.755703 0.394751 0.467689
0.824308 0.492103 0.491890
0.873747 0.557000 0.528344
0.903471 0.630426 0.633112
0.248447 0.487526 0.589075
0.343877 0.491554 0.586389
0.465339 0.464851 0.486336
0.633570 0.468910 0.510826
0.746212 0.515953 0.519463
0.809964 0.545281 0.515129
0.865171 0.591516 0.549798
0.900511 0.649866 0.643427
0.338079 0.612696 0.600336
0.393469 0.608331 0.593286
0.522515 0.598108 0.574578
0.641413 0.590539 0.555566
0.727932 0.599420 0.551507
0.796963 0.616358 0.558984
0.857511 0.643641 0.588647
0.896269 0.677211 0.658198
0.463996 0.708553 0.645655
0.520897 0.712032 0.656245
0.642908 0.726619 0.693965
0.734859 0.760708 0.757839
0.757198 0.744869 0.716487
0.781552 0.668757 0.585321
0.848417 0.692348 0.620661
0.890288 0.717311 0.679286
0.638941 0.789151 0.740749
0.658137 0.791012 0.747127
0.711452 0.797330 0.768948
0.774105 0.817411 0.809659
0.799985 0.825467 0.823941
0.817960 0.820706 0.807065
0.844358 0.786770 0.740566
0.884855 0.759762 0.699855
0.732570 0.844968 0.812131
0.740871 0.845121 0.814908
0.768612 0.847166 0.826322
0.807797 0.853330 0.847410
0.835752 0.861509 0.867277
0.840391 0.860838 0.865843
0.846342 0.856321 0.854978
0.862821 0.835813 0.810666
0.791653 0.871733 0.853483
0.795438 0.871336 0.854612
0.808255 0.870207 0.858946
0.829801 0.869688 0.868711
0.843839 0.868864 0.875914
0.850797 0.869078 0.880858
0.850584 0.868345 0.878691
0.851652 0.864714 0.869413
0.000000 0.325353 0.623865
0.172702 0.327489 0.608698
0.390509 0.386633 0.537072
0.542412 0.377722 0.542016
0.714687 0.438788 0.566308
0.810208 0.510521 0.583673
0.868132 0.592706 0.623651
0.902556 0.629786 0.641779
0.199619 0.391974 0.636500
0.261936 0.386755 0.621424
0.416571 0.416663 0.550958
0.551659 0.406653 0.548760
0.713130 0.460700 0.570428
0.807645 0.525811 0.588159
0.865385 0.600458 0.626337
0.901640 0.635645 0.645228
0.397223 0.559747 0.695735
0.443885 0.553674 0.679347
0.510765 0.528771 0.625269
0.602808 0.520317 0.600458
0.723354 0.551141 0.610529
0.807248 0.590356 0.622827
0.860624 0.630976 0.642786
0.898528 0.654597 0.656611
0.467506 0.657038 0.710933
0.500053 0.654963 0.706661
0.587793 0.653040 0.697292
0.649195 0.632929 0.655909
0.744594 0.650660 0.668299
0.802945 0.661067 0.663355
0.856992 0.675868 0.670710
0.894285 0.681025 0.671504
0.500481 0.714260 0.704372
0.522148 0.714412 0.703944
0.581933 0.707149 0.694575
0.693629 0.722866 0.721126
0.727169 0.699336 0.681422
0.785092 0.692836 0.664515
0.846860 0.706661 0.679408
0.889952 0.710628 0.685451
0.558038 0.770932 0.726802
0.587121 0.774441 0.733761
0.660121 0.782956 0.753048
0.745785 0.800778 0.791043
0.798978 0.823880 0.828397
0.810208 0.809140 0.797574
0.842252 0.751736 0.700374
0.883940 0.751431 0.708186
0.695949 0.840208 0.804868
0.707790 0.841398 0.808621
0.740536 0.843381 0.818570
0.786954 0.848569 0.837583
0.828641 0.858671 0.862211
0.841520 0.861997 0.869596
0.846311 0.855619 0.855192
0.866606 0.823728 0.794095
0.770901 0.873716 0.850462
0.775143 0.873198 0.851286
0.790066 0.871763 0.854917
0.814298 0.870359 0.862943
0.838590 0.869139 0.873503
0.849851 0.869169 0.880247
0.851164 0.868864 0.880095
0.851926 0.865049 0.870481
0.284306 0.457404 0.724880
0.336034 0.460914 0.717494
0.464210 0.487160 0.678431
0.552880 0.521782 0.612757
0.683955 0.506920 0.658350
0.782254 0.559045 0.662287
0.849241 0.602045 0.672938
0.893431 0.644831 0.692287
0.336339 0.493019 0.727230
0.375341 0.492836 0.719783
0.477363 0.504906 0.682948
0.557275 0.532555 0.612940
0.681361 0.517357 0.656062
0.778439 0.562951 0.659998
0.845792 0.602716 0.669581
0.892668 0.651118 0.695979
0.472572 0.604700 0.758816
0.498817 0.602045 0.750362
0.542351 0.584222 0.719142
0.598627 0.593622 0.642420
0.690883 0.578668 0.674739
0.781674 0.607019 0.680598
0.846952 0.638117 0.689906
0.888487 0.679622 0.715602
0.533104 0.692287 0.788907
0.553887 0.691920 0.787015
0.611994 0.686671 0.773007
0.650690 0.660945 0.715480
0.706569 0.649348 0.705623
0.789212 0.666926 0.713771
0.848234 0.690517 0.723262
0.883940 0.708248 0.732662
0.563500 0.743099 0.783932
0.576715 0.741665 0.782040
0.618860 0.738491 0.777584
0.677363 0.734432 0.771939
0.714107 0.706020 0.732601
0.792172 0.720668 0.743038
0.841917 0.728664 0.741451
0.880064 0.732998 0.743435
0.584558 0.788083 0.783749
0.593652 0.787900 0.783444
0.623163 0.784482 0.779721
0.665583 0.776486 0.771511
0.750057 0.787259 0.790829
0.778317 0.760464 0.754635
0.837339 0.764584 0.754726
0.876005 0.761959 0.755093
0.611597 0.830930 0.795956
0.617700 0.830350 0.795315
0.664515 0.831907 0.802518
0.728634 0.836515 0.817411
0.797452 0.846128 0.843198
0.840513 0.860868 0.870787
0.843351 0.849577 0.849088
0.872496 0.797696 0.767636
0.726925 0.875761 0.845884
0.732967 0.875364 0.846769
0.755184 0.874784 0.851194
0.786465 0.872892 0.857725
0.821622 0.870390 0.867552
0.847288 0.869322 0.878813
0.852140 0.869566 0.881895
0.852354 0.865537 0.872160
0.448768 0.572869 0.801755
0.474281 0.575463 0.797238
0.539055 0.583581 0.775570
0.617823 0.615625 0.727993
0.664881 0.607019 0.712642
0.766751 0.612634 0.741634
0.839231 0.650080 0.745174
0.877836 0.668940 0.741512
0.468818 0.590997 0.803555
0.491249 0.592462 0.799283
0.545342 0.593927 0.779171
0.620569 0.620783 0.732204
0.665248 0.613703 0.712825
0.765286 0.617487 0.741512
0.837919 0.652979 0.745388
0.877501 0.673213 0.743618
0.531640 0.651667 0.816770
0.545251 0.649561 0.812802
0.579492 0.639734 0.794766
0.638788 0.649348 0.757534
0.675044 0.644831 0.723384
0.765713 0.642359 0.749020
0.838163 0.673304 0.754940
0.876066 0.689357 0.752163
0.536278 0.708278 0.843687
0.562249 0.709957 0.840665
0.624201 0.710689 0.825772
0.661128 0.693874 0.796506
0.692500 0.690486 0.741299
0.768856 0.684047 0.766323
0.840208 0.708400 0.773892
0.873533 0.715755 0.766934
0.587030 0.764370 0.843229
0.599481 0.765042 0.843534
0.634180 0.764950 0.842893
0.685237 0.764736 0.841978
0.721431 0.739834 0.796292
0.769924 0.729946 0.787442
0.838743 0.743526 0.791806
0.870115 0.750301 0.787503
0.636225 0.815000 0.848295
0.642817 0.814572 0.847959
0.665400 0.813504 0.847318
0.700496 0.811154 0.846128
0.747707 0.809201 0.845487
0.769284 0.780667 0.806821
0.839353 0.788449 0.817655
0.864500 0.794308 0.816251
0.660822 0.852598 0.851926
0.664668 0.851987 0.851408
0.677790 0.850278 0.850126
0.701137 0.848173 0.848844
0.733669 0.842496 0.844938
0.772976 0.830900 0.835966
0.828580 0.821683 0.829648
0.861418 0.819089 0.826963
0.691249 0.884276 0.861021
0.693385 0.883909 0.860685
0.702296 0.883024 0.860075
0.719905 0.881987 0.859709
0.765896 0.877806 0.862821
0.821836 0.871702 0.871244
0.852140 0.869841 0.882261
0.853025 0.866148 0.874846
