其他预设/【240】TEZZA调色预设合集24款/1.LUT预设（视频调色-PR-AE-PS-FCPX-达芬奇用）/Tezza古董__-1.cube
# Created by Adobe Lightroom plugin Export LUT (1.17.0)
# www.johnrellis.com/lightroom/exportlut.htm
# Preset: Tezza古董[素锦印象]-1
# Color profile: /Library/Application Support/Adobe/Color/Profiles/Recommended/AdobeRGB1998.icc
LUT_3D_SIZE 5
DOMAIN_MIN 0.000000 0.000000 0.000000
DOMAIN_MAX 0.903226 0.903226 0.903226
0.000000 0.000000 0.000000
0.290532 0.000000 0.036347
0.707301 0.000000 0.002655
0.867887 0.000000 0.192477
0.938933 0.248753 0.440711
0.000000 0.317632 0.130220
0.362829 0.289158 0.000000
0.691554 0.000000 0.000000
0.850980 0.000000 0.191958
0.934142 0.374090 0.447486
0.400183 0.715236 0.514580
0.549523 0.719417 0.606622
0.744717 0.656306 0.294713
0.811185 0.540459 0.240604
0.915679 0.583246 0.505058
0.648096 0.822751 0.721309
0.694728 0.826932 0.757778
0.739437 0.837247 0.775113
0.828092 0.777798 0.603510
0.898161 0.751400 0.590509
0.761257 0.875669 0.823087
0.781155 0.873442 0.836088
0.812009 0.869780 0.855894
0.822629 0.870634 0.846494
0.873991 0.853056 0.779355
0.000000 0.029297 0.121279
0.286931 0.000000 0.138613
0.683375 0.000000 0.000000
0.841001 0.000000 0.154391
0.932921 0.176944 0.400793
0.000000 0.247623 0.129946
0.318425 0.247623 0.148836
0.664820 0.143526 0.000000
0.829557 0.000000 0.164920
0.928099 0.327184 0.413123
0.319249 0.688106 0.460029
0.535637 0.691310 0.585107
0.712123 0.620233 0.303227
0.793973 0.524620 0.203861
0.911559 0.572992 0.486946
0.634485 0.816983 0.709010
0.691066 0.820188 0.752499
0.742275 0.833402 0.779873
0.823697 0.772763 0.603418
0.897215 0.746578 0.581201
0.752926 0.875975 0.817411
0.773770 0.873686 0.831113
0.816220 0.870420 0.858915
0.825620 0.870756 0.851377
0.874052 0.852873 0.778958
0.000000 0.062379 0.400427
0.159884 0.040803 0.486275
0.709895 0.000000 0.404242
0.842222 0.000000 0.225498
0.933349 0.184482 0.401892
0.000000 0.190066 0.386328
0.277501 0.266697 0.475959
0.692287 0.087312 0.384100
0.829862 0.000000 0.245640
0.929992 0.315984 0.415076
0.000000 0.606134 0.364111
0.388891 0.624811 0.465003
0.668269 0.582574 0.440436
0.795346 0.515801 0.327855
0.913359 0.553491 0.479011
0.552697 0.796658 0.643793
0.627710 0.796841 0.695674
0.756954 0.822477 0.803342
0.810788 0.761898 0.628717
0.895995 0.733516 0.562127
0.718105 0.875303 0.792691
0.742855 0.874144 0.809781
0.805570 0.870603 0.851804
0.827604 0.870024 0.858549
0.873594 0.852293 0.781186
0.000000 0.090303 0.647578
0.000000 0.111574 0.689174
0.666804 0.000000 0.704616
0.829740 0.125124 0.602197
0.916320 0.358587 0.569665
0.000000 0.220706 0.625940
0.000000 0.234195 0.670283
0.669856 0.323308 0.698329
0.818418 0.302281 0.596277
0.912322 0.391699 0.560296
0.000000 0.549981 0.610437
0.000000 0.533349 0.611414
0.648066 0.593988 0.670436
0.786130 0.512902 0.576013
0.910765 0.495888 0.541405
0.341772 0.753689 0.573022
0.441718 0.749111 0.577020
0.686427 0.770779 0.730892
0.777493 0.732021 0.663539
0.897459 0.694636 0.611963
0.653254 0.869993 0.744686
0.680079 0.869932 0.763577
0.757992 0.871458 0.819486
0.838956 0.869383 0.873716
0.870848 0.851621 0.794888
0.000000 0.131685 0.793423
0.000000 0.142092 0.808072
0.571862 0.388159 0.842252
0.829129 0.370916 0.827359
0.896544 0.460060 0.741176
0.000000 0.225467 0.777920
0.000000 0.207279 0.795560
0.573754 0.460060 0.833524
0.821500 0.448341 0.823880
0.893278 0.502037 0.744961
0.000000 0.403357 0.725551
0.000000 0.373480 0.731106
0.490120 0.525933 0.801114
0.803952 0.612634 0.825650
0.884642 0.600916 0.758206
0.000000 0.775051 0.780880
0.000000 0.764370 0.778408
0.317418 0.717647 0.773068
0.775265 0.775662 0.835264
0.873045 0.717861 0.784543
0.521874 0.867704 0.750668
0.544793 0.865782 0.751247
0.627131 0.863035 0.761593
0.765011 0.860594 0.821012
0.862242 0.849760 0.831876
