其他预设/【240】TEZZA调色预设合集24款/1.LUT预设（视频调色-PR-AE-PS-FCPX-达芬奇用）/Tezza自然__-7.cube
# Created by Adobe Lightroom plugin Export LUT (1.17.0)
# www.johnrellis.com/lightroom/exportlut.htm
# Preset: Tezza自然[素锦印象]-7
# Color profile: /Library/Application Support/Adobe/Color/Profiles/Recommended/AdobeRGB1998.icc
LUT_3D_SIZE 32
0.000000 0.000000 0.000000
0.016510 0.000702 0.002747
0.036896 0.001923 0.005371
0.067536 0.004242 0.011475
0.097292 0.000000 0.017762
0.138705 0.000000 0.021546
0.189059 0.000000 0.021973
0.245335 0.000000 0.019348
0.306004 0.000000 0.013062
0.368322 0.000000 0.005097
0.430060 0.000000 0.000000
0.488136 0.000000 0.000000
0.540642 0.000000 0.000000
0.586145 0.000000 0.000000
0.625086 0.000000 0.000000
0.658930 0.000000 0.000000
0.687648 0.000000 0.000000
0.712551 0.000000 0.000000
0.734524 0.000000 0.002564
0.762905 0.000000 0.048341
0.790768 0.000000 0.081025
0.814267 0.000000 0.107362
0.834012 0.000000 0.132021
0.851225 0.000000 0.157198
0.866667 0.000000 0.182559
0.881163 0.000000 0.209903
0.895598 0.000000 0.241062
0.910063 0.000000 0.277317
0.924712 0.161044 0.320287
0.930449 0.229435 0.343481
0.930877 0.214145 0.341955
0.931334 0.196231 0.340215
0.007538 0.014801 0.010498
0.013153 0.022095 0.009766
0.035889 0.028901 0.009674
0.067720 0.031006 0.014679
0.097108 0.026551 0.020996
0.137636 0.000946 0.022797
0.186526 0.000000 0.022522
0.240848 0.000000 0.020447
0.299931 0.000000 0.013794
0.361486 0.000000 0.006561
0.422217 0.000000 0.000000
0.479896 0.000000 0.000000
0.532158 0.000000 0.000000
0.578119 0.000000 0.000000
0.617517 0.000000 0.000000
0.651850 0.000000 0.000000
0.681331 0.000000 0.000000
0.706935 0.000000 0.000000
0.729366 0.000000 0.000000
0.757839 0.000000 0.039673
0.784939 0.000000 0.075288
0.808194 0.000000 0.100496
0.828000 0.000000 0.124880
0.845426 0.000000 0.149233
0.861112 0.000000 0.173831
0.875944 0.000000 0.200320
0.890806 0.000000 0.230716
0.905699 0.000000 0.266270
0.920806 0.133394 0.308721
0.930602 0.224094 0.342962
0.930724 0.220188 0.342412
0.931151 0.202457 0.340734
0.018585 0.034699 0.025879
0.022675 0.037415 0.029877
0.032013 0.047639 0.021210
0.068025 0.058503 0.019684
0.097353 0.056062 0.023713
0.137026 0.033173 0.024598
0.184237 0.000000 0.024628
0.236942 0.000000 0.020935
0.294621 0.000000 0.015961
0.355291 0.000000 0.008148
0.415473 0.000000 0.000000
0.473182 0.000000 0.000000
0.525750 0.000000 0.000000
0.572259 0.000000 0.000000
0.612177 0.000000 0.000000
0.647089 0.000000 0.000000
0.676967 0.000000 0.000000
0.702937 0.000000 0.000000
0.726009 0.000000 0.000000
0.754849 0.000000 0.036530
0.781643 0.000000 0.073121
0.804807 0.000000 0.097871
0.824674 0.000000 0.121675
0.842191 0.000000 0.145266
0.857939 0.000000 0.169223
0.872953 0.000000 0.195590
0.887968 0.000000 0.225528
0.903166 0.000000 0.260685
0.918547 0.125673 0.303044
0.930571 0.225620 0.343084
0.930510 0.227848 0.343145
0.930968 0.210452 0.341497
0.041901 0.063813 0.054170
0.048219 0.065949 0.059449
0.049104 0.065888 0.059876
0.065278 0.074922 0.043244
0.101106 0.082429 0.030274
0.138308 0.075837 0.028901
0.183932 0.054292 0.026001
0.235019 0.000000 0.022766
0.290654 0.000000 0.016236
0.349462 0.000000 0.009094
0.408453 0.000000 0.000366
0.465461 0.000000 0.000000
0.517662 0.000000 0.000000
0.564355 0.000000 0.000000
0.604883 0.000000 0.000000
0.640101 0.000000 0.000000
0.670832 0.000000 0.000000
0.697444 0.000000 0.000000
0.720790 0.000000 0.000000
0.750088 0.000000 0.032227
0.775723 0.000000 0.068971
0.798520 0.000000 0.092744
0.818692 0.000000 0.115846
0.837064 0.000000 0.139834
0.854093 0.000000 0.165194
0.870237 0.000000 0.192721
0.886168 0.000000 0.224155
0.901915 0.000000 0.260380
0.917510 0.151522 0.303166
0.930114 0.240543 0.344640
0.930022 0.243961 0.345129
0.930541 0.226535 0.343053
0.065003 0.085328 0.074617
0.067659 0.087404 0.077729
0.069886 0.088319 0.079561
0.068147 0.089784 0.077485
0.090944 0.105928 0.059876
0.144472 0.114870 0.032776
0.180423 0.104707 0.025086
0.228611 0.084382 0.020935
0.281865 0.021424 0.015839
0.338506 0.000000 0.008759
0.396002 0.000000 0.000183
0.452277 0.000000 0.000000
0.504875 0.000000 0.000000
0.552575 0.000000 0.000000
0.594507 0.000000 0.000000
0.631586 0.000000 0.000000
0.664088 0.000000 0.000000
0.692012 0.000000 0.000000
0.718959 0.000000 0.000000
0.747097 0.000000 0.030976
0.771908 0.000000 0.068025
0.794217 0.000000 0.090791
0.814359 0.000000 0.113619
0.832914 0.000000 0.136904
0.850278 0.000000 0.162356
0.866880 0.000000 0.189853
0.883055 0.000000 0.221225
0.899046 0.000000 0.257511
0.914763 0.174716 0.299718
0.929595 0.258549 0.346654
0.929320 0.266728 0.347723
0.929870 0.249516 0.345556
0.083131 0.117250 0.100282
0.086671 0.118929 0.103365
0.090883 0.120668 0.106996
0.091402 0.118257 0.106996
0.082490 0.126436 0.093477
0.125978 0.146242 0.068147
0.197147 0.157046 0.024903
0.230198 0.141848 0.014557
0.276555 0.121736 0.007202
0.331334 0.089387 0.001007
0.387335 0.000000 0.000000
0.442817 0.000000 0.000000
0.495094 0.000000 0.000000
0.543267 0.000000 0.000000
0.586053 0.000000 0.000000
0.624018 0.000000 0.000000
0.657679 0.000000 0.000000
0.686641 0.000000 0.000000
0.717372 0.000000 0.000000
0.744991 0.000000 0.033051
0.769680 0.000000 0.068696
0.792355 0.000000 0.091981
0.846860 0.000000 0.164858
0.863890 0.000000 0.193362
0.879210 0.091981 0.223087
0.893523 0.167971 0.255131
0.907134 0.225162 0.289921
0.920409 0.277928 0.329137
0.927367 0.318578 0.354833
0.927733 0.309819 0.353552
0.928344 0.294163 0.351202
0.928954 0.277256 0.349096
0.117708 0.169924 0.143526
0.120760 0.170504 0.146212
0.125246 0.171572 0.149538
0.129641 0.170535 0.152499
0.127382 0.163363 0.148898
0.114168 0.182742 0.120150
0.179477 0.204715 0.082460
0.271061 0.217472 0.000000
0.304570 0.194644 0.000000
0.342504 0.173068 0.000000
0.399054 0.146609 0.000000
0.454139 0.110018 0.000000
0.505150 0.028748 0.000000
0.551476 0.000000 0.000000
0.592309 0.000000 0.000000
0.628260 0.000000 0.000000
0.660426 0.000000 0.000000
0.692226 0.000000 0.000000
0.724453 0.000000 0.002411
0.752773 0.000000 0.050965
0.779599 0.000000 0.082765
0.805081 0.000000 0.111330
0.828641 0.000000 0.141909
0.850065 0.000000 0.174258
0.869108 0.142245 0.208896
0.885771 0.201083 0.243931
0.900816 0.249943 0.280674
0.914946 0.295995 0.320195
0.926452 0.339757 0.358221
0.926421 0.340673 0.358465
0.927123 0.324529 0.355718
0.927825 0.307713 0.353216
0.153140 0.217624 0.183932
0.155795 0.217899 0.185702
0.159274 0.218051 0.188266
0.166690 0.218265 0.193545
0.163912 0.210086 0.189242
0.157778 0.202426 0.182101
0.147707 0.231083 0.141817
0.224399 0.252384 0.098787
0.324773 0.266789 0.000000
0.360876 0.243992 0.000000
0.393103 0.221134 0.000000
0.438544 0.198734 0.000000
0.489631 0.173495 0.000000
0.536645 0.143587 0.000000
0.578607 0.106203 0.000000
0.615564 0.042756 0.000000
0.650385 0.000000 0.000000
0.687129 0.000000 0.000000
0.717769 0.000000 0.000000
0.745266 0.000000 0.038331
0.771664 0.000000 0.077455
0.796994 0.000000 0.106325
0.820584 0.104768 0.136294
0.842161 0.158114 0.168246
0.861570 0.203098 0.201755
0.878691 0.243015 0.236332
0.894255 0.280674 0.272892
0.909026 0.319127 0.312200
0.923369 0.360449 0.356512
0.924895 0.373022 0.364202
0.925658 0.357061 0.361334
0.926452 0.340032 0.358465
0.195834 0.271153 0.228824
0.198001 0.270939 0.230350
0.200900 0.270634 0.232181
0.207126 0.269780 0.235966
0.208499 0.263951 0.235294
0.202609 0.252232 0.228153
0.184237 0.255467 0.210239
0.188876 0.283513 0.167330
0.274357 0.303349 0.120668
0.378698 0.318700 0.018494
0.417792 0.298741 0.000000
0.446693 0.274144 0.000000
0.475349 0.251011 0.000000
0.522911 0.230991 0.000000
0.565515 0.210239 0.000000
0.604639 0.190402 0.000000
0.646296 0.177920 0.000000
0.681086 0.166751 0.000000
0.711025 0.158328 0.000000
0.738308 0.156558 0.020752
0.764553 0.164492 0.071260
0.789944 0.181247 0.101930
0.813718 0.204654 0.132601
0.835447 0.232242 0.164645
0.855100 0.261112 0.198001
0.872587 0.289403 0.232792
0.888640 0.318791 0.269108
0.903807 0.350011 0.308415
0.918608 0.384741 0.352544
0.923156 0.406256 0.370825
0.924041 0.389929 0.367437
0.924895 0.373114 0.364141
0.244663 0.327306 0.276829
0.246220 0.326665 0.277714
0.248142 0.325811 0.278813
0.252964 0.324071 0.281407
0.258183 0.320378 0.283757
0.250919 0.308202 0.275853
0.242893 0.294224 0.266850
0.212924 0.310063 0.234836
0.234684 0.335576 0.193698
0.325170 0.353002 0.145235
0.428779 0.367834 0.067872
0.468299 0.350317 0.000000
0.493477 0.325933 0.000000
0.516960 0.302220 0.000000
0.554345 0.286107 0.000000
0.600610 0.276463 0.000000
0.641138 0.268040 0.000000
0.675837 0.260319 0.000000
0.705745 0.254429 0.000000
0.732876 0.251652 0.002441
0.758480 0.253941 0.065705
0.782895 0.261173 0.097871
0.805722 0.272984 0.127871
0.826871 0.288853 0.158297
0.846342 0.307439 0.190860
0.864195 0.328283 0.224521
0.881071 0.351690 0.261479
0.897307 0.378607 0.302068
0.913176 0.409583 0.347814
0.921294 0.438636 0.378241
0.922210 0.422950 0.374578
0.923156 0.406043 0.370855
0.293217 0.379095 0.322759
0.294743 0.378607 0.323613
0.296483 0.377783 0.324529
0.300053 0.375921 0.326360
0.305547 0.372992 0.329076
0.302434 0.364050 0.324651
0.294072 0.350774 0.315770
0.284611 0.335851 0.305699
0.250767 0.364660 0.263035
0.285649 0.387427 0.222324
0.376715 0.401953 0.173098
0.476295 0.415778 0.101869
0.516960 0.402258 0.000000
0.543542 0.383215 0.000000
0.567620 0.363806 0.000000
0.590570 0.345129 0.000000
0.630549 0.337041 0.000000
0.665248 0.329808 0.000000
0.695705 0.323491 0.000000
0.723323 0.319646 0.000000
0.749447 0.319646 0.050752
0.774411 0.323949 0.091157
0.797879 0.332280 0.123415
0.819669 0.343572 0.155398
0.839628 0.357305 0.188540
0.857877 0.372503 0.222690
0.875059 0.390265 0.259190
0.891600 0.411475 0.299748
0.907866 0.436805 0.344945
0.919707 0.464240 0.384649
0.920256 0.455390 0.382361
0.921294 0.438636 0.378241
0.345922 0.431464 0.371679
0.347265 0.431220 0.372412
0.348486 0.430243 0.372930
0.351171 0.428443 0.374060
0.355230 0.425483 0.376013
0.356909 0.419654 0.375433
0.348669 0.407752 0.366949
0.338933 0.393744 0.356847
0.320653 0.390448 0.340734
0.296849 0.417945 0.295232
0.341833 0.439979 0.255467
0.436591 0.457343 0.209659
0.573724 0.511711 0.175631
0.611353 0.502129 0.087251
0.630365 0.482856 0.021881
0.647578 0.462379 0.000000
0.663783 0.442054 0.000000
0.687861 0.429297 0.000000
0.715663 0.422492 0.000000
0.741543 0.418341 0.036469
0.766049 0.417029 0.089204
0.789029 0.418708 0.123690
0.810300 0.422217 0.155734
0.830167 0.428443 0.188388
0.848631 0.436683 0.222477
0.865873 0.446998 0.258091
0.882109 0.459358 0.295598
0.897704 0.474647 0.336156
0.912902 0.493690 0.380438
0.917113 0.503380 0.395331
0.918242 0.487068 0.390723
0.919310 0.470253 0.386236
0.417823 0.498543 0.438300
0.418280 0.497749 0.438361
0.418036 0.495857 0.437598
0.418494 0.492805 0.436957
0.419135 0.488045 0.436042
0.420020 0.481666 0.434760
0.412055 0.470283 0.426276
0.401953 0.457069 0.415900
0.396460 0.447608 0.409705
0.376471 0.462654 0.391150
0.373419 0.493629 0.353521
0.428870 0.516655 0.317784
0.519127 0.531823 0.274266
0.606897 0.548150 0.217227
0.642542 0.541100 0.135103
0.658930 0.523186 0.095857
0.672969 0.503532 0.064668
0.686427 0.484077 0.000000
0.701167 0.466957 0.000000
0.727810 0.461707 0.000000
0.753079 0.459052 0.075654
0.776944 0.458778 0.113375
0.798947 0.460365 0.146975
0.819577 0.463905 0.180270
0.838712 0.469306 0.214145
0.856596 0.476631 0.249729
0.873533 0.486152 0.287602
0.889891 0.498604 0.328313
0.905913 0.514702 0.373083
0.914946 0.533989 0.404913
0.916136 0.517479 0.399725
0.917296 0.500816 0.394781
0.464790 0.539483 0.482460
0.465705 0.539330 0.483070
0.466194 0.538476 0.483162
0.467536 0.537072 0.483619
0.469276 0.534447 0.484016
0.471504 0.530877 0.484504
0.470527 0.525078 0.482124
0.463661 0.515953 0.474800
0.456336 0.505882 0.466804
0.449012 0.495338 0.458839
0.423102 0.519249 0.430884
0.431556 0.543481 0.396674
0.484138 0.560418 0.361028
0.561364 0.570459 0.316228
0.636500 0.581201 0.261601
0.667170 0.573022 0.180484
0.680720 0.554681 0.139467
0.692439 0.536187 0.113191
0.704707 0.518517 0.083406
0.718166 0.502983 0.026215
0.739834 0.496193 0.058625
0.764889 0.495338 0.103212
0.788052 0.495918 0.139376
0.809689 0.498329 0.174289
0.829740 0.502159 0.209171
0.848447 0.507652 0.245457
0.866178 0.515068 0.283909
0.883268 0.525292 0.325139
0.900053 0.539178 0.370794
0.913237 0.557183 0.412665
0.914031 0.546807 0.409064
0.915221 0.530297 0.403693
0.521263 0.588006 0.537926
0.521904 0.587854 0.538445
0.521477 0.586694 0.537743
0.521263 0.584527 0.536889
0.520806 0.580957 0.535363
0.520348 0.576471 0.533593
0.520714 0.571466 0.532280
0.513512 0.562615 0.524285
0.506249 0.553216 0.516197
0.499001 0.543542 0.508110
0.488594 0.539147 0.498146
0.463691 0.564630 0.464576
0.481239 0.583001 0.435492
0.528252 0.594995 0.399603
0.593500 0.600671 0.355047
0.658717 0.607080 0.302678
0.685145 0.598199 0.225834
0.698817 0.581476 0.178378
0.709895 0.564996 0.153140
0.722011 0.549767 0.131014
0.735622 0.536858 0.106966
0.752377 0.527825 0.091646
0.776547 0.527794 0.130831
0.799283 0.529320 0.167178
0.820493 0.532311 0.203555
0.840421 0.537163 0.241703
0.859586 0.544305 0.282719
0.878264 0.554467 0.327520
0.896574 0.568200 0.377203
0.911040 0.586328 0.422980
0.911925 0.574853 0.418738
0.913176 0.558404 0.412970
0.564080 0.622736 0.581537
0.564691 0.622705 0.581994
0.564752 0.622126 0.581811
0.564630 0.620661 0.581292
0.564416 0.618189 0.580255
0.564294 0.615045 0.579187
0.564660 0.611566 0.578302
0.561578 0.605921 0.574090
0.555108 0.598383 0.566857
0.548150 0.590082 0.558984
0.539971 0.580133 0.549737
0.524163 0.583368 0.534447
0.505089 0.601617 0.499733
0.521202 0.613336 0.468879
0.560723 0.620081 0.431647
0.615930 0.622248 0.386755
0.674647 0.626673 0.337499
0.699092 0.618738 0.266270
0.714839 0.605219 0.214786
0.726864 0.592157 0.192996
0.740047 0.580377 0.176394
0.754574 0.570611 0.159060
0.770230 0.562707 0.142580
0.792142 0.562402 0.167056
0.814511 0.565393 0.205631
0.835599 0.569909 0.246281
0.855741 0.576410 0.289494
0.875212 0.585565 0.336187
0.894102 0.597772 0.387121
0.908934 0.613916 0.433295
0.909911 0.601648 0.428534
0.911131 0.585382 0.422553
0.594629 0.647700 0.613825
0.594659 0.647456 0.613764
0.594476 0.646723 0.613336
0.594202 0.645441 0.612726
0.593835 0.643427 0.611810
0.593652 0.640925 0.610773
0.593591 0.637964 0.609735
0.592889 0.634028 0.607843
0.587427 0.627710 0.601556
0.581415 0.620630 0.594537
0.574762 0.612665 0.586786
0.567041 0.603449 0.577874
0.549157 0.613428 0.559045
0.536767 0.627527 0.526848
0.552300 0.636072 0.496742
0.586481 0.640284 0.460304
0.634821 0.640986 0.417212
0.688960 0.644648 0.371832
0.712459 0.638178 0.305516
0.729976 0.627497 0.251041
0.742336 0.616632 0.231693
0.755581 0.606958 0.218051
0.770138 0.598962 0.204379
0.786099 0.593133 0.192813
0.805264 0.591516 0.200137
0.827634 0.595850 0.242527
0.848966 0.602136 0.287846
0.869627 0.610742 0.336858
0.889616 0.622187 0.389929
0.907164 0.637293 0.442298
0.907927 0.627375 0.438453
0.909148 0.611139 0.432288
0.620905 0.670588 0.642878
0.621637 0.670893 0.643519
0.645563 0.692775 0.670832
0.645228 0.691585 0.670130
0.644526 0.689662 0.668879
0.643549 0.686976 0.667140
0.642390 0.683680 0.665064
0.641138 0.679774 0.662684
0.637110 0.674098 0.657465
0.631739 0.667597 0.650874
0.625696 0.660243 0.643488
0.618738 0.651942 0.635004
0.609705 0.643214 0.624567
0.591241 0.654444 0.602167
0.583886 0.663294 0.574060
0.595697 0.668482 0.544732
0.623194 0.670710 0.509300
0.663478 0.670161 0.468421
0.712215 0.673213 0.426886
0.734340 0.667689 0.365209
0.752834 0.658900 0.307500
0.765164 0.649653 0.289830
0.778225 0.641566 0.278599
0.792538 0.635065 0.267796
0.807797 0.629847 0.258213
0.824338 0.626551 0.251865
0.844846 0.630091 0.292851
0.865141 0.636378 0.340459
0.885344 0.645960 0.393103
0.905241 0.659297 0.450446
0.906065 0.652003 0.448341
0.907256 0.635828 0.441871
0.648524 0.696223 0.674464
0.651484 0.698756 0.677790
0.654383 0.701106 0.681025
0.656825 0.702693 0.683619
0.658350 0.703090 0.685023
0.658595 0.701839 0.684810
0.658076 0.699550 0.683589
0.657130 0.696437 0.681727
0.655268 0.692378 0.678798
0.650446 0.686610 0.672908
0.645197 0.680262 0.666438
0.639338 0.673060 0.659144
0.632197 0.664454 0.650355
0.621302 0.661433 0.638636
0.604211 0.670954 0.614313
0.601434 0.677577 0.589563
0.613336 0.681544 0.561761
0.638697 0.683284 0.528801
0.675685 0.683101 0.490913
0.722469 0.686976 0.454994
0.744320 0.683162 0.399756
0.764675 0.677485 0.345525
0.777890 0.670253 0.329320
0.791440 0.664210 0.321996
0.806058 0.659419 0.314916
0.822049 0.656367 0.310369
0.839689 0.655482 0.310033
0.860044 0.659846 0.341344
0.881224 0.668971 0.395972
0.901946 0.681453 0.454871
0.904326 0.675746 0.457801
0.905486 0.659602 0.451392
0.664820 0.711543 0.693324
0.667353 0.713680 0.696162
0.669917 0.715785 0.699001
0.671931 0.717189 0.701228
0.673304 0.717556 0.702480
0.673610 0.716640 0.702419
0.673213 0.714748 0.701442
0.672480 0.712184 0.699977
0.671778 0.709255 0.698421
0.668177 0.704585 0.693843
0.663752 0.699214 0.688380
0.658686 0.693050 0.682094
0.652522 0.685695 0.674495
0.645411 0.677180 0.665675
0.632959 0.679042 0.652155
0.618067 0.687068 0.627497
0.618982 0.692164 0.605890
0.631281 0.695521 0.580560
0.655085 0.697230 0.550896
0.689204 0.697627 0.516808
0.733791 0.702754 0.485298
0.755581 0.700282 0.437934
0.777310 0.697078 0.386816
0.791073 0.691463 0.372595
0.804746 0.686854 0.368353
0.819821 0.683742 0.365270
0.836515 0.682673 0.365637
0.855222 0.684291 0.371954
0.876341 0.690089 0.395911
0.897826 0.701778 0.456123
0.902770 0.698787 0.467048
0.903868 0.682551 0.460548
0.680140 0.726101 0.711116
0.682399 0.728084 0.713680
0.684657 0.729976 0.716152
0.686488 0.731258 0.718105
0.687709 0.731655 0.719295
0.687953 0.730892 0.719265
0.687648 0.729335 0.718502
0.687068 0.727169 0.717281
0.686366 0.724575 0.715846
0.684382 0.721065 0.713008
0.680415 0.716274 0.708125
0.675929 0.710872 0.702571
0.670619 0.704524 0.696101
0.664668 0.697383 0.688655
0.657740 0.689113 0.680079
0.644739 0.695857 0.665248
0.634668 0.703517 0.643946
0.638788 0.709041 0.625971
0.652888 0.713466 0.605676
0.676600 0.716793 0.582574
0.708675 0.718990 0.556146
0.751461 0.726802 0.532036
0.773434 0.726040 0.494514
0.796017 0.725551 0.453223
0.811978 0.722835 0.441199
0.826963 0.721248 0.443549
0.843595 0.721553 0.448249
0.862181 0.724300 0.457832
0.882841 0.730098 0.474556
0.899474 0.739010 0.497475
0.901335 0.721279 0.475990
0.902342 0.705196 0.469642
0.702998 0.748013 0.737484
0.703914 0.748806 0.738521
0.704677 0.749355 0.739315
0.705196 0.749447 0.739803
0.705409 0.749081 0.739895
0.705257 0.748074 0.739406
0.704952 0.746731 0.738735
0.704646 0.745113 0.737942
0.704433 0.743374 0.737209
0.704219 0.741329 0.736324
0.701381 0.737697 0.732845
0.697902 0.733425 0.728573
0.693629 0.728267 0.723354
0.688624 0.722255 0.717189
0.682856 0.715358 0.710079
0.675257 0.710903 0.701503
0.663416 0.717983 0.686213
0.656733 0.724453 0.667567
0.661738 0.729366 0.651270
0.675257 0.733211 0.633112
0.696712 0.735988 0.612726
0.725338 0.737758 0.589044
0.764920 0.745571 0.567651
0.785367 0.744289 0.535241
0.807370 0.744747 0.499336
0.824643 0.743435 0.486793
0.840360 0.743893 0.493263
0.858091 0.746822 0.503899
0.877836 0.752590 0.520317
0.895689 0.762722 0.545312
0.898528 0.744961 0.509575
0.900969 0.727596 0.478462
0.716121 0.760800 0.752499
0.716976 0.761532 0.753445
0.717800 0.762142 0.754299
0.718349 0.762325 0.754818
0.718532 0.762051 0.754910
0.718349 0.761166 0.754482
0.717983 0.759884 0.753780
0.717617 0.758419 0.752987
0.717311 0.756832 0.752224
0.717067 0.755062 0.751461
0.715541 0.752377 0.749386
0.712551 0.748714 0.745785
0.708949 0.744381 0.741451
0.704860 0.739406 0.736446
0.700221 0.733791 0.730770
0.695033 0.727504 0.724392
0.687190 0.727749 0.716060
0.677058 0.734829 0.701106
0.674128 0.741054 0.685969
0.680415 0.746120 0.671962
0.694026 0.750393 0.656489
0.714626 0.753750 0.639277
0.741482 0.756161 0.619959
0.779507 0.765194 0.603296
0.794888 0.758846 0.566766
0.816587 0.760769 0.538262
0.835569 0.761471 0.526848
0.852171 0.764187 0.537743
0.870939 0.769558 0.553155
0.891691 0.777768 0.573968
0.894835 0.767941 0.555505
0.897459 0.751736 0.523369
0.734615 0.778683 0.773190
0.735561 0.779507 0.774197
0.736110 0.779934 0.774777
0.736294 0.779843 0.774899
0.736141 0.779232 0.774563
0.735683 0.778256 0.773922
0.735012 0.776852 0.772976
0.734218 0.775174 0.771817
0.733425 0.773281 0.770596
0.732631 0.771267 0.769345
0.731563 0.768826 0.767697
0.728420 0.765164 0.764065
0.724941 0.761013 0.759945
0.720882 0.756283 0.755154
0.716182 0.750729 0.749538
0.710964 0.744594 0.743282
0.705470 0.738033 0.736599
0.696590 0.741451 0.727077
0.687465 0.748226 0.712093
0.687831 0.754208 0.700221
0.695277 0.759609 0.688289
0.708980 0.764157 0.674952
0.728450 0.767514 0.659480
0.753231 0.769589 0.641291
0.788479 0.777646 0.625574
0.807767 0.777066 0.603784
0.829343 0.780545 0.583368
0.849577 0.783017 0.573297
0.867002 0.787686 0.587060
0.886595 0.795193 0.605646
0.891569 0.788540 0.594476
0.893889 0.774014 0.567163
0.745296 0.789029 0.784878
0.746181 0.789761 0.785794
0.746761 0.790188 0.786343
0.746975 0.790188 0.786496
0.746883 0.789700 0.786282
0.746548 0.788907 0.785824
0.746151 0.787930 0.785183
0.745663 0.786709 0.784451
0.745266 0.785397 0.783749
0.744991 0.784024 0.783108
0.744625 0.782437 0.782345
0.742977 0.780026 0.780362
0.740322 0.776913 0.777310
0.737209 0.773220 0.773709
0.733608 0.769009 0.769528
0.729580 0.764218 0.764828
0.725307 0.759152 0.759792
0.720699 0.754879 0.754543
0.712795 0.761196 0.745663
0.706203 0.768093 0.732876
0.708614 0.773922 0.723629
0.716396 0.779110 0.713497
0.729366 0.783413 0.701778
0.747372 0.786679 0.688319
0.770260 0.788815 0.672358
0.803433 0.796658 0.659297
0.823239 0.797513 0.642542
0.845274 0.803128 0.630365
0.867308 0.808591 0.625696
0.886107 0.815854 0.642695
0.888853 0.806790 0.627222
0.890776 0.793759 0.604028
0.757809 0.800870 0.798123
0.758419 0.801358 0.798703
0.758663 0.801480 0.798947
0.758602 0.801266 0.798825
0.758328 0.800656 0.798428
0.757870 0.799832 0.797848
0.757351 0.798856 0.797177
0.756893 0.797757 0.796506
0.756588 0.796689 0.795956
0.756466 0.795682 0.795590
0.756405 0.794522 0.795163
0.756100 0.793210 0.794583
0.753994 0.790799 0.792294
0.751583 0.787930 0.789578
0.748623 0.784543 0.786282
0.745296 0.780667 0.782528
0.741726 0.776516 0.778470
0.738247 0.772305 0.774411
0.733608 0.771969 0.769772
0.727077 0.778500 0.761501
0.723018 0.785153 0.751095
0.726436 0.790829 0.743252
0.734340 0.795804 0.734401
0.746822 0.799985 0.724239
0.763821 0.803220 0.712398
0.785367 0.805447 0.698604
0.816861 0.813260 0.688106
0.837034 0.815305 0.675380
0.859190 0.822446 0.669245
0.882414 0.830381 0.669001
0.886442 0.823056 0.655543
0.888182 0.811276 0.635065
0.768276 0.810575 0.808865
0.768643 0.810880 0.809232
0.768887 0.811002 0.809415
0.768948 0.810880 0.809445
0.768948 0.810666 0.809415
0.769131 0.810452 0.809476
0.769650 0.810513 0.809873
0.770443 0.810727 0.810575
0.771603 0.811093 0.811521
0.772976 0.811612 0.812711
0.774472 0.812161 0.813962
0.775967 0.812619 0.815213
0.775967 0.812131 0.815091
0.775021 0.810941 0.814115
0.773587 0.809232 0.812589
0.771572 0.806882 0.810422
0.769253 0.804288 0.808011
0.766995 0.801602 0.805539
0.765042 0.799191 0.803433
0.760983 0.802396 0.799802
0.756008 0.808927 0.792874
0.754330 0.815213 0.785336
0.758328 0.820554 0.779171
0.766171 0.825315 0.772213
0.777951 0.829343 0.764157
0.793820 0.832639 0.754910
0.813870 0.835264 0.744411
0.843015 0.842985 0.737331
0.863127 0.846464 0.730953
0.876249 0.847562 0.719936
0.882750 0.837613 0.686580
0.885863 0.826688 0.661921
0.785977 0.826474 0.826383
0.786221 0.826627 0.826566
0.786221 0.826596 0.826596
0.786130 0.826383 0.826474
0.785946 0.826017 0.826261
0.785855 0.825681 0.826078
0.785946 0.825376 0.826078
0.786252 0.825223 0.826230
0.786740 0.825193 0.826596
0.787472 0.825254 0.827146
0.788296 0.825254 0.827756
0.789212 0.825315 0.828428
0.789609 0.825010 0.828641
0.788571 0.823850 0.827573
0.787228 0.822385 0.826261
0.785763 0.820706 0.824765
