其他预设/【240】TEZZA调色预设合集24款/1.LUT预设（视频调色-PR-AE-PS-FCPX-达芬奇用）/Tezza自然__-3.cube
# Created by Adobe Lightroom plugin Export LUT (1.17.0)
# www.johnrellis.com/lightroom/exportlut.htm
# Preset: Tezza自然[素锦印象]-3
# Color profile: /Library/Application Support/Adobe/Color/Profiles/Recommended/AdobeRGB1998.icc
LUT_3D_SIZE 5
DOMAIN_MIN 0.000000 0.000000 0.000000
DOMAIN_MAX 0.903226 0.903226 0.903226
0.011719 0.008331 0.007660
0.253086 0.003754 0.008698
0.648219 0.063478 0.000000
0.897337 0.350439 0.040803
1.000000 0.567346 0.302312
0.000000 0.234897 0.093935
0.294285 0.311864 0.000000
0.709010 0.299290 0.000000
0.900389 0.420294 0.000000
1.000000 0.608209 0.317937
0.000000 0.636042 0.325658
0.287907 0.624109 0.348547
0.763272 0.743709 0.319707
0.931182 0.661585 0.190158
1.000000 0.700771 0.318212
0.257115 0.858427 0.554101
0.445014 0.850980 0.579400
0.658839 0.827207 0.607172
0.903441 0.895262 0.617029
1.000000 0.872313 0.600793
0.577752 0.970855 0.745846
0.653712 0.963989 0.763516
0.789120 0.945586 0.803372
0.862852 0.940154 0.818631
0.974426 0.973907 0.831662
0.000000 0.015564 0.143130
0.275029 0.000000 0.163821
0.594781 0.160067 0.178592
0.849271 0.340063 0.214908
1.000000 0.557244 0.363378
0.000000 0.227573 0.202304
0.283238 0.277623 0.223514
0.656489 0.303166 0.196231
0.862852 0.410101 0.219699
1.000000 0.589624 0.367773
0.000000 0.619989 0.385016
0.319615 0.613001 0.411902
0.727108 0.702602 0.406806
0.902159 0.633021 0.287205
1.000000 0.698451 0.397406
0.288060 0.854002 0.583673
0.465431 0.846555 0.607568
0.671687 0.824826 0.636408
0.897856 0.890166 0.655543
1.000000 0.869749 0.629755
0.567132 0.970764 0.752255
0.645258 0.963806 0.768612
0.797391 0.950256 0.817350
0.868772 0.942748 0.830961
0.974701 0.974426 0.845335
0.000000 0.038636 0.440467
0.000000 0.114229 0.451575
0.700496 0.000000 0.456062
0.833768 0.247593 0.370336
0.970825 0.587152 0.546258
0.000000 0.167910 0.448981
0.182254 0.254093 0.485969
0.683986 0.184237 0.461280
0.801328 0.428168 0.446479
0.975555 0.612940 0.550561
0.000000 0.613367 0.557183
0.306279 0.624994 0.568475
0.709895 0.673762 0.608423
0.861906 0.625483 0.520134
0.986694 0.701839 0.568383
0.282872 0.849180 0.660090
0.453407 0.838071 0.668177
0.705592 0.824399 0.713710
0.888212 0.880491 0.741329
0.990906 0.854673 0.680690
0.538170 0.967987 0.777066
0.615717 0.963317 0.788937
0.768551 0.951904 0.821622
0.868070 0.941253 0.845731
0.971893 0.971374 0.865171
0.000000 0.068971 0.701167
0.000000 0.123140 0.708980
0.532372 0.168643 0.722225
0.895232 0.000000 0.663783
0.999542 0.392950 0.608759
0.000000 0.207431 0.698756
0.000000 0.239841 0.708614
0.555230 0.368078 0.726375
0.882322 0.171939 0.660883
0.988281 0.463752 0.616999
0.000000 0.502892 0.707576
0.000000 0.507073 0.706783
0.626429 0.605585 0.737453
0.839170 0.563958 0.674617
0.950896 0.681697 0.698787
0.133730 0.840452 0.769223
0.388800 0.835142 0.769650
0.693690 0.833371 0.787900
0.872984 0.860990 0.818051
0.968994 0.824765 0.754757
0.511315 0.969238 0.831907
0.587121 0.964294 0.836820
0.741207 0.954437 0.853483
0.870756 0.946288 0.879850
0.970001 0.968902 0.899718
0.000000 0.071839 0.878904
0.000000 0.116396 0.879332
0.336675 0.314214 0.881498
0.824643 0.151553 0.876646
1.000000 0.000000 0.819760
0.000000 0.166781 0.872007
0.000000 0.195010 0.873533
0.392706 0.381323 0.876951
0.813779 0.333593 0.872404
1.000000 0.256382 0.820462
0.000000 0.302098 0.847196
0.000000 0.344427 0.852384
0.443153 0.494240 0.866514
0.791592 0.619013 0.871336
0.988952 0.549371 0.835355
0.000000 0.761166 0.876890
0.000000 0.752895 0.874235
0.350927 0.721004 0.868925
0.790829 0.786282 0.883940
0.961913 0.780728 0.859312
0.014740 0.980163 0.905486
0.325811 0.974395 0.904753
0.628229 0.959625 0.907042
0.839384 0.947753 0.916442
0.961334 0.958709 0.941314
