其他预设/【240】TEZZA调色预设合集24款/1.LUT预设（视频调色-PR-AE-PS-FCPX-达芬奇用）/Tezza万事达-Cole01JPG.cube
# Created by Adobe Lightroom plugin Export LUT (1.17.0)
# www.johnrellis.com/lightroom/exportlut.htm
# Preset: Tezza万事达-Cole01JPG
# Color profile: /Library/Application Support/Adobe/Color/Profiles/Recommended/AdobeRGB1998.icc
LUT_3D_SIZE 32
0.064515 0.048249 0.018891
0.069642 0.049134 0.019501
0.076448 0.050965 0.019837
0.091218 0.054902 0.020172
0.108736 0.058991 0.022004
0.127535 0.060670 0.023316
0.148928 0.061189 0.026032
0.173190 0.060731 0.027619
0.200320 0.059358 0.027710
0.230259 0.053834 0.026154
0.262394 0.045197 0.025757
0.296269 0.033783 0.022919
0.331334 0.022705 0.019654
0.367712 0.017853 0.015137
0.404639 0.020417 0.010498
0.441993 0.029877 0.005768
0.479408 0.052338 0.003662
0.516533 0.071473 0.004089
0.552819 0.089937 0.007416
0.589654 0.110964 0.015961
0.627344 0.133272 0.031250
0.665126 0.158328 0.049531
0.701961 0.184390 0.067201
0.737514 0.212528 0.082307
0.771847 0.241337 0.099855
0.804807 0.271855 0.118868
0.836332 0.303319 0.139651
0.866209 0.336248 0.163241
0.894347 0.370428 0.190005
0.920623 0.405829 0.219333
0.945006 0.442573 0.253391
0.967529 0.480873 0.291752
0.066255 0.056458 0.020020
0.071717 0.057160 0.020630
0.078279 0.058808 0.020966
0.093080 0.060822 0.021302
0.110018 0.062776 0.023224
0.128786 0.063905 0.025696
0.150179 0.064820 0.027222
0.174258 0.064363 0.027710
0.201328 0.062898 0.027802
0.231083 0.060090 0.027222
0.263218 0.052979 0.025727
0.296971 0.044800 0.023865
0.332128 0.036622 0.020294
0.368475 0.031586 0.015747
0.405219 0.034546 0.011170
0.442634 0.046937 0.007172
0.479866 0.062776 0.006104
0.516930 0.077882 0.005371
0.553246 0.095674 0.009461
0.589990 0.115755 0.017945
0.627466 0.137728 0.030976
0.665278 0.161654 0.051881
0.702083 0.187778 0.067781
0.737636 0.215183 0.083711
0.771878 0.244022 0.100893
0.804868 0.274174 0.119326
0.836332 0.305455 0.140658
0.866209 0.338231 0.164584
0.894316 0.372229 0.190555
0.920592 0.407477 0.220737
0.944945 0.444038 0.254124
0.967437 0.482155 0.292302
0.068513 0.064057 0.021759
0.074189 0.064820 0.022248
0.080964 0.065187 0.022675
0.094575 0.066743 0.024201
0.111818 0.067872 0.026184
0.130556 0.068818 0.027588
0.151675 0.069215 0.029175
0.175662 0.068727 0.029664
0.202670 0.067323 0.029725
0.232303 0.065156 0.029053
0.264439 0.061494 0.026246
0.298192 0.056916 0.024262
0.333165 0.051698 0.020569
0.369390 0.050599 0.016846
0.406073 0.054475 0.012055
0.443275 0.062531 0.007904
0.480476 0.073060 0.007630
0.517479 0.086397 0.007874
0.553704 0.103059 0.011810
0.590417 0.121492 0.020356
0.627832 0.143130 0.034119
0.665583 0.166445 0.054108
0.702358 0.191836 0.070008
0.737758 0.218814 0.085145
0.772091 0.247379 0.102205
0.804929 0.277317 0.121340
0.836362 0.308293 0.142153
0.866239 0.340887 0.165805
0.894347 0.374640 0.192142
0.920562 0.409705 0.221683
0.944915 0.446082 0.255314
0.967407 0.484047 0.293431
0.074311 0.077058 0.025788
0.079500 0.077638 0.026276
0.086122 0.077516 0.027863
0.099336 0.078004 0.028473
0.115816 0.078248 0.030640
0.134188 0.078218 0.031098
0.155276 0.078370 0.031586
0.178988 0.078187 0.031922
0.205844 0.077150 0.031861
0.235111 0.075624 0.029969
0.266880 0.073732 0.027955
0.300603 0.072297 0.025422
0.335332 0.071138 0.022522
0.371252 0.072236 0.018402
0.407874 0.074891 0.014374
0.444862 0.080995 0.012055
0.481727 0.090150 0.011566
0.518547 0.101991 0.013611
0.554681 0.116915 0.017151
0.591211 0.133974 0.026490
0.628656 0.153811 0.042176
0.666163 0.176150 0.060212
0.702815 0.200931 0.073823
0.738186 0.227146 0.088655
0.772305 0.254734 0.104829
0.805173 0.284031 0.123995
0.836515 0.314397 0.144656
0.866300 0.346563 0.168765
0.894316 0.379858 0.195041
0.920500 0.414405 0.224338
0.944793 0.450446 0.258152
0.967254 0.488075 0.296239
0.081453 0.091768 0.032715
0.085786 0.091981 0.033295
0.091829 0.092500 0.033631
0.103853 0.093233 0.035248
0.121309 0.093355 0.036133
0.140230 0.092958 0.036469
0.160678 0.092103 0.036103
0.184146 0.091737 0.036378
0.210697 0.091279 0.034974
0.239658 0.090974 0.033722
0.271031 0.090547 0.031281
0.303990 0.090791 0.028412
0.338598 0.091432 0.024872
0.374121 0.093751 0.021363
0.410437 0.097322 0.018952
0.446998 0.103334 0.017273
0.483680 0.111696 0.017273
0.520256 0.122438 0.020966
0.556176 0.135500 0.028504
0.592523 0.151492 0.039246
0.629664 0.169894 0.053407
0.667109 0.190982 0.066773
0.703456 0.214450 0.078981
0.738766 0.239322 0.093538
0.772702 0.266026 0.110506
0.805447 0.294285 0.128817
0.836667 0.324071 0.149660
0.866331 0.355200 0.173098
0.894285 0.387884 0.199313
0.920409 0.421881 0.228824
0.944610 0.457374 0.262547
0.967010 0.494423 0.300725
0.088441 0.108644 0.038880
0.092409 0.109071 0.038300
0.097353 0.109560 0.038636
0.108339 0.110475 0.039094
0.125368 0.111666 0.040558
0.146395 0.112093 0.042237
0.168978 0.111543 0.041199
0.191501 0.110262 0.040742
0.216648 0.109529 0.039551
0.245365 0.109773 0.037934
0.276158 0.110719 0.034882
0.308873 0.112062 0.032441
0.342779 0.114229 0.029328
0.377935 0.117006 0.027497
0.413703 0.121584 0.025422
0.449928 0.127626 0.025269
0.486458 0.135622 0.026612
0.522393 0.145602 0.032074
0.558129 0.157534 0.040040
0.594202 0.172152 0.051789
0.631128 0.189487 0.063752
0.668330 0.209323 0.074372
0.704402 0.231113 0.086122
0.739406 0.255131 0.100496
0.773220 0.280491 0.116609
0.805753 0.307683 0.134890
0.836881 0.336400 0.155276
0.866392 0.366674 0.178988
0.894255 0.398352 0.204746
0.920256 0.431586 0.234470
0.944396 0.466438 0.268315
0.966674 0.502800 0.306249
0.094820 0.129061 0.043153
0.098726 0.129366 0.043641
0.103639 0.129732 0.043946
0.114076 0.131014 0.044129
0.129732 0.132662 0.044251
0.151156 0.134279 0.045075
0.175601 0.134707 0.046204
0.201175 0.134676 0.045289
0.225925 0.133303 0.043183
0.252659 0.132601 0.042237
0.282597 0.133730 0.040070
0.314580 0.135866 0.038117
0.348028 0.138735 0.036469
0.382605 0.142336 0.034943
0.417853 0.147311 0.034272
0.453529 0.153536 0.036652
0.489479 0.161349 0.040620
0.525109 0.170443 0.048310
0.560357 0.182010 0.056031
0.596338 0.195377 0.064454
0.633021 0.211521 0.072297
0.669795 0.230045 0.082399
0.705501 0.250828 0.094057
0.740291 0.273198 0.108217
0.773953 0.297581 0.124483
0.806180 0.323644 0.142153
0.837095 0.351354 0.162875
0.866484 0.380682 0.186313
0.894163 0.411261 0.212070
0.920043 0.443671 0.241825
0.944091 0.477455 0.275242
0.966247 0.513176 0.313848
0.102327 0.152682 0.047517
0.105928 0.153109 0.046998
0.110353 0.153719 0.047913
0.120577 0.154879 0.047944
0.135866 0.156741 0.047700
0.156191 0.158877 0.047974
0.181369 0.161044 0.048493
0.208316 0.161837 0.049378
0.236820 0.162051 0.048463
0.263096 0.161105 0.048524
0.291081 0.161013 0.047578
0.321111 0.161776 0.046937
0.353887 0.165103 0.046784
0.387701 0.169223 0.047547
0.422522 0.174319 0.048920
0.457801 0.180575 0.051667
0.493080 0.188205 0.057404
0.528344 0.197055 0.061738
0.563134 0.207858 0.067872
0.598688 0.220615 0.074739
0.635096 0.235813 0.083314
0.671504 0.253330 0.092592
0.706874 0.272831 0.104158
0.741360 0.294102 0.117525
0.774624 0.317205 0.133425
0.806668 0.342260 0.151644
0.837369 0.368505 0.171786
0.866575 0.396612 0.194491
0.894072 0.426337 0.220951
0.919799 0.457618 0.250309
0.943694 0.490639 0.284123
0.965728 0.525383 0.322362
0.111177 0.180117 0.050752
0.114412 0.180606 0.050141
0.119173 0.181186 0.050965
0.128664 0.182498 0.051575
0.143862 0.184298 0.051087
0.162905 0.186709 0.051820
0.187015 0.189212 0.052705
0.215366 0.192020 0.052644
0.244175 0.192721 0.055970
0.274540 0.193362 0.057038
0.302068 0.192813 0.057710
0.331029 0.193149 0.058015
0.361028 0.194308 0.059113
0.393652 0.197635 0.060060
0.427680 0.202792 0.061860
0.462348 0.209049 0.064759
0.497230 0.216342 0.067994
0.531884 0.224979 0.072786
0.566217 0.235050 0.079042
0.601343 0.247288 0.086030
0.637476 0.261753 0.094423
0.673335 0.278386 0.103273
0.708400 0.296727 0.114839
0.742489 0.316869 0.128420
0.775448 0.338933 0.144015
0.807218 0.362554 0.161776
0.837705 0.387915 0.181796
0.866606 0.414771 0.205112
0.893950 0.443244 0.230564
0.919524 0.473548 0.260472
0.943206 0.505425 0.294194
0.965118 0.539300 0.332616
0.121187 0.210941 0.056092
0.124331 0.211307 0.056306
0.128847 0.211978 0.056153
0.138613 0.212955 0.056703
0.152834 0.214878 0.057527
0.171695 0.217258 0.058625
0.194430 0.219883 0.059358
0.221653 0.222843 0.059968
0.251957 0.225895 0.061311
0.282322 0.226780 0.064607
0.314000 0.227573 0.066835
0.342443 0.227451 0.067384
0.371862 0.228153 0.069245
0.402014 0.229618 0.070863
0.433295 0.232242 0.072602
0.467414 0.238437 0.076387
0.501640 0.245609 0.079896
0.535729 0.254002 0.084565
0.569543 0.263584 0.091249
0.604211 0.275212 0.097780
0.639979 0.289128 0.105959
0.675380 0.304784 0.115267
0.710048 0.322179 0.126864
0.743618 0.341375 0.139925
0.776303 0.362219 0.155673
0.807797 0.384710 0.173190
0.837980 0.408728 0.193118
0.866697 0.434516 0.216098
0.893767 0.461952 0.242008
0.919127 0.491096 0.271946
0.942657 0.521843 0.305241
0.964416 0.554650 0.343877
0.132631 0.243992 0.062745
0.135439 0.244297 0.062867
0.140139 0.244816 0.062745
0.149294 0.245975 0.063325
0.163546 0.247654 0.064057
0.181735 0.249943 0.064912
0.203647 0.252720 0.066468
0.229221 0.255680 0.067628
0.258732 0.258885 0.069734
0.290806 0.262242 0.072206
0.321935 0.263005 0.076539
0.354681 0.264408 0.079927
0.383581 0.264652 0.081727
0.413245 0.265751 0.083894
0.443549 0.267796 0.085725
0.473945 0.270390 0.088838
0.506126 0.275731 0.093111
0.539666 0.283696 0.097871
0.573144 0.292790 0.104128
0.607446 0.303838 0.110658
0.642664 0.317296 0.118776
0.677577 0.332250 0.128603
0.711696 0.348821 0.139773
0.744961 0.367041 0.153048
0.777218 0.386786 0.168032
0.808347 0.408270 0.186069
0.838224 0.431159 0.206119
0.866697 0.455787 0.228702
0.893584 0.481941 0.254582
0.918669 0.509972 0.284367
0.942016 0.539666 0.318212
0.963622 0.571374 0.356634
0.145296 0.278904 0.071351
0.148165 0.279301 0.071382
0.152377 0.279728 0.071656
0.161318 0.280888 0.071992
0.175113 0.282414 0.073243
0.192630 0.284520 0.074495
0.213901 0.287327 0.076326
0.238193 0.290318 0.078126
0.266880 0.293553 0.080629
0.297887 0.296941 0.083162
0.331121 0.300725 0.086763
0.362371 0.301183 0.091920
0.396033 0.303197 0.097017
0.425177 0.303777 0.099062
0.454688 0.305058 0.101137
0.484443 0.307286 0.104372
0.514214 0.310185 0.108034
0.543999 0.314061 0.112001
0.576776 0.322667 0.117678
0.610742 0.333532 0.124819
0.645472 0.346349 0.132113
0.679805 0.360601 0.142367
0.713405 0.376410 0.153689
0.746273 0.393713 0.166751
0.778225 0.412512 0.182101
0.808957 0.432807 0.199680
0.838499 0.454566 0.220035
0.866667 0.478065 0.242588
0.893248 0.503105 0.268589
0.918151 0.530022 0.298314
0.941283 0.558648 0.332128
0.962676 0.589288 0.370794
0.158755 0.315373 0.082765
0.161654 0.315740 0.082765
0.165713 0.316228 0.083223
0.174472 0.317205 0.083833
0.187472 0.318669 0.085084
0.204623 0.320806 0.086519
0.225101 0.323369 0.088228
0.248722 0.326085 0.090486
0.275578 0.329595 0.093446
0.305852 0.332921 0.096193
0.338140 0.336553 0.100343
0.372198 0.340551 0.104219
0.403540 0.341131 0.110933
0.437598 0.343328 0.116396
0.466529 0.344060 0.118593
0.495705 0.345678 0.121523
0.524681 0.348058 0.124636
0.553460 0.351263 0.128634
0.582513 0.355383 0.132967
0.614221 0.363500 0.139071
0.648371 0.375830 0.147250
0.682063 0.389532 0.156771
0.715175 0.404517 0.167941
0.747585 0.420966 0.181399
0.779080 0.438788 0.196994
0.809506 0.458015 0.214450
0.838743 0.478798 0.234318
0.866606 0.501183 0.257389
0.892943 0.525170 0.283330
0.917540 0.550988 0.313390
0.940459 0.578515 0.347204
0.961669 0.607965 0.386084
0.173098 0.353033 0.097230
0.175906 0.353307 0.097230
0.179721 0.353796 0.097597
0.188052 0.354833 0.097963
0.200870 0.356207 0.099184
0.217441 0.358038 0.101076
0.237491 0.360418 0.102876
0.260227 0.363195 0.105257
0.285710 0.366430 0.108553
0.314641 0.369787 0.111604
0.346136 0.373388 0.115358
0.379370 0.377417 0.119509
0.413611 0.381476 0.124697
0.444739 0.381933 0.131563
0.478401 0.384100 0.137636
0.507408 0.385473 0.140658
0.535668 0.387091 0.143587
0.563867 0.389715 0.147463
0.592065 0.393225 0.151553
0.621546 0.398749 0.156710
0.651453 0.406012 0.162478
0.684382 0.418647 0.172213
0.717006 0.433021 0.183841
0.748928 0.448493 0.197177
0.779965 0.465461 0.212345
0.810025 0.483772 0.230228
0.838926 0.503563 0.249943
0.866514 0.524895 0.273228
0.892515 0.547936 0.299474
0.916869 0.572534 0.329198
0.939544 0.598993 0.363287
0.960540 0.627314 0.402228
0.187991 0.391485 0.112886
0.190463 0.391852 0.113283
0.194217 0.392248 0.113558
0.202426 0.393103 0.114473
0.214694 0.394415 0.115419
0.230869 0.396338 0.116854
0.249882 0.398474 0.119142
0.272190 0.401160 0.121614
0.297032 0.404028 0.124544
0.324132 0.407385 0.127962
0.354681 0.410803 0.131807
0.387030 0.414588 0.136294
0.420478 0.418616 0.141451
0.455024 0.423011 0.146456
0.485542 0.423102 0.154482
0.518608 0.425299 0.161257
0.547082 0.427070 0.164370
0.574456 0.428962 0.167819
0.602167 0.431952 0.171450
0.630976 0.436927 0.176699
0.659907 0.443183 0.182406
0.688838 0.450813 0.189670
0.718746 0.461585 0.200076
0.750240 0.476295 0.213474
0.780880 0.492287 0.228733
0.810483 0.509819 0.246647
0.839048 0.528649 0.266880
0.866300 0.549065 0.289830
0.891997 0.571038 0.316289
0.916106 0.594690 0.346227
0.938567 0.620020 0.380407
0.959350 0.647181 0.419409
0.203250 0.430610 0.130678
0.205997 0.430884 0.130983
0.209201 0.431220 0.131258
0.217075 0.432013 0.132204
0.229068 0.433143 0.132967
0.244450 0.434943 0.134646
0.263005 0.436988 0.136660
0.284611 0.439368 0.139559
0.308659 0.442115 0.142763
0.335149 0.445350 0.145907
0.363989 0.448615 0.149935
0.395422 0.452186 0.154482
0.428046 0.456062 0.159274
0.461738 0.460121 0.164858
0.495796 0.464576 0.170687
0.525475 0.464637 0.178805
0.557580 0.466651 0.186099
0.585534 0.468940 0.189487
0.612787 0.471412 0.193149
0.640558 0.475502 0.198367
0.668574 0.480873 0.204318
0.696468 0.487617 0.211795
0.724392 0.495552 0.220432
0.751980 0.504753 0.230777
0.781704 0.519219 0.245792
0.810971 0.535943 0.263706
0.839139 0.553857 0.283909
0.866026 0.573419 0.307042
0.891447 0.594415 0.333837
0.915251 0.616999 0.363806
0.937438 0.641291 0.398535
0.958038 0.667384 0.437812
0.218997 0.469703 0.150118
0.221286 0.470008 0.150088
0.224643 0.470344 0.150271
0.232242 0.471138 0.150881
0.243565 0.472175 0.152255
0.258518 0.473701 0.153994
0.276738 0.475624 0.156191
0.297490 0.477790 0.158663
0.320836 0.480385 0.161624
0.346532 0.483192 0.164889
0.374121 0.486427 0.169223
0.404303 0.489754 0.173312
0.436042 0.493385 0.178439
0.468757 0.497078 0.183841
0.502159 0.501244 0.189395
0.535485 0.505791 0.195773
0.564111 0.505608 0.204837
0.595422 0.507713 0.213107
0.623468 0.510979 0.216709
0.650263 0.514183 0.221805
0.677302 0.518547 0.227817
0.704311 0.524346 0.235142
0.731258 0.531273 0.243687
0.758083 0.539757 0.254429
0.784482 0.549371 0.266423
0.811368 0.561852 0.281621
0.839170 0.579034 0.301884
0.865721 0.597711 0.325170
0.890806 0.617792 0.352148
0.914366 0.639368 0.382483
0.936339 0.662562 0.416968
0.956695 0.687587 0.456489
0.235080 0.508690 0.170352
0.237339 0.508812 0.170596
0.240543 0.509270 0.170993
0.247868 0.509911 0.171511
0.258946 0.510887 0.172671
0.273136 0.512291 0.174502
0.290715 0.514000 0.176913
0.310735 0.516014 0.179110
0.333593 0.518395 0.181888
0.358648 0.520989 0.185519
0.385382 0.524041 0.189578
0.413855 0.527276 0.193912
0.444984 0.530632 0.198642
0.477089 0.534417 0.204105
0.509575 0.538445 0.209903
0.542321 0.542779 0.216312
0.575189 0.547601 0.223392
0.603052 0.547723 0.232578
0.633082 0.549218 0.241672
0.660060 0.552605 0.246616
0.686061 0.556176 0.252873
0.712184 0.560906 0.259983
0.738247 0.567071 0.269108
0.764126 0.574456 0.279454
0.789700 0.583276 0.291447
0.814969 0.593500 0.305425
0.839658 0.605127 0.321691
0.865324 0.621851 0.344335
0.890135 0.640925 0.370916
0.913359 0.661585 0.401678
0.935119 0.683772 0.436286
0.955322 0.707637 0.475685
0.251957 0.548241 0.192599
0.254063 0.548486 0.192874
0.257237 0.548699 0.192935
0.264042 0.549432 0.193576
0.274846 0.550378 0.194736
0.288884 0.551659 0.196628
0.305821 0.553307 0.198795
0.325566 0.555138 0.200992
0.347662 0.557488 0.204288
0.371893 0.560021 0.207767
0.398108 0.562768 0.211246
0.425849 0.565972 0.215671
0.455482 0.569390 0.220981
0.486793 0.572900 0.226261
0.518700 0.576837 0.232242
0.550744 0.580865 0.238773
0.582879 0.585138 0.245396
0.614740 0.589776 0.253178
0.641230 0.589654 0.263188
0.669154 0.590051 0.273198
0.694911 0.593286 0.279606
0.720058 0.597223 0.286687
0.745266 0.602350 0.295384
0.770199 0.608881 0.305760
0.794919 0.616815 0.318273
0.819242 0.626001 0.332403
0.843198 0.636652 0.348516
0.866484 0.648981 0.367559
0.889403 0.663752 0.390326
0.912444 0.683467 0.420905
0.933898 0.704646 0.456062
0.953887 0.727443 0.495674
0.269932 0.589044 0.216373
0.272038 0.589227 0.216739
0.274815 0.589563 0.216922
0.281498 0.590173 0.217777
0.291875 0.591058 0.218601
0.305608 0.592248 0.220401
0.322057 0.593713 0.222538
0.341375 0.595483 0.224979
0.362951 0.597559 0.228031
0.386603 0.599908 0.231693
0.412299 0.602502 0.235721
0.439216 0.605249 0.240085
0.467445 0.608362 0.244755
0.497688 0.611505 0.250736
0.528710 0.614893 0.256443
0.559930 0.618463 0.263157
0.591058 0.622309 0.270146
0.622126 0.626459 0.277806
0.652735 0.630884 0.286290
0.677760 0.630213 0.296880
0.703548 0.629786 0.307591
0.727901 0.632715 0.314794
0.752132 0.637049 0.323735
0.776181 0.642725 0.334264
0.800076 0.649622 0.346136
0.823606 0.657832 0.360235
0.846647 0.667506 0.376684
0.869078 0.678798 0.395727
0.890867 0.691707 0.417517
0.911833 0.706233 0.442969
0.932677 0.725093 0.475929
0.952483 0.746731 0.515770
0.289220 0.629999 0.242893
0.291264 0.630152 0.242710
0.294163 0.630426 0.242893
0.300694 0.630945 0.244053
0.310796 0.631708 0.245151
0.323980 0.632654 0.246616
0.339727 0.633967 0.248722
0.358526 0.635492 0.251255
0.379553 0.637140 0.254459
0.402716 0.639185 0.257755
0.427375 0.641474 0.261967
0.453712 0.643854 0.266636
0.480903 0.646479 0.271489
0.509239 0.649348 0.277226
0.539330 0.652277 0.283085
0.569574 0.655390 0.289769
0.599969 0.658686 0.297124
0.629969 0.662379 0.304814
0.659724 0.666224 0.313329
0.689021 0.670314 0.322484
0.712551 0.669368 0.333135
0.736172 0.668360 0.344671
0.758938 0.670680 0.353124
0.782162 0.675471 0.363409
0.805112 0.681453 0.375830
0.827756 0.688838 0.389899
0.849943 0.697536 0.406104
0.871550 0.707790 0.425177
0.892546 0.719509 0.446998
0.912779 0.732906 0.472389
0.932280 0.748013 0.501579
0.951171 0.765316 0.535912
0.310887 0.669642 0.271550
0.312596 0.669856 0.272007
0.315557 0.670008 0.271611
0.321813 0.670436 0.272618
0.331426 0.671046 0.273899
0.344091 0.671962 0.275517
0.359411 0.673030 0.277806
0.377325 0.674311 0.280339
0.397681 0.675715 0.283299
0.419928 0.677424 0.286717
0.443732 0.679286 0.291142
0.469215 0.681331 0.295720
0.495430 0.683680 0.300786
0.522393 0.686122 0.306462
0.550774 0.688685 0.312383
0.580041 0.691402 0.319463
0.609400 0.694301 0.326421
0.638636 0.697322 0.334539
0.667536 0.700710 0.342870
0.695796 0.704250 0.351904
0.723568 0.708034 0.361456
0.745480 0.706935 0.372808
0.767025 0.705318 0.384894
0.787991 0.707057 0.394293
0.810086 0.712184 0.406256
0.831846 0.718654 0.420356
0.853178 0.726375 0.436530
0.873930 0.735683 0.455634
0.894133 0.746273 0.477363
0.913634 0.758419 0.502586
0.932525 0.772122 0.531334
0.950835 0.787350 0.563775
0.334630 0.707942 0.303105
0.336522 0.708034 0.303105
0.339239 0.708217 0.303380
0.345068 0.708522 0.303960
0.354223 0.709041 0.305364
0.366247 0.709712 0.306981
0.381018 0.710658 0.309300
0.398108 0.711635 0.312016
0.417609 0.712856 0.314946
0.438911 0.714290 0.318578
0.461738 0.715816 0.322820
0.485847 0.717586 0.327276
0.511070 0.719478 0.332647
0.537041 0.721584 0.338354
0.563470 0.723842 0.344488
0.591608 0.726101 0.351232
0.619898 0.728511 0.358740
0.648005 0.731197 0.366400
0.675929 0.734005 0.374823
0.703395 0.737026 0.383886
0.730159 0.740291 0.393500
0.756252 0.743740 0.403693
0.776425 0.742367 0.415717
0.795926 0.740352 0.428168
0.814939 0.741451 0.437873
0.835782 0.747005 0.451789
0.856260 0.753872 0.467964
0.876249 0.762081 0.486885
0.895628 0.771633 0.508568
0.914549 0.782437 0.532921
0.932830 0.794675 0.560754
0.950744 0.808377 0.591943
0.361089 0.744533 0.337377
0.362951 0.744564 0.337469
0.365484 0.744686 0.337652
0.371008 0.744961 0.338415
0.379614 0.745357 0.339879
0.390875 0.745937 0.341650
0.404700 0.746609 0.343725
0.420935 0.747463 0.346288
0.439368 0.748440 0.349340
0.459449 0.749569 0.352941
0.481178 0.750820 0.357092
0.504173 0.752255 0.361913
0.528222 0.753841 0.367041
0.552850 0.755489 0.372747
0.578210 0.757382 0.378973
0.604303 0.759365 0.385626
0.631495 0.761349 0.393042
0.658503 0.763485 0.400977
0.685420 0.765835 0.409583
0.711696 0.768338 0.418708
0.737575 0.771023 0.428138
0.762600 0.773892 0.438239
0.786862 0.777066 0.448829
0.805325 0.775540 0.461128
0.822751 0.773373 0.473762
0.839719 0.773739 0.484016
0.859312 0.779629 0.499977
0.878477 0.786862 0.518578
0.897215 0.795224 0.539452
0.915496 0.804746 0.562951
0.933318 0.815640 0.589441
0.950713 0.827909 0.619471
0.390173 0.779049 0.374060
0.391882 0.779110 0.374456
0.394171 0.779263 0.375067
0.399573 0.779385 0.375799
0.407355 0.779751 0.376989
0.418128 0.780148 0.378515
0.430945 0.780697 0.380896
0.446113 0.781308 0.383642
0.463233 0.782101 0.386542
0.482216 0.782956 0.390143
0.502647 0.783963 0.394385
0.524224 0.785092 0.399237
0.546990 0.786343 0.404181
0.570489 0.787655 0.410101
0.594568 0.789151 0.416297
0.619043 0.790768 0.423255
0.644434 0.792386 0.430365
0.670375 0.794125 0.438483
0.695949 0.795987 0.446845
0.721218 0.797971 0.455909
0.745907 0.800107 0.465248
0.769894 0.802487 0.475257
0.793118 0.804990 0.486030
0.815427 0.807736 0.496864
0.832059 0.806210 0.509392
0.847501 0.803891 0.522240
0.862425 0.803677 0.532189
0.880827 0.809720 0.549645
0.898924 0.817014 0.569696
0.916564 0.825437 0.592187
0.933867 0.835142 0.617639
0.950805 0.846189 0.646387
0.421790 0.811429 0.414252
0.423529 0.811460 0.414557
0.425879 0.811490 0.415106
0.430610 0.811643 0.416144
0.437934 0.811887 0.417090
0.447669 0.812222 0.418860
0.459602 0.812589 0.421027
0.473579 0.813046 0.423713
0.489601 0.813626 0.426734
0.507073 0.814237 0.430579
0.526268 0.814969 0.434577
0.546563 0.815824 0.439307
0.567895 0.816739 0.444465
0.590112 0.817746 0.450050
0.612787 0.818875 0.456519
0.635859 0.820066 0.463294
0.659297 0.821378 0.470405
0.683680 0.822690 0.478431
0.708064 0.824063 0.486793
0.732052 0.825620 0.495735
0.755459 0.827268 0.505180
0.778286 0.829129 0.514855
0.800320 0.831144 0.525353
0.821530 0.833341 0.535821
0.841825 0.835691 0.546868
0.856748 0.834287 0.558801
0.870390 0.831907 0.571313
0.883787 0.831418 0.581201
0.900664 0.837156 0.599298
0.917784 0.844572 0.620783
0.934600 0.853178 0.644862
0.951080 0.863127 0.672389
0.456397 0.841276 0.457191
0.458045 0.841276 0.457557
0.460395 0.841276 0.457984
0.464790 0.841337 0.459144
0.471565 0.841489 0.460273
0.480354 0.841703 0.461921
0.491249 0.841947 0.464332
0.504021 0.842283 0.466773
0.518761 0.842649 0.469825
0.534997 0.843076 0.473671
0.552636 0.843534 0.477729
0.571466 0.844114 0.482460
0.591302 0.844755 0.487282
0.612024 0.845426 0.493050
0.633295 0.846189 0.499428
0.654932 0.847074 0.505943
0.676753 0.848020 0.513359
0.699031 0.849027 0.520867
0.721859 0.850065 0.529137
0.744381 0.851194 0.537591
0.766415 0.852476 0.546502
0.787900 0.853880 0.555871
0.808621 0.855497 0.565576
0.828611 0.857237 0.575677
0.847807 0.859190 0.585992
0.866209 0.861234 0.596551
0.879576 0.859800 0.608148
0.891661 0.857481 0.620142
0.903685 0.856870 0.629999
0.919158 0.862211 0.648127
0.935424 0.869902 0.671321
0.951507 0.878843 0.697322
0.494423 0.868223 0.502892
0.495918 0.868254 0.503380
0.498116 0.868223 0.504021
0.502312 0.868223 0.505211
0.508324 0.868315 0.506523
0.516289 0.868406 0.508354
0.526116 0.868559 0.510521
0.537682 0.868742 0.512993
0.550958 0.868925 0.515831
0.565820 0.869200 0.519524
0.581903 0.869474 0.523552
0.599176 0.869841 0.527977
0.617334 0.870207 0.532952
0.636316 0.870665 0.538476
0.655848 0.871183 0.544152
