其他预设/【240】TEZZA调色预设合集24款/1.LUT预设（视频调色-PR-AE-PS-FCPX-达芬奇用）/Tezza自然__-2.cube
# Created by Adobe Lightroom plugin Export LUT (1.17.0)
# www.johnrellis.com/lightroom/exportlut.htm
# Preset: Tezza自然[素锦印象]-2
# Color profile: /Library/Application Support/Adobe/Color/Profiles/Recommended/AdobeRGB1998.icc
LUT_3D_SIZE 5
DOMAIN_MIN 0.000000 0.000000 0.000000
DOMAIN_MAX 0.903226 0.903226 0.903226
0.000000 0.000000 0.000000
0.151461 0.000000 0.042603
0.482307 0.000000 0.042420
0.736202 0.000000 0.106325
0.880156 0.000000 0.294835
0.005921 0.173068 0.068208
0.184817 0.189151 0.040101
0.423407 0.000000 0.008331
0.715358 0.000000 0.076081
0.885161 0.000000 0.263127
0.097932 0.522148 0.217288
0.242741 0.555962 0.272618
0.579828 0.551446 0.198215
0.645930 0.380346 0.000000
0.848966 0.422583 0.262394
0.433753 0.721279 0.482338
0.501732 0.729824 0.527398
0.618341 0.767819 0.612818
0.739620 0.718868 0.474891
0.833799 0.673976 0.385260
0.644190 0.840452 0.692592
0.662745 0.842252 0.706905
0.708766 0.846647 0.741512
0.768154 0.862028 0.777737
0.858549 0.854978 0.719326
0.000000 0.027893 0.111788
0.159091 0.000000 0.147921
0.459968 0.000000 0.091676
0.700526 0.000000 0.057649
0.863371 0.000000 0.251530
0.000000 0.163638 0.149722
0.158022 0.158938 0.155032
0.431556 0.000000 0.091524
0.683253 0.000000 0.060456
0.860807 0.000000 0.223209
0.093874 0.466133 0.222782
0.244327 0.496773 0.291264
0.531762 0.502312 0.253696
0.623224 0.355230 0.072541
0.840116 0.410681 0.246555
0.413275 0.706020 0.474098
0.484871 0.714565 0.519219
0.616510 0.753201 0.616571
0.731563 0.711116 0.497688
0.830289 0.668605 0.375433
0.635187 0.836362 0.686976
0.653986 0.838193 0.701076
0.718318 0.849729 0.754726
0.773892 0.864103 0.790677
0.860716 0.857542 0.730251
0.000000 0.065217 0.346502
0.000000 0.046998 0.419806
0.537591 0.000000 0.462928
0.726345 0.000000 0.382574
0.863615 0.000000 0.317784
0.000000 0.136141 0.317662
0.000000 0.135805 0.391272
0.535119 0.000000 0.464240
0.713405 0.000000 0.380529
0.864988 0.000000 0.279850
0.000000 0.440986 0.392157
0.049958 0.444160 0.400305
0.465248 0.441779 0.425147
0.674006 0.344305 0.323766
0.846159 0.358160 0.296818
0.314122 0.652522 0.432807
0.383642 0.657618 0.465797
0.582086 0.693996 0.597742
0.711360 0.693141 0.569665
0.815183 0.632685 0.366064
0.597925 0.816953 0.663447
0.619837 0.821988 0.679561
0.688289 0.836637 0.732937
0.772152 0.859648 0.801236
0.852842 0.849943 0.738064
0.000000 0.086976 0.586816
0.000000 0.072999 0.624720
0.341192 0.000000 0.721614
0.739254 0.000000 0.690974
0.853819 0.179568 0.640009
0.000000 0.161898 0.560601
0.000000 0.145785 0.602533
0.350011 0.174960 0.705898
0.730098 0.149081 0.684382
0.846921 0.260472 0.634272
0.000000 0.333989 0.513878
0.000000 0.319982 0.513878
0.306889 0.387884 0.629267
0.701320 0.455604 0.666377
0.835508 0.440070 0.629175
0.000000 0.655024 0.601373
0.099184 0.650019 0.599969
0.407416 0.643702 0.611353
0.654749 0.642939 0.640253
0.827207 0.585351 0.561059
0.529351 0.794400 0.659419
0.551873 0.795682 0.663020
0.624384 0.808286 0.694057
0.745571 0.839872 0.787045
0.845823 0.844633 0.772000
0.000000 0.120851 0.761410
0.000000 0.094911 0.773861
0.000000 0.111330 0.813718
0.638697 0.227848 0.846281
0.842283 0.307744 0.817685
0.000000 0.180117 0.747036
0.000000 0.161196 0.760891
0.000000 0.179049 0.804532
0.634272 0.319402 0.843503
0.837705 0.363073 0.815091
0.000000 0.301640 0.698421
0.000000 0.302953 0.711177
0.000000 0.318120 0.767117
0.622065 0.504326 0.835966
0.830716 0.518151 0.817014
0.000000 0.634577 0.737514
0.000000 0.619409 0.732387
0.000000 0.560388 0.723354
0.529747 0.586755 0.789639
0.831510 0.694026 0.834104
0.372900 0.841215 0.807553
0.393042 0.838315 0.806058
0.476295 0.834531 0.808469
0.606043 0.823728 0.810697
0.810025 0.815885 0.827573
