其他预设/【240】TEZZA调色预设合集24款/1.LUT预设（视频调色-PR-AE-PS-FCPX-达芬奇用）/Tezza古董__-6.cube
# Created by Adobe Lightroom plugin Export LUT (1.17.0)
# www.johnrellis.com/lightroom/exportlut.htm
# Preset: Tezza古董[素锦印象]-6
# Color profile: /Library/Application Support/Adobe/Color/Profiles/Recommended/AdobeRGB1998.icc
LUT_3D_SIZE 5
DOMAIN_MIN 0.000000 0.000000 0.000000
DOMAIN_MAX 0.903226 0.903226 0.903226
0.104891 0.063813 0.072328
0.312627 0.000000 0.063111
0.757870 0.000000 0.000000
0.957549 0.000000 0.000000
1.000000 0.000000 0.000000
0.109224 0.167239 0.117311
0.201755 0.141665 0.094789
0.646113 0.132357 0.000000
0.921294 0.108583 0.000000
1.000000 0.226352 0.000000
0.000000 0.468208 0.260624
0.224765 0.503258 0.279057
0.496223 0.439643 0.172824
0.794095 0.470893 0.111788
1.000000 0.554467 0.164157
0.000000 0.716670 0.436469
0.221836 0.730892 0.459815
0.518639 0.743404 0.494423
0.717708 0.675593 0.357488
0.922789 0.742977 0.459144
0.274662 0.905303 0.653986
0.426368 0.900298 0.666529
0.669184 0.882506 0.700496
0.757046 0.891051 0.696071
0.899229 0.871305 0.661158
0.112337 0.078553 0.110872
0.289006 0.000000 0.115267
0.702510 0.000000 0.000000
0.919280 0.000000 0.000000
1.000000 0.000000 0.000000
0.112093 0.169223 0.153841
0.255314 0.181796 0.158053
0.626795 0.177066 0.016754
0.885893 0.188327 0.000000
1.000000 0.216220 0.000000
0.000000 0.449165 0.274907
0.261418 0.500999 0.314153
0.498939 0.436255 0.225559
0.769924 0.453895 0.120424
0.996002 0.545830 0.152804
0.000000 0.709621 0.446204
0.229801 0.725154 0.470161
0.547997 0.741085 0.519738
0.720912 0.677790 0.397955
0.920714 0.738125 0.451423
0.219791 0.903624 0.653864
0.392828 0.898833 0.665095
0.686763 0.891844 0.721401
0.772641 0.896239 0.719539
0.903410 0.876219 0.677058
0.104128 0.118471 0.225376
0.266667 0.217197 0.257725
0.741299 0.000000 0.300877
0.932067 0.000000 0.037446
1.000000 0.000000 0.000000
0.103273 0.134218 0.223819
0.266545 0.244266 0.315465
0.744900 0.093263 0.310460
0.911864 0.175113 0.106630
1.000000 0.207095 0.000000
0.000000 0.417914 0.348577
0.188632 0.491615 0.389288
0.604456 0.539513 0.436042
0.815915 0.513207 0.312139
1.000000 0.525292 0.115694
0.000000 0.687373 0.474678
0.104189 0.699794 0.487221
0.611078 0.739284 0.585138
0.742611 0.699397 0.513756
0.920897 0.737484 0.496437
0.000000 0.891997 0.653620
0.238987 0.893034 0.664149
0.604273 0.889372 0.707240
0.782010 0.892180 0.743404
0.897673 0.870207 0.690608
0.000000 0.182437 0.385870
0.189456 0.266270 0.457130
0.591089 0.495857 0.558038
0.905547 0.229740 0.505455
1.000000 0.167117 0.317266
0.000000 0.180392 0.359747
0.182589 0.266972 0.447700
0.628138 0.568719 0.577050
0.896544 0.364019 0.522240
1.000000 0.337652 0.357061
0.000000 0.261112 0.352422
0.000000 0.290257 0.387976
0.626856 0.603998 0.596307
0.870329 0.585077 0.567468
1.000000 0.527306 0.403754
0.000000 0.629419 0.532525
0.000000 0.654871 0.547173
0.508263 0.725032 0.607233
0.780148 0.741024 0.652491
0.952697 0.743587 0.573083
0.000000 0.884764 0.685481
0.000000 0.886137 0.688441
0.444892 0.887816 0.712306
0.789487 0.893706 0.778317
0.900603 0.874418 0.734798
0.000000 0.303685 0.620203
0.092103 0.369909 0.649134
0.684596 0.679683 0.702296
0.824277 0.653010 0.764614
0.995880 0.529595 0.697444
0.000000 0.278752 0.587427
0.000000 0.340703 0.626337
0.653223 0.658015 0.702480
0.818784 0.680812 0.762081
0.992370 0.568902 0.706630
0.000000 0.184543 0.402930
0.000000 0.175814 0.411627
0.399878 0.495644 0.662379
0.813626 0.761898 0.766049
0.986908 0.671534 0.738643
0.000000 0.514977 0.606104
0.000000 0.505150 0.602045
0.000000 0.472755 0.598383
0.763119 0.760281 0.758511
0.979644 0.785458 0.776730
0.000000 0.845029 0.748623
0.000000 0.850034 0.750790
0.000000 0.873869 0.767361
0.619928 0.881529 0.786069
0.918608 0.900206 0.842863
