其他预设/【240】TEZZA调色预设合集24款/1.LUT预设（视频调色-PR-AE-PS-FCPX-达芬奇用）/Tezza万事达-Tezza01JPG.cube
# Created by Adobe Lightroom plugin Export LUT (1.17.0)
# www.johnrellis.com/lightroom/exportlut.htm
# Preset: Tezza万事达-Tezza01JPG
# Color profile: /Library/Application Support/Adobe/Color/Profiles/Recommended/AdobeRGB1998.icc
LUT_3D_SIZE 8
DOMAIN_MIN 0.000000 0.000000 0.000000
DOMAIN_MAX 0.903226 0.903226 0.903226
0.035828 0.033722 0.039582
0.102113 0.061433 0.058503
0.248631 0.055543 0.060182
0.478981 0.000000 0.028351
0.669978 0.079530 0.000000
0.786893 0.263310 0.019471
0.861357 0.395239 0.107057
0.924895 0.503838 0.200717
0.045960 0.090272 0.068940
0.091798 0.091218 0.076387
0.247318 0.116182 0.064332
0.476204 0.101198 0.042237
0.666773 0.163455 0.003021
0.781460 0.293004 0.036591
0.857023 0.410285 0.111666
0.922179 0.513146 0.204379
0.000000 0.214786 0.108797
0.079011 0.217288 0.113680
0.210544 0.218235 0.134524
0.476234 0.278538 0.096864
0.676967 0.336248 0.060945
0.782986 0.405768 0.090150
0.859129 0.485237 0.153292
0.922179 0.561242 0.242802
0.000000 0.413581 0.173190
0.000000 0.413825 0.176364
0.235050 0.410986 0.203281
0.439551 0.420233 0.237095
0.657862 0.488685 0.218265
0.787137 0.548119 0.167575
0.856535 0.580041 0.219272
0.917144 0.625208 0.298344
0.000000 0.608057 0.270848
0.000000 0.607660 0.273564
0.250858 0.605951 0.296635
0.480140 0.588708 0.341680
0.623072 0.589380 0.368292
0.742031 0.620508 0.373724
0.840269 0.665858 0.348791
0.910185 0.698878 0.377569
0.000000 0.738064 0.384619
0.000000 0.739162 0.390570
0.288884 0.731533 0.407263
0.520012 0.716579 0.445289
0.642908 0.700343 0.488472
0.726711 0.702876 0.510613
0.800900 0.723110 0.540276
0.884916 0.762600 0.544305
0.000000 0.827024 0.488746
0.000000 0.825132 0.493477
0.370092 0.814878 0.510796
0.574365 0.800076 0.556481
0.675715 0.788052 0.590356
0.741482 0.782620 0.620813
0.796719 0.787289 0.639582
0.851743 0.802731 0.675410
0.197910 0.896178 0.580987
0.290318 0.893065 0.586511
0.471748 0.882994 0.608972
0.628870 0.870665 0.653071
0.715663 0.860319 0.686336
0.772580 0.855070 0.714687
0.819394 0.856107 0.738247
0.861631 0.860838 0.755489
0.048157 0.064637 0.099763
0.106905 0.063844 0.103487
0.238743 0.082918 0.109834
0.461189 0.077363 0.120027
0.656794 0.140536 0.120516
0.774319 0.275364 0.131167
0.852079 0.398138 0.165499
0.918517 0.504814 0.236912
0.040253 0.099763 0.110903
0.103395 0.110994 0.115267
0.242252 0.134859 0.122896
0.465248 0.142885 0.125612
0.657832 0.196780 0.125551
0.772274 0.306004 0.135561
0.849058 0.413947 0.169009
0.915801 0.513481 0.239109
0.000000 0.227237 0.148928
0.088258 0.233616 0.156069
0.227634 0.237644 0.176425
0.480751 0.296147 0.150454
0.665797 0.341894 0.145205
0.773465 0.407782 0.159274
0.849332 0.481910 0.198306
0.915282 0.559106 0.271214
0.000000 0.419257 0.211246
0.000000 0.421912 0.216403
0.252323 0.425025 0.237705
0.441749 0.423865 0.267582
0.647150 0.485176 0.248295
0.775204 0.539483 0.213107
0.846983 0.573816 0.251804
0.910704 0.622126 0.320623
0.000000 0.611810 0.305974
0.000000 0.610681 0.306859
0.258824 0.607477 0.322759
0.484443 0.589288 0.362158
0.619135 0.587274 0.386542
0.737728 0.619959 0.390814
0.836088 0.665064 0.367712
0.905669 0.697475 0.397650
0.000000 0.736446 0.405676
0.000000 0.735134 0.407965
0.289281 0.728023 0.421363
0.521355 0.714900 0.458289
0.643397 0.699519 0.501488
0.725856 0.703456 0.523857
0.799435 0.724117 0.550347
0.882841 0.762356 0.551720
0.000000 0.823941 0.498604
0.000000 0.821164 0.501213
0.364050 0.811826 0.516991
0.569787 0.798215 0.559899
0.675776 0.787228 0.596490
0.740566 0.781430 0.625849
0.794491 0.785489 0.642512
0.849729 0.801175 0.675959
0.178317 0.895171 0.585870
0.278355 0.892332 0.591394
0.464942 0.882506 0.612665
0.625055 0.870268 0.655024
0.719081 0.862394 0.694514
0.774166 0.856291 0.720058
0.819303 0.856077 0.741238
0.860777 0.860258 0.756985
0.000000 0.094362 0.228397
0.000000 0.090303 0.235599
0.283391 0.089693 0.242252
0.486213 0.100801 0.222934
0.649592 0.191104 0.242527
0.764675 0.320165 0.266697
0.843717 0.429786 0.294957
0.911589 0.527459 0.348302
0.014710 0.138186 0.231357
0.097169 0.152682 0.239628
0.278202 0.154879 0.250980
0.477302 0.167727 0.235203
0.649226 0.239902 0.252476
0.762905 0.345159 0.271000
0.841642 0.444068 0.297765
0.909941 0.536645 0.351415
0.000000 0.250584 0.263493
0.071412 0.260533 0.265080
0.277623 0.297002 0.281193
0.489113 0.319493 0.278416
0.660121 0.368688 0.283452
0.764767 0.432898 0.294835
0.840513 0.501884 0.321019
0.907469 0.574701 0.373083
0.000000 0.453864 0.325231
0.000000 0.459937 0.327062
0.271641 0.469215 0.334081
0.485786 0.468330 0.365637
0.664515 0.520897 0.348577
0.767453 0.551965 0.344152
0.839322 0.587701 0.367681
0.903868 0.634821 0.415351
0.000000 0.628717 0.396033
0.000000 0.628901 0.398383
0.280552 0.626703 0.408820
0.518456 0.616724 0.439399
0.636591 0.610986 0.464546
0.741665 0.639704 0.462776
0.834195 0.677913 0.442237
0.898772 0.704677 0.475257
0.000000 0.743374 0.470832
0.000000 0.741817 0.473945
0.315831 0.733944 0.483833
0.540856 0.721126 0.513573
0.655360 0.707332 0.549096
0.727382 0.710079 0.568841
0.799344 0.732723 0.587304
0.881712 0.769314 0.588464
0.000000 0.827726 0.544854
0.091829 0.824918 0.547448
0.376501 0.815091 0.557946
0.570550 0.801480 0.588281
0.682551 0.791287 0.624933
0.744472 0.785275 0.652216
0.796475 0.790585 0.667872
0.852537 0.808408 0.697536
0.134859 0.897551 0.612451
0.243839 0.894682 0.615015
0.447364 0.884581 0.631586
0.617273 0.872587 0.668696
0.722316 0.863828 0.711299
0.776761 0.858640 0.733425
0.821286 0.858091 0.754513
0.861936 0.862760 0.769406
0.000000 0.150912 0.410010
0.000000 0.148592 0.417273
0.107546 0.164096 0.436866
0.547845 0.146548 0.434668
0.686397 0.249363 0.390509
0.757076 0.320836 0.379614
0.825711 0.447700 0.418006
0.896788 0.545495 0.462440
0.000000 0.214359 0.413489
0.000000 0.214389 0.419684
0.164462 0.212100 0.438697
0.544610 0.213504 0.440406
0.681056 0.290745 0.398688
0.750942 0.356909 0.392462
0.824491 0.463630 0.423133
0.896147 0.553765 0.464332
0.000000 0.301427 0.423682
0.092164 0.311437 0.424659
0.302098 0.351751 0.440192
0.536248 0.359960 0.459174
0.665553 0.397040 0.424750
0.748867 0.454932 0.430518
0.826535 0.525139 0.451972
0.896239 0.592035 0.484657
0.000000 0.467201 0.462684
0.000000 0.473182 0.463142
0.284428 0.491920 0.468147
0.532616 0.527489 0.489479
0.663264 0.539208 0.477607
0.751186 0.562860 0.474952
0.824369 0.599084 0.485054
0.892699 0.646418 0.515465
0.000000 0.643580 0.518914
0.000000 0.645045 0.519493
0.262791 0.650629 0.524712
0.532250 0.647089 0.533104
0.658473 0.642237 0.558648
0.748379 0.665949 0.548882
0.825284 0.687770 0.541802
0.889189 0.712734 0.563195
0.000000 0.756924 0.567620
0.000000 0.756649 0.569574
0.320470 0.747494 0.570184
0.545830 0.735103 0.581964
0.674556 0.726223 0.612848
0.734829 0.724971 0.629572
0.803342 0.747402 0.636286
0.882078 0.777890 0.632197
0.000000 0.833585 0.612085
0.063630 0.831327 0.613489
0.375341 0.822599 0.618921
0.565576 0.810239 0.634577
0.691493 0.801236 0.667659
0.752010 0.794064 0.690059
0.799496 0.797818 0.702052
0.855985 0.816770 0.723445
0.122774 0.901579 0.662684
0.237797 0.899168 0.664363
0.420569 0.890837 0.670222
0.591852 0.878325 0.689967
0.711177 0.868254 0.724117
0.779416 0.862974 0.752834
0.823941 0.861265 0.773434
0.863584 0.866178 0.786709
0.000000 0.238010 0.580957
0.000000 0.235782 0.584863
0.000000 0.232151 0.596216
0.381231 0.257725 0.611414
0.706935 0.324224 0.597559
0.779538 0.441810 0.547021
0.828336 0.495491 0.540185
0.878996 0.577813 0.576043
0.000000 0.297215 0.579889
0.000000 0.293675 0.584314
0.101625 0.275761 0.596063
0.380591 0.302983 0.613825
0.703273 0.362097 0.599237
0.776150 0.462470 0.551934
0.825742 0.508019 0.544152
0.877195 0.586572 0.579919
0.074434 0.375738 0.573358
0.179477 0.391119 0.577142
0.328069 0.418799 0.590143
0.443977 0.418219 0.609949
0.692195 0.460822 0.605463
0.764004 0.517937 0.564965
0.816190 0.543053 0.554009
0.876616 0.610254 0.586145
0.000000 0.502739 0.592218
0.139376 0.507103 0.591882
0.355810 0.521599 0.592584
0.545098 0.558740 0.605432
0.681453 0.575708 0.622248
0.748348 0.589990 0.587793
0.805600 0.606836 0.580713
0.879057 0.649775 0.597406
0.000000 0.636713 0.618616
0.000000 0.638056 0.618585
0.337469 0.641199 0.618769
0.534386 0.649775 0.623468
0.673548 0.671565 0.638453
0.744167 0.672877 0.624445
0.810636 0.683925 0.616999
0.878935 0.709773 0.627588
0.000000 0.749599 0.651575
0.000000 0.748898 0.651575
0.327703 0.745357 0.651575
0.525963 0.742885 0.655695
0.666712 0.739315 0.661433
0.742000 0.739376 0.681666
0.810025 0.759854 0.678279
0.880003 0.778958 0.675654
0.000000 0.838407 0.691432
0.000000 0.836728 0.691524
0.352819 0.829343 0.690761
0.543450 0.817990 0.691615
0.671321 0.809384 0.699031
0.756191 0.804562 0.723049
0.802335 0.804959 0.736110
0.860533 0.824369 0.747677
0.000000 0.904753 0.722499
0.193332 0.902312 0.722530
0.393042 0.894560 0.723323
0.559167 0.885039 0.729213
0.680293 0.875120 0.740230
0.778470 0.868437 0.774624
0.825742 0.864591 0.793606
0.864714 0.869291 0.804685
0.000000 0.345098 0.704768
0.000000 0.342809 0.706355
0.055116 0.329900 0.711910
0.352514 0.354498 0.720333
0.610986 0.400488 0.719600
0.782834 0.496498 0.703548
0.840696 0.595941 0.675959
0.886534 0.638697 0.682063
0.000000 0.390082 0.700252
0.088228 0.386725 0.701839
0.197787 0.372992 0.707668
0.377691 0.385565 0.716426
0.607935 0.428779 0.718227
0.779843 0.513603 0.703517
0.838346 0.603906 0.677577
0.885008 0.642725 0.682673
0.256321 0.475105 0.695216
0.303563 0.483742 0.696132
0.383978 0.491005 0.701289
0.455177 0.480842 0.711940
0.605005 0.514702 0.720577
0.773312 0.570245 0.708248
0.832425 0.631983 0.685603
0.881102 0.658076 0.686641
0.261753 0.546563 0.694759
0.312718 0.549493 0.693629
0.441566 0.562707 0.692164
0.569024 0.603571 0.705104
0.633356 0.612787 0.721462
0.766629 0.641016 0.718807
0.824582 0.669612 0.697108
0.875456 0.679835 0.690639
0.238254 0.644404 0.706325
0.295445 0.645624 0.705898
0.430304 0.649989 0.704768
0.566979 0.660792 0.704616
0.675380 0.686427 0.712886
0.757900 0.699428 0.727932
0.811246 0.701045 0.700404
0.865629 0.708919 0.694118
0.216648 0.735256 0.722591
0.280766 0.735409 0.722896
0.419684 0.734676 0.722286
0.557244 0.736110 0.722530
0.663905 0.743069 0.725917
0.752132 0.761349 0.739498
0.809323 0.760342 0.725826
0.872221 0.770901 0.723537
0.191318 0.828855 0.757839
0.263828 0.827848 0.757961
0.408789 0.823758 0.757137
0.548394 0.819669 0.757168
0.656764 0.819760 0.759365
0.749172 0.818723 0.761593
0.810086 0.817594 0.777371
0.869718 0.834989 0.777768
0.170932 0.903899 0.787320
0.245060 0.902342 0.787045
0.391699 0.897642 0.786557
0.533623 0.892149 0.787198
0.655451 0.883421 0.785183
0.752773 0.876555 0.790799
0.828794 0.872587 0.815885
0.868070 0.874937 0.828122
0.202487 0.462837 0.794003
0.229343 0.462562 0.795651
0.293126 0.454719 0.798306
0.408240 0.458198 0.802731
0.552209 0.498207 0.807248
0.729671 0.550347 0.799557
0.840085 0.621912 0.785550
0.891661 0.700832 0.771756
0.272068 0.489570 0.788571
0.289799 0.488746 0.790158
0.336980 0.480751 0.793240
0.423987 0.476631 0.798001
0.557183 0.512139 0.802701
0.725093 0.558129 0.795926
0.836179 0.623896 0.782254
0.888701 0.699184 0.768521
0.405402 0.563043 0.784756
0.432532 0.569207 0.785031
0.456519 0.562493 0.787594
0.497810 0.551385 0.793240
0.589807 0.571527 0.798764
0.722469 0.605371 0.796963
0.833890 0.654139 0.786618
0.887663 0.716762 0.775784
0.414649 0.600763 0.780697
0.439979 0.605554 0.780423
0.516106 0.624384 0.781155
0.592462 0.645380 0.786435
0.632624 0.642939 0.795071
0.719112 0.666133 0.801755
0.831205 0.695155 0.793942
0.884794 0.738735 0.783383
0.397803 0.666133 0.783658
0.423896 0.666529 0.782345
0.500328 0.670069 0.779477
0.593683 0.679011 0.776669
0.677058 0.707698 0.785611
0.719722 0.714076 0.799557
0.824002 0.732753 0.797543
0.878691 0.760220 0.787594
0.382300 0.739010 0.793027
0.410925 0.739193 0.792569
0.491035 0.740200 0.791257
0.586053 0.743771 0.790036
0.669368 0.749416 0.789059
0.748836 0.769039 0.796414
0.821439 0.782559 0.809995
0.870909 0.785489 0.791623
0.373968 0.809598 0.807248
0.404425 0.809537 0.807462
0.484779 0.808530 0.806790
0.579278 0.808621 0.806455
0.663050 0.810483 0.806058
0.740108 0.816953 0.808408
0.817411 0.832395 0.819455
0.869413 0.831418 0.808774
0.324498 0.886992 0.833982
0.357397 0.886412 0.834012
0.453712 0.887602 0.837675
0.558862 0.885954 0.838437
0.652247 0.883787 0.837369
0.736873 0.884581 0.838407
0.819791 0.882933 0.840726
0.873960 0.883299 0.856107
0.427466 0.579248 0.862058
0.436561 0.578912 0.862699
0.460334 0.573693 0.863340
0.502159 0.567041 0.865965
0.590845 0.592493 0.867552
0.672877 0.624933 0.870420
0.809018 0.664027 0.862089
0.890715 0.713619 0.850034
0.452033 0.594415 0.859342
0.459846 0.594049 0.860014
0.480903 0.589197 0.861021
0.517235 0.581872 0.863493
0.596216 0.601984 0.865568
0.675074 0.632044 0.868711
0.806821 0.667689 0.860838
0.889403 0.715663 0.849332
0.521843 0.641871 0.854337
0.526635 0.641077 0.854795
0.539605 0.635920 0.855497
0.568994 0.632319 0.859525
0.618921 0.637354 0.862608
0.686275 0.659693 0.865995
0.803342 0.687221 0.860746
0.887816 0.729366 0.850980
0.517327 0.662898 0.851774
0.536522 0.668666 0.851926
0.589837 0.685420 0.851286
0.625116 0.690608 0.853910
0.648249 0.682704 0.858976
0.703182 0.698421 0.863828
0.798886 0.719051 0.862791
0.886503 0.752804 0.855253
0.505730 0.696498 0.850034
0.522240 0.698268 0.849882
0.566796 0.701381 0.847837
0.626001 0.716396 0.849210
0.687373 0.735836 0.852537
0.717891 0.734951 0.859861
0.790524 0.754269 0.865293
0.885100 0.782437 0.861326
0.489204 0.752865 0.855406
0.503868 0.752834 0.854673
0.549371 0.753414 0.852689
0.611048 0.755245 0.850401
0.676265 0.758602 0.848112
0.748898 0.784756 0.855619
0.793118 0.797696 0.869718
0.883299 0.815915 0.868528
0.474678 0.812192 0.864378
0.490333 0.811978 0.863920
0.537804 0.811704 0.862699
0.603357 0.812711 0.861631
0.671717 0.815274 0.860655
0.741238 0.821012 0.860472
0.816037 0.839475 0.866148
0.880308 0.851438 0.876097
0.462287 0.873014 0.876921
0.479072 0.872709 0.876768
0.530571 0.872251 0.876555
0.599298 0.872282 0.876310
0.669978 0.873533 0.876127
0.740749 0.876493 0.876310
0.811856 0.881956 0.878233
0.880858 0.893797 0.886717
