其他预设/【240】TEZZA调色预设合集24款/1.LUT预设（视频调色-PR-AE-PS-FCPX-达芬奇用）/Tezza万事达-Tezza03JPG.cube
# Created by Adobe Lightroom plugin Export LUT (1.17.0)
# www.johnrellis.com/lightroom/exportlut.htm
# Preset: Tezza万事达-Tezza03JPG
# Color profile: /Library/Application Support/Adobe/Color/Profiles/Recommended/AdobeRGB1998.icc
LUT_3D_SIZE 8
DOMAIN_MIN 0.000000 0.000000 0.000000
DOMAIN_MAX 0.903226 0.903226 0.903226
0.077272 0.069551 0.036072
0.103944 0.073396 0.047364
0.197086 0.067750 0.058625
0.359777 0.000000 0.059266
0.518456 0.000000 0.071504
0.635645 0.161685 0.110842
0.728359 0.327123 0.183536
0.793271 0.475410 0.329381
0.083253 0.093446 0.041718
0.113924 0.089906 0.047730
0.223514 0.085542 0.049439
0.381628 0.000793 0.050660
0.531456 0.036225 0.069337
0.642573 0.197116 0.110231
0.731655 0.346593 0.185519
0.794675 0.484993 0.330907
0.093568 0.191562 0.023743
0.129763 0.190219 0.024323
0.249699 0.167361 0.041108
0.450416 0.189334 0.000000
0.571771 0.219333 0.039887
0.664485 0.300755 0.107027
0.742306 0.406897 0.192660
0.799466 0.516228 0.336370
0.087465 0.385443 0.000000
0.133364 0.388800 0.000000
0.285618 0.355932 0.000000
0.432410 0.317967 0.000000
0.612299 0.398413 0.000000
0.696864 0.437110 0.099977
0.758297 0.491279 0.208377
0.807034 0.565362 0.348119
0.153750 0.548791 0.000000
0.193271 0.549310 0.000000
0.321233 0.535058 0.000000
0.463355 0.486519 0.000000
0.570001 0.459541 0.065248
0.704860 0.531365 0.132113
0.776333 0.580560 0.236027
0.816037 0.623438 0.372717
0.272923 0.652979 0.004028
0.299748 0.652522 0.000000
0.384710 0.649134 0.000000
0.510948 0.615717 0.072145
0.595666 0.571313 0.110903
0.672358 0.562402 0.172885
0.768063 0.627405 0.275456
0.826505 0.680110 0.403906
0.396918 0.731563 0.200473
0.415564 0.730678 0.199893
0.474372 0.727749 0.198489
0.566949 0.711696 0.204715
0.647303 0.684077 0.217929
0.698665 0.650538 0.228031
0.753750 0.656306 0.308324
0.815732 0.707332 0.439796
0.514031 0.791714 0.347234
0.525811 0.791073 0.347326
0.563470 0.788907 0.347478
0.622827 0.783444 0.349859
0.691493 0.767910 0.362646
0.743557 0.751492 0.377295
0.779843 0.732998 0.394873
0.818906 0.745846 0.505211
0.083009 0.076295 0.070741
0.116182 0.073182 0.076722
0.214542 0.081605 0.081727
0.376440 0.078706 0.101137
0.526543 0.111604 0.122621
0.637415 0.219974 0.159670
0.726894 0.352605 0.226474
0.792111 0.483528 0.347478
0.089021 0.098390 0.076051
0.125826 0.105226 0.080110
0.237613 0.111269 0.088197
0.395300 0.107790 0.100374
0.538109 0.148379 0.122408
0.643824 0.246372 0.160250
0.730098 0.369482 0.228550
0.793393 0.492622 0.350011
0.114168 0.210849 0.082216
0.146761 0.218570 0.077974
0.272892 0.194522 0.086946
0.456367 0.225193 0.087709
0.574578 0.260990 0.116854
0.664668 0.331212 0.162020
0.740536 0.422644 0.236027
0.797726 0.522728 0.359045
0.121370 0.403082 0.013825
0.168399 0.407263 0.019867
0.306706 0.383001 0.055268
0.447089 0.344121 0.089876
0.618158 0.420325 0.099794
0.696132 0.450660 0.166323
0.756374 0.500023 0.251591
0.804837 0.570275 0.374762
0.194827 0.556451 0.038697
0.228794 0.556634 0.028473
0.340459 0.547051 0.033692
0.476692 0.499977 0.088228
0.576928 0.472602 0.130587
0.706661 0.540459 0.189212
0.774228 0.585016 0.278050
0.813993 0.626459 0.397284
0.297398 0.656214 0.142123
0.322393 0.655665 0.141390
0.400580 0.653254 0.137026
0.519677 0.622492 0.150790
0.601495 0.578820 0.165713
0.674830 0.568811 0.211551
0.767605 0.631525 0.307927
0.824887 0.682277 0.426307
0.409094 0.732357 0.248661
0.426856 0.731502 0.248234
0.482673 0.728634 0.246555
0.570123 0.714717 0.249088
0.649165 0.687434 0.255467
0.699947 0.654322 0.259251
0.753445 0.658778 0.330816
0.815000 0.709071 0.455451
0.518395 0.791836 0.374334
0.529595 0.791226 0.374121
0.566155 0.789151 0.374121
0.622400 0.784848 0.375189
0.690822 0.769345 0.384344
0.742763 0.752956 0.395697
0.779690 0.734798 0.409247
0.818235 0.746700 0.514275
0.084382 0.091524 0.147280
0.122438 0.100679 0.169528
0.283452 0.020478 0.202792
0.454170 0.000000 0.184421
0.543908 0.210971 0.229648
0.635676 0.319432 0.283482
0.720302 0.405676 0.333806
0.784604 0.506432 0.421546
0.102724 0.119997 0.164157
0.139223 0.130373 0.174685
0.290562 0.121767 0.204990
0.447791 0.149660 0.200870
0.541741 0.266361 0.251682
0.641535 0.337194 0.286564
0.723384 0.418036 0.336217
0.785946 0.514305 0.423682
0.120729 0.229709 0.198276
0.173587 0.245945 0.207797
0.323003 0.280186 0.228367
0.463447 0.306676 0.242679
0.575341 0.344518 0.263890
0.660975 0.394995 0.294621
0.733669 0.459052 0.344701
0.790524 0.540795 0.431312
0.181308 0.436347 0.234897
0.237675 0.443366 0.244388
0.347295 0.454841 0.236912
0.483864 0.414862 0.244236
0.623438 0.465064 0.276005
0.691157 0.484077 0.309728
0.749294 0.522942 0.360784
0.798001 0.583581 0.444770
0.293278 0.572900 0.287633
0.302861 0.575189 0.268925
0.388800 0.575372 0.264561
0.509636 0.539849 0.262333
0.595850 0.511009 0.273899
0.710994 0.568139 0.328008
0.767117 0.598047 0.384222
0.807584 0.635492 0.464332
0.342535 0.666011 0.299138
0.369757 0.665339 0.303380
0.443458 0.662806 0.309148
0.541039 0.644526 0.305180
0.617548 0.603326 0.299046
0.681453 0.589288 0.320134
0.765988 0.644831 0.398108
0.818997 0.688045 0.489052
0.438880 0.735439 0.367773
0.455512 0.734585 0.368597
0.504814 0.731899 0.368505
0.577142 0.725032 0.365637
0.653651 0.698878 0.359716
0.703334 0.666896 0.349462
0.752285 0.666987 0.396338
0.812589 0.715053 0.503899
0.531975 0.792386 0.451850
0.540734 0.791928 0.450019
0.573999 0.790066 0.449592
0.624018 0.787350 0.448707
0.687831 0.774563 0.449622
0.739834 0.758053 0.451331
0.778714 0.740627 0.454078
0.815915 0.749569 0.543694
0.000855 0.122103 0.297917
0.097993 0.135286 0.321386
0.279240 0.153140 0.384924
0.501884 0.095766 0.423468
0.643305 0.180056 0.403388
0.684382 0.330755 0.389563
0.723842 0.439826 0.433845
0.772457 0.535363 0.507530
0.091341 0.159701 0.317967
0.139528 0.170657 0.327703
0.301213 0.207187 0.388983
0.503288 0.189090 0.424048
0.636713 0.254490 0.405249
0.678767 0.363745 0.397131
0.718288 0.461585 0.445747
0.774014 0.541070 0.508537
0.139406 0.256321 0.353094
0.193149 0.273655 0.361425
0.331731 0.327825 0.390265
0.516136 0.360845 0.434058
0.612940 0.400305 0.416266
0.655940 0.457679 0.434760
0.721096 0.501854 0.463050
0.779171 0.562737 0.514183
0.188266 0.443732 0.399908
0.242069 0.453925 0.406683
0.380987 0.486397 0.432807
0.530114 0.505394 0.450233
0.615198 0.512902 0.452369
0.680903 0.525963 0.458259
0.737484 0.551904 0.477302
0.787381 0.600488 0.526665
0.300237 0.591272 0.443366
0.340795 0.592645 0.447944
0.449073 0.597375 0.462379
0.544640 0.597955 0.456245
0.621271 0.566186 0.447364
0.713161 0.604822 0.479805
0.756008 0.615686 0.497536
0.797879 0.647547 0.544335
0.419287 0.673457 0.482277
0.444312 0.673701 0.486030
0.504692 0.675380 0.488319
0.564019 0.674037 0.471534
0.637659 0.641474 0.455116
0.690425 0.621057 0.453590
0.764126 0.666407 0.508934
0.810269 0.696529 0.566583
0.522515 0.735653 0.535760
0.527337 0.736019 0.530144
0.535546 0.737667 0.501640
0.590875 0.734218 0.496162
0.657984 0.717830 0.485206
0.707240 0.687190 0.463569
0.750576 0.680751 0.484291
0.809415 0.725277 0.572259
0.579431 0.790860 0.573816
0.579248 0.791440 0.565942
0.592432 0.791409 0.551476
0.628870 0.789700 0.541558
0.681910 0.783993 0.537987
0.734493 0.767086 0.529381
0.774746 0.748684 0.519768
0.812284 0.754543 0.588037
0.000000 0.177096 0.450019
0.085756 0.188846 0.464515
0.309178 0.265599 0.509239
0.494118 0.267491 0.561639
0.644251 0.299351 0.585229
0.738674 0.372839 0.583368
0.765408 0.464576 0.556115
0.793240 0.543145 0.577417
0.091249 0.215030 0.461067
0.150362 0.226596 0.466773
0.322393 0.298924 0.509575
0.499458 0.314885 0.561913
0.643183 0.344396 0.584283
0.737423 0.404486 0.585077
0.762448 0.480812 0.557549
0.791104 0.551568 0.579217
0.179080 0.313268 0.484199
0.225986 0.328618 0.488777
0.338567 0.367926 0.504479
0.513542 0.430213 0.561395
0.640894 0.451240 0.582818
0.724941 0.485908 0.580011
0.752102 0.526146 0.562371
0.783047 0.577905 0.585901
0.236606 0.447974 0.511650
0.278691 0.457496 0.515709
0.393896 0.485298 0.529747
0.530297 0.529320 0.558465
0.652247 0.555291 0.595605
0.702632 0.565637 0.576837
0.731014 0.582940 0.575280
0.772580 0.620142 0.604730
0.323857 0.584527 0.548669
0.358343 0.588098 0.552605
0.454627 0.599969 0.565881
0.566278 0.623316 0.591913
0.653712 0.631678 0.601892
0.700832 0.630640 0.595911
0.742031 0.634974 0.594171
0.785550 0.659052 0.617609
0.430182 0.685725 0.589227
0.452918 0.685847 0.591485
0.518639 0.686458 0.598474
0.601129 0.689082 0.610925
0.656336 0.687312 0.600153
0.701564 0.661128 0.582483
0.762753 0.693416 0.618250
0.800076 0.705165 0.638270
0.527276 0.741817 0.620813
0.540948 0.741482 0.622492
0.582422 0.740688 0.628351
0.635798 0.740627 0.636378
0.662715 0.740200 0.607874
0.710719 0.714168 0.582086
0.749020 0.699794 0.579156
0.807156 0.739376 0.646113
0.616602 0.790860 0.670832
0.623529 0.790616 0.671839
0.645197 0.790005 0.674922
0.653986 0.791867 0.652918
0.678706 0.791745 0.629603
0.726864 0.780728 0.618219
0.768887 0.760586 0.597894
0.808133 0.761532 0.639277
0.107485 0.259129 0.568597
0.159976 0.269413 0.576867
0.329900 0.338537 0.603601
0.498116 0.397650 0.642267
0.639460 0.416815 0.685298
0.722713 0.457923 0.695979
0.779721 0.517632 0.694514
0.812985 0.581994 0.690028
0.158938 0.293034 0.573541
0.201358 0.302892 0.576715
0.337743 0.359167 0.602930
0.504509 0.424292 0.641901
0.640040 0.442054 0.684840
0.721736 0.478492 0.695460
0.779110 0.532586 0.695918
0.811368 0.590631 0.690394
0.235691 0.381415 0.587304
0.267216 0.389288 0.589136
0.359869 0.416480 0.598047
0.522820 0.492470 0.640650
0.641871 0.509209 0.683467
0.719051 0.536370 0.694362
0.777371 0.576989 0.700893
0.805905 0.615747 0.691188
0.292668 0.482368 0.605158
0.323552 0.488472 0.607324
0.412116 0.507805 0.615076
0.519860 0.537957 0.631678
0.645533 0.585779 0.681483
0.717556 0.607141 0.695979
0.770199 0.628962 0.700710
0.796658 0.646052 0.689967
0.364263 0.583642 0.629603
0.389502 0.586542 0.631708
0.462959 0.596399 0.639002
0.555932 0.613519 0.651911
0.647608 0.644282 0.675196
0.721736 0.668269 0.705501
0.753689 0.668208 0.690303
0.781125 0.674250 0.686122
0.447028 0.675959 0.659480
0.465949 0.677211 0.661402
0.522789 0.681819 0.668238
0.598352 0.690700 0.680476
0.668025 0.706172 0.699947
0.719448 0.711940 0.707271
0.749905 0.707393 0.697566
0.787503 0.712947 0.700252
0.536339 0.749203 0.695674
0.548760 0.749111 0.696742
0.586145 0.748409 0.700099
0.635279 0.748531 0.705806
0.684352 0.750942 0.713466
0.717891 0.750332 0.702235
0.750240 0.727596 0.681727
0.807187 0.758602 0.721553
0.618860 0.795926 0.728176
0.625025 0.795773 0.728756
0.644526 0.795346 0.730648
0.672480 0.795285 0.733120
0.704860 0.796048 0.735805
0.721431 0.797391 0.709133
0.762875 0.778439 0.686244
0.803799 0.771817 0.698146
0.249180 0.381323 0.679042
0.277379 0.388312 0.683162
0.389746 0.430915 0.696376
0.540978 0.505638 0.718441
0.634791 0.521355 0.744076
0.720882 0.545220 0.772335
0.769284 0.578729 0.775113
0.815274 0.627832 0.775692
0.270359 0.404089 0.680598
0.297978 0.410376 0.681910
0.392859 0.442573 0.695369
0.543664 0.517082 0.717617
0.636103 0.534600 0.743496
0.720546 0.557855 0.771908
0.768612 0.589166 0.774868
0.815061 0.634607 0.776364
0.314397 0.461982 0.686580
0.337987 0.466255 0.687098
0.409308 0.481361 0.690517
0.538506 0.536614 0.713802
0.640284 0.572900 0.741421
0.719661 0.595422 0.770535
0.766720 0.620325 0.774228
0.814603 0.655451 0.778683
0.359960 0.531670 0.695888
0.380041 0.534081 0.696559
0.441199 0.543114 0.698634
0.528252 0.562615 0.705074
0.646509 0.621485 0.737484
0.718196 0.641993 0.768368
0.764614 0.660395 0.774044
0.814755 0.683864 0.782406
0.414160 0.606012 0.709071
0.430671 0.607385 0.709712
0.481331 0.612116 0.711879
0.549981 0.620386 0.715633
0.629969 0.641688 0.725429
0.715602 0.684321 0.764981
0.764157 0.700404 0.775998
0.813474 0.714199 0.784482
0.477760 0.678157 0.725887
0.490791 0.678767 0.726497
0.531548 0.681178 0.728817
0.588769 0.685908 0.732998
0.649012 0.694484 0.739681
0.709743 0.716060 0.755947
0.768124 0.739590 0.782986
0.800504 0.737667 0.774166
0.545739 0.740993 0.745571
0.555657 0.741299 0.746273
0.586725 0.742428 0.748745
0.629877 0.745418 0.753475
0.677546 0.751827 0.761532
0.724269 0.765072 0.776150
0.765621 0.770748 0.782437
0.796048 0.766171 0.774441
0.621027 0.800473 0.777584
0.626642 0.800534 0.777981
0.644526 0.800931 0.779294
0.671229 0.802029 0.781643
0.701930 0.803067 0.784543
0.735927 0.805325 0.788510
0.763790 0.806210 0.778347
0.801450 0.788205 0.764431
0.443671 0.534325 0.780331
0.457160 0.536858 0.781735
0.510613 0.553216 0.786313
0.602014 0.597803 0.793698
0.670008 0.628809 0.805417
0.720882 0.641138 0.819821
0.775082 0.656062 0.835325
0.813107 0.672480 0.834440
0.449897 0.543450 0.780636
0.463966 0.546166 0.780880
0.510216 0.557916 0.785733
0.600977 0.601099 0.793149
0.670924 0.634821 0.804959
0.721035 0.646845 0.819486
0.774868 0.661341 0.835111
0.812894 0.676875 0.834409
0.462928 0.569116 0.782681
0.476326 0.571283 0.782589
0.518608 0.579736 0.782803
0.594995 0.610010 0.791104
0.673426 0.652949 0.803189
0.721340 0.664240 0.818296
0.774197 0.677699 0.834470
0.812253 0.690639 0.834318
0.470893 0.603876 0.786343
0.483986 0.605554 0.786282
0.525353 0.611719 0.786069
0.585473 0.625208 0.786557
0.668452 0.668086 0.799649
0.720974 0.687739 0.816129
0.772793 0.700404 0.833494
0.811612 0.710842 0.834501
0.503807 0.654536 0.791836
0.512413 0.654688 0.791836
0.539788 0.655085 0.791714
0.580041 0.655390 0.791348
0.645380 0.671260 0.792660
0.718379 0.711543 0.812131
0.770108 0.725154 0.831998
0.811124 0.735500 0.835050
0.546838 0.706294 0.799344
0.553826 0.706386 0.799344
0.576349 0.706538 0.799435
0.609216 0.706508 0.799557
0.648219 0.706966 0.799680
0.698787 0.717922 0.802426
0.765866 0.751461 0.828977
0.811002 0.763821 0.836210
0.592828 0.754147 0.808713
0.598016 0.754147 0.808835
0.614679 0.754238 0.809140
0.640681 0.754574 0.809781
0.672908 0.755703 0.810849
0.708614 0.758480 0.812589
0.754299 0.770809 0.819394
0.814603 0.794675 0.840909
0.634943 0.799496 0.819547
0.638666 0.799588 0.819699
0.651026 0.800015 0.820310
0.671382 0.801053 0.821469
0.697871 0.803220 0.823484
0.730007 0.807218 0.827054
0.771359 0.815702 0.835386
0.814115 0.821530 0.842588
