其他预设/【240】TEZZA调色预设合集24款/1.LUT预设（视频调色-PR-AE-PS-FCPX-达芬奇用）/Tezza古董__-2.cube
# Created by Adobe Lightroom plugin Export LUT (1.17.0)
# www.johnrellis.com/lightroom/exportlut.htm
# Preset: Tezza古董[素锦印象]-2
# Color profile: /Library/Application Support/Adobe/Color/Profiles/Recommended/AdobeRGB1998.icc
LUT_3D_SIZE 5
DOMAIN_MIN 0.000000 0.000000 0.000000
DOMAIN_MAX 0.903226 0.903226 0.903226
0.104891 0.063813 0.072328
0.312322 0.000000 0.065370
0.766354 0.000000 0.000000
0.966186 0.000000 0.000000
1.000000 0.207584 0.000000
0.130068 0.191592 0.127413
0.238590 0.179629 0.095369
0.619715 0.136202 0.000000
0.927611 0.213993 0.000000
1.000000 0.374151 0.014160
0.234531 0.628077 0.378820
0.382666 0.607965 0.361822
0.646052 0.607355 0.248478
0.831907 0.503899 0.000000
1.000000 0.578058 0.173495
0.554192 0.825406 0.624567
0.614862 0.820310 0.630091
0.672602 0.790982 0.581079
0.819516 0.790433 0.519036
0.958526 0.775418 0.428443
0.741695 0.931975 0.788022
0.764187 0.929442 0.789395
0.810971 0.915435 0.781827
0.835782 0.903410 0.744289
0.942809 0.921508 0.730220
0.090852 0.108553 0.190768
0.199649 0.136965 0.141176
0.725521 0.000000 0.000000
0.922789 0.000000 0.000000
1.000000 0.206943 0.000000
0.094667 0.259648 0.243381
0.283848 0.224155 0.201022
0.648402 0.189425 0.088655
0.889860 0.244633 0.000000
1.000000 0.345129 0.000000
0.261448 0.628870 0.439490
0.415808 0.614374 0.429847
0.622309 0.584649 0.332219
0.803616 0.482216 0.105806
0.998352 0.566186 0.153323
0.571252 0.825101 0.647944
0.629908 0.820645 0.653101
0.694636 0.795590 0.616541
0.816037 0.789212 0.558465
0.953704 0.772702 0.448096
0.740627 0.931884 0.794553
0.762966 0.929351 0.795560
0.824002 0.924743 0.802365
0.846616 0.910460 0.764309
0.945037 0.925292 0.748714
0.000000 0.360540 0.636835
0.296483 0.350378 0.501274
0.538567 0.485603 0.444953
0.950774 0.216312 0.331090
1.000000 0.237552 0.000000
0.000000 0.494179 0.690333
0.369421 0.491310 0.617365
0.598749 0.547631 0.504204
0.927337 0.387366 0.372045
1.000000 0.350713 0.074342
0.226810 0.734890 0.669703
0.449073 0.710140 0.642267
0.673640 0.646052 0.572168
0.839139 0.580011 0.434638
1.000000 0.573236 0.276432
0.600488 0.831907 0.714076
0.644312 0.823392 0.708003
0.741665 0.810971 0.701625
0.818936 0.797971 0.654902
0.941161 0.764706 0.522789
0.738277 0.929625 0.815671
0.760311 0.929595 0.817838
0.815122 0.927123 0.819455
0.854276 0.913909 0.792721
0.938659 0.921233 0.771267
0.226139 0.605676 0.822934
0.465003 0.629786 0.791012
0.717220 0.684321 0.633661
0.757443 0.729000 0.678614
0.989258 0.639185 0.670832
0.405585 0.688930 0.843900
0.545098 0.694728 0.814633
0.727596 0.705013 0.678096
0.764889 0.737301 0.687098
0.990814 0.642908 0.663386
0.410986 0.795132 0.848875
0.547112 0.792660 0.840604
0.744778 0.774777 0.790829
0.802976 0.760586 0.718898
0.999908 0.702907 0.666835
0.590539 0.885893 0.833127
0.643305 0.877501 0.824979
0.751553 0.856046 0.802274
0.830747 0.816312 0.755032
0.954986 0.779446 0.656153
0.740658 0.941680 0.865537
0.763424 0.939117 0.864988
0.820310 0.935332 0.865049
0.877745 0.931029 0.857969
0.937224 0.924590 0.821775
0.582879 0.791440 0.930297
0.647486 0.797574 0.917998
0.777401 0.813260 0.866300
0.842710 0.824002 0.779019
0.873411 0.858274 0.817655
0.624720 0.817899 0.937743
0.673182 0.819638 0.927062
0.783078 0.825834 0.881132
0.851072 0.833310 0.789364
0.877134 0.862425 0.822446
0.562768 0.846555 0.956390
0.642725 0.853727 0.951751
0.796933 0.866606 0.924285
0.877867 0.863249 0.823392
0.891936 0.878935 0.841825
0.602289 0.926329 0.952636
0.653223 0.924102 0.951324
0.768032 0.918059 0.948425
0.888396 0.912078 0.927672
0.920592 0.906950 0.877806
0.713710 0.972320 0.944762
0.736995 0.970825 0.944152
0.804685 0.967163 0.943084
0.886290 0.961669 0.938964
0.946899 0.942687 0.913420
