其他预设/【240】TEZZA调色预设合集24款/1.LUT预设（视频调色-PR-AE-PS-FCPX-达芬奇用）/Tezza万事达-Gabe-Tezza.cube
# Created by Adobe Lightroom plugin Export LUT (1.17.0)
# www.johnrellis.com/lightroom/exportlut.htm
# Preset: Tezza万事达-Gabe-Tezza
# Color profile: /Library/Application Support/Adobe/Color/Profiles/Recommended/AdobeRGB1998.icc
LUT_3D_SIZE 8
DOMAIN_MIN 0.000000 0.000000 0.000000
DOMAIN_MAX 0.903226 0.903226 0.903226
0.000000 0.000000 0.000000
0.098329 0.008301 0.014771
0.376410 0.000000 0.007660
0.688441 0.000000 0.000000
0.832334 0.000000 0.165560
0.887938 0.313329 0.314672
0.915587 0.489754 0.482307
0.922332 0.568811 0.574029
0.031220 0.090394 0.064363
0.101961 0.099275 0.065126
0.351812 0.000000 0.020844
0.665919 0.000000 0.011078
0.808042 0.000000 0.147829
0.873136 0.307805 0.284245
0.909392 0.477852 0.456184
0.920806 0.579553 0.579767
0.107942 0.357305 0.208408
0.234836 0.377630 0.249577
0.491402 0.426093 0.237919
0.658839 0.300633 0.080842
0.790585 0.348516 0.183536
0.863523 0.443000 0.329778
0.905882 0.567010 0.522271
0.915923 0.612757 0.597894
0.484260 0.678828 0.540703
0.539086 0.682063 0.560937
0.641260 0.688899 0.617578
0.734829 0.698177 0.589288
0.783078 0.550774 0.279484
0.854002 0.577691 0.410071
0.895750 0.636774 0.563104
0.908873 0.658045 0.623133
0.648463 0.771908 0.698238
0.668544 0.775418 0.708919
0.727687 0.788266 0.755093
0.758877 0.791196 0.759731
0.796262 0.782101 0.728023
0.829923 0.699092 0.560113
0.881407 0.687678 0.576410
0.901366 0.705440 0.648859
0.733364 0.827604 0.786130
0.749966 0.833219 0.798001
0.777340 0.838743 0.815213
0.807401 0.843595 0.836851
0.814969 0.839170 0.825467
0.833829 0.831815 0.806729
0.862364 0.798245 0.741115
0.894743 0.749966 0.670863
0.789975 0.859495 0.838193
0.797604 0.860075 0.842527
0.810513 0.860838 0.849058
0.828763 0.862333 0.861204
0.836149 0.861875 0.863828
0.840848 0.860136 0.858610
0.850278 0.856168 0.848600
0.867460 0.830442 0.796994
0.821561 0.870420 0.863188
0.824826 0.870085 0.864744
0.832883 0.869230 0.868711
0.840757 0.868406 0.873014
0.847471 0.868009 0.877836
0.847807 0.867552 0.876371
0.849485 0.866850 0.873777
0.852842 0.861295 0.858946
0.000000 0.013977 0.039979
0.088502 0.011872 0.036103
0.329473 0.000000 0.018830
0.648280 0.000000 0.000000
0.800320 0.000000 0.133669
0.868223 0.267185 0.262516
0.908019 0.451514 0.433478
0.921782 0.572595 0.576135
0.010986 0.090089 0.074708
0.105287 0.097993 0.071992
0.328862 0.054536 0.025605
0.637385 0.000000 0.011902
0.787808 0.079103 0.132662
0.859617 0.293736 0.256596
0.902190 0.449531 0.417395
0.920317 0.582910 0.581567
0.112734 0.328222 0.204959
0.253239 0.356298 0.261906
0.461189 0.394263 0.223209
0.623835 0.281712 0.064790
0.768399 0.328191 0.156161
0.849119 0.416754 0.289799
0.897002 0.525048 0.461860
0.915648 0.614740 0.598962
0.430274 0.639368 0.491279
0.504417 0.650019 0.522515
0.617090 0.663111 0.585931
0.707881 0.660487 0.524773
0.753140 0.513634 0.230228
0.832975 0.535790 0.336828
0.885618 0.598230 0.499275
0.908721 0.659022 0.623590
0.642573 0.764248 0.690639
0.661006 0.766873 0.699672
0.718532 0.778439 0.744076
0.745144 0.776547 0.741024
0.784939 0.766293 0.702235
0.820798 0.683528 0.529656
0.874937 0.671138 0.544762
0.901305 0.705745 0.648981
0.725124 0.821469 0.777920
0.736324 0.823728 0.784543
0.766079 0.830686 0.803922
0.800198 0.837766 0.829374
0.810391 0.834684 0.819608
0.831876 0.828946 0.802060
0.860197 0.793912 0.733669
0.894743 0.749996 0.670863
0.781338 0.855924 0.831388
0.787381 0.855711 0.834287
0.803098 0.857542 0.842802
0.825010 0.860533 0.857755
0.834348 0.860716 0.861936
0.839261 0.858732 0.856138
0.848905 0.853758 0.843961
0.867491 0.830320 0.796811
0.819638 0.870420 0.862119
0.823362 0.870146 0.863981
0.832303 0.869291 0.868406
0.840513 0.868437 0.872862
0.847593 0.868070 0.877989
0.847929 0.867582 0.876555
0.849485 0.866850 0.873777
0.852873 0.861265 0.858885
0.001709 0.050416 0.089357
0.066743 0.066468 0.081331
0.357275 0.000000 0.082063
0.660365 0.000000 0.011627
0.802792 0.126131 0.150973
0.867826 0.345006 0.289281
0.908019 0.490944 0.462470
0.921111 0.577569 0.578698
0.033295 0.100649 0.126528
0.117433 0.112673 0.125704
0.365423 0.057740 0.108309
0.642634 0.000000 0.052003
0.787106 0.203922 0.145876
0.859861 0.360937 0.281956
0.903624 0.492683 0.452491
0.919738 0.587213 0.583825
0.054231 0.325200 0.237888
0.247501 0.350561 0.275975
0.455482 0.374395 0.247471
0.634821 0.317021 0.129305
0.774533 0.378302 0.177340
0.850706 0.454597 0.313329
0.896849 0.545006 0.478584
0.915221 0.617517 0.600488
0.392523 0.636835 0.495766
0.506645 0.646113 0.538354
0.627192 0.664454 0.606165
0.708217 0.658167 0.538415
0.764431 0.545556 0.276677
0.836790 0.555932 0.358831
0.887785 0.615930 0.521935
0.908537 0.660182 0.624292
0.620783 0.756649 0.679072
0.656001 0.760494 0.698360
0.722499 0.778225 0.749294
0.750851 0.779934 0.751827
0.788113 0.769436 0.711269
0.823453 0.694850 0.552239
0.876066 0.676997 0.553094
0.901274 0.705867 0.649012
0.718135 0.818967 0.774502
0.734493 0.821012 0.784176
0.766384 0.828885 0.804532
0.799527 0.836088 0.829221
0.808621 0.832364 0.818601
0.829892 0.825742 0.797330
0.858885 0.791775 0.730068
0.894804 0.749660 0.670741
0.779690 0.856199 0.831571
0.786801 0.856229 0.835080
0.803616 0.857511 0.843839
0.824399 0.860288 0.857481
0.834470 0.860594 0.862455
0.839536 0.858824 0.857084
0.849516 0.854459 0.845212
0.867735 0.829770 0.795804
0.816464 0.870817 0.860960
0.819303 0.870359 0.862089
0.830350 0.869322 0.867521
0.840146 0.868620 0.872831
0.847532 0.868193 0.877989
0.848264 0.867765 0.877104
0.849607 0.866972 0.874174
0.852903 0.861204 0.858671
0.000000 0.074678 0.167605
0.071504 0.092744 0.160281
0.281254 0.072084 0.196750
0.668971 0.000000 0.188937
0.795468 0.132265 0.178805
0.862028 0.334569 0.274998
0.903868 0.479225 0.442969
0.921263 0.576379 0.578119
0.000000 0.128573 0.219211
0.122286 0.145388 0.208591
0.346319 0.139467 0.232120
0.676661 0.072602 0.228244
0.789548 0.230655 0.196841
0.856443 0.365942 0.278202
0.900511 0.490028 0.442512
0.920043 0.584924 0.582757
0.039368 0.302129 0.306371
0.194491 0.322271 0.312596
0.434150 0.333471 0.296544
0.650629 0.348058 0.267247
0.774563 0.400458 0.255253
0.850278 0.474250 0.324743
0.898619 0.566094 0.501884
0.915740 0.613977 0.598596
0.270603 0.607416 0.489693
0.403479 0.614405 0.510155
0.616114 0.647761 0.611048
0.689998 0.627771 0.521691
0.750546 0.529442 0.322148
0.832609 0.558862 0.357885
0.886717 0.616480 0.519890
0.909056 0.656947 0.622492
0.582849 0.748989 0.669551
0.622950 0.750118 0.684230
0.709407 0.768887 0.738125
0.751705 0.777981 0.758206
0.785855 0.764218 0.711543
0.823301 0.693751 0.560296
0.878447 0.683833 0.565454
0.901732 0.703120 0.647578
0.705653 0.817777 0.771939
0.728054 0.822507 0.785489
0.767636 0.829313 0.808286
0.806241 0.839811 0.837400
0.813443 0.836057 0.827390
0.830655 0.825834 0.800168
0.860380 0.793240 0.732540
0.895109 0.747616 0.669764
0.769833 0.855039 0.827726
0.778836 0.855619 0.832212
0.803342 0.857664 0.845365
0.825498 0.861387 0.859159
0.837919 0.862486 0.866911
0.841337 0.860410 0.861143
0.849973 0.854795 0.846159
0.868498 0.827939 0.792508
0.812894 0.871733 0.860441
0.816312 0.871336 0.861814
0.826780 0.870115 0.866423
0.838590 0.868956 0.872282
0.847044 0.868406 0.877684
0.848844 0.868070 0.878050
0.849821 0.867247 0.875090
0.852964 0.861112 0.858427
0.000000 0.106722 0.281804
0.000000 0.123842 0.280186
0.246921 0.179629 0.290074
0.601678 0.100435 0.354040
0.794369 0.177188 0.339391
0.859739 0.366094 0.353063
0.903441 0.484321 0.445655
0.921111 0.577508 0.578698
0.000000 0.155642 0.320714
0.091707 0.170016 0.321050
0.307073 0.234043 0.335912
0.621424 0.199161 0.375708
0.791470 0.297002 0.373968
0.856016 0.401373 0.367590
0.901427 0.501671 0.454017
0.919951 0.585657 0.583001
0.000000 0.306371 0.406561
0.176761 0.321019 0.414740
0.430488 0.384375 0.427253
0.659815 0.391730 0.427588
0.772061 0.437049 0.407874
0.840970 0.478157 0.398413
0.893614 0.543328 0.469001
0.916228 0.610712 0.596735
0.180056 0.551934 0.506828
0.283604 0.558526 0.509087
0.564691 0.597498 0.568414
0.651453 0.562066 0.486122
0.750240 0.554284 0.450538
0.826566 0.573571 0.458198
0.885771 0.607752 0.509026
0.910979 0.644739 0.615595
0.475441 0.721218 0.640009
0.540063 0.724666 0.654658
0.674006 0.739925 0.708888
0.739254 0.763272 0.751431
0.769314 0.737758 0.686030
0.809323 0.644434 0.499153
0.875242 0.670985 0.556939
0.903380 0.692531 0.641962
0.656672 0.801236 0.747250
0.678279 0.802884 0.755581
0.735225 0.808835 0.783047
0.791196 0.827848 0.824216
0.803586 0.826780 0.820157
0.824643 0.816129 0.789670
0.860777 0.776699 0.708492
0.895964 0.741299 0.666835
0.747951 0.851164 0.818631
0.756710 0.851194 0.821958
0.785183 0.852689 0.834958
0.817411 0.858091 0.853574
0.838010 0.862455 0.868437
0.840696 0.860197 0.862364
0.849302 0.852842 0.843717
0.870542 0.822934 0.783749
0.799435 0.872282 0.855528
0.803220 0.871794 0.856809
0.815763 0.870481 0.861540
0.835325 0.869535 0.871153
0.844846 0.868742 0.876280
0.849607 0.868498 0.879332
0.850065 0.867643 0.876341
0.853056 0.860990 0.858244
0.000000 0.157534 0.424537
0.000000 0.172915 0.431891
0.320684 0.310399 0.425940
0.562982 0.276158 0.502281
0.753902 0.330236 0.505791
0.850004 0.418219 0.498299
0.896666 0.528649 0.540246
0.920928 0.578790 0.579339
0.000000 0.197879 0.444282
0.000000 0.209201 0.446265
0.343908 0.335668 0.438911
0.568566 0.312840 0.503960
0.751888 0.362432 0.508476
0.846006 0.448096 0.508629
0.893767 0.538476 0.543206
0.919799 0.586572 0.583520
0.000000 0.325872 0.508324
0.190860 0.351934 0.515435
0.433234 0.435096 0.517296
0.616632 0.456916 0.551293
0.760555 0.489570 0.552361
0.836576 0.547112 0.560296
0.887449 0.583124 0.570123
0.916289 0.610468 0.596551
0.148013 0.528923 0.575280
0.251164 0.533532 0.576898
0.478096 0.555871 0.591180
0.668940 0.607752 0.622644
0.762905 0.620600 0.616114
0.827146 0.625635 0.600549
0.881224 0.644617 0.613855
0.911192 0.643397 0.614923
0.355383 0.693324 0.647974
0.411536 0.694728 0.649928
0.576135 0.705318 0.670558
0.726680 0.748836 0.749844
0.745418 0.694392 0.652491
0.807797 0.670314 0.606683
0.870542 0.685695 0.630549
0.905272 0.680690 0.635554
0.584558 0.787869 0.732937
0.616876 0.790951 0.741787
0.694789 0.798886 0.767391
0.776059 0.819211 0.813046
0.804105 0.827085 0.827207
0.818906 0.805570 0.782101
0.864225 0.741817 0.663569
0.897917 0.727962 0.660334
0.717647 0.848386 0.811826
0.729946 0.849241 0.816098
0.763363 0.850553 0.827878
0.807523 0.854917 0.848936
0.837278 0.862486 0.868772
0.841703 0.861570 0.866972
0.849638 0.852018 0.844114
0.875547 0.809445 0.762783
0.782345 0.874266 0.852445
0.786618 0.873655 0.853452
0.801175 0.872038 0.857633
0.823667 0.870298 0.866178
0.842527 0.869169 0.875334
0.850462 0.869047 0.880644
0.850523 0.868223 0.878172
0.853300 0.861295 0.859709
0.000000 0.212558 0.551354
0.000000 0.226474 0.558221
0.320256 0.336156 0.561822
0.529137 0.428809 0.579370
0.714412 0.430488 0.619287
0.820127 0.495186 0.618738
0.880674 0.551934 0.620356
0.909331 0.616907 0.652094
0.000000 0.237095 0.552056
0.000000 0.249760 0.558282
0.326268 0.347997 0.563226
0.530419 0.442206 0.577173
0.709407 0.441108 0.613275
0.815335 0.497200 0.613001
0.877226 0.550774 0.614191
0.908843 0.620844 0.653223
0.000000 0.341070 0.589471
0.049683 0.353277 0.594385
0.362768 0.411139 0.602686
0.575067 0.530205 0.613458
0.717159 0.525048 0.634638
0.815793 0.562249 0.640192
0.874510 0.607233 0.649195
0.905150 0.642664 0.666102
0.000000 0.480476 0.625666
0.000000 0.479133 0.624323
0.360937 0.508293 0.637385
0.631220 0.632105 0.661616
0.731380 0.624323 0.678798
0.819364 0.645594 0.685054
0.869017 0.670924 0.690486
0.900175 0.671534 0.682368
0.216220 0.656367 0.680873
0.279759 0.655634 0.680201
0.439429 0.657069 0.682338
0.609064 0.667597 0.693538
0.737331 0.697200 0.716213
0.808652 0.703426 0.710750
0.860899 0.707118 0.703944
0.894865 0.703059 0.698360
0.455665 0.775021 0.741726
0.484169 0.774655 0.742367
0.563806 0.774472 0.745418
0.682979 0.784207 0.767086
0.795163 0.819364 0.828183
0.796689 0.763485 0.743526
0.855406 0.753231 0.725460
0.889006 0.738918 0.715450
0.635798 0.841642 0.798306
0.652552 0.841947 0.801328
0.700252 0.842741 0.810971
0.762600 0.846372 0.829496
0.822141 0.855589 0.857969
0.841337 0.861204 0.869413
0.847898 0.846128 0.838651
0.882902 0.781674 0.733547
0.744533 0.876555 0.846647
0.750607 0.876036 0.847745
0.772824 0.874968 0.853086
0.802304 0.872557 0.860685
0.832822 0.869963 0.871336
0.849454 0.869352 0.880064
0.851438 0.869078 0.880705
0.853666 0.861875 0.862394
0.000000 0.284581 0.668910
0.000000 0.297093 0.672358
0.306584 0.374334 0.672480
0.575616 0.558984 0.668025
0.678065 0.520165 0.698512
0.795193 0.568719 0.710475
0.867216 0.621729 0.720912
0.896422 0.634028 0.704738
0.000000 0.298558 0.666773
0.000000 0.310307 0.670405
0.297337 0.377630 0.672877
0.572717 0.557519 0.668605
0.675624 0.529931 0.696773
0.793210 0.574548 0.710018
0.866117 0.626215 0.721889
0.895781 0.639399 0.707485
0.000000 0.357824 0.672755
0.000000 0.365484 0.675990
0.268009 0.402014 0.680385
0.576532 0.570336 0.687587
0.680354 0.582361 0.707668
0.792416 0.608911 0.720363
0.865049 0.652369 0.734279
0.893065 0.660060 0.719112
0.000000 0.407416 0.674434
0.000000 0.412665 0.679469
0.160159 0.469581 0.693935
0.544945 0.570672 0.710872
0.691127 0.654719 0.729854
0.794522 0.665644 0.745663
0.862394 0.689967 0.753323
0.888243 0.693568 0.739620
0.000000 0.613550 0.727291
0.000000 0.611505 0.727382
0.000000 0.596582 0.721981
0.311009 0.564996 0.714229
0.702358 0.711055 0.754147
0.790982 0.719051 0.772366
0.857511 0.732021 0.775875
0.880095 0.742000 0.772580
0.276585 0.764614 0.788266
0.308263 0.762478 0.786984
0.399908 0.755612 0.783413
0.518303 0.744533 0.778622
0.641505 0.732418 0.774624
0.783658 0.772457 0.800229
0.852689 0.787320 0.809842
0.873777 0.775326 0.791836
0.534447 0.851591 0.828000
0.544945 0.850462 0.827329
0.579492 0.846891 0.825467
0.636072 0.842008 0.824002
0.706600 0.836423 0.824155
0.811063 0.844511 0.850370
0.835966 0.812589 0.809934
0.868772 0.805905 0.806302
0.657679 0.888487 0.850370
0.662074 0.887877 0.850095
0.688472 0.885191 0.851347
0.733913 0.880949 0.855375
0.787381 0.875364 0.862486
0.835386 0.870298 0.874113
0.852934 0.869993 0.882841
0.854063 0.863157 0.868254
