其他预设/【240】TEZZA调色预设合集24款/1.LUT预设（视频调色-PR-AE-PS-FCPX-达芬奇用）/Tezza万事达-Tezza02JPG.cube
# Created by Adobe Lightroom plugin Export LUT (1.17.0)
# www.johnrellis.com/lightroom/exportlut.htm
# Preset: Tezza万事达-Tezza02JPG
# Color profile: /Library/Application Support/Adobe/Color/Profiles/Recommended/AdobeRGB1998.icc
LUT_3D_SIZE 5
DOMAIN_MIN 0.000000 0.000000 0.000000
DOMAIN_MAX 0.903226 0.903226 0.903226
0.039857 0.074037 0.083894
0.215610 0.078889 0.107546
0.551843 0.000000 0.133394
0.797971 0.196445 0.202121
0.962158 0.452583 0.376989
0.000000 0.251072 0.170962
0.226780 0.243107 0.128328
0.561059 0.218540 0.134157
0.801541 0.307774 0.208377
0.962615 0.504906 0.390082
0.000000 0.606378 0.365759
0.282048 0.611322 0.362615
0.613001 0.615564 0.285496
0.815427 0.545373 0.244297
0.956786 0.631342 0.420935
0.225711 0.837430 0.571893
0.394354 0.835508 0.576654
0.606439 0.830686 0.554376
0.822751 0.830320 0.520958
0.952697 0.811978 0.543206
0.527398 0.960327 0.758175
0.600153 0.955383 0.765438
0.755856 0.942351 0.792844
0.829191 0.939696 0.779355
0.931609 0.940093 0.753292
0.000000 0.125429 0.241367
0.244083 0.116609 0.241520
0.566369 0.134340 0.185458
0.797208 0.257206 0.203738
0.959655 0.459998 0.374487
0.000000 0.261357 0.303044
0.286534 0.280247 0.294865
0.579675 0.278355 0.232609
0.800351 0.340368 0.209628
0.958953 0.505608 0.383948
0.000000 0.608057 0.446571
0.310430 0.612634 0.447700
0.622339 0.618097 0.414313
0.811185 0.552178 0.288304
0.956786 0.633722 0.422004
0.255589 0.835630 0.613214
0.413916 0.833555 0.618372
0.631830 0.830716 0.610590
0.824308 0.832029 0.595148
0.953552 0.811795 0.544366
0.521782 0.960510 0.772671
0.594812 0.955627 0.778470
0.756802 0.944182 0.805081
0.836637 0.940459 0.799344
0.932189 0.941009 0.779934
0.000000 0.275975 0.547204
0.192355 0.328923 0.543145
0.651423 0.341253 0.582788
0.837705 0.318242 0.433082
0.965850 0.484932 0.397345
0.098848 0.335851 0.567987
0.324681 0.408759 0.573938
0.658381 0.463386 0.604028
0.821103 0.434485 0.472847
0.965057 0.523033 0.411658
0.000000 0.590753 0.625086
0.324407 0.600824 0.624781
0.660792 0.646815 0.637873
0.809720 0.622248 0.559136
0.958923 0.644221 0.479347
0.248905 0.833585 0.719722
0.403540 0.830014 0.717525
0.666499 0.828122 0.726375
0.831479 0.839017 0.731991
0.945861 0.809964 0.638514
0.513542 0.959716 0.820981
0.576928 0.956420 0.821927
0.726131 0.947326 0.827665
0.847837 0.940826 0.839322
0.932952 0.941741 0.833341
0.220981 0.481147 0.779751
0.338903 0.516045 0.780606
0.587854 0.637659 0.778439
0.849912 0.629908 0.809598
0.958282 0.653712 0.741970
0.348058 0.530541 0.782895
0.422583 0.559503 0.784512
0.623407 0.667292 0.787350
0.848386 0.677119 0.814633
0.954620 0.676356 0.746548
0.271305 0.579522 0.787564
0.387915 0.585016 0.785275
0.667659 0.709255 0.798947
0.845457 0.769497 0.826841
0.946807 0.723629 0.745998
0.364477 0.800992 0.824491
0.451942 0.801541 0.822507
0.643732 0.809873 0.821225
0.840482 0.844694 0.837491
0.935760 0.820462 0.775967
0.521263 0.958618 0.891936
0.571160 0.956268 0.890593
0.695491 0.950896 0.886564
0.846098 0.943297 0.886046
0.937987 0.945098 0.892027
0.546471 0.698817 0.918090
0.584527 0.715297 0.916442
0.690883 0.768399 0.911467
0.802457 0.811826 0.906035
0.938659 0.800565 0.914397
0.576379 0.716182 0.917937
0.609522 0.730861 0.916594
0.705898 0.779507 0.912566
0.811307 0.828244 0.907225
0.937835 0.815915 0.915923
0.532677 0.707210 0.922423
0.600977 0.736477 0.920195
0.727565 0.799069 0.916533
0.838499 0.864866 0.913481
0.938323 0.857542 0.922942
0.514580 0.809659 0.932250
0.551873 0.808530 0.930663
0.654200 0.804074 0.926482
0.841032 0.873594 0.923857
0.944182 0.910033 0.937285
0.601831 0.929870 0.946258
0.628656 0.929595 0.945617
0.713924 0.930144 0.944274
0.826566 0.933196 0.941527
0.944457 0.948150 0.945251
