其他预设/【240】TEZZA调色预设合集24款/1.LUT预设（视频调色-PR-AE-PS-FCPX-达芬奇用）/Tezza万事达-Cole01JPG.cube
# Created by Adobe Lightroom plugin Export LUT (1.17.0)
# www.johnrellis.com/lightroom/exportlut.htm
# Preset: Tezza万事达-Cole01JPG
# Color profile: /Library/Application Support/Adobe/Color/Profiles/Recommended/AdobeRGB1998.icc
LUT_3D_SIZE 5
DOMAIN_MIN 0.000000 0.000000 0.000000
DOMAIN_MAX 0.903226 0.903226 0.903226
0.064515 0.048249 0.018891
0.173190 0.060731 0.027619
0.404639 0.020417 0.010498
0.665126 0.158328 0.049531
0.894347 0.370428 0.190005
0.102327 0.152682 0.047517
0.208316 0.161837 0.049378
0.422522 0.174319 0.048920
0.671504 0.253330 0.092592
0.894072 0.426337 0.220951
0.187991 0.391485 0.112886
0.272190 0.401160 0.121614
0.485542 0.423102 0.154482
0.688838 0.450813 0.189670
0.891997 0.571038 0.316289
0.310887 0.669642 0.271550
0.377325 0.674311 0.280339
0.550774 0.688685 0.312383
0.745480 0.706935 0.372808
0.894133 0.746273 0.477363
0.534661 0.892515 0.550805
0.573358 0.892607 0.560510
0.680018 0.893919 0.589868
0.810513 0.898070 0.639796
0.920836 0.904814 0.705562
0.080537 0.095216 0.101991
0.169955 0.088624 0.120668
0.427802 0.105989 0.137911
0.678340 0.231266 0.199100
0.895537 0.408209 0.299016
0.124819 0.177249 0.136080
0.226322 0.185794 0.148470
0.442023 0.223819 0.174197
0.682704 0.302037 0.219089
0.894774 0.457710 0.321660
0.209842 0.406470 0.212222
0.294377 0.416999 0.225467
0.492958 0.438911 0.252995
0.693751 0.472969 0.284398
0.891508 0.590753 0.396521
0.327642 0.677058 0.351629
0.392432 0.681819 0.361028
0.556573 0.695430 0.388861
0.744625 0.713497 0.440558
0.891295 0.753658 0.529168
0.536675 0.894011 0.585962
0.580407 0.893400 0.600427
0.683650 0.894774 0.626459
0.809842 0.899199 0.669551
0.919036 0.906157 0.727291
0.000000 0.190311 0.300633
0.099550 0.202457 0.324224
0.380072 0.195865 0.380865
0.690089 0.242618 0.414130
0.897856 0.458442 0.506767
0.131075 0.244236 0.327581
0.221592 0.275578 0.349798
0.413825 0.279942 0.403418
0.698543 0.334081 0.435004
0.892943 0.542443 0.549493
0.214878 0.445930 0.419043
0.301793 0.454871 0.430274
0.504356 0.482155 0.466651
0.710170 0.541894 0.506676
0.889708 0.642725 0.581170
0.346868 0.698726 0.535119
0.411475 0.702449 0.542473
0.569635 0.713893 0.565087
0.741085 0.732570 0.598322
0.885191 0.770016 0.644617
0.552880 0.898772 0.693141
0.587396 0.898497 0.697810
0.684688 0.898375 0.713130
0.805539 0.903044 0.742428
0.915007 0.910307 0.782071
0.000000 0.338811 0.562097
0.000000 0.349310 0.578973
0.194949 0.380957 0.632624
0.607263 0.374243 0.681910
0.881834 0.509819 0.730800
0.000000 0.380407 0.575860
0.167605 0.403418 0.592676
0.292149 0.432471 0.642145
0.624079 0.436378 0.691096
0.882353 0.556542 0.737881
0.179202 0.508080 0.621790
0.270146 0.513664 0.628107
0.475349 0.563165 0.663416
0.672786 0.593622 0.717433
0.886381 0.673274 0.756374
0.349706 0.724300 0.708766
0.410468 0.727413 0.713222
0.562890 0.737881 0.728298
0.741146 0.762905 0.759457
0.889952 0.808408 0.790982
0.585504 0.906828 0.815885
0.613764 0.906828 0.817594
0.692042 0.907622 0.821561
0.798245 0.910185 0.828122
0.911620 0.917754 0.850614
0.000000 0.561151 0.831724
0.000000 0.567071 0.837491
0.253971 0.588647 0.855955
0.478981 0.637842 0.883146
0.814664 0.650141 0.895628
0.000000 0.582483 0.833158
0.171267 0.597406 0.838468
0.332616 0.618158 0.856443
0.520500 0.665583 0.883299
0.820157 0.677394 0.896849
0.000000 0.623194 0.836393
0.198276 0.632593 0.839811
0.478981 0.693050 0.855619
0.614527 0.734340 0.883513
0.837247 0.749905 0.901366
0.360143 0.796323 0.870146
0.404120 0.794553 0.870268
0.518303 0.785794 0.869993
0.711269 0.811063 0.881163
0.867002 0.841001 0.911040
0.596368 0.924468 0.906462
0.618402 0.923980 0.907103
0.687831 0.922728 0.909422
0.790219 0.922484 0.914824
0.913634 0.932006 0.930602
