其他预设/【240】TEZZA调色预设合集24款/1.LUT预设（视频调色-PR-AE-PS-FCPX-达芬奇用）/Tezza自然__-8.cube
# Created by Adobe Lightroom plugin Export LUT (1.17.0)
# www.johnrellis.com/lightroom/exportlut.htm
# Preset: Tezza自然[素锦印象]-8
# Color profile: /Library/Application Support/Adobe/Color/Profiles/Recommended/AdobeRGB1998.icc
LUT_3D_SIZE 32
0.000000 0.000000 0.000000
0.012634 0.001373 0.001709
0.028168 0.001099 0.003510
0.060731 0.002564 0.008850
0.086732 0.000000 0.013550
0.121828 0.000000 0.016022
0.166842 0.000000 0.016754
0.218357 0.000000 0.014832
0.274662 0.000000 0.009796
0.334051 0.000000 0.001434
0.393042 0.000000 0.000000
0.449256 0.000000 0.000000
0.500420 0.000000 0.000000
0.545708 0.000000 0.000000
0.584588 0.000000 0.000000
0.617731 0.000000 0.000000
0.646662 0.000000 0.000000
0.672480 0.000000 0.000000
0.698512 0.000000 0.000000
0.731594 0.000000 0.000000
0.759243 0.000000 0.000000
0.782437 0.000000 0.000000
0.801846 0.000000 0.000000
0.818723 0.000000 0.000000
0.833921 0.000000 0.000000
0.848692 0.000000 0.000000
0.863798 0.000000 0.000000
0.879484 0.000000 0.045319
0.895842 0.000000 0.079042
0.912688 0.000000 0.108064
0.929473 0.000000 0.141421
0.945190 0.000000 0.182315
0.004425 0.013062 0.007477
0.010559 0.016754 0.007019
0.028565 0.020844 0.006195
0.061860 0.024292 0.011322
0.088502 0.022004 0.014710
0.123751 0.003449 0.017243
0.168215 0.000000 0.016938
0.218662 0.000000 0.015229
0.274022 0.000000 0.009491
0.332555 0.000000 0.001434
0.390692 0.000000 0.000000
0.445991 0.000000 0.000000
0.496834 0.000000 0.000000
0.541924 0.000000 0.000000
0.580468 0.000000 0.000000
0.613672 0.000000 0.000000
0.642756 0.000000 0.000000
0.668696 0.000000 0.000000
0.695369 0.000000 0.000000
0.726864 0.000000 0.000000
0.753811 0.000000 0.000000
0.776791 0.000000 0.000000
0.796262 0.000000 0.000000
0.813321 0.000000 0.000000
0.828641 0.000000 0.000000
0.843534 0.000000 0.000000
0.858885 0.000000 0.000000
0.874876 0.000000 0.029755
0.891600 0.000000 0.072175
0.908873 0.000000 0.101778
0.926055 0.000000 0.134401
0.942321 0.000000 0.174105
0.009125 0.030732 0.016724
0.007721 0.037934 0.018341
0.025452 0.037446 0.015747
0.063569 0.051331 0.014282
0.090944 0.049836 0.017517
0.127108 0.029480 0.018921
0.171023 0.000000 0.017487
0.221012 0.000000 0.014832
0.275669 0.000000 0.009216
0.333440 0.000000 0.001373
0.391058 0.000000 0.000000
0.446052 0.000000 0.000000
0.496468 0.000000 0.000000
0.541314 0.000000 0.000000
0.579706 0.000000 0.000000
0.612787 0.000000 0.000000
0.641627 0.000000 0.000000
0.667445 0.000000 0.000000
0.694850 0.000000 0.000000
0.725216 0.000000 0.000000
0.751675 0.000000 0.000000
0.774380 0.000000 0.000000
0.793820 0.000000 0.000000
0.810849 0.000000 0.000000
0.826169 0.000000 0.000000
0.841062 0.000000 0.000000
0.856443 0.000000 0.000000
0.872557 0.000000 0.024659
0.889403 0.000000 0.069764
0.906828 0.000000 0.099001
0.924193 0.000000 0.131655
0.940673 0.000000 0.170535
0.021912 0.062562 0.040040
0.023560 0.066011 0.044678
0.015839 0.069429 0.043000
0.060639 0.069429 0.035187
0.099123 0.079530 0.022675
0.137636 0.072389 0.020142
0.182315 0.044251 0.017700
0.231937 0.000000 0.013733
0.285740 0.000000 0.008209
0.342504 0.000000 0.000000
0.398535 0.000000 0.000000
0.452003 0.000000 0.000000
0.500969 0.000000 0.000000
0.544518 0.000000 0.000000
0.581842 0.000000 0.000000
0.614191 0.000000 0.000000
0.642420 0.000000 0.000000
0.667597 0.000000 0.000000
0.695552 0.000000 0.000000
0.723690 0.000000 0.000000
0.748592 0.000000 0.000000
0.770535 0.000000 0.000000
0.790005 0.000000 0.000000
0.807614 0.000000 0.000000
0.823911 0.000000 0.000000
0.839719 0.000000 0.000000
0.855863 0.000000 0.000000
0.872343 0.000000 0.029145
0.889281 0.000000 0.071809
0.906432 0.000000 0.100832
0.923369 0.000000 0.132662
0.939422 0.000000 0.170382
0.034882 0.087221 0.063416
0.037018 0.090730 0.065492
0.032441 0.093812 0.065553
0.023590 0.098238 0.054536
0.086885 0.099153 0.053437
0.151644 0.116213 0.022187
0.196231 0.105013 0.011322
0.245151 0.077668 0.006592
0.298039 0.000000 0.000732
0.353277 0.000000 0.000000
0.407691 0.000000 0.000000
0.459693 0.000000 0.000000
0.507042 0.000000 0.000000
0.549248 0.000000 0.000000
0.585992 0.000000 0.000000
0.618006 0.000000 0.000000
0.645991 0.000000 0.000000
0.670954 0.000000 0.000000
0.700343 0.000000 0.000000
0.726406 0.000000 0.000000
0.749722 0.000000 0.000000
0.770565 0.000000 0.000000
0.789303 0.000000 0.000000
0.806607 0.000000 0.000000
0.822843 0.000000 0.000000
0.838590 0.000000 0.000000
0.854612 0.000000 0.000000
0.870970 0.000000 0.033051
0.887663 0.000000 0.073365
0.904692 0.000000 0.101595
0.921569 0.000000 0.132967
0.937682 0.000000 0.170413
0.045350 0.124392 0.080232
0.044892 0.127749 0.082246
0.046418 0.131533 0.084443
0.022034 0.134340 0.079591
0.038941 0.139315 0.055879
0.125734 0.142611 0.063294
0.221164 0.168795 0.002899
0.269078 0.152956 0.000000
0.321294 0.122713 0.000000
0.375006 0.072267 0.000000
0.427131 0.000000 0.000000
0.476570 0.000000 0.000000
0.521294 0.000000 0.000000
0.561151 0.000000 0.000000
0.595880 0.000000 0.000000
0.626337 0.000000 0.000000
0.653254 0.000000 0.000000
0.680110 0.000000 0.000000
0.707820 0.000000 0.000000
0.732296 0.000000 0.000000
0.754513 0.000000 0.000000
0.774655 0.000000 0.000000
0.826993 0.000000 0.000000
0.842130 0.000000 0.000000
0.856291 0.000000 0.003418
0.869963 0.000000 0.048524
0.883482 0.000000 0.076112
0.897093 0.000000 0.098116
0.910887 0.000000 0.122347
0.924712 0.000000 0.150179
0.937865 0.000000 0.183352
0.949615 0.000000 0.223239
0.042115 0.189090 0.110506
0.043610 0.191348 0.112276
0.043488 0.194430 0.114321
0.018891 0.197024 0.111299
0.000000 0.195315 0.099794
0.073182 0.204868 0.063294
0.191592 0.211887 0.074830
0.314305 0.243778 0.000000
0.376593 0.225772 0.000000
0.427710 0.197421 0.000000
0.476844 0.155093 0.000000
0.521569 0.097993 0.000000
0.560510 0.000000 0.000000
0.594171 0.000000 0.000000
0.623102 0.000000 0.000000
0.648524 0.000000 0.000000
0.671656 0.000000 0.000000
0.701320 0.000000 0.000000
0.726772 0.000000 0.000000
0.750484 0.000000 0.000000
0.773007 0.000000 0.000000
0.794400 0.000000 0.000000
0.814389 0.000000 0.000000
0.832792 0.000000 0.000000
0.849851 0.000000 0.000000
0.865232 0.000000 0.043885
0.879545 0.000000 0.075471
0.893370 0.000000 0.098543
0.907317 0.000000 0.122560
0.921019 0.000000 0.149660
0.934203 0.000000 0.182040
0.946197 0.000000 0.220981
0.047272 0.248936 0.141054
0.048188 0.250217 0.142123
0.048890 0.251926 0.143740
0.045075 0.254734 0.145663
0.000000 0.250004 0.130251
0.000000 0.245792 0.105745
0.113893 0.261753 0.072969
0.250340 0.272374 0.090120
0.382147 0.306798 0.000000
0.452674 0.296178 0.000000
0.498177 0.271275 0.000000
0.539635 0.236698 0.000000
0.575494 0.196506 0.000000
0.606592 0.151614 0.000000
0.633509 0.093019 0.000000
0.657252 0.000000 0.000000
0.685054 0.000000 0.000000
0.710109 0.000000 0.000000
0.732509 0.000000 0.000000
0.753719 0.000000 0.000000
0.774380 0.000000 0.000000
0.794308 0.000000 0.000000
0.813077 0.000000 0.000000
0.830564 0.000000 0.000000
0.846952 0.000000 0.000000
0.861936 0.000000 0.046723
0.876005 0.000000 0.077150
0.889769 0.000000 0.100099
0.903685 0.000000 0.124178
0.917388 0.000000 0.151217
0.930694 0.000000 0.183108
0.942901 0.000000 0.221714
0.065614 0.315496 0.177798
0.066102 0.316381 0.178622
0.066896 0.316960 0.179507
0.067659 0.318212 0.181552
0.000000 0.313573 0.169986
0.000000 0.303075 0.149508
0.000000 0.305547 0.098085
0.164828 0.324224 0.089967
0.317571 0.337621 0.113283
0.450233 0.373144 0.000000
0.523003 0.370062 0.000000
0.560204 0.345281 0.000000
0.593194 0.319158 0.000000
0.621607 0.282506 0.000000
0.646235 0.246403 0.000000
0.674067 0.216953 0.000000
0.698634 0.185946 0.000000
0.720058 0.151339 0.000000
0.739773 0.112551 0.000000
0.758907 0.053071 0.000000
0.777798 0.000000 0.000000
0.796231 0.000000 0.000000
0.813718 0.000000 0.000000
0.830259 0.000000 0.000000
0.845884 0.000000 0.000000
0.860288 0.000000 0.054719
0.873991 0.000000 0.082124
0.887419 0.000000 0.104891
0.900969 0.000000 0.128969
0.914397 0.000000 0.156069
0.927489 0.000000 0.187625
0.939574 0.101106 0.225803
0.095003 0.382849 0.219272
0.094911 0.382727 0.219577
0.094881 0.382574 0.219883
0.095491 0.381811 0.220462
0.078828 0.378210 0.215061
0.000000 0.366644 0.191989
0.000000 0.350408 0.167330
0.000000 0.365484 0.089876
0.223911 0.384771 0.113558
0.383520 0.399817 0.143099
0.509209 0.433600 0.078187
0.578271 0.435767 0.000000
0.607813 0.412207 0.000000
0.636316 0.390478 0.000000
0.665888 0.367254 0.000000
0.690700 0.339879 0.000000
0.712306 0.312779 0.000000
0.731563 0.286168 0.000000
0.749294 0.261662 0.000000
0.766262 0.237705 0.000000
0.782803 0.215946 0.000000
0.798764 0.195346 0.000000
0.814084 0.175143 0.000000
0.828855 0.157076 0.000000
0.843198 0.139254 0.000000
0.856992 0.122560 0.059297
0.870542 0.108400 0.085817
0.884092 0.102724 0.109865
0.897826 0.110994 0.134981
0.911528 0.134035 0.163210
0.924773 0.169131 0.196323
0.936950 0.213504 0.236362
0.132662 0.442023 0.261357
0.132998 0.441993 0.261601
0.132418 0.441352 0.261479
0.132143 0.440131 0.261509
0.130465 0.437690 0.261143
0.071595 0.427741 0.239322
0.000000 0.412696 0.212131
0.000000 0.397101 0.179080
0.090150 0.423743 0.114809
0.290867 0.443153 0.144045
0.447700 0.458167 0.179721
0.562676 0.490822 0.138094
0.627161 0.497993 0.000000
0.657557 0.481971 0.000000
0.681697 0.463050 0.000000
0.703059 0.442267 0.000000
0.722011 0.414435 0.000000
0.739101 0.387915 0.000000
0.754849 0.362615 0.000000
0.770291 0.339635 0.000000
0.785519 0.319463 0.000000
0.800504 0.301396 0.000000
0.815061 0.285588 0.000000
0.829221 0.270939 0.000000
0.842863 0.257603 0.021149
0.855985 0.245731 0.071046
0.868864 0.235386 0.095735
0.881804 0.229465 0.119295
0.895018 0.229831 0.144137
0.908293 0.237583 0.172061
0.921263 0.255253 0.205173
0.933288 0.283452 0.245579
0.180179 0.498421 0.307774
0.180148 0.498116 0.307805
0.179660 0.497475 0.307652
0.178225 0.495766 0.306859
0.176028 0.493019 0.305760
0.147311 0.486000 0.292302
0.064454 0.472786 0.263584
0.000000 0.454444 0.231907
0.000000 0.452888 0.180148
0.171908 0.480659 0.146395
0.367620 0.503868 0.185885
0.519738 0.523033 0.234165
0.656703 0.590967 0.262791
0.705074 0.591211 0.140749
0.729488 0.576043 0.050507
0.745449 0.555535 0.000000
0.759884 0.534722 0.000000
0.772519 0.509392 0.000000
0.784268 0.483436 0.000000
0.796078 0.459876 0.000000
0.807919 0.438300 0.000000
0.819913 0.419287 0.000000
0.831724 0.401434 0.031922
0.843595 0.385870 0.075990
0.855283 0.371679 0.098878
0.866728 0.359503 0.119295
0.878019 0.349096 0.138735
0.889342 0.341833 0.159548
0.900816 0.338689 0.182712
0.912322 0.341863 0.210513
0.923491 0.352209 0.243381
0.933776 0.370794 0.284123
0.254978 0.563836 0.373663
0.254215 0.563104 0.373022
0.251926 0.561486 0.371527
0.248051 0.558404 0.368658
0.241459 0.553521 0.364080
0.230137 0.546807 0.356909
0.168612 0.536278 0.327825
0.075807 0.524407 0.297093
0.000000 0.507073 0.262333
0.000000 0.526635 0.196994
0.277958 0.555413 0.203250
0.467475 0.575616 0.257542
0.598291 0.595636 0.321569
0.680446 0.621057 0.319127
0.724636 0.621515 0.211673
0.749142 0.609125 0.140139
0.762387 0.589563 0.098482
0.774502 0.569512 0.000000
0.785946 0.548699 0.000000
0.796628 0.524865 0.000000
0.807675 0.503563 0.000000
0.818875 0.483803 0.040131
0.829984 0.465949 0.075898
0.841123 0.449714 0.097627
0.852201 0.434913 0.116915
0.863157 0.421698 0.134463
0.874052 0.410376 0.152651
0.885100 0.401648 0.172183
0.896361 0.396612 0.194980
0.907774 0.397070 0.222446
0.918914 0.403388 0.255863
0.929259 0.417334 0.296574
0.317388 0.606531 0.425696
0.317296 0.606348 0.425635
0.315618 0.605280 0.424475
0.312261 0.603388 0.422400
0.306950 0.600061 0.418677
0.299504 0.595239 0.413794
0.259861 0.587915 0.392889
0.190860 0.577020 0.360388
0.083925 0.562188 0.323522
0.000000 0.543572 0.282414
0.117037 0.576196 0.208713
0.361059 0.597498 0.251743
0.525170 0.613245 0.310185
0.633448 0.629847 0.373419
0.702419 0.649836 0.377508
0.739956 0.647242 0.278233
0.764096 0.635401 0.196567
0.775113 0.616541 0.163973
0.786038 0.597986 0.125154
0.797238 0.580407 0.075013
0.807858 0.560388 0.076509
0.818509 0.541100 0.094942
0.829068 0.523095 0.111086
0.839750 0.506828 0.127138
0.850340 0.491859 0.142245
0.860868 0.478218 0.157748
0.871366 0.466346 0.174014
0.882048 0.456825 0.192538
0.893004 0.450721 0.214847
0.904143 0.449073 0.241672
0.915038 0.452949 0.275059
0.925261 0.463447 0.315862
0.384009 0.645441 0.479530
0.383825 0.645167 0.479377
0.381506 0.643977 0.477638
0.376959 0.641566 0.474434
0.369970 0.637690 0.469551
0.360143 0.632502 0.462684
0.338293 0.625879 0.449622
0.278416 0.616724 0.418341
0.202090 0.604883 0.382391
0.082856 0.589014 0.342290
0.000000 0.585840 0.293278
0.221042 0.614221 0.244511
0.431861 0.629816 0.299413
0.569268 0.642817 0.358526
0.660121 0.656886 0.418402
0.718532 0.672206 0.426825
0.751431 0.668269 0.335546
0.776120 0.657465 0.246098
0.786160 0.640162 0.218509
0.796689 0.623499 0.187686
0.807614 0.607813 0.155093
0.818387 0.591516 0.136812
0.828305 0.573541 0.147127
0.838468 0.557092 0.158846
0.848631 0.542107 0.171847
0.858946 0.528862 0.185763
0.869444 0.517388 0.202243
0.880217 0.508629 0.221561
0.891264 0.503105 0.244968
0.902373 0.501823 0.274052
0.913085 0.505516 0.310124
0.922789 0.514946 0.353491
0.437903 0.674464 0.522759
0.437873 0.674372 0.522942
0.436164 0.673610 0.521660
0.432837 0.671839 0.519249
0.426917 0.668757 0.514916
0.418647 0.664820 0.509239
0.408515 0.659815 0.502281
0.364599 0.653162 0.478004
0.300969 0.644221 0.445167
0.218662 0.631861 0.406592
0.086671 0.614160 0.361761
0.143496 0.623926 0.307958
0.311406 0.644770 0.288914
0.488441 0.655207 0.343481
0.601648 0.665339 0.398871
0.678523 0.676265 0.452857
0.729793 0.688991 0.465980
0.759670 0.685237 0.384985
0.784268 0.676081 0.300755
0.796597 0.662013 0.269871
0.807401 0.647913 0.245640
0.818448 0.634302 0.220401
0.829526 0.621118 0.195010
0.839353 0.605402 0.202060
0.849180 0.590692 0.212955
0.859068 0.577752 0.225864
0.869200 0.566461 0.240604
0.879454 0.557580 0.259159
0.889860 0.551385 0.281804
0.900206 0.548577 0.309575
0.910063 0.549859 0.343267
0.918975 0.556176 0.383978
0.478828 0.695918 0.556725
0.477607 0.695491 0.555932
0.476081 0.694667 0.554681
0.473030 0.693111 0.552300
0.467567 0.690608 0.548394
0.460670 0.687251 0.543267
0.451667 0.682979 0.536919
0.426551 0.677363 0.521447
0.374182 0.669947 0.492592
0.306249 0.660395 0.458045
0.218509 0.647395 0.417670
0.060060 0.628565 0.369818
0.210391 0.651270 0.317571
0.383246 0.666621 0.328008
0.531731 0.675227 0.381964
0.627070 0.683680 0.434333
0.693751 0.692927 0.484199
0.739742 0.704158 0.501976
0.767330 0.701015 0.430091
0.791470 0.693141 0.352392
0.805600 0.681392 0.317266
0.816037 0.668666 0.297154
0.826719 0.656336 0.275517
0.837644 0.644526 0.254002
0.847776 0.631586 0.249485
0.857359 0.618616 0.261173
0.867124 0.607446 0.275395
0.877104 0.598474 0.293431
0.887144 0.592065 0.315618
0.897032 0.588647 0.343267
0.906493 0.589136 0.376593
0.914977 0.594079 0.416938
0.515770 0.715053 0.588495
0.515892 0.715175 0.588586
0.550988 0.732662 0.619409
0.547936 0.731289 0.616938
0.542962 0.729000 0.612940
0.535882 0.725826 0.607263
0.526726 0.721614 0.600061
0.513848 0.716304 0.590295
0.472450 0.709987 0.564111
0.418219 0.702174 0.532677
0.345525 0.691920 0.494942
0.247471 0.677363 0.449165
0.184970 0.668757 0.398718
0.294957 0.689143 0.351080
0.464912 0.697749 0.388373
0.582300 0.703944 0.440650
0.660456 0.710597 0.489540
0.716152 0.718135 0.534539
0.755734 0.727474 0.554620
0.780514 0.724453 0.492683
0.803342 0.716793 0.421332
0.818387 0.706355 0.383551
0.828061 0.694514 0.365393
0.837980 0.682887 0.345892
0.847929 0.671229 0.325292
0.857694 0.659632 0.310094
0.866209 0.647181 0.319219
0.875090 0.636805 0.332921
0.884276 0.629236 0.352209
0.893614 0.624964 0.377600
0.902556 0.624201 0.409400
0.910552 0.627466 0.447211
0.555962 0.735439 0.623865
0.559716 0.737270 0.627253
0.563104 0.739010 0.630304
0.564660 0.739803 0.631952
0.563439 0.739467 0.631159
0.559167 0.737575 0.627771
0.551965 0.734432 0.622065
0.541772 0.730068 0.614008
0.515679 0.724849 0.596216
0.472480 0.718563 0.569268
0.415015 0.710658 0.536645
0.337163 0.700069 0.497292
0.231388 0.684596 0.449531
0.241154 0.687465 0.403174
0.345129 0.704524 0.365362
0.505455 0.709773 0.417060
0.605951 0.715175 0.466651
0.674586 0.721340 0.512535
0.725185 0.728603 0.555352
0.762478 0.738308 0.579950
0.786007 0.736416 0.525414
0.808438 0.730495 0.462623
0.824826 0.721889 0.425086
0.834226 0.711391 0.410864
0.843839 0.700923 0.394476
0.853635 0.690761 0.378546
0.863737 0.681147 0.363561
0.872587 0.671260 0.371679
0.881346 0.663386 0.389899
0.890105 0.658503 0.413977
0.898558 0.656886 0.443732
0.906096 0.658961 0.479347
0.579248 0.747311 0.644923
0.582361 0.748928 0.647791
0.585046 0.750332 0.650355
0.586328 0.751095 0.651698
0.585321 0.750790 0.651087
0.581659 0.749203 0.648127
0.575555 0.746487 0.643153
0.567315 0.742885 0.636500
0.553368 0.738582 0.626001
0.518334 0.733455 0.602747
0.472908 0.727199 0.574731
0.411322 0.719081 0.540429
0.328099 0.707942 0.499214
0.211185 0.691707 0.449195
0.290715 0.704921 0.409949
0.407141 0.717372 0.396124
0.540703 0.721706 0.446204
0.627649 0.726772 0.493385
0.688899 0.732784 0.537224
0.734981 0.740200 0.578119
0.770138 0.750088 0.606134
0.792325 0.749325 0.559625
0.813657 0.744625 0.505943
0.831144 0.737240 0.466896
0.840055 0.727749 0.455360
0.849241 0.718379 0.443000
0.858793 0.709499 0.430884
0.868650 0.701503 0.421241
0.877958 0.694179 0.425849
0.886229 0.688655 0.447883
0.894224 0.686091 0.475196
0.901396 0.686915 0.508019
0.600702 0.758724 0.664912
0.603479 0.760159 0.667506
0.605921 0.761471 0.669825
0.607324 0.762203 0.671229
0.606470 0.761959 0.670649
0.603296 0.760555 0.668025
0.598016 0.758236 0.663661
0.590661 0.755093 0.657588
0.581750 0.751217 0.650294
0.556603 0.746639 0.632441
0.519524 0.741390 0.607965
0.470588 0.734890 0.578302
0.404944 0.726436 0.542443
0.314977 0.714900 0.499367
0.235843 0.704891 0.452094
0.336004 0.720943 0.418738
0.460639 0.730282 0.428473
0.574487 0.735103 0.478859
0.651209 0.741176 0.526543
0.706661 0.748531 0.570916
0.749020 0.756893 0.611749
0.782132 0.767575 0.644251
0.802609 0.767697 0.606134
0.822477 0.764279 0.563622
0.839567 0.758206 0.529717
0.848905 0.750515 0.520073
0.857694 0.743069 0.513054
0.866819 0.736355 0.507591
0.876097 0.730770 0.505669
0.885069 0.726467 0.510491
0.891936 0.723659 0.535515
0.897917 0.724514 0.565972
0.632990 0.776120 0.695399
0.633845 0.776608 0.696284
0.634241 0.776883 0.696742
0.633631 0.776669 0.696254
0.631922 0.775845 0.694820
0.628565 0.774350 0.691951
0.624109 0.772274 0.688106
0.618372 0.769711 0.683223
0.610956 0.766598 0.677089
0.596582 0.762814 0.666011
0.567742 0.758541 0.645747
0.529503 0.753323 0.620600
0.479072 0.746944 0.590112
0.409613 0.738613 0.552575
0.313207 0.727260 0.507652
0.299138 0.726741 0.467689
0.389654 0.740352 0.439338
0.512902 0.746304 0.468696
0.608148 0.750820 0.517052
0.674311 0.756771 0.562005
0.723079 0.763577 0.602991
0.760891 0.770932 0.640101
0.790860 0.780301 0.671534
0.808988 0.779934 0.637415
0.827085 0.776852 0.600916
0.843168 0.771450 0.570703
0.853239 0.765011 0.560327
0.861662 0.759152 0.557488
0.870268 0.754238 0.557305
0.878904 0.750515 0.560296
0.887114 0.748440 0.568261
0.893004 0.748928 0.594598
0.650538 0.786374 0.712551
0.651484 0.786893 0.713466
0.651972 0.787259 0.714015
0.651637 0.787137 0.713771
0.650019 0.786404 0.712398
0.647242 0.785061 0.709957
0.643061 0.783139 0.706294
0.638056 0.780819 0.701991
0.631647 0.777981 0.696529
0.623651 0.774594 0.689784
0.600885 0.770779 0.672999
0.569909 0.766262 0.651362
0.529870 0.760830 0.625208
0.476020 0.754269 0.593103
0.402899 0.746181 0.554772
0.299260 0.735134 0.508659
0.348150 0.742763 0.478279
0.431373 0.754879 0.455512
0.552636 0.758877 0.501823
0.634943 0.763912 0.548913
0.693477 0.770169 0.592126
0.737392 0.776974 0.631281
0.771878 0.783963 0.666133
0.799893 0.792905 0.697658
0.813718 0.789242 0.660792
0.830381 0.786954 0.631128
0.845884 0.782498 0.604517
0.856565 0.777432 0.594598
0.864500 0.773068 0.595911
0.872526 0.769955 0.600061
0.880278 0.768673 0.609308
0.887083 0.770016 0.625269
0.674891 0.800717 0.736324
0.675776 0.801236 0.737240
0.676020 0.801419 0.737484
0.675257 0.801144 0.736904
0.673579 0.800259 0.735378
0.670771 0.798917 0.732876
0.666896 0.797024 0.729397
0.661860 0.794644 0.724971
0.655756 0.791775 0.719600
0.648280 0.788449 0.713130
0.633356 0.784451 0.701259
0.607813 0.780179 0.682399
0.574395 0.775174 0.659022
0.530724 0.769162 0.630579
0.472969 0.762020 0.596460
0.393133 0.753414 0.555627
0.295506 0.743679 0.509361
0.388739 0.755520 0.487007
0.474708 0.765133 0.478767
0.582788 0.769039 0.528344
0.655512 0.774502 0.574182
0.708217 0.780728 0.615534
0.748196 0.786923 0.652155
0.779599 0.792935 0.683284
0.805631 0.800839 0.711055
0.819883 0.800168 0.687312
0.834928 0.798611 0.664424
0.849241 0.794980 0.642145
0.859983 0.791104 0.633173
0.867185 0.788388 0.638117
0.874296 0.787594 0.647761
0.880674 0.789151 0.663020
0.688167 0.808957 0.749447
0.689052 0.809476 0.750301
0.689326 0.809689 0.750607
0.688777 0.809476 0.750179
0.687190 0.808743 0.748775
0.684932 0.807614 0.746761
0.681819 0.806119 0.744045
0.677852 0.804257 0.740536
0.672938 0.802029 0.736263
0.667140 0.799466 0.731258
0.659480 0.796292 0.724758
0.639277 0.792844 0.709438
0.613062 0.788876 0.690364
0.578973 0.784237 0.666773
0.534295 0.778592 0.638087
0.474189 0.771939 0.603326
0.390204 0.764065 0.561791
0.354406 0.762142 0.524895
0.439277 0.772702 0.508446
0.528130 0.780270 0.519005
0.618219 0.784360 0.566583
0.680659 0.789456 0.609400
0.726680 0.794827 0.647517
0.762081 0.800076 0.679866
0.790249 0.805051 0.706996
0.814206 0.812192 0.731533
0.826627 0.811521 0.714199
0.840116 0.810941 0.698299
0.853147 0.808835 0.682582
0.863706 0.806790 0.677028
0.870024 0.806394 0.687007
0.875700 0.808103 0.701595
0.703670 0.818235 0.764462
0.704250 0.818540 0.765011
0.704189 0.818570 0.765011
0.703334 0.818204 0.764279
0.701747 0.817441 0.762875
0.699428 0.816373 0.760830
0.696437 0.815030 0.758236
0.692866 0.813413 0.755123
0.688685 0.811551 0.751492
0.683894 0.809476 0.747433
0.677760 0.806912 0.742245
0.665064 0.804135 0.732357
0.644617 0.800961 0.717067
0.617853 0.797269 0.697780
0.582391 0.792874 0.673610
0.535790 0.787594 0.644221
0.472847 0.781521 0.608759
0.385626 0.774502 0.567163
0.406134 0.778408 0.540673
0.482094 0.788052 0.529503
0.570123 0.793637 0.554253
0.646723 0.797421 0.599207
0.701137 0.801785 0.639124
0.741756 0.806332 0.673304
0.773495 0.810727 0.701839
0.798978 0.814786 0.725734
0.821073 0.821378 0.748135
0.831876 0.820737 0.736629
0.844053 0.820890 0.725002
0.855924 0.820279 0.715267
0.865965 0.819852 0.712917
0.871336 0.821347 0.725917
0.716670 0.825681 0.776791
0.716976 0.825834 0.777066
0.716915 0.825864 0.777066
0.716304 0.825620 0.776577
0.715206 0.825193 0.775601
0.713863 0.824674 0.774533
0.712490 0.824247 0.773434
0.710933 0.823728 0.772244
0.709010 0.823209 0.770840
0.706630 0.822538 0.768978
0.703456 0.821683 0.766598
0.697871 0.820401 0.762356
0.683619 0.818875 0.751949
0.665217 0.816892 0.738674
0.640772 0.814328 0.721370
0.607599 0.811154 0.698909
0.562615 0.807584 0.670649
0.502281 0.803647 0.636774
0.416785 0.799374 0.596307
0.485634 0.806668 0.584710
0.549737 0.814054 0.581140
0.627741 0.816892 0.615900
0.688075 0.819272 0.655390
0.731899 0.822171 0.688411
0.765499 0.825101 0.715724
0.792325 0.827909 0.738796
0.813779 0.830655 0.758938
0.832212 0.835874 0.777798
0.840787 0.835447 0.772427
0.850828 0.836301 0.765927
0.860197 0.837003 0.762722
0.867643 0.838132 0.765591
0.739162 0.837247 0.797116
0.739254 0.837308 0.797238
0.739040 0.837217 0.797055
0.738308 0.836973 0.796475
0.737057 0.836515 0.795499
0.735592 0.835966 0.794278
0.733883 0.835386 0.792935
0.731930 0.834775 0.791440
0.729671 0.834104 0.789700
0.726864 0.833310 0.787533
0.723354 0.832303 0.784848
0.718807 0.831022 0.781338
0.708125 0.829618 0.773526
0.692500 0.828000 0.762203
0.673091 0.826017 0.748287
0.647974 0.823728 0.730800
