其他预设/【240】TEZZA调色预设合集24款/1.LUT预设（视频调色-PR-AE-PS-FCPX-达芬奇用）/Tezza古董__-2.cube
# Created by Adobe Lightroom plugin Export LUT (1.17.0)
# www.johnrellis.com/lightroom/exportlut.htm
# Preset: Tezza古董[素锦印象]-2
# Color profile: /Library/Application Support/Adobe/Color/Profiles/Recommended/AdobeRGB1998.icc
LUT_3D_SIZE 32
0.104891 0.063813 0.072328
0.109590 0.062776 0.072572
0.115053 0.061860 0.072755
0.130098 0.058991 0.072908
0.157900 0.044739 0.072847
0.198550 0.003845 0.071901
0.250645 0.000000 0.069642
0.312322 0.000000 0.065370
0.382971 0.000000 0.057801
0.459754 0.000000 0.034791
0.539544 0.000000 0.000000
0.612940 0.000000 0.000000
0.674952 0.000000 0.000000
0.725154 0.000000 0.000000
0.766354 0.000000 0.000000
0.801358 0.000000 0.000000
0.831052 0.000000 0.000000
0.856718 0.000000 0.000000
0.885344 0.000000 0.000000
0.917540 0.000000 0.000000
0.943969 0.000000 0.000000
0.966186 0.000000 0.000000
0.984771 0.000000 0.000000
1.000000 0.000000 0.000000
1.000000 0.000000 0.000000
1.000000 0.000000 0.000000
1.000000 0.094820 0.000000
1.000000 0.159396 0.000000
1.000000 0.207584 0.000000
1.000000 0.251316 0.000000
1.000000 0.292210 0.068391
1.000000 0.331304 0.123720
0.106172 0.066011 0.073915
0.108675 0.066163 0.073426
0.113466 0.065583 0.073274
0.127504 0.064240 0.073762
0.153140 0.058503 0.073396
0.191073 0.027710 0.072602
0.240635 0.000000 0.070253
0.299901 0.000000 0.066682
0.368231 0.000000 0.059815
0.443732 0.000000 0.041413
0.522240 0.000000 0.007141
0.597009 0.000000 0.000000
0.660945 0.000000 0.000000
0.712978 0.000000 0.000000
0.755673 0.000000 0.000000
0.791989 0.000000 0.000000
0.822751 0.000000 0.000000
0.849546 0.000000 0.000000
0.879149 0.000000 0.000000
0.910582 0.000000 0.000000
0.936828 0.000000 0.000000
0.959228 0.000000 0.000000
0.978180 0.000000 0.000000
0.994751 0.000000 0.000000
1.000000 0.000000 0.000000
1.000000 0.000000 0.000000
1.000000 0.072602 0.000000
1.000000 0.147890 0.000000
1.000000 0.199130 0.000000
1.000000 0.243931 0.000000
1.000000 0.285679 0.048615
1.000000 0.325597 0.115175
0.108125 0.069184 0.075715
0.110262 0.069398 0.075593
0.113436 0.069306 0.075105
0.125063 0.068910 0.074617
0.147768 0.065705 0.074281
0.182742 0.052735 0.073243
0.229221 0.002930 0.071504
0.286015 0.000000 0.067994
0.352270 0.000000 0.061769
0.426398 0.000000 0.046479
0.504570 0.000000 0.014466
0.581140 0.000000 0.000000
0.647700 0.000000 0.000000
0.701839 0.000000 0.000000
0.746273 0.000000 0.000000
0.784176 0.000000 0.000000
0.816007 0.000000 0.000000
0.843626 0.000000 0.000000
0.874693 0.000000 0.000000
0.905699 0.000000 0.000000
0.932158 0.000000 0.000000
0.954803 0.000000 0.000000
0.974090 0.000000 0.000000
0.990967 0.000000 0.000000
1.000000 0.000000 0.000000
1.000000 0.000000 0.000000
1.000000 0.077638 0.000000
1.000000 0.149172 0.000000
1.000000 0.199527 0.000000
1.000000 0.244602 0.000000
1.000000 0.285801 0.035828
1.000000 0.325505 0.111299
0.111727 0.078309 0.080110
0.114961 0.078523 0.080598
0.117037 0.078340 0.079896
0.125338 0.077882 0.077913
0.142947 0.075898 0.076539
0.169955 0.072145 0.075532
0.212070 0.060395 0.073579
0.265049 0.002533 0.070283
0.328283 0.000000 0.064851
0.400092 0.000000 0.053742
0.477089 0.000000 0.024567
0.554925 0.000000 0.000000
0.624445 0.000000 0.000000
0.682582 0.000000 0.000000
0.730465 0.000000 0.000000
0.770443 0.000000 0.000000
0.804623 0.000000 0.000000
0.833829 0.000000 0.000000
0.867094 0.000000 0.000000
0.897246 0.000000 0.000000
0.923369 0.000000 0.000000
0.946319 0.000000 0.000000
0.966522 0.000000 0.000000
0.984680 0.000000 0.000000
1.000000 0.000000 0.000000
1.000000 0.000000 0.000000
1.000000 0.115419 0.000000
1.000000 0.171908 0.000000
1.000000 0.217044 0.000000
1.000000 0.257786 0.000000
1.000000 0.296269 0.044404
1.000000 0.333165 0.112337
0.115877 0.092744 0.086580
0.119203 0.093141 0.087007
0.123842 0.093507 0.087068
0.127321 0.091310 0.084535
0.142031 0.090761 0.081422
0.164828 0.087282 0.077882
0.192691 0.082826 0.076295
0.235630 0.073671 0.073457
0.293400 0.039216 0.068635
0.360174 0.000000 0.061341
0.435065 0.000000 0.040528
0.512932 0.000000 0.002930
0.587945 0.000000 0.000000
0.652613 0.000000 0.000000
0.706325 0.000000 0.000000
0.751186 0.000000 0.000000
0.789395 0.000000 0.000000
0.822812 0.000000 0.000000
0.859190 0.000000 0.000000
0.889372 0.000000 0.000000
0.915587 0.000000 0.000000
0.938872 0.000000 0.000000
0.959625 0.000000 0.000000
0.978454 0.000000 0.000000
0.995819 0.000000 0.000000
1.000000 0.098634 0.000000
1.000000 0.154330 0.000000
1.000000 0.197665 0.000000
1.000000 0.236851 0.000000
1.000000 0.273930 0.000000
1.000000 0.310002 0.049256
1.000000 0.345312 0.114107
0.120272 0.114107 0.095552
0.123690 0.114839 0.095613
0.128115 0.115389 0.095674
0.134432 0.115114 0.093355
0.142153 0.109682 0.089815
0.165255 0.110231 0.084871
0.194125 0.104891 0.080171
0.224979 0.099886 0.076112
0.259648 0.091127 0.072999
0.321782 0.077363 0.066529
0.392584 0.026642 0.053986
0.469368 0.000000 0.020600
0.547265 0.000000 0.000000
0.618891 0.000000 0.000000
0.679133 0.000000 0.000000
0.729030 0.000000 0.000000
0.771359 0.000000 0.000000
0.813016 0.000000 0.000000
0.849912 0.000000 0.000000
0.881163 0.000000 0.000000
0.908415 0.000000 0.000000
0.933043 0.000000 0.000000
0.989746 0.175113 0.000000
1.000000 0.206821 0.000000
1.000000 0.233890 0.000000
1.000000 0.258915 0.000000
1.000000 0.282963 0.000000
1.000000 0.307103 0.000000
1.000000 0.332097 0.001984
1.000000 0.357916 0.091402
1.000000 0.383795 0.133730
1.000000 0.409461 0.172061
0.125521 0.152956 0.111391
0.129244 0.153567 0.110994
0.134493 0.154269 0.110719
0.146609 0.155306 0.110201
0.152590 0.149599 0.102052
0.168582 0.143069 0.097780
0.203281 0.145327 0.089906
0.242130 0.137362 0.082673
0.277226 0.130465 0.073640
0.315740 0.121584 0.068391
0.367254 0.111696 0.060487
0.445533 0.100526 0.029084
0.525963 0.080629 0.000000
0.601129 0.040589 0.000000
0.664851 0.000000 0.000000
0.716640 0.000000 0.000000
0.764034 0.000000 0.000000
0.812039 0.000000 0.000000
0.850095 0.000000 0.000000
0.883452 0.073579 0.000000
0.913909 0.116213 0.000000
0.942016 0.155367 0.000000
0.967315 0.192386 0.000000
0.989654 0.226047 0.000000
1.000000 0.256535 0.000000
1.000000 0.282444 0.000000
1.000000 0.306218 0.000000
1.000000 0.328679 0.000000
1.000000 0.351720 0.004334
1.000000 0.375402 0.092531
1.000000 0.399786 0.134798
1.000000 0.424231 0.173404
0.130068 0.191592 0.127413
0.134279 0.191989 0.127047
0.139773 0.192355 0.126467
0.152193 0.193057 0.125612
0.166842 0.191470 0.121553
0.173953 0.178897 0.111727
0.196506 0.175479 0.105348
0.238590 0.179629 0.095369
0.284764 0.171359 0.086854
0.322545 0.164065 0.073579
0.362036 0.155947 0.062013
0.402258 0.145266 0.049775
0.467994 0.140932 0.012879
0.547662 0.139040 0.000000
0.619715 0.136202 0.000000
0.680781 0.133333 0.000000
0.742275 0.141695 0.000000
0.791104 0.150301 0.000000
0.830991 0.159915 0.000000
0.866056 0.173404 0.000000
0.898009 0.191592 0.000000
0.927611 0.213993 0.000000
0.954284 0.239384 0.000000
0.977874 0.265049 0.000000
0.998322 0.289647 0.000000
1.000000 0.312016 0.000000
1.000000 0.332464 0.000000
1.000000 0.352728 0.000000
1.000000 0.374151 0.014160
1.000000 0.396429 0.096773
1.000000 0.419806 0.139193
1.000000 0.443214 0.177920
0.136141 0.238163 0.147768
0.140505 0.238560 0.147463
0.146517 0.238773 0.146975
0.159487 0.239017 0.145815
0.179477 0.239261 0.144686
0.185153 0.230320 0.129732
0.199802 0.213291 0.123568
0.230838 0.215457 0.114870
0.280491 0.221439 0.102388
0.335271 0.214633 0.092378
0.375372 0.207095 0.073304
0.414801 0.198062 0.049561
0.454231 0.188663 0.018341
0.492348 0.177127 0.000000
0.571527 0.185061 0.000000
0.651209 0.198642 0.000000
0.714961 0.208499 0.000000
0.766537 0.216800 0.000000
0.809903 0.225162 0.000000
0.847623 0.235111 0.000000
0.881865 0.248234 0.000000
0.913207 0.265049 0.000000
0.941375 0.284703 0.000000
0.966308 0.305425 0.000000
0.987945 0.326085 0.000000
1.000000 0.344945 0.000000
1.000000 0.363104 0.000000
1.000000 0.381415 0.000000
1.000000 0.400916 0.045289
1.000000 0.421393 0.105379
1.000000 0.443122 0.146639
1.000000 0.465339 0.185275
0.142641 0.291356 0.172457
0.147402 0.291264 0.171878
0.153628 0.291112 0.171115
0.167391 0.290959 0.169772
0.187869 0.290440 0.167849
0.209384 0.287297 0.162600
0.212467 0.270329 0.143252
0.229068 0.251347 0.136538
0.270024 0.259983 0.125399
0.326329 0.268589 0.110506
0.386084 0.263096 0.098878
0.429206 0.254856 0.074525
0.467842 0.244999 0.033387
0.512932 0.240421 0.000000
0.558892 0.236454 0.000000
0.612085 0.237858 0.000000
0.682826 0.253788 0.000000
0.740200 0.265843 0.000000
0.788235 0.276402 0.000000
0.829343 0.286259 0.000000
0.865263 0.297185 0.000000
0.897398 0.309819 0.000000
0.926238 0.324224 0.000000
0.951781 0.339940 0.000000
0.974426 0.356512 0.000000
0.994293 0.372961 0.000000
1.000000 0.389868 0.000000
1.000000 0.407813 0.000000
1.000000 0.427283 0.065003
1.000000 0.447974 0.116579
1.000000 0.469917 0.158358
1.000000 0.492226 0.198398
0.148623 0.345251 0.198795
0.153780 0.345342 0.198245
0.160708 0.345281 0.197604
0.174746 0.345342 0.196201
0.196109 0.344884 0.194217
0.222965 0.344030 0.192142
0.232029 0.333532 0.173709
0.244144 0.313542 0.159426
0.266911 0.300084 0.150942
0.315038 0.311345 0.137942
0.377783 0.322484 0.120821
0.449073 0.326299 0.107057
0.502068 0.322240 0.076814
0.543999 0.314366 0.002777
0.582330 0.306218 0.000000
0.618067 0.298375 0.000000
0.650843 0.289311 0.000000
0.702876 0.297185 0.000000
0.756588 0.310704 0.000000
0.803250 0.322942 0.000000
0.843198 0.334508 0.000000
0.878538 0.346868 0.000000
0.909911 0.360632 0.000000
0.937652 0.375189 0.000000
0.962005 0.390204 0.000000
0.983276 0.404974 0.000000
1.000000 0.420233 0.000000
1.000000 0.436652 0.000000
1.000000 0.454566 0.080568
1.000000 0.474159 0.127443
1.000000 0.495216 0.169009
1.000000 0.516991 0.209293
0.155825 0.406317 0.230350
0.161166 0.406439 0.229984
0.168643 0.406012 0.229007
0.183566 0.405768 0.227604
0.205905 0.405524 0.225498
0.233616 0.404730 0.223270
0.263066 0.401892 0.218723
0.259739 0.383886 0.187594
0.281163 0.362615 0.179019
0.316716 0.363806 0.170932
0.378485 0.383948 0.158145
0.454108 0.403449 0.139101
0.587854 0.467964 0.141238
0.637049 0.456214 0.104219
0.666926 0.437659 0.010712
0.693812 0.420172 0.000000
0.718746 0.404974 0.000000
0.742306 0.391028 0.000000
0.766354 0.379980 0.000000
0.812680 0.393683 0.000000
0.851957 0.405280 0.000000
0.885985 0.416602 0.000000
0.915740 0.427832 0.000000
0.942077 0.439887 0.000000
0.965270 0.452308 0.000000
0.985748 0.465095 0.000000
1.000000 0.477974 0.034791
1.000000 0.491737 0.097047
1.000000 0.506676 0.135409
1.000000 0.523308 0.171786
1.000000 0.541222 0.208560
1.000000 0.560143 0.246311
0.169345 0.493782 0.280064
0.175265 0.493507 0.279454
0.183169 0.492073 0.277928
0.199893 0.489784 0.275212
0.224674 0.489601 0.273320
0.255802 0.490425 0.271824
0.292638 0.491402 0.270695
0.308476 0.484413 0.251316
0.318120 0.468208 0.226261
0.343847 0.449317 0.217075
0.395575 0.462287 0.208042
0.470985 0.487953 0.195712
0.555810 0.512230 0.178714
0.626368 0.514549 0.164675
0.675776 0.504234 0.137240
0.702235 0.485176 0.081361
0.725338 0.466194 0.000000
0.746883 0.449195 0.000000
0.768154 0.435309 0.000000
0.789487 0.423529 0.000000
0.820829 0.424720 0.000000
0.859525 0.437720 0.000000
0.892729 0.449622 0.000000
0.921935 0.461616 0.000000
0.947539 0.474006 0.000000
0.970153 0.486366 0.000000
0.990234 0.499306 0.055848
1.000000 0.512963 0.104616
1.000000 0.528161 0.142702
1.000000 0.545159 0.179904
1.000000 0.563561 0.217868
1.000000 0.583001 0.257481
0.195377 0.570031 0.331609
0.202090 0.570092 0.331273
0.210086 0.569116 0.330205
0.227115 0.567559 0.327977
0.251835 0.565087 0.324956
0.282261 0.562097 0.321294
0.317906 0.559503 0.318669
0.357214 0.556664 0.316869
0.349645 0.542962 0.276921
0.369726 0.525322 0.259892
0.393744 0.506096 0.248173
0.456031 0.526787 0.239902
0.529442 0.547723 0.228397
0.606043 0.565393 0.212100
0.665217 0.561364 0.197421
0.709743 0.547967 0.175753
0.730983 0.526024 0.122530
0.750790 0.505638 0.052064
0.770565 0.488533 0.000000
0.790860 0.475288 0.000000
0.811460 0.464790 0.000000
0.832303 0.456916 0.000000
0.867857 0.468605 0.000000
0.900725 0.482002 0.000000
0.929320 0.495094 0.000000
0.954345 0.508171 0.000000
0.976532 0.521447 0.072938
0.996460 0.535668 0.116609
1.000000 0.551293 0.154269
1.000000 0.568872 0.192508
1.000000 0.587823 0.231724
1.000000 0.607843 0.273075
0.234531 0.628077 0.378820
0.240940 0.628046 0.378820
0.247532 0.626734 0.377386
0.263035 0.624292 0.374762
0.284947 0.620539 0.371069
0.312505 0.616175 0.366949
0.345495 0.612055 0.363684
0.382666 0.607965 0.361822
0.399634 0.600641 0.343755
0.396948 0.588128 0.308202
0.420111 0.571771 0.294804
0.448493 0.560784 0.282780
0.511223 0.579339 0.275578
0.578210 0.595026 0.264500
0.646052 0.607355 0.248478
0.696651 0.599878 0.231113
0.737667 0.585412 0.215457
0.755947 0.562799 0.162814
0.774044 0.542596 0.109560
0.792721 0.526024 0.003662
0.812314 0.513481 0.000000
0.831907 0.503899 0.000000
0.851469 0.496376 0.000000
0.876768 0.498146 0.000000
0.908995 0.512810 0.000000
0.937224 0.527611 0.000000
0.962463 0.543145 0.089509
0.985077 0.559808 0.132815
1.000000 0.578058 0.173495
1.000000 0.597955 0.214847
1.000000 0.619135 0.258183
1.000000 0.640803 0.303502
0.278874 0.671870 0.420478
0.284977 0.672084 0.420874
0.291386 0.671412 0.420264
0.305943 0.669856 0.419043
0.326696 0.667231 0.416815
0.353338 0.664057 0.414740
0.384924 0.660883 0.413581
0.420508 0.657557 0.413825
0.458747 0.653742 0.415686
0.451606 0.644251 0.380774
0.456367 0.631006 0.353429
0.472938 0.614191 0.336034
0.502983 0.608301 0.322210
0.558190 0.620325 0.312474
0.616175 0.630152 0.298924
0.675196 0.637842 0.281285
0.721645 0.631250 0.262821
0.759609 0.616541 0.253971
0.777493 0.595911 0.203098
0.795987 0.578241 0.156130
0.815152 0.563989 0.106691
0.834867 0.553094 0.008362
0.854093 0.545006 0.000000
0.873320 0.539300 0.000000
0.892668 0.535973 0.000000
0.922179 0.550134 0.059754
0.949920 0.567407 0.111818
0.974578 0.585534 0.154147
0.996551 0.604761 0.194949
1.000000 0.624903 0.236881
1.000000 0.645686 0.280247
1.000000 0.666651 0.325689
0.321996 0.704646 0.455940
0.326452 0.704219 0.455543
0.332219 0.703395 0.455085
0.344366 0.701839 0.453895
0.363134 0.699489 0.452735
0.387060 0.696590 0.451453
0.415900 0.693446 0.451179
0.447913 0.690059 0.451637
0.481666 0.686336 0.453162
0.498573 0.680598 0.441688
0.488014 0.671473 0.405158
0.500359 0.657954 0.387396
0.513298 0.642176 0.369146
0.547112 0.642603 0.357275
0.596735 0.651972 0.347204
0.648219 0.659174 0.333257
0.701015 0.664942 0.315312
0.744289 0.659907 0.297032
0.779538 0.645594 0.294682
0.797024 0.626917 0.245029
0.815091 0.610773 0.200290
0.833768 0.597559 0.157473
0.852811 0.587304 0.112276
0.871702 0.580713 0.094087
0.890532 0.576471 0.092592
0.909667 0.575189 0.096956
0.933104 0.583368 0.121309
0.960632 0.603571 0.165438
0.984924 0.624659 0.208438
1.000000 0.646540 0.253391
1.000000 0.669001 0.300298
1.000000 0.691035 0.348150
0.370062 0.734005 0.491432
0.375463 0.734432 0.492470
0.436805 0.761807 0.531456
0.446754 0.760220 0.530877
0.461158 0.757656 0.529961
0.479011 0.754299 0.528740
0.500267 0.750301 0.527703
0.524041 0.745876 0.527031
0.549584 0.741390 0.527062
0.575799 0.736782 0.528038
0.570459 0.729335 0.502312
0.564446 0.719417 0.473274
0.571435 0.705501 0.454261
0.577600 0.689509 0.432563
0.611109 0.692866 0.421576
0.652186 0.698512 0.410101
0.695491 0.702846 0.395453
0.740078 0.706172 0.377935
0.778439 0.701839 0.359289
0.808560 0.687861 0.359777
0.825528 0.670680 0.311223
0.842618 0.655360 0.265721
0.860227 0.642573 0.224460
0.878080 0.632532 0.185458
0.895079 0.625452 0.168338
0.911894 0.621210 0.166567
0.929107 0.619745 0.169802
0.947112 0.622126 0.180056
0.972473 0.642451 0.221347
0.995544 0.665370 0.267857
1.000000 0.688991 0.317357
1.000000 0.711482 0.366583
0.431067 0.765042 0.534081
0.441474 0.768124 0.539178
0.452918 0.770901 0.544091
0.467964 0.772580 0.548272
0.485451 0.772793 0.551232
0.503655 0.771054 0.552331
0.523003 0.768185 0.552361
0.543847 0.764462 0.551965
0.566583 0.760769 0.552361
0.589654 0.756649 0.552819
0.602899 0.751583 0.545464
0.592462 0.744137 0.516289
0.592340 0.733272 0.494270
0.597467 0.719875 0.475410
0.603998 0.706111 0.454963
0.638361 0.711543 0.445686
0.675532 0.715969 0.434333
0.714931 0.719661 0.420600
0.756130 0.722988 0.405005
0.792996 0.721096 0.388952
0.820371 0.708675 0.390234
0.839567 0.695857 0.353521
0.857084 0.683040 0.310430
0.874815 0.672328 0.271489
0.892546 0.663569 0.234989
0.909697 0.658656 0.220584
0.926665 0.656977 0.222385
0.944305 0.658869 0.230442
0.962707 0.665095 0.246006
0.984283 0.682460 0.282292
1.000000 0.707362 0.334325
1.000000 0.730770 0.385290
0.467048 0.782864 0.559869
0.476326 0.785397 0.564416
0.486244 0.787716 0.568811
0.499092 0.789212 0.572625
0.514092 0.789395 0.575433
0.529747 0.787991 0.576501
0.546593 0.785519 0.576684
0.564813 0.782467 0.576593
0.584771 0.779232 0.576959
0.605432 0.775723 0.577417
0.626337 0.772061 0.578454
0.624384 0.766201 0.559716
0.614374 0.758572 0.531579
0.618860 0.747372 0.515496
0.622461 0.734310 0.496773
0.633509 0.725734 0.479835
0.664881 0.730159 0.470893
0.698909 0.734035 0.460548
0.735378 0.737697 0.448707
0.773556 0.741451 0.435798
0.808774 0.741573 0.422309
0.833768 0.730983 0.424659
0.854307 0.721767 0.398108
0.871580 0.711330 0.359014
0.889006 0.702022 0.321447
0.906706 0.694850 0.286748
0.923705 0.691768 0.275090
0.940703 0.692836 0.281071
0.958434 0.697932 0.294224
0.976562 0.707301 0.315435
0.994995 0.721706 0.346441
1.000000 0.746273 0.399664
0.501457 0.799802 0.585077
0.509361 0.802029 0.589166
0.518120 0.804166 0.593194
0.529229 0.805447 0.596674
0.542077 0.805661 0.599237
0.555566 0.804440 0.600153
0.569909 0.802304 0.600336
0.585687 0.799588 0.600305
0.603143 0.796628 0.600397
0.621393 0.793454 0.600763
0.640070 0.790097 0.601404
0.652613 0.785824 0.596918
0.643397 0.779416 0.572595
0.638880 0.771176 0.550622
0.642481 0.760464 0.535027
0.645991 0.748653 0.517784
0.662928 0.745754 0.506584
0.693690 0.751247 0.500999
0.727016 0.756771 0.494972
0.762264 0.762387 0.488533
0.798550 0.768093 0.481544
0.832517 0.771420 0.473854
0.855222 0.763516 0.478035
0.876493 0.758755 0.462898
0.893706 0.751919 0.430823
0.911254 0.746181 0.399969
0.929229 0.742367 0.371771
0.946258 0.743130 0.367773
0.963073 0.748043 0.379675
0.979950 0.756191 0.398199
0.996551 0.767086 0.422431
1.000000 0.780545 0.452186
0.554192 0.825406 0.624567
0.558495 0.826200 0.626307
0.562799 0.826749 0.627802
0.569543 0.826658 0.628870
0.578363 0.825925 0.629664
0.588739 0.824399 0.629816
0.600885 0.822507 0.629816
0.614862 0.820310 0.630091
0.630457 0.818173 0.630884
0.647272 0.815824 0.631922
0.664485 0.813382 0.633204
0.681178 0.810422 0.634058
0.681270 0.805631 0.620447
0.672572 0.799557 0.597314
0.672602 0.790982 0.581079
0.675380 0.781003 0.566278
0.678218 0.770199 0.550164
0.698390 0.771206 0.542748
0.726284 0.776120 0.537865
0.756191 0.781003 0.532464
0.787442 0.785733 0.526207
0.819516 0.790433 0.519036
0.850065 0.793576 0.510674
0.869169 0.785153 0.511742
0.889891 0.781796 0.502190
0.906340 0.776608 0.474006
0.923644 0.773068 0.448066
0.941650 0.771847 0.425513
0.958526 0.775418 0.428443
0.975006 0.782223 0.443366
0.991241 0.791501 0.463508
1.000000 0.803799 0.490455
0.582513 0.840421 0.647272
0.586419 0.841215 0.649012
0.590417 0.841855 0.650507
0.596460 0.841855 0.651698
0.604120 0.841215 0.652338
0.612879 0.839841 0.652399
0.623224 0.837980 0.652247
0.635035 0.835874 0.652125
0.648676 0.833707 0.652491
0.663416 0.831571 0.653254
0.678706 0.829343 0.654200
0.693721 0.826810 0.654902
0.705531 0.823484 0.652796
0.698512 0.818387 0.633295
0.692073 0.812406 0.612787
0.695186 0.804166 0.600671
0.698360 0.795346 0.587579
0.701747 0.786038 0.573449
0.725795 0.790951 0.570275
0.752285 0.796170 0.567010
0.780453 0.801389 0.563348
0.809689 0.806546 0.559228
0.839231 0.811582 0.554192
0.868009 0.815885 0.547997
0.879759 0.801541 0.536522
0.900572 0.799954 0.532311
0.916899 0.796750 0.508293
0.934112 0.795377 0.487129
0.952117 0.796353 0.469673
0.968597 0.802029 0.479011
0.985077 0.811124 0.497902
1.000000 0.822782 0.522667
0.623682 0.861662 0.680629
0.627253 0.862547 0.682429
0.630457 0.862913 0.683558
0.634791 0.862608 0.684016
0.640345 0.861631 0.683925
0.647059 0.860075 0.683345
0.654963 0.858030 0.682460
0.663996 0.855650 0.681422
0.674403 0.853086 0.680476
0.685817 0.850492 0.679866
0.697688 0.847684 0.679103
0.710079 0.844846 0.678584
0.722286 0.841642 0.677760
0.723293 0.837095 0.666835
0.715419 0.831296 0.646693
0.711971 0.823972 0.629511
0.713832 0.815366 0.616815
0.716335 0.806638 0.603784
0.723415 0.800839 0.592981
0.747097 0.806271 0.591119
0.772702 0.811856 0.589288
0.799405 0.817258 0.586938
0.826352 0.822080 0.583124
0.853025 0.826291 0.577630
0.879149 0.829801 0.569909
0.893370 0.821378 0.567742
0.913878 0.821317 0.568261
0.929625 0.819425 0.547173
0.946441 0.819608 0.529717
0.963989 0.822507 0.517906
0.980163 0.830777 0.534203
0.996033 0.841398 0.556451
0.645502 0.874144 0.699550
0.648676 0.874968 0.701289
0.651575 0.875364 0.702358
0.655360 0.875151 0.702815
0.660273 0.874296 0.702754
0.666285 0.873014 0.702327
0.673518 0.871397 0.701747
0.681941 0.869535 0.701198
0.691585 0.867552 0.700801
0.702327 0.865629 0.700679
0.713588 0.863554 0.700587
0.725460 0.861479 0.700649
0.737209 0.859098 0.700496
0.748135 0.856168 0.699489
0.742031 0.851621 0.682704
0.735164 0.846555 0.663783
0.736355 0.839719 0.652125
0.739345 0.832547 0.641596
0.743130 0.825498 0.631220
0.754513 0.823758 0.624933
0.776761 0.829038 0.623896
0.800168 0.834226 0.622492
0.824155 0.838956 0.620111
0.848234 0.843168 0.616419
0.872068 0.846830 0.611170
0.895628 0.850034 0.604395
0.908507 0.842618 0.601709
0.928740 0.844144 0.606806
0.944427 0.844541 0.591028
0.961425 0.847593 0.580163
0.978485 0.853361 0.578485
0.993835 0.862821 0.597742
0.670466 0.888640 0.721767
0.672877 0.889158 0.722927
0.674708 0.889250 0.723384
0.677546 0.888792 0.723323
0.681239 0.887785 0.722805
0.686061 0.886412 0.722072
0.692012 0.884825 0.721218
0.699306 0.883055 0.720485
0.707912 0.881285 0.720027
0.717617 0.879667 0.720058
0.728145 0.877958 0.720119
0.739315 0.876402 0.720607
0.750546 0.874601 0.720882
0.761318 0.872343 0.720607
0.764340 0.869078 0.713222
0.758572 0.864805 0.696925
0.754360 0.859892 0.680964
0.757351 0.853666 0.671778
0.761135 0.847654 0.662928
0.765652 0.841855 0.654322
0.780148 0.843076 0.650965
0.800900 0.848020 0.650263
0.822385 0.852598 0.648707
0.844175 0.856809 0.646235
0.865995 0.860472 0.642573
0.887724 0.863676 0.637537
0.909453 0.866728 0.631312
0.921202 0.859861 0.628107
0.941100 0.862608 0.637110
0.957031 0.865293 0.626673
0.973632 0.869963 0.620508
0.989563 0.877348 0.626307
0.689876 0.900755 0.739864
0.691615 0.901061 0.740566
0.693263 0.901122 0.740963
0.695888 0.900847 0.741146
0.699855 0.900267 0.741176
0.705287 0.899657 0.741543
0.712551 0.899321 0.742458
0.721340 0.899046 0.743893
0.731533 0.899016 0.745907
0.742763 0.899107 0.748318
0.754604 0.899229 0.750973
0.766629 0.899260 0.753567
0.778470 0.898985 0.755764
0.789670 0.898192 0.757321
0.799924 0.896757 0.757992
0.797177 0.893980 0.746242
0.792660 0.890745 0.731624
0.792660 0.886656 0.720974
0.796567 0.882078 0.713985
0.801053 0.877653 0.707179
0.806088 0.873320 0.700557
0.821744 0.876432 0.699306
0.839597 0.880339 0.698146
0.857939 0.883909 0.696345
0.876555 0.887083 0.693477
0.895537 0.890074 0.689937
0.914763 0.892943 0.685603
0.933959 0.895659 0.680415
0.944244 0.889799 0.677760
0.961730 0.892210 0.687007
0.976745 0.895903 0.681697
0.991638 0.900908 0.678981
0.724239 0.920684 0.771023
0.725521 0.920806 0.771420
0.726528 0.920684 0.771450
0.728389 0.920226 0.771237
0.731350 0.919524 0.770901
0.735439 0.918669 0.770657
0.740871 0.917876 0.770748
0.747585 0.917113 0.771145
0.755428 0.916442 0.771878
0.764279 0.915831 0.772976
0.773709 0.915190 0.774136
0.783566 0.914519 0.775448
0.793454 0.913695 0.776608
0.803220 0.912627 0.777523
0.812497 0.911223 0.777890
0.817105 0.909270 0.773953
