其他预设/【240】TEZZA调色预设合集24款/1.LUT预设（视频调色-PR-AE-PS-FCPX-达芬奇用）/Tezza自然__-2.cube
# Created by Adobe Lightroom plugin Export LUT (1.17.0)
# www.johnrellis.com/lightroom/exportlut.htm
# Preset: Tezza自然[素锦印象]-2
# Color profile: /Library/Application Support/Adobe/Color/Profiles/Recommended/AdobeRGB1998.icc
LUT_3D_SIZE 32
0.000000 0.000000 0.000000
0.009888 0.000610 0.002930
0.022461 0.000763 0.005829
0.051423 0.001404 0.011475
0.071717 0.000763 0.020111
0.091493 0.000000 0.028412
0.118318 0.000000 0.035004
0.151461 0.000000 0.042603
0.190585 0.000000 0.046601
0.234501 0.000000 0.049805
0.282841 0.000000 0.051026
0.334081 0.000000 0.051087
0.385901 0.000000 0.049195
0.435645 0.000000 0.045655
0.482307 0.000000 0.042420
0.525414 0.000000 0.041718
0.564477 0.000000 0.044221
0.599664 0.000000 0.049348
0.631708 0.000000 0.058717
0.670893 0.000000 0.070527
0.706813 0.000000 0.087556
0.736202 0.000000 0.106325
0.760983 0.000000 0.126558
0.783108 0.000000 0.147768
0.803220 0.000000 0.170138
0.822293 0.000000 0.195163
0.841245 0.000000 0.223819
0.860380 0.000000 0.256352
0.880156 0.000000 0.294835
0.900755 0.000000 0.339757
0.916381 0.000000 0.373846
0.916320 0.000000 0.375067
0.002533 0.012329 0.004334
0.009949 0.014588 0.005035
0.024018 0.016938 0.005554
0.050965 0.015625 0.010346
0.071962 0.011383 0.014893
0.091859 0.000000 0.018341
0.117281 0.000000 0.026123
0.149142 0.000000 0.031891
0.186954 0.000000 0.036103
0.230014 0.000000 0.040497
0.276860 0.000000 0.042725
0.327123 0.000000 0.043183
0.378027 0.000000 0.041352
0.427558 0.000000 0.037537
0.474067 0.000000 0.033539
0.517235 0.000000 0.031037
0.556725 0.000000 0.032593
0.592493 0.000000 0.037507
0.625116 0.000000 0.048402
0.664607 0.000000 0.063630
0.700069 0.000000 0.080140
0.729458 0.000000 0.098482
0.754299 0.000000 0.118074
0.776608 0.000000 0.138827
0.797024 0.000000 0.161532
0.816526 0.000000 0.185916
0.835935 0.000000 0.214298
0.855467 0.000000 0.246738
0.875639 0.000000 0.284611
0.896574 0.000000 0.329320
0.916350 0.000000 0.374853
0.916411 0.000000 0.373663
0.005371 0.030426 0.009277
0.009674 0.033143 0.012177
0.025727 0.035279 0.009430
0.050874 0.039002 0.012757
0.071534 0.033783 0.017426
0.090822 0.023804 0.020813
0.115633 0.004791 0.022614
0.147005 0.000000 0.024689
0.184054 0.000000 0.025208
0.225895 0.000000 0.026917
0.272038 0.000000 0.029419
0.321477 0.000000 0.030304
0.371954 0.000000 0.028809
0.421454 0.000000 0.025299
0.468116 0.000000 0.021576
0.511559 0.000000 0.019226
0.551293 0.000000 0.019806
0.587640 0.000000 0.023529
0.620752 0.000000 0.033845
0.660792 0.000000 0.054170
0.696101 0.000000 0.073182
0.725704 0.000000 0.091920
0.750576 0.000000 0.111238
0.773037 0.000000 0.132418
0.793637 0.000000 0.154849
0.813291 0.000000 0.179294
0.832914 0.000000 0.207156
0.852811 0.000000 0.239689
0.873198 0.000000 0.277958
0.894347 0.000000 0.322515
0.916228 0.000000 0.374121
0.916503 0.000000 0.371984
0.013092 0.059632 0.023560
0.019501 0.061006 0.028504
0.022919 0.062654 0.028077
0.056184 0.063630 0.022614
0.072572 0.063264 0.023774
0.089967 0.060182 0.024994
0.114565 0.046662 0.025849
0.144656 0.015290 0.026886
0.180514 0.000000 0.026703
0.221256 0.000000 0.025727
0.265843 0.000000 0.024811
0.314183 0.000000 0.022339
0.363867 0.000000 0.018494
0.412726 0.000000 0.012573
0.459602 0.000000 0.007263
0.503288 0.000000 0.002197
0.543603 0.000000 0.000000
0.580407 0.000000 0.000000
0.613916 0.000000 0.004639
0.654627 0.000000 0.022889
0.689113 0.000000 0.055634
0.718624 0.000000 0.076814
0.744106 0.000000 0.097475
0.767514 0.000000 0.119753
0.789517 0.000000 0.143313
0.810605 0.000000 0.169955
0.831357 0.000000 0.199161
0.851926 0.000000 0.232731
0.872648 0.000000 0.271763
0.893767 0.000000 0.316808
0.915404 0.000000 0.367651
0.916716 0.000000 0.367956
0.020935 0.077241 0.038758
0.026215 0.078340 0.042664
0.031525 0.079835 0.045350
0.047089 0.083131 0.044007
0.076631 0.082826 0.033722
0.094453 0.079377 0.030823
0.111269 0.075532 0.029847
0.139864 0.064851 0.029084
0.173770 0.032898 0.029236
0.212497 0.000000 0.027680
0.255528 0.000000 0.027466
0.302312 0.000000 0.024750
0.351080 0.000000 0.021759
0.399939 0.000000 0.016358
0.447395 0.000000 0.010437
0.492622 0.000000 0.005280
0.534539 0.000000 0.001587
0.572808 0.000000 0.000000
0.610590 0.000000 0.001953
0.650080 0.000000 0.012726
0.684199 0.000000 0.035492
0.713649 0.000000 0.061158
0.739467 0.000000 0.078614
0.763210 0.000000 0.103212
0.785702 0.000000 0.128206
0.807309 0.000000 0.155764
0.828489 0.000000 0.186435
0.849393 0.000000 0.220554
0.870329 0.000000 0.259617
0.891630 0.000000 0.304601
0.913481 0.000000 0.356359
0.917052 0.000000 0.361791
0.024689 0.099275 0.052583
0.029480 0.100923 0.055299
0.037934 0.102632 0.058686
0.046448 0.107576 0.057954
0.068025 0.111452 0.053529
0.102327 0.109285 0.041413
0.125063 0.101503 0.033753
0.140597 0.094575 0.032593
0.168734 0.084138 0.030396
0.205905 0.064881 0.029389
0.247349 0.000000 0.028687
0.292638 0.000000 0.026581
0.340276 0.000000 0.023194
0.388952 0.000000 0.018494
0.436713 0.000000 0.013031
0.482643 0.000000 0.007935
0.525505 0.000000 0.004242
0.565057 0.000000 0.002228
0.607080 0.000000 0.006287
0.646418 0.000000 0.017945
0.680812 0.000000 0.040101
0.711055 0.000000 0.064027
0.776608 0.000000 0.115084
0.799344 0.000000 0.136751
0.820096 0.000000 0.159182
0.839780 0.000000 0.183383
0.858366 0.000000 0.216709
0.876829 0.000000 0.253849
0.895659 0.000000 0.296483
0.915099 0.000000 0.344152
0.917784 0.000000 0.347723
0.917479 0.000000 0.353521
0.019440 0.136507 0.062287
0.024903 0.138338 0.063569
0.033326 0.140749 0.065492
0.044526 0.146944 0.066865
0.058167 0.157534 0.066346
0.095735 0.157748 0.059541
0.144717 0.151064 0.042329
0.173495 0.136568 0.029480
0.189212 0.123659 0.030030
0.209354 0.112490 0.027466
0.251560 0.093690 0.026612
0.297887 0.055787 0.023438
0.345495 0.000000 0.020020
0.393805 0.000000 0.015595
0.440375 0.000000 0.011688
0.484779 0.000000 0.007507
0.526787 0.000000 0.004273
0.570031 0.000000 0.005463
0.614771 0.000000 0.012055
0.655451 0.000000 0.029877
0.692073 0.000000 0.058412
0.725307 0.000000 0.078706
0.755215 0.000000 0.100587
0.783047 0.000000 0.124819
0.808286 0.000000 0.150423
0.830777 0.000000 0.176303
0.851469 0.000000 0.203799
0.871458 0.000000 0.234043
0.891325 0.000000 0.272953
0.911009 0.000000 0.321782
0.918425 0.000000 0.335943
0.918059 0.000000 0.342809
0.005921 0.173068 0.068208
0.011963 0.174685 0.070069
0.019379 0.177218 0.071931
0.040772 0.182498 0.076783
0.054017 0.193118 0.075807
0.071992 0.206241 0.075044
0.128481 0.199435 0.062531
0.184817 0.189151 0.040101
0.216556 0.169894 0.021912
0.232944 0.153597 0.022004
0.248692 0.139712 0.021485
0.282261 0.123659 0.019196
0.329076 0.097261 0.015686
0.376623 0.029725 0.012390
0.423407 0.000000 0.008331
0.468421 0.000000 0.005097
0.512810 0.000000 0.003632
0.561303 0.000000 0.004761
0.604303 0.000000 0.011414
0.644526 0.000000 0.027588
0.681666 0.000000 0.055604
0.715358 0.000000 0.076081
0.745693 0.000000 0.097475
0.773709 0.000000 0.121004
0.799405 0.000000 0.145754
0.822446 0.000000 0.171450
0.843778 0.000000 0.198459
0.864347 0.000000 0.228458
0.885161 0.000000 0.263127
0.906310 0.000000 0.302800
0.918181 0.000000 0.329717
0.918700 0.000000 0.329564
0.000000 0.214847 0.077302
0.000000 0.216556 0.079072
0.000153 0.218967 0.081514
0.025605 0.224033 0.086885
0.052064 0.233677 0.089052
0.070008 0.247868 0.090242
0.106386 0.256382 0.085145
0.168215 0.246586 0.068086
0.230625 0.232456 0.039643
0.265415 0.208560 0.014313
0.283177 0.189364 0.005982
0.297490 0.171542 0.008850
0.313085 0.155123 0.008362
0.360327 0.133425 0.004608
0.406897 0.100923 0.001465
0.453559 0.012909 0.000000
0.504631 0.000000 0.000000
0.551415 0.000000 0.000366
0.593866 0.000000 0.007660
0.634211 0.000000 0.024811
0.671992 0.000000 0.052003
0.706416 0.000000 0.073915
0.737331 0.000000 0.095613
0.765591 0.000000 0.118563
0.791684 0.000000 0.143130
0.815274 0.000000 0.168490
0.837156 0.000000 0.195377
0.858183 0.000000 0.225376
0.879332 0.000000 0.259586
0.900786 0.000000 0.299290
0.916838 0.075227 0.333379
0.917327 0.000000 0.332067
0.000000 0.260136 0.090120
0.000000 0.261692 0.092073
0.000000 0.263767 0.094331
0.012543 0.268559 0.100130
0.059693 0.276585 0.107729
0.073640 0.291051 0.107759
0.094484 0.308690 0.110414
0.148928 0.308446 0.098848
0.214145 0.295567 0.077974
0.280034 0.278416 0.047150
0.316533 0.250004 0.011627
0.333928 0.227451 0.000000
0.346624 0.206455 0.000000
0.357916 0.187137 0.000000
0.391547 0.169558 0.000000
0.444526 0.147494 0.000000
0.495033 0.116243 0.000000
0.542016 0.064210 0.000000
0.585046 0.000000 0.000000
0.625483 0.000000 0.017151
0.663233 0.000000 0.045991
0.697078 0.000000 0.070405
0.727474 0.000000 0.091432
0.755062 0.000000 0.113558
0.781033 0.000000 0.137301
0.805142 0.000000 0.162448
0.828031 0.000000 0.189487
0.850278 0.000000 0.219974
0.872587 0.000000 0.255558
0.895171 0.096803 0.296422
0.915160 0.187900 0.337499
0.915496 0.173617 0.336797
0.000000 0.305577 0.105013
0.000000 0.307103 0.106996
0.000000 0.309270 0.109621
0.001831 0.314092 0.115694
0.063630 0.321477 0.125643
0.082490 0.334874 0.128542
0.104158 0.352667 0.132357
0.129763 0.373816 0.137179
0.198978 0.362860 0.116518
0.266758 0.347448 0.092439
0.333532 0.327581 0.060975
0.369787 0.295811 0.015473
0.387152 0.270665 0.000000
0.403113 0.250278 0.000000
0.415839 0.229496 0.000000
0.428840 0.209964 0.000000
0.478706 0.192935 0.000000
0.525628 0.172335 0.000000
0.569512 0.147646 0.000000
0.610864 0.119905 0.000641
0.649958 0.088411 0.028687
0.685481 0.032044 0.063722
0.717311 0.000000 0.086397
0.745876 0.000000 0.109804
0.772519 0.000000 0.133944
0.797208 0.000000 0.159152
0.820523 0.022065 0.186221
0.843198 0.097993 0.216678
0.865843 0.148074 0.252171
0.888823 0.198459 0.292943
0.912535 0.252049 0.339940
0.913359 0.254093 0.341894
0.000000 0.354620 0.123873
0.000000 0.356237 0.125978
0.000000 0.358160 0.128634
0.004761 0.362676 0.134737
0.069886 0.370001 0.144686
0.098665 0.380896 0.153384
0.119051 0.398047 0.157565
0.145571 0.417975 0.163851
0.187411 0.431067 0.163424
0.257145 0.417395 0.139559
0.327123 0.402045 0.112428
0.397467 0.385290 0.080049
0.479347 0.391791 0.067750
0.495583 0.363043 0.000000
0.506523 0.336889 0.000000
0.514122 0.309819 0.000000
0.520745 0.284062 0.000000
0.549248 0.266423 0.000000
0.592096 0.254276 0.000000
0.632136 0.243595 0.000000
0.668666 0.233890 0.038819
0.701106 0.226078 0.074830
0.729915 0.220035 0.099886
0.756710 0.218204 0.124941
0.781949 0.219974 0.150332
0.805661 0.226261 0.177218
0.828153 0.236637 0.205844
0.849912 0.252506 0.237675
0.871672 0.274998 0.273716
0.894102 0.304448 0.315129
0.910094 0.340459 0.349279
0.911101 0.317021 0.347082
0.000000 0.420508 0.154055
0.000000 0.421637 0.155978
0.000000 0.422797 0.158419
0.051118 0.425879 0.164126
0.090333 0.430762 0.173465
0.126925 0.437690 0.186679
0.145602 0.451820 0.190188
0.172488 0.469123 0.197848
0.209628 0.494789 0.211398
0.271061 0.502922 0.206882
0.346258 0.494514 0.184176
0.419684 0.482673 0.157870
0.487800 0.467048 0.125368
0.525872 0.438087 0.098085
0.540551 0.410620 0.035401
0.550317 0.384741 0.000000
0.555627 0.356970 0.000000
0.560204 0.329839 0.000000
0.568383 0.306126 0.000000
0.610346 0.298924 0.000000
0.649226 0.293217 0.000183
0.683955 0.288182 0.057923
0.714626 0.284276 0.087251
0.742519 0.282475 0.113954
0.768704 0.283574 0.140536
0.793423 0.287816 0.168215
0.816892 0.295537 0.197452
0.839628 0.307622 0.229557
0.862333 0.325292 0.266056
0.885649 0.349645 0.308324
0.908232 0.380072 0.353429
0.908659 0.371069 0.352422
0.010407 0.466743 0.179812
0.034821 0.468421 0.182040
0.060853 0.469947 0.184726
0.086091 0.473671 0.191043
0.115785 0.479316 0.200961
0.150790 0.487129 0.215030
0.178775 0.499702 0.225589
0.207309 0.517235 0.235843
0.242618 0.537438 0.249516
0.284184 0.559808 0.267063
0.350256 0.555444 0.250248
0.418311 0.545006 0.225162
0.482185 0.531182 0.196109
0.538872 0.513634 0.161440
0.569055 0.483253 0.132967
0.579126 0.454871 0.086152
0.585565 0.427436 0.041932
0.589502 0.400122 0.007233
0.593713 0.373785 0.000000
0.599908 0.350347 0.000000
0.628046 0.340581 0.000000
0.665766 0.338720 0.013367
0.698909 0.336980 0.071748
0.728634 0.336492 0.102907
0.756191 0.337804 0.131502
0.782101 0.341772 0.160128
0.806760 0.348363 0.190677
0.830625 0.358770 0.223880
0.854307 0.373663 0.261540
0.878569 0.394354 0.304814
0.903716 0.420447 0.354131
0.906218 0.418921 0.358190
0.097932 0.522148 0.217288
0.105318 0.523400 0.219577
0.113558 0.524254 0.221836
0.130007 0.526360 0.227420
0.154360 0.529686 0.236179
0.184604 0.534783 0.248905
0.221561 0.542016 0.266361
0.242741 0.555962 0.272618
0.275639 0.572198 0.286412
0.314122 0.590600 0.303929
0.360449 0.605615 0.317998
0.421607 0.596521 0.294743
0.480232 0.584955 0.267735
0.533440 0.570153 0.235966
0.579828 0.551446 0.198215
0.603784 0.520653 0.167544
0.611109 0.493111 0.121828
0.616175 0.466407 0.085267
0.620081 0.441230 0.065522
0.624842 0.417090 0.036530
0.631861 0.395819 0.000000
0.645930 0.380346 0.000000
0.681666 0.380774 0.040986
0.713619 0.381567 0.087739
0.742824 0.383673 0.120119
0.770535 0.388403 0.151919
0.797238 0.396002 0.184970
0.823178 0.407233 0.221134
0.848966 0.422583 0.262394
0.875212 0.442695 0.309667
0.902495 0.467536 0.363256
0.903777 0.461738 0.363958
0.150179 0.566033 0.254643
0.156161 0.567224 0.257298
0.162600 0.568139 0.259739
0.177066 0.570275 0.265507
0.198428 0.573388 0.274510
0.225925 0.577813 0.287358
0.260136 0.584070 0.304448
0.286687 0.594781 0.315862
0.317845 0.608118 0.330205
0.353063 0.622217 0.347448
0.390906 0.636591 0.366949
0.434546 0.640009 0.367041
0.482673 0.628931 0.339757
0.528771 0.615473 0.308446
0.571435 0.599268 0.272221
0.609796 0.580102 0.231601
0.630030 0.549767 0.200076
0.636683 0.524681 0.155581
0.642634 0.500938 0.118776
0.648249 0.479896 0.100954
0.654658 0.459968 0.086854
0.663020 0.442023 0.069215
0.673335 0.426612 0.032105
0.701564 0.425422 0.073548
0.732753 0.428992 0.111971
0.762295 0.434791 0.147127
0.790555 0.442908 0.183169
0.817868 0.453864 0.222232
0.844694 0.467903 0.265629
0.871794 0.485420 0.314366
0.899596 0.506767 0.368200
0.901427 0.500725 0.369848
0.196506 0.600031 0.289952
0.200565 0.600610 0.291752
0.205966 0.601160 0.293828
0.217838 0.602594 0.299168
0.236393 0.605158 0.307591
0.260899 0.608606 0.319402
0.291447 0.613458 0.335271
0.324956 0.620020 0.353094
0.348638 0.630915 0.363317
0.380224 0.642206 0.379492
0.414282 0.654231 0.398169
0.449134 0.666346 0.418372
0.487648 0.662440 0.405219
0.527031 0.651667 0.377356
0.565332 0.638453 0.344366
0.601190 0.622644 0.306950
0.634638 0.604456 0.265568
0.652705 0.575677 0.234104
0.659449 0.553155 0.190677
0.666194 0.532036 0.152346
0.672480 0.513939 0.135836
0.679377 0.496651 0.123751
0.688075 0.481239 0.109468
0.699001 0.468605 0.093599
0.718532 0.463478 0.096712
0.749966 0.470100 0.136324
0.780209 0.478950 0.175479
0.809354 0.490242 0.217380
0.837888 0.504082 0.263310
0.866484 0.521080 0.314611
0.895964 0.541466 0.371405
0.899199 0.536492 0.375799
0.243687 0.630213 0.327031
0.248783 0.631403 0.329808
0.298711 0.655726 0.367895
0.308782 0.656580 0.372930
0.324132 0.657771 0.380529
0.343999 0.659358 0.390875
0.369268 0.661616 0.404608
0.399207 0.664607 0.422065
0.420905 0.671321 0.432837
0.446754 0.679286 0.447364
0.473732 0.688045 0.463569
0.500908 0.697292 0.480812
0.527031 0.705715 0.495979
0.553582 0.695979 0.470039
0.581720 0.684474 0.439918
0.610651 0.671046 0.404974
0.639704 0.655818 0.365576
0.668208 0.638788 0.322362
0.683742 0.611505 0.289555
0.690120 0.590967 0.245579
0.696925 0.571710 0.204715
0.703243 0.555627 0.187228
0.710292 0.540581 0.175051
0.719142 0.527428 0.161776
0.729915 0.516381 0.147555
0.743313 0.508507 0.134005
0.772610 0.515068 0.171420
0.801968 0.524712 0.213748
0.831174 0.537255 0.260838
0.860899 0.553277 0.313848
0.891722 0.572656 0.372564
0.897154 0.569512 0.381323
0.301335 0.660883 0.372717
0.310369 0.664057 0.379034
0.320867 0.667292 0.386084
0.334936 0.670436 0.394903
0.352544 0.673396 0.405371
0.372412 0.675624 0.416632
0.395300 0.677790 0.429755
0.421759 0.680262 0.445655
0.447608 0.684688 0.461311
0.467323 0.691981 0.472084
0.491005 0.699855 0.486824
0.515068 0.708217 0.502586
0.538445 0.716609 0.518395
0.560357 0.719142 0.520562
0.582330 0.709407 0.494728
0.606134 0.697932 0.464637
0.631250 0.684993 0.430793
0.657191 0.670588 0.392676
0.683467 0.655055 0.351598
0.698878 0.630213 0.321447
0.706081 0.612360 0.280186
0.714382 0.596490 0.242954
0.722011 0.582971 0.225284
0.730129 0.570703 0.214908
0.739986 0.560266 0.203525
0.752407 0.552575 0.192416
0.767880 0.548516 0.183444
0.793606 0.554650 0.207767
0.824552 0.567742 0.257755
0.855741 0.583551 0.313268
0.888029 0.602350 0.374182
0.895323 0.600427 0.386664
0.340002 0.679377 0.403906
0.348058 0.681910 0.409644
0.357244 0.684596 0.416144
0.369696 0.687282 0.424170
0.385382 0.689754 0.433722
0.402564 0.691646 0.443977
0.422675 0.693507 0.455909
0.445655 0.695796 0.470161
0.472206 0.698909 0.487800
0.489204 0.705287 0.497444
0.510094 0.712337 0.511070
0.531456 0.719905 0.525597
0.552239 0.727535 0.540063
0.572229 0.735195 0.554314
0.590051 0.732570 0.545098
0.608698 0.722957 0.519768
0.629297 0.712032 0.490883
0.651606 0.699855 0.458442
0.675257 0.686702 0.422858
0.699702 0.672816 0.384588
0.714778 0.650599 0.356695
0.723049 0.635126 0.319554
0.732418 0.621881 0.284855
0.741054 0.610437 0.267430
0.749844 0.600397 0.258640
0.760922 0.592645 0.249393
0.774838 0.587884 0.241611
0.792508 0.587549 0.237583
0.816831 0.594415 0.251530
0.849454 0.610254 0.309392
0.883177 0.628840 0.372747
0.893767 0.629541 0.391669
0.377783 0.696559 0.435065
0.385168 0.698848 0.440528
0.393622 0.701259 0.446571
0.404669 0.703639 0.453986
0.418189 0.705837 0.462623
0.433234 0.707546 0.471809
0.450172 0.709133 0.482368
0.469917 0.711086 0.494972
0.492622 0.713680 0.510521
0.512352 0.718166 0.523766
0.528771 0.724575 0.534386
0.547478 0.731319 0.547387
0.565667 0.738216 0.560327
0.583459 0.745418 0.573175
0.600610 0.752590 0.585809
0.616358 0.745937 0.568597
0.633906 0.737484 0.546502
0.653346 0.728389 0.521630
0.674769 0.718624 0.494392
0.697597 0.708248 0.464881
0.721279 0.697353 0.432593
0.737026 0.679164 0.409033
0.746700 0.666194 0.377111
0.757656 0.656397 0.347539
0.768063 0.647974 0.332006
0.778988 0.641749 0.327062
0.792691 0.638239 0.322881
0.809964 0.638605 0.322301
0.831937 0.643824 0.327520
0.859556 0.654536 0.340887
0.891844 0.673671 0.398291
0.892485 0.657618 0.395880
0.433753 0.721279 0.482338
0.437934 0.722377 0.485389
0.442206 0.723354 0.488411
0.449256 0.724422 0.492988
0.458900 0.725521 0.499123
0.470527 0.726589 0.506462
0.484749 0.727962 0.515770
0.501732 0.729824 0.527398
0.521630 0.732387 0.541772
0.543694 0.735744 0.558648
0.556603 0.742061 0.567102
0.572656 0.748409 0.578820
0.588281 0.754849 0.590356
0.603540 0.761349 0.601709
0.618341 0.767819 0.612818
0.632471 0.771481 0.617792
0.646357 0.764218 0.600214
0.661921 0.756374 0.580621
0.679164 0.747951 0.558618
0.697993 0.738949 0.533745
0.718257 0.729213 0.505699
0.739620 0.718868 0.474891
0.754025 0.701808 0.451423
0.763180 0.688991 0.421180
0.774319 0.680446 0.393469
0.785397 0.673518 0.379492
0.797696 0.669886 0.378088
0.813565 0.669734 0.379156
0.833799 0.673976 0.385260
0.859495 0.683314 0.398322
0.891386 0.699214 0.421332
0.891539 0.685023 0.399664
0.467353 0.737118 0.512169
0.471168 0.738186 0.515129
0.475074 0.739132 0.518090
0.481239 0.740169 0.522362
0.489479 0.741176 0.527886
0.499153 0.742031 0.534234
0.510979 0.743099 0.542229
0.525200 0.744503 0.552239
0.541924 0.746670 0.564538
0.560235 0.749569 0.578729
0.574823 0.754330 0.589502
0.587701 0.760189 0.598779
0.601526 0.766049 0.609125
0.615320 0.772122 0.619623
0.628840 0.778286 0.629969
0.642237 0.784512 0.640375
0.654932 0.784573 0.638300
0.668269 0.778225 0.623011
0.683162 0.771389 0.606043
0.699519 0.764157 0.587274
0.717342 0.756527 0.566278
0.736507 0.748379 0.542687
0.756893 0.739712 0.515740
0.771237 0.725002 0.495338
0.776425 0.707637 0.457404
0.788052 0.700923 0.434302
0.800443 0.696071 0.423133
0.814511 0.695247 0.425971
0.832792 0.698482 0.432746
0.856382 0.706783 0.445869
0.886870 0.721706 0.467994
0.891173 0.713130 0.449592
0.512505 0.758785 0.554223
0.515953 0.759854 0.557122
0.519066 0.760616 0.559564
0.523430 0.761196 0.562646
0.529229 0.761685 0.566613
0.536431 0.762081 0.571374
0.545190 0.762631 0.577356
0.555657 0.763455 0.584649
0.568048 0.764736 0.593713
0.582055 0.766659 0.604517
0.596887 0.769284 0.616175
0.605493 0.774136 0.621637
0.616907 0.778988 0.629999
0.628260 0.783841 0.638392
0.639521 0.788663 0.646754
0.650813 0.793606 0.655207
0.662287 0.798703 0.664057
0.672969 0.795163 0.654688
0.685359 0.789303 0.640192
0.699794 0.783413 0.625299
0.715663 0.777371 0.609216
0.732784 0.770809 0.591119
0.750820 0.763577 0.570275
0.769802 0.755367 0.545617
0.783108 0.741360 0.525383
0.792142 0.729702 0.500572
0.804410 0.724849 0.483375
0.818357 0.722133 0.474403
0.834562 0.724392 0.481575
0.855924 0.731655 0.494423
0.883787 0.745266 0.515190
0.890562 0.739559 0.502220
0.538750 0.772763 0.579980
0.541741 0.773800 0.582605
0.544366 0.774563 0.584802
0.547997 0.775113 0.587457
0.552789 0.775570 0.590784
0.558892 0.775998 0.594995
0.566461 0.776638 0.600275
0.575586 0.777554 0.606928
0.586358 0.778927 0.615076
0.598871 0.780911 0.624872
0.612421 0.783413 0.635889
0.622644 0.787533 0.643549
0.632532 0.792172 0.650965
0.643244 0.796719 0.659236
0.653895 0.801297 0.667445
0.664515 0.805936 0.675746
0.675319 0.810666 0.684352
0.686183 0.814878 0.691737
0.696040 0.810208 0.679683
0.707820 0.805509 0.667170
0.721248 0.800595 0.653864
0.736019 0.795377 0.639490
0.751980 0.789609 0.623560
0.768948 0.783230 0.605280
0.786984 0.776150 0.584131
0.800137 0.763882 0.566979
0.809598 0.753780 0.547265
0.823239 0.751827 0.537591
0.839933 0.753231 0.535790
0.860288 0.760220 0.547906
0.886656 0.773037 0.567224
0.889647 0.763699 0.549126
0.566735 0.788968 0.608545
0.568841 0.789731 0.610437
0.570520 0.790127 0.611749
0.573022 0.790372 0.613550
0.576532 0.790494 0.615839
0.581170 0.790646 0.618982
0.587152 0.790982 0.623163
0.594598 0.791653 0.628565
0.603754 0.792844 0.635523
0.614405 0.794583 0.643977
0.626581 0.796811 0.653956
0.639094 0.799924 0.664515
0.647028 0.804349 0.670192
0.656977 0.808469 0.678065
0.666712 0.812558 0.685725
0.676478 0.816587 0.693477
0.686336 0.820737 0.701320
0.696468 0.825132 0.709651
0.706142 0.826688 0.711513
0.715633 0.822934 0.701076
0.726772 0.819059 0.689937
0.739345 0.814969 0.678035
0.753231 0.810452 0.664851
0.768368 0.805570 0.650233
0.784726 0.800076 0.633814
0.802304 0.794064 0.615381
0.815671 0.783719 0.601190
0.825742 0.775051 0.585748
0.840696 0.775814 0.582849
0.860197 0.781094 0.586908
0.884581 0.792325 0.602197
0.888884 0.785092 0.588556
0.589105 0.803220 0.632227
0.590539 0.803738 0.633478
0.591913 0.804074 0.634638
0.594141 0.804379 0.636286
0.597589 0.804776 0.638788
0.602441 0.805478 0.642481
0.608942 0.806729 0.647639
0.617121 0.808469 0.654353
0.627039 0.810727 0.662684
0.638453 0.813504 0.672541
0.651057 0.816648 0.683742
0.664698 0.820066 0.696040
0.674281 0.824369 0.704097
0.683528 0.828489 0.711788
0.692988 0.832242 0.719600
0.701961 0.835721 0.726864
0.710842 0.839078 0.734066
0.719936 0.842557 0.741512
0.729366 0.846220 0.749416
0.737392 0.845853 0.746975
0.745876 0.843259 0.738430
0.755764 0.840543 0.729183
0.767086 0.837552 0.718959
0.779873 0.834348 0.707637
0.794186 0.830777 0.695064
0.810147 0.826932 0.681056
0.827909 0.822904 0.665675
0.842069 0.815152 0.654505
0.853483 0.809171 0.645350
0.871427 0.813718 0.647639
0.886992 0.817411 0.648127
0.888212 0.803861 0.621607
0.623377 0.825895 0.669490
0.624353 0.826200 0.670344
0.625177 0.826291 0.670924
0.626734 0.826291 0.671992
0.629175 0.826322 0.673671
0.632654 0.826505 0.676204
0.637446 0.826963 0.679835
0.643610 0.827817 0.684718
0.651179 0.829007 0.690913
0.660090 0.830564 0.698451
0.670039 0.832364 0.706966
0.681117 0.834470 0.716670
0.691463 0.837003 0.725582
0.698207 0.840146 0.730617
0.706294 0.842954 0.737118
0.714443 0.845701 0.743618
