其他预设/【240】TEZZA调色预设合集24款/1.LUT预设（视频调色-PR-AE-PS-FCPX-达芬奇用）/Tezza古董__-6.cube
# Created by Adobe Lightroom plugin Export LUT (1.17.0)
# www.johnrellis.com/lightroom/exportlut.htm
# Preset: Tezza古董[素锦印象]-6
# Color profile: /Library/Application Support/Adobe/Color/Profiles/Recommended/AdobeRGB1998.icc
LUT_3D_SIZE 32
0.104891 0.063813 0.072328
0.109316 0.062867 0.072572
0.115084 0.061860 0.072389
0.130190 0.058442 0.072236
0.158419 0.040681 0.071839
0.199649 0.000000 0.070588
0.251621 0.000000 0.067842
0.312627 0.000000 0.063111
0.381720 0.000000 0.052705
0.456367 0.000000 0.027527
0.533562 0.000000 0.000000
0.605341 0.000000 0.000000
0.666621 0.000000 0.000000
0.716609 0.000000 0.000000
0.757870 0.000000 0.000000
0.792966 0.000000 0.000000
0.834012 0.000000 0.000000
0.867155 0.000000 0.000000
0.893492 0.000000 0.000000
0.916930 0.000000 0.000000
0.938109 0.000000 0.000000
0.957549 0.000000 0.000000
0.975006 0.000000 0.000000
0.991150 0.000000 0.000000
1.000000 0.000000 0.000000
1.000000 0.000000 0.000000
1.000000 0.000000 0.000000
1.000000 0.000000 0.000000
1.000000 0.000000 0.000000
1.000000 0.000000 0.000000
1.000000 0.000000 0.000000
1.000000 0.107393 0.000000
0.105592 0.066194 0.073915
0.108186 0.065461 0.073518
0.113161 0.065675 0.073640
0.128023 0.063569 0.073426
0.156008 0.053285 0.072328
0.196231 0.014893 0.070741
0.246342 0.000000 0.068177
0.305333 0.000000 0.063294
0.372595 0.000000 0.053651
0.446265 0.000000 0.029755
0.522362 0.000000 0.000000
0.594629 0.000000 0.000000
0.656764 0.000000 0.000000
0.707881 0.000000 0.000000
0.750210 0.000000 0.000000
0.786099 0.000000 0.000000
0.827420 0.000000 0.000000
0.860075 0.000000 0.000000
0.886320 0.000000 0.000000
0.909880 0.000000 0.000000
0.931456 0.000000 0.000000
0.951232 0.000000 0.000000
0.969116 0.000000 0.000000
0.985718 0.000000 0.000000
1.000000 0.000000 0.000000
1.000000 0.000000 0.000000
1.000000 0.000000 0.000000
1.000000 0.000000 0.000000
1.000000 0.000000 0.000000
1.000000 0.000000 0.000000
1.000000 0.000000 0.000000
1.000000 0.098665 0.000000
0.106416 0.070100 0.075715
0.109194 0.069306 0.075654
0.112520 0.068330 0.074891
0.123842 0.068879 0.075380
0.148562 0.064942 0.074311
0.186923 0.046021 0.072450
0.236759 0.000000 0.069368
0.296361 0.000000 0.064332
0.363622 0.000000 0.054902
0.435676 0.000000 0.032349
0.511498 0.000000 0.000000
0.584680 0.000000 0.000000
0.648280 0.000000 0.000000
0.700801 0.000000 0.000000
0.743862 0.000000 0.000000
0.780697 0.000000 0.000000
0.822904 0.000000 0.000000
0.855070 0.000000 0.000000
0.881437 0.000000 0.000000
0.905303 0.000000 0.000000
0.927245 0.000000 0.000000
0.947387 0.000000 0.000000
0.965606 0.000000 0.000000
0.982452 0.000000 0.000000
0.998169 0.000000 0.000000
1.000000 0.000000 0.000000
1.000000 0.000000 0.000000
1.000000 0.000000 0.000000
1.000000 0.000000 0.000000
1.000000 0.000000 0.000000
1.000000 0.000000 0.000000
1.000000 0.102907 0.000000
0.108431 0.079500 0.080140
0.112856 0.079072 0.080629
0.114626 0.077943 0.079683
0.122316 0.075532 0.077913
0.139712 0.075502 0.077729
0.170077 0.071656 0.076539
0.215915 0.054932 0.073121
0.272343 0.000000 0.068391
0.338659 0.000000 0.061097
0.412085 0.000000 0.041688
0.489265 0.000000 0.007141
0.565942 0.000000 0.000000
0.632746 0.000000 0.000000
0.688472 0.000000 0.000000
0.734035 0.000000 0.000000
0.774899 0.000000 0.000000
0.816068 0.000000 0.000000
0.847745 0.000000 0.000000
0.873930 0.000000 0.000000
0.897612 0.000000 0.000000
0.919738 0.000000 0.000000
0.940246 0.000000 0.000000
0.959289 0.000000 0.000000
0.977234 0.000000 0.000000
0.994263 0.000000 0.000000
1.000000 0.000000 0.000000
1.000000 0.000000 0.000000
1.000000 0.000000 0.000000
1.000000 0.000000 0.000000
1.000000 0.000000 0.000000
1.000000 0.000000 0.000000
1.000000 0.126192 0.000000
0.110201 0.093355 0.086458
0.114290 0.093050 0.086915
0.119478 0.092805 0.087007
0.121401 0.090089 0.083650
0.135348 0.084993 0.081331
0.156924 0.084932 0.080232
0.188174 0.082124 0.079011
0.238804 0.071473 0.074708
0.300359 0.019226 0.068147
0.370520 0.000000 0.058686
0.447211 0.000000 0.029023
0.525261 0.000000 0.000000
0.598138 0.000000 0.000000
0.660578 0.000000 0.000000
0.712154 0.000000 0.000000
0.761654 0.000000 0.000000
0.804471 0.000000 0.000000
0.838010 0.000000 0.000000
0.865934 0.000000 0.000000
0.890867 0.000000 0.000000
0.913725 0.000000 0.000000
0.934539 0.000000 0.000000
0.954040 0.000000 0.000000
0.972534 0.000000 0.000000
0.990204 0.000000 0.000000
1.000000 0.000000 0.000000
1.000000 0.000000 0.000000
1.000000 0.000000 0.000000
1.000000 0.000000 0.000000
1.000000 0.000000 0.000000
1.000000 0.087068 0.000000
1.000000 0.155459 0.000000
0.111147 0.111604 0.094301
0.114839 0.112123 0.094636
0.120119 0.112581 0.094942
0.126406 0.110780 0.093080
0.132509 0.106081 0.087526
0.151858 0.098054 0.085084
0.177554 0.097230 0.082734
0.213321 0.096742 0.080781
0.261967 0.090242 0.076600
0.328283 0.071778 0.068238
0.402319 0.000000 0.052766
0.480598 0.000000 0.013306
0.558373 0.000000 0.000000
0.627955 0.000000 0.000000
0.688319 0.000000 0.000000
0.744503 0.000000 0.000000
0.789212 0.000000 0.000000
0.825010 0.000000 0.000000
0.854917 0.000000 0.000000
0.881682 0.000000 0.000000
0.906157 0.000000 0.000000
0.929015 0.000000 0.000000
0.981811 0.000000 0.000000
0.999084 0.000000 0.000000
1.000000 0.000000 0.000000
1.000000 0.000000 0.000000
1.000000 0.000000 0.000000
1.000000 0.087526 0.000000
1.000000 0.136721 0.000000
1.000000 0.175387 0.000000
1.000000 0.209415 0.000000
1.000000 0.239841 0.000000
0.110536 0.140169 0.106050
0.114443 0.141054 0.106294
0.119783 0.142245 0.106691
0.132387 0.143862 0.107668
0.137514 0.139223 0.101808
0.151461 0.131624 0.093385
0.177432 0.119997 0.089876
0.208011 0.117708 0.086122
0.250065 0.119265 0.082277
0.299565 0.116274 0.078248
0.370581 0.108736 0.067323
0.450996 0.091096 0.038209
0.532250 0.050752 0.000000
0.606531 0.000000 0.000000
0.682368 0.000000 0.000000
0.739193 0.000000 0.000000
0.784482 0.000000 0.000000
0.821500 0.000000 0.000000
0.852934 0.000000 0.000000
0.882017 0.000000 0.000000
0.909392 0.000000 0.000000
0.935760 0.000000 0.000000
0.960296 0.000000 0.000000
0.982879 0.000000 0.000000
1.000000 0.015717 0.000000
1.000000 0.088319 0.000000
1.000000 0.119753 0.000000
1.000000 0.151217 0.000000
1.000000 0.181552 0.000000
1.000000 0.210330 0.000000
1.000000 0.237827 0.000000
1.000000 0.263951 0.000000
0.109224 0.167239 0.117311
0.112825 0.168460 0.117494
0.118105 0.169833 0.117983
0.131228 0.173037 0.119600
0.142489 0.171542 0.116030
0.149538 0.165774 0.109804
0.172519 0.155184 0.098909
0.201755 0.141665 0.094789
0.235294 0.138460 0.090608
0.278660 0.141543 0.083742
0.331579 0.142794 0.078309
0.392889 0.140536 0.070100
0.475410 0.137301 0.036347
0.568139 0.136172 0.000000
0.646113 0.132357 0.000000
0.707088 0.124880 0.000000
0.756252 0.115511 0.000000
0.797330 0.104860 0.000000
0.832212 0.096498 0.000000
0.863890 0.092073 0.000000
0.893370 0.096864 0.000000
0.921294 0.108583 0.000000
0.947326 0.125887 0.000000
0.971069 0.145296 0.000000
0.992554 0.163729 0.000000
1.000000 0.180819 0.000000
1.000000 0.196109 0.000000
1.000000 0.211185 0.000000
1.000000 0.226352 0.000000
1.000000 0.246006 0.000000
1.000000 0.269383 0.000000
1.000000 0.292119 0.000000
0.106630 0.198489 0.130434
0.110231 0.199710 0.130709
0.115694 0.201511 0.131228
0.128695 0.205264 0.133028
0.148135 0.208652 0.134096
0.155917 0.203738 0.126192
0.162234 0.197360 0.112154
0.197452 0.183536 0.105898
0.229831 0.167880 0.100679
0.266087 0.163577 0.095979
0.311223 0.168246 0.086122
0.371099 0.175570 0.078157
0.438025 0.181064 0.068208
0.519249 0.188022 0.027863
0.601465 0.195193 0.000000
0.669459 0.198215 0.000000
0.724575 0.197848 0.000000
0.770718 0.195834 0.000000
0.809873 0.194308 0.000000
0.844816 0.193729 0.000000
0.876890 0.196323 0.000000
0.906706 0.202121 0.000000
0.934325 0.211124 0.000000
0.959442 0.222568 0.000000
0.982086 0.234745 0.000000
1.000000 0.245792 0.000000
1.000000 0.257298 0.000000
1.000000 0.268620 0.000000
1.000000 0.281224 0.000000
1.000000 0.294133 0.000000
1.000000 0.306798 0.000000
1.000000 0.322667 0.000000
0.101564 0.232731 0.145266
0.105715 0.234073 0.145632
0.111360 0.235782 0.146212
0.124758 0.239902 0.147921
0.148867 0.246189 0.151827
0.161837 0.244358 0.145876
0.172000 0.239292 0.138186
0.186038 0.230381 0.120180
0.225650 0.214511 0.113680
0.263920 0.200656 0.108125
0.306096 0.197177 0.103761
0.358190 0.206577 0.090669
0.417334 0.215305 0.077638
0.482612 0.223606 0.065003
0.546929 0.229404 0.037873
0.625208 0.242283 0.000000
0.689754 0.250462 0.000000
0.742550 0.254734 0.000000
0.787228 0.257542 0.000000
0.825711 0.259464 0.000000
0.859861 0.262089 0.000000
0.890837 0.265995 0.000000
0.919158 0.271794 0.000000
0.945006 0.279271 0.000000
0.968566 0.287846 0.000000
0.989960 0.296941 0.000000
1.000000 0.306889 0.000000
1.000000 0.317967 0.000000
1.000000 0.330175 0.000000
1.000000 0.343084 0.000000
1.000000 0.356329 0.000000
1.000000 0.368292 0.000000
0.094240 0.267002 0.160494
0.098512 0.268559 0.161044
0.105165 0.270603 0.161593
0.119112 0.274998 0.163668
0.142916 0.282048 0.167453
0.167056 0.286748 0.168093
0.178561 0.284733 0.159762
0.192081 0.284306 0.153872
0.218997 0.275212 0.132113
0.265293 0.259953 0.125338
0.305638 0.241886 0.117647
0.347875 0.234195 0.112428
0.401068 0.244724 0.096529
0.457649 0.253513 0.077943
0.521599 0.264622 0.062318
0.581476 0.272801 0.028565
0.643854 0.282719 0.000000
0.704860 0.293706 0.000000
0.755581 0.300938 0.000000
0.799832 0.306462 0.000000
0.837827 0.311559 0.000000
0.871916 0.316747 0.000000
0.902770 0.323095 0.000000
0.930694 0.330327 0.000000
0.955871 0.338323 0.000000
0.978607 0.346441 0.000000
0.999451 0.355261 0.000000
1.000000 0.365240 0.000000
1.000000 0.376562 0.000000
1.000000 0.388891 0.000000
1.000000 0.401892 0.000000
1.000000 0.414435 0.000000
0.080293 0.308843 0.179721
0.085512 0.310826 0.180423
0.093141 0.313359 0.181491
0.109194 0.319066 0.183932
0.134951 0.328527 0.188693
0.171847 0.340978 0.196750
0.186954 0.342290 0.189425
0.201724 0.341863 0.181186
0.215579 0.339483 0.167056
0.257298 0.324773 0.146212
0.306493 0.306249 0.137331
0.348547 0.285374 0.127962
0.436286 0.314061 0.131594
0.496559 0.329076 0.109071
0.554772 0.340154 0.081331
0.612543 0.351354 0.059388
0.663752 0.358465 0.027924
0.707454 0.361822 0.007904
0.758083 0.371618 0.000000
0.802640 0.379583 0.000000
0.840909 0.385382 0.000000
0.874540 0.390906 0.000000
0.904692 0.396216 0.000000
0.931914 0.402441 0.000000
0.956603 0.409155 0.000000
0.979065 0.416266 0.000000
0.999573 0.423896 0.000000
1.000000 0.432166 0.000000
1.000000 0.441596 0.000000
1.000000 0.452125 0.000000
1.000000 0.463325 0.000000
1.000000 0.474220 0.000000
0.000000 0.379004 0.213474
0.017762 0.380865 0.214298
0.053315 0.382574 0.214908
0.084962 0.386999 0.216983
0.120424 0.394141 0.220737
0.163546 0.404425 0.227390
0.196872 0.410803 0.227573
0.213260 0.410101 0.217441
0.232242 0.410620 0.209262
0.243809 0.407599 0.176638
0.308904 0.391913 0.166995
0.365972 0.374304 0.156802
0.415839 0.354864 0.146059
0.463203 0.342016 0.141360
0.525597 0.361212 0.119081
0.582116 0.374243 0.092988
0.634913 0.384802 0.069581
0.682399 0.392187 0.057771
0.723781 0.396674 0.048035
0.766079 0.403632 0.023682
0.810300 0.413977 0.000000
0.848447 0.422095 0.000000
0.881651 0.429145 0.000000
0.911650 0.436316 0.000000
0.938537 0.443641 0.000000
0.962860 0.451331 0.000000
0.985107 0.459480 0.000000
1.000000 0.468482 0.000000
1.000000 0.478737 0.000000
1.000000 0.490425 0.000000
1.000000 0.502861 0.000000
1.000000 0.515618 0.058930
0.000000 0.424262 0.236820
0.000000 0.426093 0.237491
0.000000 0.427283 0.238010
0.040620 0.431067 0.239841
0.100465 0.437079 0.242924
0.148684 0.446113 0.248722
0.201938 0.458534 0.258305
0.218662 0.458289 0.247684
0.238071 0.459358 0.238560
0.259953 0.461830 0.231907
0.284825 0.454810 0.193637
0.351141 0.438453 0.183139
0.408209 0.419440 0.171420
0.456275 0.397498 0.158602
0.499336 0.379156 0.154208
0.557214 0.396674 0.131411
0.608759 0.407874 0.106325
0.655512 0.416052 0.082673
0.700282 0.424018 0.076356
0.740597 0.430213 0.075990
0.777584 0.436133 0.082795
0.819516 0.447517 0.073915
0.857084 0.457618 0.064729
0.890227 0.466896 0.059754
0.919799 0.475807 0.058442
0.946349 0.484810 0.062226
0.970459 0.494087 0.068360
0.992737 0.504295 0.078065
1.000000 0.515770 0.092042
1.000000 0.528832 0.109865
1.000000 0.542870 0.130434
1.000000 0.557305 0.153231
0.000000 0.468208 0.260624
0.000000 0.470069 0.261509
0.000000 0.471168 0.261875
0.000000 0.474220 0.263279
0.068849 0.479225 0.266087
0.130526 0.486671 0.270970
0.188235 0.497688 0.279789
0.224765 0.503258 0.279057
0.244694 0.504967 0.269627
0.267124 0.507927 0.262150
0.291814 0.511650 0.256474
0.329046 0.500694 0.213474
0.394385 0.483528 0.201114
0.450233 0.463294 0.187625
0.496223 0.439643 0.172824
0.533593 0.415137 0.168246
0.586816 0.430884 0.146212
0.634089 0.440528 0.123140
0.676753 0.447333 0.098817
0.719539 0.456245 0.097444
0.758663 0.463996 0.101472
0.794095 0.470893 0.111788
0.829252 0.479957 0.119875
0.866239 0.492042 0.119753
0.899046 0.503349 0.122621
0.928466 0.514611 0.128450
0.955200 0.526604 0.137026
0.979858 0.539849 0.148684
1.000000 0.554467 0.164157
1.000000 0.570611 0.182925
1.000000 0.587762 0.205478
1.000000 0.605005 0.230777
0.000000 0.509941 0.284672
0.000000 0.511925 0.285740
0.000000 0.513512 0.286534
0.000000 0.516991 0.288273
0.000000 0.522271 0.291386
0.109133 0.530022 0.296818
0.175113 0.540551 0.305486
0.236790 0.552209 0.316533
0.257633 0.554376 0.307439
0.280552 0.557092 0.299474
0.305608 0.559869 0.293462
0.323278 0.558984 0.267369
0.375463 0.543328 0.236576
0.436042 0.522942 0.220798
0.487068 0.500267 0.204440
0.529259 0.474861 0.187198
0.562921 0.447517 0.182620
0.612696 0.461616 0.162387
0.657923 0.471809 0.142397
0.699794 0.480049 0.123049
0.741207 0.490333 0.123110
0.779477 0.500008 0.132052
0.813352 0.508568 0.146273
0.844144 0.517449 0.164492
0.879515 0.531548 0.171939
0.911803 0.545647 0.180819
0.940887 0.560113 0.192111
0.967315 0.575402 0.206516
0.991485 0.591852 0.223880
1.000000 0.609216 0.244175
1.000000 0.627008 0.267582
1.000000 0.645197 0.294438
0.000000 0.546441 0.307164
0.000000 0.547417 0.307652
0.000000 0.548669 0.308324
0.000000 0.551537 0.310033
0.000000 0.556298 0.313054
0.081392 0.563043 0.318120
0.159396 0.571954 0.325933
0.228824 0.582818 0.337957
0.267460 0.588342 0.337957
0.290471 0.590997 0.330480
0.315404 0.593896 0.324285
0.342229 0.596674 0.320653
0.351385 0.593133 0.274235
0.417121 0.575921 0.258427
0.473487 0.555840 0.241032
0.520653 0.533135 0.222446
0.560540 0.508385 0.203647
0.592920 0.481941 0.197971
0.638178 0.491951 0.181338
0.681209 0.502251 0.164279
0.721401 0.511162 0.148684
0.760800 0.521721 0.149538
0.796963 0.532128 0.162356
0.829526 0.542229 0.179782
0.859373 0.553002 0.201511
0.890562 0.567468 0.220523
0.922545 0.584863 0.234836
0.951385 0.602838 0.252262
0.977539 0.621790 0.273167
1.000000 0.641566 0.297307
1.000000 0.661799 0.324681
1.000000 0.682246 0.355169
0.000000 0.582940 0.331334
0.000000 0.584771 0.332616
0.000000 0.619379 0.357641
0.000000 0.621363 0.359136
0.000000 0.624445 0.361700
0.067475 0.628443 0.365728
0.164828 0.633814 0.372442
0.240299 0.640497 0.382818
0.306889 0.647028 0.394171
0.329931 0.648463 0.386999
0.354833 0.649958 0.380896
0.381201 0.651270 0.376684
0.408453 0.651575 0.374731
0.421607 0.642237 0.321416
0.477485 0.624231 0.301488
0.526665 0.604120 0.280003
0.569970 0.582086 0.258152
0.607721 0.558373 0.235904
0.637873 0.532464 0.228122
0.677241 0.537163 0.214786
0.716640 0.546166 0.200595
0.754086 0.554711 0.188846
0.789792 0.564599 0.192691
0.822568 0.575036 0.209384
0.851987 0.585046 0.229221
0.879118 0.596277 0.252781
0.904753 0.609705 0.279484
0.934874 0.628260 0.297398
0.962402 0.648432 0.320073
0.987427 0.669886 0.346471
1.000000 0.691798 0.376043
1.000000 0.713191 0.407507
0.000000 0.624445 0.361242
0.000000 0.629328 0.364904
0.000000 0.634455 0.368750
0.000000 0.639979 0.373114
0.000000 0.645411 0.377874
0.008698 0.650324 0.382849
0.152438 0.655329 0.389258
0.228977 0.660975 0.398688
0.304784 0.667750 0.413001
0.342657 0.670680 0.413733
0.366766 0.672236 0.408270
0.392096 0.673640 0.404150
0.418524 0.674220 0.401923
0.439551 0.672938 0.391302
0.460151 0.661006 0.342931
0.509361 0.643549 0.321752
0.553887 0.624384 0.299474
0.594202 0.604059 0.277256
0.630671 0.582757 0.254856
0.660792 0.559777 0.247196
0.697566 0.562646 0.237980
0.736629 0.573571 0.227634
0.773007 0.583490 0.220188
0.807156 0.594324 0.226932
0.838499 0.606043 0.247227
0.867216 0.618463 0.271427
0.893797 0.632624 0.299962
0.918669 0.649592 0.333562
0.946136 0.671199 0.363592
0.973022 0.694392 0.391791
0.997162 0.718044 0.423133
1.000000 0.740444 0.455146
0.000000 0.651270 0.381811
0.000000 0.655573 0.385138
0.000000 0.659937 0.388708
0.000000 0.664637 0.392798
0.000000 0.669368 0.397162
0.000000 0.673426 0.401709
0.142794 0.677577 0.407568
0.220890 0.682246 0.415991
0.294804 0.687861 0.428626
0.358679 0.692683 0.440864
0.381872 0.694270 0.436225
0.406592 0.695735 0.432776
0.431647 0.696407 0.430243
0.456825 0.696590 0.429633
0.466865 0.693172 0.401404
0.497841 0.680018 0.366979
0.541192 0.663600 0.345159
0.581933 0.645991 0.322911
0.619959 0.627558 0.300389
0.655360 0.608942 0.278508
0.685267 0.588952 0.271275
0.719844 0.590661 0.266423
0.757900 0.602899 0.260044
0.792691 0.613550 0.256779
0.824949 0.625025 0.266911
0.854917 0.638422 0.291051
0.882506 0.652918 0.319463
0.908293 0.670039 0.353094
0.932647 0.690089 0.391485
0.957183 0.713527 0.430579
0.983337 0.738460 0.462257
1.000000 0.761746 0.494026
0.000000 0.677790 0.403021
0.000000 0.681544 0.406226
0.000000 0.685481 0.409674
0.000000 0.689631 0.413458
0.000000 0.693599 0.417578
0.000000 0.696956 0.421820
0.136507 0.700282 0.427070
0.215305 0.703914 0.434516
0.288121 0.708156 0.445563
0.362524 0.712734 0.461402
0.398810 0.714809 0.463447
0.422187 0.715969 0.460212
0.445899 0.716701 0.457801
0.469703 0.717159 0.456764
0.493477 0.717006 0.457343
0.494514 0.712764 0.414130
0.535302 0.700160 0.394141
0.576165 0.686732 0.375250
0.615534 0.672786 0.356176
0.653010 0.658656 0.336797
0.688685 0.644526 0.317449
0.719905 0.629664 0.313329
0.752621 0.631342 0.314519
0.788937 0.645106 0.314977
0.821988 0.657649 0.318547
0.852628 0.671778 0.335973
0.881041 0.688197 0.366979
0.907317 0.706325 0.401495
0.931914 0.726650 0.439582
0.955047 0.748806 0.479927
0.976471 0.771664 0.521202
0.999756 0.794156 0.552087
0.000000 0.716670 0.436469
0.000000 0.718502 0.438239
0.000000 0.720150 0.439918
0.000000 0.721981 0.442084
0.000000 0.723995 0.444678
0.000000 0.725856 0.448035
0.143557 0.728176 0.452705
0.221836 0.730892 0.459815
0.293828 0.734188 0.470008
0.366949 0.737728 0.484749
0.429297 0.740780 0.499001
0.451606 0.742123 0.496742
0.474037 0.742977 0.494972
0.496468 0.743404 0.494026
0.518639 0.743404 0.494423
0.540429 0.743069 0.496162
0.542260 0.736995 0.449348
0.579339 0.725521 0.432074
0.615595 0.713649 0.414313
0.650965 0.701228 0.395819
0.685054 0.688533 0.376806
0.717708 0.675593 0.357488
0.746639 0.662074 0.352300
0.774777 0.660945 0.355413
0.808499 0.674495 0.358648
0.839872 0.687800 0.365362
0.869444 0.703731 0.387457
0.896941 0.722438 0.421698
0.922789 0.742977 0.459144
0.946929 0.764706 0.498054
0.969238 0.786984 0.537957
0.989410 0.809171 0.578607
0.000000 0.742000 0.459510
0.000000 0.743618 0.461219
0.000000 0.745144 0.462959
0.000000 0.746761 0.465034
0.000000 0.748257 0.467414
0.000000 0.749508 0.470344
0.151278 0.750790 0.474372
0.225589 0.752407 0.480385
0.295415 0.754421 0.489326
0.365850 0.756741 0.502251
0.437354 0.759091 0.519646
0.471107 0.760647 0.523491
0.492348 0.761471 0.522057
0.513695 0.762112 0.521416
0.534783 0.762509 0.521569
0.555535 0.762661 0.523003
0.570001 0.761837 0.514183
0.580957 0.755520 0.478492
0.615290 0.745815 0.464057
0.648920 0.735866 0.448737
0.681788 0.725765 0.432959
0.714015 0.715450 0.416846
0.745052 0.705104 0.400214
0.773159 0.694789 0.397131
0.792264 0.685115 0.391241
0.824582 0.699519 0.397589
0.855283 0.714504 0.408209
0.884245 0.732784 0.435340
0.911406 0.753567 0.471901
0.936828 0.775479 0.510216
0.960479 0.798154 0.550103
0.981933 0.820737 0.590936
0.000000 0.776303 0.493202
0.000000 0.777951 0.495155
0.000000 0.778988 0.496620
0.000000 0.779690 0.498116
0.000000 0.780087 0.499763
0.100496 0.780117 0.501915
0.181704 0.780087 0.504967
0.247715 0.779995 0.509606
0.312505 0.780087 0.516747
0.378149 0.780331 0.527245
0.443183 0.780636 0.541070
0.497047 0.781247 0.553918
0.515526 0.781460 0.551781
0.533806 0.781460 0.549920
0.551781 0.780972 0.548455
0.569451 0.780331 0.547784
0.587243 0.779629 0.548516
0.593378 0.777493 0.527245
0.612177 0.770687 0.502190
0.644312 0.762325 0.489601
0.676234 0.754147 0.477272
0.707271 0.745663 0.464057
0.737057 0.736721 0.449775
0.765377 0.727108 0.433783
0.791135 0.717586 0.429816
0.813260 0.714107 0.436316
0.844358 0.729702 0.446113
0.873808 0.746090 0.459754
0.901793 0.765957 0.490028
0.928069 0.787533 0.526574
0.952605 0.810025 0.565393
0.975067 0.832547 0.605371
0.000000 0.798703 0.516381
0.000000 0.800259 0.518364
0.000000 0.801236 0.519829
0.000000 0.801724 0.521263
0.000000 0.801846 0.522850
0.133242 0.801663 0.524895
0.202121 0.801389 0.528008
0.263584 0.801053 0.532586
0.325505 0.800870 0.539544
0.388159 0.800748 0.549401
0.449836 0.800748 0.562005
0.510765 0.801144 0.577844
0.540490 0.801755 0.582055
0.557885 0.802121 0.580713
0.574975 0.802152 0.579767
0.591882 0.801968 0.579431
0.608911 0.801724 0.580041
0.626032 0.801694 0.582300
0.627375 0.799893 0.552789
0.652857 0.793454 0.538476
0.682490 0.786557 0.528344
0.711482 0.779538 0.517754
0.739467 0.772152 0.506279
0.766293 0.764401 0.493874
0.792081 0.756283 0.480385
0.816342 0.749203 0.478004
0.836637 0.746304 0.486976
0.866941 0.763821 0.500633
0.895811 0.782376 0.518242
0.922972 0.803983 0.552361
0.948211 0.826230 0.589899
0.971344 0.848264 0.628016
0.000000 0.824552 0.545159
0.000000 0.825559 0.546685
0.000000 0.825925 0.547601
0.000000 0.825834 0.548455
0.110018 0.825284 0.549523
0.173129 0.824460 0.551019
0.229679 0.823484 0.553460
0.285313 0.822507 0.557458
0.343114 0.821653 0.563714
0.401221 0.821012 0.572473
0.459419 0.820523 0.583703
0.516503 0.820523 0.597742
0.563897 0.820951 0.610468
0.580255 0.821439 0.609461
0.596185 0.821561 0.608545
0.611841 0.821469 0.607904
0.627497 0.821286 0.608057
0.643427 0.821256 0.609491
0.659968 0.821622 0.612787
0.660121 0.819577 0.578851
0.687770 0.813687 0.570428
0.715084 0.807889 0.561852
0.741787 0.801846 0.552880
0.767514 0.795621 0.543206
0.792142 0.789029 0.532677
0.815793 0.782223 0.521263
0.838834 0.777096 0.520378
0.857420 0.774807 0.530877
0.886534 0.793271 0.546929
0.914733 0.813321 0.568658
0.940887 0.835660 0.604913
0.964874 0.857603 0.641718
0.000000 0.847440 0.572259
0.001526 0.847990 0.573388
0.073732 0.848264 0.574273
0.122042 0.848173 0.575311
0.169558 0.847898 0.576928
0.218601 0.847654 0.579522
0.270573 0.847807 0.583978
0.325292 0.848081 0.590387
0.381720 0.848600 0.598962
0.438697 0.849210 0.609644
0.494850 0.849912 0.622248
0.547967 0.850767 0.636255
0.597559 0.851713 0.651148
0.625269 0.852903 0.657282
0.640833 0.853819 0.657618
0.655482 0.854093 0.657618
0.669642 0.854124 0.657740
0.683864 0.854307 0.658778
0.698421 0.854856 0.661158
0.709163 0.855253 0.656397
0.716518 0.853361 0.632837
0.741543 0.848753 0.626612
0.765774 0.843961 0.619989
0.789212 0.839139 0.613001
0.811734 0.834165 0.605432
0.833341 0.829007 0.597253
0.854154 0.824002 0.588922
0.874876 0.821256 0.590082
0.891539 0.820462 0.601953
0.918120 0.838499 0.618952
0.944091 0.858305 0.643183
0.967376 0.878569 0.676417
0.202945 0.882689 0.620356
0.211856 0.882933 0.621210
0.221592 0.882750 0.621607
0.240574 0.882109 0.622187
0.268009 0.881102 0.623224
0.301854 0.879881 0.625055
0.340826 0.878691 0.628107
0.383398 0.877592 0.632563
0.429450 0.876524 0.638758
0.476570 0.875517 0.646418
0.522850 0.874632 0.655390
0.568261 0.873960 0.665644
0.611810 0.873472 0.676997
0.650904 0.873228 0.688197
0.664363 0.873655 0.687709
0.677577 0.873899 0.687312
