其他预设/【240】TEZZA调色预设合集24款/1.LUT预设（视频调色-PR-AE-PS-FCPX-达芬奇用）/Tezza自然__-1.cube
# Created by Adobe Lightroom plugin Export LUT (1.17.0)
# www.johnrellis.com/lightroom/exportlut.htm
# Preset: Tezza自然[素锦印象]-1
# Color profile: /Library/Application Support/Adobe/Color/Profiles/Recommended/AdobeRGB1998.icc
LUT_3D_SIZE 5
DOMAIN_MIN 0.000000 0.000000 0.000000
DOMAIN_MAX 0.903226 0.903226 0.903226
0.104891 0.063813 0.072328
0.229862 0.000000 0.079683
0.619165 0.000000 0.075959
0.867460 0.070832 0.180728
0.980041 0.464363 0.410773
0.126802 0.136843 0.106386
0.254398 0.196902 0.102419
0.613397 0.146548 0.000000
0.861753 0.255680 0.143709
0.984619 0.517510 0.412604
0.169375 0.368811 0.217441
0.276921 0.425360 0.245884
0.715450 0.684504 0.416693
0.884764 0.591455 0.157473
0.978088 0.613245 0.345006
0.255985 0.620478 0.382391
0.355261 0.644526 0.407599
0.561669 0.693019 0.465156
0.869627 0.849638 0.665553
0.985290 0.851530 0.602869
0.531121 0.819913 0.613306
0.573724 0.821958 0.622156
0.679072 0.824552 0.645289
0.780423 0.854948 0.678859
0.964599 0.951629 0.821195
0.131655 0.085359 0.106386
0.226932 0.039673 0.127565
0.594903 0.000000 0.112581
0.840909 0.130465 0.137942
0.968688 0.432288 0.373083
0.143313 0.138125 0.141329
0.250126 0.191226 0.175814
0.607202 0.202945 0.132204
0.840421 0.268498 0.104097
0.969574 0.473213 0.362585
0.175113 0.353857 0.241184
0.284733 0.413733 0.277836
0.668299 0.637293 0.436439
0.852171 0.569940 0.235080
0.973083 0.602411 0.326970
0.257481 0.610773 0.397528
0.357610 0.636316 0.423865
0.578576 0.692378 0.494911
0.862730 0.844022 0.681239
0.980438 0.849119 0.616144
0.517327 0.815457 0.614740
0.561059 0.817441 0.622889
0.688380 0.834958 0.663996
0.788632 0.861357 0.694240
0.965789 0.953948 0.834623
0.213779 0.177066 0.241733
0.291814 0.236942 0.263584
0.603540 0.078706 0.363836
0.823850 0.366094 0.410498
0.969818 0.449866 0.386358
0.222293 0.196872 0.268650
0.332647 0.286076 0.319615
0.616510 0.295048 0.400580
0.816495 0.442756 0.434119
0.969757 0.493202 0.396796
0.219944 0.351781 0.332067
0.305364 0.402808 0.368292
0.613916 0.582452 0.510582
0.812589 0.599145 0.480415
0.963806 0.623835 0.442145
0.222629 0.576196 0.433845
0.312322 0.597589 0.450935
0.584833 0.675929 0.543694
0.846525 0.830442 0.714839
0.962158 0.828733 0.640284
0.461677 0.794644 0.616724
0.512108 0.801083 0.627222
0.642695 0.820554 0.659236
0.780697 0.855344 0.704952
0.962524 0.952392 0.852720
0.359991 0.354040 0.453956
0.432044 0.413916 0.480812
0.629511 0.588830 0.549096
0.805112 0.433234 0.591058
0.940398 0.597131 0.634760
0.377722 0.374609 0.470344
0.451118 0.435767 0.498299
0.646540 0.608331 0.567041
0.797726 0.497963 0.599176
0.934051 0.622766 0.642206
0.312932 0.389807 0.463050
0.374121 0.419196 0.483070
0.620111 0.592370 0.580438
0.784939 0.634913 0.636194
0.929442 0.704524 0.677089
0.311620 0.561852 0.524407
0.367071 0.576410 0.533928
0.552544 0.641688 0.584649
0.788571 0.771206 0.706050
0.938781 0.786648 0.681056
0.421607 0.778256 0.656031
0.454994 0.781491 0.658259
0.572900 0.799496 0.675532
0.752621 0.842161 0.726070
0.960143 0.952880 0.883482
0.606714 0.612329 0.668666
0.636133 0.635309 0.674769
0.724269 0.708186 0.698116
0.774197 0.734554 0.737209
0.925505 0.639948 0.762142
0.602380 0.609766 0.668086
0.632349 0.633234 0.675074
0.721767 0.707393 0.701320
0.783597 0.752102 0.741451
0.923705 0.660304 0.765530
0.481880 0.523705 0.645563
0.535393 0.561028 0.654871
0.694362 0.687282 0.699214
0.824399 0.804288 0.760281
0.923674 0.722011 0.782681
0.505882 0.646723 0.685298
0.525017 0.647486 0.684627
0.594446 0.657038 0.688441
0.779599 0.768002 0.751583
0.927276 0.813260 0.819028
0.557153 0.786923 0.746548
0.569818 0.787716 0.746456
0.620752 0.795743 0.751583
0.716670 0.816495 0.766812
0.928588 0.923766 0.886351
