其他预设/【240】TEZZA调色预设合集24款/1.LUT预设（视频调色-PR-AE-PS-FCPX-达芬奇用）/Tezza古董__-1.cube
# Created by Adobe Lightroom plugin Export LUT (1.17.0)
# www.johnrellis.com/lightroom/exportlut.htm
# Preset: Tezza古董[素锦印象]-1
# Color profile: /Library/Application Support/Adobe/Color/Profiles/Recommended/AdobeRGB1998.icc
LUT_3D_SIZE 32
0.000000 0.000000 0.000000
0.013581 0.001129 0.003876
0.036866 0.000702 0.006561
0.069825 0.000000 0.016022
0.104616 0.000000 0.027710
0.156222 0.000000 0.036927
0.219516 0.000000 0.039490
0.290532 0.000000 0.036347
0.366552 0.000000 0.030732
0.441810 0.000000 0.019013
0.512352 0.000000 0.008179
0.574640 0.000000 0.000000
0.627008 0.000000 0.000000
0.670649 0.000000 0.000000
0.707301 0.000000 0.002655
0.747799 0.000000 0.040742
0.776974 0.000000 0.071717
0.800137 0.000000 0.093446
0.819455 0.000000 0.115389
0.837095 0.000000 0.139376
0.853208 0.000000 0.165072
0.867887 0.000000 0.192477
0.880888 0.000000 0.221561
0.892668 0.000000 0.252018
0.903380 0.000000 0.284215
0.913329 0.000000 0.318914
0.922789 0.000000 0.357397
0.931701 0.140383 0.400092
0.938933 0.248753 0.440711
0.938933 0.251438 0.439887
0.938903 0.246311 0.441566
0.938872 0.240940 0.443610
0.001282 0.018341 0.006043
0.017060 0.019257 0.005554
0.038880 0.021485 0.006958
0.070771 0.020264 0.013184
0.105562 0.003906 0.018616
0.155856 0.000000 0.022004
0.217441 0.000000 0.021149
0.286107 0.000000 0.019684
0.360479 0.000000 0.013703
0.434974 0.000000 0.004822
0.504967 0.000000 0.000000
0.567376 0.000000 0.000000
0.620233 0.000000 0.000000
0.664485 0.000000 0.000000
0.703151 0.000000 0.000000
0.742123 0.000000 0.009064
0.770657 0.000000 0.057893
0.793759 0.000000 0.081056
0.813352 0.000000 0.103517
0.831357 0.000000 0.126864
0.847898 0.000000 0.152468
0.863005 0.000000 0.180728
0.876463 0.000000 0.208835
0.888670 0.000000 0.239170
0.899779 0.000000 0.271550
0.910216 0.000000 0.306371
0.920134 0.000000 0.345159
0.929503 0.093843 0.388098
0.938109 0.237003 0.435279
0.938994 0.253178 0.439002
0.938964 0.248112 0.440833
0.938872 0.242985 0.443030
0.003449 0.044617 0.014649
0.012818 0.042817 0.022126
0.041871 0.046571 0.012421
0.071412 0.051179 0.018067
0.105928 0.039826 0.022126
0.155428 0.000000 0.023499
0.215000 0.000000 0.020783
0.282048 0.000000 0.016022
0.355322 0.000000 0.005798
0.428901 0.000000 0.000000
0.498878 0.000000 0.000000
0.561639 0.000000 0.000000
0.615106 0.000000 0.000000
0.659998 0.000000 0.000000
0.700862 0.000000 0.000000
0.738705 0.000000 0.000000
0.766659 0.000000 0.039246
0.789639 0.000000 0.073243
0.809476 0.000000 0.096407
0.827817 0.000000 0.120089
0.844755 0.000000 0.145632
0.860319 0.000000 0.171786
0.874052 0.000000 0.200504
0.886503 0.000000 0.231144
0.897856 0.000000 0.263310
0.908476 0.000000 0.298558
0.918639 0.000000 0.337652
0.928283 0.059937 0.380804
0.937163 0.226810 0.428687
0.939025 0.255680 0.437812
0.938964 0.250797 0.440040
0.938903 0.245304 0.442084
0.012879 0.073945 0.040894
0.025666 0.073121 0.050416
0.031891 0.074006 0.044709
0.078279 0.076753 0.028779
0.109316 0.077455 0.027405
0.157656 0.060670 0.026612
0.215366 0.000000 0.023163
0.280217 0.000000 0.016907
0.351171 0.000000 0.007721
0.423346 0.000000 0.000000
0.492256 0.000000 0.000000
0.554894 0.000000 0.000000
0.608331 0.000000 0.000000
0.653651 0.000000 0.000000
0.698054 0.000000 0.000000
0.734066 0.000000 0.000000
0.761257 0.000000 0.038849
0.783932 0.000000 0.071138
0.803647 0.000000 0.093141
0.821897 0.000000 0.115908
0.839017 0.000000 0.139895
0.854856 0.000000 0.165591
0.869383 0.000000 0.192477
0.882933 0.000000 0.220951
0.895598 0.000000 0.251987
0.907195 0.000000 0.289006
0.917998 0.000000 0.330877
0.928008 0.070893 0.375677
0.936980 0.230381 0.424872
0.939086 0.261418 0.435645
0.939025 0.255924 0.437720
0.938994 0.250095 0.440009
0.012909 0.108858 0.062745
0.031464 0.108370 0.068299
0.043915 0.108339 0.071931
0.061769 0.113313 0.059663
0.125246 0.112886 0.032502
0.163638 0.106691 0.026978
0.212284 0.086397 0.023072
0.274052 0.001099 0.017365
0.342199 0.000000 0.007813
0.412299 0.000000 0.000000
0.480262 0.000000 0.000000
0.543175 0.000000 0.000000
0.597681 0.000000 0.000000
0.644617 0.000000 0.000000
0.692714 0.000000 0.000000
0.728054 0.000000 0.000000
0.755612 0.000000 0.039582
0.778988 0.000000 0.071809
0.799283 0.000000 0.093996
0.817838 0.000000 0.116091
0.835019 0.000000 0.139223
0.850980 0.000000 0.163912
0.865782 0.000000 0.190524
0.879637 0.000000 0.219059
0.892638 0.000000 0.250095
0.904875 0.000000 0.284306
0.916442 0.000000 0.322118
0.926970 0.067506 0.365545
0.936156 0.227878 0.415595
0.939178 0.269963 0.432044
0.939086 0.264286 0.434638
0.939055 0.258091 0.436957
0.000000 0.161593 0.076997
0.012329 0.161776 0.084688
0.029145 0.162509 0.090944
0.061494 0.163668 0.102205
0.098207 0.172122 0.060822
0.190005 0.161257 0.019745
0.231815 0.146151 0.012696
0.271672 0.123232 0.008423
0.337285 0.074372 0.001282
0.405371 0.000000 0.000000
0.472297 0.000000 0.000000
0.534661 0.000000 0.000000
0.589441 0.000000 0.000000
0.643580 0.000000 0.000000
0.688624 0.000000 0.000000
0.723201 0.000000 0.001709
0.750881 0.000000 0.046082
0.774655 0.000000 0.074525
0.795560 0.000000 0.096223
0.814725 0.000000 0.118410
0.832486 0.000000 0.142245
0.849027 0.000000 0.168032
0.888975 0.000000 0.255070
0.900542 0.000000 0.286839
0.911040 0.000000 0.319860
0.920684 0.155581 0.355077
0.929564 0.232151 0.392309
0.937682 0.297063 0.432319
0.937652 0.308812 0.435676
0.938354 0.293370 0.433417
0.939086 0.276493 0.430976
0.939147 0.268162 0.432868
0.000000 0.243809 0.102083
0.000000 0.243900 0.111757
0.000000 0.244938 0.122042
0.050141 0.249577 0.137148
0.073762 0.256931 0.118929
0.169039 0.258488 0.053223
0.284001 0.230045 0.000000
0.326970 0.203830 0.000000
0.355535 0.175051 0.000000
0.418677 0.135714 0.000000
0.484962 0.062501 0.000000
0.546166 0.000000 0.000000
0.607538 0.000000 0.000000
0.661707 0.000000 0.000000
0.701839 0.000000 0.000000
0.732448 0.000000 0.025605
0.757931 0.000000 0.066102
0.780514 0.000000 0.088899
0.801083 0.000000 0.111177
0.820798 0.000000 0.135927
0.839841 0.000000 0.163455
0.858091 0.000000 0.194949
0.874968 0.000000 0.229679
0.890288 0.000000 0.267552
0.903716 0.096834 0.306706
0.915160 0.191470 0.346044
0.925170 0.256565 0.385290
0.933989 0.314183 0.426337
0.935973 0.341985 0.441413
0.936797 0.326146 0.438544
0.937621 0.309239 0.435859
0.938476 0.291142 0.432898
0.000000 0.317632 0.130220
0.000000 0.317815 0.139986
0.000000 0.318608 0.152682
0.024964 0.324437 0.168643
0.104189 0.331945 0.194308
0.122927 0.337560 0.124269
0.248325 0.328985 0.027283
0.362829 0.289158 0.000000
0.402625 0.259159 0.000000
0.427863 0.226963 0.000000
0.470893 0.195865 0.000000
0.541955 0.162295 0.000000
0.602777 0.117647 0.000000
0.652644 0.008545 0.000000
0.691554 0.000000 0.000000
0.722255 0.000000 0.011963
0.748135 0.000000 0.062074
0.771206 0.000000 0.085664
0.792477 0.000000 0.108736
0.812802 0.000000 0.133852
0.832303 0.000000 0.161074
0.850980 0.000000 0.191958
0.868254 0.000000 0.226261
0.883940 0.103120 0.263462
0.897856 0.180880 0.302098
0.909880 0.237644 0.340642
0.920409 0.287877 0.380316
0.929900 0.336309 0.421363
0.934142 0.374090 0.447486
0.934936 0.360296 0.444770
0.935851 0.343633 0.441688
0.936797 0.325811 0.438636
0.000000 0.394385 0.167819
0.000000 0.394751 0.177646
0.000000 0.395361 0.191440
0.043091 0.401190 0.207553
0.118288 0.409857 0.233066
0.158114 0.418067 0.237125
0.203922 0.415808 0.140780
0.338628 0.398810 0.007996
0.440986 0.351904 0.000000
0.485451 0.328710 0.000000
0.512566 0.299229 0.000000
0.537774 0.271397 0.000000
0.594934 0.248539 0.000000
0.643030 0.223209 0.000000
0.681575 0.195041 0.000000
0.712734 0.164553 0.000000
0.739193 0.131563 0.053254
0.762905 0.099123 0.083711
0.784756 0.070802 0.107881
0.805692 0.063142 0.133425
0.825681 0.088136 0.161410
0.844724 0.125521 0.192599
0.862303 0.167056 0.226566
0.878264 0.209110 0.263249
0.892546 0.250278 0.301915
0.904997 0.288609 0.340337
0.916014 0.327123 0.379767
0.925933 0.366613 0.420722
0.932311 0.402869 0.453803
0.932830 0.394873 0.451942
0.933867 0.378119 0.448371
0.934905 0.360601 0.444923
0.000000 0.467292 0.213901
0.000000 0.467414 0.223026
0.000000 0.467659 0.235172
0.090974 0.472755 0.252506
0.148440 0.480873 0.277134
0.209995 0.489662 0.309972
0.196475 0.494362 0.235966
0.302617 0.488411 0.166445
0.440253 0.471717 0.047913
0.528618 0.428779 0.000000
0.561120 0.402014 0.000000
0.578363 0.369238 0.000000
0.593194 0.338506 0.000000
0.628717 0.316442 0.000000
0.669520 0.297490 0.000000
0.703059 0.278111 0.000000
0.731350 0.259464 0.043214
0.756283 0.243870 0.083894
0.778897 0.232822 0.110658
0.800046 0.227634 0.136782
0.819883 0.230106 0.164523
0.838407 0.239689 0.194644
0.855558 0.256107 0.227024
0.871305 0.277440 0.261601
0.885679 0.302922 0.298283
0.898589 0.330694 0.336370
0.910399 0.361151 0.375982
0.921202 0.394659 0.417975
0.930358 0.430701 0.460304
0.930510 0.428931 0.459846
0.931701 0.412146 0.455787
0.932830 0.394812 0.451942
0.000000 0.528374 0.262058
0.000000 0.528801 0.270634
0.093599 0.529168 0.282414
0.145846 0.535607 0.302403
0.198093 0.546075 0.329259
0.259495 0.558007 0.364446
0.319097 0.569421 0.395392
0.312291 0.571069 0.287907
0.413947 0.557702 0.209384
0.530694 0.534081 0.099123
0.593439 0.491493 0.000000
0.616785 0.464271 0.000000
0.628260 0.431952 0.000000
0.638422 0.400580 0.000000
0.655695 0.374548 0.000000
0.690700 0.358740 0.000000
0.720333 0.343053 0.023011
0.745998 0.329473 0.079072
0.769497 0.318578 0.108553
0.791379 0.312444 0.136324
0.811917 0.311620 0.165194
0.831144 0.316228 0.196078
0.848905 0.326238 0.229404
0.865202 0.340246 0.264286
0.880003 0.357916 0.301274
0.893370 0.377874 0.339025
0.905516 0.400671 0.378180
0.916747 0.427222 0.419593
0.927092 0.457771 0.463691
0.928008 0.462196 0.468635
0.929290 0.445472 0.464088
0.930571 0.428351 0.459815
0.131380 0.596460 0.330968
0.156100 0.596887 0.339147
0.185306 0.597375 0.350286
0.224979 0.600641 0.368719
0.267857 0.607599 0.392340
0.320439 0.615167 0.422705
0.379675 0.622919 0.458717
0.384375 0.628870 0.424018
0.416175 0.623102 0.337621
0.504875 0.607294 0.255772
0.599664 0.583520 0.149020
0.644709 0.543450 0.078584
0.698817 0.559655 0.124697
0.704463 0.529473 0.114717
0.709438 0.499245 0.094423
0.714290 0.469642 0.066896
0.738491 0.453864 0.096132
0.762356 0.441077 0.125063
0.783749 0.430426 0.151766
0.803769 0.423255 0.179507
0.822385 0.419715 0.208194
0.839719 0.419928 0.239200
0.855619 0.423255 0.271702
0.870451 0.430365 0.305943
0.884092 0.440467 0.341558
0.896605 0.453376 0.378180
0.907988 0.469245 0.415961
0.918517 0.488411 0.454871
0.924102 0.508812 0.482429
0.925353 0.494301 0.478004
0.926757 0.477668 0.472938
0.928130 0.460670 0.468177
0.268223 0.664637 0.423285
0.282994 0.664424 0.429816
0.301457 0.663233 0.437751
0.332647 0.662837 0.452857
0.364172 0.664912 0.470069
0.403449 0.667292 0.492470
0.449195 0.670619 0.520287
0.497505 0.674678 0.552361
0.466651 0.677577 0.469032
0.515312 0.669551 0.406989
0.587610 0.656703 0.329870
0.666407 0.637842 0.235080
0.700862 0.604364 0.186984
0.715785 0.583032 0.163241
0.722774 0.558434 0.157259
0.728420 0.532982 0.141146
0.733455 0.507195 0.119509
0.748592 0.489021 0.123323
0.771389 0.478981 0.150759
0.792386 0.471138 0.178256
0.811917 0.466255 0.207462
0.830076 0.464332 0.238560
0.846708 0.465064 0.270726
0.862181 0.468788 0.304509
0.876463 0.475319 0.339818
0.889555 0.484504 0.375952
0.901640 0.496681 0.413611
0.912840 0.512261 0.452613
0.922057 0.531365 0.489876
0.922637 0.524834 0.487678
0.924132 0.508385 0.482338
0.925597 0.491646 0.477058
0.337865 0.692042 0.471046
0.349889 0.691737 0.476753
0.363470 0.690700 0.482948
0.390814 0.689448 0.496437
0.415412 0.690425 0.510155
0.446937 0.692012 0.528771
0.483894 0.694789 0.552422
0.523705 0.698268 0.579889
0.539391 0.702144 0.577111
0.528557 0.702022 0.505791
0.571618 0.694209 0.447761
0.632471 0.682063 0.375036
0.700343 0.665797 0.287816
0.724788 0.632074 0.242069
0.736477 0.611353 0.216312
0.741695 0.587610 0.203433
0.745998 0.563500 0.185458
0.750484 0.540002 0.164157
0.758663 0.519951 0.149996
0.780911 0.512474 0.178225
0.801541 0.507408 0.208103
0.820676 0.504601 0.239231
0.838163 0.503868 0.271611
0.854398 0.505791 0.305913
0.869383 0.509972 0.341344
0.883177 0.516655 0.377966
0.895933 0.525963 0.415503
0.907805 0.538720 0.454597
0.918853 0.555444 0.495796
0.919890 0.553918 0.497780
0.921447 0.537652 0.492042
0.923003 0.521141 0.486458
0.400183 0.715236 0.514580
0.409735 0.715053 0.519402
0.419928 0.714137 0.524437
0.443153 0.712398 0.536431
0.462684 0.712947 0.547997
0.487190 0.714168 0.563348
0.516960 0.716335 0.583337
0.549523 0.719417 0.606622
0.582574 0.723934 0.632105
0.571130 0.726925 0.593469
0.580163 0.724178 0.542504
0.617212 0.716732 0.488991
0.668605 0.704860 0.419898
0.728054 0.690120 0.338781
0.744717 0.656306 0.294713
0.753841 0.635737 0.265721
0.758145 0.613367 0.248508
0.761959 0.591211 0.229221
0.766598 0.570367 0.208988
0.772671 0.551415 0.188937
0.791257 0.543877 0.209781
0.811185 0.540459 0.240604
0.829435 0.538689 0.273320
0.846433 0.539178 0.307652
0.862211 0.541924 0.343481
0.876921 0.547173 0.380865
0.890684 0.555535 0.420478
0.903624 0.567407 0.461738
0.915679 0.583246 0.505058
0.917113 0.581506 0.508019
0.918761 0.565423 0.501884
0.920348 0.549187 0.496040
0.453468 0.735378 0.553674
0.461433 0.735378 0.558221
0.470344 0.734951 0.563195
0.489174 0.733974 0.573999
0.508568 0.734585 0.586297
0.529870 0.736263 0.600824
0.554314 0.738827 0.618402
0.580468 0.742306 0.638270
0.606867 0.746578 0.659388
0.625513 0.750881 0.670863
0.607385 0.751308 0.618524
0.624537 0.745693 0.580011
0.654475 0.736873 0.528496
0.696956 0.723873 0.459785
0.746639 0.707393 0.383459
0.759426 0.675135 0.338659
0.767239 0.655543 0.308751
0.771664 0.635370 0.290288
0.776089 0.616205 0.273411
0.781918 0.598840 0.255955
0.789273 0.583612 0.239902
0.803494 0.575219 0.247227
0.822782 0.573632 0.281041
0.840604 0.573785 0.316716
0.857115 0.575860 0.353674
0.872557 0.580285 0.392248
0.887022 0.587213 0.432227
0.900542 0.597528 0.474159
0.913054 0.611322 0.517418
0.914397 0.607507 0.518334
0.916075 0.591699 0.511986
0.917723 0.575738 0.505760
0.496010 0.751644 0.586694
0.501396 0.751461 0.589899
0.508568 0.750973 0.594049
0.523827 0.750240 0.603357
0.541131 0.750362 0.614679
0.558160 0.752102 0.626886
0.577874 0.754574 0.641688
0.599115 0.757687 0.658259
0.621027 0.761501 0.676112
0.643702 0.765927 0.695247
0.643854 0.768307 0.681392
0.637446 0.766934 0.639979
0.654597 0.760952 0.605158
0.681727 0.751949 0.557855
0.718868 0.739315 0.493355
0.761166 0.721675 0.424048
0.772183 0.692317 0.381292
0.779263 0.674067 0.352178
0.784115 0.655970 0.333013
0.788998 0.639277 0.318273
0.795407 0.624445 0.303044
0.803281 0.611536 0.288914
0.814023 0.601892 0.283024
0.832731 0.601740 0.319280
0.850156 0.603235 0.356847
0.866423 0.606867 0.396490
0.881743 0.613062 0.437568
0.896117 0.622248 0.480354
0.909453 0.634760 0.524529
0.911681 0.632258 0.528740
0.913390 0.616663 0.522179
0.915068 0.600916 0.515679
0.535637 0.767391 0.618982
0.541039 0.767697 0.622614
0.580285 0.782528 0.655665
0.590082 0.782132 0.662318
0.602777 0.782040 0.671260
0.613764 0.783200 0.679713
0.626947 0.784817 0.690089
0.642115 0.786923 0.702266
0.658778 0.789609 0.716091
0.676295 0.792782 0.730892
0.693904 0.796262 0.745968
0.679530 0.795895 0.712764
0.679805 0.791928 0.681453
0.692927 0.785000 0.648402
0.714992 0.775418 0.606622
0.745876 0.762814 0.549889
0.780789 0.744594 0.488716
0.790066 0.718074 0.448707
0.796353 0.700832 0.418921
0.801389 0.684382 0.398474
0.806455 0.669673 0.383856
0.813199 0.656764 0.369635
0.821500 0.645655 0.356481
0.831327 0.636561 0.345495
0.847196 0.635218 0.373632
0.863096 0.636805 0.410742
0.878080 0.640467 0.449012
0.892393 0.647181 0.489357
0.906035 0.657496 0.532189
0.909087 0.655665 0.538933
0.910796 0.640223 0.532250
0.912535 0.624781 0.525475
0.576043 0.785275 0.653986
0.583032 0.787015 0.659571
0.591089 0.788785 0.665919
0.602655 0.790158 0.674678
0.617304 0.791104 0.685603
0.628199 0.792935 0.694362
0.640375 0.794705 0.704128
0.653712 0.796658 0.714961
0.668513 0.799161 0.727260
0.683894 0.801999 0.740230
0.699733 0.805173 0.753719
0.704982 0.807034 0.752651
0.691646 0.805905 0.718929
0.697200 0.800931 0.693812
0.709773 0.793851 0.661982
0.730343 0.784390 0.622339
0.758999 0.772213 0.570092
0.789609 0.754147 0.516686
0.798184 0.730434 0.481331
0.804532 0.715023 0.455177
0.810178 0.700618 0.436774
0.816129 0.688533 0.426215
0.823606 0.677943 0.415564
0.832609 0.669093 0.406043
0.843107 0.661952 0.397925
0.857481 0.660395 0.415961
0.873320 0.663874 0.455512
0.888457 0.670008 0.496681
0.902708 0.679225 0.539666
0.906584 0.677882 0.548821
0.908263 0.662623 0.542107
0.909972 0.647425 0.535332
0.598199 0.796567 0.674342
0.603937 0.798093 0.679011
0.610590 0.799619 0.684413
0.620203 0.800839 0.691798
0.632929 0.801724 0.701472
0.643763 0.802976 0.710048
0.654383 0.804593 0.718624
0.666102 0.806394 0.728206
0.679042 0.808652 0.738949
0.692714 0.811215 0.750454
0.706905 0.814084 0.762448
0.721096 0.817014 0.774380
0.715206 0.817105 0.758389
0.707912 0.814939 0.730678
0.713771 0.809751 0.706661
0.725765 0.802762 0.676661
0.744991 0.793698 0.639216
0.771725 0.782315 0.592218
0.798734 0.764767 0.547143
0.806699 0.743954 0.517449
0.813077 0.730129 0.493935
0.819486 0.717830 0.477974
0.826047 0.707881 0.470649
0.834073 0.699306 0.463142
0.843565 0.692195 0.456245
0.854765 0.687037 0.451728
0.868498 0.685695 0.461036
0.884215 0.691035 0.502220
0.899046 0.699184 0.545159
0.904204 0.699031 0.558099
0.905913 0.683925 0.551476
0.907561 0.668971 0.544884
0.618494 0.807492 0.693446
0.623590 0.808835 0.697688
0.629236 0.810147 0.702327
0.637659 0.811246 0.708919
0.648554 0.812039 0.717281
0.659266 0.812802 0.725582
0.668360 0.814237 0.732998
0.678462 0.815793 0.741268
0.689754 0.817716 0.750607
0.701778 0.819883 0.760586
0.714290 0.822324 0.771023
0.727016 0.824857 0.781582
0.736568 0.826932 0.788052
0.724727 0.826078 0.763699
0.722774 0.823087 0.741817
0.729152 0.818265 0.719783
0.741390 0.812070 0.692775
0.760189 0.804349 0.659937
0.785977 0.794919 0.619959
0.810361 0.779232 0.585992
0.818112 0.762264 0.565179
0.825101 0.751308 0.548058
0.832273 0.741573 0.535821
0.839902 0.734463 0.532555
0.849058 0.728786 0.529503
0.859861 0.724788 0.527886
0.872587 0.722988 0.529229
0.887327 0.723903 0.535149
0.900633 0.732235 0.572503
0.902037 0.719295 0.566918
0.903624 0.704341 0.560510
0.905241 0.689815 0.554101
0.648096 0.822751 0.721309
0.651026 0.823301 0.723690
0.654383 0.823758 0.726345
0.660060 0.824063 0.730678
0.668208 0.824247 0.736812
0.678126 0.824338 0.744289
0.685817 0.825498 0.750546
0.694728 0.826932 0.757778
0.704738 0.828733 0.766049
0.715602 0.830808 0.774990
0.726986 0.833097 0.784360
0.738521 0.835355 0.793729
0.749813 0.837461 0.802762
0.750362 0.838132 0.798215
0.739437 0.837247 0.775113
0.741482 0.833799 0.758602
0.747799 0.829313 0.738827
0.759243 0.823667 0.714778
0.776547 0.816678 0.685481
0.800320 0.808103 0.649348
0.821439 0.792966 0.620691
0.828092 0.777798 0.603510
0.834440 0.767697 0.587854
0.841337 0.758633 0.575616
0.849088 0.752834 0.573602
0.858640 0.748806 0.572747
0.870085 0.746761 0.574090
0.883604 0.747280 0.579217
0.898161 0.751400 0.590509
0.899992 0.738766 0.575250
0.901488 0.724117 0.569024
0.903014 0.710079 0.563012
0.665064 0.832029 0.737545
0.667689 0.832547 0.739712
0.670619 0.833005 0.742031
0.675654 0.833310 0.745907
0.682643 0.833463 0.751186
0.691249 0.833494 0.757656
0.698939 0.834104 0.763638
0.706508 0.835203 0.769711
0.715206 0.836606 0.776730
0.724727 0.838285 0.784451
0.734890 0.840116 0.792630
0.745296 0.842008 0.800900
0.755642 0.843809 0.809018
0.765896 0.845518 0.816953
0.759243 0.845335 0.803647
0.752468 0.844175 0.784909
0.755215 0.841123 0.769986
0.761929 0.837217 0.752346
0.773251 0.832364 0.731228
0.789883 0.826444 0.705715
0.812345 0.819150 0.674342
0.831235 0.805142 0.650874
0.837644 0.792325 0.637720
0.844175 0.784024 0.625483
0.848783 0.772396 0.606104
0.856870 0.768002 0.605798
0.866972 0.765652 0.607446
0.879118 0.765621 0.611902
0.893248 0.768185 0.620356
0.896727 0.759426 0.605097
0.899504 0.743313 0.577173
0.900908 0.729763 0.571527
0.688075 0.843961 0.759213
0.690425 0.844450 0.761166
0.692775 0.844724 0.762997
0.696681 0.844816 0.765927
0.702083 0.844724 0.769894
0.708919 0.844541 0.774899
0.716396 0.844511 0.780423
0.722438 0.845090 0.785092
0.729366 0.845823 0.790463
0.737057 0.846769 0.796445
0.745357 0.847837 0.802853
0.754177 0.849088 0.809628
0.763119 0.850309 0.816434
0.772000 0.851438 0.823087
0.776913 0.852079 0.825223
0.767453 0.851438 0.808713
0.763546 0.849668 0.793057
0.766354 0.846708 0.778866
0.773129 0.843229 0.762631
0.784451 0.839048 0.743801
0.800626 0.834012 0.721462
0.822019 0.827848 0.694057
0.838621 0.814572 0.675227
0.844633 0.803098 0.662654
0.850767 0.795163 0.650355
0.857633 0.787869 0.639460
0.866239 0.785092 0.641047
0.876799 0.784360 0.644678
0.889220 0.786099 0.651911
0.893156 0.778622 0.639368
0.895872 0.764065 0.613519
0.898497 0.749569 0.587121
0.701228 0.851041 0.771603
0.703334 0.851499 0.773312
0.705440 0.851743 0.774960
0.708827 0.851774 0.777462
0.713619 0.851682 0.780941
0.719722 0.851499 0.785367
0.727260 0.851316 0.790829
0.733242 0.851743 0.795346
0.739651 0.852384 0.800198
0.746853 0.853178 0.805661
0.754513 0.854093 0.811490
0.762753 0.855131 0.817655
0.771084 0.856138 0.823880
0.779355 0.857023 0.829923
0.787381 0.857847 0.835752
0.786435 0.858061 0.831449
0.777951 0.857847 0.816281
0.777462 0.856229 0.804807
0.780819 0.854032 0.792691
0.787686 0.851347 0.778897
0.798428 0.848051 0.762783
0.813443 0.843870 0.743465
0.833127 0.838621 0.719753
0.847532 0.826474 0.705074
0.853391 0.816770 0.694240
0.859709 0.810269 0.683955
0.866911 0.804410 0.674830
0.876249 0.803708 0.679133
0.887205 0.805264 0.686610
0.889708 0.795804 0.669917
0.892393 0.782620 0.646448
0.894835 0.769741 0.623560
0.716213 0.858488 0.785306
0.717830 0.858732 0.786557
0.719356 0.858824 0.787686
0.722072 0.858701 0.789609
0.725917 0.858457 0.792294
0.731044 0.858122 0.795926
0.737514 0.857786 0.800504
0.744015 0.857725 0.805173
0.749691 0.858183 0.809354
0.756130 0.858732 0.814115
0.763149 0.859342 0.819272
0.770657 0.860105 0.824796
0.778317 0.860807 0.830381
0.785946 0.861448 0.835813
0.793301 0.861936 0.841001
0.800381 0.862364 0.845975
0.794736 0.862455 0.836820
0.788327 0.862394 0.824002
0.789181 0.861112 0.814633
0.792721 0.859495 0.804074
0.799405 0.857450 0.791989
0.809567 0.854826 0.777829
0.823606 0.851499 0.760983
0.841886 0.847105 0.740688
0.854704 0.836179 0.729305
0.860594 0.828153 0.720211
0.867063 0.822995 0.712093
0.874418 0.818509 0.704921
0.883757 0.819272 0.711299
0.886381 0.810910 0.696803
0.889006 0.799130 0.675746
0.891417 0.787564 0.655238
0.728634 0.864347 0.796323
0.729854 0.864469 0.797269
0.731228 0.864500 0.798215
0.733608 0.864408 0.799924
0.737392 0.864225 0.802579
0.742458 0.864073 0.806119
0.749111 0.864012 0.810849
0.757198 0.864042 0.816556
0.763546 0.864591 0.821195
0.770413 0.865202 0.826169
0.777646 0.865782 0.831388
0.785092 0.866300 0.836667
0.792447 0.866697 0.841794
0.799466 0.866941 0.846647
0.806088 0.867002 0.851164
0.812192 0.866972 0.855283
0.815518 0.867033 0.856718
0.809781 0.867552 0.848173
0.806180 0.867735 0.839353
0.807004 0.867277 0.832059
0.810117 0.866575 0.823728
0.815885 0.865537 0.814145
0.824704 0.864134 0.802823
0.837095 0.862211 0.789364
0.853391 0.859464 0.774289
0.864714 0.850736 0.765927
0.870726 0.845121 0.759548
0.877165 0.841764 0.754421
0.880552 0.834226 0.739132
0.883330 0.823941 0.719936
0.885801 0.813504 0.701350
0.888090 0.803281 0.683192
0.749264 0.871916 0.813565
0.750179 0.871916 0.814176
0.751064 0.871824 0.814786
0.752956 0.871611 0.816037
0.755856 0.871275 0.817929
0.759884 0.870878 0.820615
0.765072 0.870420 0.824063
0.771389 0.869993 0.828336
0.777554 0.869749 0.832486
0.782834 0.869718 0.836149
0.788479 0.869657 0.839963
0.794369 0.869596 0.843961
0.800320 0.869444 0.847929
0.806149 0.869230 0.851835
0.811795 0.868986 0.855558
0.817227 0.868681 0.859098
