其他预设/【240】TEZZA调色预设合集24款/1.LUT预设（视频调色-PR-AE-PS-FCPX-达芬奇用）/Tezza自然__-3.cube
# Created by Adobe Lightroom plugin Export LUT (1.17.0)
# www.johnrellis.com/lightroom/exportlut.htm
# Preset: Tezza自然[素锦印象]-3
# Color profile: /Library/Application Support/Adobe/Color/Profiles/Recommended/AdobeRGB1998.icc
LUT_3D_SIZE 32
0.011719 0.008331 0.007660
0.023011 0.009949 0.009400
0.040589 0.014008 0.010773
0.069551 0.024323 0.014008
0.100099 0.040925 0.017334
0.143282 0.045289 0.017090
0.195834 0.031220 0.015381
0.253086 0.003754 0.008698
0.312993 0.000000 0.000000
0.373785 0.000000 0.000000
0.434455 0.000000 0.000000
0.493050 0.000000 0.000000
0.548150 0.000000 0.000000
0.598688 0.000000 0.000000
0.648219 0.063478 0.000000
0.704707 0.126040 0.000000
0.748653 0.171511 0.000000
0.784909 0.211337 0.000000
0.816281 0.247318 0.000000
0.845365 0.282383 0.000000
0.872404 0.316930 0.000000
0.897337 0.350439 0.040803
0.919615 0.382116 0.089448
0.939818 0.412726 0.122683
0.958190 0.442359 0.153964
0.975189 0.472084 0.186282
0.991333 0.502586 0.220584
1.000000 0.534386 0.258946
1.000000 0.567346 0.302312
1.000000 0.601801 0.350835
1.000000 0.637324 0.404608
1.000000 0.673579 0.462867
0.012421 0.016297 0.011322
0.022827 0.019348 0.009735
0.043488 0.021759 0.010071
0.071382 0.034028 0.013092
0.102693 0.050690 0.016114
0.145937 0.054017 0.015717
0.197757 0.045686 0.013703
0.253971 0.020539 0.007019
0.312993 0.000000 0.000000
0.373205 0.000000 0.000000
0.432746 0.000000 0.000000
0.490730 0.000000 0.000000
0.545281 0.000000 0.000000
0.595392 0.000000 0.000000
0.645411 0.072877 0.000000
0.699336 0.127565 0.000000
0.742092 0.170382 0.000000
0.777829 0.207706 0.000000
0.809018 0.242405 0.000000
0.838376 0.276707 0.000000
0.865782 0.310521 0.000000
0.891142 0.343633 0.008698
0.913939 0.375219 0.078035
0.934691 0.405859 0.112581
0.953582 0.435737 0.144717
0.971191 0.465614 0.176822
0.987884 0.496437 0.211521
1.000000 0.528496 0.250187
1.000000 0.561852 0.292973
1.000000 0.596582 0.341833
1.000000 0.632410 0.395666
1.000000 0.668879 0.454017
0.014618 0.031037 0.015473
0.023346 0.031861 0.017334
0.039948 0.039796 0.014099
0.072541 0.051728 0.013581
0.106111 0.061799 0.014191
0.149813 0.064240 0.014435
0.201236 0.060365 0.011017
0.256413 0.045563 0.005188
0.314885 0.014252 0.000000
0.374151 0.000000 0.000000
0.433356 0.000000 0.000000
0.491066 0.000000 0.000000
0.544976 0.000000 0.000000
0.594751 0.017212 0.000000
0.645777 0.087953 0.000000
0.697444 0.134463 0.000000
0.739071 0.174228 0.000000
0.774289 0.209445 0.000000
0.805447 0.242893 0.000000
0.834867 0.276341 0.000000
0.862516 0.309606 0.000000
0.888090 0.342290 0.000000
0.911162 0.373663 0.072145
0.932128 0.403937 0.107698
0.951263 0.433600 0.139590
0.969085 0.463386 0.171725
0.986084 0.494209 0.206699
1.000000 0.526268 0.245121
1.000000 0.559716 0.288487
1.000000 0.594476 0.336858
1.000000 0.630304 0.390906
1.000000 0.666743 0.449073
0.015412 0.064546 0.028992
0.027283 0.065949 0.032685
0.040314 0.066011 0.033417
0.070619 0.076936 0.022858
0.110719 0.083742 0.015717
0.159701 0.084749 0.009400
0.212070 0.082460 0.004822
0.266758 0.076783 0.000000
0.323583 0.067781 0.000000
0.381933 0.053986 0.000000
0.439673 0.033661 0.000000
0.495796 0.028901 0.000000
0.548302 0.056184 0.000000
0.597040 0.082002 0.000000
0.649195 0.115785 0.000000
0.697566 0.152651 0.000000
0.737331 0.186221 0.000000
0.771298 0.217624 0.000000
0.801480 0.248051 0.000000
0.830198 0.279088 0.000000
0.857359 0.310246 0.000000
0.882963 0.341558 0.000000
0.906676 0.372564 0.060853
0.928618 0.403204 0.100710
0.948943 0.433783 0.134157
0.967773 0.464668 0.168307
0.985443 0.496162 0.204807
1.000000 0.528618 0.243839
1.000000 0.561852 0.287297
1.000000 0.596033 0.335607
1.000000 0.631037 0.388647
1.000000 0.666529 0.445655
0.009949 0.092714 0.049714
0.021881 0.093904 0.051606
0.039887 0.095705 0.054047
0.062684 0.095216 0.055970
0.102144 0.120333 0.026947
0.167483 0.124849 0.008545
0.220584 0.118746 0.000000
0.280034 0.112886 0.000000
0.335424 0.106935 0.000000
0.391913 0.101900 0.000000
0.447761 0.097932 0.000000
0.502251 0.099123 0.000000
0.553368 0.107301 0.000000
0.600855 0.122896 0.000000
0.654231 0.149996 0.000000
0.699855 0.178775 0.000000
0.738338 0.207095 0.000000
0.771847 0.235264 0.000000
0.801724 0.262913 0.000000
0.829740 0.291142 0.000000
0.856260 0.319799 0.000000
0.881407 0.349126 0.000000
0.904936 0.378454 0.047333
0.926940 0.408026 0.094423
0.947387 0.437842 0.130037
0.966461 0.467964 0.164492
0.984283 0.499001 0.200687
1.000000 0.530632 0.240024
1.000000 0.563287 0.283421
1.000000 0.596887 0.331121
1.000000 0.631342 0.383948
1.000000 0.666499 0.440955
0.000000 0.130678 0.064637
0.003693 0.132265 0.065064
0.021546 0.133639 0.066194
0.053285 0.134615 0.065309
0.080873 0.135866 0.067506
0.150729 0.175875 0.019532
0.241184 0.179416 0.000000
0.295781 0.166812 0.000000
0.349676 0.155642 0.000000
0.410742 0.150881 0.000000
0.464607 0.148135 0.000000
0.516533 0.149203 0.000000
0.565484 0.155459 0.000000
0.615930 0.169558 0.000000
0.664607 0.190158 0.000000
0.706752 0.212985 0.000000
0.743404 0.236454 0.000000
0.775692 0.260594 0.000000
0.804868 0.284825 0.000000
0.832517 0.310521 0.000000
0.858793 0.337224 0.000000
0.883726 0.364782 0.000000
0.940093 0.442390 0.121279
0.958221 0.468879 0.154086
0.974670 0.495003 0.186374
0.989837 0.521263 0.219638
1.000000 0.547967 0.254551
1.000000 0.575494 0.292760
1.000000 0.604089 0.335027
1.000000 0.633814 0.381170
1.000000 0.664149 0.431128
1.000000 0.694789 0.483711
0.000000 0.185092 0.078584
0.000000 0.186007 0.078920
0.000000 0.187259 0.080110
0.029938 0.190341 0.083955
0.076234 0.187991 0.081727
0.118746 0.199130 0.078004
0.224949 0.248722 0.000000
0.342596 0.255528 0.000000
0.396216 0.236027 0.000000
0.445869 0.220127 0.000000
0.500694 0.213382 0.000000
0.553613 0.213107 0.000000
0.602289 0.219242 0.000000
0.654444 0.234684 0.000000
0.697627 0.250950 0.000000
0.733791 0.267857 0.000000
0.765652 0.285618 0.000000
0.794553 0.304540 0.000000
0.821805 0.325444 0.000000
0.848783 0.349065 0.000000
0.875700 0.375647 0.000000
0.902037 0.404669 0.011872
0.926787 0.435035 0.091585
0.949218 0.465370 0.133639
0.969085 0.495094 0.172000
0.986084 0.523003 0.208499
1.000000 0.550134 0.245396
1.000000 0.577264 0.284215
1.000000 0.605341 0.326482
1.000000 0.634119 0.372290
1.000000 0.663661 0.421424
1.000000 0.693782 0.474281
0.000000 0.234897 0.093935
0.000000 0.235569 0.094728
0.000000 0.236606 0.095644
0.000000 0.238682 0.099550
0.059480 0.238895 0.095949
0.110292 0.233921 0.102144
0.168368 0.258457 0.089174
0.294285 0.311864 0.000000
0.428779 0.325872 0.000000
0.478798 0.303563 0.000000
0.523522 0.285954 0.000000
0.567010 0.274418 0.000000
0.625849 0.282109 0.000000
0.671687 0.290105 0.000000
0.709010 0.299290 0.000000
0.741176 0.309270 0.000000
0.770413 0.321538 0.000000
0.797330 0.335546 0.000000
0.823270 0.352117 0.000000
0.849058 0.371862 0.000000
0.874937 0.394720 0.000000
0.900389 0.420294 0.000000
0.924559 0.447700 0.082124
0.946654 0.475441 0.125338
0.966339 0.502861 0.164096
0.983490 0.529290 0.200473
0.998718 0.554986 0.237217
1.000000 0.581109 0.275792
1.000000 0.608209 0.317937
1.000000 0.636103 0.363348
1.000000 0.665034 0.413092
1.000000 0.694453 0.465980
0.000000 0.288640 0.115114
0.000000 0.289128 0.115969
0.000000 0.289799 0.116884
0.000000 0.291173 0.120363
0.053834 0.293767 0.128267
0.104402 0.289128 0.122042
0.155520 0.282383 0.128817
0.230381 0.322393 0.105837
0.369726 0.377844 0.000000
0.516930 0.402564 0.000000
0.568200 0.384222 0.000000
0.612390 0.369390 0.000000
0.649378 0.357031 0.000000
0.685817 0.351293 0.000000
0.724025 0.354589 0.000000
0.752773 0.358251 0.000000
0.779202 0.364721 0.000000
0.804105 0.373754 0.000000
0.828183 0.385657 0.000000
0.852598 0.401160 0.000000
0.877165 0.420294 0.000000
0.901488 0.442329 0.000000
0.924712 0.466255 0.075746
0.946105 0.491127 0.121004
0.965301 0.516045 0.159945
0.982269 0.540154 0.195834
0.997406 0.564263 0.232395
1.000000 0.588739 0.270481
1.000000 0.614313 0.311864
1.000000 0.640925 0.357183
1.000000 0.668482 0.406012
1.000000 0.696895 0.458686
0.000000 0.344121 0.140414
0.000000 0.344366 0.141085
0.000000 0.344610 0.142336
0.000000 0.345647 0.145846
0.000000 0.347112 0.152255
0.095308 0.345800 0.145052
0.156008 0.338964 0.151339
0.206210 0.331884 0.157870
0.300999 0.388128 0.127016
0.454108 0.451301 0.046082
0.601923 0.485969 0.000000
0.651179 0.467781 0.000000
0.682887 0.446876 0.000000
0.709651 0.428840 0.000000
0.732937 0.413336 0.000000
0.763210 0.411872 0.000000
0.791836 0.414496 0.000000
0.815213 0.419013 0.000000
0.837583 0.426734 0.000000
0.859892 0.437476 0.000000
0.882170 0.451637 0.000000
0.904082 0.468574 0.000000
0.925200 0.487587 0.069490
0.944976 0.507927 0.114992
0.963287 0.529320 0.152377
0.979950 0.550958 0.188266
0.995270 0.573449 0.224704
1.000000 0.596887 0.263432
1.000000 0.621668 0.305638
1.000000 0.647639 0.351751
1.000000 0.674647 0.401770
1.000000 0.702419 0.455390
0.000000 0.397192 0.167788
0.000000 0.397528 0.168521
0.000000 0.397772 0.169650
0.000000 0.398535 0.172854
0.000000 0.399817 0.178805
0.110445 0.401099 0.186435
0.155673 0.396094 0.177310
0.214542 0.392859 0.186130
0.275364 0.404089 0.188785
0.387518 0.464942 0.159670
0.536339 0.523003 0.098848
0.667811 0.556695 0.000000
0.715145 0.539330 0.000000
0.738399 0.514305 0.000000
0.758724 0.493141 0.000000
0.776883 0.475196 0.000000
0.796384 0.463233 0.000000
0.821988 0.464302 0.000000
0.844541 0.467445 0.000000
0.865141 0.473732 0.000000
0.886107 0.483986 0.000000
0.906767 0.497108 0.000000
0.927001 0.512840 0.066651
0.946014 0.530266 0.113375
0.963653 0.548699 0.151095
0.979736 0.567620 0.186679
0.994629 0.587518 0.222568
1.000000 0.608698 0.259831
1.000000 0.631342 0.301183
1.000000 0.655512 0.346258
1.000000 0.681025 0.395850
1.000000 0.707301 0.448920
0.000000 0.451881 0.198520
0.000000 0.452033 0.199344
0.000000 0.452308 0.200656
0.000000 0.453681 0.203922
0.000000 0.457099 0.210666
0.110567 0.460792 0.220890
0.161746 0.461982 0.211978
0.225284 0.457496 0.219272
0.281498 0.451453 0.227695
0.351202 0.475685 0.223758
0.468971 0.533471 0.196384
0.607446 0.588373 0.147524
0.766842 0.664698 0.160616
0.808011 0.647028 0.144198
0.822110 0.616999 0.115663
0.834684 0.590845 0.080293
0.846433 0.568383 0.000000
0.858091 0.549676 0.000000
0.874968 0.542840 0.000000
0.894560 0.543755 0.000000
0.912200 0.547784 0.000000
0.928923 0.555138 0.070893
0.945098 0.564752 0.113466
0.960815 0.576684 0.148531
0.975708 0.590234 0.181094
0.989624 0.605097 0.214298
1.000000 0.621088 0.247684
1.000000 0.638514 0.283879
1.000000 0.657588 0.322454
1.000000 0.678309 0.365911
1.000000 0.700496 0.413184
1.000000 0.723690 0.463569
0.000000 0.533562 0.249821
0.000000 0.534020 0.250767
0.000000 0.533623 0.251652
0.000000 0.533562 0.254459
0.000000 0.533318 0.258793
0.122591 0.532921 0.266026
0.204318 0.532891 0.273869
0.243229 0.528191 0.261051
0.303075 0.521935 0.268925
0.358160 0.516014 0.278325
0.443030 0.556573 0.272526
0.563165 0.615167 0.252934
0.688380 0.667079 0.223056
0.790921 0.697780 0.205936
0.835874 0.687678 0.199680
0.848814 0.660029 0.175387
0.859922 0.634516 0.148043
0.870207 0.612177 0.118532
0.880827 0.593835 0.086671
0.893126 0.580835 0.037842
0.911711 0.581659 0.056092
0.929961 0.585199 0.068574
0.945312 0.591150 0.111330
0.960235 0.599725 0.145785
0.974548 0.610132 0.177920
0.988098 0.622156 0.209445
1.000000 0.635737 0.242649
1.000000 0.651057 0.277440
1.000000 0.668177 0.316014
1.000000 0.687343 0.358862
1.000000 0.708125 0.405890
1.000000 0.729976 0.456550
0.000000 0.588098 0.288609
0.000000 0.588067 0.289464
0.000000 0.587396 0.289921
0.000000 0.586236 0.291661
0.000000 0.584436 0.294591
0.126711 0.582574 0.300175
0.213596 0.581231 0.308965
0.253880 0.578729 0.296910
0.309941 0.572442 0.300206
0.365850 0.566400 0.308232
0.417884 0.560876 0.318273
0.510613 0.612848 0.310643
0.619562 0.664057 0.295689
0.729213 0.708400 0.271641
0.820340 0.736416 0.259586
0.861997 0.726589 0.256474
0.872038 0.698665 0.229679
0.881346 0.673701 0.203098
0.890806 0.652094 0.177737
0.901305 0.635035 0.153689
0.912902 0.622004 0.130922
0.927977 0.618097 0.123934
0.944976 0.621057 0.132326
0.960906 0.626215 0.147433
0.974640 0.633661 0.178653
0.987762 0.643061 0.209689
1.000000 0.654108 0.241489
1.000000 0.667140 0.275822
1.000000 0.682277 0.313481
1.000000 0.699580 0.356023
1.000000 0.718746 0.403052
1.000000 0.738827 0.453010
0.000000 0.636042 0.325658
0.000000 0.636194 0.326726
0.000000 0.635218 0.326818
0.000000 0.633570 0.327977
0.000000 0.631067 0.330205
0.136812 0.628382 0.334234
0.220645 0.626032 0.341405
0.287907 0.624109 0.348547
0.318273 0.619837 0.332921
0.374395 0.613916 0.340185
0.426520 0.608453 0.349035
0.479652 0.611780 0.357000
0.569940 0.662104 0.350439
0.667353 0.706233 0.338842
0.763272 0.743709 0.319707
0.842771 0.766995 0.309972
0.883543 0.760189 0.311101
0.891997 0.733394 0.282506
0.900511 0.709712 0.256229
0.909789 0.689845 0.231601
0.920043 0.673854 0.210056
0.931182 0.661585 0.190158
0.942931 0.652522 0.172610
0.958740 0.654963 0.180362
0.974121 0.659358 0.190311
0.987945 0.666041 0.211826
1.000000 0.675257 0.244083
1.000000 0.686885 0.279545
1.000000 0.700771 0.318212
1.000000 0.716884 0.361822
1.000000 0.734737 0.410254
1.000000 0.753536 0.461250
0.000000 0.678065 0.361273
0.000000 0.678309 0.362463
0.000000 0.677882 0.363195
0.000000 0.676844 0.364569
0.000000 0.675166 0.367437
0.160006 0.673274 0.371984
0.238437 0.671626 0.379095
0.309117 0.669947 0.389410
0.344701 0.667781 0.379370
0.390661 0.662318 0.378973
0.440497 0.655909 0.385718
0.485725 0.649226 0.393164
0.538933 0.661524 0.396399
0.620264 0.703639 0.389960
0.705745 0.740169 0.378576
0.789334 0.771115 0.361151
0.859709 0.791165 0.354040
0.900786 0.788449 0.361395
0.909026 0.764126 0.333776
0.917845 0.743404 0.309575
0.927489 0.726040 0.287419
0.937804 0.711757 0.267460
0.948638 0.700526 0.250065
0.960174 0.692287 0.234318
0.973327 0.690272 0.231327
0.987823 0.694697 0.243137
1.000000 0.700832 0.256779
1.000000 0.709865 0.288334
1.000000 0.721401 0.326970
1.000000 0.735012 0.369207
1.000000 0.749966 0.415198
1.000000 0.766232 0.464363
0.000000 0.713039 0.393469
0.000000 0.712856 0.393957
0.000000 0.712215 0.394537
0.000000 0.711208 0.396155
0.086946 0.709621 0.398871
0.181216 0.707698 0.402991
0.252720 0.705867 0.409644
0.319371 0.703822 0.418677
0.378546 0.701747 0.427405
0.400855 0.698543 0.410956
0.448676 0.692622 0.416938
0.492561 0.686519 0.423285
0.532219 0.679988 0.430365
0.587793 0.701198 0.431647
0.661860 0.737697 0.426673
0.737789 0.768795 0.416876
0.811673 0.795224 0.402441
0.874723 0.812772 0.397620
0.915801 0.813474 0.410925
0.923888 0.791989 0.384649
0.932616 0.773312 0.360937
0.941985 0.757534 0.339422
0.951873 0.744228 0.320317
0.962432 0.734005 0.304021
0.973602 0.726467 0.290013
0.985321 0.721798 0.279973
0.998962 0.725795 0.291691
1.000000 0.732357 0.308873
1.000000 0.740719 0.332464
1.000000 0.752316 0.374365
1.000000 0.765316 0.419684
1.000000 0.779812 0.468818
0.000000 0.746365 0.426184
0.000000 0.746700 0.427344
0.045502 0.771115 0.454871
0.129763 0.769833 0.456397
0.192782 0.767758 0.459052
0.251835 0.764920 0.462531
0.310704 0.761593 0.468086
0.369085 0.758022 0.475563
0.426734 0.754421 0.486152
0.455146 0.751369 0.478279
0.487190 0.746090 0.474403
0.525963 0.739467 0.478676
0.561334 0.732052 0.482643
0.593378 0.724331 0.486854
0.647883 0.750332 0.486244
0.711940 0.780026 0.481636
0.777462 0.805356 0.473701
0.840757 0.826658 0.462226
0.895354 0.840787 0.458869
0.931273 0.841215 0.473030
0.941405 0.823972 0.451942
0.949523 0.806973 0.427588
0.958282 0.792325 0.405310
0.967498 0.780026 0.386023
0.977081 0.769680 0.368597
0.987274 0.762020 0.354467
0.998077 0.756863 0.343847
1.000000 0.756893 0.345434
1.000000 0.763088 0.364996
1.000000 0.770932 0.388861
1.000000 0.780850 0.424475
1.000000 0.793210 0.472694
0.000000 0.782101 0.463874
0.050477 0.784817 0.467720
0.109071 0.787381 0.471901
0.163790 0.788998 0.476753
0.219242 0.789242 0.481697
0.273014 0.787747 0.486671
0.327459 0.785122 0.492226
0.381353 0.781888 0.499489
0.435492 0.778500 0.509300
0.483650 0.775265 0.518700
0.497078 0.772244 0.502220
0.533318 0.766354 0.505882
0.567010 0.759762 0.509514
0.597894 0.752651 0.512993
0.626459 0.746304 0.515892
0.681361 0.776089 0.514794
0.739681 0.801968 0.510735
0.798520 0.824063 0.504479
0.855802 0.842985 0.495491
0.905669 0.856077 0.494484
0.939055 0.857420 0.510521
0.951507 0.844480 0.497322
0.959655 0.829679 0.475074
0.968292 0.816739 0.454963
0.977325 0.805692 0.436713
0.986877 0.796841 0.421637
0.997009 0.790372 0.410040
1.000000 0.786801 0.403479
1.000000 0.786160 0.403021
1.000000 0.791623 0.422797
1.000000 0.799313 0.449866
1.000000 0.808011 0.481849
0.115206 0.806241 0.490333
0.141756 0.808469 0.494087
0.168704 0.810575 0.497780
0.206638 0.811826 0.502098
0.251896 0.811887 0.506981
0.299077 0.810483 0.511803
0.347875 0.807950 0.517113
0.397467 0.804929 0.524193
0.447425 0.801785 0.533288
0.497017 0.798459 0.544854
0.521843 0.795926 0.540246
0.545006 0.791897 0.534844
0.576349 0.786038 0.537804
0.605829 0.779721 0.541039
0.632532 0.772854 0.543725
0.662867 0.774472 0.545678
0.713191 0.800534 0.544701
0.766049 0.823087 0.541985
0.819364 0.842527 0.537530
0.870939 0.859403 0.531060
0.916075 0.871336 0.532525
0.947082 0.873503 0.549493
0.960845 0.863767 0.543969
0.968811 0.850767 0.523705
0.977173 0.839139 0.504570
0.985992 0.829435 0.488075
0.995453 0.821775 0.474830
1.000000 0.816770 0.466590
1.000000 0.814237 0.463600
1.000000 0.814145 0.466346
1.000000 0.817655 0.480995
1.000000 0.825254 0.512078
0.180026 0.829099 0.516655
0.197696 0.830961 0.520012
0.217288 0.832822 0.523796
0.248173 0.833799 0.527855
0.286351 0.833616 0.532464
0.327550 0.832181 0.537133
0.370916 0.829831 0.542351
0.415930 0.826932 0.548943
0.462379 0.823697 0.557580
0.508537 0.820340 0.568109
0.551019 0.817105 0.578973
0.558831 0.815000 0.563195
0.587701 0.809781 0.565789
0.615259 0.804288 0.568688
0.640955 0.798459 0.571344
0.665003 0.792477 0.574273
0.697932 0.801358 0.577142
0.745083 0.825010 0.578698
0.793881 0.845640 0.579156
0.842405 0.863523 0.578973
0.888731 0.878996 0.577600
0.929412 0.890257 0.582635
0.957641 0.892912 0.600702
0.971771 0.886015 0.602716
0.979492 0.875090 0.585748
0.987640 0.865507 0.570428
0.996307 0.857725 0.557946
1.000000 0.851926 0.549248
1.000000 0.848203 0.545006
1.000000 0.846738 0.546288
1.000000 0.847318 0.553582
1.000000 0.849882 0.567742
0.257115 0.858427 0.554101
0.267094 0.859068 0.555993
0.279210 0.859373 0.557702
0.301244 0.859007 0.560327
0.330938 0.857908 0.563592
0.365728 0.856046 0.567651
0.403937 0.853666 0.572747
0.445014 0.850980 0.579400
0.488167 0.848142 0.588037
0.531487 0.845182 0.598810
0.573571 0.842252 0.611048
0.595422 0.840055 0.609461
0.610529 0.837034 0.602472
0.635340 0.832334 0.604944
0.658839 0.827207 0.607172
0.681056 0.821897 0.609522
0.701961 0.816648 0.612268
0.735592 0.830167 0.615045
0.777646 0.850095 0.616999
0.820645 0.867369 0.618097
0.862882 0.882322 0.618219
0.903441 0.895262 0.617029
0.939391 0.904692 0.621149
0.964752 0.906798 0.636957
0.978759 0.901305 0.643244
0.986084 0.891569 0.628229
0.993988 0.883452 0.615869
1.000000 0.876890 0.606134
1.000000 0.872313 0.600793
1.000000 0.869718 0.600305
1.000000 0.869200 0.605676
1.000000 0.870756 0.617578
0.302800 0.877562 0.579706
0.311681 0.878050 0.581567
0.321996 0.878416 0.583551
0.341161 0.878080 0.586175
0.366827 0.876982 0.589502
0.397192 0.875120 0.593256
0.431403 0.872648 0.598016
0.468147 0.869902 0.604150
0.507591 0.866972 0.612268
0.547356 0.863981 0.622065
0.586206 0.861021 0.632990
0.622156 0.858122 0.644190
0.628046 0.856626 0.631556
0.648829 0.852873 0.631983
0.670893 0.848631 0.634363
0.691981 0.844236 0.636896
0.712154 0.839872 0.639734
0.731350 0.835691 0.643061
0.766049 0.852842 0.646509
0.804288 0.870207 0.649531
0.842771 0.885374 0.651911
0.880491 0.898558 0.653529
0.916594 0.910002 0.654292
0.948882 0.918456 0.659266
0.970428 0.917967 0.666102
0.984314 0.913878 0.677119
0.991394 0.905364 0.664363
0.998993 0.898314 0.654322
1.000000 0.893034 0.647852
1.000000 0.889677 0.646265
1.000000 0.888457 0.650446
1.000000 0.889372 0.661097
0.364080 0.900267 0.614282
0.371923 0.900816 0.616327
0.380652 0.900877 0.618097
0.395575 0.900175 0.620172
0.416449 0.898741 0.622797
0.441962 0.896666 0.626184
0.471107 0.893950 0.630365
0.503075 0.890867 0.635706
0.537011 0.887510 0.642359
0.571405 0.884092 0.650172
0.605341 0.880644 0.658930
0.638148 0.877348 0.668757
0.656397 0.874846 0.668299
0.665217 0.872343 0.659785
0.684230 0.868070 0.660792
0.702663 0.863554 0.661799
0.720607 0.859068 0.663294
0.738277 0.854917 0.665644
0.757198 0.853544 0.668940
0.790951 0.871000 0.673060
0.825925 0.886473 0.676936
0.860655 0.899870 0.680110
0.894316 0.911406 0.681941
0.926513 0.921172 0.682521
0.955474 0.928252 0.686183
0.976684 0.929808 0.698604
0.989837 0.926452 0.712886
0.996490 0.918975 0.702022
1.000000 0.913085 0.694575
1.000000 0.909026 0.691585
1.000000 0.906981 0.694179
1.000000 0.907164 0.703273
0.402289 0.915129 0.637751
0.409216 0.915587 0.639734
0.417060 0.915618 0.641474
0.430304 0.914946 0.643610
0.449042 0.913573 0.646265
0.472023 0.911681 0.649744
0.499062 0.909239 0.654139
0.528374 0.906493 0.659541
0.559533 0.903593 0.666041
0.591516 0.900603 0.673823
0.623041 0.897612 0.682307
0.654139 0.894743 0.691951
0.683589 0.891844 0.701930
0.688930 0.890532 0.692561
0.702663 0.887633 0.690455
0.719814 0.884062 0.691981
0.736538 0.880430 0.693660
0.753109 0.877012 0.696040
0.769497 0.874052 0.699458
0.789670 0.877195 0.703609
0.819669 0.892027 0.707912
0.850248 0.905028 0.711696
0.880430 0.916289 0.714626
0.909636 0.925872 0.716243
0.937743 0.933959 0.716640
0.963470 0.939910 0.719844
0.982757 0.941314 0.731319
0.994934 0.938659 0.749111
1.000000 0.932586 0.741878
1.000000 0.928191 0.738460
1.000000 0.925597 0.740108
1.000000 0.925109 0.747677
0.445838 0.930419 0.664363
0.451789 0.930571 0.665980
0.457801 0.930388 0.667170
0.468940 0.929534 0.668910
0.484901 0.928038 0.671168
0.504875 0.926085 0.674220
0.528191 0.923735 0.678157
0.554284 0.921111 0.683070
0.582422 0.918364 0.689143
0.611505 0.915618 0.696345
0.640894 0.912871 0.704433
0.669856 0.910277 0.713619
0.697597 0.907683 0.723171
0.714809 0.905760 0.725277
0.720241 0.904417 0.717311
0.735805 0.901396 0.718807
0.751064 0.898283 0.720485
0.766323 0.895354 0.722713
0.781582 0.892821 0.725826
0.796658 0.890715 0.729732
0.817136 0.896880 0.734157
0.843534 0.909361 0.737881
0.870085 0.920195 0.740993
0.896361 0.929595 0.743282
0.922026 0.937621 0.744564
0.946990 0.944457 0.745083
0.970092 0.949554 0.748196
0.987823 0.950896 0.758816
0.998444 0.948272 0.777157
1.000000 0.943755 0.775204
1.000000 0.940642 0.775540
1.000000 0.939483 0.781430
0.483680 0.943236 0.687984
0.488350 0.943236 0.689174
0.493721 0.943023 0.690303
0.503593 0.942290 0.692012
0.518578 0.941131 0.694728
0.537713 0.939666 0.698543
0.560967 0.938140 0.703761
0.586999 0.936461 0.710262
0.615015 0.934783 0.718074
0.643977 0.933135 0.726894
0.672755 0.931487 0.736538
0.700832 0.929808 0.746670
0.727321 0.928130 0.756954
0.751888 0.926329 0.767025
0.758907 0.925750 0.762875
0.768002 0.924285 0.760525
0.781430 0.922026 0.762478
0.794736 0.919829 0.764828
0.807919 0.917815 0.767575
0.821012 0.916075 0.771023
0.833860 0.914580 0.774990
0.852384 0.921904 0.778439
0.873808 0.931518 0.781186
0.895476 0.939910 0.783383
0.917021 0.947112 0.784939
0.938415 0.953307 0.785946
0.959442 0.958587 0.786648
0.979065 0.962402 0.789670
0.994568 0.963592 0.799374
1.000000 0.960388 0.816129
1.000000 0.957214 0.819730
1.000000 0.955413 0.823850
0.542657 0.959869 0.723262
0.546197 0.959747 0.724147
0.550072 0.959442 0.724880
0.558099 0.958618 0.726314
0.570092 0.957397 0.728481
0.585657 0.955840 0.731533
0.604517 0.954101 0.735714
0.625849 0.952178 0.740902
0.649165 0.950225 0.747127
0.673579 0.948180 0.754330
0.698054 0.946136 0.762051
0.722316 0.944121 0.770443
0.745571 0.942107 0.779080
0.767544 0.940124 0.787778
0.782803 0.938567 0.791928
0.786282 0.938018 0.785855
