其他预设/【240】TEZZA调色预设合集24款/1.LUT预设（视频调色-PR-AE-PS-FCPX-达芬奇用）/Tezza自然__-2.cube
# Created by Adobe Lightroom plugin Export LUT (1.17.0)
# www.johnrellis.com/lightroom/exportlut.htm
# Preset: Tezza自然[素锦印象]-2
# Color profile: /Library/Application Support/Adobe/Color/Profiles/Recommended/AdobeRGB1998.icc
LUT_3D_SIZE 8
DOMAIN_MIN 0.000000 0.000000 0.000000
DOMAIN_MAX 0.903226 0.903226 0.903226
0.000000 0.000000 0.000000
0.071717 0.000763 0.020111
0.190585 0.000000 0.046601
0.385901 0.000000 0.049195
0.564477 0.000000 0.044221
0.706813 0.000000 0.087556
0.803220 0.000000 0.170138
0.880156 0.000000 0.294835
0.020935 0.077241 0.038758
0.076631 0.082826 0.033722
0.173770 0.032898 0.029236
0.351080 0.000000 0.021759
0.534539 0.000000 0.001587
0.684199 0.000000 0.035492
0.785702 0.000000 0.128206
0.870329 0.000000 0.259617
0.000000 0.214847 0.077302
0.052064 0.233677 0.089052
0.230625 0.232456 0.039643
0.313085 0.155123 0.008362
0.504631 0.000000 0.000000
0.671992 0.000000 0.052003
0.791684 0.000000 0.143130
0.879332 0.000000 0.259586
0.000000 0.420508 0.154055
0.090333 0.430762 0.173465
0.209628 0.494789 0.211398
0.487800 0.467048 0.125368
0.555627 0.356970 0.000000
0.649226 0.293217 0.000183
0.768704 0.283574 0.140536
0.862333 0.325292 0.266056
0.196506 0.600031 0.289952
0.236393 0.605158 0.307591
0.348638 0.630915 0.363317
0.487648 0.662440 0.405219
0.634638 0.604456 0.265568
0.672480 0.513939 0.135836
0.718532 0.463478 0.096712
0.837888 0.504082 0.263310
0.377783 0.696559 0.435065
0.418189 0.705837 0.462623
0.492622 0.713680 0.510521
0.565667 0.738216 0.560327
0.633906 0.737484 0.546502
0.721279 0.697353 0.432593
0.768063 0.647974 0.332006
0.831937 0.643824 0.327520
0.538750 0.772763 0.579980
0.552789 0.775570 0.590784
0.586358 0.778927 0.615076
0.632532 0.792172 0.650965
0.675319 0.810666 0.684352
0.721248 0.800595 0.653864
0.786984 0.776150 0.584131
0.839933 0.753231 0.535790
0.644190 0.840452 0.692592
0.649287 0.840757 0.696345
0.669612 0.843351 0.712642
0.708461 0.850248 0.746304
0.725490 0.852323 0.755276
0.760952 0.862821 0.782956
0.797391 0.859556 0.758480
0.858549 0.854978 0.719326
0.000000 0.010712 0.061921
0.068879 0.010315 0.068330
0.174350 0.000000 0.058198
0.345220 0.000000 0.020996
0.529259 0.000000 0.000488
0.675471 0.000000 0.023987
0.778378 0.000000 0.130800
0.862669 0.000000 0.257511
0.008881 0.079683 0.072572
0.071534 0.078035 0.074434
0.173068 0.043183 0.059754
0.330877 0.000000 0.024750
0.512444 0.000000 0.004944
0.661402 0.000000 0.025513
0.764614 0.000000 0.100862
0.852110 0.000000 0.223758
0.018830 0.188602 0.089876
0.081727 0.204105 0.113191
0.219760 0.216831 0.095125
0.307958 0.153780 0.045045
0.479744 0.000000 0.000000
0.642542 0.000000 0.029541
0.760159 0.000000 0.113130
0.856535 0.000000 0.220737
0.000000 0.382818 0.156771
0.101167 0.396033 0.178531
0.216587 0.459968 0.226078
0.443732 0.424048 0.146365
0.503014 0.313573 0.029938
0.601129 0.255009 0.000000
0.734493 0.231846 0.104402
0.839353 0.269566 0.224369
0.189548 0.581506 0.287022
0.224582 0.585016 0.301457
0.334600 0.606958 0.355718
0.459602 0.640772 0.392859
0.607233 0.577111 0.254704
0.649378 0.488502 0.130282
0.699306 0.441474 0.070436
0.822171 0.480110 0.233921
0.353826 0.682460 0.418250
0.378637 0.685145 0.432074
0.458106 0.693935 0.480385
0.545068 0.720912 0.539574
0.621851 0.726741 0.538323
0.714229 0.689723 0.431586
0.760861 0.639246 0.320836
0.820249 0.629328 0.303349
0.512322 0.758877 0.556176
0.521294 0.758511 0.561334
0.562005 0.763577 0.590600
0.618708 0.779995 0.635950
0.667231 0.802731 0.675227
0.713558 0.793332 0.646113
0.777554 0.765103 0.568750
0.828031 0.737636 0.505608
0.631708 0.832975 0.680201
0.638666 0.834348 0.685817
0.660456 0.837766 0.703426
0.700923 0.845823 0.738705
0.732845 0.855772 0.764248
0.764096 0.863951 0.788174
0.795468 0.858091 0.757626
0.854276 0.850462 0.713100
0.000000 0.034974 0.141482
0.000000 0.026703 0.161563
0.209049 0.000000 0.189242
0.394354 0.000000 0.160006
0.552544 0.000000 0.111055
0.682979 0.000000 0.065003
0.785946 0.000000 0.121462
0.871305 0.000000 0.263645
0.000000 0.080293 0.145815
0.000000 0.074708 0.165286
0.207401 0.000000 0.187716
0.378302 0.000000 0.156039
0.537530 0.000000 0.093477
0.670222 0.000000 0.068513
0.774716 0.000000 0.115633
0.865751 0.000000 0.237583
0.000000 0.199588 0.182010
0.000000 0.201907 0.186160
0.196841 0.194461 0.189609
0.358343 0.126772 0.143587
0.526818 0.000000 0.113252
0.657374 0.000000 0.088258
0.763241 0.000000 0.119295
0.859037 0.000000 0.226963
0.041962 0.343175 0.175723
0.106813 0.360296 0.198795
0.249729 0.407538 0.277379
0.438819 0.411749 0.246708
0.491066 0.305913 0.142367
0.627070 0.268193 0.108583
0.743008 0.272129 0.114229
0.846830 0.298283 0.238834
0.165438 0.547906 0.285801
0.209476 0.555444 0.305882
0.336370 0.579278 0.373663
0.477119 0.632959 0.456550
0.609491 0.578271 0.336095
0.643061 0.483925 0.200931
0.706630 0.448432 0.115419
0.826566 0.487556 0.242222
0.334234 0.667872 0.414771
0.362432 0.670802 0.430121
0.443183 0.678737 0.477089
0.542443 0.701137 0.544823
0.617853 0.718898 0.564843
0.704158 0.679957 0.459144
0.750454 0.628626 0.343725
0.823636 0.632197 0.307897
0.506188 0.753933 0.557244
0.517357 0.754208 0.564111
0.555200 0.757351 0.589654
0.617304 0.769192 0.638697
0.665827 0.794064 0.677333
0.713161 0.792386 0.662776
0.778653 0.767636 0.593683
0.835813 0.747036 0.531365
0.624262 0.829862 0.676631
0.628138 0.829587 0.678889
0.648737 0.832029 0.694545
0.693202 0.842496 0.733333
0.731258 0.852506 0.764553
0.765682 0.862974 0.792233
0.796597 0.858946 0.767239
0.856504 0.853117 0.724544
0.000000 0.058778 0.270451
0.000000 0.043702 0.297887
0.000000 0.000000 0.377203
0.436072 0.000000 0.371099
0.593225 0.000000 0.315801
0.697078 0.000000 0.292149
0.779904 0.000000 0.231296
0.864469 0.000000 0.252506
0.000000 0.090394 0.276616
0.000000 0.079835 0.299657
0.000000 0.061250 0.374670
0.436255 0.000000 0.371740
0.590143 0.000000 0.317174
0.690364 0.000000 0.289586
0.774685 0.000000 0.214878
0.862058 0.000000 0.234043
0.000000 0.169345 0.269322
0.000000 0.166110 0.273198
0.086061 0.170993 0.333532
0.423835 0.130190 0.365667
0.576837 0.000000 0.321324
0.689265 0.000000 0.260746
0.783078 0.000000 0.210239
0.866972 0.000000 0.238621
0.000000 0.366064 0.326421
0.000000 0.367834 0.329351
0.166842 0.373693 0.342260
0.388006 0.368322 0.354070
0.537072 0.300175 0.291875
0.655268 0.245701 0.246159
0.754788 0.228336 0.220645
0.851377 0.290257 0.244358
0.119936 0.503319 0.310613
0.164736 0.504143 0.314488
0.285405 0.523217 0.357733
0.467201 0.571893 0.471412
0.591028 0.559442 0.428595
0.620661 0.461372 0.278965
0.726833 0.446174 0.242863
0.834928 0.484016 0.272038
0.303075 0.645899 0.412848
0.341161 0.654780 0.435218
0.420264 0.661555 0.476692
0.538567 0.679591 0.555169
0.630091 0.722194 0.625696
0.698756 0.676997 0.523217
0.740780 0.619562 0.393103
0.822934 0.620783 0.315709
0.478248 0.739559 0.545586
0.493935 0.741817 0.555657
0.540826 0.748409 0.587152
0.607233 0.762112 0.637659
0.672847 0.787289 0.692927
0.719539 0.797696 0.700160
0.777371 0.767758 0.624353
0.834623 0.745266 0.553674
0.617609 0.828061 0.677913
0.623865 0.829374 0.682612
0.642390 0.832059 0.695827
0.678676 0.838193 0.724208
0.729397 0.847471 0.766659
0.766720 0.860472 0.796109
0.797330 0.859800 0.781979
0.857725 0.854826 0.738888
0.000000 0.070649 0.419623
0.000000 0.058747 0.441260
0.000000 0.048341 0.503624
0.303471 0.000000 0.560967
0.622980 0.000000 0.551690
0.714748 0.000000 0.489937
0.784695 0.000000 0.460060
0.857572 0.000000 0.460822
0.000000 0.096590 0.415473
0.000000 0.088258 0.438422
0.000000 0.081880 0.501061
0.307164 0.000000 0.564477
0.620417 0.000000 0.550011
0.712184 0.000000 0.490425
0.782834 0.000000 0.460822
0.856596 0.000000 0.456519
0.000000 0.156100 0.372595
0.000000 0.164767 0.394385
0.000000 0.165103 0.465126
0.315770 0.176669 0.569909
0.606714 0.064118 0.539757
0.696071 0.067872 0.482002
0.771603 0.063874 0.454658
0.852964 0.000000 0.411292
0.000000 0.306889 0.403571
0.000000 0.305364 0.405188
0.000000 0.301183 0.414771
0.307073 0.345312 0.504997
0.585779 0.359655 0.528466
0.677211 0.328588 0.480537
0.762875 0.256779 0.422339
0.857389 0.034363 0.334173
0.000000 0.510430 0.455726
0.000000 0.511833 0.458259
0.130617 0.513573 0.465705
0.356878 0.516655 0.483711
0.531823 0.508598 0.492805
0.640742 0.450599 0.428321
0.738857 0.409644 0.375708
0.839078 0.415137 0.357183
0.196262 0.599512 0.432898
0.226993 0.600671 0.436255
0.313451 0.602350 0.445747
0.441535 0.616175 0.488594
0.584009 0.653590 0.590661
0.670436 0.648585 0.561151
0.713008 0.580835 0.414679
0.825223 0.593469 0.401160
0.416388 0.710506 0.515984
0.429572 0.711025 0.522179
0.477485 0.715663 0.548333
0.555444 0.728969 0.599725
0.641596 0.754360 0.668330
0.715114 0.793973 0.729427
0.766018 0.756649 0.646448
0.822721 0.726528 0.556176
0.582513 0.809506 0.655421
0.587671 0.809903 0.658503
0.606775 0.812589 0.670863
0.650416 0.826017 0.705318
0.701198 0.836576 0.745113
0.759365 0.852659 0.792966
0.794339 0.858213 0.797024
0.852384 0.849821 0.746853
0.000000 0.084871 0.566033
0.000000 0.075288 0.579492
0.000000 0.071260 0.617334
0.113863 0.000000 0.679408
0.538384 0.000000 0.688746
0.723568 0.000000 0.671229
0.792599 0.000000 0.627131
0.857359 0.155734 0.612757
0.000000 0.107393 0.550622
0.000000 0.100008 0.563439
0.000000 0.092164 0.606470
0.117769 0.073579 0.669245
0.532891 0.000000 0.683497
0.718318 0.000000 0.665949
0.788785 0.014893 0.624170
0.854765 0.184390 0.610010
0.000000 0.179232 0.526024
0.000000 0.183139 0.539788
0.000000 0.171481 0.588251
0.169619 0.199802 0.657069
0.539849 0.201083 0.688869
0.712856 0.199344 0.664881
0.783047 0.256168 0.626337
0.851255 0.283421 0.610559
0.000000 0.259434 0.486488
0.000000 0.253544 0.484535
0.000000 0.272343 0.517571
0.192782 0.328191 0.619104
0.554925 0.434730 0.702083
0.706966 0.420172 0.669947
0.776181 0.417121 0.634730
0.848234 0.399756 0.614191
0.000000 0.463691 0.528313
0.000000 0.462684 0.529290
0.000000 0.458015 0.532616
0.200961 0.445808 0.541070
0.490181 0.508293 0.631159
0.678584 0.538384 0.649104
0.752712 0.509056 0.616022
0.838743 0.457801 0.575738
0.000000 0.624018 0.568231
0.000000 0.626184 0.571801
0.143618 0.625177 0.575433
0.331792 0.622644 0.583185
0.497230 0.619684 0.597742
0.634974 0.620722 0.615015
0.727932 0.580713 0.565240
0.834989 0.560296 0.529290
0.340978 0.700282 0.574640
0.361059 0.701869 0.578210
0.413916 0.702113 0.583520
0.493568 0.704494 0.595789
0.586664 0.714839 0.629175
0.692317 0.755764 0.718593
0.754421 0.746242 0.686793
0.818997 0.707668 0.573388
0.543847 0.796109 0.648432
0.549035 0.795621 0.648341
0.569116 0.796292 0.653529
0.608515 0.805386 0.679896
0.661585 0.818143 0.718044
0.732876 0.837003 0.774838
0.797543 0.859464 0.824247
0.848447 0.846891 0.767025
0.000000 0.100923 0.670924
0.000000 0.093568 0.680537
0.000000 0.085725 0.703883
0.000000 0.086702 0.742489
0.439063 0.004974 0.786221
0.662715 0.000000 0.768643
0.788510 0.109621 0.753689
0.849851 0.273442 0.723934
0.000000 0.120058 0.658015
0.000000 0.114046 0.667659
0.000000 0.099855 0.692409
0.000000 0.111238 0.731075
0.428351 0.101381 0.776303
0.653620 0.000000 0.760250
0.780362 0.120607 0.744320
0.842557 0.259495 0.713832
0.000000 0.192142 0.644678
0.000000 0.188571 0.652735
0.000000 0.172457 0.678523
0.000000 0.189639 0.720485
0.435950 0.244388 0.767819
0.654688 0.257969 0.763363
0.779355 0.294102 0.748165
0.843870 0.361334 0.722499
0.000000 0.253666 0.602289
0.000000 0.257664 0.609003
0.000000 0.279271 0.638209
0.000000 0.294285 0.693111
0.437964 0.382238 0.751339
0.658991 0.446601 0.772030
0.776669 0.451575 0.754269
0.841764 0.464698 0.729580
0.000000 0.410315 0.602625
0.000000 0.402869 0.599817
0.000000 0.379675 0.594812
0.000000 0.363531 0.607233
0.357336 0.443427 0.697871
0.648890 0.571099 0.770626
0.761563 0.552575 0.746517
0.833066 0.546746 0.727687
0.000000 0.602869 0.639185
0.000000 0.601099 0.639002
0.000000 0.594171 0.638453
0.000000 0.580529 0.639277
0.306554 0.550988 0.639857
0.600793 0.619379 0.724605
0.754391 0.655787 0.751095
0.827054 0.627161 0.727138
0.089174 0.724788 0.678920
0.142000 0.725277 0.680415
0.237552 0.722896 0.681300
0.349523 0.719234 0.684169
0.469978 0.711360 0.687037
0.598993 0.706966 0.698787
0.716091 0.711757 0.717769
0.819577 0.681056 0.677668
0.464698 0.785428 0.693233
0.473091 0.785824 0.694087
0.508019 0.791409 0.702693
0.552575 0.795590 0.709560
0.607813 0.800259 0.717311
0.679072 0.810147 0.738369
0.777737 0.840848 0.815640
0.840024 0.840299 0.796231
0.000000 0.120851 0.761410
0.000000 0.114137 0.766506
0.000000 0.095644 0.777737
0.000000 0.109773 0.800290
0.310582 0.116823 0.827359
0.594781 0.223270 0.850309
0.744259 0.239567 0.831418
0.842283 0.307744 0.817685
0.000000 0.137728 0.754208
0.000000 0.131899 0.759487
0.000000 0.106325 0.772274
0.000000 0.124910 0.794675
0.304356 0.143099 0.822873
0.591424 0.247745 0.848112
0.740169 0.253727 0.828122
0.838865 0.312505 0.814298
0.000000 0.197513 0.740444
0.000000 0.193088 0.745296
0.000000 0.173129 0.757839
0.000000 0.176394 0.787228
0.302464 0.224247 0.816159
0.589990 0.339605 0.845609
0.736080 0.341375 0.827237
0.835599 0.375799 0.813565
0.000000 0.267613 0.716854
0.000000 0.270481 0.722408
0.000000 0.279149 0.736538
0.000000 0.264317 0.767910
0.275059 0.316747 0.803464
0.585687 0.441779 0.837491
0.733425 0.464851 0.830472
0.833249 0.471962 0.816403
0.000000 0.365270 0.691402
0.000000 0.357855 0.692103
0.000000 0.340398 0.695155
0.000000 0.356420 0.724453
0.133547 0.386358 0.771969
0.554009 0.507378 0.818387
0.727565 0.573693 0.833158
0.829801 0.568078 0.820035
0.000000 0.582635 0.721706
0.000000 0.576440 0.719326
0.000000 0.555932 0.713863
0.000000 0.515587 0.708278
0.000000 0.446937 0.705013
0.470253 0.545251 0.784329
0.735317 0.690364 0.846799
0.832853 0.673335 0.833066
0.000000 0.741299 0.767483
0.000000 0.738979 0.766293
0.000000 0.731655 0.763516
0.000000 0.720607 0.762264
0.243687 0.700465 0.760678
0.410498 0.662531 0.759243
0.680873 0.708186 0.816007
0.826474 0.753872 0.836912
0.372900 0.841215 0.807553
0.377935 0.839994 0.806729
0.401129 0.837797 0.806119
0.447272 0.835996 0.807614
0.508263 0.832181 0.808957
0.583703 0.825711 0.810117
0.685054 0.816861 0.813962
0.810025 0.815885 0.827573
