其他预设/【240】TEZZA调色预设合集24款/1.LUT预设（视频调色-PR-AE-PS-FCPX-达芬奇用）/Tezza万事达-Tezza03JPG.cube
# Created by Adobe Lightroom plugin Export LUT (1.17.0)
# www.johnrellis.com/lightroom/exportlut.htm
# Preset: Tezza万事达-Tezza03JPG
# Color profile: /Library/Application Support/Adobe/Color/Profiles/Recommended/AdobeRGB1998.icc
LUT_3D_SIZE 5
DOMAIN_MIN 0.000000 0.000000 0.000000
DOMAIN_MAX 0.903226 0.903226 0.903226
0.077272 0.069551 0.036072
0.165652 0.073091 0.056764
0.443366 0.000000 0.061280
0.660822 0.203891 0.124697
0.793271 0.475410 0.329381
0.091676 0.156374 0.036896
0.205447 0.140902 0.048005
0.498817 0.148836 0.026856
0.679774 0.298924 0.124971
0.797940 0.506462 0.334569
0.106081 0.478035 0.000000
0.258061 0.467872 0.000000
0.508415 0.396002 0.000000
0.728664 0.508568 0.133181
0.811276 0.594049 0.359777
0.304112 0.675319 0.088228
0.382788 0.672969 0.081910
0.572168 0.623987 0.121462
0.695003 0.586542 0.202243
0.823728 0.687373 0.413672
0.514031 0.791714 0.347234
0.551873 0.789578 0.347326
0.659144 0.775814 0.356023
0.754147 0.747372 0.381567
0.818906 0.745846 0.505211
0.086275 0.087037 0.120577
0.229068 0.054749 0.158450
0.474800 0.152010 0.181582
0.659907 0.317235 0.259678
0.786923 0.500023 0.400855
0.111086 0.184543 0.155856
0.264897 0.219760 0.176730
0.510185 0.270939 0.207004
0.676997 0.376013 0.266484
0.791318 0.526970 0.408484
0.232151 0.507958 0.215305
0.319799 0.513390 0.195010
0.537926 0.452399 0.212863
0.723171 0.531945 0.294438
0.804593 0.605737 0.434394
0.356115 0.682979 0.275761
0.428595 0.680415 0.280583
0.589471 0.643580 0.277562
0.699336 0.603296 0.306798
0.820554 0.695247 0.476661
0.526909 0.792264 0.428260
0.561120 0.790311 0.427924
0.656794 0.780758 0.428443
0.751522 0.752193 0.435859
0.816617 0.748653 0.534722
0.000000 0.146700 0.379553
0.248539 0.209140 0.439521
0.583398 0.200870 0.513298
0.724147 0.376013 0.477729
0.779904 0.537102 0.537011
0.143709 0.254307 0.417029
0.282353 0.300847 0.438209
0.582177 0.370825 0.511772
0.709468 0.454627 0.487709
0.769680 0.572351 0.556542
0.252628 0.524651 0.481971
0.383581 0.542901 0.498878
0.601709 0.576318 0.534173
0.703670 0.583276 0.530938
0.786160 0.630518 0.573327
0.450263 0.695644 0.547021
0.514885 0.695796 0.555535
0.617121 0.695979 0.542626
0.709133 0.651209 0.518608
0.808865 0.712703 0.609674
0.616327 0.788754 0.640375
0.621637 0.789822 0.626459
0.654932 0.790311 0.586664
0.742092 0.768673 0.568872
0.810269 0.757717 0.612757
0.141695 0.285954 0.596582
0.293492 0.336828 0.619959
0.570336 0.434760 0.680110
0.736110 0.490272 0.718410
0.817594 0.592828 0.718013
0.233402 0.376043 0.608850
0.329259 0.401892 0.615930
0.579889 0.499153 0.678676
0.733333 0.543236 0.717098
0.812772 0.618799 0.718227
0.339300 0.540917 0.638117
0.418433 0.552789 0.643854
0.584955 0.593317 0.667201
0.731014 0.649470 0.720455
0.797513 0.670375 0.713680
0.473243 0.694057 0.682856
0.524102 0.697169 0.688106
0.638911 0.710689 0.707210
0.731502 0.727810 0.728237
0.788937 0.726009 0.719478
0.619715 0.797360 0.741421
0.638849 0.796963 0.743038
0.687587 0.797147 0.747250
0.731533 0.799405 0.727382
0.802884 0.775143 0.713832
0.443671 0.534325 0.780331
0.490150 0.545037 0.785031
0.645014 0.623926 0.798978
0.733761 0.644770 0.823636
0.813107 0.672480 0.834440
0.459602 0.561486 0.782010
0.502922 0.569787 0.782162
0.642084 0.633845 0.797147
0.733822 0.662348 0.822629
0.812467 0.686397 0.834318
0.485176 0.628351 0.788846
0.515129 0.629023 0.788663
0.616938 0.648646 0.789273
0.731899 0.702815 0.819028
0.811337 0.722652 0.834745
0.558434 0.718715 0.801511
0.579553 0.718776 0.801633
0.635096 0.718959 0.802121
0.711757 0.730098 0.805753
0.811521 0.771267 0.837034
0.634943 0.799496 0.819547
0.647120 0.799863 0.820127
0.683955 0.801968 0.822354
0.739315 0.808652 0.828397
0.814115 0.821530 0.842588
