其他预设/【240】TEZZA调色预设合集24款/1.LUT预设（视频调色-PR-AE-PS-FCPX-达芬奇用）/Tezza自然__-9.cube
# Created by Adobe Lightroom plugin Export LUT (1.17.0)
# www.johnrellis.com/lightroom/exportlut.htm
# Preset: Tezza自然[素锦印象]-9
# Color profile: /Library/Application Support/Adobe/Color/Profiles/Recommended/AdobeRGB1998.icc
LUT_3D_SIZE 32
0.030579 0.035340 0.050355
0.051423 0.038514 0.053773
0.065003 0.044617 0.058595
0.097200 0.051331 0.062379
0.173770 0.018463 0.063111
0.291325 0.000000 0.058167
0.440070 0.000000 0.027008
0.576532 0.000000 0.000000
0.678309 0.000000 0.000000
0.751919 0.000000 0.000000
0.804196 0.000000 0.000000
0.841093 0.000000 0.000000
0.876890 0.000000 0.000000
0.902190 0.150027 0.055573
0.919463 0.234806 0.108370
0.932036 0.291966 0.148836
0.941436 0.336950 0.186343
0.948577 0.375128 0.222629
0.954101 0.408515 0.258701
0.958556 0.439704 0.295689
0.962005 0.468666 0.332769
0.964508 0.495583 0.369329
0.966217 0.519890 0.403845
0.967254 0.542382 0.436378
0.967864 0.563073 0.466712
0.968048 0.582940 0.495857
0.967864 0.602441 0.524407
0.967315 0.621729 0.552544
0.966430 0.640864 0.580285
0.965209 0.659815 0.607477
0.963806 0.677974 0.633326
0.962280 0.694667 0.656703
0.029786 0.051240 0.058228
0.047639 0.051606 0.059083
0.062684 0.056367 0.060334
0.092164 0.063142 0.063630
0.160769 0.057252 0.064149
0.268925 0.000000 0.059907
0.412696 0.000000 0.034424
0.552605 0.000000 0.000000
0.660487 0.000000 0.000000
0.739010 0.000000 0.000000
0.794736 0.000000 0.000000
0.834104 0.000000 0.000000
0.871031 0.000000 0.000000
0.896605 0.160342 0.035157
0.914549 0.236606 0.099519
0.927764 0.291020 0.140536
0.937865 0.334447 0.177096
0.945678 0.371374 0.213138
0.951751 0.404273 0.248783
0.956725 0.435065 0.285618
0.960632 0.463844 0.322759
0.963531 0.490608 0.359442
0.965515 0.515068 0.394354
0.966827 0.537652 0.427527
0.967590 0.558648 0.458625
0.967926 0.578851 0.488441
0.967895 0.598566 0.517601
0.967407 0.618311 0.546624
0.966613 0.637751 0.575067
0.965454 0.656977 0.602838
0.964019 0.675502 0.629297
0.962524 0.692531 0.653346
0.029603 0.062501 0.063416
0.040681 0.063722 0.061463
0.061494 0.063111 0.064698
0.087037 0.071107 0.065248
0.145663 0.074891 0.065461
0.243473 0.048005 0.061646
0.378759 0.000000 0.043336
0.522301 0.000000 0.000000
0.638148 0.000000 0.000000
0.722866 0.000000 0.000000
0.783505 0.000000 0.000000
0.825895 0.000000 0.000000
0.864988 0.018952 0.000000
0.891295 0.180728 0.018860
0.909941 0.247715 0.093751
0.924010 0.297063 0.134646
0.934691 0.338231 0.171664
0.943053 0.373449 0.207431
0.949706 0.405280 0.243381
0.955108 0.435279 0.280034
0.959380 0.463722 0.317540
0.962585 0.490059 0.354467
0.964813 0.514305 0.389654
0.966278 0.536675 0.423102
0.967193 0.557641 0.454597
0.967620 0.577691 0.484749
0.967681 0.597498 0.514427
0.967285 0.617304 0.543786
0.966522 0.636835 0.572595
0.965393 0.656275 0.600855
0.963989 0.674861 0.627649
0.962524 0.692012 0.651972
0.027161 0.083131 0.074220
0.040436 0.084871 0.072511
0.050690 0.086397 0.066987
0.086915 0.086336 0.073213
0.133272 0.097353 0.069215
0.200839 0.099489 0.064027
0.319646 0.077058 0.053468
0.464271 0.000000 0.013397
0.594629 0.000000 0.000000
0.691524 0.000000 0.000000
0.761410 0.000000 0.000000
0.812894 0.000000 0.000000
0.853544 0.150393 0.000000
0.881346 0.222354 0.000000
0.901762 0.273289 0.084016
0.917113 0.315373 0.126864
0.929076 0.351110 0.164431
0.938445 0.382605 0.200076
0.945830 0.411292 0.235355
0.951934 0.438819 0.271763
0.956786 0.465339 0.308873
0.960540 0.490608 0.345922
0.963226 0.514549 0.382147
0.965087 0.537255 0.417304
0.966278 0.558709 0.450752
0.966888 0.579431 0.482826
0.967041 0.599786 0.513970
0.966674 0.619867 0.544366
0.965942 0.639338 0.573571
0.964904 0.658289 0.601648
0.963561 0.676478 0.628138
0.962188 0.693141 0.652094
0.000000 0.122011 0.089448
0.018280 0.123568 0.087709
0.027802 0.125307 0.079591
0.070161 0.127810 0.071168
0.133089 0.129671 0.082551
0.194461 0.137575 0.072053
0.248631 0.132204 0.061555
0.373571 0.121309 0.037781
0.517967 0.076844 0.000000
0.635248 0.000000 0.000000
0.721309 0.073793 0.000000
0.788113 0.155032 0.000000
0.833860 0.218265 0.000000
0.865202 0.266941 0.000000
0.888792 0.306950 0.067628
0.906981 0.341558 0.115633
0.921263 0.372442 0.156100
0.932372 0.400305 0.193698
0.941070 0.425940 0.230442
0.948028 0.450538 0.267155
0.953613 0.474586 0.304326
0.957916 0.497871 0.341527
0.961089 0.520256 0.378027
0.963348 0.541955 0.413764
0.964843 0.562829 0.448157
0.965698 0.583093 0.480995
0.966003 0.603021 0.512749
0.965820 0.622553 0.543359
0.965209 0.641718 0.572930
0.964233 0.660456 0.601343
0.962982 0.678462 0.628168
0.961608 0.695094 0.652552
0.000000 0.178622 0.107637
0.000000 0.179904 0.105318
0.000000 0.181155 0.100038
0.000000 0.181643 0.074678
0.103120 0.186221 0.074434
0.201053 0.190799 0.092622
0.275731 0.192172 0.074250
0.332891 0.178256 0.055299
0.416663 0.166629 0.016510
0.557397 0.162814 0.000000
0.667872 0.181796 0.000000
0.752743 0.230167 0.000000
0.807858 0.276188 0.000000
0.845487 0.314122 0.000000
0.873198 0.346166 0.030884
0.894743 0.374456 0.103761
0.911650 0.400061 0.147677
0.924804 0.423743 0.187381
0.935088 0.445991 0.225925
0.943328 0.467842 0.264225
0.949859 0.489723 0.303014
0.954894 0.511192 0.341680
0.960693 0.568536 0.437537
0.962036 0.586816 0.470497
0.962829 0.604150 0.500877
0.963134 0.620935 0.529534
0.963043 0.637324 0.556847
0.962585 0.653529 0.583185
0.961852 0.669520 0.608576
0.960845 0.685206 0.632807
0.959747 0.699825 0.654932
0.958648 0.713069 0.674586
0.000000 0.260838 0.132357
0.000000 0.260990 0.129061
0.000000 0.261723 0.125490
0.000000 0.260472 0.099397
0.000000 0.258152 0.061128
0.166598 0.270878 0.076967
0.311833 0.278599 0.107881
0.395178 0.270451 0.077028
0.447547 0.246494 0.031250
0.492744 0.225284 0.000000
0.617090 0.250431 0.000000
0.720912 0.299413 0.000000
0.788296 0.344457 0.000000
0.832334 0.377783 0.000000
0.863279 0.402716 0.027314
0.886687 0.423529 0.106996
0.905089 0.442603 0.152865
0.919524 0.460792 0.194461
0.930968 0.479164 0.235172
0.940215 0.498756 0.277348
0.947539 0.519707 0.321111
0.953094 0.541619 0.366033
0.956970 0.563684 0.410101
0.959411 0.585046 0.451728
0.960815 0.605097 0.489357
0.961517 0.623255 0.522423
0.961639 0.640192 0.552392
0.961395 0.656367 0.580163
0.960784 0.672328 0.606592
0.959899 0.687709 0.631373
0.958923 0.702144 0.654078
0.957885 0.715480 0.674464
0.000000 0.339757 0.155856
0.000000 0.339605 0.152926
0.000000 0.339330 0.149142
0.000000 0.337255 0.129763
0.000000 0.331243 0.079194
0.052216 0.335607 0.055268
0.250370 0.351568 0.082521
0.420386 0.361608 0.127108
0.499886 0.352483 0.087831
0.552209 0.332738 0.015717
0.591882 0.313664 0.000000
0.641444 0.310307 0.000000
0.734127 0.360388 0.000000
0.795041 0.399939 0.000000
0.835630 0.427161 0.000000
0.865232 0.447517 0.073091
0.888334 0.465126 0.129824
0.906401 0.481209 0.175753
0.920623 0.497230 0.219181
0.932067 0.514336 0.263432
0.941131 0.532799 0.308934
0.948028 0.552331 0.355200
0.952972 0.572320 0.400458
0.956237 0.592004 0.443488
0.958312 0.610681 0.482368
0.959411 0.628107 0.516960
0.959899 0.644434 0.548089
0.959899 0.660212 0.576989
0.959472 0.675929 0.604547
0.958770 0.691127 0.630304
0.957824 0.705653 0.653986
0.956817 0.719020 0.675196
0.000000 0.424475 0.183352
0.000000 0.423926 0.180636
0.000000 0.423529 0.177340
0.000000 0.421515 0.165652
0.000000 0.413855 0.117128
0.000000 0.403571 0.003937
0.151980 0.420508 0.055573
0.360754 0.439612 0.096071
0.542321 0.463386 0.162844
0.603571 0.453529 0.118685
0.636194 0.427039 0.059968
0.662074 0.402380 0.000000
0.684169 0.381872 0.000000
0.743130 0.407019 0.000000
0.800198 0.443458 0.000000
0.839048 0.467811 0.000000
0.868254 0.486458 0.099428
0.890837 0.502129 0.153506
0.908537 0.516808 0.201694
0.922667 0.532036 0.248875
0.933776 0.548363 0.296574
0.942290 0.565667 0.344732
0.948425 0.583642 0.391943
0.952605 0.601587 0.436469
0.955291 0.618952 0.476936
0.956939 0.635248 0.512932
0.957824 0.650813 0.545312
0.958099 0.665980 0.575280
0.957885 0.681178 0.603754
0.957305 0.696040 0.630365
0.956512 0.710262 0.654688
0.955596 0.723415 0.676448
0.000000 0.505608 0.215732
0.000000 0.504845 0.213291
0.000000 0.503929 0.210025
0.000000 0.502159 0.203983
0.000000 0.494514 0.160861
0.000000 0.483833 0.091127
0.000000 0.485023 0.000000
0.272801 0.513268 0.073426
0.488380 0.530114 0.130282
0.629114 0.546105 0.214542
0.670497 0.529931 0.166232
0.692927 0.501793 0.108400
0.711696 0.476143 0.008881
0.728573 0.454505 0.000000
0.748928 0.442237 0.000000
0.805173 0.479133 0.000000
0.843900 0.503746 0.031830
0.872770 0.521874 0.125704
0.894835 0.536950 0.181399
0.912078 0.551019 0.232944
0.925475 0.565179 0.282963
0.935576 0.579919 0.332158
0.943023 0.595056 0.379706
0.948272 0.610498 0.424933
0.951812 0.626001 0.466529
0.954131 0.641199 0.504234
0.955505 0.656214 0.538933
0.956115 0.671321 0.571283
0.956115 0.686580 0.601984
0.955657 0.701686 0.630549
0.954955 0.716060 0.656458
0.954070 0.729427 0.679469
0.000000 0.573510 0.251713
0.000000 0.572930 0.249790
0.000000 0.572107 0.246830
0.000000 0.571130 0.241978
0.000000 0.570245 0.212650
0.000000 0.565911 0.153658
0.000000 0.558679 0.018402
0.117891 0.570367 0.033265
0.403845 0.586145 0.114321
0.583703 0.597406 0.180941
0.690303 0.610193 0.275395
0.719966 0.591272 0.223148
0.736263 0.563195 0.164218
0.750546 0.537346 0.106508
0.764004 0.515618 0.000000
0.777493 0.498665 0.000000
0.810117 0.509361 0.000000
0.847745 0.533135 0.072023
0.876036 0.550652 0.146517
0.897917 0.565393 0.205356
0.914733 0.579278 0.260380
0.927520 0.592981 0.313603
0.936828 0.607080 0.365087
0.943420 0.621363 0.413642
0.947967 0.635676 0.458015
0.950988 0.649744 0.497932
0.952880 0.663783 0.534295
0.953887 0.678096 0.568139
0.954192 0.692683 0.600031
0.953918 0.707362 0.629847
0.953368 0.721523 0.656855
0.952575 0.734798 0.680934
0.000000 0.642969 0.300389
0.000000 0.642969 0.299016
0.000000 0.642695 0.297032
0.000000 0.642023 0.293126
0.000000 0.639765 0.274113
0.000000 0.633814 0.220218
0.000000 0.626032 0.142947
0.000000 0.615564 0.000000
0.283940 0.633417 0.102144
0.515801 0.642298 0.168460
0.654688 0.652583 0.242252
0.735134 0.661524 0.342168
0.782132 0.673915 0.340490
0.794278 0.646235 0.273777
0.804959 0.620661 0.214786
0.815305 0.598474 0.161807
0.825681 0.580224 0.111238
0.836362 0.566155 0.037995
0.868193 0.584222 0.144320
0.892454 0.598749 0.212253
0.910582 0.611109 0.272862
0.923857 0.622858 0.329595
0.933410 0.634333 0.382330
0.940093 0.646265 0.431128
0.944732 0.658381 0.475257
0.947814 0.670710 0.515099
0.949767 0.683131 0.551049
0.950866 0.695766 0.584009
0.951232 0.708766 0.614832
0.951171 0.721767 0.643183
0.950774 0.734401 0.668757
0.950164 0.746365 0.691615
0.000000 0.716701 0.366674
0.000000 0.716182 0.365332
0.000000 0.714626 0.362585
0.000000 0.712001 0.357763
0.000000 0.707576 0.348638
0.000000 0.700160 0.297734
0.000000 0.691737 0.229862
0.000000 0.682155 0.133516
0.062928 0.681453 0.098817
0.432990 0.691279 0.169406
0.612543 0.698878 0.245487
0.718807 0.709773 0.330694
0.777707 0.715816 0.437751
0.796658 0.698146 0.388556
0.809567 0.674952 0.327977
0.820706 0.652735 0.272587
0.830900 0.632410 0.222843
0.840787 0.615106 0.178988
0.851194 0.601648 0.140291
0.870542 0.603662 0.157168
0.894713 0.618494 0.228794
0.912413 0.630915 0.293034
0.924987 0.642267 0.351904
0.933867 0.653529 0.406287
0.940063 0.664881 0.455177
0.944213 0.676478 0.499001
0.946929 0.688319 0.538476
0.948547 0.700618 0.574670
0.949310 0.713436 0.608270
0.949432 0.726497 0.639246
0.949218 0.739193 0.666865
0.948669 0.751461 0.691585
0.000000 0.753445 0.406806
0.000000 0.752804 0.405463
0.000000 0.751400 0.403296
0.000000 0.748623 0.399084
0.000000 0.744137 0.392920
0.000000 0.738033 0.357031
0.000000 0.731136 0.299107
0.000000 0.723445 0.223178
0.000000 0.715053 0.112978
0.287449 0.720027 0.158145
0.531579 0.724392 0.229923
0.667414 0.730678 0.309361
0.750729 0.739315 0.393256
0.796292 0.741604 0.492195
0.812284 0.724239 0.445289
0.823880 0.702266 0.385779
0.834134 0.680995 0.330388
0.843809 0.661738 0.281926
0.853635 0.645624 0.240452
0.864195 0.633234 0.207187
0.875517 0.624659 0.181308
0.897856 0.637568 0.247868
0.914702 0.649805 0.315129
0.926543 0.661097 0.376745
0.934661 0.672145 0.432197
0.940154 0.683223 0.481392
0.943755 0.694667 0.525383
0.946014 0.706569 0.565209
0.947173 0.719203 0.602014
0.947570 0.732204 0.635737
0.947448 0.745022 0.665827
0.947021 0.757382 0.692317
0.000000 0.782925 0.442573
0.000000 0.782467 0.441962
0.000000 0.781094 0.440040
0.000000 0.778408 0.436622
0.000000 0.774044 0.431617
0.000000 0.768612 0.411139
0.000000 0.763210 0.362341
0.000000 0.757168 0.299107
0.000000 0.750881 0.216159
0.000000 0.744778 0.149722
0.423285 0.749325 0.218753
0.603388 0.751644 0.293736
0.707942 0.756527 0.373236
0.774899 0.763088 0.452064
0.811276 0.763058 0.541375
0.824887 0.746151 0.496284
0.835538 0.725673 0.440314
0.845274 0.705776 0.387152
0.854948 0.688106 0.340764
0.864988 0.673487 0.302098
0.875578 0.662104 0.271794
0.886687 0.653956 0.248936
0.901488 0.655573 0.268162
0.917327 0.667689 0.338842
0.928191 0.678828 0.402411
0.935485 0.689906 0.459266
0.940307 0.701442 0.509911
0.943267 0.713741 0.555871
0.944823 0.726772 0.597742
0.945403 0.740291 0.635676
0.945403 0.753536 0.668788
0.945006 0.766171 0.697475
0.000000 0.806882 0.474525
0.000000 0.806516 0.474250
0.000000 0.805661 0.473304
0.000000 0.803525 0.471351
0.000000 0.799985 0.468574
0.000000 0.795193 0.462623
0.000000 0.791775 0.423316
0.000000 0.787869 0.371984
0.000000 0.783352 0.304997
0.000000 0.778286 0.215854
0.275181 0.775051 0.215579
0.524743 0.773800 0.285039
0.656641 0.774166 0.358373
0.738186 0.777188 0.432471
0.793088 0.781582 0.502098
0.822416 0.779599 0.581262
0.834409 0.763729 0.539452
0.844541 0.745235 0.488594
0.854398 0.727535 0.441016
0.864530 0.712215 0.399908
0.875029 0.699641 0.365820
0.885740 0.689693 0.339452
0.896605 0.682216 0.319860
0.907408 0.677089 0.307256
0.920989 0.687190 0.371405
0.930480 0.698451 0.437201
0.936614 0.709865 0.495003
0.940398 0.721950 0.546502
0.942443 0.734737 0.592706
0.943328 0.747921 0.633631
0.943511 0.760769 0.668727
0.943267 0.772976 0.698726
0.000000 0.825650 0.501579
0.000000 0.825101 0.501213
0.000000 0.824094 0.500450
0.000000 0.822080 0.499245
0.000000 0.818784 0.497475
0.000000 0.814176 0.495888
0.090242 0.810880 0.470863
0.028565 0.808011 0.428656
0.000000 0.804776 0.374243
0.000000 0.801083 0.303807
0.000000 0.796109 0.224826
0.415198 0.793088 0.274327
0.592554 0.790860 0.344305
0.694789 0.791348 0.415656
0.761105 0.793759 0.483742
0.807828 0.796963 0.546105
0.831785 0.794034 0.617395
0.842496 0.779446 0.579583
0.852262 0.762966 0.533928
0.862028 0.747311 0.491859
0.872160 0.733700 0.455390
0.882475 0.722316 0.425269
0.892882 0.713191 0.401617
0.903319 0.706416 0.384955
0.913573 0.701656 0.374945
0.924010 0.704341 0.401373
0.932250 0.715969 0.469032
0.937316 0.727993 0.528344
0.940124 0.740810 0.580865
0.941344 0.754147 0.627070
0.941741 0.767208 0.666194
0.941619 0.779660 0.699092
0.000000 0.842679 0.527947
0.000000 0.842405 0.528344
0.000000 0.853086 0.548516
0.000000 0.850858 0.548211
0.000000 0.847227 0.547753
0.219608 0.842222 0.547417
0.278019 0.837675 0.536248
0.257481 0.835508 0.501884
0.236149 0.833097 0.458228
0.213565 0.830472 0.402380
0.188998 0.827481 0.330083
0.291081 0.821836 0.291752
0.531426 0.816342 0.358282
0.655756 0.813504 0.425757
0.732692 0.813199 0.490120
0.785672 0.814298 0.549676
0.824735 0.816159 0.604181
0.843290 0.812284 0.663386
0.852293 0.799100 0.631098
0.861387 0.784482 0.591089
0.870726 0.770474 0.553704
0.880461 0.758206 0.521630
0.890288 0.747829 0.495186
0.900023 0.739376 0.474647
0.909514 0.732540 0.459358
0.918669 0.727596 0.450141
0.927398 0.724544 0.447364
0.933959 0.734585 0.507042
0.937713 0.746700 0.565423
0.939452 0.759884 0.617243
0.940093 0.773037 0.661036
0.940093 0.785489 0.697078
0.000000 0.859892 0.557214
0.000000 0.860685 0.559747
0.000000 0.861112 0.562310
0.000000 0.860258 0.564721
0.130007 0.857877 0.566796
0.252873 0.853696 0.568322
0.339483 0.848203 0.569146
0.322850 0.846708 0.540887
0.304753 0.845060 0.505333
0.285161 0.843198 0.460792
0.263767 0.841154 0.403571
0.240940 0.838682 0.329351
0.426154 0.831724 0.345464
0.593500 0.826505 0.410040
0.690059 0.824063 0.472663
0.753597 0.823636 0.531640
0.799344 0.824308 0.585809
0.833616 0.825742 0.634424
0.849363 0.821775 0.686824
0.857542 0.810330 0.659968
0.866087 0.797787 0.626490
0.875242 0.785946 0.595453
0.884703 0.775357 0.568383
0.894163 0.766323 0.546319
0.903441 0.758785 0.529046
0.912413 0.753048 0.517418
0.921019 0.749142 0.511864
0.929046 0.747250 0.513207
0.935119 0.752529 0.545403
0.937591 0.765530 0.604456
0.938506 0.778805 0.653895
0.938628 0.791348 0.694057
0.000000 0.871183 0.577417
0.000000 0.871641 0.579797
0.000000 0.871855 0.582238
0.024628 0.870848 0.584680
0.199344 0.868437 0.587091
0.289097 0.864530 0.589197
0.365240 0.859403 0.591516
0.381323 0.856687 0.576837
0.366247 0.855558 0.547662
0.349310 0.854307 0.511315
0.331151 0.852964 0.466133
0.311192 0.851347 0.408331
0.314458 0.847837 0.349706
0.517113 0.840726 0.399176
0.641291 0.836149 0.460182
0.718379 0.834043 0.518029
0.771817 0.833494 0.571771
0.811734 0.833890 0.620935
0.842039 0.835111 0.663600
0.855344 0.831205 0.709590
0.862699 0.821256 0.687678
0.870665 0.810727 0.660487
0.879271 0.800809 0.635462
0.888151 0.791806 0.613397
0.897063 0.783902 0.594903
0.905791 0.777432 0.581109
0.914153 0.772671 0.572686
0.922057 0.769863 0.570703
0.929290 0.769223 0.575494
0.935607 0.770748 0.586877
0.937041 0.783749 0.642542
0.937346 0.796506 0.687984
0.000000 0.881285 0.597009
0.000000 0.881559 0.599237
0.066468 0.881559 0.601587
0.174472 0.880461 0.604181
0.255100 0.878080 0.606897
0.325780 0.874418 0.609491
0.390265 0.869749 0.612360
0.433417 0.865446 0.610040
0.420569 0.864652 0.585687
0.406317 0.863798 0.555779
0.390570 0.862882 0.519066
0.372961 0.861814 0.473274
0.353155 0.860502 0.414984
0.415503 0.855497 0.390326
0.582635 0.848875 0.450324
0.678798 0.845182 0.507836
0.742519 0.843656 0.562554
0.788846 0.843412 0.613214
0.824155 0.844114 0.657862
0.851011 0.845640 0.696010
0.862272 0.842191 0.736049
0.868986 0.834287 0.720180
0.876219 0.825803 0.699519
0.884092 0.818082 0.681361
0.892210 0.811154 0.665736
0.900237 0.805234 0.653407
0.908080 0.800565 0.645106
0.915526 0.797513 0.641871
0.922362 0.796353 0.644129
0.928405 0.797024 0.651728
0.933532 0.799435 0.663844
0.935637 0.807401 0.694331
0.169528 0.892973 0.623468
0.194186 0.892729 0.624689
0.220798 0.892180 0.625971
0.264408 0.890623 0.627649
0.317174 0.887999 0.629908
0.371527 0.884428 0.632654
0.425452 0.880095 0.636103
0.477455 0.875181 0.640558
0.478767 0.873899 0.625330
0.467781 0.873533 0.601465
0.455604 0.873167 0.572564
0.441566 0.872679 0.536767
0.425544 0.872038 0.492103
0.407385 0.871244 0.435798
0.519402 0.864500 0.453498
0.638666 0.858762 0.509453
0.713283 0.855589 0.562402
0.765713 0.854063 0.611841
0.805234 0.853544 0.655329
0.835660 0.853910 0.692653
0.858854 0.854948 0.724056
0.867948 0.851225 0.757595
0.873808 0.844144 0.744106
0.880095 0.836576 0.726375
0.887205 0.830076 0.711666
0.894560 0.824369 0.699611
0.901915 0.819730 0.690944
0.909056 0.816464 0.686458
0.915740 0.814786 0.686488
0.921782 0.814694 0.691035
0.927001 0.816312 0.699886
0.931151 0.819608 0.712551
0.249210 0.900389 0.641230
0.265965 0.900084 0.642573
0.285161 0.899565 0.643946
0.318547 0.898070 0.645930
0.360296 0.895628 0.648493
0.405463 0.892332 0.651453
0.451972 0.888304 0.655238
0.497688 0.883757 0.659907
0.522515 0.880583 0.657008
0.513054 0.880339 0.637232
0.502617 0.880186 0.613397
0.490822 0.880003 0.584527
0.477424 0.879728 0.549157
0.462501 0.879393 0.505455
0.461067 0.877653 0.463508
0.587304 0.870787 0.505089
0.678370 0.866087 0.557671
0.739345 0.863401 0.606958
0.784085 0.862058 0.650782
0.818479 0.861601 0.688502
0.845090 0.861936 0.720455
0.865507 0.862852 0.747585
0.873014 0.859312 0.776883
0.878264 0.853422 0.766445
0.883207 0.845182 0.747158
0.889769 0.839811 0.735500
0.896544 0.835355 0.726772
0.903288 0.831998 0.721370
0.909819 0.829953 0.719783
0.915801 0.829435 0.722316
0.921111 0.830564 0.729030
0.925414 0.833371 0.739559
0.334173 0.908293 0.664424
0.346532 0.908019 0.665949
0.360113 0.907408 0.667262
0.383917 0.905943 0.669123
0.415595 0.903532 0.671626
0.451637 0.900420 0.674739
0.490028 0.896635 0.678645
0.528496 0.892363 0.683345
0.566339 0.887663 0.689052
0.560937 0.887083 0.673976
0.550744 0.886900 0.653712
0.539788 0.886778 0.629786
0.527550 0.886625 0.600824
0.513878 0.886473 0.565637
0.498360 0.886198 0.522240
0.524498 0.882872 0.501396
0.637110 0.876127 0.551476
0.708919 0.871946 0.599237
0.759884 0.869566 0.642908
0.798856 0.868345 0.681392
0.829191 0.868009 0.714351
0.852689 0.868315 0.742123
0.870695 0.869017 0.765743
0.876829 0.865385 0.790982
0.881468 0.860075 0.781949
0.886534 0.854215 0.768795
0.892546 0.849943 0.759915
0.898711 0.846494 0.753628
0.904814 0.844236 0.750729
0.910582 0.843320 0.751522
0.915770 0.843961 0.756283
0.920134 0.846281 0.764797
0.377630 0.913634 0.679744
0.388190 0.913298 0.681270
0.399817 0.912749 0.682643
0.420111 0.911345 0.684657
0.447486 0.909117 0.687373
0.479408 0.906218 0.690883
0.514031 0.902770 0.695308
0.549187 0.898863 0.700618
0.583886 0.894652 0.706874
0.599176 0.892241 0.704433
0.591485 0.892241 0.688441
0.583154 0.892332 0.669520
0.573724 0.892485 0.646937
0.562951 0.892638 0.619684
0.550866 0.892760 0.586694
0.537713 0.892912 0.546593
0.597772 0.887999 0.557366
0.681605 0.882506 0.603998
0.738705 0.879088 0.646601
0.781399 0.877043 0.683986
0.814603 0.875883 0.716060
0.840574 0.875395 0.743252
0.860777 0.875456 0.766415
0.876249 0.875944 0.786160
0.881163 0.872435 0.807401
0.885283 0.867948 0.800412
0.889799 0.863066 0.789700
0.895293 0.859983 0.783688
0.900877 0.857877 0.780484
0.906279 0.856931 0.780423
0.911254 0.857298 0.783780
0.915496 0.859190 0.790463
0.424018 0.918669 0.696803
0.432410 0.918273 0.698085
0.441199 0.917693 0.699245
0.457771 0.916350 0.701106
0.480781 0.914275 0.703761
0.508171 0.911528 0.707271
0.538384 0.908324 0.711757
0.570001 0.904662 0.717250
0.601221 0.900816 0.723568
0.630426 0.896971 0.730312
0.626184 0.896880 0.718471
0.620020 0.897032 0.703731
0.612940 0.897276 0.686152
0.604791 0.897551 0.665064
0.595270 0.897856 0.639643
0.584527 0.898192 0.608911
0.579889 0.897795 0.578943
0.651392 0.892363 0.607874
0.715999 0.887907 0.649134
0.762783 0.885008 0.685512
0.799069 0.883116 0.716884
0.827604 0.881987 0.743587
0.849973 0.881437 0.766537
0.867399 0.881346 0.786099
0.880827 0.881621 0.802792
0.884764 0.878233 0.820798
0.888487 0.874510 0.815488
0.892576 0.870451 0.806760
0.897551 0.868315 0.802853
0.902586 0.867308 0.802029
0.907378 0.867430 0.804074
0.911498 0.868925 0.809262
0.459724 0.922881 0.711452
0.466316 0.922484 0.712520
0.474281 0.921904 0.713710
0.488991 0.920684 0.715785
0.510246 0.918761 0.718959
0.536309 0.916289 0.723354
0.565789 0.913420 0.729183
0.596094 0.910307 0.736080
0.626032 0.907012 0.743862
0.654017 0.903838 0.752010
0.667506 0.902281 0.752743
0.664759 0.902708 0.743008
0.661433 0.903166 0.731411
0.657069 0.903655 0.717372
0.651667 0.904112 0.700374
0.644862 0.904601 0.679652
0.637446 0.905150 0.655024
0.641047 0.904417 0.638056
0.707118 0.899260 0.675013
0.754635 0.895659 0.707210
0.791379 0.893126 0.734890
0.820523 0.891295 0.758907
0.843503 0.890105 0.779507
0.861570 0.889403 0.797116
0.875700 0.889128 0.812192
0.886503 0.889036 0.825254
0.889586 0.886076 0.839200
0.892790 0.883177 0.835386
0.896300 0.880156 0.829068
0.900572 0.878965 0.827207
0.904784 0.878996 0.828336
0.908537 0.880003 0.831937
0.517144 0.927214 0.734157
0.522240 0.926818 0.735134
0.528161 0.926268 0.736172
0.539940 0.925078 0.738216
0.557244 0.923278 0.741360
0.578302 0.920989 0.745571
0.601862 0.918364 0.750820
0.626337 0.915526 0.756893
0.650843 0.912566 0.763577
0.674372 0.909575 0.770626
0.696071 0.906676 0.777493
0.695155 0.906706 0.770565
0.691798 0.907042 0.761044
0.687953 0.907408 0.749813
0.683406 0.907836 0.736568
0.678340 0.908293 0.721004
