其他预设/【240】TEZZA调色预设合集24款/1.LUT预设（视频调色-PR-AE-PS-FCPX-达芬奇用）/Tezza自然__-5.cube
# Created by Adobe Lightroom plugin Export LUT (1.17.0)
# www.johnrellis.com/lightroom/exportlut.htm
# Preset: Tezza自然[素锦印象]-5
# Color profile: /Library/Application Support/Adobe/Color/Profiles/Recommended/AdobeRGB1998.icc
LUT_3D_SIZE 32
0.000000 0.000000 0.000000
0.017517 0.002869 0.002564
0.039124 0.005097 0.005066
0.069398 0.012726 0.011719
0.102144 0.013581 0.018219
0.148531 0.000000 0.020569
0.203799 0.000000 0.020172
0.264714 0.000000 0.015106
0.329747 0.000000 0.006653
0.395087 0.000000 0.000000
0.458595 0.000000 0.000000
0.516869 0.000000 0.000000
0.568292 0.000000 0.000000
0.612268 0.000000 0.000000
0.649653 0.000000 0.000000
0.680934 0.000000 0.000000
0.707301 0.000000 0.000000
0.730129 0.000000 0.000000
0.750912 0.000000 0.003357
0.780240 0.000000 0.062348
0.804532 0.000000 0.092470
0.825040 0.000000 0.120516
0.842344 0.000000 0.147433
0.857420 0.065431 0.174197
0.870939 0.159335 0.201297
0.883635 0.217838 0.230869
0.896239 0.269444 0.264073
0.908843 0.319036 0.302403
0.921416 0.369116 0.347143
0.926726 0.402289 0.374334
0.927092 0.396063 0.372045
0.927520 0.388800 0.369207
0.004578 0.020050 0.007965
0.014221 0.025483 0.008362
0.038605 0.028443 0.009644
0.070192 0.035676 0.016297
0.102998 0.035096 0.021790
0.147982 0.012696 0.023224
0.201663 0.000000 0.021088
0.260655 0.000000 0.016480
0.324132 0.000000 0.008606
0.388556 0.000000 0.000000
0.451240 0.000000 0.000000
0.509148 0.000000 0.000000
0.560754 0.000000 0.000000
0.605035 0.000000 0.000000
0.642817 0.000000 0.000000
0.674739 0.000000 0.000000
0.701717 0.000000 0.000000
0.725063 0.000000 0.000000
0.746944 0.000000 0.000000
0.775113 0.000000 0.056580
0.798947 0.000000 0.086824
0.819394 0.000000 0.113680
0.836790 0.000000 0.139467
0.852110 0.000000 0.165164
0.865934 0.139925 0.191958
0.879026 0.202243 0.220554
0.892027 0.255375 0.253056
0.905028 0.306584 0.291081
0.918059 0.357610 0.335454
0.926879 0.399451 0.373327
0.926940 0.398474 0.372900
0.927398 0.391150 0.370031
0.011566 0.045472 0.019776
0.019593 0.049134 0.022461
0.032532 0.052003 0.020722
0.071015 0.058900 0.022644
0.103883 0.059052 0.025849
0.147890 0.039673 0.026459
0.200015 0.000000 0.023346
0.257298 0.000000 0.019104
0.319432 0.000000 0.010529
0.383124 0.000000 0.000610
0.445289 0.000000 0.000000
0.503380 0.000000 0.000000
0.555291 0.000000 0.000000
0.600031 0.000000 0.000000
0.638117 0.000000 0.000000
0.670710 0.000000 0.000000
0.698054 0.000000 0.000000
0.721767 0.000000 0.000000
0.744747 0.000000 0.000000
0.772122 0.000000 0.054383
0.795773 0.000000 0.084688
0.816220 0.000000 0.110689
0.833738 0.000000 0.136110
0.849149 0.000000 0.161654
0.863096 0.137789 0.187472
0.876341 0.198856 0.215640
0.889525 0.251957 0.248142
0.902800 0.302922 0.285893
0.916075 0.353979 0.330022
0.926848 0.400092 0.373571
0.926726 0.401923 0.374304
0.927214 0.394415 0.371435
0.026673 0.074311 0.043702
0.036591 0.075990 0.048859
0.041810 0.077180 0.046876
0.066285 0.080537 0.041688
0.108339 0.086641 0.033539
0.151278 0.076631 0.032807
0.201511 0.058503 0.027558
0.256931 0.000000 0.021332
0.317021 0.000000 0.013123
0.379095 0.000000 0.002502
0.439948 0.000000 0.000000
0.497200 0.000000 0.000000
0.548730 0.000000 0.000000
0.593530 0.000000 0.000000
0.632074 0.000000 0.000000
0.665156 0.000000 0.000000
0.693111 0.000000 0.000000
0.717159 0.000000 0.000000
0.741634 0.000000 0.000000
0.767453 0.000000 0.051575
0.790219 0.000000 0.081422
0.810361 0.000000 0.106416
0.828305 0.000000 0.131441
0.844541 0.036744 0.156954
0.859586 0.149233 0.184115
0.873899 0.208865 0.213962
0.887907 0.261082 0.247898
0.901671 0.311315 0.286564
0.915129 0.361273 0.331426
0.926452 0.406683 0.376135
0.926299 0.409064 0.376989
0.926757 0.401312 0.374060
0.039734 0.108431 0.062531
0.047852 0.110018 0.064363
0.057557 0.111208 0.065675
0.063996 0.111482 0.062074
0.091859 0.116976 0.055055
0.154360 0.128389 0.033356
0.200290 0.104402 0.033204
0.253056 0.084718 0.024598
0.310643 0.024628 0.015167
0.370367 0.000000 0.004364
0.429816 0.000000 0.000000
0.486824 0.000000 0.000000
0.538476 0.000000 0.000000
0.584222 0.000000 0.000000
0.623987 0.000000 0.000000
0.658473 0.000000 0.000000
0.687892 0.000000 0.000000
0.712917 0.000000 0.000000
0.739895 0.000000 0.008698
0.764645 0.000000 0.057557
0.786648 0.000000 0.082521
0.806516 0.000000 0.106630
0.824369 0.000000 0.130922
0.840818 0.110445 0.155947
0.856168 0.174990 0.183108
0.870817 0.226322 0.212833
0.885100 0.274083 0.246738
0.899046 0.320623 0.285130
0.912718 0.367681 0.329320
0.925902 0.415198 0.379614
0.925597 0.420050 0.381659
0.926116 0.411872 0.378241
0.040986 0.157565 0.075044
0.050446 0.158816 0.076722
0.060243 0.159396 0.079133
0.068635 0.157595 0.076997
0.085115 0.157137 0.070344
0.125734 0.162020 0.061646
0.207523 0.181979 0.013703
0.255467 0.149722 0.020996
0.308904 0.120974 0.014466
0.367041 0.090517 0.003693
0.424964 0.001038 0.000000
0.480659 0.000000 0.000000
0.531792 0.000000 0.000000
0.577783 0.000000 0.000000
0.617975 0.000000 0.000000
0.653346 0.000000 0.000000
0.683375 0.000000 0.000000
0.710780 0.000000 0.000000
0.738643 0.000000 0.021118
0.762875 0.000000 0.063752
0.784909 0.000000 0.087953
0.805020 0.000000 0.112123
0.853880 0.245212 0.193210
0.868559 0.283543 0.223545
0.881834 0.318334 0.255039
0.894194 0.351843 0.288334
0.905974 0.385168 0.324468
0.917388 0.419196 0.364202
0.923796 0.446265 0.392981
0.924071 0.442359 0.391180
0.924651 0.434028 0.387579
0.925231 0.425330 0.383825
0.035798 0.233036 0.097993
0.051820 0.232700 0.099702
0.064851 0.232059 0.101625
0.082704 0.229129 0.104768
0.089601 0.221653 0.093996
0.122133 0.221378 0.083131
0.175113 0.224979 0.069978
0.276951 0.254582 0.000000
0.331975 0.216739 0.000000
0.385046 0.173770 0.000000
0.442359 0.151431 0.000000
0.496864 0.124178 0.000000
0.545953 0.091005 0.000000
0.589319 0.023987 0.000000
0.626734 0.000000 0.000000
0.659358 0.000000 0.000000
0.687617 0.000000 0.000000
0.719051 0.000000 0.007874
0.746090 0.019318 0.055909
0.770962 0.104524 0.083467
0.794553 0.153902 0.110353
0.816922 0.200076 0.139712
0.837552 0.244694 0.171969
0.856229 0.286748 0.206729
0.872862 0.326207 0.243534
0.887358 0.361273 0.280369
0.900389 0.394171 0.318395
0.912535 0.426490 0.358404
0.922942 0.458045 0.398474
0.922820 0.459693 0.399390
0.923491 0.450568 0.394995
0.924132 0.441260 0.390845
0.051423 0.297093 0.122683
0.063539 0.296147 0.124147
0.074159 0.294469 0.125704
0.095186 0.290562 0.130373
0.105470 0.281743 0.122744
0.112276 0.269505 0.108888
0.158999 0.271946 0.096681
0.215885 0.274693 0.082155
0.325322 0.310430 0.000000
0.384771 0.278386 0.000000
0.435828 0.239170 0.000000
0.486458 0.206912 0.000000
0.535454 0.189548 0.000000
0.578882 0.173220 0.000000
0.616999 0.158877 0.000000
0.650416 0.147219 0.000000
0.684627 0.148775 0.000000
0.714778 0.157961 0.021302
0.740414 0.171389 0.063783
0.764492 0.191531 0.087587
0.787747 0.217716 0.112825
0.809903 0.248386 0.141085
0.830533 0.281621 0.171847
0.849332 0.315343 0.205570
0.866239 0.347967 0.240909
0.881132 0.378393 0.276860
0.894621 0.407538 0.314275
0.907317 0.436927 0.354070
0.919554 0.468421 0.398108
0.921355 0.478859 0.408820
0.922087 0.469184 0.403845
0.922850 0.459358 0.399084
0.080507 0.363348 0.154696
0.087495 0.362005 0.155642
0.096681 0.360113 0.157076
0.113344 0.355383 0.159365
0.132021 0.346441 0.159640
0.135286 0.333165 0.144320
0.149081 0.321386 0.128054
0.201053 0.324071 0.115053
0.260899 0.325719 0.099428
0.366552 0.358862 0.003388
0.436500 0.342016 0.000000
0.483925 0.305119 0.000000
0.527672 0.266789 0.000000
0.570550 0.250217 0.000000
0.608759 0.239506 0.000000
0.648035 0.237156 0.000000
0.682124 0.238102 0.003906
0.710567 0.240879 0.043915
0.735378 0.247013 0.072389
0.758999 0.258488 0.094972
0.782010 0.275731 0.119478
0.804105 0.297704 0.146487
0.824735 0.323033 0.176516
0.843595 0.349920 0.208804
0.860624 0.377020 0.243717
0.875792 0.402350 0.278965
0.889677 0.427558 0.315709
0.902739 0.453620 0.355108
0.915373 0.481880 0.398260
0.919677 0.499580 0.419745
0.920531 0.489326 0.414160
0.921355 0.478859 0.408698
0.118410 0.427070 0.191897
0.123415 0.425391 0.192386
0.129580 0.422919 0.192813
0.142489 0.417853 0.193973
0.165225 0.409339 0.199008
0.166537 0.396063 0.184115
0.166934 0.379644 0.165438
0.192569 0.371557 0.149447
0.246372 0.373266 0.135836
0.306889 0.374243 0.120363
0.404517 0.402625 0.066896
0.481453 0.398260 0.000000
0.524041 0.365698 0.000000
0.564477 0.332952 0.000000
0.607324 0.312413 0.000000
0.646540 0.310887 0.003784
0.679561 0.310246 0.033600
0.707607 0.310582 0.065888
0.732174 0.313420 0.085908
0.755337 0.319982 0.106905
0.777493 0.330968 0.129274
0.798489 0.345434 0.153994
0.818173 0.362493 0.181338
0.836332 0.381842 0.211124
0.853147 0.402319 0.243229
0.868589 0.423316 0.277531
0.883116 0.445411 0.314092
0.897032 0.469459 0.354101
0.910552 0.496193 0.398505
0.917967 0.519738 0.430976
0.918730 0.510491 0.425788
0.919707 0.499519 0.419562
0.159762 0.481239 0.229374
0.163424 0.479866 0.229679
0.168582 0.477882 0.230137
0.178653 0.473487 0.230625
0.192691 0.466194 0.231022
0.205295 0.454780 0.226963
0.202640 0.440070 0.208042
0.200687 0.422827 0.187320
0.239994 0.419867 0.172976
0.294682 0.420905 0.159365
0.353613 0.420783 0.144045
0.444007 0.446235 0.103212
0.529229 0.455634 0.000000
0.570123 0.430945 0.000000
0.607721 0.405097 0.000000
0.641413 0.378119 0.036805
0.672969 0.369177 0.062715
0.700679 0.367376 0.079530
0.725124 0.367285 0.097658
0.748257 0.370550 0.116579
0.770596 0.377874 0.138338
0.791928 0.388373 0.162264
0.811948 0.402075 0.189212
0.830503 0.417456 0.218875
0.847562 0.433845 0.250462
0.863218 0.450813 0.283696
0.877928 0.469062 0.319036
0.892088 0.489601 0.357977
0.905821 0.513054 0.401190
0.916411 0.537133 0.441169
0.916869 0.532128 0.438209
0.917876 0.520867 0.431525
0.209201 0.532341 0.271977
0.212039 0.531243 0.272343
0.215702 0.529412 0.272404
0.223117 0.525719 0.272313
0.234195 0.519341 0.272068
0.252110 0.509667 0.274418
0.247105 0.497139 0.255528
0.241642 0.481636 0.233707
0.240360 0.464607 0.210758
0.292088 0.467384 0.199680
0.351080 0.472480 0.189548
0.411841 0.475776 0.176730
0.535027 0.534081 0.175113
0.614374 0.548486 0.097475
0.646876 0.527337 0.088930
0.675166 0.503349 0.108949
0.700160 0.478706 0.122377
0.723049 0.458656 0.134310
0.745327 0.456275 0.149905
0.766598 0.456977 0.167880
0.786770 0.460273 0.188846
0.805753 0.466163 0.212772
0.823423 0.473640 0.238560
0.840024 0.483253 0.267521
0.855528 0.494392 0.298070
0.870115 0.506889 0.330907
0.883818 0.520897 0.365270
0.896910 0.536919 0.402167
0.909575 0.555627 0.442390
0.913664 0.565911 0.459358
0.914824 0.554223 0.451789
0.915892 0.542473 0.444495
0.282353 0.592248 0.334478
0.284123 0.591058 0.334356
0.285344 0.588617 0.332921
0.289158 0.584131 0.331029
0.294774 0.577142 0.327916
0.303868 0.567559 0.325353
0.308019 0.557549 0.315892
0.302922 0.547356 0.296147
0.298161 0.535027 0.273960
0.313573 0.527794 0.255375
0.370001 0.533440 0.248356
0.429419 0.538720 0.240177
0.488594 0.542962 0.230472
0.559625 0.561334 0.209049
0.637293 0.580224 0.145693
0.668116 0.563012 0.125490
0.692531 0.541314 0.140597
0.714351 0.519005 0.152285
0.735225 0.497414 0.162844
0.756405 0.491096 0.177768
0.776944 0.492500 0.197269
0.796384 0.495979 0.219669
0.814389 0.501213 0.243900
0.831388 0.508202 0.271397
0.847288 0.516747 0.300633
0.862242 0.526818 0.332006
0.876432 0.538476 0.365484
0.890105 0.552483 0.401801
0.903441 0.569238 0.441535
0.911559 0.586999 0.473457
0.912688 0.576104 0.465980
0.913848 0.564050 0.458076
0.344152 0.632166 0.387366
0.345647 0.631403 0.387121
0.346807 0.629969 0.386358
0.349859 0.627070 0.385016
0.354040 0.622126 0.382208
0.359655 0.615534 0.378668
0.369909 0.606500 0.376654
0.360937 0.596521 0.355688
0.352209 0.584833 0.332097
0.343572 0.571527 0.306035
0.372351 0.568566 0.291752
0.424903 0.572381 0.284215
0.477852 0.575280 0.275761
0.528161 0.576745 0.264927
0.584985 0.588769 0.246372
0.657038 0.607507 0.188205
0.685176 0.591485 0.159304
0.706233 0.571740 0.169558
0.726680 0.552239 0.181186
0.746883 0.534295 0.192569
0.767208 0.522240 0.206790
0.787320 0.524529 0.228153
0.805936 0.528283 0.252201
0.823545 0.533806 0.278660
0.839963 0.540703 0.307347
0.855436 0.549004 0.338048
0.870146 0.558953 0.370916
0.884337 0.571160 0.406806
0.898192 0.586358 0.446448
0.909819 0.604181 0.485359
0.910460 0.597772 0.480842
0.911711 0.585534 0.472450
0.407752 0.665705 0.442084
0.408972 0.665217 0.442145
0.409064 0.663752 0.440772
0.409705 0.660945 0.438361
0.410529 0.656214 0.434058
0.412177 0.650141 0.428748
0.418494 0.642298 0.425696
0.413794 0.633539 0.410590
0.403388 0.624018 0.387701
0.393530 0.613275 0.362737
0.383429 0.600671 0.334936
0.424872 0.601892 0.326390
0.471992 0.603906 0.319005
0.517388 0.604730 0.309483
0.559594 0.604028 0.297551
0.606775 0.611566 0.278721
0.673152 0.630152 0.226749
0.699916 0.616175 0.190982
0.719539 0.598901 0.199008
0.739162 0.582483 0.211582
0.758816 0.567529 0.224857
0.778256 0.554070 0.239292
0.797238 0.553460 0.260563
0.815396 0.557671 0.286137
0.832486 0.563470 0.314336
0.848753 0.570977 0.345556
0.864469 0.580621 0.380011
0.879820 0.592859 0.418006
0.894835 0.608148 0.459998
0.907469 0.626307 0.501396
0.908263 0.619013 0.496010
0.909575 0.606531 0.487037
0.459876 0.690242 0.488502
0.460945 0.689967 0.488685
0.461311 0.689113 0.487953
0.461982 0.687007 0.486122
0.462776 0.683650 0.483101
0.464210 0.679225 0.479194
0.466346 0.673762 0.474434
0.469856 0.666621 0.469245
0.459571 0.659327 0.448707
0.448493 0.650660 0.424750
0.435981 0.639979 0.396796
0.432502 0.629664 0.369848
0.471443 0.629480 0.361212
0.509819 0.628473 0.350683
0.546929 0.626612 0.338567
0.582055 0.623804 0.324529
0.623072 0.628962 0.305882
0.682155 0.645411 0.261601
0.713375 0.638392 0.222110
0.733242 0.624475 0.230289
0.752987 0.611597 0.246494
0.772549 0.600000 0.263035
0.791470 0.589380 0.280095
0.810056 0.584649 0.301610
0.827787 0.589929 0.330449
0.844755 0.596826 0.362036
0.861051 0.605737 0.397101
0.876890 0.617029 0.435340
0.892271 0.631037 0.476997
0.905119 0.647700 0.517662
0.906035 0.639704 0.511406
0.907408 0.627070 0.501976
0.499733 0.709194 0.525719
0.499825 0.708644 0.525170
0.499916 0.707759 0.524468
0.500053 0.705989 0.522667
0.500359 0.703182 0.519951
0.501030 0.699428 0.516503
0.502129 0.694850 0.512200
0.506554 0.688655 0.509789
0.499397 0.682277 0.494240
0.488594 0.675074 0.472816
0.476875 0.666651 0.447974
0.464027 0.656580 0.419440
0.472511 0.650172 0.398688
0.506279 0.649287 0.389593
0.539239 0.647517 0.378363
0.570947 0.644739 0.365515
0.601770 0.641382 0.351263
0.638025 0.645197 0.333715
0.691341 0.660273 0.295933
0.726253 0.659205 0.256077
0.745998 0.647730 0.261387
0.765072 0.636835 0.280156
0.783810 0.627070 0.298436
0.802365 0.618708 0.318059
0.820554 0.611627 0.339940
0.838224 0.617151 0.371344
0.855344 0.625605 0.406592
0.871916 0.636408 0.445624
0.888060 0.649744 0.487617
0.903105 0.666041 0.531884
0.903777 0.659846 0.527092
0.905211 0.647059 0.517144
0.536522 0.726986 0.561791
0.537743 0.726986 0.562402
0.572564 0.744167 0.597589
0.572290 0.742672 0.595972
0.571649 0.740200 0.593072
0.570672 0.736751 0.589044
0.569482 0.732418 0.583948
0.568963 0.726986 0.578485
0.566644 0.720455 0.569818
0.555810 0.713863 0.550469
0.543481 0.706325 0.527581
0.529473 0.697322 0.500359
0.513359 0.686336 0.467933
0.528313 0.681971 0.451514
0.554253 0.679622 0.440375
0.580346 0.676631 0.427375
0.606348 0.673091 0.413184
0.632136 0.669215 0.398016
0.663325 0.671778 0.381140
0.710628 0.685481 0.349035
0.746517 0.688289 0.313024
0.766415 0.678859 0.312871
0.784115 0.669398 0.333318
0.801541 0.661067 0.353246
0.818418 0.653407 0.373266
0.835172 0.647150 0.395056
0.851682 0.648096 0.423255
0.867857 0.656550 0.458961
0.884031 0.668238 0.498939
0.899870 0.683314 0.543084
0.901640 0.679286 0.542443
0.903044 0.666529 0.532372
0.575402 0.747066 0.601740
0.579583 0.748959 0.605768
0.583642 0.750637 0.609552
0.587121 0.751431 0.612116
0.589349 0.750973 0.612696
0.590051 0.748898 0.611017
0.589624 0.745663 0.607385
0.588769 0.741329 0.602441
0.590356 0.735775 0.599176
0.582025 0.729946 0.583886
0.571740 0.723537 0.564874
0.559533 0.716030 0.541772
0.545006 0.706905 0.513725
0.529564 0.696223 0.481392
0.551781 0.694118 0.471199
0.574548 0.691463 0.459541
0.597772 0.688319 0.446540
0.621241 0.684962 0.433082
0.645258 0.681666 0.419379
0.674434 0.684504 0.404700
0.718318 0.698116 0.379095
0.756497 0.705409 0.348791
0.777615 0.698573 0.345892
0.795010 0.690974 0.368994
0.812039 0.684199 0.391455
0.829038 0.678706 0.414649
0.846067 0.674952 0.440345
0.863310 0.675074 0.470375
0.880125 0.686244 0.510521
0.896544 0.700465 0.554162
0.899657 0.698024 0.557275
0.900999 0.685298 0.547173
0.596796 0.759304 0.624598
0.600244 0.760922 0.627985
0.603540 0.762478 0.631189
0.606409 0.763180 0.633326
0.608331 0.762905 0.634028
0.608911 0.761257 0.632654
0.608667 0.758572 0.629664
0.607904 0.755032 0.625544
0.608209 0.750607 0.621790
0.605554 0.745357 0.613794
0.597223 0.739925 0.598352
0.587274 0.733608 0.579461
0.575250 0.725978 0.556420
0.560632 0.716945 0.528069
0.554955 0.709010 0.502342
0.574456 0.706722 0.491890
0.594720 0.704067 0.480415
0.615717 0.701167 0.468391
0.637507 0.698390 0.456031
0.660029 0.696010 0.444038
0.687312 0.699092 0.432166
0.727962 0.712825 0.412909
0.767727 0.723720 0.387854
0.789670 0.718898 0.383032
0.806516 0.712520 0.407996
0.823331 0.707362 0.432746
0.840269 0.703792 0.458686
0.857603 0.702510 0.487739
0.875456 0.704433 0.521141
0.892668 0.715938 0.562463
0.897765 0.716152 0.571527
0.899046 0.703426 0.561608
0.616236 0.771176 0.645960
0.619165 0.772671 0.648920
0.622065 0.774075 0.651728
0.624567 0.774777 0.653742
0.626246 0.774594 0.654414
0.626734 0.773251 0.653254
0.626398 0.771023 0.650690
0.625757 0.768063 0.647211
0.624872 0.764492 0.642817
0.626123 0.759701 0.640040
0.619074 0.754910 0.627039
0.610895 0.749447 0.611566
0.600916 0.742977 0.592584
0.589136 0.735439 0.569665
0.575311 0.726741 0.542046
0.578790 0.721889 0.523735
0.597406 0.720546 0.515373
0.617151 0.719326 0.506798
0.637964 0.718410 0.498604
0.659632 0.717800 0.490822
0.681788 0.717617 0.483558
0.708156 0.722316 0.476967
0.745815 0.736751 0.466011
0.786770 0.751339 0.449134
0.809842 0.749111 0.445960
0.826871 0.745327 0.475044
0.844022 0.743069 0.504051
0.861448 0.742947 0.534997
0.879301 0.745357 0.567834
0.893889 0.752651 0.599207
0.896056 0.733608 0.585321
0.897246 0.721096 0.575463
0.645411 0.789120 0.678431
0.646632 0.789670 0.679622
0.647608 0.789975 0.680415
0.648341 0.789822 0.680659
0.648676 0.789090 0.680018
0.648554 0.787686 0.678492
0.648127 0.785794 0.676265
0.647761 0.783536 0.673579
0.647395 0.780911 0.670497
0.648127 0.777523 0.667964
0.645624 0.773709 0.661097
0.639033 0.769436 0.648554
0.631128 0.764218 0.633417
0.622126 0.758083 0.615534
0.611170 0.750881 0.593713
0.598383 0.742733 0.567346
0.609400 0.740475 0.556695
0.625818 0.739406 0.549096
0.643305 0.738521 0.541497
0.661799 0.737789 0.534081
0.680903 0.737209 0.526635
0.700587 0.736873 0.519371
0.723964 0.740719 0.513115
0.757534 0.753658 0.504875
0.798611 0.769986 0.491127
0.821897 0.769131 0.489235
0.839261 0.766995 0.518425
0.856840 0.766964 0.550225
0.874876 0.769131 0.582666
0.891508 0.774472 0.614801
0.893217 0.758755 0.603540
0.895262 0.740444 0.590326
0.662074 0.799710 0.697292
0.663233 0.800259 0.698421
0.664302 0.800656 0.699397
0.665003 0.800595 0.699641
0.665309 0.800015 0.699153
0.665095 0.798795 0.697780
0.664546 0.797147 0.695705
0.663966 0.795102 0.693172
0.663478 0.792813 0.690364
0.663203 0.790127 0.687343
0.663874 0.786648 0.684779
0.658045 0.783139 0.674037
0.651301 0.778897 0.661311
0.643671 0.773953 0.646357
0.635096 0.768276 0.629053
0.625360 0.761807 0.608606
0.617456 0.755550 0.586969
0.632074 0.755154 0.581292
0.647883 0.754879 0.575769
0.664576 0.754849 0.570275
0.682155 0.755093 0.565240
0.700343 0.755581 0.560540
0.718959 0.756222 0.555840
0.740963 0.760616 0.552575
0.766629 0.767269 0.536278
0.806424 0.783810 0.526940
0.832395 0.786709 0.527855
0.850553 0.786313 0.556664
0.868711 0.788174 0.589563
0.887022 0.792020 0.622797
0.890654 0.782528 0.620539
0.892454 0.765530 0.608515
0.685573 0.814633 0.723781
0.686793 0.815274 0.725032
0.687465 0.815518 0.725612
0.687709 0.815274 0.725460
0.687465 0.814542 0.724544
0.686885 0.813321 0.722957
0.685969 0.811673 0.720729
0.684840 0.809659 0.717952
0.683589 0.807309 0.714748
0.682399 0.804685 0.711116
0.682124 0.801328 0.708095
0.678523 0.797787 0.700710
0.672206 0.793973 0.689479
0.664912 0.789517 0.676051
0.656458 0.784176 0.660121
0.647272 0.778195 0.641932
0.637354 0.771633 0.621241
0.635981 0.767239 0.605127
0.649744 0.767056 0.600214
0.665126 0.767514 0.596399
0.681453 0.768429 0.593072
0.698360 0.769406 0.589868
0.715358 0.770169 0.586114
0.732357 0.770626 0.581567
0.752041 0.773922 0.577661
0.779690 0.785153 0.575311
0.818326 0.801755 0.571618
0.845670 0.807370 0.575402
0.864927 0.808682 0.600397
0.883055 0.811948 0.633143
0.888365 0.804685 0.635981
0.890013 0.788724 0.624842
0.698848 0.823453 0.738735
0.699977 0.824033 0.739895
0.700679 0.824338 0.740475
0.700893 0.824155 0.740383
0.700710 0.823545 0.739620
0.700252 0.822599 0.738369
0.699672 0.821347 0.736690
0.698939 0.819852 0.734646
0.698238 0.818143 0.732387
0.697627 0.816251 0.729824
0.697261 0.813962 0.727230
0.697078 0.811185 0.724392
0.692103 0.808408 0.715541
0.686397 0.805142 0.705074
0.679683 0.801266 0.692531
0.672297 0.796902 0.678065
0.664363 0.792111 0.661585
0.656214 0.787137 0.643336
0.661769 0.785672 0.634607
0.675288 0.786465 0.631769
0.689754 0.787594 0.629450
0.704952 0.788876 0.627314
0.720424 0.790066 0.624964
0.736080 0.791043 0.622156
0.751827 0.791684 0.618677
0.770169 0.794949 0.616297
0.796048 0.805966 0.617395
0.833951 0.823056 0.619959
0.863096 0.831968 0.628321
0.883085 0.835294 0.652338
0.886381 0.825284 0.650080
0.887816 0.810208 0.639826
0.714290 0.833585 0.755825
0.715023 0.833951 0.756558
0.715297 0.834012 0.756710
0.715206 0.833707 0.756313
0.714778 0.833066 0.755398
0.714137 0.832120 0.754055
0.713405 0.830961 0.752407
0.712673 0.829679 0.750576
0.712093 0.828275 0.748684
0.711635 0.826841 0.746700
0.711208 0.825254 0.744411
0.712032 0.823239 0.743221
0.709529 0.821164 0.737819
0.704891 0.818753 0.729488
0.699519 0.815885 0.719570
0.693416 0.812589 0.707912
0.686854 0.808957 0.694636
0.680079 0.805295 0.679866
0.673640 0.801846 0.664057
0.684352 0.802518 0.660945
0.697292 0.803861 0.659358
0.711025 0.805417 0.658045
0.725154 0.806912 0.656611
0.739620 0.808286 0.654963
0.754269 0.809415 0.652796
0.769192 0.810300 0.650202
0.786740 0.813626 0.649134
0.811002 0.824308 0.652949
0.847776 0.841459 0.660212
0.877684 0.852781 0.672999
0.884642 0.844511 0.662989
0.885954 0.830167 0.653346
0.727047 0.841947 0.769711
0.727504 0.842161 0.770138
0.727749 0.842222 0.770260
0.727810 0.842069 0.770077
0.727779 0.841764 0.769650
0.727871 0.841398 0.769253
0.728420 0.841245 0.769162
0.729244 0.841123 0.769223
0.730404 0.841154 0.769467
0.731838 0.841245 0.769863
0.733303 0.841337 0.770077
0.735256 0.841184 0.770565
0.736629 0.840726 0.770169
0.734249 0.840177 0.765347
0.731106 0.839231 0.759213
0.727138 0.837797 0.751553
0.722805 0.836118 0.742672
0.718379 0.834470 0.732845
0.714290 0.833188 0.722377
0.713497 0.832822 0.713436
0.724544 0.834440 0.712856
0.736385 0.836271 0.712520
0.748653 0.838010 0.712001
0.761440 0.839658 0.711391
0.774563 0.841123 0.710475
0.788113 0.842435 0.709346
0.802182 0.843748 0.708278
0.818601 0.847196 0.708949
0.840787 0.857237 0.716030
0.865293 0.865751 0.715633
0.879301 0.861234 0.690883
0.884062 0.848600 0.667109
0.749050 0.855406 0.792660
0.749325 0.855497 0.792905
0.749325 0.855467 0.792813
0.749142 0.855253 0.792447
0.748867 0.854917 0.791836
0.748592 0.854490 0.791196
0.748531 0.854154 0.790616
0.748714 0.853849 0.790127
0.749111 0.853635 0.789761
0.749722 0.853452 0.789456
0.750332 0.853269 0.788998
0.751034 0.853086 0.788449
0.752682 0.852567 0.788602
0.751278 0.852110 0.785367
0.748501 0.851591 0.780270
0.745418 0.850950 0.774411
