其他预设/【240】TEZZA调色预设合集24款/1.LUT预设（视频调色-PR-AE-PS-FCPX-达芬奇用）/Tezza古董__-4.cube
# Created by Adobe Lightroom plugin Export LUT (1.17.0)
# www.johnrellis.com/lightroom/exportlut.htm
# Preset: Tezza古董[素锦印象]-4
# Color profile: /Library/Application Support/Adobe/Color/Profiles/Recommended/AdobeRGB1998.icc
LUT_3D_SIZE 5
DOMAIN_MIN 0.000000 0.000000 0.000000
DOMAIN_MAX 0.903226 0.903226 0.903226
0.104891 0.063813 0.072328
0.374273 0.000000 0.053620
0.863096 0.000000 0.000000
1.000000 0.000000 0.000000
1.000000 0.000000 0.000000
0.102205 0.232120 0.133761
0.252110 0.196933 0.103304
0.731960 0.163821 0.000000
0.998260 0.131228 0.000000
1.000000 0.207462 0.000000
0.115633 0.701686 0.411322
0.372625 0.647333 0.376532
0.685176 0.657130 0.368719
0.872923 0.568750 0.079377
1.000000 0.571679 0.000000
0.522515 0.875517 0.652949
0.605737 0.860288 0.653407
0.679774 0.798764 0.594293
0.843198 0.823697 0.620386
0.976257 0.826688 0.538201
0.697078 0.969940 0.802121
0.733944 0.963592 0.802213
0.803616 0.937896 0.788907
0.833646 0.905028 0.745327
0.952544 0.938689 0.782284
0.097993 0.109529 0.186557
0.252689 0.028962 0.152834
0.830625 0.000000 0.000000
0.997589 0.000000 0.000000
1.000000 0.000000 0.000000
0.015961 0.292119 0.278141
0.282902 0.226413 0.208072
0.746639 0.181003 0.036683
0.963928 0.223087 0.000000
1.000000 0.202518 0.000000
0.136202 0.716518 0.498299
0.404547 0.668940 0.463539
0.650507 0.622919 0.419959
0.842283 0.549584 0.204623
1.000000 0.564080 0.000000
0.542657 0.879088 0.684962
0.621973 0.864836 0.683558
0.705074 0.807523 0.633783
0.838621 0.820615 0.644282
0.970581 0.825406 0.563622
0.694240 0.971740 0.812589
0.731563 0.965393 0.812039
0.816220 0.948425 0.811551
0.844907 0.914214 0.765347
0.954528 0.941924 0.798093
0.000000 0.366796 0.615259
0.248386 0.343847 0.526818
0.659388 0.183688 0.461921
1.000000 0.000000 0.323217
1.000000 0.000000 0.000000
0.015869 0.515709 0.683986
0.411933 0.507012 0.610864
0.669093 0.390204 0.500816
1.000000 0.000000 0.327642
1.000000 0.203952 0.000000
0.303868 0.764096 0.708217
0.487648 0.739742 0.681483
0.666346 0.641840 0.577691
0.889250 0.648341 0.520226
1.000000 0.591974 0.281163
0.567041 0.899565 0.777218
0.632258 0.882841 0.762905
0.744869 0.840787 0.725429
0.833738 0.819364 0.702083
0.957610 0.813352 0.610529
0.689509 0.975891 0.848661
0.725063 0.972045 0.847898
0.804715 0.958282 0.839536
0.854215 0.924163 0.797116
0.949706 0.939117 0.818692
0.387304 0.632807 0.807858
0.491737 0.638636 0.785092
0.641016 0.637049 0.679561
0.838102 0.537713 0.681636
1.000000 0.493721 0.664576
0.544060 0.717983 0.828519
0.596612 0.710933 0.805905
0.675257 0.676631 0.709621
0.830625 0.589593 0.686397
1.000000 0.561578 0.680812
0.550744 0.814694 0.857603
0.631281 0.811643 0.849699
0.755612 0.782834 0.793912
0.822507 0.698939 0.707942
1.000000 0.717830 0.730617
0.633143 0.911681 0.869932
0.676722 0.903990 0.862150
0.768582 0.883940 0.839658
0.824002 0.812161 0.755856
0.990265 0.823087 0.716060
0.704738 0.985290 0.911101
0.734035 0.982452 0.909911
0.808286 0.975586 0.906279
0.879881 0.954559 0.878294
0.948363 0.941253 0.859586
0.645350 0.810422 0.927825
0.673365 0.808621 0.918761
0.742977 0.801785 0.881651
0.799985 0.768093 0.822477
0.945953 0.705928 0.829923
0.690913 0.836759 0.935058
0.709834 0.833127 0.926940
0.762112 0.820981 0.892699
0.807553 0.786801 0.825895
0.944335 0.724727 0.832731
0.673213 0.871641 0.962371
0.718929 0.874662 0.956756
0.812375 0.876036 0.928801
0.841032 0.842130 0.849790
0.943664 0.780911 0.846921
0.695521 0.934874 0.963867
0.727474 0.933471 0.962921
0.808774 0.929808 0.960876
0.897551 0.921233 0.937346
0.947417 0.862089 0.877073
0.733120 0.984405 0.966857
0.755856 0.983062 0.966339
0.821714 0.979828 0.965393
0.900084 0.975860 0.962249
0.946227 0.943999 0.917296
