其他预设/【240】TEZZA调色预设合集24款/1.LUT预设（视频调色-PR-AE-PS-FCPX-达芬奇用）/Tezza万事达-Tezza02JPG.cube
# Created by Adobe Lightroom plugin Export LUT (1.17.0)
# www.johnrellis.com/lightroom/exportlut.htm
# Preset: Tezza万事达-Tezza02JPG
# Color profile: /Library/Application Support/Adobe/Color/Profiles/Recommended/AdobeRGB1998.icc
LUT_3D_SIZE 32
0.039857 0.074037 0.083894
0.053285 0.075074 0.085512
0.065675 0.076295 0.086671
0.082368 0.079561 0.090883
0.106874 0.082918 0.096315
0.137331 0.084657 0.100618
0.173800 0.083192 0.104341
0.215610 0.078889 0.107546
0.261204 0.070100 0.110658
0.309453 0.053315 0.113527
0.359716 0.005554 0.116762
0.410193 0.000000 0.120058
0.459785 0.000000 0.123812
0.507225 0.000000 0.128176
0.551843 0.000000 0.133394
0.593317 0.000000 0.139345
0.632074 0.000000 0.146395
0.668605 0.020722 0.154299
0.702724 0.087098 0.163424
0.735195 0.124636 0.173861
0.765866 0.159274 0.186282
0.797971 0.196445 0.202121
0.826963 0.232425 0.219852
0.854032 0.268132 0.239475
0.879271 0.303471 0.260990
0.902678 0.339422 0.285161
0.924407 0.376104 0.312261
0.944244 0.413672 0.342718
0.962158 0.452583 0.376989
0.978149 0.492714 0.415076
0.992126 0.534081 0.457130
1.000000 0.576471 0.502708
0.038941 0.080781 0.087800
0.051759 0.080140 0.086580
0.065553 0.080873 0.087495
0.082338 0.083589 0.091676
0.106844 0.086763 0.097078
0.137545 0.088319 0.101076
0.173953 0.087587 0.104524
0.215488 0.083680 0.107485
0.260807 0.076509 0.110597
0.309026 0.063783 0.113680
0.358953 0.030426 0.116670
0.409216 0.000000 0.119997
0.458625 0.000000 0.123751
0.505943 0.000000 0.127962
0.550439 0.000000 0.133028
0.591791 0.000000 0.139010
0.630549 0.000000 0.145907
0.666957 0.051148 0.153780
0.701198 0.095064 0.163088
0.733700 0.129854 0.173556
0.764553 0.162478 0.185672
0.796353 0.198245 0.201144
0.825132 0.233371 0.218662
0.852110 0.268223 0.238132
0.877379 0.303044 0.259464
0.900938 0.338628 0.283391
0.922850 0.375036 0.310338
0.942931 0.412726 0.340764
0.961028 0.451331 0.374853
0.977234 0.491493 0.412970
0.991394 0.532799 0.455085
1.000000 0.575189 0.500572
0.036500 0.089326 0.093202
0.051148 0.089021 0.091524
0.063325 0.088441 0.089509
0.082734 0.089143 0.092592
0.107210 0.091798 0.097688
0.138003 0.093477 0.101656
0.174319 0.093141 0.104799
0.215488 0.090211 0.107759
0.260777 0.084077 0.110811
0.308782 0.073915 0.113649
0.358587 0.058350 0.116640
0.408789 0.014923 0.119905
0.458106 0.000000 0.123629
0.505547 0.000000 0.128176
0.549828 0.000000 0.133028
0.591211 0.000000 0.139010
0.629877 0.010590 0.145937
0.666224 0.072114 0.153964
0.700526 0.105898 0.162661
0.733028 0.137392 0.173434
0.764157 0.168795 0.185733
0.795712 0.202792 0.200992
0.824308 0.236942 0.218357
0.851194 0.270603 0.237675
0.876402 0.305089 0.259007
0.900023 0.339971 0.282597
0.922026 0.376165 0.309422
0.942199 0.413489 0.339910
0.960418 0.452003 0.373999
0.976715 0.491859 0.412024
0.990967 0.533043 0.454078
1.000000 0.575189 0.499519
0.036561 0.106020 0.103273
0.055726 0.105745 0.103883
0.062989 0.105074 0.101259
0.079927 0.103914 0.097627
0.107759 0.104799 0.099825
0.139345 0.104341 0.102663
0.175753 0.104646 0.105684
0.216922 0.103029 0.108309
0.261906 0.098939 0.111055
0.309789 0.092195 0.114015
0.359411 0.082673 0.116884
0.409552 0.070130 0.120027
0.458412 0.056153 0.123690
0.505516 0.037537 0.127962
0.549798 0.031922 0.132998
0.591028 0.055268 0.139101
0.629541 0.077241 0.146181
0.665675 0.101320 0.153719
0.699733 0.126589 0.162875
0.732143 0.152926 0.173068
0.763668 0.181888 0.185733
0.794553 0.212863 0.200900
0.822965 0.244633 0.217838
0.849943 0.277348 0.237003
0.875456 0.310857 0.258366
0.899382 0.345495 0.282506
0.921660 0.381231 0.309758
0.941955 0.418158 0.340093
0.960235 0.456184 0.374487
0.976471 0.495491 0.412512
0.990631 0.535821 0.454322
1.000000 0.577264 0.499489
0.027619 0.130617 0.116945
0.046601 0.130892 0.116243
0.063233 0.131167 0.115053
0.077302 0.128267 0.109834
0.104036 0.126467 0.104524
0.140383 0.127260 0.105135
0.177523 0.122438 0.106294
0.218814 0.122011 0.108980
0.263645 0.119875 0.111604
0.311131 0.116426 0.114199
0.360418 0.110658 0.117159
0.410224 0.104646 0.120180
0.459022 0.099062 0.123903
0.505821 0.096284 0.128084
0.550072 0.097383 0.133120
0.591180 0.104402 0.139162
0.629786 0.116732 0.146304
0.665980 0.133486 0.154238
0.700069 0.153323 0.163180
0.732265 0.175601 0.173434
0.764034 0.201358 0.186343
0.794461 0.229313 0.201297
0.822507 0.258610 0.218051
0.849302 0.289372 0.237247
0.874723 0.321202 0.258701
0.898741 0.354376 0.282963
0.920958 0.389044 0.309911
0.941283 0.424750 0.340581
0.959564 0.461921 0.374670
0.975830 0.500206 0.412573
0.990082 0.539788 0.454231
1.000000 0.580621 0.499489
0.002594 0.163302 0.132113
0.021668 0.163821 0.131106
0.049775 0.164279 0.129519
0.069734 0.163394 0.120119
0.099763 0.158938 0.117739
0.136263 0.156802 0.110994
0.182040 0.158053 0.109865
0.223392 0.151553 0.110353
0.267216 0.145693 0.111940
0.314427 0.144045 0.114351
0.363622 0.141848 0.117281
0.413031 0.139040 0.120302
0.461402 0.136995 0.123873
0.507866 0.136080 0.127962
0.551720 0.138430 0.133455
0.592615 0.144411 0.139376
0.631067 0.154360 0.146548
0.666987 0.167636 0.154543
0.701015 0.183841 0.163699
0.733211 0.202762 0.174228
0.765438 0.226200 0.187533
0.795499 0.251225 0.202426
0.835477 0.293217 0.228458
0.861814 0.322759 0.248783
0.886320 0.353277 0.271305
0.908934 0.384680 0.296391
0.929656 0.417212 0.324254
0.948394 0.450813 0.355413
0.965209 0.485634 0.389593
0.980224 0.521874 0.427558
0.993347 0.559319 0.468818
1.000000 0.597772 0.513054
0.000000 0.205844 0.150790
0.000000 0.206455 0.149599
0.006592 0.207126 0.147738
0.068452 0.208347 0.144656
0.092561 0.204685 0.131258
0.133272 0.200198 0.127413
0.179416 0.198001 0.118715
0.234745 0.199710 0.113741
0.279759 0.191257 0.114199
0.324620 0.179965 0.114992
0.373114 0.177279 0.117525
0.422400 0.176303 0.120668
0.470222 0.176089 0.124331
0.515984 0.176852 0.128756
0.558709 0.179599 0.134127
0.598535 0.185092 0.140444
0.636133 0.193393 0.147707
0.671504 0.204318 0.156039
0.705074 0.218204 0.165133
0.738552 0.236271 0.177035
0.771145 0.257969 0.191073
0.801785 0.281956 0.207187
0.830625 0.308324 0.226169
0.858091 0.336828 0.247166
0.883696 0.366583 0.270481
0.906981 0.397009 0.296117
0.928069 0.428443 0.324254
0.946990 0.460609 0.355200
0.963958 0.494240 0.389593
0.979004 0.529168 0.427344
0.992218 0.565301 0.468299
1.000000 0.602808 0.512688
0.000000 0.251072 0.170962
0.000000 0.251621 0.169528
0.000000 0.252262 0.167758
0.035340 0.253696 0.164248
0.083314 0.253452 0.150820
0.125460 0.247898 0.144076
0.173465 0.244968 0.138216
0.226780 0.243107 0.128328
0.289891 0.246098 0.117678
0.336187 0.236484 0.117433
0.381598 0.224674 0.118257
0.426184 0.213870 0.120180
0.473579 0.214389 0.123934
0.518761 0.215763 0.128664
0.561059 0.218540 0.134157
0.600366 0.223301 0.140627
0.637537 0.230411 0.148318
0.672572 0.239689 0.156588
0.706600 0.252018 0.166293
0.739986 0.268162 0.178256
0.771633 0.286748 0.192111
0.801541 0.307774 0.208377
0.829862 0.331365 0.227054
0.856931 0.356939 0.247898
0.882261 0.384314 0.271244
0.905455 0.412726 0.296727
0.926574 0.442054 0.324468
0.945525 0.472847 0.355749
0.962615 0.504906 0.390082
0.977752 0.538354 0.427771
0.991089 0.573327 0.468788
1.000000 0.609522 0.512932
0.000000 0.300481 0.193545
0.000000 0.301152 0.192508
0.000000 0.301793 0.190982
0.000000 0.303075 0.187808
0.089723 0.305119 0.184207
0.114687 0.302312 0.162570
0.166415 0.295842 0.160739
0.221073 0.295079 0.151919
0.279942 0.293370 0.140505
0.350469 0.299260 0.128176
0.396216 0.288334 0.121370
0.439857 0.275212 0.122530
0.480812 0.260807 0.124483
0.522911 0.256046 0.128267
0.564508 0.258640 0.134127
0.603326 0.262730 0.140780
0.640009 0.268742 0.148775
0.675410 0.277165 0.157534
0.709621 0.288396 0.167758
0.741939 0.301976 0.180026
0.772793 0.318120 0.194064
0.802060 0.336431 0.210391
0.829831 0.357366 0.228916
0.856474 0.380591 0.249973
0.881498 0.405463 0.272923
0.904540 0.431464 0.298283
0.925536 0.458930 0.326268
0.944427 0.487739 0.357336
0.961456 0.518059 0.391638
0.976654 0.549859 0.429145
0.989960 0.583246 0.470069
1.000000 0.618006 0.514122
0.000000 0.352575 0.218204
0.000000 0.353033 0.217380
0.000000 0.353704 0.216129
0.000000 0.355016 0.213443
0.073182 0.356939 0.210178
0.121462 0.357397 0.196201
0.162020 0.352819 0.182193
0.214755 0.347417 0.179446
0.274174 0.347539 0.168826
0.336065 0.346715 0.155764
0.411749 0.355444 0.142214
0.455421 0.342657 0.127047
0.496315 0.329137 0.128847
0.533684 0.314031 0.130953
0.568566 0.299535 0.134188
0.607050 0.303105 0.141451
0.644648 0.309026 0.149966
0.680232 0.316991 0.159548
0.713558 0.326452 0.170138
0.744808 0.337682 0.182193
0.774685 0.351385 0.196567
0.802853 0.366949 0.212619
0.829740 0.384863 0.231296
0.855619 0.405066 0.251743
0.880156 0.427314 0.274479
0.902983 0.451270 0.299992
0.923980 0.476631 0.327764
0.942992 0.503838 0.358984
0.960204 0.532677 0.393530
0.975525 0.563104 0.431281
0.988983 0.595178 0.472572
1.000000 0.628687 0.516899
0.000000 0.404639 0.244511
0.000000 0.405158 0.243717
0.000000 0.405859 0.242588
0.000000 0.407080 0.240543
0.046235 0.408911 0.238102
0.138643 0.411170 0.235996
0.154421 0.410163 0.206455
0.213565 0.404639 0.205020
0.269139 0.401190 0.199985
0.330755 0.402014 0.188693
0.393866 0.401587 0.174289
0.470008 0.411536 0.158938
0.512932 0.399237 0.141634
0.549737 0.384314 0.138460
0.584009 0.369482 0.141207
0.616205 0.355200 0.144686
0.649470 0.350195 0.151186
0.684016 0.356481 0.161227
0.716243 0.363958 0.172213
0.746731 0.373388 0.184634
0.775875 0.384802 0.199130
0.803494 0.398169 0.215427
0.830014 0.414038 0.234134
0.855589 0.432105 0.254734
0.879789 0.452216 0.277714
0.902342 0.473854 0.302983
0.923064 0.497200 0.330999
0.941924 0.522240 0.361791
0.959014 0.549004 0.396155
0.974304 0.577600 0.433936
0.987762 0.607904 0.474983
0.999329 0.639796 0.519280
0.000000 0.456855 0.272404
0.000000 0.457221 0.271916
0.000000 0.457771 0.271153
0.000000 0.459052 0.269535
0.000000 0.460792 0.267399
0.134279 0.462867 0.265385
0.181399 0.464088 0.253025
0.211795 0.461646 0.231479
0.268223 0.456275 0.230106
0.326055 0.454902 0.223087
0.388159 0.455909 0.211093
0.451148 0.456275 0.196323
0.537804 0.478706 0.184024
0.580774 0.468635 0.167117
0.614496 0.453590 0.157137
0.645319 0.438239 0.159915
0.673793 0.423255 0.163668
0.699916 0.408179 0.167880
0.730037 0.412665 0.179385
0.758938 0.419806 0.193027
0.786435 0.428840 0.208164
0.812528 0.439887 0.225040
0.837736 0.453132 0.243900
0.862028 0.468635 0.264897
0.885039 0.486152 0.287968
0.906493 0.505425 0.313298
0.926238 0.526268 0.341375
0.944213 0.548821 0.372412
0.960510 0.572961 0.406287
0.975158 0.599084 0.443671
0.988098 0.626978 0.484260
0.999268 0.656489 0.528008
0.000000 0.511681 0.304173
0.000000 0.512078 0.303716
0.000000 0.512291 0.303014
0.000000 0.513054 0.301366
0.000000 0.514092 0.299351
0.133852 0.515404 0.297826
0.205997 0.517174 0.297185
0.221561 0.516777 0.267826
0.271641 0.512932 0.259648
0.326604 0.508965 0.258762
0.388159 0.511772 0.251225
0.451911 0.515129 0.239994
0.515496 0.518395 0.226352
0.587915 0.531151 0.210361
0.630945 0.524285 0.194095
0.661097 0.508782 0.177310
0.688197 0.492714 0.179690
0.712581 0.476661 0.183108
0.735317 0.461128 0.186954
0.760037 0.455360 0.196139
0.786862 0.462531 0.211521
0.812406 0.471412 0.228763
0.837156 0.482643 0.247349
0.861082 0.496071 0.268376
0.883757 0.511528 0.291325
0.904997 0.528862 0.316899
0.924620 0.547753 0.344610
0.942535 0.568383 0.375616
0.958862 0.590692 0.409552
0.973571 0.614984 0.446632
0.986572 0.641169 0.487282
0.997864 0.669123 0.531182
0.000000 0.558404 0.333471
0.000000 0.558770 0.333165
0.000000 0.559045 0.332555
0.000000 0.559808 0.331456
0.000000 0.560845 0.330144
0.137301 0.562463 0.329107
0.209903 0.564446 0.328679
0.255467 0.565942 0.318334
0.274754 0.565698 0.290715
0.331975 0.562219 0.290318
0.385809 0.559350 0.289128
0.446845 0.562921 0.280125
0.507622 0.566247 0.269230
0.566979 0.569146 0.255009
0.630884 0.578119 0.239628
0.675807 0.575982 0.223850
0.701503 0.558770 0.201144
0.724422 0.541680 0.202640
0.745937 0.525200 0.205631
0.767025 0.510613 0.210147
0.787900 0.497688 0.216526
0.812589 0.503471 0.233219
0.837003 0.512963 0.252079
0.860655 0.524620 0.272984
0.883085 0.538293 0.296086
0.904021 0.553704 0.321508
0.923491 0.570703 0.349310
0.941283 0.589532 0.380224
0.957549 0.610101 0.414221
0.972229 0.632593 0.451423
0.985260 0.656977 0.491920
0.996551 0.683223 0.535851
0.000000 0.606378 0.365759
0.000000 0.606714 0.365637
0.000000 0.606744 0.364996
0.000000 0.607172 0.364080
0.009766 0.607782 0.362860
0.146273 0.608576 0.361578
0.216892 0.609766 0.361334
0.282048 0.611322 0.362615
0.298405 0.612207 0.335973
0.336400 0.610651 0.321904
0.389929 0.607446 0.321630
0.443275 0.606439 0.319005
0.501030 0.609979 0.310246
0.557855 0.613062 0.299229
0.613001 0.615564 0.285496
0.668910 0.620478 0.269505
0.713893 0.621576 0.256748
0.736019 0.603418 0.230228
0.756344 0.586542 0.229313
0.776181 0.571008 0.232547
0.795743 0.557183 0.237613
0.815427 0.545373 0.244297
0.836973 0.543420 0.257298
0.860258 0.553460 0.278386
0.882414 0.565454 0.301457
0.903288 0.579248 0.327123
0.922698 0.594842 0.355291
0.940520 0.612238 0.386725
0.956786 0.631342 0.420935
0.971496 0.652430 0.458778
0.984527 0.675319 0.499733
0.995819 0.699947 0.544030
0.000000 0.650111 0.397345
0.000000 0.650416 0.397284
0.000000 0.650568 0.397070
0.000000 0.650935 0.396368
0.069306 0.651545 0.395483
0.161044 0.652247 0.394659
0.227817 0.653223 0.394537
0.291081 0.654597 0.395697
0.334447 0.655726 0.387396
0.342931 0.656733 0.354955
0.396490 0.653468 0.354833
0.445808 0.649897 0.354650
0.496559 0.649744 0.349798
0.549767 0.652033 0.340673
0.601465 0.653742 0.329503
0.651698 0.655116 0.315770
0.700649 0.656764 0.299565
0.745998 0.661280 0.290105
0.766171 0.643824 0.263371
0.785306 0.628199 0.260014
0.804196 0.614343 0.263493
0.823148 0.602258 0.269352
0.842100 0.592187 0.276799
0.861112 0.584253 0.286473
0.882933 0.594293 0.309270
0.903502 0.606561 0.335149
0.922637 0.620478 0.363470
0.940215 0.636133 0.394842
0.956237 0.653468 0.429175
0.970703 0.672511 0.466804
0.983490 0.693324 0.507561
0.994659 0.715877 0.551385
0.000000 0.688411 0.427588
0.000000 0.688563 0.427070
0.000000 0.688594 0.427039
0.000000 0.688777 0.426459
0.104005 0.688991 0.425818
0.178073 0.689387 0.425208
0.240269 0.689967 0.425360
0.300175 0.690669 0.426276
0.359319 0.691463 0.428840
0.375280 0.692409 0.405005
0.401282 0.691829 0.386175
0.449714 0.688685 0.386175
0.494362 0.685206 0.385931
0.543084 0.686183 0.379889
0.592004 0.687800 0.371069
0.639368 0.688899 0.359960
0.685420 0.689754 0.346929
0.729824 0.690578 0.331212
0.774350 0.697139 0.325383
0.793423 0.681147 0.298344
0.811795 0.667231 0.293187
0.829801 0.654902 0.297154
0.847807 0.644343 0.303532
0.865873 0.635676 0.311833
0.883848 0.628992 0.322637
0.902953 0.632654 0.342901
0.921874 0.645045 0.371160
0.939300 0.659052 0.402625
0.955230 0.674739 0.437110
0.969604 0.692164 0.474678
0.982361 0.711269 0.515526
0.993469 0.732113 0.559472
0.000000 0.722896 0.456550
0.000000 0.723140 0.456703
0.000000 0.731960 0.464485
0.088319 0.731868 0.464088
0.155215 0.731746 0.463661
0.212467 0.731472 0.463081
0.267521 0.731380 0.463294
0.322301 0.731136 0.463966
0.377661 0.731044 0.466224
0.417029 0.731350 0.460151
0.424170 0.732235 0.431037
0.462684 0.729732 0.424994
0.505394 0.726192 0.424811
0.545678 0.722713 0.423926
0.590906 0.723903 0.416541
0.635157 0.724636 0.407507
0.678309 0.725246 0.396857
0.720180 0.725673 0.383948
0.760708 0.726192 0.369238
0.804105 0.734401 0.366522
0.822049 0.719936 0.338933
0.839139 0.707301 0.333288
0.855863 0.696193 0.337804
0.872557 0.686763 0.344518
0.889006 0.678828 0.353399
0.905425 0.672847 0.364965
0.921813 0.670497 0.381170
0.938689 0.682460 0.411963
0.954253 0.696132 0.445838
0.968475 0.711696 0.483284
0.981140 0.729000 0.523827
0.992187 0.747951 0.567498
0.000000 0.755978 0.486885
0.032929 0.757046 0.487922
0.087922 0.758145 0.488838
0.136599 0.759030 0.489509
0.185519 0.759457 0.489967
0.235325 0.759518 0.490333
0.285283 0.759274 0.490730
0.336095 0.758816 0.491768
0.388037 0.758511 0.494057
0.439277 0.758328 0.497963
0.453986 0.758968 0.477943
0.468635 0.759121 0.455573
0.509667 0.756008 0.455543
0.548028 0.752590 0.455238
0.585962 0.750454 0.453193
0.627466 0.751308 0.445991
0.668238 0.752010 0.437140
0.708034 0.752651 0.427100
0.747066 0.753384 0.415259
0.784878 0.754208 0.401373
0.826993 0.763699 0.401190
0.844724 0.751644 0.375769
0.861021 0.740627 0.371557
0.876738 0.731044 0.376898
0.892332 0.722744 0.384649
0.907744 0.716060 0.394965
0.923033 0.711238 0.408270
0.938201 0.708644 0.425238
0.953368 0.717372 0.455543
0.967376 0.731258 0.492775
0.979919 0.746822 0.533288
0.990906 0.764004 0.576562
0.112978 0.783413 0.513725
0.129915 0.784329 0.514672
0.148501 0.785183 0.515587
0.179477 0.785855 0.516411
0.218509 0.786221 0.517144
0.261051 0.786130 0.517601
0.306065 0.785702 0.518120
0.352636 0.785214 0.519402
0.400488 0.784756 0.521691
0.448798 0.784298 0.525383
0.484413 0.784390 0.522393
0.490578 0.785367 0.497200
0.516869 0.783993 0.486915
0.553613 0.781064 0.486946
0.588190 0.777859 0.486763
0.624079 0.776822 0.483284
0.662257 0.777615 0.476295
0.699825 0.778347 0.468177
0.736782 0.779080 0.458564
0.773007 0.779934 0.447700
0.808133 0.780941 0.434974
0.847593 0.790066 0.434607
0.865873 0.780880 0.413428
0.880980 0.771267 0.412299
0.895537 0.762753 0.418494
0.909911 0.755581 0.427497
0.924193 0.749996 0.439460
0.938415 0.746456 0.454780
0.952483 0.745205 0.474434
0.966155 0.750271 0.502708
0.978607 0.764157 0.542901
0.989563 0.779538 0.585657
0.170779 0.809598 0.540764
0.181643 0.810361 0.541741
0.194827 0.811154 0.542748
0.219730 0.811704 0.543603
0.251652 0.811856 0.544366
0.288792 0.811612 0.544976
0.328740 0.811093 0.545861
0.371191 0.810422 0.547173
0.415290 0.809720 0.549371
0.460517 0.808988 0.552941
0.505943 0.808316 0.558373
0.520134 0.808988 0.542565
0.526543 0.809842 0.518151
0.561395 0.807248 0.518517
0.594568 0.804501 0.518791
0.625910 0.801724 0.518914
0.660578 0.801907 0.514763
0.696132 0.803037 0.508751
0.731228 0.804227 0.501854
0.765743 0.805417 0.494057
0.799435 0.806790 0.484688
0.832090 0.808194 0.473671
0.868681 0.816587 0.473091
0.886931 0.809689 0.456855
0.900694 0.801419 0.460426
0.914061 0.794186 0.467933
0.927337 0.788235 0.478706
0.940551 0.784085 0.492805
0.953613 0.781949 0.510887
0.966400 0.782040 0.533288
0.978698 0.784665 0.560021
0.989380 0.798062 0.601495
0.225711 0.837430 0.571893
0.233097 0.837705 0.572412
0.242679 0.837858 0.572717
0.261601 0.837858 0.573236
0.288090 0.837552 0.573693
0.319951 0.837003 0.574304
0.355749 0.836301 0.575219
0.394354 0.835508 0.576654
0.435218 0.834714 0.579156
0.477577 0.833860 0.582940
0.520409 0.833066 0.588464
0.553094 0.832700 0.588251
0.558679 0.833646 0.567315
0.575433 0.833127 0.553887
0.606439 0.830686 0.554376
0.636133 0.828122 0.554772
0.664302 0.825711 0.554894
0.696895 0.826596 0.550042
0.729244 0.827481 0.544457
0.761074 0.828428 0.537743
0.792325 0.829374 0.530236
0.822751 0.830320 0.520958
0.852354 0.831235 0.510185
0.885679 0.838254 0.508507
0.903136 0.832853 0.498695
0.915648 0.825528 0.504601
0.928069 0.819394 0.513817
0.940459 0.814786 0.526482
0.952697 0.811978 0.543206
0.964782 0.811093 0.563714
0.976501 0.812284 0.587793
0.987793 0.815640 0.615503
0.268986 0.860136 0.599115
0.275517 0.860349 0.599542
0.283635 0.860502 0.600031
0.299565 0.860410 0.600519
0.322271 0.860044 0.601099
0.350317 0.859373 0.601770
0.382330 0.858488 0.602777
0.416907 0.857511 0.604303
0.454597 0.856443 0.606867
0.493965 0.855283 0.610498
0.534447 0.854185 0.615717
0.575006 0.852995 0.622858
0.588037 0.853422 0.610712
0.593408 0.854307 0.590265
0.618067 0.852689 0.586969
0.645960 0.850492 0.587793
0.672663 0.848295 0.588373
0.699367 0.846952 0.587945
0.729091 0.847776 0.583764
0.758541 0.848661 0.579034
0.787533 0.849546 0.573144
0.815885 0.850401 0.566400
0.843565 0.851286 0.558221
0.870603 0.852110 0.548119
0.900114 0.856809 0.542229
0.916533 0.852842 0.541619
0.928191 0.846647 0.549248
0.939788 0.841764 0.560296
0.951415 0.838376 0.574792
0.962921 0.836667 0.592828
0.974182 0.836851 0.614679
0.985107 0.839017 0.639857
0.316625 0.883024 0.629145
0.322148 0.883238 0.629786
0.328862 0.883299 0.630152
0.342107 0.882963 0.630579
0.361273 0.882383 0.630976
0.385473 0.881498 0.631647
0.413825 0.880400 0.632563
0.445136 0.879057 0.633997
0.479194 0.877562 0.636225
0.515343 0.876005 0.639582
0.552483 0.874357 0.644373
0.589502 0.872770 0.650385
0.617334 0.871824 0.651362
0.622004 0.872465 0.633875
0.631342 0.872465 0.618677
0.656733 0.870237 0.619074
0.681331 0.868009 0.619409
0.705104 0.865904 0.619959
0.730220 0.865263 0.618769
0.757290 0.866026 0.615229
0.784054 0.866850 0.611139
0.810330 0.867613 0.606043
0.835966 0.868284 0.599634
0.861021 0.868833 0.591730
0.885435 0.869230 0.581994
0.913725 0.874388 0.577325
0.928801 0.871550 0.586633
0.939666 0.866361 0.595239
0.950530 0.862516 0.607294
0.961395 0.860105 0.623011
0.972168 0.859434 0.642115
0.982666 0.860410 0.664454
0.356451 0.901335 0.654932
0.361181 0.901488 0.655604
0.367132 0.901488 0.655940
0.378973 0.901152 0.656489
0.395911 0.900481 0.657069
0.417609 0.899596 0.657832
0.443153 0.898405 0.659083
0.471901 0.897063 0.660792
0.503410 0.895567 0.663355
0.537163 0.893919 0.666926
0.571374 0.892241 0.671565
0.605768 0.890593 0.677180
0.639124 0.889067 0.683772
0.650477 0.889189 0.674464
0.654932 0.889830 0.657954
0.671046 0.888884 0.651514
0.693782 0.886961 0.652247
0.715846 0.885100 0.652979
0.737179 0.883391 0.653986
0.760678 0.883421 0.652308
0.784970 0.884001 0.649226
0.808835 0.884611 0.645441
0.832334 0.885191 0.640620
0.855344 0.885618 0.634577
0.877958 0.885954 0.627192
0.900237 0.886168 0.617914
0.925536 0.889952 0.612512
0.940032 0.888884 0.631128
0.950256 0.884825 0.641199
0.960540 0.882017 0.654505
0.970764 0.880644 0.671138
0.980713 0.880674 0.690639
0.398291 0.918395 0.681422
0.402594 0.918425 0.681880
0.407355 0.918303 0.682155
0.417395 0.917876 0.682612
0.432166 0.917113 0.683162
0.451362 0.916106 0.684016
0.474403 0.914824 0.685267
0.500511 0.913359 0.687098
0.529686 0.911742 0.689815
0.560204 0.910063 0.693294
0.591577 0.908324 0.697566
0.622950 0.906645 0.702815
0.653803 0.905058 0.708858
0.677516 0.904051 0.710842
0.681483 0.904662 0.697017
0.685939 0.905241 0.681941
0.706661 0.903471 0.682704
0.726864 0.901762 0.683497
0.746578 0.900206 0.684443
0.765652 0.898772 0.685603
0.787442 0.899229 0.683467
0.809140 0.899687 0.680629
0.830503 0.900114 0.677119
0.851560 0.900511 0.672572
0.872282 0.900786 0.666773
0.892821 0.900938 0.659663
0.913207 0.901061 0.650965
0.935851 0.903716 0.645380
0.949645 0.904021 0.671839
0.959350 0.900908 0.683009
0.968994 0.898924 0.697261
0.978424 0.898283 0.714443
0.438514 0.933257 0.706325
0.441993 0.933227 0.706722
0.446509 0.933043 0.706996
0.455329 0.932647 0.707485
0.469123 0.931914 0.708431
0.486885 0.931029 0.709743
0.508568 0.929961 0.711666
0.533349 0.928740 0.714321
0.560418 0.927398 0.717678
0.588800 0.926024 0.721675
0.617792 0.924590 0.726375
0.646876 0.923125 0.731746
0.675349 0.921691 0.737667
0.703212 0.920226 0.744472
0.713436 0.920317 0.738369
0.717220 0.920928 0.726040
0.727199 0.920653 0.718746
0.745113 0.919158 0.719692
0.762692 0.917754 0.720821
0.779812 0.916472 0.722042
0.796933 0.915618 0.722591
0.815854 0.915953 0.720485
0.834623 0.916258 0.717617
0.853269 0.916503 0.714015
0.871733 0.916686 0.709468
0.890135 0.916808 0.703761
0.908507 0.916838 0.696834
0.926970 0.916777 0.688533
0.946380 0.918639 0.689998
0.959503 0.919615 0.716304
0.968414 0.917235 0.728084
0.977203 0.915953 0.742702
0.487068 0.948394 0.734646
0.490028 0.948302 0.735012
0.493751 0.948089 0.735286
0.501549 0.947570 0.735775
0.513390 0.946777 0.736629
0.528893 0.945769 0.737881
0.547509 0.944579 0.739559
0.568658 0.943236 0.741756
0.592065 0.941711 0.744564
0.616876 0.940185 0.748013
0.642390 0.938537 0.751888
0.668147 0.936889 0.756405
0.694026 0.935210 0.761715
0.719783 0.933471 0.767910
0.739986 0.932311 0.771328
