其他预设/【240】TEZZA调色预设合集24款/1.LUT预设（视频调色-PR-AE-PS-FCPX-达芬奇用）/Tezza自然__-8.cube
# Created by Adobe Lightroom plugin Export LUT (1.17.0)
# www.johnrellis.com/lightroom/exportlut.htm
# Preset: Tezza自然[素锦印象]-8
# Color profile: /Library/Application Support/Adobe/Color/Profiles/Recommended/AdobeRGB1998.icc
LUT_3D_SIZE 5
DOMAIN_MIN 0.000000 0.000000 0.000000
DOMAIN_MAX 0.903226 0.903226 0.903226
0.000000 0.000000 0.000000
0.218357 0.000000 0.014832
0.584588 0.000000 0.000000
0.782437 0.000000 0.000000
0.895842 0.000000 0.079042
0.047272 0.248936 0.141054
0.250340 0.272374 0.090120
0.633509 0.093019 0.000000
0.794308 0.000000 0.000000
0.903685 0.000000 0.124178
0.384009 0.645441 0.479530
0.278416 0.616724 0.418341
0.660121 0.656886 0.418402
0.818387 0.591516 0.136812
0.891264 0.503105 0.244968
0.632990 0.776120 0.695399
0.618372 0.769711 0.683223
0.313207 0.727260 0.507652
0.760891 0.770932 0.640101
0.870268 0.754238 0.557305
0.751858 0.843503 0.808255
0.746487 0.842039 0.804227
0.687465 0.829923 0.759670
0.566613 0.833677 0.629145
0.828580 0.845548 0.790982
0.000000 0.076234 0.127810
0.242039 0.000000 0.222019
0.576165 0.000000 0.023011
0.765652 0.000000 0.000000
0.880461 0.000000 0.057893
0.000000 0.278874 0.241032
0.299382 0.279362 0.250614
0.623499 0.113924 0.093690
0.779873 0.000000 0.000000
0.884489 0.000000 0.090730
0.487098 0.642786 0.535210
0.461799 0.625971 0.514916
0.646235 0.635889 0.470771
0.801907 0.575647 0.162722
0.886534 0.496620 0.228244
0.661463 0.777432 0.716304
0.651911 0.772122 0.707698
0.456794 0.733089 0.572442
0.760555 0.769253 0.661860
0.869657 0.750912 0.547997
0.760098 0.843565 0.813840
0.755489 0.842222 0.810361
0.722866 0.836393 0.786679
0.581079 0.834653 0.655543
0.830442 0.847074 0.799344
0.000000 0.177005 0.396887
0.000000 0.191928 0.375097
0.666163 0.210788 0.618463
0.782528 0.000000 0.357244
0.879973 0.000000 0.087587
0.000000 0.304326 0.503166
0.096559 0.338567 0.489021
0.674342 0.439399 0.632471
0.759091 0.000000 0.331640
0.884367 0.000000 0.117311
0.426337 0.669490 0.623804
0.513268 0.658473 0.626642
0.654932 0.635462 0.613214
0.770871 0.531151 0.447913
0.883116 0.448829 0.256321
0.727199 0.785824 0.769009
0.719112 0.780270 0.760922
0.683894 0.758206 0.726833
0.766079 0.772244 0.721950
0.862821 0.734920 0.565484
0.783261 0.843107 0.829252
0.782162 0.843290 0.828672
0.768429 0.840543 0.818814
0.608240 0.821683 0.706691
0.828794 0.844205 0.806210
0.000000 0.315007 0.607538
0.000000 0.326940 0.600214
0.333989 0.418158 0.563012
0.782040 0.539574 0.775113
0.874144 0.373663 0.649042
0.000000 0.412726 0.646876
0.000000 0.418280 0.638880
0.401495 0.477394 0.601343
0.777157 0.592432 0.772854
0.866117 0.405524 0.639460
0.000000 0.627527 0.709773
0.138643 0.608667 0.706386
0.540276 0.614496 0.693721
0.771511 0.693538 0.774166
0.848844 0.448646 0.585840
0.643000 0.787686 0.773434
0.659510 0.783658 0.772915
0.707942 0.776730 0.776699
0.758267 0.760403 0.762356
0.845914 0.669215 0.628443
0.807645 0.846281 0.847745
0.812406 0.847196 0.850584
0.814450 0.848508 0.851957
0.787106 0.839536 0.831418
0.830686 0.844572 0.827390
0.000000 0.482246 0.758022
0.000000 0.488808 0.753628
0.272435 0.522972 0.736202
0.581842 0.585443 0.747738
0.836759 0.676204 0.845151
0.000000 0.516381 0.764736
0.000000 0.520531 0.760494
0.308873 0.545800 0.744259
0.588983 0.603235 0.744961
0.835142 0.692012 0.844694
0.000000 0.573663 0.787900
0.000000 0.582757 0.784573
0.378637 0.611231 0.771817
0.622370 0.658350 0.738552
0.833616 0.741695 0.847257
0.456672 0.783139 0.825315
0.466957 0.775875 0.823270
0.492927 0.743954 0.816648
0.663355 0.727230 0.800687
0.835996 0.806638 0.856077
0.748592 0.852567 0.848600
0.753292 0.851957 0.848997
0.771939 0.851072 0.851835
0.800961 0.849332 0.856229
0.828672 0.841581 0.852049
