其他预设/【240】TEZZA调色预设合集24款/1.LUT预设（视频调色-PR-AE-PS-FCPX-达芬奇用）/Tezza万事达-Tezza02JPG.cube
# Created by Adobe Lightroom plugin Export LUT (1.17.0)
# www.johnrellis.com/lightroom/exportlut.htm
# Preset: Tezza万事达-Tezza02JPG
# Color profile: /Library/Application Support/Adobe/Color/Profiles/Recommended/AdobeRGB1998.icc
LUT_3D_SIZE 8
DOMAIN_MIN 0.000000 0.000000 0.000000
DOMAIN_MAX 0.903226 0.903226 0.903226
0.039857 0.074037 0.083894
0.106874 0.082918 0.096315
0.261204 0.070100 0.110658
0.459785 0.000000 0.123812
0.632074 0.000000 0.146395
0.765866 0.159274 0.186282
0.879271 0.303471 0.260990
0.962158 0.452583 0.376989
0.027619 0.130617 0.116945
0.104036 0.126467 0.104524
0.263645 0.119875 0.111604
0.459022 0.099062 0.123903
0.629786 0.116732 0.146304
0.764034 0.201358 0.186343
0.874723 0.321202 0.258701
0.959564 0.461921 0.374670
0.000000 0.300481 0.193545
0.089723 0.305119 0.184207
0.279942 0.293370 0.140505
0.480812 0.260807 0.124483
0.640009 0.268742 0.148775
0.772793 0.318120 0.194064
0.881498 0.405463 0.272923
0.961456 0.518059 0.391638
0.000000 0.511681 0.304173
0.000000 0.514092 0.299351
0.271641 0.512932 0.259648
0.515496 0.518395 0.226352
0.688197 0.492714 0.179690
0.786862 0.462531 0.211521
0.883757 0.511528 0.291325
0.958862 0.590692 0.409552
0.000000 0.688411 0.427588
0.104005 0.688991 0.425818
0.359319 0.691463 0.428840
0.494362 0.685206 0.385931
0.685420 0.689754 0.346929
0.811795 0.667231 0.293187
0.883848 0.628992 0.322637
0.955230 0.674739 0.437110
0.170779 0.809598 0.540764
0.251652 0.811856 0.544366
0.415290 0.809720 0.549371
0.526543 0.809842 0.518151
0.660578 0.801907 0.514763
0.799435 0.806790 0.484688
0.900694 0.801419 0.460426
0.953613 0.781949 0.510887
0.356451 0.901335 0.654932
0.395911 0.900481 0.657069
0.503410 0.895567 0.663355
0.639124 0.889067 0.683772
0.693782 0.886961 0.652247
0.784970 0.884001 0.649226
0.877958 0.885954 0.627192
0.950256 0.884825 0.641199
0.527398 0.960327 0.758175
0.550805 0.958740 0.760220
0.621088 0.953979 0.768246
0.714717 0.947631 0.785214
0.768093 0.942931 0.780606
0.815824 0.940490 0.777798
0.872557 0.940185 0.774166
0.931609 0.940093 0.753292
0.028382 0.094087 0.141299
0.104982 0.091279 0.136416
0.268772 0.094789 0.125002
0.460334 0.087282 0.123842
0.629847 0.106538 0.145998
0.762783 0.191806 0.185397
0.872923 0.309575 0.256352
0.958373 0.449195 0.370031
0.000000 0.136294 0.166934
0.122988 0.140566 0.160342
0.278691 0.143709 0.143954
0.463539 0.140475 0.124208
0.630671 0.160220 0.146395
0.762448 0.226291 0.186252
0.869810 0.327550 0.255436
0.955688 0.458045 0.367681
0.000000 0.304051 0.235477
0.116945 0.309636 0.234531
0.300237 0.305333 0.206516
0.485664 0.273899 0.156405
0.639338 0.282261 0.148501
0.768154 0.326360 0.191928
0.873442 0.402350 0.265751
0.956970 0.511070 0.382086
0.000000 0.508995 0.335363
0.090517 0.512291 0.334508
0.298802 0.517388 0.305272
0.516869 0.515343 0.278935
0.676722 0.485939 0.208103
0.776486 0.456062 0.204929
0.875242 0.503502 0.281926
0.954681 0.583337 0.399695
0.000000 0.686397 0.450568
0.141146 0.686397 0.448402
0.365667 0.687678 0.449317
0.501671 0.680995 0.412512
0.681453 0.684260 0.380194
0.805875 0.662745 0.312474
0.880461 0.626123 0.318517
0.953033 0.670802 0.431281
0.188022 0.805570 0.552880
0.257023 0.805325 0.553246
0.414038 0.803677 0.557458
0.540368 0.804501 0.540337
0.662318 0.798856 0.533043
0.798703 0.805966 0.509422
0.899565 0.799924 0.459846
0.952514 0.779629 0.506645
0.353338 0.897520 0.659083
0.389532 0.895842 0.659419
0.497169 0.891661 0.665492
0.634516 0.886320 0.685817
0.695338 0.885100 0.660151
0.784512 0.882109 0.658259
0.875822 0.884001 0.637476
0.948943 0.882383 0.635187
0.521050 0.959167 0.759884
0.545190 0.957824 0.762173
0.616632 0.953185 0.769986
0.711269 0.946990 0.786404
0.776211 0.943450 0.791196
0.818845 0.940856 0.784695
0.873014 0.939849 0.779721
0.930938 0.939544 0.759182
0.000000 0.140688 0.284489
0.008545 0.151400 0.272404
0.306523 0.133150 0.288243
0.513451 0.000000 0.223758
0.646998 0.175937 0.210330
0.773678 0.251011 0.191958
0.879850 0.347021 0.265263
0.962097 0.467781 0.380255
0.000000 0.171237 0.309880
0.123354 0.196536 0.304356
0.319768 0.199161 0.305303
0.508354 0.172610 0.250645
0.647761 0.222629 0.226108
0.772763 0.277226 0.194919
0.877714 0.363043 0.264836
0.960601 0.478248 0.380133
0.000000 0.310613 0.352880
0.115572 0.317174 0.351263
0.350042 0.336461 0.346441
0.517479 0.330449 0.308598
0.659846 0.338018 0.269749
0.777768 0.364691 0.229526
0.878904 0.426123 0.273167
0.959380 0.522545 0.389227
0.000000 0.520684 0.429603
0.073640 0.524681 0.429023
0.362341 0.532708 0.429023
0.547997 0.536767 0.412268
0.682856 0.501396 0.347387
0.784543 0.488411 0.293950
0.881743 0.520745 0.291112
0.957977 0.593286 0.408820
0.000000 0.688594 0.514153
0.158755 0.689448 0.514885
0.385748 0.691493 0.518425
0.541955 0.693416 0.503349
0.696773 0.696590 0.491249
0.804379 0.671717 0.429450
0.883360 0.635920 0.346807
0.955444 0.675868 0.438087
0.204257 0.805875 0.597436
0.277653 0.805295 0.598932
0.431006 0.803281 0.603357
0.595422 0.801877 0.619898
0.678767 0.798764 0.597528
0.801236 0.808072 0.585992
0.893645 0.802213 0.541283
0.954406 0.781155 0.511406
0.364599 0.897948 0.690059
0.401862 0.896391 0.690822
0.504692 0.891722 0.694545
0.634821 0.886015 0.708400
0.708614 0.884947 0.694514
0.791287 0.882353 0.697536
0.877531 0.886442 0.686854
0.949371 0.884703 0.659693
0.515984 0.959655 0.775570
0.536797 0.958190 0.776181
0.608576 0.953368 0.781979
0.706172 0.947509 0.796506
0.791379 0.941802 0.814267
0.825376 0.940917 0.802396
0.876524 0.940093 0.800504
0.931609 0.940520 0.785183
0.000000 0.222660 0.462043
0.000000 0.238834 0.460761
0.239231 0.300877 0.445777
0.553857 0.255924 0.488380
0.712612 0.243748 0.414008
0.789761 0.291508 0.351171
0.880278 0.380316 0.329107
0.963989 0.473823 0.384710
0.000000 0.267521 0.479896
0.120912 0.280613 0.478187
0.285710 0.334630 0.465827
0.558984 0.310430 0.498451
0.709987 0.289647 0.423560
0.783474 0.334600 0.365820
0.878904 0.399237 0.337346
0.963256 0.484108 0.385992
0.000000 0.319982 0.500023
0.135225 0.325505 0.500389
0.367773 0.402930 0.505547
0.568688 0.434119 0.522545
0.699367 0.395819 0.445472
0.783352 0.433448 0.409979
0.882933 0.469795 0.374243
0.964355 0.530877 0.400305
0.000000 0.508080 0.545068
0.131777 0.512261 0.544793
0.362188 0.527306 0.545495
0.579248 0.558709 0.552514
0.690730 0.544671 0.507652
0.785641 0.541405 0.464057
0.879789 0.556207 0.419898
0.962066 0.597467 0.417487
0.000000 0.692134 0.610986
0.157046 0.692470 0.609979
0.377508 0.695613 0.609247
0.583215 0.701534 0.615442
0.712825 0.709499 0.614740
0.798215 0.678065 0.552148
0.879545 0.662470 0.492378
0.959625 0.679500 0.449042
0.208682 0.809049 0.667597
0.282506 0.810300 0.669703
0.434791 0.807248 0.669917
0.598779 0.805600 0.678248
0.707668 0.807706 0.677760
0.808957 0.815610 0.678981
0.887114 0.805997 0.636347
0.952300 0.782132 0.562158
0.364996 0.898100 0.735775
0.402289 0.897154 0.736477
0.505638 0.893492 0.738918
0.631342 0.888609 0.745724
0.744747 0.885527 0.760067
0.802823 0.884428 0.751461
0.880186 0.889586 0.747799
0.944915 0.886748 0.720333
0.519524 0.960571 0.805478
0.540307 0.959442 0.806058
0.600397 0.955688 0.807248
0.689967 0.949706 0.812955
0.788785 0.942596 0.830564
0.833768 0.941527 0.826780
0.881254 0.940520 0.828153
0.932860 0.941772 0.818601
0.000000 0.332280 0.624414
0.000000 0.346746 0.625116
0.266148 0.397314 0.623316
0.451637 0.441932 0.617609
0.727626 0.430915 0.664088
0.835447 0.459754 0.603540
0.903624 0.417121 0.509056
0.959350 0.527276 0.503136
0.099367 0.365362 0.631525
0.168612 0.378424 0.632868
0.312322 0.423713 0.632197
0.472755 0.475746 0.626520
0.727962 0.464485 0.668727
0.832914 0.483528 0.609613
0.900328 0.443030 0.517723
0.957885 0.540032 0.508080
0.163699 0.392187 0.639002
0.257511 0.421118 0.642603
0.396643 0.479438 0.648676
0.540734 0.559350 0.650568
0.727718 0.551629 0.680629
0.822385 0.543969 0.622827
0.886320 0.518700 0.545159
0.955901 0.570062 0.516777
0.110353 0.499672 0.658442
0.203403 0.503197 0.658198
0.376532 0.516136 0.658839
0.583825 0.603235 0.673579
0.728084 0.648005 0.697322
0.806760 0.608942 0.632105
0.871672 0.604608 0.576806
0.956054 0.617945 0.527855
0.164981 0.659907 0.691463
0.240024 0.662013 0.691432
0.398840 0.669306 0.691371
0.570642 0.686000 0.694759
0.722774 0.715938 0.706325
0.793057 0.696986 0.663539
0.872068 0.689509 0.618799
0.951141 0.697627 0.575067
0.234470 0.801450 0.739498
0.290562 0.801175 0.739071
0.424353 0.799954 0.737118
0.576684 0.800961 0.737423
0.715755 0.806180 0.742702
0.813199 0.818662 0.751247
0.878325 0.799161 0.703120
0.944976 0.785763 0.651087
0.359838 0.897002 0.790860
0.393500 0.895750 0.790158
0.491829 0.891966 0.788663
0.612757 0.887694 0.788144
0.727871 0.885283 0.791501
0.812192 0.885863 0.796872
0.882506 0.891539 0.801053
0.940032 0.885191 0.769955
0.510948 0.959747 0.839963
0.530083 0.958618 0.839689
0.588251 0.955138 0.838987
0.670405 0.951415 0.839872
0.761837 0.945495 0.843534
0.846250 0.941070 0.858152
0.884733 0.940490 0.855039
0.934081 0.942596 0.850217
0.171878 0.452857 0.754482
0.223148 0.464118 0.754726
0.346044 0.502190 0.754421
0.500389 0.573693 0.753872
0.642420 0.583703 0.753048
0.831083 0.596643 0.786801
0.908415 0.640772 0.753414
0.962341 0.613336 0.694667
0.240665 0.472297 0.754238
0.275395 0.482063 0.754513
0.376959 0.517784 0.755459
0.516197 0.584833 0.755428
0.649470 0.603479 0.755093
0.829770 0.613794 0.787930
0.906615 0.651423 0.755795
0.960967 0.621057 0.696162
0.347417 0.519554 0.759976
0.373510 0.529168 0.760494
0.448280 0.560754 0.762661
0.563867 0.622095 0.765988
0.677272 0.665370 0.768093
0.829801 0.667933 0.795712
0.902556 0.685878 0.765225
0.957610 0.646845 0.701259
0.237491 0.509148 0.759670
0.284520 0.510948 0.758511
0.447272 0.569970 0.763394
0.607233 0.659632 0.775845
0.720027 0.737362 0.787320
0.831968 0.734005 0.808438
0.896971 0.727901 0.775448
0.951507 0.687160 0.708461
0.272557 0.649592 0.777249
0.314519 0.651179 0.776822
0.426642 0.657282 0.775570
0.564111 0.670436 0.774838
0.722103 0.743771 0.790249
0.828641 0.784146 0.814633
0.884794 0.749599 0.764767
0.939269 0.736416 0.713252
0.326726 0.773922 0.799496
0.362402 0.775174 0.799771
0.459266 0.777798 0.798825
0.582757 0.783963 0.798428
0.701534 0.796170 0.801144
0.820676 0.823789 0.815976
0.873228 0.804959 0.778042
0.938933 0.799283 0.742947
0.400397 0.887175 0.841642
0.427222 0.888182 0.842679
0.504509 0.890196 0.844724
0.606775 0.887510 0.841978
0.710140 0.886595 0.839414
0.817655 0.887877 0.842802
0.888151 0.895750 0.851438
0.936706 0.881498 0.814969
0.516228 0.959411 0.881743
0.532250 0.958495 0.881224
0.582208 0.955901 0.879637
0.655482 0.952453 0.877317
0.742031 0.947570 0.874510
0.829435 0.943084 0.876890
0.890440 0.942107 0.883207
0.937133 0.944579 0.883879
0.366155 0.575586 0.852110
0.390906 0.584619 0.852689
0.462165 0.612207 0.851774
0.567590 0.662593 0.850065
0.680293 0.728603 0.846525
0.773098 0.703639 0.847440
0.896666 0.718288 0.865385
0.949981 0.758755 0.843656
0.389014 0.584375 0.850004
0.410803 0.592706 0.850523
0.476143 0.619104 0.850095
0.575128 0.667018 0.848539
0.683284 0.730678 0.845609
0.772580 0.710689 0.845975
0.894194 0.722927 0.863798
0.948028 0.759762 0.842252
0.453559 0.618067 0.852903
0.469795 0.624659 0.852903
0.523857 0.648157 0.852506
0.608850 0.691554 0.852201
0.703975 0.748592 0.851133
0.783902 0.748196 0.851865
0.894774 0.756680 0.869078
0.947204 0.782681 0.850370
0.413977 0.610163 0.854887
0.448890 0.623529 0.854368
0.556481 0.672480 0.854063
0.640467 0.717159 0.856352
0.727504 0.770138 0.858885
0.802548 0.797787 0.862242
0.896391 0.800259 0.877317
0.945708 0.809293 0.858885
0.361669 0.659083 0.858152
0.385565 0.658778 0.856901
0.459815 0.659480 0.853880
0.588830 0.693355 0.852689
0.729976 0.776120 0.859953
0.821744 0.839353 0.869505
0.895506 0.835874 0.882719
0.942687 0.831113 0.862638
0.403906 0.773281 0.869139
0.425635 0.773556 0.868620
0.492927 0.774838 0.866911
0.584863 0.777371 0.864530
0.682338 0.780331 0.861509
0.817075 0.839475 0.872160
0.898070 0.872984 0.891997
0.938872 0.847227 0.858122
0.466896 0.865293 0.884062
0.485939 0.865599 0.884062
0.541161 0.865782 0.883055
0.617945 0.866789 0.881712
0.704463 0.868864 0.879728
0.798886 0.876036 0.879789
0.891325 0.896635 0.891295
0.932738 0.881895 0.862730
0.539483 0.942931 0.910857
0.552636 0.943236 0.911162
0.596857 0.945281 0.913176
0.657862 0.948272 0.915557
0.733181 0.947631 0.914275
0.812528 0.944823 0.910643
0.890532 0.943664 0.911315
0.941588 0.947356 0.916991
0.546471 0.698817 0.918090
0.559045 0.704372 0.917876
0.596368 0.720638 0.915862
0.656306 0.750027 0.913237
0.727260 0.788846 0.909239
0.791592 0.820462 0.905241
0.857877 0.793851 0.907195
0.938659 0.800565 0.914397
0.555383 0.703517 0.917418
0.567346 0.708858 0.917205
0.603357 0.724819 0.915496
0.660548 0.752865 0.912871
0.730129 0.790921 0.909117
0.795926 0.826078 0.905028
0.857755 0.798306 0.906859
0.937865 0.803891 0.914183
0.582361 0.719875 0.917723
0.592432 0.724331 0.917449
0.623713 0.738186 0.915709
0.678645 0.765988 0.914458
0.743130 0.801236 0.911162
0.810056 0.842130 0.906889
0.861357 0.817563 0.908629
0.937469 0.820066 0.916197
0.581506 0.725460 0.920073
0.604273 0.736110 0.919615
0.645930 0.755428 0.918059
0.695735 0.780117 0.916716
0.757778 0.813931 0.914702
0.821439 0.852659 0.912230
0.868345 0.845823 0.913054
0.938018 0.844541 0.920531
0.466407 0.686030 0.925383
0.493050 0.695766 0.924987
0.570245 0.726101 0.922545
0.676509 0.775631 0.919677
0.760464 0.819913 0.917784
0.826719 0.859220 0.916991
0.876127 0.874144 0.918334
0.939269 0.871946 0.926207
0.499397 0.785519 0.929778
0.511315 0.784970 0.929168
0.550225 0.783413 0.927428
0.609674 0.780301 0.924926
0.698695 0.792020 0.921599
0.825040 0.862608 0.922087
0.893095 0.907256 0.927214
0.943175 0.902800 0.935088
0.551110 0.868681 0.937774
0.561089 0.868498 0.937438
0.594018 0.867918 0.936400
0.646571 0.867430 0.934966
0.713344 0.867247 0.932769
0.788052 0.868315 0.929625
0.888609 0.907347 0.931762
0.946288 0.929198 0.942779
0.601831 0.929870 0.946258
0.609796 0.929717 0.946014
0.637690 0.929564 0.945464
0.685054 0.929839 0.944762
0.744869 0.930632 0.943633
0.810086 0.932464 0.941955
0.876249 0.936309 0.940337
0.944457 0.948150 0.945251
