其他预设/【240】TEZZA调色预设合集24款/1.LUT预设（视频调色-PR-AE-PS-FCPX-达芬奇用）/Tezza古董__-4.cube
# Created by Adobe Lightroom plugin Export LUT (1.17.0)
# www.johnrellis.com/lightroom/exportlut.htm
# Preset: Tezza古董[素锦印象]-4
# Color profile: /Library/Application Support/Adobe/Color/Profiles/Recommended/AdobeRGB1998.icc
LUT_3D_SIZE 32
0.104891 0.063813 0.072328
0.110414 0.062501 0.072541
0.116670 0.060822 0.072389
0.132448 0.054963 0.072236
0.164889 0.026398 0.071443
0.217777 0.000000 0.069245
0.288609 0.000000 0.064668
0.374273 0.000000 0.053620
0.471199 0.000000 0.023316
0.571344 0.000000 0.000000
0.659907 0.000000 0.000000
0.729976 0.000000 0.000000
0.784634 0.000000 0.000000
0.828000 0.000000 0.000000
0.863096 0.000000 0.000000
0.893004 0.000000 0.000000
0.918975 0.000000 0.000000
0.941924 0.000000 0.000000
0.962432 0.000000 0.000000
0.990295 0.000000 0.000000
1.000000 0.000000 0.000000
1.000000 0.000000 0.000000
1.000000 0.000000 0.000000
1.000000 0.000000 0.000000
1.000000 0.000000 0.000000
1.000000 0.000000 0.000000
1.000000 0.000000 0.000000
1.000000 0.000000 0.000000
1.000000 0.000000 0.000000
1.000000 0.000000 0.000000
1.000000 0.000000 0.000000
1.000000 0.000000 0.000000
0.105806 0.066957 0.073854
0.109133 0.066438 0.073762
0.114961 0.065980 0.073182
0.130800 0.062013 0.072663
0.160678 0.045960 0.071901
0.209506 0.000000 0.069917
0.276463 0.000000 0.065339
0.358251 0.000000 0.056275
0.452766 0.000000 0.028840
0.552575 0.000000 0.000000
0.642847 0.000000 0.000000
0.715938 0.000000 0.000000
0.772641 0.000000 0.000000
0.817655 0.000000 0.000000
0.854215 0.000000 0.000000
0.884947 0.000000 0.000000
0.911650 0.000000 0.000000
0.935515 0.000000 0.000000
0.956573 0.000000 0.000000
0.984802 0.000000 0.000000
1.000000 0.000000 0.000000
1.000000 0.000000 0.000000
1.000000 0.000000 0.000000
1.000000 0.000000 0.000000
1.000000 0.000000 0.000000
1.000000 0.000000 0.000000
1.000000 0.000000 0.000000
1.000000 0.000000 0.000000
1.000000 0.000000 0.000000
1.000000 0.000000 0.000000
1.000000 0.000000 0.000000
1.000000 0.000000 0.000000
0.107088 0.071473 0.075898
0.110658 0.070527 0.075837
0.114382 0.069856 0.075380
0.126619 0.069215 0.074495
0.155703 0.062043 0.072267
0.200412 0.024353 0.070069
0.262608 0.000000 0.066255
0.340703 0.000000 0.058991
0.432532 0.000000 0.033631
0.531731 0.000000 0.000000
0.625177 0.000000 0.000000
0.701961 0.000000 0.000000
0.761410 0.000000 0.000000
0.808408 0.000000 0.000000
0.846281 0.000000 0.000000
0.878264 0.000000 0.000000
0.905699 0.000000 0.000000
0.930053 0.000000 0.000000
0.952026 0.000000 0.000000
0.980804 0.000000 0.000000
1.000000 0.000000 0.000000
1.000000 0.000000 0.000000
1.000000 0.000000 0.000000
1.000000 0.000000 0.000000
1.000000 0.000000 0.000000
1.000000 0.000000 0.000000
1.000000 0.000000 0.000000
1.000000 0.000000 0.000000
1.000000 0.000000 0.000000
1.000000 0.000000 0.000000
1.000000 0.000000 0.000000
1.000000 0.000000 0.000000
0.109987 0.081819 0.080537
0.114473 0.080751 0.080751
0.117678 0.079225 0.080110
0.125826 0.078401 0.079164
0.145480 0.077485 0.076600
0.182132 0.070680 0.072602
0.242069 0.026215 0.067475
0.314397 0.000000 0.060914
0.401984 0.000000 0.040620
0.499367 0.000000 0.000000
0.595911 0.000000 0.000000
0.677821 0.000000 0.000000
0.741634 0.000000 0.000000
0.792142 0.000000 0.000000
0.833036 0.000000 0.000000
0.866819 0.000000 0.000000
0.895659 0.000000 0.000000
0.921141 0.000000 0.000000
0.944976 0.000000 0.000000
0.973663 0.000000 0.000000
0.997955 0.000000 0.000000
1.000000 0.000000 0.000000
1.000000 0.000000 0.000000
1.000000 0.000000 0.000000
1.000000 0.000000 0.000000
1.000000 0.000000 0.000000
1.000000 0.000000 0.000000
1.000000 0.000000 0.000000
1.000000 0.000000 0.000000
1.000000 0.000000 0.000000
1.000000 0.000000 0.000000
1.000000 0.000000 0.000000
0.112367 0.099489 0.087526
0.116396 0.098451 0.086915
0.121859 0.097047 0.086824
0.127687 0.091493 0.085084
0.143130 0.092164 0.082765
0.170443 0.090730 0.078492
0.204257 0.085634 0.074739
0.274388 0.065217 0.064363
0.355352 0.000000 0.049744
0.447395 0.000000 0.013214
0.546471 0.000000 0.000000
0.636042 0.000000 0.000000
0.709133 0.000000 0.000000
0.766445 0.000000 0.000000
0.812436 0.000000 0.000000
0.850187 0.000000 0.000000
0.882353 0.000000 0.000000
0.910094 0.000000 0.000000
0.938384 0.000000 0.000000
0.966735 0.000000 0.000000
0.990936 0.000000 0.000000
1.000000 0.000000 0.000000
1.000000 0.000000 0.000000
1.000000 0.000000 0.000000
1.000000 0.000000 0.000000
1.000000 0.000000 0.000000
1.000000 0.000000 0.000000
1.000000 0.000000 0.000000
1.000000 0.000000 0.000000
1.000000 0.000000 0.000000
1.000000 0.000000 0.000000
1.000000 0.000000 0.000000
0.112825 0.128237 0.097322
0.117159 0.127016 0.096590
0.122927 0.124971 0.095338
0.132692 0.119600 0.092683
0.141939 0.108736 0.091005
0.168063 0.114229 0.087129
0.206088 0.112917 0.081422
0.244663 0.107912 0.073793
0.284672 0.096895 0.068269
0.394720 0.063050 0.025238
0.491096 0.000000 0.000000
0.588190 0.000000 0.000000
0.670802 0.000000 0.000000
0.736416 0.000000 0.000000
0.788632 0.000000 0.000000
0.830961 0.000000 0.000000
0.866392 0.000000 0.000000
0.896788 0.000000 0.000000
0.930053 0.000000 0.000000
0.958984 0.000000 0.000000
0.984070 0.000000 0.000000
1.000000 0.000000 0.000000
1.000000 0.000000 0.000000
1.000000 0.000000 0.000000
1.000000 0.000000 0.000000
1.000000 0.000000 0.000000
1.000000 0.000000 0.000000
1.000000 0.000000 0.000000
1.000000 0.000000 0.000000
1.000000 0.000000 0.000000
1.000000 0.000000 0.000000
1.000000 0.000000 0.000000
0.109316 0.180575 0.115145
0.114900 0.178408 0.113466
0.122469 0.175662 0.111513
0.138674 0.169284 0.108858
0.150362 0.155398 0.101137
0.169009 0.143954 0.100374
0.211246 0.155734 0.094514
0.266606 0.156405 0.085908
0.312444 0.150393 0.069703
0.358740 0.140108 0.057008
0.424842 0.127535 0.015381
0.556146 0.111574 0.000000
0.646754 0.080385 0.000000
0.718715 0.000000 0.000000
0.774319 0.000000 0.000000
0.818814 0.000000 0.000000
0.856168 0.000000 0.000000
0.893339 0.000000 0.000000
0.928618 0.000000 0.000000
0.959411 0.000000 0.000000
0.987121 0.000000 0.000000
1.000000 0.000000 0.000000
1.000000 0.000000 0.000000
1.000000 0.000000 0.000000
1.000000 0.000000 0.000000
1.000000 0.031067 0.000000
1.000000 0.074281 0.000000
1.000000 0.091188 0.000000
1.000000 0.105013 0.000000
1.000000 0.120516 0.000000
1.000000 0.135653 0.000000
1.000000 0.152468 0.000000
0.102205 0.232120 0.133761
0.108888 0.229801 0.131930
0.118105 0.226230 0.129458
0.136934 0.219181 0.125734
0.161715 0.206577 0.121035
0.173465 0.184360 0.112215
0.198886 0.179568 0.110201
0.252110 0.196933 0.103304
0.320989 0.202945 0.095247
0.370550 0.197330 0.070130
0.419348 0.188846 0.028962
0.464485 0.176059 0.000000
0.553979 0.173434 0.000000
0.664302 0.174441 0.000000
0.731960 0.163821 0.000000
0.784909 0.145846 0.000000
0.831144 0.128084 0.000000
0.874723 0.117067 0.000000
0.910918 0.106966 0.000000
0.942809 0.106142 0.000000
0.971862 0.114748 0.000000
0.998260 0.131228 0.000000
1.000000 0.150698 0.000000
1.000000 0.168887 0.000000
1.000000 0.183047 0.000000
1.000000 0.192538 0.000000
1.000000 0.198032 0.000000
1.000000 0.202365 0.000000
1.000000 0.207462 0.000000
1.000000 0.212619 0.000000
1.000000 0.219577 0.000000
1.000000 0.227817 0.000000
0.089082 0.292943 0.157656
0.098695 0.290379 0.155673
0.110964 0.286931 0.153475
0.134279 0.279026 0.148745
0.165377 0.266697 0.143862
0.182834 0.246403 0.130648
0.201511 0.217899 0.126864
0.236240 0.223880 0.123751
0.301061 0.247593 0.115908
0.382696 0.261631 0.108736
0.437812 0.257633 0.074800
0.486213 0.248295 0.004059
0.529870 0.237186 0.000000
0.566857 0.222080 0.000000
0.663874 0.231540 0.000000
0.747402 0.235904 0.000000
0.805875 0.236393 0.000000
0.851835 0.233158 0.000000
0.890288 0.229129 0.000000
0.924590 0.227939 0.000000
0.955535 0.231266 0.000000
0.983764 0.238407 0.000000
1.000000 0.248142 0.000000
1.000000 0.258366 0.000000
1.000000 0.266819 0.000000
1.000000 0.271733 0.000000
1.000000 0.275059 0.000000
1.000000 0.277226 0.000000
1.000000 0.279545 0.000000
1.000000 0.282170 0.000000
1.000000 0.285710 0.000000
1.000000 0.290410 0.000000
0.064210 0.360845 0.187198
0.080659 0.358038 0.185122
0.098024 0.354131 0.182254
0.128267 0.345830 0.177035
0.164340 0.332921 0.170718
0.202976 0.315038 0.165652
0.211185 0.286290 0.144686
0.231724 0.253086 0.143252
0.280125 0.274357 0.139742
0.354833 0.304509 0.131594
0.442206 0.323735 0.124758
0.504601 0.323583 0.087953
0.549554 0.312810 0.000000
0.588464 0.300023 0.000000
0.628870 0.291264 0.000000
0.674434 0.285618 0.000000
0.763851 0.301152 0.000000
0.825193 0.303929 0.000000
0.867887 0.303929 0.000000
0.905028 0.304051 0.000000
0.938048 0.305882 0.000000
0.967376 0.309972 0.000000
0.993378 0.315282 0.000000
1.000000 0.321324 0.000000
1.000000 0.326574 0.000000
1.000000 0.330541 0.000000
1.000000 0.333471 0.000000
1.000000 0.336004 0.000000
1.000000 0.338720 0.000000
1.000000 0.341527 0.000000
1.000000 0.344945 0.000000
1.000000 0.348882 0.000000
0.000000 0.427771 0.219364
0.036072 0.425269 0.217411
0.077058 0.421668 0.214603
0.117891 0.414008 0.209262
0.160891 0.401984 0.202090
0.204318 0.385473 0.195163
0.230564 0.361517 0.179202
0.246921 0.328130 0.164675
0.269444 0.299535 0.162417
0.330846 0.332433 0.159854
0.414313 0.368231 0.152651
0.505394 0.392493 0.146273
0.578668 0.402472 0.115816
0.622827 0.393072 0.039918
0.659724 0.380682 0.000000
0.690547 0.366888 0.000000
0.715846 0.350011 0.000000
0.765774 0.348821 0.000000
0.830472 0.354986 0.000000
0.877836 0.356420 0.000000
0.914641 0.359808 0.000000
0.947417 0.364324 0.000000
0.976165 0.369940 0.000000
1.000000 0.375830 0.000000
1.000000 0.381079 0.000000
1.000000 0.384619 0.000000
1.000000 0.387213 0.000000
1.000000 0.389349 0.000000
1.000000 0.391608 0.000000
1.000000 0.393957 0.000000
1.000000 0.396765 0.000000
1.000000 0.399908 0.000000
0.000000 0.498909 0.257542
0.000000 0.496956 0.255680
0.025330 0.493477 0.252873
0.104097 0.486854 0.247684
0.156344 0.476112 0.240208
0.205692 0.460731 0.231876
0.253361 0.440742 0.224918
0.260929 0.410681 0.194461
0.285954 0.372992 0.187900
0.317205 0.359319 0.185946
0.395300 0.406043 0.188693
0.494942 0.455329 0.187503
0.646296 0.545464 0.232029
0.706813 0.546319 0.215610
0.734920 0.524010 0.150820
0.758328 0.500175 0.071077
0.778683 0.477241 0.000000
0.795956 0.455085 0.000000
0.811673 0.434180 0.000000
0.863798 0.437720 0.000000
0.913115 0.439063 0.000000
0.948241 0.442603 0.000000
0.976562 0.447181 0.000000
1.000000 0.451667 0.000000
1.000000 0.455238 0.000000
1.000000 0.457679 0.000000
1.000000 0.458808 0.000000
1.000000 0.459174 0.000000
1.000000 0.459419 0.000000
1.000000 0.459785 0.000000
1.000000 0.460304 0.000000
1.000000 0.461311 0.000000
0.000000 0.587640 0.314061
0.000000 0.585473 0.312139
0.000000 0.581781 0.308934
0.103639 0.574273 0.302770
0.163516 0.562493 0.293675
0.216709 0.546960 0.283116
0.268681 0.529595 0.274357
0.306126 0.511009 0.260136
0.318181 0.483894 0.232609
0.348272 0.450263 0.229679
0.401190 0.463081 0.234684
0.495644 0.516777 0.247593
0.598566 0.566247 0.261448
0.684718 0.593896 0.278569
0.742336 0.597284 0.279545
0.766567 0.574792 0.215793
0.786465 0.549493 0.148348
0.803647 0.524895 0.057160
0.819669 0.502831 0.000000
0.834440 0.482582 0.000000
0.859251 0.471260 0.000000
0.910002 0.477089 0.000000
0.951659 0.477363 0.000000
0.979797 0.483314 0.000000
1.000000 0.488380 0.000000
1.000000 0.492103 0.000000
1.000000 0.494881 0.000000
1.000000 0.496712 0.000000
1.000000 0.498207 0.000000
1.000000 0.499916 0.000000
1.000000 0.501427 0.000000
1.000000 0.503136 0.000000
0.000000 0.647852 0.361181
0.000000 0.646723 0.359960
0.074952 0.644343 0.357977
0.133089 0.639429 0.353582
0.187900 0.631312 0.346685
0.241550 0.620356 0.338903
0.294347 0.606958 0.331365
0.345861 0.590021 0.325017
0.357519 0.567803 0.293675
0.376684 0.538781 0.273899
0.401068 0.504448 0.267216
0.468086 0.533379 0.278813
0.558190 0.579339 0.297429
0.647608 0.617945 0.316014
0.721309 0.640253 0.334600
0.770321 0.640894 0.345220
0.790280 0.616663 0.277073
0.807431 0.590906 0.210788
0.823514 0.566644 0.142794
0.839536 0.545403 0.030549
0.854520 0.526940 0.000000
0.869718 0.510857 0.000000
0.907622 0.511498 0.000000
0.950683 0.515312 0.000000
0.984131 0.517205 0.000000
1.000000 0.523186 0.000000
1.000000 0.527886 0.000000
1.000000 0.531701 0.000000
1.000000 0.535058 0.000000
1.000000 0.538293 0.000000
1.000000 0.541283 0.000000
1.000000 0.543847 0.000000
0.115633 0.701686 0.411322
0.134340 0.700649 0.410498
0.152804 0.698268 0.408453
0.187778 0.693233 0.404120
0.230625 0.685176 0.397589
0.276524 0.674617 0.389960
0.324590 0.662135 0.382666
0.372625 0.647333 0.376532
0.409888 0.629999 0.365545
0.405859 0.609125 0.324987
0.431189 0.581323 0.314672
0.449622 0.548791 0.305058
0.527794 0.589563 0.326055
0.608576 0.626429 0.348577
0.685176 0.657130 0.368719
0.748531 0.675654 0.384924
0.791928 0.676753 0.404852
0.809354 0.653407 0.337194
0.825742 0.628870 0.270787
0.841672 0.606104 0.207187
0.857694 0.585992 0.140810
0.872923 0.568750 0.079377
0.887419 0.553429 0.000000
0.906157 0.542840 0.000000
0.949950 0.550225 0.000000
0.986847 0.551873 0.000000
1.000000 0.557183 0.000000
1.000000 0.564813 0.000000
1.000000 0.571679 0.000000
1.000000 0.578027 0.000000
1.000000 0.583520 0.000000
1.000000 0.587823 0.000000
0.195193 0.740475 0.453620
0.207431 0.739864 0.453437
0.220371 0.738247 0.452338
0.246860 0.734432 0.449744
0.282383 0.728145 0.445380
0.323369 0.720089 0.440803
0.367590 0.710170 0.436408
0.413062 0.698329 0.432929
0.457404 0.683925 0.430426
0.467872 0.667353 0.405737
0.469245 0.646326 0.374334
0.485603 0.618738 0.359777
0.506584 0.598993 0.350927
0.577752 0.632166 0.373144
0.646632 0.660670 0.393408
0.711696 0.684810 0.410101
0.768154 0.701839 0.424384
0.808713 0.705470 0.453956
0.825650 0.685695 0.392981
0.842649 0.665248 0.331945
0.859586 0.645502 0.271641
0.876371 0.627710 0.212345
0.892210 0.612207 0.161105
0.906889 0.599023 0.129122
0.921935 0.587701 0.093721
0.953735 0.589868 0.000000
0.991485 0.595026 0.000000
1.000000 0.596185 0.000000
1.000000 0.605371 0.000000
1.000000 0.613306 0.000000
1.000000 0.619562 0.000000
1.000000 0.624445 0.000000
0.257359 0.768673 0.488563
0.265110 0.767697 0.487892
0.275486 0.766049 0.486885
0.296513 0.762539 0.484627
0.326238 0.757229 0.481819
0.362005 0.750271 0.478798
0.401343 0.741634 0.475776
0.441901 0.731350 0.473182
0.481209 0.719265 0.471107
0.514122 0.705226 0.466743
0.506798 0.689509 0.431769
0.514214 0.668482 0.410040
0.525170 0.642664 0.394354
0.554253 0.636683 0.392554
0.617639 0.664546 0.414221
0.677699 0.688258 0.432685
0.734401 0.708797 0.448127
0.785794 0.725368 0.461189
0.821592 0.728511 0.487098
0.840604 0.715175 0.444343
0.857145 0.697749 0.388922
0.874022 0.680323 0.331853
0.890776 0.663752 0.274022
0.907042 0.649714 0.223362
0.921813 0.638331 0.196811
0.937102 0.629145 0.172122
0.956085 0.624628 0.145510
0.994568 0.633967 0.008209
1.000000 0.636805 0.000000
1.000000 0.641962 0.000000
1.000000 0.650935 0.000000
1.000000 0.657740 0.003082
0.318334 0.793820 0.523125
0.326696 0.793637 0.523857
0.399512 0.816220 0.560906
0.414557 0.813138 0.559655
0.436347 0.808164 0.557641
0.461921 0.801572 0.554833
0.490547 0.793362 0.551904
0.520562 0.783780 0.548852
0.550652 0.772946 0.546075
0.579034 0.760616 0.543359
0.586542 0.746944 0.525719
0.577050 0.731289 0.493019
0.583581 0.709743 0.475837
0.586114 0.684382 0.455604
0.619287 0.687922 0.459876
0.671901 0.709590 0.478981
0.722042 0.728695 0.494789
0.769406 0.745602 0.507378
0.814176 0.760830 0.517632
0.844450 0.763210 0.537957
0.863554 0.754879 0.509972
0.878477 0.739956 0.461219
0.894255 0.724575 0.408667
0.910246 0.709468 0.353948
0.925811 0.695003 0.300114
0.939483 0.683742 0.272557
0.953735 0.674647 0.248417
0.969085 0.668605 0.228672
0.999145 0.674434 0.190280
1.000000 0.679316 0.101991
1.000000 0.677699 0.000000
1.000000 0.686397 0.000000
0.389685 0.821042 0.564691
0.402869 0.823148 0.569268
0.417426 0.824949 0.573816
0.437720 0.824887 0.577264
0.461707 0.822751 0.579126
0.486854 0.818143 0.578943
0.513146 0.811521 0.577386
0.539940 0.803403 0.575006
0.566888 0.794217 0.572595
0.592615 0.783719 0.569970
0.616205 0.771725 0.567010
0.608515 0.758602 0.539055
0.604456 0.741970 0.513695
0.608209 0.720821 0.496193
0.608240 0.696315 0.475837
0.648096 0.708797 0.487526
0.695277 0.727901 0.504204
0.740536 0.745174 0.518334
0.784146 0.761166 0.530663
0.826108 0.776394 0.541192
0.854398 0.779568 0.559960
0.875608 0.776608 0.545006
0.890135 0.764767 0.503075
0.905455 0.752438 0.457679
0.921202 0.739590 0.407813
0.937102 0.727871 0.359106
0.951263 0.719478 0.335607
0.966278 0.713741 0.316472
0.982483 0.711360 0.302373
1.000000 0.714870 0.287236
1.000000 0.721859 0.238071
1.000000 0.719539 0.150332
0.429541 0.837095 0.589776
0.440925 0.838865 0.593957
0.453254 0.840391 0.598016
0.470497 0.840421 0.601373
0.491371 0.838499 0.603204
0.513146 0.834562 0.603235
0.536095 0.828885 0.601953
0.559625 0.822019 0.600092
0.583795 0.814176 0.597986
0.607233 0.805295 0.595727
0.629419 0.795132 0.593072
0.638148 0.783658 0.580713
0.629053 0.770382 0.552728
0.629572 0.753140 0.533715
0.631250 0.732540 0.516228
0.631189 0.710323 0.497444
0.675471 0.729366 0.514763
0.718318 0.746700 0.529900
0.759945 0.762905 0.543481
0.800381 0.778317 0.555596
0.839200 0.792996 0.566308
0.866026 0.797330 0.583856
0.888518 0.798276 0.578790
0.902342 0.788724 0.542077
0.916808 0.778439 0.502007
0.932067 0.768063 0.458412
0.947845 0.758724 0.415595
0.962280 0.753170 0.396521
0.977752 0.750607 0.382818
0.994171 0.751125 0.374121
1.000000 0.754665 0.370520
1.000000 0.761532 0.340673
0.466194 0.852537 0.614435
0.476265 0.854032 0.618189
0.487160 0.855436 0.622034
0.502068 0.855467 0.625055
0.519738 0.853849 0.626886
0.538567 0.850431 0.626856
0.558221 0.845640 0.625727
0.578973 0.839597 0.623987
0.600366 0.832731 0.621942
0.621576 0.824949 0.619654
0.641840 0.816159 0.616999
0.660426 0.805936 0.613764
0.656184 0.794461 0.592096
0.648402 0.781155 0.566552
0.651728 0.763851 0.551965
0.652796 0.744503 0.535760
0.662715 0.733455 0.527276
0.704646 0.752163 0.545190
0.745510 0.769955 0.561822
0.785397 0.786893 0.577386
0.823697 0.803037 0.591547
0.860044 0.818204 0.604089
0.885161 0.823575 0.620478
0.908263 0.827848 0.623621
0.921508 0.820859 0.592584
0.935454 0.813626 0.559442
0.950408 0.806760 0.524346
0.965972 0.801389 0.492348
0.980591 0.799588 0.480354
0.995911 0.799924 0.472389
1.000000 0.802274 0.468269
1.000000 0.806424 0.467964
0.522515 0.875517 0.652949
0.527733 0.875914 0.654536
0.533593 0.875914 0.655756
0.543053 0.874907 0.656458
0.555749 0.872801 0.656580
0.570642 0.869444 0.655818
0.587366 0.865232 0.654749
0.605737 0.860288 0.653407
0.625086 0.854765 0.652094
0.644831 0.848539 0.650629
0.663874 0.841611 0.648951
0.681453 0.833310 0.646326
0.690455 0.823545 0.637324
0.683040 0.812497 0.614099
0.679774 0.798764 0.594293
0.681941 0.782284 0.580438
0.682277 0.764187 0.565332
0.699245 0.761807 0.564416
0.736843 0.778714 0.580529
0.773587 0.794705 0.595300
0.809110 0.809659 0.608576
0.843198 0.823697 0.620386
0.875456 0.836728 0.630610
0.897490 0.840604 0.643122
0.920226 0.845914 0.650782
0.932616 0.839841 0.622156
0.946166 0.834226 0.592798
0.960967 0.829496 0.562493
0.976257 0.826688 0.538201
0.990753 0.826780 0.530205
1.000000 0.828611 0.525902
1.000000 0.832517 0.526055
0.550713 0.889220 0.674769
0.555474 0.889647 0.676326
0.560693 0.889830 0.677638
0.569116 0.889006 0.678370
0.580072 0.887175 0.678553
0.592859 0.884184 0.677638
0.607294 0.880369 0.676387
0.623194 0.875883 0.674861
0.640436 0.870878 0.673396
0.658259 0.865385 0.671931
0.675868 0.859281 0.670192
0.692470 0.852201 0.667933
0.707332 0.843870 0.664668
0.706447 0.834379 0.648341
0.699367 0.823728 0.626032
0.700587 0.810178 0.611963
0.702846 0.794980 0.599512
0.703487 0.778531 0.586145
0.727565 0.784207 0.592798
0.762692 0.800320 0.608301
0.796933 0.815549 0.622522
0.830045 0.829831 0.635523
0.861509 0.843137 0.647089
0.891264 0.855406 0.657038
0.906706 0.853300 0.659480
0.929564 0.859953 0.671870
0.941772 0.855161 0.645808
0.955230 0.851011 0.619562
0.969909 0.847959 0.593103
0.984771 0.847135 0.575647
0.999115 0.849027 0.571710
1.000000 0.853208 0.572930
0.590723 0.908446 0.706203
0.594995 0.908995 0.707820
0.599115 0.908995 0.708736
0.605432 0.908019 0.708827
0.613855 0.906065 0.708186
0.624048 0.903227 0.706935
0.635767 0.899565 0.705104
0.648676 0.895201 0.702846
0.662776 0.890227 0.700404
0.677546 0.884825 0.697963
0.692287 0.878721 0.695003
0.706813 0.872129 0.692042
0.720363 0.864500 0.688380
0.729183 0.855558 0.681056
0.722011 0.845518 0.659754
0.715663 0.834043 0.638727
0.717708 0.819791 0.626368
0.718929 0.804868 0.613855
0.719570 0.789395 0.601587
0.749660 0.801968 0.614343
0.782986 0.817441 0.629389
0.815152 0.831846 0.643091
0.845609 0.844907 0.654932
0.874174 0.856596 0.664729
0.900877 0.866941 0.672480
0.918547 0.868864 0.680232
0.940734 0.875975 0.695766
0.952483 0.871977 0.671931
0.965515 0.868864 0.648066
0.979828 0.867063 0.624933
0.994141 0.868254 0.614710
1.000000 0.872038 0.615625
0.610468 0.919799 0.723629
0.614313 0.920317 0.725154
0.618097 0.920409 0.725978
0.623713 0.919554 0.726162
0.631312 0.917845 0.725673
0.640558 0.915465 0.724666
0.651484 0.912383 0.723354
0.663722 0.908751 0.721675
0.677119 0.904692 0.719966
0.691402 0.900267 0.718288
0.705715 0.895384 0.716365
0.720089 0.889982 0.714229
0.733639 0.883879 0.711574
0.745998 0.876677 0.708186
0.746700 0.868437 0.694942
0.740352 0.859281 0.674983
0.738674 0.848264 0.659419
0.741360 0.835721 0.648920
0.743648 0.822843 0.638758
0.748470 0.812497 0.631434
0.779507 0.827176 0.645991
0.809751 0.841001 0.659419
0.838590 0.853605 0.671290
0.865843 0.864988 0.681544
0.891508 0.875120 0.690028
0.915679 0.884123 0.696773
0.931487 0.885435 0.703182
0.951873 0.891814 0.717800
0.964446 0.890105 0.700862
0.977417 0.888548 0.680598
0.991699 0.888609 0.662074
1.000000 0.891600 0.659419
0.633295 0.932769 0.743832
0.636255 0.933043 0.744839
0.638911 0.932891 0.745205
0.643427 0.931914 0.744930
0.649714 0.930175 0.744076
0.657710 0.927886 0.742885
0.667201 0.925017 0.741360
0.678218 0.921752 0.739864
0.690608 0.918151 0.738338
0.703944 0.914366 0.736995
0.717678 0.910185 0.735470
0.731685 0.905791 0.734127
0.745144 0.900755 0.732296
0.757534 0.894835 0.729671
0.767605 0.887846 0.725368
0.762234 0.880095 0.707393
0.756313 0.871519 0.688197
0.758541 0.860960 0.677577
0.761807 0.849882 0.668605
0.764767 0.838590 0.660121
0.775631 0.835050 0.658808
0.804166 0.848264 0.671992
0.831540 0.860410 0.683803
0.857603 0.871427 0.694240
0.882231 0.881285 0.703090
0.905516 0.890043 0.710353
0.927733 0.898009 0.716335
0.942443 0.899168 0.721828
0.960571 0.904234 0.735042
0.973785 0.904448 0.724483
0.986725 0.904295 0.707546
1.000000 0.905425 0.692714
0.650477 0.943511 0.760037
0.652796 0.943572 0.760678
0.655177 0.943420 0.760952
0.659388 0.942687 0.760891
0.665736 0.941436 0.760647
0.674159 0.939910 0.760525
0.684871 0.938293 0.760861
0.697261 0.936553 0.761471
0.711116 0.934752 0.762448
0.725917 0.932830 0.763638
0.741054 0.930724 0.764858
0.756100 0.928252 0.765805
0.770474 0.925292 0.766354
0.783688 0.921508 0.765927
0.795468 0.916777 0.764492
0.798703 0.911040 0.755642
0.794400 0.904692 0.739406
0.791806 0.897520 0.724514
0.796109 0.888884 0.717250
0.800168 0.880034 0.710353
0.803922 0.870909 0.703822
0.818753 0.872496 0.706905
0.842832 0.882872 0.717433
0.865934 0.892241 0.726864
0.887877 0.900633 0.734951
0.908812 0.908141 0.741726
0.928771 0.914885 0.747402
0.947936 0.921141 0.752193
0.960693 0.921660 0.756741
0.975463 0.924651 0.767910
0.987671 0.925261 0.761776
0.999420 0.925444 0.747341
0.682368 0.960418 0.787655
0.684077 0.960357 0.787961
0.685847 0.960052 0.787930
0.689204 0.959258 0.787625
0.694392 0.958038 0.787167
0.701381 0.956451 0.786679
0.710079 0.954650 0.786252
0.720302 0.952697 0.786160
0.731838 0.950622 0.786160
0.744381 0.948333 0.786374
0.757290 0.945830 0.786496
0.770413 0.943114 0.786618
0.783169 0.940063 0.786435
0.795254 0.936492 0.785763
0.806485 0.932341 0.784512
0.816678 0.927520 0.782620
