其他预设/【240】TEZZA调色预设合集24款/1.LUT预设（视频调色-PR-AE-PS-FCPX-达芬奇用）/Tezza自然__-1.cube
# Created by Adobe Lightroom plugin Export LUT (1.17.0)
# www.johnrellis.com/lightroom/exportlut.htm
# Preset: Tezza自然[素锦印象]-1
# Color profile: /Library/Application Support/Adobe/Color/Profiles/Recommended/AdobeRGB1998.icc
LUT_3D_SIZE 8
DOMAIN_MIN 0.000000 0.000000 0.000000
DOMAIN_MAX 0.903226 0.903226 0.903226
0.104891 0.063813 0.072328
0.138979 0.061219 0.076478
0.274907 0.000000 0.079805
0.506859 0.000000 0.076265
0.704494 0.000000 0.085054
0.842130 0.000000 0.154696
0.923613 0.275486 0.265110
0.980041 0.464363 0.410773
0.115328 0.085054 0.084047
0.140627 0.089937 0.082490
0.270848 0.055665 0.074098
0.485847 0.000000 0.066072
0.686946 0.000000 0.066621
0.824338 0.000000 0.129946
0.910033 0.261662 0.235050
0.973449 0.451301 0.386603
0.131380 0.160220 0.116396
0.159457 0.176913 0.121859
0.308934 0.252873 0.115999
0.549126 0.248753 0.000000
0.711116 0.224521 0.000000
0.833219 0.266728 0.092103
0.924590 0.384039 0.239689
0.982483 0.521904 0.401251
0.154330 0.284092 0.174044
0.183169 0.303075 0.181857
0.269200 0.357580 0.189670
0.633051 0.597803 0.295995
0.818479 0.591699 0.210697
0.850431 0.471595 0.000000
0.924926 0.499428 0.196994
0.980774 0.580255 0.371038
0.183597 0.441840 0.257939
0.212863 0.455451 0.264714
0.327550 0.511131 0.300053
0.442420 0.553307 0.309422
0.763882 0.736172 0.500633
0.888182 0.750271 0.484016
0.928435 0.659663 0.262394
0.977295 0.655909 0.320653
0.228641 0.577874 0.347753
0.266453 0.598749 0.364324
0.369390 0.624903 0.391180
0.502770 0.660548 0.430396
0.619013 0.692561 0.471260
0.851072 0.829618 0.637781
0.950256 0.863249 0.665400
0.984344 0.819547 0.540887
0.344274 0.707057 0.467170
0.372717 0.712337 0.474922
0.448707 0.718563 0.490822
0.570916 0.736446 0.534936
0.636622 0.752438 0.544762
0.759823 0.804715 0.619959
0.914549 0.898253 0.733944
0.985046 0.921904 0.767178
0.531121 0.819913 0.613306
0.543481 0.820035 0.615320
0.588342 0.823575 0.626398
0.661830 0.835355 0.652827
0.713863 0.833860 0.658259
0.763851 0.850553 0.670649
0.871855 0.903593 0.747860
0.964599 0.951629 0.821195
0.116304 0.072084 0.084382
0.137606 0.065034 0.087434
0.257969 0.000000 0.084596
0.476570 0.000000 0.068605
0.680446 0.000000 0.068330
0.815061 0.000000 0.125093
0.903014 0.229679 0.225956
0.967926 0.423651 0.372717
0.119051 0.084779 0.092683
0.145052 0.093111 0.098726
0.265995 0.079500 0.089570
0.475471 0.000000 0.059419
0.675105 0.000000 0.045411
0.807309 0.000000 0.109895
0.892760 0.230961 0.205173
0.960601 0.409308 0.347692
0.135531 0.157168 0.125887
0.168276 0.176181 0.136324
0.299992 0.243198 0.149142
0.517662 0.239384 0.063081
0.689235 0.230228 0.000000
0.811093 0.254917 0.058869
0.899504 0.336919 0.192508
0.967681 0.475532 0.354131
0.159915 0.275273 0.181033
0.190311 0.295964 0.191531
0.278874 0.353643 0.206973
0.581750 0.543816 0.285618
0.769314 0.541039 0.204288
0.814664 0.434546 0.000000
0.898131 0.455451 0.141268
0.965972 0.539391 0.323095
0.190433 0.433204 0.263828
0.217136 0.444343 0.269169
0.321599 0.494209 0.299992
0.429816 0.531273 0.306645
0.737636 0.708949 0.478889
0.869047 0.728756 0.472358
0.917235 0.641993 0.234928
0.967956 0.634638 0.289250
0.225376 0.560449 0.342596
0.252567 0.569726 0.349157
0.348150 0.599664 0.375189
0.492622 0.643854 0.424353
0.602228 0.675898 0.458961
0.844114 0.822751 0.637110
0.944335 0.857908 0.665614
0.979706 0.810727 0.525780
0.315343 0.685359 0.448219
0.335149 0.685664 0.449348
0.416022 0.696681 0.467933
0.549187 0.721187 0.517998
0.627314 0.743221 0.537438
0.748165 0.793210 0.609552
0.906126 0.889433 0.724819
0.979980 0.915557 0.758663
0.505303 0.807340 0.597253
0.522148 0.809384 0.602014
0.571496 0.814084 0.615076
0.649775 0.827207 0.643671
0.726894 0.843107 0.674128
0.768276 0.854093 0.677485
0.868742 0.900664 0.745876
0.962493 0.949432 0.819028
0.139773 0.093629 0.120272
0.155795 0.102785 0.120302
0.274388 0.011261 0.151217
0.492683 0.000000 0.157839
0.694179 0.000000 0.137270
0.827115 0.139895 0.124483
0.912383 0.289891 0.234226
0.974334 0.454353 0.389563
0.148470 0.104707 0.136812
0.179355 0.125216 0.146700
0.281529 0.101350 0.162753
0.486336 0.063752 0.165072
0.690791 0.073610 0.145480
0.818692 0.182040 0.124147
0.905241 0.294499 0.216831
0.970672 0.452125 0.374945
0.153292 0.163119 0.163821
0.181765 0.179812 0.175265
0.298711 0.240665 0.214206
0.512322 0.256352 0.189242
0.706020 0.288426 0.172274
0.820218 0.316564 0.146090
0.905272 0.369055 0.195499
0.970123 0.488563 0.359838
0.162448 0.284977 0.218112
0.196139 0.308476 0.232486
0.325261 0.381933 0.280217
0.579614 0.543603 0.378027
0.751461 0.546563 0.319554
0.820401 0.473823 0.187961
0.907439 0.482673 0.155734
0.971496 0.557702 0.339330
0.188418 0.425116 0.286717
0.220890 0.442664 0.297856
0.334752 0.499825 0.338048
0.478981 0.562310 0.379461
0.739834 0.713588 0.540795
0.858427 0.735286 0.536645
0.908049 0.650538 0.325841
0.970855 0.641810 0.298589
0.225345 0.555291 0.362158
0.256352 0.566064 0.370764
0.354437 0.596246 0.398108
0.515465 0.642329 0.460639
0.600519 0.664759 0.477180
0.835019 0.814786 0.652796
0.935821 0.854429 0.684871
0.977447 0.812528 0.547234
0.318578 0.686397 0.466896
0.341161 0.688045 0.469612
0.417365 0.695979 0.483772
0.542016 0.716304 0.524376
0.635523 0.741970 0.554925
0.741665 0.784848 0.614923
0.907988 0.892821 0.745296
0.980957 0.921447 0.782803
0.494972 0.805203 0.602625
0.504967 0.804196 0.602380
0.553033 0.806973 0.612085
0.640040 0.823819 0.644953
0.723995 0.839567 0.678340
0.769955 0.854826 0.685542
0.867338 0.899504 0.751980
0.963806 0.951873 0.832578
0.182345 0.140383 0.191623
0.204959 0.156985 0.199527
0.282963 0.216312 0.215274
0.492470 0.000000 0.280186
0.693263 0.095460 0.292210
0.809476 0.267735 0.313909
0.898863 0.332921 0.299413
0.969787 0.438605 0.375586
0.206271 0.165286 0.218692
0.230869 0.183627 0.227176
0.313909 0.247501 0.241886
0.501457 0.116854 0.291691
0.693385 0.194736 0.309911
0.805447 0.297154 0.318090
0.894621 0.349798 0.300694
0.968292 0.442908 0.368017
0.197086 0.190311 0.232822
0.223331 0.204990 0.245060
0.339055 0.282841 0.294591
0.519097 0.299504 0.341222
0.695277 0.365576 0.361975
0.810483 0.414771 0.360357
0.904051 0.457252 0.352636
0.975189 0.502068 0.376532
0.199710 0.292088 0.278782
0.225956 0.308171 0.289891
0.327398 0.375158 0.337011
0.534813 0.496468 0.427558
0.696956 0.508659 0.395270
0.802640 0.521355 0.387854
0.892790 0.537743 0.372015
0.973938 0.560388 0.348730
0.190951 0.425483 0.334569
0.216587 0.436378 0.341070
0.322637 0.489052 0.377600
0.528344 0.580926 0.465156
0.726772 0.702174 0.583825
0.836149 0.723903 0.577050
0.889738 0.652064 0.426612
0.968658 0.662043 0.393225
0.219791 0.554498 0.399847
0.255680 0.573022 0.414923
0.355657 0.599908 0.438758
0.519921 0.645991 0.495644
0.640528 0.687068 0.543694
0.832303 0.814298 0.685786
0.927398 0.851835 0.710780
0.968658 0.806455 0.579828
0.302525 0.678767 0.487312
0.329564 0.683772 0.492866
0.413672 0.697292 0.510948
0.539117 0.719600 0.547723
0.671595 0.753017 0.606958
0.732601 0.773953 0.624445
0.907836 0.894591 0.768826
0.978393 0.922545 0.801266
0.494575 0.808133 0.623804
0.509270 0.809842 0.626978
0.550103 0.812741 0.633265
0.620722 0.821012 0.649989
0.709285 0.835874 0.680323
0.770840 0.856260 0.697749
0.860777 0.894408 0.756283
0.964691 0.954253 0.849851
0.248997 0.219272 0.295964
0.271519 0.237156 0.305577
0.352728 0.302586 0.329656
0.421576 0.333867 0.380804
0.689357 0.199985 0.444556
0.799435 0.337041 0.447700
0.877043 0.478737 0.498268
0.956573 0.531334 0.503960
0.270054 0.240848 0.315587
0.292515 0.259586 0.326452
0.370642 0.323278 0.351659
0.451392 0.376257 0.401953
0.688899 0.254734 0.451057
0.796963 0.378119 0.461097
0.874174 0.507378 0.513664
0.955993 0.539269 0.504997
0.249119 0.233280 0.317723
0.280003 0.257176 0.335546
0.397314 0.358862 0.393652
0.534691 0.482582 0.447730
0.682795 0.386999 0.473030
0.783200 0.470008 0.491798
0.868894 0.538476 0.518151
0.952270 0.556695 0.499702
0.250767 0.310277 0.350927
0.273808 0.323003 0.360723
0.361456 0.375158 0.400824
0.538293 0.497444 0.482673
0.678767 0.542931 0.527550
0.779110 0.577996 0.539117
0.869627 0.596826 0.533898
0.955200 0.601007 0.501610
0.243107 0.414710 0.388586
0.266484 0.428229 0.398413
0.350958 0.474281 0.431830
0.502678 0.558068 0.496925
0.675410 0.648493 0.577630
0.779782 0.653559 0.552300
0.868681 0.664332 0.546014
0.952392 0.675990 0.523339
0.222660 0.530755 0.433143
0.245335 0.538262 0.438331
0.318791 0.560784 0.453773
0.464240 0.608453 0.495766
0.639643 0.673304 0.571069
0.806516 0.788663 0.688533
0.904540 0.824613 0.703334
0.952544 0.770962 0.571374
0.264714 0.658350 0.506554
0.287327 0.660822 0.508537
0.365026 0.672663 0.519982
0.490394 0.696620 0.548699
0.631617 0.732235 0.598718
0.732082 0.770565 0.643061
0.898436 0.886381 0.779904
0.970855 0.913390 0.801846
0.441871 0.788388 0.622217
0.454200 0.788693 0.622827
0.497658 0.791318 0.627283
0.583551 0.809201 0.651942
0.669429 0.823514 0.673335
0.771725 0.849729 0.715969
0.836973 0.874998 0.743709
0.962554 0.953246 0.862028
0.343114 0.334142 0.432624
0.364141 0.351110 0.440345
0.439002 0.412634 0.464454
0.574823 0.533440 0.509422
0.602441 0.476173 0.555779
0.789792 0.401709 0.569665
0.872923 0.505241 0.582147
0.944671 0.600763 0.624018
0.349157 0.338933 0.432837
0.368902 0.355138 0.440894
0.443030 0.417334 0.468208
0.570031 0.529503 0.509545
0.603143 0.492195 0.554376
0.784787 0.421180 0.569116
0.868986 0.518822 0.585138
0.942168 0.607965 0.625818
0.347387 0.345983 0.447791
0.377478 0.370611 0.460029
0.466987 0.446418 0.495155
0.585412 0.550652 0.538476
0.635950 0.569604 0.577844
0.782406 0.503441 0.586328
0.864805 0.576165 0.608118
0.939605 0.641810 0.641321
0.312871 0.358221 0.446937
0.331640 0.366613 0.452216
0.404242 0.405890 0.478401
0.586633 0.559655 0.559655
0.695918 0.661311 0.619471
0.784848 0.611414 0.626215
0.865019 0.653132 0.645533
0.940124 0.690944 0.664424
0.302190 0.433997 0.465095
0.321569 0.443030 0.471626
0.391485 0.476020 0.494820
0.515618 0.538964 0.538140
0.666926 0.636835 0.605859
0.771267 0.678218 0.646571
0.855802 0.702022 0.659205
0.938964 0.713100 0.651972
0.290929 0.527337 0.491981
0.312078 0.537377 0.499763
0.378973 0.562249 0.517967
0.493874 0.605676 0.551568
0.623102 0.664729 0.601343
0.769314 0.750210 0.683711
0.862028 0.761715 0.669245
0.944396 0.773281 0.660670
0.303319 0.661372 0.562310
0.323766 0.666041 0.566125
0.381567 0.674220 0.572107
0.470985 0.689540 0.584344
0.594903 0.717525 0.613031
0.737545 0.771603 0.676814
0.888884 0.878386 0.795529
0.962371 0.898436 0.797574
0.416205 0.780484 0.647333
0.424292 0.780240 0.646540
0.457069 0.781765 0.646784
0.535210 0.792508 0.659236
0.625940 0.807950 0.677180
0.730770 0.834012 0.709682
0.826535 0.868437 0.751583
0.961242 0.953613 0.880034
0.458167 0.461860 0.552941
0.477089 0.477241 0.558862
0.533806 0.523186 0.573358
0.623285 0.598901 0.598322
0.704707 0.672084 0.628229
0.726131 0.580255 0.665919
0.856992 0.534356 0.665034
0.934508 0.603845 0.680781
0.458778 0.462043 0.551385
0.476661 0.476600 0.557061
0.532158 0.521660 0.572045
0.618982 0.594965 0.596246
0.708858 0.675776 0.627527
0.722042 0.586450 0.661982
0.852445 0.539483 0.661738
0.930236 0.605463 0.677729
0.459358 0.466163 0.556664
0.484901 0.486671 0.564233
0.537957 0.529778 0.579736
0.622950 0.601709 0.606561
0.715663 0.684962 0.641108
0.726802 0.628290 0.667323
0.852476 0.586969 0.674281
0.930785 0.642603 0.693996
0.373907 0.405493 0.533776
0.391485 0.415320 0.537407
0.482582 0.487098 0.565484
0.613245 0.597162 0.611566
0.712398 0.686213 0.654749
0.745235 0.690333 0.686366
0.853910 0.647333 0.692378
0.930388 0.689509 0.713893
0.367559 0.470466 0.548425
0.380621 0.474128 0.550042
0.429450 0.491218 0.558679
0.515129 0.528405 0.578607
0.678370 0.657465 0.644312
0.771176 0.744411 0.703761
0.848417 0.702968 0.709529
0.927825 0.738094 0.733059
0.366552 0.552728 0.571801
0.379980 0.556176 0.573785
0.427283 0.569207 0.581537
0.506432 0.594720 0.597742
0.611749 0.637476 0.626551
0.748623 0.726772 0.693294
0.848814 0.770657 0.741054
0.928344 0.794186 0.758022
0.377508 0.644526 0.604120
0.390936 0.647578 0.606287
0.433051 0.656031 0.611810
0.502434 0.672419 0.623438
0.596551 0.699428 0.644465
0.705501 0.749142 0.688289
0.847776 0.836149 0.777676
0.934844 0.844511 0.761379
0.439734 0.771420 0.682368
0.449165 0.772427 0.683070
0.484901 0.778439 0.688472
0.536278 0.786221 0.694575
0.600305 0.797391 0.702815
0.686976 0.817716 0.720333
0.815000 0.861387 0.771969
0.957549 0.951751 0.897887
0.606714 0.612329 0.668666
0.616571 0.620172 0.671199
0.645441 0.642695 0.676783
0.694759 0.683192 0.689601
0.755673 0.735409 0.707790
0.776669 0.749874 0.730953
0.832914 0.679133 0.772610
0.925505 0.639948 0.762142
0.604089 0.610040 0.667048
0.613977 0.618006 0.669673
0.643641 0.641260 0.676081
0.692561 0.681300 0.688808
0.753872 0.734035 0.707759
0.779263 0.753658 0.731228
0.830533 0.683040 0.770657
0.923766 0.643671 0.761166
0.598566 0.606836 0.666682
0.608118 0.614313 0.669093
0.637537 0.637232 0.675532
0.690578 0.681361 0.692470
0.752438 0.734524 0.713161
0.793484 0.771054 0.737636
0.828367 0.704433 0.771298
0.922789 0.665858 0.766079
0.533532 0.559167 0.654902
0.552117 0.573144 0.658900
0.609674 0.617121 0.671412
0.676967 0.672023 0.692287
0.744961 0.730495 0.718074
0.818143 0.796994 0.750820
0.827268 0.739803 0.775113
0.923552 0.701808 0.776730
0.484016 0.553307 0.653407
0.492958 0.555901 0.654566
0.518212 0.560327 0.655207
0.593866 0.606439 0.669306
0.715541 0.706783 0.710475
0.803220 0.785763 0.753292
0.830045 0.783505 0.783017
0.924987 0.745693 0.790951
0.495613 0.623316 0.675196
0.501061 0.623224 0.674647
0.522057 0.624567 0.674159
0.561639 0.630060 0.675990
0.621424 0.644099 0.682856
0.764767 0.753475 0.741024
0.858549 0.841825 0.808988
0.927947 0.799680 0.813077
0.527855 0.708736 0.710750
0.532830 0.708919 0.710628
0.550652 0.710201 0.710903
0.584161 0.714626 0.713466
0.632349 0.721767 0.717830
0.700557 0.738064 0.729549
0.827817 0.815610 0.788663
0.926024 0.858061 0.841245
0.557153 0.786923 0.746548
0.560540 0.786954 0.746273
0.574640 0.788327 0.746822
0.602197 0.792630 0.749538
0.642451 0.799466 0.754025
0.698756 0.811643 0.762875
0.785733 0.843626 0.791806
0.928588 0.923766 0.886351
