其他预设/【240】TEZZA调色预设合集24款/1.LUT预设（视频调色-PR-AE-PS-FCPX-达芬奇用）/Tezza自然__-9.cube
# Created by Adobe Lightroom plugin Export LUT (1.17.0)
# www.johnrellis.com/lightroom/exportlut.htm
# Preset: Tezza自然[素锦印象]-9
# Color profile: /Library/Application Support/Adobe/Color/Profiles/Recommended/AdobeRGB1998.icc
LUT_3D_SIZE 8
DOMAIN_MIN 0.000000 0.000000 0.000000
DOMAIN_MAX 0.903226 0.903226 0.903226
0.030579 0.035340 0.050355
0.173770 0.018463 0.063111
0.678309 0.000000 0.000000
0.876890 0.000000 0.000000
0.941436 0.336950 0.186343
0.962005 0.468666 0.332769
0.967864 0.563073 0.466712
0.966430 0.640864 0.580285
0.000000 0.122011 0.089448
0.133089 0.129671 0.082551
0.517967 0.076844 0.000000
0.833860 0.218265 0.000000
0.921263 0.372442 0.156100
0.953613 0.474586 0.304326
0.964843 0.562829 0.448157
0.965209 0.641718 0.572930
0.000000 0.424475 0.183352
0.000000 0.413855 0.117128
0.542321 0.463386 0.162844
0.684169 0.381872 0.000000
0.868254 0.486458 0.099428
0.933776 0.548363 0.296574
0.955291 0.618952 0.476936
0.957885 0.681178 0.603754
0.000000 0.716701 0.366674
0.000000 0.707576 0.348638
0.062928 0.681453 0.098817
0.777707 0.715816 0.437751
0.830900 0.632410 0.222843
0.894713 0.618494 0.228794
0.940063 0.664881 0.455177
0.949310 0.713436 0.608270
0.000000 0.825650 0.501579
0.000000 0.818784 0.497475
0.000000 0.804776 0.374243
0.592554 0.790860 0.344305
0.831785 0.794034 0.617395
0.872160 0.733700 0.455390
0.913573 0.701656 0.374945
0.940124 0.740810 0.580865
0.000000 0.881285 0.597009
0.255100 0.878080 0.606897
0.420569 0.864652 0.585687
0.353155 0.860502 0.414984
0.742519 0.843656 0.562554
0.862272 0.842191 0.736049
0.892210 0.811154 0.665736
0.922362 0.796353 0.644129
0.377630 0.913634 0.679744
0.447486 0.909117 0.687373
0.583886 0.894652 0.706874
0.573724 0.892485 0.646937
0.597772 0.887999 0.557366
0.814603 0.875883 0.716060
0.881163 0.872435 0.807401
0.900877 0.857877 0.780484
0.546868 0.930388 0.748196
0.583001 0.926696 0.755642
0.668299 0.916930 0.778225
0.719997 0.910521 0.787289
0.691920 0.910979 0.730587
0.763119 0.905852 0.741482
0.862028 0.898680 0.817227
0.895262 0.894591 0.859220
0.046571 0.064515 0.087678
0.200290 0.000000 0.139864
0.654566 0.000000 0.118135
0.853208 0.196414 0.170077
0.922728 0.384771 0.265537
0.949859 0.488136 0.373449
0.960723 0.573358 0.488685
0.962402 0.646052 0.591638
0.000000 0.125948 0.122042
0.145571 0.144381 0.124666
0.524102 0.143130 0.112581
0.819699 0.284337 0.143618
0.908141 0.412177 0.241794
0.943603 0.498482 0.356176
0.958099 0.573999 0.473335
0.961456 0.644800 0.581750
0.000000 0.419440 0.218509
0.000000 0.418219 0.176364
0.537896 0.461646 0.230808
0.662989 0.373053 0.063661
0.856077 0.487495 0.170016
0.924407 0.551690 0.327459
0.949371 0.613977 0.477638
0.955230 0.677180 0.601740
0.000000 0.695583 0.377264
0.000000 0.690181 0.370336
0.170657 0.668391 0.173434
0.757565 0.693996 0.438361
0.807065 0.605432 0.218936
0.879332 0.600275 0.225528
0.933745 0.652308 0.439063
0.947326 0.705715 0.598566
0.000000 0.820188 0.515892
0.000000 0.812406 0.511131
0.167514 0.796811 0.398993
0.589929 0.780117 0.360693
0.823087 0.784573 0.612268
0.863951 0.724453 0.446998
0.907439 0.692958 0.362615
0.938048 0.736202 0.575952
0.000000 0.875364 0.601099
0.259190 0.869902 0.603815
0.426612 0.856443 0.585992
0.366033 0.852659 0.424353
0.740017 0.839170 0.566217
0.860136 0.840635 0.738766
0.889952 0.808896 0.664576
0.921080 0.792050 0.635706
0.365301 0.909880 0.676265
0.425727 0.904936 0.680018
0.568872 0.890959 0.698787
0.571649 0.888426 0.645777
0.593256 0.884886 0.556420
0.812009 0.873411 0.713252
0.879179 0.869963 0.803861
0.899413 0.854093 0.772732
0.532525 0.929870 0.744625
0.572503 0.926207 0.752804
0.661738 0.916320 0.775631
0.720089 0.909209 0.787930
0.706661 0.911101 0.745968
0.766140 0.906004 0.748165
0.861479 0.898222 0.817441
0.894652 0.893919 0.858366
0.000000 0.117556 0.218021
0.140627 0.170352 0.199557
0.736385 0.037537 0.463508
0.867765 0.404395 0.455940
0.910674 0.526848 0.498817
0.930449 0.601953 0.558160
0.942321 0.658961 0.623896
0.947784 0.704219 0.680903
0.000000 0.174014 0.259922
0.207736 0.239994 0.257450
0.682490 0.285191 0.381994
0.839109 0.425727 0.405615
0.898833 0.527733 0.465553
0.926787 0.598871 0.537499
0.941131 0.655818 0.610834
0.947112 0.704280 0.675959
0.000000 0.471870 0.356268
0.161318 0.478706 0.353735
0.562127 0.493568 0.362097
0.727260 0.465339 0.267216
0.863005 0.558129 0.384253
0.914214 0.616693 0.496407
0.935576 0.669551 0.595209
0.943542 0.717067 0.674800
0.000000 0.721279 0.483619
0.122927 0.715908 0.481910
0.310277 0.686732 0.336065
0.756497 0.706142 0.533776
0.804135 0.617914 0.326268
0.881956 0.634455 0.382513
0.925292 0.688716 0.553338
0.937926 0.736721 0.668879
0.000000 0.821897 0.568444
0.234226 0.814054 0.569635
0.407996 0.796017 0.514672
0.628443 0.784176 0.476356
0.821378 0.792447 0.667109
0.858640 0.732326 0.510460
0.903349 0.700496 0.426734
0.931365 0.753719 0.636652
0.252415 0.873198 0.635492
0.368994 0.866850 0.640223
0.533043 0.850248 0.644190
0.478431 0.845609 0.512688
0.746670 0.836576 0.614710
0.856657 0.840543 0.755306
0.885466 0.809873 0.682246
0.918181 0.795834 0.657465
0.433204 0.907469 0.701106
0.485634 0.902678 0.705928
0.599847 0.889525 0.721553
0.621851 0.883574 0.687587
0.608148 0.881376 0.591455
0.814145 0.872801 0.732876
0.878752 0.872068 0.816587
0.898772 0.858427 0.788174
0.541680 0.929290 0.754360
0.572229 0.926055 0.759426
0.659602 0.916106 0.779812
0.738033 0.906920 0.803891
0.723934 0.908537 0.765682
0.767910 0.905333 0.758572
0.862211 0.898375 0.824643
0.894591 0.894926 0.863340
0.000000 0.252201 0.444160
0.238468 0.325902 0.435309
0.619898 0.080293 0.615198
0.851499 0.591699 0.704860
0.889342 0.686427 0.716670
0.910521 0.699245 0.707607
0.923674 0.727596 0.727993
0.933074 0.752743 0.752956
0.144442 0.323217 0.481361
0.318700 0.388220 0.477272
0.649592 0.266423 0.613581
0.839811 0.669093 0.723629
0.885130 0.676234 0.694972
0.907744 0.697017 0.696864
0.922545 0.726375 0.721675
0.932799 0.752377 0.749783
0.000000 0.490852 0.518700
0.305241 0.514153 0.526635
0.631586 0.568505 0.556237
0.790860 0.617762 0.591028
0.862211 0.661646 0.625360
0.898528 0.702541 0.670954
0.918608 0.740230 0.720333
0.930449 0.763699 0.752285
0.052186 0.743801 0.612909
0.325444 0.734707 0.608301
0.557977 0.710719 0.579309
0.747402 0.709865 0.612299
0.788113 0.615534 0.421271
0.876432 0.684565 0.566400
0.911833 0.734493 0.673335
0.927062 0.770718 0.739712
0.259129 0.827604 0.651331
0.383368 0.818875 0.650263
0.584741 0.796811 0.654414
0.666987 0.787228 0.596307
0.817288 0.797848 0.714748
0.850065 0.739315 0.578088
0.898619 0.730770 0.573419
0.922454 0.779477 0.712703
0.396399 0.873381 0.690913
0.477699 0.869230 0.699031
0.609766 0.852567 0.709407
0.615320 0.842985 0.643427
0.761868 0.839628 0.687526
0.854887 0.844358 0.780880
0.880980 0.814023 0.712184
0.915007 0.798245 0.680446
0.494789 0.904540 0.733272
0.539239 0.900633 0.738857
0.636042 0.889860 0.754360
0.692195 0.880735 0.753017
0.661891 0.879545 0.670192
0.818845 0.874022 0.764096
0.877867 0.874174 0.829862
0.897276 0.860685 0.800412
0.582422 0.926970 0.777646
0.609247 0.924285 0.782773
0.671687 0.917021 0.796078
0.742428 0.907530 0.815183
0.752499 0.905364 0.797574
0.766384 0.904814 0.771511
0.862333 0.898466 0.833707
0.894347 0.896086 0.869230
0.267735 0.454658 0.644160
0.411475 0.506981 0.640772
0.612512 0.616236 0.646632
0.817044 0.358801 0.756802
0.880308 0.741909 0.803799
0.894926 0.798672 0.822416
0.909178 0.795712 0.812619
0.918395 0.808591 0.821195
0.359380 0.499336 0.653742
0.465553 0.542596 0.654475
0.646571 0.651148 0.664424
0.813474 0.484260 0.752407
0.875639 0.764218 0.809781
0.893980 0.793668 0.815061
0.908385 0.795377 0.810147
0.918181 0.808438 0.819730
0.339178 0.559442 0.672877
0.454231 0.573480 0.674647
0.673365 0.681544 0.684901
0.802548 0.691127 0.753964
0.862699 0.777798 0.796445
0.888182 0.775875 0.786007
0.905608 0.790799 0.797269
0.917693 0.805631 0.811917
0.354894 0.716152 0.697597
0.456458 0.717556 0.697322
0.649439 0.732448 0.706966
0.738888 0.710262 0.671382
0.820035 0.726009 0.689082
0.872068 0.757137 0.732631
0.900816 0.784604 0.772183
0.917266 0.803952 0.799680
0.440467 0.826108 0.728450
0.508049 0.820493 0.728511
0.639857 0.805020 0.729091
0.683589 0.787381 0.680323
0.807584 0.793912 0.740169
0.834897 0.725338 0.603326
0.890898 0.767788 0.704646
0.914641 0.803372 0.775753
0.486610 0.867887 0.740078
0.533867 0.863188 0.742061
0.634852 0.849729 0.747066
0.696803 0.836301 0.735958
0.756069 0.833219 0.720607
0.849210 0.842466 0.794553
0.875303 0.809995 0.725704
0.910155 0.806210 0.728603
0.554894 0.900389 0.769162
0.584558 0.896941 0.771908
0.656916 0.887846 0.780789
0.725216 0.877836 0.791226
0.717556 0.874205 0.747219
0.815122 0.872190 0.782498
0.875425 0.874113 0.838163
0.895262 0.858915 0.805234
0.603479 0.923674 0.796780
0.624292 0.921355 0.800015
0.678126 0.914916 0.809659
0.741634 0.908171 0.825437
0.782620 0.901732 0.831144
0.764920 0.903410 0.787625
0.859190 0.897795 0.839689
0.893339 0.896208 0.872801
0.520104 0.623560 0.765469
0.584009 0.654994 0.765743
0.710384 0.733211 0.761196
0.733303 0.677729 0.794858
0.870329 0.652918 0.822568
0.893217 0.807706 0.849851
0.899840 0.855802 0.872496
0.907988 0.855619 0.869657
0.543206 0.635981 0.763516
0.593439 0.660334 0.762631
0.708034 0.731411 0.760281
0.735653 0.688197 0.790707
0.866300 0.681086 0.821012
0.890990 0.815579 0.851621
0.899382 0.853391 0.869688
0.907988 0.854124 0.867826
0.522545 0.637781 0.768734
0.594598 0.670253 0.768643
0.710750 0.738796 0.772427
0.754086 0.736355 0.792630
0.860227 0.759945 0.827359
0.886015 0.841733 0.861112
0.898253 0.847501 0.861418
0.908110 0.850919 0.862974
0.518639 0.721096 0.777340
0.566918 0.723842 0.775662
0.678462 0.739590 0.775509
0.772274 0.784573 0.794949
0.855039 0.831052 0.844114
0.878538 0.831662 0.840757
0.895445 0.839994 0.847837
0.907439 0.849393 0.857267
0.530236 0.810422 0.788113
0.575921 0.809995 0.788174
0.678859 0.812161 0.791531
0.760922 0.812619 0.794247
0.801266 0.792905 0.769375
0.849393 0.793240 0.770504
0.887327 0.822446 0.814115
0.906523 0.841123 0.840269
0.588800 0.868650 0.798001
0.620630 0.866239 0.799893
0.686732 0.858000 0.801999
0.747951 0.848203 0.803098
0.764858 0.837369 0.772946
0.845426 0.843381 0.813840
0.868925 0.798520 0.732235
0.904234 0.834043 0.809110
0.624537 0.897978 0.810391
0.646235 0.895842 0.812833
0.696437 0.889342 0.817655
0.749233 0.881529 0.823270
0.782315 0.873991 0.819852
0.809903 0.872099 0.805509
0.874083 0.876005 0.850919
0.894499 0.858885 0.816220
0.642969 0.920714 0.823972
0.658106 0.918883 0.825925
0.700069 0.913695 0.832090
0.751064 0.907530 0.841428
0.795377 0.901366 0.849943
0.801083 0.899565 0.834318
0.854368 0.897612 0.847745
0.892638 0.897063 0.878599
0.649317 0.721889 0.826017
0.677028 0.737789 0.825864
0.742550 0.778500 0.823697
0.797360 0.816739 0.827207
0.832731 0.732174 0.867338
0.890898 0.759304 0.859312
0.900786 0.841245 0.874479
0.903990 0.876768 0.891234
0.651637 0.723140 0.823697
0.677424 0.737819 0.823758
0.740566 0.777005 0.822568
0.799283 0.818143 0.825071
0.831479 0.737209 0.864561
0.888823 0.766384 0.858335
0.899657 0.843687 0.874601
0.903532 0.877684 0.891386
0.644984 0.724331 0.825986
0.681910 0.744594 0.825895
0.740352 0.779660 0.826596
0.807675 0.826200 0.830076
0.833371 0.767544 0.861723
0.884947 0.801114 0.862394
0.897215 0.858244 0.879881
0.902495 0.883726 0.894499
0.592340 0.732235 0.829557
0.619745 0.735683 0.827909
0.698573 0.757351 0.825620
0.795712 0.819577 0.835050
0.832639 0.804074 0.857145
0.881254 0.839475 0.869657
0.894530 0.875303 0.887022
0.902220 0.880705 0.890318
0.594110 0.797940 0.833860
0.619684 0.798489 0.832822
0.686336 0.801968 0.830930
0.756252 0.809049 0.830900
0.819760 0.832975 0.843259
0.875486 0.866606 0.875669
0.889891 0.866484 0.873930
0.901610 0.874388 0.881743
0.607507 0.862181 0.842252
0.631189 0.861265 0.842130
0.692561 0.860563 0.843503
0.759548 0.857969 0.844144
0.812314 0.855650 0.846128
0.838163 0.839506 0.828519
0.875090 0.847776 0.840574
0.899107 0.867918 0.868345
0.657282 0.897337 0.844388
0.674586 0.895964 0.845365
0.720333 0.892027 0.848081
0.766476 0.885893 0.850980
0.806302 0.879240 0.853025
0.812894 0.871580 0.833341
0.870939 0.875669 0.860838
0.893034 0.852689 0.822934
0.673243 0.918029 0.848447
0.685512 0.916655 0.849760
0.723140 0.912749 0.854765
0.766995 0.907561 0.860868
0.806973 0.902342 0.866911
0.837522 0.897948 0.871244
0.842618 0.897337 0.854917
0.891844 0.898222 0.885557
0.729305 0.788876 0.865995
0.742519 0.796597 0.865599
0.778866 0.817990 0.863462
0.825254 0.847776 0.862242
0.828336 0.841062 0.872465
0.880491 0.785214 0.897612
0.901884 0.822049 0.885557
0.905821 0.866178 0.892454
0.728206 0.788357 0.865385
0.741207 0.795926 0.865080
0.777584 0.817350 0.863432
0.823667 0.846769 0.862394
0.829618 0.843442 0.871794
0.879606 0.789914 0.896788
0.901152 0.825559 0.885740
0.905425 0.867582 0.892760
0.721798 0.786404 0.865537
0.735927 0.794369 0.865293
0.771878 0.814878 0.864073
0.820615 0.845762 0.865171
0.837156 0.853941 0.871916
0.877317 0.807950 0.894926
0.899107 0.838621 0.887449
0.904173 0.873594 0.894682
0.622919 0.741329 0.868467
0.654963 0.753902 0.867552
0.741665 0.799466 0.865324
0.808896 0.839536 0.867185
0.851347 0.868559 0.872557
0.873198 0.833158 0.892638
0.896483 0.855741 0.890288
0.902525 0.882261 0.897765
0.618463 0.792172 0.870665
0.638788 0.794400 0.870298
0.689143 0.799557 0.868254
0.747463 0.806943 0.865812
0.838529 0.860380 0.872648
0.863645 0.856474 0.886992
0.893675 0.871336 0.893034
0.900816 0.891539 0.901396
0.627863 0.847440 0.875334
0.644770 0.847471 0.874846
0.692012 0.847990 0.873747
0.749752 0.849638 0.872801
0.804532 0.852781 0.872526
0.862943 0.879118 0.881804
0.890776 0.886839 0.896574
0.899351 0.896910 0.902739
0.644587 0.897795 0.881468
0.659083 0.896757 0.881224
0.700404 0.893767 0.880552
0.754025 0.889860 0.880034
0.805570 0.886809 0.880644
0.846616 0.884428 0.881743
0.867948 0.875395 0.874327
0.894469 0.888518 0.890257
0.673732 0.920409 0.875303
0.685267 0.919158 0.875639
0.721004 0.915343 0.877165
0.769497 0.910307 0.880247
0.814878 0.905669 0.884398
0.845640 0.901671 0.887602
0.865537 0.898222 0.887724
0.890043 0.899351 0.894408
