其他预设/【240】TEZZA调色预设合集24款/1.LUT预设（视频调色-PR-AE-PS-FCPX-达芬奇用）/Tezza古董__-3.cube
# Created by Adobe Lightroom plugin Export LUT (1.17.0)
# www.johnrellis.com/lightroom/exportlut.htm
# Preset: Tezza古董[素锦印象]-3
# Color profile: /Library/Application Support/Adobe/Color/Profiles/Recommended/AdobeRGB1998.icc
LUT_3D_SIZE 8
DOMAIN_MIN 0.000000 0.000000 0.000000
DOMAIN_MAX 0.903226 0.903226 0.903226
0.104891 0.063813 0.072328
0.153597 0.059815 0.071504
0.399237 0.000000 0.026795
0.715145 0.000000 0.000000
0.861723 0.207767 0.000000
0.964263 0.349798 0.000000
1.000000 0.453162 0.000000
1.000000 0.533898 0.000000
0.111452 0.088746 0.083253
0.141451 0.089998 0.082124
0.312688 0.064881 0.056458
0.636927 0.078737 0.000000
0.825162 0.218021 0.000000
0.938109 0.338933 0.000000
1.000000 0.439551 0.000000
1.000000 0.528008 0.000000
0.113924 0.174228 0.113649
0.146456 0.181979 0.114260
0.319341 0.260624 0.116091
0.514336 0.222019 0.000000
0.758877 0.281712 0.000000
0.905058 0.380255 0.000000
0.999542 0.483162 0.000000
1.000000 0.562646 0.000000
0.098695 0.304387 0.162722
0.136294 0.314336 0.163821
0.245121 0.341344 0.166995
0.648768 0.609552 0.302220
0.813230 0.576226 0.175845
0.815457 0.419684 0.000000
0.955932 0.502190 0.000000
1.000000 0.580072 0.000000
0.000000 0.458747 0.231785
0.097566 0.467201 0.233249
0.259007 0.503624 0.253391
0.404791 0.516075 0.270573
0.771237 0.740261 0.500084
0.885985 0.738277 0.455207
0.897002 0.594354 0.140383
0.972992 0.589776 0.000000
0.000000 0.583337 0.301640
0.000000 0.601495 0.312108
0.239597 0.619226 0.325475
0.415534 0.639094 0.349584
0.584588 0.664668 0.424414
0.850095 0.825620 0.628962
0.944701 0.851560 0.643519
0.962890 0.767514 0.442237
0.000000 0.697780 0.385382
0.000000 0.702358 0.389105
0.237308 0.705989 0.395972
0.441657 0.715389 0.437507
0.552758 0.715572 0.452613
0.726162 0.773648 0.573022
0.905241 0.885527 0.712978
0.978210 0.908873 0.740414
0.043549 0.794614 0.477241
0.143404 0.794247 0.478035
0.292699 0.794827 0.486976
0.472541 0.797604 0.521019
0.597040 0.786954 0.544213
0.677485 0.788693 0.568200
0.829374 0.861357 0.686885
0.950469 0.933318 0.784939
0.112001 0.072389 0.087709
0.136843 0.064454 0.087190
0.339574 0.000000 0.059815
0.634791 0.047852 0.000000
0.822934 0.208591 0.000000
0.932280 0.325231 0.000000
1.000000 0.426184 0.000000
1.000000 0.514488 0.000000
0.112764 0.090974 0.096834
0.143801 0.091768 0.097658
0.298772 0.084627 0.074922
0.584192 0.108339 0.000000
0.797024 0.223209 0.000000
0.914580 0.326604 0.000000
0.990814 0.417853 0.000000
1.000000 0.506981 0.000000
0.115694 0.171023 0.125948
0.151797 0.181735 0.129824
0.302861 0.243320 0.148806
0.474952 0.207706 0.064088
0.718288 0.264195 0.000000
0.877012 0.357855 0.000000
0.973968 0.447272 0.000000
1.000000 0.536248 0.000000
0.105562 0.292699 0.171389
0.142855 0.306798 0.175784
0.249912 0.337652 0.181125
0.589563 0.547570 0.284276
0.755886 0.516625 0.168307
0.766751 0.374548 0.000000
0.926574 0.463630 0.000000
1.000000 0.552483 0.000000
0.010193 0.449500 0.239780
0.106722 0.455299 0.240085
0.252323 0.486213 0.255680
0.390784 0.493019 0.267430
0.742306 0.709987 0.473671
0.864683 0.713008 0.438605
0.884733 0.578210 0.113405
0.961791 0.571740 0.000000
0.000000 0.565911 0.299992
0.000000 0.572503 0.302251
0.223056 0.593194 0.314794
0.406195 0.621454 0.346563
0.565118 0.644800 0.410498
0.842344 0.817899 0.627314
0.937865 0.845029 0.642603
0.958160 0.757473 0.424353
0.000000 0.676478 0.373816
0.000000 0.676020 0.372534
0.209293 0.684199 0.380591
0.417212 0.700862 0.422583
0.542321 0.706996 0.445563
0.713497 0.761624 0.561700
0.896635 0.876493 0.703975
0.972503 0.901823 0.731594
0.000000 0.783047 0.467689
0.091279 0.784512 0.470161
0.267704 0.786679 0.479133
0.454810 0.791165 0.512779
0.610590 0.794247 0.560571
0.681361 0.791714 0.574762
0.825803 0.857939 0.684749
0.948028 0.930785 0.782742
0.119509 0.100252 0.147646
0.136416 0.099550 0.139559
0.267369 0.010163 0.148898
0.694270 0.000000 0.000000
0.833890 0.239139 0.000000
0.928222 0.354803 0.000000
1.000000 0.448402 0.000000
1.000000 0.529198 0.000000
0.127779 0.122194 0.167697
0.163455 0.128969 0.164126
0.274388 0.093874 0.157351
0.650202 0.115114 0.060060
0.813169 0.261784 0.000000
0.912596 0.355261 0.000000
0.994232 0.443183 0.000000
1.000000 0.527825 0.000000
0.118471 0.193393 0.185641
0.153780 0.200198 0.188205
0.287633 0.227268 0.204868
0.533623 0.253239 0.150240
0.764492 0.332616 0.000000
0.883360 0.390265 0.000000
0.972656 0.459358 0.000000
1.000000 0.542351 0.000000
0.075044 0.309483 0.221714
0.124453 0.326452 0.228244
0.281590 0.372290 0.252781
0.576165 0.535637 0.368322
0.724544 0.501274 0.266270
0.803891 0.431983 0.024720
0.930144 0.478401 0.000000
1.000000 0.563012 0.000000
0.000000 0.445075 0.272496
0.082490 0.457404 0.277714
0.251377 0.495674 0.298375
0.429999 0.529290 0.329015
0.739345 0.709682 0.531823
0.848051 0.711879 0.498604
0.871092 0.572534 0.201114
0.964416 0.577050 0.000000
0.000000 0.562646 0.326604
0.000000 0.570306 0.330571
0.218265 0.591180 0.343359
0.430396 0.622187 0.391150
0.549554 0.621881 0.417609
0.830167 0.806821 0.640070
0.926024 0.837400 0.657710
0.953857 0.755734 0.443946
0.000000 0.677607 0.397375
0.000000 0.678614 0.397406
0.194247 0.683955 0.401617
0.399634 0.697017 0.432319
0.547906 0.707149 0.464668
0.702724 0.749142 0.563775
0.896452 0.877867 0.722438
0.971984 0.905608 0.752407
0.000000 0.780179 0.478828
0.000000 0.779110 0.477302
0.218021 0.780117 0.481971
0.427008 0.788602 0.514641
0.606622 0.791470 0.568566
0.681636 0.792721 0.582544
0.821347 0.853727 0.687984
0.948638 0.932494 0.795071
0.118746 0.160220 0.265110
0.147036 0.164584 0.263615
0.229099 0.179294 0.242069
0.471748 0.000000 0.268742
0.837888 0.000000 0.161746
0.943542 0.403021 0.106050
1.000000 0.462745 0.000000
1.000000 0.520928 0.000000
0.152743 0.199832 0.295232
0.182437 0.202731 0.290867
0.261631 0.215702 0.265873
0.478004 0.096712 0.277928
0.834867 0.107088 0.193057
0.931182 0.415839 0.134524
0.992798 0.467109 0.000000
1.000000 0.522606 0.000000
0.127993 0.251865 0.307927
0.171969 0.257816 0.311528
0.311742 0.286198 0.317601
0.521172 0.255314 0.319280
0.808865 0.410437 0.274968
0.904417 0.482063 0.230869
0.984863 0.521599 0.000000
1.000000 0.549950 0.000000
0.070771 0.357305 0.327764
0.130861 0.363287 0.329686
0.269169 0.390082 0.342412
0.506706 0.462409 0.397711
0.683986 0.466804 0.331762
0.835721 0.512230 0.281437
0.940703 0.542199 0.159060
1.000000 0.566033 0.000000
0.000000 0.459785 0.344244
0.000000 0.462837 0.343755
0.208713 0.493629 0.356817
0.465949 0.556237 0.415412
0.716182 0.687922 0.565911
0.812558 0.682033 0.522118
0.858335 0.567193 0.286931
0.978820 0.599542 0.000000
0.000000 0.565515 0.378119
0.000000 0.581170 0.387793
0.183658 0.599176 0.396765
0.415625 0.630701 0.433112
0.587243 0.649317 0.484047
0.821866 0.800504 0.667872
0.910887 0.826169 0.674311
0.936889 0.733516 0.462593
0.000000 0.670527 0.429877
0.000000 0.674800 0.432013
0.140047 0.686091 0.438941
0.370855 0.702083 0.461860
0.587732 0.719051 0.527642
0.684138 0.729122 0.565240
0.892882 0.876036 0.742245
0.966308 0.902281 0.764706
0.000000 0.780819 0.507469
0.000000 0.782284 0.508202
0.133761 0.784085 0.508629
0.362310 0.787015 0.521263
0.569909 0.789090 0.565789
0.678523 0.795010 0.593683
0.808469 0.842374 0.686336
0.948333 0.933623 0.810513
0.114839 0.262516 0.425940
0.154574 0.267033 0.424811
0.255528 0.280858 0.408911
0.377020 0.260960 0.396857
0.665644 0.133577 0.421912
0.915129 0.000000 0.304387
1.000000 0.540398 0.349767
1.000000 0.586206 0.184634
0.166567 0.296422 0.442145
0.197269 0.301488 0.443458
0.284672 0.311620 0.428565
0.398352 0.302159 0.413672
0.663722 0.198154 0.426520
0.911223 0.161807 0.331975
0.999756 0.579248 0.381231
1.000000 0.592035 0.197147
0.146975 0.335332 0.462348
0.207858 0.349493 0.467231
0.345983 0.384497 0.465888
0.459419 0.414191 0.446906
0.656611 0.329747 0.438666
0.890623 0.434363 0.411780
0.979004 0.610529 0.413855
1.000000 0.602258 0.216800
0.092439 0.419806 0.462135
0.157107 0.423835 0.463661
0.303929 0.443519 0.474708
0.509239 0.493324 0.494057
0.691524 0.492653 0.494484
0.860136 0.607446 0.495125
0.946380 0.640253 0.449958
1.000000 0.623346 0.239109
0.000000 0.500084 0.453071
0.049561 0.505333 0.455787
0.240391 0.520897 0.463020
0.426551 0.552605 0.482063
0.644007 0.612329 0.541772
0.753811 0.597772 0.480568
0.889677 0.639826 0.447028
0.990784 0.651545 0.306981
0.000000 0.564355 0.442512
0.000000 0.566918 0.442939
0.101595 0.572595 0.441627
0.327428 0.598993 0.455726
0.575341 0.640925 0.514427
0.787503 0.765713 0.662043
0.874784 0.779965 0.646876
0.913451 0.671931 0.420478
0.000000 0.651698 0.468421
0.000000 0.653559 0.468086
0.000000 0.663386 0.470344
0.280400 0.682490 0.482155
0.519066 0.704891 0.522087
0.673274 0.721767 0.575463
0.878782 0.862821 0.748440
0.952483 0.884489 0.754879
0.000000 0.759670 0.527489
0.000000 0.760128 0.526452
0.000000 0.762753 0.524407
0.243442 0.776822 0.534874
0.475380 0.781582 0.554650
0.674281 0.791623 0.614282
0.772763 0.811643 0.663294
0.943755 0.930175 0.820188
0.181582 0.392279 0.578698
0.216068 0.396063 0.577203
0.309941 0.409430 0.568688
0.452766 0.459693 0.558404
0.567773 0.375830 0.553399
0.769650 0.322820 0.539635
0.963073 0.299809 0.476326
1.000000 0.569024 0.475929
0.218357 0.405341 0.573907
0.245151 0.408240 0.572534
0.329107 0.422217 0.567773
0.456458 0.463264 0.555291
0.565057 0.396033 0.549340
0.763424 0.345037 0.537499
0.958618 0.343572 0.484169
1.000000 0.593927 0.491707
0.259037 0.455055 0.594659
0.303655 0.463996 0.592889
0.399329 0.484077 0.588251
0.504234 0.513756 0.578515
0.589807 0.489174 0.566766
0.758358 0.437018 0.551263
0.951446 0.474342 0.524651
1.000000 0.676234 0.550591
0.192172 0.495521 0.592737
0.237644 0.497261 0.592035
0.367803 0.512779 0.596765
0.553368 0.574182 0.605341
0.640436 0.602960 0.600641
0.767483 0.556542 0.589685
0.943236 0.640864 0.603113
1.000000 0.758602 0.611933
0.091005 0.551293 0.570703
0.159609 0.554284 0.572015
0.298589 0.564782 0.576898
0.470985 0.586755 0.588251
0.640497 0.626642 0.606195
0.777310 0.636500 0.613581
0.919951 0.735348 0.637385
0.995636 0.752010 0.584894
0.000000 0.606500 0.550164
0.000000 0.611322 0.553491
0.208560 0.618799 0.556786
0.380560 0.631708 0.564111
0.546502 0.649683 0.576745
0.733974 0.709865 0.642145
0.830167 0.703822 0.595239
0.954650 0.744930 0.561456
0.000000 0.680110 0.555962
0.000000 0.682399 0.557061
0.000000 0.683619 0.554406
0.221897 0.685725 0.549828
0.432807 0.696254 0.555230
0.669062 0.728756 0.611353
0.860594 0.845518 0.754940
0.930327 0.849668 0.727443
0.000000 0.752804 0.575219
0.000000 0.751736 0.572869
0.000000 0.749538 0.565454
0.000000 0.759335 0.565911
0.348028 0.769162 0.570581
0.594568 0.780758 0.603815
0.748257 0.796811 0.657557
0.938506 0.926421 0.833585
0.301152 0.499031 0.670497
0.327703 0.505669 0.671565
0.398291 0.519280 0.667079
0.502525 0.550561 0.659266
0.601160 0.587549 0.644892
0.696742 0.473884 0.650050
0.833768 0.448524 0.625391
1.000000 0.386999 0.577386
0.315160 0.503380 0.664698
0.338476 0.508904 0.665492
0.403632 0.521416 0.661769
0.499886 0.547906 0.653132
0.603265 0.591913 0.637903
0.686458 0.475624 0.640375
0.825132 0.446357 0.616571
0.995270 0.386542 0.569024
0.371649 0.543542 0.674037
0.401953 0.551019 0.673274
0.451942 0.558282 0.668788
0.532738 0.578759 0.661891
0.622797 0.614649 0.648646
0.687190 0.534447 0.642512
0.823880 0.507897 0.629450
0.992828 0.495491 0.603815
0.289311 0.548974 0.680568
0.325200 0.553521 0.678584
0.440772 0.579004 0.675288
0.566064 0.617243 0.673762
0.644770 0.643549 0.666682
0.701839 0.617792 0.660029
0.822782 0.583032 0.647944
0.989776 0.600549 0.638605
0.212863 0.590875 0.662043
0.246433 0.590845 0.661006
0.347082 0.595544 0.661250
0.486610 0.611505 0.666987
0.641932 0.657862 0.671595
0.710994 0.678126 0.668208
0.817472 0.639460 0.659144
0.983398 0.705837 0.677516
0.077241 0.641566 0.646296
0.143435 0.642451 0.646540
0.267247 0.646113 0.648096
0.412573 0.654810 0.652979
0.565454 0.670405 0.662623
0.718318 0.709468 0.684932
0.839902 0.722316 0.698573
0.974914 0.824735 0.740932
0.000000 0.695888 0.635309
0.000000 0.697475 0.636286
0.142824 0.699580 0.636774
0.311711 0.703883 0.638544
0.471168 0.708888 0.641230
0.624720 0.722469 0.652338
0.800626 0.782773 0.719387
0.901183 0.781643 0.671290
0.000000 0.763760 0.643671
0.000000 0.763821 0.643061
0.000000 0.767086 0.643702
0.000000 0.767910 0.640040
0.271397 0.766079 0.631281
0.471992 0.766751 0.626062
0.720577 0.793973 0.675166
0.925811 0.915160 0.841459
0.436988 0.603388 0.746944
0.452613 0.607324 0.746975
0.492988 0.613519 0.741848
0.561639 0.631922 0.736233
0.638087 0.659144 0.726497
0.685176 0.646693 0.719020
0.796078 0.562585 0.736172
0.891752 0.538598 0.704402
0.441474 0.605341 0.743893
0.456306 0.609064 0.743984
0.496468 0.615808 0.739864
0.561303 0.631922 0.733700
0.636805 0.658350 0.724483
0.684840 0.650294 0.716609
0.790890 0.565087 0.731533
0.888212 0.540093 0.700984
0.466316 0.623407 0.744015
0.478096 0.625544 0.743557
0.511406 0.628931 0.738643
0.576715 0.647669 0.737331
0.645014 0.668910 0.728695
0.695033 0.673213 0.718379
0.784085 0.593194 0.728237
0.884947 0.566979 0.704189
0.394476 0.618280 0.747127
0.426276 0.626032 0.747311
0.514366 0.647974 0.744228
0.588830 0.666957 0.741787
0.654292 0.685084 0.736538
0.722713 0.714656 0.727382
0.777035 0.640345 0.727962
0.883268 0.611933 0.713893
0.291356 0.631189 0.741756
0.318822 0.633661 0.743038
0.393439 0.637018 0.743526
0.518822 0.659113 0.744045
0.648981 0.697169 0.741299
0.720241 0.721553 0.736385
0.771054 0.693324 0.731807
0.880980 0.663050 0.725704
0.202945 0.677272 0.731685
0.229892 0.676478 0.730953
0.309819 0.675746 0.729946
0.423896 0.678645 0.731685
0.557946 0.689418 0.738369
0.713558 0.736080 0.749050
0.787594 0.763027 0.755215
0.880278 0.720943 0.741878
0.000000 0.735286 0.729976
0.105898 0.734890 0.729610
0.223697 0.734401 0.729244
0.353155 0.735744 0.730739
0.491005 0.738827 0.733669
0.629603 0.746273 0.740475
0.780880 0.780911 0.761990
0.892119 0.785733 0.770871
0.000000 0.782284 0.720485
0.000000 0.781643 0.719783
0.000000 0.781003 0.718563
0.207034 0.781308 0.718105
0.370672 0.780850 0.716945
0.522942 0.780575 0.716152
0.674678 0.788174 0.722957
0.862272 0.849851 0.795956
