其他预设/【240】TEZZA调色预设合集24款/1.LUT预设（视频调色-PR-AE-PS-FCPX-达芬奇用）/Tezza自然__-8.cube
# Created by Adobe Lightroom plugin Export LUT (1.17.0)
# www.johnrellis.com/lightroom/exportlut.htm
# Preset: Tezza自然[素锦印象]-8
# Color profile: /Library/Application Support/Adobe/Color/Profiles/Recommended/AdobeRGB1998.icc
LUT_3D_SIZE 8
DOMAIN_MIN 0.000000 0.000000 0.000000
DOMAIN_MAX 0.903226 0.903226 0.903226
0.000000 0.000000 0.000000
0.086732 0.000000 0.013550
0.274662 0.000000 0.009796
0.500420 0.000000 0.000000
0.646662 0.000000 0.000000
0.759243 0.000000 0.000000
0.833921 0.000000 0.000000
0.895842 0.000000 0.079042
0.034882 0.087221 0.063416
0.086885 0.099153 0.053437
0.298039 0.000000 0.000732
0.507042 0.000000 0.000000
0.645991 0.000000 0.000000
0.749722 0.000000 0.000000
0.822843 0.000000 0.000000
0.887663 0.000000 0.073365
0.065614 0.315496 0.177798
0.000000 0.313573 0.169986
0.317571 0.337621 0.113283
0.593194 0.319158 0.000000
0.698634 0.185946 0.000000
0.777798 0.000000 0.000000
0.845884 0.000000 0.000000
0.900969 0.000000 0.128969
0.254978 0.563836 0.373663
0.241459 0.553521 0.364080
0.000000 0.507073 0.262333
0.598291 0.595636 0.321569
0.762387 0.589563 0.098482
0.807675 0.503563 0.000000
0.852201 0.434913 0.116915
0.896361 0.396612 0.194980
0.478828 0.695918 0.556725
0.467567 0.690608 0.548394
0.374182 0.669947 0.492592
0.210391 0.651270 0.317571
0.693751 0.692927 0.484199
0.805600 0.681392 0.317266
0.847776 0.631586 0.249485
0.887144 0.592065 0.315618
0.600702 0.758724 0.664912
0.606470 0.761959 0.670649
0.581750 0.751217 0.650294
0.404944 0.726436 0.542443
0.460639 0.730282 0.428473
0.749020 0.756893 0.611749
0.839567 0.758206 0.529717
0.876097 0.730770 0.505669
0.688167 0.808957 0.749447
0.687190 0.808743 0.748775
0.672938 0.802029 0.736263
0.613062 0.788876 0.690364
0.390204 0.764065 0.561791
0.618219 0.784360 0.566583
0.790249 0.805051 0.706996
0.853147 0.808835 0.682582
0.751858 0.843503 0.808255
0.750210 0.843015 0.807004
0.744839 0.841672 0.803067
0.731807 0.839506 0.793820
0.641993 0.826932 0.728573
0.502647 0.827817 0.629847
0.730648 0.840085 0.710353
0.828580 0.845548 0.790982
0.000000 0.040406 0.063081
0.078065 0.026825 0.078584
0.257481 0.000000 0.033936
0.491554 0.000000 0.000000
0.637385 0.000000 0.000000
0.738796 0.000000 0.000000
0.814115 0.000000 0.000000
0.879271 0.000000 0.047150
0.026856 0.096071 0.084871
0.100069 0.103731 0.094850
0.292668 0.027008 0.054841
0.510277 0.000000 0.000000
0.644648 0.000000 0.000000
0.738460 0.000000 0.000000
0.807187 0.000000 0.000000
0.870878 0.000000 0.032868
0.137942 0.299565 0.202304
0.151522 0.313359 0.217319
0.336584 0.338903 0.178744
0.576928 0.310307 0.000000
0.685481 0.215061 0.000000
0.761013 0.054841 0.000000
0.822995 0.000000 0.000000
0.882933 0.000000 0.093568
0.290257 0.546319 0.381781
0.288212 0.542412 0.380560
0.123110 0.512779 0.303655
0.571984 0.565484 0.325383
0.729580 0.552575 0.071534
0.782712 0.474708 0.000000
0.830808 0.401892 0.028077
0.881621 0.360204 0.149660
0.497292 0.690944 0.564935
0.484871 0.684749 0.555169
0.415839 0.663508 0.509270
0.225650 0.633845 0.336950
0.677974 0.674403 0.470924
0.793118 0.666224 0.296178
0.838895 0.619532 0.214664
0.880400 0.577325 0.280430
0.600000 0.752041 0.661158
0.595697 0.750088 0.657527
0.573632 0.740444 0.639490
0.423468 0.717586 0.545556
0.451820 0.721614 0.429053
0.745815 0.752590 0.612757
0.836851 0.753292 0.515343
0.873472 0.722988 0.482185
0.680262 0.801480 0.740475
0.675471 0.798947 0.736080
0.663325 0.793271 0.725460
0.613336 0.781979 0.687037
0.408728 0.758602 0.565820
0.608820 0.777218 0.558312
0.784207 0.798001 0.696529
0.849973 0.801053 0.660304
0.747433 0.840391 0.804013
0.746883 0.840360 0.803708
0.742306 0.839231 0.800351
0.731502 0.837095 0.792630
0.662501 0.832059 0.744442
0.511223 0.829313 0.640620
0.727871 0.838224 0.708034
0.826505 0.843290 0.786984
0.000000 0.088228 0.166110
0.000000 0.087221 0.152682
0.328832 0.000000 0.292210
0.536950 0.000000 0.169986
0.644617 0.000000 0.034821
0.757107 0.000000 0.000000
0.826322 0.000000 0.000000
0.888060 0.000000 0.072969
0.000000 0.135866 0.232517
0.000000 0.144259 0.221714
0.351690 0.115236 0.304723
0.512169 0.000000 0.161074
0.652430 0.000000 0.067323
0.754726 0.000000 0.000000
0.821866 0.000000 0.000000
0.884092 0.000000 0.073518
0.044892 0.356268 0.305669
0.177035 0.355962 0.314275
0.376532 0.348821 0.312352
0.568231 0.259709 0.207340
0.693477 0.206882 0.127077
0.770809 0.176211 0.000000
0.829252 0.058869 0.000000
0.885557 0.000000 0.101320
0.458289 0.572259 0.487678
0.461799 0.576379 0.492073
0.436713 0.564996 0.475319
0.605982 0.588312 0.459022
0.727260 0.551232 0.261295
0.786007 0.485023 0.150484
0.838193 0.435431 0.083253
0.886656 0.381170 0.167422
0.568505 0.697261 0.613336
0.565820 0.694942 0.610803
0.544488 0.681941 0.592340
0.349187 0.641382 0.466316
0.694331 0.688716 0.554345
0.786862 0.668513 0.402625
0.839689 0.625086 0.252415
0.882170 0.581720 0.290074
0.639826 0.756680 0.691249
0.637629 0.755123 0.689174
0.622034 0.746456 0.674952
0.537194 0.724727 0.610681
0.468635 0.717739 0.476173
0.745449 0.750607 0.639155
0.829923 0.749660 0.547265
0.874449 0.723873 0.485695
0.703609 0.806394 0.759365
0.700526 0.804654 0.756527
0.689174 0.798581 0.746181
0.660365 0.786099 0.721126
0.504662 0.761563 0.613550
0.613306 0.775540 0.581994
0.788296 0.801633 0.717403
0.852445 0.805966 0.677790
0.757839 0.841276 0.811429
0.755520 0.840482 0.809598
0.750546 0.838926 0.805783
0.744320 0.838315 0.801755
0.690639 0.831968 0.763149
0.519799 0.826108 0.660029
0.728878 0.838437 0.716854
0.828519 0.844938 0.795804
0.000000 0.142000 0.316411
0.000000 0.144930 0.314061
0.107790 0.178836 0.278080
0.594293 0.000000 0.534905
0.717311 0.000000 0.396704
0.734493 0.000000 0.202213
0.812375 0.000000 0.083619
0.880888 0.000000 0.059480
0.000000 0.202243 0.384558
0.000000 0.201816 0.374884
0.153475 0.227481 0.330449
0.601373 0.205478 0.542626
0.709590 0.000000 0.395636
0.729549 0.000000 0.194614
0.811429 0.000000 0.095216
0.879881 0.000000 0.064363
0.000000 0.368261 0.466316
0.000000 0.357946 0.469062
0.277684 0.370703 0.452979
0.614160 0.433661 0.557305
0.680354 0.222202 0.374609
0.756832 0.000000 0.236240
0.830228 0.000000 0.156252
0.890684 0.000000 0.109010
0.318334 0.608789 0.550805
0.368688 0.604425 0.552514
0.493324 0.591089 0.559747
0.604578 0.578637 0.546685
0.696834 0.510613 0.443885
0.765805 0.449409 0.338079
0.827909 0.400702 0.233158
0.888579 0.368414 0.166629
0.646418 0.711513 0.679744
0.655818 0.710292 0.684718
0.644923 0.702876 0.673121
0.599756 0.680232 0.631769
0.705287 0.698390 0.636866
0.775265 0.663813 0.505119
0.829770 0.613733 0.395026
0.884398 0.576532 0.301335
0.696956 0.770565 0.739986
0.700526 0.773617 0.744015
0.689662 0.765805 0.732967
0.663478 0.749233 0.707424
0.543755 0.719844 0.591455
0.754452 0.759152 0.692439
0.822019 0.748898 0.606226
0.873014 0.719570 0.506554
0.733730 0.811612 0.783352
0.733211 0.811460 0.782956
0.728328 0.809171 0.778775
0.712795 0.801785 0.765164
0.636011 0.778927 0.702174
0.624811 0.778408 0.625849
0.792752 0.805173 0.742794
0.851987 0.805875 0.695552
0.778317 0.844541 0.826413
0.777951 0.844572 0.826200
0.774136 0.843717 0.823453
0.765682 0.841672 0.817288
0.736904 0.835233 0.795956
0.617243 0.826200 0.714076
0.726619 0.837827 0.726833
0.830411 0.846311 0.806241
0.000000 0.213565 0.466835
0.000000 0.216922 0.465003
0.000000 0.235203 0.444343
0.268284 0.278111 0.474769
0.718044 0.348394 0.685817
0.796384 0.233310 0.588678
0.824216 0.000000 0.410407
0.869169 0.000000 0.214908
0.000000 0.260472 0.502220
0.000000 0.264591 0.500847
0.000000 0.278904 0.478614
0.306218 0.321874 0.491341
0.717098 0.402564 0.686244
0.791287 0.287114 0.588190
0.820279 0.000000 0.406195
0.870909 0.000000 0.206882
0.000000 0.358129 0.563134
0.000000 0.376715 0.564630
0.176181 0.404608 0.554772
0.413855 0.445350 0.530022
0.712673 0.519860 0.685817
0.769253 0.384161 0.572564
0.802335 0.000000 0.373541
0.871916 0.000000 0.197818
0.000000 0.599054 0.631434
0.060975 0.593408 0.630518
0.312657 0.571435 0.629847
0.536645 0.575036 0.620172
0.708614 0.621088 0.687098
0.740047 0.463508 0.537224
0.804135 0.296696 0.370245
0.877806 0.198428 0.243565
0.510399 0.713893 0.680476
0.529747 0.712154 0.681910
0.581842 0.704891 0.684260
0.646326 0.694148 0.688319
0.692195 0.680232 0.667659
0.746670 0.623560 0.584344
0.806668 0.562127 0.479744
0.873075 0.509545 0.363745
0.695155 0.764034 0.743832
0.700862 0.764401 0.746792
0.716884 0.764157 0.754971
0.713436 0.757626 0.748653
0.665431 0.729732 0.701900
0.751247 0.754055 0.720211
0.810147 0.733730 0.637018
0.864012 0.694575 0.550134
0.764248 0.815640 0.806912
0.762783 0.814786 0.805570
0.758480 0.812650 0.801846
0.749355 0.808469 0.794003
0.722988 0.795132 0.770535
0.627314 0.767941 0.669398
0.793179 0.803891 0.761990
0.846311 0.797604 0.706386
0.792630 0.843809 0.835782
0.791836 0.843534 0.835203
0.789181 0.842863 0.833219
0.787716 0.844022 0.832731
0.772641 0.839963 0.821592
0.705257 0.827970 0.772030
0.710414 0.832761 0.727565
0.829587 0.844663 0.812100
0.000000 0.302220 0.592493
0.000000 0.305303 0.590234
0.000000 0.316594 0.576013
0.212192 0.369177 0.556786
0.498360 0.416602 0.638697
0.773617 0.518334 0.763851
0.835508 0.479561 0.709377
0.878386 0.271427 0.591272
0.000000 0.329839 0.600397
0.000000 0.331579 0.597284
0.000000 0.343542 0.586877
0.237858 0.387121 0.564996
0.503807 0.436408 0.636591
0.770413 0.534630 0.760830
0.832029 0.489174 0.706508
0.875517 0.283268 0.586664
0.000000 0.429450 0.647761
0.000000 0.439948 0.646479
0.000000 0.446540 0.636439
0.345312 0.472175 0.615717
0.546014 0.520043 0.653376
0.768887 0.601221 0.763424
0.824460 0.534234 0.705592
0.869169 0.332647 0.576623
0.000000 0.555901 0.689570
0.000000 0.546624 0.687129
0.171206 0.546441 0.684962
0.475257 0.582269 0.681758
0.606500 0.617243 0.682246
0.772793 0.681453 0.774746
0.812894 0.588312 0.701656
0.861753 0.369848 0.543450
0.361608 0.712428 0.728939
0.386969 0.709682 0.728725
0.456458 0.699519 0.727260
0.538994 0.678309 0.723781
0.649775 0.676844 0.714351
0.760769 0.712367 0.762905
0.785733 0.584955 0.645502
0.856870 0.404395 0.469520
0.617182 0.772061 0.754513
0.627710 0.772580 0.756954
0.651911 0.769833 0.759030
0.684474 0.765133 0.761471
0.717647 0.757382 0.762264
0.747219 0.747219 0.747402
0.791806 0.701137 0.682948
0.853880 0.645472 0.591180
0.750423 0.815640 0.806058
0.754604 0.816648 0.808408
0.764584 0.817502 0.812955
0.780667 0.819913 0.821530
0.781125 0.817197 0.819791
0.735653 0.791623 0.779202
0.797238 0.807218 0.790951
0.843320 0.790036 0.728756
0.812863 0.847044 0.850401
0.812558 0.846891 0.850126
0.811185 0.846616 0.849149
0.809506 0.846799 0.848112
0.803250 0.845396 0.843626
0.782345 0.838590 0.827878
0.695369 0.825010 0.746792
0.830747 0.844907 0.824521
0.000000 0.386023 0.679164
0.000000 0.390600 0.679377
0.000000 0.401495 0.672633
0.102083 0.429969 0.658778
0.410986 0.488228 0.629114
0.624567 0.520073 0.731044
0.808713 0.608545 0.810391
0.858305 0.604944 0.780545
0.000000 0.402411 0.681056
0.000000 0.406226 0.680873
0.000000 0.415198 0.674372
0.132631 0.438514 0.659174
0.415045 0.492134 0.630182
0.621607 0.525383 0.726284
0.805234 0.610101 0.806546
0.855833 0.599359 0.775601
0.000000 0.475593 0.706813
0.000000 0.476448 0.705104
0.000000 0.480171 0.697932
0.247135 0.495247 0.684382
0.460761 0.533440 0.658167
0.635920 0.574640 0.731838
0.805203 0.651453 0.809628
0.853635 0.629297 0.779995
0.000000 0.529931 0.732570
0.000000 0.534752 0.730800
0.000000 0.556023 0.727565
0.365484 0.572137 0.719478
0.523033 0.593927 0.700710
0.658350 0.638361 0.741604
0.806424 0.701564 0.814939
0.849973 0.657496 0.780392
0.000000 0.676234 0.759121
0.000000 0.671107 0.757412
0.204074 0.652888 0.753048
0.356573 0.624384 0.746639
0.569299 0.650813 0.738094
0.671321 0.682734 0.741207
0.804135 0.739528 0.815671
0.842771 0.671901 0.768185
0.516869 0.777737 0.789792
0.525414 0.776272 0.789548
0.551690 0.770809 0.788449
0.588800 0.760342 0.786404
0.626612 0.738643 0.780362
0.705806 0.735134 0.772915
0.803555 0.776516 0.818479
0.830381 0.667659 0.728969
0.689357 0.819211 0.809689
0.693599 0.819272 0.810513
0.705165 0.818326 0.811887
0.723659 0.816892 0.814267
0.745876 0.813870 0.816220
0.771481 0.809354 0.818112
0.790829 0.798428 0.804959
0.831632 0.753384 0.745663
0.784390 0.843198 0.839322
0.786252 0.843442 0.840085
0.793729 0.844907 0.843656
0.804196 0.846708 0.848539
0.817227 0.849271 0.855222
0.823056 0.850462 0.858274
0.792111 0.836759 0.834104
0.832212 0.845701 0.841367
0.000000 0.482246 0.758022
0.000000 0.485328 0.757626
0.000000 0.491096 0.751858
0.055177 0.508934 0.743130
0.389105 0.541100 0.726650
0.539757 0.575647 0.728603
0.709102 0.611994 0.798825
0.836759 0.676204 0.845151
0.000000 0.490364 0.758206
0.000000 0.493202 0.757809
0.000000 0.498848 0.752712
0.088869 0.514031 0.743404
0.391882 0.544213 0.727260
0.540490 0.578729 0.726131
0.707118 0.614343 0.796353
0.835538 0.678004 0.844053
0.000000 0.525505 0.766201
0.000000 0.526879 0.765316
0.000000 0.528801 0.759548
0.185122 0.543603 0.753689
0.418677 0.566613 0.738277
0.561578 0.603998 0.724056
0.709194 0.637354 0.796048
0.834470 0.695918 0.844266
0.000000 0.556207 0.780148
0.000000 0.562249 0.779965
0.000000 0.579675 0.776181
0.259129 0.586114 0.769406
0.454627 0.601953 0.756893
0.590417 0.637476 0.735775
0.714931 0.673274 0.798276
0.834073 0.725826 0.846311
0.000000 0.631891 0.797635
0.000000 0.625910 0.797360
0.000000 0.606531 0.793545
0.151888 0.620722 0.788052
0.475959 0.641230 0.777981
0.607050 0.664881 0.761013
0.717433 0.706416 0.797757
0.833829 0.760189 0.849180
0.352605 0.759487 0.818509
0.356237 0.756527 0.817563
0.369390 0.746090 0.814878
0.386877 0.723903 0.810452
0.406165 0.676326 0.802335
0.630854 0.708736 0.794736
0.727321 0.744869 0.800412
0.835996 0.799405 0.855344
0.629358 0.831083 0.839445
0.631342 0.830228 0.839170
0.638514 0.827298 0.838468
0.652003 0.822293 0.837766
0.669368 0.813107 0.836210
0.687434 0.793576 0.832059
0.749355 0.783902 0.822843
0.836606 0.827756 0.858976
0.748592 0.852567 0.848600
0.749813 0.852323 0.848631
0.755062 0.851835 0.849241
0.765316 0.851377 0.850828
0.779294 0.850645 0.852934
0.796292 0.849607 0.855528
0.815427 0.848142 0.858305
0.828672 0.841581 0.852049
