其他预设/【240】TEZZA调色预设合集24款/1.LUT预设（视频调色-PR-AE-PS-FCPX-达芬奇用）/Tezza万事达-Gabe-Tezza.cube
# Created by Adobe Lightroom plugin Export LUT (1.17.0)
# www.johnrellis.com/lightroom/exportlut.htm
# Preset: Tezza万事达-Gabe-Tezza
# Color profile: /Library/Application Support/Adobe/Color/Profiles/Recommended/AdobeRGB1998.icc
LUT_3D_SIZE 32
0.000000 0.000000 0.000000
0.011444 0.000397 0.001831
0.030732 0.001831 0.003388
0.065309 0.005371 0.008301
0.098329 0.008301 0.014771
0.148348 0.000000 0.018982
0.213657 0.000000 0.020203
0.290349 0.000000 0.016510
0.376410 0.000000 0.007660
0.463996 0.000000 0.000000
0.546258 0.000000 0.000000
0.617090 0.000000 0.000000
0.688441 0.000000 0.000000
0.745907 0.000000 0.059815
0.783810 0.000000 0.098268
0.811246 0.000000 0.132052
0.832334 0.000000 0.165560
0.849485 0.000000 0.198856
0.863890 0.175113 0.233768
0.876738 0.251438 0.272984
0.887938 0.313329 0.314672
0.897368 0.366583 0.357916
0.904906 0.412207 0.400305
0.910948 0.452735 0.441871
0.915587 0.489754 0.482307
0.919066 0.524804 0.521721
0.921386 0.559380 0.561334
0.922026 0.571008 0.575219
0.922332 0.568811 0.574029
0.922637 0.566522 0.572900
0.923003 0.563897 0.571496
0.923369 0.561242 0.570123
0.002319 0.012329 0.005432
0.009705 0.013367 0.007294
0.031952 0.015595 0.006531
0.065583 0.022736 0.011200
0.098512 0.025666 0.017670
0.147555 0.001556 0.020966
0.211063 0.000000 0.021393
0.285618 0.000000 0.018280
0.369787 0.000000 0.010101
0.456306 0.000000 0.000000
0.538170 0.000000 0.000000
0.609277 0.000000 0.000000
0.682429 0.000000 0.000000
0.738216 0.000000 0.053620
0.775875 0.000000 0.091737
0.803677 0.000000 0.124269
0.825376 0.000000 0.156069
0.843290 0.000000 0.187991
0.858396 0.155276 0.222385
0.871977 0.235355 0.260349
0.883940 0.298466 0.301244
0.894041 0.352789 0.343908
0.902220 0.399542 0.386389
0.908812 0.441138 0.428443
0.914000 0.478950 0.469459
0.917967 0.515099 0.510002
0.920684 0.550835 0.551019
0.921843 0.572259 0.575982
0.922148 0.570031 0.574792
0.922484 0.567620 0.573510
0.922850 0.564965 0.572107
0.923247 0.562158 0.570611
0.005280 0.031403 0.015686
0.015503 0.029603 0.018799
0.028077 0.034577 0.018067
0.066499 0.043244 0.015930
0.099123 0.046174 0.021332
0.147372 0.022766 0.024689
0.208957 0.000000 0.024292
0.281407 0.000000 0.021454
0.364080 0.000000 0.012665
0.449744 0.000000 0.000488
0.531518 0.000000 0.000000
0.603265 0.000000 0.000000
0.678706 0.000000 0.000000
0.733150 0.000000 0.051911
0.770626 0.000000 0.090059
0.798703 0.000000 0.121340
0.820768 0.000000 0.151766
0.839078 0.000000 0.183413
0.854765 0.153384 0.216709
0.868894 0.232242 0.254368
0.881346 0.294896 0.294957
0.891905 0.349157 0.337896
0.900481 0.395941 0.380285
0.907408 0.437263 0.422339
0.912902 0.475227 0.463569
0.917144 0.511192 0.504173
0.920165 0.547295 0.545830
0.921660 0.573754 0.576654
0.921935 0.571496 0.575555
0.922301 0.568933 0.574090
0.922667 0.566247 0.572778
0.923064 0.563439 0.571344
0.017334 0.064271 0.039796
0.029114 0.063478 0.041840
0.040467 0.062654 0.046021
0.065400 0.068177 0.043793
0.102632 0.069245 0.028138
0.150027 0.062501 0.029877
0.209781 0.013825 0.029236
0.280430 0.000000 0.025025
0.360540 0.000000 0.016236
0.444373 0.000000 0.003998
0.525017 0.000000 0.000000
0.598657 0.000000 0.000000
0.675196 0.000000 0.002930
0.726833 0.000000 0.056062
0.763790 0.000000 0.089174
0.791989 0.000000 0.118715
0.814511 0.000000 0.148257
0.833310 0.022431 0.178744
0.849302 0.164492 0.210452
0.863767 0.234318 0.246372
0.876707 0.292851 0.285527
0.887907 0.345068 0.327489
0.897246 0.392096 0.370947
0.904997 0.434638 0.414771
0.911284 0.474159 0.458534
0.916136 0.511803 0.501640
0.919463 0.548943 0.545190
0.921141 0.577264 0.578576
0.921508 0.574640 0.577142
0.921874 0.572015 0.575799
0.922301 0.569024 0.574182
0.922698 0.566064 0.572656
0.031220 0.090394 0.064363
0.047517 0.090578 0.065400
0.059113 0.089296 0.066560
0.071473 0.089937 0.068116
0.101961 0.099275 0.065126
0.153017 0.095247 0.041993
0.207736 0.080720 0.034699
0.274846 0.036194 0.029328
0.351812 0.000000 0.020844
0.433143 0.000000 0.007752
0.512779 0.000000 0.000000
0.596429 0.000000 0.000000
0.665919 0.000000 0.011078
0.716335 0.000000 0.058991
0.754025 0.000000 0.088960
0.783810 0.000000 0.117708
0.808042 0.000000 0.147829
0.828031 0.129183 0.178378
0.844968 0.200046 0.210910
0.859892 0.256718 0.245914
0.873136 0.307805 0.284245
0.884642 0.355322 0.325566
0.894438 0.398718 0.368048
0.902678 0.439521 0.412085
0.909392 0.477852 0.456184
0.914611 0.514885 0.500008
0.918334 0.551141 0.543664
0.920378 0.582483 0.581353
0.920806 0.579553 0.579767
0.921233 0.576593 0.578149
0.921660 0.573510 0.576623
0.922118 0.570245 0.574914
0.038422 0.132326 0.083497
0.058930 0.133303 0.086122
0.067720 0.133089 0.086000
0.089662 0.131655 0.097078
0.109682 0.134127 0.090394
0.161410 0.147768 0.083223
0.221683 0.136507 0.055177
0.274357 0.109316 0.031830
0.348180 0.078523 0.022766
0.427680 0.000000 0.012024
0.514244 0.000000 0.002228
0.595209 0.000000 0.003388
0.659876 0.000000 0.026307
0.709071 0.000000 0.065888
0.746944 0.000000 0.093507
0.777432 0.014832 0.122164
0.802487 0.136599 0.151614
0.823362 0.194675 0.182101
0.841093 0.244419 0.214969
0.856718 0.291112 0.251041
0.870512 0.335607 0.290013
0.882567 0.378363 0.332250
0.906218 0.496468 0.462257
0.911467 0.527489 0.502129
0.915312 0.556878 0.539910
0.918029 0.584619 0.575555
0.918914 0.592645 0.586877
0.919371 0.589441 0.585168
0.919890 0.586053 0.583276
0.920378 0.582605 0.581384
0.920867 0.579217 0.579644
0.921355 0.575677 0.577783
0.041871 0.203952 0.119326
0.070588 0.204959 0.123171
0.085023 0.206638 0.124208
0.114656 0.208804 0.133547
0.150362 0.210117 0.145235
0.185122 0.211093 0.132998
0.260288 0.227634 0.119875
0.327977 0.205325 0.074159
0.368170 0.155215 0.021546
0.463294 0.140902 0.012055
0.552605 0.125551 0.012940
0.627283 0.123537 0.032837
0.684260 0.138064 0.067201
0.727077 0.162020 0.093721
0.759915 0.188998 0.120577
0.786313 0.217960 0.147646
0.808713 0.249454 0.176242
0.827970 0.282536 0.207431
0.845060 0.317754 0.241581
0.860716 0.356237 0.281254
0.875059 0.397101 0.326696
0.887755 0.438514 0.376562
0.898192 0.479011 0.428473
0.906279 0.517296 0.479316
0.912078 0.552483 0.526207
0.915862 0.583398 0.567346
0.917632 0.601434 0.591669
0.918181 0.597681 0.589563
0.918761 0.593805 0.587488
0.919310 0.590082 0.585504
0.919860 0.586145 0.583307
0.920439 0.582238 0.581201
0.067506 0.275303 0.158572
0.091157 0.276524 0.163180
0.108339 0.278752 0.165164
0.138888 0.283177 0.171756
0.194095 0.286931 0.203372
0.222965 0.287572 0.192630
0.267216 0.286320 0.176974
0.370703 0.319036 0.167575
0.445930 0.299229 0.113069
0.481270 0.239780 0.055238
0.544274 0.217044 0.023865
0.614405 0.220554 0.046571
0.670649 0.230045 0.072847
0.713893 0.242924 0.097719
0.747707 0.258701 0.123110
0.775357 0.276524 0.149386
0.798886 0.298497 0.177798
0.819242 0.322972 0.208316
0.837308 0.350744 0.241978
0.853819 0.382361 0.280735
0.868894 0.417151 0.325505
0.882322 0.453285 0.374395
0.893553 0.489418 0.425055
0.902403 0.524346 0.475044
0.908965 0.557061 0.521508
0.913420 0.586664 0.563104
0.916106 0.611475 0.597192
0.916777 0.607080 0.594781
0.917418 0.602777 0.592340
0.918059 0.598535 0.590082
0.918700 0.594263 0.587732
0.919341 0.589899 0.585351
0.107942 0.357305 0.208408
0.129366 0.358587 0.213382
0.146090 0.361761 0.215579
0.178225 0.367651 0.222629
0.234836 0.377630 0.249577
0.295262 0.390661 0.277287
0.339483 0.397894 0.267796
0.397162 0.401556 0.254246
0.491402 0.426093 0.237919
0.548486 0.401343 0.172366
0.573144 0.340642 0.106172
0.602594 0.291508 0.061097
0.658839 0.300633 0.080842
0.702907 0.310155 0.104646
0.737514 0.320623 0.129305
0.766049 0.333013 0.155459
0.790585 0.348516 0.183536
0.811826 0.366979 0.213809
0.830625 0.388739 0.247684
0.847837 0.414191 0.286137
0.863523 0.443000 0.329778
0.877531 0.473976 0.377874
0.889311 0.505791 0.427680
0.898772 0.536980 0.476295
0.905882 0.567010 0.522271
0.910948 0.594232 0.563104
0.914366 0.619257 0.599603
0.915221 0.617487 0.600427
0.915923 0.612757 0.597894
0.916655 0.607935 0.595239
0.917357 0.603296 0.592645
0.918059 0.598566 0.590051
0.182620 0.461585 0.283635
0.201785 0.464057 0.288945
0.218509 0.467964 0.292638
0.254795 0.476509 0.303105
0.307561 0.487556 0.324926
0.387579 0.496956 0.377356
0.416693 0.497017 0.367163
0.454292 0.495186 0.350530
0.501976 0.492256 0.332189
0.577173 0.511009 0.313481
0.619196 0.486091 0.240909
0.636866 0.430152 0.166445
0.644984 0.358495 0.091524
0.689082 0.363348 0.109468
0.726528 0.373541 0.136355
0.757534 0.384710 0.163912
0.783932 0.398077 0.193942
0.806394 0.413184 0.225803
0.825864 0.430396 0.260136
0.843320 0.450233 0.298039
0.858976 0.472724 0.339574
0.872831 0.497169 0.384222
0.884611 0.522881 0.430426
0.894347 0.548943 0.475654
0.902007 0.575036 0.519249
0.907774 0.600214 0.559869
0.912016 0.624048 0.596826
0.913481 0.628687 0.606653
0.914305 0.623407 0.603815
0.915099 0.618128 0.600793
0.915892 0.613062 0.598047
0.916625 0.608026 0.595300
0.269780 0.544915 0.360662
0.284367 0.546563 0.364874
0.299840 0.549432 0.368688
0.331609 0.555230 0.378363
0.378149 0.563317 0.397131
0.443061 0.570825 0.436530
0.490394 0.574426 0.461677
0.514000 0.572839 0.447364
0.545647 0.570001 0.430854
0.588006 0.570672 0.417182
0.639796 0.578302 0.394232
0.670405 0.552972 0.320043
0.684199 0.504814 0.239536
0.691096 0.442390 0.159335
0.714534 0.418372 0.142123
0.747005 0.427893 0.170840
0.774624 0.438270 0.200595
0.798123 0.450019 0.232486
0.818479 0.463386 0.266789
0.836728 0.479500 0.304326
0.853086 0.498299 0.345678
0.867552 0.519402 0.390112
0.880034 0.542046 0.435706
0.890379 0.565362 0.480598
0.898619 0.588861 0.523491
0.904936 0.611475 0.562982
0.909636 0.633143 0.598901
0.911650 0.640375 0.613214
0.912535 0.634638 0.610071
0.913451 0.628901 0.606775
0.914305 0.623407 0.603784
0.915129 0.618006 0.600763
0.358343 0.608545 0.435370
0.368658 0.609766 0.438392
0.381567 0.611658 0.442023
0.408057 0.615625 0.450752
0.447150 0.621302 0.467262
0.495094 0.627466 0.495247
0.551965 0.632959 0.541405
0.569238 0.632532 0.536095
0.588647 0.630976 0.523461
0.614008 0.628779 0.509697
0.650385 0.632929 0.504356
0.685512 0.632776 0.477516
0.742153 0.655909 0.488685
0.753262 0.613916 0.400885
0.760250 0.561059 0.303716
0.769741 0.515435 0.235019
0.793729 0.521416 0.267491
0.813993 0.528130 0.300389
0.831540 0.536278 0.334386
0.847288 0.547082 0.371344
0.861357 0.560052 0.409949
0.873625 0.575250 0.450141
0.884092 0.591608 0.489509
0.892790 0.609400 0.528283
0.899809 0.627466 0.564874
0.905303 0.645075 0.598169
0.908751 0.658900 0.623621
0.909789 0.652461 0.619989
0.910735 0.646235 0.616510
0.911711 0.640131 0.613031
0.912596 0.634302 0.609888
0.913512 0.628473 0.606592
0.484260 0.678828 0.540703
0.490761 0.679500 0.542901
0.498268 0.679591 0.544732
0.514855 0.680446 0.550347
0.539086 0.682063 0.560937
0.567773 0.684413 0.577264
0.605249 0.687495 0.607294
0.630732 0.689784 0.626032
0.641260 0.688899 0.617578
0.657374 0.689113 0.610468
0.678523 0.690211 0.604425
0.708675 0.698329 0.610742
0.734829 0.698177 0.589288
0.754696 0.680049 0.535027
0.767300 0.646723 0.462409
0.776608 0.603479 0.376074
0.783078 0.550774 0.279484
0.803311 0.550774 0.300633
0.822263 0.557763 0.334997
0.839017 0.566583 0.371313
0.854002 0.577691 0.410071
0.867216 0.590661 0.449744
0.878447 0.604913 0.488624
0.887938 0.620630 0.526909
0.895750 0.636774 0.563104
0.901946 0.652857 0.596460
0.906615 0.668849 0.627192
0.907836 0.664668 0.626764
0.908873 0.658045 0.623133
0.909911 0.651637 0.619501
0.910887 0.645350 0.616022
0.911833 0.639246 0.612573
0.537865 0.706355 0.588464
0.543023 0.707027 0.590600
0.548425 0.707179 0.592187
0.560571 0.707973 0.596826
0.578180 0.709346 0.604791
0.599939 0.711543 0.617182
0.627253 0.714961 0.637842
0.657588 0.719356 0.666285
0.668330 0.719875 0.666590
0.678950 0.720180 0.661311
0.693416 0.721157 0.656764
0.711147 0.722316 0.652613
0.735958 0.729824 0.660731
0.755428 0.726253 0.636652
0.770596 0.708888 0.589471
0.781064 0.678950 0.525322
0.790158 0.640375 0.445838
0.798215 0.595026 0.355291
0.812680 0.577508 0.334813
0.830686 0.585412 0.371862
0.846738 0.595117 0.410712
0.860899 0.606622 0.450507
0.873014 0.619440 0.489723
0.883330 0.633661 0.528313
0.891875 0.648402 0.564599
0.898772 0.663111 0.597894
0.904082 0.677943 0.628687
0.905852 0.676905 0.633478
0.906981 0.670008 0.629725
0.908049 0.663203 0.625971
0.909087 0.656641 0.622278
0.910124 0.650233 0.618708
0.583185 0.731563 0.631708
0.587304 0.732326 0.633753
0.591150 0.732448 0.635004
0.600000 0.733150 0.638514
0.613001 0.734310 0.644556
0.629328 0.736172 0.653742
0.649042 0.739406 0.667628
0.674434 0.743130 0.690486
0.694026 0.746883 0.707759
0.700862 0.747189 0.703639
0.710750 0.748074 0.700252
0.723293 0.749142 0.697108
0.737728 0.749660 0.693111
0.758053 0.755795 0.701167
0.772457 0.749660 0.675288
0.783993 0.732631 0.632746
0.792538 0.706233 0.578576
0.801297 0.672694 0.509728
0.810636 0.633783 0.429358
0.822629 0.603662 0.372686
0.839597 0.612177 0.411414
0.854582 0.622248 0.451331
0.867521 0.633570 0.490425
0.878569 0.646479 0.529412
0.887907 0.660060 0.566033
0.895628 0.674037 0.600092
0.901640 0.688502 0.632074
0.903960 0.689113 0.640101
0.905089 0.681880 0.636194
0.906218 0.674861 0.632380
0.907286 0.668025 0.628626
0.908354 0.661311 0.624872
0.619867 0.753841 0.668696
0.623377 0.754726 0.670741
0.626795 0.755245 0.672328
0.634424 0.756435 0.676112
0.645472 0.758236 0.682063
0.659632 0.760769 0.690883
0.676020 0.764218 0.702693
0.695857 0.768276 0.719722
0.717281 0.772915 0.740383
0.726131 0.774350 0.743893
0.731777 0.774136 0.740108
0.739223 0.773831 0.736019
0.748165 0.772946 0.731044
0.758694 0.771328 0.724971
0.774777 0.775235 0.731014
0.785153 0.767056 0.703761
0.794430 0.751125 0.665705
0.802121 0.728634 0.620691
0.810697 0.700771 0.565362
0.821256 0.668696 0.499245
0.833768 0.633356 0.423590
0.849577 0.640162 0.457435
0.863401 0.650996 0.497871
0.875181 0.663081 0.537560
0.885161 0.675715 0.574395
0.893462 0.688777 0.608515
0.899779 0.702083 0.640162
0.902037 0.701228 0.646601
0.903197 0.693721 0.642634
0.904356 0.686427 0.638727
0.905516 0.679316 0.634791
0.906584 0.672389 0.631006
0.648463 0.771908 0.698238
0.650721 0.772366 0.699397
0.653376 0.772702 0.700649
0.659388 0.773770 0.703792
0.668544 0.775418 0.708919
0.680079 0.777707 0.716152
0.693721 0.780758 0.725795
0.709010 0.784451 0.737972
0.727687 0.788266 0.755093
0.743404 0.792050 0.769497
0.747250 0.791958 0.766567
0.752438 0.791745 0.763455
0.758877 0.791196 0.759731
0.766384 0.789944 0.754971
0.775021 0.787869 0.748928
0.788510 0.790890 0.754543
0.796262 0.782101 0.728023
0.804013 0.767666 0.694636
0.811124 0.748470 0.656916
0.819394 0.725490 0.612543
0.829923 0.699092 0.560113
0.843259 0.669368 0.497292
0.857908 0.664363 0.498268
0.870603 0.675715 0.538689
0.881407 0.687678 0.576410
0.890410 0.699916 0.611017
0.897398 0.712581 0.643214
0.900175 0.713161 0.652796
0.901366 0.705440 0.648859
0.902556 0.697902 0.644892
0.903685 0.690608 0.640986
0.904845 0.683436 0.637110
0.674769 0.788937 0.725765
0.677272 0.789731 0.727443
0.702998 0.805295 0.752926
0.707301 0.806058 0.755215
0.713619 0.807156 0.758694
0.721553 0.808560 0.763424
0.731106 0.810361 0.769589
0.741848 0.812619 0.777310
0.755093 0.815152 0.788083
0.769284 0.817990 0.800504
0.775875 0.818845 0.803922
0.778225 0.817929 0.800656
0.781308 0.816617 0.796719
0.785367 0.814908 0.792264
0.790372 0.812711 0.786954
0.796414 0.809934 0.780789
0.806577 0.811429 0.784390
0.811704 0.802518 0.760403
0.817563 0.789609 0.732143
0.823758 0.773587 0.701442
0.831540 0.754574 0.665766
0.841764 0.733425 0.625574
0.854978 0.709743 0.578302
0.869596 0.696101 0.555261
0.880156 0.705623 0.589654
0.888853 0.715328 0.621088
0.895659 0.725521 0.650477
0.898405 0.724849 0.658778
0.899626 0.716884 0.654749
0.900755 0.709194 0.650843
0.901946 0.701686 0.646845
0.903105 0.694362 0.642939
0.702541 0.807065 0.754574
0.706783 0.809079 0.758206
0.711391 0.811185 0.762020
0.717586 0.813443 0.766476
0.724819 0.815610 0.771389
0.732723 0.817502 0.776394
0.741329 0.819333 0.781949
0.750851 0.821378 0.788479
0.761654 0.823758 0.796658
0.774380 0.826078 0.807248
0.786496 0.828672 0.817899
0.788022 0.827970 0.815244
0.790005 0.826871 0.812070
0.792630 0.825467 0.808347
0.795987 0.823606 0.803952
0.800229 0.821317 0.798856
0.805478 0.818631 0.793149
0.814145 0.819638 0.795773
0.818631 0.811582 0.774716
0.824002 0.800534 0.750576
0.830076 0.787228 0.725154
0.838010 0.772030 0.696895
0.848264 0.755062 0.665095
0.861234 0.736324 0.629023
0.876768 0.717159 0.591363
0.886168 0.726589 0.623926
0.893614 0.736324 0.654108
0.896696 0.736263 0.664424
0.897887 0.728176 0.660487
0.899077 0.720272 0.656458
0.900237 0.712642 0.652644
0.901396 0.705165 0.648737
0.718532 0.817807 0.771145
0.722377 0.819364 0.774289
0.726223 0.821103 0.777401
0.731350 0.822934 0.781033
0.737606 0.824735 0.785183
0.744350 0.826352 0.789303
0.751888 0.827909 0.794034
0.760220 0.829648 0.799527
0.769375 0.831693 0.806058
0.780209 0.833707 0.814542
0.791379 0.835874 0.823880
0.797879 0.836912 0.828214
0.799069 0.836057 0.825589
0.800778 0.834928 0.822599
0.802976 0.833463 0.818997
0.805814 0.831632 0.814908
0.809476 0.829496 0.810300
0.814298 0.827268 0.805478
0.821592 0.827756 0.807248
0.825559 0.820737 0.789090
0.830503 0.811276 0.768582
0.836545 0.800565 0.747982
0.844358 0.788418 0.725521
0.854337 0.774899 0.700496
0.866789 0.759792 0.672145
0.882078 0.742977 0.639612
0.891569 0.746731 0.657099
0.895140 0.747463 0.669673
0.896269 0.739193 0.665797
0.897429 0.731197 0.661982
0.898619 0.723384 0.658015
0.899779 0.715785 0.654170
0.733364 0.827604 0.786130
0.736599 0.828855 0.788754
0.740230 0.830228 0.791531
0.744625 0.831724 0.794583
0.749966 0.833219 0.798001
0.755795 0.834501 0.801450
0.762203 0.835752 0.805356
0.769406 0.837125 0.809873
0.777340 0.838743 0.815213
0.786007 0.840482 0.821530
0.795956 0.842161 0.829496
0.805325 0.843900 0.837308
0.807401 0.843595 0.836851
0.808438 0.842741 0.834409
0.809964 0.841672 0.831662
0.812100 0.840452 0.828641
0.814969 0.839170 0.825467
0.818753 0.837797 0.822171
0.824094 0.837064 0.819821
0.829984 0.837217 0.821073
0.833829 0.831815 0.806729
0.838712 0.824582 0.790677
0.844694 0.816434 0.774807
0.852506 0.807736 0.758572
0.862364 0.798245 0.741115
0.874296 0.787869 0.722225
0.888182 0.776272 0.701472
0.893645 0.758328 0.674617
0.894743 0.749966 0.670863
0.895903 0.741848 0.667018
0.897032 0.733944 0.663294
0.898161 0.726375 0.659602
0.754025 0.840208 0.805966
0.755947 0.840726 0.807279
0.758053 0.841184 0.808743
0.761074 0.841794 0.810513
0.764858 0.842557 0.812650
0.769467 0.843351 0.815152
0.774838 0.844266 0.818235
0.781033 0.845365 0.822019
0.787961 0.846708 0.826505
0.795377 0.848173 0.831662
0.803738 0.849577 0.837980
0.812039 0.850919 0.844633
0.817960 0.851774 0.849088
0.818448 0.851133 0.847196
0.819272 0.850340 0.845029
0.820493 0.849393 0.842618
0.822293 0.848325 0.840055
0.824704 0.847227 0.837339
0.827909 0.846098 0.834592
0.832609 0.845731 0.833066
0.836606 0.844877 0.832700
0.839811 0.839994 0.820066
0.844083 0.833738 0.806119
0.849546 0.826780 0.792355
0.856931 0.819852 0.779232
0.866178 0.812619 0.765927
0.877104 0.805051 0.752590
0.885649 0.783444 0.714412
0.893370 0.760494 0.675532
0.894469 0.752285 0.671901
0.895537 0.744381 0.668269
0.896605 0.736904 0.664668
0.765835 0.847196 0.816983
0.767483 0.847593 0.818143
0.769436 0.847990 0.819425
0.772549 0.848447 0.821286
0.775753 0.848997 0.823026
0.779599 0.849546 0.825040
0.784115 0.850156 0.827481
0.789273 0.850919 0.830472
0.795163 0.851865 0.834073
0.801480 0.852934 0.838254
0.808133 0.854063 0.842985
0.815518 0.855009 0.848661
0.822202 0.855985 0.854032
0.824857 0.856046 0.855192
0.825345 0.855497 0.853544
0.826139 0.854856 0.851713
0.827359 0.854124 0.849729
0.829038 0.853361 0.847684
0.831296 0.852567 0.845579
0.834195 0.851713 0.843412
0.838529 0.851774 0.842832
0.841489 0.850645 0.841978
0.844480 0.846799 0.831540
0.848600 0.841947 0.820249
0.852842 0.834440 0.805509
0.859922 0.829191 0.795224
0.868559 0.823941 0.785550
0.875700 0.809903 0.761044
0.883696 0.788754 0.723842
0.893095 0.762570 0.676509
0.894133 0.754665 0.672969
0.895109 0.747341 0.669703
0.781308 0.855222 0.830625
0.782803 0.855558 0.831662
0.784298 0.855802 0.832578
0.786801 0.855924 0.833982
0.789487 0.856138 0.835325
0.792386 0.856382 0.836728
0.795804 0.856626 0.838437
0.799802 0.856931 0.840513
0.804288 0.857359 0.843046
0.809171 0.857877 0.846036
0.814237 0.858457 0.849332
0.819913 0.859007 0.853422
0.825559 0.859495 0.857755
0.830594 0.860014 0.861784
0.830625 0.859434 0.860349
0.830777 0.858793 0.858579
0.831235 0.858061 0.856718
0.832212 0.857328 0.854826
0.833707 0.856687 0.853056
0.835843 0.856107 0.851377
0.838499 0.855528 0.849821
0.842283 0.855741 0.849851
0.844602 0.854520 0.848508
0.847318 0.851225 0.839353
0.851133 0.847044 0.829313
0.856046 0.842435 0.819455
0.862699 0.838743 0.811978
0.868254 0.828489 0.793515
0.874418 0.813107 0.766659
0.881804 0.793820 0.732845
0.890440 0.770169 0.690272
0.893767 0.757595 0.674311
0.789975 0.859495 0.838193
0.791287 0.859770 0.839048
0.792630 0.859953 0.839841
0.794736 0.860044 0.841001
0.797604 0.860075 0.842527
0.800107 0.860197 0.843687
0.803128 0.860349 0.845151
0.806546 0.860563 0.846891
0.810513 0.860838 0.849058
0.814786 0.861204 0.851591
0.819211 0.861601 0.854398
0.823758 0.862028 0.857481
0.828763 0.862333 0.861204
0.833280 0.862638 0.864683
0.835904 0.862730 0.866453
0.835904 0.862333 0.865202
0.836149 0.861875 0.863828
0.836698 0.861387 0.862486
0.837675 0.860960 0.861112
0.839048 0.860533 0.859861
0.840848 0.860136 0.858610
0.843046 0.859739 0.857450
0.845945 0.859831 0.857633
0.847684 0.858671 0.856046
0.850278 0.856168 0.848600
0.853910 0.853147 0.840665
0.858549 0.849851 0.833066
0.862638 0.841642 0.817258
0.867460 0.830442 0.796994
0.873167 0.816403 0.772335
0.879759 0.799252 0.742428
0.887175 0.779263 0.706813
0.799191 0.863462 0.845823
0.800168 0.863615 0.846433
0.801144 0.863645 0.846952
0.802762 0.863615 0.847807
0.805112 0.863554 0.848997
0.807523 0.863462 0.850126
0.809934 0.863493 0.851225
0.812802 0.863523 0.852598
0.816098 0.863615 0.854337
0.819699 0.863798 0.856382
0.823514 0.863981 0.858671
0.827420 0.864256 0.861234
0.831449 0.864408 0.864073
0.835447 0.864561 0.867063
0.838834 0.864744 0.869749
0.839750 0.864591 0.869902
0.839780 0.864256 0.868864
0.840055 0.863951 0.867796
0.840635 0.863615 0.866758
0.841489 0.863310 0.865751
0.842710 0.863035 0.864805
0.844205 0.862791 0.863828
0.846067 0.862516 0.863127
0.848264 0.862516 0.863340
0.849668 0.861540 0.861692
0.852079 0.859770 0.855741
0.855192 0.856962 0.848142
0.858335 0.850828 0.834958
0.862119 0.842741 0.819303
0.866606 0.832456 0.800534
0.871763 0.819913 0.778500
0.877409 0.805478 0.753323
0.806424 0.866270 0.851713
0.807156 0.866331 0.852140
0.807950 0.866331 0.852567
0.809384 0.866270 0.853300
0.811551 0.866209 0.854398
0.814511 0.866117 0.855985
0.817014 0.866178 0.857206
0.819944 0.866270 0.858762
0.823239 0.866392 0.860594
0.826719 0.866514 0.862608
0.830198 0.866636 0.864775
0.833616 0.866758 0.866972
0.836790 0.866819 0.869139
0.839963 0.866850 0.871458
0.842679 0.866850 0.873564
0.844877 0.866880 0.875334
0.844816 0.866728 0.874693
0.844846 0.866545 0.874022
0.845090 0.866392 0.873381
0.845487 0.866239 0.872740
0.846128 0.866087 0.872129
0.846952 0.865934 0.871489
0.847959 0.865751 0.870817
0.849241 0.865690 0.870512
0.850614 0.865629 0.870695
0.851286 0.864347 0.867796
0.852781 0.861418 0.859281
0.855100 0.857115 0.848539
0.858091 0.851316 0.835966
0.861631 0.843839 0.821378
0.865690 0.834653 0.804471
0.870085 0.824033 0.785702
0.817624 0.869444 0.860197
0.818143 0.869413 0.860441
0.818662 0.869383 0.860716
0.819669 0.869261 0.861173
0.821256 0.869078 0.861906
0.823362 0.868894 0.862974
0.825650 0.868681 0.864103
0.827634 0.868559 0.865019
0.829862 0.868406 0.866148
0.832303 0.868254 0.867460
0.834806 0.868132 0.868864
0.837278 0.868040 0.870359
0.839658 0.867918 0.871885
0.841947 0.867826 0.873472
0.844175 0.867735 0.875120
