其他预设/【240】TEZZA调色预设合集24款/1.LUT预设（视频调色-PR-AE-PS-FCPX-达芬奇用）/Tezza万事达-Cole01.cube
# Created by Adobe Lightroom plugin Export LUT (1.17.0)
# www.johnrellis.com/lightroom/exportlut.htm
# Preset: Tezza万事达-Cole01
# Color profile: /Library/Application Support/Adobe/Color/Profiles/Recommended/AdobeRGB1998.icc
LUT_3D_SIZE 32
0.154971 0.114900 0.092195
0.156497 0.115206 0.092378
0.158663 0.115572 0.092500
0.163394 0.116609 0.092683
0.169070 0.118013 0.092775
0.175387 0.119387 0.093050
0.182620 0.120821 0.093263
0.191135 0.122438 0.093385
0.201297 0.124239 0.093324
0.213291 0.126040 0.093080
0.227573 0.127810 0.092622
0.243992 0.130037 0.091829
0.262943 0.132296 0.090913
0.284672 0.134646 0.089296
0.309300 0.137240 0.087312
0.336767 0.139590 0.084657
0.366918 0.142000 0.081300
0.399329 0.144869 0.076814
0.433387 0.147799 0.070954
0.472694 0.151858 0.062135
0.517205 0.157809 0.039948
0.562127 0.165988 0.004913
0.606531 0.177310 0.000000
0.650233 0.191745 0.000000
0.691615 0.208865 0.000000
0.730922 0.228092 0.000000
0.768948 0.250217 0.000000
0.805905 0.274907 0.000000
0.842100 0.302617 0.000000
0.877226 0.333593 0.000000
0.911070 0.367834 0.000000
0.943633 0.406378 0.000000
0.155276 0.116609 0.092561
0.156497 0.116518 0.092500
0.158907 0.116854 0.092348
0.163607 0.117861 0.092531
0.169253 0.119051 0.092897
0.175631 0.120180 0.092958
0.182834 0.121614 0.093172
0.191226 0.123232 0.093294
0.201389 0.124819 0.093233
0.213352 0.126833 0.092988
0.227390 0.128664 0.092531
0.243748 0.130678 0.091768
0.262516 0.132998 0.090883
0.284215 0.135378 0.089265
0.308659 0.137881 0.087282
0.335943 0.140505 0.084627
0.365942 0.143038 0.081300
0.398016 0.145632 0.076600
0.431861 0.148867 0.070710
0.470954 0.152987 0.062379
0.514641 0.158785 0.041474
0.558953 0.166690 0.006287
0.602960 0.177615 0.000000
0.646448 0.191775 0.000000
0.688045 0.208499 0.000000
0.727626 0.227634 0.000000
0.765835 0.249363 0.000000
0.803098 0.274083 0.000000
0.839536 0.301610 0.000000
0.874937 0.332280 0.000000
0.909026 0.366461 0.000000
0.941772 0.404700 0.000000
0.155856 0.118837 0.093080
0.157382 0.118898 0.093263
0.159121 0.118929 0.092927
0.163760 0.119539 0.092592
0.169619 0.120211 0.092744
0.175814 0.121401 0.093080
0.183017 0.122805 0.093294
0.191379 0.124208 0.093416
0.201541 0.125978 0.093111
0.213535 0.127749 0.092866
0.227634 0.129763 0.092378
0.243961 0.131746 0.091859
0.262730 0.134218 0.090700
0.284306 0.136629 0.089357
0.308659 0.139132 0.087098
0.335943 0.141726 0.084443
0.365881 0.144442 0.081086
0.397803 0.147219 0.076692
0.431769 0.150423 0.070436
0.470893 0.154574 0.062013
0.514000 0.160281 0.041047
0.557916 0.168246 0.006195
0.601709 0.179049 0.000000
0.645014 0.193027 0.000000
0.686580 0.209720 0.000000
0.726131 0.228641 0.000000
0.764431 0.250156 0.000000
0.801846 0.274815 0.000000
0.838407 0.302190 0.000000
0.873899 0.332647 0.000000
0.908080 0.366705 0.000000
0.940856 0.404669 0.000000
0.157229 0.124147 0.093996
0.158907 0.123964 0.094453
0.160616 0.123781 0.094636
0.163943 0.124056 0.094179
0.169802 0.124117 0.093355
0.176608 0.124086 0.092988
0.183810 0.125246 0.092988
0.192294 0.126589 0.093080
0.202396 0.128115 0.093050
0.214420 0.130007 0.092805
0.228458 0.131960 0.092287
0.244907 0.134249 0.091463
0.263676 0.136812 0.090272
0.285344 0.139254 0.088899
0.309728 0.142031 0.086854
0.336980 0.144839 0.084108
0.366735 0.147524 0.080446
0.398688 0.150515 0.075929
0.432227 0.153811 0.069978
0.471321 0.158022 0.061036
0.513329 0.163973 0.039216
0.556481 0.171878 0.006073
0.599908 0.182742 0.000000
0.643519 0.196567 0.000000
0.685664 0.213230 0.000000
0.725887 0.232456 0.000000
0.764675 0.254093 0.000000
0.802304 0.278691 0.000000
0.838804 0.305852 0.000000
0.874113 0.336034 0.000000
0.907988 0.369574 0.000000
0.940429 0.406897 0.000000
0.158938 0.130068 0.095552
0.160464 0.129915 0.095766
0.162448 0.129885 0.095918
0.165133 0.129091 0.096132
0.169924 0.129763 0.095552
0.176608 0.129976 0.094392
0.184604 0.129580 0.093446
0.193423 0.130373 0.092836
0.203616 0.131807 0.092805
0.215671 0.133639 0.092531
0.229831 0.135805 0.091951
0.246250 0.138155 0.091096
0.265293 0.140719 0.089845
0.286931 0.143526 0.088380
0.311467 0.146395 0.086275
0.339025 0.149416 0.083375
0.369146 0.152377 0.079530
0.401190 0.155581 0.074800
0.435004 0.159213 0.068513
0.474372 0.164096 0.058961
0.515679 0.170321 0.034058
0.558038 0.178531 0.000000
0.601007 0.189303 0.000000
0.644251 0.203098 0.000000
0.686213 0.219577 0.000000
0.726253 0.238590 0.000000
0.764920 0.260014 0.000000
0.802274 0.284215 0.000000
0.838621 0.310948 0.000000
0.873716 0.340612 0.000000
0.907500 0.373510 0.000000
0.939940 0.410498 0.000000
0.160616 0.137118 0.096925
0.161959 0.137026 0.097108
0.163607 0.137057 0.097017
0.166873 0.136568 0.097444
0.170474 0.135805 0.097353
0.176974 0.137118 0.096590
0.185489 0.137148 0.095583
0.194949 0.137209 0.093965
0.205631 0.137179 0.092775
0.217838 0.139010 0.091920
0.232364 0.141115 0.091310
0.249088 0.143709 0.090364
0.268223 0.146365 0.089052
0.290257 0.149325 0.087404
0.315190 0.152407 0.085176
0.342931 0.155703 0.082033
0.373175 0.159182 0.077882
0.405371 0.162844 0.072816
0.440497 0.166995 0.065736
0.479683 0.172244 0.052918
0.520562 0.178988 0.025971
0.562829 0.187655 0.000000
0.631708 0.209018 0.000000
0.673915 0.224887 0.000000
0.713252 0.242405 0.000000
0.750668 0.261753 0.000000
0.786587 0.283207 0.000000
0.821408 0.306859 0.000000
0.855253 0.333104 0.000000
0.888090 0.362066 0.000000
0.919615 0.394079 0.000000
0.949889 0.429999 0.000000
0.162539 0.146609 0.098604
0.163546 0.146578 0.098543
0.164981 0.146639 0.098726
0.168338 0.146639 0.098817
0.172854 0.145235 0.099275
0.177890 0.145052 0.099031
0.186831 0.147158 0.097993
0.197879 0.147646 0.096559
0.209751 0.147951 0.094697
0.223026 0.148165 0.092683
0.238071 0.149233 0.091066
0.255528 0.151797 0.089418
0.275425 0.154788 0.087556
0.298161 0.157992 0.085695
0.323766 0.161410 0.083070
0.351781 0.165042 0.079622
0.382238 0.168704 0.075380
0.414466 0.172549 0.069398
0.452094 0.177920 0.060822
0.492317 0.184207 0.040772
0.535027 0.192416 0.006622
0.579461 0.202976 0.000000
0.624750 0.216617 0.000000
0.669337 0.232914 0.000000
0.710872 0.251225 0.000000
0.749477 0.270817 0.000000
0.785824 0.292180 0.000000
0.820676 0.315496 0.000000
0.854490 0.340948 0.000000
0.887022 0.369116 0.000000
0.918425 0.400214 0.000000
0.948608 0.435279 0.000000
0.164218 0.157717 0.100679
0.165194 0.157717 0.100649
0.166659 0.157748 0.100557
0.169833 0.157656 0.100679
0.174990 0.156985 0.100984
0.180148 0.154910 0.101228
0.187076 0.156008 0.100740
0.198703 0.159091 0.099367
0.212741 0.160647 0.098024
0.226993 0.160983 0.095186
0.242985 0.161349 0.092836
0.260197 0.161593 0.089906
0.280430 0.164309 0.087434
0.303441 0.167636 0.084535
0.329381 0.171511 0.080995
0.357641 0.175296 0.077180
0.388098 0.179507 0.072114
0.422278 0.184268 0.065278
0.459113 0.189883 0.053773
0.498360 0.196567 0.028412
0.539849 0.205081 0.000000
0.583276 0.216068 0.000000
0.627649 0.229892 0.000000
0.671046 0.245945 0.000000
0.711849 0.263767 0.000000
0.749844 0.282933 0.000000
0.785824 0.303593 0.000000
0.820401 0.325963 0.000000
0.854032 0.350713 0.000000
0.886442 0.378058 0.000000
0.917662 0.408484 0.000000
0.947784 0.442634 0.000000
0.166201 0.171695 0.103090
0.167147 0.171817 0.103029
0.168429 0.171756 0.102968
0.171603 0.171633 0.102846
0.176608 0.171633 0.103059
0.183169 0.169619 0.103487
0.189120 0.167117 0.103792
0.198978 0.170260 0.102754
0.213962 0.174899 0.101137
0.232242 0.177615 0.099458
0.249454 0.178470 0.095735
0.268132 0.178714 0.092195
0.288487 0.178958 0.088472
0.310704 0.179812 0.084565
0.336889 0.183597 0.080232
0.365545 0.187930 0.074952
0.397375 0.193057 0.067689
0.432105 0.198581 0.059480
0.468086 0.204471 0.040772
0.506493 0.211704 0.012146
0.547143 0.220615 0.000000
0.589593 0.231937 0.000000
0.632746 0.245701 0.000000
0.675105 0.261784 0.000000
0.714900 0.279149 0.000000
0.752102 0.297581 0.000000
0.787472 0.317571 0.000000
0.821500 0.339117 0.000000
0.854643 0.363043 0.000000
0.886625 0.389319 0.000000
0.917510 0.418708 0.000000
0.947295 0.451728 0.000000
0.168063 0.189151 0.106020
0.169162 0.189242 0.105959
0.170474 0.189181 0.105684
0.173587 0.189090 0.105531
0.178744 0.188907 0.105531
0.186160 0.188083 0.106233
0.193332 0.185000 0.106325
0.200870 0.182895 0.106477
0.214237 0.188296 0.105043
0.233310 0.194827 0.102937
0.257084 0.199435 0.101045
0.277470 0.200259 0.095613
0.299504 0.200534 0.090669
0.322942 0.200473 0.085359
0.347356 0.200381 0.079835
0.376776 0.203708 0.073274
0.409827 0.209201 0.065095
0.444190 0.215213 0.049653
0.479896 0.222202 0.020233
0.517357 0.229587 0.000000
0.556847 0.238926 0.000000
0.597528 0.250340 0.000000
0.638758 0.263737 0.000000
0.678981 0.278996 0.000000
0.717311 0.295567 0.000000
0.753658 0.313329 0.000000
0.788571 0.332525 0.000000
0.822446 0.353521 0.000000
0.855436 0.376776 0.000000
0.887327 0.402472 0.000000
0.918151 0.431098 0.000000
0.947875 0.463539 0.000000
0.169924 0.210117 0.109224
0.170871 0.210086 0.109194
0.172427 0.210117 0.109133
0.175509 0.210025 0.109010
0.180758 0.209995 0.108766
0.187900 0.209720 0.108888
0.197452 0.207187 0.109743
0.205936 0.203464 0.109926
0.216220 0.203616 0.109743
0.233860 0.211093 0.107729
0.258030 0.219791 0.104799
0.289036 0.227359 0.102510
0.313207 0.228275 0.094972
0.339330 0.228580 0.087678
0.366735 0.228580 0.079744
0.394354 0.228367 0.071382
0.422309 0.228183 0.061799
0.455970 0.233921 0.041627
0.490730 0.240513 0.008789
0.527642 0.248753 0.000000
0.566278 0.259037 0.000000
0.605982 0.270573 0.000000
0.646235 0.284215 0.000000
0.685267 0.299107 0.000000
0.722377 0.315099 0.000000
0.757626 0.332067 0.000000
0.791562 0.350317 0.000000
0.824582 0.370184 0.000000
0.856840 0.392401 0.000000
0.888151 0.416907 0.000000
0.918517 0.444465 0.000000
0.947906 0.475837 0.000000
0.171359 0.235782 0.113558
0.172427 0.235843 0.113497
0.174166 0.235721 0.113222
0.177371 0.235752 0.113100
0.182834 0.235752 0.112612
0.190341 0.235477 0.112520
0.201175 0.234501 0.113222
0.211490 0.230259 0.113710
0.221469 0.225650 0.114199
0.235813 0.229374 0.113283
0.258793 0.239780 0.110506
0.290166 0.252110 0.106630
0.344488 0.274662 0.103761
0.375891 0.276158 0.091646
0.406073 0.275395 0.079408
0.435431 0.273594 0.066346
0.463935 0.271611 0.045045
0.491371 0.269444 0.011658
0.521691 0.271611 0.000000
0.557519 0.279942 0.000000
0.594385 0.290135 0.000000
0.632258 0.302770 0.000000
0.669306 0.315984 0.000000
0.704952 0.329870 0.000000
0.739223 0.344457 0.000000
0.772213 0.360204 0.000000
0.804044 0.377264 0.000000
0.835111 0.395666 0.000000
0.865507 0.416236 0.000000
0.895201 0.439246 0.000000
0.924071 0.465309 0.000000
0.952270 0.495247 0.000000
0.172000 0.270817 0.119417
0.173312 0.270695 0.119203
0.175082 0.270420 0.118990
0.178805 0.270146 0.118502
0.184665 0.269566 0.117952
0.192782 0.268925 0.117311
0.203281 0.268223 0.116976
0.217044 0.264530 0.118257
0.229435 0.259190 0.118685
0.241520 0.254063 0.119417
0.263920 0.265599 0.117739
0.296605 0.281987 0.114382
0.339940 0.300694 0.108766
0.393713 0.317876 0.104738
0.430426 0.320195 0.088899
0.460883 0.317632 0.071382
0.489265 0.314000 0.044587
0.516014 0.310124 0.000427
0.542107 0.306950 0.000000
0.569116 0.305516 0.000000
0.603693 0.313787 0.000000
0.640070 0.325536 0.000000
0.675807 0.338598 0.000000
0.710414 0.352453 0.000000
0.743435 0.366186 0.000000
0.775387 0.380865 0.000000
0.806394 0.396735 0.000000
0.836790 0.414130 0.000000
0.866606 0.433600 0.000000
0.895842 0.455604 0.000000
0.924376 0.480568 0.000000
0.952270 0.509514 0.000000
0.171542 0.307286 0.126131
0.173007 0.307225 0.125734
0.174807 0.306950 0.125521
0.178836 0.306676 0.125063
0.185245 0.305913 0.124056
0.193973 0.305119 0.123110
0.205539 0.304814 0.122255
0.221103 0.304021 0.123751
0.236667 0.298863 0.124331
0.251957 0.293553 0.125032
0.267369 0.289952 0.125612
0.298192 0.307561 0.123079
0.338872 0.327184 0.118654
0.390234 0.348608 0.111421
0.447364 0.365637 0.108034
0.487556 0.368597 0.087800
0.515679 0.363287 0.062196
0.541619 0.357336 0.007294
0.566888 0.352117 0.000000
0.592706 0.348852 0.000000
0.619562 0.347570 0.000000
0.649134 0.351019 0.000000
0.683345 0.362799 0.000000
0.716732 0.375799 0.000000
0.749142 0.389899 0.000000
0.780056 0.403571 0.000000
0.810208 0.418280 0.000000
0.839841 0.434668 0.000000
0.868925 0.453071 0.000000
0.897581 0.473915 0.000000
0.925597 0.497871 0.000000
0.953094 0.525780 0.000000
0.169375 0.351568 0.135348
0.170962 0.351690 0.134920
0.173098 0.351415 0.134768
0.177646 0.351202 0.133944
0.184878 0.350561 0.132815
0.194919 0.349798 0.131411
0.207340 0.349035 0.130190
0.222690 0.348333 0.129274
0.243046 0.344274 0.131563
0.261357 0.338170 0.132265
0.278721 0.331548 0.133028
0.300511 0.333410 0.133181
0.338872 0.353979 0.130037
0.386816 0.376043 0.125093
0.443580 0.399115 0.117372
0.501030 0.414954 0.115450
0.543786 0.419074 0.093294
0.568872 0.411048 0.058808
0.593042 0.403693 0.000000
0.617670 0.398169 0.000000
0.642939 0.394659 0.000000
0.668269 0.392737 0.000000
0.693690 0.392615 0.000000
0.723507 0.400610 0.000000
0.754696 0.413275 0.000000
0.785245 0.427222 0.000000
0.815000 0.441596 0.000000
0.844205 0.457343 0.000000
0.872953 0.475074 0.000000
0.901213 0.495369 0.000000
0.928954 0.518700 0.000000
0.956054 0.545892 0.000000
0.165377 0.401068 0.147890
0.167300 0.401221 0.147646
0.169467 0.401099 0.147311
0.175051 0.400671 0.146334
0.183444 0.400153 0.144930
0.194614 0.399390 0.143191
0.208652 0.398688 0.141390
0.226017 0.397864 0.140200
0.249271 0.396094 0.142458
0.270878 0.389136 0.142916
0.291661 0.381476 0.143587
0.310948 0.373266 0.144320
0.339910 0.381109 0.143587
0.384344 0.402930 0.140688
0.436683 0.425452 0.136049
0.495949 0.448585 0.129122
0.550896 0.462562 0.130373
0.595789 0.468910 0.109499
0.619715 0.460029 0.068971
0.643610 0.452552 0.000000
0.667323 0.446571 0.000000
0.690944 0.442176 0.000000
0.714504 0.439399 0.000000
0.738216 0.438392 0.000000
0.762875 0.440314 0.000000
0.792355 0.452827 0.000000
0.821530 0.466957 0.000000
0.849943 0.481941 0.000000
0.877714 0.498573 0.000000
0.904936 0.517571 0.000000
0.931731 0.539391 0.000000
0.957946 0.565087 0.000000
0.160098 0.450690 0.164065
0.162112 0.450507 0.163638
0.165072 0.450385 0.163210
0.171450 0.449836 0.161959
0.181064 0.449165 0.160342
0.193668 0.448188 0.158572
0.209567 0.447211 0.156588
0.228611 0.445899 0.154635
0.250828 0.444251 0.153841
0.278965 0.439277 0.157443
0.302739 0.431189 0.157687
0.324956 0.422705 0.158236
0.345190 0.413184 0.158572
0.382940 0.428992 0.158297
0.432044 0.451484 0.156588
0.487251 0.474220 0.153719
0.546654 0.497078 0.149447
0.598291 0.509392 0.154635
0.645014 0.518120 0.139834
0.667262 0.508415 0.098329
0.689326 0.499855 0.023468
0.711177 0.492805 0.000000
0.732876 0.487312 0.000000
0.755001 0.483986 0.000000
0.777432 0.482521 0.000000
0.800381 0.483223 0.000000
0.826352 0.491157 0.000000
0.854337 0.505791 0.000000
0.881559 0.521691 0.000000
0.908141 0.539635 0.000000
0.934295 0.560540 0.000000
0.959991 0.585168 0.000000
0.154086 0.501122 0.185367
0.156619 0.501396 0.185000
0.159091 0.517082 0.192416
0.167178 0.516503 0.191196
0.179568 0.515465 0.189029
0.195346 0.513939 0.186770
0.214572 0.512078 0.184268
0.236790 0.509819 0.182254
0.262455 0.507286 0.180819
0.294163 0.503929 0.184726
0.322148 0.495338 0.185122
0.347509 0.485786 0.184665
0.370367 0.475135 0.183841
0.391974 0.465309 0.183444
0.438605 0.487312 0.184756
0.490913 0.509606 0.185946
0.547082 0.531945 0.186069
0.605097 0.554223 0.186069
0.651209 0.562982 0.195926
0.695979 0.571893 0.190921
0.715785 0.560571 0.148226
0.735592 0.550744 0.102693
0.755367 0.542351 0.008850
0.775174 0.535821 0.000000
0.795132 0.531090 0.000000
0.815579 0.528496 0.000000
0.836973 0.528588 0.000000
0.859373 0.531609 0.000000
0.885435 0.545373 0.000000
0.911345 0.562219 0.000000
0.936767 0.581933 0.000000
0.961730 0.605188 0.000000
0.148623 0.555138 0.214145
0.151583 0.557153 0.215122
0.156069 0.559014 0.215854
0.165255 0.560357 0.215702
0.179141 0.560906 0.215091
0.196963 0.560266 0.213504
0.218265 0.558709 0.211093
0.242618 0.556512 0.208957
0.269871 0.554040 0.207584
0.299565 0.550988 0.207767
0.334325 0.544823 0.213169
0.361791 0.535515 0.212131
0.386999 0.525322 0.210849
0.409644 0.514092 0.209201
0.436988 0.511620 0.209140
0.486152 0.533379 0.212894
0.538659 0.555230 0.216678
0.593225 0.576562 0.220279
0.648157 0.597162 0.224704
0.689113 0.603479 0.238010
0.732753 0.613672 0.243595
0.752071 0.603082 0.201175
0.770993 0.593439 0.159670
0.789883 0.585199 0.114229
0.808713 0.578393 0.036744
0.827939 0.573693 0.000000
0.847898 0.571466 0.000000
0.868711 0.572076 0.000000
0.890776 0.575891 0.000000
0.914580 0.585534 0.000000
0.939452 0.603998 0.000000
0.963714 0.626032 0.000000
0.147066 0.602075 0.244907
0.151003 0.603784 0.245945
0.156008 0.605493 0.246952
0.166415 0.606683 0.247227
0.182589 0.607080 0.246708
0.202243 0.606317 0.245274
0.225376 0.604883 0.243442
0.251255 0.602747 0.241520
0.280003 0.600275 0.240513
0.311009 0.597406 0.240696
0.346197 0.593652 0.245121
0.378241 0.585229 0.246921
0.405005 0.575525 0.244694
0.429572 0.564874 0.242466
0.451209 0.553124 0.239933
0.485237 0.558526 0.241855
0.534630 0.579553 0.248722
0.585534 0.599664 0.255833
0.637049 0.619104 0.263554
0.688045 0.637934 0.272465
0.724147 0.642359 0.288212
0.766049 0.653956 0.305394
0.784604 0.644068 0.263371
0.802762 0.634821 0.222843
0.820706 0.626642 0.182650
0.838834 0.619989 0.139834
0.857420 0.615656 0.089296
0.876860 0.613825 0.000000
0.897398 0.615351 0.000000
0.919097 0.620050 0.000000
0.941985 0.628260 0.000000
0.965393 0.646662 0.000000
0.152773 0.646174 0.279850
0.157443 0.647669 0.281224
0.163577 0.649134 0.282231
0.175418 0.650050 0.282841
0.192386 0.650324 0.282780
0.213748 0.649531 0.281682
0.237675 0.648096 0.280308
0.264897 0.646021 0.279026
0.294408 0.643610 0.278630
0.326238 0.640650 0.278935
0.359533 0.637171 0.280980
0.396918 0.631006 0.288060
0.424384 0.622339 0.285405
0.449897 0.612909 0.282841
0.472969 0.602594 0.279637
0.493690 0.591669 0.276402
0.534234 0.604425 0.283360
0.582483 0.624109 0.294530
0.631586 0.643275 0.306554
0.680110 0.661799 0.319738
0.727474 0.679652 0.333532
0.759609 0.683436 0.352819
0.798642 0.696071 0.380804
0.816495 0.687251 0.340520
0.834043 0.678828 0.301549
0.851499 0.671382 0.263645
0.869139 0.665614 0.227726
0.887480 0.662196 0.192874
0.906706 0.661494 0.159670
0.927001 0.664088 0.127077
0.948302 0.670039 0.095949
0.970794 0.679622 0.069306
0.173861 0.692683 0.324468
0.178470 0.693202 0.325139
0.184298 0.693477 0.325597
0.195804 0.693507 0.325628
0.212833 0.692897 0.325231
0.234348 0.691798 0.324620
0.259007 0.690211 0.323827
0.286564 0.688319 0.323644
0.316991 0.686122 0.324193
0.349462 0.683589 0.325933
0.383429 0.680507 0.329503
0.419409 0.676417 0.335729
0.450874 0.668818 0.338537
0.475715 0.660517 0.335149
0.498817 0.651453 0.331395
0.520012 0.641810 0.327459
0.539269 0.631647 0.323552
0.584161 0.649714 0.336645
0.629572 0.667353 0.351080
0.674739 0.684321 0.365942
0.718715 0.700587 0.381598
0.760830 0.716243 0.397314
0.788174 0.718441 0.415625
0.823209 0.730800 0.450111
0.839902 0.722683 0.411994
0.856718 0.715114 0.375006
0.873808 0.708736 0.339971
0.891417 0.704158 0.307866
0.909758 0.702113 0.279576
0.928954 0.702785 0.255528
0.949065 0.706752 0.237919
0.970336 0.714412 0.228550
0.201480 0.729000 0.365240
0.206241 0.729488 0.365728
0.211978 0.729824 0.366735
0.223545 0.729702 0.366888
0.240085 0.729152 0.367254
0.260746 0.727932 0.367041
0.284764 0.726314 0.366888
0.311894 0.724361 0.367620
0.341833 0.722072 0.369146
0.373907 0.719417 0.371618
0.407050 0.716365 0.375769
0.440864 0.712734 0.381537
0.476417 0.707027 0.391211
0.499947 0.699825 0.387762
0.522087 0.691981 0.383703
0.542992 0.683680 0.379736
0.562371 0.674983 0.375921
0.586175 0.672145 0.376440
0.628809 0.688777 0.392615
0.671138 0.704860 0.409613
0.712428 0.720333 0.426917
0.752255 0.735164 0.444160
0.789944 0.749294 0.461830
0.814298 0.751797 0.480568
0.842679 0.760189 0.510491
0.858976 0.753994 0.479042
0.875334 0.747860 0.446387
0.892180 0.742977 0.416175
0.909697 0.740017 0.389044
0.928008 0.739467 0.366766
0.947234 0.741970 0.350988
0.967376 0.747921 0.343847
0.243687 0.766140 0.413214
0.248203 0.766629 0.414343
0.253544 0.766751 0.414923
0.264347 0.766354 0.415320
0.279545 0.765469 0.415625
0.298802 0.764065 0.415930
0.321477 0.762173 0.416541
0.347143 0.759884 0.417548
0.375463 0.757198 0.419379
0.405585 0.754177 0.422187
0.436866 0.750759 0.426459
0.468727 0.746914 0.432319
0.500603 0.742458 0.440101
0.527764 0.735744 0.443885
0.547570 0.728542 0.439338
0.566461 0.720821 0.434211
0.584436 0.712734 0.429297
0.601495 0.704585 0.424598
0.629023 0.707607 0.430640
0.668666 0.722744 0.448432
0.707607 0.737453 0.466712
0.745022 0.751492 0.484657
0.780453 0.764645 0.502190
0.813626 0.776913 0.518151
0.834928 0.778958 0.534691
0.860410 0.787167 0.564324
0.876768 0.783963 0.544152
0.892302 0.779355 0.517388
0.908598 0.776028 0.493019
0.925780 0.774777 0.472541
0.943938 0.776150 0.457954
0.962951 0.780545 0.450690
0.285374 0.795132 0.455116
0.289616 0.795499 0.456092
0.294957 0.795621 0.456825
0.304570 0.795224 0.457618
0.318547 0.794339 0.458442
0.336828 0.792996 0.459358
0.358465 0.791257 0.460670
0.382727 0.789212 0.462837
0.409796 0.786801 0.465888
0.438636 0.784085 0.470039
0.468452 0.781094 0.475471
0.499123 0.777676 0.482460
0.529473 0.773861 0.490883
0.560235 0.768673 0.501610
0.577935 0.762722 0.497749
0.595178 0.756313 0.493477
0.611780 0.749599 0.489204
0.627771 0.742763 0.485054
0.643183 0.735866 0.481086
0.673610 0.743801 0.493172
0.709560 0.757351 0.511040
0.744106 0.770291 0.528496
0.776944 0.782437 0.545190
0.807858 0.793820 0.560723
0.836851 0.804410 0.575341
0.855741 0.806394 0.589899
0.877165 0.812497 0.614832
0.893400 0.811887 0.604303
0.908293 0.809049 0.583948
0.924102 0.807797 0.566674
0.940917 0.808591 0.554009
0.958709 0.811978 0.547478
0.334173 0.822416 0.498909
0.338109 0.822568 0.499886
0.342504 0.822477 0.500542
0.351080 0.821897 0.501244
0.363592 0.820890 0.502037
0.379980 0.819516 0.503532
0.399603 0.817746 0.505303
0.422126 0.815702 0.507958
0.447242 0.813382 0.511711
0.474067 0.810880 0.516655
0.502159 0.808072 0.522911
0.530968 0.804990 0.530510
0.559045 0.801663 0.538659
0.585962 0.797971 0.547265
0.608087 0.792752 0.551568
0.623407 0.787320 0.547875
0.638483 0.781643 0.544213
0.653101 0.775845 0.540459
0.667506 0.770047 0.537285
0.681422 0.764279 0.534569
0.713436 0.775784 0.550530
0.745296 0.787655 0.567132
0.775692 0.798856 0.583093
0.804471 0.809384 0.597986
0.831540 0.819211 0.611902
0.857053 0.828397 0.624933
0.873930 0.830350 0.638025
0.892180 0.834836 0.659022
0.907897 0.835996 0.655360
0.922301 0.834836 0.640406
0.937682 0.835142 0.628595
0.954162 0.837797 0.622248
0.383703 0.845853 0.540978
0.386877 0.845884 0.541833
0.390906 0.845731 0.542535
0.398749 0.845243 0.543542
0.410620 0.844388 0.545037
0.426154 0.843381 0.547509
0.445319 0.842191 0.550988
0.467384 0.840787 0.555596
0.492042 0.839231 0.561456
0.518486 0.837491 0.568719
0.545190 0.835569 0.576440
0.571801 0.833433 0.584802
0.597650 0.831052 0.593439
0.622248 0.828305 0.601923
0.646998 0.824582 0.612055
0.660456 0.820371 0.609430
0.673671 0.815854 0.606683
0.686702 0.811215 0.603754
0.699641 0.806546 0.601343
0.712306 0.801907 0.599054
0.727810 0.800168 0.600366
0.756283 0.810636 0.615564
0.783505 0.820523 0.630091
0.809384 0.829892 0.643793
0.833890 0.838682 0.656611
0.857053 0.846921 0.668605
0.879057 0.854704 0.679744
0.893767 0.856352 0.690944
0.909056 0.859464 0.707912
0.923766 0.861662 0.708919
0.937469 0.861814 0.698726
0.952453 0.863920 0.692653
0.445991 0.870390 0.591455
0.448676 0.870359 0.592157
0.451911 0.870085 0.592737
0.458534 0.869505 0.593744
0.468727 0.868589 0.595392
0.482307 0.867369 0.597803
0.498756 0.865965 0.601038
0.517571 0.864408 0.605158
0.538384 0.862669 0.610132
0.560479 0.860777 0.616022
0.583215 0.858701 0.622278
0.606043 0.856565 0.629175
0.628595 0.854215 0.636316
0.650416 0.851621 0.643702
0.671199 0.848844 0.651057
0.688777 0.845121 0.655604
