其他预设/【240】TEZZA调色预设合集24款/1.LUT预设（视频调色-PR-AE-PS-FCPX-达芬奇用）/Tezza万事达-Tezza02.cube
# Created by Adobe Lightroom plugin Export LUT (1.17.0)
# www.johnrellis.com/lightroom/exportlut.htm
# Preset: Tezza万事达-Tezza02
# Color profile: /Library/Application Support/Adobe/Color/Profiles/Recommended/AdobeRGB1998.icc
LUT_3D_SIZE 8
DOMAIN_MIN 0.000000 0.000000 0.000000
DOMAIN_MAX 0.903226 0.903226 0.903226
0.039857 0.074037 0.083894
0.108797 0.077363 0.094820
0.283421 0.000000 0.109987
0.507500 0.000000 0.125154
0.713191 0.000000 0.153658
0.861814 0.000000 0.205875
0.955200 0.238468 0.287938
1.000000 0.409155 0.408881
0.026795 0.127474 0.112947
0.095491 0.114107 0.110780
0.262364 0.106783 0.113619
0.482338 0.000000 0.127138
0.691096 0.000000 0.153017
0.842985 0.084840 0.200595
0.945769 0.264408 0.280980
1.000000 0.420569 0.403876
0.000000 0.308507 0.183902
0.077028 0.310491 0.152743
0.263066 0.252842 0.172152
0.447089 0.227543 0.137087
0.658717 0.239384 0.159518
0.825223 0.288975 0.206546
0.941466 0.385870 0.296849
1.000000 0.496529 0.424201
0.000000 0.566491 0.302586
0.128176 0.567834 0.293858
0.328496 0.554986 0.233860
0.537591 0.499001 0.299351
0.666804 0.452064 0.222019
0.798489 0.440467 0.220249
0.922698 0.505058 0.309361
0.989563 0.581689 0.439582
0.040558 0.754849 0.433814
0.214908 0.754879 0.430152
0.355779 0.755886 0.364660
0.587366 0.734768 0.378637
0.722072 0.688869 0.449622
0.809659 0.649836 0.373999
0.890257 0.602747 0.318029
0.973754 0.669276 0.460609
0.295720 0.872831 0.563561
0.366644 0.874968 0.569635
0.513420 0.870420 0.571954
0.604669 0.864836 0.519677
0.754269 0.842893 0.551537
0.838529 0.819303 0.624384
0.898741 0.800351 0.585443
0.957702 0.762234 0.520195
0.481971 0.938018 0.685267
0.520165 0.936278 0.690028
0.622431 0.928862 0.704952
0.678492 0.926238 0.678737
0.759792 0.917815 0.673884
0.850340 0.902861 0.712856
0.899321 0.890715 0.770840
0.936950 0.883574 0.763546
0.639002 0.972503 0.785306
0.661097 0.970428 0.789364
0.727413 0.964202 0.804990
0.801480 0.957610 0.827604
0.814084 0.955352 0.801938
0.860227 0.950561 0.805234
0.909697 0.941680 0.827817
0.938842 0.934813 0.865293
0.048035 0.087709 0.111666
0.109560 0.081331 0.110384
0.267094 0.072480 0.111177
0.480812 0.000000 0.126192
0.686976 0.000000 0.151583
0.838376 0.000000 0.197177
0.943847 0.240330 0.276249
1.000000 0.399756 0.396490
0.015564 0.129213 0.139345
0.112367 0.127443 0.136172
0.253117 0.127230 0.115236
0.466651 0.095857 0.128481
0.672816 0.024781 0.152163
0.827237 0.137636 0.195712
0.936126 0.267582 0.271916
1.000000 0.410742 0.391180
0.000000 0.306004 0.206760
0.133730 0.310826 0.191196
0.284459 0.269017 0.204715
0.433143 0.230747 0.136751
0.638911 0.245609 0.157137
0.808072 0.290898 0.200259
0.928283 0.374060 0.281559
0.996277 0.482826 0.407874
0.000000 0.547845 0.313756
0.170169 0.552544 0.309606
0.342168 0.545403 0.261448
0.527001 0.487648 0.315648
0.642237 0.435279 0.215702
0.773678 0.421607 0.208652
0.908507 0.487922 0.291417
0.984710 0.568383 0.422400
0.132631 0.749294 0.446143
0.241123 0.748318 0.442054
0.369940 0.748348 0.381537
0.583520 0.723995 0.390539
0.712795 0.678798 0.455116
0.799985 0.639857 0.365087
0.882506 0.593591 0.308415
0.970733 0.661860 0.449561
0.305821 0.867216 0.567529
0.364935 0.866209 0.568261
0.515190 0.862303 0.575158
0.603052 0.858579 0.524010
0.752163 0.839017 0.558129
0.836606 0.816953 0.624537
0.896910 0.797665 0.580468
0.955779 0.757656 0.511650
0.473640 0.934295 0.682918
0.507805 0.931792 0.685023
0.612116 0.925139 0.699825
0.677760 0.922942 0.680659
0.759030 0.915679 0.676814
0.848692 0.900938 0.714321
0.896880 0.887633 0.764431
0.935119 0.879942 0.755489
0.630732 0.971557 0.783505
0.654200 0.969696 0.788052
0.722042 0.963531 0.803616
0.801968 0.956512 0.829313
0.819821 0.956115 0.810086
0.862150 0.950988 0.810300
0.909636 0.941436 0.829801
0.938140 0.933989 0.863767
0.058839 0.123018 0.178958
0.113436 0.133242 0.154940
0.325628 0.045380 0.179873
0.500450 0.000000 0.141390
0.690059 0.007691 0.155184
0.837888 0.180148 0.202274
0.945281 0.294499 0.284550
1.000000 0.422126 0.406775
0.070985 0.158572 0.215396
0.152316 0.171786 0.203037
0.328862 0.142947 0.192966
0.491096 0.128756 0.154482
0.672206 0.147280 0.155306
0.827237 0.219944 0.200870
0.939178 0.316716 0.281712
1.000000 0.435767 0.405005
0.000000 0.317876 0.284276
0.159030 0.325780 0.278416
0.340978 0.313390 0.281743
0.478096 0.267338 0.192294
0.644465 0.277043 0.161166
0.810208 0.327123 0.205386
0.929107 0.400092 0.287694
0.996857 0.493874 0.413489
0.000000 0.558801 0.382208
0.191165 0.564752 0.379400
0.397406 0.563958 0.349401
0.570916 0.529412 0.403449
0.658747 0.456184 0.247501
0.779294 0.440040 0.213931
0.912413 0.505547 0.300267
0.986664 0.578515 0.431739
0.148074 0.748409 0.491218
0.267796 0.749294 0.490455
0.451545 0.751461 0.472297
0.612879 0.736355 0.462715
0.736660 0.705745 0.529931
0.807034 0.651362 0.377020
0.885405 0.601404 0.313817
0.972320 0.666499 0.455848
0.324620 0.866300 0.598993
0.388769 0.865049 0.600824
0.541955 0.860288 0.611994
0.627405 0.856840 0.572595
0.760525 0.839750 0.601099
0.839811 0.822416 0.664363
0.896941 0.797330 0.579828
0.957305 0.759030 0.514641
0.488594 0.934081 0.704616
0.524163 0.931670 0.707210
0.622004 0.924712 0.718959
0.703395 0.920012 0.716304
0.768948 0.914519 0.705043
0.852506 0.901915 0.738827
0.898955 0.890349 0.778927
0.937438 0.882536 0.761105
0.626520 0.971923 0.791745
0.645991 0.970031 0.794186
0.714321 0.963684 0.807584
0.801938 0.956390 0.835355
0.825132 0.955474 0.821561
0.864958 0.951293 0.821469
0.911498 0.942351 0.840238
0.939055 0.934722 0.865660
0.087434 0.193393 0.293339
0.158480 0.205875 0.279118
0.289189 0.194034 0.304051
0.595850 0.000000 0.291447
0.720882 0.066377 0.222477
0.836790 0.197543 0.203006
0.942199 0.309056 0.283818
1.000000 0.420081 0.405402
0.150057 0.242741 0.334051
0.205539 0.250156 0.320836
0.338537 0.243137 0.337469
0.595666 0.141726 0.295628
0.714260 0.171145 0.233188
0.828550 0.241794 0.203098
0.937652 0.334386 0.283299
1.000000 0.434638 0.406195
0.118471 0.339635 0.382727
0.210697 0.347082 0.384588
0.419287 0.370855 0.391394
0.566888 0.329229 0.324681
0.694728 0.321111 0.266209
0.816831 0.355047 0.224369
0.934112 0.424353 0.298039
1.000000 0.498756 0.422705
0.000000 0.563317 0.479316
0.186770 0.568353 0.477424
0.450813 0.579187 0.471565
0.605432 0.562646 0.488075
0.664424 0.455085 0.316045
0.790738 0.463783 0.267948
0.913970 0.513848 0.304021
0.989441 0.579339 0.438117
0.167575 0.752773 0.567681
0.275456 0.751980 0.564233
0.490089 0.752926 0.564263
0.644648 0.749477 0.553643
0.759731 0.734646 0.622461
0.812497 0.658503 0.439185
0.891936 0.610651 0.322881
0.975891 0.668879 0.464912
0.341955 0.868620 0.652369
0.407233 0.869535 0.656458
0.555993 0.863462 0.662684
0.666377 0.860807 0.648157
0.779049 0.848203 0.670527
0.849851 0.836698 0.726253
0.899107 0.800198 0.599847
0.960571 0.755215 0.509850
0.494240 0.933471 0.734829
0.530144 0.931670 0.737606
0.628565 0.925719 0.748226
0.744930 0.918212 0.773373
0.788052 0.916075 0.752651
0.860075 0.905638 0.776303
0.902434 0.895933 0.809812
0.939666 0.882444 0.760464
0.632502 0.972259 0.810391
0.652522 0.970672 0.812985
0.709499 0.965576 0.821286
0.789761 0.958099 0.839933
0.834836 0.954955 0.841611
0.869230 0.951812 0.838773
0.913848 0.943847 0.854734
0.940215 0.935790 0.870115
0.173465 0.303471 0.439765
0.234775 0.315648 0.431281
0.397284 0.380011 0.388769
0.617914 0.305638 0.513756
0.795224 0.215610 0.430823
0.868589 0.244205 0.341161
0.946014 0.330632 0.297734
1.000000 0.435492 0.414527
0.226596 0.343297 0.467445
0.278202 0.353582 0.461036
0.432715 0.414374 0.423377
0.633875 0.356329 0.526085
0.789395 0.263737 0.431189
0.864225 0.289403 0.349157
0.943603 0.357549 0.305577
1.000000 0.450477 0.416663
0.213870 0.406775 0.514885
0.287114 0.414893 0.517357
0.475563 0.473152 0.506981
0.661494 0.473548 0.546807
0.762783 0.386114 0.436408
0.846189 0.393591 0.370092
0.933501 0.429755 0.327733
1.000000 0.493843 0.421454
0.207828 0.557305 0.563134
0.282811 0.560937 0.563500
0.467353 0.576928 0.569085
0.631159 0.569665 0.543084
0.726223 0.526177 0.466835
0.824094 0.511650 0.407233
0.920745 0.524590 0.363104
0.993988 0.562188 0.439002
0.202304 0.744747 0.646479
0.283909 0.747158 0.646937
0.482765 0.750454 0.642939
0.667506 0.756466 0.641138
0.767727 0.744228 0.674220
0.803311 0.630426 0.470436
0.900847 0.619226 0.404028
0.981018 0.654170 0.465644
0.338293 0.862211 0.706630
0.393713 0.860899 0.705837
0.537530 0.855833 0.705409
0.698024 0.852171 0.721675
0.780056 0.848020 0.716976
0.853880 0.844511 0.774929
0.897368 0.791653 0.623194
0.965484 0.746487 0.507134
0.494240 0.931579 0.771389
0.526055 0.929564 0.771878
0.618494 0.923674 0.776486
0.731746 0.916808 0.791653
0.795285 0.915312 0.789517
0.862638 0.907683 0.805814
0.905119 0.900389 0.836790
0.941283 0.878294 0.757565
0.623621 0.971191 0.828946
0.642145 0.969604 0.830259
0.697810 0.964752 0.835660
0.774350 0.959289 0.849180
0.845670 0.953368 0.867552
0.872557 0.951965 0.857939
0.914763 0.945281 0.868894
0.941314 0.937804 0.883696
0.299901 0.445045 0.603876
0.348608 0.456794 0.600183
0.487678 0.504692 0.575799
0.564843 0.507897 0.586633
0.826963 0.489906 0.678584
0.904082 0.411994 0.572290
0.959319 0.398474 0.483955
1.000000 0.471290 0.461555
0.333379 0.469459 0.616785
0.374334 0.477913 0.612055
0.500389 0.519799 0.590906
0.579950 0.531243 0.596307
0.826749 0.519524 0.680140
0.899413 0.432868 0.572168
0.954711 0.427222 0.492195
1.000000 0.483619 0.464637
0.357305 0.521569 0.654627
0.421881 0.539361 0.655482
0.538354 0.573236 0.646082
0.640101 0.616022 0.641627
0.824521 0.600122 0.694057
0.888243 0.499184 0.576928
0.943969 0.505516 0.517540
1.000000 0.528710 0.480446
0.318730 0.608453 0.684077
0.368963 0.609552 0.683345
0.509667 0.619379 0.685847
0.704860 0.699214 0.697383
0.810086 0.669001 0.698085
0.864927 0.603326 0.599573
0.932555 0.592828 0.548028
0.995544 0.593256 0.504479
0.328649 0.738979 0.721157
0.377966 0.740505 0.721675
0.513878 0.746395 0.724300
0.675898 0.762905 0.735714
0.772366 0.737270 0.702998
0.833707 0.681209 0.614069
0.913695 0.665339 0.566186
0.985626 0.657435 0.520745
0.370275 0.862058 0.774014
0.414801 0.862394 0.774868
0.535882 0.860319 0.774563
0.690364 0.856596 0.776455
0.797391 0.857176 0.783505
0.859953 0.852293 0.809934
0.894316 0.759915 0.623865
0.970581 0.746212 0.573053
0.501884 0.931609 0.816892
0.533440 0.930236 0.817472
0.619898 0.924926 0.818448
0.726497 0.918273 0.824552
0.820951 0.914061 0.840787
0.865934 0.912718 0.839078
0.910552 0.908019 0.868315
0.944396 0.873686 0.770962
0.622034 0.971344 0.856229
0.639185 0.969848 0.856779
0.692042 0.965332 0.859434
0.763668 0.959594 0.866361
0.832944 0.954314 0.877592
0.876249 0.952850 0.880705
0.916258 0.948119 0.886625
0.943938 0.941497 0.901152
0.444221 0.589105 0.749264
0.479225 0.599725 0.748501
0.579767 0.634089 0.736049
0.718776 0.712520 0.705837
0.765255 0.637629 0.771756
0.913146 0.657527 0.785306
0.953674 0.581781 0.698604
0.999237 0.555352 0.633204
0.454688 0.597131 0.750179
0.487068 0.606592 0.749416
0.582452 0.638666 0.738949
0.715755 0.711666 0.711391
0.763088 0.646967 0.768765
0.908446 0.662470 0.782406
0.949554 0.583124 0.693599
0.996643 0.553857 0.627253
0.497108 0.642695 0.774960
0.523369 0.648554 0.773526
0.606592 0.672938 0.766690
0.727413 0.733577 0.751247
0.776699 0.704189 0.782254
0.903044 0.710323 0.794400
0.943877 0.633082 0.709560
0.990356 0.615320 0.658259
0.403143 0.663325 0.790799
0.436591 0.662501 0.789273
0.580072 0.693965 0.790097
0.730098 0.755215 0.792325
0.795499 0.774502 0.801663
0.896056 0.766018 0.810788
0.935424 0.690852 0.727321
0.979461 0.689723 0.697688
0.410620 0.762570 0.808408
0.441718 0.761288 0.807004
0.538140 0.760037 0.804807
0.665614 0.763180 0.805051
0.817655 0.821836 0.817075
0.879301 0.795193 0.810178
0.917205 0.741421 0.737026
0.971374 0.736873 0.713680
0.440925 0.858396 0.832944
0.471138 0.857908 0.832822
0.559716 0.856535 0.832731
0.676051 0.855619 0.834379
0.790402 0.858915 0.840940
0.854307 0.837186 0.817044
0.901640 0.802792 0.761776
0.961822 0.788998 0.733516
0.519951 0.931121 0.861875
0.543420 0.930114 0.861967
0.611841 0.926299 0.861692
0.703456 0.920989 0.862577
0.804562 0.914824 0.865751
0.874754 0.915038 0.874022
0.913603 0.911803 0.888090
0.947539 0.844999 0.757443
0.607080 0.971160 0.885069
0.624170 0.969879 0.885191
0.680781 0.966308 0.887266
0.752316 0.960784 0.890257
0.823636 0.955200 0.895872
0.884459 0.952087 0.906157
0.915984 0.951965 0.906065
0.947387 0.946410 0.921538
0.595819 0.718929 0.849210
0.616266 0.725521 0.848142
0.675563 0.745083 0.840513
0.764767 0.787594 0.826749
0.804318 0.804868 0.826108
0.886748 0.758602 0.878172
0.950317 0.759121 0.849393
0.979675 0.705470 0.792935
0.598444 0.722621 0.849912
0.618341 0.728878 0.848997
0.676997 0.748135 0.842435
0.763638 0.788174 0.829374
0.808072 0.809995 0.826963
0.885466 0.765591 0.877836
0.948577 0.764858 0.850401
0.978119 0.711818 0.794705
0.609064 0.739864 0.857267
0.626856 0.744594 0.856321
0.680781 0.759792 0.850858
0.767697 0.798550 0.844266
0.827726 0.832761 0.836606
0.883574 0.794430 0.879606
0.945068 0.792020 0.859373
0.974182 0.742336 0.807645
0.512902 0.731014 0.866117
0.555779 0.741665 0.866117
0.674647 0.777066 0.864622
0.762448 0.808103 0.861265
0.846799 0.854063 0.854215
0.880369 0.834195 0.882658
0.941497 0.829984 0.874693
0.968902 0.782589 0.826291
0.475288 0.787228 0.876371
0.499306 0.787228 0.876341
0.565484 0.783841 0.874144
0.679561 0.792142 0.871733
0.828000 0.850950 0.873899
0.876036 0.869749 0.883879
0.937835 0.865110 0.890532
0.962463 0.819120 0.843229
0.521965 0.869078 0.893950
0.540032 0.868009 0.893400
0.598047 0.864836 0.891966
0.681788 0.860319 0.890074
0.775479 0.857511 0.888243
0.887816 0.896056 0.896880
0.932097 0.892790 0.902678
0.955566 0.855344 0.860838
0.565026 0.931609 0.908904
0.580072 0.930602 0.908537
0.628382 0.927184 0.907439
0.701472 0.922148 0.906218
0.783169 0.916472 0.905058
0.858885 0.912993 0.905791
0.914519 0.908537 0.902739
0.945586 0.888518 0.875181
0.620752 0.973449 0.919677
0.632471 0.972381 0.919432
0.672755 0.969024 0.919036
0.735103 0.964019 0.919341
0.802884 0.958434 0.920775
0.866606 0.953643 0.923583
0.922942 0.951995 0.931334
0.950622 0.950927 0.939452
