其他预设/【240】TEZZA调色预设合集24款/1.LUT预设（视频调色-PR-AE-PS-FCPX-达芬奇用）/Tezza万事达-Cole01JPG.cube
# Created by Adobe Lightroom plugin Export LUT (1.17.0)
# www.johnrellis.com/lightroom/exportlut.htm
# Preset: Tezza万事达-Cole01JPG
# Color profile: /Library/Application Support/Adobe/Color/Profiles/Recommended/AdobeRGB1998.icc
LUT_3D_SIZE 8
DOMAIN_MIN 0.000000 0.000000 0.000000
DOMAIN_MAX 0.903226 0.903226 0.903226
0.064515 0.048249 0.018891
0.108736 0.058991 0.022004
0.200320 0.059358 0.027710
0.331334 0.022705 0.019654
0.479408 0.052338 0.003662
0.627344 0.133272 0.031250
0.771847 0.241337 0.099855
0.894347 0.370428 0.190005
0.081453 0.091768 0.032715
0.121309 0.093355 0.036133
0.210697 0.091279 0.034974
0.338598 0.091432 0.024872
0.483680 0.111696 0.017273
0.629664 0.169894 0.053407
0.772702 0.266026 0.110506
0.894285 0.387884 0.199313
0.111177 0.180117 0.050752
0.143862 0.184298 0.051087
0.244175 0.192721 0.055970
0.361028 0.194308 0.059113
0.497230 0.216342 0.067994
0.637476 0.261753 0.094423
0.775448 0.338933 0.144015
0.893950 0.443244 0.230564
0.158755 0.315373 0.082765
0.187472 0.318669 0.085084
0.275578 0.329595 0.093446
0.403540 0.341131 0.110933
0.524681 0.348058 0.124636
0.648371 0.375830 0.147250
0.779080 0.438788 0.196994
0.892943 0.525170 0.283330
0.218997 0.469703 0.150118
0.243565 0.472175 0.152255
0.320836 0.480385 0.161624
0.436042 0.493385 0.178439
0.564111 0.505608 0.204837
0.677302 0.518547 0.227817
0.784482 0.549371 0.266423
0.890806 0.617792 0.352148
0.289220 0.629999 0.242893
0.310796 0.631708 0.245151
0.379553 0.637140 0.254459
0.480903 0.646479 0.271489
0.599969 0.658686 0.297124
0.712551 0.669368 0.333135
0.805112 0.681453 0.375830
0.892546 0.719509 0.446998
0.390173 0.779049 0.374060
0.407355 0.779751 0.376989
0.463233 0.782101 0.386542
0.546990 0.786343 0.404181
0.644434 0.792386 0.430365
0.745907 0.800107 0.465248
0.832059 0.806210 0.509392
0.898924 0.817014 0.569696
0.534661 0.892515 0.550805
0.547265 0.892454 0.554437
0.585168 0.892699 0.563409
0.645014 0.893339 0.579156
0.716670 0.894774 0.602228
0.792020 0.897246 0.631464
0.862821 0.901457 0.666255
0.920836 0.904814 0.705562
0.072175 0.071229 0.062776
0.106111 0.067567 0.066346
0.211398 0.069123 0.066285
0.342901 0.086458 0.076692
0.487861 0.109987 0.086976
0.632807 0.168704 0.108553
0.774380 0.262943 0.151369
0.894774 0.383825 0.228153
0.088991 0.099886 0.070222
0.128847 0.101472 0.072633
0.221408 0.109804 0.076295
0.348730 0.120851 0.081575
0.491371 0.145418 0.093202
0.634882 0.197879 0.115694
0.775082 0.284977 0.158724
0.894652 0.400305 0.236210
0.123629 0.187716 0.084199
0.159243 0.193027 0.089479
0.251102 0.201053 0.096010
0.367224 0.208652 0.102754
0.503014 0.234623 0.117311
0.641779 0.279057 0.141390
0.777432 0.352789 0.185794
0.894163 0.453468 0.264439
0.172702 0.321508 0.122164
0.201938 0.325353 0.126314
0.284367 0.335607 0.134249
0.407385 0.347295 0.149935
0.526909 0.356054 0.162600
0.651514 0.386267 0.184176
0.780545 0.448005 0.230961
0.892912 0.532616 0.311955
0.231388 0.474372 0.186740
0.253696 0.476905 0.187350
0.328252 0.484810 0.195590
0.440040 0.497475 0.211337
0.565881 0.509911 0.235386
0.677821 0.523217 0.256382
0.784512 0.553857 0.292332
0.890593 0.623011 0.375586
0.298039 0.632837 0.272496
0.317876 0.634516 0.273564
0.384710 0.639979 0.281926
0.484291 0.649042 0.298192
0.601129 0.661189 0.322454
0.712642 0.671901 0.356878
0.804593 0.684230 0.396582
0.891661 0.722133 0.464698
0.394934 0.780270 0.395453
0.412116 0.780911 0.398505
0.467079 0.783230 0.407782
0.549584 0.787381 0.424414
0.645380 0.793423 0.449805
0.745785 0.801114 0.482948
0.831266 0.807309 0.525048
0.898131 0.818479 0.582300
0.535851 0.892912 0.561913
0.549371 0.892729 0.566766
0.587732 0.892882 0.576287
0.646693 0.893584 0.591302
0.717525 0.895048 0.613153
0.791989 0.897551 0.641260
0.862364 0.901793 0.674464
0.920256 0.905241 0.712367
0.080751 0.104891 0.122072
0.093111 0.106447 0.128817
0.196689 0.098604 0.148714
0.357244 0.088930 0.155795
0.504417 0.133852 0.174533
0.646540 0.228641 0.222232
0.781125 0.309941 0.262242
0.895811 0.418097 0.327428
0.107057 0.126467 0.134829
0.136782 0.136904 0.141268
0.215366 0.132662 0.158816
0.365270 0.135317 0.165469
0.508446 0.195499 0.196475
0.648066 0.251408 0.227878
0.781552 0.328740 0.268284
0.895537 0.432959 0.333867
0.137789 0.210239 0.168338
0.172000 0.213504 0.172976
0.263890 0.222080 0.185458
0.384253 0.243626 0.200504
0.517998 0.273899 0.220768
0.653193 0.319219 0.247318
0.782925 0.388037 0.288457
0.894591 0.481239 0.355962
0.186648 0.337530 0.211490
0.216983 0.341100 0.216129
0.300603 0.351904 0.228061
0.416175 0.364965 0.243137
0.532464 0.376654 0.254704
0.660487 0.415625 0.280735
0.784726 0.474464 0.323735
0.892668 0.554833 0.394903
0.241611 0.486397 0.269444
0.268101 0.489235 0.273991
0.343847 0.497932 0.286015
0.448646 0.510216 0.299382
0.570397 0.523125 0.320470
0.679133 0.537224 0.338293
0.786282 0.571588 0.372198
0.889708 0.639765 0.447364
0.308873 0.641169 0.348943
0.331670 0.643061 0.353124
0.397894 0.648768 0.362615
0.493050 0.657252 0.376654
0.604028 0.668879 0.397925
0.712520 0.679622 0.427100
0.802792 0.693080 0.460731
0.888884 0.730282 0.518242
0.404547 0.784360 0.457221
0.422461 0.784970 0.460731
0.478096 0.786954 0.471595
0.557061 0.790860 0.486580
0.648890 0.796811 0.508476
0.745357 0.804410 0.537194
0.828855 0.810910 0.572412
0.895964 0.823056 0.620600
0.537652 0.894469 0.597650
0.549767 0.894377 0.600397
0.593622 0.893767 0.614862
0.651087 0.894408 0.628717
0.719539 0.895964 0.647333
0.791562 0.898680 0.671626
0.860838 0.902922 0.700710
0.918517 0.906584 0.733852
0.054597 0.157198 0.233616
0.077516 0.160800 0.241245
0.131075 0.171878 0.266331
0.316381 0.157626 0.295567
0.508873 0.154391 0.309972
0.655909 0.203067 0.326146
0.790463 0.319005 0.373297
0.895750 0.468299 0.460822
0.103670 0.181308 0.247196
0.131746 0.189700 0.254032
0.170657 0.198215 0.275792
0.329503 0.187503 0.303929
0.514061 0.191318 0.317388
0.659236 0.237125 0.333471
0.790097 0.358648 0.391089
0.895567 0.479469 0.463416
0.141604 0.242924 0.276127
0.174136 0.247196 0.280858
0.262303 0.270268 0.299474
0.368322 0.272251 0.328954
0.530388 0.289677 0.341894
0.668269 0.343969 0.367285
0.789700 0.436866 0.424079
0.894377 0.520684 0.477882
0.188785 0.363348 0.329992
0.219120 0.366491 0.333806
0.305394 0.376257 0.346410
0.425055 0.391424 0.367834
0.548425 0.420264 0.387579
0.672724 0.459632 0.413275
0.790005 0.514000 0.450324
0.891783 0.587884 0.507225
0.252567 0.507103 0.391241
0.278325 0.509392 0.394110
0.354864 0.517082 0.403601
0.459602 0.529686 0.418921
0.575006 0.543908 0.436378
0.680049 0.558587 0.449073
0.790097 0.602197 0.485969
0.888334 0.665675 0.546502
0.319158 0.655024 0.457252
0.341253 0.656519 0.460060
0.408637 0.661707 0.469429
0.502892 0.669795 0.483711
0.606806 0.680873 0.501091
0.711391 0.692103 0.525109
0.799802 0.706966 0.549096
0.885130 0.741604 0.590509
0.414893 0.791440 0.544579
0.432197 0.791928 0.547082
0.486641 0.793606 0.555962
0.566491 0.796445 0.571649
0.653315 0.802182 0.588373
0.744045 0.809781 0.610285
0.825498 0.816678 0.637293
0.893370 0.829923 0.673518
0.546624 0.897032 0.658167
0.557763 0.896941 0.659968
0.593530 0.896727 0.665553
0.653529 0.896300 0.679774
0.720516 0.897826 0.695308
0.789761 0.900725 0.714565
0.858213 0.904997 0.737911
0.916167 0.908843 0.764950
0.000000 0.226719 0.370153
0.000000 0.230686 0.376806
0.093904 0.242557 0.399542
0.185489 0.260410 0.437537
0.444038 0.238315 0.467597
0.651240 0.249943 0.495308
0.785916 0.331670 0.517632
0.896361 0.451881 0.562249
0.045960 0.248356 0.380194
0.098665 0.255467 0.386419
0.148013 0.265141 0.407080
0.218357 0.281407 0.443549
0.453376 0.263554 0.473610
0.654200 0.277836 0.497902
0.787167 0.355566 0.522332
0.896330 0.469947 0.567132
0.133394 0.289128 0.398383
0.167697 0.299016 0.405310
0.251072 0.328588 0.426978
0.304265 0.345190 0.461250
0.481727 0.339910 0.492805
0.663813 0.361364 0.513207
0.791073 0.429389 0.539086
0.896513 0.526329 0.582574
0.178927 0.391577 0.443519
0.209598 0.394720 0.447150
0.294774 0.405097 0.458930
0.412909 0.437598 0.486458
0.525689 0.448920 0.522972
0.678370 0.476905 0.541039
0.797269 0.532708 0.566674
0.890440 0.631250 0.630060
0.244633 0.527733 0.506523
0.270909 0.530114 0.509331
0.349279 0.537987 0.519371
0.458015 0.551263 0.536584
0.578759 0.570459 0.560998
0.689937 0.600671 0.580804
0.795285 0.640772 0.608179
0.888457 0.693355 0.647272
0.331456 0.670100 0.573205
0.352941 0.672114 0.576135
0.419654 0.678767 0.586572
0.511376 0.686091 0.596979
0.610132 0.695766 0.608820
0.710201 0.707851 0.625574
0.797055 0.721584 0.637385
0.885740 0.762020 0.676081
0.431586 0.801053 0.644648
0.447761 0.801480 0.646265
0.499245 0.802853 0.652125
0.572107 0.805478 0.660426
0.653529 0.809659 0.669581
0.740810 0.817105 0.685451
0.822446 0.824308 0.705287
0.891478 0.837339 0.729244
0.560418 0.900725 0.729335
0.570581 0.900664 0.730556
0.603388 0.900511 0.734005
0.652399 0.900633 0.738033
0.716396 0.900999 0.746456
0.786496 0.903716 0.761471
0.854459 0.907988 0.779416
0.913878 0.911986 0.800290
0.000000 0.312902 0.520958
0.000000 0.316503 0.526513
0.000000 0.327550 0.545281
0.141939 0.345495 0.577508
0.260929 0.369726 0.620935
0.575067 0.342718 0.641596
0.775418 0.384588 0.683009
0.884672 0.497749 0.700221
0.000000 0.330999 0.527398
0.000000 0.336584 0.532891
0.080385 0.346258 0.550561
0.184878 0.362890 0.581720
0.287327 0.386725 0.624201
0.581140 0.363409 0.645075
0.776608 0.404669 0.683894
0.884764 0.513054 0.702937
0.077913 0.367681 0.540826
0.126589 0.375189 0.546044
0.225528 0.400549 0.564691
0.283574 0.416632 0.593774
0.363622 0.440955 0.633906
0.600336 0.428351 0.656336
0.780423 0.468086 0.687190
0.885313 0.561181 0.711299
0.152773 0.438300 0.567987
0.186984 0.440467 0.570520
0.275822 0.447730 0.578851
0.396216 0.494759 0.609888
0.462074 0.520165 0.647730
0.630671 0.523186 0.673823
0.786709 0.557946 0.693996
0.887175 0.629419 0.723415
0.227054 0.558068 0.616663
0.253880 0.559899 0.618647
0.331304 0.565942 0.625635
0.435828 0.574914 0.636927
0.560174 0.607385 0.661769
0.667323 0.626032 0.696040
0.796475 0.656031 0.713588
0.891081 0.707698 0.738888
0.323522 0.687739 0.671992
0.344335 0.688930 0.673610
0.408728 0.692988 0.679194
0.501671 0.700099 0.688960
0.604028 0.710872 0.703243
0.711391 0.728786 0.724849
0.804257 0.754177 0.741451
0.888853 0.787167 0.765194
0.446235 0.806882 0.730190
0.461616 0.807614 0.731930
0.510857 0.810391 0.737850
0.581689 0.815702 0.747890
0.658595 0.820981 0.755734
0.739376 0.826810 0.763027
0.820462 0.834623 0.776303
0.889891 0.844968 0.786801
0.579706 0.905516 0.799496
0.588678 0.905486 0.800198
0.618097 0.905455 0.802090
0.662684 0.905791 0.804562
0.717769 0.906615 0.807187
0.781765 0.907988 0.812284
0.850095 0.912169 0.825101
0.911986 0.916411 0.840085
0.000000 0.424323 0.683558
0.000000 0.426856 0.687068
0.000000 0.435676 0.699367
0.089143 0.450568 0.720333
0.255558 0.472724 0.748653
0.388830 0.464302 0.779751
0.700526 0.482826 0.789212
0.873808 0.556085 0.831510
0.000000 0.438209 0.686305
0.000000 0.441718 0.689815
0.000000 0.449714 0.701625
0.153719 0.463935 0.722133
0.283146 0.485786 0.749966
0.407141 0.484871 0.781125
0.704005 0.498268 0.790524
0.874083 0.568200 0.831540
0.000000 0.464851 0.691798
0.000000 0.471382 0.695369
0.194217 0.492073 0.707546
0.268467 0.505791 0.727138
0.359411 0.527337 0.753902
0.464057 0.550103 0.785275
0.715785 0.547417 0.794980
0.875242 0.606592 0.831571
0.066896 0.499947 0.698116
0.130251 0.504723 0.700893
0.246830 0.526177 0.712215
0.383062 0.566369 0.732906
0.454139 0.588739 0.758968
0.541619 0.622614 0.790219
0.733822 0.617182 0.802457
0.877836 0.661952 0.831144
0.200107 0.605188 0.730770
0.227878 0.605615 0.731594
0.304845 0.606775 0.734340
0.403357 0.606378 0.738277
0.544182 0.655573 0.762356
0.617060 0.687617 0.794675
0.757321 0.693843 0.812833
0.882353 0.726802 0.830198
0.316960 0.719326 0.767880
0.335760 0.719814 0.768582
0.394354 0.721279 0.770932
0.477760 0.723201 0.774716
0.573144 0.725124 0.779904
0.690486 0.752865 0.798489
0.786374 0.773831 0.826932
0.889647 0.799161 0.841550
0.444129 0.822812 0.805936
0.457801 0.823056 0.806577
0.501579 0.823941 0.808804
0.566217 0.825742 0.812894
0.645075 0.829129 0.819333
0.732357 0.835569 0.829435
0.821988 0.848783 0.846189
0.896574 0.866331 0.858549
0.586206 0.906462 0.849882
0.594812 0.906645 0.850614
0.623163 0.907408 0.853147
0.668208 0.909056 0.857633
0.725978 0.912016 0.864408
0.786404 0.915038 0.869902
0.847349 0.917967 0.873686
0.911223 0.922576 0.883513
0.000000 0.561151 0.831724
0.000000 0.562890 0.833463
0.000000 0.569085 0.839353
0.181460 0.580529 0.849516
0.319829 0.598962 0.863127
0.447395 0.628260 0.878996
0.596307 0.624475 0.892851
0.814664 0.650141 0.895628
0.000000 0.571252 0.832242
0.000000 0.572808 0.833890
0.021973 0.578698 0.839719
0.218631 0.589807 0.849760
0.341161 0.608057 0.863279
0.462043 0.637171 0.879057
0.601801 0.634424 0.893156
0.816159 0.658595 0.895995
0.000000 0.586908 0.833555
0.000000 0.592279 0.835019
0.226871 0.608240 0.840391
0.307012 0.619043 0.850248
0.401831 0.637140 0.863523
0.506401 0.665400 0.879210
0.619409 0.666438 0.894347
0.821836 0.685725 0.897246
0.000000 0.605585 0.834653
0.033845 0.610498 0.836057
0.248569 0.628840 0.841062
0.402686 0.661769 0.850065
0.478737 0.679866 0.863340
0.564782 0.705623 0.879271
0.650813 0.718898 0.896178
0.831174 0.726223 0.899657
0.163668 0.672175 0.845518
0.192874 0.670954 0.845518
0.267765 0.666041 0.845335
0.373144 0.673823 0.849088
0.548028 0.725032 0.861723
0.622614 0.748959 0.878782
0.701472 0.780056 0.897581
0.844358 0.775204 0.903471
0.323400 0.772396 0.865080
0.338567 0.771817 0.865171
0.385962 0.769406 0.865171
0.454719 0.763790 0.864866
0.536767 0.753353 0.863951
0.679591 0.793545 0.876677
0.752651 0.822690 0.898375
0.861906 0.827756 0.909239
0.467933 0.860288 0.885588
0.477882 0.859983 0.885679
0.509911 0.858854 0.886046
0.560784 0.856626 0.886534
0.626062 0.853056 0.887205
0.700954 0.847898 0.887938
0.802152 0.863310 0.897459
0.884459 0.880369 0.917723
0.596368 0.924468 0.906462
0.602991 0.924315 0.906645
0.625605 0.923827 0.907286
0.663844 0.923095 0.908537
0.714534 0.922393 0.910552
0.774258 0.922301 0.913756
0.840635 0.924132 0.919158
0.913634 0.932006 0.930602
