其他预设/【230】现代都市风格预设9款/3.XMP格式(PS)预设/现代都市风格-6.xmp
<x:xmpmeta xmlns:x="adobe:ns:meta/" x:xmptk="Adobe XMP Core 5.6-c140 79.160451, 2017/05/06-01:08:21        ">
 <rdf:RDF xmlns:rdf="http://www.w3.org/1999/02/22-rdf-syntax-ns#">
  <rdf:Description rdf:about=""
    xmlns:crs="http://ns.adobe.com/camera-raw-settings/1.0/"
   crs:PresetType="Normal"
   crs:Cluster=""
   crs:UUID="652D2878569B32BDB7BE49C262A930D6"
   crs:SupportsAmount="False"
   crs:SupportsColor="True"
   crs:SupportsMonochrome="True"
   crs:SupportsHighDynamicRange="True"
   crs:SupportsNormalDynamicRange="True"
   crs:SupportsSceneReferred="True"
   crs:SupportsOutputReferred="True"
   crs:CameraModelRestriction=""
   crs:Copyright=""
   crs:ContactInfo=""
   crs:Version="10.5"
   crs:ProcessVersion="6.7"
   crs:WhiteBalance="As Shot"
   crs:Saturation="-30"
   crs:Sharpness="40"
   crs:LuminanceSmoothing="0"
   crs:ColorNoiseReduction="0"
   crs:VignetteAmount="0"
   crs:ShadowTint="0"
   crs:RedHue="+31"
   crs:RedSaturation="-4"
   crs:GreenHue="+4"
   crs:GreenSaturation="+47"
   crs:BlueHue="-36"
   crs:BlueSaturation="-100"
   crs:Vibrance="0"
   crs:HueAdjustmentRed="+40"
   crs:HueAdjustmentOrange="-20"
   crs:HueAdjustmentYellow="-20"
   crs:HueAdjustmentGreen="-5"
   crs:HueAdjustmentAqua="-15"
   crs:HueAdjustmentBlue="-20"
   crs:HueAdjustmentPurple="-20"
   crs:HueAdjustmentMagenta="0"
   crs:SaturationAdjustmentRed="-15"
   crs:SaturationAdjustmentOrange="+50"
   crs:SaturationAdjustmentYellow="+25"
   crs:SaturationAdjustmentGreen="-30"
   crs:SaturationAdjustmentAqua="-50"
   crs:SaturationAdjustmentBlue="-50"
   crs:SaturationAdjustmentPurple="0"
   crs:SaturationAdjustmentMagenta="0"
   crs:LuminanceAdjustmentRed="+30"
   crs:LuminanceAdjustmentOrange="+30"
   crs:LuminanceAdjustmentYellow="+40"
   crs:LuminanceAdjustmentGreen="-30"
   crs:LuminanceAdjustmentAqua="-40"
   crs:LuminanceAdjustmentBlue="-35"
   crs:LuminanceAdjustmentPurple="+10"
   crs:LuminanceAdjustmentMagenta="+10"
   crs:SplitToningShadowHue="73"
   crs:SplitToningShadowSaturation="5"
   crs:SplitToningHighlightHue="167"
   crs:SplitToningHighlightSaturation="0"
   crs:SplitToningBalance="+60"
   crs:ParametricShadows="0"
   crs:ParametricDarks="0"
   crs:ParametricLights="0"
   crs:ParametricHighlights="0"
   crs:ParametricShadowSplit="25"
   crs:ParametricMidtoneSplit="50"
   crs:ParametricHighlightSplit="75"
   crs:SharpenRadius="+1.4"
   crs:SharpenDetail="35"
   crs:SharpenEdgeMasking="0"
   crs:PostCropVignetteAmount="0"
   crs:GrainAmount="20"
   crs:GrainSize="80"
   crs:GrainFrequency="65"
   crs:LensProfileEnable="0"
   crs:LensManualDistortionAmount="0"
   crs:PerspectiveVertical="0"
   crs:PerspectiveHorizontal="0"
   crs:PerspectiveRotate="0.0"
   crs:PerspectiveScale="100"
   crs:PerspectiveAspect="0"
   crs:PerspectiveUpright="0"
   crs:PerspectiveX="0.00"
   crs:PerspectiveY="0.00"
   crs:AutoLateralCA="0"
   crs:Exposure2012="0.00"
   crs:Contrast2012="-20"
   crs:Highlights2012="+20"
   crs:Shadows2012="+10"
   crs:Whites2012="+20"
   crs:Blacks2012="-20"
   crs:Clarity2012="+5"
   crs:DefringePurpleAmount="0"
   crs:DefringePurpleHueLo="30"
   crs:DefringePurpleHueHi="70"
   crs:DefringeGreenAmount="0"
   crs:DefringeGreenHueLo="40"
   crs:DefringeGreenHueHi="60"
   crs:Dehaze="0"
   crs:ConvertToGrayscale="False"
   crs:OverrideLookVignette="False"
   crs:ToneCurveName2012="Custom"
   crs:CameraProfile="Embedded"
   crs:LensProfileSetup="LensDefaults"
   crs:HasSettings="True">
   <crs:Name>
    <rdf:Alt>
     <rdf:li xml:lang="x-default">现代都市风格[素锦印象]-6</rdf:li>
    </rdf:Alt>
   </crs:Name>
   <crs:ShortName>
    <rdf:Alt>
     <rdf:li xml:lang="x-default"/>
    </rdf:Alt>
   </crs:ShortName>
   <crs:SortName>
    <rdf:Alt>
     <rdf:li xml:lang="x-default"/>
    </rdf:Alt>
   </crs:SortName>
   <crs:Group>
    <rdf:Alt>
     <rdf:li xml:lang="x-default">现代都市风格[sujinyinxiang.taobao.com]</rdf:li>
    </rdf:Alt>
   </crs:Group>
   <crs:Description>
    <rdf:Alt>
     <rdf:li xml:lang="x-default"/>
    </rdf:Alt>
   </crs:Description>
   <crs:ToneCurvePV2012>
    <rdf:Seq>
     <rdf:li>0, 11</rdf:li>
     <rdf:li>79, 65</rdf:li>
     <rdf:li>127, 128</rdf:li>
     <rdf:li>165, 184</rdf:li>
     <rdf:li>255, 248</rdf:li>
    </rdf:Seq>
   </crs:ToneCurvePV2012>
   <crs:ToneCurvePV2012Red>
    <rdf:Seq>
     <rdf:li>0, 13</rdf:li>
     <rdf:li>38, 30</rdf:li>
     <rdf:li>65, 61</rdf:li>
     <rdf:li>127, 127</rdf:li>
     <rdf:li>175, 175</rdf:li>
     <rdf:li>255, 247</rdf:li>
    </rdf:Seq>
   </crs:ToneCurvePV2012Red>
   <crs:ToneCurvePV2012Green>
    <rdf:Seq>
     <rdf:li>6, 0</rdf:li>
     <rdf:li>80, 80</rdf:li>
     <rdf:li>142, 144</rdf:li>
     <rdf:li>211, 214</rdf:li>
     <rdf:li>255, 255</rdf:li>
    </rdf:Seq>
   </crs:ToneCurvePV2012Green>
   <crs:ToneCurvePV2012Blue>
    <rdf:Seq>
     <rdf:li>0, 0</rdf:li>
     <rdf:li>48, 41</rdf:li>
     <rdf:li>128, 121</rdf:li>
     <rdf:li>165, 159</rdf:li>
     <rdf:li>255, 255</rdf:li>
    </rdf:Seq>
   </crs:ToneCurvePV2012Blue>
   <crs:Look
    crs:Name=""/>
  </rdf:Description>
 </rdf:RDF>
</x:xmpmeta>
