其他预设/【237】莫兰迪灰色调LR预设合集/Vibrant days/Lightroom Desktop/Vibrant days no.1.lrtemplate
s = {
	id = "1FE05AA3-14D5-4969-8C3F-A16787C0054F",
	internalName = "Vibrant days no.1",
	title = "Vibrant days no.1",
	type = "Develop",
	value = {
		settings = {
			AutoLateralCA = 0,
			Blacks2012 = 80,
			BlueHue = -10,
			BlueSaturation = -10,
			CameraProfile = "Adobe Standard",
			ChromaticAberrationB = 0,
			ChromaticAberrationR = 0,
			Clarity2012 = 10,
			ColorNoiseReduction = 0,
			ColorNoiseReductionDetail = 50,
			ColorNoiseReductionSmoothness = 50,
			Contrast2012 = 2,
			ConvertToGrayscale = false,
			CropConstrainToWarp = 0,
			Defringe = 0,
			DefringeGreenAmount = 0,
			DefringeGreenHueHi = 60,
			DefringeGreenHueLo = 40,
			DefringePurpleAmount = 0,
			DefringePurpleHueHi = 70,
			DefringePurpleHueLo = 30,
			Dehaze = 0,
			EnableCalibration = true,
			EnableColorAdjustments = true,
			EnableDetail = true,
			EnableEffects = true,
			EnableLensCorrections = true,
			EnableSplitToning = true,
			Exposure2012 = 0.1,
			GrainAmount = 0,
			GrainFrequency = 50,
			GrainSize = 25,
			GreenHue = 100,
			GreenSaturation = -42,
			Highlights2012 = -80,
			HueAdjustmentAqua = 53,
			HueAdjustmentBlue = 61,
			HueAdjustmentGreen = 39,
			HueAdjustmentMagenta = 20,
			HueAdjustmentOrange = -11,
			HueAdjustmentPurple = 0,
			HueAdjustmentRed = -11,
			HueAdjustmentYellow = -41,
			LensManualDistortionAmount = 0,
			LuminanceAdjustmentAqua = -9,
			LuminanceAdjustmentBlue = -15,
			LuminanceAdjustmentGreen = -66,
			LuminanceAdjustmentMagenta = 5,
			LuminanceAdjustmentOrange = -25,
			LuminanceAdjustmentPurple = 15,
			LuminanceAdjustmentRed = -10,
			LuminanceAdjustmentYellow = 16,
			LuminanceNoiseReductionContrast = 0,
			LuminanceNoiseReductionDetail = 50,
			LuminanceSmoothing = 0,
			ParametricDarks = 5,
			ParametricHighlightSplit = 75,
			ParametricHighlights = 5,
			ParametricLights = 0,
			ParametricMidtoneSplit = 43,
			ParametricShadowSplit = 14,
			ParametricShadows = 0,
			PostCropVignetteAmount = 0,
			PostCropVignetteFeather = 50,
			PostCropVignetteHighlightContrast = 0,
			PostCropVignetteMidpoint = 50,
			PostCropVignetteRoundness = 0,
			PostCropVignetteStyle = 1,
			ProcessVersion = "10.0",
			RedHue = 49,
			RedSaturation = 12,
			Saturation = -20,
			SaturationAdjustmentAqua = -64,
			SaturationAdjustmentBlue = -76,
			SaturationAdjustmentGreen = -59,
			SaturationAdjustmentMagenta = -35,
			SaturationAdjustmentOrange = -23,
			SaturationAdjustmentPurple = -40,
			SaturationAdjustmentRed = -56,
			SaturationAdjustmentYellow = -52,
			ShadowTint = -2,
			Shadows2012 = 77,
			SharpenDetail = 25,
			SharpenEdgeMasking = 0,
			SharpenRadius = 1,
			Sharpness = 0,
			SplitToningBalance = 30,
			SplitToningHighlightHue = 0,
			SplitToningHighlightSaturation = 0,
			SplitToningShadowHue = 57,
			SplitToningShadowSaturation = 13,
			Temperature = 4769,
			Tint = 13,
			ToneCurveName2012 = "Custom",
			ToneCurvePV2012 = {
				0,
				0,
				48,
				44,
				122,
				120,
				255,
				255,
			},
			ToneCurvePV2012Blue = {
				0,
				0,
				43,
				22,
				121,
				122,
				175,
				200,
				255,
				255,
			},
			ToneCurvePV2012Green = {
				0,
				0,
				67,
				36,
				120,
				125,
				179,
				205,
				255,
				255,
			},
			ToneCurvePV2012Red = {
				0,
				0,
				20,
				3,
				60,
				20,
				119,
				121,
				177,
				202,
				255,
				255,
			},
			Vibrance = -2,
			VignetteAmount = 0,
			VignetteMidpoint = 50,
			WhiteBalance = "Custom",
			Whites2012 = 33,
		},
		uuid = "9C1AC5AD-F98B-4D27-88FA-FB3F60C0394F",
	},
	version = 0,
}
