其他预设/【231】淡彩糖果色预设10款/1.LUT预设（视频调色-PR-AE-PS-FCPX-达芬奇用）/淡彩糖果色__-10.cube
# Created by Adobe Lightroom plugin Export LUT (1.17.0)
# www.johnrellis.com/lightroom/exportlut.htm
# Preset: 淡彩糖果色[素锦印象]-10
# Color profile: /Library/Application Support/Adobe/Color/Profiles/Recommended/AdobeRGB1998.icc
LUT_3D_SIZE 5
DOMAIN_MIN 0.000000 0.000000 0.000000
DOMAIN_MAX 0.903226 0.903226 0.903226
0.009613 0.010956 0.009674
0.507530 0.237797 0.000000
0.843839 0.415900 0.107790
0.944305 0.523919 0.289799
0.979767 0.603845 0.432990
0.032319 0.163851 0.065553
0.427527 0.314458 0.000000
0.825254 0.465095 0.083894
0.938323 0.541497 0.282048
0.978943 0.615290 0.437110
0.000000 0.392950 0.123690
0.359869 0.472297 0.000000
0.785580 0.574517 0.000000
0.924926 0.604791 0.276249
0.973175 0.643183 0.433845
0.000000 0.599420 0.188510
0.320012 0.656794 0.136355
0.720760 0.664118 0.000000
0.907073 0.678676 0.215061
0.964752 0.694026 0.439338
0.000000 0.775814 0.230655
0.355230 0.794003 0.300389
0.629267 0.818540 0.000000
0.908751 0.757382 0.000000
0.960357 0.754391 0.440803
0.104738 0.244175 0.259464
0.344030 0.194278 0.302464
0.795682 0.467720 0.219791
0.928008 0.545068 0.260807
0.976013 0.609033 0.421973
0.085847 0.269871 0.248661
0.301823 0.305303 0.286992
0.778012 0.504906 0.247440
0.924071 0.561913 0.258183
0.974762 0.618067 0.423102
0.156161 0.346105 0.250828
0.299229 0.462440 0.301488
0.738735 0.576135 0.236454
0.912078 0.618372 0.254643
0.970550 0.649226 0.428199
0.188205 0.567620 0.325383
0.322393 0.631434 0.345129
0.685969 0.679316 0.157900
0.901518 0.682551 0.160006
0.962799 0.699794 0.436561
0.185214 0.755550 0.353002
0.297490 0.777249 0.355749
0.579156 0.831540 0.000000
0.905486 0.766293 0.000000
0.960876 0.756374 0.430976
0.258946 0.497108 0.530297
0.312963 0.500603 0.523430
0.648585 0.452979 0.591363
0.876097 0.653986 0.582513
0.968292 0.641901 0.439063
0.242771 0.509483 0.519799
0.335698 0.514855 0.521996
0.630854 0.492287 0.583093
0.870024 0.664424 0.585595
0.969024 0.644831 0.427405
0.221378 0.541863 0.511162
0.329015 0.548760 0.517693
0.581415 0.578790 0.560571
0.857908 0.697566 0.591363
0.966033 0.668513 0.425360
0.225467 0.555077 0.464485
0.340276 0.568566 0.480964
0.581750 0.672694 0.570703
0.846616 0.734768 0.568200
0.958099 0.716213 0.432563
0.392065 0.685054 0.526116
0.393164 0.697383 0.522057
0.560998 0.783536 0.566339
0.853544 0.804959 0.385595
0.960204 0.758938 0.383825
0.464393 0.662623 0.700008
0.455116 0.662867 0.694240
0.599023 0.674037 0.698756
0.787594 0.626398 0.738552
0.910765 0.783688 0.763912
0.455512 0.666407 0.694820
0.445869 0.665675 0.688777
0.596948 0.675593 0.695247
0.780270 0.637263 0.734401
0.910094 0.783902 0.760769
0.441932 0.678340 0.687526
0.431891 0.677943 0.681239
0.587396 0.684871 0.689570
0.762387 0.672267 0.726406
0.911681 0.788937 0.752407
0.433539 0.706111 0.685237
0.422431 0.704982 0.678248
0.566766 0.707332 0.685786
0.730098 0.722652 0.711208
0.916045 0.797971 0.726589
0.470893 0.752132 0.696498
0.464881 0.747890 0.686580
0.506767 0.732753 0.658991
0.726436 0.801755 0.716152
0.917052 0.822782 0.691829
0.667170 0.789029 0.820798
0.663416 0.788937 0.818936
0.679896 0.790280 0.814694
0.769741 0.798154 0.826993
0.877134 0.768643 0.843107
0.666072 0.790585 0.820310
0.662501 0.790463 0.818540
0.677058 0.791653 0.814328
0.770199 0.799741 0.824033
0.876310 0.772976 0.843320
0.666072 0.796262 0.820493
0.663844 0.796109 0.819394
0.656367 0.796323 0.813718
0.767544 0.803403 0.817868
0.873899 0.786740 0.844205
0.663966 0.807645 0.819852
0.661769 0.807675 0.818784
0.654658 0.807828 0.815274
0.741726 0.810666 0.817777
0.869108 0.810147 0.845274
0.663142 0.825345 0.820066
0.661128 0.825772 0.819089
0.653864 0.827787 0.815610
0.710323 0.829923 0.815305
0.851286 0.844053 0.838224
