其他预设/【231】淡彩糖果色预设10款/1.LUT预设（视频调色-PR-AE-PS-FCPX-达芬奇用）/淡彩糖果色__-5.cube
# Created by Adobe Lightroom plugin Export LUT (1.17.0)
# www.johnrellis.com/lightroom/exportlut.htm
# Preset: 淡彩糖果色[素锦印象]-5
# Color profile: /Library/Application Support/Adobe/Color/Profiles/Recommended/AdobeRGB1998.icc
LUT_3D_SIZE 5
DOMAIN_MIN 0.000000 0.000000 0.000000
DOMAIN_MAX 0.903226 0.903226 0.903226
0.000000 0.000000 0.000000
0.453956 0.165164 0.000000
0.809964 0.322637 0.068147
0.982269 0.443671 0.234897
1.000000 0.535363 0.350225
0.348852 0.431067 0.000000
0.415473 0.344945 0.000000
0.790127 0.404608 0.088472
0.977569 0.487648 0.240177
1.000000 0.562036 0.356390
0.614618 0.762295 0.000000
0.747494 0.765286 0.000000
0.729854 0.623743 0.000000
0.963897 0.608270 0.236790
1.000000 0.622766 0.337835
0.747738 0.929564 0.164462
0.813748 0.929656 0.203464
0.906004 0.900847 0.221256
0.901579 0.789029 0.112581
1.000000 0.750271 0.264469
0.801755 1.000000 0.062104
0.839261 1.000000 0.119570
0.947936 0.998077 0.208255
0.995941 0.977569 0.167300
1.000000 0.928801 0.000000
0.000000 0.264805 0.386603
0.363653 0.064210 0.378302
0.723842 0.086732 0.327153
0.941863 0.483833 0.437751
1.000000 0.606195 0.513848
0.142611 0.370001 0.347692
0.375372 0.342199 0.348394
0.729458 0.446387 0.393225
0.938903 0.548913 0.455421
1.000000 0.620783 0.508751
0.486122 0.709621 0.361181
0.639734 0.716945 0.406714
0.690181 0.601617 0.328923
0.937041 0.628046 0.431037
1.000000 0.669978 0.492988
0.719966 0.913695 0.436469
0.785824 0.914946 0.469947
0.899290 0.899351 0.481758
0.888579 0.786343 0.330297
1.000000 0.764736 0.422797
0.799924 1.000000 0.410895
0.834806 1.000000 0.425086
0.940642 0.998474 0.479377
0.991974 0.979522 0.418616
1.000000 0.932219 0.280339
0.000000 0.462684 0.670405
0.000000 0.330114 0.666163
0.609888 0.188693 0.643702
0.834104 0.215244 0.609613
1.000000 0.390967 0.570031
0.000000 0.571832 0.648157
0.294713 0.498573 0.642756
0.617609 0.349187 0.635279
0.846159 0.374853 0.607904
1.000000 0.522118 0.607263
0.270878 0.639918 0.604578
0.399908 0.627192 0.602777
0.633509 0.592065 0.602319
0.878416 0.702449 0.680995
1.000000 0.771054 0.726253
0.536828 0.859037 0.596948
0.611810 0.856718 0.613184
0.833494 0.873411 0.715114
0.854826 0.784604 0.601068
1.000000 0.813413 0.688380
0.795712 0.989014 0.711269
0.822599 0.990112 0.717433
0.901823 0.991852 0.724605
0.978607 0.980346 0.713893
1.000000 0.932341 0.555352
0.000000 0.589899 0.838102
0.000000 0.534020 0.839261
0.372259 0.347875 0.838804
0.770321 0.309361 0.821500
0.966674 0.317388 0.802670
0.000000 0.656886 0.829435
0.238773 0.619562 0.828367
0.401434 0.435706 0.828519
0.770413 0.399603 0.811704
0.961913 0.392370 0.795987
0.220615 0.758419 0.806424
0.355779 0.752529 0.804837
0.586572 0.687709 0.801175
0.780911 0.584741 0.794461
0.962860 0.570245 0.786374
0.411963 0.818051 0.776089
0.478462 0.809964 0.774075
0.631891 0.792294 0.774289
0.798978 0.765621 0.775051
0.986145 0.873014 0.857542
0.630823 0.968688 0.780240
0.672450 0.968627 0.786069
0.790036 0.972381 0.811124
0.949248 0.981994 0.883085
0.984344 0.937255 0.773861
0.000000 0.710567 0.976898
0.022034 0.680079 0.977691
0.275364 0.558679 0.980591
0.632807 0.461311 0.977722
0.903197 0.442359 0.971679
0.187106 0.753597 0.973114
0.314275 0.734951 0.972992
0.392706 0.627893 0.976318
0.647333 0.519280 0.975555
0.906981 0.495247 0.970153
0.221805 0.861418 0.964538
0.341161 0.844785 0.965118
0.586755 0.793942 0.964843
0.678035 0.653925 0.969848
0.917845 0.623255 0.965423
0.402716 0.926207 0.954223
0.460151 0.923644 0.954437
0.600305 0.914672 0.955230
0.781674 0.863401 0.957214
0.934173 0.779965 0.957549
0.554925 0.986542 0.936828
0.587610 0.984192 0.937469
0.683345 0.975769 0.939208
0.815244 0.961883 0.942535
0.954070 0.943481 0.946746
