其他预设/【231】淡彩糖果色预设10款/1.LUT预设（视频调色-PR-AE-PS-FCPX-达芬奇用）/淡彩糖果色__-3.cube
# Created by Adobe Lightroom plugin Export LUT (1.17.0)
# www.johnrellis.com/lightroom/exportlut.htm
# Preset: 淡彩糖果色[素锦印象]-3
# Color profile: /Library/Application Support/Adobe/Color/Profiles/Recommended/AdobeRGB1998.icc
LUT_3D_SIZE 8
DOMAIN_MIN 0.000000 0.000000 0.000000
DOMAIN_MAX 0.903226 0.903226 0.903226
0.064881 0.064881 0.064881
0.199222 0.082582 0.059449
0.375769 0.122866 0.028229
0.536950 0.168551 0.003082
0.681392 0.213809 0.021729
0.809903 0.258976 0.077119
0.918486 0.299199 0.106630
1.000000 0.331609 0.121401
0.000000 0.198520 0.095613
0.189334 0.198398 0.046693
0.381598 0.199191 0.028656
0.537957 0.222354 0.023346
0.680415 0.252750 0.047395
0.804532 0.286473 0.083864
0.911254 0.318639 0.109041
1.000000 0.347143 0.122011
0.000000 0.371649 0.165042
0.023377 0.376074 0.021729
0.348913 0.367407 0.032898
0.558190 0.371038 0.065705
0.715114 0.373754 0.090852
0.830137 0.383764 0.119814
0.934356 0.400183 0.145327
1.000000 0.412787 0.154757
0.000000 0.526848 0.238773
0.000000 0.529595 0.176730
0.269932 0.534569 0.022461
0.515709 0.543328 0.077455
0.720577 0.546929 0.125216
0.873350 0.528130 0.180026
0.953704 0.512718 0.192447
1.000000 0.503990 0.192386
0.000000 0.674556 0.308141
0.000000 0.676814 0.270237
0.071901 0.685420 0.093477
0.434943 0.688106 0.083131
0.641077 0.675013 0.121645
0.809079 0.659510 0.167178
0.945342 0.641627 0.217502
1.000000 0.613214 0.242069
0.000000 0.788785 0.364080
0.000000 0.796445 0.341711
0.000000 0.802884 0.218997
0.327794 0.805020 0.130373
0.561730 0.797543 0.135317
0.746944 0.785672 0.165042
0.903685 0.769619 0.205051
1.000000 0.743801 0.247501
0.000000 0.895750 0.411872
0.000000 0.898100 0.394079
0.000000 0.900877 0.312413
0.167819 0.904906 0.162844
0.472175 0.900694 0.149813
0.669215 0.892088 0.166781
0.839322 0.881712 0.193576
0.983764 0.862119 0.216831
0.000000 0.990417 0.448096
0.000000 0.990967 0.432502
0.000000 0.993927 0.371405
0.000000 1.000000 0.207034
0.363043 0.991028 0.157931
0.588434 0.987213 0.153262
0.765988 0.979889 0.178073
0.923217 0.968811 0.196902
0.000000 0.086702 0.212833
0.200748 0.019257 0.205570
0.351293 0.054353 0.171756
0.494362 0.176761 0.186404
0.646479 0.218601 0.185122
0.778103 0.262943 0.189944
0.892912 0.302281 0.195010
0.993164 0.335210 0.194644
0.000000 0.196597 0.207156
0.182132 0.194064 0.203006
0.345464 0.200015 0.194675
0.503624 0.224308 0.190646
0.652369 0.255650 0.188693
0.779446 0.290043 0.193027
0.889036 0.321233 0.195651
0.988495 0.349401 0.193881
0.000000 0.355749 0.259007
0.151980 0.355016 0.241672
0.338415 0.355718 0.192660
0.542229 0.359869 0.207126
0.686244 0.368505 0.207095
0.802396 0.380591 0.211856
0.907012 0.396368 0.215457
1.000000 0.412390 0.214878
0.000000 0.508751 0.304814
0.096254 0.508751 0.288151
0.256260 0.521691 0.182071
0.493751 0.519707 0.193790
0.689754 0.523522 0.217624
0.837766 0.512871 0.246159
0.927367 0.504326 0.246799
1.000000 0.501579 0.241947
0.000000 0.663050 0.362646
0.000000 0.662135 0.345464
0.088411 0.671565 0.203922
0.422217 0.671443 0.182773
0.624170 0.656703 0.202243
0.793576 0.647120 0.233219
0.934112 0.636103 0.274418
1.000000 0.613214 0.287877
0.000000 0.776059 0.404761
0.000000 0.777340 0.389532
0.000000 0.784543 0.297520
0.320195 0.791379 0.202640
0.554894 0.787930 0.204746
0.741634 0.779355 0.228611
0.897612 0.765133 0.260349
1.000000 0.741482 0.294530
0.000000 0.882292 0.446265
0.000000 0.882170 0.428748
0.000000 0.886564 0.359594
0.165347 0.895048 0.218204
0.468605 0.893736 0.209812
0.664851 0.885405 0.220127
0.832242 0.873808 0.239384
0.975402 0.854856 0.256474
0.000000 0.983032 0.477272
0.000000 0.984375 0.463844
0.000000 0.987915 0.409491
0.000000 0.995575 0.277775
0.371740 0.994324 0.224308
0.591638 0.988159 0.214694
0.765713 0.978149 0.229007
0.920989 0.965942 0.241062
0.000000 0.137453 0.410742
0.114443 0.074311 0.400580
0.362188 0.000000 0.374365
0.492073 0.093660 0.345464
0.631037 0.093416 0.307225
0.753353 0.223667 0.311162
0.866850 0.325139 0.335485
0.980163 0.361791 0.333532
0.000000 0.285801 0.404791
0.103243 0.221714 0.396002
0.352056 0.175082 0.369574
0.484871 0.184665 0.343389
0.626612 0.176425 0.306157
0.743984 0.286015 0.326055
0.865843 0.342809 0.336187
0.978790 0.376287 0.334142
0.000000 0.366369 0.387335
0.172274 0.364630 0.383703
0.328191 0.352087 0.368902
0.474800 0.336248 0.347204
0.632715 0.364965 0.352789
0.763851 0.388983 0.354498
0.881193 0.412665 0.353704
0.985565 0.433204 0.347967
0.000000 0.486976 0.430518
0.133974 0.489937 0.426520
0.305852 0.497353 0.402014
0.483284 0.505974 0.358160
0.686122 0.521294 0.391302
0.806363 0.518975 0.393439
0.907683 0.521324 0.388037
0.998413 0.523491 0.376684
0.000000 0.647791 0.471382
0.000000 0.647639 0.465553
0.279606 0.647669 0.437812
0.409735 0.661250 0.347417
0.621271 0.651392 0.358923
0.791592 0.648646 0.388434
0.930419 0.648554 0.430030
1.000000 0.632471 0.418280
0.000000 0.765774 0.495827
0.000000 0.765805 0.491279
0.258976 0.765011 0.469703
0.318120 0.777798 0.349950
0.548974 0.777646 0.345159
0.734066 0.769192 0.365362
0.890715 0.762661 0.396002
1.000000 0.750912 0.433143
0.000000 0.878080 0.524895
0.000000 0.877012 0.520378
0.240879 0.875029 0.502068
0.275029 0.884245 0.396094
0.470436 0.886687 0.345861
0.666560 0.881712 0.352056
0.834714 0.873777 0.371435
0.977234 0.859648 0.390723
0.000000 0.978820 0.547753
0.000000 0.977783 0.543816
0.187655 0.977600 0.524559
0.237827 0.987213 0.440864
0.387152 0.990326 0.351476
0.598444 0.986114 0.343725
0.770626 0.977203 0.355138
0.923796 0.966308 0.367254
0.000000 0.193515 0.588525
0.000000 0.125032 0.583032
0.325383 0.082094 0.550896
0.503044 0.001038 0.519829
0.620813 0.107820 0.487922
0.742794 0.137240 0.458106
0.857115 0.148531 0.415015
0.964416 0.245182 0.396246
0.000000 0.316808 0.588342
0.000000 0.262272 0.582208
0.312291 0.194003 0.552605
0.499062 0.162387 0.518822
0.619226 0.185702 0.489418
0.738766 0.197177 0.457221
0.853117 0.199008 0.413458
0.960327 0.298009 0.408301
0.000000 0.500969 0.589349
0.115053 0.488991 0.583398
0.287297 0.379706 0.553948
0.485298 0.317693 0.514549
0.614130 0.326848 0.494545
0.738613 0.326604 0.462959
0.856413 0.354376 0.441718
0.956664 0.446143 0.464912
0.000000 0.528191 0.558282
0.162203 0.526818 0.555596
0.324743 0.522118 0.546807
0.469368 0.502708 0.526055
0.603540 0.464942 0.491218
0.725765 0.494240 0.493904
0.855802 0.519554 0.499214
0.970428 0.539727 0.497383
0.078614 0.601099 0.577203
0.162142 0.602289 0.576532
0.296788 0.615198 0.573510
0.449470 0.624475 0.550622
0.605463 0.630304 0.512291
0.782925 0.652857 0.557794
0.897856 0.659022 0.563592
0.988800 0.654505 0.547631
0.000000 0.751308 0.614740
0.000000 0.755917 0.615137
0.271977 0.753841 0.600458
0.437629 0.753353 0.574243
0.549828 0.766659 0.505089
0.730648 0.760525 0.518334
0.886259 0.767117 0.553155
1.000000 0.770321 0.592554
0.000000 0.867247 0.629084
0.000000 0.867674 0.626551
0.253330 0.868009 0.615961
0.429084 0.868559 0.597498
0.491890 0.880766 0.504326
0.676234 0.879545 0.503075
0.836362 0.870420 0.518853
0.973053 0.861875 0.539025
0.000000 0.975677 0.644617
0.000000 0.975799 0.642023
0.229404 0.974884 0.631128
0.423621 0.972930 0.620478
0.446998 0.982300 0.516106
0.613062 0.981384 0.491493
0.779660 0.974548 0.497902
0.927367 0.965118 0.510216
0.000000 0.245457 0.729183
0.000000 0.184878 0.726101
0.209903 0.151583 0.705898
0.477943 0.092134 0.670039
0.631983 0.030976 0.652583
0.730861 0.137819 0.611719
0.844663 0.164675 0.586419
0.959533 0.155947 0.543267
0.000000 0.339940 0.727626
0.000000 0.300877 0.725460
0.196963 0.229404 0.707668
0.472114 0.185519 0.671687
0.628473 0.159152 0.650965
0.729213 0.198001 0.612116
0.843656 0.213535 0.586572
0.958618 0.202426 0.542809
0.000000 0.523125 0.726711
0.160800 0.505943 0.720974
0.227787 0.410468 0.708309
0.451667 0.341253 0.677760
0.616052 0.306310 0.644343
0.719173 0.319738 0.609735
0.836698 0.322026 0.583948
0.953216 0.305730 0.538415
0.000000 0.635859 0.725795
0.165713 0.635523 0.723781
0.338811 0.636133 0.718837
0.453712 0.531487 0.686336
0.600946 0.453620 0.638911
0.711879 0.457923 0.614557
0.832273 0.449805 0.584100
0.952026 0.431128 0.535607
0.126833 0.656550 0.692470
0.199893 0.656184 0.691188
0.338811 0.653376 0.684932
0.479866 0.648310 0.673701
0.592889 0.626062 0.649653
0.701076 0.583001 0.611017
0.821866 0.608362 0.609766
0.949310 0.633509 0.615320
0.157076 0.698726 0.682063
0.206760 0.698482 0.681575
0.315068 0.696071 0.678004
0.433326 0.702327 0.677211
0.561975 0.716304 0.655573
0.706905 0.730312 0.629816
0.878477 0.767758 0.685725
0.980560 0.774136 0.691615
0.000000 0.840116 0.737697
0.087068 0.839902 0.734859
0.261723 0.841093 0.725795
0.411810 0.845731 0.709804
0.559747 0.849668 0.680934
0.668910 0.863615 0.625055
0.829984 0.858091 0.636530
0.966339 0.859953 0.663050
0.000000 0.960784 0.750179
0.000000 0.960327 0.747189
0.207156 0.959442 0.736873
0.395697 0.963348 0.722988
0.556664 0.962676 0.699763
0.621973 0.972198 0.618982
0.784329 0.968597 0.620203
0.927764 0.959747 0.630671
0.000000 0.292393 0.840360
0.000000 0.254917 0.838285
0.000000 0.205112 0.826047
0.404822 0.179751 0.808103
0.608148 0.109621 0.775265
0.737545 0.094057 0.760006
0.836271 0.153902 0.725765
0.950805 0.166781 0.702235
0.000000 0.363043 0.835080
0.000000 0.333989 0.832853
0.000000 0.262486 0.823850
0.398749 0.237247 0.805173
0.601526 0.184146 0.772213
0.732815 0.168399 0.756252
0.833249 0.202121 0.724147
0.948638 0.209140 0.701259
0.000000 0.532677 0.837430
0.000000 0.513481 0.835172
0.150179 0.438727 0.827970
0.389258 0.373022 0.809842
0.590997 0.327642 0.775753
0.726680 0.302831 0.753902
0.830289 0.316869 0.725154
0.946441 0.316716 0.702480
0.199557 0.695277 0.845274
0.256077 0.685389 0.841550
0.382940 0.652522 0.830350
0.440681 0.562768 0.817502
0.583215 0.490944 0.787472
0.722072 0.447517 0.754849
0.829099 0.451881 0.730220
0.945983 0.442237 0.703517
0.213107 0.740597 0.827024
0.264683 0.741573 0.826474
0.389105 0.745022 0.824399
0.522423 0.750607 0.821500
0.593927 0.658442 0.792355
0.703914 0.571496 0.742763
0.817044 0.569818 0.723232
0.939391 0.554101 0.689052
0.225895 0.757931 0.797055
0.270207 0.759365 0.797726
0.376867 0.759884 0.795163
0.497963 0.759579 0.789792
0.606897 0.756100 0.780087
0.706783 0.737453 0.759640
0.811521 0.693507 0.718654
0.934478 0.725490 0.723659
0.240421 0.806302 0.795895
0.273899 0.807462 0.796689
0.359777 0.807797 0.795651
0.461738 0.808560 0.793698
0.558770 0.812131 0.790311
0.682063 0.831724 0.768429
0.820981 0.842130 0.745907
0.966400 0.871519 0.797330
0.095552 0.937224 0.860777
0.158022 0.937133 0.858396
0.275914 0.937896 0.850523
0.400763 0.942565 0.837369
0.527245 0.949035 0.813779
0.678370 0.951781 0.782681
0.788602 0.961425 0.739864
0.929992 0.954742 0.749386
0.000000 0.328252 0.924804
0.000000 0.302312 0.924132
0.000000 0.243900 0.919615
0.298283 0.228458 0.908690
0.540307 0.191165 0.890166
0.716976 0.089265 0.862913
0.833677 0.097993 0.856504
0.937804 0.130007 0.831296
0.000000 0.384741 0.923552
0.000000 0.363317 0.922881
0.000000 0.290135 0.919158
0.297520 0.273381 0.907744
0.537652 0.239445 0.889525
0.713924 0.166476 0.862516
0.831754 0.164523 0.855192
0.936431 0.180606 0.830503
0.000000 0.528557 0.921874
0.000000 0.513390 0.921019
0.000000 0.454475 0.917845
0.301610 0.390661 0.908782
0.532372 0.359106 0.890776
0.706447 0.303258 0.863920
0.828519 0.290257 0.854063
0.935576 0.294865 0.831113
0.290196 0.690120 0.921630
0.325170 0.684504 0.919799
0.375891 0.652308 0.915770
0.397803 0.569635 0.909728
0.532677 0.505119 0.894255
0.696407 0.451240 0.867582
0.823575 0.422766 0.852110
0.933684 0.420752 0.831083
0.318059 0.805661 0.923156
0.352728 0.807370 0.922911
0.443030 0.801389 0.920653
0.540429 0.764614 0.912352
0.575250 0.673518 0.899962
0.686702 0.598077 0.874205
0.816220 0.549462 0.848295
0.930510 0.545708 0.829221
0.318029 0.827207 0.909361
0.349493 0.828305 0.909209
0.436103 0.832120 0.908812
0.542596 0.838254 0.908659
0.653925 0.846616 0.909117
0.712367 0.767208 0.888548
0.808408 0.676631 0.844663
0.926848 0.673091 0.826505
0.313725 0.850706 0.891630
0.341283 0.851286 0.891508
0.418738 0.852995 0.890715
0.516594 0.855650 0.889372
0.622461 0.858488 0.886656
0.728084 0.860288 0.881559
0.820249 0.845365 0.863706
0.921996 0.801053 0.818662
0.303136 0.898985 0.893828
0.325505 0.899596 0.894011
0.390417 0.902098 0.894987
0.476020 0.906065 0.895995
0.570642 0.911192 0.896696
0.665980 0.923033 0.897826
0.798184 0.939757 0.870054
0.930022 0.946838 0.857298
0.000000 0.359014 0.998840
0.000000 0.339757 0.998779
0.000000 0.273594 0.997864
0.120211 0.264134 0.993103
0.460731 0.241917 0.985840
0.660883 0.191531 0.975494
0.826566 0.015778 0.962737
0.938293 0.067689 0.960204
0.000000 0.404120 0.997711
0.000000 0.387488 0.997650
0.000000 0.318151 0.997223
0.132387 0.301549 0.992676
0.460731 0.279850 0.985504
0.659297 0.235111 0.975250
0.825711 0.136385 0.962127
0.937438 0.145296 0.959655
0.000000 0.527337 0.994568
0.000000 0.515190 0.994507
0.000000 0.467567 0.994110
0.174746 0.404517 0.992096
0.463203 0.383124 0.985138
0.655238 0.344121 0.975036
0.823758 0.269444 0.961059
0.935637 0.271458 0.958801
0.301671 0.685542 0.989776
0.306950 0.676692 0.989746
0.323247 0.643244 0.989502
0.349828 0.575463 0.989075
0.478035 0.517082 0.984771
0.652399 0.479286 0.975341
0.814420 0.414191 0.961761
0.933257 0.401129 0.957733
0.392157 0.808896 0.987488
0.414038 0.805844 0.987182
0.476570 0.793942 0.985992
0.539208 0.762387 0.984405
0.545556 0.678248 0.983551
0.652064 0.616022 0.976471
0.802884 0.557305 0.963012
0.930022 0.529534 0.956115
0.404242 0.875059 0.984344
0.425849 0.876341 0.984222
0.491493 0.880644 0.983917
0.583032 0.888060 0.983764
0.667414 0.857084 0.981323
0.696162 0.775967 0.978149
0.795834 0.705562 0.966461
0.926665 0.659571 0.954467
0.392554 0.900633 0.979034
0.412634 0.901396 0.978912
0.474037 0.904173 0.978607
0.563104 0.909239 0.978363
0.666499 0.916899 0.978271
0.775143 0.927825 0.978912
0.829282 0.870787 0.972503
0.921782 0.791775 0.951202
0.374243 0.931792 0.972076
0.392706 0.932219 0.971923
0.450263 0.933806 0.971588
0.535546 0.936797 0.971069
0.635218 0.941070 0.970306
0.739742 0.946502 0.969360
0.845823 0.952789 0.967956
0.937926 0.953399 0.962158
