其他预设/【231】淡彩糖果色预设10款/1.LUT预设（视频调色-PR-AE-PS-FCPX-达芬奇用）/淡彩糖果色__-4.cube
# Created by Adobe Lightroom plugin Export LUT (1.17.0)
# www.johnrellis.com/lightroom/exportlut.htm
# Preset: 淡彩糖果色[素锦印象]-4
# Color profile: /Library/Application Support/Adobe/Color/Profiles/Recommended/AdobeRGB1998.icc
LUT_3D_SIZE 8
DOMAIN_MIN 0.000000 0.000000 0.000000
DOMAIN_MAX 0.903226 0.903226 0.903226
0.060975 0.060975 0.060975
0.235721 0.000000 0.063691
0.445930 0.000000 0.071168
0.635950 0.000000 0.092042
0.784909 0.000000 0.134981
0.905547 0.000000 0.185702
0.990936 0.000000 0.229984
1.000000 0.000000 0.271611
0.020966 0.210391 0.044434
0.222721 0.203311 0.052949
0.430549 0.166171 0.067567
0.618494 0.076753 0.097200
0.771725 0.000000 0.137850
0.892515 0.000000 0.183902
0.981201 0.000000 0.226047
1.000000 0.000000 0.268009
0.000000 0.396216 0.034394
0.197726 0.390478 0.052735
0.408148 0.372930 0.081422
0.603815 0.346777 0.118318
0.766232 0.303532 0.155367
0.888609 0.257176 0.197879
0.983948 0.224216 0.242252
1.000000 0.211307 0.282780
0.000000 0.563439 0.093507
0.169131 0.558312 0.097658
0.382635 0.546136 0.112306
0.597009 0.546838 0.138613
0.770687 0.513603 0.181613
0.885618 0.460029 0.220096
0.974853 0.414923 0.256168
1.000000 0.382666 0.292180
0.000000 0.713375 0.132845
0.142245 0.710445 0.135317
0.360052 0.703182 0.144930
0.554528 0.693874 0.162570
0.735653 0.674067 0.183444
0.860929 0.620142 0.224277
0.956359 0.569299 0.265019
1.000000 0.528405 0.302831
0.000000 0.823941 0.172641
0.140383 0.827359 0.178103
0.337011 0.820890 0.184146
0.514549 0.810575 0.195132
0.683986 0.795071 0.209995
0.846098 0.775479 0.230808
0.945739 0.716609 0.275914
1.000000 0.667445 0.322820
0.027863 0.916747 0.212161
0.167147 0.916411 0.214725
0.324773 0.910521 0.217807
0.483223 0.902220 0.226230
0.638178 0.889891 0.237491
0.791043 0.876677 0.255589
0.935668 0.857664 0.280552
1.000000 0.793271 0.325505
0.158999 0.991699 0.247349
0.211673 0.990539 0.248264
0.331792 0.987335 0.252964
0.470680 0.982788 0.264591
0.604608 0.969177 0.263767
0.746914 0.960174 0.284550
0.887144 0.950011 0.313237
1.000000 0.929961 0.344427
0.000000 0.124117 0.232639
0.206027 0.031525 0.236606
0.410864 0.000000 0.235355
0.601007 0.000000 0.248875
0.760952 0.000000 0.248783
0.882475 0.000000 0.266667
0.973754 0.000000 0.288151
1.000000 0.000000 0.314397
0.000000 0.227207 0.229831
0.189670 0.213779 0.232792
0.402106 0.183383 0.236454
0.594629 0.118227 0.240024
0.754330 0.000000 0.247868
0.875669 0.000000 0.265019
0.966461 0.000000 0.284154
1.000000 0.000000 0.309392
0.000000 0.390631 0.227146
0.170596 0.388281 0.230961
0.392065 0.373846 0.229740
0.582422 0.346227 0.241520
0.747036 0.307134 0.251377
0.869505 0.266056 0.269261
0.964843 0.235416 0.291295
1.000000 0.226291 0.319097
0.000000 0.552728 0.235691
0.139376 0.551232 0.229099
0.366491 0.543999 0.226352
0.572229 0.532494 0.235752
0.738277 0.498054 0.257389
0.858946 0.451575 0.275578
0.955322 0.412238 0.297185
1.000000 0.385412 0.324224
0.000000 0.708156 0.247318
0.105898 0.705531 0.234195
0.342779 0.696651 0.231998
0.537346 0.682704 0.239261
0.716304 0.661524 0.249180
0.845060 0.612970 0.277562
0.944976 0.567498 0.307408
1.000000 0.530114 0.335943
0.000000 0.816373 0.250370
0.105776 0.815488 0.244114
0.321263 0.809842 0.245792
0.502342 0.801480 0.253971
0.673823 0.788754 0.265568
0.838773 0.772549 0.282780
0.939117 0.715663 0.318212
1.000000 0.668177 0.355108
0.000000 0.908598 0.260441
0.145907 0.906249 0.260166
0.313634 0.901610 0.262974
0.475380 0.895537 0.271366
0.631922 0.885313 0.281926
0.783993 0.871977 0.295415
0.927153 0.852415 0.313420
1.000000 0.789731 0.348852
0.156039 0.987488 0.286076
0.210575 0.986938 0.287785
0.330602 0.984131 0.292271
0.469337 0.979980 0.303044
0.609308 0.972137 0.314305
0.747799 0.961181 0.327642
0.884611 0.948913 0.346899
1.000000 0.928405 0.371069
0.000000 0.221469 0.438819
0.000000 0.134951 0.442145
0.374823 0.091127 0.437781
0.574121 0.000000 0.430793
0.741329 0.000000 0.428840
0.868406 0.000000 0.431800
0.964416 0.029938 0.430152
1.000000 0.175570 0.444526
0.000000 0.293217 0.432624
0.000000 0.272831 0.433356
0.364569 0.210147 0.432532
0.564874 0.183810 0.427253
0.735164 0.147890 0.427771
0.861814 0.141329 0.428107
0.958648 0.157076 0.429145
1.000000 0.225406 0.447303
0.000000 0.416449 0.425055
0.000000 0.411200 0.426032
0.343420 0.389075 0.424750
0.553368 0.359228 0.423682
0.731197 0.336797 0.428504
0.856168 0.320745 0.431647
0.952911 0.314366 0.437263
1.000000 0.321447 0.448035
0.000000 0.559106 0.416876
0.000000 0.558251 0.418006
0.326116 0.555749 0.419196
0.552453 0.543542 0.417090
0.722347 0.512352 0.429236
0.847562 0.479164 0.433661
0.946410 0.454810 0.441077
1.000000 0.440894 0.452613
0.000000 0.707912 0.411658
0.000000 0.706813 0.411963
0.308263 0.701472 0.409949
0.516869 0.690669 0.408423
0.706264 0.671778 0.412482
0.833341 0.626246 0.429877
0.934447 0.589807 0.442359
1.000000 0.562524 0.456703
0.000000 0.815976 0.397436
0.000000 0.814939 0.398993
0.301152 0.809567 0.400610
0.486397 0.800168 0.402899
0.658503 0.787137 0.408057
0.823606 0.772610 0.418189
0.926360 0.723537 0.442725
1.000000 0.688319 0.470588
0.000000 0.910063 0.387274
0.113252 0.908141 0.389319
0.312474 0.902007 0.398260
0.473396 0.894163 0.405219
0.626001 0.883726 0.410071
0.776425 0.872099 0.420020
0.920653 0.857389 0.436072
0.998993 0.802792 0.464210
0.066926 0.987915 0.374975
0.172641 0.986145 0.378698
0.349279 0.980682 0.411017
0.482002 0.977813 0.422461
0.614252 0.970062 0.429267
0.748287 0.960357 0.439857
0.881041 0.949401 0.455482
1.000000 0.931945 0.474800
0.000000 0.310613 0.618372
0.000000 0.281071 0.621332
0.223484 0.185763 0.619806
0.526024 0.135958 0.614191
0.709651 0.092897 0.597467
0.842100 0.106508 0.574212
0.942779 0.148470 0.555169
1.000000 0.184115 0.539544
0.000000 0.367468 0.617487
0.000000 0.346777 0.618463
0.211826 0.256474 0.618158
0.521965 0.217197 0.613092
0.707210 0.193393 0.597314
0.837644 0.195254 0.573724
0.938933 0.213046 0.555871
1.000000 0.234287 0.541772
0.000000 0.464179 0.606714
0.000000 0.458289 0.606622
0.245029 0.430945 0.605890
0.506462 0.371618 0.608759
0.700221 0.360204 0.597894
0.834073 0.362066 0.584100
0.938933 0.374060 0.576837
1.000000 0.388220 0.570459
0.000000 0.590326 0.602136
0.000000 0.587549 0.602686
0.241947 0.576837 0.603998
0.495186 0.555779 0.603662
0.684443 0.530816 0.598230
0.817227 0.521111 0.594354
0.921935 0.523613 0.598108
1.000000 0.528405 0.602869
0.000000 0.713619 0.584253
0.000000 0.710903 0.583917
0.246159 0.704585 0.585962
0.487037 0.694850 0.592767
0.676020 0.678584 0.594690
0.809171 0.653712 0.600732
0.915251 0.634821 0.601892
0.998596 0.620569 0.604028
0.000000 0.820981 0.557153
0.000000 0.823392 0.560784
0.260777 0.816342 0.562493
0.478828 0.805783 0.573816
0.650904 0.793149 0.583368
0.804135 0.779507 0.586175
0.908598 0.746029 0.600092
0.992828 0.722713 0.609674
0.000000 0.910399 0.527184
0.000000 0.909728 0.528832
0.275517 0.905882 0.535637
0.480171 0.897276 0.557855
0.635309 0.886503 0.573999
0.771847 0.875456 0.577386
0.906615 0.862882 0.583551
0.986297 0.819974 0.599176
0.000000 0.990326 0.500694
0.063722 0.989471 0.503288
0.300877 0.985138 0.513268
0.501335 0.975525 0.556237
0.631647 0.967132 0.571832
0.752651 0.958618 0.577111
0.875792 0.949340 0.587182
0.992920 0.936156 0.600366
0.000000 0.380835 0.754177
0.000000 0.364141 0.755093
0.000000 0.261662 0.755398
0.398505 0.233036 0.751125
0.647517 0.196170 0.752102
0.810849 0.179873 0.729702
0.920958 0.206882 0.692195
1.000000 0.237858 0.661799
0.000000 0.419379 0.751553
0.000000 0.406470 0.753292
0.000000 0.338659 0.753536
0.395544 0.282780 0.751339
0.644556 0.251591 0.750240
0.808927 0.239017 0.729335
0.919402 0.257694 0.693050
1.000000 0.278996 0.663447
0.000000 0.503838 0.744533
0.000000 0.499886 0.744472
0.004517 0.474006 0.745449
0.384771 0.403754 0.747189
0.635035 0.380346 0.743130
0.798581 0.369909 0.724453
0.911467 0.378393 0.694301
1.000000 0.382452 0.667536
0.000000 0.603693 0.739620
0.000000 0.600549 0.739223
0.093080 0.591455 0.739071
0.425452 0.576837 0.737972
0.625177 0.536034 0.736599
0.789761 0.525322 0.724361
0.903380 0.521965 0.701961
0.994232 0.513359 0.679927
0.000000 0.718318 0.731746
0.000000 0.716518 0.731991
0.095399 0.708797 0.731380
0.425269 0.696437 0.730282
0.624811 0.680903 0.726436
0.777829 0.660304 0.719173
0.890929 0.656458 0.713161
0.978393 0.664973 0.717494
0.000000 0.814115 0.700252
0.000000 0.812894 0.700618
0.130220 0.806760 0.700679
0.416602 0.797330 0.703639
0.610407 0.784726 0.705196
0.770413 0.775387 0.713527
0.885313 0.763638 0.721553
0.974914 0.752865 0.722683
0.000000 0.908354 0.669612
0.000000 0.906767 0.669306
0.170077 0.902220 0.669917
0.422766 0.894804 0.675227
0.611566 0.883909 0.686519
0.758907 0.872282 0.702541
0.883421 0.861997 0.704341
0.968994 0.834318 0.712337
0.000000 0.987182 0.627802
0.000000 0.986023 0.628077
0.195621 0.982086 0.630396
0.432868 0.977508 0.644831
0.622675 0.965270 0.675044
0.754269 0.955047 0.695949
0.866484 0.947173 0.700984
0.977295 0.937530 0.707912
0.000000 0.434699 0.855192
0.000000 0.425147 0.855161
0.000000 0.387427 0.853422
0.217746 0.309728 0.856077
0.531701 0.292638 0.852201
0.735897 0.271519 0.847105
0.894408 0.263066 0.836851
0.989014 0.297337 0.792233
0.000000 0.459968 0.849699
0.000000 0.451331 0.849485
0.000000 0.424384 0.849973
0.219089 0.341436 0.851621
0.528771 0.325200 0.848112
0.732876 0.306310 0.843900
0.891722 0.298772 0.834867
0.987060 0.327184 0.791653
0.000000 0.536522 0.848722
0.000000 0.530724 0.848356
0.000000 0.510216 0.847959
0.270268 0.451118 0.848661
0.530938 0.426459 0.845090
0.731441 0.411872 0.840879
0.887846 0.406317 0.833249
0.983429 0.420172 0.793240
0.000000 0.616510 0.844297
0.000000 0.614008 0.843259
0.000000 0.608850 0.842191
0.365789 0.601617 0.843259
0.550927 0.563439 0.843351
0.736843 0.550042 0.839628
0.884611 0.540520 0.832456
0.979309 0.539330 0.797238
0.000000 0.708614 0.833860
0.000000 0.707210 0.833829
0.000000 0.702632 0.833371
0.359686 0.698238 0.832517
0.577722 0.694484 0.829831
0.730770 0.665736 0.828275
0.874174 0.654627 0.820645
0.970794 0.648371 0.795315
0.000000 0.811032 0.824186
0.000000 0.810880 0.825254
0.000000 0.806546 0.825132
0.358373 0.799283 0.824216
0.569238 0.790249 0.821805
0.738521 0.783078 0.820340
0.867887 0.771359 0.816159
0.961151 0.773068 0.812711
0.000000 0.911742 0.805783
0.000000 0.911559 0.806577
0.000000 0.907622 0.806546
0.360449 0.900114 0.806638
0.568261 0.889067 0.806424
0.735988 0.875883 0.806485
0.863127 0.865110 0.812406
0.955352 0.855039 0.816556
0.000000 0.988739 0.762936
0.000000 0.987579 0.762417
0.000000 0.983978 0.761257
0.348943 0.978149 0.762814
0.561059 0.968200 0.768399
0.735164 0.955444 0.784817
0.859037 0.946319 0.804288
0.960571 0.939696 0.808103
0.000000 0.473732 0.928283
0.000000 0.468818 0.928405
0.000000 0.455787 0.927672
0.000000 0.372900 0.929137
0.411170 0.362982 0.925689
0.634058 0.352880 0.921782
0.807218 0.344976 0.918029
0.962127 0.342229 0.921080
0.000000 0.492805 0.926360
0.000000 0.488228 0.926452
0.000000 0.475441 0.925841
0.000000 0.410925 0.926329
0.414405 0.387671 0.923827
0.634302 0.377783 0.920104
0.806394 0.369726 0.916381
0.960449 0.365576 0.919341
0.000000 0.549828 0.923491
0.000000 0.545892 0.923369
0.000000 0.534936 0.922667
0.250187 0.522057 0.921080
0.433448 0.467048 0.920745
0.640711 0.459144 0.917479
0.808438 0.452186 0.914458
0.958679 0.446174 0.917357
0.000000 0.620203 0.919738
0.000000 0.618677 0.919219
0.000000 0.615717 0.918303
0.274083 0.610376 0.916716
0.475868 0.578943 0.915953
0.655238 0.568963 0.913695
0.813169 0.559655 0.911437
0.955688 0.549584 0.912627
0.000000 0.699916 0.913634
0.000000 0.698726 0.913359
0.000000 0.695583 0.912688
0.237156 0.693599 0.911650
0.522820 0.699306 0.908904
0.671473 0.675898 0.907988
0.819120 0.665766 0.906279
0.951476 0.657618 0.904936
0.000000 0.791623 0.907591
0.000000 0.790768 0.907500
0.000000 0.788113 0.907225
0.240024 0.785183 0.906554
0.506249 0.785122 0.904997
0.699977 0.789822 0.902464
0.826566 0.771817 0.902068
0.947784 0.763455 0.896788
0.000000 0.891356 0.902068
0.000000 0.890776 0.902159
0.000000 0.888273 0.902007
0.248081 0.884276 0.901579
0.509667 0.879057 0.900298
0.696101 0.873899 0.898558
0.837522 0.869474 0.896757
0.943633 0.861875 0.892424
0.000000 0.990021 0.885893
0.000000 0.989380 0.885710
0.000000 0.987335 0.885313
0.208499 0.981903 0.884092
0.497078 0.972320 0.883238
0.691035 0.960449 0.883879
0.839384 0.948821 0.884886
0.943969 0.941772 0.894499
0.000000 0.506584 0.989776
0.000000 0.505303 0.989593
0.000000 0.506279 0.988251
0.000000 0.489631 0.987274
0.330968 0.443214 0.987182
0.556298 0.442084 0.984619
0.731197 0.441169 0.981964
0.875761 0.441657 0.979431
0.000000 0.519707 0.988861
0.000000 0.518395 0.988678
0.000000 0.518822 0.987457
0.122255 0.514916 0.985779
0.342779 0.462776 0.986175
0.560845 0.461433 0.983673
0.732845 0.459510 0.981079
0.876158 0.458717 0.978637
0.000000 0.560082 0.986847
0.000000 0.558679 0.986664
0.000000 0.557610 0.985504
0.238102 0.575250 0.982879
0.385260 0.526726 0.983490
0.578424 0.523400 0.981201
0.740108 0.519188 0.978943
0.878935 0.515618 0.976928
0.000000 0.616632 0.984588
0.000000 0.616510 0.984436
0.000000 0.614954 0.983490
0.163119 0.623835 0.981170
0.492195 0.642206 0.977661
0.607172 0.610407 0.977722
0.753079 0.603754 0.976013
0.884611 0.596826 0.974517
0.000000 0.686397 0.980804
0.000000 0.685237 0.980835
0.000000 0.681636 0.980560
0.000000 0.678340 0.979950
0.471656 0.706233 0.975311
0.638087 0.700649 0.973419
0.769070 0.693904 0.972259
0.892790 0.688075 0.971435
0.000000 0.769497 0.976379
0.000000 0.768521 0.976287
0.000000 0.765530 0.975952
0.000000 0.762417 0.975372
0.381811 0.767239 0.973663
0.662684 0.793912 0.969390
0.790463 0.786618 0.968811
0.904051 0.781277 0.968505
0.000000 0.862638 0.972076
0.000000 0.861936 0.972015
0.000000 0.859739 0.971771
0.000000 0.857298 0.971252
0.387854 0.858335 0.969787
0.635676 0.865080 0.967529
0.813199 0.877165 0.964965
0.915221 0.868925 0.965209
0.000000 0.967407 0.967620
0.000000 0.966949 0.967559
0.000000 0.965515 0.967376
0.000000 0.962860 0.967010
0.398810 0.959014 0.965972
0.642634 0.954864 0.964599
0.812650 0.951354 0.963470
0.932616 0.949981 0.963195
