其他预设/【231】淡彩糖果色预设10款/1.LUT预设（视频调色-PR-AE-PS-FCPX-达芬奇用）/淡彩糖果色__-6.cube
# Created by Adobe Lightroom plugin Export LUT (1.17.0)
# www.johnrellis.com/lightroom/exportlut.htm
# Preset: 淡彩糖果色[素锦印象]-6
# Color profile: /Library/Application Support/Adobe/Color/Profiles/Recommended/AdobeRGB1998.icc
LUT_3D_SIZE 8
DOMAIN_MIN 0.000000 0.000000 0.000000
DOMAIN_MAX 0.903226 0.903226 0.903226
0.088136 0.088136 0.088136
0.272557 0.076143 0.104799
0.538872 0.000000 0.122469
0.762264 0.000000 0.150210
0.902922 0.000000 0.198306
1.000000 0.173434 0.290959
1.000000 0.293126 0.388281
1.000000 0.455665 0.480751
0.103151 0.192386 0.106630
0.257389 0.210147 0.067384
0.488136 0.215549 0.123903
0.723659 0.197848 0.146761
0.884977 0.192081 0.196262
1.000000 0.229160 0.273289
1.000000 0.302586 0.367285
1.000000 0.415839 0.471168
0.164401 0.373693 0.140810
0.259129 0.337621 0.184543
0.515862 0.412665 0.000000
0.682399 0.413275 0.162264
0.873716 0.403296 0.216892
0.994598 0.396704 0.295872
1.000000 0.440711 0.413367
1.000000 0.534844 0.502800
0.262608 0.576013 0.194522
0.337163 0.550835 0.227237
0.501244 0.574334 0.071901
0.786435 0.626764 0.000000
0.871550 0.604547 0.279362
0.988159 0.574609 0.350469
1.000000 0.573480 0.448463
1.000000 0.609400 0.527245
0.352605 0.748165 0.277317
0.412238 0.736416 0.303441
0.546349 0.702815 0.383185
0.749935 0.774228 0.000000
0.912474 0.726375 0.000000
0.937957 0.702327 0.375555
1.000000 0.688563 0.469947
1.000000 0.711238 0.566735
0.431617 0.861753 0.376410
0.486336 0.864134 0.408820
0.600885 0.838834 0.475288
0.699275 0.844480 0.402502
0.903288 0.874296 0.000000
1.000000 0.798672 0.000000
1.000000 0.805783 0.513298
1.000000 0.823270 0.619471
0.510857 0.949279 0.488502
0.545830 0.946105 0.506340
0.633600 0.927214 0.550439
0.740322 0.898680 0.622644
0.809476 0.926238 0.402930
1.000000 0.938689 0.000000
1.000000 0.851652 0.000000
1.000000 0.863493 0.526268
0.578637 1.000000 0.588891
0.601862 1.000000 0.598993
0.674098 0.997711 0.634943
0.771725 0.980987 0.694850
0.833310 0.957336 0.708248
0.903716 0.989899 0.433722
1.000000 0.977752 0.000000
1.000000 0.893675 0.000000
0.000000 0.156039 0.218967
0.273136 0.057374 0.234012
0.508659 0.000000 0.193027
0.724514 0.067445 0.201511
0.882200 0.145113 0.222782
0.991760 0.219059 0.265812
1.000000 0.280003 0.353735
1.000000 0.391272 0.465797
0.000000 0.233707 0.209873
0.239139 0.221744 0.203586
0.477272 0.226017 0.197391
0.705409 0.226474 0.198215
0.869383 0.239567 0.220035
0.978058 0.269352 0.259586
1.000000 0.300145 0.341375
1.000000 0.395209 0.458686
0.141451 0.393683 0.190616
0.281071 0.363104 0.232975
0.507866 0.411933 0.089082
0.664851 0.413519 0.199222
0.845914 0.409613 0.222965
0.966339 0.402411 0.273899
1.000000 0.414343 0.367132
1.000000 0.483833 0.488136
0.257481 0.571557 0.226474
0.343694 0.551476 0.260655
0.503716 0.576471 0.159365
0.750942 0.602075 0.000000
0.817105 0.574456 0.242435
0.945556 0.549371 0.303258
1.000000 0.540734 0.393256
1.000000 0.578058 0.516533
0.369055 0.745418 0.300084
0.422980 0.731044 0.320684
0.542626 0.694789 0.377325
0.731594 0.753750 0.000000
0.887785 0.709224 0.000000
0.913725 0.685206 0.347173
1.000000 0.672969 0.439734
1.000000 0.689357 0.557610
0.437293 0.847837 0.370489
0.478157 0.841398 0.389929
0.585748 0.817380 0.453620
0.685328 0.829313 0.374487
0.891539 0.863767 0.000000
0.997742 0.795285 0.000000
1.000000 0.797452 0.492164
1.000000 0.806912 0.611048
0.496986 0.935393 0.468605
0.525750 0.928527 0.479744
0.615839 0.911528 0.527062
0.727047 0.886687 0.605554
0.801511 0.918700 0.388067
1.000000 0.931456 0.000000
1.000000 0.844511 0.000000
1.000000 0.863127 0.597742
0.563622 1.000000 0.574548
0.589441 1.000000 0.586847
0.664088 0.993835 0.624445
0.764248 0.977569 0.686275
0.841764 0.963073 0.722042
0.904814 0.991791 0.446326
1.000000 0.978088 0.000000
1.000000 0.893675 0.000000
0.000000 0.250034 0.379370
0.000000 0.162112 0.428199
0.557977 0.000000 0.456916
0.777584 0.000000 0.375219
0.904967 0.072267 0.374243
0.998199 0.266575 0.403449
1.000000 0.349828 0.440589
1.000000 0.425727 0.478035
0.000000 0.301823 0.384466
0.127077 0.268956 0.393500
0.538872 0.139651 0.417823
0.741848 0.114015 0.361334
0.883574 0.227604 0.372534
0.985595 0.302251 0.393408
1.000000 0.363165 0.428565
1.000000 0.439490 0.479255
0.000000 0.465705 0.406867
0.158022 0.464729 0.401740
0.462135 0.420508 0.375647
0.700130 0.427924 0.375708
0.867063 0.425574 0.382116
0.974578 0.429389 0.398138
1.000000 0.452033 0.433936
1.000000 0.502953 0.493446
0.004150 0.647211 0.378790
0.271489 0.639002 0.377844
0.524285 0.601526 0.431769
0.748013 0.616419 0.284154
0.836728 0.595178 0.391516
0.955047 0.574762 0.409186
1.000000 0.572869 0.449989
1.000000 0.599115 0.523613
0.302586 0.784695 0.392279
0.401678 0.775387 0.418830
0.579522 0.738186 0.497017
0.733028 0.773861 0.295964
0.895720 0.725307 0.122683
0.919707 0.703090 0.419043
1.000000 0.689937 0.462470
1.000000 0.700923 0.562371
0.435248 0.868498 0.447120
0.489082 0.861662 0.469245
0.607965 0.836515 0.525139
0.701015 0.829343 0.500298
0.882383 0.864530 0.000000
0.993561 0.797269 0.000000
1.000000 0.794278 0.467201
1.000000 0.814450 0.614923
0.516197 0.943297 0.502068
0.546807 0.937224 0.514122
0.630335 0.917876 0.551019
0.731106 0.888853 0.612360
0.800107 0.918578 0.394293
0.998260 0.934630 0.000000
1.000000 0.851347 0.000000
1.000000 0.863523 0.540368
0.558221 1.000000 0.573877
0.578393 1.000000 0.581445
0.652888 0.993957 0.616907
0.759030 0.979553 0.683436
0.840909 0.961212 0.729580
0.900816 0.992035 0.471290
1.000000 0.984985 0.000000
1.000000 0.895872 0.000000
0.000000 0.332006 0.515129
0.000000 0.310246 0.557336
0.416297 0.175967 0.653651
0.780026 0.000000 0.639826
0.927337 0.000000 0.541588
1.000000 0.157137 0.500450
1.000000 0.368505 0.543359
1.000000 0.472084 0.587304
0.000000 0.369970 0.525933
0.000000 0.349248 0.538872
0.406744 0.247257 0.640375
0.780972 0.097414 0.630488
0.919463 0.121065 0.536584
0.992309 0.270176 0.510460
1.000000 0.411749 0.554467
1.000000 0.482246 0.584955
0.000000 0.483925 0.554437
0.000000 0.470405 0.550622
0.348058 0.408515 0.578943
0.751156 0.394629 0.583886
0.881132 0.432990 0.552605
0.970642 0.488655 0.570275
1.000000 0.526055 0.589807
1.000000 0.545495 0.593927
0.000000 0.697536 0.608453
0.000000 0.697139 0.606256
0.445441 0.679652 0.594812
0.677394 0.627161 0.574151
0.830808 0.619135 0.569574
0.944793 0.607141 0.567346
1.000000 0.605768 0.578149
1.000000 0.622126 0.598627
0.000000 0.840177 0.565820
0.244968 0.829618 0.563897
0.547204 0.793576 0.592981
0.725246 0.776516 0.613825
0.869749 0.749294 0.510979
0.923217 0.732143 0.580591
1.000000 0.717708 0.591150
1.000000 0.717678 0.610040
0.354223 0.907317 0.548699
0.449195 0.907164 0.575799
0.625360 0.882017 0.634577
0.753201 0.846921 0.692653
0.869810 0.880552 0.482612
0.982971 0.817350 0.382971
1.000000 0.821866 0.604730
1.000000 0.822843 0.630030
0.483040 0.964019 0.575586
0.535760 0.960174 0.597772
0.651575 0.945892 0.648157
0.755886 0.921904 0.693599
0.822934 0.924559 0.636469
0.988464 0.946929 0.000000
1.000000 0.860807 0.000000
1.000000 0.863615 0.503227
0.558221 1.000000 0.611170
0.595758 1.000000 0.631128
0.658595 1.000000 0.651270
0.746212 0.987701 0.684993
0.839780 0.961334 0.744442
0.891997 0.991821 0.522972
1.000000 0.993774 0.000000
1.000000 0.899687 0.000000
0.000000 0.413123 0.648432
0.000000 0.398322 0.670619
0.000000 0.269108 0.740780
0.676570 0.258457 0.825101
0.913512 0.156435 0.762478
1.000000 0.199069 0.662837
1.000000 0.227848 0.605280
1.000000 0.398535 0.623590
0.000000 0.433814 0.645228
0.000000 0.420966 0.659388
0.000000 0.315343 0.738399
0.676631 0.316320 0.819913
0.909026 0.244388 0.755215
1.000000 0.279088 0.664057
1.000000 0.301152 0.613733
1.000000 0.442145 0.636866
0.000000 0.520958 0.675654
0.000000 0.508263 0.673335
0.138796 0.458167 0.686976
0.663294 0.454994 0.791836
0.891752 0.418402 0.731807
0.981537 0.437232 0.664240
1.000000 0.475776 0.648310
1.000000 0.550347 0.674006
0.000000 0.660517 0.710475
0.000000 0.652857 0.706874
0.213077 0.626001 0.696681
0.619532 0.605982 0.729671
0.855344 0.620539 0.712703
0.944701 0.626154 0.695216
1.000000 0.645075 0.705135
1.000000 0.649104 0.704005
0.000000 0.836149 0.732357
0.000000 0.835691 0.732357
0.376043 0.826810 0.731930
0.679866 0.787808 0.724422
0.796750 0.751369 0.704646
0.909880 0.741360 0.699458
1.000000 0.728664 0.696712
1.000000 0.723415 0.699611
0.000000 0.929290 0.674586
0.190463 0.924041 0.676478
0.490608 0.901244 0.689326
0.711543 0.865904 0.728695
0.820584 0.857115 0.717464
0.937835 0.833707 0.647425
0.991150 0.832120 0.709712
1.000000 0.825132 0.711666
0.327581 0.985779 0.645655
0.401282 0.980652 0.655512
0.574701 0.965148 0.692866
0.746883 0.943542 0.756191
0.839994 0.915465 0.791806
0.940612 0.944610 0.601343
1.000000 0.880156 0.503349
1.000000 0.884215 0.662318
0.420233 1.000000 0.632502
0.470710 1.000000 0.645838
0.602625 1.000000 0.690150
0.751431 1.000000 0.760098
0.828733 0.979858 0.778683
0.889006 0.981476 0.720699
1.000000 0.997345 0.000000
1.000000 0.905241 0.000000
0.000000 0.510338 0.804471
0.000000 0.496468 0.814664
0.000000 0.430518 0.842374
0.460273 0.358038 0.887327
0.826291 0.386114 0.914946
0.988281 0.354833 0.844114
1.000000 0.376898 0.764553
1.000000 0.401831 0.723262
0.000000 0.514214 0.781765
0.000000 0.501061 0.788449
0.000000 0.447608 0.821866
0.447822 0.375402 0.872862
0.820829 0.411231 0.906096
0.982727 0.385138 0.838132
1.000000 0.405829 0.763882
1.000000 0.423102 0.722591
0.000000 0.576257 0.798611
0.000000 0.561791 0.792294
0.000000 0.515923 0.794736
0.433509 0.459754 0.856779
0.824033 0.522423 0.897856
0.975952 0.500694 0.833524
1.000000 0.511589 0.773434
1.000000 0.508843 0.737026
0.000000 0.671626 0.812528
0.000000 0.661280 0.807065
0.000000 0.628565 0.794430
0.437751 0.598993 0.813901
0.832517 0.669093 0.890288
0.970153 0.650996 0.837308
1.000000 0.647333 0.796323
1.000000 0.634394 0.770474
0.000000 0.796689 0.824369
0.000000 0.793301 0.823239
0.000000 0.779934 0.817990
0.470405 0.752621 0.805478
0.777615 0.751553 0.837095
0.933440 0.756588 0.818479
1.000000 0.752926 0.808042
1.000000 0.763882 0.813230
0.000000 0.930999 0.819730
0.000000 0.931945 0.822049
0.300298 0.924956 0.824094
0.609705 0.911070 0.831540
0.803098 0.876799 0.828946
0.890227 0.852323 0.814115
0.987884 0.847929 0.816281
1.000000 0.839017 0.810025
0.000000 1.000000 0.772213
0.000000 1.000000 0.776242
0.434058 1.000000 0.789883
0.670069 0.978546 0.815427
0.835294 0.953124 0.851957
0.913329 0.943206 0.844907
1.000000 0.915618 0.764279
1.000000 0.920958 0.812589
0.000000 1.000000 0.704341
0.187381 1.000000 0.711116
0.450080 1.000000 0.737728
0.663020 1.000000 0.785367
0.826841 1.000000 0.844785
0.904601 0.975952 0.867704
0.988281 0.996429 0.698085
1.000000 0.937316 0.607691
0.000000 0.578729 0.911406
0.000000 0.567071 0.915465
0.000000 0.522057 0.926818
0.181949 0.416236 0.949554
0.674067 0.473152 0.966735
0.920531 0.496956 0.971618
1.000000 0.481117 0.903777
1.000000 0.495918 0.843534
0.000000 0.588495 0.903624
0.000000 0.577447 0.907652
0.000000 0.535027 0.919677
0.156619 0.428290 0.942748
0.670863 0.488350 0.962280
0.918730 0.514641 0.968566
1.000000 0.497688 0.901518
1.000000 0.510094 0.840787
0.000000 0.629267 0.905821
0.000000 0.619837 0.903960
0.000000 0.583551 0.904997
0.256046 0.524987 0.929137
0.668025 0.548425 0.954467
0.919158 0.586419 0.964477
1.000000 0.571160 0.901976
1.000000 0.578027 0.851621
0.000000 0.699336 0.911040
0.000000 0.691157 0.908141
0.000000 0.663386 0.901335
0.147250 0.614801 0.901946
0.644953 0.622889 0.939391
0.918059 0.684199 0.958770
1.000000 0.668818 0.903899
1.000000 0.666072 0.865202
0.000000 0.791104 0.912505
0.000000 0.786252 0.910918
0.000000 0.769009 0.906004
0.039094 0.733120 0.895872
0.570184 0.700923 0.898222
0.906523 0.776394 0.948180
1.000000 0.762051 0.904417
1.000000 0.757443 0.878782
0.000000 0.908995 0.919127
0.000000 0.906950 0.918639
0.000000 0.898924 0.916564
0.304234 0.882719 0.911772
0.588403 0.852171 0.899931
0.859556 0.846189 0.918944
0.993713 0.858335 0.908080
1.000000 0.853025 0.898680
0.000000 1.000000 0.898070
0.000000 1.000000 0.898405
0.000000 1.000000 0.899413
0.475441 0.996429 0.903929
0.725612 0.979461 0.913176
0.894347 0.957336 0.921660
0.964752 0.936431 0.908354
1.000000 0.932219 0.908232
0.000000 1.000000 0.823209
0.000000 1.000000 0.823575
0.000000 1.000000 0.830014
0.482307 1.000000 0.851438
0.739284 1.000000 0.883604
0.901579 1.000000 0.923980
0.966033 0.989685 0.931670
1.000000 0.973022 0.872587
0.000000 0.657496 1.000000
0.000000 0.648341 1.000000
0.000000 0.618708 1.000000
0.260868 0.589166 1.000000
0.574701 0.569512 1.000000
0.834531 0.635950 1.000000
0.989776 0.642237 1.000000
1.000000 0.640070 0.986786
0.000000 0.667597 1.000000
0.000000 0.658656 1.000000
0.000000 0.628962 1.000000
0.276890 0.606409 1.000000
0.571984 0.578943 1.000000
0.833890 0.645258 1.000000
0.989044 0.652766 1.000000
1.000000 0.650355 0.985351
0.000000 0.697108 1.000000
0.000000 0.691249 1.000000
0.000000 0.665827 1.000000
0.223270 0.642390 1.000000
0.563348 0.613794 1.000000
0.832517 0.679133 1.000000
0.987427 0.693111 1.000000
1.000000 0.688899 0.985016
0.000000 0.746914 1.000000
0.000000 0.742184 1.000000
0.000000 0.724025 1.000000
0.000000 0.691829 1.000000
0.547814 0.676112 1.000000
0.824704 0.727474 1.000000
0.984161 0.754208 1.000000
1.000000 0.747127 0.986236
0.000000 0.816800 1.000000
0.000000 0.813199 1.000000
0.000000 0.798917 1.000000
0.000000 0.770504 1.000000
0.416693 0.745480 1.000000
0.790768 0.771267 1.000000
0.977905 0.822904 1.000000
1.000000 0.816312 0.987152
0.000000 0.904265 1.000000
0.000000 0.901640 1.000000
0.000000 0.892332 1.000000
0.000000 0.875212 1.000000
0.300694 0.849454 1.000000
0.708553 0.833677 1.000000
0.970794 0.896880 1.000000
1.000000 0.896300 0.983734
0.000000 1.000000 1.000000
0.000000 1.000000 1.000000
0.000000 1.000000 1.000000
0.000000 0.991424 1.000000
0.430549 0.975463 1.000000
0.704677 0.954406 0.999908
0.931548 0.937102 0.997284
1.000000 0.962707 0.985565
0.000000 1.000000 0.962005
0.000000 1.000000 0.961639
0.000000 1.000000 0.960906
0.000000 1.000000 0.961944
0.545159 1.000000 0.967102
0.809079 1.000000 0.975769
0.963897 1.000000 0.988525
1.000000 0.998169 0.995727
