其他预设/【231】淡彩糖果色预设10款/1.LUT预设（视频调色-PR-AE-PS-FCPX-达芬奇用）/淡彩糖果色__-8.cube
# Created by Adobe Lightroom plugin Export LUT (1.17.0)
# www.johnrellis.com/lightroom/exportlut.htm
# Preset: 淡彩糖果色[素锦印象]-8
# Color profile: /Library/Application Support/Adobe/Color/Profiles/Recommended/AdobeRGB1998.icc
LUT_3D_SIZE 8
DOMAIN_MIN 0.000000 0.000000 0.000000
DOMAIN_MAX 0.903226 0.903226 0.903226
0.088136 0.088136 0.088136
0.261295 0.078309 0.103975
0.502098 0.000000 0.120241
0.708309 0.000000 0.140261
0.843473 0.000000 0.174746
0.951141 0.143954 0.229007
1.000000 0.216129 0.288121
1.000000 0.295659 0.359625
0.102998 0.188632 0.106111
0.250767 0.205051 0.069062
0.463600 0.208835 0.122133
0.679988 0.196872 0.139376
0.828611 0.194766 0.174166
0.934295 0.213291 0.223423
1.000000 0.250278 0.282506
1.000000 0.313176 0.355871
0.161379 0.351812 0.138064
0.246586 0.318456 0.177737
0.484504 0.388342 0.000000
0.633600 0.388281 0.152010
0.807095 0.377996 0.185275
0.921782 0.364324 0.235538
1.000000 0.372259 0.302495
1.000000 0.402655 0.376318
0.251286 0.528771 0.184695
0.316014 0.506096 0.213962
0.466529 0.532464 0.068635
0.714321 0.570825 0.000000
0.783536 0.543755 0.219516
0.904814 0.517998 0.264195
0.991302 0.500420 0.323674
1.000000 0.503532 0.394598
0.328191 0.683986 0.244358
0.379583 0.672023 0.266972
0.492744 0.640772 0.322332
0.687648 0.707881 0.000000
0.842557 0.672541 0.000000
0.858762 0.638788 0.289525
0.960876 0.617853 0.346166
1.000000 0.610101 0.420294
0.392706 0.796109 0.318273
0.437140 0.794675 0.341253
0.540093 0.769162 0.399512
0.639612 0.779568 0.310796
0.841276 0.812833 0.000000
0.936126 0.746792 0.000000
0.949096 0.722347 0.343755
1.000000 0.718807 0.463661
0.452857 0.887144 0.405493
0.485176 0.883268 0.421057
0.571862 0.864836 0.466377
0.675654 0.835111 0.539361
0.756893 0.869810 0.289128
0.953094 0.884154 0.000000
1.000000 0.803555 0.000000
1.000000 0.788937 0.410437
0.509026 0.956085 0.493568
0.532982 0.952483 0.504082
0.605707 0.940673 0.540520
0.702754 0.921508 0.600549
0.766506 0.908141 0.595178
0.857511 0.940917 0.276982
1.000000 0.934142 0.000000
1.000000 0.850828 0.000000
0.000000 0.155856 0.218387
0.269566 0.061463 0.231174
0.488716 0.000000 0.190707
0.684627 0.086000 0.197482
0.828275 0.139406 0.211337
0.928862 0.192416 0.239231
1.000000 0.245731 0.280064
1.000000 0.302037 0.349645
0.000000 0.232883 0.209232
0.236667 0.219577 0.201877
0.458991 0.221653 0.195712
0.668086 0.220829 0.195010
0.817197 0.227481 0.209689
0.919127 0.246372 0.236606
0.996643 0.276982 0.275242
1.000000 0.317815 0.345586
0.142641 0.378546 0.187381
0.271489 0.348058 0.226963
0.480903 0.391028 0.101900
0.625513 0.391608 0.196170
0.791012 0.383978 0.210697
0.904662 0.375036 0.241001
0.990784 0.378210 0.288273
1.000000 0.399481 0.362493
0.248173 0.537499 0.220462
0.326238 0.517418 0.250980
0.470466 0.537255 0.161868
0.695338 0.558648 0.000000
0.753750 0.529900 0.222324
0.879423 0.512200 0.251011
0.973480 0.495674 0.306126
1.000000 0.497444 0.379828
0.338750 0.687922 0.274296
0.388403 0.674647 0.292912
0.497078 0.638666 0.342473
0.678370 0.698482 0.000000
0.830381 0.665492 0.000000
0.849271 0.631678 0.269017
0.951141 0.615229 0.336797
1.000000 0.606775 0.410834
0.403662 0.788907 0.325841
0.440589 0.781888 0.341650
0.537285 0.756283 0.394049
0.634791 0.772030 0.295232
0.835111 0.807492 0.000000
0.933745 0.746517 0.000000
0.946929 0.720089 0.331121
1.000000 0.716274 0.456641
0.453376 0.878355 0.399451
0.481392 0.872435 0.411322
0.566339 0.855467 0.457069
0.670253 0.828183 0.532219
0.753628 0.865965 0.282170
0.947662 0.880461 0.000000
1.000000 0.800473 0.000000
1.000000 0.783413 0.396002
0.504906 0.952544 0.488014
0.529656 0.949523 0.499580
0.602655 0.938079 0.536492
0.699855 0.919341 0.596948
0.771298 0.911986 0.601526
0.858213 0.942382 0.283696
1.000000 0.934691 0.000000
1.000000 0.850065 0.000000
0.000000 0.244053 0.368994
0.000000 0.160708 0.412268
0.527062 0.000000 0.432502
0.732113 0.000000 0.357733
0.842008 0.012238 0.344915
0.931182 0.220706 0.361700
1.000000 0.284367 0.383154
1.000000 0.347539 0.419989
0.000000 0.293126 0.372442
0.131868 0.262181 0.379950
0.510369 0.146975 0.397711
0.700069 0.130739 0.346197
0.824857 0.209079 0.345953
0.922210 0.266056 0.356909
0.999573 0.308965 0.377813
1.000000 0.362676 0.416205
0.000000 0.443275 0.388251
0.162722 0.440681 0.382238
0.436713 0.398749 0.357733
0.649104 0.399756 0.351934
0.803922 0.391608 0.350469
0.909300 0.389197 0.358587
0.990478 0.399298 0.380529
1.000000 0.427222 0.419745
0.075135 0.606531 0.358740
0.258183 0.593866 0.354345
0.479255 0.549981 0.394446
0.685328 0.565637 0.265721
0.768704 0.544335 0.353582
0.886564 0.525170 0.363806
0.975738 0.515007 0.388769
1.000000 0.520958 0.429908
0.272648 0.726619 0.358251
0.360876 0.716640 0.377569
0.525261 0.678462 0.444312
0.674800 0.712367 0.271366
0.830259 0.673854 0.143160
0.850370 0.645258 0.370489
0.951141 0.628443 0.397314
1.000000 0.621973 0.442695
0.390509 0.813199 0.402350
0.441291 0.806149 0.421241
0.556420 0.781155 0.473213
0.649042 0.773709 0.450599
0.827115 0.810697 0.000000
0.929473 0.749142 0.000000
0.943572 0.726101 0.368994
1.000000 0.726436 0.470314
0.469642 0.889799 0.455329
0.500328 0.884215 0.467323
0.582910 0.865965 0.503197
0.680964 0.836881 0.561700
0.755001 0.867033 0.351049
0.945159 0.884398 0.000000
1.000000 0.808225 0.000000
1.000000 0.790188 0.387304
0.513664 0.952880 0.493263
0.532799 0.949462 0.501396
0.602869 0.937713 0.536339
0.700465 0.920470 0.598077
0.771450 0.911894 0.606500
0.855406 0.943206 0.302678
1.000000 0.940948 0.000000
1.000000 0.854429 0.000000
0.000000 0.320104 0.494514
0.000000 0.299138 0.531731
0.396429 0.176455 0.618891
0.731197 0.000000 0.600397
0.869474 0.000000 0.508049
0.944213 0.124117 0.466194
0.999207 0.312261 0.493874
1.000000 0.405676 0.531151
0.000000 0.353399 0.499794
0.000000 0.334508 0.511467
0.386145 0.239963 0.603601
0.727901 0.093507 0.587915
0.861326 0.104646 0.501823
0.933196 0.235325 0.473121
0.991119 0.357366 0.504417
1.000000 0.416327 0.527947
0.000000 0.459449 0.525353
0.000000 0.446876 0.521569
0.331640 0.386450 0.542290
0.696803 0.358892 0.539269
0.821073 0.386969 0.505180
0.906615 0.430915 0.514183
0.987243 0.458045 0.524987
1.000000 0.478889 0.537652
0.000000 0.644617 0.563104
0.000000 0.643244 0.560357
0.402502 0.624475 0.544396
0.620783 0.573175 0.522667
0.768978 0.565545 0.517327
0.881132 0.552819 0.513207
0.969329 0.546990 0.519005
1.000000 0.554620 0.538720
0.000000 0.778622 0.523766
0.212528 0.768948 0.519615
0.488930 0.732784 0.534905
0.660487 0.711299 0.548363
0.803830 0.688350 0.455787
0.854246 0.669398 0.520134
0.950225 0.653895 0.526360
1.000000 0.646265 0.546197
0.307195 0.849393 0.502922
0.388678 0.847105 0.519890
0.560296 0.822507 0.570001
0.690150 0.786069 0.627253
0.810697 0.821042 0.431617
0.917449 0.763394 0.360937
0.925994 0.752071 0.535332
1.000000 0.741695 0.561578
0.437446 0.911284 0.530816
0.486061 0.907378 0.549065
0.597070 0.892851 0.593591
0.700832 0.867826 0.637171
0.770932 0.870390 0.586389
0.932494 0.895018 0.176181
1.000000 0.817655 0.207736
1.000000 0.808652 0.509941
0.527672 0.967529 0.578271
0.560723 0.964508 0.594903
0.619806 0.954253 0.612665
0.702480 0.935729 0.642969
0.790982 0.908659 0.696223
0.849790 0.942504 0.474006
1.000000 0.949523 0.000000
1.000000 0.861143 0.000000
0.000000 0.391455 0.611017
0.000000 0.378332 0.631830
0.000000 0.260868 0.697566
0.633265 0.231296 0.773922
0.857816 0.102754 0.714015
0.952026 0.163851 0.623377
1.000000 0.228855 0.575952
1.000000 0.386419 0.596033
0.000000 0.410071 0.606409
0.000000 0.398199 0.618647
0.000000 0.300664 0.689876
0.631434 0.282994 0.767514
0.853574 0.199649 0.706569
0.947662 0.241032 0.622705
1.000000 0.287907 0.581476
1.000000 0.419989 0.605097
0.000000 0.486488 0.628321
0.000000 0.474434 0.625055
0.157504 0.431006 0.639551
0.614160 0.409064 0.738552
0.837858 0.367041 0.681971
0.927794 0.396155 0.620905
0.992279 0.439155 0.606989
1.000000 0.506828 0.630579
0.000000 0.613855 0.659632
0.000000 0.607050 0.656641
0.211124 0.582116 0.646967
0.568292 0.554864 0.675532
0.798093 0.563867 0.656703
0.886229 0.572076 0.641047
0.959747 0.589105 0.649165
1.000000 0.593561 0.651209
0.000000 0.777401 0.681636
0.000000 0.776638 0.680995
0.329961 0.768887 0.678126
0.619501 0.728176 0.664607
0.738125 0.693721 0.647883
0.849302 0.684993 0.643702
0.943053 0.672786 0.641413
1.000000 0.666560 0.646571
0.000000 0.877623 0.637476
0.165835 0.872587 0.637385
0.444739 0.851133 0.643549
0.656062 0.813840 0.673762
0.766995 0.803891 0.661707
0.878630 0.777981 0.596216
0.921660 0.768185 0.648920
1.000000 0.757687 0.657465
0.306493 0.934722 0.611017
0.372534 0.930266 0.618647
0.530541 0.915892 0.648585
0.692744 0.893248 0.702358
0.787747 0.864256 0.738552
0.890318 0.894102 0.569940
0.976623 0.835477 0.507836
0.984558 0.831662 0.649470
0.428748 0.983093 0.615930
0.469429 0.979828 0.626490
0.580957 0.969177 0.662562
0.711757 0.955108 0.720211
0.787076 0.932341 0.738888
0.849546 0.934417 0.696437
0.997101 0.954864 0.324254
1.000000 0.875090 0.367895
0.000000 0.466102 0.730648
0.000000 0.454932 0.741238
0.000000 0.400153 0.776730
0.424537 0.326329 0.829068
0.776608 0.330053 0.863249
0.937102 0.298131 0.796292
1.000000 0.347204 0.725216
1.000000 0.414343 0.695277
0.000000 0.472908 0.714717
0.000000 0.462440 0.722652
0.000000 0.418891 0.761349
0.415839 0.346410 0.818326
0.773007 0.358709 0.856596
0.932891 0.332158 0.791409
1.000000 0.376501 0.724788
1.000000 0.433326 0.696773
0.000000 0.527459 0.727596
0.000000 0.515160 0.722408
0.000000 0.477607 0.728847
0.394873 0.420356 0.798611
0.772305 0.462440 0.846067
0.925292 0.442908 0.783871
0.996918 0.473426 0.730526
1.000000 0.502861 0.708064
0.000000 0.617823 0.745663
0.000000 0.609186 0.741451
0.000000 0.579858 0.729885
0.397559 0.549584 0.750607
0.770809 0.596643 0.830991
0.914977 0.580865 0.778439
0.982879 0.595819 0.744778
1.000000 0.609247 0.733913
0.000000 0.741268 0.766781
0.000000 0.737972 0.765499
0.000000 0.724880 0.760098
0.429877 0.698116 0.748043
0.718196 0.691310 0.779141
0.875364 0.697658 0.760311
0.949676 0.699153 0.753262
1.000000 0.712154 0.762783
0.000000 0.875181 0.771633
0.000000 0.875273 0.772763
0.260594 0.869535 0.773220
0.552270 0.856382 0.777279
0.742824 0.818662 0.769528
0.828885 0.792294 0.755337
0.922271 0.787564 0.757015
0.999054 0.779873 0.759335
0.000000 0.964691 0.737667
0.070832 0.961944 0.739895
0.406806 0.949157 0.748226
0.619135 0.927886 0.765713
0.776638 0.899687 0.794156
0.859220 0.889799 0.788724
0.945525 0.863096 0.721798
0.979553 0.855100 0.761440
0.241123 1.000000 0.695186
0.312963 1.000000 0.700557
0.474952 0.992126 0.720516
0.644862 0.976684 0.757168
0.788022 0.957122 0.805570
0.864378 0.933013 0.828824
0.947662 0.954681 0.705074
1.000000 0.903624 0.645716
0.000000 0.529320 0.829282
0.000000 0.520775 0.835691
0.000000 0.483436 0.852384
0.160403 0.385077 0.884825
0.631128 0.431159 0.915984
0.876188 0.449226 0.926482
0.988067 0.445441 0.862028
1.000000 0.495857 0.810513
0.000000 0.534325 0.816434
0.000000 0.526482 0.822812
0.000000 0.492256 0.840879
0.125948 0.393011 0.875090
0.623255 0.439582 0.908507
0.870756 0.456764 0.920348
0.983215 0.449592 0.856138
1.000000 0.495705 0.805936
0.000000 0.574578 0.823392
0.000000 0.565393 0.820401
0.000000 0.533196 0.821439
0.225345 0.481331 0.858122
0.616205 0.495735 0.897887
0.869688 0.525444 0.915404
0.979706 0.522698 0.856443
1.000000 0.562036 0.815274
0.000000 0.642512 0.834073
0.000000 0.634455 0.830503
0.000000 0.606348 0.819791
0.160311 0.563867 0.822782
0.591394 0.569574 0.878386
0.867582 0.624079 0.909148
0.973510 0.620417 0.858122
1.000000 0.641291 0.825864
0.000000 0.729488 0.839780
0.000000 0.723873 0.837003
0.000000 0.705409 0.829404
0.098054 0.669368 0.816342
0.523827 0.643824 0.825132
0.848539 0.708858 0.892454
0.960021 0.702052 0.851743
1.000000 0.718074 0.834226
0.000000 0.844541 0.853788
0.000000 0.842374 0.853086
0.000000 0.834165 0.850309
0.280491 0.817777 0.844755
0.544640 0.787778 0.831815
0.797971 0.784543 0.857481
0.938506 0.800076 0.851225
1.000000 0.800687 0.847410
0.000000 0.956451 0.848142
0.000000 0.955901 0.848844
0.000000 0.950896 0.849851
0.454047 0.940581 0.853880
0.675227 0.925566 0.860624
0.832212 0.900053 0.861723
0.902251 0.874968 0.847929
0.978759 0.869749 0.849332
0.000000 1.000000 0.804776
0.000000 1.000000 0.805875
0.239658 1.000000 0.814511
0.526299 1.000000 0.829862
0.717281 0.982544 0.850950
0.854490 0.961669 0.878508
0.923674 0.948974 0.886717
0.994507 0.931273 0.824002
0.000000 0.594202 0.925689
0.000000 0.586847 0.928038
0.000000 0.558556 0.932311
0.134951 0.518822 0.944366
0.503655 0.498146 0.960021
0.781613 0.569451 0.973785
0.947021 0.584222 0.975036
1.000000 0.602106 0.922393
0.000000 0.600458 0.919585
0.000000 0.593286 0.922087
0.000000 0.566003 0.927337
0.148470 0.531853 0.939055
0.496132 0.503563 0.956420
0.778195 0.575006 0.971405
0.945159 0.590356 0.973236
1.000000 0.607965 0.921386
0.000000 0.626917 0.917418
0.000000 0.620569 0.916228
0.000000 0.594568 0.914336
0.030457 0.566430 0.929900
0.479194 0.533654 0.949401
0.771908 0.604852 0.966278
0.942687 0.627344 0.970642
1.000000 0.639979 0.921263
0.000000 0.675563 0.920500
0.000000 0.670649 0.919921
0.000000 0.649287 0.914031
0.000000 0.612726 0.912505
0.452918 0.590539 0.935729
0.757534 0.651362 0.958892
0.939147 0.688258 0.968170
1.000000 0.691432 0.922515
0.000000 0.742794 0.921294
0.000000 0.739284 0.921355
0.000000 0.723110 0.918059
0.000000 0.690272 0.912505
0.318883 0.652338 0.907286
0.709529 0.688258 0.943755
0.931304 0.755428 0.964508
1.000000 0.751247 0.923827
0.000000 0.830259 0.925719
0.000000 0.827024 0.924681
0.000000 0.815976 0.921813
0.000000 0.795499 0.917662
0.222751 0.761105 0.909911
0.616846 0.741726 0.911376
0.919097 0.826993 0.959106
0.998993 0.821683 0.928008
0.000000 0.939513 0.936522
0.000000 0.937957 0.936187
0.000000 0.932525 0.935271
0.000000 0.922545 0.934203
0.405707 0.903868 0.928801
0.632319 0.874479 0.918090
0.849516 0.856016 0.925261
0.985412 0.885344 0.928252
0.000000 1.000000 0.914031
0.000000 1.000000 0.913787
0.000000 1.000000 0.913909
0.217472 1.000000 0.916320
0.553307 0.997955 0.921202
0.757473 0.981170 0.928740
0.900725 0.965454 0.938048
0.960967 0.945800 0.930968
