其他预设/【231】淡彩糖果色预设10款/1.LUT预设（视频调色-PR-AE-PS-FCPX-达芬奇用）/淡彩糖果色__-5.cube
# Created by Adobe Lightroom plugin Export LUT (1.17.0)
# www.johnrellis.com/lightroom/exportlut.htm
# Preset: 淡彩糖果色[素锦印象]-5
# Color profile: /Library/Application Support/Adobe/Color/Profiles/Recommended/AdobeRGB1998.icc
LUT_3D_SIZE 8
DOMAIN_MIN 0.000000 0.000000 0.000000
DOMAIN_MAX 0.903226 0.903226 0.903226
0.000000 0.000000 0.000000
0.250736 0.092439 0.000000
0.515801 0.188602 0.000000
0.733913 0.281590 0.000000
0.868681 0.358618 0.124208
0.959197 0.424537 0.210819
1.000000 0.488228 0.290715
1.000000 0.535363 0.350225
0.189456 0.233524 0.000000
0.249485 0.205386 0.000000
0.502220 0.241184 0.000000
0.714717 0.312230 0.000000
0.855222 0.376165 0.123262
0.951446 0.434821 0.206546
1.000000 0.490120 0.279698
1.000000 0.535973 0.340368
0.394537 0.487678 0.000000
0.488991 0.490364 0.000000
0.460975 0.383917 0.000000
0.703120 0.412512 0.000000
0.847654 0.443214 0.134279
0.953826 0.488350 0.219760
1.000000 0.532677 0.295323
1.000000 0.567041 0.352361
0.555657 0.688228 0.000000
0.609827 0.688167 0.000000
0.676295 0.653132 0.000000
0.655787 0.555779 0.000000
0.837919 0.572259 0.129915
0.959625 0.566461 0.236576
1.000000 0.584375 0.296635
1.000000 0.602380 0.345617
0.664637 0.825010 0.000000
0.698054 0.825040 0.000000
0.802396 0.826352 0.112490
0.813626 0.775601 0.098573
0.781338 0.672175 0.056672
0.898680 0.661128 0.161929
1.000000 0.646235 0.271550
1.000000 0.646815 0.331670
0.731258 0.908843 0.139590
0.757382 0.913420 0.163241
0.829038 0.912413 0.202029
0.884794 0.895232 0.214664
0.895689 0.848753 0.172427
0.878935 0.766629 0.107057
0.967346 0.748043 0.183627
1.000000 0.726345 0.289616
0.778470 0.971557 0.180758
0.794339 0.971740 0.192721
0.844205 0.968597 0.220462
0.921813 0.963958 0.266972
0.941131 0.941344 0.235569
0.961395 0.909422 0.186801
0.962371 0.849943 0.102998
1.000000 0.819944 0.162600
0.801755 1.000000 0.062104
0.812985 1.000000 0.083040
0.851560 1.000000 0.135836
0.915709 1.000000 0.204257
0.960021 0.993103 0.200381
0.988128 0.980987 0.175631
1.000000 0.965637 0.120943
1.000000 0.928801 0.000000
0.000000 0.158358 0.228214
0.221469 0.000000 0.230045
0.454505 0.000000 0.186313
0.681331 0.282170 0.239719
0.835996 0.385748 0.277409
0.937835 0.449470 0.314488
1.000000 0.506462 0.359686
1.000000 0.551263 0.400244
0.013703 0.225071 0.209201
0.231479 0.209384 0.212833
0.457771 0.262730 0.226932
0.677607 0.335576 0.245975
0.830503 0.400793 0.271580
0.933562 0.458595 0.309514
1.000000 0.507774 0.349432
1.000000 0.549828 0.388647
0.286381 0.440284 0.191318
0.395850 0.442298 0.223697
0.444495 0.378729 0.201236
0.679194 0.412024 0.231174
0.827176 0.456275 0.262486
0.932677 0.500206 0.307042
1.000000 0.540215 0.351232
1.000000 0.576165 0.393927
0.496132 0.653529 0.199924
0.554131 0.655268 0.221042
0.659358 0.641474 0.229068
0.628595 0.536553 0.190188
0.806668 0.554009 0.235966
0.930571 0.561273 0.299596
1.000000 0.584253 0.342443
1.000000 0.607446 0.382757
0.638605 0.809781 0.242100
0.670985 0.809201 0.248417
0.776730 0.811429 0.276799
0.795773 0.760769 0.245060
0.759426 0.655146 0.188327
0.883085 0.652155 0.238743
0.997955 0.645960 0.327031
1.000000 0.652827 0.373297
0.715663 0.897215 0.269932
0.737453 0.897551 0.277623
0.808713 0.898039 0.303014
0.875395 0.886229 0.315007
0.885985 0.841428 0.267735
0.870817 0.761593 0.203037
0.960906 0.745876 0.249638
1.000000 0.727382 0.335546
0.768460 0.962829 0.281071
0.782406 0.961425 0.284733
0.832517 0.959777 0.306004
0.914336 0.958404 0.349676
0.936400 0.937560 0.318761
0.954498 0.904417 0.263676
0.952178 0.841703 0.184115
1.000000 0.813596 0.213657
0.797818 1.000000 0.226993
0.809262 1.000000 0.234653
0.847593 1.000000 0.258457
0.911040 1.000000 0.302953
0.961517 0.994812 0.318181
0.987518 0.981964 0.280278
1.000000 0.964721 0.220645
1.000000 0.926116 0.114809
0.000000 0.300603 0.439155
0.000000 0.204288 0.438697
0.406500 0.094453 0.423194
0.581659 0.083619 0.410101
0.790311 0.142947 0.368475
0.917021 0.400885 0.430945
0.996155 0.553491 0.510430
1.000000 0.634363 0.561822
0.000000 0.370184 0.420081
0.180117 0.321111 0.416999
0.404974 0.218570 0.409705
0.590875 0.204623 0.400427
0.789090 0.269535 0.375128
0.911376 0.469245 0.457496
0.989685 0.593713 0.531182
1.000000 0.633051 0.554070
0.167025 0.411810 0.387732
0.257572 0.404486 0.387793
0.416327 0.380652 0.387732
0.628046 0.441505 0.418128
0.799741 0.511101 0.458076
0.910796 0.567285 0.494209
0.988800 0.611383 0.523674
1.000000 0.644648 0.546197
0.298650 0.602258 0.366613
0.360937 0.603449 0.366918
0.583001 0.616358 0.437903
0.614313 0.541161 0.382879
0.805539 0.577752 0.441566
0.912352 0.612085 0.482002
0.988983 0.644221 0.513542
1.000000 0.668360 0.536339
0.545037 0.773922 0.421393
0.586206 0.775540 0.436225
0.702846 0.782284 0.478492
0.787991 0.765469 0.475624
0.751949 0.661646 0.375311
0.880369 0.669703 0.420508
0.986908 0.683436 0.492988
1.000000 0.699092 0.518486
0.676356 0.879698 0.456458
0.700618 0.880095 0.469429
0.771908 0.881346 0.499886
0.871061 0.884825 0.533043
0.873930 0.839109 0.463813
0.855863 0.757870 0.368353
0.952422 0.753170 0.405615
1.000000 0.751461 0.485542
0.758267 0.955596 0.483894
0.772396 0.954772 0.489876
0.818448 0.953124 0.505425
0.892821 0.952514 0.534478
0.932464 0.937652 0.515648
0.946929 0.905669 0.447486
0.947601 0.846464 0.354040
1.000000 0.825437 0.374273
0.797665 1.000000 0.459998
0.806241 1.000000 0.457374
0.841489 1.000000 0.470832
0.901640 0.999908 0.505669
0.961212 0.993652 0.525994
0.983124 0.982208 0.479103
1.000000 0.966094 0.411536
1.000000 0.929686 0.316594
0.000000 0.414893 0.604150
0.000000 0.370397 0.604639
0.228275 0.209384 0.596857
0.551934 0.159487 0.579950
0.698177 0.154116 0.558129
0.848112 0.222232 0.540185
0.969879 0.333623 0.516869
1.000000 0.488014 0.551293
0.000000 0.465278 0.595636
0.000000 0.432685 0.594171
0.242222 0.277317 0.589960
0.553002 0.234562 0.574853
0.699184 0.226810 0.556451
0.850156 0.283391 0.538384
0.968597 0.377295 0.520562
1.000000 0.530938 0.570306
0.000000 0.534386 0.570459
0.188266 0.528191 0.568353
0.374426 0.466560 0.562676
0.556970 0.377752 0.558526
0.705470 0.376593 0.551659
0.869749 0.451423 0.555322
0.970459 0.579248 0.607385
1.000000 0.673030 0.653407
0.235813 0.574456 0.542107
0.291722 0.570184 0.541833
0.424414 0.556542 0.542046
0.575341 0.534020 0.543694
0.749172 0.602258 0.590356
0.872099 0.658595 0.628168
0.961639 0.704494 0.658839
1.000000 0.735653 0.677821
0.372717 0.720333 0.539391
0.413703 0.719051 0.539879
0.533440 0.720302 0.550500
0.723049 0.738125 0.620447
0.728908 0.662745 0.545464
0.874449 0.703120 0.608118
0.965423 0.737270 0.646601
1.000000 0.757687 0.663050
0.546838 0.855528 0.533867
0.594659 0.857481 0.563073
0.701228 0.852110 0.622400
0.810422 0.864195 0.662959
0.869017 0.849027 0.651240
0.841520 0.763241 0.538689
0.945342 0.776577 0.581750
1.000000 0.789792 0.646632
0.728328 0.937560 0.629755
0.743496 0.938506 0.636011
0.790555 0.940978 0.653498
0.861692 0.945403 0.678614
0.935058 0.946014 0.702144
0.940642 0.913481 0.629786
0.936065 0.851408 0.520806
1.000000 0.839994 0.540917
0.805051 0.997253 0.656428
0.813199 0.997314 0.657771
0.838712 0.997070 0.656764
0.885588 0.995972 0.662470
0.949615 0.992554 0.690425
0.977813 0.983429 0.659968
1.000000 0.968048 0.590875
1.000000 0.933959 0.490517
0.000000 0.503197 0.725063
0.000000 0.476539 0.725002
0.000000 0.363592 0.721462
0.426368 0.257115 0.711696
0.666316 0.226688 0.705806
0.794400 0.233097 0.684413
0.897551 0.252720 0.662806
1.000000 0.357458 0.639796
0.000000 0.536919 0.718135
0.000000 0.516625 0.719051
0.106661 0.416541 0.716884
0.431006 0.303563 0.708644
0.666835 0.276066 0.702083
0.793698 0.279179 0.682185
0.900328 0.300053 0.662623
1.000000 0.392767 0.641932
0.000000 0.620752 0.702632
0.149172 0.605402 0.701442
0.338781 0.547204 0.699763
0.445991 0.418738 0.699306
0.667659 0.393011 0.688319
0.786679 0.389105 0.670497
0.906554 0.423621 0.661769
1.000000 0.488441 0.647608
0.181643 0.663050 0.687984
0.247898 0.659174 0.686549
0.391669 0.648157 0.684047
0.545006 0.597955 0.679988
0.676478 0.529259 0.673457
0.786343 0.521294 0.663905
0.925841 0.582147 0.676417
1.000000 0.652064 0.694240
0.311376 0.695827 0.658320
0.348913 0.693172 0.658412
0.451331 0.682368 0.657343
0.574426 0.665766 0.656855
0.684657 0.644343 0.654780
0.830594 0.712184 0.704860
0.935271 0.766079 0.743404
1.000000 0.800229 0.765255
0.423133 0.787320 0.647669
0.452766 0.787320 0.649134
0.537560 0.786801 0.653346
0.652094 0.792966 0.667506
0.806577 0.816892 0.725978
0.810452 0.752621 0.653712
0.938293 0.801053 0.722347
1.000000 0.827726 0.755093
0.599603 0.914244 0.656397
0.617121 0.913603 0.660304
0.674067 0.913664 0.676112
0.786648 0.913939 0.737026
0.884184 0.930175 0.772854
0.931212 0.918273 0.759091
0.915984 0.849027 0.644953
0.997284 0.853300 0.676844
0.747585 0.986633 0.713741
0.763027 0.985473 0.723690
0.812375 0.982269 0.757076
0.861631 0.986572 0.772702
0.916838 0.988556 0.777737
0.973632 0.985687 0.794980
0.988190 0.969604 0.728206
1.000000 0.934325 0.624140
0.000000 0.577630 0.822416
0.000000 0.559777 0.822110
0.000000 0.489906 0.819669
0.181125 0.344610 0.822812
0.568597 0.315099 0.812772
0.753658 0.297002 0.802640
0.877317 0.300359 0.794400
0.973907 0.311528 0.774960
0.000000 0.599054 0.813352
0.000000 0.583429 0.812772
0.000000 0.520562 0.814054
0.221073 0.379492 0.815640
0.568170 0.345006 0.806302
0.751644 0.327581 0.797330
0.874723 0.329534 0.790463
0.971923 0.336767 0.772732
0.000000 0.669764 0.810208
0.144320 0.658442 0.809049
0.318791 0.617090 0.806943
0.376318 0.509331 0.807462
0.580591 0.440497 0.799893
0.755947 0.423316 0.790799
0.873533 0.421118 0.785458
0.970245 0.417609 0.770687
0.177432 0.737240 0.799313
0.239902 0.734127 0.797513
0.381537 0.720974 0.795132
0.530938 0.664942 0.795956
0.607721 0.564416 0.795682
0.768673 0.544671 0.786740
0.876646 0.535576 0.781918
0.976684 0.540307 0.770718
0.288640 0.764462 0.778683
0.326787 0.762509 0.778378
0.430243 0.755642 0.777096
0.550958 0.745174 0.775998
0.663752 0.701381 0.773220
0.769436 0.640894 0.767391
0.871244 0.630579 0.763546
0.987854 0.684321 0.773678
0.388403 0.791257 0.750240
0.415991 0.790829 0.751858
0.489570 0.784176 0.752010
0.584009 0.773190 0.752010
0.678889 0.758297 0.750942
0.777920 0.742763 0.752529
0.914488 0.819944 0.813169
0.990875 0.863371 0.844938
0.486549 0.870329 0.755825
0.508232 0.871489 0.757595
0.570336 0.872129 0.760067
0.660273 0.876249 0.766842
0.764309 0.886992 0.782223
0.899290 0.913054 0.840055
0.897581 0.851133 0.758389
0.991943 0.884337 0.816770
0.656367 0.974395 0.760769
0.667964 0.973907 0.762539
0.707301 0.973236 0.769955
0.771115 0.974945 0.787015
0.864958 0.975372 0.833951
0.942443 0.982574 0.863005
0.979950 0.975372 0.850248
0.989166 0.937194 0.746883
0.000000 0.640467 0.900786
0.000000 0.627985 0.900725
0.000000 0.581476 0.900969
0.111574 0.485908 0.902190
0.415137 0.389776 0.898955
0.673426 0.364630 0.890654
0.826108 0.356023 0.884672
0.951568 0.354803 0.893400
0.000000 0.661341 0.898589
0.000000 0.649226 0.898558
0.000000 0.604578 0.898894
0.203098 0.513664 0.899626
0.424598 0.414527 0.897642
0.676509 0.390967 0.890013
0.827939 0.382238 0.884245
0.952026 0.379706 0.892882
0.000000 0.710323 0.892058
0.145022 0.703059 0.891783
0.305669 0.674556 0.891234
0.358099 0.598199 0.892332
0.455604 0.488258 0.892760
0.685145 0.466804 0.885710
0.831662 0.454353 0.880186
0.950927 0.446418 0.887938
0.156069 0.786099 0.883604
0.222019 0.778927 0.883055
0.363561 0.755581 0.882628
0.502892 0.712367 0.881407
0.537194 0.610803 0.883604
0.696468 0.563043 0.879149
0.837583 0.546014 0.874083
0.950408 0.533806 0.880095
0.274784 0.823789 0.873899
0.311467 0.822751 0.873838
0.407996 0.819059 0.873503
0.520989 0.812467 0.873228
0.641993 0.753292 0.872709
0.706233 0.660761 0.873198
0.846372 0.642084 0.867948
0.951232 0.630854 0.870237
0.374304 0.858396 0.862974
0.397894 0.857084 0.862852
0.467384 0.852659 0.862608
0.558038 0.845243 0.862455
0.655573 0.835233 0.862821
0.758358 0.795621 0.862364
0.855467 0.739986 0.858824
0.952575 0.731655 0.858183
0.464057 0.888518 0.843046
0.479988 0.887205 0.843137
0.530236 0.883085 0.843565
0.601526 0.876341 0.844358
0.685451 0.867247 0.845701
0.775174 0.855467 0.847105
0.865812 0.840085 0.847654
0.976898 0.911559 0.904814
0.538994 0.949828 0.847196
0.550225 0.949340 0.847990
0.590326 0.948516 0.849119
0.661769 0.950134 0.850797
0.752590 0.954040 0.856870
0.853513 0.961852 0.873960
0.962310 0.977081 0.926329
0.972076 0.941039 0.855833
0.000000 0.710567 0.976898
0.000000 0.701656 0.977081
0.101686 0.669429 0.977966
0.226535 0.605890 0.979492
0.320775 0.497047 0.981964
0.577966 0.465431 0.978820
0.777981 0.446784 0.974395
0.903197 0.442359 0.971679
0.112795 0.726894 0.975494
0.138766 0.718288 0.975677
0.203861 0.686946 0.976623
0.279362 0.625879 0.978271
0.355352 0.522515 0.980804
0.584222 0.484260 0.978210
0.780179 0.465492 0.973999
0.904570 0.459632 0.971435
0.195865 0.764858 0.972290
0.257816 0.761013 0.972045
0.362188 0.742397 0.972045
0.398779 0.687709 0.973693
0.445167 0.597986 0.976562
0.602228 0.540642 0.975799
0.786221 0.520867 0.972015
0.908263 0.511009 0.969757
0.183932 0.822568 0.967956
0.249119 0.818235 0.967803
0.390448 0.803738 0.967407
0.520836 0.775601 0.967010
0.548760 0.700404 0.970031
0.624964 0.617243 0.972137
0.793942 0.596521 0.968902
0.914031 0.582422 0.966979
0.276677 0.885557 0.961517
0.307744 0.884794 0.961425
0.392920 0.882475 0.961425
0.502739 0.851377 0.962860
0.644831 0.812192 0.962707
0.668452 0.717739 0.967163
0.801907 0.680903 0.965515
0.921996 0.666163 0.963500
0.380224 0.917632 0.955932
0.400488 0.916930 0.955962
0.460975 0.914305 0.956176
0.543908 0.909514 0.956573
0.638880 0.902739 0.957275
0.755062 0.852537 0.958343
0.810330 0.771206 0.960998
0.931334 0.756222 0.958679
0.469032 0.954589 0.949950
0.483101 0.953765 0.950011
0.527428 0.950927 0.950256
0.594232 0.945800 0.950622
0.675654 0.938567 0.951232
0.764492 0.929625 0.952239
0.859342 0.897642 0.953643
0.942962 0.851652 0.953674
0.554925 0.986542 0.936828
0.564996 0.985870 0.937072
0.597986 0.983368 0.937652
0.650965 0.978790 0.938567
0.718715 0.972320 0.939971
0.795254 0.964202 0.941955
0.875975 0.954498 0.944427
0.954070 0.943481 0.946746
