其他预设/【231】淡彩糖果色预设10款/1.LUT预设（视频调色-PR-AE-PS-FCPX-达芬奇用）/淡彩糖果色__-4.cube
# Created by Adobe Lightroom plugin Export LUT (1.17.0)
# www.johnrellis.com/lightroom/exportlut.htm
# Preset: 淡彩糖果色[素锦印象]-4
# Color profile: /Library/Application Support/Adobe/Color/Profiles/Recommended/AdobeRGB1998.icc
LUT_3D_SIZE 32
0.060975 0.060975 0.060975
0.088136 0.059083 0.061524
0.115053 0.053071 0.062715
0.170138 0.029389 0.063508
0.235721 0.000000 0.063691
0.294560 0.000000 0.064851
0.347570 0.000000 0.066224
0.397436 0.000000 0.068238
0.445930 0.000000 0.071168
0.493874 0.000000 0.074586
0.542107 0.000000 0.079469
0.590204 0.000000 0.085298
0.635950 0.000000 0.092042
0.678279 0.000000 0.102144
0.717220 0.000000 0.112795
0.752682 0.000000 0.123751
0.784909 0.000000 0.134981
0.814389 0.000000 0.146151
0.844907 0.000000 0.158541
0.877256 0.000000 0.172427
0.905547 0.000000 0.185702
0.930571 0.000000 0.197940
0.952697 0.000000 0.209232
0.972625 0.000000 0.220035
0.990936 0.000000 0.229984
1.000000 0.000000 0.239933
1.000000 0.000000 0.249912
1.000000 0.000000 0.260380
1.000000 0.000000 0.271611
1.000000 0.000000 0.284001
1.000000 0.000000 0.297612
1.000000 0.000000 0.313054
0.060487 0.083619 0.060914
0.086275 0.082887 0.061921
0.114199 0.081697 0.062043
0.169345 0.079103 0.062318
0.234226 0.066560 0.062623
0.292515 0.022156 0.063294
0.345373 0.000000 0.065431
0.394690 0.000000 0.067689
0.442847 0.000000 0.070863
0.490791 0.000000 0.074067
0.538598 0.000000 0.079164
0.586419 0.000000 0.084962
0.632074 0.000000 0.092653
0.674372 0.000000 0.102541
0.713436 0.000000 0.112612
0.748959 0.000000 0.124025
0.781308 0.000000 0.134768
0.811032 0.000000 0.145724
0.841794 0.000000 0.158053
0.873472 0.000000 0.171389
0.901549 0.000000 0.183932
0.926604 0.000000 0.195956
0.948882 0.000000 0.207126
0.969085 0.000000 0.217899
0.987671 0.000000 0.227695
1.000000 0.000000 0.237583
1.000000 0.000000 0.247349
1.000000 0.000000 0.258091
1.000000 0.000000 0.269200
1.000000 0.000000 0.281498
1.000000 0.000000 0.294957
1.000000 0.000000 0.310246
0.058991 0.107668 0.061097
0.087098 0.107393 0.061097
0.113954 0.106416 0.062165
0.168338 0.109163 0.061799
0.232303 0.104738 0.061707
0.290318 0.091463 0.062837
0.342657 0.068055 0.063966
0.391852 0.000000 0.066590
0.439979 0.000000 0.069947
0.487678 0.000000 0.074189
0.535454 0.000000 0.078981
0.583276 0.000000 0.085176
0.629023 0.000000 0.093263
0.671504 0.000000 0.103120
0.710567 0.000000 0.113619
0.746395 0.000000 0.124086
0.778897 0.000000 0.135195
0.808713 0.000000 0.145693
0.839994 0.000000 0.158328
0.871214 0.000000 0.171115
0.899229 0.000000 0.183536
0.924346 0.000000 0.195071
0.946746 0.000000 0.206363
0.967102 0.000000 0.216831
0.985809 0.000000 0.226810
1.000000 0.000000 0.236393
1.000000 0.000000 0.246311
1.000000 0.000000 0.256962
1.000000 0.000000 0.268070
1.000000 0.000000 0.280308
1.000000 0.000000 0.293767
1.000000 0.000000 0.308904
0.049836 0.156191 0.056397
0.088319 0.155795 0.056977
0.119356 0.155123 0.057710
0.167361 0.153628 0.059815
0.230289 0.155062 0.058839
0.287602 0.147768 0.059174
0.339574 0.134798 0.061585
0.388678 0.118257 0.065248
0.436530 0.096681 0.068635
0.484108 0.063050 0.073671
0.531640 0.000000 0.079072
0.579187 0.000000 0.086030
0.624842 0.000000 0.094636
0.667353 0.000000 0.104799
0.706813 0.000000 0.114473
0.742763 0.000000 0.125338
0.775479 0.000000 0.136294
0.805478 0.000000 0.146670
0.837339 0.000000 0.158785
0.867643 0.000000 0.171298
0.895232 0.000000 0.182956
0.920226 0.000000 0.194369
0.943023 0.000000 0.205325
0.963989 0.000000 0.216037
0.983490 0.000000 0.226017
1.000000 0.000000 0.236118
1.000000 0.000000 0.246281
1.000000 0.000000 0.257115
1.000000 0.000000 0.268376
1.000000 0.000000 0.280430
1.000000 0.000000 0.293523
1.000000 0.000000 0.308202
0.020966 0.210391 0.044434
0.083680 0.209689 0.045258
0.118441 0.208804 0.047211
0.167971 0.206516 0.050202
0.222721 0.203311 0.052949
0.282444 0.201205 0.051453
0.334020 0.191592 0.058625
0.382788 0.179873 0.062562
0.430549 0.166171 0.067567
0.477790 0.150973 0.073732
0.525139 0.132418 0.079866
0.572473 0.109468 0.088106
0.618494 0.076753 0.097200
0.661433 0.000000 0.106752
0.701411 0.000000 0.116945
0.738186 0.000000 0.127108
0.771725 0.000000 0.137850
0.802457 0.000000 0.148318
0.835569 0.000000 0.160769
0.865354 0.000000 0.172610
0.892515 0.000000 0.183902
0.917418 0.000000 0.194949
0.940246 0.000000 0.205600
0.961425 0.000000 0.216098
0.981201 0.000000 0.226047
0.999878 0.000000 0.236088
1.000000 0.000000 0.246281
1.000000 0.000000 0.256840
1.000000 0.000000 0.268009
1.000000 0.000000 0.279973
1.000000 0.000000 0.292973
1.000000 0.000000 0.307500
0.000000 0.260746 0.028748
0.073121 0.260227 0.030671
0.111543 0.259068 0.031189
0.163394 0.256718 0.033661
0.218143 0.252964 0.041321
0.273045 0.248753 0.045563
0.329564 0.244816 0.048402
0.377874 0.234714 0.061006
0.425360 0.223789 0.067964
0.472633 0.212314 0.075288
0.519799 0.200198 0.082704
0.567132 0.186435 0.091737
0.613245 0.170809 0.100862
0.656550 0.152377 0.110292
0.696986 0.131350 0.119661
0.734249 0.105531 0.130312
0.768246 0.071290 0.140780
0.801694 0.000000 0.151736
0.834134 0.000000 0.163790
0.863798 0.000000 0.175082
0.891051 0.000000 0.186221
0.916197 0.000000 0.197269
0.960388 0.000000 0.222416
0.980011 0.000000 0.233280
0.997986 0.000000 0.243412
1.000000 0.000000 0.253422
1.000000 0.000000 0.263432
1.000000 0.000000 0.273838
1.000000 0.000000 0.284672
1.000000 0.000000 0.296391
1.000000 0.063874 0.309239
1.000000 0.112581 0.323308
0.000000 0.312413 0.014435
0.054170 0.311650 0.015717
0.102693 0.310674 0.017273
0.158480 0.308537 0.023255
0.215030 0.305241 0.029084
0.270176 0.300603 0.039582
0.324529 0.295689 0.048341
0.379919 0.291173 0.054475
0.427588 0.281132 0.069551
0.475471 0.271397 0.080140
0.523369 0.261418 0.089174
0.571405 0.250919 0.097169
0.617365 0.239017 0.106874
0.660365 0.225345 0.116243
0.700130 0.210300 0.125582
0.736477 0.194217 0.135653
0.770016 0.177493 0.145541
0.806607 0.161624 0.157534
0.838926 0.145144 0.169650
0.869078 0.128206 0.181521
0.897520 0.111604 0.193454
0.924254 0.095796 0.205661
0.949004 0.082582 0.217807
0.971618 0.071473 0.229770
0.992035 0.065553 0.241184
1.000000 0.062531 0.251957
1.000000 0.066529 0.262455
1.000000 0.075380 0.272801
1.000000 0.089387 0.283543
1.000000 0.108003 0.295140
1.000000 0.129091 0.307469
1.000000 0.153567 0.321355
0.000000 0.354833 0.016083
0.008942 0.354162 0.017548
0.089662 0.353216 0.019501
0.148867 0.351171 0.024079
0.206119 0.348272 0.032898
0.260777 0.344213 0.044556
0.314061 0.339330 0.057191
0.366522 0.334447 0.065400
0.420874 0.330541 0.070558
0.468238 0.321691 0.084077
0.515801 0.313390 0.095552
0.563745 0.304662 0.103517
0.610071 0.294865 0.111879
0.653315 0.283482 0.120851
0.693446 0.270970 0.130098
0.730373 0.257542 0.139223
0.768307 0.245121 0.150149
0.803159 0.232303 0.161410
0.834623 0.219486 0.172519
0.864378 0.206882 0.183810
0.892607 0.195285 0.195315
0.919341 0.184665 0.206821
0.944152 0.175723 0.218387
0.966949 0.168154 0.230045
0.987671 0.162234 0.241032
1.000000 0.158236 0.251743
1.000000 0.155550 0.261875
1.000000 0.155520 0.272038
1.000000 0.159182 0.282780
1.000000 0.165988 0.294041
1.000000 0.177188 0.306462
1.000000 0.192020 0.320043
0.000000 0.396216 0.034394
0.000000 0.395605 0.036011
0.075624 0.394903 0.040131
0.139528 0.393042 0.046265
0.197726 0.390478 0.052735
0.252354 0.386847 0.060975
0.305303 0.382605 0.067079
0.356847 0.377874 0.073610
0.408148 0.372930 0.081422
0.462348 0.370397 0.085969
0.509728 0.362646 0.098665
0.557305 0.355047 0.109712
0.603815 0.346777 0.118318
0.647333 0.336614 0.126467
0.687648 0.325414 0.135195
0.728420 0.314885 0.145022
0.766232 0.303532 0.155367
0.800046 0.291630 0.165713
0.830900 0.279454 0.176333
0.860472 0.267918 0.187015
0.888609 0.257176 0.197879
0.915312 0.247074 0.208896
0.940185 0.238224 0.220188
0.963073 0.230747 0.231296
0.983948 0.224216 0.242252
1.000000 0.218479 0.252506
1.000000 0.214237 0.262425
1.000000 0.211612 0.272404
1.000000 0.211307 0.282780
1.000000 0.213901 0.293950
1.000000 0.219760 0.306065
1.000000 0.229191 0.319341
0.000000 0.436835 0.058686
0.000000 0.436225 0.059876
0.060700 0.435462 0.060853
0.131136 0.433906 0.062928
0.189853 0.431495 0.066865
0.244938 0.428321 0.071443
0.297429 0.424475 0.076905
0.348638 0.420142 0.083192
0.398932 0.415473 0.089967
0.449134 0.410925 0.096559
0.503044 0.409094 0.100679
0.550408 0.402136 0.111788
0.596735 0.394781 0.123110
0.640528 0.385901 0.132448
0.685817 0.378027 0.141329
0.727169 0.368383 0.151095
0.764401 0.357397 0.160494
0.798001 0.345525 0.170779
0.828733 0.333837 0.181186
0.857939 0.322240 0.191318
0.885557 0.311284 0.201450
0.911498 0.300999 0.211704
0.935760 0.291478 0.222019
0.958221 0.282902 0.232303
0.979004 0.275029 0.242496
0.998169 0.268254 0.252445
1.000000 0.262638 0.262119
1.000000 0.258640 0.272221
1.000000 0.256626 0.282841
1.000000 0.256962 0.294133
1.000000 0.260227 0.306493
1.000000 0.266636 0.320104
0.000000 0.475746 0.072023
0.000000 0.475380 0.072572
0.027039 0.474708 0.073365
0.121645 0.473396 0.075471
0.182437 0.471382 0.078279
0.237644 0.468879 0.082063
0.290440 0.465766 0.087282
0.341588 0.462165 0.092195
0.391821 0.458045 0.097871
0.441382 0.453620 0.104280
0.490639 0.449226 0.110201
0.544518 0.448096 0.113130
0.593042 0.442756 0.123995
0.639826 0.436408 0.136080
0.683406 0.428260 0.147066
0.723598 0.418433 0.156619
0.760189 0.407050 0.165621
0.793362 0.395178 0.175296
0.823972 0.383093 0.184939
0.853208 0.371374 0.194430
0.880919 0.360357 0.204410
0.907103 0.349737 0.214267
0.931579 0.340063 0.224491
0.954345 0.330938 0.234470
0.975341 0.322515 0.244388
0.994690 0.314763 0.254002
1.000000 0.308049 0.263432
1.000000 0.302586 0.273198
1.000000 0.298863 0.283482
1.000000 0.297093 0.294408
1.000000 0.297887 0.306493
1.000000 0.301579 0.319982
0.000000 0.515648 0.083345
0.000000 0.515312 0.084169
0.000000 0.514733 0.085115
0.112184 0.513603 0.086580
0.175204 0.511955 0.088716
0.231083 0.509789 0.092042
0.284092 0.507195 0.095796
0.335546 0.504051 0.100526
0.385840 0.500572 0.105653
0.435492 0.496712 0.110506
0.484718 0.492805 0.116945
0.537285 0.492042 0.122957
0.614069 0.510277 0.131228
0.661280 0.502739 0.143038
0.704097 0.493050 0.156985
0.742763 0.481575 0.169558
0.777829 0.468818 0.180026
0.809567 0.455360 0.189487
0.838773 0.441840 0.198947
0.866392 0.428962 0.208408
0.892363 0.416571 0.217899
0.916716 0.404944 0.227543
0.939361 0.393835 0.236790
0.960601 0.383673 0.246281
0.980377 0.374121 0.255528
0.998810 0.365454 0.264652
1.000000 0.357641 0.273686
1.000000 0.351080 0.282780
1.000000 0.345892 0.292454
1.000000 0.342565 0.302953
1.000000 0.341497 0.314672
1.000000 0.342931 0.327611
0.000000 0.563439 0.093507
0.000000 0.563043 0.093996
0.000000 0.562158 0.094575
0.101900 0.560571 0.096010
0.169131 0.558312 0.097658
0.226413 0.555474 0.100252
0.280156 0.552483 0.103639
0.331792 0.549310 0.107729
0.382635 0.546136 0.112306
0.435615 0.546502 0.117678
0.489082 0.546899 0.124453
0.542931 0.546990 0.131380
0.597009 0.546838 0.138613
0.652186 0.546441 0.143526
0.696681 0.537652 0.154421
0.735714 0.526452 0.169100
0.770687 0.513603 0.181613
0.802274 0.499977 0.192721
0.831693 0.486213 0.201999
0.859434 0.472816 0.211032
0.885618 0.460029 0.220096
0.910277 0.447791 0.229252
0.933196 0.436194 0.238376
0.954772 0.425208 0.247440
0.974853 0.414923 0.256168
0.993622 0.405402 0.264958
1.000000 0.396643 0.273655
1.000000 0.389136 0.282780
1.000000 0.382666 0.292180
1.000000 0.378180 0.302708
1.000000 0.375463 0.314092
1.000000 0.375280 0.327153
0.000000 0.600580 0.102174
0.000000 0.600183 0.102602
0.000000 0.599481 0.102876
0.089082 0.598108 0.104402
0.160769 0.595941 0.105806
0.219120 0.593469 0.108156
0.274052 0.592706 0.111574
0.326940 0.591760 0.115206
0.379095 0.590814 0.119875
0.431037 0.590051 0.124880
0.483162 0.589349 0.130922
0.535393 0.588678 0.137148
0.587396 0.587366 0.143984
0.638819 0.585168 0.150362
0.688563 0.581079 0.156130
0.728511 0.569574 0.165560
0.763210 0.556237 0.180209
0.794827 0.542351 0.192782
0.824277 0.528435 0.204227
0.852323 0.514885 0.213596
0.878965 0.501823 0.222568
0.904021 0.489265 0.231540
0.927398 0.477211 0.240391
0.949401 0.465736 0.249149
0.969879 0.454841 0.257786
0.989075 0.444587 0.266453
1.000000 0.435157 0.274937
1.000000 0.426642 0.283818
1.000000 0.419409 0.293248
1.000000 0.413733 0.303563
1.000000 0.409979 0.315160
1.000000 0.408270 0.328069
0.000000 0.640894 0.112001
0.000000 0.640864 0.112612
0.000000 0.640375 0.112551
0.076905 0.639490 0.113680
0.154421 0.638056 0.115450
0.214420 0.636286 0.117281
0.269352 0.634424 0.120363
0.321813 0.632593 0.123629
0.373205 0.630976 0.127565
0.424475 0.629664 0.132204
0.475441 0.628504 0.137362
0.526513 0.627344 0.143282
0.577264 0.625757 0.149355
0.627344 0.623285 0.155398
0.676143 0.619287 0.161746
0.720333 0.611566 0.167758
0.756527 0.598260 0.176638
0.788052 0.583703 0.190921
0.817594 0.569421 0.203494
0.845701 0.555657 0.214847
0.872404 0.542321 0.225040
0.897765 0.529320 0.233524
0.921477 0.516777 0.242100
0.943847 0.504814 0.250889
0.964813 0.493385 0.259464
0.984558 0.482765 0.268009
1.000000 0.472847 0.276951
1.000000 0.464149 0.286381
1.000000 0.456580 0.296300
1.000000 0.450538 0.307225
1.000000 0.446174 0.319432
1.000000 0.443854 0.333288
0.000000 0.680232 0.122347
0.000000 0.680293 0.123049
0.000000 0.679927 0.123323
0.064912 0.679103 0.124178
0.148165 0.677760 0.125612
0.209751 0.676143 0.127291
0.264500 0.674495 0.129793
0.317021 0.672786 0.132815
0.368322 0.670985 0.136538
0.418647 0.669123 0.140658
0.468605 0.667048 0.145388
0.517998 0.664729 0.150332
0.566674 0.661860 0.155825
0.614771 0.658228 0.161288
0.661799 0.653742 0.166751
0.707332 0.647913 0.172244
0.747250 0.637781 0.178866
0.780911 0.623865 0.187686
0.811185 0.609369 0.201480
0.839963 0.595575 0.214328
0.867247 0.582208 0.225772
0.892973 0.569329 0.236973
0.917235 0.556542 0.245792
0.940002 0.544244 0.254368
0.961395 0.532433 0.263127
0.981537 0.521355 0.271946
1.000000 0.510979 0.280797
1.000000 0.501640 0.290166
1.000000 0.493416 0.300328
1.000000 0.486397 0.310979
1.000000 0.480812 0.323003
1.000000 0.477089 0.336278
0.000000 0.713375 0.132845
0.000000 0.713130 0.132845
0.000000 0.712642 0.133516
0.051057 0.711757 0.134066
0.142245 0.710445 0.135317
0.203311 0.708827 0.136995
0.257786 0.707057 0.139193
0.309728 0.705165 0.141634
0.360052 0.703182 0.144930
0.409522 0.701137 0.148684
0.458350 0.699001 0.153109
0.506798 0.696651 0.157504
0.554528 0.693874 0.162570
0.601495 0.690394 0.167849
0.647639 0.686030 0.172885
0.692500 0.680751 0.178012
0.735653 0.674067 0.183444
0.772366 0.662409 0.190311
0.804410 0.648310 0.198550
0.833463 0.633906 0.211490
0.860929 0.620142 0.224277
0.886900 0.606836 0.235721
0.911315 0.593927 0.246769
0.934478 0.581445 0.256443
0.956359 0.569299 0.265019
0.976989 0.557794 0.273930
0.996551 0.547021 0.283055
1.000000 0.537224 0.292607
1.000000 0.528405 0.302831
1.000000 0.520775 0.313878
1.000000 0.514488 0.325841
1.000000 0.509911 0.339544
0.000000 0.743954 0.143679
0.000000 0.744076 0.144106
0.000000 0.758755 0.151919
0.064729 0.757839 0.152407
0.146181 0.756374 0.153475
0.205417 0.754391 0.154757
0.259464 0.752071 0.156588
0.310460 0.749569 0.158328
0.360296 0.746975 0.161196
0.409094 0.744381 0.164645
0.457191 0.741665 0.168093
0.504662 0.738613 0.172183
0.551354 0.734951 0.176486
0.597375 0.730800 0.180850
0.642481 0.725978 0.185245
0.686641 0.720516 0.189548
0.729976 0.714443 0.194217
0.771176 0.706783 0.199008
0.804349 0.692927 0.206088
0.833982 0.677760 0.214511
0.860868 0.662470 0.226108
0.886351 0.648035 0.238865
0.910491 0.634180 0.250278
0.933135 0.620905 0.261051
0.954314 0.607965 0.270970
0.974456 0.595422 0.279026
0.993561 0.583520 0.287236
1.000000 0.572625 0.295964
1.000000 0.562921 0.305577
1.000000 0.554498 0.316472
1.000000 0.547387 0.328557
1.000000 0.541741 0.342138
0.000000 0.775753 0.156069
0.000000 0.777462 0.157412
0.000000 0.779049 0.158663
0.060853 0.780056 0.160403
0.141817 0.780087 0.161898
0.200259 0.779019 0.163699
0.253086 0.777188 0.165042
0.302953 0.774899 0.166995
0.351629 0.772549 0.169406
0.398993 0.770047 0.172183
0.446021 0.767422 0.175296
0.492348 0.764553 0.179019
0.537957 0.761074 0.182986
0.582879 0.757137 0.186709
0.626978 0.752560 0.190585
0.670344 0.747402 0.194644
0.712917 0.741756 0.198581
0.754757 0.735775 0.202823
0.794675 0.728298 0.207889
0.825681 0.713924 0.215671
0.853941 0.698756 0.224369
0.880186 0.683986 0.235630
0.904784 0.669886 0.248417
0.927947 0.656275 0.260044
0.949615 0.643061 0.270909
0.970123 0.630518 0.280888
0.989654 0.618372 0.289891
1.000000 0.607141 0.298863
1.000000 0.596918 0.308568
1.000000 0.587793 0.319554
1.000000 0.579950 0.331609
1.000000 0.573449 0.345098
0.000000 0.800320 0.164523
0.000000 0.801816 0.166110
0.000000 0.803281 0.167239
0.063172 0.804105 0.168704
0.140108 0.804166 0.170169
0.196597 0.803189 0.171664
0.247868 0.801511 0.173220
0.296483 0.799466 0.174838
0.343786 0.797330 0.176852
0.390265 0.794980 0.179385
0.436103 0.792569 0.182559
0.481422 0.789853 0.185916
0.526024 0.786587 0.189303
0.569970 0.782925 0.193027
0.613245 0.778653 0.196475
0.655756 0.773861 0.200107
0.697597 0.768673 0.203647
0.738888 0.763119 0.207767
0.779812 0.757473 0.211826
0.818570 0.750149 0.217105
0.847440 0.735103 0.225864
0.874296 0.720058 0.235203
0.899626 0.705440 0.245853
0.923095 0.691463 0.258824
0.945159 0.677821 0.270420
0.965942 0.664729 0.280949
0.985657 0.652308 0.291234
1.000000 0.640772 0.301457
1.000000 0.629938 0.311162
1.000000 0.620264 0.321935
1.000000 0.611627 0.333898
1.000000 0.604273 0.347387
0.000000 0.823941 0.172641
0.000000 0.825284 0.173953
0.000000 0.826596 0.175204
0.070039 0.827359 0.176638
0.140383 0.827359 0.178103
0.194644 0.826444 0.179538
0.243931 0.824918 0.180728
0.290898 0.822995 0.182345
0.337011 0.820890 0.184146
0.382269 0.818631 0.186587
0.426795 0.816281 0.189120
0.471077 0.813626 0.192081
0.514549 0.810575 0.195132
0.557641 0.807187 0.198520
0.600183 0.803372 0.202243
0.642267 0.799283 0.205875
0.683986 0.795071 0.209995
0.725399 0.790707 0.214267
0.766598 0.786343 0.218997
0.807706 0.782010 0.224308
0.846098 0.775479 0.230808
0.873533 0.760250 0.241337
0.898955 0.744961 0.251743
0.923308 0.730526 0.262425
0.945739 0.716609 0.275914
0.966766 0.703212 0.288090
0.986572 0.690394 0.299596
1.000000 0.678462 0.311101
1.000000 0.667445 0.322820
1.000000 0.657252 0.334173
1.000000 0.648035 0.346715
1.000000 0.639979 0.360418
0.000000 0.852384 0.185336
0.000000 0.852873 0.186038
0.000000 0.853178 0.186557
0.084993 0.853056 0.187289
0.145174 0.852445 0.188327
0.195834 0.851286 0.189425
0.242893 0.849821 0.190616
0.288457 0.848142 0.192142
0.333349 0.846403 0.193973
0.377569 0.844541 0.196201
0.421241 0.842557 0.199069
0.464637 0.840238 0.202060
0.507347 0.837491 0.205112
0.549493 0.834287 0.208286
0.591180 0.830716 0.211704
0.632502 0.826810 0.215091
0.673335 0.822721 0.218875
0.713985 0.818509 0.222843
0.754238 0.814206 0.227237
0.794430 0.809812 0.231907
0.834226 0.805356 0.237095
0.870756 0.798123 0.243656
0.895445 0.781552 0.254093
0.918395 0.765225 0.264500
0.941314 0.750423 0.273899
0.962554 0.736507 0.287144
0.982727 0.723293 0.299474
1.000000 0.710872 0.311589
1.000000 0.699367 0.323919
1.000000 0.688746 0.336584
1.000000 0.679042 0.349859
1.000000 0.670375 0.363836
0.000000 0.873564 0.193027
0.000000 0.874052 0.193851
0.000000 0.874388 0.194522
0.097108 0.874327 0.195468
0.149752 0.873747 0.196262
0.196719 0.872648 0.197147
0.241611 0.871183 0.198032
0.285130 0.869505 0.199161
0.328588 0.867765 0.201053
0.371344 0.865934 0.203098
0.413916 0.863981 0.205692
0.455970 0.861784 0.208469
0.497658 0.859251 0.211276
0.539055 0.856352 0.214511
0.579889 0.853178 0.217716
0.620478 0.849729 0.221103
0.660700 0.846128 0.224796
0.700740 0.842374 0.229007
0.740597 0.838560 0.233616
0.780179 0.834714 0.238560
0.819608 0.830808 0.243839
0.858793 0.826841 0.249516
0.894133 0.819608 0.256931
0.917113 0.802609 0.268162
0.935302 0.783047 0.274723
0.957214 0.768368 0.283909
0.977813 0.754696 0.296849
0.997345 0.741817 0.309483
1.000000 0.729732 0.322271
1.000000 0.718563 0.335454
1.000000 0.708400 0.349462
1.000000 0.699641 0.365484
0.000000 0.898222 0.205600
0.016052 0.898741 0.206485
0.074250 0.898924 0.207218
0.117891 0.898619 0.207706
0.161105 0.897795 0.208103
0.203159 0.896513 0.208560
0.244724 0.894926 0.209140
0.286015 0.892973 0.209812
0.327276 0.890867 0.210910
0.368200 0.888670 0.212345
0.408972 0.886259 0.214176
0.449500 0.883818 0.216251
0.489876 0.881071 0.218509
0.529870 0.877989 0.221042
0.569390 0.874540 0.223636
0.608637 0.870817 0.226261
0.647639 0.866911 0.229313
0.686549 0.863096 0.232883
0.725460 0.859495 0.236942
0.764462 0.856046 0.241794
0.803311 0.852628 0.247349
0.841947 0.849119 0.253117
0.880125 0.845243 0.259068
0.913695 0.837430 0.266392
0.934417 0.819516 0.277287
0.953460 0.801938 0.287755
0.974334 0.787320 0.297093
0.993927 0.773587 0.309209
1.000000 0.760830 0.322179
1.000000 0.748959 0.335576
1.000000 0.738216 0.350164
1.000000 0.728695 0.366583
0.027863 0.916747 0.212161
0.070008 0.917235 0.213046
0.094240 0.917449 0.213626
0.129091 0.917144 0.214237
0.167147 0.916411 0.214725
0.206180 0.915312 0.215152
0.245579 0.913909 0.215854
0.284947 0.912291 0.216648
0.324773 0.910521 0.217807
0.364477 0.908629 0.219547
0.403998 0.906645 0.221317
0.443793 0.904540 0.223636
0.483223 0.902220 0.226230
0.522393 0.899565 0.228794
0.561212 0.896574 0.231510
0.599756 0.893309 0.234257
0.638178 0.889891 0.237491
0.676417 0.886442 0.241032
0.714626 0.883116 0.245243
0.752926 0.879881 0.250065
0.791043 0.876677 0.255589
0.829007 0.873350 0.261357
0.866606 0.869780 0.267155
0.903685 0.865934 0.273045
0.935668 0.857664 0.280552
0.954620 0.839170 0.291905
0.971923 0.821164 0.303105
0.991852 0.806729 0.312932
1.000000 0.793271 0.325505
1.000000 0.780850 0.339696
1.000000 0.769619 0.355444
1.000000 0.759457 0.372595
0.082643 0.936095 0.220493
0.098817 0.936400 0.221256
0.114900 0.936370 0.221561
0.142397 0.935943 0.221958
0.175448 0.935088 0.222049
0.210910 0.933928 0.222263
0.247532 0.932555 0.222538
0.285069 0.930968 0.223178
0.323095 0.929290 0.224338
0.361303 0.927611 0.225742
0.399786 0.925780 0.227604
0.438270 0.923919 0.230014
0.476753 0.921904 0.232609
0.515129 0.919524 0.235447
0.553002 0.916777 0.238010
0.590692 0.913787 0.240787
0.628290 0.910552 0.243748
0.665705 0.907347 0.247196
0.703182 0.904204 0.251194
0.740658 0.901183 0.255924
0.778134 0.898131 0.261173
0.815366 0.895018 0.267033
0.852293 0.891722 0.272923
0.888823 0.888212 0.278965
0.924895 0.884398 0.284764
0.955352 0.875700 0.292668
0.972747 0.856840 0.304570
0.988556 0.838529 0.316075
1.000000 0.824063 0.326574
1.000000 0.811002 0.339910
1.000000 0.799039 0.355932
1.000000 0.788052 0.373449
0.105959 0.953582 0.226535
0.117159 0.953704 0.227054
0.130373 0.953704 0.227359
0.153597 0.953338 0.227634
0.183627 0.952758 0.228153
0.216770 0.952087 0.228916
0.251987 0.951415 0.230228
0.288334 0.950744 0.232242
0.325689 0.950042 0.234806
0.363226 0.949340 0.237797
0.401190 0.948516 0.241276
0.439124 0.947509 0.244907
0.476997 0.946227 0.248539
0.514672 0.944549 0.252323
0.552056 0.942443 0.255772
0.589014 0.939818 0.258824
0.625849 0.936980 0.262119
0.662470 0.934020 0.265660
0.699214 0.931090 0.269963
0.735927 0.928191 0.274754
0.772549 0.925292 0.280156
0.809018 0.922271 0.286015
0.845182 0.919066 0.291905
0.880980 0.915648 0.297917
0.916350 0.912016 0.304234
0.951324 0.908202 0.310399
0.980041 0.898955 0.318730
0.995422 0.879423 0.331060
1.000000 0.860777 0.343633
1.000000 0.846159 0.355993
1.000000 0.833127 0.370703
1.000000 0.821195 0.389014
0.142885 0.975463 0.241642
0.150576 0.975463 0.242039
0.159823 0.975311 0.242283
0.177920 0.974884 0.242344
0.202396 0.974212 0.242405
0.231022 0.973327 0.242802
0.262455 0.972381 0.243565
0.295384 0.971374 0.244572
0.329808 0.970306 0.246128
0.365301 0.969116 0.248447
0.400977 0.967834 0.250828
0.437079 0.966430 0.253513
0.473274 0.964782 0.256321
0.509453 0.962890 0.259403
0.545617 0.960723 0.262364
0.581598 0.958282 0.265507
