其他预设/【231】淡彩糖果色预设10款/1.LUT预设（视频调色-PR-AE-PS-FCPX-达芬奇用）/淡彩糖果色__-1.cube
# Created by Adobe Lightroom plugin Export LUT (1.17.0)
# www.johnrellis.com/lightroom/exportlut.htm
# Preset: 淡彩糖果色[素锦印象]-1
# Color profile: /Library/Application Support/Adobe/Color/Profiles/Recommended/AdobeRGB1998.icc
LUT_3D_SIZE 32
0.060975 0.060975 0.060975
0.092134 0.060426 0.060822
0.121981 0.059815 0.060670
0.183078 0.056031 0.059174
0.260502 0.043885 0.051942
0.333104 0.025788 0.042329
0.401282 0.004669 0.031189
0.467872 0.000000 0.023285
0.534691 0.000000 0.013489
0.602228 0.000000 0.003998
0.666255 0.000000 0.004517
0.724025 0.000000 0.022126
0.775174 0.000000 0.057740
0.819791 0.015808 0.083619
0.858274 0.076234 0.108766
0.891722 0.105165 0.131746
0.920806 0.130892 0.153872
0.946471 0.154879 0.175204
0.978332 0.185550 0.203342
1.000000 0.213779 0.229801
1.000000 0.238834 0.253513
1.000000 0.260960 0.274540
1.000000 0.280095 0.292973
1.000000 0.297002 0.309117
1.000000 0.311284 0.322942
1.000000 0.324468 0.335851
1.000000 0.337438 0.348272
1.000000 0.350469 0.360906
1.000000 0.363897 0.374029
1.000000 0.378180 0.387854
1.000000 0.393408 0.402625
1.000000 0.409613 0.418433
0.061311 0.084840 0.060761
0.090028 0.084230 0.060731
0.120363 0.086366 0.061585
0.182040 0.090822 0.059327
0.258915 0.092836 0.050996
0.330571 0.090517 0.042115
0.398077 0.085267 0.032715
0.463478 0.080995 0.024720
0.529442 0.074098 0.015229
0.596490 0.067536 0.005707
0.660121 0.060670 0.006104
0.717708 0.059907 0.023957
0.768826 0.068727 0.060670
0.813626 0.085451 0.085298
0.852476 0.104921 0.108461
0.886168 0.125093 0.131960
0.915679 0.145571 0.153079
0.941772 0.165347 0.173861
0.973480 0.192355 0.201175
0.999634 0.217288 0.226169
1.000000 0.240055 0.248875
1.000000 0.260563 0.269444
1.000000 0.278630 0.287480
1.000000 0.294682 0.303532
1.000000 0.308537 0.317357
1.000000 0.321630 0.330297
1.000000 0.334112 0.342718
1.000000 0.347356 0.355779
1.000000 0.360510 0.368811
1.000000 0.374609 0.382727
1.000000 0.389410 0.397253
1.000000 0.405280 0.412848
0.060731 0.109438 0.060334
0.091035 0.109071 0.059815
0.119265 0.108858 0.059754
0.180819 0.119875 0.060121
0.256901 0.126131 0.051972
0.328099 0.126650 0.043977
0.394720 0.124300 0.034852
0.459510 0.121340 0.026795
0.525109 0.118013 0.016724
0.591485 0.114046 0.011810
0.655360 0.110994 0.011292
0.713222 0.110689 0.030426
0.764553 0.113558 0.064485
0.809689 0.122377 0.088228
0.848753 0.134981 0.111208
0.882872 0.148318 0.132937
0.912566 0.164492 0.154391
0.938964 0.180575 0.174441
0.970764 0.204044 0.201450
0.996704 0.226230 0.225528
1.000000 0.246738 0.247745
1.000000 0.265568 0.267887
1.000000 0.282628 0.285801
1.000000 0.297520 0.301427
1.000000 0.310948 0.315404
1.000000 0.323125 0.328130
1.000000 0.335424 0.340734
1.000000 0.348119 0.353704
1.000000 0.360998 0.366735
1.000000 0.374853 0.380652
1.000000 0.389227 0.395148
1.000000 0.404608 0.410468
0.060121 0.155550 0.055573
0.093812 0.155642 0.054994
0.124880 0.155245 0.053803
0.173983 0.155428 0.051637
0.253544 0.173526 0.051331
0.327550 0.179751 0.044465
0.393378 0.178592 0.036713
0.457771 0.176608 0.030213
0.522454 0.174411 0.021180
0.588312 0.172305 0.019043
0.651545 0.170993 0.023621
0.708980 0.169955 0.048188
0.760067 0.171450 0.073091
0.805112 0.175509 0.095552
0.844572 0.180850 0.116457
0.878843 0.189029 0.137881
0.908782 0.198917 0.158389
0.937133 0.211246 0.178958
0.967224 0.228519 0.203525
0.992248 0.245518 0.226108
1.000000 0.261906 0.246891
1.000000 0.277623 0.266300
1.000000 0.292638 0.283940
1.000000 0.306554 0.300206
1.000000 0.319310 0.314641
1.000000 0.331640 0.328527
1.000000 0.343694 0.341802
1.000000 0.356237 0.355383
1.000000 0.368566 0.368597
1.000000 0.381292 0.382025
1.000000 0.394507 0.395850
1.000000 0.408270 0.410071
0.057893 0.206241 0.046967
0.094362 0.206088 0.046235
0.126406 0.205600 0.045716
0.174197 0.204166 0.044373
0.229618 0.203891 0.038270
0.311955 0.223941 0.037171
0.388739 0.234318 0.041962
0.452247 0.233036 0.035431
0.516106 0.231571 0.032013
0.580865 0.231235 0.036011
0.643977 0.230381 0.044831
0.701381 0.229618 0.065736
0.752834 0.229435 0.085328
0.798642 0.230564 0.105287
0.838987 0.232792 0.125368
0.874418 0.236881 0.145327
0.905455 0.242252 0.165408
0.936553 0.251682 0.187167
0.965637 0.263584 0.210239
0.990082 0.275792 0.231327
1.000000 0.288029 0.250950
1.000000 0.300359 0.269230
1.000000 0.312230 0.286259
1.000000 0.323766 0.302037
1.000000 0.334752 0.316564
1.000000 0.345464 0.330266
1.000000 0.356298 0.343572
1.000000 0.367010 0.356512
1.000000 0.378180 0.369512
1.000000 0.389776 0.382757
1.000000 0.401740 0.396124
1.000000 0.414557 0.410132
0.056794 0.254856 0.038911
0.093996 0.254734 0.038148
0.125887 0.254032 0.035889
0.173373 0.252354 0.034180
0.225803 0.249882 0.032654
0.281041 0.248966 0.025940
0.365301 0.271519 0.026093
0.447639 0.288243 0.046754
0.514580 0.290349 0.053376
0.578882 0.290318 0.060609
0.641321 0.290196 0.068971
0.698421 0.288975 0.083589
0.749660 0.287724 0.101076
0.795621 0.286748 0.119234
0.836271 0.286534 0.137453
0.872038 0.287449 0.156954
0.903410 0.289708 0.175967
0.937072 0.296849 0.198489
0.965270 0.304662 0.220249
0.989441 0.312963 0.240238
1.000000 0.321935 0.259495
1.000000 0.331212 0.277592
1.000000 0.376471 0.335058
1.000000 0.386084 0.350408
1.000000 0.394629 0.363745
1.000000 0.402594 0.375830
1.000000 0.410559 0.387243
1.000000 0.418708 0.398505
1.000000 0.427314 0.409766
1.000000 0.436683 0.421546
1.000000 0.446571 0.433478
1.000000 0.456794 0.445594
0.055970 0.309911 0.026764
0.095277 0.309331 0.026520
0.128115 0.308629 0.026398
0.176547 0.307164 0.026673
0.229740 0.304814 0.025177
0.283543 0.301579 0.023224
0.338842 0.299687 0.016938
0.429145 0.327489 0.024994
0.518181 0.349371 0.063294
0.600153 0.362768 0.083070
0.661616 0.361608 0.095003
0.717464 0.358892 0.109102
0.766659 0.355383 0.126497
0.810239 0.351659 0.143282
0.848112 0.348028 0.160372
0.881163 0.345342 0.177615
0.914946 0.346532 0.197696
0.947601 0.350927 0.220066
0.974731 0.355840 0.241337
0.998627 0.362127 0.262242
1.000000 0.370275 0.283360
1.000000 0.379736 0.304540
1.000000 0.390295 0.325078
1.000000 0.400702 0.344182
1.000000 0.410468 0.361212
1.000000 0.418585 0.375463
1.000000 0.425971 0.387915
1.000000 0.432868 0.399268
1.000000 0.440009 0.410346
1.000000 0.447730 0.421515
1.000000 0.455695 0.432593
1.000000 0.464546 0.444190
0.063508 0.350622 0.033570
0.096834 0.350164 0.032441
0.127047 0.349401 0.032868
0.173678 0.347906 0.031891
0.225010 0.345617 0.032746
0.276738 0.342626 0.033417
0.328069 0.339086 0.037079
0.381231 0.337377 0.035340
0.473610 0.369085 0.058961
0.565942 0.395880 0.084749
0.656092 0.418860 0.116640
0.712764 0.416571 0.130251
0.762081 0.411933 0.144930
0.805600 0.406531 0.160250
0.843626 0.401099 0.176333
0.878264 0.396826 0.192477
0.915007 0.397528 0.213687
0.945220 0.397711 0.233219
0.971160 0.398779 0.252201
0.994507 0.401465 0.271702
1.000000 0.406134 0.291478
1.000000 0.412238 0.311284
1.000000 0.419409 0.330541
1.000000 0.426825 0.348608
1.000000 0.433692 0.364660
1.000000 0.439857 0.378546
1.000000 0.445014 0.390356
1.000000 0.450019 0.401129
1.000000 0.455726 0.412055
1.000000 0.461677 0.422614
1.000000 0.468513 0.433661
1.000000 0.475837 0.444800
0.074556 0.390539 0.052064
0.102693 0.390112 0.052155
0.130220 0.389532 0.053376
0.173434 0.388098 0.053986
0.222690 0.386114 0.055116
0.272374 0.383368 0.056550
0.322332 0.380255 0.058473
0.372107 0.376989 0.059663
0.423987 0.375525 0.060182
0.519585 0.411810 0.077943
0.613916 0.442267 0.106477
0.699245 0.464363 0.141390
0.760525 0.469306 0.166354
0.803830 0.462318 0.180179
0.841947 0.455268 0.194766
0.882322 0.452918 0.213901
0.915801 0.449439 0.232120
0.944274 0.446235 0.249271
0.969146 0.444129 0.266758
0.991943 0.443793 0.284550
1.000000 0.445350 0.302800
1.000000 0.448371 0.321324
1.000000 0.452583 0.339574
1.000000 0.457252 0.356573
1.000000 0.461769 0.371984
1.000000 0.465248 0.384894
1.000000 0.468513 0.396155
1.000000 0.471656 0.406348
1.000000 0.475319 0.416449
1.000000 0.479591 0.426490
1.000000 0.484627 0.436805
1.000000 0.490181 0.447120
0.088228 0.429633 0.066835
0.110933 0.429145 0.067414
0.135042 0.428412 0.067445
0.175387 0.427100 0.067903
0.221683 0.425208 0.068391
0.269688 0.422705 0.069398
0.318029 0.419837 0.070741
0.366461 0.416754 0.072145
0.414923 0.413855 0.073793
0.465827 0.412940 0.073884
0.564080 0.452857 0.095003
0.655665 0.483345 0.127291
0.735409 0.504204 0.164736
0.803159 0.517845 0.201389
0.848112 0.514000 0.219120
0.885832 0.508446 0.236271
0.918059 0.502403 0.252628
0.945678 0.496681 0.269139
0.969787 0.492103 0.285496
0.991608 0.488869 0.301793
1.000000 0.487129 0.317998
1.000000 0.486671 0.334203
1.000000 0.487037 0.349584
1.000000 0.488167 0.364324
1.000000 0.489509 0.377813
1.000000 0.490761 0.389868
1.000000 0.492134 0.400641
1.000000 0.494026 0.411017
1.000000 0.496651 0.421485
1.000000 0.499886 0.431769
1.000000 0.504082 0.442481
1.000000 0.508812 0.453132
0.099672 0.465797 0.079103
0.118807 0.465522 0.079530
0.141024 0.465003 0.079469
0.177798 0.464088 0.079805
0.221805 0.462654 0.080507
0.268009 0.460914 0.081147
0.315373 0.458869 0.082643
0.362737 0.456611 0.083772
0.410651 0.454200 0.085237
0.458625 0.451789 0.086946
0.508751 0.451179 0.087404
0.607965 0.493202 0.110597
0.699580 0.525811 0.149477
0.778958 0.548638 0.191348
0.844450 0.563592 0.233219
0.886625 0.561883 0.258091
0.917327 0.553002 0.272679
0.943847 0.544701 0.287510
0.967346 0.537469 0.302129
0.988739 0.531701 0.316808
1.000000 0.527672 0.332158
1.000000 0.524834 0.347173
1.000000 0.523278 0.362127
1.000000 0.522240 0.376043
1.000000 0.521447 0.388739
1.000000 0.520531 0.399664
1.000000 0.519799 0.409461
1.000000 0.519646 0.418799
1.000000 0.520195 0.428199
1.000000 0.521630 0.437751
1.000000 0.524071 0.447730
1.000000 0.527367 0.457923
0.111391 0.503838 0.090852
0.128267 0.503624 0.090913
0.147921 0.503166 0.091157
0.181827 0.502403 0.091737
0.223697 0.501335 0.092012
0.268193 0.499977 0.092866
0.314275 0.498482 0.093538
0.361089 0.496681 0.094697
0.408301 0.494911 0.095888
0.455787 0.493050 0.097078
0.504417 0.491981 0.099092
0.560571 0.497230 0.099886
0.702266 0.575372 0.148135
0.788449 0.604242 0.198672
0.857023 0.621057 0.248020
0.910460 0.630549 0.294865
0.949004 0.632441 0.332006
0.970886 0.619654 0.344213
0.989899 0.608148 0.356207
1.000000 0.598657 0.368566
1.000000 0.590692 0.380621
1.000000 0.584314 0.392798
1.000000 0.578668 0.403815
1.000000 0.574151 0.414496
1.000000 0.570123 0.424140
1.000000 0.566613 0.432929
1.000000 0.563378 0.440620
1.000000 0.560662 0.447730
1.000000 0.558770 0.454994
1.000000 0.557916 0.462654
1.000000 0.558160 0.470802
1.000000 0.559289 0.479377
0.125917 0.555474 0.103456
0.140475 0.555169 0.103334
0.158633 0.554162 0.103243
0.190616 0.552483 0.103609
0.230594 0.550195 0.103487
0.273472 0.547539 0.103914
0.318456 0.545159 0.104250
0.364324 0.543053 0.105348
0.411566 0.541588 0.106264
0.463996 0.545953 0.108858
0.519158 0.551598 0.112367
0.576074 0.557275 0.116548
0.634302 0.562890 0.121065
0.735561 0.607263 0.165103
0.816098 0.633875 0.217380
0.878416 0.648554 0.267369
0.926421 0.656184 0.313634
0.963348 0.660395 0.355810
0.984894 0.650843 0.373419
1.000000 0.639033 0.384009
1.000000 0.629084 0.394842
1.000000 0.620478 0.405524
1.000000 0.612970 0.415686
1.000000 0.606348 0.425086
1.000000 0.600336 0.433509
1.000000 0.594873 0.441138
1.000000 0.589960 0.448035
1.000000 0.585779 0.454688
1.000000 0.582269 0.461158
1.000000 0.580163 0.468544
1.000000 0.578912 0.476112
1.000000 0.578943 0.484535
0.135805 0.590784 0.113222
0.149599 0.590478 0.113130
0.165408 0.589624 0.113008
0.194949 0.588190 0.113344
0.232486 0.586053 0.112947
0.273991 0.583551 0.113222
0.318608 0.583398 0.114412
0.365515 0.584771 0.115694
0.414099 0.586664 0.117891
0.464424 0.589380 0.120363
0.516594 0.592828 0.123720
0.570245 0.596735 0.127382
0.624445 0.600031 0.131991
0.677394 0.601404 0.136141
0.768582 0.638880 0.183108
0.840665 0.660700 0.234867
0.895964 0.671931 0.283848
0.938842 0.677729 0.329046
0.972747 0.681239 0.371191
0.996918 0.678950 0.400580
1.000000 0.667323 0.410620
1.000000 0.657160 0.420478
1.000000 0.647974 0.429694
1.000000 0.639796 0.438239
1.000000 0.632258 0.445960
1.000000 0.625299 0.452857
1.000000 0.618799 0.458869
1.000000 0.613092 0.464759
1.000000 0.608423 0.470863
1.000000 0.604913 0.477607
1.000000 0.602625 0.485084
1.000000 0.601312 0.492958
0.148806 0.630518 0.124849
0.160678 0.630732 0.125246
0.175174 0.630335 0.125124
0.203037 0.629725 0.125216
0.239384 0.628687 0.125582
0.279667 0.627527 0.125765
0.322515 0.626673 0.126925
0.367437 0.626337 0.127962
0.413977 0.626795 0.129732
0.462409 0.628168 0.132052
0.512200 0.630488 0.134859
0.563348 0.633265 0.138705
0.615137 0.635615 0.142611
0.666407 0.636805 0.146365
0.714321 0.634424 0.151064
0.796231 0.665553 0.198886
0.861295 0.683772 0.250889
0.911192 0.692805 0.298833
0.950652 0.697658 0.343786
0.982208 0.700862 0.385595
1.000000 0.703822 0.424933
1.000000 0.693385 0.436103
1.000000 0.682643 0.444129
1.000000 0.672999 0.452064
1.000000 0.664118 0.459236
1.000000 0.656092 0.465797
1.000000 0.648920 0.472175
1.000000 0.642817 0.478859
1.000000 0.637720 0.485634
1.000000 0.633875 0.493172
1.000000 0.631250 0.501396
1.000000 0.629694 0.510094
0.163302 0.672328 0.139193
0.174228 0.672633 0.139651
0.187106 0.672419 0.139498
0.213046 0.671809 0.139742
0.246952 0.670863 0.140108
0.285954 0.669856 0.140230
0.327398 0.669154 0.141054
0.371130 0.668788 0.142367
0.416480 0.668727 0.144259
0.462928 0.669093 0.146181
0.510460 0.669520 0.148562
0.558495 0.669947 0.151400
0.606470 0.669734 0.154330
0.654231 0.668696 0.157137
0.700984 0.666529 0.159548
0.743404 0.660517 0.163210
0.817868 0.686946 0.211643
0.878050 0.703212 0.263737
0.925048 0.711727 0.312810
0.962585 0.716884 0.358801
0.992462 0.720363 0.401312
1.000000 0.723415 0.441413
1.000000 0.719509 0.464637
1.000000 0.708705 0.471778
1.000000 0.698817 0.478523
1.000000 0.689754 0.484810
1.000000 0.681453 0.490578
1.000000 0.674189 0.496468
1.000000 0.667964 0.502770
1.000000 0.662562 0.508965
1.000000 0.658228 0.515831
1.000000 0.654841 0.522942
0.176486 0.706264 0.152346
0.185641 0.706142 0.152102
0.197513 0.705653 0.152377
0.220829 0.704860 0.152346
0.252445 0.703792 0.152529
0.288853 0.702541 0.152865
0.328374 0.701503 0.153628
0.370062 0.700679 0.154330
0.413367 0.700099 0.155795
0.457893 0.699886 0.157443
0.503502 0.699916 0.159915
0.549767 0.700008 0.162417
0.596185 0.699702 0.165316
0.642237 0.698512 0.167819
0.687465 0.696162 0.170169
0.731289 0.692500 0.171969
0.770016 0.684504 0.175906
0.838254 0.707210 0.224582
0.894408 0.721828 0.276677
0.938384 0.729641 0.325750
0.973449 0.734218 0.371435
1.000000 0.737179 0.413825
1.000000 0.739528 0.453101
1.000000 0.741329 0.487800
1.000000 0.730343 0.493812
1.000000 0.720272 0.499580
1.000000 0.711116 0.505150
1.000000 0.702968 0.510796
1.000000 0.695766 0.516686
1.000000 0.689570 0.522881
1.000000 0.684321 0.529351
1.000000 0.680140 0.536431
0.189853 0.738338 0.165805
0.198734 0.738888 0.166171
0.223423 0.765347 0.181308
0.244663 0.764462 0.181186
0.274052 0.762966 0.181155
0.307958 0.761044 0.181094
0.345556 0.758877 0.181277
0.385443 0.756741 0.181247
0.427344 0.754879 0.182406
0.470588 0.753414 0.183749
0.514611 0.752071 0.185397
0.559197 0.750515 0.187350
0.603632 0.748257 0.189273
0.647913 0.745418 0.190829
0.691310 0.741756 0.192386
0.733913 0.737209 0.193118
0.775601 0.731899 0.194217
0.810452 0.721096 0.197604
0.870817 0.738247 0.248356
0.920836 0.749477 0.301793
0.959625 0.754940 0.350805
0.990234 0.757839 0.396429
1.000000 0.759335 0.438056
1.000000 0.760342 0.475807
1.000000 0.760708 0.508171
1.000000 0.753567 0.521386
1.000000 0.742275 0.523949
1.000000 0.732174 0.527092
1.000000 0.723354 0.531182
1.000000 0.715938 0.536461
1.000000 0.709621 0.542321
1.000000 0.704189 0.548516
0.206851 0.774411 0.182742
0.215946 0.777707 0.184817
0.227726 0.780941 0.187015
0.248569 0.783322 0.188968
0.276677 0.784451 0.190555
0.309148 0.783932 0.191257
0.344823 0.782406 0.191409
0.382696 0.780423 0.191684
0.422553 0.778714 0.192355
0.463539 0.777066 0.193484
0.505760 0.775540 0.194797
0.548547 0.773892 0.196384
0.591272 0.771542 0.198032
0.633753 0.768612 0.199008
0.675654 0.764889 0.200015
0.716884 0.760464 0.200809
0.757443 0.755398 0.201175
0.797360 0.750057 0.201694
0.830259 0.738796 0.205783
0.886412 0.753841 0.257145
0.933501 0.764157 0.310979
0.970397 0.769528 0.360754
0.999115 0.772030 0.406348
1.000000 0.773129 0.447852
1.000000 0.773434 0.484718
1.000000 0.773220 0.516258
1.000000 0.770993 0.539666
1.000000 0.760159 0.542535
1.000000 0.750576 0.546166
1.000000 0.742153 0.550744
1.000000 0.734859 0.555962
1.000000 0.728481 0.561608
0.216861 0.798428 0.192538
0.225498 0.801358 0.194827
0.236149 0.804227 0.196902
0.255009 0.806332 0.198856
0.281132 0.807370 0.200320
0.311437 0.806851 0.200961
0.345006 0.805447 0.201236
0.380774 0.803677 0.201480
0.418647 0.802029 0.201938
0.458106 0.800412 0.202731
0.498573 0.798947 0.204044
0.539696 0.797299 0.205447
0.580896 0.794949 0.206638
0.621973 0.792142 0.207889
0.662684 0.788540 0.208652
0.702754 0.784329 0.209049
0.742306 0.779568 0.208957
0.781460 0.774563 0.209415
0.820523 0.769619 0.209873
0.851743 0.758114 0.214725
0.903563 0.770779 0.267063
0.947631 0.780026 0.321843
0.982055 0.784604 0.371954
1.000000 0.786343 0.417395
1.000000 0.786526 0.458045
1.000000 0.785977 0.493568
1.000000 0.785031 0.524132
1.000000 0.784298 0.551171
1.000000 0.776608 0.560204
1.000000 0.767239 0.563989
1.000000 0.758938 0.568322
1.000000 0.751553 0.573236
0.226352 0.821653 0.202152
0.234257 0.824369 0.204288
0.244175 0.826993 0.206516
0.261875 0.828916 0.208347
0.285954 0.829831 0.209812
0.314305 0.829343 0.210575
0.345678 0.828000 0.210544
0.379522 0.826230 0.210666
0.415686 0.824491 0.210971
0.453193 0.822721 0.211673
0.491920 0.821073 0.212375
0.531426 0.819242 0.213504
0.571069 0.816953 0.214420
0.610956 0.814328 0.215488
0.650721 0.811246 0.216434
0.690364 0.807919 0.217197
0.730098 0.804562 0.218448
0.769894 0.801266 0.219730
0.809903 0.798184 0.221530
0.850156 0.795438 0.224277
0.880888 0.784665 0.231632
0.928862 0.795224 0.287297
0.968719 0.802640 0.344854
0.999390 0.805966 0.396643
1.000000 0.806699 0.443091
1.000000 0.806180 0.483833
1.000000 0.804959 0.518761
1.000000 0.803677 0.549096
1.000000 0.802701 0.576043
1.000000 0.799466 0.594293
1.000000 0.790524 0.598077
1.000000 0.782498 0.602258
0.244358 0.855192 0.220523
0.250645 0.856291 0.221592
0.258488 0.857084 0.222416
0.273442 0.857359 0.223117
0.295018 0.857023 0.223636
0.321019 0.855955 0.223789
0.350530 0.854582 0.223850
0.382757 0.853147 0.224002
0.417334 0.851865 0.224582
0.453895 0.850645 0.225528
0.491432 0.849454 0.226902
0.529900 0.847959 0.228214
0.568566 0.845914 0.229191
0.607233 0.843351 0.230106
0.645930 0.840330 0.230777
0.684657 0.837003 0.231510
0.723262 0.833524 0.232273
0.761990 0.830076 0.233127
0.800717 0.826719 0.234653
0.839628 0.823392 0.236362
0.878447 0.820127 0.238590
0.906035 0.807431 0.245731
0.948028 0.813962 0.301152
0.982727 0.818235 0.357885
1.000000 0.819669 0.408057
1.000000 0.819181 0.453285
1.000000 0.817807 0.493111
1.000000 0.816098 0.527520
1.000000 0.814450 0.557855
1.000000 0.813046 0.584649
1.000000 0.812100 0.608637
1.000000 0.804440 0.614679
0.253880 0.876555 0.229862
0.259678 0.877623 0.230930
0.266911 0.878508 0.231968
0.281132 0.878813 0.232731
0.300908 0.878477 0.233310
0.325017 0.877379 0.233127
0.352514 0.875914 0.232853
0.382788 0.874296 0.232761
0.415778 0.872770 0.233127
0.450416 0.871397 0.233799
0.486488 0.870085 0.234775
0.523369 0.868589 0.235996
0.560632 0.866667 0.236881
0.598413 0.864408 0.237797
0.636194 0.861814 0.238621
0.674098 0.858976 0.239384
0.712123 0.856046 0.240421
0.750240 0.853147 0.241794
0.788540 0.850309 0.243626
0.826963 0.847593 0.245731
0.865507 0.844968 0.248417
0.904051 0.842405 0.251469
0.929808 0.829068 0.259953
0.967346 0.832883 0.316411
0.993713 0.830442 0.364904
1.000000 0.830716 0.414252
1.000000 0.829496 0.459113
1.000000 0.827451 0.498268
1.000000 0.825193 0.532403
1.000000 0.823056 0.562676
1.000000 0.821378 0.589715
1.000000 0.820188 0.613916
0.271397 0.905486 0.247837
0.277043 0.906645 0.249271
0.283543 0.907195 0.250065
0.295933 0.907012 0.250492
0.313451 0.906157 0.250156
0.335241 0.904692 0.249454
0.360418 0.902770 0.248722
0.388495 0.900511 0.247715
0.419013 0.898192 0.246860
0.451270 0.895964 0.246525
0.485054 0.893553 0.246311
0.519860 0.891295 0.246342
0.555474 0.888792 0.246403
0.591302 0.885893 0.246342
0.627131 0.882444 0.246006
0.663111 0.878782 0.245579
0.699275 0.875029 0.245243
0.735866 0.871611 0.245731
0.773007 0.868772 0.246860
0.810819 0.866453 0.249027
0.848844 0.864408 0.252140
0.886839 0.862303 0.255253
0.924346 0.859739 0.258366
0.947448 0.844877 0.266545
0.980255 0.845426 0.321447
1.000000 0.844846 0.376959
1.000000 0.843626 0.425757
1.000000 0.841123 0.469245
1.000000 0.838071 0.507103
1.000000 0.835019 0.540612
1.000000 0.832395 0.570581
1.000000 0.830259 0.597467
0.279118 0.923827 0.255283
0.284337 0.924895 0.256779
0.290440 0.925475 0.257633
0.301915 0.925322 0.257939
0.318364 0.924529 0.257725
0.338750 0.923278 0.257237
0.362676 0.921691 0.256535
0.389380 0.919860 0.255894
0.418708 0.918029 0.255406
0.449989 0.916228 0.255497
0.482551 0.914397 0.255467
0.516625 0.912627 0.255955
0.551324 0.910643 0.256535
0.586358 0.908293 0.256870
0.621607 0.905486 0.256809
0.656947 0.902373 0.256687
0.692592 0.899138 0.256809
0.728511 0.896117 0.257389
0.764981 0.893492 0.258701
0.801968 0.891264 0.260899
0.839139 0.889189 0.263859
0.876341 0.887083 0.267033
0.913207 0.884672 0.269871
0.949554 0.881865 0.272587
0.970001 0.865507 0.281041
0.998108 0.862943 0.335943
1.000000 0.860014 0.392370
1.000000 0.857481 0.441352
1.000000 0.854063 0.484871
1.000000 0.850309 0.522698
1.000000 0.846830 0.556390
1.000000 0.843717 0.586206
0.289860 0.944488 0.266056
0.294560 0.945159 0.267247
0.299718 0.945312 0.267552
0.309911 0.944823 0.267491
0.324590 0.943786 0.266758
0.343328 0.942351 0.265751
0.365515 0.940612 0.264714
0.390723 0.938811 0.263798
0.418616 0.936980 0.263249
0.448432 0.935363 0.263035
0.479957 0.933715 0.263249
0.512840 0.932219 0.263859
0.546532 0.930541 0.264500
0.580804 0.928496 0.265171
0.615015 0.925933 0.265171
0.649439 0.923064 0.264958
0.684138 0.919982 0.264836
0.719203 0.917052 0.265141
0.754788 0.914488 0.266300
0.790860 0.912261 0.268284
0.827207 0.910246 0.270848
0.863615 0.908202 0.273930
0.899779 0.905913 0.276890
0.935576 0.903319 0.279759
0.970703 0.900145 0.282109
0.988891 0.882597 0.290745
1.000000 0.877470 0.345708
1.000000 0.872465 0.402014
1.000000 0.868559 0.451179
1.000000 0.864195 0.494362
1.000000 0.859648 0.531853
1.000000 0.855375 0.564874
0.297185 0.962158 0.273259
0.301213 0.962524 0.274022
0.306188 0.962615 0.274357
0.315587 0.962310 0.274266
0.329992 0.961700 0.274083
0.348333 0.961089 0.274205
0.370733 0.960723 0.275059
0.396216 0.960479 0.276402
0.424445 0.960449 0.278508
0.454719 0.960571 0.281010
0.486580 0.960632 0.284001
0.519554 0.960571 0.286870
0.553124 0.960113 0.289769
0.587060 0.959106 0.291966
0.621057 0.957458 0.293492
0.654810 0.955108 0.294011
0.688746 0.952422 0.294377
0.722957 0.949706 0.294926
0.757717 0.947204 0.296452
0.792782 0.944945 0.298405
0.828092 0.942718 0.301152
0.863462 0.940459 0.304234
0.898589 0.937957 0.307103
0.933410 0.935210 0.309819
0.967895 0.932097 0.312383
1.000000 0.927977 0.315038
1.000000 0.908995 0.323583
1.000000 0.899840 0.378759
1.000000 0.891905 0.436194
1.000000 0.885771 0.485084
1.000000 0.879850 0.526848
1.000000 0.874174 0.562737
0.320043 0.988708 0.297032
0.323522 0.988861 0.297551
0.327489 0.988708 0.297612
0.335576 0.988159 0.297032
0.347997 0.987304 0.296300
0.364141 0.986328 0.295720
0.383886 0.985321 0.295293
0.406653 0.984344 0.295262
0.432166 0.983429 0.295750
0.459876 0.982544 0.296849
0.489082 0.981567 0.297887
0.519677 0.980529 0.299229
0.551080 0.979248 0.300511
0.583124 0.977661 0.301579
0.615564 0.975708 0.302190
0.648280 0.973449 0.302739
