其他预设/【231】淡彩糖果色预设10款/1.LUT预设（视频调色-PR-AE-PS-FCPX-达芬奇用）/淡彩糖果色__-5.cube
# Created by Adobe Lightroom plugin Export LUT (1.17.0)
# www.johnrellis.com/lightroom/exportlut.htm
# Preset: 淡彩糖果色[素锦印象]-5
# Color profile: /Library/Application Support/Adobe/Color/Profiles/Recommended/AdobeRGB1998.icc
LUT_3D_SIZE 32
0.000000 0.000000 0.000000
0.076112 0.014435 0.001312
0.107057 0.029053 0.003388
0.170871 0.064302 0.001434
0.250736 0.092439 0.000000
0.323644 0.118013 0.000000
0.390539 0.141817 0.000000
0.453956 0.165164 0.000000
0.515801 0.188602 0.000000
0.576562 0.212497 0.000000
0.635126 0.236301 0.000000
0.687526 0.259556 0.000000
0.733913 0.281590 0.000000
0.774533 0.302708 0.000000
0.809964 0.322637 0.068147
0.841154 0.341131 0.098848
0.868681 0.358618 0.124208
0.893187 0.375158 0.147097
0.915099 0.390936 0.168032
0.935698 0.406165 0.187900
0.959197 0.424537 0.210819
0.982269 0.443671 0.234897
1.000000 0.460395 0.256016
1.000000 0.475135 0.274540
1.000000 0.488228 0.290715
1.000000 0.500328 0.305821
1.000000 0.512047 0.320378
1.000000 0.523613 0.334936
1.000000 0.535363 0.350225
1.000000 0.547509 0.366461
1.000000 0.560266 0.384222
1.000000 0.573877 0.403998
0.053315 0.068147 0.000000
0.079774 0.065339 0.000000
0.110140 0.063081 0.000000
0.173739 0.081483 0.000000
0.251774 0.106538 0.000000
0.323003 0.129610 0.000000
0.388739 0.150973 0.000000
0.450965 0.172427 0.000000
0.511955 0.194186 0.000000
0.572290 0.217014 0.000000
0.630426 0.240085 0.000000
0.682795 0.262364 0.000000
0.729152 0.283726 0.000000
0.769924 0.304326 0.000000
0.805600 0.323705 0.066316
0.836942 0.341985 0.098238
0.864775 0.359014 0.122683
0.889616 0.375341 0.145113
0.911833 0.390753 0.166110
0.932708 0.405921 0.185519
0.956481 0.423926 0.208164
0.979156 0.442359 0.231449
0.997894 0.458595 0.251987
1.000000 0.473060 0.270146
1.000000 0.485969 0.286137
1.000000 0.498054 0.301152
1.000000 0.509667 0.315557
1.000000 0.521386 0.330541
1.000000 0.533135 0.345647
1.000000 0.545251 0.361913
1.000000 0.557885 0.379461
1.000000 0.571344 0.398901
0.078767 0.097566 0.000000
0.103487 0.096529 0.000000
0.114229 0.094087 0.000000
0.176425 0.103212 0.000000
0.253330 0.122683 0.000000
0.322820 0.143343 0.000000
0.387030 0.162448 0.000000
0.448310 0.181857 0.000000
0.508782 0.202213 0.000000
0.568444 0.223484 0.000000
0.626581 0.245792 0.000000
0.679072 0.267308 0.000000
0.725643 0.287907 0.000000
0.766690 0.307866 0.000000
0.802518 0.326726 0.067414
0.834257 0.344366 0.097047
0.862211 0.361212 0.122164
0.887236 0.377020 0.144106
0.909728 0.392187 0.165133
0.930846 0.407050 0.184329
0.955108 0.425147 0.207248
0.977539 0.442939 0.229801
0.996216 0.458839 0.250004
1.000000 0.472877 0.267857
1.000000 0.485725 0.283879
1.000000 0.497597 0.298589
1.000000 0.509148 0.313115
1.000000 0.520836 0.328099
1.000000 0.532494 0.343297
1.000000 0.544610 0.359472
1.000000 0.557122 0.376898
1.000000 0.570428 0.396277
0.130800 0.160739 0.000000
0.159396 0.161349 0.000000
0.170382 0.158694 0.000000
0.182162 0.149752 0.000000
0.252842 0.161624 0.000000
0.325963 0.169009 0.000000
0.387793 0.184878 0.000000
0.447578 0.201541 0.000000
0.506645 0.219303 0.000000
0.565454 0.238468 0.000000
0.622827 0.258762 0.000000
0.675013 0.278721 0.000000
0.721309 0.298070 0.000000
0.762387 0.316686 0.005829
0.798642 0.334203 0.068025
0.830533 0.350958 0.097841
0.858762 0.366827 0.122530
0.884001 0.381842 0.143923
0.906615 0.396277 0.164004
0.927855 0.410468 0.183108
0.952636 0.428168 0.206058
0.974487 0.444831 0.227634
0.993225 0.460029 0.247166
1.000000 0.473976 0.265141
1.000000 0.486824 0.281407
1.000000 0.499062 0.296941
1.000000 0.510826 0.312016
1.000000 0.522576 0.327337
1.000000 0.534234 0.342687
1.000000 0.545983 0.358618
1.000000 0.558007 0.375555
1.000000 0.570703 0.394049
0.189456 0.233524 0.000000
0.212589 0.234134 0.000000
0.236728 0.233585 0.000000
0.245090 0.223545 0.000000
0.249485 0.205386 0.000000
0.312505 0.213840 0.000000
0.384131 0.215702 0.000000
0.444831 0.226017 0.000000
0.502220 0.241184 0.000000
0.559472 0.258274 0.000000
0.616175 0.276432 0.000000
0.668116 0.294591 0.000000
0.714717 0.312230 0.000000
0.756344 0.329259 0.012451
0.793271 0.345556 0.071229
0.826078 0.361181 0.098909
0.855222 0.376165 0.123262
0.881102 0.390387 0.144503
0.904265 0.403906 0.164675
0.926818 0.417975 0.184115
0.951446 0.434821 0.206546
0.972747 0.450263 0.227085
0.991272 0.464454 0.245945
1.000000 0.477699 0.263493
1.000000 0.490120 0.279698
1.000000 0.501915 0.295201
1.000000 0.513420 0.310216
1.000000 0.524681 0.325200
1.000000 0.535973 0.340368
1.000000 0.547387 0.356146
1.000000 0.559075 0.372778
1.000000 0.571466 0.391119
0.243656 0.300603 0.000000
0.262455 0.301396 0.000000
0.285863 0.301732 0.000000
0.306065 0.295079 0.000000
0.310735 0.278599 0.000000
0.308080 0.254276 0.000000
0.364172 0.260533 0.000000
0.433600 0.264714 0.000000
0.501305 0.267918 0.000000
0.557122 0.282872 0.000000
0.612696 0.299413 0.000000
0.664118 0.315648 0.000000
0.710414 0.331304 0.000000
0.752193 0.346502 0.025483
0.789517 0.361151 0.074403
0.822721 0.375372 0.101991
0.852323 0.389014 0.125612
0.878630 0.401984 0.146242
0.902220 0.414557 0.165835
0.927367 0.429358 0.187198
0.951385 0.444770 0.208927
0.972503 0.459144 0.229068
1.000000 0.491646 0.274052
1.000000 0.504387 0.292332
1.000000 0.515831 0.308537
1.000000 0.526390 0.323461
1.000000 0.536461 0.337621
1.000000 0.546441 0.351873
1.000000 0.556420 0.366064
1.000000 0.566766 0.381140
1.000000 0.577417 0.397131
1.000000 0.588647 0.414405
0.302464 0.373419 0.000000
0.317998 0.373816 0.000000
0.337896 0.374426 0.000000
0.375708 0.374609 0.000000
0.378332 0.357641 0.000000
0.378302 0.335729 0.000000
0.368902 0.305272 0.000000
0.419593 0.310033 0.000000
0.490486 0.317357 0.000000
0.563195 0.322210 0.000000
0.624292 0.332708 0.000000
0.674464 0.346990 0.000000
0.719356 0.360388 0.000000
0.759731 0.373175 0.052155
0.795438 0.385229 0.085603
0.827115 0.396918 0.110048
0.855680 0.408392 0.131746
0.881407 0.419593 0.151797
0.906218 0.431739 0.172366
0.933776 0.447425 0.196139
0.958465 0.462745 0.219028
0.980804 0.477668 0.241337
1.000000 0.492195 0.262791
1.000000 0.505821 0.283024
1.000000 0.518334 0.301518
1.000000 0.529351 0.317906
1.000000 0.539544 0.332921
1.000000 0.549126 0.347143
1.000000 0.558709 0.361303
1.000000 0.568444 0.376013
1.000000 0.578424 0.391302
1.000000 0.589075 0.408148
0.348852 0.431067 0.000000
0.361456 0.431525 0.000000
0.378088 0.432013 0.000000
0.412573 0.433082 0.000000
0.433234 0.423926 0.000000
0.432471 0.402899 0.000000
0.428840 0.377996 0.000000
0.415473 0.344945 0.000000
0.460121 0.348119 0.000000
0.531182 0.358892 0.000000
0.603479 0.367224 0.000000
0.669337 0.371099 0.000000
0.714046 0.382849 0.000000
0.754269 0.394018 0.059297
0.790127 0.404608 0.088472
0.822141 0.414649 0.111696
0.851072 0.424659 0.132662
0.877195 0.434455 0.152346
0.906004 0.447944 0.175143
0.931945 0.461189 0.197604
0.955749 0.474464 0.219150
0.977569 0.487648 0.240177
0.997284 0.500572 0.260533
1.000000 0.512932 0.279942
1.000000 0.524285 0.297673
1.000000 0.534569 0.313817
1.000000 0.543969 0.328374
1.000000 0.552972 0.342290
1.000000 0.562036 0.356390
1.000000 0.571130 0.370672
1.000000 0.580713 0.385992
1.000000 0.590753 0.402472
0.394537 0.487678 0.000000
0.405158 0.488106 0.000000
0.419257 0.488685 0.000000
0.448646 0.489754 0.000000
0.488991 0.490364 0.000000
0.487587 0.470375 0.000000
0.484138 0.446540 0.000000
0.477882 0.419684 0.000000
0.460975 0.383917 0.000000
0.499916 0.385657 0.000000
0.571435 0.399725 0.000000
0.640986 0.409125 0.000000
0.703120 0.412512 0.000000
0.750851 0.417182 0.064240
0.786465 0.426184 0.091676
0.818570 0.434730 0.113924
0.847654 0.443214 0.134279
0.878691 0.454994 0.157015
0.905760 0.465888 0.178714
0.930694 0.476936 0.199435
0.953826 0.488350 0.219760
0.975280 0.499855 0.239841
0.994751 0.511315 0.259434
1.000000 0.522362 0.277928
1.000000 0.532677 0.295323
1.000000 0.541955 0.310918
1.000000 0.550530 0.325200
1.000000 0.558770 0.338781
1.000000 0.567041 0.352361
1.000000 0.575494 0.366369
1.000000 0.584283 0.381140
1.000000 0.593530 0.397009
0.439368 0.542840 0.000000
0.448035 0.543053 0.000000
0.460060 0.543450 0.000000
0.485512 0.544457 0.000000
0.523003 0.545830 0.000000
0.541375 0.535821 0.000000
0.538628 0.513970 0.000000
0.533104 0.488228 0.000000
0.524498 0.459632 0.000000
0.504753 0.421973 0.000000
0.537560 0.421027 0.000000
0.608087 0.436896 0.000000
0.673091 0.446204 0.000000
0.731258 0.449714 0.042756
0.782650 0.449073 0.092409
0.817533 0.457252 0.116793
0.851347 0.467628 0.139681
0.880735 0.476967 0.161654
0.906676 0.485969 0.182620
0.930571 0.495033 0.202365
0.952758 0.504234 0.221378
0.973205 0.513725 0.239963
0.991882 0.523033 0.257694
1.000000 0.532219 0.274876
1.000000 0.540978 0.290929
1.000000 0.549218 0.306065
1.000000 0.557031 0.319982
1.000000 0.564813 0.333776
1.000000 0.572778 0.347906
1.000000 0.580865 0.362127
1.000000 0.589319 0.377234
1.000000 0.598260 0.393439
0.477760 0.590936 0.000000
0.485451 0.591302 0.000000
0.496071 0.591760 0.000000
0.517967 0.592706 0.000000
0.550805 0.594079 0.000000
0.588922 0.594415 0.000000
0.588312 0.576196 0.000000
0.585748 0.554528 0.000000
0.580133 0.528862 0.000000
0.570672 0.499825 0.000000
0.548272 0.459998 0.000000
0.574609 0.456001 0.000000
0.641871 0.471626 0.000000
0.703334 0.480781 0.000000
0.761685 0.487221 0.073732
0.812528 0.488838 0.114382
0.852079 0.490883 0.143008
0.879973 0.498054 0.164065
0.905058 0.504967 0.183810
0.928435 0.512230 0.202579
0.950286 0.520012 0.221134
0.970642 0.528008 0.238987
0.989349 0.536187 0.256565
1.000000 0.544244 0.273259
1.000000 0.551934 0.289006
1.000000 0.559075 0.303380
1.000000 0.565911 0.316960
1.000000 0.572747 0.330205
1.000000 0.579736 0.343572
1.000000 0.586938 0.357397
1.000000 0.594598 0.372015
1.000000 0.602777 0.387854
0.514427 0.636561 0.000000
0.520989 0.636866 0.000000
0.530114 0.637140 0.000000
0.549035 0.637964 0.000000
0.577996 0.639338 0.000000
0.614984 0.641016 0.000000
0.632563 0.632471 0.000000
0.632013 0.614008 0.000000
0.629358 0.592248 0.000000
0.623987 0.567193 0.000000
0.614649 0.538537 0.000000
0.592798 0.499336 0.000000
0.637232 0.512596 0.000000
0.705348 0.530114 0.000000
0.765164 0.539666 0.070253
0.816892 0.543023 0.115175
0.861051 0.541924 0.150729
0.898466 0.537896 0.182589
0.922942 0.540581 0.203586
0.944091 0.545495 0.221988
0.963745 0.550805 0.239475
0.981872 0.556481 0.256504
0.998535 0.562097 0.272343
1.000000 0.567895 0.287602
1.000000 0.573510 0.301884
1.000000 0.579004 0.315404
1.000000 0.584253 0.327947
1.000000 0.589532 0.340063
1.000000 0.595026 0.352300
1.000000 0.600855 0.364965
1.000000 0.607233 0.378607
1.000000 0.614191 0.393469
0.555657 0.688228 0.000000
0.561303 0.688350 0.000000
0.568902 0.688167 0.000000
0.585077 0.688075 0.000000
0.609827 0.688167 0.000000
0.641718 0.688472 0.000000
0.676417 0.687800 0.000000
0.676753 0.671656 0.000000
0.676295 0.653132 0.000000
0.675898 0.633661 0.000000
0.676356 0.614466 0.000000
0.673243 0.591577 0.000000
0.655787 0.555779 0.000000
0.672328 0.546441 0.000000
0.736080 0.562432 0.000000
0.790982 0.570397 0.089052
0.837919 0.572259 0.129915
0.877745 0.570001 0.163363
0.912108 0.565515 0.194125
0.940124 0.562524 0.219516
0.959625 0.566461 0.236576
0.977813 0.570764 0.252750
0.994476 0.575250 0.268315
1.000000 0.579828 0.283055
1.000000 0.584375 0.296635
1.000000 0.588769 0.309575
1.000000 0.593164 0.321813
1.000000 0.597681 0.333745
1.000000 0.602380 0.345617
1.000000 0.607568 0.358190
1.000000 0.613153 0.371405
1.000000 0.619471 0.386145
0.583429 0.723354 0.000000
0.588708 0.723476 0.000000
0.595209 0.723354 0.000000
0.609308 0.723262 0.000000
0.630915 0.723201 0.000000
0.659236 0.723323 0.000000
0.695674 0.726162 0.000000
0.713649 0.720363 0.000000
0.716823 0.707057 0.000000
0.719448 0.691859 0.000000
0.720821 0.674342 0.000000
0.720058 0.654108 0.000000
0.715633 0.630274 0.000000
0.696101 0.592554 0.000000
0.703487 0.577050 0.000000
0.761715 0.590326 0.034089
0.811521 0.596094 0.101808
0.854185 0.596826 0.140566
0.891386 0.594263 0.173465
0.924163 0.590143 0.202762
0.953277 0.585168 0.230503
0.974029 0.585962 0.249393
0.990906 0.589410 0.264683
1.000000 0.593042 0.278996
1.000000 0.596704 0.292515
1.000000 0.600275 0.305272
1.000000 0.603784 0.317082
1.000000 0.607446 0.328679
1.000000 0.611475 0.340429
1.000000 0.615869 0.352667
1.000000 0.620844 0.365911
1.000000 0.626398 0.380316
0.614618 0.762295 0.000000
0.619196 0.762661 0.000000
0.625055 0.762661 0.000000
0.637964 0.762905 0.000000
0.657557 0.763210 0.000000
0.683345 0.763851 0.000000
0.714839 0.765042 0.000000
0.747494 0.765286 0.000000
0.750607 0.753384 0.000000
0.753689 0.739895 0.000000
0.756161 0.724666 0.000000
0.757259 0.707210 0.000000
0.755856 0.686793 0.000000
0.750637 0.662501 0.000000
0.729854 0.623743 0.000000
0.729732 0.603265 0.000000
0.783413 0.614496 0.062379
0.829191 0.618891 0.112276
0.869230 0.619226 0.149264
0.904692 0.616999 0.181277
0.936095 0.613153 0.210208
0.963897 0.608270 0.236790
0.987396 0.603906 0.260136
1.000000 0.606683 0.274510
1.000000 0.609552 0.288060
1.000000 0.612451 0.300694
1.000000 0.615625 0.313024
1.000000 0.619013 0.325414
1.000000 0.622766 0.337835
1.000000 0.626917 0.350835
1.000000 0.631617 0.364813
1.000000 0.636896 0.380224
0.642573 0.797482 0.000000
0.646784 0.797879 0.000000
0.651972 0.797971 0.000000
0.663416 0.798154 0.000000
0.680873 0.798367 0.000000
0.704036 0.798886 0.000000
0.732265 0.799863 0.000000
0.765347 0.801266 0.032929
0.781094 0.795346 0.063844
0.784482 0.783536 0.064240
0.787228 0.769802 0.063600
0.788876 0.754025 0.060761
0.788571 0.735500 0.050874
0.785519 0.713802 0.027680
0.778805 0.688533 0.000000
0.756924 0.649012 0.012543
0.752102 0.625727 0.000000
0.801633 0.635431 0.072267
0.845457 0.639887 0.120516
0.884367 0.640894 0.157137
0.918822 0.639338 0.188449
0.949279 0.636011 0.217533
0.975921 0.631373 0.243931
0.999268 0.625940 0.268528
1.000000 0.624781 0.286168
1.000000 0.627161 0.299229
1.000000 0.629511 0.311437
1.000000 0.632227 0.323705
1.000000 0.635187 0.336217
1.000000 0.638361 0.348486
1.000000 0.641993 0.361852
1.000000 0.646082 0.376074
0.664637 0.825010 0.000000
0.668055 0.825132 0.000000
0.672572 0.825010 0.000000
0.682612 0.825010 0.000000
0.698054 0.825040 0.000000
0.718441 0.825254 0.005158
0.743557 0.825772 0.063600
0.773159 0.826596 0.090608
0.802396 0.826352 0.112490
0.805966 0.816159 0.110597
0.809354 0.804501 0.108553
0.812100 0.791135 0.104402
0.813626 0.775601 0.098573
0.813107 0.757412 0.089967
0.809842 0.735988 0.076814
0.803067 0.711177 0.056489
0.781338 0.672175 0.056672
0.775967 0.648737 0.000000
0.819425 0.655634 0.080385
0.861387 0.660090 0.126284
0.898680 0.661128 0.161929
0.931670 0.659663 0.192996
0.960754 0.656275 0.221286
0.986328 0.651728 0.247440
1.000000 0.646235 0.271550
1.000000 0.640467 0.294438
1.000000 0.642329 0.306889
1.000000 0.644495 0.319249
1.000000 0.646815 0.331670
1.000000 0.649470 0.344366
1.000000 0.652399 0.357427
1.000000 0.655848 0.371771
0.684260 0.849546 0.019776
0.687739 0.850004 0.030823
0.704494 0.865202 0.097017
0.713436 0.864988 0.102571
0.727108 0.864683 0.111666
0.744991 0.864256 0.122133
0.767086 0.863859 0.135225
0.793118 0.863676 0.148959
0.822873 0.863767 0.166201
0.836576 0.857969 0.170291
0.840085 0.847745 0.165438
0.843168 0.835904 0.159731
0.845304 0.822110 0.151980
0.846220 0.806119 0.142031
0.845243 0.787686 0.129366
0.841825 0.766506 0.112978
0.835447 0.742245 0.093446
0.814328 0.703792 0.085145
0.808286 0.679805 0.036957
0.845457 0.683223 0.095338
0.884489 0.686427 0.138033
0.919280 0.686610 0.172854
0.949981 0.684352 0.203128
0.976837 0.680201 0.230716
1.000000 0.674556 0.255528
1.000000 0.668086 0.278325
1.000000 0.661128 0.299535
1.000000 0.657740 0.315648
1.000000 0.658991 0.327031
1.000000 0.660822 0.339239
1.000000 0.662989 0.352026
1.000000 0.665461 0.365667
0.704707 0.874815 0.100587
0.708949 0.876707 0.106996
0.714412 0.878569 0.113588
0.723720 0.880125 0.122805
0.736995 0.881132 0.132387
0.753658 0.881376 0.143160
0.773831 0.881254 0.153414
0.797330 0.880980 0.166232
0.824277 0.880949 0.181094
0.849943 0.879850 0.194217
0.853635 0.871092 0.189120
0.857237 0.861082 0.183352
0.860166 0.849363 0.176303
0.862181 0.835813 0.166323
0.862913 0.820218 0.154604
0.861936 0.802274 0.140017
0.858824 0.781918 0.122713
0.853330 0.759091 0.101167
0.833463 0.722225 0.091554
0.828244 0.699428 0.052064
0.861021 0.700984 0.095705
0.899046 0.704585 0.139162
0.932677 0.704921 0.173861
0.962188 0.702693 0.204440
0.987823 0.698360 0.231601
1.000000 0.692714 0.256107
1.000000 0.686152 0.278721
1.000000 0.679316 0.300359
1.000000 0.672480 0.321172
1.000000 0.672694 0.334112
1.000000 0.674067 0.346410
1.000000 0.675776 0.359716
0.718532 0.892393 0.123079
0.722377 0.893980 0.129030
0.727138 0.895567 0.134463
0.735439 0.896880 0.141421
0.747433 0.897734 0.149783
0.762478 0.897887 0.158602
0.780667 0.897673 0.168734
0.801999 0.897368 0.179751
0.826444 0.897246 0.192782
0.853635 0.897154 0.207492
0.866056 0.892241 0.210239
0.869932 0.883787 0.204593
0.873442 0.873838 0.197330
0.876402 0.862455 0.188693
0.878416 0.849271 0.177798
0.879210 0.834195 0.164370
0.878599 0.817136 0.148165
0.876188 0.798001 0.129824
0.871885 0.776761 0.107454
0.853635 0.741726 0.096223
0.849241 0.720119 0.060426
0.878019 0.720058 0.095003
0.914672 0.723507 0.139528
0.946838 0.723568 0.174685
0.974823 0.720882 0.204837
0.999268 0.716274 0.231327
1.000000 0.710323 0.255558
1.000000 0.703670 0.278355
1.000000 0.696712 0.300237
1.000000 0.689601 0.321416
1.000000 0.685115 0.339208
1.000000 0.685908 0.351751
0.731258 0.908843 0.139590
0.734676 0.910246 0.144289
0.739010 0.911650 0.149081
0.746578 0.912749 0.155642
0.757382 0.913420 0.163241
0.770993 0.913481 0.171237
0.787442 0.913207 0.179995
0.806760 0.912810 0.189975
0.829038 0.912413 0.202029
0.853788 0.912139 0.215640
0.876890 0.910857 0.226993
0.880888 0.903624 0.221775
0.884794 0.895232 0.214664
0.888365 0.885649 0.206699
0.891478 0.874723 0.197208
0.893950 0.862425 0.185519
0.895689 0.848753 0.172427
0.896483 0.833646 0.157198
0.896208 0.817044 0.139254
0.894224 0.798550 0.118624
0.878935 0.766629 0.107057
0.876555 0.747127 0.075196
0.901915 0.745541 0.102724
0.936919 0.748531 0.147921
0.967346 0.748043 0.183627
0.993591 0.744839 0.214145
1.000000 0.739712 0.241245
1.000000 0.733425 0.266209
1.000000 0.726345 0.289616
1.000000 0.718868 0.311955
1.000000 0.711177 0.333989
1.000000 0.703517 0.355413
0.747738 0.929564 0.164462
0.750240 0.930114 0.166873
0.753353 0.930541 0.169497
0.759579 0.930785 0.173495
0.768917 0.930755 0.179110
0.781064 0.930449 0.186007
0.796017 0.930053 0.193881
0.813748 0.929656 0.203464
0.834226 0.929351 0.214572
0.857237 0.929137 0.227634
0.882231 0.928923 0.242557
0.893736 0.924773 0.244175
0.898039 0.917876 0.237980
0.902159 0.909941 0.230411
0.906004 0.900847 0.221256
0.909453 0.890593 0.210605
0.912444 0.879149 0.198306
0.914824 0.866484 0.183963
0.916381 0.852567 0.167910
0.916991 0.837186 0.148867
0.915435 0.819455 0.127169
0.901579 0.789029 0.112581
0.899290 0.769833 0.078767
0.920043 0.765560 0.100435
0.952819 0.767300 0.146120
0.981415 0.765957 0.181430
1.000000 0.762295 0.211917
1.000000 0.756924 0.239292
1.000000 0.750271 0.264469
1.000000 0.742763 0.288060
1.000000 0.734646 0.310735
1.000000 0.726192 0.332555
0.758175 0.943572 0.171298
0.760464 0.944091 0.173922
0.763363 0.944549 0.176547
0.769100 0.944701 0.180575
0.777554 0.944640 0.185824
0.788602 0.944274 0.191623
0.802182 0.943725 0.198947
0.818265 0.943145 0.207309
0.837064 0.942596 0.218051
0.858122 0.942138 0.230259
0.881224 0.941711 0.244053
0.902129 0.940307 0.255406
0.906554 0.934569 0.249699
0.911070 0.927977 0.242954
0.915496 0.920470 0.234867
0.919768 0.912078 0.225162
0.923796 0.902739 0.214359
0.927550 0.892424 0.201999
0.930816 0.881102 0.188144
0.933532 0.868711 0.171908
0.935454 0.855100 0.153079
0.934997 0.838804 0.131350
0.923430 0.810849 0.115877
0.922362 0.793027 0.081361
0.935668 0.782925 0.088075
0.966827 0.783993 0.137301
0.994232 0.782254 0.174350
1.000000 0.778225 0.205234
1.000000 0.772488 0.232670
1.000000 0.765408 0.258213
1.000000 0.757351 0.282078
1.000000 0.748592 0.305028
0.770962 0.960296 0.185245
0.773129 0.960815 0.188083
0.775723 0.961028 0.190280
0.780697 0.960967 0.193393
0.788205 0.960601 0.197269
0.798093 0.959960 0.202213
0.810330 0.959136 0.208377
0.824887 0.958160 0.215549
0.841825 0.957122 0.224338
0.860868 0.956115 0.234867
0.881804 0.955077 0.246677
0.904417 0.954040 0.259892
0.914733 0.950134 0.259953
0.919158 0.944335 0.252811
0.923491 0.937682 0.244236
0.927794 0.930175 0.234440
0.932006 0.921904 0.223484
0.936187 0.912963 0.211643
0.940368 0.903441 0.198642
0.944457 0.893339 0.184360
0.948211 0.882353 0.168399
0.951232 0.870329 0.148806
0.951385 0.854917 0.126101
0.941009 0.828336 0.107637
0.940002 0.810849 0.065431
0.954009 0.803006 0.075441
0.983337 0.803006 0.130129
1.000000 0.800229 0.167666
1.000000 0.795346 0.198703
1.000000 0.788785 0.226444
1.000000 0.780911 0.251987
1.000000 0.772030 0.276432
0.778470 0.971557 0.180758
0.780392 0.971984 0.183536
0.782834 0.972229 0.185824
0.787381 0.972107 0.188907
0.794339 0.971740 0.192721
0.803464 0.971130 0.197757
0.814878 0.970367 0.204074
0.828397 0.969482 0.211490
0.844205 0.968597 0.220462
0.862028 0.967651 0.231327
0.881590 0.966674 0.243137
0.902922 0.965667 0.256474
0.921813 0.963958 0.266972
0.926543 0.959319 0.260838
0.931365 0.954009 0.253666
0.936217 0.947997 0.245090
0.941131 0.941344 0.235569
0.946136 0.934142 0.224979
0.951232 0.926482 0.213535
0.956390 0.918273 0.200992
0.961395 0.909422 0.186801
0.966033 0.899748 0.170047
0.970062 0.888975 0.148867
0.970916 0.874571 0.124331
0.962371 0.849943 0.102998
0.962219 0.833463 0.050690
0.973846 0.824582 0.058503
1.000000 0.823575 0.122438
1.000000 0.819944 0.162600
1.000000 0.814145 0.195071
1.000000 0.806607 0.223911
1.000000 0.797665 0.250431
0.785977 0.983154 0.174350
0.787716 0.983398 0.176638
0.789731 0.983429 0.178408
0.793851 0.983154 0.181033
0.800076 0.982635 0.184329
0.808438 0.981903 0.188785
0.818875 0.981048 0.194430
0.831449 0.980102 0.201724
0.846128 0.979095 0.210697
0.862669 0.978149 0.221103
0.881071 0.977111 0.233097
0.900999 0.976074 0.246616
0.922271 0.974914 0.260929
0.932189 0.971801 0.261723
0.937194 0.967468 0.255283
0.942351 0.962554 0.247654
0.947631 0.957122 0.238865
0.953094 0.951171 0.229313
0.958740 0.944884 0.218784
0.964569 0.938231 0.207462
0.970428 0.931090 0.194644
0.976196 0.923308 0.179904
0.981598 0.914763 0.161746
0.986572 0.905241 0.138735
0.988098 0.891814 0.111055
0.981201 0.868986 0.084535
0.982025 0.853727 0.000000
0.991821 0.844205 0.000000
1.000000 0.841825 0.102724
1.000000 0.837217 0.147799
1.000000 0.830442 0.182681
1.000000 0.821714 0.212192
0.791409 0.992950 0.154055
0.792844 0.993072 0.156130
0.794766 0.993042 0.157931
0.798581 0.992828 0.160464
0.804562 0.992462 0.164828
0.812619 0.992004 0.171084
0.822812 0.991577 0.179232
0.835050 0.991119 0.189487
0.849363 0.990661 0.201724
0.865415 0.990173 0.215213
0.883085 0.989563 0.230076
0.902159 0.988830 0.245609
0.922423 0.987854 0.261814
0.940093 0.986297 0.274022
0.945617 0.983185 0.269932
0.951202 0.979553 0.263645
0.957000 0.975463 0.256443
0.963043 0.971008 0.248020
0.969360 0.966247 0.239414
0.975921 0.961181 0.229252
0.982635 0.955779 0.218357
0.989471 0.949920 0.205509
0.996185 0.943450 0.189914
1.000000 0.936400 0.170809
1.000000 0.928588 0.147158
1.000000 0.916594 0.119234
1.000000 0.896208 0.091371
1.000000 0.882261 0.000000
1.000000 0.872496 0.000000
1.000000 0.867308 0.107118
1.000000 0.860380 0.153567
1.000000 0.851011 0.187625
0.799191 1.000000 0.140932
0.800473 1.000000 0.142580
0.802121 1.000000 0.144717
0.805570 1.000000 0.146761
0.811032 1.000000 0.150637
0.818357 1.000000 0.156558
0.827634 1.000000 0.163821
0.838773 1.000000 0.172793
0.851743 1.000000 0.183597
0.866484 1.000000 0.196475
0.882719 0.999237 0.209812
0.900359 0.998016 0.224338
0.919219 0.996612 0.239506
0.939025 0.994995 0.255467
0.948577 0.992584 0.256443
0.954284 0.989654 0.251530
