其他预设/【231】淡彩糖果色预设10款/1.LUT预设（视频调色-PR-AE-PS-FCPX-达芬奇用）/淡彩糖果色__-6.cube
# Created by Adobe Lightroom plugin Export LUT (1.17.0)
# www.johnrellis.com/lightroom/exportlut.htm
# Preset: 淡彩糖果色[素锦印象]-6
# Color profile: /Library/Application Support/Adobe/Color/Profiles/Recommended/AdobeRGB1998.icc
LUT_3D_SIZE 32
0.088136 0.088136 0.088136
0.117678 0.087709 0.090059
0.144808 0.087129 0.092531
0.202090 0.084871 0.098360
0.272557 0.076143 0.104799
0.340612 0.057954 0.110079
0.407446 0.000000 0.114290
0.473243 0.000000 0.118441
0.538872 0.000000 0.122469
0.603021 0.000000 0.127260
0.662043 0.000000 0.133364
0.715114 0.000000 0.140963
0.762264 0.000000 0.150210
0.803799 0.000000 0.160586
0.840238 0.000000 0.172152
0.872618 0.000000 0.184512
0.902922 0.000000 0.198306
0.944945 0.000000 0.221714
0.977081 0.094545 0.244175
1.000000 0.137545 0.267185
1.000000 0.173434 0.290959
1.000000 0.205570 0.315190
1.000000 0.235630 0.339300
1.000000 0.264744 0.363561
1.000000 0.293126 0.388281
1.000000 0.323339 0.414466
1.000000 0.357122 0.443671
1.000000 0.385504 0.464607
1.000000 0.455665 0.480751
1.000000 0.510277 0.495552
1.000000 0.518059 0.497810
1.000000 0.527367 0.500511
0.089631 0.103395 0.090089
0.115694 0.105776 0.086793
0.138216 0.108278 0.094148
0.195254 0.111391 0.100099
0.265568 0.108858 0.105806
0.333104 0.100313 0.110445
0.399603 0.085512 0.114382
0.464637 0.065461 0.118105
0.529778 0.000000 0.122255
0.594141 0.000000 0.126833
0.653254 0.000000 0.132570
0.706661 0.000000 0.140078
0.754055 0.000000 0.148867
0.795987 0.000000 0.159060
0.832883 0.000000 0.170260
0.865660 0.000000 0.182223
0.897246 0.000000 0.196231
0.937591 0.059754 0.218021
0.969085 0.106050 0.238956
0.996307 0.140993 0.260807
1.000000 0.172213 0.283574
1.000000 0.201572 0.307073
1.000000 0.229374 0.330480
1.000000 0.256809 0.354223
1.000000 0.284459 0.378607
1.000000 0.313725 0.404578
1.000000 0.346624 0.433661
1.000000 0.382422 0.463966
1.000000 0.431464 0.474830
1.000000 0.509087 0.495216
1.000000 0.516625 0.497353
1.000000 0.525658 0.500023
0.091524 0.120150 0.092653
0.111574 0.119142 0.092164
0.142641 0.124544 0.084932
0.187045 0.133852 0.102296
0.256931 0.136477 0.106966
0.324529 0.132601 0.111055
0.390417 0.124239 0.114656
0.455421 0.112825 0.118166
0.520623 0.097902 0.122164
0.585107 0.077302 0.126467
0.645167 0.040375 0.132113
0.699275 0.000000 0.139498
0.747463 0.000000 0.148104
0.790036 0.000000 0.158145
0.827420 0.000000 0.169192
0.860777 0.015656 0.181155
0.893889 0.065278 0.195407
0.932921 0.097383 0.216190
0.964080 0.126192 0.236484
0.991363 0.153414 0.257694
1.000000 0.180087 0.280125
1.000000 0.206149 0.303227
1.000000 0.232059 0.326452
1.000000 0.257389 0.349950
1.000000 0.283635 0.374090
1.000000 0.311528 0.399786
1.000000 0.343786 0.428748
1.000000 0.380957 0.461646
1.000000 0.419501 0.471992
1.000000 0.507134 0.494636
1.000000 0.516777 0.497414
1.000000 0.525536 0.500008
0.097169 0.153262 0.099611
0.119387 0.146029 0.107607
0.138918 0.152224 0.096376
0.198062 0.165042 0.079530
0.242771 0.173678 0.110780
0.311070 0.176150 0.113436
0.377722 0.173526 0.116121
0.443183 0.168460 0.119142
0.508507 0.161013 0.122591
0.573632 0.151797 0.126741
0.634455 0.142275 0.132052
0.689387 0.133425 0.139040
0.738155 0.127779 0.147433
0.781491 0.125185 0.157443
0.819821 0.123415 0.168399
0.853758 0.126284 0.180270
0.889586 0.133150 0.195377
0.926757 0.146792 0.214664
0.956817 0.161990 0.233585
0.983520 0.179080 0.253544
1.000000 0.197757 0.274601
1.000000 0.218204 0.296941
1.000000 0.240116 0.319982
1.000000 0.263798 0.344244
1.000000 0.289158 0.369787
1.000000 0.317388 0.397253
1.000000 0.349584 0.427649
1.000000 0.386786 0.461585
1.000000 0.421271 0.472419
1.000000 0.509667 0.495338
1.000000 0.519402 0.498207
1.000000 0.527428 0.500542
0.103151 0.192386 0.106630
0.125826 0.186038 0.113313
0.144839 0.177462 0.121889
0.188052 0.196994 0.084627
0.257389 0.210147 0.067384
0.288975 0.213993 0.117800
0.356176 0.217777 0.119081
0.422187 0.217929 0.121157
0.488136 0.215549 0.123903
0.553338 0.212772 0.127352
0.616297 0.207492 0.132143
0.672969 0.202701 0.138552
0.723659 0.197848 0.146761
0.768826 0.193698 0.156680
0.809018 0.190616 0.167666
0.844938 0.188968 0.179660
0.884977 0.192081 0.196262
0.921477 0.198550 0.214939
0.951629 0.206516 0.233524
0.978271 0.216739 0.252903
1.000000 0.229160 0.273289
1.000000 0.243717 0.295018
1.000000 0.260868 0.317723
1.000000 0.280461 0.341741
1.000000 0.302586 0.367285
1.000000 0.328191 0.394995
1.000000 0.358068 0.425360
1.000000 0.392676 0.459113
1.000000 0.415839 0.471168
1.000000 0.510826 0.495705
1.000000 0.523217 0.499306
1.000000 0.530602 0.501518
0.110994 0.233433 0.113130
0.132876 0.228183 0.118990
0.153628 0.220768 0.126619
0.181430 0.218692 0.125002
0.250462 0.246006 0.037385
0.317144 0.256229 0.032593
0.339696 0.255894 0.120821
0.402167 0.261601 0.125673
0.468971 0.264256 0.127199
0.535485 0.265141 0.129793
0.600000 0.264469 0.133822
0.658625 0.261692 0.139803
0.710994 0.257725 0.147768
0.757992 0.253178 0.157351
0.799710 0.248631 0.168338
0.837156 0.245335 0.180484
0.881163 0.247318 0.198611
0.917021 0.249729 0.216922
0.947417 0.253422 0.235447
0.974640 0.259220 0.254917
0.999420 0.267582 0.275731
1.000000 0.278447 0.297856
1.000000 0.350622 0.378454
1.000000 0.371160 0.405219
1.000000 0.393530 0.432410
1.000000 0.418433 0.460883
1.000000 0.437385 0.476234
1.000000 0.484230 0.488258
1.000000 0.532311 0.502037
1.000000 0.536889 0.503410
1.000000 0.542565 0.505150
1.000000 0.549462 0.507286
0.123690 0.287053 0.121675
0.145571 0.281895 0.127413
0.167636 0.275242 0.135225
0.199252 0.261112 0.150973
0.242954 0.281071 0.109926
0.328435 0.306798 0.000000
0.394141 0.316411 0.000000
0.416022 0.312291 0.112367
0.466804 0.317479 0.135103
0.537102 0.322942 0.136477
0.604456 0.325505 0.139956
0.664851 0.323949 0.146242
0.717708 0.320287 0.154482
0.764340 0.314672 0.164218
0.805081 0.308690 0.175448
0.848814 0.306340 0.190860
0.891203 0.306523 0.209751
0.925933 0.306828 0.228794
0.956237 0.308690 0.248478
0.984558 0.313237 0.270390
1.000000 0.322148 0.295232
1.000000 0.335271 0.323339
1.000000 0.353155 0.354009
1.000000 0.374731 0.386358
1.000000 0.399237 0.419287
1.000000 0.424781 0.451423
1.000000 0.449866 0.479316
1.000000 0.471443 0.484840
1.000000 0.537560 0.503624
1.000000 0.543145 0.505333
1.000000 0.547784 0.506767
1.000000 0.553735 0.508659
0.141482 0.329412 0.130251
0.159915 0.325017 0.135409
0.179904 0.319188 0.142458
0.211673 0.306645 0.156832
0.243839 0.305211 0.152132
0.306218 0.334081 0.074098
0.392432 0.353399 0.000000
0.453620 0.363409 0.000000
0.475319 0.357916 0.096284
0.511162 0.360967 0.143404
0.580896 0.368383 0.145266
0.644007 0.370275 0.149874
0.699428 0.368353 0.157107
0.748165 0.363836 0.166506
0.793057 0.358953 0.177890
0.841855 0.357885 0.194888
0.881956 0.355291 0.212314
0.915923 0.352667 0.229984
0.946197 0.351446 0.248814
0.974792 0.352911 0.269871
1.000000 0.357977 0.293828
1.000000 0.366888 0.320928
1.000000 0.380072 0.350622
1.000000 0.396918 0.382055
1.000000 0.416632 0.414069
1.000000 0.438361 0.445747
1.000000 0.462501 0.477852
1.000000 0.476997 0.486305
1.000000 0.536797 0.503410
1.000000 0.551232 0.507866
1.000000 0.554955 0.509026
1.000000 0.559899 0.510613
0.164401 0.373693 0.140810
0.179782 0.369909 0.145724
0.197757 0.364843 0.151919
0.227573 0.353948 0.165194
0.259129 0.337621 0.184543
0.300908 0.361944 0.131289
0.375891 0.389776 0.000000
0.461189 0.405310 0.000000
0.515862 0.412665 0.000000
0.538048 0.406500 0.069947
0.558404 0.406165 0.153109
0.624414 0.412421 0.156252
0.682399 0.413275 0.162264
0.733425 0.410071 0.170779
0.788968 0.410773 0.185214
0.834836 0.407843 0.200778
0.873716 0.403296 0.216892
0.907439 0.398688 0.233829
0.937896 0.395392 0.251926
0.966857 0.394507 0.272374
0.994598 0.396704 0.295872
1.000000 0.402258 0.322332
1.000000 0.411841 0.351293
1.000000 0.424750 0.381903
1.000000 0.440711 0.413367
1.000000 0.458595 0.444495
1.000000 0.479377 0.476295
1.000000 0.495613 0.491402
1.000000 0.534844 0.502800
1.000000 0.561456 0.511101
1.000000 0.563958 0.511894
1.000000 0.567742 0.513115
0.188724 0.419226 0.152499
0.201755 0.415808 0.156741
0.217075 0.411200 0.162478
0.245060 0.401434 0.174746
0.276555 0.386938 0.192538
0.308141 0.391302 0.176699
0.364721 0.418555 0.095705
0.446998 0.445167 0.000000
0.528618 0.456947 0.000000
0.576593 0.460822 0.000000
0.596796 0.452430 0.000000
0.610224 0.448402 0.151888
0.662562 0.452186 0.168795
0.726741 0.458412 0.179873
0.781125 0.458778 0.193271
0.827207 0.455512 0.208072
0.867002 0.450538 0.224247
0.901762 0.445136 0.241123
0.932738 0.440803 0.259190
0.961669 0.437873 0.279149
0.988800 0.437263 0.301396
1.000000 0.439399 0.325841
1.000000 0.444373 0.352361
1.000000 0.452491 0.380438
1.000000 0.463569 0.409735
1.000000 0.477699 0.440009
1.000000 0.495308 0.471717
1.000000 0.513909 0.496620
1.000000 0.532799 0.502159
1.000000 0.573175 0.514916
1.000000 0.574945 0.515496
1.000000 0.577966 0.516472
0.210910 0.462867 0.163699
0.221958 0.460060 0.167788
0.236240 0.456092 0.173068
0.262028 0.447822 0.184421
0.293309 0.435309 0.201083
0.323339 0.421637 0.217990
0.365148 0.448798 0.156344
0.432410 0.475898 0.000000
0.520195 0.501884 0.000000
0.594232 0.508537 0.000000
0.634150 0.506371 0.000000
0.655390 0.498512 0.000000
0.673976 0.497536 0.148867
0.716243 0.502007 0.190188
0.769680 0.502434 0.201968
0.815702 0.499123 0.215488
0.855955 0.493599 0.230594
0.891112 0.487617 0.246586
0.922789 0.481849 0.264042
0.952331 0.477455 0.283391
0.980102 0.475410 0.305150
1.000000 0.475624 0.329320
1.000000 0.478614 0.355627
1.000000 0.484260 0.383429
1.000000 0.492744 0.412360
1.000000 0.503563 0.441901
1.000000 0.517906 0.472847
1.000000 0.535241 0.502922
1.000000 0.548028 0.506859
1.000000 0.586145 0.519219
1.000000 0.586633 0.519341
1.000000 0.588495 0.520043
0.233341 0.510094 0.176028
0.243565 0.507591 0.179904
0.256474 0.504143 0.185000
0.280552 0.497078 0.195346
0.311315 0.486213 0.211093
0.342962 0.471778 0.231327
0.375311 0.481270 0.207126
0.428809 0.508415 0.126162
0.503655 0.534600 0.000000
0.590600 0.555688 0.000000
0.659510 0.559960 0.000000
0.701686 0.559686 0.000000
0.769100 0.586755 0.000000
0.782101 0.581415 0.172091
0.807370 0.581262 0.241764
0.851408 0.575769 0.257084
0.888792 0.567895 0.273136
0.921019 0.559289 0.289738
0.949615 0.551263 0.307134
0.976165 0.545037 0.326696
1.000000 0.540795 0.348180
1.000000 0.538933 0.371557
1.000000 0.539300 0.396155
1.000000 0.542565 0.422492
1.000000 0.548516 0.449958
1.000000 0.557336 0.478431
1.000000 0.568475 0.507195
1.000000 0.579034 0.516869
1.000000 0.596124 0.522606
1.000000 0.604974 0.525658
1.000000 0.604303 0.525475
1.000000 0.605066 0.525689
0.262608 0.576013 0.194522
0.271794 0.573907 0.197940
0.283848 0.570001 0.202609
0.307042 0.562371 0.212375
0.337163 0.550835 0.227237
0.369085 0.536004 0.246220
0.399664 0.524132 0.259556
0.439582 0.549340 0.193851
0.501244 0.574334 0.071901
0.588159 0.606043 0.000000
0.681453 0.628473 0.000000
0.750484 0.632990 0.000000
0.786435 0.626764 0.000000
0.806210 0.617151 0.000000
0.817807 0.611078 0.173709
0.831876 0.611200 0.264103
0.871550 0.604547 0.279362
0.905272 0.596002 0.294926
0.935241 0.587579 0.311498
0.962707 0.580102 0.329961
0.988159 0.574609 0.350469
1.000000 0.570977 0.372900
1.000000 0.569421 0.396612
1.000000 0.570184 0.421912
1.000000 0.573480 0.448463
1.000000 0.579431 0.476081
1.000000 0.587884 0.504295
1.000000 0.598352 0.523400
1.000000 0.609400 0.527245
1.000000 0.619135 0.530724
1.000000 0.617273 0.530022
1.000000 0.616968 0.529931
0.281865 0.616815 0.208804
0.290776 0.614923 0.212222
0.301488 0.611719 0.216342
0.323064 0.605341 0.225437
0.351812 0.595453 0.238987
0.383978 0.582574 0.256901
0.416358 0.567742 0.278721
0.452216 0.583185 0.253391
0.505119 0.612726 0.175296
0.576989 0.641077 0.000000
0.664179 0.666957 0.000000
0.747768 0.677974 0.000000
0.803006 0.673762 0.000000
0.829435 0.660731 0.000000
0.842954 0.647272 0.000000
0.849943 0.638270 0.177646
0.855680 0.636927 0.280156
0.888304 0.629999 0.300694
0.919860 0.621607 0.316564
0.948760 0.613977 0.334234
0.975555 0.607752 0.354223
1.000000 0.603265 0.376196
1.000000 0.600336 0.399542
1.000000 0.599634 0.424567
1.000000 0.601099 0.450721
1.000000 0.604974 0.477913
1.000000 0.611170 0.505730
1.000000 0.620325 0.531121
1.000000 0.631434 0.535149
1.000000 0.643214 0.539544
1.000000 0.638788 0.537896
1.000000 0.636622 0.537102
0.302403 0.657954 0.226291
0.310643 0.657282 0.229618
0.320836 0.655451 0.233829
0.342229 0.651728 0.243137
0.371832 0.645441 0.257298
0.405341 0.637110 0.275608
0.440925 0.627039 0.298436
0.475105 0.620264 0.314336
0.512596 0.645686 0.250065
0.569360 0.670832 0.150912
0.642359 0.694240 0.000000
0.727779 0.715053 0.000000
0.801205 0.716243 0.000000
0.844877 0.705684 0.000000
0.864134 0.688136 0.000000
0.872831 0.671962 0.000000
0.877226 0.661738 0.182162
0.880949 0.659236 0.287480
0.904936 0.654536 0.323644
0.935027 0.646845 0.340368
0.962860 0.640070 0.359442
0.988403 0.634699 0.380560
1.000000 0.630701 0.403174
1.000000 0.628687 0.427649
1.000000 0.628779 0.453681
1.000000 0.631403 0.481209
1.000000 0.636713 0.510033
1.000000 0.645380 0.540337
1.000000 0.658259 0.545251
1.000000 0.669612 0.549706
1.000000 0.664363 0.547631
1.000000 0.661494 0.546532
0.329778 0.709621 0.252903
0.337713 0.709041 0.256291
0.347265 0.707485 0.260258
0.367163 0.703883 0.268864
0.395239 0.698146 0.282139
0.428351 0.690486 0.299840
0.463813 0.681483 0.321477
0.499977 0.671138 0.347417
0.530816 0.680842 0.322179
0.572534 0.703182 0.246342
0.630854 0.723659 0.118837
0.702815 0.741299 0.000000
0.783230 0.755276 0.000000
0.843656 0.745022 0.000000
0.876493 0.729183 0.000000
0.889708 0.708339 0.000000
0.895903 0.691371 0.000000
0.899657 0.681361 0.186282
0.903716 0.679774 0.295903
0.922087 0.679133 0.349248
0.951843 0.673213 0.368780
0.978973 0.668147 0.390326
1.000000 0.664057 0.413428
1.000000 0.661555 0.438209
1.000000 0.660975 0.464607
1.000000 0.662684 0.492348
1.000000 0.666682 0.521263
1.000000 0.673854 0.551385
1.000000 0.686915 0.556634
1.000000 0.695705 0.560235
1.000000 0.688899 0.557427
1.000000 0.684352 0.555566
0.352605 0.748165 0.277317
0.359106 0.747189 0.280064
0.368017 0.745388 0.283574
0.386297 0.741817 0.291386
0.412238 0.736416 0.303441
0.443397 0.729274 0.319493
0.477516 0.720790 0.339513
0.512902 0.710903 0.363500
0.546349 0.702815 0.383185
0.575006 0.723384 0.319554
0.619776 0.742855 0.232334
0.679103 0.760128 0.032715
0.749935 0.774228 0.000000
0.827329 0.784573 0.000000
0.876829 0.766079 0.000000
0.902678 0.748440 0.000000
0.912474 0.726375 0.000000
0.917327 0.709468 0.000000
0.920989 0.700221 0.193301
0.925170 0.699489 0.306279
0.937957 0.702327 0.375555
0.966278 0.697169 0.396368
0.991821 0.692805 0.418982
1.000000 0.689876 0.443610
1.000000 0.688563 0.469947
1.000000 0.689296 0.497658
1.000000 0.692317 0.526818
1.000000 0.698207 0.557855
1.000000 0.711238 0.566735
1.000000 0.720699 0.570794
1.000000 0.712917 0.567437
1.000000 0.707210 0.565026
0.374548 0.782193 0.302586
0.381598 0.782010 0.305882
0.413367 0.809537 0.335668
0.430579 0.806210 0.343267
0.454963 0.800961 0.354620
0.484352 0.793973 0.369543
0.517174 0.785275 0.388190
0.551507 0.775265 0.410376
0.586175 0.764218 0.436530
0.611017 0.769039 0.415290
0.640253 0.786130 0.340856
0.684840 0.801144 0.237797
0.742916 0.813046 0.000000
0.811246 0.821714 0.000000
0.881712 0.824094 0.000000
0.921935 0.798520 0.000000
0.941833 0.778317 0.000000
0.948302 0.754788 0.000000
0.951232 0.737697 0.000000
0.953765 0.729183 0.219760
0.956603 0.729366 0.335698
0.963470 0.735927 0.420508
0.988830 0.730831 0.442206
1.000000 0.726680 0.465217
1.000000 0.723201 0.488502
1.000000 0.721218 0.512749
1.000000 0.721218 0.538476
1.000000 0.724086 0.566705
1.000000 0.735531 0.577264
1.000000 0.745113 0.581567
1.000000 0.736202 0.577600
1.000000 0.729274 0.574548
0.401373 0.818631 0.334478
0.410132 0.821378 0.340520
0.420996 0.823758 0.347448
0.439429 0.824125 0.357702
0.464149 0.822049 0.370794
0.492927 0.817014 0.385962
0.524315 0.809720 0.403601
0.557366 0.800809 0.424231
0.591150 0.790921 0.448341
0.623621 0.780331 0.474617
0.641566 0.796902 0.411231
0.673457 0.811887 0.329747
0.719081 0.824216 0.213107
0.776791 0.833585 0.000000
0.843015 0.839719 0.000000
0.907347 0.837491 0.000000
0.939757 0.809537 0.000000
0.957824 0.789425 0.000000
0.963348 0.766690 0.000000
0.966644 0.751003 0.000000
0.969696 0.743923 0.229313
0.973388 0.745937 0.349248
0.977295 0.756497 0.447211
1.000000 0.753109 0.472419
1.000000 0.749660 0.495888
1.000000 0.747372 0.520378
1.000000 0.746853 0.546319
1.000000 0.748775 0.574517
1.000000 0.759396 0.588098
1.000000 0.769100 0.592645
1.000000 0.759274 0.588037
1.000000 0.751400 0.584436
0.416815 0.840909 0.355383
0.425177 0.843259 0.361151
0.435309 0.845304 0.367803
0.452247 0.845548 0.377295
0.475196 0.843656 0.389471
0.501976 0.839139 0.403510
0.531762 0.832639 0.419959
0.563348 0.824735 0.439094
0.596124 0.815885 0.461494
0.628412 0.806088 0.486427
0.651057 0.807523 0.475746
0.671626 0.822477 0.407660
0.705074 0.835233 0.318425
0.751522 0.845487 0.185794
0.808804 0.852689 0.000000
0.873411 0.856901 0.000000
0.931823 0.850492 0.000000
0.957916 0.821225 0.000000
0.974914 0.801480 0.000000
0.979889 0.779721 0.000000
0.983337 0.765377 0.000000
0.986999 0.760067 0.244327
0.990784 0.763729 0.367681
0.994202 0.775570 0.468727
1.000000 0.775631 0.504601
1.000000 0.772854 0.528557
1.000000 0.771481 0.553887
1.000000 0.772274 0.581537
1.000000 0.781125 0.598383
1.000000 0.792142 0.603693
1.000000 0.781430 0.598505
1.000000 0.772702 0.594354
0.431617 0.861753 0.376410
0.439338 0.863890 0.381964
0.448951 0.865690 0.388312
0.464820 0.865965 0.397375
0.486336 0.864134 0.408820
0.511498 0.860044 0.421973
0.539269 0.854246 0.437049
0.569421 0.847013 0.454810
0.600885 0.838834 0.475288
0.632258 0.829831 0.497932
0.662318 0.820157 0.522393
0.677058 0.831418 0.476112
0.699275 0.844480 0.402502
0.734249 0.855589 0.305608
0.781491 0.864256 0.152132
0.838834 0.870390 0.000000
0.903288 0.874296 0.000000
0.955688 0.863676 0.000000
0.980072 0.836515 0.000000
0.997803 0.818326 0.000000
1.000000 0.798672 0.000000
1.000000 0.786984 0.000000
1.000000 0.784268 0.279210
1.000000 0.791165 0.408240
1.000000 0.805783 0.513298
1.000000 0.810056 0.559594
1.000000 0.808713 0.585595
1.000000 0.809598 0.612451
1.000000 0.823270 0.619471
1.000000 0.817685 0.616571
1.000000 0.806821 0.611048
1.000000 0.798276 0.606775
0.459113 0.892088 0.412604
0.464820 0.892638 0.416175
0.471839 0.892699 0.420142
0.484993 0.891417 0.426795
0.503746 0.888701 0.436072
0.526726 0.884428 0.447700
0.552941 0.879088 0.461677
0.581781 0.872801 0.478309
0.612177 0.865873 0.497505
0.643244 0.858274 0.519036
0.673457 0.850004 0.542229
0.696651 0.847257 0.546258
0.710231 0.860380 0.487678
0.733547 0.872038 0.409033
0.768948 0.881590 0.303471
0.816495 0.888731 0.122255
0.873625 0.893462 0.000000
0.937072 0.896056 0.000000
0.982147 0.879667 0.000000
1.000000 0.852689 0.000000
1.000000 0.833799 0.000000
1.000000 0.814298 0.000000
1.000000 0.803006 0.088838
1.000000 0.800656 0.303349
1.000000 0.808499 0.433783
1.000000 0.823697 0.538567
1.000000 0.831601 0.594141
1.000000 0.831388 0.621820
1.000000 0.844327 0.630671
1.000000 0.838895 0.627741
1.000000 0.827695 0.621759
1.000000 0.818845 0.617182
0.473548 0.910063 0.434516
0.479133 0.910582 0.438025
0.485725 0.910826 0.441962
0.498268 0.909697 0.448432
0.515618 0.907225 0.457038
0.536797 0.903288 0.467414
0.561181 0.898253 0.479927
0.587976 0.892363 0.494667
0.616968 0.885801 0.512108
0.646693 0.878660 0.531640
0.676265 0.871000 0.553033
0.704433 0.862577 0.575586
0.719051 0.868040 0.550469
0.734310 0.880095 0.488441
0.759152 0.890684 0.405158
0.795926 0.899351 0.291386
0.844205 0.905821 0.051789
0.901701 0.910033 0.000000
0.964385 0.912078 0.000000
1.000000 0.890929 0.000000
1.000000 0.865476 0.000000
1.000000 0.846769 0.000000
1.000000 0.828763 0.000000
1.000000 0.819211 0.141604
1.000000 0.813260 0.322972
1.000000 0.822385 0.455177
1.000000 0.838590 0.560632
1.000000 0.850095 0.624872
1.000000 0.859770 0.639246
1.000000 0.858762 0.638666
1.000000 0.847471 0.632410
1.000000 0.838376 0.627466
0.499397 0.934661 0.469337
0.504723 0.935271 0.472969
0.510704 0.935241 0.476356
0.521447 0.933837 0.481453
0.536645 0.931090 0.488472
0.555474 0.927153 0.497139
0.577478 0.922148 0.507744
0.601892 0.916136 0.520226
0.628321 0.909392 0.534844
0.655695 0.902098 0.551476
0.683162 0.894041 0.569665
0.709987 0.885649 0.589410
0.734432 0.877287 0.607446
0.742397 0.888487 0.556786
0.757778 0.898497 0.490272
0.782834 0.907195 0.400000
0.819730 0.914000 0.275761
0.867979 0.919036 0.000000
0.925017 0.922393 0.000000
0.985077 0.922454 0.000000
1.000000 0.898466 0.000000
1.000000 0.874693 0.000000
1.000000 0.855894 0.000000
1.000000 0.838468 0.000000
1.000000 0.829221 0.170016
1.000000 0.828733 0.353155
1.000000 0.839536 0.486763
1.000000 0.856382 0.591211
1.000000 0.864225 0.609308
1.000000 0.864256 0.610101
1.000000 0.864958 0.638056
1.000000 0.857725 0.638056
0.510857 0.949279 0.488502
0.515953 0.949859 0.491920
0.521660 0.949828 0.495186
0.531609 0.948577 0.499916
0.545830 0.946105 0.506340
0.563531 0.942657 0.514488
0.584588 0.938231 0.524529
0.608026 0.933043 0.536400
0.633600 0.927214 0.550439
0.660517 0.920867 0.566491
0.687648 0.913939 0.583917
0.714717 0.906584 0.602960
0.740322 0.898680 0.622644
0.756954 0.897917 0.617639
0.766293 0.908446 0.565576
0.783139 0.917967 0.497108
0.809476 0.926238 0.402930
0.847440 0.932860 0.270054
0.896422 0.937652 0.000000
0.953735 0.940581 0.000000
1.000000 0.938689 0.000000
1.000000 0.910338 0.000000
1.000000 0.887388 0.000000
1.000000 0.868070 0.000000
1.000000 0.851652 0.000000
1.000000 0.843931 0.216007
1.000000 0.845457 0.391424
1.000000 0.858366 0.525933
1.000000 0.863493 0.526268
1.000000 0.863523 0.549767
1.000000 0.863828 0.586969
1.000000 0.864286 0.612512
0.526360 0.965759 0.512139
0.530755 0.966003 0.514824
0.535424 0.965667 0.517235
0.544152 0.964233 0.521050
0.556756 0.961730 0.526360
0.572930 0.958312 0.533349
0.592340 0.954101 0.542199
0.614435 0.949248 0.553033
0.638849 0.943847 0.566003
0.664698 0.938140 0.580865
0.691249 0.931884 0.597345
0.717891 0.925383 0.615381
0.743679 0.918273 0.634211
0.767727 0.910491 0.653346
0.777584 0.916014 0.626673
0.787961 0.925780 0.572930
0.805783 0.934600 0.501823
0.833036 0.942290 0.403693
0.871763 0.948516 0.261265
0.921233 0.952789 0.000000
0.978302 0.954955 0.000000
1.000000 0.951324 0.000000
1.000000 0.918547 0.000000
1.000000 0.896757 0.000000
1.000000 0.877134 0.000000
1.000000 0.861723 0.000000
1.000000 0.855619 0.255497
1.000000 0.859007 0.426337
1.000000 0.864408 0.439857
1.000000 0.863890 0.474281
1.000000 0.863523 0.525536
1.000000 0.863584 0.559991
0.537743 0.979492 0.531487
0.541405 0.979492 0.533623
0.545861 0.979126 0.535851
0.554040 0.977935 0.539483
0.566613 0.975982 0.545159
0.582940 0.973480 0.552850
0.603082 0.970733 0.563195
0.626246 0.967590 0.575830
0.651820 0.964172 0.590661
0.678859 0.960449 0.607294
0.706569 0.956298 0.625330
0.734157 0.951659 0.644312
0.760708 0.946441 0.663630
0.785519 0.940368 0.682826
0.807248 0.934356 0.699031
0.812802 0.944244 0.658259
0.823575 0.953368 0.605127
0.841367 0.961608 0.534478
0.868315 0.968811 0.435248
0.906157 0.974334 0.284062
0.954986 0.977508 0.000000
1.000000 0.978088 0.000000
1.000000 0.971527 0.000000
1.000000 0.933928 0.000000
1.000000 0.911620 0.000000
1.000000 0.890898 0.000000
1.000000 0.877073 0.000000
1.000000 0.877745 0.000000
1.000000 0.870817 0.242741
1.000000 0.866392 0.358892
1.000000 0.864500 0.433234
1.000000 0.863798 0.481575
0.566735 1.000000 0.569116
0.569787 1.000000 0.570764
0.573266 0.999756 0.572290
0.580377 0.998474 0.575189
0.591302 0.996460 0.579797
0.605646 0.993866 0.586084
0.623224 0.990845 0.594415
0.643580 0.987396 0.604669
0.666285 0.983581 0.616815
0.690639 0.979400 0.630640
0.715694 0.974731 0.645686
0.740993 0.969696 0.661799
0.765774 0.964172 0.678492
0.789456 0.958099 0.695521
0.811582 0.951446 0.712520
0.825986 0.950317 0.711025
