其他预设/【231】淡彩糖果色预设10款/1.LUT预设（视频调色-PR-AE-PS-FCPX-达芬奇用）/淡彩糖果色__-10.cube
# Created by Adobe Lightroom plugin Export LUT (1.17.0)
# www.johnrellis.com/lightroom/exportlut.htm
# Preset: 淡彩糖果色[素锦印象]-10
# Color profile: /Library/Application Support/Adobe/Color/Profiles/Recommended/AdobeRGB1998.icc
LUT_3D_SIZE 8
DOMAIN_MIN 0.000000 0.000000 0.000000
DOMAIN_MAX 0.903226 0.903226 0.903226
0.009613 0.010956 0.009674
0.237217 0.119295 0.038727
0.580896 0.270634 0.000000
0.782101 0.373419 0.000000
0.888792 0.454322 0.171695
0.936065 0.511101 0.267216
0.963043 0.559380 0.352911
0.979767 0.603845 0.432990
0.020996 0.096376 0.029633
0.203555 0.153079 0.028870
0.552453 0.298253 0.000000
0.765927 0.389929 0.000000
0.878111 0.460029 0.157229
0.929625 0.510918 0.253696
0.959930 0.558190 0.343328
0.978515 0.603388 0.427802
0.035309 0.192325 0.073365
0.182376 0.240146 0.000000
0.494362 0.362524 0.000000
0.744137 0.452613 0.000000
0.868284 0.499763 0.148836
0.925841 0.536736 0.253666
0.959869 0.578912 0.352819
0.978210 0.617334 0.435492
0.011902 0.328283 0.107454
0.175540 0.372259 0.063508
0.422370 0.396185 0.000000
0.715145 0.521630 0.000000
0.860716 0.566094 0.150179
0.921172 0.580713 0.259007
0.955474 0.604700 0.352941
0.975311 0.633295 0.435187
0.000000 0.454444 0.140871
0.179599 0.484535 0.143404
0.409735 0.537041 0.000000
0.657832 0.552941 0.000000
0.829709 0.609400 0.000000
0.905455 0.625422 0.244236
0.947021 0.635431 0.345251
0.971008 0.655482 0.434150
0.000000 0.565698 0.176364
0.166262 0.590906 0.174990
0.371160 0.649866 0.000000
0.626490 0.648066 0.000000
0.802274 0.646845 0.000000
0.894865 0.666346 0.180758
0.939361 0.678370 0.348699
0.966339 0.686244 0.439338
0.007904 0.680934 0.215091
0.157870 0.694850 0.207218
0.359625 0.727443 0.160433
0.574975 0.746761 0.000000
0.782406 0.719387 0.000000
0.888914 0.703304 0.000000
0.935027 0.711604 0.310582
0.959625 0.719387 0.440497
0.000000 0.775814 0.230655
0.128359 0.782559 0.226139
0.374701 0.801633 0.264866
0.505577 0.833097 0.000000
0.736172 0.805386 0.000000
0.889616 0.762966 0.000000
0.943633 0.747494 0.223819
0.960357 0.754391 0.440803
0.078798 0.130495 0.137331
0.175387 0.104860 0.156710
0.512200 0.286656 0.061982
0.744533 0.406134 0.000000
0.868284 0.469612 0.144564
0.924437 0.514458 0.244297
0.957549 0.558495 0.336828
0.977417 0.601709 0.422705
0.074128 0.143587 0.135836
0.157076 0.159823 0.151186
0.489540 0.306737 0.095094
0.736385 0.419989 0.000000
0.862516 0.477089 0.137331
0.920836 0.517967 0.238285
0.955016 0.558801 0.330083
0.976043 0.601099 0.417273
0.094911 0.177829 0.134279
0.159274 0.248569 0.162692
0.455024 0.353155 0.096040
0.718074 0.467750 0.000000
0.851957 0.509514 0.126894
0.916503 0.540520 0.236454
0.953704 0.575647 0.333867
0.975525 0.613672 0.423133
0.105837 0.307988 0.178683
0.158419 0.359014 0.178988
0.410651 0.413672 0.066285
0.689876 0.515373 0.000000
0.838895 0.564019 0.116670
0.908904 0.577844 0.233555
0.949065 0.600214 0.332799
0.972656 0.629664 0.422858
0.107362 0.441749 0.213046
0.158877 0.472938 0.201907
0.378119 0.546288 0.036103
0.637720 0.545922 0.000000
0.815335 0.604425 0.000000
0.897429 0.625727 0.229007
0.943023 0.635004 0.334234
0.969146 0.654139 0.426398
0.107851 0.554284 0.237766
0.167514 0.576654 0.230259
0.356176 0.635798 0.169711
0.606012 0.646723 0.000000
0.792844 0.645441 0.000000
0.891142 0.666041 0.157229
0.936919 0.679805 0.342870
0.964904 0.685847 0.433783
0.098939 0.664637 0.261540
0.170596 0.676570 0.255985
0.362097 0.712062 0.255924
0.551781 0.744411 0.000000
0.772091 0.719417 0.000000
0.883970 0.702541 0.000000
0.932250 0.709133 0.293706
0.957733 0.717922 0.432654
0.062715 0.765133 0.271275
0.137758 0.772030 0.267582
0.394110 0.791928 0.336187
0.493263 0.828153 0.000000
0.732570 0.811490 0.000000
0.888853 0.766476 0.000000
0.942657 0.747890 0.211185
0.959808 0.753414 0.433722
0.118013 0.287633 0.305791
0.143557 0.288304 0.299809
0.400031 0.231876 0.352300
0.695827 0.423987 0.317449
0.847196 0.514549 0.278782
0.916289 0.548363 0.238376
0.954223 0.580438 0.337560
0.976135 0.614435 0.425849
0.107271 0.293370 0.294621
0.170748 0.299290 0.299260
0.383154 0.269566 0.343633
0.681941 0.436408 0.321508
0.838041 0.520958 0.285191
0.912718 0.551354 0.232517
0.952239 0.581506 0.332616
0.975250 0.615290 0.423133
0.092164 0.314122 0.288884
0.171695 0.323369 0.297826
0.349981 0.352972 0.332464
0.662776 0.483192 0.338933
0.828336 0.551781 0.305394
0.908965 0.570947 0.231418
0.949920 0.594659 0.332494
0.973785 0.623957 0.423285
0.114137 0.314488 0.257664
0.188052 0.335821 0.276555
0.349340 0.438148 0.340124
0.639185 0.528344 0.328252
0.814359 0.596002 0.321843
0.902007 0.604608 0.233433
0.946227 0.618585 0.334325
0.971466 0.640436 0.425574
0.178836 0.399268 0.288762
0.235355 0.422736 0.309087
0.353765 0.526055 0.354376
0.598596 0.570581 0.282719
0.792020 0.624567 0.294621
0.888640 0.648341 0.262425
0.939513 0.649561 0.332616
0.967681 0.662837 0.427192
0.203677 0.517693 0.331487
0.244724 0.541741 0.346014
0.359014 0.608942 0.370275
0.555901 0.664332 0.283543
0.764248 0.651820 0.219913
0.879820 0.674800 0.208682
0.932341 0.690120 0.336889
0.963500 0.693355 0.434272
0.200107 0.636439 0.362585
0.242588 0.649836 0.369574
0.357641 0.690364 0.382513
0.513787 0.744289 0.299840
0.739498 0.730312 0.134157
0.875395 0.711025 0.000000
0.931609 0.713527 0.267491
0.957244 0.726528 0.437751
0.211429 0.744808 0.378119
0.202487 0.748592 0.369574
0.336400 0.773861 0.382300
0.506340 0.812711 0.351812
0.691035 0.819547 0.000000
0.882414 0.784390 0.000000
0.941436 0.752468 0.172274
0.960327 0.755520 0.423468
0.202365 0.434607 0.463813
0.195193 0.435157 0.457191
0.353857 0.449928 0.470314
0.582971 0.384710 0.525231
0.786954 0.563958 0.522850
0.880552 0.613611 0.493751
0.938201 0.620905 0.423651
0.972442 0.625940 0.419593
0.194583 0.442878 0.459144
0.190951 0.441993 0.452766
0.360174 0.456611 0.470466
0.577020 0.405646 0.523491
0.782132 0.569818 0.523522
0.877379 0.617548 0.495521
0.936461 0.623774 0.424750
0.971954 0.627253 0.418708
0.180758 0.454108 0.450202
0.206851 0.455207 0.448219
0.362524 0.469551 0.465858
0.552850 0.455238 0.511894
0.769436 0.591241 0.528191
0.872404 0.639216 0.512535
0.935790 0.642603 0.442359
0.971710 0.638209 0.424994
0.165621 0.477180 0.445533
0.195773 0.478096 0.444312
0.356970 0.494301 0.465461
0.521538 0.520745 0.500359
0.750362 0.621302 0.532158
0.862272 0.661128 0.517937
0.930175 0.659297 0.442969
0.969085 0.652827 0.425330
0.157870 0.482094 0.416144
0.211429 0.485847 0.420233
0.361120 0.501091 0.442359
0.524407 0.584833 0.509453
0.733394 0.648127 0.519341
0.853483 0.693355 0.526574
0.924529 0.687953 0.453437
0.965637 0.675044 0.428473
0.203250 0.512139 0.403418
0.261112 0.527703 0.420172
0.399603 0.561883 0.463783
0.524376 0.645960 0.516381
0.711727 0.673487 0.464271
0.845914 0.711330 0.495125
0.916869 0.722255 0.464454
0.961395 0.704280 0.435004
0.285405 0.596094 0.440223
0.309545 0.602106 0.446174
0.402472 0.643275 0.483833
0.518395 0.710079 0.519249
0.683864 0.751034 0.449744
0.845212 0.734432 0.406531
0.918975 0.735012 0.390387
0.955230 0.736965 0.439155
0.348394 0.709163 0.491371
0.344213 0.714504 0.488594
0.365972 0.736538 0.487587
0.500511 0.781888 0.514336
0.632929 0.828397 0.413062
0.843229 0.805173 0.259983
0.937163 0.761807 0.118502
0.960784 0.758511 0.402869
0.316045 0.550530 0.586236
0.311101 0.550805 0.582696
0.370184 0.554376 0.579553
0.514855 0.575311 0.614801
0.697902 0.510918 0.642359
0.833310 0.661372 0.650385
0.901579 0.701778 0.640162
0.947967 0.699825 0.586877
0.310430 0.554223 0.582727
0.306889 0.555169 0.580255
0.381109 0.560845 0.581964
0.519310 0.578607 0.609033
0.693172 0.519677 0.639979
0.831479 0.664240 0.650477
0.900877 0.704036 0.640864
0.947967 0.700496 0.585229
0.299870 0.562707 0.576410
0.295109 0.563073 0.572900
0.393103 0.570703 0.580255
0.525170 0.584009 0.594934
0.677882 0.545586 0.631830
0.823575 0.670497 0.647242
0.897948 0.709224 0.639612
0.948150 0.700435 0.574670
0.292332 0.577905 0.573693
0.286564 0.577264 0.569299
0.393164 0.584161 0.576959
0.523857 0.596429 0.592462
0.658259 0.585992 0.623560
0.816007 0.688014 0.648890
0.896056 0.720424 0.638300
0.951720 0.699153 0.548333
0.280888 0.598352 0.569482
0.275914 0.598169 0.565942
0.383673 0.602777 0.573236
0.515648 0.612146 0.588983
0.630426 0.626123 0.609979
0.807248 0.708309 0.645533
0.893584 0.734005 0.630488
0.951263 0.710445 0.533684
0.266758 0.609766 0.551537
0.264775 0.606836 0.545678
0.371099 0.607721 0.551202
0.501183 0.612421 0.565118
0.624872 0.667933 0.609155
0.796048 0.725521 0.629114
0.888334 0.759182 0.633967
0.948058 0.735195 0.535882
0.292027 0.621302 0.529808
0.289586 0.618097 0.523369
0.366003 0.626398 0.531640
0.512474 0.655512 0.572412
0.624628 0.724300 0.615137
0.789151 0.747127 0.571069
0.886961 0.769802 0.595544
0.942962 0.760647 0.527794
0.389410 0.688472 0.561120
0.391974 0.689784 0.559533
0.401587 0.694820 0.553887
0.506035 0.723598 0.583581
0.613672 0.786984 0.612940
0.768429 0.818387 0.539239
0.904082 0.790738 0.480629
0.956909 0.766354 0.407660
0.443793 0.648432 0.685756
0.440650 0.648493 0.683772
0.427344 0.646143 0.674281
0.543847 0.654292 0.679896
0.621149 0.652949 0.714809
0.773342 0.607507 0.722988
0.873198 0.719112 0.725002
0.917144 0.773983 0.742885
0.433326 0.645289 0.678828
0.429938 0.644831 0.676509
0.427649 0.644251 0.669764
0.540276 0.651911 0.675563
0.623224 0.655573 0.709316
0.769650 0.609979 0.720302
0.871275 0.722560 0.726345
0.916869 0.773831 0.741573
0.429877 0.653285 0.677394
0.425849 0.652338 0.674708
0.440009 0.652003 0.669947
0.544366 0.658259 0.675532
0.634333 0.668208 0.699489
0.763272 0.626032 0.717952
0.867247 0.739071 0.735866
0.916899 0.775875 0.739742
0.423438 0.661494 0.674128
0.418860 0.660517 0.671077
0.443305 0.661250 0.667781
0.547356 0.668971 0.676326
0.643977 0.678645 0.686763
0.755825 0.653742 0.717220
0.865019 0.756497 0.743709
0.918242 0.779538 0.735348
0.411109 0.670314 0.667262
0.407996 0.670314 0.665278
0.430488 0.671077 0.662318
0.533776 0.675441 0.669368
0.630243 0.682307 0.679561
0.736690 0.675441 0.706020
0.861601 0.763699 0.736751
0.920562 0.778164 0.716976
0.399359 0.684443 0.661494
0.397711 0.685451 0.660578
0.414862 0.685908 0.657252
0.518578 0.688045 0.664118
0.616724 0.692500 0.674098
0.712490 0.705440 0.693202
0.859831 0.780087 0.732418
0.922881 0.785245 0.699947
0.407141 0.714748 0.670008
0.406165 0.714412 0.667933
0.399512 0.708888 0.656062
0.497719 0.705562 0.657893
0.603571 0.702113 0.662257
0.712337 0.747860 0.697353
0.852995 0.792905 0.715663
0.918761 0.804685 0.697230
0.443580 0.734340 0.667140
0.441047 0.732479 0.663264
0.432593 0.725978 0.649042
0.438819 0.715419 0.625910
0.591852 0.736446 0.657954
0.704494 0.797147 0.695583
0.857267 0.813046 0.648646
0.924620 0.813565 0.652613
0.552056 0.719753 0.755978
0.550225 0.719783 0.754910
0.542809 0.719387 0.750637
0.580468 0.721614 0.748623
0.661280 0.726955 0.751308
0.696345 0.706203 0.786496
0.829679 0.686061 0.785702
0.900511 0.773861 0.787015
0.549798 0.720241 0.754726
0.547967 0.720241 0.753658
0.540887 0.719844 0.749569
0.579706 0.721584 0.747433
0.660304 0.727077 0.750484
0.697047 0.708644 0.784817
0.828489 0.688075 0.785092
0.900114 0.775479 0.787533
0.546746 0.723568 0.753170
0.544854 0.723445 0.752102
0.538018 0.723018 0.748074
0.579767 0.724727 0.746609
0.659144 0.729549 0.749813
0.706752 0.722255 0.779812
0.825803 0.697047 0.784573
0.899413 0.782437 0.790555
0.544182 0.729335 0.752102
0.541802 0.728939 0.750698
0.535302 0.728542 0.746944
0.574609 0.729885 0.745449
0.654932 0.733974 0.749050
0.721889 0.741207 0.771054
0.821347 0.711086 0.783658
0.897246 0.798489 0.799466
0.539361 0.736538 0.749783
0.537499 0.736385 0.748714
0.531304 0.736172 0.745174
0.558465 0.736690 0.743252
0.641352 0.739467 0.747372
0.721309 0.745846 0.754208
0.814359 0.727901 0.781308
0.895567 0.815549 0.807767
0.534661 0.746914 0.747829
0.533013 0.746975 0.746883
0.527214 0.747097 0.743618
0.543908 0.747463 0.740749
0.625025 0.748745 0.745174
0.709224 0.753017 0.752773
0.803647 0.749538 0.777066
0.897093 0.822904 0.803922
0.530083 0.760525 0.746212
0.528649 0.760708 0.745388
0.523064 0.761135 0.742275
0.523400 0.761898 0.737758
0.609461 0.761898 0.742184
0.696742 0.764218 0.749722
0.782254 0.774075 0.765133
0.898344 0.832975 0.795346
0.550134 0.788663 0.759426
0.548913 0.788968 0.758724
0.544762 0.790219 0.756558
0.536522 0.789792 0.749355
0.575708 0.783108 0.739742
0.675013 0.775631 0.738888
0.782132 0.814267 0.769192
0.896727 0.845670 0.782071
0.667170 0.789029 0.820798
0.666163 0.789059 0.820279
0.662104 0.788907 0.818326
0.654902 0.788846 0.814694
0.709438 0.792233 0.815213
0.761227 0.797299 0.820218
0.785031 0.775967 0.846555
0.877134 0.768643 0.843107
0.666499 0.789364 0.820493
0.665522 0.789395 0.820005
0.661616 0.789273 0.818082
0.654414 0.789212 0.814481
0.708644 0.792508 0.815030
0.761379 0.797543 0.819242
0.784939 0.777340 0.845975
0.876829 0.769863 0.843107
0.665858 0.791012 0.820188
0.664851 0.791012 0.819699
0.660975 0.790860 0.817777
0.654261 0.791012 0.814481
0.705867 0.793912 0.814847
0.761563 0.798672 0.816983
0.785183 0.782437 0.844205
0.876005 0.774319 0.843320
0.666560 0.794095 0.820676
0.665614 0.794125 0.820218
0.661921 0.794064 0.818387
0.655207 0.794156 0.815061
0.698299 0.796353 0.814694
0.757504 0.800839 0.817075
0.786923 0.791470 0.840970
0.874784 0.781918 0.843900
0.665339 0.798886 0.820218
0.664790 0.798886 0.819944
0.662531 0.798764 0.818845
0.658900 0.798581 0.817044
0.679194 0.799680 0.814420
0.747921 0.803708 0.817044
0.797879 0.808499 0.834836
0.872923 0.792416 0.844602
0.663935 0.805509 0.819791
0.663233 0.805478 0.819425
0.660975 0.805447 0.818326
0.657252 0.805478 0.816464
0.651362 0.805478 0.813565
0.728481 0.808072 0.816831
0.798398 0.814755 0.822660
0.870146 0.806271 0.845304
0.663111 0.814328 0.819669
0.662470 0.814359 0.819364
0.660334 0.814511 0.818326
0.656519 0.814969 0.816464
0.650141 0.815671 0.813352
0.706935 0.816373 0.815427
0.784054 0.820249 0.821988
0.864805 0.823270 0.844633
0.663142 0.825345 0.820066
0.662531 0.825437 0.819760
0.660487 0.825925 0.818784
0.656703 0.827024 0.816983
0.650172 0.828733 0.813840
0.689448 0.829831 0.813931
0.771756 0.831785 0.820920
0.851286 0.844053 0.838224
