其他预设/【231】淡彩糖果色预设10款/1.LUT预设（视频调色-PR-AE-PS-FCPX-达芬奇用）/淡彩糖果色__-10.cube
# Created by Adobe Lightroom plugin Export LUT (1.17.0)
# www.johnrellis.com/lightroom/exportlut.htm
# Preset: 淡彩糖果色[素锦印象]-10
# Color profile: /Library/Application Support/Adobe/Color/Profiles/Recommended/AdobeRGB1998.icc
LUT_3D_SIZE 32
0.009613 0.010956 0.009674
0.068269 0.029572 0.014771
0.093599 0.051026 0.022522
0.150668 0.081025 0.037140
0.237217 0.119295 0.038727
0.331731 0.160647 0.015534
0.423743 0.200961 0.000000
0.507530 0.237797 0.000000
0.580896 0.270634 0.000000
0.645106 0.300328 0.000000
0.699397 0.327123 0.000000
0.744442 0.351293 0.000000
0.782101 0.373419 0.000000
0.813474 0.393957 0.067597
0.843839 0.415900 0.107790
0.869596 0.436713 0.142794
0.888792 0.454322 0.171695
0.903777 0.469917 0.197360
0.915953 0.484047 0.220981
0.926665 0.497810 0.244175
0.936065 0.511101 0.267216
0.944305 0.523919 0.289799
0.951415 0.536248 0.311437
0.957610 0.548058 0.332494
0.963043 0.559380 0.352911
0.967926 0.570489 0.372992
0.972290 0.581628 0.393072
0.976257 0.592706 0.412970
0.979767 0.603845 0.432990
0.982879 0.614984 0.452766
0.985504 0.626001 0.472328
0.987671 0.636683 0.491218
0.011566 0.030518 0.011261
0.065003 0.047364 0.013550
0.091279 0.061769 0.022370
0.147982 0.087404 0.036835
0.233371 0.124453 0.037598
0.326970 0.164981 0.015015
0.418799 0.204593 0.000000
0.502464 0.240787 0.000000
0.576135 0.272984 0.000000
0.640833 0.302251 0.000000
0.695521 0.328649 0.000000
0.740932 0.352392 0.000000
0.778897 0.374212 0.000000
0.810544 0.394568 0.063508
0.841032 0.415900 0.104372
0.866606 0.436164 0.138674
0.885893 0.453315 0.167361
0.901152 0.468482 0.192874
0.913603 0.482490 0.216434
0.924559 0.496101 0.239628
0.934234 0.509300 0.262791
0.942748 0.522087 0.285405
0.950042 0.534417 0.307286
0.956451 0.546227 0.328649
0.962066 0.557671 0.349310
0.967071 0.568933 0.369696
0.971618 0.580102 0.389990
0.975708 0.591394 0.410224
0.979339 0.602594 0.430426
0.982544 0.613825 0.450538
0.985260 0.624933 0.470283
0.987457 0.635737 0.489448
0.012116 0.054688 0.014466
0.065705 0.061524 0.006256
0.089540 0.069673 0.020844
0.144594 0.094331 0.036316
0.228214 0.130892 0.037171
0.321386 0.170840 0.013703
0.412726 0.209567 0.000000
0.496712 0.245060 0.000000
0.571099 0.276707 0.000000
0.636255 0.305547 0.000000
0.691768 0.331487 0.000000
0.737758 0.354894 0.000000
0.776242 0.376318 0.000000
0.808316 0.396277 0.059602
0.838926 0.417334 0.101595
0.864561 0.436805 0.136110
0.883909 0.453620 0.164614
0.899351 0.468513 0.190036
0.912047 0.482307 0.213687
0.923217 0.495735 0.236973
0.933104 0.508904 0.260288
0.941802 0.521630 0.283085
0.949248 0.533928 0.305150
0.955779 0.545678 0.326574
0.961517 0.557153 0.347295
0.966583 0.568322 0.367834
0.971191 0.579583 0.388342
0.975372 0.590875 0.408789
0.979065 0.602197 0.429145
0.982330 0.613428 0.449378
0.985077 0.624567 0.469276
0.987335 0.635401 0.488472
0.016663 0.077668 0.019287
0.058839 0.085481 0.000000
0.091310 0.083650 0.003967
0.139345 0.106661 0.032715
0.220218 0.143587 0.033967
0.312688 0.182925 0.009033
0.404028 0.220768 0.000000
0.489082 0.255375 0.000000
0.564263 0.285924 0.000000
0.630274 0.313664 0.000000
0.686610 0.338659 0.000000
0.733303 0.361151 0.000000
0.772183 0.381842 0.000000
0.804837 0.400946 0.049348
0.836088 0.421057 0.098177
0.861570 0.439704 0.132296
0.881163 0.455695 0.160922
0.896788 0.470008 0.186343
0.909667 0.483162 0.209812
0.921019 0.496040 0.232944
0.931121 0.508751 0.256138
0.940002 0.521233 0.278996
0.947814 0.533501 0.301518
0.954681 0.545464 0.323522
0.960754 0.557153 0.345190
0.966094 0.568719 0.366491
0.970886 0.580194 0.387671
0.975128 0.591577 0.408423
0.978912 0.602838 0.428962
0.982177 0.613947 0.449134
0.984924 0.624933 0.468818
0.987182 0.635554 0.487892
0.020996 0.096376 0.029633
0.054261 0.104372 0.014984
0.086000 0.109316 0.000000
0.131594 0.113466 0.004211
0.203555 0.153079 0.028870
0.297551 0.196536 0.005097
0.389166 0.234409 0.000000
0.475502 0.268437 0.000000
0.552453 0.298253 0.000000
0.619562 0.324987 0.000000
0.677760 0.348974 0.000000
0.725734 0.370428 0.000000
0.765927 0.389929 0.000000
0.799680 0.407874 0.029908
0.831876 0.427192 0.092561
0.857816 0.444709 0.127901
0.878111 0.460029 0.157229
0.894377 0.473732 0.183261
0.907744 0.486427 0.207156
0.919341 0.498756 0.230564
0.929625 0.510918 0.253696
0.938689 0.523033 0.276616
0.946654 0.534874 0.299199
0.953704 0.546654 0.321447
0.959930 0.558190 0.343328
0.965423 0.569665 0.364965
0.970336 0.580987 0.386267
0.974670 0.592218 0.407233
0.978515 0.603388 0.427802
0.981811 0.614435 0.448066
0.984649 0.625330 0.467903
0.986969 0.635889 0.487007
0.028046 0.115450 0.043671
0.061036 0.123384 0.045533
0.079347 0.133913 0.000000
0.126986 0.135286 0.000000
0.185489 0.154177 0.000000
0.275608 0.204746 0.000000
0.374029 0.250736 0.000000
0.461555 0.285283 0.000000
0.540368 0.314672 0.000000
0.609308 0.340368 0.000000
0.669184 0.363348 0.000000
0.718685 0.383459 0.000000
0.759976 0.401587 0.000000
0.794827 0.418219 0.009552
0.828214 0.436378 0.087617
0.854520 0.452461 0.124025
0.875334 0.466743 0.154177
0.892119 0.479652 0.180697
0.905943 0.491646 0.205295
0.917967 0.503410 0.229221
0.928557 0.515190 0.252750
0.937926 0.526909 0.276158
0.953368 0.552026 0.322759
0.959411 0.562737 0.343877
0.964691 0.573175 0.364324
0.969329 0.583368 0.384222
0.973449 0.593408 0.403632
0.977142 0.603418 0.422736
0.980407 0.613397 0.441627
0.983246 0.623377 0.460304
0.985657 0.633112 0.478462
0.987610 0.642542 0.495888
0.029419 0.139376 0.056855
0.062226 0.147738 0.058808
0.082277 0.158083 0.032441
0.128084 0.169680 0.000000
0.177462 0.168765 0.000000
0.256931 0.208255 0.000000
0.358099 0.264225 0.000000
0.456458 0.309850 0.000000
0.537407 0.339330 0.000000
0.608240 0.364324 0.000000
0.669276 0.386053 0.000000
0.719539 0.404273 0.000000
0.761044 0.420447 0.000000
0.796536 0.435340 0.011780
0.831052 0.452766 0.092103
0.856931 0.467079 0.128786
0.877256 0.479652 0.158633
0.893767 0.491127 0.185428
0.907561 0.502251 0.210391
0.919799 0.513603 0.235264
0.930816 0.525414 0.260441
0.940642 0.537591 0.285893
0.949218 0.549859 0.311101
0.956573 0.561791 0.335515
0.962768 0.573297 0.358648
0.967987 0.584009 0.380224
0.972442 0.594263 0.400519
0.976318 0.604242 0.420172
0.979706 0.614130 0.439399
0.982666 0.623926 0.458198
0.985168 0.633570 0.476539
0.987213 0.642908 0.494118
0.032319 0.163851 0.065553
0.058808 0.172030 0.062654
0.083864 0.181704 0.059083
0.123720 0.200992 0.000000
0.180758 0.202243 0.000000
0.237034 0.210086 0.000000
0.327092 0.260410 0.000000
0.427527 0.314458 0.000000
0.519371 0.357031 0.000000
0.592798 0.382177 0.000000
0.656580 0.403601 0.000000
0.709133 0.420783 0.000000
0.752560 0.435462 0.000000
0.790921 0.450050 0.000000
0.825254 0.465095 0.083894
0.851560 0.477485 0.122499
0.872557 0.488563 0.153201
0.889677 0.498817 0.180392
0.904051 0.508782 0.205814
0.916747 0.519188 0.230961
0.928130 0.530175 0.256321
0.938323 0.541497 0.282048
0.947173 0.553033 0.307347
0.954772 0.564416 0.331792
0.961242 0.575372 0.355138
0.966674 0.585840 0.376959
0.971344 0.595789 0.397650
0.975402 0.605554 0.417609
0.978943 0.615290 0.437110
0.982025 0.624964 0.456184
0.984649 0.634516 0.474830
0.986755 0.643824 0.492714
0.035309 0.192325 0.073365
0.054475 0.199985 0.068086
0.087526 0.209506 0.072969
0.123262 0.227329 0.021912
0.182376 0.240146 0.000000
0.236240 0.239048 0.000000
0.305394 0.262394 0.000000
0.398566 0.312993 0.000000
0.494362 0.362524 0.000000
0.577508 0.401099 0.000000
0.643885 0.422492 0.000000
0.698939 0.439033 0.000000
0.744137 0.452613 0.000000
0.785489 0.466743 0.000000
0.819852 0.479683 0.075868
0.846677 0.490272 0.117098
0.868284 0.499763 0.148836
0.886015 0.508690 0.176669
0.900908 0.517479 0.202426
0.914061 0.526757 0.227970
0.925841 0.536736 0.253666
0.936278 0.547143 0.279484
0.945373 0.557855 0.304814
0.953216 0.568505 0.329381
0.959869 0.578912 0.352819
0.965484 0.588830 0.374792
0.970306 0.598444 0.395697
0.974517 0.607874 0.415808
0.978210 0.617334 0.435492
0.981384 0.626734 0.454749
0.984070 0.636042 0.473426
0.986297 0.645136 0.491524
0.036774 0.223636 0.081544
0.050813 0.230686 0.074769
0.085359 0.239261 0.078676
0.124086 0.256229 0.055665
0.178988 0.278965 0.000000
0.241520 0.278080 0.000000
0.293187 0.277012 0.000000
0.376226 0.315282 0.000000
0.467720 0.363043 0.000000
0.554437 0.405524 0.000000
0.629206 0.440711 0.000000
0.686885 0.457343 0.000000
0.734279 0.470100 0.000000
0.778561 0.484016 0.000000
0.813901 0.495308 0.065858
0.841917 0.504601 0.111849
0.864622 0.512902 0.145663
0.883146 0.520623 0.174777
0.898528 0.528344 0.201175
0.911955 0.536400 0.226902
0.923827 0.545006 0.252232
0.934234 0.554040 0.277379
0.943389 0.563378 0.302068
0.951263 0.572900 0.326055
0.958068 0.582422 0.349279
0.963897 0.591791 0.371405
0.968963 0.601099 0.392798
0.973419 0.610315 0.413458
0.977325 0.619684 0.433692
0.980682 0.628992 0.453468
0.983520 0.638270 0.472694
0.985840 0.647333 0.491127
0.032776 0.255131 0.089998
0.048280 0.261662 0.083589
0.080842 0.269993 0.083619
0.125124 0.285801 0.074220
0.175998 0.307988 0.000000
0.242008 0.318090 0.000000
0.300603 0.316472 0.000000
0.359289 0.322881 0.000000
0.446479 0.366766 0.000000
0.531975 0.408759 0.000000
0.609339 0.444984 0.000000
0.675227 0.475135 0.000000
0.725948 0.489479 0.000000
0.771237 0.502037 0.000000
0.807279 0.511620 0.048493
0.836118 0.519493 0.104891
0.859617 0.526299 0.140719
0.878813 0.532769 0.170535
0.894865 0.539086 0.197604
0.908843 0.545922 0.223636
0.921111 0.553460 0.249424
0.931914 0.561517 0.274907
0.941375 0.570123 0.299931
0.949523 0.578820 0.324193
0.956542 0.587671 0.347509
0.962554 0.596368 0.369726
0.967803 0.605005 0.391119
0.972381 0.613794 0.411810
0.976410 0.622644 0.432166
0.979889 0.631586 0.452094
0.982849 0.640589 0.471443
0.985260 0.649470 0.490120
0.025849 0.288579 0.098085
0.042847 0.294438 0.092012
0.074586 0.302129 0.088960
0.127626 0.316777 0.090913
0.174228 0.337407 0.019257
0.237827 0.358648 0.000000
0.303929 0.356970 0.000000
0.359960 0.355322 0.000000
0.429206 0.372839 0.000000
0.513054 0.414405 0.000000
0.590356 0.450172 0.000000
0.659174 0.480873 0.000000
0.734737 0.519524 0.000000
0.781033 0.533806 0.000000
0.817044 0.541772 0.076265
0.845212 0.547509 0.123049
0.867582 0.552178 0.157595
0.885588 0.556420 0.186709
0.900511 0.560754 0.213138
0.913542 0.565789 0.238468
0.924895 0.571527 0.263401
0.934844 0.577905 0.287663
0.943511 0.584649 0.311254
0.951080 0.591852 0.334203
0.957610 0.599268 0.356451
0.963317 0.606775 0.377783
0.968322 0.614374 0.398230
0.972686 0.622065 0.418097
0.976532 0.629999 0.437507
0.979858 0.638087 0.456641
0.982696 0.646265 0.475288
0.985046 0.654414 0.493355
0.011902 0.328283 0.107454
0.031189 0.333562 0.101717
0.065278 0.340368 0.094759
0.130373 0.353765 0.104799
0.175540 0.372259 0.063508
0.234653 0.395270 0.000000
0.305333 0.401038 0.000000
0.367376 0.398138 0.000000
0.422370 0.396185 0.000000
0.500084 0.424445 0.000000
0.577966 0.460426 0.000000
0.648768 0.491554 0.000000
0.715145 0.521630 0.000000
0.768917 0.546380 0.000000
0.806912 0.557397 0.057191
0.836942 0.562463 0.113344
0.860716 0.566094 0.150179
0.879789 0.569024 0.180606
0.895567 0.572229 0.207706
0.909270 0.576074 0.233677
0.921172 0.580713 0.259007
0.931640 0.585992 0.283543
0.940673 0.591791 0.307378
0.948577 0.598077 0.330602
0.955474 0.604700 0.352941
0.961425 0.611505 0.374456
0.966674 0.618555 0.395209
0.971252 0.625818 0.415412
0.975311 0.633295 0.435187
0.978851 0.641138 0.454627
0.981842 0.649042 0.473640
0.984375 0.657038 0.492164
0.000000 0.360479 0.115908
0.020813 0.365515 0.109926
0.050477 0.371710 0.100618
0.123995 0.383703 0.109895
0.174594 0.400641 0.087068
0.229404 0.421790 0.000000
0.297765 0.439063 0.000000
0.365759 0.435767 0.000000
0.425025 0.433021 0.000000
0.483589 0.435492 0.000000
0.559716 0.466316 0.000000
0.632166 0.498268 0.000000
0.699916 0.527977 0.000000
0.754482 0.550927 0.000000
0.797604 0.569574 0.000000
0.828580 0.578027 0.103212
0.853452 0.580468 0.142641
0.873533 0.582391 0.174289
0.890318 0.584405 0.202365
0.904784 0.587152 0.228977
0.917388 0.590723 0.254673
0.928374 0.595026 0.279789
0.937896 0.599939 0.304082
0.946166 0.605402 0.327611
0.953368 0.611231 0.350347
0.959625 0.617395 0.372229
0.965118 0.623804 0.393225
0.969940 0.630549 0.413611
0.974151 0.637629 0.433692
0.977874 0.645014 0.453468
0.981018 0.652644 0.472755
0.983673 0.660395 0.491615
0.000000 0.392950 0.123690
0.009613 0.397223 0.118868
0.041596 0.402838 0.110689
0.117433 0.413886 0.115084
0.175753 0.429419 0.107759
0.225711 0.448615 0.011902
0.287816 0.470863 0.000000
0.359869 0.472297 0.000000
0.423590 0.468910 0.000000
0.480690 0.466041 0.000000
0.542809 0.472847 0.000000
0.617975 0.507012 0.000000
0.685542 0.535698 0.000000
0.740902 0.557336 0.000000
0.785580 0.574517 0.000000
0.820645 0.588830 0.046540
0.846342 0.595758 0.135439
0.867430 0.596521 0.168399
0.885069 0.597498 0.197482
0.900237 0.599115 0.224674
0.913451 0.601526 0.250828
0.924926 0.604791 0.276249
0.934905 0.608667 0.300755
0.943572 0.613245 0.324620
0.951141 0.618341 0.347723
0.957763 0.623926 0.370123
0.963592 0.629877 0.391821
0.968719 0.636347 0.413001
0.973175 0.643183 0.433845
0.977081 0.650355 0.454231
0.980377 0.657771 0.474067
0.983124 0.665400 0.493446
0.000000 0.424506 0.132204
0.000000 0.428595 0.127474
0.032013 0.433600 0.120638
0.109895 0.443915 0.120882
0.178714 0.458198 0.128054
0.223697 0.476081 0.074403
0.281254 0.496345 0.000000
0.350713 0.508965 0.000000
0.419593 0.504997 0.000000
0.480110 0.501366 0.000000
0.535302 0.498604 0.000000
0.605432 0.517082 0.000000
0.671962 0.544396 0.000000
0.727352 0.564599 0.000000
0.772854 0.580316 0.000000
0.809567 0.593225 0.000000
0.838773 0.604608 0.095033
0.860807 0.610986 0.162203
0.879637 0.611170 0.192691
0.895811 0.611963 0.221134
0.909850 0.613550 0.248264
0.921965 0.615930 0.274357
0.932433 0.619013 0.299535
0.941497 0.622736 0.323888
0.949371 0.627131 0.347417
0.956298 0.632013 0.370184
0.962310 0.637385 0.392248
0.967620 0.643214 0.413642
0.972229 0.649470 0.434546
0.976196 0.656062 0.454963
0.979583 0.662867 0.474647
0.982422 0.669947 0.493935
0.000000 0.454444 0.140871
0.000000 0.457832 0.136324
0.028687 0.462470 0.130343
0.102541 0.471809 0.127230
0.179599 0.484535 0.143404
0.222293 0.500511 0.104738
0.274632 0.519066 0.000000
0.337224 0.539086 0.000000
0.409735 0.537041 0.000000
0.473884 0.532891 0.000000
0.534966 0.532525 0.000000
0.592981 0.533898 0.000000
0.657832 0.552941 0.000000
0.713802 0.572595 0.000000
0.760616 0.587518 0.000000
0.798825 0.599268 0.000000
0.829709 0.609400 0.000000
0.854520 0.618799 0.126131
0.873777 0.625055 0.187533
0.890776 0.624872 0.216587
0.905455 0.625422 0.244236
0.918181 0.626795 0.270848
0.929137 0.628931 0.296452
0.938689 0.631861 0.321233
0.947021 0.635431 0.345251
0.954223 0.639643 0.368475
0.960601 0.644404 0.390997
0.966155 0.649714 0.412848
0.971008 0.655482 0.434150
0.975158 0.661646 0.454932
0.978698 0.668086 0.475013
0.981659 0.674830 0.494636
0.000000 0.483558 0.149813
0.000000 0.486946 0.146120
0.040497 0.499214 0.144076
0.100557 0.507561 0.137728
0.179629 0.518608 0.154665
0.228275 0.532708 0.134524
0.274876 0.549401 0.060121
0.332433 0.567590 0.000000
0.402502 0.575280 0.000000
0.474189 0.574212 0.000000
0.539574 0.573846 0.000000
0.598566 0.572442 0.000000
0.654444 0.572503 0.000000
0.710079 0.588678 0.000000
0.756954 0.602228 0.000000
0.795743 0.612482 0.000000
0.827268 0.620844 0.000000
0.852537 0.628382 0.056580
0.872770 0.635859 0.162875
0.888945 0.641718 0.219638
0.903655 0.640925 0.247044
0.916472 0.641077 0.273533
0.927611 0.641993 0.299077
0.937224 0.643702 0.323491
0.945495 0.646052 0.346899
0.952728 0.649042 0.369482
0.959106 0.652644 0.391363
0.964721 0.656977 0.412757
0.969696 0.661952 0.433936
0.974029 0.667536 0.454810
0.977722 0.673518 0.475105
0.980804 0.679835 0.494942
0.000000 0.513634 0.159670
0.000000 0.517327 0.156924
0.043549 0.522057 0.152834
0.092714 0.530632 0.144167
0.173648 0.541192 0.160616
0.230808 0.554314 0.158083
0.271733 0.569848 0.102419
0.324102 0.586847 0.000000
0.388220 0.606378 0.000000
0.463752 0.606043 0.000000
0.530877 0.603632 0.000000
0.591028 0.600641 0.000000
0.645136 0.596948 0.000000
0.696223 0.597131 0.000000
0.744320 0.610407 0.000000
0.784634 0.620142 0.000000
0.817868 0.627680 0.000000
0.844877 0.634180 0.000000
0.866758 0.640528 0.105348
0.884337 0.647272 0.187411
0.898711 0.653315 0.242588
0.912291 0.652674 0.269780
0.924041 0.652857 0.296025
0.934203 0.653773 0.321080
0.942962 0.655390 0.345159
0.950561 0.657710 0.368261
0.957275 0.660731 0.390600
0.963165 0.664393 0.412299
0.968353 0.668818 0.433814
0.972839 0.673854 0.454932
0.976684 0.679316 0.475471
0.979919 0.685237 0.495583
0.000000 0.539818 0.168093
0.003418 0.543206 0.165927
0.051850 0.547356 0.162295
0.090242 0.555077 0.153048
0.169039 0.564782 0.167239
0.235752 0.576440 0.179507
0.272221 0.592432 0.134585
0.320867 0.611078 0.000000
0.379065 0.629877 0.000000
0.450294 0.635462 0.000000
0.519432 0.631891 0.000000
0.581323 0.627802 0.000000
0.636957 0.623133 0.000000
0.686305 0.617517 0.000000
0.732967 0.620020 0.000000
0.774685 0.629480 0.000000
0.809506 0.636378 0.000000
0.838071 0.641901 0.000000
0.861387 0.647089 0.000000
0.880278 0.652583 0.142458
0.895537 0.658778 0.213260
0.908110 0.664942 0.266697
0.920500 0.664332 0.293645
0.931182 0.664454 0.319249
0.940368 0.665309 0.343725
0.948302 0.666835 0.367102
0.955291 0.669062 0.389685
0.961425 0.672053 0.411719
0.966827 0.675837 0.433417
0.971527 0.680293 0.454688
0.975555 0.685267 0.475502
0.978912 0.690761 0.495857
0.000000 0.565698 0.176364
0.004913 0.568719 0.174502
0.053742 0.572595 0.171511
0.093721 0.580591 0.164096
0.166262 0.590906 0.174990
0.240970 0.603052 0.197086
0.276585 0.617792 0.163729
0.318669 0.633570 0.095338
0.371160 0.649866 0.000000
0.433387 0.662013 0.000000
0.505180 0.658350 0.000000
0.569146 0.653407 0.000000
0.626490 0.648066 0.000000
0.678340 0.642634 0.000000
0.723293 0.635309 0.000000
0.765469 0.639948 0.000000
0.802274 0.646845 0.000000
0.832914 0.651972 0.000000
0.858030 0.656489 0.000000
0.878386 0.661097 0.082216
0.894865 0.666346 0.180758
0.907988 0.672480 0.245396
0.918761 0.678706 0.297063
0.929839 0.678218 0.323613
0.939361 0.678370 0.348699
0.947539 0.679286 0.372564
0.954681 0.680842 0.395453
0.960906 0.683162 0.417578
0.966339 0.686244 0.439338
0.971038 0.689967 0.460395
0.975036 0.694270 0.481056
0.978393 0.699062 0.501122
0.000000 0.599420 0.188510
0.028687 0.602075 0.186862
0.067231 0.605371 0.184543
0.101625 0.611963 0.178439
0.165927 0.620691 0.185092
0.240360 0.630610 0.207156
0.283909 0.642847 0.191653
0.320012 0.656794 0.136355
0.366400 0.671382 0.000000
0.421881 0.686000 0.000000
0.491615 0.686793 0.000000
0.558465 0.681605 0.000000
0.618189 0.675990 0.000000
0.672053 0.670100 0.000000
0.720760 0.664118 0.000000
0.759915 0.654047 0.000000
0.797726 0.660243 0.000000
0.829404 0.664393 0.000000
0.855375 0.667536 0.000000
0.876493 0.670558 0.000000
0.893492 0.674220 0.138125
0.907073 0.678676 0.215061
0.917815 0.684108 0.273930
0.926665 0.689662 0.322087
0.936553 0.688930 0.347387
0.945068 0.689052 0.371618
0.952544 0.689906 0.394873
0.959075 0.691585 0.417395
0.964752 0.694026 0.439338
0.969665 0.697108 0.460609
0.973816 0.700923 0.481544
0.977325 0.705196 0.501854
0.000000 0.627680 0.197818
0.040406 0.630030 0.196719
0.071992 0.633021 0.194705
0.107027 0.638697 0.189731
0.163912 0.646143 0.192935
0.238041 0.654353 0.214633
0.290898 0.664363 0.215854
0.321019 0.676570 0.167422
0.361730 0.689631 0.075471
0.411810 0.702815 0.000000
0.473335 0.710414 0.000000
0.542596 0.705409 0.000000
0.604425 0.699580 0.000000
0.660517 0.693477 0.000000
0.711147 0.687312 0.000000
0.754726 0.679072 0.000000
0.790951 0.672511 0.000000
0.824155 0.676265 0.000000
0.851591 0.678614 0.000000
0.873930 0.680537 0.000000
0.891997 0.682887 0.068940
0.906432 0.686122 0.180606
0.917845 0.690425 0.248264
0.926818 0.695674 0.303319
0.933165 0.699123 0.344610
0.942138 0.698451 0.369146
0.949981 0.698665 0.392920
0.956847 0.699641 0.415747
0.962829 0.701442 0.437995
0.967987 0.704005 0.459663
0.972442 0.707332 0.481178
0.976135 0.711238 0.501884
0.019287 0.657679 0.208896
0.060365 0.659876 0.208255
0.082612 0.662379 0.206668
0.115419 0.666987 0.202579
0.164340 0.673304 0.202731
0.238071 0.679927 0.224247
0.302220 0.687770 0.241947
0.326421 0.698512 0.197360
0.360784 0.709987 0.126345
0.405005 0.721614 0.000000
0.457771 0.732906 0.000000
0.526299 0.729793 0.000000
0.590387 0.723415 0.000000
0.648066 0.716732 0.000000
0.700160 0.709865 0.000000
0.747036 0.702907 0.000000
0.784451 0.691157 0.000000
0.817350 0.687556 0.000000
0.846189 0.689204 0.000000
0.869993 0.690242 0.000000
0.889281 0.691524 0.000000
0.904692 0.693477 0.132784
0.916808 0.696407 0.216037
0.926268 0.700282 0.277348
0.933562 0.704982 0.328252
0.939696 0.709255 0.369329
0.947814 0.708583 0.392950
0.954894 0.708736 0.415778
0.961059 0.709773 0.438025
0.966430 0.711635 0.459846
0.971069 0.714443 0.481514
0.974945 0.717830 0.502617
0.007904 0.680934 0.215091
0.055238 0.682887 0.214542
0.080507 0.685145 0.213321
0.114717 0.689143 0.210269
0.157870 0.694850 0.207218
0.233371 0.700557 0.228824
0.304387 0.707179 0.254856
0.330419 0.716793 0.221714
0.359625 0.727443 0.160433
0.398627 0.738369 0.000000
0.446571 0.749020 0.000000
0.508110 0.752743 0.000000
0.574975 0.746761 0.000000
0.635096 0.740200 0.000000
0.689448 0.733425 0.000000
0.738705 0.726589 0.000000
0.782406 0.719387 0.000000
0.814237 0.703883 0.000000
0.844053 0.703609 0.000000
0.868833 0.703456 0.000000
0.888914 0.703304 0.000000
0.904997 0.703761 0.061219
0.917601 0.705257 0.183963
0.927428 0.707912 0.254368
0.935027 0.711604 0.310582
0.940887 0.716060 0.358160
0.945953 0.719570 0.395056
0.953246 0.719020 0.418097
0.959625 0.719387 0.440497
0.965179 0.720668 0.462562
0.969940 0.722866 0.484413
0.973938 0.725704 0.505638
0.000000 0.704677 0.221134
0.039460 0.706325 0.220645
0.075319 0.708095 0.219638
0.112276 0.711421 0.216922
0.152010 0.716274 0.212314
0.227237 0.721126 0.232486
0.298589 0.726741 0.258366
0.335637 0.734707 0.243839
0.359686 0.744533 0.188388
0.393286 0.754635 0.087984
0.436622 0.764614 0.000000
0.488411 0.773373 0.000000
0.557244 0.768765 0.000000
0.619928 0.762264 0.000000
0.676356 0.755459 0.000000
0.727687 0.748562 0.000000
0.772732 0.741329 0.000000
0.812528 0.731685 0.000000
0.840848 0.718044 0.000000
0.866789 0.716976 0.000000
0.887907 0.715511 0.000000
0.904723 0.714504 0.000000
0.917937 0.714534 0.141482
0.928252 0.715816 0.226841
0.936156 0.718349 0.289769
0.942229 0.721889 0.341802
0.946929 0.726131 0.385992
0.951263 0.728786 0.418982
0.957733 0.728359 0.441016
0.963531 0.729000 0.463325
0.968505 0.730556 0.485359
0.972656 0.732906 0.506798
0.000000 0.726314 0.223880
0.000000 0.727626 0.223606
0.051820 0.729244 0.222782
0.101015 0.732204 0.220584
0.146304 0.736782 0.217075
0.219425 0.741573 0.234379
0.293309 0.747066 0.261845
0.344152 0.754360 0.267033
0.364080 0.764370 0.216831
0.393042 0.774685 0.136721
0.431586 0.784848 0.000000
0.479286 0.794278 0.000000
0.541985 0.795682 0.000000
0.608057 0.789670 0.000000
0.667659 0.783169 0.000000
0.721523 0.776272 0.000000
0.768246 0.769131 0.000000
0.812375 0.761959 0.000000
0.846220 0.747738 0.000000
0.871183 0.737026 0.000000
0.892454 0.733700 0.000000
0.909300 0.730739 0.000000
0.922423 0.728878 0.097658
0.932586 0.728511 0.207218
0.940307 0.729671 0.277623
0.946105 0.732052 0.334112
0.950561 0.735378 0.381537
0.953948 0.739315 0.421973
0.957427 0.740993 0.450446
0.962951 0.740566 0.471351
0.967864 0.741421 0.493019
0.971984 0.742855 0.513878
0.000000 0.753964 0.230716
0.000000 0.755032 0.230411
0.027131 0.756191 0.230045
0.097841 0.758633 0.228489
0.145968 0.762387 0.226200
0.215732 0.766384 0.240330
0.291112 0.770626 0.268284
0.356359 0.775723 0.292180
0.370428 0.784421 0.243687
0.393286 0.793454 0.171756
0.425666 0.802304 0.000000
0.468238 0.810513 0.000000
0.520745 0.816007 0.000000
0.589532 0.810513 0.000000
0.651392 0.803738 0.000000
0.707057 0.796811 0.000000
