其他预设/【231】淡彩糖果色预设10款/1.LUT预设（视频调色-PR-AE-PS-FCPX-达芬奇用）/淡彩糖果色__-3.cube
# Created by Adobe Lightroom plugin Export LUT (1.17.0)
# www.johnrellis.com/lightroom/exportlut.htm
# Preset: 淡彩糖果色[素锦印象]-3
# Color profile: /Library/Application Support/Adobe/Color/Profiles/Recommended/AdobeRGB1998.icc
LUT_3D_SIZE 32
0.064881 0.064881 0.064881
0.085206 0.066560 0.064485
0.109010 0.068513 0.064118
0.149996 0.074464 0.062226
0.199222 0.082582 0.059449
0.246921 0.092195 0.052735
0.292058 0.101595 0.044953
0.334478 0.112001 0.037690
0.375769 0.122866 0.028229
0.416602 0.134188 0.019593
0.456825 0.145052 0.015503
0.497108 0.156741 0.011536
0.536950 0.168551 0.003082
0.575921 0.180392 0.003540
0.613581 0.191989 0.007233
0.648646 0.203037 0.014038
0.681392 0.213809 0.021729
0.711788 0.223941 0.037751
0.740536 0.234195 0.054139
0.776150 0.246677 0.067414
0.809903 0.258976 0.077119
0.840604 0.270390 0.086763
0.868650 0.280858 0.093812
0.894347 0.290440 0.101595
0.918486 0.299199 0.106630
0.941588 0.307530 0.111543
0.964446 0.315709 0.115023
0.987121 0.323705 0.118593
1.000000 0.331609 0.121401
1.000000 0.339483 0.123140
1.000000 0.347173 0.124727
1.000000 0.354589 0.126101
0.062348 0.085176 0.068116
0.083375 0.085573 0.064302
0.108644 0.085878 0.063569
0.150515 0.090272 0.061646
0.200015 0.098299 0.057862
0.247349 0.106355 0.051240
0.292241 0.114290 0.044160
0.334203 0.123018 0.037293
0.375189 0.132296 0.028321
0.415778 0.142367 0.020050
0.455909 0.152499 0.015045
0.495827 0.163272 0.010559
0.535058 0.174166 0.006226
0.573632 0.185061 0.009766
0.611322 0.196445 0.010315
0.646296 0.206882 0.017609
0.678889 0.217197 0.025849
0.709407 0.227359 0.038422
0.738033 0.236851 0.056947
0.773404 0.249180 0.067018
0.806424 0.260807 0.076020
0.836790 0.271641 0.085298
0.864561 0.281773 0.092988
0.890410 0.291112 0.099428
0.914611 0.299748 0.105562
0.938018 0.308019 0.109834
0.961120 0.316045 0.113161
0.984039 0.324163 0.116884
1.000000 0.331975 0.118715
1.000000 0.339757 0.121218
1.000000 0.347387 0.122408
1.000000 0.354772 0.123598
0.056794 0.108980 0.072755
0.078553 0.109834 0.062776
0.105470 0.109285 0.063020
0.149996 0.111299 0.061219
0.201053 0.115908 0.058106
0.248447 0.122499 0.051453
0.292912 0.129152 0.043519
0.334539 0.136172 0.036011
0.375433 0.144137 0.028321
0.415625 0.152865 0.023804
0.455726 0.162234 0.015564
0.495460 0.171847 0.012634
0.534630 0.181949 0.009613
0.573205 0.192447 0.011994
0.610590 0.202976 0.015351
0.645563 0.212741 0.020783
0.678187 0.222782 0.030121
0.708644 0.232303 0.040955
0.737270 0.241581 0.058045
0.772580 0.253544 0.068025
0.805020 0.264408 0.078004
0.835233 0.274907 0.085420
0.863005 0.284825 0.092897
0.888670 0.293736 0.100008
0.912993 0.302190 0.104494
0.936339 0.310124 0.109133
0.959533 0.318151 0.112886
0.982666 0.325994 0.115846
1.000000 0.333623 0.118502
1.000000 0.341436 0.120607
1.000000 0.348821 0.121645
1.000000 0.356146 0.122621
0.028809 0.151003 0.080934
0.051789 0.152834 0.059968
0.096223 0.152712 0.059052
0.145480 0.152132 0.058320
0.198642 0.153445 0.053681
0.252323 0.153597 0.046845
0.296574 0.157504 0.040162
0.337987 0.162387 0.034028
0.378363 0.167941 0.027039
0.418311 0.174411 0.022004
0.457740 0.181918 0.018799
0.497322 0.189975 0.015045
0.535912 0.198611 0.017029
0.574273 0.208072 0.017395
0.611536 0.216892 0.018280
0.646265 0.226169 0.025879
0.678462 0.234806 0.037476
0.708522 0.243290 0.049531
0.738338 0.252049 0.061952
0.771969 0.262760 0.070741
0.803342 0.272618 0.079042
0.832761 0.282292 0.087709
0.860441 0.291417 0.094911
0.886564 0.300145 0.101503
0.911589 0.308354 0.105928
0.935668 0.316350 0.111055
0.959380 0.324010 0.114809
0.982788 0.331853 0.118379
1.000000 0.339178 0.120424
1.000000 0.346502 0.121859
1.000000 0.353613 0.123018
1.000000 0.360327 0.123140
0.000000 0.198520 0.095613
0.000000 0.199924 0.073823
0.065156 0.200809 0.049287
0.132570 0.200259 0.046021
0.189334 0.198398 0.046693
0.241947 0.197147 0.043153
0.294041 0.196994 0.037568
0.341588 0.196170 0.033417
0.381598 0.199191 0.028656
0.421057 0.203769 0.026490
0.460426 0.208988 0.021912
0.499397 0.215274 0.022248
0.537957 0.222354 0.023346
0.576074 0.229862 0.026795
0.613336 0.237736 0.028595
0.648096 0.245487 0.035645
0.680415 0.252750 0.047395
0.710475 0.260044 0.059297
0.742000 0.268406 0.067445
0.774228 0.277409 0.076020
0.804532 0.286473 0.083864
0.833249 0.295048 0.091310
0.860410 0.303105 0.097841
0.886351 0.311040 0.103944
0.911254 0.318639 0.109041
0.935393 0.325933 0.113283
0.959014 0.333074 0.117433
0.982300 0.340124 0.119722
1.000000 0.347143 0.122011
1.000000 0.353979 0.123934
1.000000 0.360540 0.124300
1.000000 0.366949 0.125032
0.000000 0.244327 0.110292
0.000000 0.245640 0.092988
0.000000 0.247135 0.055879
0.105013 0.246891 0.033570
0.174350 0.245396 0.030701
0.231266 0.242893 0.031922
0.282628 0.239811 0.035035
0.333532 0.239811 0.029511
0.384375 0.238193 0.028687
0.427680 0.239078 0.026703
0.466651 0.242527 0.027131
0.505272 0.246677 0.029603
0.543664 0.251987 0.032349
0.581537 0.257877 0.035187
0.618372 0.264042 0.040070
0.652552 0.269963 0.049714
0.684474 0.275914 0.060731
0.714351 0.281834 0.066651
0.747524 0.289708 0.075471
0.778805 0.297459 0.082551
0.808469 0.305211 0.090089
0.836820 0.312413 0.097078
0.890135 0.332097 0.118227
0.914488 0.338842 0.124727
0.937346 0.345159 0.129519
0.959228 0.350958 0.134127
0.980468 0.356786 0.137697
1.000000 0.362432 0.140658
1.000000 0.368109 0.142763
1.000000 0.373571 0.143954
1.000000 0.378973 0.144350
1.000000 0.383917 0.143801
0.000000 0.293004 0.129335
0.000000 0.293980 0.114260
0.000000 0.295323 0.089784
0.037201 0.296544 0.024079
0.152865 0.295750 0.016999
0.218875 0.293217 0.017151
0.275914 0.290074 0.022187
0.326604 0.285283 0.031128
0.378363 0.286198 0.028626
0.431006 0.286381 0.028107
0.484169 0.285893 0.034791
0.523033 0.288090 0.038392
0.560967 0.291295 0.045106
0.598230 0.294896 0.050111
0.633204 0.298619 0.057557
0.665583 0.302251 0.063111
0.695979 0.306035 0.068574
0.728450 0.311559 0.076478
0.761044 0.318090 0.085389
0.792172 0.324712 0.094453
0.822751 0.331701 0.102876
0.852689 0.338933 0.110842
0.881437 0.346319 0.118471
0.908476 0.353185 0.126162
0.933715 0.359686 0.132265
0.956939 0.365423 0.137057
0.978759 0.370672 0.140963
0.999847 0.375738 0.143893
1.000000 0.380529 0.145327
1.000000 0.385351 0.146670
1.000000 0.389929 0.146334
1.000000 0.394324 0.145449
0.000000 0.332952 0.146670
0.000000 0.333623 0.134676
0.000000 0.334508 0.116579
0.000000 0.336675 0.048981
0.115084 0.336370 0.014282
0.195651 0.335088 0.006836
0.257053 0.331945 0.015381
0.312505 0.328832 0.024506
0.362829 0.324285 0.041840
0.414405 0.325597 0.040711
0.467445 0.327642 0.046540
0.521233 0.328557 0.051820
0.569146 0.329351 0.058686
0.605859 0.331060 0.062409
0.639979 0.332891 0.067140
0.671534 0.334295 0.072969
0.703243 0.337316 0.079164
0.736233 0.341802 0.086366
0.766567 0.346044 0.094636
0.796170 0.350744 0.102449
0.825376 0.355901 0.110048
0.854185 0.361639 0.117800
0.882017 0.367468 0.125093
0.908385 0.373083 0.132021
0.933104 0.378271 0.137881
0.956023 0.383032 0.142519
0.977691 0.387274 0.145876
0.998657 0.391272 0.147707
1.000000 0.395422 0.149111
1.000000 0.399451 0.149874
1.000000 0.403388 0.149691
1.000000 0.407080 0.148257
0.000000 0.371649 0.165042
0.000000 0.372229 0.155489
0.000000 0.373053 0.141756
0.000000 0.374640 0.102174
0.023377 0.376074 0.021729
0.164340 0.375280 0.012268
0.235843 0.373510 0.006043
0.294530 0.370642 0.017243
0.348913 0.367407 0.032898
0.400000 0.364355 0.052674
0.450629 0.365362 0.057191
0.504234 0.368780 0.060426
0.558190 0.371038 0.065705
0.611322 0.371771 0.071901
0.649287 0.371008 0.077790
0.681788 0.371588 0.083803
0.715114 0.373754 0.090852
0.745510 0.375647 0.098268
0.773953 0.377600 0.105867
0.802152 0.380255 0.112551
0.830137 0.383764 0.119814
0.857847 0.387610 0.127016
0.884642 0.391882 0.134096
0.910277 0.396185 0.139803
0.934356 0.400183 0.145327
0.956756 0.403479 0.149081
0.978027 0.406744 0.152377
0.998718 0.409705 0.153841
1.000000 0.412787 0.154757
1.000000 0.415930 0.155032
1.000000 0.418952 0.154299
1.000000 0.421790 0.152285
0.000000 0.409644 0.182620
0.000000 0.410040 0.174960
0.000000 0.410712 0.163516
0.000000 0.412207 0.133608
0.000000 0.414618 0.051240
0.122164 0.414252 0.023133
0.209720 0.413550 0.007935
0.274632 0.411292 0.013306
0.331731 0.408392 0.026368
0.384833 0.405463 0.045808
0.435706 0.402930 0.062257
0.485328 0.403204 0.068421
0.539361 0.407935 0.071534
0.593347 0.411353 0.076204
0.647242 0.413977 0.085176
0.697047 0.414038 0.096712
0.728267 0.413489 0.103670
0.757046 0.412848 0.111238
0.784115 0.412726 0.118349
0.810697 0.413184 0.124819
0.836973 0.414557 0.131167
0.862699 0.416419 0.137728
0.887785 0.418555 0.143038
0.911772 0.420874 0.148257
0.934783 0.423133 0.152163
0.956634 0.425299 0.155642
0.977752 0.427466 0.158267
0.998413 0.429694 0.159945
1.000000 0.431952 0.160708
1.000000 0.434302 0.160555
1.000000 0.436744 0.159823
1.000000 0.438941 0.157900
0.000000 0.445777 0.200168
0.000000 0.446265 0.194095
0.000000 0.446906 0.183597
0.000000 0.448249 0.160983
0.000000 0.450599 0.110414
0.018128 0.452003 0.038880
0.175906 0.451942 0.026612
0.251743 0.452003 0.005585
0.313268 0.449287 0.023499
0.368872 0.446571 0.041321
0.421180 0.443854 0.059785
0.469917 0.439765 0.071046
0.521691 0.442237 0.078950
0.579614 0.450599 0.081758
0.634424 0.455573 0.088991
0.684443 0.456489 0.101015
0.730312 0.454719 0.112947
0.766873 0.451484 0.123812
0.792386 0.448798 0.131136
0.817807 0.447211 0.136263
0.842924 0.446754 0.142733
0.867826 0.446784 0.148165
0.892058 0.447517 0.153536
0.915312 0.448402 0.158541
0.937591 0.449348 0.162478
0.958801 0.450141 0.164828
0.979217 0.450935 0.167086
0.999268 0.451881 0.167910
1.000000 0.453071 0.167971
1.000000 0.454353 0.167697
1.000000 0.455756 0.166140
1.000000 0.457191 0.164309
0.000000 0.482704 0.218479
0.000000 0.483070 0.212772
0.000000 0.483803 0.203891
0.000000 0.485023 0.184512
0.000000 0.487312 0.146456
0.000000 0.490272 0.054719
0.130709 0.490486 0.046052
0.222934 0.490822 0.027161
0.292729 0.490364 0.017090
0.351904 0.488197 0.033326
0.407233 0.486275 0.055238
0.462013 0.486854 0.066773
0.533349 0.504173 0.081941
0.586938 0.505882 0.094026
0.643091 0.512139 0.100038
0.693843 0.513512 0.111940
0.739803 0.511772 0.126101
0.781552 0.507683 0.140169
0.819577 0.502037 0.154208
0.846036 0.496986 0.162539
0.868376 0.493202 0.167483
0.890227 0.490303 0.172610
0.911498 0.487831 0.175937
0.932128 0.486091 0.179599
0.952056 0.484596 0.182681
0.971344 0.483314 0.184146
0.990051 0.482216 0.185367
1.000000 0.481361 0.185428
1.000000 0.480751 0.184695
1.000000 0.480446 0.182986
1.000000 0.480354 0.181399
1.000000 0.480262 0.177981
0.000000 0.526848 0.238773
0.000000 0.527276 0.233890
0.000000 0.527428 0.225864
0.000000 0.528191 0.208316
0.000000 0.529595 0.176730
0.000000 0.531670 0.117830
0.018769 0.532799 0.058167
0.188663 0.533013 0.043702
0.269932 0.534569 0.022461
0.337865 0.537499 0.022461
0.399512 0.539544 0.048951
0.458717 0.541680 0.065553
0.515709 0.543328 0.077455
0.570550 0.543999 0.089387
0.620417 0.542138 0.103914
0.673060 0.546868 0.112703
0.720577 0.546929 0.125216
0.763424 0.544152 0.138857
0.802792 0.539513 0.152895
0.839628 0.533989 0.166964
0.873350 0.528130 0.180026
0.894316 0.523217 0.183719
0.914611 0.519158 0.187472
0.934478 0.515709 0.190036
0.953704 0.512718 0.192447
0.972381 0.510002 0.193454
0.990600 0.507683 0.193912
1.000000 0.505669 0.193515
1.000000 0.503990 0.192386
1.000000 0.502678 0.190402
1.000000 0.501579 0.187839
1.000000 0.500786 0.184939
0.000000 0.562493 0.255619
0.000000 0.562890 0.250553
0.000000 0.563165 0.244053
0.000000 0.563806 0.228763
0.000000 0.565362 0.202579
0.000000 0.568841 0.157137
0.000000 0.573114 0.067811
0.141878 0.575189 0.060487
0.240696 0.577722 0.048188
0.316777 0.580957 0.021698
0.381476 0.582086 0.041901
0.441779 0.582940 0.063050
0.498970 0.583581 0.075166
0.553674 0.583276 0.086946
0.605493 0.581811 0.099214
0.651270 0.576287 0.114015
0.699123 0.577905 0.125154
0.743557 0.576867 0.137057
0.784543 0.573632 0.150942
0.822843 0.569299 0.164553
0.858762 0.564111 0.178225
0.892088 0.558221 0.191653
0.918791 0.552178 0.200076
0.938018 0.547173 0.202182
0.956634 0.542687 0.204135
0.974762 0.538720 0.204623
0.992432 0.534966 0.204288
1.000000 0.531823 0.203922
1.000000 0.529015 0.202090
1.000000 0.526696 0.199649
1.000000 0.524681 0.197024
1.000000 0.522881 0.193118
0.000000 0.604242 0.274388
0.000000 0.604822 0.270726
0.000000 0.605066 0.264958
0.000000 0.606012 0.251041
0.000000 0.607416 0.227695
0.000000 0.609522 0.190127
0.000000 0.612634 0.122591
0.034974 0.614618 0.072145
0.203861 0.616175 0.065644
0.288548 0.618524 0.053376
0.359472 0.620874 0.040070
0.421363 0.621118 0.063142
0.479561 0.620935 0.076143
0.534691 0.620203 0.086885
0.586999 0.618158 0.099275
0.636072 0.614923 0.109957
0.679927 0.608667 0.124117
0.723018 0.606531 0.135897
0.765621 0.605158 0.147738
0.805447 0.602167 0.161318
0.842832 0.597986 0.174716
0.877531 0.592859 0.187991
0.909514 0.586725 0.200046
0.938903 0.579980 0.212222
0.959869 0.573754 0.216190
0.977630 0.568536 0.216770
0.995117 0.563867 0.216312
1.000000 0.559777 0.215976
1.000000 0.556237 0.214328
1.000000 0.553185 0.212192
1.000000 0.550439 0.209934
1.000000 0.547753 0.206516
0.000000 0.642237 0.292760
0.000000 0.642817 0.288762
0.000000 0.643214 0.284031
0.000000 0.644068 0.271641
0.000000 0.645350 0.250797
0.000000 0.647364 0.218906
0.000000 0.650324 0.166506
0.000000 0.653437 0.084688
0.156008 0.654566 0.079866
0.256779 0.655970 0.074403
0.333715 0.657588 0.065675
0.399634 0.657832 0.067414
0.458473 0.656245 0.079042
0.513634 0.654139 0.089845
0.565667 0.651270 0.100191
0.615137 0.647608 0.109773
0.662135 0.643427 0.120333
0.705440 0.637964 0.131838
0.745602 0.633570 0.146578
0.787808 0.632929 0.157992
0.827237 0.630640 0.171389
0.863951 0.626795 0.184970
0.897551 0.621698 0.198276
0.928557 0.615503 0.210086
0.956878 0.608484 0.221836
0.982635 0.600885 0.231846
0.999512 0.594965 0.231540
1.000000 0.589654 0.230320
1.000000 0.584863 0.228763
1.000000 0.580438 0.225925
1.000000 0.576349 0.222599
1.000000 0.572381 0.218235
0.000000 0.674556 0.308141
0.000000 0.674830 0.304631
0.000000 0.675013 0.300175
0.000000 0.675654 0.289342
0.000000 0.676814 0.270237
0.000000 0.678431 0.243626
0.000000 0.680812 0.201022
0.000000 0.683925 0.128084
0.071901 0.685420 0.093477
0.217624 0.686427 0.089113
0.302861 0.687678 0.083253
0.373571 0.689082 0.076387
0.434943 0.688106 0.083131
0.491249 0.685939 0.093141
0.544030 0.683009 0.103609
0.593713 0.679225 0.112825
0.641077 0.675013 0.121645
0.686610 0.670619 0.130495
0.730434 0.666346 0.140261
0.767849 0.659907 0.155734
0.809079 0.659510 0.167178
0.847532 0.657099 0.179568
0.882872 0.653132 0.192874
0.915404 0.647974 0.205692
0.945342 0.641627 0.217502
0.972747 0.634424 0.228305
0.997833 0.626703 0.238132
1.000000 0.619135 0.243809
1.000000 0.613214 0.242069
1.000000 0.607752 0.238895
1.000000 0.602655 0.235203
1.000000 0.597742 0.230777
0.000000 0.705135 0.323369
0.000000 0.705745 0.320470
0.000000 0.721950 0.324559
0.000000 0.722469 0.314214
0.000000 0.723171 0.298192
0.000000 0.724239 0.272862
0.000000 0.725673 0.237308
0.000000 0.727779 0.182223
0.000000 0.729732 0.114199
0.177218 0.729885 0.110780
0.276005 0.730282 0.106661
0.351659 0.730678 0.102388
0.418097 0.730373 0.097780
0.476143 0.727321 0.105745
0.529961 0.723690 0.114229
0.580560 0.719509 0.122286
0.628565 0.714900 0.130343
0.674556 0.709895 0.138186
0.718776 0.704952 0.145480
0.763119 0.701656 0.153689
0.797299 0.692256 0.168307
0.836759 0.690913 0.180301
0.873259 0.687648 0.191684
0.906523 0.682795 0.204562
0.936828 0.676417 0.216281
0.964569 0.669032 0.227054
0.990051 0.660792 0.236362
1.000000 0.652186 0.244724
1.000000 0.643153 0.252354
1.000000 0.635615 0.252293
1.000000 0.629297 0.248081
1.000000 0.623163 0.242649
0.000000 0.737911 0.339544
0.000000 0.740139 0.338384
0.000000 0.742428 0.334874
0.000000 0.744839 0.327031
0.000000 0.747005 0.313146
0.000000 0.748714 0.291447
0.000000 0.750393 0.260472
0.000000 0.752285 0.216251
0.000000 0.754940 0.140871
0.106447 0.755367 0.122286
0.236362 0.755612 0.118654
0.319371 0.755825 0.114748
0.389044 0.755703 0.110414
0.450568 0.754208 0.109010
0.505455 0.750698 0.116548
0.556817 0.746639 0.124208
0.605463 0.742275 0.131136
0.651789 0.737667 0.138582
0.696742 0.733120 0.145632
0.740230 0.728725 0.153475
0.785306 0.726925 0.159335
0.818051 0.716548 0.174899
0.856596 0.715419 0.186618
0.892027 0.712093 0.198337
0.924224 0.706905 0.210666
0.953704 0.700404 0.221775
0.980713 0.692927 0.232120
1.000000 0.684749 0.240757
1.000000 0.675990 0.249302
1.000000 0.666743 0.255985
1.000000 0.656764 0.261601
1.000000 0.649317 0.256229
0.000000 0.763546 0.351781
0.000000 0.765530 0.350439
0.000000 0.767697 0.347845
0.000000 0.769833 0.340398
0.000000 0.771817 0.327794
0.000000 0.773404 0.308446
0.000000 0.774868 0.281621
0.000000 0.776699 0.243137
0.000000 0.779110 0.185306
0.000000 0.780697 0.131411
0.190494 0.780880 0.128695
0.285100 0.781033 0.125887
0.359442 0.780819 0.121218
0.424109 0.780331 0.116915
0.481392 0.777737 0.119631
0.533715 0.773922 0.126009
0.583154 0.769833 0.132296
0.630274 0.765469 0.139162
0.675685 0.761196 0.145876
0.719753 0.757137 0.153475
0.762600 0.753231 0.160830
0.805356 0.750179 0.168093
0.839811 0.741543 0.181186
0.877043 0.739956 0.193118
0.911070 0.736172 0.204471
0.942199 0.730617 0.215366
0.970581 0.723842 0.226352
0.996704 0.716152 0.235782
1.000000 0.707790 0.243992
1.000000 0.698634 0.251377
1.000000 0.688777 0.257603
1.000000 0.677913 0.261265
0.000000 0.788785 0.364080
0.000000 0.790646 0.362432
0.000000 0.792691 0.359716
0.000000 0.794675 0.353216
0.000000 0.796445 0.341711
0.000000 0.797818 0.324590
0.000000 0.799252 0.300237
0.000000 0.800839 0.266972
0.000000 0.802884 0.218997
0.000000 0.805386 0.139864
0.127291 0.805356 0.136721
0.247379 0.805295 0.133974
0.327794 0.805020 0.130373
0.395758 0.804562 0.126741
0.456916 0.803891 0.121736
0.510887 0.800717 0.128328
0.561730 0.797543 0.135317
0.610285 0.794308 0.141817
0.657130 0.791287 0.148959
0.702602 0.788357 0.157290
0.746944 0.785672 0.165042
0.790402 0.782956 0.172671
0.833219 0.780667 0.180697
0.869047 0.773709 0.192569
0.903685 0.769619 0.205051
0.936370 0.765347 0.217014
0.966186 0.759274 0.227329
0.993347 0.752041 0.238041
1.000000 0.743801 0.247501
1.000000 0.734585 0.255192
1.000000 0.724453 0.261936
1.000000 0.713313 0.266209
0.000000 0.820371 0.379065
0.000000 0.821347 0.377020
0.000000 0.822171 0.374487
0.000000 0.823117 0.367773
0.000000 0.824033 0.356603
0.000000 0.824979 0.340612
0.000000 0.826139 0.318578
0.000000 0.827665 0.289433
0.000000 0.829770 0.248753
0.000000 0.832334 0.188876
0.000000 0.833707 0.148196
0.206332 0.833738 0.145785
0.297490 0.833524 0.142702
0.369604 0.832975 0.139864
0.432990 0.832242 0.135073
0.490578 0.830564 0.133913
0.542229 0.827390 0.140536
0.591547 0.824155 0.146395
0.638788 0.820951 0.152926
0.684535 0.817807 0.159731
0.728847 0.814664 0.166690
0.771939 0.811582 0.173983
0.813962 0.808469 0.181521
0.855375 0.805661 0.188479
0.891600 0.799435 0.197757
0.923461 0.793057 0.209934
0.955016 0.788296 0.221286
0.983886 0.781979 0.231144
1.000000 0.774411 0.241154
1.000000 0.765682 0.249668
1.000000 0.755734 0.256291
1.000000 0.744717 0.260838
0.000000 0.844572 0.389685
0.000000 0.845457 0.388159
0.000000 0.846372 0.385504
0.000000 0.847227 0.379065
0.000000 0.848081 0.369024
0.000000 0.848905 0.354009
0.000000 0.849790 0.334417
0.000000 0.851011 0.307622
0.000000 0.852750 0.271672
0.000000 0.854917 0.221927
0.000000 0.857176 0.154574
0.149233 0.857084 0.152529
0.260533 0.856840 0.149966
0.339208 0.856352 0.147189
0.405554 0.855741 0.143801
0.465736 0.855009 0.139376
0.519921 0.852934 0.142092
0.570245 0.850095 0.147982
0.618311 0.847288 0.154574
0.664637 0.844602 0.161257
0.709590 0.841917 0.168460
0.753353 0.839231 0.175845
0.795956 0.836637 0.182956
0.837583 0.833860 0.190707
0.874662 0.827573 0.193210
0.911864 0.822904 0.199619
0.941772 0.814694 0.211398
0.972381 0.809751 0.221988
1.000000 0.803067 0.231449
1.000000 0.794980 0.239811
1.000000 0.785672 0.247105
1.000000 0.775235 0.252811
0.000000 0.873503 0.403052
0.000000 0.874449 0.401770
0.000000 0.875120 0.399237
0.000000 0.875639 0.393347
0.000000 0.876066 0.383734
0.000000 0.876463 0.369726
0.000000 0.876982 0.351019
0.000000 0.877562 0.326513
0.000000 0.878569 0.294591
0.000000 0.879942 0.251194
0.000000 0.881651 0.186252
0.006592 0.881712 0.159365
0.219333 0.880949 0.156863
0.307103 0.879973 0.153750
0.377111 0.878691 0.149905
0.438972 0.877287 0.145876
0.495888 0.875853 0.141390
0.546777 0.872892 0.146090
0.595422 0.870146 0.151705
0.642359 0.867735 0.158297
0.687861 0.865476 0.165347
0.731899 0.863157 0.172427
0.774746 0.860563 0.179812
0.816190 0.857664 0.186770
0.856413 0.854368 0.192996
0.895720 0.851102 0.198917
0.934142 0.848020 0.203403
0.961913 0.837675 0.213230
0.991150 0.831968 0.222965
1.000000 0.824613 0.230961
1.000000 0.815885 0.238071
1.000000 0.805905 0.244694
0.000000 0.895750 0.411872
0.000000 0.896574 0.411017
0.000000 0.897246 0.408576
0.000000 0.897734 0.402930
0.000000 0.898100 0.394079
0.000000 0.898558 0.381140
0.000000 0.899077 0.363836
0.000000 0.899809 0.341344
0.000000 0.900877 0.312413
0.000000 0.902342 0.274022
0.000000 0.904112 0.220523
0.000000 0.905425 0.165255
0.167819 0.904906 0.162844
0.272404 0.904143 0.160586
0.348669 0.903105 0.157229
0.413428 0.901946 0.154055
0.472175 0.900694 0.149813
0.526238 0.899138 0.148379
0.575799 0.896574 0.154086
0.623316 0.894285 0.160159
0.669215 0.892088 0.166781
0.713741 0.889830 0.173678
0.756924 0.887358 0.180636
0.798642 0.884703 0.187137
0.839322 0.881712 0.193576
0.878874 0.878477 0.199283
0.917510 0.875181 0.205783
0.957580 0.873991 0.207645
0.983764 0.862119 0.216831
1.000000 0.855619 0.225498
1.000000 0.847654 0.233646
1.000000 0.837888 0.239689
0.000000 0.919432 0.421637
0.000000 0.920043 0.420417
0.000000 0.920378 0.418006
0.000000 0.920592 0.412848
0.000000 0.920745 0.404211
0.000000 0.920958 0.391577
0.000000 0.921263 0.375555
0.000000 0.921843 0.354772
0.000000 0.922759 0.327916
0.000000 0.924071 0.293645
0.000000 0.925719 0.247349
0.000000 0.927825 0.178347
0.078767 0.927581 0.167086
0.231876 0.926909 0.164828
0.316838 0.925933 0.161715
0.385809 0.924743 0.158877
0.446662 0.923491 0.154757
0.502861 0.922271 0.151064
0.554284 0.920439 0.152560
0.602564 0.918212 0.158450
0.648951 0.916075 0.164645
0.693812 0.913909 0.171054
0.737209 0.911620 0.177127
0.779355 0.909117 0.183413
0.820279 0.906340 0.189487
0.860105 0.903319 0.195407
0.899046 0.900237 0.201358
0.937133 0.897002 0.207523
0.978576 0.897459 0.207004
1.000000 0.884367 0.214908
1.000000 0.877256 0.222782
1.000000 0.868101 0.228550
0.000000 0.941222 0.429480
0.000000 0.941619 0.428107
0.000000 0.941924 0.425910
0.000000 0.942199 0.420783
0.000000 0.942596 0.412879
0.000000 0.943206 0.401678
0.000000 0.944335 0.386877
0.000000 0.945800 0.368292
0.000000 0.947662 0.344610
0.000000 0.949950 0.314519
0.000000 0.952514 0.274784
0.000000 0.955322 0.219181
0.000000 0.956817 0.178408
0.190585 0.956695 0.177523
0.289250 0.956146 0.176364
0.363256 0.955138 0.173404
0.427008 0.953887 0.170962
0.484718 0.952667 0.167422
0.538903 0.951537 0.164431
0.588128 0.949432 0.169375
0.635126 0.947234 0.175021
0.680476 0.945037 0.180667
0.724208 0.942626 0.186679
0.766598 0.940093 0.192416
0.807858 0.937285 0.198215
0.847959 0.934325 0.203708
0.887144 0.931273 0.208774
0.925505 0.928130 0.214572
0.963287 0.925109 0.220096
1.000000 0.927153 0.218357
1.000000 0.912871 0.224521
1.000000 0.902831 0.230991
0.000000 0.969299 0.441749
0.000000 0.969543 0.440375
0.000000 0.969635 0.438117
0.000000 0.969726 0.433112
0.000000 0.969848 0.425391
0.000000 0.970123 0.414710
0.000000 0.970642 0.400580
0.000000 0.971496 0.382574
0.000000 0.972595 0.360357
0.000000 0.974060 0.332219
0.000000 0.975677 0.295750
0.000000 0.977600 0.246372
0.000000 0.979339 0.180789
0.119600 0.978729 0.179049
0.249516 0.977844 0.176883
0.331762 0.976745 0.174777
