其他预设/【231】淡彩糖果色预设10款/1.LUT预设（视频调色-PR-AE-PS-FCPX-达芬奇用）/淡彩糖果色__-2.cube
# Created by Adobe Lightroom plugin Export LUT (1.17.0)
# www.johnrellis.com/lightroom/exportlut.htm
# Preset: 淡彩糖果色[素锦印象]-2
# Color profile: /Library/Application Support/Adobe/Color/Profiles/Recommended/AdobeRGB1998.icc
LUT_3D_SIZE 32
0.091402 0.091402 0.091402
0.135805 0.089113 0.093568
0.174258 0.086244 0.096376
0.252811 0.075319 0.101961
0.338354 0.042969 0.110201
0.410040 0.000000 0.118502
0.473548 0.000000 0.126986
0.532158 0.000000 0.136446
0.588098 0.000000 0.146914
0.641230 0.000000 0.158114
0.689082 0.000000 0.171603
0.731563 0.000000 0.186252
0.769070 0.000000 0.201450
0.801968 0.000000 0.218051
0.830747 0.000000 0.234409
0.856321 0.000000 0.249729
0.879332 0.000000 0.264317
0.900572 0.073945 0.278813
0.930999 0.123873 0.300298
0.955962 0.158694 0.319738
0.977203 0.186984 0.337560
0.995514 0.211215 0.353704
1.000000 0.231662 0.368078
1.000000 0.249699 0.381109
1.000000 0.265293 0.392828
1.000000 0.280186 0.404242
1.000000 0.295445 0.415900
1.000000 0.311620 0.428229
1.000000 0.328893 0.441566
1.000000 0.347936 0.456123
1.000000 0.368658 0.471992
1.000000 0.390814 0.488899
0.088502 0.126497 0.090608
0.132326 0.123415 0.093080
0.171420 0.129244 0.095277
0.249943 0.130190 0.100740
0.334813 0.122255 0.108675
0.405615 0.105928 0.117067
0.468574 0.082124 0.125673
0.526329 0.042725 0.135256
0.581781 0.000000 0.145846
0.634913 0.000000 0.157259
0.682673 0.000000 0.170321
0.725277 0.000000 0.184817
0.762905 0.000000 0.200504
0.795987 0.000000 0.216922
0.825071 0.000000 0.232639
0.850919 0.000000 0.248081
0.874174 0.065431 0.262455
0.896513 0.098817 0.277104
0.925689 0.135164 0.297429
0.950134 0.164126 0.315862
0.971344 0.189090 0.332830
0.989807 0.210910 0.348638
1.000000 0.229923 0.362737
1.000000 0.246738 0.375677
1.000000 0.261875 0.387366
1.000000 0.276402 0.398810
1.000000 0.291203 0.410468
1.000000 0.307408 0.423133
1.000000 0.324437 0.436500
1.000000 0.343328 0.451118
1.000000 0.363684 0.466896
1.000000 0.385595 0.483742
0.084901 0.158480 0.092226
0.134096 0.156771 0.090883
0.170352 0.154238 0.095644
0.246555 0.174716 0.100343
0.330205 0.171603 0.107515
0.400732 0.160037 0.115877
0.462989 0.144289 0.124483
0.520500 0.126650 0.134432
0.575830 0.107515 0.144686
0.628901 0.084840 0.156771
0.677119 0.060517 0.169772
0.720150 0.023499 0.184451
0.758175 0.009491 0.200320
0.791684 0.034333 0.216556
0.821042 0.067903 0.232456
0.847288 0.086305 0.247349
0.870726 0.106752 0.261784
0.894163 0.126375 0.276738
0.922545 0.152712 0.296269
0.946685 0.176516 0.314122
0.967926 0.197910 0.330816
0.986603 0.217227 0.346288
1.000000 0.234775 0.360357
1.000000 0.250187 0.373083
1.000000 0.264378 0.384863
1.000000 0.277989 0.396124
1.000000 0.292271 0.407874
1.000000 0.307836 0.420478
1.000000 0.324498 0.433967
1.000000 0.343053 0.448615
1.000000 0.362921 0.464393
1.000000 0.384405 0.481178
0.070314 0.221134 0.088014
0.133272 0.220401 0.086763
0.180392 0.217411 0.089021
0.241733 0.213993 0.099397
0.324987 0.236790 0.104494
0.395514 0.231785 0.112520
0.457343 0.218112 0.122408
0.514611 0.204135 0.133181
0.569451 0.190127 0.144015
0.622461 0.176608 0.156558
0.670649 0.164309 0.170077
0.713832 0.154299 0.185061
0.751919 0.149081 0.201022
0.785702 0.147494 0.217380
0.815640 0.148196 0.232517
0.842161 0.153079 0.247501
0.866026 0.159609 0.261753
0.891234 0.170352 0.277379
0.918059 0.186374 0.295323
0.941222 0.201968 0.312108
0.962005 0.217319 0.327794
0.980652 0.232151 0.342687
0.997375 0.246708 0.356664
1.000000 0.260624 0.369940
1.000000 0.273960 0.382391
1.000000 0.287358 0.394781
1.000000 0.301305 0.407294
1.000000 0.316533 0.420447
1.000000 0.332433 0.434058
1.000000 0.349584 0.448493
1.000000 0.367956 0.463691
1.000000 0.387671 0.479744
0.033845 0.283513 0.086793
0.121889 0.282536 0.083986
0.176425 0.280766 0.083864
0.241032 0.273869 0.091279
0.305821 0.268498 0.103517
0.381689 0.286656 0.109468
0.446418 0.289128 0.119570
0.503258 0.275944 0.131014
0.557885 0.263127 0.143130
0.610590 0.252018 0.156680
0.659480 0.240726 0.170565
0.703243 0.231418 0.186221
0.742275 0.223758 0.202213
0.777096 0.218509 0.218173
0.808194 0.215122 0.233463
0.836027 0.213962 0.248173
0.861082 0.214633 0.262516
0.889097 0.220829 0.279454
0.915160 0.229343 0.296696
0.937865 0.238682 0.312566
0.958251 0.248508 0.327611
0.976806 0.258976 0.341894
0.993622 0.269505 0.355474
1.000000 0.280308 0.368597
1.000000 0.291234 0.381170
1.000000 0.302556 0.393500
1.000000 0.314824 0.406104
1.000000 0.327825 0.419074
1.000000 0.342107 0.432563
1.000000 0.357824 0.446906
1.000000 0.374792 0.461952
1.000000 0.393317 0.477913
0.000000 0.337377 0.087922
0.105562 0.336736 0.083497
0.162325 0.335027 0.082826
0.235966 0.330755 0.083406
0.298344 0.320897 0.096376
0.359869 0.314977 0.109621
0.431586 0.332158 0.118593
0.495155 0.344945 0.130983
0.549310 0.332189 0.144747
0.602045 0.320958 0.159091
0.651148 0.310399 0.173800
0.695430 0.300053 0.189639
0.734951 0.291020 0.205570
0.770535 0.283177 0.221103
0.802365 0.276738 0.235874
0.830961 0.272190 0.250706
0.857023 0.269352 0.265141
0.887541 0.272526 0.282963
0.913054 0.276310 0.299535
0.935821 0.280919 0.315068
0.956451 0.286900 0.329992
0.975433 0.293675 0.344427
1.000000 0.339879 0.392493
1.000000 0.348943 0.405859
1.000000 0.357488 0.418036
1.000000 0.366125 0.429603
1.000000 0.375311 0.440955
1.000000 0.385443 0.452705
1.000000 0.396735 0.464912
1.000000 0.409522 0.477943
1.000000 0.423407 0.491554
1.000000 0.437995 0.505333
0.000000 0.396185 0.090364
0.086488 0.395178 0.084077
0.150088 0.393713 0.084108
0.228367 0.390509 0.085145
0.299748 0.383368 0.092317
0.359747 0.372290 0.107271
0.419074 0.366491 0.123415
0.490578 0.384771 0.135653
0.554498 0.399176 0.152041
0.611597 0.397559 0.168093
0.660700 0.385595 0.184237
0.704829 0.373724 0.200168
0.743557 0.362280 0.216281
0.778134 0.351507 0.231205
0.808591 0.341833 0.245487
0.835630 0.333593 0.259220
0.866117 0.330510 0.275853
0.895506 0.330144 0.293584
0.920745 0.330968 0.310307
0.944152 0.333501 0.326879
0.966461 0.338506 0.343877
0.987640 0.345525 0.361303
1.000000 0.354498 0.378637
1.000000 0.363958 0.395422
1.000000 0.373602 0.410956
1.000000 0.382208 0.424598
1.000000 0.390600 0.437171
1.000000 0.399176 0.449165
1.000000 0.408728 0.461463
1.000000 0.419562 0.474189
1.000000 0.431434 0.487373
1.000000 0.444556 0.501091
0.000000 0.436683 0.099458
0.067262 0.435981 0.092775
0.135348 0.434577 0.093111
0.212863 0.431769 0.093690
0.289616 0.427466 0.095064
0.349310 0.417914 0.108919
0.403998 0.406775 0.124605
0.459358 0.402228 0.141634
0.528923 0.421698 0.156039
0.592126 0.437537 0.172396
0.649165 0.446143 0.189914
0.693965 0.433570 0.205173
0.733547 0.420905 0.220249
0.768856 0.408545 0.234623
0.799985 0.397040 0.248722
0.830320 0.387976 0.263066
0.862882 0.383642 0.280522
0.890379 0.379278 0.296513
0.914794 0.376287 0.311925
0.937835 0.375280 0.327703
0.959960 0.376593 0.343908
0.981170 0.379919 0.360449
1.000000 0.385107 0.377020
1.000000 0.391241 0.393286
1.000000 0.397589 0.408240
1.000000 0.403815 0.421729
1.000000 0.409674 0.433997
1.000000 0.416114 0.445899
1.000000 0.423926 0.458228
1.000000 0.432807 0.470863
1.000000 0.443275 0.484199
1.000000 0.454719 0.497871
0.000000 0.475135 0.113893
0.058381 0.474556 0.107057
0.126497 0.473487 0.107851
0.201328 0.471077 0.109102
0.275364 0.467506 0.110231
0.341070 0.461219 0.116304
0.395514 0.451392 0.130037
0.446052 0.440955 0.144137
0.499214 0.437629 0.160800
0.568139 0.458869 0.175631
0.629206 0.474800 0.192569
0.684047 0.487984 0.210575
0.725582 0.478248 0.225864
0.761440 0.464546 0.239780
0.794339 0.452155 0.253910
0.829862 0.444556 0.270695
0.860075 0.436347 0.286290
0.886381 0.428962 0.300969
0.910185 0.422827 0.315526
0.932982 0.418830 0.330388
0.955047 0.417182 0.345830
0.976226 0.417456 0.361730
0.995850 0.419532 0.377783
1.000000 0.422675 0.393347
1.000000 0.426459 0.407965
1.000000 0.429755 0.421027
1.000000 0.433478 0.433143
1.000000 0.437720 0.444770
1.000000 0.443275 0.456733
1.000000 0.450202 0.469154
1.000000 0.458534 0.482155
1.000000 0.467964 0.495430
0.000000 0.511711 0.126986
0.056977 0.511162 0.121706
0.121370 0.510063 0.121614
0.192813 0.508019 0.122499
0.263371 0.504875 0.123995
0.331853 0.500755 0.125734
0.387610 0.492683 0.136080
0.438239 0.483040 0.148959
0.485695 0.473182 0.162631
0.537163 0.471443 0.178347
0.604700 0.493263 0.193484
0.661433 0.507378 0.210513
0.711910 0.518791 0.228763
0.755367 0.519280 0.245853
0.794797 0.509789 0.262547
0.828672 0.499367 0.278294
0.858366 0.488991 0.293065
0.884520 0.479286 0.307500
0.908141 0.471046 0.321691
0.930449 0.464332 0.335760
0.951659 0.459602 0.349981
0.971740 0.456550 0.364355
0.990417 0.454841 0.378485
1.000000 0.454353 0.392493
1.000000 0.454719 0.405829
1.000000 0.455665 0.418402
1.000000 0.457282 0.430396
1.000000 0.460090 0.442451
1.000000 0.464424 0.455116
1.000000 0.470130 0.468116
1.000000 0.477363 0.481697
1.000000 0.485847 0.495644
0.000000 0.544457 0.140932
0.051087 0.544244 0.134432
0.116793 0.543481 0.134493
0.184878 0.541894 0.135348
0.252964 0.539544 0.136568
0.319127 0.536553 0.138308
0.381201 0.532067 0.142702
0.431464 0.523949 0.154086
0.479744 0.515007 0.166201
0.525261 0.505882 0.179538
0.575555 0.505455 0.194705
0.639551 0.525780 0.209903
0.696864 0.541955 0.229679
0.748318 0.555291 0.250156
0.792386 0.564446 0.269993
0.824765 0.551446 0.284794
0.853605 0.538598 0.298680
0.879240 0.526726 0.312322
0.902678 0.516045 0.325597
0.924956 0.507225 0.338903
0.946227 0.500389 0.352728
0.966522 0.495125 0.366522
0.985473 0.491524 0.380591
1.000000 0.488960 0.394232
1.000000 0.487221 0.407263
1.000000 0.485786 0.419257
1.000000 0.485206 0.430732
1.000000 0.485786 0.442298
1.000000 0.487831 0.454322
1.000000 0.491493 0.466926
1.000000 0.496742 0.480293
1.000000 0.503502 0.494148
0.000000 0.578576 0.152590
0.047730 0.578485 0.145968
0.113283 0.577813 0.146517
0.178378 0.576562 0.147036
0.244480 0.574762 0.148013
0.308659 0.572381 0.149691
0.371923 0.569574 0.151492
0.426215 0.563806 0.159091
0.474678 0.556085 0.170535
0.521172 0.547875 0.182010
0.565911 0.540032 0.195132
0.621088 0.545678 0.212650
0.719936 0.596490 0.247562
0.772213 0.609033 0.271000
0.816434 0.617609 0.293675
0.853574 0.623621 0.315251
0.881559 0.614191 0.330968
0.904540 0.598505 0.343694
0.925353 0.584344 0.356054
0.945068 0.572351 0.368536
0.963745 0.562188 0.380865
0.981262 0.553918 0.393347
0.997436 0.546746 0.405188
1.000000 0.541039 0.417029
1.000000 0.536248 0.428321
1.000000 0.532464 0.439185
1.000000 0.529442 0.449470
1.000000 0.527459 0.459571
1.000000 0.526970 0.470222
1.000000 0.528038 0.481544
1.000000 0.530755 0.493568
1.000000 0.534874 0.506096
0.000000 0.623804 0.166384
0.040955 0.623651 0.159518
0.110658 0.622492 0.159457
0.175387 0.620417 0.159915
0.240146 0.617609 0.160586
0.302800 0.614130 0.161410
0.364660 0.610651 0.162905
0.424750 0.606958 0.165621
0.473487 0.600061 0.176028
0.525200 0.598077 0.188846
0.578149 0.597650 0.203799
0.630152 0.596918 0.219608
0.684657 0.602075 0.240330
0.747158 0.622736 0.263218
0.795621 0.633692 0.286656
0.835752 0.640558 0.308965
0.869169 0.644709 0.329625
0.896086 0.642176 0.346868
0.917113 0.626307 0.358770
0.936950 0.612299 0.370336
0.955779 0.600336 0.382147
0.973602 0.589990 0.393835
0.990021 0.580987 0.405280
1.000000 0.573266 0.416419
1.000000 0.566552 0.427070
1.000000 0.560815 0.437354
1.000000 0.556054 0.447272
1.000000 0.552453 0.457313
1.000000 0.550195 0.467689
1.000000 0.549859 0.479103
1.000000 0.550958 0.491035
1.000000 0.553826 0.503960
0.000000 0.651606 0.176852
0.047272 0.651545 0.168978
0.106813 0.650599 0.169162
0.169162 0.648859 0.169650
0.231540 0.646265 0.169863
0.292546 0.643214 0.170871
0.353033 0.641199 0.172488
0.414679 0.641871 0.175570
0.471046 0.640986 0.182895
0.521843 0.638666 0.194797
0.572473 0.636561 0.208103
0.622614 0.634546 0.222202
0.671107 0.631891 0.237217
0.719722 0.633295 0.257176
0.774319 0.648829 0.279606
0.816770 0.656184 0.301305
0.851957 0.660243 0.322148
0.881865 0.662715 0.341711
0.908110 0.664790 0.360479
0.928801 0.651637 0.372564
0.948089 0.638209 0.384070
0.966339 0.626490 0.395514
0.983246 0.615961 0.406561
0.999023 0.606775 0.417426
1.000000 0.598566 0.427832
1.000000 0.591302 0.437903
1.000000 0.584955 0.447486
1.000000 0.579858 0.457252
1.000000 0.576257 0.467628
1.000000 0.574365 0.478859
1.000000 0.574243 0.491096
1.000000 0.575647 0.503960
0.000000 0.682826 0.186984
0.049958 0.683345 0.180056
0.105806 0.682918 0.180179
0.166659 0.682277 0.180636
0.227787 0.681086 0.181582
0.287602 0.679683 0.182742
0.346960 0.678431 0.184695
0.406256 0.677363 0.186923
0.465644 0.676844 0.190280
0.515648 0.674006 0.200320
0.564538 0.671260 0.212314
0.613275 0.668635 0.225315
0.660670 0.665553 0.239048
0.705959 0.661280 0.252598
0.749142 0.659602 0.272496
0.796994 0.670771 0.293797
0.834836 0.675715 0.314672
0.866545 0.678157 0.334386
0.894408 0.679927 0.353491
0.919432 0.681758 0.371862
0.940703 0.675807 0.386542
0.959167 0.662593 0.397314
0.976379 0.650629 0.407813
0.992523 0.640070 0.418524
1.000000 0.630610 0.428840
1.000000 0.622339 0.438941
1.000000 0.615259 0.449195
1.000000 0.609735 0.460090
1.000000 0.605707 0.471534
1.000000 0.603510 0.484016
1.000000 0.603021 0.497444
1.000000 0.603906 0.511437
0.032563 0.718288 0.200534
0.064637 0.718837 0.193179
0.109010 0.718563 0.193179
0.166323 0.717830 0.193790
0.225498 0.716701 0.194522
0.284001 0.715328 0.195682
0.341650 0.714137 0.197299
0.399420 0.713100 0.199527
0.457527 0.712154 0.202518
0.511833 0.710384 0.208225
0.558953 0.706447 0.218784
0.605341 0.702205 0.230198
0.650233 0.697292 0.242130
0.693355 0.691432 0.254093
0.734005 0.684596 0.265934
0.771695 0.679805 0.284672
0.814664 0.688289 0.305272
0.849760 0.692287 0.325719
0.880186 0.694728 0.345892
0.907530 0.697078 0.365606
0.932219 0.699428 0.384527
0.954131 0.700435 0.402472
0.971923 0.687617 0.413245
0.988525 0.676051 0.423804
1.000000 0.665614 0.434211
1.000000 0.656397 0.444617
1.000000 0.648310 0.454963
1.000000 0.641688 0.465858
1.000000 0.636500 0.477363
1.000000 0.632685 0.489265
1.000000 0.630335 0.501946
1.000000 0.629145 0.514855
0.063447 0.746151 0.211673
0.071992 0.746334 0.203555
0.112032 0.745785 0.204074
0.165591 0.744900 0.204166
0.221592 0.743618 0.204929
0.277623 0.742061 0.205905
0.333227 0.740597 0.207431
0.388891 0.739132 0.209201
0.444678 0.737789 0.211643
0.500481 0.736599 0.214664
0.548516 0.733394 0.223239
0.593683 0.729335 0.233585
0.637781 0.724697 0.244755
0.680293 0.719173 0.256077
0.720729 0.712520 0.267216
0.758236 0.704524 0.278355
0.792294 0.698390 0.296635
0.831571 0.705074 0.316838
0.864683 0.708522 0.336858
0.893675 0.710811 0.356817
0.919890 0.713008 0.376226
0.943511 0.715084 0.395056
0.964508 0.717098 0.413184
0.982238 0.709194 0.425940
0.998230 0.697810 0.436286
1.000000 0.687678 0.446754
1.000000 0.678798 0.457465
1.000000 0.671290 0.468544
1.000000 0.665156 0.480201
1.000000 0.660456 0.492653
1.000000 0.657069 0.505455
1.000000 0.654871 0.518730
0.080049 0.772152 0.222843
0.086610 0.772976 0.215457
0.135042 0.796628 0.228458
0.181033 0.795621 0.228672
0.233158 0.794034 0.229221
0.286168 0.791867 0.229740
0.340002 0.789395 0.230838
0.393866 0.786862 0.232029
0.448157 0.784482 0.234134
0.502617 0.782284 0.236912
0.555047 0.779599 0.241001
0.599023 0.774533 0.250553
0.641810 0.768673 0.260227
0.683406 0.762112 0.270207
0.723018 0.754757 0.280186
0.760647 0.746548 0.289891
0.795499 0.737057 0.300481
0.825772 0.728847 0.318486
0.860533 0.732662 0.338567
0.890349 0.734432 0.358618
0.916564 0.735317 0.377996
0.940337 0.736385 0.397070
0.961669 0.737392 0.415320
0.980468 0.738277 0.432563
0.996612 0.734768 0.446479
1.000000 0.722469 0.455055
1.000000 0.711421 0.463661
1.000000 0.701869 0.473060
1.000000 0.694057 0.483711
1.000000 0.688075 0.495735
1.000000 0.683406 0.508385
1.000000 0.679774 0.521233
0.099306 0.801877 0.236088
0.106477 0.805142 0.231510
0.132570 0.808042 0.231937
0.177371 0.809995 0.234043
0.227634 0.810758 0.235691
0.279149 0.809903 0.237156
0.330755 0.808042 0.238071
0.382574 0.805692 0.239261
0.434791 0.803464 0.241032
0.486793 0.801144 0.243351
0.539208 0.798886 0.245945
0.585443 0.795041 0.252476
0.627131 0.789425 0.261601
0.667628 0.783169 0.270481
0.706569 0.776089 0.279637
0.743893 0.768276 0.288762
0.779385 0.759915 0.297856
0.812039 0.750210 0.308324
0.840787 0.742306 0.326482
0.873686 0.745754 0.346899
0.902464 0.747646 0.367163
0.928283 0.749142 0.387152
0.951415 0.750362 0.406378
0.971893 0.751339 0.424781
0.989807 0.751949 0.441840
1.000000 0.752529 0.457893
1.000000 0.741970 0.467353
1.000000 0.731655 0.476936
1.000000 0.723018 0.487648
1.000000 0.715938 0.499489
1.000000 0.710109 0.511894
1.000000 0.705257 0.524529
0.105837 0.820920 0.243137
0.113252 0.823789 0.239231
0.134401 0.826505 0.238865
0.176028 0.828275 0.240726
0.223850 0.828977 0.242374
0.272923 0.828183 0.243595
0.322637 0.826444 0.244633
0.372381 0.824308 0.245670
0.422553 0.822202 0.247196
0.473030 0.819974 0.249119
0.523522 0.817868 0.251835
0.573632 0.815396 0.254765
0.614221 0.810178 0.262974
0.653956 0.804349 0.271641
0.692378 0.797726 0.280156
0.729335 0.790402 0.288762
0.764828 0.782559 0.297185
0.798947 0.774502 0.306157
0.830106 0.764950 0.317082
0.857694 0.757504 0.335546
0.888731 0.760403 0.356542
0.916442 0.762448 0.377508
0.941314 0.763973 0.397772
0.963317 0.765011 0.417029
0.982574 0.765469 0.434943
0.999573 0.765713 0.451637
1.000000 0.766079 0.467628
1.000000 0.760830 0.480262
1.000000 0.751186 0.490730
1.000000 0.742947 0.502068
1.000000 0.736019 0.514122
1.000000 0.729946 0.526390
0.110842 0.839506 0.249760
0.117372 0.842222 0.246281
0.135256 0.844755 0.244999
0.174838 0.846433 0.246921
0.220279 0.847044 0.248508
0.267308 0.846281 0.249607
0.314855 0.844663 0.250401
0.362768 0.842588 0.251286
0.411383 0.840391 0.252567
0.460029 0.838163 0.254307
0.508690 0.835904 0.256352
0.557549 0.833402 0.258854
0.601801 0.829587 0.263706
0.640772 0.824216 0.271916
0.678889 0.818387 0.280339
0.716121 0.812192 0.288914
0.752590 0.805936 0.298222
0.788205 0.799771 0.307927
0.823117 0.793851 0.318212
0.854765 0.786069 0.331670
0.882292 0.780026 0.352453
0.912322 0.783169 0.376043
0.938628 0.785153 0.398810
0.962219 0.786709 0.420508
0.982696 0.787503 0.440742
1.000000 0.787839 0.459571
1.000000 0.788022 0.477455
1.000000 0.788510 0.494789
1.000000 0.788022 0.511009
1.000000 0.778805 0.521935
1.000000 0.770657 0.533532
1.000000 0.763516 0.545495
0.127626 0.868284 0.263127
0.131899 0.869535 0.259190
0.143771 0.870420 0.256413
0.178622 0.870542 0.257237
0.220676 0.870024 0.258030
0.265354 0.868772 0.258793
0.311101 0.867094 0.259403
0.357610 0.865354 0.260441
0.404883 0.863645 0.261784
0.452522 0.861967 0.263706
0.500267 0.860227 0.266209
0.548119 0.858122 0.268681
0.595392 0.855436 0.271244
0.634699 0.850675 0.278447
0.672297 0.845182 0.286473
0.709255 0.839292 0.294743
0.745327 0.833219 0.303563
0.780728 0.827115 0.312627
0.815335 0.821164 0.322423
0.849241 0.815335 0.332677
0.878660 0.806638 0.346380
0.903593 0.799496 0.367041
0.930236 0.800595 0.389960
0.953460 0.800717 0.411780
0.974975 0.801175 0.432349
0.993927 0.801328 0.451942
1.000000 0.801358 0.470771
1.000000 0.801602 0.489113
1.000000 0.802090 0.506950
1.000000 0.802701 0.524193
1.000000 0.796292 0.536889
1.000000 0.788296 0.548882
0.130892 0.886076 0.268620
0.135073 0.887327 0.265141
0.143954 0.888334 0.261936
0.177920 0.888518 0.262913
0.217807 0.888029 0.263645
0.260563 0.886748 0.264012
0.304540 0.885008 0.264408
0.349279 0.883085 0.265019
0.395178 0.881163 0.266209
0.441321 0.879393 0.267826
0.487770 0.877562 0.269963
0.534051 0.875517 0.272251
0.580041 0.872984 0.274571
0.623560 0.869596 0.278660
0.660700 0.864744 0.286534
0.697383 0.859556 0.294926
0.733516 0.854276 0.303685
0.769070 0.848936 0.312963
0.803983 0.843717 0.323003
0.838346 0.838651 0.333593
0.872007 0.833799 0.344732
0.900328 0.825284 0.360052
0.924041 0.818296 0.381933
0.948699 0.818662 0.405737
0.964935 0.812802 0.419898
0.985290 0.812863 0.439979
1.000000 0.812863 0.459754
1.000000 0.812924 0.478798
1.000000 0.813077 0.497383
1.000000 0.813382 0.515557
1.000000 0.813962 0.533471
1.000000 0.811795 0.549798
0.146029 0.911894 0.281193
0.150240 0.913207 0.278416
0.156619 0.913970 0.274632
0.185855 0.913725 0.275090
0.222416 0.912688 0.275212
0.262089 0.911009 0.275029
0.303685 0.908843 0.274937
0.346532 0.906310 0.274815
0.390295 0.903593 0.275029
0.434333 0.900938 0.275669
0.478737 0.898039 0.276524
0.523186 0.895293 0.277867
0.567620 0.892241 0.279362
0.611688 0.888731 0.280858
0.649622 0.883635 0.286107
0.684901 0.877806 0.293095
0.719722 0.871855 0.300694
0.754269 0.866209 0.309087
0.788815 0.861112 0.318456
0.823270 0.856657 0.329015
0.857328 0.852506 0.340520
0.890623 0.848386 0.352392
0.917082 0.839353 0.368505
0.938781 0.831510 0.389929
0.960601 0.830106 0.412390
0.979278 0.827817 0.433051
0.998138 0.827298 0.452949
1.000000 0.826596 0.472053
1.000000 0.826108 0.490791
1.000000 0.825803 0.509148
1.000000 0.826047 0.528099
1.000000 0.826474 0.546929
0.145174 0.927703 0.284550
0.149294 0.928954 0.282200
0.153780 0.929747 0.277897
0.182223 0.929534 0.278355
0.217716 0.928588 0.278477
0.256382 0.927123 0.278447
0.297215 0.925261 0.278447
0.338964 0.923125 0.278477
0.381811 0.920897 0.278935
0.425177 0.918730 0.279820
0.468696 0.916411 0.281010
0.512718 0.914122 0.282567
0.556451 0.911620 0.284428
0.599908 0.908659 0.286137
0.641871 0.905028 0.288609
0.677028 0.899992 0.295903
0.711879 0.894743 0.303655
0.746487 0.889677 0.312139
0.780972 0.885039 0.321691
0.815335 0.880827 0.332250
0.849332 0.876860 0.343633
0.882658 0.872923 0.355627
0.914977 0.868803 0.367529
0.939269 0.858762 0.384222
0.958831 0.850187 0.405982
0.978271 0.847471 0.428504
0.994842 0.844266 0.449714
1.000000 0.843381 0.470222
1.000000 0.842527 0.490120
1.000000 0.841917 0.509728
1.000000 0.841672 0.529778
1.000000 0.841428 0.549310
0.148684 0.946319 0.290715
0.152468 0.947173 0.288060
0.155489 0.947539 0.283482
0.180911 0.946990 0.283116
0.214328 0.945769 0.282750
0.251530 0.944091 0.282353
0.290745 0.942107 0.281834
0.331548 0.939940 0.281682
0.373480 0.937774 0.281987
0.415717 0.935729 0.282719
0.458564 0.933623 0.283848
0.501610 0.931670 0.285588
0.544732 0.929442 0.287449
0.587579 0.926787 0.289311
0.629786 0.923613 0.290867
0.667659 0.919402 0.295598
0.702113 0.914488 0.303258
0.736355 0.909697 0.311589
0.770596 0.905272 0.320897
0.804746 0.901244 0.331304
0.838590 0.897490 0.342596
0.871885 0.893767 0.354528
0.904295 0.889891 0.366613
0.935668 0.885801 0.378698
0.957824 0.874754 0.396033
0.975525 0.865507 0.417914
0.992950 0.861845 0.440681
1.000000 0.857725 0.461738
1.000000 0.856260 0.482460
1.000000 0.855497 0.503471
1.000000 0.854734 0.523980
1.000000 0.853849 0.544030
0.146181 0.962280 0.293339
0.149172 0.962829 0.290715
0.152071 0.963134 0.286320
0.175448 0.962768 0.285252
0.209323 0.962036 0.285344
0.246769 0.961212 0.285801
0.286870 0.960632 0.287022
0.328283 0.960174 0.288823
0.370947 0.959869 0.291417
0.414099 0.959686 0.294499
0.457557 0.959442 0.298070
0.501030 0.958953 0.301823
0.544366 0.958038 0.305577
0.587243 0.956512 0.308995
0.629541 0.954223 0.311864
0.670985 0.951171 0.314000
0.705562 0.946899 0.322057
0.739742 0.942565 0.330724
0.773922 0.938476 0.340551
0.807919 0.934600 0.351171
0.841520 0.930907 0.362799
0.874601 0.927214 0.374884
0.906828 0.923339 0.387182
0.938109 0.919280 0.399512
0.968292 0.915038 0.411933
0.987427 0.902495 0.430396
1.000000 0.891936 0.452918
1.000000 0.886442 0.476020
1.000000 0.881102 0.497627
1.000000 0.878538 0.519005
1.000000 0.876432 0.539788
1.000000 0.874052 0.559442
0.170382 0.988525 0.310155
0.172702 0.988861 0.307713
0.174929 0.988830 0.303593
0.192416 0.988281 0.301335
0.221714 0.987243 0.300877
0.255314 0.985992 0.300694
0.291936 0.984741 0.300877
0.330449 0.983490 0.301396
0.370397 0.982238 0.302525
0.411261 0.980987 0.304326
0.452461 0.979583 0.306126
0.493935 0.978088 0.308354
0.535393 0.976318 0.310704
0.576715 0.974121 0.313024
0.617700 0.971496 0.315007
0.658381 0.968536 0.317021
