其他预设/【231】淡彩糖果色预设10款/1.LUT预设（视频调色-PR-AE-PS-FCPX-达芬奇用）/淡彩糖果色__-6.cube
# Created by Adobe Lightroom plugin Export LUT (1.17.0)
# www.johnrellis.com/lightroom/exportlut.htm
# Preset: 淡彩糖果色[素锦印象]-6
# Color profile: /Library/Application Support/Adobe/Color/Profiles/Recommended/AdobeRGB1998.icc
LUT_3D_SIZE 5
DOMAIN_MIN 0.000000 0.000000 0.000000
DOMAIN_MAX 0.903226 0.903226 0.903226
0.088136 0.088136 0.088136
0.473243 0.000000 0.118441
0.840238 0.000000 0.172152
1.000000 0.205570 0.315190
1.000000 0.455665 0.480751
0.141482 0.329412 0.130251
0.453620 0.363409 0.000000
0.793057 0.358953 0.177890
1.000000 0.366888 0.320928
1.000000 0.536797 0.503410
0.302403 0.657954 0.226291
0.475105 0.620264 0.314336
0.864134 0.688136 0.000000
0.988403 0.634699 0.380560
1.000000 0.658259 0.545251
0.459113 0.892088 0.412604
0.581781 0.872801 0.478309
0.768948 0.881590 0.303471
1.000000 0.814298 0.000000
1.000000 0.844327 0.630671
0.578637 1.000000 0.588891
0.652186 1.000000 0.623255
0.801663 0.959289 0.707210
0.942535 0.994446 0.261418
1.000000 0.893675 0.000000
0.000000 0.224674 0.336950
0.483680 0.000000 0.398199
0.818173 0.000000 0.314977
1.000000 0.255924 0.361669
1.000000 0.409491 0.469764
0.000000 0.407111 0.356756
0.406226 0.370184 0.331334
0.792874 0.371313 0.326177
0.997864 0.387091 0.363043
1.000000 0.478401 0.486732
0.245274 0.706691 0.333837
0.503380 0.658839 0.417609
0.826566 0.667903 0.077302
0.960845 0.628382 0.382666
1.000000 0.652918 0.543206
0.481697 0.895842 0.459266
0.602808 0.876371 0.519249
0.771450 0.881712 0.343481
1.000000 0.816922 0.000000
1.000000 0.841001 0.628870
0.570672 1.000000 0.585321
0.645136 1.000000 0.619471
0.810391 0.969055 0.720546
0.940307 0.997925 0.308965
1.000000 0.895903 0.000000
0.000000 0.374090 0.584436
0.000000 0.239719 0.674098
0.858824 0.000000 0.710262
1.000000 0.099794 0.556878
1.000000 0.462074 0.616266
0.000000 0.467475 0.605066
0.124056 0.414893 0.624628
0.844175 0.338689 0.679683
1.000000 0.412909 0.592401
1.000000 0.559197 0.654353
0.000000 0.772824 0.675196
0.292119 0.765591 0.670222
0.741207 0.692897 0.642512
0.951934 0.676661 0.637690
1.000000 0.676204 0.651972
0.308843 0.936584 0.605341
0.537530 0.914397 0.643458
0.798825 0.865904 0.743252
0.989136 0.841764 0.504875
1.000000 0.837369 0.667079
0.495857 1.000000 0.613642
0.623590 1.000000 0.670466
0.787808 0.983001 0.731991
0.912291 0.993713 0.471168
1.000000 0.900969 0.000000
0.000000 0.517906 0.816526
0.000000 0.468757 0.844724
0.620844 0.391943 0.915862
0.999298 0.381537 0.857755
1.000000 0.419196 0.749355
0.000000 0.562737 0.809934
0.000000 0.520897 0.812192
0.612177 0.471107 0.897673
0.989380 0.477424 0.848875
1.000000 0.484657 0.750088
0.000000 0.717464 0.825834
0.000000 0.695766 0.817716
0.552544 0.642084 0.822782
0.965545 0.684779 0.836698
1.000000 0.673304 0.789761
0.000000 0.957458 0.844327
0.079683 0.948425 0.842344
0.696468 0.925139 0.855589
0.909117 0.873136 0.836973
1.000000 0.856474 0.829160
0.000000 1.000000 0.729183
0.311620 1.000000 0.749783
0.730983 1.000000 0.825254
0.924712 0.977722 0.892424
1.000000 0.945892 0.684016
0.000000 0.657496 1.000000
0.000000 0.627253 1.000000
0.384802 0.545006 1.000000
0.885344 0.656153 1.000000
1.000000 0.640070 0.986786
0.000000 0.688228 1.000000
0.000000 0.663661 1.000000
0.410864 0.601953 1.000000
0.884306 0.688991 1.000000
1.000000 0.677852 0.985657
0.000000 0.779507 1.000000
0.000000 0.763455 1.000000
0.213687 0.714137 1.000000
0.868498 0.768215 1.000000
1.000000 0.780117 0.986358
0.000000 0.929442 1.000000
0.000000 0.921721 1.000000
0.000000 0.894713 1.000000
0.774594 0.860990 1.000000
1.000000 0.914000 0.983368
0.000000 1.000000 0.962005
0.000000 1.000000 0.961028
0.330907 1.000000 0.964050
0.857298 1.000000 0.978576
1.000000 0.998169 0.995727
