其他预设/【231】淡彩糖果色预设10款/1.LUT预设（视频调色-PR-AE-PS-FCPX-达芬奇用）/淡彩糖果色__-2.cube
# Created by Adobe Lightroom plugin Export LUT (1.17.0)
# www.johnrellis.com/lightroom/exportlut.htm
# Preset: 淡彩糖果色[素锦印象]-2
# Color profile: /Library/Application Support/Adobe/Color/Profiles/Recommended/AdobeRGB1998.icc
LUT_3D_SIZE 8
DOMAIN_MIN 0.000000 0.000000 0.000000
DOMAIN_MAX 0.903226 0.903226 0.903226
0.091402 0.091402 0.091402
0.338354 0.042969 0.110201
0.588098 0.000000 0.146914
0.769070 0.000000 0.201450
0.879332 0.000000 0.264317
0.977203 0.186984 0.337560
1.000000 0.265293 0.392828
1.000000 0.328893 0.441566
0.033845 0.283513 0.086793
0.305821 0.268498 0.103517
0.557885 0.263127 0.143130
0.742275 0.223758 0.202213
0.861082 0.214633 0.262516
0.958251 0.248508 0.327611
1.000000 0.291234 0.381170
1.000000 0.342107 0.432563
0.000000 0.475135 0.113893
0.275364 0.467506 0.110231
0.499214 0.437629 0.160800
0.725582 0.478248 0.225864
0.860075 0.436347 0.286290
0.955047 0.417182 0.345830
1.000000 0.426459 0.407965
1.000000 0.443275 0.456733
0.000000 0.623804 0.166384
0.240146 0.617609 0.160586
0.473487 0.600061 0.176028
0.684657 0.602075 0.240330
0.869169 0.644709 0.329625
0.955779 0.600336 0.382147
1.000000 0.566552 0.427070
1.000000 0.550195 0.467689
0.063447 0.746151 0.211673
0.221592 0.743618 0.204929
0.444678 0.737789 0.211643
0.637781 0.724697 0.244755
0.792294 0.698390 0.296635
0.919890 0.713008 0.376226
0.998230 0.697810 0.436286
1.000000 0.665156 0.480201
0.110842 0.839506 0.249760
0.220279 0.847044 0.248508
0.411383 0.840391 0.252567
0.601801 0.829587 0.263706
0.752590 0.805936 0.298222
0.882292 0.780026 0.352453
0.982696 0.787503 0.440742
1.000000 0.788022 0.511009
0.145174 0.927703 0.284550
0.217716 0.928588 0.278477
0.381811 0.920897 0.278935
0.556451 0.911620 0.284428
0.711879 0.894743 0.303655
0.849332 0.876860 0.343633
0.958831 0.850187 0.405982
1.000000 0.842527 0.490120
0.168338 1.000000 0.313024
0.217258 1.000000 0.303532
0.364233 0.999084 0.306462
0.527520 0.994568 0.316747
0.676020 0.973297 0.302922
0.813870 0.961669 0.347478
0.943786 0.950317 0.403998
1.000000 0.916777 0.475135
0.000000 0.185977 0.279698
0.279545 0.096162 0.281743
0.515038 0.157351 0.301274
0.710689 0.171206 0.334081
0.843503 0.166781 0.344579
0.942626 0.231235 0.384405
1.000000 0.285649 0.421790
1.000000 0.338384 0.460243
0.000000 0.269841 0.271641
0.271855 0.271855 0.271855
0.505455 0.266239 0.291752
0.703426 0.255039 0.315740
0.836484 0.256382 0.343114
0.933227 0.280858 0.379522
1.000000 0.309026 0.412421
1.000000 0.347570 0.449592
0.063783 0.453407 0.292638
0.250431 0.452552 0.267582
0.475929 0.432990 0.280858
0.691890 0.465675 0.318578
0.830259 0.435889 0.350256
0.927428 0.420325 0.386969
1.000000 0.421698 0.425422
1.000000 0.438605 0.466621
0.148775 0.598932 0.306432
0.224338 0.599695 0.265507
0.460365 0.591119 0.268864
0.646235 0.576349 0.302098
0.823758 0.619074 0.365118
0.918120 0.578698 0.399969
0.992309 0.551141 0.435035
1.000000 0.541070 0.473274
0.196567 0.732601 0.332280
0.214420 0.732052 0.280858
0.428534 0.723659 0.279210
0.615778 0.704738 0.295964
0.762722 0.677150 0.330602
0.897765 0.701198 0.401892
0.982666 0.689662 0.454444
1.000000 0.660700 0.492287
0.195315 0.822782 0.334264
0.211276 0.824186 0.296544
0.393927 0.819181 0.293614
0.586694 0.812802 0.303166
0.738125 0.793881 0.332708
0.871458 0.774197 0.382483
0.973724 0.785336 0.464973
1.000000 0.784482 0.524010
0.196384 0.908995 0.343206
0.206424 0.907317 0.310643
0.365179 0.902586 0.305150
0.542962 0.897856 0.313664
0.702327 0.885496 0.332006
0.837491 0.867185 0.364935
0.944793 0.839628 0.416388
1.000000 0.834806 0.492622
0.206271 0.993835 0.359686
0.219059 0.994995 0.336492
0.356146 0.992370 0.331884
0.521172 0.988861 0.342779
0.682155 0.979614 0.351598
0.815610 0.964019 0.382330
0.939635 0.948028 0.424323
1.000000 0.913542 0.484993
0.000000 0.306767 0.470283
0.000000 0.225864 0.475135
0.463478 0.183810 0.466682
0.670924 0.216983 0.461982
0.815305 0.305333 0.498268
0.916594 0.411810 0.557397
0.997070 0.426673 0.562463
1.000000 0.441230 0.569024
0.000000 0.356481 0.456336
0.147158 0.344488 0.455543
0.453101 0.285557 0.455421
0.656611 0.296422 0.461341
0.805203 0.357519 0.503502
0.910552 0.409064 0.537377
0.992370 0.416693 0.541772
1.000000 0.448066 0.562463
0.000000 0.440162 0.443000
0.195468 0.440711 0.442939
0.443397 0.443397 0.443397
0.648981 0.444648 0.463142
0.809659 0.459876 0.495430
0.911650 0.471290 0.518822
0.988647 0.484657 0.540978
1.000000 0.502190 0.563958
0.000000 0.593011 0.471473
0.193484 0.593347 0.464729
0.418891 0.598718 0.431769
0.631830 0.588830 0.450599
0.807584 0.629877 0.508690
0.905882 0.605707 0.529198
0.983337 0.593622 0.550927
1.000000 0.588922 0.572045
0.113924 0.723018 0.467872
0.233097 0.722438 0.463478
0.400580 0.722591 0.427832
0.608728 0.713832 0.437720
0.756863 0.690669 0.459541
0.889189 0.723201 0.526421
0.971771 0.708064 0.557061
1.000000 0.686732 0.579217
0.199832 0.815396 0.464027
0.272892 0.814542 0.462806
0.381811 0.813169 0.422492
0.567803 0.805844 0.425696
0.723659 0.789059 0.441047
0.853300 0.771969 0.476600
0.960204 0.794827 0.553277
1.000000 0.797147 0.601282
0.258549 0.906096 0.475715
0.309941 0.903319 0.475135
0.367315 0.900816 0.422614
0.533165 0.893553 0.422248
0.695430 0.882170 0.431678
0.829313 0.866758 0.457435
0.940398 0.847715 0.504906
1.000000 0.851743 0.578058
0.304356 0.987457 0.491890
0.339330 0.985077 0.490181
0.359136 0.986114 0.429206
0.519768 0.985840 0.439429
0.676051 0.976654 0.446174
0.812833 0.963561 0.468421
0.934752 0.949523 0.503166
1.000000 0.919799 0.553491
0.000000 0.397345 0.611383
0.000000 0.368780 0.615991
0.290227 0.253880 0.619074
0.605921 0.243870 0.609979
0.774350 0.263645 0.580926
0.888579 0.366430 0.600824
0.968200 0.459907 0.636744
1.000000 0.536736 0.677638
0.000000 0.441932 0.606317
0.000000 0.423621 0.607874
0.294377 0.319982 0.613428
0.603357 0.306554 0.607019
0.771115 0.321477 0.584039
0.882048 0.403265 0.604517
0.962524 0.482429 0.640284
1.000000 0.552178 0.681514
0.000000 0.494179 0.589197
0.000000 0.492958 0.587823
0.341527 0.482856 0.586847
0.594415 0.440955 0.596643
0.763638 0.464607 0.600397
0.879088 0.525628 0.638697
0.965362 0.585565 0.683223
1.000000 0.590417 0.684993
0.000000 0.574426 0.578180
0.000000 0.576074 0.579492
0.359930 0.581323 0.583642
0.593378 0.593378 0.593378
0.755673 0.605646 0.617975
0.870817 0.614405 0.637140
0.960235 0.623011 0.654505
1.000000 0.631220 0.669459
0.000000 0.716121 0.622522
0.000000 0.713252 0.616114
0.358648 0.709834 0.600366
0.575616 0.713527 0.584802
0.735927 0.701595 0.598718
0.872251 0.742153 0.652766
0.956939 0.727993 0.665522
1.000000 0.715450 0.675319
0.000000 0.814908 0.599908
0.189334 0.820188 0.602533
0.385931 0.812558 0.592340
0.555535 0.809201 0.574212
0.719936 0.800259 0.583612
0.840665 0.783993 0.602167
0.949310 0.816709 0.665034
1.000000 0.810971 0.689021
0.158724 0.901884 0.585748
0.237980 0.901640 0.585443
0.399573 0.898466 0.585718
0.534264 0.896971 0.563470
0.693935 0.889525 0.568963
0.824582 0.874601 0.581720
0.929992 0.856321 0.608850
1.000000 0.867155 0.668391
0.235172 0.990661 0.587549
0.290532 0.989837 0.588891
0.423987 0.984680 0.593530
0.521050 0.982757 0.561242
0.667170 0.974609 0.563073
0.807218 0.963500 0.574578
0.925292 0.950958 0.598779
1.000000 0.926940 0.637415
0.000000 0.469123 0.721492
0.000000 0.451545 0.723110
0.000000 0.361120 0.724941
0.472267 0.306065 0.726223
0.722316 0.306798 0.727047
0.854368 0.327916 0.683558
0.950469 0.416297 0.686213
1.000000 0.506096 0.711788
0.000000 0.498787 0.714931
0.000000 0.485573 0.718227
0.109224 0.420417 0.720851
0.471290 0.348547 0.721950
0.719326 0.349310 0.723812
0.851621 0.364965 0.683772
0.948302 0.446357 0.690974
1.000000 0.525414 0.716213
0.000000 0.545953 0.703090
0.000000 0.545251 0.702083
0.216617 0.527703 0.699916
0.469825 0.456611 0.713649
0.708461 0.456214 0.711940
0.836545 0.460365 0.680385
0.937621 0.524102 0.701472
1.000000 0.577844 0.726406
0.000000 0.605768 0.694209
0.000000 0.605341 0.693416
0.255192 0.606439 0.693080
0.503563 0.608667 0.695674
0.701869 0.585565 0.703639
0.829526 0.595453 0.700618
0.930724 0.632624 0.728298
1.000000 0.665187 0.754238
0.000000 0.682216 0.686732
0.000000 0.682551 0.686854
0.287388 0.682216 0.685634
0.512779 0.685206 0.687129
0.693141 0.693141 0.693141
0.826810 0.705898 0.715480
0.929320 0.714687 0.732753
1.000000 0.718502 0.743648
0.000000 0.790066 0.714015
0.000000 0.788571 0.712825
0.259434 0.781735 0.703487
0.485389 0.776913 0.687007
0.660883 0.778592 0.668452
0.807523 0.777279 0.689418
0.932341 0.825193 0.749905
1.000000 0.812589 0.757931
0.000000 0.889982 0.704585
0.000000 0.887816 0.701015
0.289677 0.883055 0.691829
0.493446 0.878477 0.683803
0.647974 0.878080 0.664088
0.800107 0.870481 0.674617
0.908263 0.855375 0.691341
0.993103 0.876341 0.742855
0.000000 0.979706 0.687404
0.000000 0.978149 0.685237
0.302342 0.973663 0.679622
0.503929 0.973602 0.685237
0.634455 0.969177 0.659754
0.784848 0.960296 0.665309
0.906218 0.948150 0.680659
0.996918 0.928405 0.707820
0.000000 0.530816 0.817411
0.000000 0.518578 0.817319
0.000000 0.479347 0.814389
0.257939 0.362463 0.821317
0.614160 0.367712 0.823453
0.809445 0.370764 0.814633
0.926390 0.395331 0.776120
1.000000 0.465614 0.765896
0.000000 0.546838 0.805783
0.000000 0.535851 0.805447
0.000000 0.500572 0.805234
0.262882 0.389563 0.813687
0.609033 0.393622 0.815488
0.803677 0.396277 0.808591
0.922026 0.417212 0.773648
1.000000 0.482338 0.766476
0.000000 0.593774 0.798856
0.000000 0.592828 0.798459
0.000000 0.575036 0.800046
0.351263 0.507744 0.807126
0.610681 0.482795 0.809659
0.800046 0.485206 0.804166
0.917327 0.494392 0.775601
1.000000 0.546777 0.776150
0.000000 0.645258 0.797391
0.000000 0.643671 0.795132
0.000000 0.643153 0.792416
0.420874 0.642329 0.796963
0.620600 0.599542 0.807767
0.803098 0.601526 0.806027
0.916320 0.598138 0.784207
1.000000 0.639979 0.795804
0.000000 0.699306 0.782254
0.000000 0.699153 0.781857
0.108858 0.698939 0.780270
0.416693 0.701808 0.779324
0.618128 0.704646 0.780209
0.787137 0.687068 0.788754
0.903349 0.694026 0.788388
0.989715 0.724331 0.809964
0.000000 0.764096 0.769223
0.000000 0.766201 0.771145
0.176944 0.765957 0.770321
0.428229 0.765896 0.769192
0.612482 0.767056 0.768826
0.781033 0.781033 0.781033
0.907073 0.801816 0.809964
0.989837 0.808865 0.823545
0.000000 0.888579 0.815244
0.000000 0.889036 0.815854
0.077150 0.884550 0.812161
0.394720 0.877470 0.807340
0.595514 0.871336 0.787808
0.762905 0.871214 0.769772
0.890990 0.863005 0.782864
0.985534 0.895415 0.831144
0.000000 0.977081 0.809598
0.000000 0.975555 0.806577
0.000000 0.971466 0.797269
0.378973 0.967681 0.786496
0.583978 0.960815 0.773922
0.740536 0.956237 0.755215
0.885374 0.948730 0.768765
0.981994 0.933562 0.787564
0.000000 0.575647 0.890043
0.000000 0.567315 0.890776
0.000000 0.542260 0.891112
0.000000 0.462287 0.894438
0.450965 0.405432 0.894102
0.715938 0.413886 0.891722
0.878386 0.418769 0.883879
0.986511 0.444495 0.851469
0.000000 0.589288 0.885191
0.000000 0.581781 0.886107
0.000000 0.557610 0.886412
0.097230 0.489448 0.888334
0.450752 0.424720 0.889158
0.712703 0.432563 0.887205
0.874113 0.435370 0.879454
0.982696 0.455116 0.848203
0.000000 0.633417 0.881285
0.000000 0.632044 0.880613
0.000000 0.609979 0.880217
0.282109 0.578393 0.880430
0.460487 0.492622 0.883848
0.713436 0.502678 0.883268
0.873350 0.504082 0.878141
0.982025 0.516014 0.851408
0.000000 0.672236 0.877562
0.000000 0.670771 0.875883
0.000000 0.668788 0.873045
0.267552 0.656764 0.871672
0.495277 0.598535 0.875914
0.713985 0.593561 0.878935
0.872709 0.593378 0.876616
0.979797 0.594385 0.853849
0.000000 0.719265 0.867460
0.000000 0.718288 0.866361
0.000000 0.716274 0.864012
0.226566 0.715145 0.861814
0.517235 0.713466 0.860105
0.700252 0.675105 0.868589
0.866606 0.677638 0.869474
0.975128 0.676600 0.853422
0.000000 0.778744 0.859586
0.000000 0.778470 0.859251
0.000000 0.777615 0.858122
0.247349 0.777279 0.856931
0.500786 0.778897 0.855192
0.701442 0.783597 0.856779
0.865873 0.772335 0.867399
0.970825 0.780392 0.866453
0.000000 0.849393 0.855344
0.000000 0.849699 0.855528
0.000000 0.849393 0.854826
0.275761 0.849241 0.853880
0.512749 0.848356 0.851774
0.698817 0.849790 0.851591
0.861906 0.861875 0.861906
0.970031 0.879637 0.886564
0.000000 0.971832 0.898802
0.000000 0.971283 0.898161
0.000000 0.971130 0.897795
0.137240 0.967285 0.894285
0.463416 0.959472 0.888792
0.676783 0.951446 0.869902
0.846860 0.947997 0.853178
0.964813 0.939452 0.867887
0.000000 0.620325 0.966155
0.000000 0.613611 0.966400
0.000000 0.595087 0.965118
0.000000 0.566003 0.964233
0.255589 0.454017 0.967285
0.591882 0.459724 0.964233
0.810422 0.475959 0.961944
0.950896 0.478767 0.956664
0.000000 0.630945 0.963745
0.000000 0.624445 0.964019
0.000000 0.606378 0.963073
0.000000 0.584924 0.961486
0.261112 0.469490 0.965179
0.592218 0.474922 0.962341
0.809720 0.489631 0.959991
0.949218 0.490486 0.954894
0.000000 0.667628 0.959411
0.000000 0.661616 0.959472
0.000000 0.643732 0.958282
0.000000 0.625330 0.958099
0.344457 0.548363 0.960204
0.596948 0.527001 0.958770
0.810025 0.539086 0.957214
0.947753 0.536706 0.953002
0.000000 0.698787 0.956847
0.000000 0.697658 0.956756
0.000000 0.696193 0.954681
0.000000 0.681544 0.953399
0.449348 0.660517 0.952453
0.601129 0.600092 0.955138
0.808499 0.609216 0.954559
0.947021 0.605127 0.951659
0.000000 0.740688 0.951568
0.000000 0.739620 0.951781
0.000000 0.735805 0.950988
0.000000 0.731228 0.950195
0.380926 0.731044 0.946227
0.598444 0.680232 0.948821
0.801328 0.682979 0.950195
0.945800 0.684352 0.949584
0.000000 0.794461 0.946319
0.000000 0.793332 0.945800
0.000000 0.790402 0.944610
0.000000 0.786709 0.943481
0.245365 0.785245 0.942290
0.603693 0.793515 0.940490
0.793545 0.766995 0.947539
0.946990 0.774716 0.949645
0.000000 0.859953 0.943420
0.000000 0.859373 0.943053
0.000000 0.857725 0.942107
0.000000 0.856077 0.941344
0.267308 0.855680 0.940002
0.568170 0.859068 0.938384
0.789242 0.867765 0.938811
0.944793 0.859800 0.946166
0.000000 0.936339 0.943450
0.000000 0.936217 0.943236
0.000000 0.936400 0.943145
0.000000 0.936736 0.942931
0.308446 0.936553 0.941680
0.588190 0.936095 0.939696
0.788174 0.936431 0.938201
0.944762 0.944732 0.944762
