其他预设/【231】淡彩糖果色预设10款/1.LUT预设（视频调色-PR-AE-PS-FCPX-达芬奇用）/淡彩糖果色__-9.cube
# Created by Adobe Lightroom plugin Export LUT (1.17.0)
# www.johnrellis.com/lightroom/exportlut.htm
# Preset: 淡彩糖果色[素锦印象]-9
# Color profile: /Library/Application Support/Adobe/Color/Profiles/Recommended/AdobeRGB1998.icc
LUT_3D_SIZE 5
DOMAIN_MIN 0.000000 0.000000 0.000000
DOMAIN_MAX 0.903226 0.903226 0.903226
0.000000 0.000000 0.000000
0.406531 0.000000 0.000000
0.679133 0.000000 0.000000
0.862333 0.000000 0.090059
0.987793 0.060090 0.148074
0.324559 0.409491 0.000000
0.437964 0.397253 0.000000
0.659083 0.327276 0.000000
0.852293 0.294560 0.098360
0.990112 0.297887 0.165072
0.573236 0.696559 0.213291
0.655299 0.710262 0.242588
0.752712 0.699062 0.216495
0.841367 0.599908 0.168032
0.967620 0.551263 0.184878
0.734157 0.854398 0.394476
0.770291 0.859098 0.413428
0.868315 0.869871 0.469245
0.886229 0.829618 0.354070
0.954955 0.768185 0.268040
0.817380 0.930114 0.498726
0.832822 0.929290 0.506401
0.877348 0.924315 0.520165
0.933288 0.921721 0.537621
0.973327 0.913603 0.441291
0.000000 0.214328 0.353155
0.375921 0.000000 0.359197
0.647181 0.000000 0.335302
0.830106 0.000000 0.291875
0.965972 0.000000 0.293431
0.127779 0.388312 0.285771
0.373022 0.364660 0.354742
0.644923 0.275242 0.291417
0.824094 0.270909 0.294377
0.963104 0.280674 0.297581
0.490517 0.668544 0.302617
0.595575 0.670436 0.419379
0.699489 0.661036 0.387610
0.809812 0.579492 0.320531
0.954894 0.546593 0.317113
0.710964 0.841764 0.470893
0.754696 0.845182 0.523919
0.848325 0.860502 0.568994
0.870481 0.823545 0.466896
0.946075 0.766018 0.371496
0.815000 0.926421 0.568383
0.829618 0.925933 0.574395
0.876860 0.925658 0.601129
0.929961 0.922637 0.615503
0.967742 0.914885 0.523095
0.000000 0.380163 0.586481
0.000000 0.194308 0.593622
0.627222 0.208225 0.589776
0.803891 0.315923 0.565118
0.942992 0.315404 0.549126
0.167544 0.555322 0.579828
0.300175 0.466987 0.584375
0.631220 0.389014 0.593408
0.796658 0.405737 0.565118
0.942901 0.381598 0.547570
0.311162 0.656977 0.491402
0.427985 0.646021 0.518425
0.627253 0.621820 0.588678
0.794797 0.562066 0.540124
0.941100 0.532586 0.514855
0.562188 0.810636 0.456519
0.627161 0.805692 0.520043
0.775296 0.818418 0.660639
0.836790 0.810727 0.629969
0.926421 0.756252 0.538872
0.750881 0.921080 0.559594
0.781949 0.920165 0.603998
0.855314 0.918975 0.699001
0.918029 0.920745 0.738369
0.950103 0.910979 0.642481
0.000000 0.494789 0.733944
0.000000 0.417151 0.738430
0.511772 0.295537 0.747677
0.780880 0.351904 0.741665
0.920439 0.437385 0.724056
0.131991 0.604852 0.728023
0.221897 0.553613 0.733242
0.511925 0.420508 0.740810
0.772671 0.440833 0.733639
0.912871 0.489815 0.720668
0.317418 0.775326 0.718502
0.419135 0.760128 0.718715
0.576532 0.663203 0.725093
0.765469 0.612207 0.727138
0.910399 0.597925 0.719966
0.448310 0.803159 0.621942
0.504845 0.794766 0.633936
0.630030 0.779812 0.672053
0.763821 0.761196 0.725917
0.916106 0.714076 0.684352
0.588464 0.914611 0.533349
0.632959 0.912749 0.568475
0.750149 0.911315 0.667475
0.882719 0.913725 0.802426
0.929442 0.908537 0.768093
0.000000 0.615351 0.888426
0.000000 0.569818 0.890593
0.221836 0.379309 0.896483
0.739925 0.384802 0.890654
0.913481 0.450263 0.886320
0.000000 0.690455 0.884459
0.063233 0.654536 0.886442
0.310307 0.492226 0.893553
0.738369 0.470375 0.889708
0.912413 0.509514 0.885924
0.411566 0.841215 0.875090
0.477790 0.823667 0.876127
0.538811 0.738857 0.882200
0.723964 0.631128 0.887175
0.909300 0.630091 0.884306
0.437171 0.942138 0.864408
0.485512 0.939239 0.870420
0.607294 0.912840 0.873472
0.734371 0.816526 0.880369
0.904845 0.766751 0.881498
0.540551 0.946044 0.751736
0.571618 0.943755 0.759579
0.659846 0.934752 0.783932
0.778622 0.920775 0.825467
0.903380 0.903563 0.881559
