其他预设/【231】淡彩糖果色预设10款/1.LUT预设（视频调色-PR-AE-PS-FCPX-达芬奇用）/淡彩糖果色__-3.cube
# Created by Adobe Lightroom plugin Export LUT (1.17.0)
# www.johnrellis.com/lightroom/exportlut.htm
# Preset: 淡彩糖果色[素锦印象]-3
# Color profile: /Library/Application Support/Adobe/Color/Profiles/Recommended/AdobeRGB1998.icc
LUT_3D_SIZE 5
DOMAIN_MIN 0.000000 0.000000 0.000000
DOMAIN_MAX 0.903226 0.903226 0.903226
0.064881 0.064881 0.064881
0.334478 0.112001 0.037690
0.613581 0.191989 0.007233
0.840604 0.270390 0.086763
1.000000 0.331609 0.121401
0.000000 0.332952 0.146670
0.312505 0.328832 0.024506
0.639979 0.332891 0.067140
0.854185 0.361639 0.117800
1.000000 0.395422 0.149111
0.000000 0.604242 0.274388
0.034974 0.614618 0.072145
0.586999 0.618158 0.099275
0.877531 0.592859 0.187991
1.000000 0.556237 0.214328
0.000000 0.820371 0.379065
0.000000 0.827665 0.289433
0.432990 0.832242 0.135073
0.771939 0.811582 0.173983
1.000000 0.774411 0.241154
0.000000 0.990417 0.448096
0.000000 0.992798 0.392432
0.188571 0.992554 0.163119
0.635279 0.985595 0.159426
0.923217 0.968811 0.196902
0.000000 0.123110 0.360082
0.324132 0.000000 0.334234
0.563104 0.087160 0.275761
0.777768 0.285679 0.297704
0.981048 0.351781 0.296086
0.000000 0.326299 0.344945
0.293828 0.315007 0.330205
0.558343 0.321386 0.311162
0.798306 0.367346 0.314275
0.988556 0.409918 0.310246
0.000000 0.579431 0.421942
0.243961 0.578668 0.389715
0.557061 0.584894 0.314549
0.855344 0.586419 0.373663
1.000000 0.572412 0.363867
0.000000 0.806546 0.484657
0.214023 0.807614 0.465675
0.429572 0.820859 0.318608
0.766445 0.803555 0.336034
1.000000 0.777707 0.387945
0.000000 0.983795 0.533104
0.104005 0.983795 0.510704
0.234012 0.994659 0.322545
0.643671 0.986297 0.314458
0.925872 0.969116 0.339391
0.000000 0.220371 0.665248
0.186313 0.129366 0.642573
0.569635 0.000000 0.588464
0.765408 0.150973 0.534234
0.964538 0.149294 0.454994
0.000000 0.473274 0.662562
0.186496 0.365545 0.643397
0.560998 0.273106 0.587427
0.757839 0.293095 0.533043
0.963287 0.279942 0.455451
0.055604 0.597192 0.630640
0.287633 0.592798 0.622705
0.533501 0.567376 0.591608
0.737911 0.546349 0.553185
0.959899 0.590295 0.561822
0.000000 0.763821 0.672938
0.232761 0.763302 0.661769
0.505577 0.769833 0.625574
0.752743 0.780606 0.582116
0.989136 0.796323 0.644892
0.000000 0.967010 0.694423
0.161563 0.967773 0.685939
0.493690 0.967346 0.660182
0.659327 0.975677 0.553674
0.926085 0.961212 0.568109
0.000000 0.300328 0.859251
0.000000 0.217807 0.852201
0.495369 0.170901 0.821439
0.759915 0.095827 0.782650
0.945800 0.154665 0.732998
0.000000 0.484260 0.856992
0.000000 0.413214 0.851774
0.483558 0.322301 0.820584
0.751034 0.263676 0.776791
0.940368 0.275090 0.730434
0.222568 0.744594 0.860105
0.362676 0.737209 0.855863
0.511406 0.610468 0.826291
0.733333 0.497902 0.767575
0.935119 0.491768 0.730526
0.253513 0.784390 0.824094
0.358923 0.783505 0.820462
0.556298 0.784176 0.812589
0.734157 0.763729 0.785153
0.926268 0.741787 0.743465
0.188449 0.917479 0.874479
0.275547 0.929381 0.877562
0.473152 0.939635 0.856718
0.711177 0.950439 0.806332
0.929717 0.952605 0.776455
0.000000 0.359014 0.998840
0.000000 0.286412 0.998413
0.333654 0.255375 0.989837
0.705531 0.170077 0.972381
0.938293 0.067689 0.960204
0.000000 0.491920 0.995605
0.000000 0.444434 0.995300
0.341955 0.365698 0.989136
0.700313 0.298741 0.972045
0.936339 0.239719 0.959197
0.377935 0.752956 0.988037
0.445319 0.741238 0.986694
0.459266 0.628779 0.986114
0.690730 0.534630 0.972564
0.931640 0.465492 0.956878
0.402747 0.881163 0.983246
0.469215 0.884977 0.982910
0.630549 0.897734 0.982696
0.730831 0.800107 0.976776
0.925505 0.692042 0.953735
0.374243 0.931792 0.972076
0.432563 0.933318 0.971710
0.584283 0.938781 0.970703
0.765988 0.948028 0.969116
0.937926 0.953399 0.962158
