其他预设/【231】淡彩糖果色预设10款/1.LUT预设（视频调色-PR-AE-PS-FCPX-达芬奇用）/淡彩糖果色__-1.cube
# Created by Adobe Lightroom plugin Export LUT (1.17.0)
# www.johnrellis.com/lightroom/exportlut.htm
# Preset: 淡彩糖果色[素锦印象]-1
# Color profile: /Library/Application Support/Adobe/Color/Profiles/Recommended/AdobeRGB1998.icc
LUT_3D_SIZE 8
DOMAIN_MIN 0.000000 0.000000 0.000000
DOMAIN_MAX 0.903226 0.903226 0.903226
0.060975 0.060975 0.060975
0.260502 0.043885 0.051942
0.534691 0.000000 0.013489
0.775174 0.000000 0.057740
0.920806 0.130892 0.153872
1.000000 0.238834 0.253513
1.000000 0.311284 0.322942
1.000000 0.363897 0.374029
0.057893 0.206241 0.046967
0.229618 0.203891 0.038270
0.516106 0.231571 0.032013
0.752834 0.229435 0.085328
0.905455 0.242252 0.165408
1.000000 0.288029 0.250950
1.000000 0.334752 0.316564
1.000000 0.378180 0.369512
0.074556 0.390539 0.052064
0.222690 0.386114 0.055116
0.423987 0.375525 0.060182
0.760525 0.469306 0.166354
0.915801 0.449439 0.232120
1.000000 0.445350 0.302800
1.000000 0.461769 0.371984
1.000000 0.475319 0.416449
0.125917 0.555474 0.103456
0.230594 0.550195 0.103487
0.411566 0.541588 0.106264
0.634302 0.562890 0.121065
0.926421 0.656184 0.313634
1.000000 0.629084 0.394842
1.000000 0.600336 0.433509
1.000000 0.582269 0.461158
0.176486 0.706264 0.152346
0.252445 0.703792 0.152529
0.413367 0.700099 0.155795
0.596185 0.699702 0.165316
0.770016 0.684504 0.175906
0.973449 0.734218 0.371435
1.000000 0.730343 0.493812
1.000000 0.695766 0.516686
0.226352 0.821653 0.202152
0.285954 0.829831 0.209812
0.415686 0.824491 0.210971
0.571069 0.816953 0.214420
0.730098 0.804562 0.218448
0.880888 0.784665 0.231632
1.000000 0.806699 0.443091
1.000000 0.802701 0.576043
0.279118 0.923827 0.255283
0.318364 0.924529 0.257725
0.418708 0.918029 0.255406
0.551324 0.910643 0.256535
0.692592 0.899138 0.256809
0.839139 0.889189 0.263859
0.970001 0.865507 0.281041
1.000000 0.854063 0.484871
0.327794 1.000000 0.304753
0.353948 1.000000 0.304143
0.434607 1.000000 0.305180
0.550164 0.997864 0.312383
0.664637 0.980529 0.291722
0.800351 0.973999 0.302495
0.936919 0.966400 0.318914
1.000000 0.934264 0.334966
0.000000 0.117861 0.206729
0.204440 0.054749 0.205783
0.453346 0.005768 0.212100
0.708095 0.146090 0.255955
0.880827 0.217716 0.291814
0.992767 0.294652 0.342321
1.000000 0.353552 0.386511
1.000000 0.397955 0.422370
0.000000 0.212375 0.203311
0.203220 0.203220 0.203220
0.452094 0.227665 0.229770
0.704433 0.254520 0.260166
0.876066 0.287633 0.295567
0.985748 0.333349 0.342077
1.000000 0.371649 0.380377
1.000000 0.406195 0.414557
0.023438 0.378637 0.202762
0.212100 0.376837 0.208591
0.405524 0.370092 0.208225
0.714931 0.457252 0.288426
0.881132 0.455695 0.326238
0.985626 0.460792 0.371649
1.000000 0.474250 0.414252
1.000000 0.490364 0.450111
0.115419 0.537163 0.211429
0.222477 0.535393 0.213962
0.399939 0.532433 0.214694
0.594568 0.533776 0.218204
0.880369 0.633356 0.366308
0.984283 0.616754 0.424140
1.000000 0.598260 0.457557
1.000000 0.588342 0.485389
0.173953 0.697841 0.234806
0.247318 0.693629 0.233310
0.402472 0.686397 0.232792
0.573571 0.677638 0.234043
0.738766 0.660578 0.235996
0.953704 0.727260 0.413153
1.000000 0.732326 0.523430
1.000000 0.702052 0.541985
0.223087 0.807858 0.257084
0.274907 0.807034 0.257633
0.402045 0.802853 0.258091
0.556176 0.799069 0.262181
0.715816 0.791806 0.267369
0.870054 0.778195 0.280552
1.000000 0.808927 0.482918
1.000000 0.808469 0.602075
0.271061 0.907774 0.288334
0.305486 0.904479 0.285740
0.406928 0.900298 0.285222
0.541314 0.897307 0.289921
0.683955 0.889891 0.293400
0.828183 0.879789 0.297246
0.956390 0.855283 0.306584
1.000000 0.850950 0.498756
0.324620 0.997070 0.330724
0.352514 0.996918 0.332219
0.432990 0.994751 0.334203
0.548119 0.992645 0.341985
0.673487 0.985962 0.345403
0.802579 0.975769 0.346471
0.933440 0.964324 0.350347
1.000000 0.931518 0.357794
0.000000 0.214420 0.398322
0.000000 0.129824 0.397070
0.383307 0.115663 0.385504
0.620050 0.130526 0.401770
0.838743 0.239963 0.437781
0.966308 0.426612 0.525017
1.000000 0.502342 0.567254
1.000000 0.540215 0.587518
0.000000 0.286442 0.392950
0.134524 0.267674 0.389532
0.378302 0.221103 0.379950
0.617700 0.232883 0.402625
0.834867 0.314855 0.446784
0.959564 0.448493 0.523125
1.000000 0.508873 0.560540
1.000000 0.545373 0.583398
0.000000 0.400946 0.384344
0.163943 0.396063 0.383337
0.378790 0.378790 0.378790
0.641535 0.432380 0.434028
0.846342 0.496407 0.499397
0.960906 0.542260 0.545953
1.000000 0.573114 0.577173
1.000000 0.591485 0.595758
0.000000 0.544701 0.377935
0.185245 0.544640 0.379248
0.385412 0.545312 0.382574
0.584955 0.545769 0.387427
0.861387 0.668147 0.551934
0.962585 0.668849 0.585565
1.000000 0.670314 0.610163
1.000000 0.666896 0.622431
0.120851 0.696345 0.380194
0.222141 0.695491 0.382696
0.396216 0.691371 0.390204
0.569390 0.687007 0.393164
0.736080 0.673579 0.394110
0.944182 0.763546 0.581933
1.000000 0.771084 0.645502
1.000000 0.750820 0.653834
0.204257 0.807065 0.381170
0.269780 0.806088 0.386847
0.406226 0.800381 0.397284
0.550408 0.794034 0.397345
0.702693 0.786007 0.398688
0.852415 0.774319 0.407294
1.000000 0.828397 0.603662
1.000000 0.841672 0.702449
0.280034 0.909972 0.401465
0.325566 0.907012 0.408209
0.424201 0.900175 0.412696
0.545647 0.893950 0.411566
0.680171 0.885863 0.411139
0.821256 0.878599 0.415839
0.951843 0.861814 0.428595
1.000000 0.872099 0.613764
0.350011 0.994629 0.432471
0.382513 0.992065 0.439399
0.451362 0.988952 0.437995
0.562768 0.989258 0.450385
0.678950 0.982605 0.450904
0.802976 0.974426 0.453040
0.929442 0.964874 0.457374
1.000000 0.936400 0.463813
0.000000 0.303624 0.566094
0.000000 0.274174 0.566979
0.287694 0.190585 0.557275
0.542077 0.173953 0.545159
0.728664 0.187869 0.537224
0.910246 0.335698 0.574914
1.000000 0.481544 0.623163
1.000000 0.585931 0.672724
0.000000 0.367346 0.572381
0.000000 0.346654 0.569696
0.294133 0.265873 0.558495
0.542626 0.244297 0.545434
0.733486 0.259159 0.543053
0.907439 0.385595 0.582696
1.000000 0.511711 0.632105
1.000000 0.611658 0.685451
0.000000 0.459754 0.560266
0.000000 0.455909 0.559014
0.332708 0.431739 0.552209
0.540642 0.385473 0.542412
0.753140 0.430396 0.570916
0.916686 0.543938 0.635950
1.000000 0.645258 0.701320
1.000000 0.681483 0.721828
0.000000 0.576165 0.552270
0.000000 0.574212 0.552361
0.342901 0.565942 0.551843
0.549584 0.549584 0.549584
0.778927 0.629389 0.630426
0.917144 0.682948 0.684657
0.999573 0.716915 0.718959
1.000000 0.732021 0.734371
0.000000 0.703578 0.541711
0.146395 0.699855 0.540032
0.363653 0.693660 0.540978
0.559564 0.690547 0.557549
0.717128 0.683589 0.559289
0.929778 0.804379 0.731655
0.999268 0.806699 0.752499
1.000000 0.799100 0.757595
0.144503 0.815274 0.525231
0.238865 0.820493 0.533471
0.401099 0.811154 0.541619
0.565881 0.802243 0.561822
0.703029 0.795865 0.562066
0.839902 0.784817 0.563592
0.988678 0.862547 0.740322
1.000000 0.870970 0.790036
0.237797 0.910094 0.516503
0.294377 0.909483 0.522148
0.431739 0.905119 0.542779
0.572351 0.898955 0.566217
0.691676 0.892424 0.565026
0.818753 0.884459 0.564446
0.940093 0.868833 0.567376
1.000000 0.895293 0.729122
0.324437 0.998627 0.527642
0.366644 0.997436 0.535943
0.474891 0.991730 0.560143
0.587182 0.985718 0.579309
0.689693 0.979736 0.577600
0.803220 0.972625 0.577417
0.921843 0.964782 0.580011
1.000000 0.942107 0.584863
0.000000 0.381903 0.708400
0.000000 0.365881 0.708186
0.000000 0.262089 0.702846
0.461921 0.245335 0.689204
0.684474 0.236973 0.688319
0.828275 0.265537 0.658320
0.964843 0.404089 0.676570
1.000000 0.537407 0.708370
0.000000 0.425605 0.709133
0.000000 0.414130 0.710353
0.066682 0.330388 0.704555
0.463264 0.296147 0.688472
0.682887 0.286961 0.686580
0.826780 0.309636 0.659052
0.964630 0.442298 0.684016
1.000000 0.562005 0.716182
0.000000 0.514977 0.705531
0.000000 0.513725 0.705409
0.266606 0.486946 0.697841
0.470680 0.422278 0.689845
0.676204 0.406439 0.679103
0.815122 0.416815 0.656062
0.961120 0.541711 0.704494
1.000000 0.629603 0.737789
0.000000 0.609552 0.698207
0.000000 0.607599 0.697322
0.298009 0.603510 0.696590
0.518975 0.591516 0.691737
0.676234 0.551568 0.677760
0.836027 0.591608 0.696590
0.965393 0.679683 0.751431
1.000000 0.736202 0.785031
0.000000 0.719295 0.689784
0.000000 0.717617 0.689662
0.311315 0.709102 0.686732
0.520714 0.695064 0.682826
0.674434 0.674434 0.674434
0.865385 0.754452 0.755184
0.970367 0.799344 0.800504
1.000000 0.816464 0.817868
0.000000 0.800839 0.651911
0.100893 0.798917 0.652247
0.328832 0.790433 0.651118
0.513176 0.781796 0.656031
0.664698 0.775296 0.663020
0.806302 0.777005 0.672358
0.977996 0.891295 0.841032
1.000000 0.885954 0.847959
0.128969 0.904875 0.636744
0.212772 0.902434 0.637446
0.372839 0.896361 0.643549
0.536217 0.889647 0.658717
0.676783 0.883513 0.673365
0.798428 0.878202 0.673518
0.917510 0.867002 0.673548
1.000000 0.915312 0.820706
0.225223 0.991821 0.620386
0.277653 0.990082 0.623224
0.406744 0.984619 0.635035
0.563195 0.982330 0.665309
0.687892 0.974182 0.682918
0.793668 0.967803 0.681025
0.906188 0.960876 0.681178
1.000000 0.943114 0.682521
0.000000 0.448035 0.825223
0.000000 0.439399 0.824308
0.000000 0.385931 0.818601
0.339300 0.324254 0.814572
0.607752 0.310704 0.804349
0.793423 0.312322 0.797726
0.917815 0.352148 0.766812
1.000000 0.460914 0.762997
0.000000 0.475288 0.817655
0.000000 0.467231 0.816281
0.000000 0.432288 0.811856
0.344915 0.358923 0.808927
0.603845 0.343236 0.797757
0.788113 0.343206 0.792233
0.913817 0.378302 0.764645
1.000000 0.482490 0.764828
0.000000 0.560204 0.819425
0.000000 0.556146 0.818875
0.178653 0.537987 0.815793
0.382971 0.469612 0.811917
0.611933 0.450782 0.798215
0.786984 0.445930 0.790494
0.910552 0.467994 0.768215
1.000000 0.562005 0.779324
0.000000 0.642695 0.819028
0.000000 0.641352 0.817258
0.247196 0.642573 0.816007
0.499153 0.641627 0.816129
0.638270 0.593774 0.807065
0.794064 0.578485 0.796536
0.911528 0.584894 0.779629
1.000000 0.676356 0.808896
0.000000 0.729549 0.804990
0.000000 0.728908 0.804868
0.261387 0.726833 0.803983
0.495094 0.726162 0.803128
0.658473 0.714992 0.797757
0.781888 0.676234 0.783261
0.916991 0.712398 0.800534
1.000000 0.784329 0.841428
0.000000 0.824582 0.791012
0.000000 0.825315 0.792935
0.279240 0.820005 0.791928
0.489265 0.809934 0.789578
0.645258 0.795590 0.784634
0.780850 0.780819 0.780850
0.945251 0.863584 0.864103
1.000000 0.890593 0.891356
0.000000 0.910674 0.765286
0.054383 0.910582 0.767178
0.320592 0.904662 0.768948
0.497566 0.895933 0.772763
0.649897 0.887236 0.775906
0.783627 0.879484 0.782223
0.899168 0.873075 0.782010
1.000000 0.947967 0.915740
0.000000 0.992920 0.735195
0.126986 0.991119 0.735805
0.327245 0.985870 0.739681
0.499550 0.980224 0.750240
0.651881 0.972015 0.764126
0.782956 0.963836 0.780117
0.890562 0.958984 0.781460
0.991547 0.946777 0.781765
0.000000 0.491737 0.905180
0.000000 0.488808 0.906249
0.000000 0.478981 0.903777
0.139193 0.384649 0.903990
0.502983 0.378424 0.895964
0.715328 0.363989 0.884794
0.875731 0.375586 0.880339
0.986236 0.418921 0.851377
0.000000 0.510857 0.899382
0.000000 0.507805 0.900267
0.000000 0.498787 0.898039
0.161440 0.407965 0.897154
0.501213 0.399176 0.888823
0.708705 0.381567 0.876890
0.867216 0.387915 0.871672
0.979065 0.421942 0.844083
0.000000 0.578637 0.902617
0.000000 0.575280 0.901915
0.000000 0.566308 0.898436
0.336004 0.531151 0.894621
0.521202 0.486091 0.887388
0.713710 0.468086 0.876341
0.869413 0.472206 0.873411
0.981079 0.498695 0.851041
0.000000 0.654383 0.902800
0.000000 0.653681 0.901335
0.000000 0.655787 0.899046
0.429328 0.653986 0.894682
0.559319 0.603449 0.888945
0.726314 0.583978 0.879576
0.873259 0.579095 0.876524
0.980621 0.590906 0.856809
0.000000 0.729946 0.892149
0.000000 0.728725 0.890776
0.000000 0.727413 0.888640
0.408087 0.731197 0.887816
0.611627 0.728939 0.883452
0.726589 0.682826 0.874296
0.865721 0.668605 0.868070
0.975311 0.679255 0.857176
0.000000 0.818784 0.883940
0.000000 0.818143 0.883787
0.065888 0.816342 0.883330
0.415290 0.815183 0.883482
0.605005 0.813474 0.883299
0.760464 0.809079 0.882200
0.870665 0.776455 0.871885
0.980346 0.808377 0.882689
0.000000 0.918120 0.879911
0.000000 0.917906 0.880674
0.157259 0.914183 0.880369
0.425605 0.907927 0.880186
0.603174 0.897276 0.877714
0.750118 0.884764 0.874723
0.869780 0.869749 0.869780
0.989899 0.935546 0.935882
0.000000 0.990295 0.843198
0.000000 0.989319 0.843503
0.169314 0.988708 0.848417
0.420356 0.982849 0.852689
0.596551 0.973663 0.857694
0.748714 0.964538 0.863615
0.873320 0.956817 0.872099
0.972564 0.949798 0.871885
0.000000 0.523156 0.970336
0.000000 0.522454 0.970550
0.000000 0.524468 0.967712
0.000000 0.472755 0.968109
0.394018 0.432532 0.966094
0.622950 0.426825 0.960845
0.804746 0.420172 0.955779
0.948241 0.433448 0.953094
0.000000 0.536797 0.967742
0.000000 0.536004 0.967987
0.000000 0.537194 0.965667
0.127565 0.499123 0.964813
0.399145 0.450813 0.963317
0.622827 0.443702 0.958038
0.802090 0.433143 0.952270
0.945006 0.443549 0.949767
0.000000 0.581933 0.965698
0.000000 0.580713 0.965515
0.000000 0.579034 0.962524
0.316991 0.588891 0.961395
0.431067 0.519493 0.960937
0.631403 0.507195 0.954833
0.803189 0.491371 0.949096
0.943267 0.497383 0.947723
0.000000 0.643214 0.964996
0.000000 0.644343 0.965301
0.000000 0.644800 0.963317
0.307988 0.653651 0.960174
0.503990 0.629938 0.957763
0.648676 0.599054 0.953887
0.807309 0.579034 0.948486
0.943847 0.578851 0.947723
0.000000 0.713649 0.960235
0.000000 0.713436 0.960845
0.000000 0.711299 0.960143
0.000000 0.711940 0.959869
0.537224 0.729366 0.953979
0.659754 0.689021 0.950744
0.807309 0.669886 0.945983
0.943908 0.670283 0.947021
0.000000 0.797787 0.955230
0.000000 0.796445 0.954498
0.000000 0.793027 0.953033
0.000000 0.790280 0.952117
0.464332 0.794247 0.951843
0.703578 0.807980 0.951080
0.820340 0.779202 0.950469
0.949676 0.776974 0.951781
0.000000 0.893492 0.952941
0.000000 0.892424 0.952453
0.000000 0.889158 0.951385
0.008148 0.885893 0.951049
0.473823 0.883818 0.950744
0.684199 0.884886 0.951690
0.848478 0.890288 0.954314
0.947143 0.863249 0.948241
0.000000 0.999359 0.954192
0.000000 0.998505 0.954009
0.000000 0.996277 0.954376
0.181155 0.990875 0.954345
0.500298 0.982422 0.953857
0.694484 0.971954 0.952972
0.840787 0.960937 0.951843
0.947753 0.947723 0.947753
