其他预设/【231】淡彩糖果色预设10款/1.LUT预设（视频调色-PR-AE-PS-FCPX-达芬奇用）/淡彩糖果色__-9.cube
# Created by Adobe Lightroom plugin Export LUT (1.17.0)
# www.johnrellis.com/lightroom/exportlut.htm
# Preset: 淡彩糖果色[素锦印象]-9
# Color profile: /Library/Application Support/Adobe/Color/Profiles/Recommended/AdobeRGB1998.icc
LUT_3D_SIZE 32
0.000000 0.000000 0.000000
0.079866 0.000000 0.000427
0.114748 0.000000 0.000427
0.171298 0.000000 0.000000
0.238437 0.000000 0.000000
0.300420 0.000000 0.000000
0.356268 0.000000 0.000000
0.406531 0.000000 0.000000
0.453193 0.000000 0.000000
0.496834 0.000000 0.000000
0.538354 0.000000 0.000000
0.577447 0.000000 0.000000
0.614069 0.000000 0.000000
0.648188 0.000000 0.000000
0.679133 0.000000 0.000000
0.706294 0.000000 0.000000
0.730373 0.000000 0.000000
0.752316 0.000000 0.000000
0.773312 0.000000 0.017395
0.806149 0.000000 0.055360
0.836301 0.000000 0.075441
0.862333 0.000000 0.090059
0.884550 0.000000 0.102113
0.903990 0.000000 0.112398
0.921416 0.000000 0.120272
0.937865 0.000000 0.127565
0.954253 0.000000 0.134218
0.970825 0.000000 0.140932
0.987793 0.060090 0.148074
1.000000 0.090730 0.155673
1.000000 0.115053 0.164309
1.000000 0.136995 0.174044
0.056794 0.072633 0.000000
0.081910 0.073793 0.000000
0.112276 0.071748 0.000000
0.169589 0.067170 0.000000
0.236149 0.052918 0.000000
0.297215 0.004608 0.000000
0.352636 0.000000 0.000000
0.402319 0.000000 0.000000
0.448585 0.000000 0.000000
0.492103 0.000000 0.000000
0.533257 0.000000 0.000000
0.572137 0.000000 0.000000
0.608576 0.000000 0.000000
0.642542 0.000000 0.000000
0.673579 0.000000 0.000000
0.701015 0.000000 0.000000
0.725368 0.000000 0.000000
0.747555 0.000000 0.000000
0.768612 0.000000 0.013947
0.800931 0.000000 0.050599
0.830106 0.000000 0.070985
0.855680 0.000000 0.085328
0.877806 0.000000 0.097780
0.897398 0.000000 0.107668
0.915099 0.000000 0.115358
0.931914 0.000000 0.122438
0.948760 0.000000 0.128878
0.965789 0.000000 0.135836
0.983276 0.064454 0.142580
1.000000 0.092592 0.150454
1.000000 0.115480 0.158816
1.000000 0.136507 0.168490
0.080720 0.105257 0.000000
0.106630 0.106264 0.000000
0.119478 0.107393 0.000000
0.167819 0.110323 0.000000
0.233371 0.108095 0.000000
0.294102 0.098573 0.000000
0.348791 0.082307 0.000000
0.398260 0.059510 0.000000
0.444373 0.000000 0.000000
0.487922 0.000000 0.000000
0.529107 0.000000 0.000000
0.568078 0.000000 0.000000
0.604639 0.000000 0.000000
0.638758 0.000000 0.000000
0.670008 0.000000 0.000000
0.697749 0.000000 0.000000
0.722255 0.000000 0.000000
0.744503 0.000000 0.000000
0.765835 0.000000 0.010986
0.798184 0.000000 0.046967
0.826810 0.000000 0.069429
0.852171 0.000000 0.083467
0.874235 0.000000 0.095369
0.893858 0.000000 0.104799
0.911650 0.000000 0.113008
0.928618 0.000000 0.119722
0.945647 0.000000 0.126375
0.962951 0.056092 0.133303
0.980713 0.082429 0.140200
0.998657 0.104677 0.147890
1.000000 0.123964 0.156130
1.000000 0.142794 0.165713
0.126192 0.161013 0.000000
0.145541 0.163149 0.000000
0.167391 0.165255 0.000000
0.185245 0.165682 0.000000
0.232944 0.167819 0.000000
0.291447 0.165652 0.000000
0.345769 0.156222 0.000000
0.394995 0.144778 0.000000
0.440803 0.131685 0.000000
0.484138 0.117464 0.000000
0.525017 0.103059 0.000000
0.563806 0.086641 0.000000
0.600153 0.068269 0.000000
0.634119 0.031403 0.000000
0.665553 0.000000 0.000000
0.693507 0.000000 0.000000
0.718288 0.000000 0.000000
0.740658 0.000000 0.000000
0.764034 0.000000 0.008118
0.794095 0.000000 0.042786
0.821225 0.000000 0.066407
0.845853 0.000000 0.080232
0.868101 0.000000 0.092073
0.888579 0.019409 0.102174
0.907652 0.059052 0.110353
0.925933 0.075776 0.118318
0.943938 0.091127 0.125734
0.961883 0.106325 0.133089
0.979889 0.120516 0.140261
0.997742 0.134066 0.147616
1.000000 0.147707 0.155337
1.000000 0.161593 0.163729
0.177096 0.224521 0.000000
0.191958 0.226474 0.000000
0.210788 0.228794 0.000000
0.237888 0.230686 0.000000
0.253025 0.226780 0.000000
0.288609 0.223362 0.000000
0.340185 0.217929 0.000000
0.387640 0.210361 0.000000
0.433417 0.199893 0.000000
0.476509 0.189944 0.000000
0.517571 0.179629 0.000000
0.556481 0.169497 0.000000
0.593072 0.159487 0.000000
0.627497 0.149660 0.000000
0.659663 0.140200 0.000000
0.688655 0.130953 0.000000
0.714473 0.121645 0.000000
0.737545 0.113710 0.000000
0.764034 0.109834 0.007935
0.792538 0.110018 0.043702
0.818448 0.112276 0.066163
0.842313 0.115297 0.079469
0.864225 0.119265 0.090547
0.884733 0.123964 0.100649
0.904082 0.129152 0.109133
0.922698 0.135073 0.117067
0.940978 0.142061 0.124453
0.959106 0.149569 0.131502
0.977173 0.158083 0.138399
0.995178 0.167117 0.145663
1.000000 0.176791 0.153262
1.000000 0.187228 0.161654
0.226566 0.286778 0.000000
0.238804 0.288701 0.000000
0.253696 0.290654 0.000000
0.284001 0.294530 0.000000
0.305272 0.292454 0.000000
0.316930 0.284886 0.000000
0.340917 0.276982 0.000000
0.386908 0.268956 0.000000
0.429938 0.261051 0.000000
0.472358 0.252049 0.000000
0.513268 0.243015 0.000000
0.552209 0.233768 0.000000
0.588800 0.225101 0.000000
0.623468 0.216342 0.000000
0.655879 0.208408 0.000000
0.685420 0.200076 0.000000
0.711666 0.192233 0.000000
0.735164 0.185122 0.000000
0.764981 0.182803 0.009064
0.792538 0.181216 0.046265
0.818051 0.180758 0.068116
0.842008 0.180606 0.081727
0.903197 0.213962 0.125368
0.921996 0.217075 0.136233
0.939025 0.219730 0.144839
0.954955 0.221927 0.152224
0.970245 0.224613 0.158785
0.985290 0.227909 0.165194
1.000000 0.231876 0.171328
1.000000 0.236606 0.177829
1.000000 0.241886 0.184878
1.000000 0.247257 0.191745
0.283879 0.358984 0.000000
0.293736 0.360235 0.000000
0.306432 0.362005 0.000000
0.332952 0.365637 0.000000
0.371191 0.371252 0.000000
0.380987 0.362615 0.000000
0.388891 0.351263 0.000000
0.402777 0.338842 0.000000
0.445655 0.328161 0.000000
0.486397 0.319188 0.000000
0.525170 0.311192 0.000000
0.564263 0.301701 0.000000
0.600458 0.292119 0.000000
0.634211 0.282841 0.000000
0.665095 0.273442 0.000000
0.692470 0.264164 0.000000
0.717281 0.255436 0.000000
0.745541 0.249912 0.000000
0.775448 0.247471 0.026886
0.803799 0.245853 0.063996
0.831479 0.246036 0.082002
0.858518 0.247471 0.098024
0.884092 0.250462 0.113100
0.907622 0.253605 0.126741
0.928771 0.256840 0.138552
0.947234 0.258732 0.147707
0.963958 0.260441 0.155306
0.979797 0.262028 0.161898
0.995392 0.264103 0.168124
1.000000 0.266789 0.174289
1.000000 0.269902 0.180423
1.000000 0.273289 0.186954
0.324559 0.409491 0.000000
0.332280 0.410468 0.000000
0.342596 0.411719 0.000000
0.364446 0.414649 0.000000
0.396368 0.419257 0.000000
0.425177 0.420172 0.000000
0.432044 0.409644 0.000000
0.437964 0.397253 0.000000
0.444373 0.383276 0.000000
0.484932 0.372595 0.000000
0.523308 0.363531 0.000000
0.559380 0.355138 0.000000
0.594049 0.346441 0.000000
0.627863 0.336828 0.000000
0.659083 0.327276 0.000000
0.686885 0.317388 0.000000
0.714931 0.309667 0.000000
0.745205 0.304814 0.000000
0.772702 0.300420 0.032105
0.799466 0.296910 0.065156
0.826047 0.295048 0.082948
0.852293 0.294560 0.098360
0.877409 0.295293 0.112581
0.900694 0.296239 0.125490
0.921874 0.297093 0.136507
0.940612 0.297429 0.145602
0.957733 0.297307 0.152804
0.974060 0.297185 0.158877
0.990112 0.297887 0.165072
1.000000 0.298863 0.170718
1.000000 0.300603 0.176913
1.000000 0.302464 0.183291
0.363653 0.457191 0.000000
0.370153 0.458015 0.000000
0.378668 0.459205 0.000000
0.396796 0.461646 0.000000
0.423987 0.465675 0.000000
0.457954 0.470710 0.000000
0.475380 0.466377 0.000000
0.481147 0.455268 0.000000
0.485451 0.442084 0.000000
0.487587 0.425818 0.000000
0.524163 0.416938 0.000000
0.560082 0.407019 0.000000
0.593408 0.397833 0.000000
0.624353 0.388983 0.000000
0.654871 0.379339 0.000000
0.685420 0.370520 0.000000
0.717464 0.364508 0.000000
0.745052 0.357671 0.003449
0.770932 0.351171 0.047059
0.796597 0.346166 0.070436
0.822354 0.342870 0.086610
0.847990 0.340795 0.100801
0.872587 0.339788 0.114290
0.895628 0.339178 0.126375
0.916655 0.338506 0.137087
0.935485 0.337102 0.145418
0.952850 0.335607 0.152285
0.969390 0.334142 0.158206
0.985687 0.333318 0.163485
1.000000 0.332891 0.168856
1.000000 0.333196 0.174594
1.000000 0.333593 0.180362
0.401404 0.502068 0.003143
0.406622 0.502678 0.009155
0.413611 0.503532 0.009125
0.428962 0.505608 0.017639
0.451911 0.508934 0.032319
0.481270 0.513420 0.051637
0.516136 0.519036 0.067475
0.521691 0.508995 0.048768
0.526360 0.497627 0.006012
0.529747 0.484321 0.000000
0.527794 0.465003 0.000000
0.559625 0.457252 0.000000
0.593042 0.446784 0.000000
0.624262 0.437049 0.000000
0.657710 0.431159 0.000000
0.689906 0.425971 0.000000
0.719753 0.418036 0.000000
0.746365 0.409400 0.029725
0.771450 0.401770 0.063722
0.796078 0.395209 0.080110
0.820432 0.390082 0.093324
0.844236 0.385870 0.105715
0.867185 0.382483 0.116518
0.888884 0.379614 0.127138
0.909209 0.376928 0.136049
0.928099 0.374243 0.143740
0.946014 0.371771 0.150179
0.963439 0.369757 0.156191
0.980621 0.368383 0.162173
0.997498 0.367529 0.168032
1.000000 0.367315 0.173983
1.000000 0.367163 0.180331
0.434607 0.541436 0.074220
0.439155 0.542138 0.075380
0.445472 0.543114 0.076875
0.458625 0.545190 0.080781
0.478706 0.548547 0.086091
0.504845 0.553063 0.093874
0.536278 0.558892 0.103365
0.562219 0.560845 0.107546
0.566583 0.550591 0.093843
0.570672 0.539208 0.075990
0.572808 0.525414 0.045289
0.567132 0.503380 0.001678
0.596460 0.498451 0.000000
0.633356 0.492195 0.000000
0.666102 0.484627 0.000000
0.694545 0.475898 0.002045
0.719692 0.466560 0.026825
0.743740 0.457221 0.058869
0.768002 0.448035 0.074403
0.792081 0.440162 0.087404
0.815976 0.433875 0.099580
0.839597 0.428656 0.110384
0.862516 0.424445 0.121157
0.884245 0.420569 0.130404
0.904509 0.416907 0.139010
0.923369 0.413031 0.145754
0.941222 0.409308 0.151339
0.958587 0.406195 0.156710
0.975860 0.403632 0.161746
0.992920 0.401862 0.166964
1.000000 0.400580 0.172610
1.000000 0.399573 0.178408
0.468849 0.581140 0.108797
0.472786 0.581842 0.110170
0.478187 0.582666 0.111666
0.489601 0.584619 0.114473
0.507256 0.587854 0.119326
0.530297 0.592065 0.125460
0.558190 0.597467 0.133791
0.590173 0.603662 0.144137
0.605676 0.600702 0.141176
0.610163 0.591089 0.126497
0.614191 0.580224 0.109895
0.623224 0.573663 0.093782
0.654047 0.586633 0.105623
0.678492 0.580529 0.088045
0.706783 0.567010 0.094026
0.731746 0.553338 0.100496
0.754543 0.540459 0.106111
0.775570 0.528527 0.112245
0.795560 0.517754 0.117952
0.817288 0.507897 0.126192
0.838987 0.499031 0.134585
0.860014 0.491341 0.142824
0.879973 0.484077 0.150301
0.899107 0.477699 0.157229
0.917266 0.471565 0.163149
0.934447 0.465766 0.168429
0.950866 0.460151 0.172519
0.966735 0.454994 0.176272
0.982452 0.450538 0.179721
0.998108 0.446723 0.183322
1.000000 0.443580 0.187655
1.000000 0.440711 0.192477
0.513207 0.631769 0.149111
0.516503 0.632136 0.150210
0.520592 0.632166 0.150942
0.529656 0.632776 0.153140
0.543816 0.633936 0.156435
0.562402 0.635798 0.161288
0.585718 0.638972 0.168612
0.613123 0.643336 0.177951
0.644770 0.649409 0.189883
0.657557 0.649134 0.185183
0.669673 0.647578 0.178073
0.681392 0.644648 0.167697
0.690578 0.638666 0.154055
0.686610 0.619226 0.139895
0.705379 0.612634 0.120363
0.730434 0.598199 0.124269
0.752743 0.583734 0.127108
0.773037 0.570001 0.129793
0.792416 0.557641 0.133364
0.811582 0.546960 0.136904
0.831113 0.537987 0.141268
0.852049 0.529229 0.147829
0.871885 0.521141 0.154177
0.891051 0.513695 0.159670
0.909300 0.506706 0.164492
0.926635 0.500053 0.168551
0.943297 0.493782 0.171817
0.959594 0.487984 0.175082
0.975860 0.482856 0.177890
0.992096 0.478737 0.181521
1.000000 0.475105 0.185275
1.000000 0.471901 0.189944
0.539239 0.660334 0.176791
0.542199 0.660700 0.177584
0.545617 0.660822 0.178439
0.553460 0.661250 0.180484
0.565484 0.662074 0.183352
0.583398 0.665339 0.189883
0.606714 0.671046 0.199405
0.634089 0.677943 0.211093
0.665339 0.686366 0.225223
0.692195 0.692531 0.234745
0.701350 0.689540 0.227268
0.710750 0.685908 0.217838
0.719203 0.680629 0.205386
0.724605 0.671717 0.188357
0.717678 0.650385 0.171267
0.728481 0.640620 0.147250
0.750027 0.624720 0.147433
0.769772 0.609644 0.148165
0.788785 0.595941 0.149477
0.807645 0.584131 0.151247
0.826627 0.574121 0.153506
0.845518 0.565606 0.155978
0.864652 0.557458 0.159731
0.884092 0.549584 0.164157
0.902617 0.542016 0.168124
0.920256 0.534844 0.171756
0.937255 0.527947 0.174258
0.953918 0.521660 0.176608
0.970550 0.516167 0.179080
0.987243 0.511589 0.182101
1.000000 0.507683 0.186038
1.000000 0.504051 0.190280
0.573236 0.696559 0.213291
0.576104 0.697261 0.214755
0.579309 0.697597 0.215457
0.586755 0.698543 0.217685
0.598077 0.700008 0.221347
0.613184 0.702205 0.226169
0.632288 0.705562 0.233524
0.655299 0.710262 0.242588
0.682063 0.716579 0.254215
0.712367 0.724575 0.268650
0.729183 0.725856 0.269993
0.736934 0.722103 0.261357
0.744289 0.717067 0.250278
0.750179 0.709987 0.235416
0.752712 0.699062 0.216495
0.743465 0.676326 0.196658
0.748226 0.664820 0.169345
0.767453 0.648554 0.167483
0.786007 0.633814 0.166781
0.804440 0.620783 0.166629
0.822904 0.609583 0.167361
0.841367 0.599908 0.168032
0.859373 0.591272 0.168734
0.877195 0.583703 0.169986
0.895811 0.576043 0.172885
0.914122 0.568780 0.175662
0.932067 0.562097 0.178378
0.949859 0.556298 0.181521
0.967620 0.551263 0.184878
0.985321 0.547143 0.188815
1.000000 0.543542 0.193759
1.000000 0.540032 0.199496
0.605158 0.729854 0.247623
0.607874 0.730587 0.248905
0.610803 0.731014 0.249790
0.617365 0.731868 0.251926
0.627405 0.733181 0.255314
0.640986 0.735225 0.260105
0.657984 0.738308 0.266606
0.678370 0.742397 0.275120
0.701991 0.747524 0.285863
0.728176 0.753597 0.298253
0.756435 0.760403 0.312444
0.762722 0.755947 0.303868
0.767453 0.749813 0.291875
0.771328 0.742031 0.277043
0.773953 0.732387 0.258946
0.773770 0.719570 0.237491
0.763882 0.697017 0.216434
0.765774 0.684657 0.189242
0.783597 0.670405 0.185122
0.802487 0.657343 0.184329
0.821378 0.645899 0.183780
0.840085 0.635767 0.184146
0.858244 0.626703 0.184207
0.876158 0.618585 0.184298
0.893675 0.611353 0.184360
0.911254 0.604791 0.185031
0.929595 0.597986 0.187289
0.947692 0.591943 0.189975
0.965545 0.586542 0.193149
0.983154 0.581750 0.196048
1.000000 0.577203 0.199802
1.000000 0.572778 0.204166
0.630304 0.755337 0.274998
0.632288 0.755642 0.275425
0.634699 0.755764 0.276371
0.640253 0.756344 0.277989
0.648951 0.757321 0.280919
0.660609 0.758846 0.285130
0.675410 0.761196 0.290990
0.693202 0.764309 0.298161
0.713680 0.768338 0.307286
0.736721 0.773159 0.318334
0.761715 0.778775 0.331243
0.781888 0.781765 0.338628
0.786252 0.776516 0.327947
0.789944 0.769802 0.314763
0.792538 0.761410 0.298528
0.793790 0.751125 0.278996
0.792691 0.738094 0.257084
0.782986 0.716396 0.235477
0.783536 0.703365 0.208988
0.799313 0.691279 0.200809
0.817838 0.679072 0.198978
0.836240 0.668238 0.197574
0.854307 0.658473 0.196689
0.872190 0.649866 0.196048
0.889799 0.642084 0.195254
0.907286 0.635370 0.194675
0.924834 0.629541 0.194339
0.942962 0.624109 0.195346
0.961425 0.618769 0.198306
0.979553 0.613947 0.201450
0.997070 0.609461 0.205051
1.000000 0.604852 0.209873
0.653651 0.778500 0.301061
0.656092 0.779324 0.302434
0.680903 0.800870 0.331670
0.685664 0.801205 0.333135
0.692897 0.801602 0.335637
0.702449 0.802213 0.338811
0.714504 0.803159 0.343236
0.729030 0.804685 0.348852
0.746120 0.806943 0.356481
0.765408 0.809964 0.365942
0.786404 0.813565 0.376715
0.808499 0.817380 0.388891
0.818753 0.815213 0.386053
0.821164 0.808560 0.371771
0.822995 0.800595 0.355169
0.824063 0.791257 0.335851
0.824277 0.780514 0.314214
0.822538 0.767422 0.290379
0.812894 0.746334 0.266880
0.811734 0.732235 0.239994
0.824735 0.721004 0.226749
0.841947 0.708736 0.223545
0.859037 0.697627 0.220523
0.875731 0.687495 0.217929
0.891814 0.677913 0.214817
0.907805 0.669215 0.211551
0.923857 0.661463 0.208530
0.940368 0.654994 0.205997
0.957519 0.650050 0.204501
0.975647 0.645045 0.206882
0.993439 0.640345 0.209995
1.000000 0.635401 0.213962
0.680140 0.803891 0.331823
0.684504 0.806729 0.336095
0.689479 0.809567 0.340612
0.696223 0.812253 0.345617
0.704646 0.814450 0.350500
0.714137 0.815854 0.354986
0.725246 0.817014 0.359228
0.738155 0.818296 0.364599
0.753384 0.820188 0.371496
0.770382 0.822568 0.379706
0.789120 0.825437 0.389288
0.808988 0.828611 0.400153
0.829282 0.831632 0.411597
0.832486 0.826230 0.399451
0.834287 0.819333 0.384100
0.835538 0.811276 0.366400
0.836301 0.802090 0.346593
0.836576 0.791897 0.324773
0.835325 0.779873 0.301884
0.827146 0.760769 0.279454
0.825834 0.747158 0.253819
0.838102 0.738582 0.238224
0.855314 0.727413 0.234562
0.872251 0.717128 0.231296
0.888609 0.707454 0.227634
0.904845 0.698634 0.224033
0.921080 0.690669 0.220432
0.937713 0.683986 0.217655
0.954925 0.678645 0.215793
0.972473 0.674403 0.215061
0.990021 0.670558 0.215793
1.000000 0.665492 0.219242
0.696010 0.819089 0.349218
0.699886 0.821469 0.353399
0.704250 0.824002 0.357580
0.710231 0.826291 0.362005
0.717739 0.828183 0.366522
0.726223 0.829404 0.370550
0.736080 0.830320 0.374731
0.747616 0.831418 0.379522
0.761166 0.832975 0.385657
0.776455 0.834928 0.393164
0.793271 0.837339 0.402136
0.811185 0.839963 0.411902
0.829557 0.842435 0.422034
0.843687 0.842741 0.426276
0.845548 0.836820 0.412055
0.847044 0.829953 0.395727
0.848234 0.822141 0.377447
0.849088 0.813565 0.357702
0.849882 0.804349 0.336553
0.849516 0.793606 0.314397
0.842618 0.776333 0.292851
0.841428 0.763424 0.268864
0.852689 0.756863 0.250309
0.869566 0.746456 0.246159
0.885924 0.736507 0.241917
0.902037 0.727260 0.237217
0.918151 0.718868 0.232731
0.934630 0.711727 0.229068
0.951690 0.705867 0.226413
0.969116 0.701167 0.224765
0.986542 0.697139 0.224125
1.000000 0.693263 0.224430
0.711025 0.833341 0.365637
0.714504 0.835508 0.369451
0.718471 0.837675 0.373388
0.723842 0.839689 0.377661
0.730556 0.841337 0.381903
0.738064 0.842344 0.385626
0.746822 0.843076 0.389349
0.757046 0.843900 0.393591
0.769070 0.845029 0.399115
0.782620 0.846525 0.405737
0.797635 0.848386 0.413428
0.813687 0.850431 0.422187
0.830320 0.852415 0.431312
0.847501 0.854459 0.441230
0.855650 0.852262 0.437446
0.857786 0.846891 0.423285
0.860075 0.841062 0.408179
0.862486 0.834836 0.391760
0.865049 0.828305 0.374304
0.867826 0.821500 0.355993
0.869566 0.813321 0.336553
0.865263 0.799069 0.317266
0.864744 0.787381 0.295079
0.875639 0.783108 0.274205
0.892424 0.773617 0.270237
0.908690 0.764553 0.265965
0.924865 0.756100 0.261753
0.941161 0.748684 0.258000
0.957824 0.742275 0.255344
0.974517 0.736721 0.253483
0.990906 0.731655 0.252873
1.000000 0.726467 0.253086
0.734157 0.854398 0.394476
0.736172 0.855314 0.396429
0.738399 0.856107 0.398260
0.742031 0.856809 0.400458
0.747066 0.857420 0.403052
0.753323 0.857847 0.405829
0.760983 0.858335 0.409125
0.770291 0.859098 0.413428
0.781247 0.860227 0.418830
0.793759 0.861692 0.425574
0.807431 0.863401 0.433478
0.822049 0.865202 0.441993
0.837095 0.866850 0.450752
0.852567 0.868406 0.459876
0.868315 0.869871 0.469245
0.871397 0.865721 0.457435
0.873716 0.860777 0.443030
0.876249 0.855467 0.427375
0.878874 0.849851 0.410925
0.881682 0.843839 0.393194
0.884550 0.837461 0.374243
0.886229 0.829618 0.354070
0.882109 0.815885 0.333806
0.880430 0.803586 0.310887
0.889799 0.800229 0.285771
0.905943 0.790951 0.280644
0.922087 0.782437 0.275731
0.938445 0.774838 0.271397
0.954955 0.768185 0.268040
0.971557 0.762264 0.265415
0.987793 0.756771 0.263828
1.000000 0.751278 0.263340
0.747127 0.866453 0.408850
0.748989 0.867338 0.410803
0.751064 0.868101 0.412726
0.754421 0.868772 0.414954
0.758907 0.869230 0.417334
0.764370 0.869505 0.419562
0.771115 0.869718 0.422339
0.779202 0.870146 0.425818
0.788907 0.870848 0.430640
0.799985 0.871885 0.436591
0.812253 0.873198 0.443549
0.825406 0.874571 0.451331
0.839139 0.875914 0.459358
0.853452 0.877226 0.468086
0.868070 0.878508 0.476967
0.879667 0.878477 0.480629
0.882322 0.874601 0.467842
0.885222 0.870390 0.454047
0.888304 0.865965 0.439551
0.891691 0.861295 0.423987
0.895323 0.856413 0.407385
0.899077 0.851255 0.389532
0.901701 0.844724 0.370489
0.898955 0.832731 0.351049
0.892515 0.816007 0.320439
0.901671 0.813748 0.293431
0.917449 0.805692 0.286595
0.933715 0.797971 0.281468
0.950225 0.791165 0.277104
0.966888 0.785061 0.273655
0.983398 0.779599 0.271641
0.999237 0.774319 0.271214
0.765682 0.882933 0.433600
0.767514 0.883757 0.435767
0.769223 0.884276 0.437293
0.771786 0.884550 0.438758
0.775326 0.884581 0.440040
0.779812 0.884428 0.441566
0.785367 0.884184 0.443366
0.792081 0.883970 0.445594
0.800046 0.883940 0.448676
0.809262 0.884154 0.452827
0.819516 0.884459 0.457771
0.830838 0.885039 0.463722
0.842924 0.885679 0.470222
0.855467 0.886229 0.477089
0.868315 0.886656 0.483986
0.881529 0.887114 0.491310
0.888273 0.885008 0.486458
0.890837 0.881132 0.472816
0.893950 0.877348 0.459052
0.897612 0.873625 0.445167
0.901610 0.869871 0.430793
0.905791 0.865843 0.414984
0.909911 0.861295 0.397436
0.912596 0.855009 0.377813
0.909850 0.843290 0.357305
0.907317 0.831052 0.334386
0.916808 0.829313 0.306950
0.931365 0.822538 0.296147
0.947356 0.815152 0.290379
0.963684 0.808621 0.285618
0.980102 0.802914 0.282811
0.995972 0.797391 0.281743
0.775509 0.892241 0.443824
0.777157 0.892973 0.445930
0.778744 0.893431 0.447425
0.781033 0.893645 0.448829
0.784268 0.893675 0.450111
0.788357 0.893523 0.451545
0.793515 0.893370 0.453498
0.799741 0.893278 0.455848
0.807156 0.893309 0.459113
0.815763 0.893553 0.463508
0.825284 0.893919 0.468482
0.835843 0.894469 0.474586
0.847044 0.895048 0.481178
0.858701 0.895598 0.488014
0.870695 0.895964 0.495033
0.882963 0.896361 0.502098
0.895659 0.896727 0.509758
0.899199 0.894011 0.499245
0.902495 0.891020 0.486915
0.906249 0.888090 0.474159
0.910369 0.885130 0.460914
0.914794 0.881926 0.446509
0.919280 0.878447 0.430426
0.923796 0.874510 0.412482
0.927001 0.869017 0.392889
0.925261 0.858518 0.372473
0.923308 0.847196 0.350500
0.933349 0.846189 0.323674
0.947662 0.841459 0.310643
0.963622 0.834653 0.305577
0.979736 0.828641 0.302770
0.995026 0.822568 0.301335
0.786740 0.902556 0.457404
0.788052 0.903044 0.458991
0.789151 0.903227 0.459846
0.790951 0.903166 0.460639
0.793606 0.902953 0.461250
0.797086 0.902617 0.462135
0.801541 0.902281 0.463416
0.807065 0.902037 0.465400
0.813779 0.901915 0.468299
0.821530 0.902068 0.472206
0.830289 0.902281 0.476967
0.840024 0.902708 0.482887
0.850340 0.903166 0.489235
0.861143 0.903532 0.495888
0.872160 0.903746 0.502281
0.883543 0.903868 0.508782
0.895201 0.904021 0.515709
0.904875 0.903593 0.518456
0.908171 0.901183 0.507286
0.911925 0.898802 0.495827
0.916106 0.896452 0.483619
0.920592 0.893980 0.470466
0.925261 0.891264 0.455909
0.930083 0.888273 0.439826
0.934966 0.884916 0.421759
0.938720 0.880125 0.402197
0.937926 0.870817 0.382300
0.937011 0.860777 0.360571
0.946868 0.859800 0.334691
0.960998 0.857084 0.319615
0.976806 0.850706 0.315496
0.991852 0.844236 0.312902
0.795377 0.910857 0.466224
0.796323 0.911101 0.467353
0.797299 0.911254 0.468116
0.799039 0.911254 0.468910
0.801724 0.911223 0.470100
0.805386 0.911254 0.472053
0.810300 0.911559 0.475227
0.816312 0.911986 0.479438
0.823453 0.912596 0.484901
0.831540 0.913390 0.491341
0.840391 0.914183 0.498573
0.849821 0.914946 0.506096
0.859648 0.915587 0.513787
0.869718 0.916014 0.521233
0.879881 0.916197 0.528252
0.890105 0.916106 0.534569
0.900572 0.915953 0.541039
0.911254 0.915801 0.547875
0.917815 0.914824 0.545495
0.921660 0.913237 0.535607
0.925872 0.911589 0.525261
0.930449 0.909911 0.513817
0.935302 0.908049 0.500847
0.940459 0.906065 0.486244
0.945892 0.903868 0.469886
0.951568 0.901488 0.451820
0.956359 0.897917 0.432441
0.957031 0.890227 0.412726
0.957977 0.882170 0.392157
0.967651 0.881346 0.368170
0.980621 0.879576 0.351995
0.993744 0.871580 0.348608
0.810452 0.923369 0.491249
0.811185 0.923461 0.491981
0.811826 0.923430 0.492409
0.813199 0.923278 0.492653
0.815305 0.923033 0.493202
0.818265 0.922759 0.494240
0.822141 0.922576 0.495979
0.826963 0.922484 0.498512
0.832731 0.922454 0.501946
0.839322 0.922484 0.506310
0.846616 0.922545 0.511131
0.854582 0.922606 0.516472
0.863035 0.922606 0.522148
0.871885 0.922515 0.527916
0.881010 0.922301 0.533654
0.890410 0.921996 0.539483
