其他预设/【231】淡彩糖果色预设10款/1.LUT预设（视频调色-PR-AE-PS-FCPX-达芬奇用）/淡彩糖果色__-4.cube
# Created by Adobe Lightroom plugin Export LUT (1.17.0)
# www.johnrellis.com/lightroom/exportlut.htm
# Preset: 淡彩糖果色[素锦印象]-4
# Color profile: /Library/Application Support/Adobe/Color/Profiles/Recommended/AdobeRGB1998.icc
LUT_3D_SIZE 5
DOMAIN_MIN 0.000000 0.000000 0.000000
DOMAIN_MAX 0.903226 0.903226 0.903226
0.060975 0.060975 0.060975
0.397436 0.000000 0.068238
0.717220 0.000000 0.112795
0.930571 0.000000 0.197940
1.000000 0.000000 0.271611
0.000000 0.354833 0.016083
0.366522 0.334447 0.065400
0.693446 0.270970 0.130098
0.919341 0.184665 0.206821
1.000000 0.159182 0.282780
0.000000 0.640894 0.112001
0.321813 0.632593 0.123629
0.676143 0.619287 0.161746
0.897765 0.529320 0.233524
1.000000 0.456580 0.296300
0.000000 0.852384 0.185336
0.288457 0.848142 0.192142
0.591180 0.830716 0.211704
0.870756 0.798123 0.243656
1.000000 0.699367 0.323919
0.158999 0.991699 0.247349
0.298833 0.988251 0.250950
0.533410 0.973236 0.256229
0.782376 0.957855 0.291447
1.000000 0.929961 0.344427
0.000000 0.196262 0.386847
0.334203 0.072145 0.389624
0.667262 0.000000 0.385687
0.894865 0.000000 0.387121
1.000000 0.108186 0.408026
0.000000 0.372137 0.379553
0.307225 0.347906 0.379797
0.655756 0.292210 0.379095
0.887999 0.252842 0.388190
1.000000 0.261357 0.410773
0.000000 0.636957 0.370916
0.269230 0.631159 0.365545
0.638178 0.606683 0.364111
0.870298 0.536248 0.391608
1.000000 0.490364 0.421912
0.000000 0.848966 0.363989
0.269627 0.845548 0.368048
0.578210 0.828733 0.375708
0.857572 0.798611 0.389380
1.000000 0.713100 0.440223
0.124819 0.990692 0.354162
0.320562 0.985626 0.383551
0.546075 0.975982 0.394446
0.783322 0.959228 0.414466
1.000000 0.933410 0.453071
0.000000 0.349096 0.693477
0.000000 0.232700 0.694820
0.591211 0.161593 0.688930
0.856748 0.153780 0.643671
1.000000 0.210666 0.599390
0.000000 0.463020 0.684871
0.000000 0.430945 0.684291
0.582483 0.335271 0.686213
0.847745 0.326116 0.644556
1.000000 0.345830 0.610285
0.000000 0.660517 0.673243
0.000000 0.651179 0.672755
0.562615 0.622370 0.670161
0.826169 0.595361 0.659968
0.990753 0.605219 0.666468
0.000000 0.844236 0.626123
0.126284 0.837766 0.625635
0.550286 0.822263 0.640528
0.817899 0.801694 0.653925
0.980652 0.757961 0.664668
0.000000 0.987518 0.561913
0.199283 0.984802 0.567956
0.562829 0.970153 0.616480
0.781338 0.954009 0.637598
0.984436 0.935637 0.651820
0.000000 0.443549 0.871824
0.000000 0.417823 0.872160
0.363958 0.317723 0.872984
0.753231 0.287297 0.864897
0.981720 0.304540 0.822995
0.000000 0.517845 0.867124
0.000000 0.498299 0.867247
0.371923 0.412818 0.867094
0.749447 0.387884 0.859434
0.976501 0.392554 0.820829
0.000000 0.656703 0.855711
0.000000 0.651789 0.854917
0.457740 0.644007 0.851835
0.749447 0.600000 0.848722
0.968048 0.588647 0.819821
0.000000 0.834073 0.846799
0.000000 0.828885 0.845212
0.453285 0.817685 0.843565
0.763638 0.805142 0.840055
0.955169 0.792996 0.830686
0.000000 0.988861 0.794217
0.000000 0.986145 0.794247
0.445930 0.975280 0.796658
0.764340 0.954376 0.812711
0.955779 0.939605 0.829984
0.000000 0.506584 0.989776
0.000000 0.504997 0.988708
0.124300 0.443824 0.988342
0.602869 0.441962 0.983948
0.875761 0.441657 0.979431
0.000000 0.547906 0.987549
0.000000 0.545464 0.986633
0.298863 0.533867 0.984100
0.616449 0.504143 0.981415
0.878202 0.498909 0.977569
0.000000 0.649317 0.982849
0.000000 0.644984 0.982574
0.351049 0.664179 0.978119
0.656428 0.652644 0.975006
0.888243 0.641474 0.972961
0.000000 0.792111 0.975586
0.000000 0.789303 0.975280
0.178958 0.786191 0.973907
0.703334 0.815366 0.968078
0.906889 0.803281 0.967651
0.000000 0.967407 0.967620
0.000000 0.965972 0.967437
0.199954 0.961089 0.966583
0.689876 0.953918 0.964263
0.932616 0.949981 0.963195
