其他预设/【231】淡彩糖果色预设10款/1.LUT预设（视频调色-PR-AE-PS-FCPX-达芬奇用）/淡彩糖果色__-9.cube
# Created by Adobe Lightroom plugin Export LUT (1.17.0)
# www.johnrellis.com/lightroom/exportlut.htm
# Preset: 淡彩糖果色[素锦印象]-9
# Color profile: /Library/Application Support/Adobe/Color/Profiles/Recommended/AdobeRGB1998.icc
LUT_3D_SIZE 8
DOMAIN_MIN 0.000000 0.000000 0.000000
DOMAIN_MAX 0.903226 0.903226 0.903226
0.000000 0.000000 0.000000
0.238437 0.000000 0.000000
0.453193 0.000000 0.000000
0.614069 0.000000 0.000000
0.730373 0.000000 0.000000
0.836301 0.000000 0.075441
0.921416 0.000000 0.120272
0.987793 0.060090 0.148074
0.177096 0.224521 0.000000
0.253025 0.226780 0.000000
0.433417 0.199893 0.000000
0.593072 0.159487 0.000000
0.714473 0.121645 0.000000
0.818448 0.112276 0.066163
0.904082 0.129152 0.109133
0.977173 0.158083 0.138399
0.363653 0.457191 0.000000
0.423987 0.465675 0.000000
0.485451 0.442084 0.000000
0.593408 0.397833 0.000000
0.717464 0.364508 0.000000
0.822354 0.342870 0.086610
0.916655 0.338506 0.137087
0.985687 0.333318 0.163485
0.513207 0.631769 0.149111
0.543816 0.633936 0.156435
0.644770 0.649409 0.189883
0.690578 0.638666 0.154055
0.752743 0.583734 0.127108
0.831113 0.537987 0.141268
0.909300 0.506706 0.164492
0.975860 0.482856 0.177890
0.630304 0.755337 0.274998
0.648951 0.757321 0.280919
0.713680 0.768338 0.307286
0.786252 0.776516 0.327947
0.792691 0.738094 0.257084
0.817838 0.679072 0.198978
0.889799 0.642084 0.195254
0.961425 0.618769 0.198306
0.711025 0.833341 0.365637
0.730556 0.841337 0.381903
0.769070 0.845029 0.399115
0.830320 0.852415 0.431312
0.860075 0.841062 0.408179
0.869566 0.813321 0.336553
0.892424 0.773617 0.270237
0.957824 0.742275 0.255344
0.775509 0.892241 0.443824
0.784268 0.893675 0.450111
0.807156 0.893309 0.459113
0.847044 0.895048 0.481178
0.895659 0.896727 0.509758
0.910369 0.885130 0.460914
0.927001 0.869017 0.392889
0.947662 0.841459 0.310643
0.817380 0.930114 0.498726
0.821866 0.929747 0.500603
0.838163 0.929229 0.510033
0.866392 0.929107 0.530755
0.896208 0.923980 0.533379
0.928740 0.922484 0.545464
0.948974 0.919280 0.507164
0.973327 0.913603 0.441291
0.000000 0.123110 0.212039
0.220218 0.000000 0.214817
0.422950 0.000000 0.207889
0.589441 0.000000 0.163149
0.710933 0.000000 0.159640
0.810086 0.000000 0.173007
0.895567 0.000000 0.186984
0.968841 0.000000 0.197086
0.018280 0.225376 0.163912
0.218448 0.212070 0.212100
0.423407 0.151675 0.174868
0.582086 0.102113 0.160159
0.703700 0.062379 0.157748
0.801511 0.077943 0.169894
0.882719 0.100954 0.179110
0.957580 0.130404 0.186984
0.292943 0.426612 0.143496
0.370397 0.427832 0.235386
0.458930 0.424964 0.212924
0.576074 0.382391 0.171237
0.702144 0.349340 0.165927
0.799161 0.325933 0.178103
0.885710 0.315251 0.190677
0.963195 0.313603 0.202182
0.471229 0.601099 0.231479
0.508721 0.604120 0.269932
0.614008 0.629236 0.297276
0.650935 0.605707 0.248539
0.711360 0.548760 0.203738
0.792813 0.506554 0.197604
0.876707 0.479683 0.203037
0.953979 0.463600 0.209110
0.614099 0.740261 0.341344
0.630701 0.741054 0.344549
0.690944 0.749935 0.363745
0.761898 0.755703 0.376898
0.763821 0.713710 0.300633
0.795529 0.659876 0.244755
0.871977 0.627619 0.234897
0.947570 0.606561 0.231296
0.696193 0.819364 0.400397
0.708248 0.821164 0.405493
0.747585 0.826444 0.421790
0.811948 0.837736 0.455268
0.847807 0.831479 0.441321
0.859617 0.806577 0.373907
0.883421 0.766629 0.305821
0.948211 0.734432 0.282139
0.762325 0.880644 0.458747
0.767910 0.879759 0.458991
0.792905 0.881315 0.470253
0.836332 0.886503 0.496834
0.887602 0.891325 0.528496
0.902739 0.879454 0.482216
0.916228 0.860319 0.408423
0.935821 0.830594 0.322393
0.811978 0.925719 0.511589
0.817258 0.925963 0.515343
0.834073 0.925994 0.525322
0.862852 0.926665 0.546075
0.897185 0.925719 0.567590
0.928099 0.923064 0.573785
0.946380 0.918303 0.527764
0.969421 0.911192 0.456764
0.000000 0.245945 0.399237
0.000000 0.102022 0.404669
0.422461 0.059419 0.401526
0.581384 0.118105 0.388952
0.704402 0.047333 0.372778
0.809995 0.120821 0.374273
0.899626 0.000000 0.339147
0.971771 0.090578 0.335241
0.000000 0.361883 0.391638
0.157656 0.295842 0.395300
0.416510 0.223331 0.395636
0.572961 0.209018 0.382788
0.701015 0.154482 0.363836
0.804410 0.129030 0.347143
0.890654 0.118837 0.329992
0.965728 0.166537 0.329442
0.157992 0.433570 0.320012
0.256504 0.427497 0.340917
0.416022 0.407782 0.393713
0.578332 0.346349 0.347601
0.711788 0.331151 0.340459
0.803677 0.324102 0.337133
0.885863 0.320806 0.334356
0.960815 0.320836 0.331090
0.350744 0.582849 0.262730
0.407752 0.584222 0.315343
0.551293 0.598871 0.435126
0.630610 0.601404 0.417609
0.709102 0.550958 0.369421
0.796902 0.513115 0.353674
0.880430 0.489876 0.346624
0.955505 0.473274 0.339605
0.545251 0.725246 0.355230
0.575708 0.725185 0.395514
0.656977 0.729366 0.483406
0.752468 0.755947 0.525292
0.754269 0.716396 0.446235
0.791989 0.663233 0.382391
0.867704 0.631922 0.359930
0.945464 0.610407 0.349340
0.660945 0.810117 0.433753
0.680140 0.810025 0.464485
0.728267 0.812009 0.520104
0.788602 0.824125 0.546899
0.834287 0.825467 0.547662
0.841703 0.798398 0.476081
0.872313 0.761532 0.407752
0.943938 0.737392 0.384894
0.749630 0.877745 0.511315
0.760403 0.876310 0.531487
0.786282 0.876005 0.554742
0.825528 0.880461 0.572198
0.874601 0.886534 0.596612
0.895750 0.878813 0.569085
0.910521 0.862760 0.505089
0.937499 0.837247 0.424689
0.806516 0.923247 0.564324
0.812772 0.922087 0.575738
0.828275 0.921935 0.582269
0.858152 0.924407 0.604517
0.891142 0.923949 0.623529
0.924285 0.922759 0.639765
0.941436 0.918608 0.595392
0.964202 0.912657 0.533135
0.000000 0.337407 0.528588
0.000000 0.276616 0.535058
0.340978 0.145480 0.537224
0.568292 0.166506 0.534569
0.691676 0.245029 0.518120
0.789090 0.261326 0.507958
0.872435 0.266606 0.498329
0.949157 0.271153 0.491432
0.000000 0.423438 0.531518
0.000000 0.379278 0.534600
0.338445 0.254582 0.537438
0.568170 0.255985 0.534295
0.691371 0.305241 0.520958
0.784939 0.296239 0.505821
0.868070 0.289494 0.493690
0.946838 0.288762 0.486793
0.120150 0.564019 0.520134
0.233005 0.551507 0.520562
0.378668 0.459480 0.525933
0.565698 0.412970 0.531487
0.692348 0.421302 0.527214
0.791012 0.397223 0.511223
0.880919 0.387915 0.502953
0.957305 0.341924 0.468147
0.262638 0.593774 0.441016
0.317021 0.591150 0.452796
0.443183 0.582544 0.489113
0.576104 0.569787 0.540185
0.694575 0.522545 0.502464
0.785580 0.496590 0.482460
0.871183 0.481575 0.470405
0.950072 0.471290 0.460517
0.401923 0.703365 0.364508
0.441566 0.700893 0.393896
0.551965 0.699641 0.480568
0.682216 0.712795 0.590326
0.727443 0.706477 0.569055
0.782132 0.662989 0.512413
0.863920 0.635004 0.488106
0.941833 0.612207 0.470314
0.586969 0.801907 0.444007
0.616449 0.806790 0.477150
0.678584 0.803128 0.546929
0.757290 0.809293 0.624292
0.830838 0.831235 0.659815
0.828000 0.797910 0.588586
0.864378 0.761990 0.524834
0.936950 0.738918 0.494057
0.700832 0.871946 0.511864
0.715602 0.872099 0.532799
0.757626 0.872160 0.589380
0.811429 0.876158 0.649378
0.861234 0.885130 0.676112
0.891875 0.883360 0.668452
0.900938 0.863584 0.600092
0.931395 0.837308 0.527276
0.780026 0.925139 0.571160
0.788815 0.924743 0.585565
0.815183 0.922484 0.628077
0.848966 0.921538 0.668452
0.881712 0.921965 0.687007
0.916686 0.922210 0.710506
0.934264 0.918822 0.675380
0.956573 0.913542 0.613672
0.000000 0.415686 0.632746
0.000000 0.380774 0.635859
0.000000 0.224247 0.640192
0.521599 0.209964 0.637690
0.683772 0.262882 0.644038
0.776394 0.333654 0.621973
0.858061 0.359869 0.611322
0.936797 0.356909 0.604028
0.000000 0.473274 0.631312
0.000000 0.446143 0.635370
0.123934 0.312047 0.640528
0.518425 0.280797 0.636225
0.682277 0.316716 0.642664
0.774594 0.371618 0.622705
0.856962 0.385748 0.612543
0.935760 0.376165 0.603815
0.214511 0.600580 0.623896
0.282963 0.585504 0.625055
0.343420 0.510613 0.628443
0.513481 0.429633 0.637263
0.675319 0.436957 0.635981
0.762722 0.462074 0.618952
0.849424 0.448463 0.610071
0.929900 0.423255 0.596765
0.247105 0.698421 0.619257
0.299046 0.695430 0.623377
0.429480 0.672541 0.626490
0.546960 0.599573 0.632868
0.672755 0.567590 0.633326
0.759884 0.564019 0.624781
0.848936 0.527916 0.608057
0.931884 0.493294 0.588067
0.358801 0.703639 0.532616
0.391852 0.701381 0.540154
0.479683 0.691951 0.562615
0.584070 0.679133 0.596796
0.669245 0.664607 0.629541
0.761624 0.628595 0.599329
0.849180 0.603540 0.578576
0.931243 0.584070 0.561547
0.420966 0.761044 0.422065
0.446265 0.760800 0.437476
0.532128 0.757107 0.496193
0.641749 0.759060 0.579614
0.748379 0.774472 0.664576
0.792905 0.775113 0.651362
0.848264 0.745937 0.604486
0.927062 0.724605 0.580133
0.606653 0.856748 0.496834
0.622644 0.855253 0.512657
0.672908 0.853208 0.562188
0.743709 0.855497 0.631525
0.820890 0.864897 0.707088
0.881285 0.881315 0.741787
0.882902 0.855894 0.669306
0.919402 0.826047 0.598932
0.718685 0.919280 0.554070
0.728267 0.918303 0.565911
0.759304 0.916045 0.603693
0.812802 0.917632 0.671809
0.862547 0.917082 0.729305
0.901640 0.919341 0.754726
0.925414 0.917723 0.744594
0.945159 0.910918 0.680476
0.000000 0.485603 0.721859
0.000000 0.462409 0.723140
0.000000 0.361181 0.724575
0.393622 0.284154 0.729732
0.654597 0.293675 0.730465
0.766659 0.342870 0.726986
0.849851 0.397925 0.711971
0.926604 0.435676 0.706050
0.000000 0.521569 0.713252
0.000000 0.500969 0.714015
0.000000 0.416968 0.717281
0.394476 0.331243 0.724483
0.650660 0.333165 0.723903
0.761349 0.372686 0.721645
0.845823 0.419898 0.709224
0.923827 0.449653 0.704494
0.251682 0.632807 0.712856
0.267735 0.618647 0.713985
0.318334 0.564324 0.718868
0.413275 0.456611 0.726131
0.649165 0.449378 0.722347
0.758511 0.467781 0.719203
0.842191 0.496437 0.710872
0.921263 0.503014 0.706722
0.313573 0.747158 0.713161
0.352239 0.736538 0.712123
0.457557 0.704646 0.713436
0.532311 0.642420 0.723293
0.649531 0.583551 0.727260
0.762448 0.584649 0.723842
0.843107 0.592462 0.718715
0.922393 0.570794 0.710079
0.351904 0.782925 0.684474
0.381872 0.781033 0.687739
0.465095 0.774441 0.698390
0.568048 0.756039 0.707698
0.647608 0.691035 0.711574
0.749752 0.660273 0.710994
0.832883 0.653712 0.707088
0.917601 0.617914 0.691279
0.427955 0.779995 0.600671
0.452186 0.780148 0.607843
0.515679 0.774075 0.624445
0.594141 0.764706 0.648310
0.666804 0.753201 0.673365
0.746822 0.743771 0.708064
0.839109 0.717220 0.685389
0.923186 0.695247 0.666102
0.493019 0.841367 0.519707
0.511040 0.841520 0.529168
0.558434 0.837675 0.552789
0.632776 0.837491 0.598932
0.732021 0.841825 0.673762
0.834348 0.857115 0.763455
0.865293 0.850309 0.741176
0.914794 0.819547 0.683009
0.624475 0.916411 0.540459
0.636316 0.915251 0.550713
0.674952 0.912627 0.584161
0.736446 0.911772 0.639948
0.807828 0.911040 0.710597
0.877104 0.913298 0.785702
0.918547 0.918456 0.815763
0.933165 0.909575 0.752224
0.000000 0.542412 0.795682
0.000000 0.525963 0.796750
0.000000 0.460639 0.801236
0.168582 0.328069 0.807218
0.553704 0.326268 0.803525
0.736751 0.342779 0.799619
0.833097 0.387884 0.796902
0.913817 0.433112 0.790219
0.000000 0.576226 0.796780
0.000000 0.560937 0.797543
0.000000 0.501793 0.801205
0.192355 0.368353 0.806668
0.555901 0.365576 0.803830
0.739193 0.377844 0.800870
0.834287 0.416846 0.798428
0.914855 0.457343 0.792599
0.183780 0.661860 0.791653
0.204044 0.650294 0.792508
0.263157 0.606500 0.795651
0.340154 0.511131 0.800748
0.558556 0.463935 0.801053
0.740871 0.465187 0.798276
0.831052 0.488563 0.795621
0.911101 0.512718 0.791379
0.351934 0.759487 0.785580
0.381170 0.752163 0.785397
0.447333 0.725948 0.787320
0.482856 0.663539 0.791470
0.559899 0.574945 0.796506
0.740780 0.566186 0.793881
0.826719 0.573877 0.791775
0.907622 0.581903 0.790036
0.363989 0.838193 0.782315
0.391241 0.834989 0.782742
0.468177 0.823301 0.783566
0.561578 0.787869 0.785550
0.617762 0.717464 0.790677
0.722927 0.658167 0.793393
0.825956 0.656214 0.791836
0.905974 0.658869 0.789853
0.417762 0.859464 0.747433
0.437507 0.858030 0.749935
0.496071 0.853361 0.758358
0.567590 0.846433 0.771786
0.645228 0.830900 0.784024
0.721920 0.766201 0.788113
0.822293 0.737118 0.788663
0.904204 0.732753 0.787167
0.485847 0.860044 0.672267
0.500175 0.858579 0.675502
0.544366 0.854429 0.686793
0.602655 0.848295 0.703487
0.671046 0.840787 0.726314
0.745449 0.831296 0.754788
0.821073 0.819821 0.787869
0.908110 0.797208 0.767971
0.534508 0.909972 0.590570
0.545525 0.909514 0.595239
0.577661 0.907073 0.607996
0.626673 0.905089 0.628809
0.696071 0.904479 0.666651
0.800748 0.905119 0.749538
0.893767 0.911406 0.840208
0.920287 0.908415 0.821836
0.000000 0.615351 0.888426
0.000000 0.602289 0.888853
0.000000 0.553063 0.891356
0.000000 0.441474 0.895293
0.443519 0.378790 0.894926
0.692164 0.382666 0.891600
0.828611 0.408392 0.888396
0.913481 0.450263 0.886320
0.000000 0.640528 0.887633
0.000000 0.628382 0.888060
0.000000 0.582696 0.890379
0.000000 0.482460 0.894408
0.449165 0.411017 0.894835
0.692714 0.412543 0.891630
0.829587 0.433997 0.888731
0.913725 0.471229 0.886839
0.108675 0.711482 0.883452
0.141176 0.701900 0.883940
0.218143 0.666194 0.886351
0.303197 0.589899 0.889403
0.462684 0.496834 0.892668
0.692226 0.493721 0.890135
0.830503 0.503471 0.887602
0.912322 0.526268 0.886076
0.397528 0.801175 0.877073
0.403479 0.793973 0.877409
0.425574 0.767849 0.879454
0.461311 0.714534 0.882689
0.508232 0.619409 0.887968
0.687037 0.589319 0.887388
0.830289 0.584405 0.885466
0.910094 0.592920 0.884581
0.413581 0.881865 0.873198
0.433875 0.876799 0.873228
0.494179 0.859495 0.874388
0.570123 0.826108 0.876402
0.598260 0.759823 0.881437
0.669184 0.675776 0.886473
0.829526 0.664057 0.884642
0.908110 0.668452 0.883604
0.429053 0.936919 0.871611
0.446998 0.934569 0.871916
0.499123 0.926207 0.872770
0.568414 0.911131 0.873838
0.651514 0.876524 0.876005
0.708339 0.804776 0.880522
0.808499 0.747677 0.882353
0.904967 0.746059 0.881254
0.482307 0.943603 0.823484
0.495094 0.942840 0.825559
0.533440 0.940215 0.832456
0.589960 0.935393 0.843992
0.658961 0.928679 0.860563
0.735714 0.914305 0.876066
0.809751 0.853178 0.880369
0.904387 0.827817 0.881834
0.540551 0.946044 0.751736
0.550347 0.945434 0.754177
0.581292 0.942901 0.762020
0.630213 0.937957 0.775204
0.692103 0.931212 0.794186
0.760891 0.923033 0.818540
0.832731 0.913512 0.848173
0.903380 0.903563 0.881559
