其他预设/【231】淡彩糖果色预设10款/1.LUT预设（视频调色-PR-AE-PS-FCPX-达芬奇用）/淡彩糖果色__-8.cube
# Created by Adobe Lightroom plugin Export LUT (1.17.0)
# www.johnrellis.com/lightroom/exportlut.htm
# Preset: 淡彩糖果色[素锦印象]-8
# Color profile: /Library/Application Support/Adobe/Color/Profiles/Recommended/AdobeRGB1998.icc
LUT_3D_SIZE 5
DOMAIN_MIN 0.000000 0.000000 0.000000
DOMAIN_MAX 0.903226 0.903226 0.903226
0.088136 0.088136 0.088136
0.443732 0.000000 0.116548
0.782864 0.000000 0.155917
0.971221 0.163577 0.243442
1.000000 0.295659 0.359625
0.139590 0.311894 0.128298
0.427588 0.343236 0.000000
0.738888 0.341375 0.161318
0.952605 0.329229 0.249241
1.000000 0.382788 0.375097
0.288792 0.607691 0.210056
0.434150 0.567864 0.275700
0.789212 0.630152 0.000000
0.908568 0.574548 0.287785
1.000000 0.555779 0.405219
0.411597 0.824918 0.343236
0.521843 0.804532 0.399481
0.712764 0.817472 0.206058
0.956146 0.762692 0.000000
1.000000 0.742977 0.473487
0.509026 0.956085 0.493568
0.583856 0.944335 0.528832
0.740139 0.902678 0.624109
0.900023 0.945617 0.000000
1.000000 0.850828 0.000000
0.000000 0.221653 0.331640
0.462562 0.000000 0.381567
0.770474 0.000000 0.301213
0.947295 0.219028 0.326696
1.000000 0.328466 0.389258
0.000000 0.391272 0.343603
0.387427 0.354314 0.318700
0.738216 0.348363 0.307012
0.933959 0.350774 0.327001
1.000000 0.399512 0.394903
0.230655 0.656062 0.311925
0.462348 0.606897 0.382208
0.765805 0.620294 0.110994
0.893187 0.577539 0.337987
1.000000 0.568963 0.417578
0.427832 0.835477 0.404974
0.543969 0.815000 0.458228
0.716548 0.820035 0.311315
0.956176 0.767727 0.000000
1.000000 0.749111 0.474434
0.516228 0.955627 0.497169
0.587976 0.944152 0.531365
0.747463 0.908446 0.633295
0.898528 0.948577 0.072877
1.000000 0.855009 0.000000
0.000000 0.357427 0.555535
0.000000 0.235233 0.639368
0.803311 0.000000 0.663783
0.971984 0.091402 0.524712
1.000000 0.413214 0.571069
0.000000 0.443183 0.571313
0.144320 0.394079 0.586297
0.787442 0.297734 0.630579
0.944121 0.370123 0.548272
1.000000 0.498604 0.599695
0.000000 0.716365 0.626703
0.263432 0.709255 0.620203
0.683772 0.637293 0.588769
0.889128 0.620935 0.582300
1.000000 0.613611 0.595270
0.267704 0.881071 0.562707
0.482856 0.860685 0.591211
0.739101 0.808225 0.681147
0.925994 0.787503 0.470100
0.998016 0.767483 0.606195
0.482002 0.973754 0.590448
0.592157 0.964050 0.637018
0.745144 0.933410 0.691188
0.874723 0.945129 0.515648
1.000000 0.865049 0.155093
0.000000 0.477363 0.748348
0.000000 0.436622 0.779538
0.579400 0.353582 0.863737
0.950652 0.332769 0.812406
1.000000 0.432868 0.723476
0.000000 0.518730 0.742763
0.000000 0.483009 0.746548
0.568200 0.427955 0.845884
0.941741 0.429480 0.803677
1.000000 0.491188 0.728603
0.000000 0.668727 0.768246
0.000000 0.648066 0.759731
0.512657 0.597833 0.768795
0.913085 0.624140 0.781949
1.000000 0.647028 0.755825
0.000000 0.899565 0.794553
0.071931 0.892973 0.793118
0.639124 0.871122 0.801236
0.847868 0.813504 0.778988
0.993042 0.800809 0.779995
0.120180 1.000000 0.719814
0.389319 1.000000 0.736019
0.704646 0.974151 0.792844
0.883207 0.935180 0.851469
1.000000 0.910430 0.696010
0.000000 0.594202 0.925689
0.000000 0.567102 0.930663
0.295140 0.472847 0.953735
0.838071 0.592004 0.977417
1.000000 0.602106 0.922393
0.000000 0.619348 0.918944
0.000000 0.595209 0.918425
0.312139 0.522972 0.943267
0.832151 0.618769 0.972320
1.000000 0.631922 0.921752
0.000000 0.706691 0.920653
0.000000 0.688869 0.917082
0.025940 0.626001 0.907774
0.802365 0.690181 0.957763
1.000000 0.719417 0.922820
0.000000 0.857694 0.930053
0.000000 0.848661 0.927672
0.000000 0.815885 0.920653
0.686580 0.772885 0.914977
0.996399 0.837278 0.928161
0.000000 1.000000 0.914031
0.000000 1.000000 0.913787
0.417060 1.000000 0.918517
0.798672 0.977356 0.931243
0.960967 0.945800 0.930968
