其他预设/【231】淡彩糖果色预设10款/1.LUT预设（视频调色-PR-AE-PS-FCPX-达芬奇用）/淡彩糖果色__-2.cube
# Created by Adobe Lightroom plugin Export LUT (1.17.0)
# www.johnrellis.com/lightroom/exportlut.htm
# Preset: 淡彩糖果色[素锦印象]-2
# Color profile: /Library/Application Support/Adobe/Color/Profiles/Recommended/AdobeRGB1998.icc
LUT_3D_SIZE 5
DOMAIN_MIN 0.000000 0.000000 0.000000
DOMAIN_MAX 0.903226 0.903226 0.903226
0.091402 0.091402 0.091402
0.532158 0.000000 0.136446
0.830747 0.000000 0.234409
0.995514 0.211215 0.353704
1.000000 0.328893 0.441566
0.000000 0.436683 0.099458
0.459358 0.402228 0.141634
0.799985 0.397040 0.248722
0.981170 0.379919 0.360449
1.000000 0.423926 0.458228
0.000000 0.682826 0.186984
0.406256 0.677363 0.186923
0.749142 0.659602 0.272496
0.959167 0.662593 0.397314
1.000000 0.605707 0.471534
0.127626 0.868284 0.263127
0.357610 0.865354 0.260441
0.672297 0.845182 0.286473
0.903593 0.799496 0.367041
1.000000 0.802090 0.506950
0.168338 1.000000 0.313024
0.324804 1.000000 0.304814
0.594446 0.977905 0.297581
0.847410 0.958984 0.361151
1.000000 0.916777 0.475135
0.000000 0.276341 0.422095
0.420752 0.159670 0.423529
0.752651 0.262425 0.452216
0.941772 0.351598 0.501335
1.000000 0.403143 0.531518
0.000000 0.403296 0.405829
0.405463 0.405463 0.405463
0.745480 0.403998 0.439765
0.937926 0.426307 0.486366
1.000000 0.466590 0.536339
0.098390 0.662959 0.428443
0.359075 0.662623 0.384955
0.698451 0.635340 0.411810
0.922850 0.658106 0.501640
1.000000 0.631647 0.555779
0.246647 0.853910 0.449348
0.353460 0.855528 0.405066
0.663111 0.839567 0.415290
0.887419 0.798367 0.465370
1.000000 0.815457 0.583368
0.317327 0.994598 0.476539
0.337774 0.995300 0.414801
0.602441 0.984741 0.419715
0.848386 0.962737 0.458045
1.000000 0.922911 0.546105
0.000000 0.436378 0.671260
0.000000 0.332525 0.674830
0.665339 0.271885 0.669795
0.898009 0.368139 0.640131
1.000000 0.522820 0.692683
0.000000 0.508598 0.654322
0.195865 0.490639 0.652125
0.661555 0.415106 0.664851
0.885466 0.477180 0.654383
1.000000 0.586999 0.713527
0.000000 0.633173 0.637324
0.257359 0.632990 0.636255
0.645686 0.645686 0.645686
0.874571 0.666651 0.684230
1.000000 0.679286 0.710140
0.000000 0.830838 0.660029
0.283574 0.823056 0.647028
0.611536 0.820432 0.626062
0.852079 0.803159 0.651789
1.000000 0.830228 0.719844
0.117281 0.982666 0.632197
0.329503 0.980713 0.632959
0.578424 0.975341 0.610437
0.826719 0.957092 0.620691
1.000000 0.925170 0.666682
0.000000 0.538567 0.829862
0.000000 0.504082 0.830228
0.416632 0.372656 0.839139
0.824460 0.379767 0.829770
1.000000 0.441840 0.777462
0.000000 0.590936 0.816861
0.000000 0.569696 0.818509
0.423560 0.454627 0.827543
0.815549 0.460121 0.820066
0.997620 0.499825 0.779751
0.000000 0.668940 0.802060
0.000000 0.667292 0.799313
0.490181 0.664240 0.796048
0.801541 0.626734 0.804135
0.987671 0.656550 0.802762
0.000000 0.789425 0.794766
0.000000 0.785794 0.790585
0.498665 0.785428 0.788388
0.800381 0.800351 0.800381
0.982879 0.821988 0.834836
0.000000 0.975402 0.840360
0.000000 0.973053 0.832517
0.460639 0.966186 0.811551
0.771450 0.955932 0.783658
0.977020 0.933806 0.805661
0.000000 0.620325 0.966155
0.000000 0.600061 0.965484
0.087404 0.511925 0.965942
0.652430 0.462898 0.963653
0.950896 0.478767 0.956664
0.000000 0.656458 0.961181
0.000000 0.637781 0.960723
0.259709 0.583246 0.959899
0.654688 0.514305 0.959503
0.948730 0.524071 0.954101
0.000000 0.718135 0.954314
0.000000 0.713069 0.953582
0.213565 0.703822 0.949065
0.651301 0.635462 0.950988
0.946075 0.642756 0.950317
0.000000 0.810941 0.946685
0.000000 0.808286 0.945495
0.000000 0.803098 0.943420
0.651881 0.810819 0.939422
0.946288 0.795560 0.948608
0.000000 0.936339 0.943450
0.000000 0.936278 0.943114
0.000000 0.936767 0.942473
0.642908 0.936034 0.939208
0.944762 0.944732 0.944762
