其他预设/【231】淡彩糖果色预设10款/1.LUT预设（视频调色-PR-AE-PS-FCPX-达芬奇用）/淡彩糖果色__-1.cube
# Created by Adobe Lightroom plugin Export LUT (1.17.0)
# www.johnrellis.com/lightroom/exportlut.htm
# Preset: 淡彩糖果色[素锦印象]-1
# Color profile: /Library/Application Support/Adobe/Color/Profiles/Recommended/AdobeRGB1998.icc
LUT_3D_SIZE 5
DOMAIN_MIN 0.000000 0.000000 0.000000
DOMAIN_MAX 0.903226 0.903226 0.903226
0.060975 0.060975 0.060975
0.467872 0.000000 0.023285
0.858274 0.076234 0.108766
1.000000 0.260960 0.274540
1.000000 0.363897 0.374029
0.063508 0.350622 0.033570
0.381231 0.337377 0.035340
0.843626 0.401099 0.176333
1.000000 0.412238 0.311284
1.000000 0.455726 0.412055
0.148806 0.630518 0.124849
0.367437 0.626337 0.127962
0.714321 0.634424 0.151064
1.000000 0.693385 0.436103
1.000000 0.637720 0.485634
0.244358 0.855192 0.220523
0.382757 0.853147 0.224002
0.645930 0.840330 0.230777
0.906035 0.807431 0.245731
1.000000 0.814450 0.557855
0.327794 1.000000 0.304753
0.410101 1.000000 0.304234
0.598993 0.983795 0.288945
0.834836 0.972473 0.306889
1.000000 0.934264 0.334966
0.000000 0.187991 0.347448
0.339513 0.094514 0.341436
0.759457 0.173495 0.380804
0.990753 0.406409 0.485054
1.000000 0.494484 0.537499
0.000000 0.356847 0.342016
0.337652 0.337652 0.337652
0.766629 0.416876 0.420050
0.988312 0.498634 0.503258
1.000000 0.549462 0.554467
0.094545 0.622553 0.337713
0.345830 0.617395 0.340063
0.663691 0.605829 0.342473
0.984253 0.715633 0.573022
1.000000 0.696071 0.611475
0.247990 0.848844 0.366888
0.392889 0.846220 0.381842
0.639185 0.834134 0.383154
0.890379 0.804746 0.386694
1.000000 0.843046 0.664485
0.365515 1.000000 0.422675
0.435615 0.996979 0.421149
0.619318 0.989166 0.424750
0.837613 0.974823 0.429938
1.000000 0.938964 0.447242
0.000000 0.345769 0.643580
0.000000 0.229953 0.637964
0.614893 0.200473 0.618402
0.906706 0.333043 0.620691
1.000000 0.564630 0.688533
0.000000 0.467903 0.641962
0.227146 0.438514 0.634882
0.617151 0.359625 0.619837
0.905669 0.474250 0.646082
1.000000 0.645380 0.724514
0.000000 0.653925 0.626825
0.261540 0.644160 0.623194
0.615290 0.615290 0.615290
0.920348 0.736721 0.737972
1.000000 0.779751 0.781552
0.110079 0.838315 0.589227
0.333013 0.829068 0.591516
0.624750 0.818448 0.621515
0.854307 0.806882 0.625055
1.000000 0.891691 0.822629
0.275212 0.993042 0.568292
0.411170 0.989685 0.588891
0.637659 0.979370 0.631373
0.825376 0.967041 0.626612
1.000000 0.940551 0.628412
0.000000 0.456489 0.840757
0.000000 0.433265 0.838193
0.456672 0.333623 0.832456
0.812436 0.324956 0.816892
1.000000 0.422400 0.774319
0.000000 0.540246 0.837919
0.000000 0.522942 0.835477
0.472084 0.437079 0.826902
0.805386 0.419654 0.809201
1.000000 0.495827 0.779721
0.000000 0.679469 0.826841
0.080232 0.677974 0.825071
0.559869 0.671504 0.817655
0.792905 0.606531 0.795071
1.000000 0.691463 0.817716
0.000000 0.853727 0.818997
0.189822 0.845884 0.815122
0.560143 0.829313 0.811398
0.803464 0.803464 0.803464
1.000000 0.900420 0.901030
0.000000 0.992523 0.764096
0.249302 0.988678 0.767422
0.567926 0.978393 0.783047
0.809873 0.963622 0.807462
0.986419 0.946807 0.803494
0.000000 0.523156 0.970336
0.000000 0.522728 0.968536
0.217319 0.433722 0.968322
0.671839 0.425269 0.959594
0.948241 0.433448 0.953094
0.000000 0.568902 0.967132
0.000000 0.567102 0.965484
0.312932 0.516167 0.963592
0.675227 0.486061 0.954772
0.944945 0.484291 0.949493
0.000000 0.676112 0.962768
0.000000 0.673579 0.962097
0.435950 0.690272 0.955657
0.687648 0.633265 0.948333
0.943053 0.621607 0.946593
0.000000 0.822965 0.956756
0.000000 0.819577 0.955261
0.329564 0.816464 0.953491
0.741115 0.828061 0.950958
0.948791 0.798215 0.950652
0.000000 0.999359 0.954192
0.000000 0.996948 0.954192
0.373632 0.987030 0.954223
0.734981 0.969238 0.952758
0.947753 0.947723 0.947753
