其他预设/【231】淡彩糖果色预设10款/1.LUT预设（视频调色-PR-AE-PS-FCPX-达芬奇用）/淡彩糖果色__-8.cube
# Created by Adobe Lightroom plugin Export LUT (1.17.0)
# www.johnrellis.com/lightroom/exportlut.htm
# Preset: 淡彩糖果色[素锦印象]-8
# Color profile: /Library/Application Support/Adobe/Color/Profiles/Recommended/AdobeRGB1998.icc
LUT_3D_SIZE 32
0.088136 0.088136 0.088136
0.115236 0.087678 0.089876
0.141390 0.086915 0.092164
0.195254 0.085145 0.097536
0.261295 0.078309 0.103975
0.324071 0.066072 0.108980
0.384833 0.033021 0.112825
0.443732 0.000000 0.116548
0.502098 0.000000 0.120241
0.559411 0.000000 0.124025
0.614435 0.000000 0.128359
0.663935 0.000000 0.133883
0.708309 0.000000 0.140261
0.747768 0.000000 0.147677
0.782864 0.000000 0.155917
0.814328 0.000000 0.164858
0.843473 0.000000 0.174746
0.876829 0.067140 0.188022
0.904417 0.098482 0.201236
0.929015 0.122774 0.214786
0.951141 0.143954 0.229007
0.971221 0.163577 0.243442
0.989227 0.181643 0.258091
1.000000 0.199313 0.272984
1.000000 0.216129 0.288121
1.000000 0.233768 0.304021
1.000000 0.252384 0.321080
1.000000 0.272953 0.339452
1.000000 0.295659 0.359625
1.000000 0.320775 0.381537
1.000000 0.348913 0.405524
1.000000 0.379797 0.431434
0.089570 0.102144 0.089937
0.113802 0.104646 0.086976
0.135531 0.107210 0.093843
0.189639 0.109957 0.099306
0.255528 0.108156 0.104799
0.318212 0.101228 0.109438
0.379156 0.089723 0.113161
0.437934 0.075929 0.116548
0.496223 0.052827 0.119997
0.553643 0.000000 0.123873
0.608728 0.000000 0.128115
0.658503 0.000000 0.133608
0.703090 0.000000 0.139742
0.742947 0.000000 0.147066
0.778317 0.000000 0.155215
0.810056 0.023316 0.163973
0.839811 0.066835 0.173861
0.872251 0.091188 0.186587
0.899535 0.113130 0.199222
0.924132 0.132235 0.212558
0.946502 0.149935 0.226383
0.966857 0.167147 0.240635
0.985168 0.183902 0.255100
1.000000 0.200046 0.269932
1.000000 0.216312 0.285130
1.000000 0.233249 0.301030
1.000000 0.251255 0.318029
1.000000 0.271672 0.336553
1.000000 0.293767 0.356725
1.000000 0.318730 0.378729
1.000000 0.346532 0.402686
1.000000 0.377203 0.428595
0.091157 0.118715 0.092561
0.110292 0.117830 0.091798
0.140261 0.122927 0.085237
0.182376 0.131441 0.101625
0.248295 0.133822 0.106294
0.311406 0.130709 0.110109
0.372137 0.123873 0.113405
0.431250 0.114961 0.116701
0.489723 0.104036 0.120241
0.547356 0.091402 0.123781
0.602960 0.077974 0.128023
0.653407 0.066590 0.133242
0.698543 0.060670 0.139620
0.738857 0.067720 0.146670
0.774594 0.076905 0.154757
0.806760 0.087678 0.163638
0.837247 0.100893 0.173648
0.869108 0.116335 0.185855
0.896330 0.130831 0.198398
0.920989 0.145815 0.211490
0.943572 0.160739 0.225132
0.964233 0.175601 0.239445
0.982757 0.190707 0.253941
0.999725 0.205478 0.268711
1.000000 0.220615 0.283787
1.000000 0.236362 0.299626
1.000000 0.253788 0.316716
1.000000 0.273411 0.335210
1.000000 0.295140 0.355413
1.000000 0.319738 0.377478
1.000000 0.346868 0.401404
1.000000 0.377142 0.427283
0.096712 0.150576 0.099245
0.118044 0.143679 0.106783
0.136812 0.149630 0.095796
0.193271 0.161624 0.079927
0.235233 0.169497 0.109926
0.299199 0.171328 0.112367
0.360784 0.168826 0.115053
0.420752 0.164675 0.117800
0.479774 0.158419 0.120760
0.537957 0.152010 0.124147
0.594263 0.145480 0.128206
0.645533 0.139712 0.133303
0.691188 0.137545 0.139376
0.732143 0.137453 0.146609
0.768826 0.137728 0.154574
0.801572 0.141482 0.163455
0.833402 0.146822 0.173556
0.864469 0.154208 0.185550
0.891234 0.163088 0.197482
0.915709 0.172335 0.210147
0.938384 0.182467 0.223423
0.959258 0.193423 0.237430
0.978424 0.205631 0.251987
0.996216 0.218418 0.267002
1.000000 0.231998 0.282689
1.000000 0.246799 0.299168
1.000000 0.263340 0.316777
1.000000 0.282261 0.335698
1.000000 0.302922 0.355993
1.000000 0.326146 0.377935
1.000000 0.352026 0.401617
1.000000 0.380774 0.427008
0.102998 0.188632 0.106111
0.124819 0.182345 0.112612
0.142977 0.174105 0.120851
0.184298 0.192966 0.084871
0.250767 0.205051 0.069062
0.280003 0.208286 0.117037
0.342657 0.211582 0.118044
0.403601 0.211307 0.119905
0.463600 0.208835 0.122133
0.522301 0.206668 0.125154
0.580011 0.202792 0.128817
0.632776 0.199619 0.133425
0.679988 0.196872 0.139376
0.722408 0.194980 0.146578
0.760433 0.193301 0.154452
0.794522 0.192966 0.163455
0.828611 0.194766 0.174166
0.859709 0.198093 0.185733
0.886809 0.202243 0.197726
0.911528 0.207187 0.210269
0.934295 0.213291 0.223423
0.955383 0.220554 0.237217
0.974853 0.229282 0.251652
0.992981 0.239109 0.266758
1.000000 0.250278 0.282506
1.000000 0.262821 0.299077
1.000000 0.277562 0.316716
1.000000 0.294011 0.335546
1.000000 0.313176 0.355871
1.000000 0.334905 0.377752
1.000000 0.359228 0.401404
1.000000 0.386847 0.426825
0.110903 0.227543 0.112581
0.131502 0.222446 0.118257
0.151217 0.215030 0.125399
0.177768 0.213443 0.123537
0.244053 0.239689 0.045136
0.307256 0.248692 0.041108
0.327825 0.247684 0.119203
0.385077 0.252476 0.124178
0.446296 0.254459 0.125429
0.506279 0.254978 0.127535
0.565148 0.254520 0.130587
0.619806 0.252873 0.134768
0.668605 0.250462 0.140322
0.712673 0.247562 0.147372
0.751980 0.244358 0.155398
0.787350 0.242344 0.164248
0.823514 0.242313 0.175540
0.854795 0.242649 0.186923
0.882414 0.243656 0.198917
0.907744 0.245670 0.211582
0.931151 0.248936 0.224826
0.952850 0.253330 0.238926
0.994049 0.280491 0.273014
1.000000 0.288853 0.288548
1.000000 0.298253 0.304356
1.000000 0.308843 0.320745
1.000000 0.321202 0.337957
1.000000 0.335576 0.356268
1.000000 0.352270 0.375952
1.000000 0.371740 0.397223
1.000000 0.393713 0.419989
1.000000 0.418463 0.444251
0.122713 0.272709 0.120058
0.142519 0.267887 0.125460
0.162387 0.261662 0.132326
0.191379 0.248295 0.146761
0.231968 0.267460 0.108766
0.311711 0.291173 0.000000
0.372045 0.299351 0.000000
0.391699 0.295293 0.110567
0.436133 0.299168 0.131807
0.498726 0.303624 0.132784
0.559686 0.306035 0.135103
0.616297 0.306004 0.138796
0.666316 0.303929 0.144198
0.711086 0.300267 0.151064
0.750576 0.296025 0.159121
0.789151 0.293584 0.168948
0.825406 0.291905 0.180453
0.856809 0.289982 0.192325
0.884916 0.289067 0.204685
0.911162 0.289464 0.218082
0.936004 0.291814 0.232914
0.959564 0.295933 0.248966
0.981292 0.301976 0.265995
1.000000 0.309514 0.283604
1.000000 0.318395 0.301396
1.000000 0.327947 0.319066
1.000000 0.338903 0.336950
1.000000 0.351324 0.355474
1.000000 0.366186 0.375341
1.000000 0.383551 0.396460
1.000000 0.403571 0.419165
1.000000 0.426642 0.443305
0.139590 0.311894 0.128298
0.156100 0.307774 0.132967
0.174411 0.302220 0.139284
0.203006 0.290562 0.152255
0.232822 0.290013 0.146944
0.291020 0.316869 0.077455
0.371191 0.334600 0.000000
0.427588 0.343236 0.000000
0.446693 0.337407 0.096010
0.476295 0.339208 0.139284
0.538720 0.345495 0.140200
0.597711 0.348455 0.142702
0.650019 0.347875 0.147280
0.696651 0.344915 0.153536
0.738888 0.341375 0.161318
0.780392 0.338781 0.171481
0.816251 0.335454 0.182315
0.847776 0.331945 0.193606
0.876371 0.329107 0.205722
0.903166 0.327581 0.218906
0.928557 0.327520 0.233463
0.952605 0.329229 0.249241
0.974792 0.332738 0.266117
0.995026 0.337591 0.283421
1.000000 0.343664 0.301091
1.000000 0.351110 0.318761
1.000000 0.359686 0.336584
1.000000 0.370001 0.355291
1.000000 0.382788 0.375097
1.000000 0.398108 0.396338
1.000000 0.416449 0.419074
1.000000 0.437720 0.443305
0.161379 0.351812 0.138064
0.174990 0.348363 0.142367
0.191073 0.343603 0.148196
0.218021 0.333440 0.160037
0.246586 0.318456 0.177737
0.285679 0.342168 0.127718
0.355566 0.368017 0.000000
0.434333 0.381933 0.000000
0.484504 0.388342 0.000000
0.503319 0.381476 0.072328
0.517662 0.379522 0.147463
0.578882 0.386175 0.148531
0.633600 0.388281 0.152010
0.682277 0.386816 0.157412
0.729915 0.385870 0.165774
0.771054 0.382483 0.175051
0.807095 0.377996 0.185275
0.839170 0.373358 0.196201
0.868376 0.368994 0.208133
0.895842 0.366033 0.221134
0.921782 0.364324 0.235538
0.946288 0.364050 0.251194
0.968963 0.365270 0.267735
0.989593 0.368231 0.284977
1.000000 0.372259 0.302495
1.000000 0.377173 0.320073
1.000000 0.383673 0.337896
1.000000 0.392035 0.356512
1.000000 0.402655 0.376318
1.000000 0.415991 0.397406
1.000000 0.432105 0.420050
1.000000 0.451423 0.444221
0.184176 0.393011 0.148836
0.195682 0.390021 0.152621
0.209293 0.385840 0.157900
0.234257 0.376898 0.168978
0.262730 0.363439 0.185092
0.292027 0.368994 0.168307
0.344823 0.394415 0.095796
0.421332 0.419165 0.000000
0.496254 0.429328 0.000000
0.540337 0.432776 0.000000
0.558068 0.424262 0.005127
0.569635 0.419715 0.140261
0.614984 0.423529 0.158267
0.670253 0.427253 0.163699
0.718685 0.426856 0.171115
0.760952 0.423804 0.179995
0.798398 0.419257 0.189944
0.831693 0.414038 0.200748
0.861723 0.409339 0.212467
0.889647 0.404913 0.225254
0.915679 0.401556 0.239231
0.939910 0.399451 0.254124
0.962310 0.398444 0.269902
0.982910 0.398810 0.286351
1.000000 0.400458 0.303258
1.000000 0.403479 0.320623
1.000000 0.408118 0.338567
1.000000 0.414832 0.357519
1.000000 0.423957 0.377722
1.000000 0.435767 0.399359
1.000000 0.450690 0.422461
1.000000 0.468574 0.447059
0.205478 0.433661 0.159548
0.215305 0.431006 0.163058
0.227817 0.427497 0.167880
0.250767 0.419776 0.178042
0.278874 0.407935 0.193118
0.305852 0.396979 0.205356
0.344976 0.421942 0.148806
0.406958 0.446845 0.000000
0.487953 0.470680 0.000000
0.556664 0.476967 0.000000
0.594751 0.475990 0.000000
0.611444 0.466285 0.000000
0.623835 0.461463 0.131563
0.655970 0.463447 0.171298
0.705104 0.464240 0.177493
0.748318 0.461891 0.185428
0.786862 0.457404 0.194644
0.821012 0.452247 0.205020
0.852049 0.446723 0.216342
0.880766 0.441688 0.228916
0.907561 0.437476 0.242527
0.932586 0.434028 0.257389
0.955688 0.432044 0.273167
0.976898 0.430945 0.289525
0.996246 0.431067 0.306310
1.000000 0.432380 0.323491
1.000000 0.435065 0.341283
1.000000 0.439857 0.359930
1.000000 0.447089 0.380041
1.000000 0.456916 0.401465
1.000000 0.469917 0.424628
1.000000 0.486000 0.449226
0.226841 0.476173 0.170779
0.235721 0.474006 0.174197
0.247166 0.470649 0.178714
0.268254 0.463996 0.187930
0.295659 0.453559 0.202182
0.323491 0.439887 0.220127
0.353246 0.450782 0.193606
0.402686 0.475441 0.120394
0.471809 0.499641 0.000000
0.552697 0.519768 0.000000
0.615137 0.523003 0.000000
0.650385 0.520012 0.000000
0.691096 0.528466 0.000000
0.700465 0.520439 0.129580
0.717678 0.518608 0.195834
0.761257 0.516045 0.203952
0.799344 0.510887 0.213443
0.832914 0.504356 0.223789
0.862760 0.497444 0.234867
0.890257 0.490913 0.247166
0.915709 0.485023 0.260441
0.939239 0.480110 0.274662
0.960845 0.475959 0.289494
0.980804 0.473152 0.305058
0.999084 0.471443 0.321202
1.000000 0.471046 0.337804
1.000000 0.472175 0.355047
1.000000 0.475013 0.373114
1.000000 0.480262 0.392462
1.000000 0.488045 0.413306
1.000000 0.498817 0.435676
1.000000 0.512779 0.459693
0.251286 0.528771 0.184695
0.259129 0.526665 0.187747
0.269535 0.523308 0.191989
0.289708 0.516503 0.200778
0.316014 0.506096 0.213962
0.344152 0.492622 0.230991
0.371069 0.484749 0.237430
0.408881 0.508476 0.178256
0.466529 0.532464 0.068635
0.542931 0.558251 0.000000
0.622614 0.574182 0.000000
0.683742 0.577630 0.000000
0.714321 0.570825 0.000000
0.728969 0.559106 0.000000
0.737240 0.550195 0.121675
0.744778 0.547326 0.208530
0.783536 0.543755 0.219516
0.818601 0.537835 0.229068
0.849790 0.531151 0.239658
0.878386 0.524315 0.251347
0.904814 0.517998 0.264195
0.929259 0.512291 0.278080
0.951629 0.507317 0.292576
0.972320 0.503349 0.307866
0.991302 0.500420 0.323674
1.000000 0.498695 0.340093
1.000000 0.498390 0.357214
1.000000 0.499855 0.375250
1.000000 0.503532 0.394598
1.000000 0.509941 0.415595
1.000000 0.519188 0.438148
1.000000 0.531640 0.462440
0.269993 0.568902 0.196567
0.277653 0.566979 0.199496
0.286931 0.564263 0.203250
0.305791 0.558404 0.211368
0.331060 0.549248 0.223728
0.359228 0.537316 0.239811
0.387457 0.522881 0.259464
0.418372 0.537865 0.227817
0.465949 0.562860 0.155398
0.530053 0.586755 0.000000
0.607294 0.608637 0.000000
0.679591 0.616571 0.000000
0.730892 0.614435 0.000000
0.754635 0.602777 0.000000
0.765377 0.588617 0.000000
0.770871 0.577783 0.114778
0.775937 0.572839 0.209262
0.803250 0.568963 0.235325
0.836027 0.562799 0.245243
0.865965 0.556329 0.256413
0.893645 0.549859 0.268894
0.919127 0.543969 0.282506
0.942473 0.538506 0.296880
0.964050 0.533776 0.311925
0.983764 0.529992 0.327733
1.000000 0.527245 0.343969
1.000000 0.525841 0.361059
1.000000 0.526085 0.379065
1.000000 0.528618 0.398505
1.000000 0.533684 0.419593
1.000000 0.541527 0.442267
1.000000 0.552667 0.466865
0.288792 0.607691 0.210056
0.295689 0.606439 0.212924
0.304509 0.604425 0.216464
0.322789 0.600031 0.224460
0.347723 0.593103 0.236454
0.376257 0.583734 0.252140
0.406104 0.572290 0.271305
0.434150 0.567864 0.275700
0.469734 0.590356 0.216373
0.521874 0.612451 0.124086
0.587732 0.633082 0.000000
0.664149 0.651453 0.000000
0.728878 0.652155 0.000000
0.770901 0.645197 0.000000
0.789212 0.630152 0.000000
0.796628 0.614069 0.000000
0.800443 0.602258 0.109529
0.804105 0.596368 0.210269
0.822232 0.592981 0.252079
0.853422 0.586938 0.262730
0.882139 0.580713 0.274632
0.908568 0.574548 0.287785
0.932830 0.568750 0.301701
0.955200 0.563561 0.316625
0.975860 0.559106 0.332219
0.994873 0.555779 0.348791
1.000000 0.553887 0.366247
1.000000 0.553857 0.385046
1.000000 0.555779 0.405219
1.000000 0.560357 0.427039
1.000000 0.567681 0.450690
1.000000 0.578027 0.475868
0.309575 0.649531 0.227390
0.316320 0.648463 0.230045
0.324315 0.646815 0.233402
0.341375 0.642817 0.240879
0.365240 0.636652 0.252140
0.393439 0.628412 0.267124
0.423255 0.618555 0.285283
0.453315 0.606744 0.306767
0.481117 0.619196 0.272618
0.521477 0.639460 0.202792
0.576135 0.658381 0.073396
0.641993 0.675044 0.000000
0.715297 0.688808 0.000000
0.770474 0.681147 0.000000
0.803708 0.670130 0.000000
0.817288 0.652430 0.000000
0.822812 0.635676 0.000000
0.826108 0.623804 0.104189
0.829709 0.618006 0.212436
0.841093 0.616510 0.270451
0.871397 0.611109 0.282322
0.899168 0.605402 0.295384
0.924559 0.599695 0.309331
0.947875 0.594324 0.324193
0.969299 0.589685 0.339971
0.989105 0.585992 0.356664
1.000000 0.583459 0.374243
1.000000 0.582696 0.393103
1.000000 0.583734 0.413367
1.000000 0.587030 0.435096
1.000000 0.592889 0.458350
1.000000 0.601465 0.483009
0.328191 0.683986 0.244358
0.333654 0.682948 0.246586
0.341527 0.681209 0.249790
0.357122 0.677607 0.256626
0.379583 0.672023 0.266972
0.406317 0.664698 0.280797
0.435431 0.655695 0.297765
0.465400 0.644984 0.317876
0.492744 0.640772 0.322332
0.522698 0.659724 0.263767
0.566491 0.677790 0.182467
0.622522 0.693996 0.000000
0.687648 0.707881 0.000000
0.758724 0.718837 0.000000
0.805112 0.704433 0.000000
0.831998 0.691524 0.000000
0.842557 0.672541 0.000000
0.846952 0.655634 0.000000
0.850065 0.644038 0.101534
0.853574 0.638453 0.216098
0.858762 0.638788 0.289525
0.887663 0.633478 0.302068
0.914092 0.628016 0.315740
0.938445 0.622736 0.330510
0.960876 0.617853 0.346166
0.981537 0.613886 0.362921
1.000000 0.611017 0.380743
1.000000 0.609705 0.399878
1.000000 0.610101 0.420294
1.000000 0.612726 0.442390
1.000000 0.617731 0.466011
1.000000 0.625208 0.490700
0.345861 0.715572 0.262181
0.351629 0.714961 0.264714
0.370092 0.730220 0.278935
0.384924 0.726955 0.285466
0.406348 0.721767 0.295262
0.431830 0.714900 0.308141
0.460304 0.706294 0.324163
0.489937 0.696193 0.343114
0.519646 0.684688 0.365118
0.542992 0.694423 0.330541
0.575677 0.710750 0.263035
0.621027 0.725612 0.165438
0.676905 0.738125 0.000000
0.740749 0.748165 0.000000
0.805173 0.752224 0.000000
0.845701 0.733425 0.000000
0.866972 0.718410 0.000000
0.874571 0.697963 0.000000
0.877317 0.680446 0.000000
0.879637 0.668849 0.108003
0.882353 0.663233 0.226596
0.886198 0.663691 0.304479
0.908324 0.659907 0.328801
0.932830 0.654200 0.342840
0.955169 0.648615 0.357458
0.975738 0.643610 0.373053
0.994781 0.639551 0.389746
1.000000 0.637049 0.408057
1.000000 0.636439 0.428107
1.000000 0.638117 0.450050
1.000000 0.642145 0.473640
1.000000 0.648310 0.498116
0.365667 0.748257 0.283543
0.372015 0.749508 0.287144
0.380163 0.750332 0.291600
0.395300 0.749447 0.299046
0.416114 0.746426 0.309178
0.441016 0.741024 0.321813
0.468482 0.733700 0.336950
0.497444 0.724727 0.354742
0.526909 0.714565 0.375372
0.552575 0.709377 0.381903
0.575921 0.725185 0.323949
0.611322 0.739773 0.249149
0.657801 0.752407 0.132296
0.713558 0.762814 0.000000
0.775662 0.770687 0.000000
0.834409 0.770016 0.000000
0.868589 0.749294 0.000000
0.887694 0.733730 0.000000
0.893797 0.713161 0.000000
0.896330 0.696315 0.000000
0.898863 0.685451 0.110689
0.902159 0.680781 0.232670
0.906096 0.681788 0.313512
0.922820 0.680629 0.350622
0.946227 0.675349 0.365423
0.967773 0.670405 0.381079
0.987671 0.666316 0.397925
1.000000 0.663478 0.416297
1.000000 0.662470 0.436530
1.000000 0.663478 0.458503
1.000000 0.666590 0.481971
1.000000 0.671656 0.506157
0.379583 0.772732 0.300633
0.385687 0.773770 0.304112
0.393286 0.774533 0.308293
0.407141 0.773739 0.315190
0.426795 0.771054 0.324834
0.450233 0.766293 0.336675
0.476631 0.759792 0.350927
0.504631 0.751858 0.367498
0.533593 0.742763 0.386816
0.562280 0.732540 0.408667
0.582544 0.739406 0.380591
0.608606 0.753841 0.317662
0.645624 0.766567 0.234684
0.692927 0.777371 0.085786
0.748196 0.785885 0.000000
0.809079 0.792020 0.000000
0.862364 0.787259 0.000000
0.890898 0.765011 0.000000
0.908263 0.748959 0.000000
0.913237 0.728542 0.000000
0.915557 0.712367 0.000000
0.918303 0.702266 0.116915
0.921752 0.698329 0.241184
0.925505 0.699825 0.324498
0.937163 0.701259 0.374182
0.959503 0.696437 0.389807
0.980133 0.692226 0.406531
0.999329 0.689113 0.424689
1.000000 0.687617 0.444831
1.000000 0.687984 0.466773
1.000000 0.690181 0.489906
1.000000 0.694179 0.513725
0.392706 0.796109 0.318273
0.398383 0.797086 0.321630
0.405646 0.797787 0.325628
0.418677 0.797116 0.332219
0.437140 0.794675 0.341253
0.459449 0.790402 0.352422
0.484535 0.784573 0.365637
0.511711 0.777432 0.381323
0.540093 0.769162 0.399512
0.568597 0.759884 0.419989
0.594293 0.752651 0.434211
0.611749 0.766781 0.379187
0.639612 0.779568 0.310796
0.677974 0.790799 0.218906
0.725795 0.800107 0.000000
0.780911 0.807370 0.000000
0.841276 0.812833 0.000000
0.889189 0.804013 0.000000
0.914580 0.782071 0.000000
0.931365 0.766323 0.000000
0.936126 0.746792 0.000000
0.938903 0.731746 0.000000
0.941802 0.722621 0.132479
0.945434 0.719753 0.257420
0.949096 0.722347 0.343755
0.956115 0.727474 0.407752
0.977295 0.723537 0.424872
0.996796 0.720516 0.443458
1.000000 0.718807 0.463661
1.000000 0.718624 0.485023
1.000000 0.720058 0.507500
1.000000 0.723110 0.530449
0.411597 0.824918 0.343236
0.416205 0.825010 0.345678
0.422004 0.824674 0.348516
0.433631 0.823178 0.353918
0.450355 0.820340 0.361791
0.471290 0.816159 0.371984
0.495369 0.810849 0.384497
0.521843 0.804532 0.399481
0.549767 0.797391 0.417029
0.578424 0.789273 0.436988
0.606561 0.780301 0.459113
0.625391 0.783413 0.441993
0.644465 0.796323 0.382635
0.673640 0.807736 0.308385
0.712764 0.817472 0.206058
0.760800 0.825284 0.000000
0.815671 0.831205 0.000000
0.874907 0.835416 0.000000
0.916411 0.821469 0.000000
0.937896 0.799008 0.000000
0.952850 0.782498 0.000000
0.956146 0.762692 0.000000
0.957977 0.747738 0.000000
0.959869 0.738582 0.144625
0.962921 0.736019 0.269261
0.966155 0.739162 0.357641
0.969543 0.747585 0.434119
0.989593 0.744839 0.453529
1.000000 0.742977 0.473487
1.000000 0.742245 0.494545
1.000000 0.743160 0.516594
1.000000 0.745693 0.539239
0.423987 0.845670 0.362005
0.428473 0.845731 0.364385
0.433997 0.845548 0.367193
0.445014 0.844205 0.372412
0.460914 0.841611 0.379828
0.480598 0.837797 0.389319
0.503410 0.832883 0.401038
0.528618 0.827054 0.414923
0.555962 0.820371 0.431464
0.583948 0.812894 0.450233
0.611933 0.804654 0.471077
0.638544 0.795529 0.493172
0.650996 0.807370 0.445075
0.671717 0.819211 0.381445
0.702144 0.829557 0.301671
0.742336 0.838285 0.187869
0.790677 0.845243 0.000000
0.845426 0.850431 0.000000
0.903563 0.853574 0.000000
0.939422 0.835447 0.000000
0.958190 0.813535 0.000000
0.972229 0.796994 0.000000
0.974884 0.777676 0.000000
0.976593 0.763424 0.000000
0.975067 0.752224 0.155978
0.978058 0.750423 0.280735
0.981201 0.754391 0.371618
0.984466 0.763882 0.450660
1.000000 0.764889 0.481422
1.000000 0.764157 0.502403
1.000000 0.764797 0.524346
1.000000 0.767269 0.547112
0.441749 0.869688 0.387121
0.446052 0.869871 0.389563
0.451270 0.869505 0.392187
0.461280 0.868009 0.396826
0.475898 0.865415 0.403510
0.494179 0.861692 0.412024
0.515648 0.856992 0.422736
0.539605 0.851255 0.435584
0.565515 0.844694 0.450629
0.592279 0.837430 0.467720
0.619074 0.829313 0.486275
0.645075 0.820615 0.506249
0.663966 0.818723 0.503410
0.676753 0.830198 0.448859
0.698054 0.840452 0.380468
0.729030 0.849271 0.294011
0.769284 0.856504 0.165621
0.817594 0.862242 0.000000
0.871824 0.866545 0.000000
0.926940 0.867308 0.000000
0.958801 0.846647 0.000000
0.975311 0.825498 0.000000
0.988342 0.808896 0.000000
0.989929 0.789578 0.000000
0.990875 0.775601 0.000000
0.991424 0.767056 0.171847
0.994171 0.766079 0.296574
0.996948 0.770962 0.389349
0.999908 0.781369 0.470100
1.000000 0.786526 0.512200
1.000000 0.786831 0.533623
1.000000 0.789090 0.556298
0.452857 0.887144 0.405493
0.456886 0.887297 0.407843
0.461891 0.887022 0.410407
0.471290 0.885679 0.414710
0.485176 0.883268 0.421057
0.502647 0.879942 0.429297
0.523430 0.875700 0.439643
0.546654 0.870665 0.452033
0.571862 0.864836 0.466377
0.598108 0.858427 0.482643
0.624506 0.851286 0.500237
0.650690 0.843534 0.519371
0.675654 0.835111 0.539361
0.688075 0.841215 0.510796
0.702327 0.851987 0.453773
0.724910 0.861601 0.381567
0.756893 0.869810 0.289128
0.797910 0.876524 0.144350
0.846555 0.881773 0.000000
0.900694 0.885557 0.000000
0.953094 0.884154 0.000000
0.980346 0.860075 0.000000
0.994476 0.839353 0.000000
1.000000 0.822263 0.000000
1.000000 0.803555 0.000000
1.000000 0.790188 0.000000
1.000000 0.782254 0.190951
1.000000 0.782559 0.315190
1.000000 0.788937 0.410437
1.000000 0.800412 0.492012
1.000000 0.810513 0.547051
1.000000 0.812589 0.569390
0.466163 0.905241 0.426520
0.469917 0.905180 0.428565
0.474128 0.904753 0.430610
0.482826 0.903319 0.434455
0.495552 0.900969 0.440162
0.512078 0.897795 0.447791
0.531487 0.893828 0.457221
0.553674 0.889128 0.468727
0.577935 0.883787 0.482124
0.603235 0.877958 0.497230
0.629206 0.871489 0.513878
0.655177 0.864530 0.531975
0.680293 0.856901 0.551019
0.702052 0.850706 0.564172
0.710842 0.861509 0.517479
0.726223 0.871519 0.458167
0.749752 0.880461 0.381872
0.782559 0.888060 0.283421
0.824125 0.894224 0.116213
0.872923 0.898894 0.000000
0.926665 0.902007 0.000000
0.976623 0.898680 0.000000
0.998840 0.871153 0.000000
1.000000 0.851194 0.000000
1.000000 0.833738 0.000000
1.000000 0.815732 0.000000
1.000000 0.803128 0.000000
1.000000 0.796078 0.209110
1.000000 0.797360 0.332372
1.000000 0.804746 0.428687
1.000000 0.816800 0.509026
1.000000 0.831479 0.574731
0.477516 0.921263 0.445808
0.480720 0.921111 0.447456
0.484901 0.920653 0.449470
0.493019 0.919463 0.453162
0.505516 0.917479 0.458869
0.521599 0.914916 0.466560
0.541192 0.911925 0.476509
0.563409 0.908415 0.488472
0.587884 0.904387 0.502464
0.613611 0.899931 0.518029
0.640070 0.894896 0.535119
0.666468 0.889281 0.553277
0.692042 0.883024 0.572198
0.716335 0.876005 0.591547
0.731228 0.877134 0.582696
0.741054 0.887358 0.534966
0.757229 0.896757 0.474006
0.781125 0.905180 0.394354
0.814267 0.912261 0.288884
0.855985 0.917754 0.099001
0.904662 0.921599 0.000000
0.957855 0.923766 0.000000
1.000000 0.917906 0.000000
1.000000 0.886656 0.000000
1.000000 0.867277 0.000000
1.000000 0.849302 0.000000
1.000000 0.832059 0.000000
1.000000 0.820310 0.000000
1.000000 0.814298 0.236698
1.000000 0.816526 0.357610
1.000000 0.825010 0.453529
1.000000 0.837003 0.529320
0.497932 0.941405 0.474311
0.500755 0.941161 0.475715
0.504326 0.940642 0.477272
0.511772 0.939391 0.480476
0.523095 0.937469 0.485451
0.537774 0.934905 0.492195
0.555566 0.931853 0.500847
0.576013 0.928283 0.511284
0.598596 0.924193 0.523522
0.622675 0.919585 0.537346
0.647456 0.914458 0.552453
0.672572 0.908843 0.568780
0.697230 0.902647 0.585931
0.720882 0.895903 0.603601
0.743160 0.888579 0.621637
0.751949 0.895476 0.592187
