其他预设/【211】冬日雪景人像10款/2.LR预设文件/冬日雪景人像-10.lrtemplate
s = {
	id = "F9555DEC-0F0C-4410-ABDF-FB4B94176439",
	internalName = "冬日雪景人像[素锦印象]-10",
	title = "冬日雪景人像[素锦印象]-10",
	type = "Develop",
	value = {
		settings = {
			AutoLateralCA = 0,
			Blacks2012 = -3,
			BlueHue = -12,
			BlueSaturation = 60,
			CameraProfile = "Embedded",
			ChromaticAberrationB = 0,
			ChromaticAberrationR = 0,
			Clarity2012 = 3,
			ColorNoiseReduction = 50,
			ColorNoiseReductionDetail = 50,
			ColorNoiseReductionSmoothness = 50,
			Contrast2012 = 10,
			ConvertToGrayscale = false,
			CropConstrainToWarp = 0,
			Defringe = 0,
			DefringeGreenAmount = 0,
			DefringeGreenHueHi = 60,
			DefringeGreenHueLo = 40,
			DefringePurpleAmount = 0,
			DefringePurpleHueHi = 70,
			DefringePurpleHueLo = 30,
			Dehaze = 1,
			EnableCalibration = true,
			EnableCircularGradientBasedCorrections = true,
			EnableColorAdjustments = true,
			EnableDetail = true,
			EnableEffects = true,
			EnableGradientBasedCorrections = true,
			EnableLensCorrections = true,
			EnableSplitToning = true,
			EnableTransform = true,
			Exposure2012 = 0,
			GrainAmount = 15,
			GrainFrequency = 35,
			GrainSize = 35,
			GreenHue = 26,
			GreenSaturation = -11,
			Highlights2012 = -39,
			HueAdjustmentAqua = 0,
			HueAdjustmentBlue = -22,
			HueAdjustmentGreen = -84,
			HueAdjustmentMagenta = 0,
			HueAdjustmentOrange = -9,
			HueAdjustmentPurple = 0,
			HueAdjustmentRed = 0,
			HueAdjustmentYellow = -23,
			IncrementalTemperature = 30,
			IncrementalTint = 13,
			LensManualDistortionAmount = 0,
			LensProfileEnable = 0,
			LensProfileSetup = "LensDefaults",
			LuminanceAdjustmentAqua = 44,
			LuminanceAdjustmentBlue = -27,
			LuminanceAdjustmentGreen = -29,
			LuminanceAdjustmentMagenta = 0,
			LuminanceAdjustmentOrange = -34,
			LuminanceAdjustmentPurple = -1,
			LuminanceAdjustmentRed = -23,
			LuminanceAdjustmentYellow = 3,
			LuminanceNoiseReductionContrast = 0,
			LuminanceNoiseReductionDetail = 50,
			LuminanceSmoothing = 10,
			ParametricDarks = 0,
			ParametricHighlightSplit = 76,
			ParametricHighlights = 0,
			ParametricLights = 0,
			ParametricMidtoneSplit = 51,
			ParametricShadowSplit = 24,
			ParametricShadows = 0,
			PerspectiveAspect = 0,
			PerspectiveHorizontal = 0,
			PerspectiveRotate = 0,
			PerspectiveScale = 100,
			PerspectiveUpright = 0,
			PerspectiveVertical = 0,
			PerspectiveX = 0,
			PerspectiveY = 0,
			PostCropVignetteAmount = 0,
			PostCropVignetteFeather = 50,
			PostCropVignetteHighlightContrast = 0,
			PostCropVignetteMidpoint = 50,
			PostCropVignetteRoundness = 0,
			PostCropVignetteStyle = 1,
			ProcessVersion = "6.7",
			RedHue = 15,
			RedSaturation = 16,
			Saturation = -8,
			SaturationAdjustmentAqua = -39,
			SaturationAdjustmentBlue = -37,
			SaturationAdjustmentGreen = 24,
			SaturationAdjustmentMagenta = -35,
			SaturationAdjustmentOrange = -27,
			SaturationAdjustmentPurple = -40,
			SaturationAdjustmentRed = -8,
			SaturationAdjustmentYellow = -20,
			ShadowTint = 0,
			Shadows2012 = 0,
			SharpenDetail = 25,
			SharpenEdgeMasking = 80,
			SharpenRadius = 1,
			Sharpness = 50,
			SplitToningBalance = -22,
			SplitToningHighlightHue = 32,
			SplitToningHighlightSaturation = 0,
			SplitToningShadowHue = 178,
			SplitToningShadowSaturation = 4,
			ToneCurveName2012 = "Custom",
			ToneCurvePV2012 = {
				0,
				19,
				42,
				57,
				87,
				93,
				124,
				125,
				209,
				205,
				255,
				247,
			},
			ToneCurvePV2012Blue = {
				0,
				0,
				34,
				22,
				74,
				55,
				106,
				105,
				197,
				209,
				255,
				255,
			},
			ToneCurvePV2012Green = {
				0,
				0,
				34,
				22,
				73,
				54,
				107,
				105,
				144,
				156,
				198,
				208,
				255,
				255,
			},
			ToneCurvePV2012Red = {
				0,
				0,
				31,
				18,
				65,
				40,
				78,
				56,
				109,
				104,
				141,
				150,
				169,
				183,
				194,
				208,
				228,
				236,
				255,
				255,
			},
			UprightCenterMode = 0,
			UprightCenterNormX = 0.5,
			UprightCenterNormY = 0.5,
			UprightFocalLength35mm = 35,
			UprightFocalMode = 0,
			UprightFourSegmentsCount = 0,
			UprightPreview = false,
			UprightTransformCount = 6,
			UprightVersion = 151388160,
			Vibrance = -17,
			VignetteAmount = 0,
			VignetteMidpoint = 50,
			WhiteBalance = "Custom",
			Whites2012 = 42,
			orientation = "AB",
		},
		uuid = "B7425136-1843-4F89-B552-CC1A0122445F",
	},
	version = 0,
}
