其他预设/【237】莫兰迪灰色调LR预设合集/Cordial/Camera Raw/Cordial no.2.xmp
<x:xmpmeta xmlns:x="adobe:ns:meta/" x:xmptk="Adobe XMP Core 5.6-c140 79.160451, 2017/05/06-01:08:21        ">
 <rdf:RDF xmlns:rdf="http://www.w3.org/1999/02/22-rdf-syntax-ns#">
  <rdf:Description rdf:about=""
    xmlns:crs="http://ns.adobe.com/camera-raw-settings/1.0/"
   crs:Version="10.3"
   crs:ProcessVersion="10.0"
   crs:WhiteBalance="As Shot"
   crs:IncrementalTemperature="0"
   crs:IncrementalTint="0"
   crs:Saturation="-36"
   crs:Sharpness="33"
   crs:LuminanceSmoothing="6"
   crs:ColorNoiseReduction="28"
   crs:VignetteAmount="0"
   crs:ShadowTint="0"
   crs:RedHue="+10"
   crs:RedSaturation="-21"
   crs:GreenHue="+46"
   crs:GreenSaturation="+14"
   crs:BlueHue="+7"
   crs:BlueSaturation="-26"
   crs:Vibrance="+6"
   crs:HueAdjustmentRed="+11"
   crs:HueAdjustmentOrange="+3"
   crs:HueAdjustmentYellow="+12"
   crs:HueAdjustmentGreen="+6"
   crs:HueAdjustmentAqua="0"
   crs:HueAdjustmentBlue="0"
   crs:HueAdjustmentPurple="-16"
   crs:HueAdjustmentMagenta="+11"
   crs:SaturationAdjustmentRed="-10"
   crs:SaturationAdjustmentOrange="-7"
   crs:SaturationAdjustmentYellow="+3"
   crs:SaturationAdjustmentGreen="-17"
   crs:SaturationAdjustmentAqua="-3"
   crs:SaturationAdjustmentBlue="-4"
   crs:SaturationAdjustmentPurple="-18"
   crs:SaturationAdjustmentMagenta="-9"
   crs:LuminanceAdjustmentRed="0"
   crs:LuminanceAdjustmentOrange="0"
   crs:LuminanceAdjustmentYellow="+21"
   crs:LuminanceAdjustmentGreen="0"
   crs:LuminanceAdjustmentAqua="0"
   crs:LuminanceAdjustmentBlue="-14"
   crs:LuminanceAdjustmentPurple="-15"
   crs:LuminanceAdjustmentMagenta="-3"
   crs:SplitToningShadowHue="43"
   crs:SplitToningShadowSaturation="7"
   crs:SplitToningHighlightHue="279"
   crs:SplitToningHighlightSaturation="9"
   crs:SplitToningBalance="-4"
   crs:ParametricShadows="0"
   crs:ParametricDarks="0"
   crs:ParametricLights="0"
   crs:ParametricHighlights="0"
   crs:ParametricShadowSplit="25"
   crs:ParametricMidtoneSplit="50"
   crs:ParametricHighlightSplit="75"
   crs:SharpenRadius="+0.9"
   crs:SharpenDetail="8"
   crs:SharpenEdgeMasking="2"
   crs:PostCropVignetteAmount="0"
   crs:GrainAmount="2"
   crs:GrainSize="1"
   crs:GrainFrequency="4"
   crs:LuminanceNoiseReductionDetail="6"
   crs:ColorNoiseReductionDetail="36"
   crs:LuminanceNoiseReductionContrast="0"
   crs:ColorNoiseReductionSmoothness="50"
   crs:LensProfileEnable="0"
   crs:LensManualDistortionAmount="0"
   crs:PerspectiveVertical="0"
   crs:PerspectiveHorizontal="0"
   crs:PerspectiveRotate="0.0"
   crs:PerspectiveScale="100"
   crs:PerspectiveAspect="0"
   crs:PerspectiveUpright="0"
   crs:PerspectiveX="0.00"
   crs:PerspectiveY="0.00"
   crs:AutoLateralCA="1"
   crs:Exposure2012="+0.45"
   crs:Contrast2012="+10"
   crs:Highlights2012="-42"
   crs:Shadows2012="-11"
   crs:Whites2012="+16"
   crs:Blacks2012="+23"
   crs:Clarity2012="+10"
   crs:DefringePurpleAmount="0"
   crs:DefringePurpleHueLo="30"
   crs:DefringePurpleHueHi="70"
   crs:DefringeGreenAmount="0"
   crs:DefringeGreenHueLo="40"
   crs:DefringeGreenHueHi="60"
   crs:Dehaze="0"
   crs:ConvertToGrayscale="False"
   crs:OverrideLookVignette="False"
   crs:ToneCurveName2012="Custom"
   crs:CameraProfile="Embedded"
   crs:CameraProfileDigest="54650A341B5B5CCAE8442D0B43A92BCE"
   crs:LensProfileSetup="LensDefaults"
   crs:GrainSeed="3918503928"
   crs:HasSettings="True">
   <crs:ToneCurvePV2012>
    <rdf:Seq>
     <rdf:li>0, 24</rdf:li>
     <rdf:li>84, 75</rdf:li>
     <rdf:li>172, 184</rdf:li>
     <rdf:li>255, 255</rdf:li>
    </rdf:Seq>
   </crs:ToneCurvePV2012>
   <crs:ToneCurvePV2012Red>
    <rdf:Seq>
     <rdf:li>0, 0</rdf:li>
     <rdf:li>255, 255</rdf:li>
    </rdf:Seq>
   </crs:ToneCurvePV2012Red>
   <crs:ToneCurvePV2012Green>
    <rdf:Seq>
     <rdf:li>0, 0</rdf:li>
     <rdf:li>255, 255</rdf:li>
    </rdf:Seq>
   </crs:ToneCurvePV2012Green>
   <crs:ToneCurvePV2012Blue>
    <rdf:Seq>
     <rdf:li>0, 0</rdf:li>
     <rdf:li>255, 255</rdf:li>
    </rdf:Seq>
   </crs:ToneCurvePV2012Blue>
   <crs:Look
    crs:Name=""/>
  </rdf:Description>
 </rdf:RDF>
</x:xmpmeta>
