其他预设/【237】莫兰迪灰色调LR预设合集/Weekday/Lightroom Desktop/Weekday no.1.lrtemplate
s = {
	id = "FE31DD76-DCBD-48B5-AAAE-89AF89CBB856",
	internalName = "Weekday no.1",
	title = "Weekday no.1",
	type = "Develop",
	value = {
		settings = {
			AutoLateralCA = 0,
			Blacks2012 = 0,
			BlueHue = 0,
			BlueSaturation = 0,
			CameraProfile = "Adobe Standard",
			ChromaticAberrationB = 0,
			ChromaticAberrationR = 0,
			Clarity2012 = 30,
			ColorNoiseReduction = 30,
			ColorNoiseReductionDetail = 50,
			ColorNoiseReductionSmoothness = 50,
			Contrast2012 = 15,
			ConvertToGrayscale = false,
			CropConstrainToWarp = 0,
			Defringe = 0,
			DefringeGreenAmount = 0,
			DefringeGreenHueHi = 60,
			DefringeGreenHueLo = 40,
			DefringePurpleAmount = 0,
			DefringePurpleHueHi = 70,
			DefringePurpleHueLo = 30,
			Dehaze = 0,
			EnableCalibration = true,
			EnableColorAdjustments = true,
			EnableDetail = true,
			EnableEffects = true,
			EnableLensCorrections = true,
			EnableSplitToning = true,
			Exposure2012 = 0,
			GrainAmount = 0,
			GrainFrequency = 50,
			GrainSize = 25,
			GreenHue = -20,
			GreenSaturation = 0,
			Highlights2012 = -82,
			HueAdjustmentAqua = -8,
			HueAdjustmentBlue = 8,
			HueAdjustmentGreen = -38,
			HueAdjustmentMagenta = 10,
			HueAdjustmentOrange = -38,
			HueAdjustmentPurple = 23,
			HueAdjustmentRed = -17,
			HueAdjustmentYellow = -14,
			LensManualDistortionAmount = 0,
			LuminanceAdjustmentAqua = 0,
			LuminanceAdjustmentBlue = 0,
			LuminanceAdjustmentGreen = 5,
			LuminanceAdjustmentMagenta = 0,
			LuminanceAdjustmentOrange = 19,
			LuminanceAdjustmentPurple = 0,
			LuminanceAdjustmentRed = 10,
			LuminanceAdjustmentYellow = 15,
			LuminanceNoiseReductionContrast = 0,
			LuminanceNoiseReductionDetail = 50,
			LuminanceSmoothing = 11,
			ParametricDarks = 10,
			ParametricHighlightSplit = 75,
			ParametricHighlights = -39,
			ParametricLights = 0,
			ParametricMidtoneSplit = 50,
			ParametricShadowSplit = 25,
			ParametricShadows = 2,
			PostCropVignetteAmount = 0,
			PostCropVignetteFeather = 50,
			PostCropVignetteHighlightContrast = 0,
			PostCropVignetteMidpoint = 50,
			PostCropVignetteRoundness = 0,
			PostCropVignetteStyle = 1,
			ProcessVersion = "10.0",
			RedHue = 0,
			RedSaturation = 0,
			Saturation = -5,
			SaturationAdjustmentAqua = 0,
			SaturationAdjustmentBlue = 0,
			SaturationAdjustmentGreen = -28,
			SaturationAdjustmentMagenta = 0,
			SaturationAdjustmentOrange = -30,
			SaturationAdjustmentPurple = 0,
			SaturationAdjustmentRed = 0,
			SaturationAdjustmentYellow = -55,
			ShadowTint = 0,
			Shadows2012 = 14,
			SharpenDetail = 25,
			SharpenEdgeMasking = 0,
			SharpenRadius = 1,
			Sharpness = 25,
			SplitToningBalance = 0,
			SplitToningHighlightHue = 37,
			SplitToningHighlightSaturation = 15,
			SplitToningShadowHue = 37,
			SplitToningShadowSaturation = 35,
			Temperature = 5000,
			Tint = 10,
			ToneCurveName2012 = "Custom",
			ToneCurvePV2012 = {
				0,
				10,
				65,
				51,
				128,
				128,
				192,
				202,
				255,
				255,
			},
			ToneCurvePV2012Blue = {
				0,
				0,
				255,
				255,
			},
			ToneCurvePV2012Green = {
				0,
				0,
				255,
				255,
			},
			ToneCurvePV2012Red = {
				0,
				0,
				255,
				255,
			},
			Vibrance = -10,
			VignetteAmount = 0,
			VignetteMidpoint = 50,
			WhiteBalance = "Custom",
			Whites2012 = 27,
		},
		uuid = "EDB46D4F-3D14-46A4-A8EF-13E5506FD0E7",
	},
	version = 0,
}
