其他预设/玉米/明快3贵族胶片.xmp
<x:xmpmeta xmlns:x="adobe:ns:meta/" x:xmptk="Adobe XMP Core 5.6-c140 79.160451, 2017/05/06-01:08:21        ">
 <rdf:RDF xmlns:rdf="http://www.w3.org/1999/02/22-rdf-syntax-ns#">
  <rdf:Description rdf:about=""
    xmlns:crs="http://ns.adobe.com/camera-raw-settings/1.0/"
   crs:PresetType="Normal"
   crs:Cluster=""
   crs:UUID="146D7D34D12B4EF187C90078EF204D89"
   crs:SupportsAmount="False"
   crs:SupportsColor="True"
   crs:SupportsMonochrome="True"
   crs:SupportsHighDynamicRange="True"
   crs:SupportsNormalDynamicRange="True"
   crs:SupportsSceneReferred="True"
   crs:SupportsOutputReferred="True"
   crs:CameraModelRestriction=""
   crs:Copyright=""
   crs:ContactInfo=""
   crs:Version="13.1"
   crs:ProcessVersion="11.0"
   crs:WhiteBalance="Custom"
   crs:IncrementalTemperature="-4"
   crs:IncrementalTint="+1"
   crs:Exposure2012="+0.95"
   crs:Contrast2012="+3"
   crs:Highlights2012="-95"
   crs:Shadows2012="+37"
   crs:Whites2012="-70"
   crs:Blacks2012="0"
   crs:Clarity2012="+5"
   crs:Dehaze="0"
   crs:Vibrance="0"
   crs:Saturation="0"
   crs:ParametricShadows="-63"
   crs:ParametricDarks="-25"
   crs:ParametricLights="0"
   crs:ParametricHighlights="0"
   crs:ParametricShadowSplit="25"
   crs:ParametricMidtoneSplit="50"
   crs:ParametricHighlightSplit="75"
   crs:Sharpness="38"
   crs:SharpenRadius="+1.0"
   crs:SharpenDetail="25"
   crs:SharpenEdgeMasking="0"
   crs:LuminanceSmoothing="19"
   crs:LuminanceNoiseReductionDetail="50"
   crs:LuminanceNoiseReductionContrast="0"
   crs:ColorNoiseReduction="48"
   crs:ColorNoiseReductionDetail="50"
   crs:ColorNoiseReductionSmoothness="50"
   crs:HueAdjustmentRed="+1"
   crs:HueAdjustmentOrange="+23"
   crs:HueAdjustmentYellow="-2"
   crs:HueAdjustmentGreen="+55"
   crs:HueAdjustmentAqua="+40"
   crs:HueAdjustmentBlue="0"
   crs:HueAdjustmentPurple="+3"
   crs:HueAdjustmentMagenta="0"
   crs:SaturationAdjustmentRed="0"
   crs:SaturationAdjustmentOrange="-12"
   crs:SaturationAdjustmentYellow="-36"
   crs:SaturationAdjustmentGreen="-80"
   crs:SaturationAdjustmentAqua="-35"
   crs:SaturationAdjustmentBlue="-5"
   crs:SaturationAdjustmentPurple="-8"
   crs:SaturationAdjustmentMagenta="0"
   crs:LuminanceAdjustmentRed="-9"
   crs:LuminanceAdjustmentOrange="+9"
   crs:LuminanceAdjustmentYellow="-3"
   crs:LuminanceAdjustmentGreen="-6"
   crs:LuminanceAdjustmentAqua="+4"
   crs:LuminanceAdjustmentBlue="+4"
   crs:LuminanceAdjustmentPurple="0"
   crs:LuminanceAdjustmentMagenta="0"
   crs:SplitToningShadowHue="220"
   crs:SplitToningShadowSaturation="0"
   crs:SplitToningHighlightHue="298"
   crs:SplitToningHighlightSaturation="8"
   crs:SplitToningBalance="0"
   crs:ColorGradeMidtoneHue="0"
   crs:ColorGradeMidtoneSat="0"
   crs:ColorGradeShadowLum="0"
   crs:ColorGradeMidtoneLum="0"
   crs:ColorGradeHighlightLum="0"
   crs:ColorGradeBlending="100"
   crs:ColorGradeGlobalHue="0"
   crs:ColorGradeGlobalSat="0"
   crs:ColorGradeGlobalLum="0"
   crs:PerspectiveUpright="0"
   crs:PerspectiveVertical="0"
   crs:PerspectiveHorizontal="0"
   crs:PerspectiveRotate="0.0"
   crs:PerspectiveAspect="0"
   crs:PerspectiveScale="100"
   crs:PerspectiveX="0.00"
   crs:PerspectiveY="0.00"
   crs:GrainAmount="12"
   crs:GrainSize="41"
   crs:GrainFrequency="50"
   crs:PostCropVignetteAmount="-10"
   crs:PostCropVignetteMidpoint="50"
   crs:PostCropVignetteFeather="50"
   crs:PostCropVignetteRoundness="0"
   crs:PostCropVignetteStyle="1"
   crs:PostCropVignetteHighlightContrast="0"
   crs:ShadowTint="+3"
   crs:RedHue="+7"
   crs:RedSaturation="0"
   crs:GreenHue="+8"
   crs:GreenSaturation="-8"
   crs:BlueHue="+3"
   crs:BlueSaturation="0"
   crs:ConvertToGrayscale="False"
   crs:OverrideLookVignette="True"
   crs:ToneCurveName2012="Custom"
   crs:CameraProfile="Embedded"
   crs:HasSettings="True">
   <crs:Name>
    <rdf:Alt>
     <rdf:li xml:lang="x-default">明快3贵族胶片</rdf:li>
    </rdf:Alt>
   </crs:Name>
   <crs:ShortName>
    <rdf:Alt>
     <rdf:li xml:lang="x-default"/>
    </rdf:Alt>
   </crs:ShortName>
   <crs:SortName>
    <rdf:Alt>
     <rdf:li xml:lang="x-default"/>
    </rdf:Alt>
   </crs:SortName>
   <crs:Group>
    <rdf:Alt>
     <rdf:li xml:lang="x-default">不光｜预设工厂</rdf:li>
    </rdf:Alt>
   </crs:Group>
   <crs:Description>
    <rdf:Alt>
     <rdf:li xml:lang="x-default"/>
    </rdf:Alt>
   </crs:Description>
   <crs:ToneCurvePV2012>
    <rdf:Seq>
     <rdf:li>0, 28</rdf:li>
     <rdf:li>51, 60</rdf:li>
     <rdf:li>128, 135</rdf:li>
     <rdf:li>255, 255</rdf:li>
    </rdf:Seq>
   </crs:ToneCurvePV2012>
   <crs:ToneCurvePV2012Red>
    <rdf:Seq>
     <rdf:li>2, 0</rdf:li>
     <rdf:li>39, 30</rdf:li>
     <rdf:li>88, 85</rdf:li>
     <rdf:li>125, 124</rdf:li>
     <rdf:li>184, 184</rdf:li>
     <rdf:li>255, 255</rdf:li>
    </rdf:Seq>
   </crs:ToneCurvePV2012Red>
   <crs:ToneCurvePV2012Green>
    <rdf:Seq>
     <rdf:li>0, 0</rdf:li>
     <rdf:li>37, 25</rdf:li>
     <rdf:li>66, 60</rdf:li>
     <rdf:li>138, 139</rdf:li>
     <rdf:li>255, 255</rdf:li>
    </rdf:Seq>
   </crs:ToneCurvePV2012Green>
   <crs:ToneCurvePV2012Blue>
    <rdf:Seq>
     <rdf:li>0, 1</rdf:li>
     <rdf:li>34, 34</rdf:li>
     <rdf:li>66, 66</rdf:li>
     <rdf:li>132, 127</rdf:li>
     <rdf:li>218, 218</rdf:li>
     <rdf:li>255, 255</rdf:li>
    </rdf:Seq>
   </crs:ToneCurvePV2012Blue>
  </rdf:Description>
 </rdf:RDF>
</x:xmpmeta>
