其他预设/玉米/未命名预设.xmp
<x:xmpmeta xmlns:x="adobe:ns:meta/" x:xmptk="Adobe XMP Core 5.6-c140 79.160451, 2017/05/06-01:08:21        ">
 <rdf:RDF xmlns:rdf="http://www.w3.org/1999/02/22-rdf-syntax-ns#">
  <rdf:Description rdf:about=""
    xmlns:crs="http://ns.adobe.com/camera-raw-settings/1.0/"
   crs:PresetType="Normal"
   crs:Cluster=""
   crs:UUID="81DC594C3E5248A3B8307BAB247FE8E1"
   crs:SupportsAmount="False"
   crs:SupportsColor="True"
   crs:SupportsMonochrome="True"
   crs:SupportsHighDynamicRange="True"
   crs:SupportsNormalDynamicRange="True"
   crs:SupportsSceneReferred="True"
   crs:SupportsOutputReferred="True"
   crs:CameraModelRestriction=""
   crs:Copyright=""
   crs:ContactInfo=""
   crs:Version="12.0"
   crs:ProcessVersion="11.0"
   crs:WhiteBalance="As Shot"
   crs:IncrementalTemperature="0"
   crs:IncrementalTint="0"
   crs:Saturation="+10"
   crs:Sharpness="25"
   crs:LuminanceSmoothing="0"
   crs:ColorNoiseReduction="25"
   crs:VignetteAmount="0"
   crs:ShadowTint="0"
   crs:RedHue="-25"
   crs:RedSaturation="+40"
   crs:GreenHue="+40"
   crs:GreenSaturation="+31"
   crs:BlueHue="-5"
   crs:BlueSaturation="+16"
   crs:Vibrance="+20"
   crs:HueAdjustmentRed="0"
   crs:HueAdjustmentOrange="0"
   crs:HueAdjustmentYellow="+5"
   crs:HueAdjustmentGreen="-7"
   crs:HueAdjustmentAqua="-18"
   crs:HueAdjustmentBlue="-11"
   crs:HueAdjustmentPurple="+13"
   crs:HueAdjustmentMagenta="+29"
   crs:SaturationAdjustmentRed="-23"
   crs:SaturationAdjustmentOrange="-11"
   crs:SaturationAdjustmentYellow="-21"
   crs:SaturationAdjustmentGreen="-60"
   crs:SaturationAdjustmentAqua="-60"
   crs:SaturationAdjustmentBlue="-65"
   crs:SaturationAdjustmentPurple="-60"
   crs:SaturationAdjustmentMagenta="-65"
   crs:LuminanceAdjustmentRed="+5"
   crs:LuminanceAdjustmentOrange="0"
   crs:LuminanceAdjustmentYellow="+3"
   crs:LuminanceAdjustmentGreen="+3"
   crs:LuminanceAdjustmentAqua="0"
   crs:LuminanceAdjustmentBlue="-36"
   crs:LuminanceAdjustmentPurple="-15"
   crs:LuminanceAdjustmentMagenta="0"
   crs:SplitToningShadowHue="34"
   crs:SplitToningShadowSaturation="6"
   crs:SplitToningHighlightHue="51"
   crs:SplitToningHighlightSaturation="2"
   crs:SplitToningBalance="0"
   crs:ParametricShadows="-16"
   crs:ParametricDarks="-3"
   crs:ParametricLights="-6"
   crs:ParametricHighlights="+5"
   crs:ParametricShadowSplit="20"
   crs:ParametricMidtoneSplit="48"
   crs:ParametricHighlightSplit="75"
   crs:SharpenRadius="+1.0"
   crs:SharpenDetail="25"
   crs:SharpenEdgeMasking="0"
   crs:PostCropVignetteAmount="0"
   crs:GrainAmount="0"
   crs:ColorNoiseReductionDetail="50"
   crs:ColorNoiseReductionSmoothness="50"
   crs:LensManualDistortionAmount="0"
   crs:AutoLateralCA="0"
   crs:Exposure2012="0.00"
   crs:Contrast2012="+41"
   crs:Highlights2012="-54"
   crs:Shadows2012="+67"
   crs:Whites2012="-54"
   crs:Blacks2012="+62"
   crs:Clarity2012="0"
   crs:DefringePurpleAmount="0"
   crs:DefringePurpleHueLo="30"
   crs:DefringePurpleHueHi="70"
   crs:DefringeGreenAmount="0"
   crs:DefringeGreenHueLo="40"
   crs:DefringeGreenHueHi="60"
   crs:Dehaze="0"
   crs:Texture="0"
   crs:ConvertToGrayscale="False"
   crs:OverrideLookVignette="False"
   crs:ToneCurveName="Custom"
   crs:ToneCurveName2012="Custom"
   crs:CameraProfile="Embedded"
   crs:HasSettings="True"
   crs:CropConstrainToWarp="0">
   <crs:Name>
    <rdf:Alt>
     <rdf:li xml:lang="x-default">未命名预设</rdf:li>
    </rdf:Alt>
   </crs:Name>
   <crs:ShortName>
    <rdf:Alt>
     <rdf:li xml:lang="x-default"/>
    </rdf:Alt>
   </crs:ShortName>
   <crs:SortName>
    <rdf:Alt>
     <rdf:li xml:lang="x-default"/>
    </rdf:Alt>
   </crs:SortName>
   <crs:Group>
    <rdf:Alt>
     <rdf:li xml:lang="x-default"/>
    </rdf:Alt>
   </crs:Group>
   <crs:Description>
    <rdf:Alt>
     <rdf:li xml:lang="x-default"/>
    </rdf:Alt>
   </crs:Description>
   <crs:ToneCurve>
    <rdf:Seq>
     <rdf:li>0, 0</rdf:li>
     <rdf:li>255, 255</rdf:li>
    </rdf:Seq>
   </crs:ToneCurve>
   <crs:ToneCurvePV2012>
    <rdf:Seq>
     <rdf:li>0, 11</rdf:li>
     <rdf:li>36, 37</rdf:li>
     <rdf:li>108, 134</rdf:li>
     <rdf:li>200, 222</rdf:li>
     <rdf:li>255, 255</rdf:li>
    </rdf:Seq>
   </crs:ToneCurvePV2012>
   <crs:ToneCurvePV2012Red>
    <rdf:Seq>
     <rdf:li>0, 0</rdf:li>
     <rdf:li>42, 9</rdf:li>
     <rdf:li>80, 51</rdf:li>
     <rdf:li>125, 123</rdf:li>
     <rdf:li>182, 204</rdf:li>
     <rdf:li>255, 255</rdf:li>
    </rdf:Seq>
   </crs:ToneCurvePV2012Red>
   <crs:ToneCurvePV2012Green>
    <rdf:Seq>
     <rdf:li>0, 0</rdf:li>
     <rdf:li>36, 10</rdf:li>
     <rdf:li>76, 49</rdf:li>
     <rdf:li>120, 120</rdf:li>
     <rdf:li>181, 201</rdf:li>
     <rdf:li>219, 230</rdf:li>
     <rdf:li>255, 255</rdf:li>
    </rdf:Seq>
   </crs:ToneCurvePV2012Green>
   <crs:ToneCurvePV2012Blue>
    <rdf:Seq>
     <rdf:li>0, 0</rdf:li>
     <rdf:li>36, 10</rdf:li>
     <rdf:li>73, 50</rdf:li>
     <rdf:li>120, 119</rdf:li>
     <rdf:li>183, 206</rdf:li>
     <rdf:li>222, 235</rdf:li>
     <rdf:li>255, 255</rdf:li>
    </rdf:Seq>
   </crs:ToneCurvePV2012Blue>
   <crs:Look
    crs:Name=""/>
  </rdf:Description>
 </rdf:RDF>
</x:xmpmeta>
