其他预设/玉米/秘密111.xmp
<x:xmpmeta xmlns:x="adobe:ns:meta/" x:xmptk="Adobe XMP Core 5.6-c140 79.160451, 2017/05/06-01:08:21        ">
 <rdf:RDF xmlns:rdf="http://www.w3.org/1999/02/22-rdf-syntax-ns#">
  <rdf:Description rdf:about=""
    xmlns:crs="http://ns.adobe.com/camera-raw-settings/1.0/"
   crs:PresetType="Normal"
   crs:Cluster=""
   crs:UUID="EA3BDAE680C826A7C13F6B971D1ECB9D"
   crs:SupportsAmount="False"
   crs:SupportsColor="True"
   crs:SupportsMonochrome="True"
   crs:SupportsHighDynamicRange="True"
   crs:SupportsNormalDynamicRange="True"
   crs:SupportsSceneReferred="True"
   crs:SupportsOutputReferred="True"
   crs:CameraModelRestriction=""
   crs:Copyright=""
   crs:ContactInfo=""
   crs:Version="10.3"
   crs:ProcessVersion="10.0"
   crs:WhiteBalance="Custom"
   crs:Temperature="5650"
   crs:Tint="+11"
   crs:Saturation="+21"
   crs:Sharpness="0"
   crs:LuminanceSmoothing="0"
   crs:ColorNoiseReduction="19"
   crs:VignetteAmount="0"
   crs:ShadowTint="-4"
   crs:RedHue="0"
   crs:RedSaturation="+10"
   crs:GreenHue="+10"
   crs:GreenSaturation="0"
   crs:BlueHue="-6"
   crs:BlueSaturation="-10"
   crs:Vibrance="+39"
   crs:HueAdjustmentRed="+6"
   crs:HueAdjustmentOrange="+3"
   crs:HueAdjustmentYellow="+5"
   crs:HueAdjustmentGreen="+20"
   crs:HueAdjustmentAqua="-12"
   crs:HueAdjustmentBlue="-10"
   crs:HueAdjustmentPurple="+15"
   crs:HueAdjustmentMagenta="+20"
   crs:SaturationAdjustmentRed="-20"
   crs:SaturationAdjustmentOrange="-9"
   crs:SaturationAdjustmentYellow="-10"
   crs:SaturationAdjustmentGreen="-40"
   crs:SaturationAdjustmentAqua="-10"
   crs:SaturationAdjustmentBlue="-20"
   crs:SaturationAdjustmentPurple="-30"
   crs:SaturationAdjustmentMagenta="-30"
   crs:LuminanceAdjustmentRed="+10"
   crs:LuminanceAdjustmentOrange="+11"
   crs:LuminanceAdjustmentYellow="-10"
   crs:LuminanceAdjustmentGreen="-10"
   crs:LuminanceAdjustmentAqua="+10"
   crs:LuminanceAdjustmentBlue="-10"
   crs:LuminanceAdjustmentPurple="+5"
   crs:LuminanceAdjustmentMagenta="0"
   crs:SplitToningShadowHue="55"
   crs:SplitToningShadowSaturation="10"
   crs:SplitToningHighlightHue="55"
   crs:SplitToningHighlightSaturation="3"
   crs:SplitToningBalance="+90"
   crs:ParametricShadows="0"
   crs:ParametricDarks="0"
   crs:ParametricLights="0"
   crs:ParametricHighlights="0"
   crs:ParametricShadowSplit="20"
   crs:ParametricMidtoneSplit="40"
   crs:ParametricHighlightSplit="87"
   crs:SharpenRadius="+1.0"
   crs:SharpenDetail="25"
   crs:SharpenEdgeMasking="0"
   crs:PostCropVignetteAmount="0"
   crs:GrainAmount="0"
   crs:ColorNoiseReductionDetail="50"
   crs:ColorNoiseReductionSmoothness="50"
   crs:LensProfileEnable="0"
   crs:LensManualDistortionAmount="0"
   crs:PerspectiveVertical="0"
   crs:PerspectiveHorizontal="0"
   crs:PerspectiveRotate="0.0"
   crs:PerspectiveScale="100"
   crs:PerspectiveAspect="0"
   crs:PerspectiveUpright="0"
   crs:PerspectiveX="0.00"
   crs:PerspectiveY="0.00"
   crs:AutoLateralCA="0"
   crs:Exposure2012="-0.85"
   crs:Contrast2012="-71"
   crs:Highlights2012="-36"
   crs:Shadows2012="-24"
   crs:Whites2012="-23"
   crs:Blacks2012="+27"
   crs:Clarity2012="-27"
   crs:DefringePurpleAmount="0"
   crs:DefringePurpleHueLo="30"
   crs:DefringePurpleHueHi="70"
   crs:DefringeGreenAmount="0"
   crs:DefringeGreenHueLo="40"
   crs:DefringeGreenHueHi="60"
   crs:Dehaze="0"
   crs:ConvertToGrayscale="False"
   crs:OverrideLookVignette="False"
   crs:ToneCurveName2012="Custom"
   crs:CameraProfile="Adobe Standard"
   crs:HasSettings="True">
   <crs:Name>
    <rdf:Alt>
     <rdf:li xml:lang="x-default">秘密奶油灰调1</rdf:li>
    </rdf:Alt>
   </crs:Name>
   <crs:ShortName>
    <rdf:Alt>
     <rdf:li xml:lang="x-default"/>
    </rdf:Alt>
   </crs:ShortName>
   <crs:SortName>
    <rdf:Alt>
     <rdf:li xml:lang="x-default">秘密奶油灰调1</rdf:li>
    </rdf:Alt>
   </crs:SortName>
   <crs:Group>
    <rdf:Alt>
     <rdf:li xml:lang="x-default">User Presets</rdf:li>
    </rdf:Alt>
   </crs:Group>
   <crs:Description>
    <rdf:Alt>
     <rdf:li xml:lang="x-default"/>
    </rdf:Alt>
   </crs:Description>
   <crs:ToneCurvePV2012>
    <rdf:Seq>
     <rdf:li>0, 21</rdf:li>
     <rdf:li>65, 72</rdf:li>
     <rdf:li>159, 122</rdf:li>
     <rdf:li>255, 131</rdf:li>
    </rdf:Seq>
   </crs:ToneCurvePV2012>
   <crs:ToneCurvePV2012Red>
    <rdf:Seq>
     <rdf:li>1, 4</rdf:li>
     <rdf:li>46, 39</rdf:li>
     <rdf:li>115, 127</rdf:li>
     <rdf:li>188, 199</rdf:li>
     <rdf:li>255, 255</rdf:li>
    </rdf:Seq>
   </crs:ToneCurvePV2012Red>
   <crs:ToneCurvePV2012Green>
    <rdf:Seq>
     <rdf:li>0, 6</rdf:li>
     <rdf:li>44, 36</rdf:li>
     <rdf:li>116, 129</rdf:li>
     <rdf:li>144, 158</rdf:li>
     <rdf:li>188, 196</rdf:li>
     <rdf:li>255, 252</rdf:li>
    </rdf:Seq>
   </crs:ToneCurvePV2012Green>
   <crs:ToneCurvePV2012Blue>
    <rdf:Seq>
     <rdf:li>0, 0</rdf:li>
     <rdf:li>50, 36</rdf:li>
     <rdf:li>118, 129</rdf:li>
     <rdf:li>190, 198</rdf:li>
     <rdf:li>255, 250</rdf:li>
    </rdf:Seq>
   </crs:ToneCurvePV2012Blue>
   <crs:Look
    crs:Name=""/>
  </rdf:Description>
 </rdf:RDF>
</x:xmpmeta>
