其他预设/玉米/秘密15.xmp
<x:xmpmeta xmlns:x="adobe:ns:meta/" x:xmptk="Adobe XMP Core 5.6-c140 79.160451, 2017/05/06-01:08:21        ">
 <rdf:RDF xmlns:rdf="http://www.w3.org/1999/02/22-rdf-syntax-ns#">
  <rdf:Description rdf:about=""
    xmlns:crs="http://ns.adobe.com/camera-raw-settings/1.0/"
   crs:PresetType="Normal"
   crs:Cluster=""
   crs:UUID="B13F1857EB4810E68049619AB2127AF0"
   crs:SupportsAmount="False"
   crs:SupportsColor="True"
   crs:SupportsMonochrome="True"
   crs:SupportsHighDynamicRange="True"
   crs:SupportsNormalDynamicRange="True"
   crs:SupportsSceneReferred="True"
   crs:SupportsOutputReferred="True"
   crs:CameraModelRestriction=""
   crs:Copyright=""
   crs:ContactInfo=""
   crs:Version="10.3"
   crs:ProcessVersion="10.0"
   crs:WhiteBalance="Custom"
   crs:Temperature="5576"
   crs:Tint="-5"
   crs:Saturation="-7"
   crs:Sharpness="25"
   crs:LuminanceSmoothing="0"
   crs:ColorNoiseReduction="25"
   crs:VignetteAmount="0"
   crs:ShadowTint="0"
   crs:RedHue="+35"
   crs:RedSaturation="-17"
   crs:GreenHue="+100"
   crs:GreenSaturation="+100"
   crs:BlueHue="-10"
   crs:BlueSaturation="-10"
   crs:Vibrance="-3"
   crs:HueAdjustmentRed="-9"
   crs:HueAdjustmentOrange="+31"
   crs:HueAdjustmentYellow="0"
   crs:HueAdjustmentGreen="-61"
   crs:HueAdjustmentAqua="+36"
   crs:HueAdjustmentBlue="-23"
   crs:HueAdjustmentPurple="0"
   crs:HueAdjustmentMagenta="0"
   crs:SaturationAdjustmentRed="-31"
   crs:SaturationAdjustmentOrange="-43"
   crs:SaturationAdjustmentYellow="-60"
   crs:SaturationAdjustmentGreen="-62"
   crs:SaturationAdjustmentAqua="-42"
   crs:SaturationAdjustmentBlue="-44"
   crs:SaturationAdjustmentPurple="-57"
   crs:SaturationAdjustmentMagenta="-60"
   crs:LuminanceAdjustmentRed="-15"
   crs:LuminanceAdjustmentOrange="+38"
   crs:LuminanceAdjustmentYellow="+6"
   crs:LuminanceAdjustmentGreen="+22"
   crs:LuminanceAdjustmentAqua="-21"
   crs:LuminanceAdjustmentBlue="+9"
   crs:LuminanceAdjustmentPurple="0"
   crs:LuminanceAdjustmentMagenta="0"
   crs:SplitToningShadowHue="58"
   crs:SplitToningShadowSaturation="22"
   crs:SplitToningHighlightHue="236"
   crs:SplitToningHighlightSaturation="6"
   crs:SplitToningBalance="+21"
   crs:ParametricShadows="0"
   crs:ParametricDarks="0"
   crs:ParametricLights="+24"
   crs:ParametricHighlights="0"
   crs:ParametricShadowSplit="10"
   crs:ParametricMidtoneSplit="65"
   crs:ParametricHighlightSplit="90"
   crs:SharpenRadius="+1.0"
   crs:SharpenDetail="25"
   crs:SharpenEdgeMasking="0"
   crs:PostCropVignetteAmount="0"
   crs:GrainAmount="0"
   crs:ColorNoiseReductionDetail="50"
   crs:ColorNoiseReductionSmoothness="50"
   crs:LensProfileEnable="0"
   crs:LensManualDistortionAmount="0"
   crs:PerspectiveVertical="0"
   crs:PerspectiveHorizontal="0"
   crs:PerspectiveRotate="0.0"
   crs:PerspectiveScale="100"
   crs:PerspectiveAspect="0"
   crs:PerspectiveUpright="0"
   crs:PerspectiveX="0.00"
   crs:PerspectiveY="0.00"
   crs:AutoLateralCA="0"
   crs:Exposure2012="-0.60"
   crs:Contrast2012="-21"
   crs:Highlights2012="-100"
   crs:Shadows2012="+25"
   crs:Whites2012="-22"
   crs:Blacks2012="+64"
   crs:Clarity2012="-13"
   crs:DefringePurpleAmount="0"
   crs:DefringePurpleHueLo="30"
   crs:DefringePurpleHueHi="70"
   crs:DefringeGreenAmount="0"
   crs:DefringeGreenHueLo="40"
   crs:DefringeGreenHueHi="60"
   crs:Dehaze="0"
   crs:ConvertToGrayscale="False"
   crs:OverrideLookVignette="False"
   crs:ToneCurveName2012="Custom"
   crs:CameraProfile="Adobe Standard"
   crs:HasSettings="True">
   <crs:Name>
    <rdf:Alt>
     <rdf:li xml:lang="x-default">秘密龙龛阴天法式特写</rdf:li>
    </rdf:Alt>
   </crs:Name>
   <crs:ShortName>
    <rdf:Alt>
     <rdf:li xml:lang="x-default"/>
    </rdf:Alt>
   </crs:ShortName>
   <crs:SortName>
    <rdf:Alt>
     <rdf:li xml:lang="x-default">秘密龙龛阴天法式特写</rdf:li>
    </rdf:Alt>
   </crs:SortName>
   <crs:Group>
    <rdf:Alt>
     <rdf:li xml:lang="x-default">User Presets</rdf:li>
    </rdf:Alt>
   </crs:Group>
   <crs:Description>
    <rdf:Alt>
     <rdf:li xml:lang="x-default"/>
    </rdf:Alt>
   </crs:Description>
   <crs:ToneCurvePV2012>
    <rdf:Seq>
     <rdf:li>0, 11</rdf:li>
     <rdf:li>42, 36</rdf:li>
     <rdf:li>120, 103</rdf:li>
     <rdf:li>197, 147</rdf:li>
     <rdf:li>255, 184</rdf:li>
    </rdf:Seq>
   </crs:ToneCurvePV2012>
   <crs:ToneCurvePV2012Red>
    <rdf:Seq>
     <rdf:li>0, 0</rdf:li>
     <rdf:li>23, 9</rdf:li>
     <rdf:li>60, 43</rdf:li>
     <rdf:li>136, 144</rdf:li>
     <rdf:li>204, 212</rdf:li>
     <rdf:li>255, 255</rdf:li>
    </rdf:Seq>
   </crs:ToneCurvePV2012Red>
   <crs:ToneCurvePV2012Green>
    <rdf:Seq>
     <rdf:li>0, 0</rdf:li>
     <rdf:li>22, 10</rdf:li>
     <rdf:li>68, 49</rdf:li>
     <rdf:li>136, 145</rdf:li>
     <rdf:li>209, 212</rdf:li>
     <rdf:li>255, 255</rdf:li>
    </rdf:Seq>
   </crs:ToneCurvePV2012Green>
   <crs:ToneCurvePV2012Blue>
    <rdf:Seq>
     <rdf:li>0, 0</rdf:li>
     <rdf:li>23, 9</rdf:li>
     <rdf:li>59, 42</rdf:li>
     <rdf:li>129, 148</rdf:li>
     <rdf:li>209, 204</rdf:li>
     <rdf:li>255, 240</rdf:li>
    </rdf:Seq>
   </crs:ToneCurvePV2012Blue>
   <crs:Look
    crs:Name=""/>
  </rdf:Description>
 </rdf:RDF>
</x:xmpmeta>
