其他预设/玉米/秘密日出暗.xmp
<x:xmpmeta xmlns:x="adobe:ns:meta/" x:xmptk="Adobe XMP Core 5.6-c140 79.160451, 2017/05/06-01:08:21        ">
 <rdf:RDF xmlns:rdf="http://www.w3.org/1999/02/22-rdf-syntax-ns#">
  <rdf:Description rdf:about=""
    xmlns:crs="http://ns.adobe.com/camera-raw-settings/1.0/"
   crs:PresetType="Normal"
   crs:Cluster=""
   crs:UUID="488FB23188248258FB57BF6D07A61B1B"
   crs:SupportsAmount="False"
   crs:SupportsColor="True"
   crs:SupportsMonochrome="True"
   crs:SupportsHighDynamicRange="True"
   crs:SupportsNormalDynamicRange="True"
   crs:SupportsSceneReferred="True"
   crs:SupportsOutputReferred="True"
   crs:CameraModelRestriction=""
   crs:Copyright=""
   crs:ContactInfo=""
   crs:Version="10.3"
   crs:ProcessVersion="10.0"
   crs:WhiteBalance="Custom"
   crs:Temperature="5725"
   crs:Tint="+33"
   crs:Saturation="-25"
   crs:Sharpness="128"
   crs:LuminanceSmoothing="0"
   crs:ColorNoiseReduction="16"
   crs:VignetteAmount="0"
   crs:ShadowTint="0"
   crs:RedHue="+41"
   crs:RedSaturation="+61"
   crs:GreenHue="+67"
   crs:GreenSaturation="+25"
   crs:BlueHue="-4"
   crs:BlueSaturation="-26"
   crs:Vibrance="-4"
   crs:HueAdjustmentRed="-23"
   crs:HueAdjustmentOrange="+2"
   crs:HueAdjustmentYellow="+3"
   crs:HueAdjustmentGreen="+3"
   crs:HueAdjustmentAqua="0"
   crs:HueAdjustmentBlue="0"
   crs:HueAdjustmentPurple="0"
   crs:HueAdjustmentMagenta="0"
   crs:SaturationAdjustmentRed="-12"
   crs:SaturationAdjustmentOrange="+70"
   crs:SaturationAdjustmentYellow="+47"
   crs:SaturationAdjustmentGreen="+1"
   crs:SaturationAdjustmentAqua="+8"
   crs:SaturationAdjustmentBlue="+1"
   crs:SaturationAdjustmentPurple="0"
   crs:SaturationAdjustmentMagenta="0"
   crs:LuminanceAdjustmentRed="0"
   crs:LuminanceAdjustmentOrange="0"
   crs:LuminanceAdjustmentYellow="0"
   crs:LuminanceAdjustmentGreen="0"
   crs:LuminanceAdjustmentAqua="0"
   crs:LuminanceAdjustmentBlue="0"
   crs:LuminanceAdjustmentPurple="0"
   crs:LuminanceAdjustmentMagenta="0"
   crs:SplitToningShadowHue="236"
   crs:SplitToningShadowSaturation="31"
   crs:SplitToningHighlightHue="197"
   crs:SplitToningHighlightSaturation="10"
   crs:SplitToningBalance="+47"
   crs:ParametricShadows="0"
   crs:ParametricDarks="0"
   crs:ParametricLights="0"
   crs:ParametricHighlights="0"
   crs:ParametricShadowSplit="25"
   crs:ParametricMidtoneSplit="50"
   crs:ParametricHighlightSplit="75"
   crs:SharpenRadius="+2.0"
   crs:SharpenDetail="30"
   crs:SharpenEdgeMasking="0"
   crs:PostCropVignetteAmount="-16"
   crs:PostCropVignetteMidpoint="0"
   crs:PostCropVignetteFeather="100"
   crs:PostCropVignetteRoundness="+70"
   crs:PostCropVignetteStyle="1"
   crs:PostCropVignetteHighlightContrast="0"
   crs:GrainAmount="0"
   crs:ColorNoiseReductionDetail="50"
   crs:ColorNoiseReductionSmoothness="50"
   crs:LensProfileEnable="0"
   crs:LensManualDistortionAmount="0"
   crs:PerspectiveVertical="0"
   crs:PerspectiveHorizontal="0"
   crs:PerspectiveRotate="0.0"
   crs:PerspectiveScale="100"
   crs:PerspectiveAspect="0"
   crs:PerspectiveUpright="0"
   crs:PerspectiveX="0.00"
   crs:PerspectiveY="0.00"
   crs:AutoLateralCA="0"
   crs:Exposure2012="0.00"
   crs:Contrast2012="+45"
   crs:Highlights2012="0"
   crs:Shadows2012="+32"
   crs:Whites2012="+30"
   crs:Blacks2012="-7"
   crs:Clarity2012="+7"
   crs:DefringePurpleAmount="0"
   crs:DefringePurpleHueLo="30"
   crs:DefringePurpleHueHi="70"
   crs:DefringeGreenAmount="0"
   crs:DefringeGreenHueLo="40"
   crs:DefringeGreenHueHi="60"
   crs:Dehaze="0"
   crs:ConvertToGrayscale="False"
   crs:OverrideLookVignette="True"
   crs:ToneCurveName2012="Custom"
   crs:CameraProfile="Adobe Standard"
   crs:HasSettings="True">
   <crs:Name>
    <rdf:Alt>
     <rdf:li xml:lang="x-default">秘密日出暗</rdf:li>
    </rdf:Alt>
   </crs:Name>
   <crs:ShortName>
    <rdf:Alt>
     <rdf:li xml:lang="x-default"/>
    </rdf:Alt>
   </crs:ShortName>
   <crs:SortName>
    <rdf:Alt>
     <rdf:li xml:lang="x-default">秘密日出暗</rdf:li>
    </rdf:Alt>
   </crs:SortName>
   <crs:Group>
    <rdf:Alt>
     <rdf:li xml:lang="x-default">User Presets</rdf:li>
    </rdf:Alt>
   </crs:Group>
   <crs:Description>
    <rdf:Alt>
     <rdf:li xml:lang="x-default"/>
    </rdf:Alt>
   </crs:Description>
   <crs:ToneCurvePV2012>
    <rdf:Seq>
     <rdf:li>0, 19</rdf:li>
     <rdf:li>60, 65</rdf:li>
     <rdf:li>182, 172</rdf:li>
     <rdf:li>255, 246</rdf:li>
    </rdf:Seq>
   </crs:ToneCurvePV2012>
   <crs:ToneCurvePV2012Red>
    <rdf:Seq>
     <rdf:li>0, 0</rdf:li>
     <rdf:li>74, 74</rdf:li>
     <rdf:li>192, 188</rdf:li>
     <rdf:li>255, 255</rdf:li>
    </rdf:Seq>
   </crs:ToneCurvePV2012Red>
   <crs:ToneCurvePV2012Green>
    <rdf:Seq>
     <rdf:li>0, 0</rdf:li>
     <rdf:li>255, 255</rdf:li>
    </rdf:Seq>
   </crs:ToneCurvePV2012Green>
   <crs:ToneCurvePV2012Blue>
    <rdf:Seq>
     <rdf:li>1, 0</rdf:li>
     <rdf:li>108, 99</rdf:li>
     <rdf:li>194, 199</rdf:li>
     <rdf:li>255, 245</rdf:li>
    </rdf:Seq>
   </crs:ToneCurvePV2012Blue>
   <crs:Look
    crs:Name=""/>
  </rdf:Description>
 </rdf:RDF>
</x:xmpmeta>
