其他预设/【240】TEZZA调色预设合集24款/2.LR预设文件/Tezza万事达-Tezza03JPG.lrtemplate
s = {
	id = "16F93CFB-71C6-4954-9E4C-AA5F6E1792B0",
	internalName = "Tezza万事达-Tezza03JPG",
	title = "Tezza万事达-Tezza03JPG",
	type = "Develop",
	value = {
		settings = {
			AutoLateralCA = 0,
			Blacks2012 = 0,
			BlueHue = -50,
			BlueSaturation = -10,
			CameraProfile = "Embedded",
			ChromaticAberrationB = 0,
			ChromaticAberrationR = 0,
			Clarity2012 = 0,
			ColorNoiseReduction = 0,
			ColorNoiseReductionDetail = 50,
			ColorNoiseReductionSmoothness = 50,
			Contrast2012 = 2,
			ConvertToGrayscale = false,
			CropConstrainToWarp = 0,
			Defringe = 0,
			DefringeGreenAmount = 0,
			DefringeGreenHueHi = 60,
			DefringeGreenHueLo = 40,
			DefringePurpleAmount = 0,
			DefringePurpleHueHi = 70,
			DefringePurpleHueLo = 30,
			Dehaze = 0,
			EnableCalibration = true,
			EnableColorAdjustments = true,
			EnableDetail = true,
			EnableEffects = true,
			EnableLensCorrections = true,
			EnableSplitToning = true,
			Exposure2012 = 0,
			GrainAmount = 0,
			GrainFrequency = 50,
			GrainSize = 25,
			GreenHue = -25,
			GreenSaturation = -10,
			Highlights2012 = 0,
			HueAdjustmentAqua = 5,
			HueAdjustmentBlue = 20,
			HueAdjustmentGreen = 15,
			HueAdjustmentMagenta = 10,
			HueAdjustmentOrange = 10,
			HueAdjustmentPurple = 25,
			HueAdjustmentRed = 15,
			HueAdjustmentYellow = -10,
			IncrementalTemperature = 6,
			IncrementalTint = 0,
			LensManualDistortionAmount = 0,
			LensProfileEnable = 0,
			LensProfileSetup = "LensDefaults",
			LuminanceAdjustmentAqua = -12,
			LuminanceAdjustmentBlue = -25,
			LuminanceAdjustmentGreen = -15,
			LuminanceAdjustmentMagenta = 5,
			LuminanceAdjustmentOrange = -12,
			LuminanceAdjustmentPurple = 0,
			LuminanceAdjustmentRed = -25,
			LuminanceAdjustmentYellow = -35,
			LuminanceNoiseReductionContrast = 0,
			LuminanceNoiseReductionDetail = 50,
			LuminanceSmoothing = 0,
			ParametricDarks = 0,
			ParametricHighlightSplit = 76,
			ParametricHighlights = 0,
			ParametricLights = 0,
			ParametricMidtoneSplit = 51,
			ParametricShadowSplit = 24,
			ParametricShadows = 0,
			PostCropVignetteAmount = 0,
			PostCropVignetteFeather = 50,
			PostCropVignetteHighlightContrast = 0,
			PostCropVignetteMidpoint = 50,
			PostCropVignetteRoundness = 0,
			PostCropVignetteStyle = 1,
			ProcessVersion = "6.7",
			RedHue = 5,
			RedSaturation = 10,
			Saturation = -15,
			SaturationAdjustmentAqua = -20,
			SaturationAdjustmentBlue = -40,
			SaturationAdjustmentGreen = -15,
			SaturationAdjustmentMagenta = 0,
			SaturationAdjustmentOrange = -25,
			SaturationAdjustmentPurple = -5,
			SaturationAdjustmentRed = -45,
			SaturationAdjustmentYellow = -36,
			ShadowTint = 0,
			Shadows2012 = 0,
			SharpenDetail = 25,
			SharpenEdgeMasking = 0,
			SharpenRadius = 1,
			Sharpness = 0,
			SplitToningBalance = -1,
			SplitToningHighlightHue = 1,
			SplitToningHighlightSaturation = 0,
			SplitToningShadowHue = 2,
			SplitToningShadowSaturation = 0,
			ToneCurveName2012 = "Custom",
			ToneCurvePV2012 = {
				0,
				41,
				22,
				51,
				48,
				68,
				112,
				110,
				207,
				169,
				254,
				197,
			},
			ToneCurvePV2012Blue = {
				0,
				0,
				38,
				3,
				74,
				46,
				94,
				100,
				121,
				154,
				171,
				207,
				212,
				233,
				255,
				255,
			},
			ToneCurvePV2012Green = {
				0,
				0,
				36,
				7,
				74,
				55,
				93,
				108,
				112,
				146,
				155,
				191,
				214,
				229,
				254,
				255,
			},
			ToneCurvePV2012Red = {
				0,
				0,
				39,
				9,
				66,
				42,
				97,
				118,
				162,
				195,
				212,
				228,
				255,
				255,
			},
			Vibrance = 0,
			VignetteAmount = 0,
			VignetteMidpoint = 50,
			WhiteBalance = "Custom",
			Whites2012 = 0,
		},
		uuid = "B81BD31D-5F89-43E8-8867-35E4151151E0",
	},
	version = 0,
}
