其他预设/【240】TEZZA调色预设合集24款/2.LR预设文件/Tezza万事达-Tezza02JPG.lrtemplate
s = {
	id = "2144B37C-F1B1-4A58-B551-4D5C37DCCB60",
	internalName = "Tezza万事达-Tezza02JPG",
	title = "Tezza万事达-Tezza02JPG",
	type = "Develop",
	value = {
		settings = {
			AutoLateralCA = 0,
			Blacks2012 = 17,
			BlueHue = -5,
			BlueSaturation = -15,
			CameraProfile = "Embedded",
			ChromaticAberrationB = 0,
			ChromaticAberrationR = 0,
			Clarity2012 = -5,
			ColorNoiseReduction = 0,
			ColorNoiseReductionDetail = 50,
			ColorNoiseReductionSmoothness = 50,
			Contrast2012 = -32,
			ConvertToGrayscale = false,
			CropConstrainToWarp = 0,
			Defringe = 0,
			DefringeGreenAmount = 0,
			DefringeGreenHueHi = 60,
			DefringeGreenHueLo = 40,
			DefringePurpleAmount = 0,
			DefringePurpleHueHi = 70,
			DefringePurpleHueLo = 30,
			Dehaze = 0,
			EnableCalibration = true,
			EnableColorAdjustments = true,
			EnableDetail = true,
			EnableEffects = true,
			EnableLensCorrections = true,
			EnableSplitToning = true,
			Exposure2012 = 0.4,
			GrainAmount = 0,
			GrainFrequency = 85,
			GrainSize = 30,
			GreenHue = 50,
			GreenSaturation = 0,
			Highlights2012 = -40,
			HueAdjustmentAqua = 10,
			HueAdjustmentBlue = 0,
			HueAdjustmentGreen = 15,
			HueAdjustmentMagenta = 20,
			HueAdjustmentOrange = 0,
			HueAdjustmentPurple = -100,
			HueAdjustmentRed = 29,
			HueAdjustmentYellow = 5,
			LensManualDistortionAmount = 0,
			LensProfileEnable = 0,
			LensProfileSetup = "LensDefaults",
			LuminanceAdjustmentAqua = -10,
			LuminanceAdjustmentBlue = -20,
			LuminanceAdjustmentGreen = 0,
			LuminanceAdjustmentMagenta = 20,
			LuminanceAdjustmentOrange = -10,
			LuminanceAdjustmentPurple = 15,
			LuminanceAdjustmentRed = -15,
			LuminanceAdjustmentYellow = 10,
			LuminanceNoiseReductionContrast = 0,
			LuminanceNoiseReductionDetail = 50,
			LuminanceSmoothing = 0,
			ParametricDarks = 0,
			ParametricHighlightSplit = 75,
			ParametricHighlights = 0,
			ParametricLights = 0,
			ParametricMidtoneSplit = 48,
			ParametricShadowSplit = 20,
			ParametricShadows = 0,
			PostCropVignetteAmount = 0,
			PostCropVignetteFeather = 50,
			PostCropVignetteHighlightContrast = 0,
			PostCropVignetteMidpoint = 50,
			PostCropVignetteRoundness = 0,
			PostCropVignetteStyle = 1,
			ProcessVersion = "6.7",
			RedHue = 30,
			RedSaturation = 60,
			Saturation = -15,
			SaturationAdjustmentAqua = -20,
			SaturationAdjustmentBlue = -15,
			SaturationAdjustmentGreen = -40,
			SaturationAdjustmentMagenta = -50,
			SaturationAdjustmentOrange = -30,
			SaturationAdjustmentPurple = -65,
			SaturationAdjustmentRed = -30,
			SaturationAdjustmentYellow = -37,
			ShadowTint = -4,
			Shadows2012 = 25,
			SharpenDetail = 25,
			SharpenEdgeMasking = 0,
			SharpenRadius = 1,
			Sharpness = 37,
			SplitToningBalance = 0,
			SplitToningHighlightHue = 0,
			SplitToningHighlightSaturation = 0,
			SplitToningShadowHue = 0,
			SplitToningShadowSaturation = 0,
			ToneCurveName2012 = "Custom",
			ToneCurvePV2012 = {
				0,
				23,
				44,
				49,
				106,
				107,
				146,
				149,
				184,
				189,
				255,
				245,
			},
			ToneCurvePV2012Blue = {
				0,
				0,
				32,
				20,
				119,
				129,
				175,
				198,
				255,
				255,
			},
			ToneCurvePV2012Green = {
				0,
				0,
				38,
				20,
				66,
				51,
				114,
				123,
				172,
				197,
				255,
				255,
			},
			ToneCurvePV2012Red = {
				0,
				0,
				28,
				9,
				111,
				122,
				171,
				196,
				255,
				255,
			},
			Vibrance = 0,
			VignetteAmount = 0,
			VignetteMidpoint = 50,
			WhiteBalance = "As Shot",
			Whites2012 = -4,
		},
		uuid = "B0583829-758C-424A-AAD8-A8061E263AA8",
	},
	version = 0,
}
