其他预设/【240】TEZZA调色预设合集24款/2.LR预设文件/Tezza万事达-Gabe-Tezza.lrtemplate
s = {
	id = "E2D3C6F9-259B-4F50-8B77-E3AC609C7DC7",
	internalName = "Tezza万事达-Gabe-Tezza",
	title = "Tezza万事达-Gabe-Tezza",
	type = "Develop",
	value = {
		settings = {
			AutoLateralCA = 0,
			Blacks2012 = 9,
			BlueHue = -11,
			BlueSaturation = 0,
			CameraProfile = "Adobe Standard",
			ChromaticAberrationB = 0,
			ChromaticAberrationR = 0,
			Clarity2012 = 24,
			ColorNoiseReduction = 25,
			ColorNoiseReductionDetail = 50,
			ColorNoiseReductionSmoothness = 50,
			Contrast2012 = -10,
			ConvertToGrayscale = false,
			CropConstrainToWarp = 0,
			Defringe = 0,
			DefringeGreenAmount = 0,
			DefringeGreenHueHi = 60,
			DefringeGreenHueLo = 40,
			DefringePurpleAmount = 0,
			DefringePurpleHueHi = 70,
			DefringePurpleHueLo = 30,
			Dehaze = 0,
			EnableCalibration = true,
			EnableColorAdjustments = true,
			EnableDetail = true,
			EnableEffects = true,
			EnableLensCorrections = true,
			EnableSplitToning = true,
			Exposure2012 = -0.6,
			GrainAmount = 79,
			GrainFrequency = 50,
			GrainSize = 25,
			GreenHue = 44,
			GreenSaturation = 0,
			Highlights2012 = -100,
			HueAdjustmentAqua = 10,
			HueAdjustmentBlue = -14,
			HueAdjustmentGreen = 29,
			HueAdjustmentMagenta = 20,
			HueAdjustmentOrange = -3,
			HueAdjustmentPurple = -44,
			HueAdjustmentRed = 10,
			HueAdjustmentYellow = 0,
			LensManualDistortionAmount = 0,
			LensProfileEnable = 0,
			LensProfileSetup = "LensDefaults",
			LuminanceAdjustmentAqua = -12,
			LuminanceAdjustmentBlue = -40,
			LuminanceAdjustmentGreen = 100,
			LuminanceAdjustmentMagenta = 0,
			LuminanceAdjustmentOrange = -16,
			LuminanceAdjustmentPurple = 0,
			LuminanceAdjustmentRed = 8,
			LuminanceAdjustmentYellow = 72,
			LuminanceNoiseReductionContrast = 0,
			LuminanceNoiseReductionDetail = 50,
			LuminanceSmoothing = 0,
			ParametricDarks = 0,
			ParametricHighlightSplit = 75,
			ParametricHighlights = 0,
			ParametricLights = 0,
			ParametricMidtoneSplit = 50,
			ParametricShadowSplit = 25,
			ParametricShadows = 0,
			PostCropVignetteAmount = 0,
			PostCropVignetteFeather = 50,
			PostCropVignetteHighlightContrast = 0,
			PostCropVignetteMidpoint = 50,
			PostCropVignetteRoundness = 0,
			PostCropVignetteStyle = 1,
			ProcessVersion = "10.0",
			RedHue = 26,
			RedSaturation = 50,
			Saturation = -37,
			SaturationAdjustmentAqua = 0,
			SaturationAdjustmentBlue = 3,
			SaturationAdjustmentGreen = -75,
			SaturationAdjustmentMagenta = -35,
			SaturationAdjustmentOrange = -4,
			SaturationAdjustmentPurple = -78,
			SaturationAdjustmentRed = 0,
			SaturationAdjustmentYellow = -62,
			ShadowTint = -2,
			Shadows2012 = 85,
			SharpenDetail = 25,
			SharpenEdgeMasking = 0,
			SharpenRadius = 1,
			Sharpness = 60,
			SplitToningBalance = 0,
			SplitToningHighlightHue = 0,
			SplitToningHighlightSaturation = 0,
			SplitToningShadowHue = 0,
			SplitToningShadowSaturation = 0,
			Temperature = 13988,
			Tint = 8,
			ToneCurveName2012 = "Custom",
			ToneCurvePV2012 = {
				0,
				0,
				54,
				62,
				177,
				168,
				255,
				214,
			},
			ToneCurvePV2012Blue = {
				0,
				0,
				39,
				13,
				87,
				65,
				123,
				124,
				183,
				199,
				255,
				255,
			},
			ToneCurvePV2012Green = {
				0,
				0,
				40,
				14,
				83,
				59,
				123,
				126,
				172,
				185,
				255,
				255,
			},
			ToneCurvePV2012Red = {
				0,
				0,
				40,
				12,
				84,
				58,
				123,
				125,
				186,
				196,
				255,
				255,
			},
			Vibrance = 24,
			VignetteAmount = 40,
			VignetteMidpoint = 50,
			WhiteBalance = "Custom",
			Whites2012 = 73,
		},
		uuid = "17585FA0-4951-4931-A276-7A4107731DBA",
	},
	version = 0,
}
