其他预设/【240】TEZZA调色预设合集24款/2.LR预设文件/Tezza自然[]-9.lrtemplate
s = {
	id = "2A61E85C-28B4-464A-BDB4-FF844DE81F0D",
	internalName = "Tezza自然[素锦印象]-9",
	title = "Tezza自然[素锦印象]-9",
	type = "Develop",
	value = {
		settings = {
			AutoLateralCA = 1,
			Blacks2012 = 80,
			BlueHue = -12,
			BlueSaturation = -15,
			CameraProfile = "Embedded",
			ChromaticAberrationB = 0,
			ChromaticAberrationR = 0,
			Clarity2012 = 0,
			ColorNoiseReduction = 25,
			ColorNoiseReductionDetail = 50,
			ColorNoiseReductionSmoothness = 50,
			Contrast2012 = -27,
			ConvertToGrayscale = false,
			CropConstrainToWarp = 0,
			Defringe = 0,
			DefringeGreenAmount = 0,
			DefringeGreenHueHi = 60,
			DefringeGreenHueLo = 40,
			DefringePurpleAmount = 3,
			DefringePurpleHueHi = 81,
			DefringePurpleHueLo = 30,
			Dehaze = 0,
			EnableCalibration = true,
			EnableColorAdjustments = true,
			EnableDetail = true,
			EnableEffects = true,
			EnableLensCorrections = true,
			EnableSplitToning = true,
			Exposure2012 = 0.03,
			GrainAmount = 18,
			GrainFrequency = 50,
			GrainSize = 20,
			GreenHue = 50,
			GreenSaturation = -10,
			Highlights2012 = -65,
			HueAdjustmentAqua = 5,
			HueAdjustmentBlue = -4,
			HueAdjustmentGreen = 40,
			HueAdjustmentMagenta = -35,
			HueAdjustmentOrange = 3,
			HueAdjustmentPurple = -100,
			HueAdjustmentRed = -33,
			HueAdjustmentYellow = -11,
			IncrementalTemperature = 46,
			IncrementalTint = -19,
			LensManualDistortionAmount = 0,
			LuminanceAdjustmentAqua = 0,
			LuminanceAdjustmentBlue = -8,
			LuminanceAdjustmentGreen = -25,
			LuminanceAdjustmentMagenta = 11,
			LuminanceAdjustmentOrange = -33,
			LuminanceAdjustmentPurple = 29,
			LuminanceAdjustmentRed = 41,
			LuminanceAdjustmentYellow = 3,
			LuminanceNoiseReductionContrast = 0,
			LuminanceNoiseReductionDetail = 50,
			LuminanceSmoothing = 0,
			ParametricDarks = 0,
			ParametricHighlightSplit = 75,
			ParametricHighlights = 0,
			ParametricLights = 0,
			ParametricMidtoneSplit = 60,
			ParametricShadowSplit = 14,
			ParametricShadows = 0,
			PostCropVignetteAmount = 0,
			PostCropVignetteFeather = 50,
			PostCropVignetteHighlightContrast = 0,
			PostCropVignetteMidpoint = 50,
			PostCropVignetteRoundness = 0,
			PostCropVignetteStyle = 1,
			ProcessVersion = "6.7",
			RedHue = 30,
			RedSaturation = -10,
			Saturation = 0,
			SaturationAdjustmentAqua = -10,
			SaturationAdjustmentBlue = -21,
			SaturationAdjustmentGreen = -11,
			SaturationAdjustmentMagenta = 29,
			SaturationAdjustmentOrange = -23,
			SaturationAdjustmentPurple = -100,
			SaturationAdjustmentRed = -20,
			SaturationAdjustmentYellow = -43,
			ShadowTint = 0,
			Shadows2012 = 67,
			SharpenDetail = 25,
			SharpenEdgeMasking = 0,
			SharpenRadius = 1,
			Sharpness = 57,
			SplitToningBalance = 0,
			SplitToningHighlightHue = 45,
			SplitToningHighlightSaturation = 0,
			SplitToningShadowHue = 239,
			SplitToningShadowSaturation = 0,
			ToneCurveName2012 = "Custom",
			ToneCurvePV2012 = {
				0,
				14,
				26,
				27,
				96,
				96,
				158,
				172,
				255,
				223,
			},
			ToneCurvePV2012Blue = {
				0,
				0,
				38,
				18,
				79,
				64,
				115,
				122,
				179,
				200,
				255,
				255,
			},
			ToneCurvePV2012Green = {
				0,
				0,
				46,
				20,
				86,
				72,
				115,
				124,
				179,
				200,
				255,
				255,
			},
			ToneCurvePV2012Red = {
				0,
				0,
				47,
				19,
				82,
				61,
				114,
				122,
				177,
				196,
				255,
				255,
			},
			Vibrance = -9,
			VignetteAmount = 0,
			VignetteMidpoint = 50,
			WhiteBalance = "Custom",
			Whites2012 = -16,
		},
		uuid = "32C812B3-FF81-4D87-9F0C-E6CFDB3D2C99",
	},
	version = 0,
}
