其他预设/【240】TEZZA调色预设合集24款/2.LR预设文件/Tezza古董[]-1.lrtemplate
s = {
	id = "4BB7C4B9-6307-455B-B410-39E42DA98455",
	internalName = "Tezza古董[素锦印象]-1",
	title = "Tezza古董[素锦印象]-1",
	type = "Develop",
	value = {
		settings = {
			AutoLateralCA = 0,
			Blacks2012 = 91,
			BlueHue = -11,
			BlueSaturation = 0,
			CameraProfile = "Embedded",
			ChromaticAberrationB = 0,
			ChromaticAberrationR = 0,
			Clarity2012 = 19,
			ColorNoiseReduction = 25,
			ColorNoiseReductionDetail = 50,
			ColorNoiseReductionSmoothness = 50,
			Contrast2012 = -29,
			ConvertToGrayscale = false,
			CropConstrainToWarp = 0,
			Defringe = 0,
			DefringeGreenAmount = 0,
			DefringeGreenHueHi = 60,
			DefringeGreenHueLo = 40,
			DefringePurpleAmount = 0,
			DefringePurpleHueHi = 70,
			DefringePurpleHueLo = 30,
			Dehaze = 0,
			EnableCalibration = true,
			EnableColorAdjustments = true,
			EnableDetail = true,
			EnableEffects = true,
			EnableLensCorrections = true,
			EnableSplitToning = true,
			Exposure2012 = -0.93,
			GrainAmount = 0,
			GrainFrequency = 50,
			GrainSize = 25,
			GreenHue = 44,
			GreenSaturation = 0,
			Highlights2012 = -100,
			HueAdjustmentAqua = -44,
			HueAdjustmentBlue = -8,
			HueAdjustmentGreen = 67,
			HueAdjustmentMagenta = -17,
			HueAdjustmentOrange = 10,
			HueAdjustmentPurple = -32,
			HueAdjustmentRed = -23,
			HueAdjustmentYellow = -7,
			IncrementalTemperature = 36,
			IncrementalTint = 11,
			LensManualDistortionAmount = 0,
			LuminanceAdjustmentAqua = -7,
			LuminanceAdjustmentBlue = -29,
			LuminanceAdjustmentGreen = 100,
			LuminanceAdjustmentMagenta = 30,
			LuminanceAdjustmentOrange = -17,
			LuminanceAdjustmentPurple = 59,
			LuminanceAdjustmentRed = 4,
			LuminanceAdjustmentYellow = 27,
			LuminanceNoiseReductionContrast = 0,
			LuminanceNoiseReductionDetail = 50,
			LuminanceSmoothing = 0,
			ParametricDarks = 0,
			ParametricHighlightSplit = 75,
			ParametricHighlights = 0,
			ParametricLights = 0,
			ParametricMidtoneSplit = 50,
			ParametricShadowSplit = 25,
			ParametricShadows = 0,
			PostCropVignetteAmount = 0,
			PostCropVignetteFeather = 50,
			PostCropVignetteHighlightContrast = 0,
			PostCropVignetteMidpoint = 50,
			PostCropVignetteRoundness = 0,
			PostCropVignetteStyle = 1,
			ProcessVersion = "6.7",
			RedHue = 26,
			RedSaturation = 50,
			Saturation = -39,
			SaturationAdjustmentAqua = 27,
			SaturationAdjustmentBlue = 43,
			SaturationAdjustmentGreen = -48,
			SaturationAdjustmentMagenta = 44,
			SaturationAdjustmentOrange = 27,
			SaturationAdjustmentPurple = 0,
			SaturationAdjustmentRed = 43,
			SaturationAdjustmentYellow = 8,
			ShadowTint = -2,
			Shadows2012 = 87,
			SharpenDetail = 25,
			SharpenEdgeMasking = 0,
			SharpenRadius = 1,
			Sharpness = 35,
			SplitToningBalance = 0,
			SplitToningHighlightHue = 0,
			SplitToningHighlightSaturation = 0,
			SplitToningShadowHue = 0,
			SplitToningShadowSaturation = 0,
			ToneCurveName2012 = "Custom",
			ToneCurvePV2012 = {
				0,
				0,
				54,
				62,
				177,
				168,
				255,
				214,
			},
			ToneCurvePV2012Blue = {
				0,
				0,
				39,
				13,
				87,
				65,
				123,
				124,
				183,
				199,
				255,
				255,
			},
			ToneCurvePV2012Green = {
				0,
				0,
				40,
				14,
				83,
				59,
				123,
				126,
				172,
				185,
				255,
				255,
			},
			ToneCurvePV2012Red = {
				0,
				0,
				40,
				12,
				84,
				58,
				123,
				125,
				186,
				196,
				255,
				255,
			},
			Vibrance = 35,
			VignetteAmount = 40,
			VignetteMidpoint = 50,
			WhiteBalance = "Custom",
			Whites2012 = 70,
		},
		uuid = "17108DDD-FEFA-4C16-85E8-6A19D0C06D56",
	},
	version = 0,
}
