其他预设/【240】TEZZA调色预设合集24款/2.LR预设文件/Tezza古董[]-5.lrtemplate
s = {
	id = "66E2CC02-70C0-4A75-9F5F-5028D61D76B5",
	internalName = "Tezza古董[素锦印象]-5",
	title = "Tezza古董[素锦印象]-5",
	type = "Develop",
	value = {
		settings = {
			AutoLateralCA = 0,
			Blacks2012 = 79,
			BlueHue = -10,
			BlueSaturation = -10,
			CameraProfile = "Embedded",
			ChromaticAberrationB = 0,
			ChromaticAberrationR = 0,
			Clarity2012 = 0,
			ColorNoiseReduction = 25,
			ColorNoiseReductionDetail = 50,
			ColorNoiseReductionSmoothness = 50,
			Contrast2012 = 0,
			ConvertToGrayscale = false,
			CropConstrainToWarp = 0,
			Defringe = 0,
			DefringeGreenAmount = 0,
			DefringeGreenHueHi = 60,
			DefringeGreenHueLo = 40,
			DefringePurpleAmount = 0,
			DefringePurpleHueHi = 70,
			DefringePurpleHueLo = 30,
			Dehaze = 0,
			EnableCalibration = true,
			EnableColorAdjustments = true,
			EnableDetail = true,
			EnableEffects = true,
			EnableLensCorrections = true,
			EnableSplitToning = true,
			Exposure2012 = 0.3,
			GrainAmount = 20,
			GrainFrequency = 65,
			GrainSize = 25,
			GreenHue = 55,
			GreenSaturation = -15,
			Highlights2012 = -100,
			HueAdjustmentAqua = 10,
			HueAdjustmentBlue = -22,
			HueAdjustmentGreen = 48,
			HueAdjustmentMagenta = 20,
			HueAdjustmentOrange = -3,
			HueAdjustmentPurple = -100,
			HueAdjustmentRed = 54,
			HueAdjustmentYellow = -22,
			IncrementalTemperature = 4,
			IncrementalTint = -21,
			LensManualDistortionAmount = 0,
			LuminanceAdjustmentAqua = -38,
			LuminanceAdjustmentBlue = -36,
			LuminanceAdjustmentGreen = -44,
			LuminanceAdjustmentMagenta = 5,
			LuminanceAdjustmentOrange = -27,
			LuminanceAdjustmentPurple = 15,
			LuminanceAdjustmentRed = 5,
			LuminanceAdjustmentYellow = 24,
			LuminanceNoiseReductionContrast = 0,
			LuminanceNoiseReductionDetail = 50,
			LuminanceSmoothing = 0,
			ParametricDarks = 24,
			ParametricHighlightSplit = 75,
			ParametricHighlights = -51,
			ParametricLights = 0,
			ParametricMidtoneSplit = 43,
			ParametricShadowSplit = 27,
			ParametricShadows = 18,
			PostCropVignetteAmount = 0,
			PostCropVignetteFeather = 50,
			PostCropVignetteHighlightContrast = 0,
			PostCropVignetteMidpoint = 50,
			PostCropVignetteRoundness = 0,
			PostCropVignetteStyle = 1,
			ProcessVersion = "6.7",
			RedHue = 35,
			RedSaturation = 45,
			Saturation = -15,
			SaturationAdjustmentAqua = 7,
			SaturationAdjustmentBlue = -15,
			SaturationAdjustmentGreen = -35,
			SaturationAdjustmentMagenta = -35,
			SaturationAdjustmentOrange = -22,
			SaturationAdjustmentPurple = -100,
			SaturationAdjustmentRed = -24,
			SaturationAdjustmentYellow = -20,
			ShadowTint = -2,
			Shadows2012 = 83,
			SharpenDetail = 25,
			SharpenEdgeMasking = 0,
			SharpenRadius = 1,
			Sharpness = 57,
			SplitToningBalance = -80,
			SplitToningHighlightHue = 0,
			SplitToningHighlightSaturation = 0,
			SplitToningShadowHue = 0,
			SplitToningShadowSaturation = 0,
			ToneCurveName2012 = "Gold 200 Warm +",
			ToneCurvePV2012 = {
				0,
				38,
				40,
				52,
				128,
				128,
				255,
				251,
			},
			ToneCurvePV2012Blue = {
				0,
				0,
				51,
				19,
				125,
				122,
				179,
				194,
				255,
				255,
			},
			ToneCurvePV2012Green = {
				0,
				0,
				53,
				21,
				120,
				125,
				179,
				205,
				255,
				255,
			},
			ToneCurvePV2012Red = {
				0,
				0,
				50,
				28,
				114,
				123,
				178,
				206,
				255,
				255,
			},
			Vibrance = 0,
			VignetteAmount = 13,
			VignetteMidpoint = 50,
			WhiteBalance = "Custom",
			Whites2012 = -55,
		},
		uuid = "3A1FEBDA-DE83-489A-8648-8BB66BB25D8C",
	},
	version = 0,
}
