其他预设/【221】冬日圣诞风格预设11款/2.LR预设文件/冬日圣诞风格-11 室内圣诞树.lrtemplate
s = {
	id = "B4CDAC4F-C0AD-47A0-81FA-1856D96BDEE6",
	internalName = "冬日圣诞红色[素锦印象]-11 室内圣诞树",
	title = "冬日圣诞风格[素锦印象]-11 室内圣诞树",
	type = "Develop",
	value = {
		settings = {
			AutoLateralCA = 0,
			Blacks2012 = -40,
			BlueHue = -53,
			BlueSaturation = 58,
			CameraProfile = "Embedded",
			ChromaticAberrationB = 0,
			ChromaticAberrationR = 0,
			Clarity2012 = 38,
			ColorNoiseReduction = 25,
			ColorNoiseReductionDetail = 50,
			ColorNoiseReductionSmoothness = 50,
			Contrast2012 = 27,
			ConvertToGrayscale = false,
			CropConstrainToWarp = 0,
			Defringe = 0,
			DefringeGreenAmount = 0,
			DefringeGreenHueHi = 60,
			DefringeGreenHueLo = 40,
			DefringePurpleAmount = 5,
			DefringePurpleHueHi = 70,
			DefringePurpleHueLo = 30,
			Dehaze = 0,
			EnableCalibration = true,
			EnableCircularGradientBasedCorrections = true,
			EnableColorAdjustments = true,
			EnableDetail = true,
			EnableEffects = true,
			EnableGradientBasedCorrections = true,
			EnableLensCorrections = true,
			EnableSplitToning = true,
			EnableTransform = true,
			Exposure2012 = 0,
			GrainAmount = 0,
			GrainFrequency = 50,
			GrainSize = 25,
			GreenHue = 41,
			GreenSaturation = -41,
			Highlights2012 = -61,
			HueAdjustmentAqua = 15,
			HueAdjustmentBlue = -30,
			HueAdjustmentGreen = -100,
			HueAdjustmentMagenta = 15,
			HueAdjustmentOrange = 0,
			HueAdjustmentPurple = 0,
			HueAdjustmentRed = 14,
			HueAdjustmentYellow = -89,
			IncrementalTemperature = 16,
			IncrementalTint = -9,
			LensManualDistortionAmount = 0,
			LensProfileEnable = 0,
			LensProfileSetup = "LensDefaults",
			LuminanceAdjustmentAqua = 20,
			LuminanceAdjustmentBlue = -30,
			LuminanceAdjustmentGreen = 10,
			LuminanceAdjustmentMagenta = 10,
			LuminanceAdjustmentOrange = 3,
			LuminanceAdjustmentPurple = 15,
			LuminanceAdjustmentRed = -3,
			LuminanceAdjustmentYellow = -14,
			LuminanceNoiseReductionContrast = 0,
			LuminanceNoiseReductionDetail = 50,
			LuminanceSmoothing = 0,
			ParametricDarks = 0,
			ParametricHighlightSplit = 75,
			ParametricHighlights = 0,
			ParametricLights = 0,
			ParametricMidtoneSplit = 50,
			ParametricShadowSplit = 25,
			ParametricShadows = 0,
			PerspectiveAspect = 0,
			PerspectiveHorizontal = 0,
			PerspectiveRotate = 0,
			PerspectiveScale = 100,
			PerspectiveUpright = 0,
			PerspectiveVertical = 0,
			PerspectiveX = 0,
			PerspectiveY = 0,
			PostCropVignetteAmount = 0,
			PostCropVignetteFeather = 50,
			PostCropVignetteHighlightContrast = 0,
			PostCropVignetteMidpoint = 50,
			PostCropVignetteRoundness = 0,
			PostCropVignetteStyle = 1,
			ProcessVersion = "6.7",
			RedHue = 5,
			RedSaturation = -7,
			Saturation = 0,
			SaturationAdjustmentAqua = -43,
			SaturationAdjustmentBlue = -23,
			SaturationAdjustmentGreen = -71,
			SaturationAdjustmentMagenta = -7,
			SaturationAdjustmentOrange = -25,
			SaturationAdjustmentPurple = -41,
			SaturationAdjustmentRed = -11,
			SaturationAdjustmentYellow = 10,
			ShadowTint = -3,
			Shadows2012 = 25,
			SharpenDetail = 25,
			SharpenEdgeMasking = 67,
			SharpenRadius = 1,
			Sharpness = 0,
			SplitToningBalance = 0,
			SplitToningHighlightHue = 0,
			SplitToningHighlightSaturation = 0,
			SplitToningShadowHue = 19,
			SplitToningShadowSaturation = 7,
			ToneCurveName2012 = "Custom",
			ToneCurvePV2012 = {
				0,
				12,
				36,
				42,
				55,
				61,
				121,
				125,
				255,
				252,
			},
			ToneCurvePV2012Blue = {
				0,
				0,
				36,
				17,
				109,
				120,
				183,
				194,
				255,
				255,
			},
			ToneCurvePV2012Green = {
				0,
				0,
				33,
				20,
				109,
				120,
				185,
				196,
				255,
				255,
			},
			ToneCurvePV2012Red = {
				0,
				0,
				36,
				24,
				111,
				122,
				183,
				195,
				255,
				255,
			},
			UprightCenterMode = 0,
			UprightCenterNormX = 0.5,
			UprightCenterNormY = 0.5,
			UprightFocalLength35mm = 35,
			UprightFocalMode = 0,
			UprightFourSegmentsCount = 0,
			UprightPreview = false,
			UprightTransformCount = 6,
			UprightVersion = 151388160,
			Vibrance = 0,
			VignetteAmount = 0,
			VignetteMidpoint = 50,
			WhiteBalance = "Custom",
			Whites2012 = -32,
			orientation = "AB",
		},
		uuid = "A30B8B6A-0340-45A4-96EB-21C3A6061EAC",
	},
	version = 0,
}
