其他预设/【221】冬日圣诞风格预设11款/2.LR预设文件/冬日圣诞风格-3 屋内暖色.lrtemplate
s = {
	id = "A692E68B-4F15-4E66-BF5B-4F7AC06C58AD",
	internalName = "冬日圣诞红色[素锦印象]-3 屋内暖色",
	title = "冬日圣诞风格[素锦印象]-3 屋内暖色",
	type = "Develop",
	value = {
		settings = {
			AutoLateralCA = 0,
			Blacks2012 = 28,
			BlueHue = -6,
			BlueSaturation = 24,
			CameraProfile = "Embedded",
			ChromaticAberrationB = 0,
			ChromaticAberrationR = 0,
			Clarity2012 = 30,
			ColorNoiseReduction = 0,
			ColorNoiseReductionDetail = 50,
			ColorNoiseReductionSmoothness = 50,
			Contrast2012 = -10,
			ConvertToGrayscale = false,
			CropConstrainToWarp = 0,
			Defringe = 0,
			DefringeGreenAmount = 0,
			DefringeGreenHueHi = 60,
			DefringeGreenHueLo = 40,
			DefringePurpleAmount = 0,
			DefringePurpleHueHi = 70,
			DefringePurpleHueLo = 30,
			Dehaze = 0,
			EnableCalibration = true,
			EnableCircularGradientBasedCorrections = true,
			EnableColorAdjustments = true,
			EnableDetail = true,
			EnableEffects = true,
			EnableGradientBasedCorrections = true,
			EnableLensCorrections = true,
			EnableSplitToning = true,
			EnableTransform = true,
			Exposure2012 = 0,
			GrainAmount = 0,
			GrainFrequency = 50,
			GrainSize = 25,
			GreenHue = 76,
			GreenSaturation = 0,
			Highlights2012 = -85,
			HueAdjustmentAqua = 10,
			HueAdjustmentBlue = -15,
			HueAdjustmentGreen = -30,
			HueAdjustmentMagenta = 20,
			HueAdjustmentOrange = -8,
			HueAdjustmentPurple = 0,
			HueAdjustmentRed = 23,
			HueAdjustmentYellow = -23,
			LensManualDistortionAmount = 0,
			LensProfileEnable = 0,
			LensProfileSetup = "LensDefaults",
			LuminanceAdjustmentAqua = 10,
			LuminanceAdjustmentBlue = -14,
			LuminanceAdjustmentGreen = -12,
			LuminanceAdjustmentMagenta = 5,
			LuminanceAdjustmentOrange = -18,
			LuminanceAdjustmentPurple = 15,
			LuminanceAdjustmentRed = -36,
			LuminanceAdjustmentYellow = 40,
			LuminanceNoiseReductionContrast = 0,
			LuminanceNoiseReductionDetail = 50,
			LuminanceSmoothing = 0,
			ParametricDarks = 0,
			ParametricHighlightSplit = 75,
			ParametricHighlights = 0,
			ParametricLights = 0,
			ParametricMidtoneSplit = 43,
			ParametricShadowSplit = 14,
			ParametricShadows = 0,
			PerspectiveAspect = 0,
			PerspectiveHorizontal = 0,
			PerspectiveRotate = 0,
			PerspectiveScale = 100,
			PerspectiveUpright = 0,
			PerspectiveVertical = 0,
			PerspectiveX = 0,
			PerspectiveY = 0,
			PostCropVignetteAmount = 0,
			PostCropVignetteFeather = 50,
			PostCropVignetteHighlightContrast = 0,
			PostCropVignetteMidpoint = 50,
			PostCropVignetteRoundness = 0,
			PostCropVignetteStyle = 1,
			ProcessVersion = "6.7",
			RedHue = 30,
			RedSaturation = 19,
			Saturation = 0,
			SaturationAdjustmentAqua = -25,
			SaturationAdjustmentBlue = -69,
			SaturationAdjustmentGreen = -77,
			SaturationAdjustmentMagenta = -35,
			SaturationAdjustmentOrange = -23,
			SaturationAdjustmentPurple = -40,
			SaturationAdjustmentRed = 3,
			SaturationAdjustmentYellow = -45,
			ShadowTint = -2,
			Shadows2012 = 100,
			SharpenDetail = 25,
			SharpenEdgeMasking = 0,
			SharpenRadius = 1,
			Sharpness = 0,
			SplitToningBalance = 2,
			SplitToningHighlightHue = 213,
			SplitToningHighlightSaturation = 13,
			SplitToningShadowHue = 19,
			SplitToningShadowSaturation = 10,
			ToneCurveName2012 = "Custom",
			ToneCurvePV2012 = {
				0,
				30,
				52,
				67,
				128,
				126,
				191,
				187,
				255,
				250,
			},
			ToneCurvePV2012Blue = {
				0,
				0,
				43,
				22,
				121,
				122,
				175,
				200,
				255,
				255,
			},
			ToneCurvePV2012Green = {
				0,
				0,
				53,
				21,
				120,
				125,
				179,
				205,
				255,
				255,
			},
			ToneCurvePV2012Red = {
				0,
				0,
				20,
				3,
				60,
				20,
				119,
				121,
				177,
				202,
				255,
				255,
			},
			UprightCenterMode = 0,
			UprightCenterNormX = 0.5,
			UprightCenterNormY = 0.5,
			UprightFocalLength35mm = 35,
			UprightFocalMode = 0,
			UprightFourSegmentsCount = 0,
			UprightPreview = false,
			UprightTransformCount = 6,
			UprightVersion = 151388160,
			Vibrance = 23,
			VignetteAmount = 0,
			VignetteMidpoint = 50,
			WhiteBalance = "As Shot",
			Whites2012 = 60,
			orientation = "AB",
		},
		uuid = "56A020EE-A235-4E9E-B4F3-32E62F7C7A3B",
	},
	version = 0,
}
