其他预设/【218】干净白色系预设6款/2.LR预设文件/干净白色系-3.lrtemplate
s = {
	id = "2680AE44-1732-4141-8DFF-3C593CB1BAC5",
	internalName = "明亮白净调色[素锦印象]-3",
	title = "干净白色系[素锦印象]-3",
	type = "Develop",
	value = {
		settings = {
			AutoLateralCA = 0,
			Blacks2012 = 53,
			BlueHue = 9,
			BlueSaturation = -19,
			CameraProfile = "Embedded",
			ChromaticAberrationB = 0,
			ChromaticAberrationR = 0,
			Clarity2012 = 0,
			ColorNoiseReduction = 25,
			ColorNoiseReductionDetail = 50,
			ColorNoiseReductionSmoothness = 50,
			Contrast2012 = 16,
			ConvertToGrayscale = false,
			CropConstrainToWarp = 0,
			Defringe = 0,
			DefringeGreenAmount = 0,
			DefringeGreenHueHi = 60,
			DefringeGreenHueLo = 40,
			DefringePurpleAmount = 0,
			DefringePurpleHueHi = 70,
			DefringePurpleHueLo = 30,
			Dehaze = 0,
			EnableCalibration = true,
			EnableCircularGradientBasedCorrections = true,
			EnableColorAdjustments = true,
			EnableDetail = true,
			EnableEffects = true,
			EnableGradientBasedCorrections = true,
			EnableLensCorrections = true,
			EnableSplitToning = true,
			EnableTransform = true,
			Exposure2012 = 0,
			GrainAmount = 0,
			GrainFrequency = 50,
			GrainSize = 25,
			GreenHue = 39,
			GreenSaturation = 12,
			Highlights2012 = 11,
			HueAdjustmentAqua = 0,
			HueAdjustmentBlue = -20,
			HueAdjustmentGreen = 18,
			HueAdjustmentMagenta = 28,
			HueAdjustmentOrange = -1,
			HueAdjustmentPurple = 0,
			HueAdjustmentRed = 0,
			HueAdjustmentYellow = -18,
			LensManualDistortionAmount = 0,
			LensProfileEnable = 0,
			LensProfileSetup = "LensDefaults",
			LuminanceAdjustmentAqua = 0,
			LuminanceAdjustmentBlue = -2,
			LuminanceAdjustmentGreen = 0,
			LuminanceAdjustmentMagenta = 0,
			LuminanceAdjustmentOrange = 0,
			LuminanceAdjustmentPurple = 0,
			LuminanceAdjustmentRed = 0,
			LuminanceAdjustmentYellow = 0,
			LuminanceNoiseReductionContrast = 0,
			LuminanceNoiseReductionDetail = 50,
			LuminanceSmoothing = 0,
			ParametricDarks = 0,
			ParametricHighlightSplit = 75,
			ParametricHighlights = 0,
			ParametricLights = 0,
			ParametricMidtoneSplit = 50,
			ParametricShadowSplit = 25,
			ParametricShadows = 0,
			PerspectiveAspect = 0,
			PerspectiveHorizontal = 0,
			PerspectiveRotate = 0,
			PerspectiveScale = 100,
			PerspectiveUpright = 0,
			PerspectiveVertical = 0,
			PerspectiveX = 0,
			PerspectiveY = 0,
			PostCropVignetteAmount = 0,
			PostCropVignetteFeather = 50,
			PostCropVignetteHighlightContrast = 0,
			PostCropVignetteMidpoint = 50,
			PostCropVignetteRoundness = 0,
			PostCropVignetteStyle = 1,
			ProcessVersion = "6.7",
			RedHue = 24,
			RedSaturation = -13,
			Saturation = 17,
			SaturationAdjustmentAqua = -38,
			SaturationAdjustmentBlue = -27,
			SaturationAdjustmentGreen = -56,
			SaturationAdjustmentMagenta = -29,
			SaturationAdjustmentOrange = -17,
			SaturationAdjustmentPurple = -44,
			SaturationAdjustmentRed = -8,
			SaturationAdjustmentYellow = -27,
			ShadowTint = 0,
			Shadows2012 = 30,
			SharpenDetail = 25,
			SharpenEdgeMasking = 0,
			SharpenRadius = 1,
			Sharpness = 40,
			SplitToningBalance = 0,
			SplitToningHighlightHue = 39,
			SplitToningHighlightSaturation = 3,
			SplitToningShadowHue = 237,
			SplitToningShadowSaturation = 12,
			ToneCurveName2012 = "Custom",
			ToneCurvePV2012 = {
				0,
				0,
				47,
				35,
				109,
				124,
				185,
				193,
				255,
				244,
			},
			ToneCurvePV2012Blue = {
				0,
				0,
				77,
				70,
				125,
				129,
				255,
				255,
			},
			ToneCurvePV2012Green = {
				0,
				0,
				68,
				66,
				118,
				126,
				255,
				255,
			},
			ToneCurvePV2012Red = {
				0,
				0,
				59,
				58,
				139,
				150,
				255,
				255,
			},
			UprightCenterMode = 0,
			UprightCenterNormX = 0.5,
			UprightCenterNormY = 0.5,
			UprightFocalLength35mm = 35,
			UprightFocalMode = 0,
			UprightFourSegmentsCount = 0,
			UprightPreview = false,
			UprightTransformCount = 6,
			UprightVersion = 151388160,
			Vibrance = -29,
			VignetteAmount = 0,
			VignetteMidpoint = 50,
			WhiteBalance = "As Shot",
			Whites2012 = 0,
			orientation = "AB",
		},
		uuid = "6EAEC348-8B4B-4706-A799-D38E31E337F6",
	},
	version = 0,
}
