其他预设/【230】现代都市风格预设9款/2.LR预设文件/现代都市风格-8.lrtemplate
s = {
	id = "2EFE555D-ADFB-4D2A-89D7-E0A60D7A52D9",
	internalName = "现代都市风格[素锦印象]-8",
	title = "现代都市风格[素锦印象]-8",
	type = "Develop",
	value = {
		settings = {
			AutoLateralCA = 0,
			Blacks2012 = -10,
			BlueHue = -36,
			BlueSaturation = -100,
			CameraProfile = "Embedded",
			ChromaticAberrationB = 0,
			ChromaticAberrationR = 0,
			Clarity2012 = 30,
			ColorNoiseReduction = 0,
			ColorNoiseReductionDetail = 50,
			ColorNoiseReductionSmoothness = 50,
			Contrast2012 = 20,
			ConvertToGrayscale = false,
			CropConstrainToWarp = 0,
			Defringe = 0,
			DefringeGreenAmount = 0,
			DefringeGreenHueHi = 60,
			DefringeGreenHueLo = 40,
			DefringePurpleAmount = 0,
			DefringePurpleHueHi = 70,
			DefringePurpleHueLo = 30,
			Dehaze = 0,
			EnableCalibration = true,
			EnableCircularGradientBasedCorrections = true,
			EnableColorAdjustments = true,
			EnableDetail = true,
			EnableEffects = true,
			EnableGradientBasedCorrections = true,
			EnableLensCorrections = true,
			EnableSplitToning = true,
			EnableTransform = true,
			Exposure2012 = 0,
			GrainAmount = 20,
			GrainFrequency = 60,
			GrainSize = 70,
			GreenHue = 4,
			GreenSaturation = 47,
			Highlights2012 = 15,
			HueAdjustmentAqua = -11,
			HueAdjustmentBlue = -22,
			HueAdjustmentGreen = -40,
			HueAdjustmentMagenta = 0,
			HueAdjustmentOrange = -14,
			HueAdjustmentPurple = 0,
			HueAdjustmentRed = 9,
			HueAdjustmentYellow = 0,
			LensManualDistortionAmount = 0,
			LensProfileEnable = 0,
			LensProfileSetup = "LensDefaults",
			LuminanceAdjustmentAqua = -19,
			LuminanceAdjustmentBlue = -14,
			LuminanceAdjustmentGreen = -32,
			LuminanceAdjustmentMagenta = 0,
			LuminanceAdjustmentOrange = 0,
			LuminanceAdjustmentPurple = 0,
			LuminanceAdjustmentRed = 0,
			LuminanceAdjustmentYellow = 0,
			LuminanceNoiseReductionContrast = 0,
			LuminanceNoiseReductionDetail = 50,
			LuminanceSmoothing = 0,
			ParametricDarks = 0,
			ParametricHighlightSplit = 75,
			ParametricHighlights = 0,
			ParametricLights = 0,
			ParametricMidtoneSplit = 50,
			ParametricShadowSplit = 25,
			ParametricShadows = 0,
			PerspectiveAspect = 0,
			PerspectiveHorizontal = 0,
			PerspectiveRotate = 0,
			PerspectiveScale = 100,
			PerspectiveUpright = 0,
			PerspectiveVertical = 0,
			PerspectiveX = 0,
			PerspectiveY = 0,
			PostCropVignetteAmount = 0,
			PostCropVignetteFeather = 50,
			PostCropVignetteHighlightContrast = 0,
			PostCropVignetteMidpoint = 50,
			PostCropVignetteRoundness = 0,
			PostCropVignetteStyle = 1,
			ProcessVersion = "6.7",
			RedHue = 31,
			RedSaturation = -4,
			Saturation = -20,
			SaturationAdjustmentAqua = -27,
			SaturationAdjustmentBlue = -33,
			SaturationAdjustmentGreen = -36,
			SaturationAdjustmentMagenta = 0,
			SaturationAdjustmentOrange = 13,
			SaturationAdjustmentPurple = -14,
			SaturationAdjustmentRed = -29,
			SaturationAdjustmentYellow = -36,
			ShadowTint = 0,
			Shadows2012 = 20,
			SharpenDetail = 25,
			SharpenEdgeMasking = 0,
			SharpenRadius = 1,
			Sharpness = 25,
			SplitToningBalance = 0,
			SplitToningHighlightHue = 0,
			SplitToningHighlightSaturation = 0,
			SplitToningShadowHue = 0,
			SplitToningShadowSaturation = 0,
			ToneCurveName2012 = "Custom",
			ToneCurvePV2012 = {
				0,
				0,
				48,
				40,
				101,
				110,
				184,
				193,
				255,
				244,
			},
			ToneCurvePV2012Blue = {
				0,
				0,
				255,
				255,
			},
			ToneCurvePV2012Green = {
				0,
				0,
				127,
				127,
				175,
				175,
				216,
				216,
				255,
				255,
			},
			ToneCurvePV2012Red = {
				0,
				1,
				56,
				49,
				96,
				91,
				124,
				124,
				164,
				164,
				218,
				218,
				255,
				255,
			},
			UprightCenterMode = 0,
			UprightCenterNormX = 0.5,
			UprightCenterNormY = 0.5,
			UprightFocalLength35mm = 35,
			UprightFocalMode = 0,
			UprightFourSegmentsCount = 0,
			UprightPreview = false,
			UprightTransformCount = 6,
			UprightVersion = 151388160,
			Vibrance = 0,
			VignetteAmount = 0,
			VignetteMidpoint = 50,
			WhiteBalance = "As Shot",
			Whites2012 = -20,
			orientation = "AB",
		},
		uuid = "A028D719-884B-4543-A50A-70961E979218",
	},
	version = 0,
}
