其他预设/【230】现代都市风格预设9款/2.LR预设文件/现代都市风格-9.lrtemplate
s = {
	id = "225031A5-19C3-41E2-B6FD-37B3349ABF69",
	internalName = "现代都市风格[素锦印象]-9",
	title = "现代都市风格[素锦印象]-9",
	type = "Develop",
	value = {
		settings = {
			AutoLateralCA = 0,
			Blacks2012 = -20,
			BlueHue = 0,
			BlueSaturation = 0,
			CameraProfile = "Embedded",
			ChromaticAberrationB = 0,
			ChromaticAberrationR = 0,
			Clarity2012 = 15,
			ColorNoiseReduction = 0,
			ColorNoiseReductionDetail = 50,
			ColorNoiseReductionSmoothness = 50,
			Contrast2012 = -20,
			ConvertToGrayscale = false,
			CropConstrainToWarp = 0,
			Defringe = 0,
			DefringeGreenAmount = 0,
			DefringeGreenHueHi = 60,
			DefringeGreenHueLo = 40,
			DefringePurpleAmount = 0,
			DefringePurpleHueHi = 70,
			DefringePurpleHueLo = 30,
			Dehaze = 0,
			EnableCalibration = true,
			EnableCircularGradientBasedCorrections = true,
			EnableColorAdjustments = true,
			EnableDetail = true,
			EnableEffects = true,
			EnableGradientBasedCorrections = true,
			EnableLensCorrections = true,
			EnableSplitToning = true,
			EnableTransform = true,
			Exposure2012 = 0,
			GrainAmount = 20,
			GrainFrequency = 65,
			GrainSize = 80,
			GreenHue = 0,
			GreenSaturation = 0,
			Highlights2012 = 0,
			HueAdjustmentAqua = -15,
			HueAdjustmentBlue = -20,
			HueAdjustmentGreen = -5,
			HueAdjustmentMagenta = 0,
			HueAdjustmentOrange = -20,
			HueAdjustmentPurple = -20,
			HueAdjustmentRed = 40,
			HueAdjustmentYellow = -70,
			LensManualDistortionAmount = 0,
			LensProfileEnable = 0,
			LensProfileSetup = "LensDefaults",
			LuminanceAdjustmentAqua = -40,
			LuminanceAdjustmentBlue = -35,
			LuminanceAdjustmentGreen = -30,
			LuminanceAdjustmentMagenta = 10,
			LuminanceAdjustmentOrange = 30,
			LuminanceAdjustmentPurple = 10,
			LuminanceAdjustmentRed = 30,
			LuminanceAdjustmentYellow = 40,
			LuminanceNoiseReductionContrast = 0,
			LuminanceNoiseReductionDetail = 50,
			LuminanceSmoothing = 0,
			ParametricDarks = 0,
			ParametricHighlightSplit = 75,
			ParametricHighlights = 0,
			ParametricLights = 0,
			ParametricMidtoneSplit = 50,
			ParametricShadowSplit = 25,
			ParametricShadows = 0,
			PerspectiveAspect = 0,
			PerspectiveHorizontal = 0,
			PerspectiveRotate = 0,
			PerspectiveScale = 100,
			PerspectiveUpright = 0,
			PerspectiveVertical = 0,
			PerspectiveX = 0,
			PerspectiveY = 0,
			PostCropVignetteAmount = 0,
			PostCropVignetteFeather = 50,
			PostCropVignetteHighlightContrast = 0,
			PostCropVignetteMidpoint = 50,
			PostCropVignetteRoundness = 0,
			PostCropVignetteStyle = 1,
			ProcessVersion = "6.7",
			RedHue = 0,
			RedSaturation = 0,
			Saturation = -30,
			SaturationAdjustmentAqua = -50,
			SaturationAdjustmentBlue = -50,
			SaturationAdjustmentGreen = -30,
			SaturationAdjustmentMagenta = 0,
			SaturationAdjustmentOrange = 50,
			SaturationAdjustmentPurple = 0,
			SaturationAdjustmentRed = -15,
			SaturationAdjustmentYellow = 25,
			ShadowTint = 0,
			Shadows2012 = 10,
			SharpenDetail = 35,
			SharpenEdgeMasking = 0,
			SharpenRadius = 1.4,
			Sharpness = 40,
			SplitToningBalance = 60,
			SplitToningHighlightHue = 0,
			SplitToningHighlightSaturation = 0,
			SplitToningShadowHue = 74,
			SplitToningShadowSaturation = 5,
			ToneCurveName2012 = "Custom",
			ToneCurvePV2012 = {
				0,
				15,
				85,
				73,
				127,
				122,
				170,
				178,
				255,
				248,
			},
			ToneCurvePV2012Blue = {
				0,
				0,
				48,
				41,
				128,
				121,
				165,
				159,
				255,
				255,
			},
			ToneCurvePV2012Green = {
				6,
				0,
				80,
				77,
				134,
				130,
				211,
				214,
				255,
				255,
			},
			ToneCurvePV2012Red = {
				0,
				13,
				38,
				30,
				65,
				61,
				125,
				122,
				172,
				170,
				255,
				247,
			},
			UprightCenterMode = 0,
			UprightCenterNormX = 0.5,
			UprightCenterNormY = 0.5,
			UprightFocalLength35mm = 35,
			UprightFocalMode = 0,
			UprightFourSegmentsCount = 0,
			UprightPreview = false,
			UprightTransformCount = 6,
			UprightVersion = 151388160,
			Vibrance = 0,
			VignetteAmount = 0,
			VignetteMidpoint = 50,
			WhiteBalance = "As Shot",
			Whites2012 = 20,
			orientation = "AB",
		},
		uuid = "386C6C4D-2326-479F-BFE7-35E1B638DEEE",
	},
	version = 0,
}
