其他预设/【247】温暖甜橙色预设5款/3.XMP格式(PS)预设/温暖甜橙色[]-1.xmp
<x:xmpmeta xmlns:x="adobe:ns:meta/" x:xmptk="Adobe XMP Core 5.6-c140 79.160451, 2017/05/06-01:08:21        ">
 <rdf:RDF xmlns:rdf="http://www.w3.org/1999/02/22-rdf-syntax-ns#">
  <rdf:Description rdf:about=""
    xmlns:crs="http://ns.adobe.com/camera-raw-settings/1.0/"
   crs:PresetType="Normal"
   crs:Cluster=""
   crs:UUID="6504B714352E22802C8B89FD42DCD8F5"
   crs:SupportsAmount="False"
   crs:SupportsColor="True"
   crs:SupportsMonochrome="True"
   crs:SupportsHighDynamicRange="True"
   crs:SupportsNormalDynamicRange="True"
   crs:SupportsSceneReferred="True"
   crs:SupportsOutputReferred="True"
   crs:CameraModelRestriction=""
   crs:Copyright=""
   crs:ContactInfo=""
   crs:Version="10.5"
   crs:ProcessVersion="6.7"
   crs:WhiteBalance="Custom"
   crs:Temperature="6856"
   crs:Tint="+21"
   crs:Saturation="+16"
   crs:Sharpness="38"
   crs:LuminanceSmoothing="9"
   crs:ColorNoiseReduction="25"
   crs:VignetteAmount="0"
   crs:ShadowTint="+39"
   crs:RedHue="+4"
   crs:RedSaturation="+1"
   crs:GreenHue="-4"
   crs:GreenSaturation="-3"
   crs:BlueHue="-8"
   crs:BlueSaturation="+46"
   crs:Vibrance="-1"
   crs:HueAdjustmentRed="+4"
   crs:HueAdjustmentOrange="-3"
   crs:HueAdjustmentYellow="-64"
   crs:HueAdjustmentGreen="0"
   crs:HueAdjustmentAqua="+16"
   crs:HueAdjustmentBlue="-6"
   crs:HueAdjustmentPurple="+100"
   crs:HueAdjustmentMagenta="+100"
   crs:SaturationAdjustmentRed="+13"
   crs:SaturationAdjustmentOrange="-21"
   crs:SaturationAdjustmentYellow="-26"
   crs:SaturationAdjustmentGreen="-100"
   crs:SaturationAdjustmentAqua="+25"
   crs:SaturationAdjustmentBlue="+42"
   crs:SaturationAdjustmentPurple="-100"
   crs:SaturationAdjustmentMagenta="-100"
   crs:LuminanceAdjustmentRed="-36"
   crs:LuminanceAdjustmentOrange="+6"
   crs:LuminanceAdjustmentYellow="+71"
   crs:LuminanceAdjustmentGreen="-14"
   crs:LuminanceAdjustmentAqua="-33"
   crs:LuminanceAdjustmentBlue="-17"
   crs:LuminanceAdjustmentPurple="+11"
   crs:LuminanceAdjustmentMagenta="-1"
   crs:SplitToningShadowHue="2"
   crs:SplitToningShadowSaturation="0"
   crs:SplitToningHighlightHue="1"
   crs:SplitToningHighlightSaturation="0"
   crs:SplitToningBalance="-1"
   crs:ParametricShadows="+24"
   crs:ParametricDarks="+4"
   crs:ParametricLights="-9"
   crs:ParametricHighlights="-33"
   crs:ParametricShadowSplit="28"
   crs:ParametricMidtoneSplit="50"
   crs:ParametricHighlightSplit="80"
   crs:SharpenRadius="+1.0"
   crs:SharpenDetail="22"
   crs:SharpenEdgeMasking="0"
   crs:PostCropVignetteAmount="0"
   crs:GrainAmount="0"
   crs:LuminanceNoiseReductionDetail="50"
   crs:ColorNoiseReductionDetail="50"
   crs:LuminanceNoiseReductionContrast="0"
   crs:ColorNoiseReductionSmoothness="50"
   crs:LensProfileEnable="0"
   crs:LensManualDistortionAmount="0"
   crs:PerspectiveVertical="0"
   crs:PerspectiveHorizontal="0"
   crs:PerspectiveRotate="0.0"
   crs:PerspectiveScale="100"
   crs:PerspectiveAspect="0"
   crs:PerspectiveUpright="0"
   crs:PerspectiveX="0.00"
   crs:PerspectiveY="0.00"
   crs:AutoLateralCA="0"
   crs:Exposure2012="+0.30"
   crs:Contrast2012="-17"
   crs:Highlights2012="-100"
   crs:Shadows2012="+84"
   crs:Whites2012="-87"
   crs:Blacks2012="-43"
   crs:Clarity2012="+34"
   crs:DefringePurpleAmount="0"
   crs:DefringePurpleHueLo="30"
   crs:DefringePurpleHueHi="70"
   crs:DefringeGreenAmount="0"
   crs:DefringeGreenHueLo="40"
   crs:DefringeGreenHueHi="60"
   crs:Dehaze="0"
   crs:ConvertToGrayscale="False"
   crs:OverrideLookVignette="False"
   crs:ToneCurveName2012="Custom"
   crs:CameraProfile="Embedded"
   crs:LensProfileSetup="LensDefaults"
   crs:HasSettings="True">
   <crs:Name>
    <rdf:Alt>
     <rdf:li xml:lang="x-default">温暖甜橙色[素锦印象]-1</rdf:li>
    </rdf:Alt>
   </crs:Name>
   <crs:ShortName>
    <rdf:Alt>
     <rdf:li xml:lang="x-default"/>
    </rdf:Alt>
   </crs:ShortName>
   <crs:SortName>
    <rdf:Alt>
     <rdf:li xml:lang="x-default"/>
    </rdf:Alt>
   </crs:SortName>
   <crs:Group>
    <rdf:Alt>
     <rdf:li xml:lang="x-default">温暖甜橙色预设[sujinyinxiang.taobao.co]</rdf:li>
    </rdf:Alt>
   </crs:Group>
   <crs:Description>
    <rdf:Alt>
     <rdf:li xml:lang="x-default"/>
    </rdf:Alt>
   </crs:Description>
   <crs:ToneCurvePV2012>
    <rdf:Seq>
     <rdf:li>0, 6</rdf:li>
     <rdf:li>28, 32</rdf:li>
     <rdf:li>204, 202</rdf:li>
     <rdf:li>255, 251</rdf:li>
    </rdf:Seq>
   </crs:ToneCurvePV2012>
   <crs:ToneCurvePV2012Red>
    <rdf:Seq>
     <rdf:li>0, 0</rdf:li>
     <rdf:li>36, 35</rdf:li>
     <rdf:li>114, 117</rdf:li>
     <rdf:li>176, 185</rdf:li>
     <rdf:li>255, 255</rdf:li>
    </rdf:Seq>
   </crs:ToneCurvePV2012Red>
   <crs:ToneCurvePV2012Green>
    <rdf:Seq>
     <rdf:li>0, 0</rdf:li>
     <rdf:li>40, 32</rdf:li>
     <rdf:li>117, 121</rdf:li>
     <rdf:li>179, 191</rdf:li>
     <rdf:li>255, 255</rdf:li>
    </rdf:Seq>
   </crs:ToneCurvePV2012Green>
   <crs:ToneCurvePV2012Blue>
    <rdf:Seq>
     <rdf:li>0, 0</rdf:li>
     <rdf:li>43, 30</rdf:li>
     <rdf:li>119, 122</rdf:li>
     <rdf:li>169, 178</rdf:li>
     <rdf:li>255, 255</rdf:li>
    </rdf:Seq>
   </crs:ToneCurvePV2012Blue>
   <crs:Look
    crs:Name=""/>
  </rdf:Description>
 </rdf:RDF>
</x:xmpmeta>
