其他预设/【233】日式怀旧街道调色预设208款/3.XMP格式(PS 19LR用)预设/3.日式城市街拍预设 (自动曝光预设)/街拍预设(自动曝光)-41.xmp
<x:xmpmeta xmlns:x="adobe:ns:meta/" x:xmptk="Adobe XMP Core 5.6-c140 79.160451, 2017/05/06-01:08:21        ">
 <rdf:RDF xmlns:rdf="http://www.w3.org/1999/02/22-rdf-syntax-ns#">
  <rdf:Description rdf:about=""
    xmlns:crs="http://ns.adobe.com/camera-raw-settings/1.0/"
   crs:PresetType="Normal"
   crs:Cluster=""
   crs:UUID="091196FE636D4A2B03B8AD5EDF165C8A"
   crs:SupportsAmount="False"
   crs:SupportsColor="True"
   crs:SupportsMonochrome="True"
   crs:SupportsHighDynamicRange="True"
   crs:SupportsNormalDynamicRange="True"
   crs:SupportsSceneReferred="True"
   crs:SupportsOutputReferred="True"
   crs:CameraModelRestriction=""
   crs:Copyright=""
   crs:ContactInfo=""
   crs:Version="10.5"
   crs:ProcessVersion="6.7"
   crs:Saturation="-9"
   crs:ShadowTint="-12"
   crs:RedHue="+23"
   crs:RedSaturation="+9"
   crs:GreenHue="-21"
   crs:GreenSaturation="+3"
   crs:BlueHue="-57"
   crs:BlueSaturation="+14"
   crs:Vibrance="+16"
   crs:HueAdjustmentRed="+4"
   crs:HueAdjustmentOrange="-2"
   crs:HueAdjustmentYellow="-22"
   crs:HueAdjustmentGreen="-18"
   crs:HueAdjustmentAqua="+6"
   crs:HueAdjustmentBlue="+23"
   crs:HueAdjustmentPurple="0"
   crs:HueAdjustmentMagenta="0"
   crs:SaturationAdjustmentRed="-7"
   crs:SaturationAdjustmentOrange="-19"
   crs:SaturationAdjustmentYellow="-29"
   crs:SaturationAdjustmentGreen="-9"
   crs:SaturationAdjustmentAqua="-31"
   crs:SaturationAdjustmentBlue="-30"
   crs:SaturationAdjustmentPurple="-22"
   crs:SaturationAdjustmentMagenta="-24"
   crs:LuminanceAdjustmentRed="+6"
   crs:LuminanceAdjustmentOrange="+8"
   crs:LuminanceAdjustmentYellow="+7"
   crs:LuminanceAdjustmentGreen="-7"
   crs:LuminanceAdjustmentAqua="+20"
   crs:LuminanceAdjustmentBlue="+35"
   crs:LuminanceAdjustmentPurple="-5"
   crs:LuminanceAdjustmentMagenta="0"
   crs:SplitToningShadowHue="214"
   crs:SplitToningShadowSaturation="3"
   crs:SplitToningHighlightHue="26"
   crs:SplitToningHighlightSaturation="5"
   crs:SplitToningBalance="0"
   crs:ParametricShadows="0"
   crs:ParametricDarks="0"
   crs:ParametricLights="0"
   crs:ParametricHighlights="0"
   crs:ParametricShadowSplit="25"
   crs:ParametricMidtoneSplit="50"
   crs:ParametricHighlightSplit="75"
   crs:GrainAmount="24"
   crs:GrainSize="38"
   crs:GrainFrequency="50"
   crs:Clarity2012="+21"
   crs:Dehaze="0"
   crs:ConvertToGrayscale="False"
   crs:AutoTone="True"
   crs:ToneCurveName2012="Custom"
   crs:CameraProfile="Adobe Standard"
   crs:HasSettings="True">
   <crs:Name>
    <rdf:Alt>
     <rdf:li xml:lang="x-default">JA – Gritty Contrast 1 (Auto-Exposure)</rdf:li>
    </rdf:Alt>
   </crs:Name>
   <crs:ShortName>
    <rdf:Alt>
     <rdf:li xml:lang="x-default"/>
    </rdf:Alt>
   </crs:ShortName>
   <crs:SortName>
    <rdf:Alt>
     <rdf:li xml:lang="x-default"/>
    </rdf:Alt>
   </crs:SortName>
   <crs:Group>
    <rdf:Alt>
     <rdf:li xml:lang="x-default">日式城市街拍预设 (自动曝光预设)</rdf:li>
    </rdf:Alt>
   </crs:Group>
   <crs:Description>
    <rdf:Alt>
     <rdf:li xml:lang="x-default"/>
    </rdf:Alt>
   </crs:Description>
   <crs:ToneCurvePV2012>
    <rdf:Seq>
     <rdf:li>0, 23</rdf:li>
     <rdf:li>32, 35</rdf:li>
     <rdf:li>72, 67</rdf:li>
     <rdf:li>106, 115</rdf:li>
     <rdf:li>140, 158</rdf:li>
     <rdf:li>179, 197</rdf:li>
     <rdf:li>255, 239</rdf:li>
    </rdf:Seq>
   </crs:ToneCurvePV2012>
   <crs:ToneCurvePV2012Red>
    <rdf:Seq>
     <rdf:li>0, 0</rdf:li>
     <rdf:li>255, 255</rdf:li>
    </rdf:Seq>
   </crs:ToneCurvePV2012Red>
   <crs:ToneCurvePV2012Green>
    <rdf:Seq>
     <rdf:li>0, 0</rdf:li>
     <rdf:li>255, 255</rdf:li>
    </rdf:Seq>
   </crs:ToneCurvePV2012Green>
   <crs:ToneCurvePV2012Blue>
    <rdf:Seq>
     <rdf:li>0, 0</rdf:li>
     <rdf:li>255, 255</rdf:li>
    </rdf:Seq>
   </crs:ToneCurvePV2012Blue>
   <crs:Look
    crs:Name=""/>
  </rdf:Description>
 </rdf:RDF>
</x:xmpmeta>
