其他预设/复古婚礼风格/复古婚礼风格 - 06.xmp
<x:xmpmeta xmlns:x="adobe:ns:meta/" x:xmptk="Adobe XMP Core 7.0-c000 1.000000, 0000/00/00-00:00:00        ">
 <rdf:RDF xmlns:rdf="http://www.w3.org/1999/02/22-rdf-syntax-ns#">
  <rdf:Description rdf:about=""
    xmlns:crs="http://ns.adobe.com/camera-raw-settings/1.0/"
   crs:PresetType="Normal"
   crs:Cluster=""
   crs:UUID="47C3BA07B24C4177B78B8B6BB4E842D5"
   crs:SupportsAmount2="True"
   crs:SupportsAmount="True"
   crs:SupportsColor="True"
   crs:SupportsMonochrome="True"
   crs:SupportsHighDynamicRange="True"
   crs:SupportsNormalDynamicRange="True"
   crs:SupportsSceneReferred="True"
   crs:SupportsOutputReferred="True"
   crs:RequiresRGBTables="False"
   crs:CameraModelRestriction=""
   crs:Copyright=""
   crs:ContactInfo=""
   crs:Version="14.5"
   crs:ProcessVersion="10.0"
   crs:WhiteBalance="Custom"
   crs:Temperature="5889"
   crs:Tint="+10"
   crs:Exposure2012="0.00"
   crs:Contrast2012="-29"
   crs:Highlights2012="-27"
   crs:Shadows2012="+2"
   crs:Whites2012="-3"
   crs:Blacks2012="+44"
   crs:Clarity2012="0"
   crs:Dehaze="0"
   crs:Vibrance="-17"
   crs:Saturation="0"
   crs:ParametricShadows="+100"
   crs:ParametricDarks="-50"
   crs:ParametricLights="+10"
   crs:ParametricHighlights="-25"
   crs:ParametricShadowSplit="14"
   crs:ParametricMidtoneSplit="42"
   crs:ParametricHighlightSplit="85"
   crs:Sharpness="0"
   crs:LuminanceSmoothing="0"
   crs:ColorNoiseReduction="0"
   crs:HueAdjustmentRed="-5"
   crs:HueAdjustmentOrange="-13"
   crs:HueAdjustmentYellow="-13"
   crs:HueAdjustmentGreen="+6"
   crs:HueAdjustmentAqua="0"
   crs:HueAdjustmentBlue="+3"
   crs:HueAdjustmentPurple="0"
   crs:HueAdjustmentMagenta="0"
   crs:SaturationAdjustmentRed="-9"
   crs:SaturationAdjustmentOrange="-10"
   crs:SaturationAdjustmentYellow="+2"
   crs:SaturationAdjustmentGreen="-12"
   crs:SaturationAdjustmentAqua="-2"
   crs:SaturationAdjustmentBlue="-6"
   crs:SaturationAdjustmentPurple="-5"
   crs:SaturationAdjustmentMagenta="-5"
   crs:LuminanceAdjustmentRed="-8"
   crs:LuminanceAdjustmentOrange="-13"
   crs:LuminanceAdjustmentYellow="+11"
   crs:LuminanceAdjustmentGreen="+2"
   crs:LuminanceAdjustmentAqua="0"
   crs:LuminanceAdjustmentBlue="+2"
   crs:LuminanceAdjustmentPurple="0"
   crs:LuminanceAdjustmentMagenta="0"
   crs:SplitToningShadowHue="0"
   crs:SplitToningShadowSaturation="0"
   crs:SplitToningHighlightHue="0"
   crs:SplitToningHighlightSaturation="0"
   crs:SplitToningBalance="0"
   crs:ColorGradeMidtoneHue="0"
   crs:ColorGradeMidtoneSat="0"
   crs:ColorGradeShadowLum="0"
   crs:ColorGradeMidtoneLum="0"
   crs:ColorGradeHighlightLum="0"
   crs:ColorGradeBlending="50"
   crs:ColorGradeGlobalHue="0"
   crs:ColorGradeGlobalSat="0"
   crs:ColorGradeGlobalLum="0"
   crs:GrainAmount="13"
   crs:GrainSize="25"
   crs:GrainFrequency="60"
   crs:PostCropVignetteAmount="-10"
   crs:PostCropVignetteMidpoint="29"
   crs:PostCropVignetteFeather="64"
   crs:PostCropVignetteRoundness="+5"
   crs:PostCropVignetteStyle="1"
   crs:PostCropVignetteHighlightContrast="0"
   crs:ShadowTint="0"
   crs:RedHue="+5"
   crs:RedSaturation="+5"
   crs:GreenHue="0"
   crs:GreenSaturation="0"
   crs:BlueHue="-5"
   crs:BlueSaturation="-3"
   crs:ConvertToGrayscale="False"
   crs:OverrideLookVignette="True"
   crs:ToneCurveName2012="Custom"
   crs:CameraProfile="Embedded"
   crs:HasSettings="True">
   <crs:Name>
    <rdf:Alt>
     <rdf:li xml:lang="x-default">复古婚礼风格 - 06</rdf:li>
    </rdf:Alt>
   </crs:Name>
   <crs:ShortName>
    <rdf:Alt>
     <rdf:li xml:lang="x-default"/>
    </rdf:Alt>
   </crs:ShortName>
   <crs:SortName>
    <rdf:Alt>
     <rdf:li xml:lang="x-default"/>
    </rdf:Alt>
   </crs:SortName>
   <crs:Group>
    <rdf:Alt>
     <rdf:li xml:lang="x-default">复古婚礼风格 - 摄影之城</rdf:li>
    </rdf:Alt>
   </crs:Group>
   <crs:Description>
    <rdf:Alt>
     <rdf:li xml:lang="x-default"/>
    </rdf:Alt>
   </crs:Description>
   <crs:ToneCurvePV2012>
    <rdf:Seq>
     <rdf:li>0, 15</rdf:li>
     <rdf:li>47, 47</rdf:li>
     <rdf:li>126, 126</rdf:li>
     <rdf:li>185, 191</rdf:li>
     <rdf:li>255, 255</rdf:li>
    </rdf:Seq>
   </crs:ToneCurvePV2012>
   <crs:ToneCurvePV2012Red>
    <rdf:Seq>
     <rdf:li>0, 0</rdf:li>
     <rdf:li>37, 17</rdf:li>
     <rdf:li>70, 47</rdf:li>
     <rdf:li>131, 126</rdf:li>
     <rdf:li>187, 191</rdf:li>
     <rdf:li>255, 255</rdf:li>
    </rdf:Seq>
   </crs:ToneCurvePV2012Red>
   <crs:ToneCurvePV2012Green>
    <rdf:Seq>
     <rdf:li>0, 0</rdf:li>
     <rdf:li>38, 22</rdf:li>
     <rdf:li>68, 50</rdf:li>
     <rdf:li>131, 126</rdf:li>
     <rdf:li>179, 182</rdf:li>
     <rdf:li>255, 255</rdf:li>
    </rdf:Seq>
   </crs:ToneCurvePV2012Green>
   <crs:ToneCurvePV2012Blue>
    <rdf:Seq>
     <rdf:li>0, 5</rdf:li>
     <rdf:li>37, 24</rdf:li>
     <rdf:li>68, 50</rdf:li>
     <rdf:li>131, 126</rdf:li>
     <rdf:li>179, 179</rdf:li>
     <rdf:li>255, 250</rdf:li>
    </rdf:Seq>
   </crs:ToneCurvePV2012Blue>
  </rdf:Description>
 </rdf:RDF>
</x:xmpmeta>
