其他预设/【225】明亮青色旅拍调色8款/2.LR预设文件/明亮青色旅拍-7.lrtemplate
s = {
	id = "7B37AFCC-7769-4834-866C-FDC3018F1B56",
	internalName = "明亮青色旅拍[素锦印象]-7",
	title = "明亮青色旅拍[素锦印象]-7",
	type = "Develop",
	value = {
		settings = {
			AutoLateralCA = 0,
			Blacks2012 = 25,
			BlueHue = -48,
			BlueSaturation = -49,
			CameraProfile = "Embedded",
			ChromaticAberrationB = 0,
			ChromaticAberrationR = 0,
			Clarity2012 = 5,
			ColorNoiseReduction = 25,
			ColorNoiseReductionDetail = 50,
			ColorNoiseReductionSmoothness = 50,
			Contrast2012 = 0,
			ConvertToGrayscale = false,
			CropConstrainToWarp = 0,
			Defringe = 0,
			DefringeGreenAmount = 0,
			DefringeGreenHueHi = 60,
			DefringeGreenHueLo = 40,
			DefringePurpleAmount = 0,
			DefringePurpleHueHi = 70,
			DefringePurpleHueLo = 30,
			Dehaze = 0,
			EnableCalibration = true,
			EnableCircularGradientBasedCorrections = true,
			EnableColorAdjustments = true,
			EnableDetail = true,
			EnableEffects = true,
			EnableGradientBasedCorrections = true,
			EnableLensCorrections = true,
			EnableSplitToning = true,
			EnableTransform = true,
			Exposure2012 = 0,
			GrainAmount = 0,
			GrainFrequency = 50,
			GrainSize = 25,
			GreenHue = -35,
			GreenSaturation = 25,
			Highlights2012 = 6,
			HueAdjustmentAqua = -12,
			HueAdjustmentBlue = -2,
			HueAdjustmentGreen = 21,
			HueAdjustmentMagenta = 20,
			HueAdjustmentOrange = 14,
			HueAdjustmentPurple = 20,
			HueAdjustmentRed = 10,
			HueAdjustmentYellow = -77,
			IncrementalTemperature = 8,
			IncrementalTint = -37,
			LensManualDistortionAmount = 0,
			LensProfileEnable = 0,
			LensProfileSetup = "LensDefaults",
			LuminanceAdjustmentAqua = -27,
			LuminanceAdjustmentBlue = 0,
			LuminanceAdjustmentGreen = -64,
			LuminanceAdjustmentMagenta = 0,
			LuminanceAdjustmentOrange = 5,
			LuminanceAdjustmentPurple = 0,
			LuminanceAdjustmentRed = 0,
			LuminanceAdjustmentYellow = -23,
			LuminanceNoiseReductionContrast = 0,
			LuminanceNoiseReductionDetail = 50,
			LuminanceSmoothing = 0,
			ParametricDarks = -3,
			ParametricHighlightSplit = 75,
			ParametricHighlights = -33,
			ParametricLights = 5,
			ParametricMidtoneSplit = 50,
			ParametricShadowSplit = 25,
			ParametricShadows = 1,
			PerspectiveAspect = 0,
			PerspectiveHorizontal = 0,
			PerspectiveRotate = 0,
			PerspectiveScale = 100,
			PerspectiveUpright = 0,
			PerspectiveVertical = 0,
			PerspectiveX = 0,
			PerspectiveY = 0,
			PostCropVignetteAmount = 0,
			PostCropVignetteFeather = 50,
			PostCropVignetteHighlightContrast = 0,
			PostCropVignetteMidpoint = 50,
			PostCropVignetteRoundness = 0,
			PostCropVignetteStyle = 1,
			ProcessVersion = "6.7",
			RedHue = -23,
			RedSaturation = -17,
			Saturation = -43,
			SaturationAdjustmentAqua = -31,
			SaturationAdjustmentBlue = -14,
			SaturationAdjustmentGreen = -66,
			SaturationAdjustmentMagenta = -25,
			SaturationAdjustmentOrange = 3,
			SaturationAdjustmentPurple = -41,
			SaturationAdjustmentRed = 17,
			SaturationAdjustmentYellow = -19,
			ShadowTint = 11,
			Shadows2012 = 32,
			SharpenDetail = 25,
			SharpenEdgeMasking = 0,
			SharpenRadius = 1,
			Sharpness = 35,
			SplitToningBalance = 0,
			SplitToningHighlightHue = 0,
			SplitToningHighlightSaturation = 0,
			SplitToningShadowHue = 0,
			SplitToningShadowSaturation = 0,
			ToneCurveName2012 = "Custom",
			ToneCurvePV2012 = {
				0,
				32,
				54,
				62,
				123,
				116,
				176,
				164,
				255,
				224,
			},
			ToneCurvePV2012Blue = {
				0,
				0,
				39,
				13,
				87,
				65,
				123,
				124,
				183,
				199,
				255,
				255,
			},
			ToneCurvePV2012Green = {
				0,
				0,
				40,
				14,
				83,
				59,
				123,
				126,
				172,
				185,
				255,
				255,
			},
			ToneCurvePV2012Red = {
				0,
				0,
				40,
				12,
				84,
				58,
				123,
				125,
				186,
				196,
				255,
				255,
			},
			UprightCenterMode = 0,
			UprightCenterNormX = 0.5,
			UprightCenterNormY = 0.5,
			UprightFocalLength35mm = 35,
			UprightFocalMode = 0,
			UprightFourSegmentsCount = 0,
			UprightPreview = false,
			UprightTransformCount = 6,
			UprightVersion = 151388160,
			Vibrance = 0,
			VignetteAmount = 0,
			VignetteMidpoint = 50,
			WhiteBalance = "Custom",
			Whites2012 = 2,
			orientation = "AB",
		},
		uuid = "1AA6CFDD-58FD-4887-B2C2-72B5C2AA72D5",
	},
	version = 0,
}
