其他预设/【225】明亮青色旅拍调色8款/2.LR预设文件/明亮青色旅拍-2.lrtemplate
s = {
	id = "3AC2C176-94B4-4DF3-ACEE-367644CA8E0E",
	internalName = "明亮青色旅拍[素锦印象]-2",
	title = "明亮青色旅拍[素锦印象]-2",
	type = "Develop",
	value = {
		settings = {
			AutoLateralCA = 1,
			Blacks2012 = 8,
			BlueHue = 4,
			BlueSaturation = 0,
			CameraProfile = "Embedded",
			ChromaticAberrationB = 0,
			ChromaticAberrationR = 0,
			Clarity2012 = 0,
			ColorNoiseReduction = 25,
			ColorNoiseReductionDetail = 50,
			ColorNoiseReductionSmoothness = 50,
			Contrast2012 = 17,
			ConvertToGrayscale = false,
			CropConstrainToWarp = 0,
			Defringe = 0,
			DefringeGreenAmount = 0,
			DefringeGreenHueHi = 55,
			DefringeGreenHueLo = 40,
			DefringePurpleAmount = 0,
			DefringePurpleHueHi = 70,
			DefringePurpleHueLo = 30,
			Dehaze = 0,
			EnableCalibration = true,
			EnableCircularGradientBasedCorrections = true,
			EnableColorAdjustments = true,
			EnableDetail = true,
			EnableEffects = true,
			EnableGradientBasedCorrections = true,
			EnableLensCorrections = true,
			EnableSplitToning = true,
			EnableTransform = true,
			Exposure2012 = 0,
			GrainAmount = 0,
			GrainFrequency = 50,
			GrainSize = 25,
			GreenHue = 61,
			GreenSaturation = 0,
			Highlights2012 = -99,
			HueAdjustmentAqua = 0,
			HueAdjustmentBlue = 0,
			HueAdjustmentGreen = 31,
			HueAdjustmentMagenta = -58,
			HueAdjustmentOrange = -5,
			HueAdjustmentPurple = 0,
			HueAdjustmentRed = -78,
			HueAdjustmentYellow = -58,
			IncrementalTemperature = 25,
			IncrementalTint = -18,
			LensManualDistortionAmount = 0,
			LensProfileChromaticAberrationScale = 100,
			LensProfileDigest = "1E427C8148DA12CF04BAFDEDBC08AA83",
			LensProfileDistortionScale = 135,
			LensProfileEnable = 1,
			LensProfileFilename = "SONY (Sony E 10-18mm F4 OSS) - RAW.lcp",
			LensProfileName = "Adobe (Sony E 10-18mm F4 OSS)",
			LensProfileSetup = "Custom",
			LensProfileVignettingScale = 0,
			LuminanceAdjustmentAqua = 0,
			LuminanceAdjustmentBlue = 0,
			LuminanceAdjustmentGreen = -100,
			LuminanceAdjustmentMagenta = 0,
			LuminanceAdjustmentOrange = -37,
			LuminanceAdjustmentPurple = 100,
			LuminanceAdjustmentRed = -55,
			LuminanceAdjustmentYellow = 58,
			LuminanceNoiseReductionContrast = 0,
			LuminanceNoiseReductionDetail = 50,
			LuminanceSmoothing = 22,
			ParametricDarks = 0,
			ParametricHighlightSplit = 75,
			ParametricHighlights = 0,
			ParametricLights = 0,
			ParametricMidtoneSplit = 50,
			ParametricShadowSplit = 25,
			ParametricShadows = 0,
			PerspectiveAspect = 0,
			PerspectiveHorizontal = 0,
			PerspectiveRotate = 0,
			PerspectiveScale = 100,
			PerspectiveUpright = 0,
			PerspectiveVertical = 0,
			PerspectiveX = 0,
			PerspectiveY = 0,
			PostCropVignetteAmount = 0,
			PostCropVignetteFeather = 50,
			PostCropVignetteHighlightContrast = 0,
			PostCropVignetteMidpoint = 50,
			PostCropVignetteRoundness = 0,
			PostCropVignetteStyle = 1,
			ProcessVersion = "6.7",
			RedHue = 15,
			RedSaturation = 50,
			Saturation = -35,
			SaturationAdjustmentAqua = 0,
			SaturationAdjustmentBlue = 0,
			SaturationAdjustmentGreen = -38,
			SaturationAdjustmentMagenta = 0,
			SaturationAdjustmentOrange = -2,
			SaturationAdjustmentPurple = -35,
			SaturationAdjustmentRed = 55,
			SaturationAdjustmentYellow = -53,
			ShadowTint = -2,
			Shadows2012 = 72,
			SharpenDetail = 25,
			SharpenEdgeMasking = 0,
			SharpenRadius = 1,
			Sharpness = 24,
			SplitToningBalance = 0,
			SplitToningHighlightHue = 213,
			SplitToningHighlightSaturation = 10,
			SplitToningShadowHue = 31,
			SplitToningShadowSaturation = 13,
			ToneCurveName2012 = "Custom",
			ToneCurvePV2012 = {
				0,
				0,
				56,
				75,
				181,
				166,
				255,
				255,
			},
			ToneCurvePV2012Blue = {
				0,
				0,
				55,
				16,
				87,
				65,
				123,
				124,
				183,
				199,
				255,
				230,
			},
			ToneCurvePV2012Green = {
				0,
				0,
				40,
				14,
				83,
				59,
				123,
				126,
				172,
				185,
				255,
				255,
			},
			ToneCurvePV2012Red = {
				0,
				0,
				40,
				12,
				84,
				58,
				123,
				125,
				186,
				196,
				255,
				255,
			},
			UprightCenterMode = 0,
			UprightCenterNormX = 0.5,
			UprightCenterNormY = 0.5,
			UprightFocalLength35mm = 35,
			UprightFocalMode = 0,
			UprightFourSegmentsCount = 0,
			UprightPreview = false,
			UprightTransformCount = 6,
			UprightVersion = 151388160,
			Vibrance = 41,
			VignetteAmount = 40,
			VignetteMidpoint = 50,
			WhiteBalance = "Custom",
			Whites2012 = 16,
			orientation = "AB",
		},
		uuid = "ACDCC4BC-F5B2-4230-BE7D-27D4AA0A9A46",
	},
	version = 0,
}
