其他预设/【225】明亮青色旅拍调色8款/2.LR预设文件/明亮青色旅拍-6.lrtemplate
s = {
	id = "56E5134F-46F8-44BC-A2E5-0AA8E015C7C3",
	internalName = "明亮青色旅拍[素锦印象]-6",
	title = "明亮青色旅拍[素锦印象]-6",
	type = "Develop",
	value = {
		settings = {
			AutoLateralCA = 1,
			Blacks2012 = 36,
			BlueHue = -1,
			BlueSaturation = 0,
			CameraProfile = "Embedded",
			ChromaticAberrationB = 0,
			ChromaticAberrationR = 0,
			Clarity2012 = 0,
			ColorNoiseReduction = 16,
			ColorNoiseReductionDetail = 50,
			ColorNoiseReductionSmoothness = 50,
			Contrast2012 = 17,
			ConvertToGrayscale = false,
			CropConstrainToWarp = 0,
			Defringe = 0,
			DefringeGreenAmount = 0,
			DefringeGreenHueHi = 55,
			DefringeGreenHueLo = 40,
			DefringePurpleAmount = 0,
			DefringePurpleHueHi = 70,
			DefringePurpleHueLo = 30,
			Dehaze = 0,
			EnableCalibration = true,
			EnableCircularGradientBasedCorrections = true,
			EnableColorAdjustments = true,
			EnableDetail = true,
			EnableEffects = true,
			EnableGradientBasedCorrections = true,
			EnableLensCorrections = true,
			EnableSplitToning = true,
			EnableTransform = true,
			Exposure2012 = 0,
			GrainAmount = 0,
			GrainFrequency = 50,
			GrainSize = 25,
			GreenHue = 83,
			GreenSaturation = 0,
			Highlights2012 = -100,
			HueAdjustmentAqua = 0,
			HueAdjustmentBlue = -17,
			HueAdjustmentGreen = 31,
			HueAdjustmentMagenta = 0,
			HueAdjustmentOrange = -10,
			HueAdjustmentPurple = 0,
			HueAdjustmentRed = -27,
			HueAdjustmentYellow = -30,
			IncrementalTemperature = 28,
			IncrementalTint = -18,
			LensManualDistortionAmount = 0,
			LensProfileChromaticAberrationScale = 100,
			LensProfileDigest = "1E427C8148DA12CF04BAFDEDBC08AA83",
			LensProfileDistortionScale = 135,
			LensProfileEnable = 1,
			LensProfileFilename = "SONY (Sony E 10-18mm F4 OSS) - RAW.lcp",
			LensProfileName = "Adobe (Sony E 10-18mm F4 OSS)",
			LensProfileSetup = "Custom",
			LensProfileVignettingScale = 0,
			LuminanceAdjustmentAqua = 0,
			LuminanceAdjustmentBlue = -36,
			LuminanceAdjustmentGreen = -95,
			LuminanceAdjustmentMagenta = 0,
			LuminanceAdjustmentOrange = -11,
			LuminanceAdjustmentPurple = 100,
			LuminanceAdjustmentRed = 31,
			LuminanceAdjustmentYellow = 50,
			LuminanceNoiseReductionContrast = 0,
			LuminanceNoiseReductionDetail = 50,
			LuminanceSmoothing = 22,
			ParametricDarks = 0,
			ParametricHighlightSplit = 75,
			ParametricHighlights = 0,
			ParametricLights = 0,
			ParametricMidtoneSplit = 50,
			ParametricShadowSplit = 25,
			ParametricShadows = 0,
			PerspectiveAspect = 0,
			PerspectiveHorizontal = 0,
			PerspectiveRotate = 0,
			PerspectiveScale = 100,
			PerspectiveUpright = 0,
			PerspectiveVertical = 0,
			PerspectiveX = 0,
			PerspectiveY = 0,
			PostCropVignetteAmount = 0,
			PostCropVignetteFeather = 50,
			PostCropVignetteHighlightContrast = 0,
			PostCropVignetteMidpoint = 50,
			PostCropVignetteRoundness = 0,
			PostCropVignetteStyle = 1,
			ProcessVersion = "6.7",
			RedHue = 46,
			RedSaturation = 50,
			Saturation = -35,
			SaturationAdjustmentAqua = 0,
			SaturationAdjustmentBlue = 43,
			SaturationAdjustmentGreen = -22,
			SaturationAdjustmentMagenta = 0,
			SaturationAdjustmentOrange = -5,
			SaturationAdjustmentPurple = -35,
			SaturationAdjustmentRed = -11,
			SaturationAdjustmentYellow = -44,
			ShadowTint = -2,
			Shadows2012 = 100,
			SharpenDetail = 25,
			SharpenEdgeMasking = 0,
			SharpenRadius = 1,
			Sharpness = 22,
			SplitToningBalance = 0,
			SplitToningHighlightHue = 213,
			SplitToningHighlightSaturation = 10,
			SplitToningShadowHue = 31,
			SplitToningShadowSaturation = 13,
			ToneCurveName2012 = "Custom",
			ToneCurvePV2012 = {
				0,
				0,
				56,
				75,
				181,
				166,
				255,
				255,
			},
			ToneCurvePV2012Blue = {
				0,
				0,
				55,
				16,
				87,
				65,
				123,
				124,
				183,
				199,
				255,
				230,
			},
			ToneCurvePV2012Green = {
				0,
				0,
				40,
				14,
				83,
				59,
				123,
				126,
				172,
				185,
				255,
				255,
			},
			ToneCurvePV2012Red = {
				0,
				0,
				40,
				12,
				84,
				58,
				123,
				125,
				186,
				196,
				255,
				255,
			},
			UprightCenterMode = 0,
			UprightCenterNormX = 0.5,
			UprightCenterNormY = 0.5,
			UprightFocalLength35mm = 35,
			UprightFocalMode = 0,
			UprightFourSegmentsCount = 0,
			UprightPreview = false,
			UprightTransformCount = 6,
			UprightVersion = 151388160,
			Vibrance = 0,
			VignetteAmount = 40,
			VignetteMidpoint = 50,
			WhiteBalance = "Custom",
			Whites2012 = 5,
			orientation = "AB",
		},
		uuid = "415F91FB-EFCC-4479-A04E-D0B132048490",
	},
	version = 0,
}
