其他预设/【233】日式怀旧街道调色预设208款/1.3D LUT预设（视频调色-PR-AE-PS-FCPX-达芬奇用）/2.富士胶片风-日式城市街拍预设/JA – Cine Night 3 (Classic Chrome).cube
# Created by Adobe Lightroom plugin Export LUT (1.17.0)
# www.johnrellis.com/lightroom/exportlut.htm
# Preset: JA – Cine Night 3 (Classic Chrome)
# Color profile: /Library/Application Support/Adobe/Color/Profiles/Recommended/AdobeRGB1998.icc
LUT_3D_SIZE 5
DOMAIN_MIN 0.000000 0.000000 0.000000
DOMAIN_MAX 0.903226 0.903226 0.903226
0.008881 0.025910 0.052979
0.157137 0.035248 0.072084
0.592706 0.000000 0.079957
0.880064 0.000000 0.142641
1.000000 0.171817 0.259648
0.000000 0.136172 0.102327
0.159243 0.162325 0.100038
0.616815 0.085756 0.095216
0.884581 0.141665 0.159731
1.000000 0.328801 0.284550
0.000000 0.428351 0.169162
0.007874 0.454658 0.152926
0.640986 0.580713 0.160159
0.911620 0.581292 0.236912
1.000000 0.585931 0.353887
0.000000 0.760708 0.246677
0.000000 0.774746 0.232975
0.539544 0.786618 0.299138
0.882536 0.863218 0.370550
1.000000 0.823880 0.512779
0.000000 0.987518 0.387701
0.200626 0.985687 0.402960
0.577417 0.973968 0.468818
0.817533 0.973053 0.584344
0.996521 0.966766 0.686824
0.000000 0.061006 0.160342
0.108980 0.062837 0.194614
0.536278 0.000000 0.229313
0.841489 0.000000 0.269169
1.000000 0.226871 0.347082
0.000000 0.135500 0.200626
0.123262 0.158846 0.225895
0.568994 0.080079 0.248081
0.850675 0.160250 0.285222
1.000000 0.352422 0.364752
0.000000 0.427985 0.263645
0.000000 0.459358 0.256931
0.603967 0.547387 0.283238
0.879484 0.571374 0.352239
1.000000 0.607263 0.438056
0.000000 0.756497 0.323613
0.000000 0.770260 0.320806
0.534936 0.785672 0.368414
0.871122 0.859312 0.452155
1.000000 0.833433 0.581537
0.000000 0.986481 0.428534
0.113710 0.984955 0.439429
0.583581 0.977691 0.521324
0.817350 0.973175 0.624414
0.992096 0.967224 0.724727
0.000000 0.086122 0.336309
0.000000 0.085420 0.378332
0.486000 0.000000 0.442420
0.785733 0.000000 0.477638
1.000000 0.345769 0.540093
0.000000 0.150332 0.342809
0.000000 0.163210 0.391547
0.506737 0.149569 0.462989
0.790219 0.241550 0.490761
1.000000 0.438453 0.555230
0.000000 0.391791 0.425727
0.000000 0.423438 0.446662
0.535943 0.509422 0.512047
0.814725 0.573053 0.554589
1.000000 0.649012 0.609522
0.000000 0.741878 0.491005
0.000000 0.751522 0.491066
0.489906 0.779355 0.523125
0.839322 0.850004 0.628138
0.997559 0.852140 0.719753
0.000000 0.980041 0.556725
0.000000 0.981842 0.557397
0.498787 0.978332 0.589593
0.797665 0.969574 0.696468
0.980072 0.967041 0.802213
0.000000 0.126711 0.525811
0.000000 0.128206 0.559167
0.467323 0.003082 0.667964
0.753964 0.158846 0.691188
0.958953 0.447272 0.731106
0.000000 0.184939 0.518791
0.000000 0.189395 0.560021
0.460548 0.208621 0.664912
0.752773 0.293370 0.696010
0.957580 0.497932 0.734524
0.000000 0.346288 0.541344
0.000000 0.354620 0.552941
0.418738 0.428321 0.639857
0.749508 0.546288 0.715419
0.963928 0.643549 0.754513
0.000000 0.669123 0.645319
0.000000 0.679683 0.653590
0.364630 0.716793 0.687587
0.765225 0.806363 0.772824
0.972259 0.846403 0.820432
0.000000 0.974578 0.741482
0.000000 0.977356 0.740505
0.250340 0.979095 0.740505
0.730282 0.972137 0.781521
0.963195 0.967437 0.901610
0.000000 0.231449 0.784604
0.000000 0.234379 0.800412
0.462104 0.253544 0.854246
0.757321 0.384466 0.927459
0.941741 0.498634 0.908904
0.000000 0.275761 0.772885
0.000000 0.276402 0.791745
0.446204 0.308232 0.847044
0.749294 0.438178 0.922026
0.939025 0.538506 0.909209
0.000000 0.396674 0.741054
0.000000 0.387457 0.746517
0.346990 0.422309 0.817533
0.719783 0.566857 0.907500
0.937102 0.656733 0.917601
0.000000 0.655024 0.813077
0.000000 0.647486 0.811521
0.014405 0.622187 0.810880
0.623957 0.680385 0.867826
0.937804 0.827207 0.938842
0.000000 0.933837 0.900023
0.000000 0.934936 0.902007
0.000000 0.939605 0.912291
0.567620 0.941619 0.924651
0.939300 0.960906 0.964111
