其他预设/【233】日式怀旧街道调色预设208款/1.3D LUT预设（视频调色-PR-AE-PS-FCPX-达芬奇用）/2.富士胶片风-日式城市街拍预设/JA – Subdued 1 (Classic Chrome).cube
# Created by Adobe Lightroom plugin Export LUT (1.17.0)
# www.johnrellis.com/lightroom/exportlut.htm
# Preset: JA – Subdued 1 (Classic Chrome)
# Color profile: /Library/Application Support/Adobe/Color/Profiles/Recommended/AdobeRGB1998.icc
LUT_3D_SIZE 32
0.107851 0.103517 0.100435
0.107851 0.103517 0.100435
0.107851 0.103517 0.100435
0.113893 0.102937 0.100771
0.129702 0.100954 0.101625
0.147921 0.097749 0.102358
0.174289 0.090578 0.102419
0.213291 0.081483 0.101076
0.262547 0.068025 0.098177
0.316625 0.045014 0.093660
0.371801 0.005737 0.087312
0.425513 0.000000 0.078340
0.477424 0.000000 0.066468
0.527642 0.000000 0.043610
0.575494 0.000000 0.002106
0.621149 0.022980 0.000000
0.664881 0.054658 0.000000
0.706600 0.071321 0.000000
0.745418 0.082918 0.000000
0.781430 0.088624 0.000000
0.818540 0.092134 0.000000
0.853361 0.095216 0.000000
0.886198 0.097597 0.000000
0.917205 0.099733 0.000000
0.946075 0.101076 0.000000
0.972747 0.102480 0.000000
0.997040 0.103914 0.000000
1.000000 0.105043 0.000000
1.000000 0.105257 0.000000
1.000000 0.104341 0.000000
1.000000 0.102724 0.000000
1.000000 0.105989 0.000000
0.107851 0.103517 0.100435
0.107851 0.103517 0.100435
0.107851 0.103517 0.100435
0.114687 0.102785 0.100771
0.130068 0.101106 0.101839
0.148470 0.097871 0.102327
0.175784 0.093874 0.101625
0.214603 0.087312 0.100374
0.262821 0.077516 0.097597
0.316808 0.065888 0.092927
0.371649 0.049073 0.086366
0.425147 0.028809 0.077211
0.476936 0.021149 0.065034
0.526940 0.030732 0.039673
0.574670 0.050507 0.000000
0.620233 0.066285 0.000000
0.663783 0.077150 0.000000
0.705470 0.088075 0.000000
0.744289 0.097017 0.000000
0.780301 0.101076 0.000000
0.817197 0.103853 0.000000
0.851743 0.105989 0.000000
0.884459 0.107790 0.000000
0.915435 0.109194 0.000000
0.944396 0.110567 0.000000
0.971252 0.111788 0.000000
0.995758 0.112490 0.000000
1.000000 0.113100 0.000000
1.000000 0.113527 0.000000
1.000000 0.112123 0.000000
1.000000 0.110170 0.000000
1.000000 0.112337 0.000000
0.107851 0.103517 0.100435
0.107851 0.103517 0.100435
0.107851 0.103517 0.100435
0.115602 0.103120 0.100954
0.131319 0.102419 0.101198
0.149905 0.101503 0.101503
0.177157 0.098939 0.100954
0.215396 0.095186 0.099733
0.263737 0.089113 0.096742
0.317388 0.082033 0.091859
0.372015 0.075319 0.085054
0.425391 0.071199 0.075471
0.477089 0.069886 0.062684
0.527062 0.074647 0.033356
0.574578 0.082368 0.000000
0.620203 0.089235 0.000000
0.663661 0.098634 0.000000
0.705196 0.106600 0.000000
0.743954 0.112551 0.000000
0.780117 0.115572 0.000000
0.816831 0.117830 0.000000
0.851164 0.118990 0.000000
0.883787 0.120821 0.000000
0.914702 0.121523 0.000000
0.943664 0.122591 0.000000
0.970550 0.123049 0.000000
0.995117 0.123354 0.000000
1.000000 0.123751 0.000000
1.000000 0.123537 0.000000
1.000000 0.122072 0.000000
1.000000 0.119448 0.000000
1.000000 0.120851 0.000000
0.108919 0.109895 0.101045
0.108766 0.110628 0.101228
0.108949 0.111299 0.101137
0.117342 0.111971 0.100832
0.132387 0.112154 0.100557
0.151705 0.111574 0.100557
0.179507 0.111391 0.099733
0.218540 0.110780 0.097932
0.266758 0.109834 0.094697
0.320226 0.108583 0.089204
0.374426 0.108034 0.081636
0.427436 0.108370 0.071138
0.478706 0.110597 0.055482
0.528313 0.114961 0.018524
0.575708 0.119753 0.000000
0.620996 0.125856 0.000000
0.664271 0.131716 0.000000
0.705592 0.136934 0.000000
0.743893 0.139620 0.000000
0.780392 0.140993 0.000000
0.816434 0.142306 0.000000
0.850309 0.143038 0.000000
0.882811 0.143862 0.000000
0.913817 0.144015 0.000000
0.943114 0.144472 0.000000
0.970306 0.144198 0.000000
0.995056 0.143984 0.000000
1.000000 0.143832 0.000000
1.000000 0.143160 0.000000
1.000000 0.141604 0.000000
1.000000 0.138552 0.000000
1.000000 0.138338 0.000000
0.110109 0.122866 0.101900
0.110262 0.123262 0.102083
0.112337 0.123354 0.102022
0.120058 0.122774 0.102327
0.131991 0.124300 0.100801
0.152499 0.126406 0.099275
0.183413 0.129183 0.097688
0.223056 0.132845 0.095216
0.271336 0.136507 0.090944
0.324163 0.140810 0.084657
0.377813 0.143648 0.075624
0.430335 0.147250 0.063539
0.481209 0.151278 0.035950
0.530449 0.155947 0.000000
0.577600 0.160220 0.000000
0.622766 0.165164 0.000000
0.665980 0.169192 0.000000
0.706935 0.171237 0.000000
0.745083 0.172000 0.000000
0.782010 0.172580 0.000000
0.817319 0.173037 0.000000
0.850797 0.173373 0.000000
0.882933 0.173312 0.000000
0.913817 0.173037 0.000000
0.943023 0.172549 0.000000
0.970153 0.172000 0.000000
0.994842 0.171206 0.000000
1.000000 0.169772 0.000000
1.000000 0.168490 0.000000
1.000000 0.166690 0.000000
1.000000 0.162692 0.000000
1.000000 0.161349 0.000000
0.111208 0.137301 0.102663
0.112978 0.137453 0.102846
0.116548 0.137148 0.102754
0.124056 0.136446 0.102846
0.134676 0.137362 0.102113
0.150607 0.140383 0.099947
0.181765 0.148623 0.095583
0.225101 0.157931 0.091585
0.278599 0.167941 0.085267
0.331090 0.175601 0.076967
0.383948 0.181796 0.065919
0.435767 0.187472 0.044007
0.486030 0.192416 0.003601
0.534661 0.197269 0.000000
0.581415 0.201297 0.000000
0.626032 0.204196 0.000000
0.668635 0.205722 0.000000
0.709316 0.206851 0.000000
0.747066 0.206973 0.000000
0.784634 0.207492 0.000000
0.819394 0.207248 0.000000
0.852628 0.206516 0.000000
0.896666 0.208774 0.000000
0.926787 0.208011 0.000000
0.954650 0.206943 0.000000
0.980163 0.205264 0.000000
1.000000 0.203677 0.000000
1.000000 0.201389 0.000000
1.000000 0.199161 0.000000
1.000000 0.196323 0.000000
1.000000 0.192630 0.000000
1.000000 0.190219 0.000000
0.116121 0.157717 0.102541
0.119112 0.157534 0.102480
0.122957 0.157046 0.102632
0.130953 0.156039 0.102754
0.141939 0.155428 0.102419
0.157565 0.159762 0.100221
0.179568 0.165591 0.097017
0.220951 0.180240 0.089693
0.277348 0.197635 0.079042
0.337011 0.212406 0.066041
0.396399 0.224125 0.037659
0.447425 0.230655 0.000000
0.496773 0.236027 0.000000
0.544244 0.239597 0.000000
0.589715 0.241855 0.000000
0.633173 0.243442 0.000000
0.675044 0.244511 0.000000
0.715084 0.244816 0.000000
0.753811 0.244907 0.000000
0.791073 0.244633 0.000000
0.826047 0.244144 0.000000
0.860044 0.243107 0.000000
0.892912 0.242283 0.000000
0.924163 0.241093 0.000000
0.953094 0.239628 0.000000
0.979187 0.237583 0.000000
1.000000 0.235294 0.000000
1.000000 0.232486 0.000000
1.000000 0.229221 0.000000
1.000000 0.225650 0.000000
1.000000 0.221286 0.000000
1.000000 0.217563 0.000000
0.124727 0.183230 0.100771
0.127932 0.182864 0.100954
0.131960 0.182315 0.100923
0.140230 0.180941 0.101076
0.151705 0.179080 0.101137
0.167208 0.182620 0.099367
0.188876 0.189548 0.095705
0.216709 0.198215 0.090547
0.263706 0.216464 0.080262
0.327825 0.239536 0.059205
0.387640 0.255070 0.018402
0.447333 0.267216 0.000000
0.502373 0.275181 0.000000
0.549126 0.278752 0.000000
0.594110 0.281041 0.000000
0.637049 0.282444 0.000000
0.678492 0.282994 0.000000
0.718807 0.283238 0.000000
0.757595 0.283085 0.000000
0.793637 0.282017 0.000000
0.827726 0.280522 0.000000
0.861082 0.279149 0.000000
0.893431 0.277745 0.000000
0.924254 0.275914 0.000000
0.952880 0.273716 0.000000
0.978759 0.271153 0.000000
1.000000 0.268132 0.000000
1.000000 0.264561 0.000000
1.000000 0.260655 0.000000
1.000000 0.256138 0.000000
1.000000 0.251164 0.000000
1.000000 0.246067 0.000000
0.133944 0.216556 0.099550
0.137362 0.216129 0.099489
0.141909 0.215457 0.099458
0.151095 0.213870 0.099641
0.163943 0.211643 0.099763
0.178744 0.210178 0.099306
0.200198 0.217655 0.095735
0.227359 0.226871 0.090883
0.260410 0.237766 0.083619
0.309361 0.256352 0.069581
0.376837 0.281682 0.011444
0.436011 0.296818 0.000000
0.494545 0.308934 0.000000
0.551873 0.318120 0.000000
0.599908 0.321843 0.000000
0.642390 0.322820 0.000000
0.683833 0.323217 0.000000
0.724941 0.323644 0.000000
0.762173 0.322301 0.000000
0.797086 0.320500 0.000000
0.830381 0.318425 0.000000
0.863127 0.316228 0.000000
0.894926 0.314092 0.000000
0.925261 0.311772 0.000000
0.953460 0.309056 0.000000
0.978973 0.305608 0.000000
1.000000 0.301884 0.000000
1.000000 0.297704 0.000000
1.000000 0.292882 0.000000
1.000000 0.287602 0.000000
1.000000 0.281621 0.000000
1.000000 0.275578 0.000000
0.144533 0.254673 0.096437
0.148074 0.254124 0.096437
0.153048 0.253361 0.096407
0.162936 0.251469 0.096681
0.176638 0.248814 0.096651
0.192355 0.245090 0.096956
0.212222 0.248081 0.094636
0.238621 0.257237 0.089052
0.270146 0.267948 0.081727
0.306920 0.280217 0.070649
0.353979 0.296056 0.046479
0.421912 0.321904 0.000000
0.481270 0.337346 0.000000
0.538689 0.349126 0.000000
0.594629 0.358099 0.000000
0.649500 0.364996 0.000000
0.692287 0.365972 0.000000
0.731930 0.365209 0.000000
0.767880 0.363104 0.000000
0.801633 0.360113 0.000000
0.834043 0.357183 0.000000
0.865782 0.354192 0.000000
0.896666 0.351263 0.000000
0.926116 0.348119 0.000000
0.953643 0.344579 0.000000
0.978820 0.340612 0.000000
1.000000 0.336126 0.000000
1.000000 0.331182 0.000000
1.000000 0.325658 0.000000
1.000000 0.319463 0.000000
1.000000 0.312749 0.000000
1.000000 0.305608 0.000000
0.155856 0.294255 0.092073
0.159670 0.293584 0.092103
0.164920 0.292729 0.092134
0.175326 0.290867 0.092164
0.189670 0.287907 0.092256
0.206241 0.284031 0.092683
0.224033 0.279393 0.092866
0.249393 0.288212 0.087312
0.279454 0.298405 0.079194
0.314031 0.310002 0.067720
0.352819 0.322606 0.043214
0.396918 0.335241 0.000000
0.463783 0.360510 0.000000
0.524376 0.377111 0.000000
0.582177 0.389593 0.000000
0.637934 0.398810 0.000000
0.691646 0.405402 0.000000
0.738094 0.407538 0.000000
0.772793 0.404150 0.000000
0.805539 0.400244 0.000000
0.837308 0.396338 0.000000
0.868498 0.392645 0.000000
0.898894 0.389075 0.000000
0.927825 0.385199 0.000000
0.954864 0.381079 0.000000
0.979522 0.376287 0.000000
1.000000 0.371008 0.000000
1.000000 0.365240 0.000000
1.000000 0.358892 0.000000
1.000000 0.351843 0.000000
1.000000 0.344213 0.000000
1.000000 0.336065 0.000000
0.168093 0.333654 0.087190
0.172061 0.333074 0.087221
0.177096 0.332128 0.087282
0.187503 0.330144 0.087434
0.202365 0.327123 0.087617
0.219486 0.323217 0.087587
0.237888 0.318181 0.088045
0.259464 0.318456 0.085359
0.287755 0.328099 0.077424
0.320378 0.338933 0.065522
0.356786 0.350927 0.038087
0.397070 0.363897 0.000000
0.448280 0.382086 0.000000
0.515221 0.407324 0.000000
0.578515 0.425574 0.000000
0.635096 0.436896 0.000000
0.689479 0.445106 0.000000
0.739590 0.449653 0.000000
0.784085 0.450233 0.000000
0.819211 0.446448 0.000000
0.849699 0.441077 0.000000
0.879545 0.436011 0.000000
0.908324 0.430976 0.000000
0.935729 0.425879 0.000000
0.961303 0.420325 0.000000
0.984588 0.414527 0.000000
1.000000 0.408118 0.000000
1.000000 0.401190 0.000000
1.000000 0.393713 0.000000
1.000000 0.385565 0.000000
1.000000 0.376776 0.000000
1.000000 0.367529 0.000000
0.182101 0.374151 0.082795
0.185733 0.373571 0.082826
0.190982 0.372412 0.082734
0.201205 0.370336 0.082704
0.215488 0.366979 0.082918
0.232609 0.362554 0.082979
0.251347 0.357305 0.083406
0.270359 0.351049 0.083742
0.296208 0.357336 0.076997
0.327001 0.367926 0.065461
0.362799 0.380865 0.037324
0.402838 0.395178 0.000000
0.446662 0.410529 0.000000
0.490150 0.421332 0.000000
0.554253 0.444526 0.000000
0.617609 0.463294 0.000000
0.672511 0.473762 0.000000
0.724025 0.480598 0.000000
0.770199 0.483101 0.000000
0.812253 0.482795 0.000000
0.851987 0.481239 0.000000
0.881895 0.475471 0.000000
0.910063 0.469642 0.000000
0.936889 0.463661 0.000000
0.961852 0.457374 0.000000
0.984680 0.450660 0.000000
1.000000 0.443427 0.000000
1.000000 0.435706 0.000000
1.000000 0.427344 0.000000
1.000000 0.418341 0.000000
1.000000 0.408606 0.000000
1.000000 0.398474 0.000000
0.195621 0.410040 0.080903
0.199313 0.409247 0.081056
0.203861 0.408301 0.080934
0.213657 0.406195 0.081025
0.227604 0.402869 0.080751
0.244205 0.398474 0.080995
0.262699 0.393194 0.081056
0.282139 0.387488 0.080995
0.303624 0.384588 0.079255
0.333227 0.395453 0.068208
0.366644 0.407538 0.046662
0.403845 0.420905 0.000000
0.444526 0.435218 0.000000
0.488533 0.450172 0.000000
0.529229 0.458381 0.000000
0.590143 0.479561 0.000000
0.652766 0.498054 0.000000
0.706142 0.507836 0.000000
0.754391 0.512902 0.000000
0.798154 0.514549 0.000000
0.839170 0.514153 0.000000
0.878080 0.512566 0.000000
0.912261 0.508812 0.000000
0.938537 0.502007 0.000000
0.962951 0.494881 0.000000
0.985260 0.487282 0.000000
1.000000 0.479164 0.000000
1.000000 0.470558 0.000000
1.000000 0.461372 0.000000
1.000000 0.451423 0.000000
1.000000 0.440864 0.000000
1.000000 0.429694 0.000000
0.210086 0.445380 0.082277
0.213443 0.444831 0.082368
0.218051 0.443885 0.081941
0.227268 0.441932 0.081727
0.240604 0.438849 0.081453
0.256748 0.434791 0.081392
0.274907 0.429908 0.080873
0.294102 0.423865 0.080659
0.313481 0.417182 0.080232
0.338598 0.420874 0.073854
0.369757 0.432258 0.059632
0.404486 0.444800 0.019898
0.442481 0.458412 0.000000
0.483558 0.472633 0.000000
0.527367 0.487221 0.000000
0.565606 0.493233 0.000000
0.623407 0.512261 0.000000
0.684443 0.530083 0.000000
0.736843 0.539635 0.000000
0.782834 0.543755 0.000000
0.825162 0.544945 0.000000
0.865354 0.544671 0.000000
0.902953 0.542809 0.000000
0.937224 0.539269 0.000000
0.964111 0.532494 0.000000
0.985962 0.524071 0.000000
1.000000 0.515190 0.000000
1.000000 0.505760 0.000000
1.000000 0.495796 0.000000
1.000000 0.484932 0.000000
1.000000 0.473396 0.000000
1.000000 0.461402 0.000000
0.225895 0.480720 0.087343
0.229099 0.480140 0.087434
0.233127 0.479255 0.087373
0.241825 0.477394 0.086641
0.254337 0.474281 0.086275
0.269718 0.470344 0.085512
0.287144 0.465400 0.084688
0.305699 0.459632 0.084016
0.324956 0.452796 0.082765
0.344305 0.445472 0.081575
0.373510 0.456092 0.070710
0.405798 0.467903 0.051209
0.440955 0.480354 0.001404
0.479072 0.493599 0.000000
0.519707 0.507195 0.000000
0.562829 0.521233 0.000000
0.598932 0.525505 0.000000
0.654047 0.542992 0.000000
0.714321 0.560662 0.000000
0.766110 0.570123 0.000000
0.810422 0.573693 0.000000
0.852354 0.575158 0.000000
0.891600 0.574792 0.000000
0.927550 0.572442 0.000000
0.959472 0.567956 0.000000
0.986877 0.561364 0.000000
1.000000 0.551720 0.000000
1.000000 0.541344 0.000000
1.000000 0.530297 0.000000
1.000000 0.518425 0.000000
1.000000 0.505852 0.000000
1.000000 0.492927 0.000000
0.241550 0.513176 0.096437
0.244358 0.512535 0.096071
0.248112 0.511620 0.096071
0.255894 0.509728 0.095277
0.267491 0.506828 0.094728
0.282017 0.502922 0.093690
0.298497 0.498054 0.092348
0.316320 0.492256 0.090669
0.334874 0.485512 0.089052
0.353674 0.477852 0.087037
0.376349 0.477577 0.082307
0.406683 0.488685 0.070069
0.439612 0.500725 0.048280
0.475257 0.513329 0.000000
0.513481 0.526452 0.000000
0.553826 0.539879 0.000000
0.596582 0.553552 0.000000
0.631098 0.556756 0.000000
0.684413 0.573388 0.000000
0.742794 0.590112 0.000000
0.793606 0.599084 0.000000
0.837095 0.602594 0.000000
0.878141 0.604028 0.000000
0.916014 0.603296 0.000000
0.949828 0.600122 0.000000
0.979065 0.594476 0.000000
1.000000 0.586572 0.000000
1.000000 0.576562 0.000000
1.000000 0.564538 0.000000
1.000000 0.551659 0.000000
1.000000 0.538201 0.000000
1.000000 0.524376 0.000000
0.257237 0.544396 0.107942
0.260105 0.543908 0.107546
0.267002 0.549584 0.110628
0.274296 0.547662 0.109865
0.284977 0.544671 0.108705
0.298283 0.540673 0.107179
0.313939 0.535637 0.105196
0.330724 0.529717 0.102754
0.348638 0.522881 0.100496
0.367071 0.515129 0.097688
0.385138 0.506432 0.094636
0.412055 0.513725 0.086854
0.443153 0.525078 0.075441
0.476814 0.537255 0.057801
0.512840 0.549859 0.004517
0.551049 0.562829 0.000000
0.591577 0.576226 0.000000
0.634211 0.589807 0.000000
0.667445 0.591760 0.000000
0.717952 0.606500 0.000000
0.773404 0.621302 0.000000
0.823606 0.629755 0.000000
0.866300 0.633082 0.000000
0.905730 0.633875 0.000000
0.940978 0.631861 0.000000
0.971588 0.627070 0.000000
0.997253 0.619654 0.000000
1.000000 0.610040 0.000000
1.000000 0.598322 0.000000
1.000000 0.584741 0.000000
1.000000 0.570336 0.000000
1.000000 0.555596 0.000000
0.274601 0.576684 0.122164
0.277348 0.577020 0.122560
0.281071 0.577020 0.122499
0.288090 0.576135 0.122286
0.298314 0.573938 0.121309
0.310826 0.570489 0.119814
0.325505 0.565850 0.117464
0.341650 0.560266 0.114931
0.358862 0.553796 0.111757
0.376471 0.546349 0.108583
0.394263 0.538018 0.104646
0.414191 0.533471 0.099916
0.443610 0.544518 0.091981
0.475349 0.556207 0.080446
0.509392 0.568444 0.064149
0.545617 0.581170 0.017456
0.584070 0.594232 0.000000
0.624537 0.607630 0.000000
0.667262 0.621424 0.000000
0.699031 0.622492 0.000000
0.745907 0.634638 0.000000
0.799496 0.648493 0.000000
0.849210 0.657130 0.000000
0.892058 0.660670 0.000000
0.929656 0.660639 0.000000
0.962463 0.657465 0.000000
0.990112 0.651209 0.000000
1.000000 0.642298 0.000000
1.000000 0.630915 0.000000
1.000000 0.617273 0.000000
1.000000 0.602228 0.000000
1.000000 0.586725 0.000000
0.290929 0.606714 0.136446
0.293584 0.606989 0.136812
0.297032 0.607111 0.136690
0.303380 0.606256 0.136324
0.312779 0.604211 0.135348
0.324529 0.600977 0.133516
0.338231 0.596612 0.131319
0.353460 0.591302 0.128267
0.369909 0.585199 0.124758
0.387030 0.578149 0.120851
0.404547 0.570275 0.116640
0.421820 0.561456 0.111757
0.446052 0.564935 0.105959
0.476173 0.576349 0.098054
0.508537 0.588312 0.087770
0.542992 0.600763 0.072694
0.579553 0.613611 0.039094
0.618128 0.626856 0.000000
0.658686 0.640314 0.000000
0.700923 0.653651 0.000000
0.730556 0.652979 0.000000
0.773678 0.662684 0.000000
0.826291 0.676173 0.000000
0.875212 0.684657 0.000000
0.917388 0.687617 0.000000
0.952575 0.686305 0.000000
0.982300 0.681483 0.000000
1.000000 0.673487 0.000000
1.000000 0.662593 0.000000
1.000000 0.649073 0.000000
1.000000 0.633692 0.000000
1.000000 0.617517 0.000000
0.307988 0.637629 0.151705
0.310460 0.637934 0.151827
0.313512 0.638025 0.152041
0.319646 0.637232 0.151583
0.328313 0.635309 0.150423
0.339300 0.632288 0.148653
0.351995 0.628260 0.145937
0.366491 0.623224 0.142977
0.382177 0.617426 0.139284
0.398779 0.610803 0.134890
0.415717 0.603326 0.130220
0.432898 0.594965 0.125246
0.450141 0.586419 0.119142
0.478920 0.597589 0.113649
0.509819 0.609430 0.106477
0.542931 0.621820 0.096986
0.578119 0.634791 0.084291
0.615320 0.648127 0.065461
0.654170 0.661433 0.011719
0.694545 0.674586 0.000000
0.736172 0.687465 0.000000
0.764187 0.685512 0.000000
0.804685 0.693324 0.000000
0.856626 0.706752 0.000000
0.904204 0.714473 0.000000
0.944732 0.715969 0.000000
0.976410 0.712612 0.000000
1.000000 0.705531 0.000000
1.000000 0.694911 0.000000
1.000000 0.681270 0.000000
1.000000 0.665553 0.000000
1.000000 0.648829 0.000000
0.328069 0.672999 0.170260
0.330205 0.672908 0.170413
0.332616 0.672602 0.170016
0.338048 0.671412 0.169192
0.345922 0.669337 0.167880
0.356085 0.666377 0.165896
0.368139 0.662562 0.163272
0.381872 0.657923 0.160098
0.397101 0.652644 0.156374
0.413214 0.646540 0.151888
0.430030 0.639765 0.147250
0.447089 0.632044 0.141634
0.463966 0.623377 0.135409
0.485786 0.623041 0.130007
0.515404 0.634607 0.125063
0.547204 0.646754 0.118502
0.580682 0.659083 0.110842
0.615839 0.671565 0.100862
0.652522 0.683986 0.087373
0.690547 0.696223 0.068788
0.729732 0.708156 0.016724
0.769894 0.719661 0.000000
0.795804 0.716091 0.000000
0.834867 0.722927 0.000000
0.884276 0.734890 0.000000
0.929412 0.741115 0.000000
0.967529 0.740383 0.000000
0.995361 0.734768 0.000000
1.000000 0.725124 0.000000
1.000000 0.711757 0.000000
1.000000 0.695796 0.000000
1.000000 0.678706 0.000000
0.347204 0.705287 0.188724
0.349126 0.705257 0.188754
0.351385 0.705074 0.188602
0.356451 0.704036 0.187686
0.363836 0.702235 0.186374
0.373266 0.699550 0.184237
0.384680 0.696132 0.181369
0.397589 0.692012 0.178012
0.412238 0.687221 0.174166
0.427924 0.681758 0.169863
0.444404 0.675593 0.164889
0.461311 0.668666 0.159274
0.478340 0.660853 0.152987
0.495277 0.652033 0.145937
0.522118 0.660212 0.142061
0.552361 0.671687 0.138186
0.584222 0.683314 0.133425
0.617609 0.695064 0.127443
0.652399 0.706752 0.120882
0.688563 0.718379 0.111727
0.725765 0.729732 0.100221
0.764248 0.740963 0.083711
0.803952 0.752102 0.055116
0.828733 0.747738 0.052979
0.864439 0.751827 0.056947
0.910765 0.761929 0.000000
0.952880 0.766110 0.000000
0.987121 0.762753 0.000000
1.000000 0.754086 0.000000
1.000000 0.741299 0.000000
1.000000 0.725307 0.000000
1.000000 0.707912 0.000000
0.369238 0.740352 0.212070
0.371038 0.740475 0.212131
0.373297 0.740200 0.211917
0.377722 0.739254 0.211032
0.384558 0.737484 0.209323
0.393256 0.735042 0.207034
0.403845 0.731868 0.204135
0.416083 0.728023 0.200656
0.429877 0.723568 0.196475
0.444862 0.718532 0.191928
0.460853 0.712856 0.186679
0.477516 0.706569 0.180911
0.494545 0.699611 0.174441
0.511620 0.691829 0.167178
0.531273 0.687953 0.160678
0.559686 0.698116 0.158450
0.589532 0.708522 0.155703
0.620966 0.719112 0.152529
0.653864 0.729885 0.148440
0.688136 0.740780 0.143282
0.723781 0.751827 0.137087
0.760708 0.762783 0.128847
0.798611 0.773526 0.117403
0.837400 0.783749 0.100252
0.860319 0.777981 0.098695
0.895384 0.781918 0.108827
0.937743 0.789334 0.085573
0.975311 0.790372 0.000000
1.000000 0.783352 0.000000
1.000000 0.770413 0.000000
1.000000 0.754452 0.000000
1.000000 0.736629 0.000000
0.390356 0.772366 0.234958
0.392096 0.772488 0.235080
0.394171 0.772335 0.234867
0.398413 0.771481 0.234073
0.404639 0.769986 0.232609
0.412818 0.767910 0.230503
0.422919 0.765225 0.227817
0.434577 0.762051 0.224552
0.447883 0.758328 0.220798
0.462562 0.754177 0.216617
0.478187 0.749569 0.211795
0.494850 0.744381 0.206516
0.512078 0.738674 0.200443
0.529656 0.732265 0.193759
0.547387 0.725185 0.186374
0.571344 0.728725 0.183078
0.599725 0.738186 0.182132
0.629572 0.747860 0.180880
0.660883 0.757931 0.178897
0.693690 0.768338 0.176455
0.727810 0.778805 0.173312
0.763088 0.789242 0.168612
0.799313 0.799374 0.161990
0.836240 0.809079 0.152956
0.873777 0.818143 0.140597
0.894957 0.811002 0.139406
0.926329 0.811978 0.151400
0.963531 0.815915 0.144320
0.995239 0.812894 0.103548
1.000000 0.801236 0.000000
1.000000 0.783413 0.000000
1.000000 0.765194 0.000000
0.414618 0.806851 0.262455
0.416205 0.806851 0.262516
0.418036 0.806638 0.262211
0.421851 0.805814 0.261357
0.427466 0.804410 0.259861
0.435096 0.802487 0.257755
0.444404 0.800107 0.255161
0.455421 0.797299 0.252140
0.468147 0.794095 0.248692
0.482216 0.790585 0.244846
0.497536 0.786679 0.240604
0.513909 0.782467 0.235843
0.531090 0.777737 0.230655
0.548821 0.772549 0.224765
0.566888 0.766751 0.218235
0.585718 0.761349 0.211551
0.612696 0.770047 0.211521
0.641199 0.779049 0.211307
0.671107 0.788449 0.210727
0.702358 0.798123 0.209934
0.734951 0.807889 0.208225
0.768490 0.817563 0.205905
0.802853 0.826841 0.202213
0.837766 0.835599 0.196994
0.873136 0.843778 0.189487
0.908751 0.851133 0.179599
0.928191 0.842679 0.178134
0.954650 0.839780 0.191135
0.985138 0.839170 0.192905
1.000000 0.831174 0.166629
1.000000 0.814725 0.104189
1.000000 0.793027 0.000000
0.440925 0.842222 0.293187
0.442329 0.842191 0.293156
0.444129 0.841978 0.292851
0.447578 0.841367 0.292149
0.453101 0.840330 0.290867
0.460487 0.839048 0.289403
0.469734 0.837552 0.287724
0.480690 0.835874 0.285679
0.493477 0.833951 0.283604
0.507713 0.831846 0.281041
0.523217 0.829496 0.278386
0.539849 0.826810 0.275059
0.557427 0.823697 0.271458
0.575677 0.820096 0.267216
0.594415 0.815946 0.262181
0.613397 0.811215 0.256504
0.635950 0.812253 0.253758
0.663050 0.820401 0.254582
0.691463 0.828794 0.255314
0.721004 0.837278 0.255680
0.751553 0.845670 0.255741
0.782956 0.853880 0.255222
0.814847 0.861601 0.253513
0.847196 0.868681 0.250614
0.879728 0.875120 0.246525
0.912413 0.880766 0.240452
0.945190 0.885649 0.232456
0.961883 0.875181 0.230045
0.981903 0.867399 0.243809
1.000000 0.860533 0.252537
1.000000 0.846220 0.234653
1.000000 0.826078 0.190127
0.475074 0.882719 0.334997
0.476356 0.882689 0.335058
0.477882 0.882444 0.334783
0.481056 0.881895 0.334051
0.486030 0.880949 0.332769
0.492683 0.879789 0.331304
0.501122 0.878447 0.329564
0.511284 0.876921 0.327581
0.523064 0.875212 0.325505
0.536400 0.873381 0.323308
0.551049 0.871275 0.320562
0.566979 0.869017 0.317845
0.583917 0.866484 0.314672
0.601770 0.863615 0.311254
0.620386 0.860472 0.307317
