其他预设/【233】日式怀旧街道调色预设208款/1.3D LUT预设（视频调色-PR-AE-PS-FCPX-达芬奇用）/2.富士胶片风-日式城市街拍预设/JA – Night Pop 1 (Classic Chrome).cube
# Created by Adobe Lightroom plugin Export LUT (1.17.0)
# www.johnrellis.com/lightroom/exportlut.htm
# Preset: JA – Night Pop 1 (Classic Chrome)
# Color profile: /Library/Application Support/Adobe/Color/Profiles/Recommended/AdobeRGB1998.icc
LUT_3D_SIZE 5
DOMAIN_MIN 0.000000 0.000000 0.000000
DOMAIN_MAX 0.903226 0.903226 0.903226
0.073457 0.079805 0.085969
0.291966 0.000000 0.076783
0.791409 0.000000 0.000000
1.000000 0.000000 0.000000
1.000000 0.000000 0.000000
0.000000 0.200839 0.068788
0.182132 0.174899 0.095888
0.744808 0.308537 0.000000
1.000000 0.252354 0.000000
1.000000 0.148348 0.000000
0.000000 0.646845 0.000000
0.246952 0.641901 0.000000
0.613062 0.556268 0.050477
0.943511 0.646845 0.463355
1.000000 0.588434 0.440406
0.000000 0.943908 0.000000
0.000000 0.940093 0.000000
0.616114 0.904051 0.000000
0.884398 0.796902 0.344091
1.000000 0.846616 0.715846
0.000000 1.000000 0.000000
0.000000 1.000000 0.000000
0.415442 1.000000 0.000000
0.826413 1.000000 0.310948
1.000000 0.960540 0.710109
0.000000 0.084138 0.226108
0.197116 0.000000 0.217227
0.731106 0.000000 0.139193
1.000000 0.000000 0.000000
1.000000 0.000000 0.000000
0.000000 0.203738 0.230381
0.169406 0.182925 0.196933
0.725338 0.187076 0.132937
1.000000 0.159091 0.000000
1.000000 0.075410 0.000000
0.000000 0.637995 0.358770
0.000000 0.631434 0.209110
0.568048 0.527276 0.249821
0.925231 0.622156 0.463233
1.000000 0.557031 0.395361
0.000000 0.940887 0.348913
0.000000 0.938476 0.234012
0.590143 0.904601 0.215000
0.871275 0.793362 0.427588
1.000000 0.841123 0.710140
0.000000 1.000000 0.193393
0.000000 1.000000 0.047883
0.406897 1.000000 0.145907
0.821225 1.000000 0.341741
1.000000 0.962280 0.713466
0.000000 0.095460 0.705684
0.000000 0.000000 0.690150
0.626062 0.000000 0.635035
0.986084 0.000000 0.549126
1.000000 0.000000 0.433692
0.000000 0.345983 0.716457
0.000000 0.266758 0.695949
0.619104 0.000000 0.631312
0.974640 0.000000 0.538415
1.000000 0.000000 0.427283
0.000000 0.658289 0.701534
0.000000 0.650599 0.689357
0.538476 0.554620 0.578668
0.944091 0.567803 0.577630
1.000000 0.461189 0.450233
0.000000 0.931823 0.660365
0.000000 0.928527 0.630213
0.547845 0.890593 0.630976
0.844419 0.798062 0.632502
1.000000 0.856901 0.782162
0.000000 1.000000 0.532494
0.000000 1.000000 0.507927
0.407568 1.000000 0.568811
0.812863 1.000000 0.612482
1.000000 0.958831 0.744808
0.000000 0.149599 0.932982
0.000000 0.136873 0.932433
0.439094 0.000000 0.907073
0.911986 0.000000 0.876585
1.000000 0.022644 0.749752
0.000000 0.318212 0.933898
0.000000 0.319249 0.931914
0.423682 0.175174 0.908263
0.899809 0.000000 0.868132
1.000000 0.304784 0.754299
0.000000 0.601404 0.929992
0.000000 0.606500 0.928588
0.586419 0.672999 0.906340
0.868650 0.533928 0.850401
1.000000 0.578607 0.773678
0.000000 0.879728 0.917357
0.000000 0.883604 0.913878
0.418189 0.881895 0.900084
0.807767 0.803891 0.811856
1.000000 0.804715 0.804074
0.000000 1.000000 0.808164
0.000000 1.000000 0.800168
0.000000 1.000000 0.753140
0.825071 1.000000 0.845914
0.995392 0.963043 0.852689
0.000000 0.294041 1.000000
0.000000 0.293919 1.000000
0.000000 0.000000 1.000000
0.648951 0.000000 1.000000
1.000000 0.000000 1.000000
0.000000 0.295079 1.000000
0.000000 0.300328 1.000000
0.119234 0.290105 1.000000
0.642023 0.000000 1.000000
1.000000 0.000000 1.000000
0.000000 0.516594 1.000000
0.000000 0.515160 1.000000
0.456275 0.633082 1.000000
0.705348 0.563409 1.000000
1.000000 0.531579 0.996582
0.000000 0.713497 1.000000
0.000000 0.714046 1.000000
0.000000 0.707240 1.000000
0.856901 0.882689 0.997375
1.000000 0.814267 0.988861
0.000000 0.946807 1.000000
0.000000 0.950713 1.000000
0.000000 0.965667 1.000000
0.671565 0.982086 0.996918
0.979461 0.976379 0.975952
