其他预设/【233】日式怀旧街道调色预设208款/1.3D LUT预设（视频调色-PR-AE-PS-FCPX-达芬奇用）/2.富士胶片风-日式城市街拍预设/JA – Gritty Contrast 4 (Classic Chrome).cube
# Created by Adobe Lightroom plugin Export LUT (1.17.0)
# www.johnrellis.com/lightroom/exportlut.htm
# Preset: JA – Gritty Contrast 4 (Classic Chrome)
# Color profile: /Library/Application Support/Adobe/Color/Profiles/Recommended/AdobeRGB1998.icc
LUT_3D_SIZE 5
DOMAIN_MIN 0.000000 0.000000 0.000000
DOMAIN_MAX 0.903226 0.903226 0.903226
0.070192 0.076143 0.083955
0.197848 0.035798 0.096864
0.543297 0.000000 0.063966
0.802884 0.000000 0.000000
1.000000 0.000000 0.005982
0.100343 0.161013 0.108888
0.190066 0.166262 0.114565
0.594202 0.222568 0.058045
0.829496 0.087739 0.000000
1.000000 0.000000 0.000000
0.203189 0.373236 0.099763
0.288487 0.374426 0.095766
0.572198 0.446387 0.082094
0.851072 0.499550 0.270298
1.000000 0.420050 0.266850
0.344488 0.651545 0.064607
0.417609 0.645777 0.056886
0.610773 0.655360 0.060029
0.834104 0.652491 0.250431
0.970916 0.747616 0.594354
0.507225 0.869413 0.343420
0.555718 0.867216 0.347021
0.698207 0.861784 0.364508
0.881590 0.872648 0.438239
0.974578 0.831632 0.590967
0.101869 0.122255 0.199527
0.164492 0.133486 0.200839
0.483711 0.000000 0.212253
0.795041 0.000000 0.138155
1.000000 0.000000 0.006958
0.093660 0.174166 0.199527
0.183078 0.196139 0.213016
0.548730 0.175326 0.192325
0.820279 0.107546 0.137545
1.000000 0.000000 0.000000
0.115084 0.406439 0.222721
0.263279 0.403418 0.221408
0.559960 0.455177 0.228611
0.844999 0.529900 0.359838
1.000000 0.435096 0.284215
0.306004 0.662715 0.241672
0.393835 0.656489 0.236942
0.599847 0.658595 0.213748
0.831846 0.658778 0.275731
0.971374 0.749783 0.596002
0.498604 0.874266 0.351049
0.548150 0.872007 0.354498
0.689815 0.863432 0.365850
0.877043 0.873930 0.439551
0.974426 0.832639 0.589685
0.094606 0.190311 0.441505
0.237034 0.241489 0.461250
0.444221 0.244724 0.489601
0.735927 0.262913 0.503288
0.975525 0.000000 0.428290
0.081178 0.246738 0.444099
0.220035 0.266819 0.445991
0.457557 0.324895 0.492988
0.743130 0.291325 0.491310
0.979492 0.000000 0.409094
0.000000 0.435218 0.478279
0.203525 0.446174 0.481605
0.534508 0.531701 0.532250
0.774258 0.520226 0.522454
0.992767 0.480293 0.486397
0.252537 0.696162 0.516869
0.389502 0.690303 0.524437
0.586633 0.673976 0.536828
0.793393 0.710384 0.588281
0.961944 0.785031 0.682033
0.546868 0.885649 0.587762
0.589868 0.882658 0.591760
0.688533 0.875273 0.569085
0.855985 0.879454 0.557671
0.974914 0.837430 0.591302
0.295354 0.361913 0.663478
0.390784 0.413397 0.665309
0.551110 0.495918 0.678614
0.696864 0.532708 0.697322
0.907866 0.675563 0.773342
0.296178 0.390112 0.662318
0.394232 0.433417 0.659907
0.568811 0.532067 0.675746
0.702815 0.565118 0.698116
0.914611 0.675685 0.771633
0.324865 0.501427 0.672053
0.406256 0.519188 0.668544
0.571313 0.575189 0.662623
0.720546 0.638697 0.703609
0.936706 0.654475 0.744930
0.355871 0.665187 0.689906
0.439185 0.671321 0.689418
0.592523 0.689815 0.692042
0.769406 0.752346 0.734737
0.956359 0.752041 0.733639
0.522850 0.909209 0.767788
0.568078 0.907042 0.766476
0.679957 0.901213 0.759213
0.817227 0.889708 0.744137
0.944640 0.886961 0.797787
0.671687 0.686122 0.888121
0.694697 0.699306 0.887999
0.773068 0.749874 0.888060
0.821164 0.754452 0.891814
0.896483 0.766964 0.893462
0.667567 0.689815 0.887999
0.691554 0.702693 0.887510
0.769863 0.752041 0.887663
0.826017 0.767056 0.891386
0.898314 0.779232 0.893492
0.649104 0.711330 0.891783
0.667414 0.715663 0.891051
0.748714 0.751492 0.887083
0.838895 0.801999 0.890410
0.904051 0.814633 0.893950
0.638849 0.772671 0.895445
0.658900 0.776028 0.894957
0.723629 0.788327 0.893065
0.830869 0.824399 0.887999
0.913024 0.863920 0.895598
0.615137 0.870970 0.898772
0.638483 0.873075 0.898436
0.717403 0.880766 0.897215
0.832578 0.894713 0.895628
0.926299 0.915099 0.902800
