其他预设/【233】日式怀旧街道调色预设208款/1.3D LUT预设（视频调色-PR-AE-PS-FCPX-达芬奇用）/2.富士胶片风-日式城市街拍预设/JA – Night Pop 1 (Classic Chrome).cube
# Created by Adobe Lightroom plugin Export LUT (1.17.0)
# www.johnrellis.com/lightroom/exportlut.htm
# Preset: JA – Night Pop 1 (Classic Chrome)
# Color profile: /Library/Application Support/Adobe/Color/Profiles/Recommended/AdobeRGB1998.icc
LUT_3D_SIZE 8
DOMAIN_MIN 0.000000 0.000000 0.000000
DOMAIN_MAX 0.903226 0.903226 0.903226
0.073457 0.079805 0.085969
0.122713 0.068330 0.087007
0.369818 0.000000 0.067018
0.679469 0.000000 0.000000
0.901549 0.000000 0.000000
1.000000 0.000000 0.000000
1.000000 0.000000 0.000000
1.000000 0.000000 0.000000
0.069184 0.104250 0.084504
0.100130 0.102052 0.091035
0.325597 0.126284 0.067475
0.649073 0.114504 0.000000
0.878264 0.065675 0.000000
1.000000 0.000000 0.000000
1.000000 0.000000 0.000000
1.000000 0.000000 0.000000
0.000000 0.250523 0.045289
0.093141 0.252171 0.043275
0.222599 0.211398 0.094026
0.546838 0.331792 0.110811
0.840177 0.353948 0.000000
0.998566 0.318944 0.000000
1.000000 0.270176 0.000000
1.000000 0.209201 0.000000
0.000000 0.524834 0.000000
0.000000 0.519493 0.000000
0.332982 0.506279 0.000000
0.500175 0.458534 0.011200
0.786160 0.551049 0.270756
0.958434 0.558679 0.329992
1.000000 0.511162 0.293950
1.000000 0.454963 0.255955
0.000000 0.758389 0.009827
0.000000 0.756405 0.000000
0.289403 0.745480 0.000000
0.561822 0.710262 0.000000
0.695186 0.627192 0.119722
0.887144 0.671077 0.390204
0.992584 0.717708 0.567895
1.000000 0.700496 0.574701
0.000000 0.908415 0.000000
0.000000 0.916594 0.000000
0.080598 0.906310 0.000000
0.509697 0.887358 0.000000
0.726375 0.832242 0.000000
0.850675 0.765042 0.291814
0.974945 0.792782 0.556970
1.000000 0.837034 0.721706
0.000000 1.000000 0.000000
0.000000 1.000000 0.000000
0.000000 1.000000 0.000000
0.398932 0.986694 0.000000
0.659358 0.961944 0.000000
0.850797 0.919860 0.233341
0.959991 0.875242 0.497902
1.000000 0.881559 0.697688
0.000000 1.000000 0.000000
0.000000 1.000000 0.000000
0.000000 1.000000 0.000000
0.239780 1.000000 0.000000
0.547692 1.000000 0.000000
0.775723 1.000000 0.193912
0.945495 0.984710 0.525017
1.000000 0.960540 0.710109
0.067079 0.081147 0.113771
0.100740 0.073182 0.113771
0.307103 0.000000 0.096773
0.623865 0.000000 0.000000
0.861265 0.000000 0.000000
1.000000 0.000000 0.000000
1.000000 0.000000 0.000000
1.000000 0.000000 0.000000
0.061891 0.099031 0.113985
0.094453 0.102510 0.110628
0.292180 0.105104 0.093996
0.612573 0.115206 0.000000
0.850645 0.111177 0.000000
0.991577 0.054902 0.000000
1.000000 0.000000 0.000000
1.000000 0.000000 0.000000
0.000000 0.236881 0.136110
0.012665 0.239109 0.110475
0.215152 0.207858 0.118624
0.521294 0.315526 0.133028
0.805570 0.341222 0.000000
0.973205 0.317205 0.000000
1.000000 0.263127 0.000000
1.000000 0.194736 0.000000
0.000000 0.501640 0.194583
0.000000 0.499733 0.104952
0.298894 0.494820 0.000000
0.455909 0.422187 0.117739
0.730800 0.510735 0.253544
0.921538 0.524926 0.277562
1.000000 0.484657 0.238773
1.000000 0.430243 0.202762
0.000000 0.749386 0.216037
0.000000 0.745296 0.098024
0.231388 0.731258 0.000000
0.532769 0.689509 0.000000
0.662104 0.600916 0.165072
0.863615 0.650752 0.372045
0.983398 0.700618 0.542840
1.000000 0.682734 0.549432
0.000000 0.895995 0.201358
0.000000 0.895720 0.086152
0.000000 0.887572 0.000000
0.483467 0.871733 0.000000
0.710994 0.821500 0.000000
0.839963 0.757443 0.310613
0.969543 0.785122 0.543847
1.000000 0.828367 0.709895
0.000000 0.997559 0.136599
0.000000 0.996155 0.012940
0.000000 0.990936 0.000000
0.377874 0.978759 0.000000
0.648615 0.957122 0.000000
0.841581 0.912871 0.243412
0.949828 0.864103 0.472999
1.000000 0.870939 0.678645
0.000000 1.000000 0.000000
0.000000 1.000000 0.000000
0.000000 1.000000 0.000000
0.216587 1.000000 0.000000
0.544793 1.000000 0.000000
0.773831 1.000000 0.193393
0.942809 0.983520 0.517571
1.000000 0.957000 0.699947
0.000000 0.085664 0.299046
0.000000 0.080659 0.296056
0.250767 0.000000 0.274174
0.593133 0.000000 0.324834
0.852995 0.000000 0.174166
1.000000 0.000000 0.105318
1.000000 0.000000 0.000000
1.000000 0.000000 0.000000
0.000000 0.132265 0.296300
0.000000 0.118929 0.287572
0.239109 0.050446 0.263310
0.575616 0.000000 0.284642
0.837491 0.000000 0.154849
0.991058 0.000000 0.098085
1.000000 0.000000 0.000000
1.000000 0.000000 0.000000
0.000000 0.263615 0.296239
0.000000 0.259678 0.287907
0.209873 0.225895 0.242802
0.563500 0.233249 0.224735
0.831815 0.231174 0.187472
0.986419 0.208316 0.104463
1.000000 0.171756 0.000000
1.000000 0.135653 0.000000
0.000000 0.507012 0.376135
0.000000 0.510674 0.361120
0.131411 0.505211 0.258671
0.464332 0.443275 0.282139
0.735927 0.535210 0.417304
0.935668 0.521202 0.371435
1.000000 0.475196 0.306401
1.000000 0.403479 0.162600
0.000000 0.749355 0.417273
0.000000 0.749844 0.389044
0.000000 0.739162 0.277379
0.507652 0.712123 0.261173
0.669154 0.618708 0.334325
0.862058 0.672053 0.494606
0.987182 0.702419 0.568963
1.000000 0.669978 0.535790
0.000000 0.897429 0.398657
0.000000 0.897307 0.369055
0.000000 0.889097 0.280278
0.440711 0.868589 0.267857
0.695491 0.822324 0.312413
0.824552 0.753872 0.418402
0.961242 0.788388 0.589319
1.000000 0.827146 0.711452
0.000000 1.000000 0.350713
0.000000 1.000000 0.334691
0.000000 0.994141 0.252476
0.357122 0.977905 0.281132
0.634943 0.957488 0.272129
0.835752 0.914488 0.396002
0.948180 0.869383 0.530266
1.000000 0.876371 0.690822
0.000000 1.000000 0.251865
0.000000 1.000000 0.231662
0.000000 1.000000 0.126619
0.228214 1.000000 0.260044
0.542626 1.000000 0.245640
0.767880 1.000000 0.322667
0.939239 0.984924 0.517235
1.000000 0.958862 0.703487
0.000000 0.090639 0.592218
0.000000 0.090730 0.595880
0.238468 0.000000 0.559289
0.508263 0.000000 0.529351
0.802701 0.000000 0.531884
0.970916 0.000000 0.439185
1.000000 0.000000 0.343236
1.000000 0.000000 0.244358
0.000000 0.177615 0.604730
0.000000 0.173068 0.602167
0.204440 0.000000 0.562127
0.504631 0.000000 0.526543
0.798367 0.000000 0.520806
0.965209 0.000000 0.427680
1.000000 0.000000 0.331121
1.000000 0.000000 0.238499
0.000000 0.370489 0.600000
0.000000 0.362676 0.594903
0.000000 0.277775 0.560327
0.483864 0.170474 0.511345
0.785611 0.033845 0.487160
0.964691 0.000000 0.411475
1.000000 0.149081 0.382605
1.000000 0.000000 0.254063
0.000000 0.547143 0.593042
0.000000 0.544060 0.586816
0.000000 0.525628 0.565026
0.439734 0.459937 0.485328
0.751766 0.474708 0.488899
0.940398 0.464729 0.468452
1.000000 0.420996 0.409796
1.000000 0.315923 0.262303
0.000000 0.753841 0.609796
0.000000 0.752132 0.600244
0.000000 0.745571 0.560052
0.443305 0.711391 0.526024
0.659815 0.636103 0.523247
0.858152 0.707210 0.636042
0.996399 0.699397 0.618891
1.000000 0.653101 0.569055
0.000000 0.905455 0.586481
0.000000 0.912505 0.579187
0.000000 0.905364 0.535210
0.427222 0.876707 0.545983
0.695827 0.843717 0.544366
0.818814 0.767239 0.564569
0.955200 0.808042 0.682155
1.000000 0.836606 0.750729
0.000000 1.000000 0.528954
0.000000 1.000000 0.524315
0.000000 1.000000 0.478279
0.370428 0.982422 0.533928
0.652613 0.960082 0.552514
0.835172 0.924010 0.568231
0.940978 0.875639 0.623316
1.000000 0.886229 0.742153
0.000000 1.000000 0.448310
0.000000 1.000000 0.439185
0.000000 1.000000 0.401373
0.065644 1.000000 0.446052
0.584344 1.000000 0.534539
0.769436 1.000000 0.523949
0.933288 0.986206 0.617182
1.000000 0.961120 0.727840
0.000000 0.104067 0.789883
0.000000 0.104250 0.791073
0.000000 0.000000 0.774166
0.436683 0.000000 0.728267
0.733577 0.000000 0.726558
0.936065 0.000000 0.681758
1.000000 0.000000 0.600824
1.000000 0.000000 0.550469
0.000000 0.171206 0.793362
0.000000 0.193698 0.796201
0.000000 0.066224 0.778378
0.424720 0.000000 0.730678
0.729549 0.000000 0.723659
0.933074 0.000000 0.679438
1.000000 0.000000 0.602564
1.000000 0.105287 0.555596
0.000000 0.394812 0.799435
0.000000 0.395209 0.798367
0.000000 0.333288 0.779171
0.394690 0.213779 0.739162
0.710475 0.066194 0.710384
0.914885 0.184756 0.668391
1.000000 0.224033 0.605676
1.000000 0.303838 0.565728
0.000000 0.564263 0.788174
0.000000 0.564294 0.785794
0.000000 0.550561 0.782040
0.459785 0.545037 0.748318
0.680995 0.445869 0.692775
0.897368 0.454017 0.661646
1.000000 0.447364 0.613489
1.000000 0.417304 0.555779
0.000000 0.745846 0.784817
0.000000 0.748135 0.783719
0.000000 0.738674 0.772305
0.374853 0.714443 0.740688
0.624720 0.635126 0.655634
0.870634 0.651392 0.664210
1.000000 0.638880 0.645960
1.000000 0.576959 0.577935
0.000000 0.891417 0.750729
0.000000 0.892515 0.748257
0.000000 0.886931 0.725490
0.204288 0.866270 0.699977
0.627314 0.824643 0.678859
0.791257 0.763149 0.671534
0.945251 0.827573 0.770108
1.000000 0.818540 0.758999
0.000000 0.997223 0.694514
0.000000 0.997131 0.690974
0.000000 0.997345 0.667842
0.000000 0.986389 0.654994
0.630793 0.956268 0.698543
0.821256 0.929015 0.695918
0.924559 0.874632 0.703151
1.000000 0.893828 0.796475
0.000000 1.000000 0.613428
0.000000 1.000000 0.609033
0.000000 1.000000 0.587640
0.000000 1.000000 0.537957
0.565515 1.000000 0.665126
0.777493 1.000000 0.690150
0.921843 0.986145 0.708919
1.000000 0.960449 0.774258
0.000000 0.140383 0.917540
0.000000 0.140383 0.917479
0.000000 0.034577 0.910430
0.310857 0.000000 0.891752
0.604364 0.000000 0.855100
0.887022 0.000000 0.855009
1.000000 0.000000 0.788388
1.000000 0.087861 0.715450
0.000000 0.152987 0.913115
0.000000 0.178958 0.912779
0.000000 0.150759 0.907195
0.291691 0.000000 0.888914
0.595483 0.000000 0.851621
0.880034 0.000000 0.849668
1.000000 0.000000 0.788083
1.000000 0.188937 0.716915
0.000000 0.381353 0.917906
0.000000 0.385351 0.917021
0.000000 0.367987 0.910185
0.311955 0.322210 0.895781
0.589044 0.138827 0.858030
0.871794 0.075319 0.845212
1.000000 0.329595 0.791989
1.000000 0.363439 0.727535
0.000000 0.540520 0.914977
0.000000 0.544396 0.915526
0.000000 0.561975 0.915007
0.483497 0.609674 0.903441
0.628412 0.510307 0.871214
0.862821 0.462928 0.843320
0.997284 0.526635 0.800687
1.000000 0.525658 0.745541
0.000000 0.698909 0.908934
0.000000 0.701564 0.908629
0.000000 0.701472 0.906310
0.434241 0.729488 0.896727
0.689265 0.731502 0.869963
0.825498 0.632715 0.818173
0.981048 0.649195 0.789731
1.000000 0.642725 0.750027
0.000000 0.857755 0.894530
0.000000 0.861631 0.895476
0.000000 0.863279 0.892790
0.145022 0.860929 0.883055
0.615625 0.846159 0.860044
0.775601 0.773922 0.784329
0.964935 0.798245 0.801389
1.000000 0.772580 0.772915
0.000000 1.000000 0.863798
0.000000 1.000000 0.862333
0.000000 1.000000 0.852567
0.000000 0.996460 0.832425
0.525078 0.968231 0.823880
0.807126 0.934081 0.824430
0.912779 0.883299 0.801846
0.997284 0.916564 0.872160
0.000000 1.000000 0.769070
0.000000 1.000000 0.766598
0.000000 1.000000 0.755489
0.000000 1.000000 0.725795
0.252079 1.000000 0.728328
0.780575 1.000000 0.812619
0.915709 0.989105 0.816861
0.998901 0.962982 0.837217
0.000000 0.199100 0.982513
0.000000 0.199100 0.982544
0.000000 0.188571 0.982055
0.000000 0.000000 0.976562
0.473579 0.000000 0.966674
0.729580 0.000000 0.942016
0.980743 0.000000 0.938445
1.000000 0.059388 0.855344
0.000000 0.198886 0.982422
0.000000 0.198978 0.982452
0.000000 0.206516 0.981872
0.000000 0.106996 0.976318
0.467445 0.000000 0.966369
0.725948 0.000000 0.941222
0.978820 0.000000 0.937316
1.000000 0.197665 0.856535
0.000000 0.335241 0.982483
0.000000 0.343175 0.982330
0.000000 0.358282 0.981384
0.198367 0.377508 0.975402
0.479866 0.259556 0.965759
0.718196 0.000000 0.939452
0.973175 0.117708 0.934936
1.000000 0.384222 0.862364
0.000000 0.502586 0.982361
0.000000 0.506859 0.981994
0.000000 0.516411 0.981353
0.409918 0.594415 0.972168
0.578607 0.560845 0.961517
0.728176 0.422522 0.939635
0.962921 0.441474 0.930632
1.000000 0.551415 0.871794
0.000000 0.627344 0.978363
0.000000 0.629816 0.978119
0.000000 0.632685 0.977691
0.364294 0.692927 0.971740
0.688563 0.754543 0.960021
0.761563 0.662776 0.941375
0.948943 0.625879 0.924163
1.000000 0.676722 0.877317
0.000000 0.766506 0.971832
0.000000 0.768612 0.971618
0.000000 0.772946 0.971160
0.000000 0.788144 0.967987
0.637201 0.832212 0.960082
0.844511 0.861448 0.946593
0.930724 0.779385 0.915099
1.000000 0.797757 0.885832
0.000000 0.917754 0.962676
0.000000 0.919768 0.962524
0.000000 0.926024 0.961822
0.000000 0.931304 0.960235
0.463050 0.935851 0.953491
0.793484 0.935454 0.942992
0.895964 0.888670 0.890684
1.000000 0.900389 0.897398
0.000000 1.000000 0.933654
0.000000 1.000000 0.931701
0.000000 1.000000 0.924834
0.000000 1.000000 0.909819
0.000000 1.000000 0.884825
0.660334 1.000000 0.891600
0.913176 0.991028 0.916594
0.987396 0.967498 0.906432
0.000000 0.294041 1.000000
0.000000 0.294041 1.000000
0.000000 0.293919 1.000000
0.000000 0.202976 1.000000
0.298711 0.000000 1.000000
0.586572 0.000000 1.000000
0.827939 0.000000 1.000000
1.000000 0.000000 1.000000
0.000000 0.294102 1.000000
0.000000 0.294224 1.000000
0.000000 0.294102 1.000000
0.000000 0.207462 1.000000
0.296483 0.000000 1.000000
0.582086 0.000000 1.000000
0.826230 0.000000 1.000000
1.000000 0.000000 1.000000
0.000000 0.307927 1.000000
0.000000 0.314427 1.000000
0.000000 0.337041 1.000000
0.000000 0.388373 1.000000
0.353307 0.308629 1.000000
0.579248 0.000000 1.000000
0.822660 0.000000 1.000000
1.000000 0.136995 1.000000
0.000000 0.438544 1.000000
0.000000 0.442756 1.000000
0.000000 0.456855 1.000000
0.134340 0.522667 1.000000
0.523766 0.576623 1.000000
0.636530 0.470802 1.000000
0.822629 0.350256 1.000000
1.000000 0.431708 0.998505
0.000000 0.591516 1.000000
0.000000 0.591608 1.000000
0.000000 0.590814 1.000000
0.000000 0.583978 1.000000
0.612482 0.719692 1.000000
0.729549 0.703548 1.000000
0.832761 0.587762 1.000000
1.000000 0.620386 0.994537
0.000000 0.685939 1.000000
0.000000 0.686122 1.000000
0.000000 0.686091 1.000000
0.000000 0.684169 1.000000
0.431525 0.741421 1.000000
0.821225 0.856779 0.999329
0.871702 0.796994 0.997375
1.000000 0.780209 0.990051
0.000000 0.804929 1.000000
0.000000 0.805509 1.000000
0.000000 0.807004 1.000000
0.000000 0.809262 1.000000
0.000000 0.816007 1.000000
0.741665 0.892912 0.999969
0.933043 0.941253 0.993225
0.994873 0.899290 0.985443
0.000000 0.946807 1.000000
0.000000 0.947936 1.000000
0.000000 0.952056 1.000000
0.000000 0.959991 1.000000
0.000000 0.970703 1.000000
0.519493 0.980163 0.999115
0.894469 0.986694 0.992432
0.979461 0.976379 0.975952
