其他预设/【233】日式怀旧街道调色预设208款/1.3D LUT预设（视频调色-PR-AE-PS-FCPX-达芬奇用）/2.富士胶片风-日式城市街拍预设/JA – Cine Night 3 (Classic Chrome).cube
# Created by Adobe Lightroom plugin Export LUT (1.17.0)
# www.johnrellis.com/lightroom/exportlut.htm
# Preset: JA – Cine Night 3 (Classic Chrome)
# Color profile: /Library/Application Support/Adobe/Color/Profiles/Recommended/AdobeRGB1998.icc
LUT_3D_SIZE 8
DOMAIN_MIN 0.000000 0.000000 0.000000
DOMAIN_MAX 0.903226 0.903226 0.903226
0.008881 0.025910 0.052979
0.075654 0.033692 0.057038
0.205692 0.000000 0.075685
0.468879 0.000000 0.077577
0.692287 0.000000 0.087343
0.848020 0.000000 0.129335
0.965881 0.000000 0.185153
1.000000 0.171817 0.259648
0.000000 0.079561 0.070527
0.069154 0.083436 0.076753
0.211154 0.078248 0.081025
0.468147 0.000000 0.082338
0.688869 0.000000 0.091890
0.838193 0.000000 0.129732
0.957305 0.000000 0.183413
1.000000 0.213077 0.258183
0.000000 0.164248 0.112886
0.021088 0.170535 0.105440
0.213169 0.202518 0.107027
0.517571 0.200717 0.095918
0.721401 0.180392 0.110079
0.854032 0.203159 0.151431
0.974029 0.278752 0.211948
1.000000 0.360693 0.288823
0.000000 0.331731 0.151888
0.000000 0.340856 0.131411
0.177066 0.356359 0.147707
0.522698 0.452705 0.133364
0.760678 0.486763 0.152499
0.882200 0.474617 0.198306
0.982452 0.484779 0.253941
1.000000 0.510735 0.327611
0.000000 0.533928 0.188022
0.000000 0.541924 0.174716
0.117342 0.561852 0.173709
0.451179 0.598230 0.200870
0.719387 0.676814 0.201175
0.872251 0.674739 0.248905
0.983795 0.668879 0.315496
1.000000 0.661433 0.390265
0.000000 0.715816 0.231022
0.000000 0.727932 0.226383
0.000000 0.739773 0.219181
0.426398 0.746395 0.256352
0.649805 0.778805 0.292271
0.851194 0.832731 0.330663
0.974273 0.819852 0.398901
1.000000 0.797482 0.491157
0.000000 0.867399 0.294255
0.000000 0.870909 0.293645
0.000000 0.874784 0.295384
0.433753 0.875975 0.329900
0.627893 0.877989 0.382391
0.797543 0.907622 0.434577
0.957977 0.928405 0.500389
1.000000 0.891173 0.570825
0.000000 0.987518 0.387701
0.000000 0.987030 0.390875
0.280797 0.985046 0.411231
0.508293 0.981689 0.460121
0.653956 0.972290 0.499489
0.786099 0.971344 0.569390
0.904448 0.973785 0.628840
0.996521 0.966766 0.686824
0.000000 0.039857 0.102937
0.053498 0.050752 0.111757
0.177676 0.013581 0.128511
0.433600 0.000000 0.138796
0.667872 0.000000 0.151400
0.822599 0.000000 0.179294
0.945892 0.000000 0.220768
1.000000 0.172610 0.282444
0.000000 0.078798 0.115267
0.048554 0.084504 0.124971
0.187228 0.078309 0.135653
0.443000 0.000000 0.143801
0.673213 0.000000 0.155673
0.820615 0.000000 0.181491
0.940459 0.000000 0.220035
1.000000 0.210758 0.280064
0.000000 0.163912 0.152224
0.000000 0.173861 0.150149
0.203403 0.199619 0.155398
0.488624 0.189334 0.162478
0.698116 0.165866 0.172183
0.833524 0.191318 0.198795
0.951812 0.263798 0.240543
1.000000 0.353826 0.305516
0.000000 0.325017 0.187839
0.000000 0.336034 0.179232
0.168582 0.356695 0.182528
0.492653 0.426551 0.182254
0.728328 0.453986 0.201114
0.852720 0.448035 0.232242
0.960876 0.467262 0.274907
1.000000 0.503716 0.340276
0.000000 0.530144 0.222232
0.000000 0.536431 0.212680
0.091096 0.555413 0.203891
0.432197 0.579278 0.230228
0.700526 0.655970 0.233066
0.856382 0.660243 0.278752
0.972198 0.662409 0.339574
1.000000 0.660121 0.405676
0.000000 0.706203 0.256626
0.000000 0.711391 0.250767
0.000000 0.726101 0.238193
0.412909 0.735439 0.273564
0.640192 0.768795 0.312383
0.844144 0.827604 0.355169
0.968627 0.817929 0.420966
1.000000 0.797910 0.506126
0.000000 0.855375 0.308202
0.000000 0.855955 0.305241
0.000000 0.862181 0.305974
0.420020 0.867582 0.339208
0.621118 0.872435 0.392493
0.790463 0.901976 0.444556
0.950958 0.924041 0.506767
1.000000 0.889158 0.573236
0.000000 0.982788 0.393957
0.000000 0.983124 0.397467
0.254490 0.981994 0.415900
0.499916 0.979278 0.466102
0.659876 0.975097 0.521263
0.787045 0.971771 0.583978
0.902922 0.973266 0.636378
0.995239 0.966339 0.691310
0.000000 0.064881 0.184878
0.000000 0.065919 0.198978
0.148592 0.056123 0.228519
0.393225 0.000000 0.255558
0.645136 0.000000 0.270665
0.807828 0.000000 0.295506
0.937163 0.000000 0.330297
1.000000 0.260380 0.379004
0.000000 0.089204 0.193271
0.000000 0.091585 0.211307
0.155703 0.090272 0.237430
0.399878 0.000000 0.258946
0.646082 0.000000 0.271031
0.805905 0.000000 0.297215
0.933928 0.098756 0.330083
1.000000 0.289616 0.379370
0.000000 0.162844 0.232792
0.000000 0.172824 0.242069
0.172976 0.196536 0.264012
0.441352 0.184360 0.277928
0.675471 0.176272 0.295567
0.818845 0.225711 0.316808
0.940429 0.305241 0.347906
1.000000 0.396948 0.396521
0.000000 0.333318 0.274510
0.000000 0.345159 0.275029
0.130648 0.376562 0.277562
0.482765 0.427283 0.298314
0.713954 0.457588 0.335393
0.838437 0.464729 0.354559
0.951720 0.496712 0.385534
1.000000 0.539361 0.433906
0.000000 0.528862 0.301732
0.000000 0.538506 0.300633
0.000000 0.565179 0.298741
0.428473 0.585718 0.322576
0.695705 0.660151 0.346715
0.847623 0.669490 0.397620
0.960174 0.678279 0.443793
1.000000 0.683589 0.492439
0.000000 0.704829 0.329686
0.000000 0.710506 0.328862
0.000000 0.724788 0.326268
0.402441 0.736446 0.345403
0.629328 0.760342 0.388251
0.831144 0.821805 0.437720
0.958251 0.821805 0.505425
1.000000 0.812375 0.584100
0.000000 0.856687 0.371527
0.000000 0.857969 0.370642
0.000000 0.862272 0.371130
0.410224 0.867582 0.396887
0.616754 0.871519 0.445655
0.784726 0.899413 0.505089
0.946502 0.925780 0.573693
1.000000 0.895750 0.636927
0.000000 0.982635 0.437232
0.000000 0.981964 0.436805
0.180789 0.980499 0.448951
0.488746 0.978912 0.504479
0.654597 0.974487 0.556298
0.783932 0.970764 0.617395
0.900542 0.972961 0.671626
0.990845 0.966827 0.729122
0.000000 0.077577 0.284276
0.000000 0.079225 0.299016
0.124392 0.064729 0.344915
0.370367 0.000000 0.368872
0.589929 0.000000 0.389685
0.770474 0.000000 0.413642
0.904326 0.101778 0.439338
1.000000 0.316136 0.482307
0.000000 0.103395 0.294102
0.000000 0.102358 0.310948
0.126864 0.098787 0.352026
0.380163 0.000000 0.376654
0.596796 0.000000 0.395453
0.770779 0.000000 0.416175
0.903044 0.176516 0.441230
1.000000 0.340246 0.483467
0.000000 0.164309 0.311925
0.000000 0.169223 0.319982
0.121828 0.190829 0.359106
0.402960 0.196201 0.397559
0.620417 0.206394 0.416632
0.783658 0.260044 0.437903
0.917296 0.357153 0.471107
1.000000 0.448402 0.508537
0.000000 0.308751 0.362280
0.000000 0.320012 0.369970
0.022889 0.356054 0.394629
0.432227 0.402808 0.431067
0.653285 0.428717 0.450843
0.797299 0.467659 0.472816
0.923583 0.518273 0.501549
1.000000 0.575433 0.541558
0.000000 0.531518 0.410376
0.000000 0.539117 0.411597
0.000000 0.563622 0.417639
0.405219 0.596368 0.438148
0.673274 0.651728 0.480842
0.825467 0.682704 0.541466
0.938445 0.696925 0.565057
1.000000 0.710964 0.596277
0.000000 0.707393 0.431678
0.000000 0.717586 0.434943
0.000000 0.729397 0.436103
0.383520 0.745235 0.452125
0.621607 0.758297 0.499092
0.817319 0.821561 0.557610
0.945617 0.832212 0.621424
1.000000 0.826963 0.669825
0.000000 0.853819 0.459449
0.000000 0.856901 0.459968
0.000000 0.864378 0.462684
0.378576 0.872374 0.480781
0.614374 0.878202 0.533654
0.777218 0.898314 0.592218
0.937926 0.926726 0.655024
0.995850 0.902617 0.712154
0.000000 0.984802 0.516258
0.000000 0.985260 0.516564
0.000000 0.984619 0.517784
0.421027 0.981170 0.542107
0.639002 0.975158 0.607111
0.776272 0.971344 0.661982
0.895415 0.972229 0.721126
0.983948 0.967346 0.781003
0.000000 0.095491 0.387152
0.000000 0.097200 0.399420
0.016358 0.091157 0.439429
0.379583 0.000000 0.511315
0.585382 0.000000 0.518608
0.723537 0.000000 0.522179
0.869963 0.212894 0.556115
0.995911 0.374578 0.597772
0.000000 0.118318 0.392248
0.000000 0.118166 0.407446
0.028809 0.118044 0.445197
0.380072 0.001953 0.513542
0.588495 0.000000 0.523033
0.726314 0.132204 0.526879
0.871275 0.256443 0.560143
0.995789 0.399420 0.600793
0.000000 0.174228 0.388281
0.000000 0.179110 0.398505
0.000000 0.195224 0.449195
0.378149 0.209934 0.517876
0.596094 0.218631 0.536187
0.730922 0.283543 0.539055
0.872618 0.366674 0.570916
0.994110 0.470283 0.608331
0.000000 0.284215 0.429419
0.000000 0.290166 0.435554
0.000000 0.311406 0.456641
0.371344 0.368353 0.514458
0.609979 0.419623 0.562890
0.745205 0.461891 0.570733
0.881376 0.517601 0.598291
0.996643 0.580041 0.628138
0.000000 0.473304 0.487190
0.000000 0.482094 0.493172
0.000000 0.509636 0.512444
0.350835 0.552728 0.546380
0.617151 0.609796 0.592493
0.766598 0.641962 0.615808
0.899565 0.676234 0.640742
0.998016 0.708034 0.667659
0.000000 0.680507 0.532769
0.000000 0.686763 0.535332
0.000000 0.704524 0.542138
0.282994 0.724727 0.553704
0.580285 0.744198 0.584161
0.784268 0.802670 0.649897
0.926452 0.833951 0.716640
0.993561 0.831693 0.737789
0.000000 0.844633 0.561669
0.000000 0.846220 0.561212
0.000000 0.852476 0.561883
0.271061 0.861662 0.569299
0.562585 0.872190 0.600671
0.748867 0.884611 0.660060
0.921752 0.923064 0.728603
0.984680 0.908568 0.784817
0.000000 0.978271 0.605493
0.000000 0.978424 0.604547
0.000000 0.978698 0.602502
0.295659 0.981048 0.610163
0.568780 0.976379 0.640650
0.753689 0.971160 0.706783
0.884001 0.970062 0.769070
0.975647 0.967285 0.831113
0.000000 0.120638 0.500175
0.000000 0.122011 0.510460
0.000000 0.118929 0.544274
0.341222 0.064851 0.608453
0.592737 0.000000 0.674342
0.728359 0.094972 0.661463
0.833616 0.290105 0.661341
0.969085 0.439185 0.709407
0.000000 0.138552 0.498054
0.000000 0.139040 0.509056
0.000000 0.140688 0.542870
0.337194 0.117403 0.605737
0.590875 0.088075 0.673976
0.726619 0.161837 0.661219
0.831724 0.316381 0.661494
0.968261 0.455055 0.710109
0.000000 0.195987 0.488502
0.000000 0.198703 0.500755
0.000000 0.208713 0.546807
0.335607 0.225864 0.608728
0.597559 0.270420 0.687495
0.729427 0.307103 0.671473
0.831571 0.407080 0.670558
0.969299 0.516625 0.718502
0.000000 0.285588 0.505791
0.000000 0.287755 0.509300
0.000000 0.298436 0.523888
0.324071 0.353948 0.604334
0.589899 0.435584 0.687587
0.736385 0.479469 0.693751
0.842557 0.537560 0.697292
0.973663 0.607416 0.733883
0.000000 0.433967 0.552697
0.000000 0.438300 0.557000
0.000000 0.453010 0.571557
0.280430 0.478157 0.596429
0.553094 0.554070 0.658228
0.732479 0.628687 0.708492
0.852049 0.657191 0.719448
0.975830 0.699580 0.745205
0.000000 0.628107 0.610651
0.000000 0.634821 0.615808
0.000000 0.651118 0.628656
0.241245 0.676051 0.650446
0.524804 0.710048 0.681666
0.737667 0.772335 0.738216
0.882872 0.802274 0.768307
0.978363 0.824796 0.794949
0.000000 0.826078 0.668849
0.000000 0.830289 0.671534
0.000000 0.839689 0.676722
0.000000 0.854063 0.686000
0.478798 0.867002 0.700526
0.710109 0.883604 0.736507
0.901823 0.919188 0.812284
0.971374 0.921599 0.868315
0.000000 0.976349 0.714168
0.000000 0.976562 0.713161
0.000000 0.977508 0.710658
0.000000 0.978759 0.709895
0.462531 0.976349 0.716243
0.694881 0.972595 0.748928
0.866606 0.966308 0.822477
0.965789 0.967498 0.888548
0.000000 0.156588 0.630182
0.000000 0.158480 0.639887
0.000000 0.158511 0.666407
0.327245 0.147494 0.711116
0.558038 0.158755 0.770413
0.728450 0.230503 0.806332
0.836118 0.310918 0.789487
0.941527 0.476631 0.802426
0.000000 0.170352 0.624140
0.000000 0.172183 0.633661
0.000000 0.175021 0.660243
0.317784 0.170993 0.704219
0.550561 0.188632 0.763119
0.722988 0.254948 0.801022
0.829831 0.323888 0.783352
0.935576 0.476448 0.796017
0.000000 0.226932 0.614862
0.000000 0.227634 0.624781
0.000000 0.231266 0.657313
0.306004 0.247318 0.701564
0.544244 0.287297 0.760250
0.724849 0.363714 0.808652
0.832761 0.414862 0.792660
0.938659 0.538842 0.805875
0.000000 0.299413 0.598291
0.000000 0.297734 0.598749
0.000000 0.308141 0.627955
0.267033 0.341955 0.690608
0.528862 0.404700 0.753536
0.729732 0.510430 0.824247
0.836942 0.539208 0.808011
0.940337 0.616938 0.815915
0.000000 0.426734 0.635706
0.000000 0.425757 0.636133
0.000000 0.424384 0.640345
0.156313 0.423011 0.649561
0.474464 0.493812 0.722103
0.706020 0.615320 0.811063
0.833158 0.649500 0.816526
0.942321 0.698177 0.825437
0.000000 0.591485 0.683223
0.000000 0.592645 0.684901
0.000000 0.596307 0.690669
0.013916 0.601953 0.701198
0.409552 0.611597 0.715694
0.662593 0.699947 0.780179
0.841550 0.777920 0.842710
0.950835 0.803250 0.850401
0.000000 0.775906 0.740536
0.000000 0.778927 0.743252
0.000000 0.785702 0.749447
0.000000 0.796902 0.761105
0.396857 0.811460 0.777829
0.635004 0.839963 0.809018
0.852049 0.893614 0.873320
0.956237 0.911467 0.900420
0.000000 0.952880 0.809689
0.000000 0.954162 0.810422
0.000000 0.961700 0.816861
0.000000 0.967803 0.821378
0.316381 0.971984 0.825620
0.599878 0.972656 0.833402
0.832486 0.966003 0.872282
0.955657 0.967346 0.938720
0.000000 0.231449 0.784604
0.000000 0.233433 0.790494
0.075563 0.234958 0.805509
0.362707 0.242466 0.835416
0.552758 0.274388 0.874388
0.717983 0.355322 0.916899
0.847135 0.426001 0.927642
0.941741 0.498634 0.908904
0.000000 0.241978 0.779477
0.000000 0.244266 0.785367
0.000000 0.247715 0.801389
0.354009 0.256413 0.830686
0.547356 0.289464 0.870359
0.714168 0.369726 0.913756
0.844144 0.437842 0.925444
0.939239 0.505577 0.907012
0.000000 0.288426 0.767117
0.000000 0.288182 0.773434
0.000000 0.288396 0.791379
0.332067 0.308415 0.825589
0.535821 0.347265 0.865476
0.706386 0.426612 0.909270
0.841398 0.496590 0.926177
0.937713 0.549187 0.908782
0.000000 0.352117 0.745449
0.000000 0.353460 0.752132
0.000000 0.355627 0.771878
0.262913 0.373816 0.811307
0.507378 0.422950 0.855711
0.692805 0.508782 0.904082
0.839322 0.586694 0.931182
0.937804 0.618860 0.914733
0.000000 0.460883 0.757626
0.000000 0.459083 0.758816
0.000000 0.446448 0.757504
0.000000 0.431617 0.769558
0.427558 0.483314 0.829313
0.657465 0.578607 0.888060
0.832670 0.679988 0.936187
0.937316 0.701656 0.922454
0.000000 0.609552 0.797147
0.000000 0.606531 0.796170
0.000000 0.597375 0.794369
0.000000 0.581201 0.793515
0.273930 0.556878 0.792996
0.585412 0.637385 0.858183
0.816678 0.770657 0.936065
0.938994 0.804990 0.936675
0.000000 0.776791 0.846494
0.000000 0.775509 0.846189
0.000000 0.771786 0.846036
0.000000 0.767239 0.848539
0.232303 0.759854 0.852323
0.502556 0.755367 0.857877
0.754696 0.821042 0.907073
0.935424 0.894011 0.947723
0.000000 0.933837 0.900023
0.000000 0.933898 0.900298
0.000000 0.935607 0.903075
0.000000 0.939147 0.909697
0.208957 0.939788 0.915038
0.512535 0.940826 0.922210
0.734157 0.945678 0.934661
0.939300 0.960906 0.964111
