其他预设/【233】日式怀旧街道调色预设208款/1.3D LUT预设（视频调色-PR-AE-PS-FCPX-达芬奇用）/2.富士胶片风-日式城市街拍预设/JA – Controlled Contrast 4 (Classic Chrome).cube
# Created by Adobe Lightroom plugin Export LUT (1.17.0)
# www.johnrellis.com/lightroom/exportlut.htm
# Preset: JA – Controlled Contrast 4 (Classic Chrome)
# Color profile: /Library/Application Support/Adobe/Color/Profiles/Recommended/AdobeRGB1998.icc
LUT_3D_SIZE 5
DOMAIN_MIN 0.000000 0.000000 0.000000
DOMAIN_MAX 0.903226 0.903226 0.903226
0.000000 0.000000 0.000000
0.146273 0.017853 0.060609
0.592462 0.000000 0.005921
0.824063 0.000000 0.000000
1.000000 0.000000 0.144167
0.069490 0.125277 0.059022
0.131807 0.118227 0.044312
0.593072 0.000000 0.000000
0.824765 0.000000 0.000000
1.000000 0.000000 0.133974
0.000000 0.535851 0.000000
0.228428 0.559655 0.000000
0.519829 0.470680 0.000000
0.827634 0.411353 0.000000
1.000000 0.305272 0.081025
0.000000 0.773526 0.000000
0.158022 0.781735 0.000000
0.552514 0.805112 0.000000
0.753262 0.692470 0.000000
1.000000 0.628199 0.000000
0.366766 0.964630 0.338354
0.370855 0.965942 0.340490
0.506920 0.981201 0.144778
0.777096 0.968353 0.170504
0.993378 0.916960 0.000000
0.077028 0.091218 0.130312
0.139498 0.047425 0.126253
0.551598 0.000000 0.213931
0.811063 0.000000 0.158816
1.000000 0.000000 0.151125
0.078492 0.119997 0.110597
0.137026 0.128115 0.122072
0.558190 0.000000 0.111543
0.814878 0.000000 0.110201
1.000000 0.000000 0.137392
0.000000 0.504295 0.135042
0.165408 0.519005 0.000000
0.503532 0.454627 0.000000
0.823728 0.409522 0.000000
1.000000 0.301488 0.091249
0.000000 0.770748 0.000000
0.197086 0.777157 0.000000
0.559350 0.805234 0.000000
0.755001 0.692134 0.000000
1.000000 0.626978 0.000000
0.369696 0.965698 0.341711
0.372686 0.966857 0.345190
0.499825 0.982483 0.152590
0.775509 0.969635 0.182620
0.994934 0.917540 0.000000
0.000000 0.199649 0.537072
0.175448 0.109438 0.525994
0.480323 0.000000 0.469581
0.710262 0.000000 0.443915
0.989593 0.000000 0.477577
0.086061 0.348608 0.514519
0.231968 0.301579 0.502068
0.465919 0.111055 0.453742
0.718105 0.100252 0.455329
0.985504 0.186221 0.513176
0.000000 0.439185 0.410895
0.218906 0.435706 0.413336
0.518090 0.512505 0.510063
0.744747 0.511009 0.531212
0.983154 0.518059 0.570489
0.159487 0.687495 0.448310
0.324224 0.691524 0.473640
0.568139 0.729946 0.553277
0.713436 0.679469 0.446509
0.995148 0.692744 0.515618
0.394354 0.944335 0.522667
0.390143 0.949462 0.506889
0.583642 0.961730 0.548516
0.785824 0.969848 0.471046
0.998047 0.917967 0.000000
0.388861 0.484443 0.753780
0.397894 0.450141 0.750698
0.500359 0.341466 0.736355
0.686854 0.152834 0.695583
0.897520 0.353307 0.716091
0.468818 0.562402 0.745174
0.478676 0.540520 0.741360
0.528466 0.450599 0.727901
0.679988 0.313481 0.688045
0.892760 0.410132 0.715663
0.474617 0.631800 0.723354
0.524010 0.638514 0.723995
0.598138 0.624933 0.720119
0.665644 0.515862 0.672419
0.916411 0.527214 0.728023
0.388190 0.675685 0.657771
0.446540 0.671901 0.657527
0.564965 0.671199 0.665522
0.723964 0.729488 0.734829
0.957885 0.746731 0.771878
0.513695 0.872770 0.729549
0.530358 0.878721 0.732631
0.611383 0.903838 0.747402
0.785611 0.947417 0.787381
0.954498 0.918700 0.680659
0.623743 0.702266 0.933989
0.619135 0.683040 0.934478
0.657160 0.645960 0.935027
0.745052 0.546258 0.934783
0.906645 0.448890 0.920714
0.653376 0.735988 0.928954
0.646418 0.717250 0.929534
0.666133 0.673457 0.930541
0.744106 0.580102 0.928527
0.901457 0.483406 0.915526
0.659815 0.785733 0.923308
0.673121 0.782254 0.923308
0.706264 0.759670 0.922972
0.748287 0.676234 0.919799
0.898253 0.582696 0.911955
0.626246 0.833249 0.908782
0.645136 0.832761 0.908721
0.712215 0.837430 0.914366
0.800046 0.831479 0.925048
0.907866 0.732021 0.919951
0.578180 0.912078 0.892210
0.595972 0.910430 0.891752
0.661036 0.909789 0.895171
0.769436 0.908049 0.901427
0.925139 0.929900 0.933867
