其他预设/【233】日式怀旧街道调色预设208款/1.3D LUT预设（视频调色-PR-AE-PS-FCPX-达芬奇用）/2.富士胶片风-日式城市街拍预设/JA – Cityscape Pop 1 (Classic Chrome).cube
# Created by Adobe Lightroom plugin Export LUT (1.17.0)
# www.johnrellis.com/lightroom/exportlut.htm
# Preset: JA – Cityscape Pop 1 (Classic Chrome)
# Color profile: /Library/Application Support/Adobe/Color/Profiles/Recommended/AdobeRGB1998.icc
LUT_3D_SIZE 5
DOMAIN_MIN 0.000000 0.000000 0.000000
DOMAIN_MAX 0.903226 0.903226 0.903226
0.112947 0.115755 0.117494
0.186465 0.115663 0.114900
0.527611 0.152438 0.062562
0.844144 0.217227 0.000000
1.000000 0.229953 0.000000
0.119905 0.163333 0.112612
0.183261 0.167208 0.110140
0.528344 0.270878 0.000000
0.842313 0.318090 0.000000
1.000000 0.307195 0.000000
0.205936 0.429877 0.000000
0.307347 0.418463 0.000000
0.542046 0.452186 0.000000
0.849088 0.514488 0.000000
0.996643 0.475349 0.000000
0.328435 0.727535 0.000000
0.421942 0.719356 0.000000
0.629969 0.714992 0.000000
0.840482 0.693874 0.000000
0.993408 0.647486 0.000000
0.408331 0.917082 0.000000
0.477974 0.912200 0.000000
0.647822 0.894224 0.000000
0.843778 0.889403 0.000000
0.989319 0.824613 0.000000
0.097719 0.112093 0.224674
0.171481 0.110506 0.186007
0.517418 0.000000 0.154452
0.829984 0.096773 0.054292
0.996460 0.200107 0.000000
0.060212 0.189761 0.209018
0.184207 0.188022 0.190677
0.523064 0.212955 0.148257
0.831357 0.259678 0.000000
0.996216 0.286351 0.000000
0.000000 0.465797 0.162264
0.250553 0.457679 0.135195
0.533227 0.451972 0.121614
0.838834 0.494331 0.000000
0.995453 0.466773 0.000000
0.201358 0.747280 0.000000
0.358648 0.738094 0.000000
0.611048 0.720027 0.000000
0.838651 0.697322 0.000000
0.993317 0.646387 0.000000
0.336797 0.923339 0.000000
0.426215 0.917998 0.000000
0.631800 0.901579 0.000000
0.841855 0.891691 0.000000
0.990204 0.826200 0.000000
0.000000 0.051423 0.628443
0.223972 0.000000 0.598322
0.463661 0.114961 0.492897
0.794736 0.142855 0.493233
0.979828 0.277073 0.441596
0.000000 0.163424 0.637201
0.140902 0.199161 0.602838
0.475715 0.247684 0.498360
0.801297 0.268467 0.486152
0.980072 0.340185 0.436805
0.000000 0.523125 0.583001
0.000000 0.517845 0.568933
0.513481 0.507897 0.507439
0.815152 0.509819 0.472969
0.981720 0.479835 0.400275
0.000000 0.782010 0.507317
0.000000 0.776547 0.484077
0.546654 0.750271 0.456916
0.820279 0.725002 0.468330
0.980102 0.662928 0.355138
0.000000 0.935210 0.386419
0.282567 0.931212 0.387427
0.560266 0.914092 0.374731
0.808042 0.893217 0.367437
0.975708 0.838376 0.363928
0.000000 0.068360 0.861631
0.193210 0.135592 0.854612
0.489540 0.188388 0.824277
0.728786 0.315740 0.756405
0.923552 0.545617 0.750790
0.000000 0.181643 0.864591
0.175540 0.262913 0.855924
0.501457 0.312688 0.825742
0.731411 0.391180 0.754055
0.923125 0.572869 0.749996
0.000000 0.449897 0.858305
0.000000 0.459205 0.855741
0.563195 0.568780 0.828519
0.746059 0.571191 0.752224
0.927276 0.655177 0.749935
0.000000 0.749111 0.827146
0.000000 0.752682 0.822782
0.519402 0.767758 0.808469
0.779690 0.766567 0.762448
0.935515 0.759060 0.736904
0.000000 0.944640 0.741573
0.155306 0.940459 0.735988
0.539605 0.924743 0.726680
0.779934 0.898985 0.719875
0.936706 0.874083 0.728847
0.102754 0.249454 0.949645
0.340734 0.351965 0.945556
0.512810 0.399481 0.939117
0.714900 0.514855 0.920104
0.877928 0.616938 0.897917
0.000000 0.282078 0.949889
0.333410 0.385199 0.945434
0.553765 0.483680 0.936522
0.726894 0.559411 0.919036
0.879454 0.643366 0.896818
0.000000 0.340093 0.952667
0.000000 0.393652 0.949859
0.634363 0.640345 0.932189
0.763546 0.676234 0.918242
0.885649 0.718166 0.895201
0.000000 0.610224 0.941863
0.151675 0.627588 0.940154
0.562554 0.699825 0.933684
0.823087 0.816800 0.919402
0.896239 0.812284 0.895079
0.000000 0.844633 0.926207
0.257633 0.850034 0.924865
0.579522 0.869902 0.920317
0.802457 0.894682 0.913939
0.909575 0.900938 0.897978
