其他预设/【233】日式怀旧街道调色预设208款/1.3D LUT预设（视频调色-PR-AE-PS-FCPX-达芬奇用）/2.富士胶片风-日式城市街拍预设/JA – Night Pop 3 (Classic Chrome).cube
# Created by Adobe Lightroom plugin Export LUT (1.17.0)
# www.johnrellis.com/lightroom/exportlut.htm
# Preset: JA – Night Pop 3 (Classic Chrome)
# Color profile: /Library/Application Support/Adobe/Color/Profiles/Recommended/AdobeRGB1998.icc
LUT_3D_SIZE 32
0.066712 0.081422 0.094789
0.066712 0.081422 0.094789
0.070039 0.080964 0.095003
0.096559 0.076204 0.096559
0.137942 0.063233 0.100130
0.198062 0.000000 0.105348
0.275425 0.000000 0.095827
0.364050 0.000000 0.082612
0.459297 0.000000 0.070008
0.553918 0.000000 0.038453
0.640284 0.000000 0.000000
0.717708 0.000000 0.000000
0.785336 0.000000 0.000000
0.844419 0.000000 0.000000
0.896574 0.000000 0.000000
0.948516 0.000000 0.000000
0.994598 0.000000 0.000000
1.000000 0.000000 0.000000
1.000000 0.000000 0.000000
1.000000 0.000000 0.000000
1.000000 0.000000 0.000000
1.000000 0.000000 0.000000
1.000000 0.000000 0.000000
1.000000 0.000000 0.000000
1.000000 0.000000 0.000000
1.000000 0.000000 0.000000
1.000000 0.000000 0.000000
1.000000 0.000000 0.000000
1.000000 0.000000 0.000000
1.000000 0.000000 0.000000
1.000000 0.000000 0.000000
1.000000 0.000000 0.000000
0.066712 0.081422 0.094789
0.066712 0.081422 0.094789
0.069551 0.081025 0.095033
0.095583 0.076417 0.096559
0.136446 0.064027 0.097169
0.196170 0.000000 0.092226
0.270970 0.000000 0.088441
0.357580 0.000000 0.081117
0.451881 0.000000 0.068116
0.546777 0.000000 0.032654
0.633051 0.000000 0.000000
0.710750 0.000000 0.000000
0.778805 0.000000 0.000000
0.838071 0.000000 0.000000
0.890684 0.000000 0.000000
0.943145 0.000000 0.000000
0.988617 0.000000 0.000000
1.000000 0.000000 0.000000
1.000000 0.000000 0.000000
1.000000 0.000000 0.000000
1.000000 0.000000 0.000000
1.000000 0.000000 0.000000
1.000000 0.000000 0.000000
1.000000 0.000000 0.000000
1.000000 0.000000 0.000000
1.000000 0.000000 0.000000
1.000000 0.000000 0.000000
1.000000 0.000000 0.000000
1.000000 0.000000 0.000000
1.000000 0.000000 0.000000
1.000000 0.000000 0.000000
1.000000 0.000000 0.000000
0.066712 0.081422 0.094789
0.066651 0.081758 0.094759
0.068238 0.082185 0.095491
0.094484 0.081636 0.094179
0.133852 0.076112 0.093233
0.191684 0.061707 0.091066
0.265080 0.000000 0.086854
0.350683 0.000000 0.079011
0.444648 0.000000 0.065034
0.539605 0.000000 0.023529
0.626703 0.000000 0.000000
0.704982 0.000000 0.000000
0.773678 0.000000 0.000000
0.833524 0.000000 0.000000
0.886412 0.000000 0.000000
0.940032 0.000000 0.000000
0.984924 0.000000 0.000000
1.000000 0.000000 0.000000
1.000000 0.000000 0.000000
1.000000 0.000000 0.000000
1.000000 0.000000 0.000000
1.000000 0.000000 0.000000
1.000000 0.000000 0.000000
1.000000 0.000000 0.000000
1.000000 0.000000 0.000000
1.000000 0.000000 0.000000
1.000000 0.000000 0.000000
1.000000 0.000000 0.000000
1.000000 0.000000 0.000000
1.000000 0.000000 0.000000
1.000000 0.000000 0.000000
1.000000 0.000000 0.000000
0.063722 0.097169 0.094667
0.063478 0.098268 0.094575
0.064912 0.099214 0.094209
0.081727 0.095094 0.100282
0.109865 0.102449 0.106294
0.170718 0.104158 0.098390
0.251347 0.098573 0.087678
0.342443 0.079744 0.073610
0.436255 0.000000 0.055146
0.531456 0.000000 0.000000
0.619013 0.000000 0.000000
0.697719 0.000000 0.000000
0.766903 0.000000 0.000000
0.827146 0.000000 0.000000
0.880858 0.000000 0.000000
0.936004 0.000000 0.000000
0.980133 0.000000 0.000000
1.000000 0.000000 0.000000
1.000000 0.000000 0.000000
1.000000 0.000000 0.000000
1.000000 0.000000 0.000000
1.000000 0.000000 0.000000
1.000000 0.000000 0.000000
1.000000 0.000000 0.000000
1.000000 0.000000 0.000000
1.000000 0.000000 0.000000
1.000000 0.000000 0.000000
1.000000 0.000000 0.000000
1.000000 0.000000 0.000000
1.000000 0.000000 0.000000
1.000000 0.000000 0.000000
1.000000 0.000000 0.000000
0.056580 0.120119 0.094118
0.056062 0.120974 0.094026
0.055024 0.122469 0.094118
0.082368 0.121157 0.093294
0.098848 0.111025 0.106569
0.130526 0.123415 0.117586
0.199527 0.137942 0.112154
0.292760 0.147372 0.097353
0.397070 0.148135 0.075685
0.502586 0.137179 0.017365
0.600183 0.107607 0.000000
0.684993 0.019745 0.000000
0.756283 0.000000 0.000000
0.817868 0.000000 0.000000
0.873228 0.000000 0.000000
0.930999 0.000000 0.000000
0.975311 0.000000 0.000000
1.000000 0.000000 0.000000
1.000000 0.000000 0.000000
1.000000 0.000000 0.000000
1.000000 0.000000 0.000000
1.000000 0.000000 0.000000
1.000000 0.000000 0.000000
1.000000 0.000000 0.000000
1.000000 0.000000 0.000000
1.000000 0.000000 0.000000
1.000000 0.000000 0.000000
1.000000 0.000000 0.000000
1.000000 0.000000 0.000000
1.000000 0.000000 0.000000
1.000000 0.000000 0.000000
1.000000 0.000000 0.000000
0.032044 0.151980 0.092866
0.030884 0.153140 0.092683
0.029175 0.154574 0.092744
0.071443 0.154238 0.089631
0.107668 0.146059 0.095766
0.120943 0.132021 0.111910
0.164675 0.151278 0.125002
0.229343 0.173800 0.132845
0.336461 0.196170 0.113344
0.449958 0.208927 0.087129
0.557549 0.209537 0.030579
0.651118 0.197421 0.000000
0.731899 0.176059 0.000000
0.800992 0.143313 0.000000
0.865873 0.095430 0.000000
0.925078 0.000000 0.000000
0.971313 0.000000 0.000000
1.000000 0.000000 0.000000
1.000000 0.000000 0.000000
1.000000 0.000000 0.000000
1.000000 0.000000 0.000000
1.000000 0.000000 0.000000
1.000000 0.000000 0.000000
1.000000 0.000000 0.000000
1.000000 0.000000 0.000000
1.000000 0.000000 0.000000
1.000000 0.000000 0.000000
1.000000 0.000000 0.000000
1.000000 0.000000 0.000000
1.000000 0.000000 0.000000
1.000000 0.000000 0.000000
1.000000 0.000000 0.000000
0.000000 0.204959 0.089021
0.000000 0.205966 0.089082
0.000000 0.207553 0.088746
0.031525 0.208011 0.080079
0.111543 0.205020 0.081300
0.144472 0.185214 0.097475
0.156222 0.165591 0.118318
0.215518 0.194125 0.134493
0.287449 0.224308 0.154513
0.398230 0.257053 0.146517
0.520714 0.276799 0.116884
0.626032 0.280186 0.079713
0.714656 0.271885 0.000000
0.788846 0.255100 0.000000
0.864134 0.236179 0.000000
0.924102 0.210483 0.000000
0.970611 0.179324 0.000000
1.000000 0.138857 0.000000
1.000000 0.082795 0.000000
1.000000 0.000000 0.000000
1.000000 0.000000 0.000000
1.000000 0.000000 0.000000
1.000000 0.000000 0.000000
1.000000 0.000000 0.000000
1.000000 0.000000 0.000000
1.000000 0.000000 0.000000
1.000000 0.000000 0.000000
1.000000 0.000000 0.000000
1.000000 0.000000 0.000000
1.000000 0.000000 0.000000
1.000000 0.000000 0.000000
1.000000 0.000000 0.000000
0.000000 0.262333 0.082582
0.000000 0.263432 0.082551
0.000000 0.264805 0.082124
0.000000 0.265629 0.062226
0.099977 0.262272 0.063386
0.158053 0.253300 0.071199
0.183597 0.224613 0.097475
0.194247 0.201755 0.123110
0.263890 0.236881 0.143679
0.345464 0.273350 0.169253
0.440894 0.310277 0.197269
0.564569 0.333562 0.170169
0.666255 0.338445 0.141848
0.758694 0.335607 0.112795
0.836637 0.324743 0.075837
0.900084 0.306889 0.000000
0.950713 0.284825 0.000000
0.990570 0.259251 0.000000
1.000000 0.231357 0.000000
1.000000 0.200504 0.000000
1.000000 0.165011 0.000000
1.000000 0.119387 0.000000
1.000000 0.002594 0.000000
1.000000 0.000000 0.000000
1.000000 0.000000 0.000000
1.000000 0.000000 0.000000
1.000000 0.000000 0.000000
1.000000 0.000000 0.000000
1.000000 0.000000 0.000000
1.000000 0.000000 0.000000
1.000000 0.000000 0.000000
1.000000 0.000000 0.000000
0.000000 0.330266 0.070100
0.000000 0.331273 0.069947
0.000000 0.332555 0.069276
0.000000 0.333532 0.000000
0.072511 0.330297 0.000000
0.160372 0.325566 0.000000
0.208743 0.304509 0.056733
0.230655 0.272251 0.095491
0.241215 0.246342 0.128420
0.320348 0.287144 0.155734
0.410010 0.327703 0.188449
0.502129 0.365332 0.232731
0.611658 0.394720 0.243839
0.718441 0.405615 0.226444
0.801785 0.402075 0.206821
0.870603 0.390112 0.183658
0.926848 0.372534 0.157259
0.971496 0.351995 0.128054
1.000000 0.328588 0.091615
1.000000 0.303960 0.009705
1.000000 0.277806 0.000000
1.000000 0.248875 0.000000
1.000000 0.216556 0.000000
1.000000 0.179110 0.000000
1.000000 0.130373 0.000000
1.000000 0.011261 0.000000
1.000000 0.000000 0.000000
1.000000 0.000000 0.000000
1.000000 0.000000 0.000000
1.000000 0.000000 0.000000
1.000000 0.000000 0.000000
1.000000 0.000000 0.000000
0.000000 0.405341 0.035554
0.000000 0.405982 0.036500
0.000000 0.406806 0.035004
0.000000 0.407904 0.000000
0.000000 0.404273 0.000000
0.151705 0.399481 0.000000
0.225559 0.392828 0.000000
0.264439 0.360113 0.007324
0.283970 0.324498 0.091005
0.295018 0.297002 0.135195
0.380957 0.340307 0.171267
0.480598 0.386419 0.215152
0.575067 0.426612 0.273350
0.659022 0.460456 0.333867
0.755642 0.468635 0.317479
0.833158 0.465553 0.300847
0.897795 0.454536 0.281804
0.949096 0.438483 0.262181
0.989319 0.419532 0.242771
1.000000 0.398077 0.222660
1.000000 0.375067 0.201999
1.000000 0.350530 0.179477
1.000000 0.323552 0.151339
1.000000 0.294163 0.113344
1.000000 0.260807 0.018769
1.000000 0.222782 0.000000
1.000000 0.176852 0.000000
1.000000 0.114839 0.000000
1.000000 0.143801 0.000000
1.000000 0.000000 0.000000
1.000000 0.000000 0.000000
1.000000 0.000000 0.000000
0.000000 0.479530 0.000000
0.000000 0.480171 0.000000
0.000000 0.481117 0.000000
0.000000 0.482216 0.000000
0.000000 0.479469 0.000000
0.128695 0.475166 0.000000
0.224796 0.470161 0.000000
0.288457 0.453681 0.000000
0.325139 0.419135 0.000000
0.344060 0.381933 0.086458
0.362188 0.358679 0.146304
0.459327 0.407294 0.197391
0.554070 0.447974 0.252506
0.637018 0.481361 0.317601
0.708339 0.512413 0.386267
0.783261 0.528252 0.406775
0.856992 0.526116 0.391302
0.915831 0.517174 0.375830
0.962646 0.502556 0.359319
1.000000 0.485420 0.344091
1.000000 0.466682 0.329870
1.000000 0.445899 0.314916
1.000000 0.423835 0.298863
1.000000 0.399145 0.279026
1.000000 0.371771 0.254673
1.000000 0.340551 0.222904
1.000000 0.305241 0.181949
1.000000 0.264561 0.123995
1.000000 0.280949 0.166629
1.000000 0.220981 0.000000
1.000000 0.150668 0.000000
1.000000 0.001862 0.000000
0.000000 0.553613 0.058717
0.000000 0.554101 0.041871
0.000000 0.554742 0.000000
0.000000 0.555474 0.000000
0.000000 0.553063 0.000000
0.074464 0.549279 0.000000
0.212467 0.544793 0.000000
0.297246 0.539391 0.000000
0.353338 0.513512 0.000000
0.395972 0.486854 0.000000
0.422126 0.454749 0.084382
0.440894 0.428717 0.164950
0.579858 0.507103 0.260533
0.665126 0.539910 0.334813
0.735500 0.568231 0.410010
0.793423 0.595819 0.479774
0.843961 0.621820 0.535393
0.905760 0.618250 0.520897
0.952911 0.608270 0.506920
0.990082 0.594537 0.493843
1.000000 0.577966 0.480903
1.000000 0.559869 0.468238
1.000000 0.539849 0.454139
1.000000 0.518425 0.438697
1.000000 0.494514 0.420050
1.000000 0.468086 0.398016
1.000000 0.437995 0.370733
1.000000 0.403845 0.337591
1.000000 0.413275 0.353735
1.000000 0.349676 0.269993
1.000000 0.285618 0.174472
1.000000 0.220340 0.000000
0.000000 0.635096 0.094087
0.000000 0.635401 0.086671
0.000000 0.635157 0.070619
0.000000 0.634394 0.000000
0.000000 0.631464 0.000000
0.000000 0.625849 0.000000
0.189364 0.620111 0.000000
0.292943 0.619043 0.000000
0.376257 0.614679 0.000000
0.435798 0.592493 0.000000
0.482704 0.567071 0.000000
0.515160 0.537774 0.104555
0.540154 0.514031 0.204227
0.626398 0.547631 0.294347
0.706325 0.578698 0.373114
0.770047 0.605127 0.448127
0.823331 0.631220 0.514092
0.866789 0.655848 0.568536
0.914183 0.664179 0.581415
0.958343 0.657710 0.571435
0.992554 0.647822 0.562829
1.000000 0.634821 0.553979
1.000000 0.620081 0.544945
1.000000 0.603662 0.534966
1.000000 0.585565 0.523522
1.000000 0.565667 0.510002
1.000000 0.543175 0.493446
1.000000 0.517906 0.473457
1.000000 0.529503 0.491432
1.000000 0.470283 0.423499
1.000000 0.408057 0.347082
1.000000 0.343786 0.261906
0.000000 0.691798 0.117525
0.000000 0.692073 0.110445
0.000000 0.691859 0.096773
0.000000 0.692103 0.000000
0.000000 0.692836 0.000000
0.000000 0.690974 0.000000
0.136080 0.688716 0.000000
0.274479 0.685878 0.000000
0.368261 0.683192 0.000000
0.442817 0.669581 0.000000
0.500664 0.646357 0.000000
0.546838 0.620356 0.000000
0.578698 0.590753 0.140200
0.601617 0.565454 0.241276
0.675959 0.590661 0.336400
0.745388 0.616449 0.414710
0.802304 0.639979 0.485145
0.849668 0.663050 0.544823
0.888670 0.685512 0.595056
0.922698 0.704891 0.632227
0.963592 0.701869 0.625818
0.995056 0.694942 0.620111
1.000000 0.684901 0.614069
1.000000 0.673335 0.608026
1.000000 0.660273 0.601343
1.000000 0.645655 0.593408
1.000000 0.629572 0.584100
1.000000 0.611780 0.573144
1.000000 0.624079 0.590509
1.000000 0.574670 0.540154
1.000000 0.520012 0.480781
1.000000 0.459968 0.411139
0.000000 0.754086 0.137972
0.000000 0.754818 0.132601
0.000000 0.754940 0.122683
0.000000 0.755154 0.066712
0.000000 0.754177 0.000000
0.000000 0.751064 0.000000
0.000000 0.747066 0.000000
0.236454 0.742611 0.000000
0.346868 0.738460 0.000000
0.435462 0.734737 0.000000
0.502861 0.715114 0.000000
0.559899 0.692470 0.000000
0.605158 0.666712 0.000000
0.635889 0.637049 0.183627
0.656184 0.610803 0.282811
0.718898 0.628717 0.379095
0.780667 0.651270 0.454810
0.831907 0.672633 0.519768
0.874601 0.693599 0.574640
0.909392 0.714626 0.621851
0.937041 0.735897 0.663508
0.968719 0.741665 0.672816
0.997162 0.736782 0.668727
1.000000 0.729366 0.664698
1.000000 0.720363 0.660639
1.000000 0.710353 0.656458
1.000000 0.699489 0.651972
1.000000 0.687831 0.646998
1.000000 0.697688 0.660945
1.000000 0.657557 0.623133
1.000000 0.612207 0.578668
1.000000 0.561791 0.526543
0.000000 0.807309 0.154116
0.000000 0.807980 0.147433
0.000000 0.808286 0.139803
0.000000 0.808652 0.106813
0.000000 0.807706 0.000000
0.000000 0.805814 0.000000
0.000000 0.802243 0.000000
0.179202 0.798306 0.000000
0.316869 0.793851 0.000000
0.415503 0.789212 0.000000
0.496834 0.779141 0.000000
0.560784 0.757412 0.000000
0.614252 0.732784 0.000000
0.656062 0.705226 0.122377
0.683742 0.674983 0.228733
0.700984 0.648096 0.323766
0.754269 0.661097 0.418463
0.811551 0.682643 0.491035
0.859068 0.703120 0.552300
0.898283 0.723598 0.604608
0.929320 0.744015 0.650141
0.953307 0.764248 0.689662
0.974701 0.779110 0.715389
1.000000 0.776303 0.712886
1.000000 0.771389 0.710780
1.000000 0.765164 0.708736
1.000000 0.758083 0.706783
1.000000 0.750454 0.704799
1.000000 0.759182 0.716548
1.000000 0.724331 0.685328
1.000000 0.685878 0.649928
1.000000 0.643519 0.609613
0.000000 0.850889 0.164828
0.000000 0.851072 0.158541
0.000000 0.851072 0.151034
0.000000 0.851286 0.129549
0.000000 0.850278 0.000000
0.000000 0.849119 0.000000
0.000000 0.845487 0.000000
0.049714 0.841337 0.000000
0.272038 0.836728 0.000000
0.384283 0.831785 0.000000
0.474830 0.826596 0.000000
0.548455 0.811551 0.000000
0.609857 0.789944 0.000000
0.660975 0.765316 0.000000
0.700160 0.737697 0.183780
0.725521 0.707912 0.274754
0.740902 0.681788 0.366003
0.788083 0.692409 0.457862
0.841215 0.713100 0.526757
0.884398 0.732387 0.583764
0.919005 0.751461 0.632990
0.945708 0.770413 0.675837
0.966064 0.788846 0.712428
0.981262 0.807553 0.745388
1.000000 0.809964 0.749905
1.000000 0.807309 0.749233
1.000000 0.803586 0.748867
1.000000 0.799191 0.748775
1.000000 0.804196 0.756924
1.000000 0.778225 0.733577
1.000000 0.745541 0.704372
1.000000 0.709895 0.672175
0.000000 0.889708 0.173861
0.000000 0.890440 0.168063
0.000000 0.912718 0.167575
0.000000 0.912810 0.147097
0.000000 0.911772 0.000000
0.000000 0.910582 0.000000
0.000000 0.906493 0.000000
0.000000 0.901579 0.000000
0.221225 0.896178 0.000000
0.355077 0.890379 0.000000
0.456062 0.884062 0.000000
0.541039 0.876707 0.000000
0.610346 0.856901 0.000000
0.670375 0.834562 0.000000
0.719753 0.809506 0.143679
0.757015 0.782010 0.260258
0.780667 0.752773 0.341405
0.793912 0.727474 0.428077
0.833799 0.735195 0.513359
0.879820 0.753017 0.574823
0.915496 0.769314 0.625879
0.943236 0.785824 0.670558
0.964385 0.802060 0.708614
0.980011 0.818540 0.742245
0.991547 0.835172 0.772580
1.000000 0.844327 0.787869
1.000000 0.842557 0.787137
1.000000 0.840024 0.787076
1.000000 0.842161 0.791928
1.000000 0.823301 0.774380
1.000000 0.794705 0.748379
1.000000 0.763607 0.720516
0.000000 0.927733 0.179599
0.000000 0.930449 0.174838
0.000000 0.933135 0.168124
0.000000 0.935515 0.150027
0.000000 0.936767 0.000000
0.000000 0.936553 0.000000
0.000000 0.934203 0.000000
0.000000 0.929778 0.000000
0.128573 0.925017 0.000000
0.305211 0.919585 0.000000
0.415930 0.913634 0.000000
0.505791 0.907256 0.000000
0.583734 0.895964 0.000000
0.649989 0.876890 0.000000
0.707332 0.855253 0.000000
0.754452 0.831327 0.212955
0.789792 0.805478 0.310307
0.812528 0.778408 0.384863
0.825467 0.755337 0.467689
0.860929 0.761868 0.547173
0.902129 0.778256 0.604639
0.933776 0.793973 0.653681
0.957794 0.809293 0.695552
0.975555 0.824613 0.731777
0.988525 0.840360 0.764309
0.998291 0.856413 0.793606
1.000000 0.871519 0.818357
1.000000 0.871855 0.819089
1.000000 0.873167 0.822110
1.000000 0.859953 0.808957
1.000000 0.835782 0.785946
1.000000 0.808957 0.761227
0.000000 0.953033 0.179446
0.000000 0.955200 0.174716
0.000000 0.957366 0.168002
0.000000 0.959289 0.150027
0.000000 0.960510 0.082582
0.000000 0.960296 0.000000
0.000000 0.958984 0.000000
0.000000 0.955138 0.000000
0.000000 0.950805 0.000000
0.246494 0.945892 0.000000
0.371893 0.940490 0.000000
0.467475 0.934630 0.000000
0.550683 0.927764 0.000000
0.623285 0.913756 0.000000
0.687221 0.895384 0.000000
0.742367 0.874846 0.151431
0.787625 0.852567 0.276219
0.821683 0.829007 0.362402
0.844236 0.804654 0.431586
0.857267 0.784237 0.509606
0.887877 0.789181 0.582208
0.923674 0.803983 0.635920
0.950774 0.818357 0.682002
0.970794 0.832364 0.721035
0.985290 0.846799 0.755764
0.996063 0.861753 0.786893
1.000000 0.876890 0.814694
1.000000 0.891814 0.839475
1.000000 0.897368 0.847654
1.000000 0.888792 0.838346
1.000000 0.869047 0.817990
1.000000 0.846494 0.796048
0.000000 0.975219 0.175784
0.000000 0.977020 0.170901
0.000000 0.978790 0.162844
0.000000 0.980377 0.145388
0.000000 0.981567 0.108766
0.000000 0.981323 0.000000
0.000000 0.980957 0.000000
0.000000 0.977478 0.000000
0.000000 0.973480 0.000000
0.167330 0.968902 0.000000
0.322423 0.963867 0.000000
0.425513 0.958373 0.000000
0.512047 0.952148 0.000000
0.590539 0.944640 0.000000
0.659571 0.929290 0.000000
0.721767 0.912200 0.000000
0.775906 0.893767 0.237613
0.820584 0.874479 0.341558
0.855131 0.854856 0.422156
0.879179 0.835233 0.487373
0.893492 0.818692 0.559930
0.919249 0.822782 0.627039
0.948272 0.835416 0.676509
0.969909 0.848203 0.718837
0.985321 0.861418 0.756130
0.996521 0.875242 0.789029
1.000000 0.889250 0.818112
1.000000 0.903105 0.843595
1.000000 0.913939 0.860746
1.000000 0.909819 0.861601
1.000000 0.895140 0.845212
1.000000 0.876829 0.825864
0.000000 1.000000 0.170779
0.000000 1.000000 0.165042
0.000000 1.000000 0.156924
0.000000 1.000000 0.137301
0.000000 1.000000 0.097383
0.000000 1.000000 0.000000
0.000000 1.000000 0.000000
0.000000 0.999725 0.000000
0.000000 0.996307 0.000000
0.000000 0.992432 0.000000
0.266880 0.988098 0.000000
0.381689 0.983307 0.000000
0.473854 0.977661 0.000000
0.555291 0.971283 0.000000
0.629603 0.961669 0.000000
0.697414 0.947112 0.000000
0.758175 0.931212 0.196475
0.810727 0.914397 0.321599
0.853574 0.897246 0.412055
0.886473 0.880034 0.483375
0.909514 0.863005 0.539757
0.922301 0.847868 0.604211
0.941833 0.849332 0.663996
0.964355 0.858549 0.706783
0.981506 0.869749 0.746242
0.993927 0.882109 0.781399
1.000000 0.895109 0.812528
1.000000 0.908263 0.839841
1.000000 0.919768 0.859586
1.000000 0.915160 0.860502
1.000000 0.911040 0.861357
1.000000 0.900542 0.851225
0.000000 1.000000 0.159701
0.000000 1.000000 0.154391
0.000000 1.000000 0.145388
0.000000 1.000000 0.124880
0.000000 1.000000 0.077974
0.000000 1.000000 0.000000
0.000000 1.000000 0.000000
0.000000 1.000000 0.000000
0.000000 1.000000 0.000000
0.000000 1.000000 0.000000
0.191165 1.000000 0.000000
0.329747 1.000000 0.000000
0.429328 0.996338 0.000000
0.514763 0.990539 0.000000
0.591821 0.984131 0.000000
0.663569 0.973175 0.000000
0.729885 0.959472 0.114931
0.789029 0.944915 0.286900
0.839506 0.929961 0.392493
0.880339 0.915160 0.473243
0.911711 0.900755 0.536156
0.934173 0.886870 0.586786
0.946166 0.874113 0.646357
0.961334 0.874449 0.700130
0.976135 0.877684 0.732967
0.990234 0.888304 0.770687
1.000000 0.900145 0.804288
1.000000 0.912505 0.833707
1.000000 0.924651 0.858579
1.000000 0.920897 0.859342
1.000000 0.916320 0.860288
1.000000 0.912169 0.861112
0.000000 1.000000 0.147982
0.000000 1.000000 0.141848
0.000000 1.000000 0.132845
0.000000 1.000000 0.108492
0.000000 1.000000 0.033112
0.000000 1.000000 0.000000
0.000000 1.000000 0.000000
0.000000 1.000000 0.000000
0.000000 1.000000 0.000000
0.000000 1.000000 0.000000
0.000000 1.000000 0.000000
0.270054 1.000000 0.000000
0.382269 1.000000 0.000000
0.472633 1.000000 0.000000
0.552148 1.000000 0.000000
0.625086 0.994873 0.000000
0.695033 0.982391 0.000000
0.759182 0.968994 0.233005
0.815824 0.955383 0.359747
0.863676 0.941985 0.452949
0.902037 0.929259 0.524254
0.931395 0.917144 0.580285
0.952422 0.905486 0.625849
0.962768 0.893950 0.679835
0.974029 0.892851 0.728054
0.987427 0.898283 0.763088
0.998749 0.908232 0.798428
1.000000 0.919036 0.829282
1.000000 0.930419 0.856443
1.000000 0.927031 0.858091
1.000000 0.921965 0.859129
1.000000 0.917388 0.860075
0.000000 1.000000 0.130159
0.000000 1.000000 0.123201
0.000000 1.000000 0.112642
0.000000 1.000000 0.081819
0.000000 1.000000 0.000000
0.000000 1.000000 0.000000
0.000000 1.000000 0.000000
0.000000 1.000000 0.000000
0.000000 1.000000 0.000000
0.000000 1.000000 0.000000
0.000000 1.000000 0.000000
0.193118 1.000000 0.000000
0.330449 1.000000 0.000000
0.428656 1.000000 0.000000
0.512322 1.000000 0.000000
0.587610 1.000000 0.000000
0.658869 1.000000 0.000000
0.728176 0.992889 0.171389
0.790982 0.980468 0.332250
0.845335 0.968109 0.439429
0.889830 0.956359 0.519158
0.924987 0.945434 0.580438
0.951568 0.935241 0.629816
0.970611 0.925689 0.670130
0.979370 0.915770 0.718837
0.987366 0.914549 0.763699
0.997406 0.918975 0.794949
1.000000 0.928435 0.827848
1.000000 0.938689 0.855711
1.000000 0.933562 0.856779
1.000000 0.928008 0.857908
1.000000 0.922942 0.858946
0.000000 1.000000 0.109621
0.000000 1.000000 0.100221
0.000000 1.000000 0.087037
0.000000 1.000000 0.016419
0.000000 1.000000 0.000000
0.000000 1.000000 0.000000
0.000000 1.000000 0.000000
0.000000 1.000000 0.000000
0.000000 1.000000 0.000000
0.000000 1.000000 0.000000
0.000000 1.000000 0.000000
0.000000 1.000000 0.000000
0.269657 1.000000 0.000000
0.381292 1.000000 0.000000
0.470253 1.000000 0.000000
0.548547 1.000000 0.000000
0.620264 1.000000 0.000000
0.691279 1.000000 0.000000
0.759762 1.000000 0.288060
0.820462 0.989532 0.415106
0.871336 0.978332 0.506371
0.912047 0.968048 0.574578
0.943725 0.958648 0.628443
0.967498 0.950072 0.672084
0.984466 0.942229 0.708125
0.991455 0.933928 0.754238
0.997345 0.933227 0.795987
1.000000 0.936980 0.823758
1.000000 0.945617 0.853605
1.000000 0.940551 0.855344
1.000000 0.934417 0.856596
1.000000 0.928862 0.857725
0.000000 1.000000 0.080995
0.000000 1.000000 0.068055
0.000000 1.000000 0.026429
0.000000 1.000000 0.000000
0.000000 1.000000 0.000000
0.000000 1.000000 0.000000
0.000000 1.000000 0.000000
0.000000 1.000000 0.000000
0.000000 1.000000 0.000000
0.000000 1.000000 0.000000
0.000000 1.000000 0.000000
0.000000 1.000000 0.000000
0.196658 1.000000 0.000000
0.333165 1.000000 0.000000
0.430823 1.000000 0.000000
0.513481 1.000000 0.000000
0.587884 1.000000 0.000000
0.656367 1.000000 0.000000
0.730922 1.000000 0.257877
0.799100 1.000000 0.409491
0.856535 1.000000 0.511955
0.902586 0.992370 0.586084
0.938628 0.983673 0.643580
0.965972 0.976074 0.689052
0.986175 0.969451 0.727626
1.000000 0.963745 0.761471
1.000000 0.957855 0.804440
1.000000 0.957671 0.840635
1.000000 0.955413 0.852293
1.000000 0.947967 0.853819
1.000000 0.941222 0.855222
1.000000 0.935180 0.856443
0.000000 1.000000 0.051637
0.000000 1.000000 0.015625
0.000000 1.000000 0.000000
0.000000 1.000000 0.000000
0.000000 1.000000 0.000000
0.000000 1.000000 0.000000
0.000000 1.000000 0.000000
0.000000 1.000000 0.000000
0.000000 1.000000 0.000000
0.000000 1.000000 0.000000
0.000000 1.000000 0.000000
0.000000 1.000000 0.000000
0.023651 1.000000 0.000000
0.275181 1.000000 0.000000
0.385168 1.000000 0.000000
