其他预设/【233】日式怀旧街道调色预设208款/1.3D LUT预设（视频调色-PR-AE-PS-FCPX-达芬奇用）/2.富士胶片风-日式城市街拍预设/JA – Cine Night 4 (Classic Chrome).cube
# Created by Adobe Lightroom plugin Export LUT (1.17.0)
# www.johnrellis.com/lightroom/exportlut.htm
# Preset: JA – Cine Night 4 (Classic Chrome)
# Color profile: /Library/Application Support/Adobe/Color/Profiles/Recommended/AdobeRGB1998.icc
LUT_3D_SIZE 8
DOMAIN_MIN 0.000000 0.000000 0.000000
DOMAIN_MAX 0.903226 0.903226 0.903226
0.014038 0.000000 0.121248
0.059876 0.000000 0.124636
0.136507 0.068116 0.137362
0.296849 0.142702 0.141176
0.551812 0.227756 0.127047
0.772519 0.297063 0.115572
0.906188 0.355413 0.154818
1.000000 0.428046 0.231510
0.009277 0.047211 0.121370
0.056672 0.062257 0.122316
0.140963 0.097658 0.133700
0.304509 0.173007 0.136446
0.559380 0.250675 0.123445
0.774746 0.311986 0.119997
0.906859 0.367651 0.160128
1.000000 0.438270 0.236667
0.000000 0.145724 0.152590
0.000000 0.157198 0.147921
0.133547 0.175723 0.146517
0.334112 0.252781 0.142763
0.589044 0.314611 0.134096
0.788510 0.364752 0.138613
0.913237 0.412268 0.181949
1.000000 0.476600 0.259403
0.000000 0.297429 0.212894
0.000000 0.308080 0.205600
0.105959 0.337865 0.165103
0.323888 0.352911 0.175051
0.628046 0.422705 0.166690
0.810147 0.456672 0.177707
0.921996 0.489174 0.222965
1.000000 0.542107 0.302220
0.000000 0.478492 0.290043
0.000000 0.486458 0.282933
0.000000 0.512230 0.238224
0.349187 0.534905 0.181308
0.601282 0.541863 0.215732
0.815549 0.582971 0.237797
0.931609 0.595575 0.289677
1.000000 0.632654 0.373938
0.000000 0.677241 0.376715
0.000000 0.682918 0.370367
0.000000 0.697810 0.340063
0.276738 0.712734 0.271702
0.589654 0.711971 0.242924
0.795041 0.713558 0.308446
0.923949 0.716915 0.381323
1.000000 0.736843 0.480293
0.000000 0.825589 0.454505
0.000000 0.827237 0.450294
0.000000 0.831174 0.436072
0.334630 0.832639 0.420356
0.559655 0.830350 0.381353
0.760037 0.823941 0.393103
0.910033 0.823880 0.490181
0.996185 0.827298 0.581506
0.000000 0.928283 0.538109
0.000000 0.928038 0.538598
0.244572 0.925841 0.545281
0.507225 0.918944 0.573541
0.675837 0.911650 0.601770
0.769863 0.912047 0.557580
0.898375 0.905455 0.609491
0.988830 0.902556 0.681300
0.004913 0.001709 0.135348
0.054902 0.000000 0.139376
0.137972 0.082673 0.148501
0.301244 0.156100 0.157687
0.554223 0.230655 0.154513
0.770718 0.295659 0.155978
0.904326 0.357000 0.189334
1.000000 0.432929 0.257847
0.000000 0.063539 0.145205
0.047578 0.072663 0.149142
0.140352 0.109743 0.156405
0.308080 0.178805 0.160616
0.561120 0.249577 0.157504
0.773770 0.311192 0.159854
0.905150 0.369238 0.194308
1.000000 0.443091 0.262913
0.000000 0.149233 0.174624
0.000000 0.164187 0.177371
0.136782 0.186313 0.172396
0.333959 0.253574 0.173922
0.588159 0.313390 0.170443
0.786557 0.363897 0.176974
0.910826 0.413794 0.213993
1.000000 0.481453 0.284367
0.000000 0.303044 0.231479
0.000000 0.314122 0.228580
0.093355 0.343969 0.195163
0.329839 0.358251 0.201266
0.626734 0.421607 0.200198
0.806577 0.455818 0.211765
0.919188 0.491066 0.251957
1.000000 0.547356 0.326207
0.000000 0.483742 0.308141
0.000000 0.491035 0.302800
0.000000 0.515435 0.270146
0.345495 0.538506 0.211063
0.603662 0.544610 0.241764
0.814542 0.583490 0.266880
0.929290 0.598779 0.317388
1.000000 0.638422 0.397711
0.000000 0.679469 0.392767
0.000000 0.684138 0.386999
0.000000 0.698451 0.361547
0.278782 0.713741 0.299718
0.589044 0.713405 0.268589
0.795285 0.714809 0.333623
0.922698 0.719478 0.406104
1.000000 0.741207 0.501427
0.000000 0.825437 0.467842
0.000000 0.826810 0.463813
0.000000 0.830564 0.451606
0.349920 0.831785 0.440162
0.566796 0.829831 0.406958
0.761135 0.823911 0.413977
0.908934 0.824002 0.508141
0.994903 0.828580 0.594232
0.000000 0.927794 0.548119
0.000000 0.927550 0.548821
0.258122 0.925322 0.555932
0.513237 0.918395 0.583856
0.684688 0.911162 0.616510
0.774228 0.911650 0.574517
0.898802 0.905455 0.619287
0.988281 0.902617 0.688014
0.000000 0.072541 0.189853
0.000000 0.062867 0.193637
0.128634 0.082033 0.211765
0.304936 0.097414 0.213352
0.556512 0.216068 0.229740
0.769986 0.292851 0.246311
0.902129 0.366186 0.276493
1.000000 0.454536 0.336400
0.000000 0.107057 0.199557
0.002319 0.109071 0.206027
0.132662 0.114778 0.219272
0.311620 0.151003 0.221225
0.562860 0.241154 0.237125
0.772671 0.309636 0.250858
0.903014 0.379034 0.281010
1.000000 0.465370 0.341802
0.000000 0.180056 0.225406
0.000000 0.187991 0.230014
0.139712 0.209567 0.241855
0.333440 0.259709 0.250797
0.587823 0.312200 0.256413
0.784360 0.366003 0.267735
0.907652 0.425635 0.300023
1.000000 0.504295 0.363104
0.000000 0.314549 0.277592
0.000000 0.325872 0.282231
0.100923 0.356237 0.284184
0.349889 0.375769 0.275639
0.629847 0.424201 0.288975
0.802701 0.461616 0.302861
0.915068 0.506188 0.338476
1.000000 0.571832 0.405585
0.000000 0.493629 0.357641
0.000000 0.502098 0.358160
0.000000 0.526635 0.351354
0.336767 0.552697 0.303990
0.616999 0.558556 0.321660
0.814817 0.591882 0.357214
0.923186 0.615381 0.404211
1.000000 0.660945 0.473548
0.000000 0.686763 0.442145
0.000000 0.691646 0.440223
0.000000 0.704677 0.428595
0.318029 0.717891 0.393561
0.589502 0.719570 0.348028
0.796078 0.719600 0.413855
0.919097 0.729854 0.484291
1.000000 0.756680 0.566033
0.000000 0.827726 0.511864
0.000000 0.828855 0.510124
0.000000 0.831388 0.503838
0.398657 0.830961 0.502068
0.597223 0.828580 0.490425
0.766629 0.825071 0.481422
0.907500 0.826474 0.566003
0.992401 0.834531 0.636622
0.000000 0.927489 0.582696
0.000000 0.927184 0.582818
0.294652 0.924437 0.590753
0.531334 0.917510 0.617456
0.700771 0.909911 0.652399
0.786313 0.910369 0.623499
0.900267 0.905760 0.649989
0.987060 0.903380 0.710750
0.000000 0.134096 0.275669
0.000000 0.114687 0.280705
0.127169 0.107271 0.289952
0.291966 0.134279 0.317967
0.541070 0.134676 0.334020
0.762570 0.249638 0.332677
0.893065 0.393774 0.386542
0.992126 0.502586 0.448798
0.000000 0.172885 0.286442
0.000000 0.167819 0.292943
0.127626 0.142580 0.301427
0.300237 0.166751 0.324620
0.549767 0.174502 0.336492
0.764340 0.295659 0.347356
0.893797 0.408942 0.393225
0.992554 0.511681 0.452430
0.000000 0.248051 0.310185
0.000000 0.252445 0.314794
0.138125 0.259525 0.330877
0.326085 0.259495 0.346990
0.578058 0.276738 0.347082
0.774289 0.381567 0.380621
0.898100 0.461128 0.417243
0.993896 0.548943 0.472450
0.000000 0.356786 0.353429
0.000000 0.362310 0.357610
0.122347 0.379004 0.371008
0.370611 0.396185 0.389258
0.615106 0.433692 0.403326
0.789975 0.483040 0.422919
0.903593 0.541527 0.456367
0.994507 0.612787 0.511925
0.000000 0.505119 0.424414
0.000000 0.513024 0.429236
0.103731 0.538201 0.443946
0.378241 0.565332 0.447517
0.630793 0.576654 0.442878
0.809110 0.612421 0.485908
0.910918 0.645747 0.519829
0.994690 0.693538 0.570794
0.000000 0.697749 0.519310
0.000000 0.702083 0.520104
0.079377 0.712398 0.519677
0.398871 0.721645 0.515129
0.605371 0.726101 0.487068
0.796353 0.727230 0.528161
0.913664 0.747860 0.588708
0.995209 0.774655 0.638972
0.000000 0.830167 0.580743
0.000000 0.830961 0.580621
0.212528 0.832151 0.580804
0.456916 0.830625 0.585382
0.648920 0.826322 0.600732
0.774746 0.826963 0.572381
0.905760 0.830259 0.636744
0.989593 0.842069 0.689357
0.065492 0.925963 0.643671
0.183444 0.925475 0.644465
0.354284 0.923217 0.647913
0.543175 0.917388 0.663661
0.707057 0.910307 0.692348
0.800870 0.909178 0.685664
0.900877 0.906493 0.690517
0.985260 0.904570 0.743130
0.000000 0.216587 0.385626
0.000000 0.201785 0.390539
0.090913 0.169070 0.398505
0.306737 0.154513 0.407446
0.523369 0.180606 0.449165
0.737819 0.221469 0.468879
0.883482 0.350927 0.472297
0.973816 0.586450 0.584436
0.000000 0.251164 0.395117
0.000000 0.245640 0.401465
0.082490 0.201633 0.410224
0.315312 0.183383 0.417639
0.530541 0.210575 0.455177
0.741726 0.252445 0.472816
0.884062 0.375555 0.479225
0.973541 0.598840 0.591119
0.000000 0.327001 0.417975
0.000000 0.329351 0.422492
0.137545 0.321996 0.441321
0.332403 0.278996 0.450172
0.554162 0.297276 0.476661
0.753201 0.343755 0.488228
0.883421 0.470405 0.515557
0.975525 0.621820 0.601160
0.000000 0.421332 0.460945
0.000000 0.424231 0.465064
0.149447 0.432319 0.478340
0.385687 0.437263 0.501732
0.591821 0.428351 0.517296
0.770626 0.479530 0.524163
0.883421 0.592309 0.575708
0.980682 0.656245 0.613642
0.000000 0.547753 0.523888
0.000000 0.551507 0.527550
0.135439 0.562646 0.538659
0.413642 0.576989 0.555932
0.636347 0.592096 0.575586
0.787564 0.631495 0.593652
0.894469 0.672633 0.617212
0.984497 0.716854 0.648646
0.000000 0.697139 0.592126
0.000000 0.701015 0.595056
0.195743 0.711421 0.604334
0.468574 0.722103 0.620630
0.646815 0.727962 0.627100
0.794430 0.734432 0.633997
0.909667 0.763882 0.675013
0.988098 0.786893 0.698421
0.000000 0.829953 0.659419
0.131258 0.830320 0.661341
0.357824 0.830716 0.669215
0.528466 0.828946 0.675135
0.669642 0.827695 0.680049
0.782437 0.829068 0.666896
0.904509 0.834440 0.700740
0.987457 0.849668 0.742092
0.319890 0.921752 0.717861
0.357946 0.921019 0.718959
0.461280 0.918608 0.722866
0.583307 0.915373 0.728878
0.701259 0.911955 0.735714
0.815854 0.908385 0.749233
0.898283 0.907774 0.732631
0.983062 0.905943 0.780179
0.000000 0.314092 0.527825
0.000000 0.303838 0.532372
0.000000 0.246708 0.538964
0.323095 0.225162 0.544701
0.532799 0.204929 0.552789
0.721981 0.258244 0.591302
0.857969 0.385992 0.606317
0.966674 0.560082 0.649256
0.000000 0.340612 0.534936
0.000000 0.334661 0.539910
0.000000 0.274846 0.548699
0.324041 0.252842 0.553094
0.538384 0.231022 0.560143
0.724605 0.283574 0.595422
0.858579 0.406409 0.610071
0.966613 0.571771 0.652979
0.000000 0.410163 0.554406
0.000000 0.407324 0.558862
0.158633 0.393500 0.574487
0.329290 0.338018 0.581811
0.556359 0.310430 0.585718
0.734249 0.363684 0.610834
0.861051 0.473884 0.624598
0.967193 0.609094 0.665553
0.000000 0.492439 0.591119
0.000000 0.492958 0.593530
0.204868 0.494423 0.601801
0.415015 0.489723 0.620874
0.579767 0.439918 0.624994
0.748562 0.485847 0.637995
0.865934 0.572015 0.651087
0.970001 0.662196 0.683619
0.000000 0.598718 0.636805
0.000000 0.599908 0.638788
0.228519 0.603388 0.644923
0.448341 0.609522 0.653651
0.636896 0.620752 0.666377
0.764736 0.621454 0.673365
0.875944 0.669368 0.682979
0.970764 0.742519 0.723537
0.000000 0.717159 0.683131
0.000000 0.718379 0.684596
0.280034 0.721187 0.689082
0.488472 0.724758 0.696162
0.662409 0.730465 0.705623
0.792508 0.741390 0.719387
0.894408 0.766903 0.732540
0.980224 0.794217 0.750179
0.130251 0.824643 0.725734
0.217899 0.824918 0.727047
0.386114 0.824949 0.731685
0.559899 0.824582 0.740749
0.704280 0.827939 0.755215
0.800412 0.833402 0.758511
0.903838 0.839658 0.763821
0.985260 0.859464 0.798672
0.409125 0.916747 0.780423
0.440894 0.916014 0.781918
0.532799 0.913756 0.787381
0.643275 0.911620 0.796506
0.731960 0.911009 0.800504
0.813718 0.910582 0.799008
0.897337 0.909117 0.790524
0.980377 0.907744 0.824247
0.000000 0.415412 0.684108
0.000000 0.410529 0.686580
0.000000 0.360418 0.689876
0.336584 0.326635 0.691218
0.548974 0.285100 0.690700
0.722042 0.305638 0.695552
0.847684 0.417426 0.709560
0.948760 0.586328 0.743648
0.000000 0.434485 0.687251
0.000000 0.429938 0.689662
0.122072 0.391638 0.693935
0.339849 0.348425 0.695491
0.550042 0.309667 0.694728
0.723659 0.327245 0.698909
0.848081 0.435279 0.711971
0.949035 0.595819 0.745693
0.000000 0.488563 0.695735
0.089418 0.485695 0.697719
0.270054 0.475685 0.704585
0.360662 0.419196 0.708827
0.556237 0.387488 0.707515
0.728939 0.396124 0.709438
0.849393 0.492836 0.720333
0.950195 0.626337 0.752438
0.086366 0.560845 0.711910
0.166140 0.560510 0.712367
0.313329 0.559808 0.714290
0.480568 0.556909 0.724178
0.580224 0.508568 0.726192
0.736507 0.499825 0.725399
0.851957 0.576776 0.734737
0.953338 0.670649 0.762814
0.164675 0.646052 0.737179
0.220981 0.646235 0.737636
0.351965 0.647242 0.738857
0.502159 0.650080 0.739651
0.654292 0.659083 0.746334
0.746700 0.619928 0.745815
0.858000 0.664057 0.754543
0.959167 0.724117 0.776791
0.249363 0.739528 0.765591
0.292119 0.739773 0.766018
0.405737 0.740810 0.767330
0.542992 0.743008 0.768978
0.672389 0.747066 0.770871
0.783810 0.752834 0.777554
0.871580 0.750912 0.782681
0.967834 0.787167 0.797208
0.341039 0.828214 0.795895
0.373938 0.828092 0.796384
0.469093 0.827756 0.798032
0.588342 0.827665 0.801022
0.701991 0.829282 0.806088
0.803098 0.834012 0.814298
0.900298 0.843015 0.827146
0.976349 0.862394 0.839963
0.446143 0.911528 0.834745
0.471656 0.911009 0.835355
0.547143 0.909361 0.837552
0.643091 0.907897 0.841733
0.739620 0.908049 0.848112
0.834379 0.909728 0.857420
0.911223 0.909941 0.860868
0.977539 0.909880 0.870146
0.351629 0.544945 0.810513
0.380621 0.545220 0.811154
0.402350 0.518395 0.812802
0.469062 0.481300 0.813748
0.601221 0.458900 0.812253
0.738369 0.419806 0.809567
0.863951 0.503624 0.810666
0.951354 0.621454 0.824430
0.362737 0.557916 0.811551
0.390356 0.558282 0.812131
0.431434 0.541039 0.813840
0.479683 0.498909 0.815183
0.605737 0.476692 0.813687
0.739193 0.438758 0.811002
0.864103 0.516564 0.811887
0.951354 0.628473 0.825559
0.385657 0.596857 0.814725
0.411322 0.597284 0.815213
0.491402 0.600275 0.817044
0.523613 0.560357 0.819638
0.622339 0.535302 0.818479
0.742733 0.500786 0.815793
0.864500 0.557977 0.816129
0.951568 0.651362 0.829404
0.396033 0.650965 0.820157
0.422339 0.652186 0.820218
0.500206 0.654810 0.821897
0.608820 0.662318 0.824949
0.652247 0.621149 0.826596
0.750820 0.592187 0.824002
0.864988 0.615473 0.823606
0.952392 0.685817 0.835935
0.432227 0.716915 0.836393
0.451698 0.717159 0.836118
0.512016 0.717769 0.834928
0.594263 0.717372 0.832120
0.707301 0.724056 0.836484
0.761746 0.685145 0.836423
0.864775 0.677363 0.834531
0.954131 0.729671 0.845518
0.480934 0.788632 0.855436
0.498421 0.788754 0.855344
0.552087 0.789090 0.854795
0.625116 0.788602 0.853483
0.704005 0.785977 0.850950
0.795224 0.783871 0.852934
0.864012 0.747219 0.850462
0.957092 0.782864 0.858946
0.533776 0.855344 0.874998
0.548211 0.855283 0.875029
0.593164 0.855039 0.875059
0.657404 0.854398 0.875090
0.729946 0.853300 0.875151
0.805539 0.851164 0.874693
0.889250 0.849363 0.875578
0.962097 0.848234 0.878264
0.583398 0.912474 0.892302
0.595056 0.912230 0.892393
0.632502 0.911498 0.892760
0.689235 0.910460 0.893492
0.756832 0.909483 0.894804
0.832090 0.908751 0.896727
0.912902 0.908659 0.899687
0.974853 0.911315 0.905150
