其他预设/【233】日式怀旧街道调色预设208款/1.3D LUT预设（视频调色-PR-AE-PS-FCPX-达芬奇用）/2.富士胶片风-日式城市街拍预设/JA – Cityscape Pop 5 (Classic Chrome).cube
# Created by Adobe Lightroom plugin Export LUT (1.17.0)
# www.johnrellis.com/lightroom/exportlut.htm
# Preset: JA – Cityscape Pop 5 (Classic Chrome)
# Color profile: /Library/Application Support/Adobe/Color/Profiles/Recommended/AdobeRGB1998.icc
LUT_3D_SIZE 8
DOMAIN_MIN 0.000000 0.000000 0.000000
DOMAIN_MAX 0.903226 0.903226 0.903226
0.108705 0.117098 0.122560
0.120546 0.116945 0.122683
0.170504 0.124086 0.122774
0.340246 0.157473 0.111238
0.628992 0.235050 0.000000
0.801938 0.292454 0.000000
0.907225 0.329381 0.000000
0.982086 0.356359 0.000000
0.108553 0.125277 0.122866
0.121889 0.125673 0.123445
0.174441 0.136233 0.122499
0.348119 0.180880 0.107851
0.631739 0.262547 0.000000
0.799649 0.312932 0.000000
0.905119 0.344671 0.000000
0.980926 0.368505 0.000000
0.118166 0.155734 0.123690
0.132143 0.156252 0.124788
0.184848 0.170169 0.122469
0.397528 0.260655 0.087831
0.663355 0.349401 0.000000
0.813230 0.380804 0.000000
0.913939 0.400031 0.000000
0.985168 0.412818 0.000000
0.147494 0.247532 0.117647
0.169070 0.248539 0.118044
0.245609 0.274266 0.111208
0.438666 0.353765 0.057832
0.701930 0.454475 0.000000
0.834836 0.478767 0.000000
0.922087 0.480476 0.000000
0.987701 0.479896 0.000000
0.230716 0.459602 0.000000
0.264530 0.460578 0.000000
0.360998 0.468330 0.000000
0.534752 0.530541 0.000000
0.704921 0.548058 0.000000
0.838987 0.562676 0.000000
0.925780 0.563378 0.000000
0.990204 0.562921 0.000000
0.320500 0.650050 0.000000
0.354253 0.651942 0.000000
0.446357 0.648585 0.000000
0.577813 0.662379 0.000000
0.735134 0.690242 0.000000
0.844358 0.658259 0.000000
0.929412 0.645350 0.000000
0.989746 0.640986 0.118990
0.388983 0.777737 0.000000
0.415106 0.777096 0.000000
0.493812 0.772305 0.000000
0.604425 0.767208 0.000000
0.731746 0.780179 0.000000
0.864622 0.793332 0.000000
0.931243 0.738430 0.129641
0.984802 0.721981 0.259190
0.454994 0.872557 0.000000
0.475746 0.871366 0.000000
0.541985 0.867582 0.019623
0.639826 0.861601 0.163485
0.741817 0.859342 0.226688
0.848508 0.865537 0.304479
0.946807 0.871977 0.393347
0.976776 0.824491 0.495155
0.106294 0.116945 0.135866
0.118471 0.120485 0.134340
0.168765 0.125124 0.133242
0.334813 0.151431 0.124971
0.621881 0.220249 0.068360
0.793454 0.277501 0.000000
0.901884 0.320775 0.000000
0.979187 0.357427 0.000000
0.106569 0.127474 0.135927
0.120912 0.129915 0.135775
0.173190 0.137911 0.134646
0.346044 0.174594 0.122469
0.627893 0.248356 0.056489
0.794369 0.298955 0.000000
0.900816 0.336461 0.000000
0.977996 0.368994 0.000000
0.110933 0.163027 0.134890
0.130251 0.165133 0.136416
0.186465 0.174746 0.135653
0.392889 0.254765 0.107973
0.655756 0.335424 0.000000
0.806363 0.367956 0.000000
0.907469 0.390906 0.000000
0.981659 0.412207 0.000000
0.128511 0.261448 0.127321
0.160098 0.263828 0.129152
0.245396 0.282750 0.125948
0.432959 0.351354 0.091829
0.688258 0.443397 0.000000
0.825162 0.469612 0.000000
0.915373 0.472297 0.000000
0.984405 0.478706 0.000000
0.201785 0.477913 0.053529
0.244694 0.477485 0.054200
0.353216 0.478126 0.054353
0.526299 0.529595 0.000000
0.697932 0.544152 0.000000
0.833982 0.558495 0.000000
0.922606 0.560723 0.000000
0.988373 0.562707 0.000000
0.291661 0.655390 0.000000
0.328527 0.654444 0.000000
0.430182 0.650660 0.000000
0.567315 0.660792 0.000000
0.729427 0.689357 0.000000
0.842313 0.658839 0.000000
0.927428 0.645716 0.000000
0.988739 0.640742 0.119051
0.366857 0.778286 0.000000
0.394965 0.776425 0.000000
0.479530 0.771969 0.000000
0.595697 0.765377 0.000000
0.726223 0.779294 0.000000
0.860227 0.792325 0.032288
0.927581 0.739315 0.195254
0.983734 0.720394 0.250919
0.443885 0.872587 0.039002
0.466102 0.871611 0.075837
0.535271 0.867796 0.134310
0.636072 0.861662 0.209293
0.743038 0.860929 0.266453
0.848936 0.866453 0.309361
0.946319 0.871946 0.392767
0.976440 0.824033 0.492653
0.086183 0.120363 0.203677
0.112062 0.123232 0.200961
0.164706 0.132662 0.188174
0.322301 0.107088 0.208835
0.617212 0.062043 0.170718
0.791501 0.209781 0.158755
0.901061 0.288273 0.155856
0.977844 0.349554 0.180636
0.088899 0.136538 0.205570
0.106447 0.133974 0.203220
0.168246 0.144778 0.190799
0.336370 0.119142 0.199741
0.622217 0.148470 0.171603
0.792233 0.242008 0.156405
0.900633 0.307439 0.154116
0.977417 0.362951 0.180758
0.087678 0.183932 0.205142
0.106905 0.185153 0.204562
0.181125 0.191257 0.198581
0.382574 0.223972 0.189487
0.651453 0.287022 0.166995
0.804044 0.332708 0.153017
0.905303 0.371496 0.158358
0.978759 0.410651 0.191684
0.000000 0.301793 0.228733
0.063935 0.310735 0.221561
0.218997 0.325628 0.191531
0.445350 0.370672 0.187716
0.689876 0.436133 0.153445
0.822416 0.453071 0.150759
0.913329 0.465248 0.172244
0.981079 0.485725 0.218357
0.000000 0.525414 0.209232
0.000000 0.531487 0.168582
0.299870 0.530907 0.165560
0.512657 0.549218 0.168246
0.701106 0.556573 0.177401
0.832609 0.562310 0.170260
0.919768 0.568658 0.204013
0.982727 0.576593 0.260502
0.029786 0.683192 0.116457
0.192294 0.682124 0.128603
0.373449 0.676417 0.154849
0.541650 0.668818 0.180270
0.715877 0.694636 0.192630
0.835630 0.668574 0.249363
0.920745 0.658717 0.265812
0.981140 0.664027 0.329198
0.290837 0.793240 0.164462
0.333196 0.791348 0.173617
0.443702 0.785122 0.196017
0.578454 0.775784 0.233219
0.714687 0.781247 0.267613
0.848875 0.795010 0.307439
0.919158 0.754910 0.378515
0.976501 0.741451 0.397803
0.429572 0.877379 0.272374
0.450874 0.875914 0.273106
0.526146 0.871244 0.296666
0.633570 0.864836 0.344182
0.741756 0.859800 0.392462
0.843839 0.866636 0.426795
0.939178 0.873533 0.464363
0.974731 0.828977 0.517296
0.000000 0.123690 0.441901
0.000000 0.123934 0.437171
0.203037 0.118410 0.404486
0.332738 0.127810 0.363989
0.579217 0.097993 0.403296
0.771878 0.106050 0.357671
0.878355 0.342107 0.392981
0.957580 0.439094 0.428809
0.000000 0.160311 0.450385
0.000000 0.139895 0.444221
0.194888 0.139010 0.413947
0.340063 0.149783 0.369757
0.588464 0.145480 0.402472
0.773495 0.171206 0.355261
0.878691 0.362402 0.396490
0.957977 0.447944 0.428321
0.000000 0.267582 0.450996
0.000000 0.256138 0.450324
0.092378 0.206149 0.436011
0.364691 0.233829 0.386786
0.617090 0.266392 0.397742
0.777432 0.357488 0.396155
0.884947 0.436530 0.420630
0.960479 0.492531 0.442267
0.000000 0.398016 0.444556
0.000000 0.397864 0.443275
0.038575 0.397742 0.435767
0.412177 0.406775 0.408911
0.652949 0.444587 0.409094
0.793545 0.482368 0.419318
0.890623 0.519921 0.437201
0.961791 0.557122 0.461280
0.000000 0.573205 0.458045
0.000000 0.576562 0.451270
0.062867 0.586297 0.421485
0.469612 0.580529 0.410956
0.681666 0.588373 0.440192
0.812955 0.604852 0.449256
0.899779 0.621149 0.468696
0.963622 0.636439 0.490303
0.000000 0.711604 0.410803
0.000000 0.714382 0.403510
0.258610 0.712825 0.387488
0.523186 0.697749 0.423682
0.694270 0.703120 0.448798
0.817990 0.698665 0.488716
0.902922 0.702052 0.499458
0.964355 0.714199 0.525353
0.159060 0.811215 0.380163
0.240085 0.810117 0.384192
0.433295 0.801114 0.428840
0.577325 0.790616 0.449348
0.707362 0.783200 0.474586
0.830564 0.799466 0.504967
0.904173 0.779202 0.547021
0.962554 0.774472 0.553246
0.446998 0.883970 0.458900
0.490761 0.880705 0.480201
0.554467 0.875853 0.489174
0.637354 0.869566 0.493385
0.739742 0.860960 0.521874
0.835264 0.866575 0.549462
0.924285 0.875761 0.576806
0.964508 0.844480 0.612482
0.000000 0.131930 0.661219
0.000000 0.132631 0.658228
0.147036 0.124941 0.645686
0.384405 0.129397 0.612360
0.567712 0.188296 0.583368
0.728725 0.362310 0.579828
0.848142 0.459876 0.584863
0.931334 0.546471 0.602716
0.000000 0.169131 0.663722
0.000000 0.153353 0.661707
0.114168 0.159060 0.648859
0.384558 0.169009 0.616083
0.571435 0.229313 0.584802
0.729580 0.392248 0.583185
0.848814 0.475013 0.587182
0.929931 0.562402 0.609155
0.000000 0.292912 0.668177
0.000000 0.278202 0.668452
0.000000 0.241642 0.657313
0.391882 0.289097 0.626062
0.584466 0.345190 0.588281
0.732998 0.466133 0.591272
0.850645 0.518151 0.591882
0.927520 0.600855 0.621698
0.000000 0.436835 0.661219
0.000000 0.432074 0.660426
0.000000 0.423194 0.657374
0.424140 0.454505 0.639521
0.610254 0.492714 0.596033
0.749386 0.547295 0.600610
0.853300 0.593103 0.608026
0.935424 0.629725 0.618647
0.000000 0.587945 0.648890
0.000000 0.588800 0.648066
0.000000 0.593591 0.642664
0.450111 0.606165 0.629877
0.638758 0.612634 0.605676
0.773678 0.636957 0.610773
0.869627 0.661738 0.619532
0.942016 0.684199 0.628412
0.000000 0.735653 0.629267
0.000000 0.735470 0.626154
0.186160 0.731838 0.615381
0.482704 0.722377 0.603174
0.662898 0.709194 0.602655
0.793637 0.721370 0.629419
0.883543 0.739895 0.641810
0.947814 0.753414 0.651728
0.121309 0.822477 0.585351
0.220157 0.820859 0.585412
0.398901 0.814908 0.589075
0.562127 0.806241 0.598047
0.693477 0.793851 0.609735
0.806210 0.799832 0.628962
0.888518 0.799161 0.659907
0.949004 0.803006 0.664179
0.436683 0.889921 0.592798
0.463416 0.888457 0.595636
0.540063 0.883787 0.605005
0.637659 0.877867 0.620111
0.727382 0.868772 0.624842
0.820005 0.864988 0.643732
0.906432 0.877195 0.667384
0.953368 0.859220 0.694423
0.000000 0.159091 0.784512
0.000000 0.167636 0.783200
0.000000 0.204654 0.776059
0.369848 0.246586 0.760555
0.558251 0.328710 0.729519
0.708370 0.420813 0.708248
0.822019 0.557092 0.712276
0.903929 0.646326 0.734463
0.000000 0.182864 0.784451
0.000000 0.187442 0.782712
0.000000 0.240940 0.774960
0.376837 0.281468 0.759731
0.563775 0.356756 0.729030
0.709590 0.440131 0.707515
0.821744 0.567742 0.712856
0.904234 0.650416 0.734371
0.000000 0.298528 0.788663
0.000000 0.293950 0.787045
0.000000 0.312535 0.779904
0.425696 0.398840 0.763027
0.591608 0.449592 0.732448
0.717830 0.503716 0.708888
0.823239 0.604639 0.717556
0.906615 0.666316 0.735439
0.000000 0.429389 0.786099
0.000000 0.430854 0.785367
0.186496 0.455451 0.782467
0.482063 0.521386 0.768582
0.634943 0.562921 0.741176
0.732631 0.586694 0.713924
0.827543 0.657893 0.726650
0.912200 0.690455 0.735225
0.000000 0.565545 0.776577
0.000000 0.569146 0.775906
0.276158 0.587762 0.772641
0.512261 0.622431 0.766201
0.658869 0.650690 0.751583
0.745602 0.659785 0.717128
0.838346 0.696010 0.726436
0.916869 0.725551 0.733303
0.000000 0.700984 0.764187
0.091341 0.703792 0.763790
0.354650 0.712001 0.760372
0.533410 0.723476 0.754238
0.662715 0.732723 0.744442
0.764309 0.734737 0.725612
0.858885 0.757137 0.734646
0.930144 0.775631 0.741421
0.226596 0.837369 0.762875
0.289555 0.835996 0.761440
0.423743 0.830777 0.755489
0.557336 0.823453 0.745876
0.676692 0.815702 0.732723
0.782376 0.805814 0.726406
0.873564 0.817380 0.749783
0.937377 0.831113 0.757656
0.441321 0.897246 0.732784
0.465644 0.895964 0.732662
0.536736 0.892027 0.732204
0.626551 0.887053 0.730953
0.716487 0.881254 0.729061
0.801633 0.872740 0.729305
0.886412 0.878447 0.746334
0.942443 0.874693 0.769741
0.000000 0.227054 0.865934
0.000000 0.249638 0.864958
0.225589 0.346868 0.858762
0.441260 0.411780 0.850034
0.601007 0.485725 0.832914
0.710658 0.540826 0.808652
0.804562 0.592309 0.796628
0.889555 0.689021 0.810239
0.000000 0.246189 0.865385
0.000000 0.269200 0.864256
0.233829 0.363989 0.858000
0.456916 0.436622 0.848692
0.606806 0.500999 0.831724
0.712123 0.549981 0.807462
0.803799 0.597436 0.795010
0.888457 0.691157 0.808896
0.000000 0.341650 0.866911
0.000000 0.353826 0.865660
0.267704 0.420203 0.859556
0.520684 0.522240 0.847623
0.634089 0.557824 0.832670
0.724910 0.589929 0.809384
0.808438 0.626856 0.796384
0.890379 0.710048 0.811826
0.000000 0.456886 0.867338
0.000000 0.468360 0.866361
0.351019 0.513573 0.861723
0.545892 0.583764 0.851194
0.670161 0.630945 0.836545
0.744686 0.646754 0.814420
0.815854 0.669551 0.799130
0.893187 0.736873 0.815335
0.155550 0.572564 0.860563
0.243656 0.580804 0.859617
0.411170 0.609064 0.856809
0.564752 0.648463 0.853300
0.685237 0.687709 0.842741
0.763516 0.704585 0.821042
0.822812 0.713771 0.800687
0.896422 0.768551 0.818784
0.315923 0.686152 0.852903
0.359777 0.690822 0.852293
0.470985 0.705989 0.850340
0.590356 0.726864 0.847776
0.695735 0.748745 0.844694
0.782498 0.767483 0.835630
0.834928 0.767117 0.806821
0.906950 0.797238 0.819425
0.420294 0.789761 0.845182
0.448127 0.791745 0.844938
0.523980 0.797665 0.843442
0.615076 0.806332 0.841215
0.704463 0.815763 0.837522
0.783566 0.823819 0.831266
0.849058 0.823270 0.814847
0.922393 0.843320 0.824430
0.493263 0.897917 0.852995
0.510033 0.898772 0.853239
0.563531 0.900786 0.853361
0.636255 0.897154 0.846586
0.712428 0.892851 0.837400
0.788663 0.888762 0.825681
0.863462 0.882536 0.816403
0.931579 0.889708 0.837430
0.118196 0.395300 0.923705
0.252750 0.426703 0.922148
0.458412 0.516014 0.916167
0.590387 0.582391 0.909941
0.678431 0.620783 0.902617
0.757748 0.659785 0.891844
0.819730 0.690028 0.877867
0.880613 0.721920 0.873198
0.142367 0.408179 0.923278
0.262882 0.438087 0.921721
0.461189 0.523247 0.915984
0.600336 0.595361 0.909148
0.682643 0.629114 0.902251
0.759579 0.665400 0.891569
0.820249 0.693538 0.877562
0.880613 0.724453 0.872801
0.220310 0.455146 0.922789
0.296269 0.476020 0.921447
0.462379 0.542657 0.916320
0.629511 0.634424 0.908385
0.698756 0.658503 0.902464
0.767636 0.686458 0.892088
0.824369 0.708949 0.878355
0.882322 0.736141 0.873289
0.255192 0.508659 0.923491
0.322179 0.526177 0.922271
0.468238 0.577600 0.917876
0.615015 0.646693 0.911070
0.722438 0.702113 0.903258
0.780179 0.719173 0.894285
0.831632 0.734279 0.880949
0.885893 0.755795 0.874937
0.357183 0.599664 0.919890
0.393561 0.608179 0.919371
0.487678 0.633417 0.917418
0.593286 0.667018 0.914733
0.716976 0.725246 0.906767
0.792203 0.756161 0.897948
0.840116 0.765347 0.884947
0.890776 0.781613 0.877287
0.447181 0.691920 0.915099
0.469947 0.696437 0.914611
0.536553 0.710903 0.913085
0.621637 0.731991 0.911223
0.710384 0.757992 0.909422
0.797299 0.792142 0.904143
0.852903 0.806607 0.892485
0.897002 0.813565 0.880461
0.523796 0.778378 0.910735
0.538964 0.780636 0.910369
0.586084 0.788205 0.909392
0.654139 0.800717 0.908110
0.728542 0.816403 0.906767
0.800717 0.834165 0.905882
0.865354 0.852476 0.902403
0.904326 0.851194 0.884001
0.586145 0.856901 0.907073
0.597040 0.857969 0.906889
0.632502 0.861784 0.906310
0.685634 0.868070 0.905425
0.746365 0.876127 0.904295
0.807767 0.885313 0.902892
0.866545 0.894682 0.900786
0.915373 0.897337 0.891203
