其他预设/【233】日式怀旧街道调色预设208款/1.3D LUT预设（视频调色-PR-AE-PS-FCPX-达芬奇用）/2.富士胶片风-日式城市街拍预设/JA – Shaded Light 2 (Classic Chrome).cube
# Created by Adobe Lightroom plugin Export LUT (1.17.0)
# www.johnrellis.com/lightroom/exportlut.htm
# Preset: JA – Shaded Light 2 (Classic Chrome)
# Color profile: /Library/Application Support/Adobe/Color/Profiles/Recommended/AdobeRGB1998.icc
LUT_3D_SIZE 8
DOMAIN_MIN 0.000000 0.000000 0.000000
DOMAIN_MAX 0.903226 0.903226 0.903226
0.093874 0.090883 0.085451
0.107240 0.088350 0.085237
0.148470 0.087861 0.084108
0.236667 0.082002 0.081910
0.366430 0.059236 0.072084
0.507683 0.000000 0.032563
0.644984 0.000000 0.000000
0.836820 0.000000 0.000000
0.093355 0.102235 0.085573
0.106844 0.104189 0.084657
0.153750 0.103578 0.084138
0.246769 0.105318 0.080873
0.378332 0.099001 0.068238
0.516716 0.076326 0.017884
0.651453 0.000000 0.000000
0.842679 0.000000 0.000000
0.094636 0.134981 0.091035
0.106111 0.137148 0.090394
0.155520 0.152499 0.086061
0.277317 0.181430 0.071778
0.422583 0.195560 0.029084
0.550164 0.192111 0.000000
0.679530 0.182376 0.000000
0.867002 0.173800 0.000000
0.086549 0.203891 0.096345
0.098390 0.208957 0.090455
0.156954 0.218387 0.090089
0.270146 0.266545 0.064607
0.448951 0.320867 0.000000
0.604242 0.330205 0.000000
0.730495 0.323186 0.000000
0.903685 0.330419 0.000000
0.027832 0.300786 0.100282
0.059358 0.308171 0.087037
0.152468 0.319829 0.080354
0.257939 0.344854 0.072786
0.421485 0.417700 0.000000
0.595819 0.458534 0.000000
0.776638 0.481971 0.000000
0.944274 0.490547 0.000000
0.000000 0.416510 0.104036
0.000000 0.423316 0.087373
0.121370 0.436774 0.055940
0.254276 0.454871 0.055909
0.389197 0.493568 0.000000
0.561181 0.558007 0.000000
0.762509 0.618860 0.000000
0.949065 0.646113 0.000000
0.000000 0.550134 0.114199
0.000000 0.554376 0.097902
0.000000 0.565606 0.016449
0.244114 0.579370 0.052552
0.383948 0.599207 0.084474
0.539086 0.654566 0.037140
0.739376 0.738521 0.000000
0.936706 0.792020 0.000000
0.000000 0.745968 0.154940
0.000000 0.749966 0.143130
0.000000 0.763821 0.082429
0.254917 0.782376 0.110872
0.428290 0.805814 0.149172
0.589837 0.834257 0.201511
0.751186 0.882048 0.190524
0.904417 0.905974 0.169619
0.092287 0.090730 0.097169
0.105287 0.092866 0.095369
0.145235 0.092470 0.099275
0.234653 0.073396 0.095857
0.361944 0.000000 0.087373
0.502098 0.000000 0.068177
0.639857 0.000000 0.000183
0.832181 0.000000 0.000000
0.092348 0.103548 0.097871
0.108461 0.104952 0.098817
0.152407 0.103761 0.098299
0.244297 0.097017 0.094942
0.373938 0.077180 0.084901
0.511620 0.000000 0.063294
0.646632 0.000000 0.000000
0.838071 0.000000 0.000000
0.096864 0.136324 0.101961
0.108095 0.141238 0.102296
0.157778 0.154513 0.099489
0.280491 0.176394 0.088106
0.416907 0.182895 0.071107
0.544976 0.176791 0.023774
0.674006 0.164126 0.000000
0.862608 0.149050 0.000000
0.087953 0.205478 0.110719
0.098329 0.212955 0.106050
0.157351 0.224369 0.102235
0.271946 0.268101 0.084535
0.450080 0.316564 0.000824
0.598810 0.320653 0.000000
0.724697 0.313085 0.000000
0.900237 0.319707 0.000000
0.031922 0.302312 0.119020
0.062715 0.309453 0.110109
0.146853 0.324773 0.095186
0.257237 0.346471 0.094453
0.422400 0.418372 0.000000
0.596796 0.456458 0.000000
0.777981 0.478523 0.000000
0.942412 0.485298 0.000000
0.000000 0.416510 0.126009
0.000000 0.422827 0.114687
0.108095 0.439277 0.080873
0.251499 0.457191 0.084321
0.388373 0.494026 0.074434
0.562005 0.558679 0.000000
0.764034 0.618647 0.000000
0.949584 0.644587 0.000000
0.000000 0.548852 0.138003
0.000000 0.552880 0.126467
0.000000 0.566064 0.072053
0.238804 0.579950 0.086915
0.382361 0.599969 0.111299
0.538293 0.654139 0.099367
0.739406 0.738338 0.000000
0.936706 0.791379 0.000000
0.000000 0.744472 0.176944
0.000000 0.748623 0.167330
0.000000 0.762966 0.130556
0.246891 0.782284 0.133272
0.426032 0.807187 0.169436
0.589197 0.835142 0.218875
0.750851 0.881895 0.214725
0.904417 0.905852 0.200687
0.097658 0.091279 0.129091
0.112306 0.094575 0.128084
0.143160 0.102632 0.128420
0.217746 0.096040 0.147860
0.341985 0.000000 0.150851
0.479652 0.000000 0.120882
0.624262 0.000000 0.104738
0.820157 0.000000 0.066712
0.095216 0.104433 0.133639
0.111238 0.105257 0.135164
0.148318 0.113436 0.133364
0.227787 0.104524 0.149142
0.351354 0.000000 0.142947
0.491615 0.000000 0.120516
0.631586 0.000000 0.104585
0.826932 0.000000 0.064881
0.093416 0.144442 0.136629
0.105379 0.147768 0.139925
0.162997 0.158022 0.148928
0.264561 0.150271 0.143557
0.395483 0.136172 0.134768
0.527367 0.113283 0.122377
0.659144 0.075471 0.105318
0.852110 0.000000 0.060548
0.084718 0.207340 0.147982
0.097139 0.214633 0.149325
0.153323 0.239445 0.150484
0.279484 0.274540 0.149447
0.459266 0.303410 0.137362
0.584253 0.291539 0.128786
0.710933 0.281163 0.112093
0.892790 0.281621 0.068055
0.011780 0.301457 0.163424
0.058686 0.309392 0.162417
0.132143 0.337041 0.153079
0.258152 0.359411 0.154238
0.428626 0.423835 0.141634
0.602930 0.452003 0.132509
0.786282 0.470924 0.134859
0.937499 0.468757 0.116426
0.000000 0.414618 0.178775
0.000000 0.421576 0.175265
0.086732 0.444617 0.157504
0.241367 0.466743 0.149783
0.386938 0.496010 0.161837
0.565332 0.561273 0.149172
0.770535 0.619348 0.145907
0.952422 0.641718 0.176577
0.000000 0.546715 0.196933
0.000000 0.550866 0.191379
0.000000 0.565301 0.169009
0.219821 0.583886 0.154971
0.378088 0.603876 0.178378
0.537377 0.654139 0.192813
0.742855 0.741299 0.174533
0.938933 0.791653 0.214237
0.000000 0.742397 0.237491
0.000000 0.746120 0.231052
0.000000 0.760342 0.210269
0.214084 0.783719 0.192630
0.414466 0.808927 0.224704
0.585351 0.837217 0.269780
0.750149 0.881834 0.282200
0.905272 0.906279 0.283818
0.105867 0.091402 0.197055
0.124666 0.092439 0.198581
0.175692 0.099886 0.201816
0.228794 0.109102 0.203738
0.317601 0.114260 0.229557
0.459388 0.000000 0.247898
0.598688 0.000000 0.237247
0.785275 0.000000 0.200931
0.094484 0.102449 0.206027
0.117708 0.102968 0.207065
0.177188 0.110933 0.209384
0.235233 0.123201 0.209903
0.326543 0.125612 0.234012
0.466072 0.000000 0.246128
0.602625 0.000000 0.229923
0.790372 0.000000 0.182681
0.067964 0.152895 0.205875
0.081239 0.151064 0.210910
0.162509 0.150027 0.230106
0.255222 0.176303 0.229648
0.358038 0.166323 0.245335
0.489906 0.084047 0.235050
0.619989 0.000000 0.195956
0.824826 0.000000 0.176761
0.037903 0.224186 0.213382
0.068818 0.229038 0.217868
0.141665 0.246525 0.234318
0.287816 0.279698 0.264714
0.421790 0.262486 0.250645
0.546044 0.243748 0.236576
0.675990 0.222721 0.221653
0.872007 0.191714 0.203494
0.000000 0.298741 0.221256
0.023896 0.306249 0.224521
0.127352 0.333074 0.235294
0.261082 0.380957 0.254307
0.437018 0.430152 0.271824
0.608423 0.446876 0.284550
0.760220 0.443030 0.278355
0.924437 0.437324 0.258885
0.000000 0.409430 0.243107
0.000000 0.416388 0.243809
0.074128 0.439429 0.244572
0.229618 0.477852 0.246860
0.390173 0.502190 0.267826
0.571344 0.565820 0.288945
0.781033 0.622034 0.305516
0.955596 0.639124 0.335363
0.000000 0.541192 0.268132
0.000000 0.545403 0.265904
0.000000 0.559838 0.257816
0.194980 0.585504 0.247929
0.371221 0.610193 0.266941
0.536339 0.652491 0.298772
0.748196 0.745602 0.313298
0.941680 0.790829 0.350713
0.000000 0.739284 0.319554
0.000000 0.743160 0.315953
0.000000 0.756649 0.302037
0.155673 0.781704 0.283177
0.385718 0.811398 0.296605
0.574212 0.840482 0.338048
0.746700 0.881285 0.365026
0.906523 0.906859 0.378759
0.117830 0.085359 0.294072
0.139834 0.084047 0.296941
0.202243 0.083040 0.305913
0.289006 0.112062 0.317784
0.351446 0.119997 0.313970
0.444282 0.147341 0.337713
0.582330 0.067414 0.365118
0.776211 0.000000 0.392737
0.100832 0.097230 0.301061
0.127779 0.096071 0.303777
0.198184 0.097261 0.312047
0.292638 0.129946 0.324224
0.356878 0.138705 0.319432
0.447974 0.165713 0.340917
0.586084 0.093843 0.365057
0.779995 0.000000 0.389014
0.000000 0.147311 0.304784
0.000000 0.139498 0.314122
0.166171 0.140719 0.328374
0.295140 0.177493 0.341588
0.375219 0.199435 0.338079
0.461769 0.220981 0.352758
0.599298 0.154360 0.363287
0.793576 0.000000 0.371374
0.000000 0.232975 0.300450
0.000000 0.233494 0.305577
0.082185 0.233280 0.324102
0.270085 0.253208 0.366125
0.405341 0.303044 0.370428
0.498390 0.292210 0.371862
0.624231 0.227817 0.351934
0.820737 0.000000 0.317082
0.000000 0.322637 0.308812
0.000000 0.327611 0.313542
0.073152 0.345800 0.331090
0.242313 0.380499 0.364202
0.444312 0.434089 0.414740
0.560967 0.409796 0.392889
0.694911 0.383276 0.370153
0.893370 0.357122 0.350591
0.000000 0.402533 0.311833
0.000000 0.407324 0.314366
0.006195 0.427466 0.325048
0.214878 0.465553 0.345434
0.399542 0.515099 0.385534
0.577691 0.570031 0.423957
0.794156 0.620691 0.446723
0.947936 0.612818 0.442542
0.000000 0.531365 0.343023
0.000000 0.535363 0.343236
0.000000 0.549310 0.343481
0.164614 0.573846 0.344762
0.353124 0.611505 0.362737
0.531701 0.648585 0.402045
0.754330 0.750607 0.434455
0.945922 0.785061 0.468177
0.000000 0.732021 0.408453
0.000000 0.735714 0.407019
0.000000 0.748898 0.401465
0.000000 0.773739 0.390051
0.319493 0.809293 0.379065
0.542290 0.844205 0.408850
0.735683 0.879271 0.448219
0.907927 0.907500 0.475624
0.132509 0.066743 0.413428
0.156802 0.062318 0.416388
0.225559 0.047028 0.426001
0.322423 0.077272 0.440986
0.421241 0.145266 0.450385
0.488136 0.160403 0.441260
0.582116 0.226596 0.465187
0.760098 0.255344 0.539971
0.110445 0.082765 0.416999
0.140444 0.080171 0.419745
0.217350 0.075166 0.429053
0.319738 0.099977 0.443824
0.424048 0.166995 0.454383
0.491005 0.180606 0.444465
0.583551 0.241611 0.467079
0.763363 0.261967 0.540398
0.000000 0.125460 0.424079
0.000000 0.124331 0.428443
0.173312 0.127810 0.437781
0.306432 0.156008 0.453101
0.434699 0.234928 0.468605
0.501640 0.243809 0.456428
0.589014 0.291020 0.474464
0.776242 0.283024 0.540978
0.000000 0.229221 0.399908
0.000000 0.226230 0.407568
0.000000 0.213779 0.434882
0.257298 0.228367 0.464973
0.439521 0.315679 0.486000
0.519280 0.339788 0.477424
0.598566 0.364691 0.488045
0.800961 0.312230 0.535851
0.000000 0.330571 0.407996
0.000000 0.331365 0.411627
0.000000 0.333532 0.424994
0.150210 0.335973 0.449531
0.404486 0.387274 0.498726
0.543236 0.449165 0.506615
0.632044 0.427131 0.503685
0.839017 0.344854 0.504875
0.000000 0.430884 0.415595
0.000000 0.434363 0.419043
0.000000 0.446509 0.430945
0.157839 0.469245 0.452979
0.368170 0.506310 0.488594
0.585199 0.575372 0.555901
0.727352 0.541924 0.524651
0.915587 0.514427 0.501122
0.000000 0.529717 0.425544
0.000000 0.532403 0.426734
0.000000 0.541314 0.430640
0.104555 0.557031 0.437476
0.316686 0.591974 0.458869
0.519829 0.659632 0.508019
0.763058 0.758114 0.564324
0.946258 0.781003 0.619257
0.000000 0.722469 0.501549
0.000000 0.725978 0.501823
0.000000 0.738643 0.502556
0.000000 0.762356 0.502831
0.254368 0.797482 0.501640
0.467353 0.844877 0.495064
0.713100 0.875517 0.543786
0.909361 0.908019 0.606256
0.148806 0.000000 0.550011
0.175479 0.000000 0.552880
0.248447 0.000000 0.559777
0.349432 0.037568 0.571771
0.469215 0.168795 0.587549
0.561791 0.243534 0.588464
0.627405 0.263798 0.577325
0.783627 0.353368 0.658259
0.124117 0.043305 0.548699
0.155856 0.034455 0.551385
0.236667 0.020050 0.558495
0.342596 0.079255 0.570397
0.465400 0.181796 0.585992
0.560510 0.257237 0.587488
0.625086 0.274479 0.575433
0.778775 0.357763 0.653742
0.000000 0.109255 0.553582
0.000000 0.108766 0.555535
0.184848 0.112001 0.562432
0.320104 0.141085 0.574975
0.459205 0.226505 0.591333
0.568627 0.312230 0.597620
0.632990 0.323217 0.584985
0.788815 0.388983 0.662928
0.000000 0.213321 0.542626
0.000000 0.204471 0.547234
0.000000 0.180636 0.562982
0.252811 0.206943 0.580255
0.440192 0.286229 0.600092
0.585077 0.394049 0.618494
0.647547 0.394202 0.602533
0.801694 0.434974 0.673426
0.000000 0.331304 0.523919
0.000000 0.327733 0.525170
0.000000 0.314549 0.531243
0.000000 0.295842 0.560082
0.366888 0.338567 0.601190
0.585473 0.459327 0.636194
0.664149 0.471168 0.623133
0.813993 0.493080 0.680598
0.000000 0.444190 0.532799
0.000000 0.443824 0.534417
0.000000 0.442451 0.540398
0.000000 0.439643 0.552575
0.218997 0.437446 0.573968
0.525475 0.508019 0.646540
0.703853 0.579004 0.669276
0.854459 0.553094 0.686763
0.000000 0.557702 0.543511
0.000000 0.559564 0.545403
0.000000 0.565057 0.550805
0.000000 0.576074 0.561700
0.231022 0.595941 0.581109
0.465980 0.640894 0.625513
0.770230 0.764096 0.750057
0.918608 0.716670 0.703487
0.000000 0.728939 0.607996
0.000000 0.731350 0.609064
0.000000 0.743343 0.615747
0.000000 0.759487 0.622492
0.135744 0.780728 0.629816
0.396094 0.825498 0.643549
0.672267 0.877043 0.674739
0.909697 0.907500 0.779049
0.171084 0.000000 0.774044
0.204196 0.000000 0.776028
0.292088 0.000000 0.779446
0.408820 0.000000 0.787381
0.542565 0.189487 0.796353
0.678431 0.341863 0.804318
0.762631 0.373754 0.799924
0.842313 0.387030 0.795651
0.137972 0.000000 0.772641
0.178775 0.000000 0.774655
0.277012 0.000000 0.778683
0.399695 0.059297 0.786282
0.537499 0.199954 0.795499
0.675776 0.347509 0.803861
0.761410 0.381231 0.799313
0.841123 0.392706 0.794644
0.000000 0.071138 0.774716
0.000000 0.070558 0.776333
0.207675 0.080446 0.779629
0.366247 0.131960 0.790158
0.521782 0.235019 0.799191
0.669764 0.369146 0.807340
0.763668 0.411658 0.804593
0.844541 0.418006 0.799252
0.000000 0.164096 0.773892
0.000000 0.162020 0.777584
0.000000 0.159701 0.785641
0.267796 0.193027 0.795132
0.481025 0.278904 0.805966
0.655695 0.400916 0.816159
0.769314 0.461463 0.817105
0.853147 0.461311 0.809964
0.000000 0.357702 0.752956
0.000000 0.350744 0.757107
0.000000 0.321172 0.768673
0.000000 0.252995 0.792325
0.361059 0.313237 0.810727
0.613458 0.429786 0.824033
0.773342 0.528069 0.832822
0.864073 0.525811 0.824552
0.000000 0.508415 0.762631
0.000000 0.504387 0.762600
0.000000 0.489876 0.763943
0.000000 0.459327 0.768887
0.000000 0.412390 0.792905
0.489357 0.458808 0.833829
0.769619 0.611078 0.853880
0.878874 0.635004 0.846525
0.000000 0.663508 0.791501
0.000000 0.662013 0.791684
0.000000 0.656825 0.793240
0.000000 0.647822 0.798276
0.000000 0.632044 0.806607
0.228702 0.606012 0.820584
0.669306 0.653101 0.865354
0.886717 0.777066 0.865812
0.000000 0.826078 0.823880
0.000000 0.826230 0.824063
0.000000 0.827787 0.825650
0.000000 0.831846 0.829679
0.000000 0.837522 0.835172
0.223911 0.845457 0.842496
0.561151 0.860075 0.855680
0.909331 0.907042 0.900816
