其他预设/【233】日式怀旧街道调色预设208款/1.3D LUT预设（视频调色-PR-AE-PS-FCPX-达芬奇用）/2.富士胶片风-日式城市街拍预设/JA – Cine Night 4 (Classic Chrome).cube
# Created by Adobe Lightroom plugin Export LUT (1.17.0)
# www.johnrellis.com/lightroom/exportlut.htm
# Preset: JA – Cine Night 4 (Classic Chrome)
# Color profile: /Library/Application Support/Adobe/Color/Profiles/Recommended/AdobeRGB1998.icc
LUT_3D_SIZE 32
0.014038 0.000000 0.121248
0.014038 0.000000 0.121248
0.014038 0.000000 0.121248
0.019043 0.000000 0.121645
0.059876 0.000000 0.124636
0.075990 0.017548 0.127871
0.092378 0.033967 0.131319
0.112123 0.051820 0.134829
0.136507 0.068116 0.137362
0.166629 0.083375 0.139498
0.202976 0.101381 0.140841
0.246403 0.121736 0.141451
0.296849 0.142702 0.141176
0.354284 0.164584 0.139773
0.417578 0.186374 0.136843
0.484901 0.207614 0.132357
0.551812 0.227756 0.127047
0.614862 0.247044 0.120912
0.673701 0.265690 0.115053
0.726406 0.281895 0.114076
0.772519 0.297063 0.115572
0.812222 0.311742 0.121187
0.846830 0.325994 0.130007
0.877745 0.340734 0.141146
0.906188 0.355413 0.154818
0.932891 0.371313 0.170657
0.958404 0.388586 0.188449
0.983154 0.407416 0.208469
1.000000 0.428046 0.231510
1.000000 0.450599 0.258213
1.000000 0.475410 0.289311
1.000000 0.503471 0.326574
0.014038 0.000000 0.121248
0.014038 0.000000 0.121248
0.014038 0.000000 0.121248
0.019043 0.000000 0.121645
0.059876 0.000000 0.124636
0.075990 0.017548 0.127871
0.092378 0.033967 0.131319
0.112490 0.057832 0.134554
0.136965 0.070863 0.137087
0.167117 0.086763 0.138979
0.203433 0.104799 0.140475
0.246830 0.124666 0.141085
0.297246 0.145785 0.140719
0.355108 0.167727 0.139223
0.418341 0.189273 0.136233
0.485603 0.210269 0.131746
0.552239 0.230198 0.126375
0.615167 0.249302 0.120241
0.673701 0.267308 0.115297
0.726314 0.283055 0.114656
0.772213 0.298283 0.116182
0.811948 0.313024 0.121126
0.846555 0.327092 0.130343
0.877501 0.341527 0.141817
0.906004 0.356481 0.155184
0.932708 0.372412 0.170840
0.958190 0.389502 0.188754
0.982940 0.408331 0.209140
1.000000 0.428870 0.232029
1.000000 0.451362 0.258427
1.000000 0.476204 0.289494
1.000000 0.504173 0.326909
0.014038 0.000000 0.121248
0.014038 0.000000 0.121248
0.014038 0.000000 0.121248
0.020172 0.000000 0.121828
0.060426 0.000000 0.124636
0.075990 0.017548 0.127871
0.092866 0.041962 0.130831
0.112856 0.061402 0.134096
0.137575 0.075288 0.136538
0.167514 0.090883 0.138613
0.204074 0.108980 0.140047
0.247776 0.129274 0.140383
0.298314 0.150179 0.140108
0.356115 0.171786 0.138552
0.419348 0.193332 0.135470
0.486610 0.214084 0.130861
0.553307 0.233860 0.125216
0.616114 0.252628 0.119203
0.674311 0.269566 0.115877
0.726680 0.285496 0.114809
0.772488 0.300572 0.116548
0.812131 0.314855 0.122133
0.846708 0.329076 0.130861
0.877562 0.343236 0.142214
0.906035 0.358221 0.155642
0.932708 0.373846 0.171695
0.958190 0.390997 0.189487
0.982940 0.409735 0.209476
1.000000 0.430152 0.232609
1.000000 0.452613 0.258915
1.000000 0.477394 0.290257
1.000000 0.505333 0.327581
0.014038 0.000000 0.121248
0.014038 0.000000 0.121248
0.014038 0.000000 0.121248
0.022889 0.000000 0.121828
0.060761 0.017243 0.123812
0.076600 0.039734 0.126650
0.093629 0.059205 0.129824
0.113985 0.070741 0.132692
0.138918 0.083925 0.135470
0.169192 0.099886 0.137606
0.205936 0.118349 0.138705
0.249729 0.138125 0.139254
0.300664 0.159213 0.138643
0.358526 0.180911 0.136843
0.422156 0.201785 0.133730
0.489357 0.222263 0.128908
0.555810 0.241520 0.123079
0.618219 0.258732 0.119142
0.675685 0.274601 0.116701
0.727718 0.290318 0.115846
0.773159 0.304875 0.117861
0.812528 0.319127 0.123415
0.847044 0.333043 0.132082
0.877836 0.347204 0.143587
0.906249 0.361822 0.157351
0.932982 0.377356 0.173190
0.958465 0.394415 0.190799
0.983154 0.413031 0.211154
1.000000 0.433387 0.234043
1.000000 0.455634 0.260594
1.000000 0.480201 0.291936
1.000000 0.507958 0.329107
0.009277 0.047211 0.121370
0.008392 0.050843 0.121492
0.007721 0.054444 0.121431
0.014801 0.060212 0.120851
0.056672 0.062257 0.122316
0.077668 0.067048 0.124514
0.095338 0.073548 0.127657
0.115877 0.084321 0.130861
0.140963 0.097658 0.133700
0.171542 0.113893 0.135836
0.208804 0.132235 0.136904
0.253056 0.152163 0.137209
0.304509 0.173007 0.136446
0.362676 0.194125 0.134218
0.426490 0.214725 0.130587
0.493568 0.233707 0.126497
0.559380 0.250675 0.123445
0.621668 0.267216 0.120058
0.678431 0.282750 0.118044
0.730007 0.297826 0.117464
0.774746 0.311986 0.119997
0.813809 0.325841 0.125521
0.847929 0.339330 0.134798
0.878538 0.353155 0.146395
0.906859 0.367651 0.160128
0.933410 0.383032 0.175784
0.958831 0.399695 0.193484
0.983398 0.418067 0.213809
1.000000 0.438270 0.236667
1.000000 0.460334 0.263432
1.000000 0.484688 0.294499
1.000000 0.512200 0.331975
0.001221 0.077089 0.121767
0.000885 0.077821 0.121736
0.001373 0.079194 0.121859
0.006226 0.081056 0.121370
0.050141 0.084382 0.119631
0.072938 0.084138 0.123445
0.095216 0.092775 0.125978
0.118410 0.101991 0.127840
0.143801 0.115450 0.131106
0.175051 0.131655 0.133028
0.212894 0.150210 0.134005
0.257908 0.170321 0.134096
0.309880 0.189975 0.134127
0.368414 0.209567 0.133028
0.432288 0.228519 0.130648
0.499184 0.246128 0.127932
0.564508 0.262608 0.124819
0.626123 0.278416 0.122011
0.682307 0.293400 0.120027
0.733059 0.307805 0.120211
0.777249 0.321569 0.123079
0.815702 0.334936 0.129091
0.852140 0.349371 0.139162
0.882231 0.362829 0.151156
0.910002 0.376898 0.165194
0.936187 0.391974 0.181064
0.961212 0.408453 0.198856
0.985473 0.426551 0.219059
1.000000 0.446418 0.242130
1.000000 0.468208 0.268803
1.000000 0.492287 0.300664
1.000000 0.519554 0.337987
0.000000 0.096895 0.129671
0.000000 0.097719 0.129610
0.000000 0.098512 0.129763
0.000000 0.101228 0.129397
0.030762 0.106081 0.126558
0.069123 0.108156 0.126528
0.088258 0.109163 0.131014
0.115572 0.123262 0.133181
0.145174 0.136629 0.133608
0.179507 0.152773 0.134615
0.218448 0.170260 0.135958
0.264408 0.189059 0.136324
0.317388 0.208225 0.135958
0.376593 0.226932 0.134707
0.440742 0.244816 0.132631
0.507164 0.261540 0.129763
0.572107 0.277531 0.127016
0.633204 0.292790 0.124117
0.688197 0.307042 0.123201
0.738033 0.320897 0.123598
0.781430 0.334051 0.127260
0.819303 0.346746 0.134157
0.852720 0.359747 0.143404
0.882780 0.372564 0.155612
0.910643 0.386481 0.169253
0.936767 0.401312 0.185153
0.961761 0.417487 0.203220
0.985870 0.435187 0.223636
1.000000 0.454658 0.246860
1.000000 0.476081 0.273564
1.000000 0.499855 0.305211
1.000000 0.526665 0.342535
0.000000 0.119234 0.140230
0.000000 0.119905 0.140200
0.000000 0.120729 0.140627
0.000000 0.123598 0.139895
0.005158 0.129397 0.137057
0.059937 0.135439 0.133608
0.086549 0.137087 0.135683
0.107668 0.139345 0.139315
0.142428 0.158358 0.140261
0.179355 0.174807 0.140200
0.224002 0.192966 0.139437
0.271153 0.210819 0.139590
0.324926 0.228580 0.138979
0.384802 0.246586 0.137575
0.449195 0.263554 0.135592
0.515190 0.279362 0.132784
0.579889 0.294682 0.130037
0.639704 0.309117 0.127993
0.693629 0.322545 0.127016
0.742245 0.335912 0.127871
0.784573 0.348089 0.132479
0.821836 0.360388 0.139132
0.854582 0.372442 0.148989
0.884245 0.384955 0.160861
0.911803 0.398169 0.175082
0.937652 0.412696 0.190982
0.962432 0.428290 0.208988
0.986419 0.445624 0.229313
1.000000 0.464759 0.252384
1.000000 0.485695 0.279362
1.000000 0.509056 0.311009
1.000000 0.535546 0.349004
0.000000 0.145724 0.152590
0.000000 0.146426 0.152560
0.000000 0.147402 0.152926
0.000000 0.151186 0.151675
0.000000 0.157198 0.147921
0.027466 0.163943 0.142916
0.080903 0.171420 0.139376
0.108461 0.172000 0.142733
0.133547 0.175723 0.146517
0.176913 0.199130 0.146853
0.222416 0.216953 0.145998
0.276585 0.235355 0.144137
0.334112 0.252781 0.142763
0.394965 0.269322 0.141268
0.459449 0.284916 0.139437
0.525628 0.300175 0.136507
0.589044 0.314611 0.134096
0.647547 0.328222 0.132296
0.700008 0.340734 0.132052
0.747250 0.353094 0.133944
0.788510 0.364752 0.138613
0.824765 0.376135 0.145602
0.856901 0.387518 0.155825
0.886076 0.399542 0.167971
0.913237 0.412268 0.181949
0.938872 0.426001 0.197879
0.963409 0.441260 0.215976
0.987121 0.458045 0.235904
1.000000 0.476600 0.259403
1.000000 0.497169 0.286534
1.000000 0.519951 0.318273
1.000000 0.545892 0.356451
0.000000 0.176852 0.166567
0.000000 0.178134 0.166445
0.000000 0.179629 0.166171
0.000000 0.183719 0.164553
0.000000 0.189792 0.160494
0.000000 0.197879 0.151217
0.062928 0.205203 0.147585
0.105104 0.211521 0.145296
0.136690 0.212528 0.148959
0.166842 0.217044 0.153079
0.220249 0.242435 0.152834
0.274968 0.260533 0.151217
0.337865 0.278233 0.148928
0.406317 0.294896 0.146120
0.471870 0.309789 0.144015
0.537469 0.323827 0.141817
0.599634 0.337407 0.139406
0.656580 0.350072 0.137911
0.707546 0.361639 0.138796
0.753170 0.372961 0.141024
0.793057 0.383673 0.146120
0.828183 0.394263 0.153811
0.859525 0.404913 0.163821
0.888121 0.416114 0.175967
0.914855 0.428168 0.190005
0.940093 0.441382 0.205844
0.964446 0.456001 0.223575
0.987884 0.472175 0.244205
1.000000 0.490272 0.267521
1.000000 0.510155 0.295018
1.000000 0.532525 0.327184
1.000000 0.558038 0.365606
0.000000 0.213901 0.181064
0.000000 0.215030 0.180697
0.000000 0.216739 0.180056
0.000000 0.220645 0.178286
0.000000 0.226688 0.174228
0.000000 0.234318 0.165469
0.000000 0.242496 0.156527
0.091279 0.250553 0.151461
0.136172 0.254978 0.150698
0.172183 0.256352 0.154940
0.208896 0.261326 0.159915
0.273472 0.287236 0.159060
0.336950 0.304265 0.157229
0.407660 0.321263 0.154635
0.483070 0.337255 0.150515
0.550195 0.350622 0.148196
0.610712 0.362768 0.146304
0.665980 0.374243 0.145785
0.715389 0.385138 0.146395
0.759243 0.395331 0.149081
0.797848 0.405066 0.154849
0.831937 0.414771 0.162936
0.862425 0.424567 0.173251
0.890532 0.434974 0.185122
0.916777 0.446326 0.199222
0.941680 0.458778 0.215122
0.965728 0.472602 0.233402
0.988830 0.488289 0.253574
1.000000 0.505638 0.277073
1.000000 0.524956 0.304723
1.000000 0.546654 0.337133
1.000000 0.571496 0.375799
0.000000 0.254368 0.196536
0.000000 0.255558 0.195956
0.000000 0.257481 0.195193
0.000000 0.260868 0.193118
0.000000 0.266239 0.189181
0.000000 0.273533 0.181399
0.000000 0.282383 0.166018
0.061341 0.289647 0.160739
0.127321 0.297581 0.154482
0.175265 0.300145 0.156527
0.217014 0.301427 0.161471
0.260990 0.306432 0.166842
0.338933 0.333837 0.166140
0.411017 0.350622 0.163668
0.486763 0.366461 0.161074
0.560784 0.380774 0.157412
0.626673 0.393378 0.154635
0.679652 0.403449 0.154818
0.726833 0.412909 0.155978
0.768368 0.421698 0.160037
0.805081 0.430243 0.165835
0.837613 0.438666 0.174441
0.867063 0.447456 0.184695
0.894316 0.456855 0.196994
0.919951 0.467231 0.210788
0.944305 0.478889 0.226841
0.967864 0.492012 0.245151
0.990509 0.506889 0.265446
1.000000 0.523552 0.289647
1.000000 0.542077 0.317266
1.000000 0.563195 0.350256
1.000000 0.587121 0.388861
0.000000 0.297429 0.212894
0.000000 0.298497 0.212345
0.000000 0.300023 0.211460
0.000000 0.303105 0.209567
0.000000 0.308080 0.205600
0.000000 0.314763 0.198520
0.000000 0.322667 0.185702
0.000000 0.330602 0.171420
0.105959 0.337865 0.165103
0.172061 0.345006 0.157839
0.224247 0.346166 0.162753
0.272404 0.347448 0.168795
0.323888 0.352911 0.175051
0.409827 0.379004 0.173861
0.485756 0.394995 0.171145
0.559533 0.409552 0.168765
0.628046 0.422705 0.166690
0.688930 0.433936 0.164920
0.735195 0.442084 0.166720
0.774929 0.449348 0.171145
0.810147 0.456672 0.177707
0.841611 0.463874 0.186160
0.870268 0.471382 0.196841
0.896880 0.479744 0.209079
0.921996 0.489174 0.222965
0.945983 0.499977 0.239078
0.969238 0.512230 0.257298
0.991363 0.526390 0.278325
1.000000 0.542107 0.302220
1.000000 0.560021 0.330327
1.000000 0.580316 0.363653
1.000000 0.603418 0.402716
0.000000 0.340826 0.230442
0.000000 0.341650 0.229709
0.000000 0.343084 0.228885
0.000000 0.346014 0.226810
0.000000 0.350561 0.222721
0.000000 0.356268 0.216495
0.000000 0.363745 0.205356
0.000000 0.372320 0.185458
0.063813 0.379217 0.177157
0.156771 0.386328 0.169192
0.225223 0.391699 0.164309
0.282780 0.392554 0.170016
0.335790 0.393225 0.176913
0.393164 0.398627 0.183566
0.483192 0.424567 0.182895
0.558282 0.439979 0.179873
0.626276 0.453376 0.178714
0.686915 0.464698 0.178470
0.739559 0.473610 0.179599
0.781674 0.480110 0.183749
0.815457 0.485603 0.190738
0.845823 0.491249 0.199802
0.873655 0.497536 0.210300
0.899657 0.504723 0.222812
0.924254 0.513054 0.236881
0.947814 0.522881 0.253178
0.970672 0.534234 0.271305
0.992401 0.547478 0.292241
1.000000 0.562554 0.316960
1.000000 0.579614 0.345464
1.000000 0.599023 0.379095
1.000000 0.621027 0.418158
0.000000 0.385016 0.248936
0.000000 0.385931 0.248234
0.000000 0.387213 0.247471
0.000000 0.389837 0.245274
0.000000 0.393927 0.241703
0.000000 0.399359 0.235447
0.000000 0.406500 0.225681
0.000000 0.414649 0.209537
0.000000 0.422614 0.190921
0.132967 0.429236 0.182681
0.216403 0.435828 0.173007
0.286717 0.439063 0.171450
0.348119 0.439338 0.178073
0.405097 0.439826 0.185550
0.465888 0.445167 0.193240
0.554681 0.471229 0.192935
0.624353 0.485908 0.190585
0.684504 0.497322 0.191318
0.737118 0.506065 0.193668
0.782101 0.512291 0.198581
0.820920 0.517174 0.205356
0.850156 0.521080 0.214389
0.877165 0.525902 0.225345
0.902525 0.531670 0.238041
0.926604 0.538811 0.252354
0.949798 0.547570 0.268559
0.972198 0.558068 0.287358
0.993439 0.570428 0.308598
1.000000 0.584588 0.333501
1.000000 0.600793 0.362829
1.000000 0.619257 0.396674
1.000000 0.640131 0.436042
0.000000 0.431006 0.268925
0.000000 0.431861 0.268254
0.000000 0.433051 0.267338
0.000000 0.435615 0.265507
0.000000 0.439399 0.261997
0.000000 0.444923 0.256077
0.000000 0.451453 0.247288
0.000000 0.459083 0.233555
0.000000 0.467597 0.210513
0.087617 0.474189 0.198337
0.199069 0.480171 0.187991
0.282231 0.485817 0.176364
0.353185 0.486824 0.179660
0.416815 0.486854 0.187228
0.475166 0.486854 0.195438
0.536828 0.493080 0.203891
0.619287 0.518853 0.204471
0.682094 0.531670 0.203616
0.734585 0.539849 0.207767
0.779599 0.545647 0.213748
0.818448 0.549676 0.221225
0.852628 0.552911 0.231357
0.880980 0.556237 0.242557
0.905669 0.560632 0.255406
0.929168 0.566522 0.270298
0.951904 0.574182 0.286839
0.973816 0.583612 0.305577
0.994507 0.594995 0.327306
1.000000 0.608179 0.353002
1.000000 0.623194 0.382086
1.000000 0.640406 0.416052
1.000000 0.659907 0.455268
0.000000 0.478492 0.290043
0.000000 0.479286 0.289433
0.000000 0.480293 0.288396
0.000000 0.482826 0.286534
0.000000 0.486458 0.282933
0.000000 0.491249 0.277623
0.000000 0.497261 0.269657
0.000000 0.504356 0.257176
0.000000 0.512230 0.238224
0.000000 0.519982 0.214786
0.171115 0.525597 0.205020
0.267155 0.530541 0.193332
0.349187 0.534905 0.181308
0.420325 0.534844 0.188479
0.484138 0.534813 0.196719
0.541375 0.535058 0.206424
0.601282 0.541863 0.215732
0.676448 0.565698 0.218967
0.731624 0.575158 0.220462
0.776669 0.579889 0.228336
0.815549 0.582971 0.237797
0.849760 0.585138 0.248692
0.880705 0.587762 0.261021
0.908598 0.591119 0.274815
0.931609 0.595575 0.289677
0.953857 0.602106 0.306737
0.975219 0.610437 0.326146
0.995270 0.620691 0.348241
1.000000 0.632654 0.373938
1.000000 0.646601 0.403601
1.000000 0.662348 0.437263
1.000000 0.680323 0.476326
0.000000 0.526879 0.311711
0.000000 0.527611 0.310979
0.000000 0.530571 0.310826
0.000000 0.532769 0.308690
0.000000 0.536248 0.305486
0.000000 0.540642 0.300084
0.000000 0.546136 0.292393
0.000000 0.552697 0.281010
0.000000 0.560021 0.264714
0.000000 0.568017 0.239445
0.127871 0.573693 0.223514
0.246616 0.578393 0.211917
0.336706 0.582300 0.198611
0.417060 0.584649 0.191165
0.486671 0.584344 0.199588
0.548333 0.584588 0.209171
0.604181 0.585077 0.219821
0.661921 0.592096 0.231052
0.727504 0.611170 0.238224
0.774380 0.615839 0.243351
0.813199 0.617517 0.254215
0.847257 0.618616 0.266880
0.878202 0.620233 0.280552
0.906615 0.622675 0.295781
0.933196 0.626398 0.312169
0.955932 0.631586 0.329778
0.976654 0.638605 0.349279
0.995941 0.647486 0.371588
1.000000 0.658106 0.397223
1.000000 0.670588 0.426795
1.000000 0.684871 0.460456
1.000000 0.701137 0.498817
0.000000 0.577600 0.333745
0.000000 0.578454 0.333043
0.000000 0.579736 0.332250
0.000000 0.581994 0.330388
0.000000 0.585077 0.327092
0.000000 0.589471 0.322118
0.000000 0.594659 0.314824
0.000000 0.600488 0.304479
0.000000 0.607172 0.290257
0.000000 0.614221 0.269474
0.000000 0.621027 0.243412
0.217685 0.624903 0.232303
0.318639 0.628229 0.219425
0.404303 0.630793 0.204532
0.480354 0.631586 0.203189
0.546593 0.631220 0.212924
0.605768 0.631220 0.224247
0.658869 0.631556 0.236912
0.713405 0.637690 0.250462
0.769619 0.651026 0.261906
0.809720 0.651972 0.270817
0.844083 0.651759 0.284123
0.875029 0.652277 0.299901
0.903502 0.653834 0.316503
0.930083 0.656794 0.334478
0.955291 0.661463 0.353674
0.977783 0.667475 0.374731
0.996368 0.674983 0.397314
1.000000 0.684169 0.422766
1.000000 0.695155 0.452369
1.000000 0.707668 0.485298
1.000000 0.721981 0.522454
0.000000 0.628199 0.355291
0.000000 0.629175 0.355077
0.000000 0.630213 0.354192
0.000000 0.632288 0.351934
0.000000 0.635157 0.348852
0.000000 0.638849 0.343816
0.000000 0.643183 0.337255
0.000000 0.648280 0.327794
0.000000 0.653925 0.315129
0.000000 0.660060 0.297704
0.000000 0.666163 0.273808
0.183536 0.670314 0.255589
0.297124 0.672572 0.243717
0.387488 0.674250 0.229862
0.467170 0.675227 0.214054
0.538018 0.674495 0.220066
0.600275 0.673640 0.231937
0.656001 0.673091 0.245182
0.706325 0.672908 0.259831
0.757290 0.677974 0.275822
0.805631 0.686671 0.292027
0.840421 0.685023 0.303380
0.871672 0.684260 0.319036
0.900206 0.684779 0.337591
0.926818 0.686946 0.357153
0.952026 0.690822 0.377844
0.975311 0.696162 0.400427
0.996185 0.702693 0.424903
1.000000 0.710323 0.450599
1.000000 0.719570 0.479225
1.000000 0.730343 0.511528
1.000000 0.742580 0.546838
0.000000 0.677241 0.376715
0.000000 0.678004 0.376257
0.000000 0.678950 0.375463
0.000000 0.680507 0.373754
0.000000 0.682918 0.370367
0.000000 0.685817 0.365972
0.000000 0.689418 0.359319
0.000000 0.693507 0.350927
0.000000 0.697810 0.340063
0.000000 0.702541 0.325658
0.000000 0.707179 0.306676
0.149660 0.711391 0.283146
0.276738 0.712734 0.271702
0.370245 0.713527 0.258732
0.450935 0.713771 0.243992
0.523644 0.713466 0.230503
0.589654 0.711971 0.242924
0.647883 0.710842 0.256840
0.700313 0.709957 0.272404
0.747616 0.709468 0.289464
0.795041 0.713558 0.308446
0.837552 0.719234 0.328344
0.868437 0.716396 0.341680
0.897307 0.715724 0.359838
0.923949 0.716915 0.381323
0.949096 0.720058 0.403845
0.972320 0.724575 0.427649
0.992981 0.730282 0.453071
1.000000 0.736843 0.480293
1.000000 0.744381 0.509087
1.000000 0.753231 0.539849
1.000000 0.763210 0.572686
0.000000 0.722072 0.397772
0.000000 0.722621 0.397162
0.000000 0.723171 0.396216
0.000000 0.724361 0.394354
0.000000 0.726101 0.391363
0.000000 0.728298 0.386938
0.000000 0.730983 0.381292
0.000000 0.734066 0.373907
0.000000 0.737362 0.364385
0.000000 0.740841 0.352667
0.000000 0.744259 0.337957
0.154696 0.747463 0.319890
0.266484 0.748989 0.304601
0.358770 0.749081 0.292119
0.437720 0.748745 0.278630
0.509239 0.748043 0.263401
0.575708 0.746761 0.257481
0.636622 0.744900 0.271733
0.690913 0.743374 0.288090
0.739742 0.742184 0.305699
0.784024 0.741390 0.324926
0.827695 0.744747 0.346685
0.865904 0.748898 0.369360
0.893431 0.745449 0.384253
0.920531 0.745327 0.404547
0.945647 0.747555 0.428382
0.968750 0.751186 0.453620
0.989349 0.755978 0.479805
1.000000 0.761685 0.507774
1.000000 0.767910 0.536767
1.000000 0.774716 0.566918
1.000000 0.782437 0.597040
0.000000 0.760739 0.416968
0.000000 0.761044 0.416602
0.000000 0.761563 0.415503
0.000000 0.762417 0.413764
0.000000 0.763790 0.411200
0.000000 0.765377 0.407172
0.000000 0.767453 0.402075
0.000000 0.769680 0.395697
0.000000 0.772061 0.388128
0.000000 0.774472 0.378698
0.000000 0.776822 0.367895
0.177493 0.778775 0.355718
0.273747 0.780148 0.342016
0.357946 0.780056 0.330205
0.431708 0.779477 0.317205
0.498909 0.778683 0.303075
0.561822 0.777523 0.286961
0.623255 0.775692 0.289860
0.679774 0.773709 0.306432
0.730343 0.772091 0.325078
0.775845 0.770809 0.344823
0.816922 0.769986 0.366613
0.857328 0.773037 0.390723
0.891844 0.776455 0.415778
0.916442 0.772763 0.430671
0.942077 0.773617 0.452186
0.965148 0.776333 0.478523
0.985657 0.780240 0.505608
1.000000 0.784878 0.533745
1.000000 0.790005 0.562249
1.000000 0.795224 0.590875
1.000000 0.800809 0.619898
0.000000 0.795224 0.436042
0.000000 0.795560 0.435615
0.000000 0.795895 0.434791
0.000000 0.796475 0.433295
0.000000 0.797482 0.430884
0.000000 0.798642 0.427558
0.000000 0.800015 0.423285
0.000000 0.801633 0.418219
0.000000 0.803189 0.411719
0.000000 0.804746 0.404913
0.056794 0.806119 0.397559
0.210758 0.807095 0.389502
0.300969 0.807553 0.382055
0.374212 0.807431 0.372900
0.437781 0.806943 0.360510
0.497963 0.806088 0.346746
0.555596 0.805020 0.331823
0.611109 0.803708 0.314916
0.668482 0.801572 0.327977
0.720577 0.799588 0.346685
0.767300 0.798001 0.367193
0.809293 0.796841 0.389349
0.847166 0.796078 0.412726
0.884337 0.798947 0.438453
0.915770 0.802243 0.464820
0.938170 0.799008 0.480171
0.961761 0.800351 0.502953
0.982147 0.803220 0.530816
0.999451 0.806760 0.558526
1.000000 0.810544 0.585901
1.000000 0.814359 0.612909
1.000000 0.818418 0.640436
0.000000 0.825589 0.454505
0.000000 0.825803 0.454292
0.000000 0.826078 0.453498
0.000000 0.826566 0.452338
0.000000 0.827237 0.450294
0.000000 0.828092 0.447852
0.000000 0.829099 0.444312
0.000000 0.830137 0.440528
0.000000 0.831174 0.436072
0.000000 0.832090 0.431342
0.141573 0.832761 0.426856
0.251621 0.832944 0.423041
0.334630 0.832639 0.420356
0.407935 0.831815 0.419409
0.459785 0.831571 0.408637
0.509850 0.831083 0.395453
0.559655 0.830350 0.381353
0.609094 0.829374 0.365545
0.659083 0.827970 0.352789
0.712398 0.825803 0.372107
0.760037 0.823941 0.393103
0.803037 0.822538 0.415473
0.841581 0.821530 0.439216
0.876066 0.821012 0.463539
0.910033 0.823880 0.490181
0.938567 0.827176 0.517113
0.958038 0.823636 0.531395
0.978882 0.825010 0.554650
0.996185 0.827298 0.581506
1.000000 0.829801 0.607843
1.000000 0.832303 0.633845
1.000000 0.834928 0.659998
0.000000 0.853574 0.473793
0.000000 0.853758 0.473518
0.000000 0.853941 0.473091
0.000000 0.854246 0.471962
0.000000 0.854673 0.470497
0.000000 0.855253 0.468574
0.000000 0.855863 0.466224
0.000000 0.856474 0.463478
0.000000 0.856931 0.460853
0.000000 0.857267 0.458381
0.205600 0.857237 0.456794
0.296117 0.856870 0.456519
0.372503 0.855955 0.457893
0.441627 0.854643 0.461341
0.495583 0.853727 0.460060
0.534844 0.853666 0.447852
0.575402 0.853391 0.434424
0.617243 0.852842 0.419867
0.659815 0.852079 0.403540
0.706447 0.850675 0.400427
0.754910 0.848661 0.421790
0.798428 0.847013 0.444556
0.837400 0.845853 0.468055
0.872282 0.845060 0.492317
0.903471 0.844694 0.516777
0.933989 0.847349 0.542504
0.959167 0.850065 0.568139
0.975647 0.846098 0.581079
0.993011 0.846494 0.602380
1.000000 0.847654 0.627375
1.000000 0.848875 0.652491
1.000000 0.850187 0.677668
0.000000 0.879606 0.493751
0.000000 0.879698 0.493538
0.000000 0.879850 0.493111
0.000000 0.880064 0.492653
0.000000 0.880339 0.491493
0.000000 0.880674 0.490394
0.000000 0.881010 0.489265
0.000000 0.881346 0.487953
0.000000 0.881437 0.487312
0.168856 0.881285 0.487526
0.267735 0.880797 0.488808
0.346532 0.879881 0.491951
0.416388 0.878630 0.496773
0.480507 0.876982 0.503716
0.539147 0.875059 0.512535
0.572808 0.875090 0.504784
0.604303 0.875242 0.492622
0.637598 0.875242 0.478889
0.672908 0.874968 0.464118
0.709621 0.874449 0.447639
0.753414 0.872831 0.455207
0.796872 0.870939 0.477882
0.835752 0.869413 0.501030
0.870542 0.868223 0.524529
0.901549 0.867460 0.548302
0.929168 0.867094 0.570977
0.956146 0.869230 0.593927
0.977569 0.870787 0.616327
0.990753 0.866056 0.627588
1.000000 0.864927 0.647028
1.000000 0.864683 0.670436
1.000000 0.864683 0.695003
0.000000 0.904997 0.515526
0.000000 0.905028 0.515435
0.000000 0.905089 0.515435
0.000000 0.905180 0.514977
0.000000 0.905241 0.514580
0.000000 0.905303 0.514214
0.000000 0.905272 0.514183
0.000000 0.905119 0.514519
0.146578 0.904692 0.515679
0.248569 0.903990 0.517937
0.327398 0.902892 0.521721
0.396979 0.901488 0.527459
0.460883 0.899687 0.534905
0.519951 0.897642 0.544366
0.573846 0.895506 0.555047
