其他预设/【233】日式怀旧街道调色预设208款/1.3D LUT预设（视频调色-PR-AE-PS-FCPX-达芬奇用）/2.富士胶片风-日式城市街拍预设/JA – Warm Normal 1 (Classic Chrome).cube
# Created by Adobe Lightroom plugin Export LUT (1.17.0)
# www.johnrellis.com/lightroom/exportlut.htm
# Preset: JA – Warm Normal 1 (Classic Chrome)
# Color profile: /Library/Application Support/Adobe/Color/Profiles/Recommended/AdobeRGB1998.icc
LUT_3D_SIZE 8
DOMAIN_MIN 0.000000 0.000000 0.000000
DOMAIN_MAX 0.903226 0.903226 0.903226
0.112276 0.101625 0.094667
0.157809 0.098238 0.093660
0.299107 0.078950 0.084627
0.495125 0.000000 0.036408
0.671687 0.000000 0.000000
0.810758 0.000000 0.000000
0.930053 0.000000 0.000000
1.000000 0.000000 0.000000
0.109957 0.146212 0.091463
0.158114 0.145296 0.087617
0.300938 0.144808 0.074647
0.497108 0.142397 0.000000
0.672663 0.126955 0.000000
0.810086 0.097047 0.000000
0.928618 0.000000 0.000000
1.000000 0.000000 0.000000
0.092348 0.283879 0.066865
0.170413 0.285649 0.056825
0.310369 0.288396 0.000000
0.501549 0.300969 0.000000
0.674464 0.292485 0.000000
0.812772 0.276097 0.000000
0.932250 0.246891 0.000000
1.000000 0.194736 0.000000
0.000000 0.470893 0.000000
0.157412 0.471839 0.000000
0.337102 0.476051 0.000000
0.513451 0.482979 0.000000
0.685267 0.473823 0.000000
0.816617 0.431373 0.000000
0.931731 0.401892 0.000000
1.000000 0.356481 0.000000
0.000000 0.636744 0.000000
0.097688 0.636988 0.000000
0.319493 0.638514 0.000000
0.501915 0.640864 0.000000
0.672877 0.640589 0.000000
0.818387 0.616510 0.000000
0.929656 0.565667 0.000000
1.000000 0.498451 0.000000
0.000000 0.770047 0.000000
0.000000 0.771481 0.000000
0.281956 0.771786 0.000000
0.468971 0.772305 0.000000
0.638544 0.771664 0.000000
0.799588 0.770596 0.000000
0.929107 0.742245 0.000000
1.000000 0.663630 0.000000
0.000000 0.888914 0.000000
0.000000 0.888914 0.000000
0.232456 0.887633 0.000000
0.426520 0.885679 0.000000
0.595300 0.881987 0.000000
0.748623 0.876585 0.000000
0.892546 0.869108 0.000000
0.994171 0.825803 0.000000
0.000000 0.968994 0.000000
0.000000 0.968383 0.000000
0.156741 0.966217 0.000000
0.368780 0.962310 0.000000
0.532830 0.955138 0.000000
0.681605 0.946685 0.000000
0.815091 0.936339 0.000000
0.940307 0.923644 0.000000
0.118318 0.106722 0.134249
0.157961 0.098085 0.134707
0.295659 0.055238 0.127962
0.492958 0.000000 0.100130
0.669795 0.000000 0.008453
0.808042 0.000000 0.000000
0.927550 0.000000 0.000000
1.000000 0.000000 0.000000
0.117098 0.142672 0.133974
0.158785 0.143984 0.134096
0.302770 0.133547 0.121187
0.497871 0.114199 0.088716
0.671931 0.090059 0.000000
0.808591 0.066041 0.000000
0.926787 0.006806 0.000000
1.000000 0.000000 0.000000
0.085420 0.280095 0.139925
0.143252 0.285924 0.115419
0.310674 0.288273 0.089937
0.503380 0.285496 0.013611
0.675013 0.275853 0.000000
0.811215 0.260533 0.000000
0.929107 0.244602 0.000000
1.000000 0.197482 0.000000
0.000000 0.468086 0.102327
0.090272 0.471962 0.010193
0.322637 0.476295 0.000000
0.510216 0.479683 0.000000
0.681209 0.461860 0.000000
0.812406 0.416571 0.000000
0.928557 0.395148 0.000000
1.000000 0.356146 0.000000
0.000000 0.636164 0.000000
0.000000 0.636774 0.000000
0.299321 0.637690 0.000000
0.493385 0.638636 0.000000
0.669886 0.637507 0.000000
0.816709 0.609949 0.000000
0.928618 0.557794 0.000000
1.000000 0.497414 0.000000
0.000000 0.768673 0.000000
0.000000 0.768917 0.000000
0.261479 0.769314 0.000000
0.459052 0.770382 0.000000
0.633692 0.770413 0.000000
0.798978 0.769772 0.000000
0.929107 0.738918 0.000000
1.000000 0.662074 0.000000
0.000000 0.887114 0.000000
0.000000 0.886687 0.000000
0.212619 0.885801 0.000000
0.416907 0.884489 0.000000
0.589746 0.881407 0.000000
0.745632 0.875944 0.000000
0.891691 0.868132 0.000000
0.993866 0.824002 0.000000
0.000000 0.968444 0.000000
0.000000 0.967926 0.000000
0.135409 0.965942 0.000000
0.360327 0.962219 0.000000
0.527031 0.956054 0.000000
0.677943 0.947265 0.000000
0.815244 0.936187 0.000000
0.940826 0.923339 0.000000
0.129061 0.112551 0.263584
0.180179 0.099336 0.265141
0.300633 0.014588 0.260410
0.479896 0.000000 0.262089
0.663142 0.000000 0.227085
0.806119 0.000000 0.194858
0.928191 0.000000 0.134890
1.000000 0.000000 0.000000
0.130648 0.167422 0.262303
0.171572 0.152987 0.265354
0.303593 0.114076 0.262577
0.485908 0.000000 0.255833
0.666285 0.000000 0.217594
0.806638 0.000000 0.188571
0.927977 0.000000 0.124422
1.000000 0.000000 0.000000
0.101930 0.275883 0.261997
0.160220 0.277592 0.263249
0.307225 0.280461 0.262669
0.504936 0.262089 0.240391
0.677424 0.237736 0.206882
0.813260 0.210697 0.162173
0.931121 0.174807 0.076173
1.000000 0.121218 0.000000
0.000000 0.458503 0.280766
0.054475 0.463569 0.272557
0.279026 0.476295 0.232731
0.511101 0.478798 0.187350
0.684108 0.436316 0.164187
0.816190 0.396796 0.122591
0.932433 0.365148 0.000000
1.000000 0.323796 0.000000
0.000000 0.628168 0.261448
0.000000 0.630945 0.248753
0.250187 0.637995 0.198184
0.478248 0.639918 0.163424
0.671626 0.638331 0.052308
0.820096 0.596460 0.000000
0.931212 0.535241 0.000000
1.000000 0.478706 0.000000
0.000000 0.763546 0.225071
0.000000 0.765042 0.212436
0.222385 0.768460 0.160616
0.440192 0.769558 0.114717
0.625086 0.769986 0.000000
0.798611 0.769070 0.000000
0.930571 0.729427 0.000000
1.000000 0.647303 0.000000
0.000000 0.884398 0.182864
0.000000 0.884550 0.173220
0.184787 0.885252 0.100069
0.402075 0.884001 0.000000
0.578759 0.881346 0.000000
0.740230 0.876402 0.000000
0.892485 0.868742 0.000000
0.995819 0.817990 0.000000
0.000000 0.966003 0.138094
0.000000 0.965545 0.125582
0.130373 0.964874 0.000000
0.351995 0.961822 0.000000
0.516136 0.956298 0.000000
0.668269 0.948119 0.000000
0.809903 0.937041 0.000000
0.942565 0.923339 0.000000
0.141024 0.119081 0.442084
0.201328 0.105226 0.442451
0.333349 0.000000 0.441169
0.484565 0.000000 0.429175
0.634150 0.000000 0.405890
0.785733 0.000000 0.379767
0.915129 0.000000 0.351415
1.000000 0.000000 0.339178
0.130495 0.180301 0.444587
0.192477 0.169406 0.444404
0.327581 0.114656 0.443061
0.487678 0.000000 0.431861
0.638178 0.000000 0.405188
0.787350 0.000000 0.378973
0.915190 0.000000 0.354009
1.000000 0.035035 0.331334
0.171756 0.323033 0.438331
0.225742 0.323888 0.439094
0.323125 0.293889 0.444587
0.494270 0.241215 0.436683
0.650813 0.234562 0.407202
0.794644 0.249638 0.388159
0.918151 0.269780 0.373175
1.000000 0.199100 0.309789
0.005859 0.453346 0.436988
0.147372 0.454658 0.437903
0.315007 0.458656 0.439704
0.500389 0.463447 0.439216
0.667384 0.447517 0.418891
0.804105 0.425025 0.390234
0.924193 0.389166 0.344366
1.000000 0.327062 0.267338
0.000000 0.614466 0.434791
0.000000 0.616449 0.432319
0.266239 0.622736 0.424964
0.475410 0.630823 0.413733
0.669001 0.633326 0.378546
0.812497 0.584741 0.357580
0.926085 0.535973 0.318547
1.000000 0.473548 0.227176
0.000000 0.754726 0.411261
0.000000 0.756771 0.408972
0.256046 0.759518 0.400946
0.451362 0.764004 0.389197
0.627649 0.766995 0.365728
0.798856 0.767849 0.312230
0.928099 0.718532 0.252873
1.000000 0.630762 0.165103
0.000000 0.878264 0.384344
0.000000 0.878599 0.381933
0.245640 0.878996 0.377691
0.424842 0.879850 0.361608
0.585901 0.878752 0.332921
0.741176 0.875334 0.283116
0.892851 0.868345 0.194461
0.994812 0.807523 0.000000
0.000000 0.963165 0.353033
0.000000 0.962585 0.352575
0.249638 0.960052 0.354192
0.395972 0.957458 0.331548
0.533013 0.953155 0.288029
0.670893 0.946532 0.206424
0.807095 0.936706 0.000000
0.942779 0.923217 0.000000
0.172763 0.151369 0.601434
0.223331 0.140932 0.601007
0.341802 0.082734 0.598230
0.485451 0.000000 0.592828
0.638239 0.000000 0.578668
0.763973 0.000000 0.540490
0.894072 0.000000 0.514549
0.993072 0.000000 0.488014
0.178897 0.211368 0.602319
0.225345 0.202640 0.602045
0.339818 0.162631 0.599451
0.483131 0.000000 0.593835
0.639460 0.000000 0.579828
0.764584 0.000000 0.540002
0.894896 0.000000 0.515343
0.992432 0.065522 0.490852
0.248051 0.359503 0.601282
0.279881 0.355718 0.602167
0.350683 0.321721 0.600824
0.481117 0.262974 0.596185
0.642847 0.206485 0.582544
0.764645 0.207553 0.539849
0.896361 0.235843 0.521599
0.989624 0.292149 0.502464
0.249577 0.479622 0.595178
0.292943 0.481910 0.595605
0.411048 0.492439 0.596429
0.510796 0.475227 0.597406
0.647974 0.431434 0.586389
0.772519 0.430488 0.553735
0.899413 0.442908 0.541375
0.983642 0.474861 0.535576
0.135470 0.602502 0.588312
0.203738 0.603388 0.588800
0.348852 0.606043 0.589593
0.508049 0.610651 0.590845
0.654017 0.615900 0.590814
0.789364 0.602594 0.572900
0.907652 0.579614 0.543542
0.990295 0.534783 0.491310
0.000000 0.737606 0.572656
0.000000 0.737911 0.571984
0.273442 0.740047 0.570275
0.463020 0.744167 0.570092
0.628199 0.752987 0.564843
0.792813 0.760433 0.539696
0.913634 0.713466 0.513878
0.989258 0.647608 0.463416
0.000000 0.867735 0.551354
0.000000 0.867765 0.550500
0.267002 0.867765 0.548547
0.448310 0.868040 0.547631
0.602655 0.869871 0.539513
0.747768 0.869566 0.519249
0.890837 0.865507 0.474556
0.984955 0.799680 0.404303
0.000000 0.957580 0.517266
0.047578 0.956909 0.516899
0.278630 0.954406 0.517296
0.443091 0.950378 0.521019
0.577569 0.945617 0.514275
0.693935 0.940673 0.481666
0.814633 0.932952 0.427314
0.941711 0.921263 0.335668
0.231785 0.215122 0.736233
0.265568 0.208438 0.735683
0.357031 0.177371 0.733181
0.478035 0.068452 0.729152
0.616754 0.000000 0.722042
0.762570 0.000000 0.707881
0.881254 0.000000 0.670985
0.978393 0.000000 0.632929
0.248569 0.264591 0.735317
0.277562 0.257816 0.734768
0.361547 0.230442 0.732723
0.478065 0.160220 0.728817
0.615320 0.000000 0.721675
0.762478 0.000000 0.707759
0.880766 0.000000 0.670375
0.977844 0.000000 0.633448
0.314580 0.392584 0.736110
0.332860 0.387152 0.735622
0.392828 0.365972 0.733730
0.489143 0.321569 0.730007
0.615778 0.229496 0.723171
0.764096 0.187594 0.709346
0.880003 0.194156 0.670710
0.976196 0.250675 0.637049
0.404547 0.534813 0.731685
0.421942 0.534356 0.731838
0.476112 0.531487 0.732601
0.533532 0.501061 0.731868
0.629053 0.444984 0.725673
0.767453 0.408789 0.712490
0.878477 0.400122 0.673152
0.973144 0.427832 0.646204
0.360784 0.619715 0.726680
0.389502 0.621790 0.726802
0.473335 0.629297 0.727443
0.585046 0.643763 0.728878
0.660304 0.625910 0.727871
0.769924 0.581811 0.714870
0.879515 0.572839 0.681971
0.966308 0.594293 0.667964
0.266392 0.727504 0.719020
0.304204 0.728298 0.719509
0.404456 0.730159 0.719875
0.527794 0.733425 0.720607
0.652461 0.738369 0.721767
0.778378 0.745785 0.724086
0.889799 0.734066 0.707454
0.964843 0.708431 0.676173
0.058991 0.857084 0.709224
0.161349 0.856992 0.708919
0.307134 0.855833 0.706996
0.452918 0.854826 0.703151
0.607080 0.856077 0.700160
0.756039 0.859464 0.701472
0.886198 0.861509 0.683375
0.964538 0.806485 0.649561
0.082033 0.950622 0.671809
0.169100 0.949950 0.671321
0.311101 0.947601 0.669856
0.454963 0.943816 0.668025
0.600702 0.937804 0.670314
0.734371 0.930755 0.679164
0.833341 0.926055 0.656672
0.938170 0.918090 0.610010
0.327001 0.312291 0.850370
0.345769 0.307897 0.850553
0.403235 0.287236 0.849668
0.490913 0.238590 0.848112
0.601129 0.110536 0.845243
0.731960 0.000000 0.839506
0.871092 0.000000 0.828885
0.966644 0.000000 0.779538
0.345251 0.348821 0.848386
0.361608 0.343999 0.848478
0.413123 0.323949 0.847837
0.494942 0.279057 0.846220
0.601221 0.180850 0.843290
0.730068 0.000000 0.837430
0.869047 0.000000 0.826596
0.964843 0.000000 0.777584
0.409827 0.454658 0.847593
0.420172 0.449989 0.847410
0.456031 0.432502 0.846586
0.519554 0.397101 0.845243
0.610163 0.330022 0.842405
0.730373 0.208743 0.837430
0.869535 0.177340 0.827237
0.963531 0.221866 0.778286
0.500206 0.583429 0.844633
0.510887 0.582818 0.844450
0.531548 0.569482 0.844663
0.569390 0.541466 0.843870
0.634791 0.493751 0.841581
0.734951 0.409186 0.837766
0.869963 0.386572 0.828031
0.960113 0.395209 0.778286
0.525658 0.670161 0.839536
0.541314 0.672724 0.839200
0.591669 0.682246 0.838773
0.637995 0.678706 0.839841
0.674678 0.645319 0.839475
0.744717 0.585138 0.835294
0.867582 0.548516 0.825742
0.953399 0.548333 0.778103
0.472663 0.738491 0.836759
0.490455 0.739834 0.836698
0.546563 0.744564 0.836698
0.626581 0.752804 0.837125
0.720546 0.766690 0.838010
0.781765 0.754269 0.837491
0.868284 0.710323 0.827543
0.944335 0.708919 0.790463
0.387366 0.833371 0.833158
0.408728 0.833829 0.833280
0.473091 0.834897 0.833158
0.563287 0.836881 0.833127
0.666255 0.839536 0.832731
0.776699 0.843870 0.832853
0.873533 0.850614 0.835080
0.937438 0.841855 0.822690
0.277226 0.940703 0.817166
0.304784 0.940124 0.816587
0.385321 0.938598 0.814969
0.489174 0.935241 0.811124
0.603296 0.930083 0.805325
0.742214 0.922362 0.805631
0.859922 0.915892 0.820890
0.931823 0.914397 0.809201
0.470924 0.452277 0.917754
0.478218 0.448646 0.917906
0.502007 0.432868 0.917967
0.545495 0.400244 0.918517
0.609308 0.338872 0.919219
0.696559 0.208530 0.919921
0.813779 0.000000 0.918395
0.941650 0.000000 0.913176
0.485573 0.475837 0.916503
0.492195 0.472389 0.916686
0.513664 0.456855 0.916869
0.553643 0.425391 0.917388
0.613977 0.367407 0.918181
0.697993 0.251377 0.919005
0.813291 0.000000 0.917571
0.940887 0.000000 0.912291
0.532738 0.547295 0.913512
0.537163 0.543877 0.913634
0.552117 0.529564 0.913787
0.584009 0.503655 0.914824
0.632807 0.454719 0.915740
0.705715 0.365698 0.916747
0.813565 0.250767 0.916014
0.939483 0.222080 0.910948
0.610620 0.649561 0.908782
0.608728 0.643610 0.909209
0.614649 0.630457 0.909697
0.633570 0.608881 0.910582
0.666773 0.570581 0.911833
0.722103 0.503197 0.913329
0.815030 0.407294 0.913909
0.937499 0.386816 0.909087
0.656916 0.727291 0.903746
0.662470 0.727687 0.903899
0.678889 0.726925 0.904173
0.703975 0.722499 0.905028
0.713252 0.688319 0.906706
0.747738 0.638880 0.908354
0.817777 0.552331 0.910430
0.934142 0.539055 0.905943
0.648798 0.774166 0.902251
0.657496 0.775784 0.901976
0.687160 0.781796 0.901183
0.735348 0.793240 0.900145
0.777127 0.797879 0.900511
0.798001 0.774929 0.902678
0.836301 0.720851 0.904967
0.930083 0.692500 0.902373
0.604334 0.824308 0.902464
0.613825 0.825071 0.902281
0.645716 0.827848 0.901732
0.698848 0.833738 0.900999
0.766934 0.843870 0.899962
0.838560 0.859617 0.899107
0.876097 0.857084 0.900114
0.924498 0.826474 0.897246
0.533318 0.897307 0.902159
0.543908 0.897398 0.902007
0.580011 0.897948 0.901610
0.640620 0.899107 0.901030
0.718349 0.900877 0.900145
0.801785 0.903258 0.899077
0.874418 0.906096 0.898314
0.924804 0.909575 0.899138
