其他预设/【233】日式怀旧街道调色预设208款/1.3D LUT预设（视频调色-PR-AE-PS-FCPX-达芬奇用）/2.富士胶片风-日式城市街拍预设/JA – Night Pop 2 (Classic Chrome).cube
# Created by Adobe Lightroom plugin Export LUT (1.17.0)
# www.johnrellis.com/lightroom/exportlut.htm
# Preset: JA – Night Pop 2 (Classic Chrome)
# Color profile: /Library/Application Support/Adobe/Color/Profiles/Recommended/AdobeRGB1998.icc
LUT_3D_SIZE 8
DOMAIN_MIN 0.000000 0.000000 0.000000
DOMAIN_MAX 0.903226 0.903226 0.903226
0.049531 0.057221 0.062287
0.094179 0.039643 0.062928
0.189364 0.002686 0.053834
0.336004 0.000000 0.006073
0.611261 0.000000 0.000000
0.794491 0.000000 0.000000
0.954070 0.000000 0.000000
1.000000 0.000000 0.000000
0.041108 0.085786 0.060487
0.083955 0.083528 0.064942
0.172671 0.093263 0.075441
0.321477 0.099001 0.050111
0.602594 0.110506 0.000000
0.792569 0.088106 0.000000
0.953704 0.000000 0.000000
1.000000 0.000000 0.000000
0.000000 0.153628 0.044221
0.073030 0.153109 0.047883
0.149294 0.142794 0.067048
0.226230 0.169833 0.132906
0.522850 0.246708 0.081056
0.752987 0.264988 0.000000
0.926909 0.251865 0.000000
1.000000 0.220005 0.000000
0.000000 0.253758 0.063691
0.000000 0.252415 0.022065
0.163485 0.243565 0.026337
0.233371 0.219516 0.058869
0.406287 0.298375 0.152255
0.668025 0.383337 0.171481
0.881865 0.402564 0.138155
1.000000 0.393103 0.132876
0.000000 0.496620 0.061341
0.000000 0.493446 0.000000
0.188357 0.480568 0.000000
0.342687 0.442145 0.000000
0.429511 0.394751 0.000000
0.639490 0.470069 0.141665
0.793790 0.556939 0.410559
0.983429 0.598291 0.445380
0.000000 0.705562 0.027832
0.000000 0.700893 0.000000
0.024353 0.691676 0.000000
0.380224 0.673823 0.000000
0.540856 0.632929 0.000000
0.652064 0.585657 0.000000
0.814450 0.612116 0.193790
0.928405 0.721798 0.592493
0.000000 0.870970 0.000000
0.000000 0.869841 0.000000
0.000000 0.865263 0.000000
0.334600 0.851926 0.000000
0.560632 0.831022 0.000000
0.722164 0.791379 0.000000
0.848142 0.749783 0.000000
0.965026 0.764920 0.418067
0.000000 0.994415 0.000000
0.000000 0.995148 0.000000
0.000000 0.993713 0.000000
0.207675 0.983642 0.000000
0.510613 0.972198 0.000000
0.712032 0.952178 0.000000
0.879332 0.927642 0.000000
1.000000 0.891447 0.000000
0.028565 0.056825 0.096986
0.084199 0.042267 0.094820
0.183291 0.000000 0.081300
0.328771 0.000000 0.063142
0.612451 0.000000 0.000000
0.797147 0.000000 0.000000
0.958282 0.000000 0.000000
1.000000 0.000000 0.000000
0.015198 0.084504 0.096803
0.078859 0.085389 0.092164
0.174075 0.087587 0.087648
0.316381 0.095033 0.072663
0.598993 0.112612 0.000000
0.791440 0.118898 0.000000
0.956542 0.037263 0.000000
1.000000 0.000000 0.000000
0.000000 0.158968 0.099977
0.059083 0.155856 0.092317
0.148623 0.144869 0.090669
0.233280 0.173861 0.141634
0.530144 0.246769 0.096284
0.756497 0.269413 0.000000
0.933654 0.260410 0.000000
1.000000 0.220218 0.000000
0.000000 0.262150 0.116121
0.000000 0.258701 0.093843
0.158083 0.249027 0.078187
0.237736 0.225071 0.085969
0.422797 0.309972 0.173190
0.682521 0.389532 0.180392
0.890410 0.409094 0.145296
1.000000 0.394659 0.138125
0.000000 0.503685 0.154299
0.000000 0.501427 0.088685
0.157473 0.488319 0.000000
0.344701 0.454597 0.000000
0.439643 0.404456 0.000000
0.646571 0.474403 0.164370
0.797238 0.562249 0.418250
0.986450 0.601129 0.449928
0.000000 0.711818 0.166995
0.000000 0.710048 0.079469
0.000000 0.700984 0.000000
0.369329 0.681392 0.000000
0.541405 0.639338 0.000000
0.654658 0.588403 0.000000
0.816464 0.614252 0.204135
0.930510 0.724636 0.596765
0.000000 0.877440 0.160159
0.000000 0.877775 0.033173
0.000000 0.873564 0.000000
0.314000 0.858457 0.000000
0.555505 0.836484 0.000000
0.723262 0.796262 0.000000
0.852445 0.753872 0.000000
0.967926 0.768551 0.426886
0.000000 0.996521 0.000000
0.000000 0.997009 0.000000
0.000000 0.996612 0.000000
0.161593 0.986236 0.000000
0.498665 0.972137 0.000000
0.708583 0.952300 0.000000
0.878782 0.928496 0.000000
1.000000 0.892607 0.000000
0.000000 0.055238 0.189883
0.000000 0.047761 0.185672
0.154299 0.023621 0.171420
0.298680 0.000000 0.180575
0.584741 0.000000 0.121035
0.787594 0.000000 0.018402
0.955322 0.000000 0.000000
1.000000 0.000000 0.000000
0.000000 0.093965 0.193088
0.000000 0.087312 0.185336
0.151308 0.074250 0.169284
0.295842 0.000000 0.168063
0.587030 0.000000 0.108156
0.789792 0.000000 0.009094
0.957458 0.000000 0.000000
1.000000 0.000000 0.000000
0.000000 0.167208 0.187411
0.000000 0.163729 0.181643
0.136507 0.147829 0.159396
0.272099 0.154299 0.157717
0.562646 0.166781 0.131350
0.773037 0.171847 0.080385
0.943847 0.170260 0.000000
1.000000 0.164096 0.000000
0.000000 0.266880 0.204715
0.000000 0.264408 0.196262
0.116762 0.250645 0.164248
0.230625 0.226383 0.157412
0.418311 0.307164 0.230137
0.705257 0.365667 0.198734
0.902739 0.376715 0.167605
1.000000 0.371588 0.131960
0.000000 0.518944 0.295354
0.000000 0.515953 0.274937
0.000000 0.496132 0.168460
0.316167 0.464210 0.121035
0.433387 0.402808 0.125795
0.642054 0.473548 0.255253
0.816861 0.562799 0.433661
0.991638 0.590936 0.444526
0.000000 0.720180 0.326146
0.000000 0.718196 0.300511
0.000000 0.710262 0.169467
0.303075 0.690059 0.000000
0.528435 0.649775 0.000000
0.655909 0.591791 0.000000
0.814267 0.623011 0.327672
0.928527 0.729213 0.614527
0.000000 0.881834 0.326390
0.000000 0.881926 0.299779
0.000000 0.880125 0.158053
0.195956 0.867613 0.000000
0.524804 0.845914 0.000000
0.714870 0.802670 0.000000
0.850034 0.753567 0.000000
0.964813 0.768826 0.449683
0.000000 0.998322 0.250278
0.000000 0.999115 0.236912
0.000000 0.999847 0.096834
0.000000 0.992157 0.000000
0.452979 0.977203 0.000000
0.688991 0.956573 0.000000
0.872496 0.930114 0.000000
1.000000 0.892638 0.000000
0.000000 0.048188 0.371374
0.000000 0.048402 0.366217
0.129122 0.000000 0.303441
0.255985 0.000000 0.279759
0.559014 0.000000 0.382330
0.774594 0.000000 0.332677
0.955291 0.000000 0.189761
1.000000 0.000000 0.095705
0.000000 0.120272 0.375067
0.000000 0.107729 0.364294
0.116640 0.062501 0.304540
0.252018 0.000000 0.276280
0.555261 0.000000 0.370947
0.774563 0.000000 0.314427
0.956878 0.000000 0.163790
1.000000 0.000000 0.090303
0.000000 0.236820 0.383917
0.000000 0.224186 0.373754
0.000000 0.160006 0.321965
0.240635 0.137301 0.267674
0.539818 0.000000 0.319890
0.768215 0.000000 0.215274
0.949035 0.000000 0.164614
1.000000 0.000000 0.071351
0.000000 0.330541 0.366339
0.000000 0.323247 0.357488
0.000000 0.289006 0.318273
0.214267 0.230533 0.247837
0.509606 0.248417 0.248447
0.750576 0.258549 0.236057
0.936248 0.256352 0.206577
1.000000 0.242710 0.152316
0.000000 0.530480 0.441108
0.000000 0.530449 0.434058
0.000000 0.520684 0.396796
0.162173 0.475715 0.265354
0.425208 0.404273 0.230686
0.626856 0.504082 0.439094
0.853574 0.549248 0.454108
1.000000 0.555871 0.450019
0.000000 0.728756 0.483528
0.000000 0.725948 0.470558
0.000000 0.722774 0.423102
0.000000 0.702083 0.285100
0.484077 0.662959 0.235630
0.650263 0.592706 0.198093
0.804166 0.645777 0.490852
0.935882 0.741695 0.656825
0.000000 0.890532 0.482338
0.000000 0.891234 0.475257
0.000000 0.889311 0.419654
0.000000 0.879820 0.289952
0.459663 0.854246 0.255924
0.694148 0.812070 0.210239
0.845548 0.755215 0.176669
0.957000 0.782986 0.560937
0.000000 1.000000 0.428717
0.000000 1.000000 0.421851
0.000000 1.000000 0.385870
0.000000 1.000000 0.235874
0.378790 0.983795 0.234073
0.655756 0.963378 0.183352
0.857664 0.934356 0.145907
1.000000 0.894469 0.212009
0.000000 0.019257 0.643641
0.000000 0.019471 0.641627
0.000000 0.000000 0.610040
0.299962 0.000000 0.528008
0.494118 0.000000 0.516320
0.749874 0.000000 0.551904
0.938079 0.000000 0.499275
1.000000 0.000000 0.403998
0.000000 0.143771 0.647456
0.000000 0.161227 0.645960
0.000000 0.000000 0.610437
0.292241 0.000000 0.531762
0.491493 0.000000 0.514366
0.748379 0.000000 0.545739
0.938109 0.000000 0.490028
1.000000 0.000000 0.393683
0.000000 0.321691 0.661036
0.000000 0.310002 0.657527
0.000000 0.203006 0.626856
0.255436 0.090944 0.547295
0.482063 0.000000 0.506859
0.745754 0.000000 0.522515
0.939818 0.000000 0.456001
1.000000 0.000000 0.363134
0.000000 0.460212 0.651057
0.000000 0.455146 0.648127
0.000000 0.413275 0.632471
0.000000 0.280156 0.575769
0.456001 0.183047 0.485420
0.733150 0.000000 0.470588
0.937194 0.000000 0.394385
1.000000 0.000000 0.322484
0.000000 0.591821 0.635065
0.000000 0.589746 0.631617
0.000000 0.573053 0.614282
0.000000 0.528862 0.567773
0.395087 0.415991 0.440955
0.700587 0.455512 0.470710
0.913603 0.466804 0.471962
1.000000 0.442298 0.434791
0.000000 0.743893 0.639551
0.000000 0.744991 0.636805
0.000000 0.744930 0.619074
0.000000 0.734310 0.570489
0.421149 0.681758 0.504051
0.635706 0.603693 0.436194
0.798337 0.688411 0.640528
0.971618 0.724514 0.658076
0.000000 0.900542 0.637598
0.000000 0.902342 0.636072
0.000000 0.904326 0.612482
0.000000 0.901579 0.552667
0.405463 0.871336 0.530694
0.678279 0.830747 0.499306
0.834623 0.764096 0.436500
0.950622 0.804685 0.672358
0.000000 1.000000 0.588098
0.000000 1.000000 0.584619
0.000000 1.000000 0.567620
0.000000 1.000000 0.499397
0.294316 0.991241 0.495735
0.641962 0.967102 0.508995
0.840879 0.939971 0.466194
0.992920 0.900267 0.452338
0.000000 0.000000 0.803616
0.000000 0.000000 0.803220
0.000000 0.000000 0.792691
0.242985 0.000000 0.755703
0.466804 0.000000 0.691463
0.700496 0.000000 0.698878
0.913207 0.000000 0.695338
1.000000 0.000000 0.625574
0.000000 0.107088 0.809598
0.000000 0.135561 0.810269
0.000000 0.000000 0.798001
0.219455 0.000000 0.760922
0.464363 0.000000 0.695674
0.700923 0.000000 0.699336
0.914061 0.000000 0.693629
1.000000 0.000000 0.622766
0.000000 0.320592 0.820737
0.000000 0.326421 0.821500
0.000000 0.233982 0.807065
0.000183 0.095979 0.769558
0.446662 0.000000 0.704067
0.696132 0.000000 0.695949
0.914244 0.000000 0.685573
1.000000 0.000000 0.615290
0.000000 0.473426 0.820706
0.000000 0.478065 0.820401
0.000000 0.433967 0.817197
0.000000 0.317052 0.788266
0.398260 0.199771 0.717891
0.681483 0.000000 0.685695
0.906584 0.128206 0.673091
1.000000 0.000000 0.609888
0.000000 0.620142 0.812802
0.000000 0.622766 0.812009
0.000000 0.604059 0.807614
0.000000 0.560449 0.795743
0.417945 0.519097 0.748318
0.657221 0.419745 0.671962
0.898253 0.427253 0.658167
1.000000 0.407019 0.605158
0.000000 0.762020 0.800504
0.000000 0.763302 0.799100
0.000000 0.759823 0.793973
0.000000 0.747311 0.780331
0.351385 0.719051 0.745449
0.600244 0.612390 0.634089
0.872343 0.647822 0.660578
1.000000 0.643793 0.650385
0.000000 0.907317 0.790433
0.000000 0.908476 0.789059
0.000000 0.912871 0.782681
0.000000 0.914885 0.759762
0.228611 0.898650 0.731014
0.639094 0.849851 0.690547
0.813565 0.772946 0.628138
0.938140 0.840391 0.792721
0.000000 1.000000 0.738430
0.000000 1.000000 0.736385
0.000000 1.000000 0.727138
0.000000 1.000000 0.697658
0.000000 1.000000 0.647364
0.622461 0.973358 0.695216
0.825803 0.946746 0.671229
0.977081 0.907408 0.628199
0.000000 0.000000 0.931731
0.000000 0.000000 0.931518
0.000000 0.000000 0.929625
0.000000 0.000000 0.914092
0.424964 0.000000 0.886442
0.640650 0.000000 0.843565
0.884581 0.000000 0.852293
1.000000 0.000000 0.798703
0.000000 0.000000 0.932341
0.000000 0.000000 0.932158
0.000000 0.000000 0.931029
0.000000 0.000000 0.916472
0.415167 0.000000 0.888914
0.637385 0.000000 0.844511
0.885252 0.000000 0.852964
1.000000 0.000000 0.798459
0.000000 0.259800 0.936034
0.000000 0.268162 0.936156
0.000000 0.249851 0.934905
0.000000 0.105959 0.922301
0.374853 0.000000 0.895262
0.621515 0.000000 0.844694
0.883421 0.000000 0.851987
1.000000 0.000000 0.798032
0.000000 0.422919 0.941558
0.000000 0.427588 0.941588
0.000000 0.421210 0.941100
0.000000 0.321935 0.932219
0.301427 0.259190 0.906065
0.599847 0.000000 0.854612
0.876799 0.000000 0.848783
1.000000 0.271214 0.801846
0.000000 0.578180 0.935943
0.000000 0.581201 0.935760
0.000000 0.583825 0.935424
0.000000 0.532555 0.936797
0.365484 0.553277 0.919707
0.611322 0.464729 0.869993
0.864012 0.419623 0.843198
1.000000 0.483009 0.801205
0.000000 0.727718 0.927794
0.000000 0.729824 0.927550
0.000000 0.735073 0.926879
0.000000 0.716060 0.926909
0.225254 0.716823 0.921630
0.663203 0.720485 0.895933
0.841001 0.622126 0.830472
0.996796 0.642725 0.796414
0.000000 0.874357 0.917082
0.000000 0.876188 0.916777
0.000000 0.882109 0.915923
0.000000 0.884886 0.914336
0.000000 0.884977 0.908782
0.611658 0.878080 0.891417
0.786038 0.783566 0.793271
0.976165 0.816403 0.818173
0.000000 1.000000 0.894926
0.000000 1.000000 0.893278
0.000000 1.000000 0.886931
0.000000 1.000000 0.873808
0.000000 1.000000 0.844419
0.498634 0.987457 0.834318
0.835752 0.951202 0.848478
0.956054 0.916930 0.791196
0.000000 0.000000 0.988617
0.000000 0.000000 0.988586
0.000000 0.000000 0.988586
0.000000 0.000000 0.986358
0.265171 0.000000 0.981323
0.555840 0.000000 0.972869
0.782589 0.000000 0.962585
1.000000 0.000000 0.957519
0.000000 0.000000 0.988769
0.000000 0.000000 0.988739
0.000000 0.000000 0.988739
0.000000 0.000000 0.986603
0.243473 0.000000 0.981811
0.549584 0.000000 0.973388
0.780117 0.000000 0.962890
1.000000 0.000000 0.957702
0.000000 0.089601 0.989227
0.000000 0.108217 0.989166
0.000000 0.156008 0.989044
0.000000 0.059968 0.987793
0.142885 0.000000 0.983032
0.526268 0.000000 0.974792
0.769711 0.000000 0.963409
1.000000 0.000000 0.957488
0.000000 0.291783 0.988800
0.000000 0.296605 0.988739
0.000000 0.312871 0.988586
0.000000 0.282200 0.988434
0.000000 0.220920 0.984405
0.485786 0.101686 0.976501
0.750393 0.000000 0.963439
0.996460 0.000000 0.955688
0.000000 0.457527 0.987213
0.000000 0.457496 0.987213
0.000000 0.455818 0.987304
0.000000 0.445960 0.987671
0.000000 0.451575 0.983490
0.528069 0.489937 0.973236
0.742763 0.370031 0.961578
0.986419 0.411078 0.952087
0.000000 0.614130 0.981720
0.000000 0.614435 0.981720
0.000000 0.614527 0.981781
0.000000 0.611566 0.981994
0.000000 0.568322 0.983642
0.603876 0.702571 0.968963
0.764889 0.649195 0.958312
0.973510 0.625025 0.947234
0.000000 0.762203 0.974609
0.000000 0.762844 0.974578
0.000000 0.764614 0.974517
0.000000 0.767117 0.974456
0.000000 0.757382 0.974945
0.456367 0.792569 0.967834
0.856870 0.872496 0.953948
0.956085 0.811063 0.940551
0.000000 0.908415 0.965728
0.000000 0.909483 0.965667
0.000000 0.913573 0.965393
0.000000 0.921111 0.964813
0.000000 0.931975 0.963928
0.000000 0.937133 0.959930
0.809628 0.943572 0.950683
0.933196 0.926421 0.926726
