其他预设/【233】日式怀旧街道调色预设208款/1.3D LUT预设（视频调色-PR-AE-PS-FCPX-达芬奇用）/2.富士胶片风-日式城市街拍预设/JA – Subdued 3 (Classic Chrome).cube
# Created by Adobe Lightroom plugin Export LUT (1.17.0)
# www.johnrellis.com/lightroom/exportlut.htm
# Preset: JA – Subdued 3 (Classic Chrome)
# Color profile: /Library/Application Support/Adobe/Color/Profiles/Recommended/AdobeRGB1998.icc
LUT_3D_SIZE 32
0.088197 0.088136 0.087861
0.088502 0.088075 0.088136
0.103578 0.085298 0.087922
0.135805 0.076722 0.088777
0.162203 0.067140 0.086336
0.183536 0.064302 0.085237
0.202213 0.061189 0.084108
0.220523 0.058137 0.082795
0.240146 0.051759 0.081239
0.262455 0.042786 0.079164
0.288945 0.025513 0.076448
0.319341 0.008057 0.072602
0.353185 0.000000 0.067384
0.390082 0.000000 0.060060
0.429694 0.000000 0.042969
0.471717 0.000000 0.015778
0.515648 0.000000 0.000000
0.561273 0.000000 0.000000
0.605646 0.000000 0.000000
0.649256 0.000000 0.000000
0.691829 0.000000 0.000000
0.737575 0.000000 0.000000
0.782284 0.000000 0.000000
0.825254 0.000000 0.000000
0.866026 0.000000 0.000000
0.903960 0.000000 0.000000
0.939086 0.000000 0.000000
0.971710 0.000000 0.000000
1.000000 0.000000 0.000000
1.000000 0.000000 0.000000
1.000000 0.000000 0.000000
1.000000 0.000000 0.000000
0.087892 0.089998 0.087984
0.089082 0.091310 0.087861
0.105318 0.090181 0.087160
0.136202 0.087709 0.086183
0.161990 0.083589 0.085237
0.183169 0.079042 0.084291
0.201968 0.074830 0.083253
0.220340 0.071321 0.082002
0.239902 0.067140 0.080537
0.262394 0.062104 0.078462
0.288701 0.053437 0.075746
0.318944 0.038575 0.071839
0.352636 0.018891 0.066529
0.389624 0.000000 0.059022
0.429053 0.000000 0.040497
0.470954 0.000000 0.013153
0.514885 0.000000 0.000000
0.560388 0.000000 0.000000
0.604761 0.000000 0.000000
0.648310 0.000000 0.000000
0.691157 0.000000 0.000000
0.736507 0.000000 0.000000
0.781033 0.000000 0.000000
0.823972 0.000000 0.000000
0.864714 0.000000 0.000000
0.902739 0.000000 0.000000
0.938048 0.000000 0.000000
0.970764 0.000000 0.000000
1.000000 0.000000 0.000000
1.000000 0.000000 0.000000
1.000000 0.000000 0.000000
1.000000 0.000000 0.000000
0.086122 0.106935 0.087007
0.090425 0.108064 0.086763
0.106844 0.108797 0.085328
0.136110 0.106874 0.084382
0.161776 0.100862 0.083650
0.182986 0.094759 0.082918
0.201785 0.089631 0.082063
0.220066 0.084688 0.080995
0.239750 0.080934 0.079500
0.262089 0.076356 0.077516
0.288426 0.071321 0.074678
0.318700 0.065705 0.070741
0.352483 0.058808 0.065278
0.389349 0.045686 0.056703
0.428779 0.025666 0.036744
0.470741 0.000000 0.009308
0.514488 0.000000 0.000000
0.559899 0.000000 0.000000
0.604425 0.000000 0.000000
0.647883 0.000000 0.000000
0.691096 0.000000 0.000000
0.736080 0.000000 0.000000
0.780514 0.000000 0.000000
0.823331 0.000000 0.000000
0.864134 0.000000 0.000000
0.902129 0.000000 0.000000
0.937469 0.000000 0.000000
0.970245 0.000000 0.000000
1.000000 0.000000 0.000000
1.000000 0.000000 0.000000
1.000000 0.000000 0.000000
1.000000 0.000000 0.000000
0.082094 0.137240 0.085389
0.092744 0.137331 0.084504
0.107210 0.136782 0.083803
0.135653 0.136202 0.080568
0.161257 0.128756 0.080293
0.182376 0.121004 0.079988
0.201205 0.113893 0.079469
0.219669 0.108034 0.078614
0.239506 0.103487 0.077272
0.261967 0.099275 0.075319
0.288426 0.095888 0.072328
0.318761 0.092592 0.068116
0.352483 0.089693 0.062165
0.389258 0.086488 0.050507
0.428687 0.081971 0.028229
0.470466 0.076417 0.000275
0.514275 0.067872 0.000000
0.559625 0.055451 0.000000
0.603876 0.026764 0.000000
0.647272 0.000000 0.000000
0.690852 0.000000 0.000000
0.735500 0.000000 0.000000
0.779629 0.000000 0.000000
0.822568 0.000000 0.000000
0.863493 0.000000 0.000000
0.901793 0.000000 0.000000
0.937255 0.000000 0.000000
0.970123 0.000000 0.000000
1.000000 0.000000 0.000000
1.000000 0.000000 0.000000
1.000000 0.000000 0.000000
1.000000 0.000000 0.000000
0.085817 0.161532 0.084657
0.095583 0.161196 0.082918
0.107698 0.160800 0.082277
0.129244 0.160311 0.079255
0.158938 0.158907 0.075257
0.181643 0.149660 0.075471
0.200565 0.141482 0.075441
0.219120 0.135012 0.074861
0.239139 0.129580 0.073701
0.261753 0.126162 0.071656
0.288304 0.123598 0.068482
0.318700 0.122011 0.063844
0.352392 0.120821 0.056214
0.389227 0.119875 0.039124
0.428626 0.118379 0.014984
0.470466 0.116609 0.000000
0.514336 0.113710 0.000000
0.559655 0.110292 0.000000
0.603937 0.104219 0.000000
0.647364 0.096315 0.000000
0.691371 0.085328 0.000000
0.735683 0.067628 0.000000
0.779477 0.013581 0.000000
0.822232 0.000000 0.000000
0.863127 0.000000 0.000000
0.901396 0.000000 0.000000
0.936858 0.000000 0.000000
0.969726 0.000000 0.000000
1.000000 0.000000 0.000000
1.000000 0.000000 0.000000
1.000000 0.000000 0.000000
1.000000 0.000000 0.000000
0.092073 0.181552 0.089967
0.099397 0.181369 0.089509
0.108553 0.181003 0.087892
0.126040 0.180362 0.084749
0.150668 0.179873 0.077028
0.178927 0.177829 0.069551
0.200076 0.169162 0.069825
0.218906 0.161868 0.069673
0.238987 0.156924 0.068544
0.261936 0.153628 0.066377
0.288701 0.152041 0.062745
0.319219 0.151522 0.056458
0.352880 0.151888 0.042664
0.389715 0.152102 0.021881
0.429175 0.152529 0.000000
0.471015 0.152956 0.000000
0.514946 0.152712 0.000000
0.560143 0.151980 0.000000
0.604425 0.149538 0.000000
0.648066 0.145785 0.000000
0.692561 0.140414 0.000000
0.736629 0.132357 0.000000
0.788937 0.122103 0.000000
0.831388 0.106264 0.000000
0.871519 0.082460 0.000000
0.908782 0.017792 0.000000
0.943236 0.000000 0.000000
0.975097 0.000000 0.000000
1.000000 0.000000 0.000000
1.000000 0.000000 0.000000
1.000000 0.000000 0.000000
1.000000 0.000000 0.000000
0.100435 0.200229 0.098207
0.106020 0.200046 0.097597
0.113252 0.199832 0.096162
0.127626 0.199374 0.094453
0.146944 0.198642 0.090578
0.171298 0.198611 0.079164
0.197971 0.196719 0.072175
0.219089 0.189090 0.068879
0.239780 0.183719 0.066865
0.263340 0.181125 0.063691
0.290623 0.180911 0.057710
0.321324 0.181552 0.046082
0.355383 0.183017 0.025727
0.392462 0.184787 0.001282
0.431861 0.186648 0.000000
0.473671 0.188357 0.000000
0.517418 0.189975 0.000000
0.562585 0.190524 0.000000
0.606653 0.190341 0.000000
0.651942 0.188998 0.000000
0.696590 0.186099 0.000000
0.741329 0.181369 0.000000
0.785733 0.175204 0.000000
0.828946 0.166079 0.000000
0.869871 0.154116 0.000000
0.907591 0.137697 0.000000
0.942260 0.115999 0.000000
0.974212 0.082673 0.000000
1.000000 0.000000 0.000000
1.000000 0.000000 0.000000
1.000000 0.000000 0.000000
1.000000 0.000000 0.000000
0.109071 0.218906 0.106661
0.113588 0.218875 0.106325
0.119692 0.218723 0.105470
0.131807 0.218357 0.103792
0.148440 0.217899 0.101595
0.168399 0.217685 0.096284
0.192386 0.218082 0.084932
0.217868 0.216312 0.079347
0.239597 0.210330 0.075288
0.263554 0.207706 0.071168
0.291203 0.207889 0.066102
0.322210 0.209751 0.058015
0.356390 0.212650 0.038666
0.393286 0.215305 0.010986
0.432807 0.218051 0.000000
0.474647 0.220859 0.000000
0.518273 0.223728 0.000000
0.563317 0.226017 0.000000
0.608301 0.227665 0.000000
0.653315 0.228611 0.000000
0.697230 0.227634 0.000000
0.741482 0.224765 0.000000
0.785489 0.220737 0.000000
0.828428 0.214786 0.000000
0.869078 0.206424 0.000000
0.906706 0.195590 0.000000
0.941344 0.181582 0.000000
0.973358 0.163668 0.000000
1.000000 0.141085 0.000000
1.000000 0.105776 0.000000
1.000000 0.003754 0.000000
1.000000 0.000000 0.000000
0.116030 0.240482 0.113069
0.120058 0.240391 0.112551
0.125399 0.240452 0.112398
0.136446 0.240146 0.111025
0.151705 0.239933 0.109224
0.169894 0.239567 0.106783
0.191379 0.240085 0.100923
0.216373 0.240940 0.091157
0.241428 0.239475 0.085847
0.263981 0.235050 0.080964
0.292119 0.235477 0.075166
0.323461 0.237827 0.067384
0.357824 0.241459 0.054841
0.394873 0.245823 0.026337
0.434302 0.250248 0.000000
0.476020 0.253941 0.000000
0.519799 0.257725 0.000000
0.565728 0.261326 0.000000
0.610864 0.263951 0.000000
0.655116 0.265293 0.000000
0.698451 0.265782 0.000000
0.742092 0.265568 0.000000
0.785763 0.263371 0.000000
0.828336 0.259342 0.000000
0.868803 0.253025 0.000000
0.906279 0.244419 0.000000
0.940826 0.233585 0.000000
0.972747 0.220310 0.000000
1.000000 0.204227 0.000000
1.000000 0.184390 0.000000
1.000000 0.156039 0.000000
1.000000 0.115297 0.000000
0.121675 0.266239 0.118166
0.125429 0.266239 0.117861
0.130404 0.266148 0.117311
0.140932 0.266117 0.115999
0.155886 0.266117 0.114626
0.173648 0.265965 0.112490
0.193759 0.265843 0.109407
0.217594 0.267277 0.101961
0.243778 0.268589 0.092927
0.269841 0.267460 0.087556
0.293187 0.263371 0.082765
0.324743 0.266026 0.075013
0.359350 0.270390 0.064942
0.396429 0.275517 0.044373
0.436011 0.280980 0.004517
0.477943 0.286717 0.000000
0.523186 0.292668 0.000000
0.569329 0.297307 0.000000
0.613794 0.300328 0.000000
0.657313 0.302190 0.000000
0.700069 0.303014 0.000000
0.743160 0.303471 0.000000
0.786069 0.303075 0.000000
0.828031 0.300999 0.000000
0.868101 0.296086 0.000000
0.905364 0.289311 0.000000
0.939940 0.280217 0.000000
0.971923 0.269291 0.000000
1.000000 0.256046 0.000000
1.000000 0.240696 0.000000
1.000000 0.220798 0.000000
1.000000 0.194980 0.000000
0.125734 0.296208 0.121614
0.129793 0.296269 0.121096
0.135012 0.296208 0.120546
0.145357 0.296391 0.119600
0.160189 0.296391 0.118288
0.178103 0.296544 0.116335
0.198764 0.296605 0.113680
0.221347 0.297337 0.108797
0.247623 0.299351 0.099947
0.275395 0.300633 0.090639
0.302831 0.299809 0.083619
0.326635 0.295354 0.078401
0.361273 0.299535 0.067536
0.398688 0.305333 0.048035
0.439124 0.312139 0.006104
0.482094 0.319341 0.000000
0.526909 0.326452 0.000000
0.572107 0.332708 0.000000
0.615900 0.336461 0.000000
0.658930 0.338811 0.000000
0.701198 0.340032 0.000000
0.743984 0.340826 0.000000
0.786801 0.341192 0.000000
0.828397 0.340551 0.000000
0.868070 0.337682 0.000000
0.905180 0.331823 0.000000
0.939513 0.323949 0.000000
0.971374 0.314427 0.000000
1.000000 0.302861 0.000000
1.000000 0.289494 0.000000
1.000000 0.273930 0.000000
1.000000 0.253422 0.000000
0.128756 0.330388 0.122835
0.132631 0.330510 0.122683
0.138247 0.330358 0.122560
0.148806 0.330419 0.121431
0.164401 0.330602 0.119661
0.183169 0.330877 0.118013
0.204196 0.331151 0.115328
0.226963 0.331426 0.112062
0.252903 0.333104 0.104952
0.281651 0.335454 0.094087
0.311162 0.336675 0.083253
0.339940 0.336126 0.074556
0.370703 0.336645 0.064454
0.407691 0.341039 0.036347
0.449042 0.348699 0.000000
0.492409 0.356573 0.000000
0.537469 0.364263 0.000000
0.581964 0.370520 0.000000
0.624811 0.375036 0.000000
0.666896 0.378607 0.000000
0.708705 0.380011 0.000000
0.750881 0.381231 0.000000
0.792721 0.381537 0.000000
0.833494 0.380804 0.000000
0.872251 0.379065 0.000000
0.908476 0.374273 0.000000
0.942138 0.367132 0.000000
0.973419 0.358099 0.000000
1.000000 0.347570 0.000000
1.000000 0.335271 0.000000
1.000000 0.321538 0.000000
1.000000 0.304234 0.000000
0.130037 0.369451 0.122408
0.134249 0.369543 0.122255
0.140047 0.369512 0.121706
0.151675 0.369512 0.120943
0.168154 0.369512 0.119173
0.187839 0.369543 0.117128
0.209781 0.369787 0.114534
0.233616 0.370092 0.111116
0.259068 0.370581 0.106996
0.288548 0.373480 0.096681
0.320745 0.377386 0.081727
0.353216 0.379614 0.067659
0.385229 0.380194 0.049775
0.416754 0.379858 0.015747
0.452399 0.381567 0.000000
0.495827 0.390021 0.000000
0.540581 0.398169 0.000000
0.584283 0.404517 0.000000
0.626551 0.409155 0.000000
0.668147 0.412634 0.000000
0.709407 0.415686 0.000000
0.751217 0.418067 0.000000
0.792721 0.418982 0.000000
0.833158 0.418738 0.000000
0.871733 0.416968 0.000000
0.907683 0.414069 0.000000
0.941283 0.407538 0.000000
0.972442 0.399329 0.000000
1.000000 0.389380 0.000000
1.000000 0.378119 0.000000
1.000000 0.365179 0.000000
1.000000 0.350439 0.000000
0.129091 0.409918 0.119631
0.134463 0.409979 0.119081
0.140230 0.409918 0.118715
0.152773 0.409918 0.117891
0.170169 0.409888 0.116426
0.191348 0.410101 0.113954
0.214817 0.410895 0.111147
0.240208 0.411749 0.107240
0.267033 0.412818 0.102693
0.296117 0.414801 0.095155
0.328710 0.418494 0.081147
0.363317 0.422522 0.058045
0.397192 0.424079 0.015198
0.430549 0.424475 0.000000
0.463996 0.424384 0.000000
0.498909 0.423926 0.000000
0.543206 0.432288 0.000000
0.586450 0.438758 0.000000
0.628260 0.443427 0.000000
0.669276 0.446937 0.000000
0.710353 0.450141 0.000000
0.751888 0.453193 0.000000
0.793027 0.455604 0.000000
0.833219 0.456428 0.000000
0.871489 0.455085 0.000000
0.907347 0.452003 0.000000
0.940703 0.447242 0.000000
0.971801 0.439551 0.000000
1.000000 0.430121 0.000000
1.000000 0.419379 0.000000
1.000000 0.407202 0.000000
1.000000 0.393622 0.000000
0.126375 0.455146 0.113436
0.131868 0.455177 0.113283
0.138796 0.455207 0.112398
0.152285 0.455329 0.111421
0.171695 0.455482 0.109926
0.194400 0.455787 0.107118
0.219486 0.456031 0.104158
0.246281 0.456641 0.099855
0.274540 0.457588 0.094667
0.304051 0.458747 0.087648
0.336492 0.461524 0.074220
0.371466 0.465370 0.042054
0.408057 0.469398 0.000000
0.443214 0.470436 0.000000
0.477882 0.470344 0.000000
0.512230 0.469795 0.000000
0.545983 0.467414 0.000000
0.588617 0.473457 0.000000
0.629999 0.478218 0.000000
0.670619 0.481727 0.000000
0.711452 0.484993 0.000000
0.752743 0.488106 0.000000
0.793576 0.490700 0.000000
0.833433 0.492317 0.000000
0.871336 0.492561 0.000000
0.907012 0.489937 0.000000
0.940368 0.485786 0.000000
0.971496 0.479103 0.000000
1.000000 0.470161 0.000000
1.000000 0.459815 0.000000
1.000000 0.448005 0.000000
1.000000 0.434882 0.000000
0.121401 0.502861 0.103212
0.127596 0.502861 0.102998
0.134829 0.503044 0.102419
0.150484 0.503105 0.101045
0.171786 0.503136 0.098817
0.196445 0.503410 0.096040
0.223148 0.503807 0.092409
0.251499 0.504417 0.087404
0.281376 0.505119 0.080507
0.312169 0.506096 0.072267
0.343877 0.507073 0.060517
0.379431 0.510369 0.004852
0.416175 0.513664 0.000000
0.453925 0.516991 0.000000
0.489387 0.516472 0.000000
0.524468 0.515618 0.000000
0.559258 0.514458 0.000000
0.590478 0.509239 0.000000
0.631830 0.513359 0.000000
0.672328 0.517021 0.000000
0.713161 0.520439 0.000000
0.754330 0.523705 0.000000
0.795041 0.526482 0.000000
0.834592 0.528099 0.000000
0.872221 0.528374 0.000000
0.907561 0.527031 0.000000
0.940612 0.523919 0.000000
0.971557 0.518242 0.000000
1.000000 0.509575 0.000000
1.000000 0.499367 0.000000
1.000000 0.487770 0.000000
1.000000 0.474952 0.000000
0.114626 0.549859 0.089235
0.121553 0.549889 0.088411
0.129915 0.549889 0.088045
0.147158 0.549828 0.086732
0.170169 0.549950 0.084230
0.196719 0.549920 0.080293
0.225101 0.550134 0.075685
0.254978 0.550469 0.068818
0.286168 0.550866 0.059663
0.317845 0.551385 0.037903
0.350500 0.552117 0.006775
0.384405 0.553338 0.000000
0.421302 0.556146 0.000000
0.458930 0.558770 0.000000
0.497169 0.560906 0.000000
0.532830 0.559686 0.000000
0.568200 0.558312 0.000000
0.603479 0.556847 0.000000
0.633326 0.549920 0.000000
0.673732 0.552453 0.000000
0.714412 0.555962 0.000000
0.755276 0.559228 0.000000
0.795773 0.561913 0.000000
0.835080 0.563684 0.000000
0.872435 0.563897 0.000000
0.907500 0.562524 0.000000
0.940398 0.559625 0.000000
0.971160 0.555291 0.000000
0.999786 0.548211 0.000000
1.000000 0.538231 0.000000
1.000000 0.526787 0.000000
1.000000 0.514061 0.000000
0.105867 0.594507 0.071015
0.114595 0.594629 0.069734
0.123384 0.599786 0.067048
0.142855 0.599664 0.064454
0.168307 0.599573 0.060822
0.196567 0.599359 0.052461
0.226871 0.599176 0.038575
0.258213 0.598993 0.017792
0.290501 0.599054 0.000000
0.323552 0.599145 0.000000
0.357031 0.599298 0.000000
0.390753 0.599573 0.000000
0.426825 0.600763 0.000000
0.464668 0.602655 0.000000
0.502922 0.604486 0.000000
0.541131 0.605432 0.000000
0.577203 0.603754 0.000000
0.612909 0.601953 0.000000
0.648524 0.600122 0.000000
0.677638 0.592035 0.000000
0.718135 0.593927 0.000000
0.758663 0.597040 0.000000
0.798642 0.599451 0.000000
0.837369 0.600732 0.000000
0.874022 0.600397 0.000000
0.908446 0.598657 0.000000
0.940673 0.595483 0.000000
0.971038 0.590875 0.000000
0.999359 0.584741 0.000000
1.000000 0.576349 0.000000
1.000000 0.565148 0.000000
1.000000 0.552483 0.000000
0.097047 0.638331 0.028870
0.106477 0.638941 0.025635
0.117433 0.639643 0.021851
0.138338 0.640131 0.015900
0.164950 0.640467 0.006439
0.194736 0.640497 0.000000
0.225925 0.640406 0.000000
0.258274 0.640253 0.000000
0.291386 0.640253 0.000000
0.324895 0.640162 0.000000
0.359106 0.640223 0.000000
0.393378 0.640253 0.000000
0.427985 0.640284 0.000000
0.465705 0.641871 0.000000
0.503990 0.643366 0.000000
0.542657 0.644862 0.000000
0.580896 0.645228 0.000000
0.617426 0.643580 0.000000
0.653834 0.641901 0.000000
0.689967 0.640284 0.000000
0.719020 0.631952 0.000000
0.759640 0.633234 0.000000
0.799466 0.635706 0.000000
0.837980 0.636896 0.000000
0.874327 0.636408 0.000000
0.908537 0.634424 0.000000
0.940642 0.631006 0.000000
0.970733 0.626337 0.000000
0.998962 0.620203 0.000000
1.000000 0.611933 0.000000
1.000000 0.602075 0.000000
1.000000 0.590387 0.000000
0.087648 0.679469 0.000000
0.097047 0.680079 0.000000
0.110628 0.680659 0.000000
0.132326 0.681178 0.000000
0.160769 0.681483 0.000000
0.192294 0.681544 0.000000
0.224704 0.681422 0.000000
0.257908 0.681331 0.000000
0.291539 0.681300 0.000000
0.325963 0.681239 0.000000
0.360601 0.681300 0.000000
0.395544 0.681331 0.000000
0.430488 0.681361 0.000000
0.466560 0.681697 0.000000
0.505089 0.683070 0.000000
0.543908 0.684413 0.000000
0.582971 0.685725 0.000000
0.621210 0.685634 0.000000
0.658228 0.684047 0.000000
0.695125 0.682521 0.000000
0.731716 0.681056 0.000000
0.760555 0.672328 0.000000
0.800534 0.672389 0.000000
0.838621 0.673487 0.000000
0.874784 0.672663 0.000000
0.908690 0.670405 0.000000
0.940490 0.666651 0.000000
0.970367 0.661738 0.000000
0.998383 0.655390 0.000000
1.000000 0.647395 0.000000
1.000000 0.637324 0.000000
1.000000 0.626093 0.000000
0.075349 0.720912 0.000000
0.088014 0.721462 0.000000
0.102358 0.721981 0.000000
0.126284 0.722530 0.000000
0.157351 0.722805 0.000000
0.189548 0.722835 0.000000
0.222904 0.722744 0.000000
0.256901 0.722591 0.000000
0.291539 0.722469 0.000000
0.326482 0.722347 0.000000
0.361669 0.722408 0.000000
0.397009 0.722377 0.000000
0.432471 0.722316 0.000000
0.468086 0.722133 0.000000
0.505577 0.722866 0.000000
0.544457 0.724147 0.000000
0.583825 0.725399 0.000000
0.623438 0.726772 0.000000
0.662104 0.726558 0.000000
0.699733 0.725307 0.000000
0.737179 0.724147 0.000000
0.774441 0.723018 0.000000
0.803220 0.713893 0.000000
0.841489 0.712215 0.000000
0.877287 0.710903 0.000000
0.910826 0.708186 0.000000
0.942290 0.703944 0.000000
0.971771 0.698512 0.000000
0.999359 0.691798 0.000000
1.000000 0.683650 0.000000
1.000000 0.673274 0.000000
1.000000 0.661646 0.000000
0.060426 0.764157 0.000000
0.076722 0.764401 0.000000
0.093080 0.764614 0.000000
0.120577 0.764675 0.000000
0.152651 0.764767 0.000000
0.186923 0.764645 0.000000
0.221164 0.764492 0.000000
0.256291 0.764340 0.000000
0.291447 0.764279 0.000000
0.327123 0.764279 0.000000
0.362707 0.764309 0.000000
0.398688 0.764248 0.000000
0.434607 0.764126 0.000000
0.470558 0.763821 0.000000
0.506432 0.763546 0.000000
0.545251 0.764462 0.000000
0.584314 0.765377 0.000000
0.623804 0.766323 0.000000
0.663416 0.767300 0.000000
0.701778 0.766415 0.000000
0.739376 0.764950 0.000000
0.776730 0.763455 0.000000
0.813748 0.761929 0.000000
0.842588 0.752895 0.000000
0.877501 0.748318 0.000000
0.910826 0.744533 0.000000
0.942077 0.740017 0.000000
0.971374 0.734188 0.000000
0.998718 0.727077 0.000000
1.000000 0.718593 0.000000
1.000000 0.708278 0.000000
1.000000 0.696468 0.000000
0.043244 0.803677 0.000000
0.066865 0.803922 0.000000
0.086152 0.804166 0.000000
0.115938 0.804196 0.000000
0.150057 0.804196 0.000000
0.184482 0.804013 0.000000
0.219730 0.803861 0.000000
0.254948 0.803616 0.000000
0.290776 0.803403 0.000000
0.326574 0.803281 0.000000
0.362554 0.803159 0.000000
0.398566 0.802976 0.000000
0.434577 0.802731 0.000000
0.470710 0.802426 0.000000
0.506798 0.802029 0.000000
0.543603 0.801938 0.000000
0.582666 0.802548 0.000000
0.621668 0.803250 0.000000
0.661036 0.803861 0.000000
0.700435 0.804440 0.000000
0.738491 0.803189 0.000000
0.776059 0.801602 0.000000
0.813321 0.799985 0.000000
0.850126 0.798337 0.000000
0.879637 0.790036 0.000000
0.910185 0.781704 0.000000
0.941375 0.775723 0.000000
0.970459 0.769558 0.000000
0.997650 0.762142 0.000000
1.000000 0.753353 0.000000
1.000000 0.742947 0.000000
1.000000 0.730922 0.000000
0.032258 0.842588 0.000000
0.064363 0.842832 0.000000
0.084169 0.842924 0.000000
0.115023 0.842893 0.000000
0.149020 0.842710 0.000000
0.183627 0.842496 0.000000
0.218814 0.842100 0.000000
0.254459 0.841703 0.000000
0.290349 0.841215 0.000000
0.326177 0.840818 0.000000
0.362005 0.840330 0.000000
0.397833 0.839902 0.000000
0.433783 0.839384 0.000000
0.469856 0.838804 0.000000
0.505730 0.838071 0.000000
0.541527 0.837339 0.000000
0.579034 0.837095 0.000000
0.617609 0.837278 0.000000
0.656428 0.837552 0.000000
0.695369 0.837827 0.000000
0.734310 0.838071 0.000000
0.771939 0.836454 0.000000
0.809140 0.834684 0.000000
0.845823 0.832822 0.000000
0.882078 0.830747 0.000000
0.914122 0.825071 0.000000
0.941009 0.813504 0.000000
0.969940 0.805386 0.000000
0.996857 0.797482 0.000000
1.000000 0.788296 0.000000
1.000000 0.777676 0.000000
1.000000 0.765408 0.000000
0.047211 0.876707 0.000000
0.069825 0.876890 0.000000
0.087922 0.876982 0.000000
0.117128 0.876951 0.000000
0.149844 0.876799 0.000000
0.184665 0.876524 0.000000
0.219455 0.876188 0.000000
0.254612 0.875792 0.000000
0.289891 0.875364 0.000000
0.325536 0.874968 0.000000
0.361028 0.874540 0.000000
0.396857 0.874083 0.000000
0.432532 0.873594 0.000000
0.468238 0.872953 0.000000
0.503929 0.872251 0.000000
0.539574 0.871458 0.000000
0.575219 0.870603 0.000000
0.613153 0.870481 0.000000
0.651423 0.870481 0.000000
0.689845 0.870451 0.000000
0.728267 0.870329 0.000000
0.766629 0.869963 0.000000
0.803738 0.868132 0.000000
0.840452 0.866148 0.000000
0.876677 0.864042 0.000000
0.912474 0.861845 0.000000
0.945953 0.857725 0.000000
0.969696 0.843565 0.000000
0.996521 0.833310 0.000000
1.000000 0.823667 0.000000
1.000000 0.812619 0.000000
1.000000 0.800046 0.000000
0.070192 0.908751 0.000000
0.084108 0.908873 0.000000
0.099153 0.908873 0.000000
0.124483 0.908782 0.000000
0.155093 0.908537 0.000000
0.188174 0.908232 0.000000
0.221439 0.907836 0.000000
0.255680 0.907408 0.000000
0.290410 0.906950 0.000000
0.325078 0.906493 0.000000
0.360174 0.906004 0.000000
0.395331 0.905547 0.000000
0.430701 0.904997 0.000000
0.466041 0.904356 0.000000
0.501122 0.903593 0.000000
0.536431 0.902739 0.000000
0.571649 0.901793 0.000000
0.607446 0.901030 0.000000
0.645045 0.900755 0.000000
0.682765 0.900450 0.000000
0.720607 0.900114 0.000000
0.758450 0.899657 0.000000
0.795926 0.898711 0.000000
0.832517 0.896696 0.000000
0.868650 0.894530 0.000000
0.904356 0.892271 0.000000
0.939574 0.889891 0.000000
0.974456 0.887449 0.000000
0.995331 0.870970 0.000000
1.000000 0.858640 0.000000
1.000000 0.847196 0.000000
1.000000 0.834318 0.000000
0.093599 0.937865 0.000000
0.102907 0.937896 0.000000
0.115419 0.937926 0.000000
0.136568 0.937835 0.000000
0.164126 0.937652 0.000000
0.194461 0.937469 0.000000
0.226200 0.937285 0.000000
0.259190 0.937102 0.000000
0.292790 0.936919 0.000000
0.326726 0.936736 0.000000
0.360998 0.936522 0.000000
0.395392 0.936248 0.000000
0.430060 0.935851 0.000000
0.464759 0.935302 0.000000
0.499489 0.934630 0.000000
0.534142 0.933745 0.000000
0.568872 0.932769 0.000000
0.603571 0.931762 0.000000
0.639490 0.931060 0.000000
0.676509 0.930510 0.000000
0.713497 0.929900 0.000000
0.750668 0.929137 0.000000
0.787686 0.928252 0.000000
0.824430 0.926757 0.000000
0.860410 0.924498 0.000000
0.895903 0.922118 0.000000
0.931060 0.919615 0.000000
0.965698 0.917052 0.000000
1.000000 0.914427 0.000000
1.000000 0.897520 0.000000
1.000000 0.882994 0.000000
1.000000 0.869413 0.000000
0.122438 0.966125 0.000000
0.129458 0.966125 0.000000
0.138216 0.966094 0.000000
0.155795 0.965942 0.000000
0.179171 0.965728 0.000000
0.205966 0.965423 0.000000
0.235080 0.965148 0.000000
0.265568 0.964813 0.000000
0.297124 0.964446 0.000000
0.329595 0.964050 0.000000
0.362341 0.963592 0.000000
0.395575 0.963073 0.000000
0.428962 0.962493 0.000000
0.462593 0.961791 0.000000
0.496376 0.960998 0.000000
