其他预设/【233】日式怀旧街道调色预设208款/1.3D LUT预设（视频调色-PR-AE-PS-FCPX-达芬奇用）/2.富士胶片风-日式城市街拍预设/JA – Night Pop 3 (Classic Chrome).cube
# Created by Adobe Lightroom plugin Export LUT (1.17.0)
# www.johnrellis.com/lightroom/exportlut.htm
# Preset: JA – Night Pop 3 (Classic Chrome)
# Color profile: /Library/Application Support/Adobe/Color/Profiles/Recommended/AdobeRGB1998.icc
LUT_3D_SIZE 8
DOMAIN_MIN 0.000000 0.000000 0.000000
DOMAIN_MAX 0.903226 0.903226 0.903226
0.066712 0.081422 0.094789
0.137942 0.063233 0.100130
0.459297 0.000000 0.070008
0.785336 0.000000 0.000000
0.994598 0.000000 0.000000
1.000000 0.000000 0.000000
1.000000 0.000000 0.000000
1.000000 0.000000 0.000000
0.056580 0.120119 0.094118
0.098848 0.111025 0.106569
0.397070 0.148135 0.075685
0.756283 0.000000 0.000000
0.975311 0.000000 0.000000
1.000000 0.000000 0.000000
1.000000 0.000000 0.000000
1.000000 0.000000 0.000000
0.000000 0.330266 0.070100
0.072511 0.330297 0.000000
0.241215 0.246342 0.128420
0.611658 0.394720 0.243839
0.926848 0.372534 0.157259
1.000000 0.277806 0.000000
1.000000 0.130373 0.000000
1.000000 0.000000 0.000000
0.000000 0.635096 0.094087
0.000000 0.631464 0.000000
0.376257 0.614679 0.000000
0.540154 0.514031 0.204227
0.823331 0.631220 0.514092
0.992554 0.647822 0.562829
1.000000 0.585565 0.523522
1.000000 0.529503 0.491432
0.000000 0.850889 0.164828
0.000000 0.850278 0.000000
0.272038 0.836728 0.000000
0.609857 0.789944 0.000000
0.740902 0.681788 0.366003
0.919005 0.751461 0.632990
1.000000 0.809964 0.749905
1.000000 0.804196 0.756924
0.000000 0.975219 0.175784
0.000000 0.981567 0.108766
0.000000 0.973480 0.000000
0.512047 0.952148 0.000000
0.775906 0.893767 0.237613
0.893492 0.818692 0.559930
0.985321 0.861418 0.756130
1.000000 0.913939 0.860746
0.000000 1.000000 0.130159
0.000000 1.000000 0.000000
0.000000 1.000000 0.000000
0.330449 1.000000 0.000000
0.658869 1.000000 0.000000
0.889830 0.956359 0.519158
0.979370 0.915770 0.718837
1.000000 0.938689 0.855711
0.000000 1.000000 0.000000
0.000000 1.000000 0.000000
0.000000 1.000000 0.000000
0.000000 1.000000 0.000000
0.509056 1.000000 0.000000
0.795041 1.000000 0.445136
0.970336 1.000000 0.727535
1.000000 0.974060 0.839078
0.027070 0.085603 0.144106
0.104067 0.071901 0.137606
0.380896 0.000000 0.138399
0.730953 0.000000 0.000000
0.960815 0.000000 0.000000
1.000000 0.000000 0.000000
1.000000 0.000000 0.000000
1.000000 0.000000 0.000000
0.010437 0.115419 0.141268
0.093172 0.113375 0.131899
0.359533 0.110811 0.103182
0.716609 0.068910 0.000000
0.951202 0.000000 0.000000
1.000000 0.000000 0.000000
1.000000 0.000000 0.000000
1.000000 0.000000 0.000000
0.000000 0.308110 0.197177
0.000000 0.307927 0.146029
0.232212 0.241703 0.153597
0.576959 0.376715 0.238193
0.893584 0.366705 0.146181
1.000000 0.281743 0.000000
1.000000 0.154391 0.000000
1.000000 0.000000 0.000000
0.000000 0.612604 0.282017
0.000000 0.610529 0.194491
0.334630 0.599634 0.000000
0.494179 0.476997 0.204776
0.772671 0.585046 0.454475
0.971527 0.609552 0.510430
1.000000 0.558343 0.482673
1.000000 0.466682 0.415625
0.000000 0.842252 0.315679
0.000000 0.839292 0.241245
0.182834 0.824399 0.000000
0.583276 0.771084 0.000000
0.709957 0.656153 0.330938
0.901396 0.731258 0.608362
0.997681 0.795193 0.733425
1.000000 0.782071 0.735622
0.000000 0.966827 0.295720
0.000000 0.967620 0.263127
0.000000 0.961761 0.000000
0.488228 0.941833 0.000000
0.763821 0.884459 0.208621
0.885252 0.810910 0.547387
0.982177 0.854887 0.747829
1.000000 0.910735 0.859495
0.000000 1.000000 0.243809
0.000000 1.000000 0.208988
0.000000 1.000000 0.000000
0.310857 1.000000 0.000000
0.649958 1.000000 0.000000
0.882475 0.952056 0.500359
0.973327 0.907622 0.703487
1.000000 0.931273 0.845579
0.000000 1.000000 0.173587
0.000000 1.000000 0.119478
0.000000 1.000000 0.000000
0.000000 1.000000 0.000000
0.501762 1.000000 0.000000
0.790890 1.000000 0.439551
0.968261 0.999847 0.722316
1.000000 0.974151 0.838926
0.000000 0.134829 0.413336
0.000000 0.083742 0.403815
0.294316 0.000000 0.359991
0.685054 0.000000 0.442115
0.946654 0.000000 0.273411
1.000000 0.000000 0.040650
1.000000 0.000000 0.000000
1.000000 0.000000 0.000000
0.000000 0.202976 0.406500
0.000000 0.163027 0.390112
0.278325 0.000000 0.344488
0.668696 0.000000 0.389654
0.938170 0.000000 0.164706
1.000000 0.000000 0.000000
1.000000 0.000000 0.000000
1.000000 0.000000 0.000000
0.000000 0.335882 0.395361
0.000000 0.327855 0.381933
0.230289 0.272129 0.313268
0.651209 0.256382 0.280949
0.925597 0.203464 0.214542
1.000000 0.114900 0.045747
1.000000 0.000000 0.000000
1.000000 0.000000 0.000000
0.000000 0.611933 0.498268
0.000000 0.614893 0.483223
0.074891 0.600610 0.348547
0.502617 0.501762 0.379675
0.776364 0.614527 0.569268
0.984161 0.592340 0.520531
1.000000 0.526848 0.448096
1.000000 0.424140 0.365270
0.000000 0.838407 0.518853
0.000000 0.839292 0.500389
0.000000 0.827054 0.381872
0.549096 0.793973 0.320592
0.713680 0.672145 0.468971
0.900816 0.740993 0.647333
1.000000 0.785855 0.723415
1.000000 0.768185 0.723323
0.000000 0.966278 0.486366
0.000000 0.967254 0.476265
0.000000 0.960174 0.384070
0.434089 0.939452 0.318425
0.748898 0.885924 0.403388
0.873167 0.805112 0.574640
0.979217 0.847898 0.740291
1.000000 0.909850 0.860044
0.000000 1.000000 0.427863
0.000000 1.000000 0.414679
0.000000 1.000000 0.341558
0.268498 1.000000 0.296391
0.629572 1.000000 0.239048
0.875578 0.952483 0.512596
0.973968 0.908843 0.703853
1.000000 0.934936 0.852262
0.000000 1.000000 0.347173
0.000000 1.000000 0.332830
0.000000 1.000000 0.251255
0.000000 1.000000 0.000000
0.458198 1.000000 0.000000
0.768399 1.000000 0.395605
0.964630 1.000000 0.716518
1.000000 0.974334 0.838621
0.000000 0.218784 0.695399
0.000000 0.218997 0.696040
0.306981 0.000000 0.661433
0.587915 0.000000 0.632593
0.888243 0.000000 0.652766
1.000000 0.000000 0.533959
1.000000 0.000000 0.397406
1.000000 0.000000 0.107301
0.000000 0.268193 0.700679
0.000000 0.277623 0.698085
0.247379 0.000000 0.663203
0.582879 0.000000 0.629114
0.884428 0.000000 0.639124
1.000000 0.000000 0.518700
1.000000 0.000000 0.369238
1.000000 0.000000 0.087495
0.000000 0.472297 0.693599
0.000000 0.469001 0.688899
0.000000 0.320226 0.659297
0.553094 0.173404 0.610834
0.871672 0.000000 0.592645
1.000000 0.000000 0.483680
1.000000 0.000000 0.373632
1.000000 0.000000 0.000000
0.000000 0.627588 0.685084
0.000000 0.627466 0.680232
0.000000 0.603998 0.658076
0.488533 0.527123 0.580743
0.833097 0.523033 0.576532
1.000000 0.484352 0.537499
1.000000 0.386084 0.429419
1.000000 0.155001 0.088258
0.000000 0.835264 0.709560
0.000000 0.836179 0.706477
0.000000 0.830198 0.665339
0.488228 0.787137 0.622980
0.709590 0.690669 0.624750
0.902556 0.772091 0.737789
1.000000 0.764065 0.724941
1.000000 0.714412 0.681605
0.000000 0.970764 0.669490
0.000000 0.975952 0.667292
0.000000 0.970428 0.623224
0.462470 0.938781 0.636927
0.747799 0.903655 0.618250
0.870268 0.816861 0.674708
0.975738 0.861967 0.788479
1.000000 0.902647 0.854185
0.000000 1.000000 0.600305
0.000000 1.000000 0.593530
0.000000 1.000000 0.556786
0.362066 1.000000 0.607202
0.664881 0.998077 0.604425
0.875059 0.958892 0.647211
0.970062 0.911925 0.741390
1.000000 0.933806 0.853758
0.000000 1.000000 0.513848
0.000000 1.000000 0.509300
0.000000 1.000000 0.470558
0.000000 1.000000 0.458442
0.526452 1.000000 0.536584
0.746334 1.000000 0.483528
0.955779 1.000000 0.702022
1.000000 0.974640 0.838193
0.000000 0.277836 0.851377
0.000000 0.277836 0.851377
0.000000 0.000000 0.840269
0.572351 0.000000 0.806821
0.819059 0.000000 0.795987
0.999725 0.000000 0.778256
1.000000 0.000000 0.672724
1.000000 0.000000 0.583001
0.000000 0.278141 0.851957
0.000000 0.286687 0.853025
0.000000 0.000000 0.842405
0.550256 0.000000 0.807279
0.815244 0.000000 0.793851
0.997436 0.000000 0.774075
1.000000 0.000000 0.671778
1.000000 0.000000 0.586816
0.000000 0.517021 0.851652
0.000000 0.526329 0.850584
0.000000 0.378393 0.839322
0.457160 0.092927 0.808377
0.795071 0.000000 0.783108
0.982940 0.105562 0.759487
1.000000 0.113680 0.670771
1.000000 0.186679 0.599237
0.000000 0.653468 0.842832
0.000000 0.656306 0.840787
0.000000 0.626123 0.835996
0.355352 0.555596 0.810147
0.758602 0.488899 0.766873
0.966217 0.481514 0.742702
1.000000 0.453254 0.673426
1.000000 0.315892 0.560174
0.000000 0.810147 0.838346
0.000000 0.812894 0.837339
0.000000 0.806699 0.829038
0.298375 0.780453 0.803738
0.690425 0.696986 0.732631
0.939818 0.701686 0.735622
1.000000 0.666468 0.703822
1.000000 0.551507 0.597742
0.000000 0.952819 0.816678
0.000000 0.954040 0.814725
0.000000 0.953979 0.801022
0.182223 0.934630 0.780179
0.698054 0.889189 0.756985
0.852720 0.816556 0.753353
0.970153 0.879789 0.844846
1.000000 0.876005 0.837888
0.000000 1.000000 0.754818
0.000000 1.000000 0.752224
0.000000 1.000000 0.736599
0.000000 1.000000 0.710964
0.689418 0.989990 0.763851
0.867216 0.963836 0.753750
0.959289 0.911803 0.793423
1.000000 0.936584 0.877073
0.000000 1.000000 0.665217
0.000000 1.000000 0.661952
0.000000 1.000000 0.647028
0.000000 1.000000 0.593774
0.566949 1.000000 0.707820
0.788022 1.000000 0.717708
0.947723 1.000000 0.765377
1.000000 0.976349 0.854246
0.000000 0.313207 0.948638
0.000000 0.313054 0.948272
0.000000 0.191073 0.945800
0.370855 0.000000 0.931914
0.777737 0.000000 0.910124
0.962097 0.000000 0.897490
1.000000 0.000000 0.852567
1.000000 0.000000 0.755764
0.000000 0.311986 0.945129
0.000000 0.311711 0.944518
0.000000 0.149599 0.943145
0.334783 0.000000 0.929900
0.763821 0.000000 0.907805
0.957092 0.000000 0.894102
1.000000 0.000000 0.852384
1.000000 0.000000 0.756405
0.000000 0.467292 0.944915
0.000000 0.475502 0.943969
0.000000 0.408667 0.941924
0.033265 0.124880 0.933745
0.725582 0.000000 0.910155
0.948791 0.000000 0.890990
1.000000 0.250584 0.853483
1.000000 0.223728 0.764157
0.000000 0.634943 0.941070
0.000000 0.639246 0.939849
0.000000 0.623011 0.940429
0.109346 0.563745 0.935332
0.684443 0.468421 0.913115
0.934905 0.473945 0.888640
1.000000 0.533074 0.853696
1.000000 0.498634 0.779477
0.000000 0.764828 0.935241
0.000000 0.768246 0.934661
0.000000 0.764706 0.933257
0.000000 0.753475 0.927245
0.649714 0.735256 0.905241
0.900084 0.678920 0.870726
1.000000 0.687343 0.841428
1.000000 0.659510 0.788052
0.000000 0.903960 0.924865
0.000000 0.907561 0.925261
0.000000 0.912810 0.923278
0.000000 0.908843 0.916716
0.607446 0.892912 0.898619
0.848325 0.830411 0.842069
0.999084 0.843717 0.850462
1.000000 0.797238 0.809506
0.000000 1.000000 0.897124
0.000000 1.000000 0.895903
0.000000 1.000000 0.888579
0.000000 1.000000 0.870420
0.554467 1.000000 0.867887
0.874113 0.964721 0.874479
0.952270 0.919524 0.862486
1.000000 0.950439 0.919707
0.000000 1.000000 0.810300
0.000000 1.000000 0.807828
0.000000 1.000000 0.798123
0.000000 1.000000 0.772366
0.000000 1.000000 0.746548
0.831968 1.000000 0.852018
0.944732 1.000000 0.850248
1.000000 0.980835 0.895445
0.000000 0.329839 1.000000
0.000000 0.329992 1.000000
0.000000 0.329778 1.000000
0.000000 0.000000 1.000000
0.569451 0.000000 0.991608
0.886320 0.000000 0.978729
1.000000 0.000000 0.958434
1.000000 0.000000 0.892058
0.000000 0.329473 1.000000
0.000000 0.329473 1.000000
0.000000 0.329351 1.000000
0.000000 0.000000 0.998993
0.555871 0.000000 0.989868
0.880949 0.000000 0.976165
1.000000 0.000000 0.955810
1.000000 0.000000 0.891417
0.000000 0.367681 1.000000
0.000000 0.375311 1.000000
0.000000 0.402075 1.000000
0.000000 0.077211 1.000000
0.488197 0.000000 0.991089
0.871122 0.000000 0.975250
1.000000 0.000000 0.955322
1.000000 0.132631 0.896971
0.000000 0.558679 0.999512
0.000000 0.562921 0.998901
0.000000 0.577020 0.997681
0.000000 0.489998 0.997436
0.433265 0.395666 0.989532
0.842802 0.316686 0.972961
1.000000 0.398840 0.953613
1.000000 0.505608 0.908019
0.000000 0.695247 0.993835
0.000000 0.696986 0.993256
0.000000 0.702541 0.992096
0.000000 0.677516 0.992248
0.505638 0.696498 0.981476
0.807462 0.630793 0.966339
0.992004 0.641901 0.947753
1.000000 0.680293 0.909514
0.000000 0.817350 0.987396
0.000000 0.818936 0.987182
0.000000 0.824216 0.986419
0.000000 0.817655 0.986206
0.357275 0.830045 0.979614
0.827024 0.856199 0.964630
0.972747 0.824369 0.943572
1.000000 0.828611 0.915892
0.000000 0.950347 0.980407
0.000000 0.952148 0.980377
0.000000 0.958038 0.979583
0.000000 0.966094 0.978393
0.000000 0.965637 0.973083
0.797116 0.958434 0.961669
0.943450 0.925170 0.925017
1.000000 0.927398 0.923705
0.000000 1.000000 0.952728
0.000000 1.000000 0.950896
0.000000 1.000000 0.944854
0.000000 1.000000 0.931914
0.000000 1.000000 0.905608
0.671046 1.000000 0.914946
0.948730 1.000000 0.942168
1.000000 0.986084 0.942107
0.000000 0.340429 1.000000
0.000000 0.340429 1.000000
0.000000 0.340368 1.000000
0.000000 0.215885 1.000000
0.185000 0.000000 1.000000
0.692775 0.000000 1.000000
0.951751 0.000000 1.000000
1.000000 0.000000 1.000000
0.000000 0.340307 1.000000
0.000000 0.340307 1.000000
0.000000 0.340246 1.000000
0.000000 0.218997 1.000000
0.175784 0.000000 1.000000
0.688808 0.000000 1.000000
0.949615 0.000000 1.000000
1.000000 0.000000 1.000000
0.000000 0.340368 1.000000
0.000000 0.340307 1.000000
0.000000 0.340246 1.000000
0.000000 0.245823 1.000000
0.026307 0.000000 1.000000
0.656916 0.000000 1.000000
0.941924 0.000000 1.000000
1.000000 0.000000 1.000000
0.000000 0.403296 1.000000
0.000000 0.407385 1.000000
0.000000 0.421637 1.000000
0.000000 0.436805 1.000000
0.000000 0.183993 1.000000
0.588861 0.000000 1.000000
0.931121 0.000000 1.000000
1.000000 0.000000 1.000000
0.000000 0.594202 1.000000
0.000000 0.593744 1.000000
0.000000 0.589990 1.000000
0.000000 0.576074 1.000000
0.000000 0.552850 1.000000
0.581811 0.525200 1.000000
0.912016 0.469368 1.000000
1.000000 0.546685 0.999329
0.000000 0.723293 1.000000
0.000000 0.723201 1.000000
0.000000 0.722377 1.000000
0.000000 0.718776 1.000000
0.000000 0.696895 1.000000
0.662440 0.781399 1.000000
0.895506 0.756710 1.000000
1.000000 0.784115 0.998260
0.000000 0.841825 1.000000
0.000000 0.842130 1.000000
0.000000 0.843015 1.000000
0.000000 0.844266 1.000000
0.000000 0.842771 1.000000
0.396338 0.862425 1.000000
0.918273 0.930510 1.000000
1.000000 0.918669 0.995850
0.000000 0.969757 1.000000
0.000000 0.970642 1.000000
0.000000 0.974060 1.000000
0.000000 0.980804 1.000000
0.000000 0.991699 1.000000
0.000000 0.998840 1.000000
0.887663 0.995453 1.000000
0.994507 0.991424 0.990845
