其他预设/【233】日式怀旧街道调色预设208款/1.3D LUT预设（视频调色-PR-AE-PS-FCPX-达芬奇用）/2.富士胶片风-日式城市街拍预设/JA – Cityscape Pop 5 (Classic Chrome).cube
# Created by Adobe Lightroom plugin Export LUT (1.17.0)
# www.johnrellis.com/lightroom/exportlut.htm
# Preset: JA – Cityscape Pop 5 (Classic Chrome)
# Color profile: /Library/Application Support/Adobe/Color/Profiles/Recommended/AdobeRGB1998.icc
LUT_3D_SIZE 5
DOMAIN_MIN 0.000000 0.000000 0.000000
DOMAIN_MAX 0.903226 0.903226 0.903226
0.108705 0.117098 0.122560
0.152377 0.121431 0.123079
0.495613 0.196628 0.083925
0.833066 0.303349 0.000000
0.982086 0.356359 0.000000
0.114199 0.145083 0.123751
0.160616 0.152987 0.123842
0.535363 0.290135 0.019745
0.840146 0.367956 0.000000
0.985138 0.399756 0.000000
0.181521 0.341588 0.097322
0.267369 0.348119 0.095521
0.600702 0.470588 0.000000
0.861448 0.521324 0.000000
0.988769 0.519646 0.000000
0.340154 0.687678 0.000000
0.434028 0.684871 0.000000
0.658930 0.703487 0.000000
0.869993 0.680262 0.000000
0.988769 0.660792 0.156222
0.454994 0.872557 0.000000
0.521660 0.868742 0.000000
0.689265 0.856413 0.194308
0.874388 0.867216 0.326543
0.976776 0.824491 0.495155
0.096376 0.119326 0.176577
0.147036 0.129061 0.167971
0.479866 0.099123 0.155734
0.822538 0.249363 0.106508
0.977935 0.347051 0.117159
0.100069 0.161593 0.178103
0.157687 0.167666 0.174624
0.521233 0.239139 0.148714
0.831052 0.328649 0.096010
0.979797 0.393256 0.126436
0.000000 0.398108 0.180636
0.234134 0.409033 0.151461
0.594354 0.472511 0.125277
0.855283 0.513024 0.076417
0.984741 0.523949 0.175845
0.224430 0.710414 0.038239
0.377142 0.706294 0.094759
0.641535 0.709285 0.140322
0.864408 0.689052 0.221347
0.983368 0.675715 0.296422
0.432837 0.877501 0.225223
0.508019 0.873014 0.251041
0.689845 0.860014 0.338506
0.871122 0.868803 0.406500
0.976989 0.827115 0.500725
0.000000 0.125978 0.571954
0.124147 0.115084 0.555261
0.465217 0.118959 0.488991
0.784421 0.293767 0.484962
0.940612 0.517327 0.540398
0.000000 0.257023 0.581170
0.000000 0.192081 0.568322
0.484260 0.239811 0.500511
0.788602 0.384497 0.493294
0.943694 0.542382 0.542321
0.000000 0.510430 0.565484
0.000000 0.510857 0.559930
0.545708 0.526787 0.523125
0.809171 0.578607 0.534356
0.950774 0.629023 0.557916
0.000000 0.749844 0.512413
0.196811 0.747280 0.500908
0.612268 0.727138 0.529686
0.832486 0.733639 0.578820
0.955474 0.748989 0.598260
0.434913 0.887114 0.521294
0.521599 0.882322 0.539879
0.684901 0.868467 0.564111
0.850614 0.868376 0.604028
0.958770 0.851316 0.653285
0.000000 0.169802 0.806302
0.000000 0.219333 0.800717
0.476967 0.323369 0.774319
0.734890 0.468971 0.731930
0.896788 0.666377 0.758236
0.000000 0.272038 0.808591
0.000000 0.287633 0.803311
0.514885 0.424109 0.774929
0.740200 0.520317 0.731685
0.898436 0.678645 0.758175
0.000000 0.494789 0.803555
0.175998 0.516869 0.800900
0.589685 0.602167 0.782650
0.757015 0.634485 0.734524
0.908232 0.715724 0.756313
0.159976 0.726253 0.787564
0.363226 0.733364 0.784268
0.616052 0.751492 0.775143
0.787991 0.758816 0.749691
0.927489 0.793149 0.762997
0.440742 0.899199 0.766751
0.515557 0.895567 0.765011
0.670863 0.887175 0.758724
0.818662 0.875090 0.753079
0.939666 0.878386 0.787015
0.118196 0.395300 0.923705
0.408392 0.490455 0.918029
0.632685 0.599023 0.907073
0.774960 0.668360 0.888731
0.880613 0.721920 0.873198
0.203189 0.441901 0.923033
0.418250 0.516045 0.918029
0.656580 0.635218 0.906188
0.781186 0.686976 0.888884
0.881987 0.732906 0.873350
0.306249 0.552483 0.922118
0.430426 0.584649 0.919921
0.669764 0.687984 0.908507
0.798367 0.739223 0.892546
0.888029 0.767758 0.875914
0.470588 0.715297 0.914275
0.533806 0.727749 0.912871
0.673945 0.761227 0.909850
0.815366 0.807858 0.903716
0.898589 0.822171 0.881132
0.586145 0.856901 0.907073
0.621515 0.860594 0.906493
0.715602 0.871916 0.904906
0.822904 0.887694 0.902495
0.915373 0.897337 0.891203
