其他预设/【233】日式怀旧街道调色预设208款/1.3D LUT预设（视频调色-PR-AE-PS-FCPX-达芬奇用）/2.富士胶片风-日式城市街拍预设/JA – Night Pop 2 (Classic Chrome).cube
# Created by Adobe Lightroom plugin Export LUT (1.17.0)
# www.johnrellis.com/lightroom/exportlut.htm
# Preset: JA – Night Pop 2 (Classic Chrome)
# Color profile: /Library/Application Support/Adobe/Color/Profiles/Recommended/AdobeRGB1998.icc
LUT_3D_SIZE 32
0.049531 0.057221 0.062287
0.049531 0.057221 0.062287
0.053620 0.056550 0.062257
0.075257 0.050019 0.062867
0.094179 0.039643 0.062928
0.114229 0.027832 0.061036
0.137301 0.019715 0.059876
0.162905 0.011505 0.057862
0.189364 0.002686 0.053834
0.214969 0.000000 0.049073
0.241764 0.000000 0.042084
0.279332 0.000000 0.029328
0.336004 0.000000 0.006073
0.406806 0.000000 0.000000
0.481056 0.000000 0.000000
0.549523 0.000000 0.000000
0.611261 0.000000 0.000000
0.665034 0.000000 0.000000
0.710964 0.000000 0.000000
0.753231 0.000000 0.000000
0.794491 0.000000 0.000000
0.835904 0.000000 0.000000
0.877043 0.000000 0.000000
0.916686 0.000000 0.000000
0.954070 0.000000 0.000000
0.988098 0.000000 0.000000
1.000000 0.000000 0.000000
1.000000 0.000000 0.000000
1.000000 0.000000 0.000000
1.000000 0.000000 0.000000
1.000000 0.000000 0.000000
1.000000 0.000000 0.000000
0.049531 0.057221 0.062287
0.049531 0.057221 0.062287
0.054475 0.056397 0.062684
0.075715 0.049836 0.062837
0.094179 0.044465 0.061463
0.114229 0.038453 0.060700
0.137453 0.032502 0.059449
0.163180 0.025269 0.056977
0.189853 0.017212 0.052857
0.215518 0.009796 0.048066
0.242710 0.002960 0.040467
0.281254 0.000000 0.027222
0.338964 0.000000 0.003052
0.410559 0.000000 0.000000
0.484993 0.000000 0.000000
0.553246 0.000000 0.000000
0.613794 0.000000 0.000000
0.666651 0.000000 0.000000
0.712642 0.000000 0.000000
0.755001 0.000000 0.000000
0.796262 0.000000 0.000000
0.837736 0.000000 0.000000
0.878813 0.000000 0.000000
0.918395 0.000000 0.000000
0.955505 0.000000 0.000000
0.989319 0.000000 0.000000
1.000000 0.000000 0.000000
1.000000 0.000000 0.000000
1.000000 0.000000 0.000000
1.000000 0.000000 0.000000
1.000000 0.000000 0.000000
1.000000 0.000000 0.000000
0.049531 0.057221 0.062287
0.049409 0.058137 0.062226
0.052796 0.059449 0.062959
0.074037 0.059907 0.063294
0.093202 0.057893 0.061830
0.113771 0.053193 0.060151
0.137301 0.048554 0.058930
0.163210 0.042847 0.055879
0.190127 0.035554 0.051667
0.215732 0.029358 0.046815
0.243229 0.023041 0.038666
0.282170 0.014496 0.024933
0.340703 0.000000 0.000000
0.412238 0.000000 0.000000
0.485023 0.000000 0.000000
0.552758 0.000000 0.000000
0.613367 0.000000 0.000000
0.666560 0.000000 0.000000
0.712673 0.000000 0.000000
0.755062 0.000000 0.000000
0.796475 0.000000 0.000000
0.838041 0.000000 0.000000
0.879057 0.000000 0.000000
0.918700 0.000000 0.000000
0.955840 0.000000 0.000000
0.989593 0.000000 0.000000
1.000000 0.000000 0.000000
1.000000 0.000000 0.000000
1.000000 0.000000 0.000000
1.000000 0.000000 0.000000
1.000000 0.000000 0.000000
1.000000 0.000000 0.000000
0.046601 0.071382 0.061585
0.046052 0.072175 0.061952
0.050996 0.072999 0.061799
0.070649 0.071839 0.063630
0.080873 0.074342 0.073793
0.102876 0.074647 0.071229
0.128023 0.073304 0.068238
0.155886 0.071656 0.065064
0.184237 0.070375 0.061402
0.211582 0.067597 0.058106
0.238987 0.066224 0.051972
0.276951 0.065888 0.041047
0.333623 0.065614 0.018158
0.404456 0.064515 0.000000
0.479286 0.061158 0.000000
0.548180 0.052155 0.000000
0.609979 0.039216 0.000000
0.664027 0.019898 0.000000
0.711086 0.000000 0.000000
0.754025 0.000000 0.000000
0.796017 0.000000 0.000000
0.837858 0.000000 0.000000
0.878965 0.000000 0.000000
0.918425 0.000000 0.000000
0.955352 0.000000 0.000000
0.988922 0.000000 0.000000
1.000000 0.000000 0.000000
1.000000 0.000000 0.000000
1.000000 0.000000 0.000000
1.000000 0.000000 0.000000
1.000000 0.000000 0.000000
1.000000 0.000000 0.000000
0.041108 0.085786 0.060487
0.040803 0.086427 0.060426
0.042786 0.087251 0.060731
0.067506 0.085664 0.061769
0.083955 0.083528 0.064942
0.092836 0.085145 0.079561
0.112276 0.089509 0.082246
0.141787 0.091768 0.079133
0.172671 0.093263 0.075441
0.202182 0.093843 0.071931
0.230228 0.093843 0.068727
0.266423 0.095186 0.063966
0.321477 0.099001 0.050111
0.392676 0.104402 0.013214
0.468818 0.108949 0.000000
0.539391 0.110780 0.000000
0.602594 0.110506 0.000000
0.657893 0.108248 0.000000
0.705989 0.103914 0.000000
0.749966 0.097536 0.000000
0.792569 0.088106 0.000000
0.834989 0.076112 0.000000
0.876585 0.055085 0.000000
0.916472 0.000000 0.000000
0.953704 0.000000 0.000000
0.987549 0.000000 0.000000
1.000000 0.000000 0.000000
1.000000 0.000000 0.000000
1.000000 0.000000 0.000000
1.000000 0.000000 0.000000
1.000000 0.000000 0.000000
1.000000 0.000000 0.000000
0.034638 0.099367 0.059205
0.034089 0.099916 0.059541
0.033783 0.100465 0.059480
0.062562 0.099519 0.060090
0.081178 0.097658 0.062379
0.097353 0.095399 0.066194
0.108797 0.097383 0.081300
0.121462 0.102724 0.093233
0.154879 0.108797 0.089021
0.187808 0.112764 0.085206
0.217746 0.114931 0.081758
0.251560 0.117678 0.077852
0.302220 0.124178 0.070527
0.372869 0.134005 0.051942
0.451240 0.143313 0.000000
0.525048 0.149844 0.000000
0.590600 0.153231 0.000000
0.648219 0.153719 0.000000
0.697780 0.152132 0.000000
0.743038 0.148226 0.000000
0.786191 0.143435 0.000000
0.829282 0.136934 0.000000
0.856657 0.125551 0.000000
0.898497 0.114992 0.000000
0.938170 0.100710 0.000000
0.974578 0.081788 0.000000
1.000000 0.049012 0.000000
1.000000 0.000000 0.000000
1.000000 0.000000 0.000000
1.000000 0.000000 0.000000
1.000000 0.000000 0.000000
1.000000 0.000000 0.000000
0.026307 0.113375 0.057374
0.025971 0.113832 0.057221
0.025330 0.114778 0.056947
0.055726 0.113924 0.058167
0.077913 0.112734 0.059724
0.095735 0.109804 0.062531
0.111177 0.108034 0.067018
0.125826 0.110719 0.081941
0.140414 0.115846 0.095125
0.165225 0.124178 0.100649
0.198795 0.130190 0.096925
0.230442 0.134127 0.093202
0.272770 0.141024 0.088228
0.338048 0.153323 0.077455
0.417517 0.168002 0.057923
0.497292 0.179995 0.000000
0.567712 0.187350 0.000000
0.629389 0.191196 0.000000
0.682124 0.191409 0.000000
0.729061 0.189487 0.000000
0.772580 0.186618 0.000000
0.815518 0.181521 0.000000
0.857359 0.175967 0.000000
0.898070 0.168368 0.000000
0.936767 0.159609 0.000000
0.972900 0.148745 0.000000
1.000000 0.136080 0.000000
1.000000 0.121004 0.000000
1.000000 0.101381 0.000000
1.000000 0.073487 0.000000
1.000000 0.000000 0.000000
1.000000 0.000000 0.000000
0.012879 0.131960 0.051942
0.012390 0.132540 0.051728
0.011902 0.133120 0.051514
0.047272 0.132723 0.053407
0.075380 0.131655 0.055055
0.095674 0.129427 0.058991
0.113100 0.126131 0.062684
0.128969 0.124331 0.067445
0.147036 0.127901 0.082429
0.163455 0.133242 0.096742
0.180728 0.141665 0.113527
0.212284 0.149508 0.112947
0.250523 0.157107 0.108522
0.309850 0.171084 0.100832
0.389441 0.190127 0.087068
0.473579 0.207553 0.064973
0.548547 0.219425 0.005951
0.614130 0.226169 0.000000
0.669947 0.228977 0.000000
0.719203 0.228794 0.000000
0.764340 0.226932 0.000000
0.808438 0.223667 0.000000
0.851530 0.219516 0.000000
0.893248 0.214145 0.000000
0.932891 0.207492 0.000000
0.969665 0.199985 0.000000
1.000000 0.190707 0.000000
1.000000 0.179843 0.000000
1.000000 0.167636 0.000000
1.000000 0.153017 0.000000
1.000000 0.133089 0.000000
1.000000 0.106172 0.000000
0.000000 0.153628 0.044221
0.000000 0.154269 0.043854
0.000000 0.154910 0.043458
0.034974 0.154116 0.045014
0.073030 0.153109 0.047883
0.096162 0.151675 0.050111
0.116121 0.148501 0.056977
0.133120 0.144625 0.061952
0.149294 0.142794 0.067048
0.169253 0.146975 0.081971
0.186404 0.151644 0.098421
0.203220 0.159213 0.118044
0.226230 0.169833 0.132906
0.277256 0.183963 0.127230
0.353613 0.205966 0.117098
0.441321 0.229160 0.101778
0.522850 0.246708 0.081056
0.593011 0.257664 0.049409
0.653193 0.263249 0.000000
0.705653 0.265293 0.000000
0.752987 0.264988 0.000000
0.798489 0.263157 0.000000
0.843076 0.260258 0.000000
0.886076 0.256596 0.000000
0.926909 0.251865 0.000000
0.964843 0.245579 0.000000
0.998688 0.238346 0.000000
1.000000 0.229801 0.000000
1.000000 0.220005 0.000000
1.000000 0.208988 0.000000
1.000000 0.194797 0.000000
1.000000 0.177981 0.000000
0.000000 0.178073 0.048676
0.000000 0.178317 0.047730
0.000000 0.178775 0.043214
0.013611 0.178073 0.041444
0.067750 0.176974 0.042512
0.094820 0.175601 0.044282
0.118410 0.173312 0.047181
0.137789 0.169223 0.052735
0.154452 0.164828 0.059785
0.170993 0.162661 0.065003
0.191501 0.166323 0.081361
0.208408 0.170047 0.100801
0.226932 0.178317 0.123018
0.251499 0.192813 0.147433
0.312963 0.215671 0.148196
0.401312 0.243900 0.136324
0.489296 0.267979 0.120516
0.565454 0.283970 0.102998
0.630945 0.293645 0.083192
0.687617 0.298528 0.059297
0.738308 0.300450 0.001556
0.785977 0.300420 0.000000
0.832792 0.299107 0.000000
0.877745 0.296941 0.000000
0.920256 0.293523 0.000000
0.959411 0.288945 0.000000
0.994232 0.283146 0.000000
1.000000 0.275792 0.000000
1.000000 0.267338 0.000000
1.000000 0.257939 0.000000
1.000000 0.246921 0.000000
1.000000 0.233371 0.000000
0.000000 0.203220 0.054841
0.000000 0.203677 0.053742
0.000000 0.203464 0.047059
0.000000 0.202823 0.037903
0.058717 0.201541 0.039063
0.090761 0.200168 0.040864
0.117342 0.198245 0.042451
0.140200 0.194797 0.047028
0.159365 0.190249 0.052705
0.176028 0.185092 0.058656
0.192386 0.182223 0.062287
0.212711 0.185092 0.080812
0.232364 0.190463 0.102815
0.258946 0.202792 0.127138
0.297429 0.223575 0.152163
0.354681 0.250797 0.169741
0.448951 0.282475 0.156588
0.532982 0.305486 0.142123
0.605097 0.320317 0.127169
0.667201 0.329015 0.112154
0.721584 0.333471 0.097200
0.771511 0.335241 0.080598
0.819974 0.335760 0.059998
0.866697 0.335088 0.007660
0.910918 0.333165 0.000000
0.951751 0.329717 0.000000
0.988037 0.325017 0.000000
1.000000 0.319097 0.000000
1.000000 0.311681 0.000000
1.000000 0.303044 0.000000
1.000000 0.293919 0.000000
1.000000 0.282231 0.000000
0.000000 0.227756 0.061097
0.000000 0.227756 0.058198
0.000000 0.227359 0.050050
0.000000 0.226688 0.034516
0.028199 0.225620 0.034455
0.083925 0.223972 0.036408
0.113802 0.222110 0.036927
0.139834 0.219913 0.038209
0.161471 0.215091 0.045045
0.180331 0.209812 0.049989
0.196506 0.204196 0.056336
0.212924 0.200839 0.061067
0.230472 0.201175 0.079255
0.256107 0.210239 0.102388
0.292302 0.228031 0.127077
0.340246 0.252903 0.152255
0.395483 0.280308 0.176120
0.477180 0.310369 0.174441
0.558709 0.333318 0.161318
0.629908 0.348730 0.148470
0.690974 0.357794 0.136538
0.745022 0.362799 0.125338
0.796536 0.365728 0.114015
0.846342 0.367254 0.101930
0.893736 0.367254 0.089052
0.937377 0.365728 0.076753
0.976410 0.362585 0.065034
1.000000 0.357946 0.057435
1.000000 0.351751 0.057496
1.000000 0.344182 0.066316
1.000000 0.336095 0.079774
1.000000 0.326482 0.092866
0.000000 0.253758 0.063691
0.000000 0.253666 0.060182
0.000000 0.253513 0.051575
0.000000 0.253025 0.022522
0.000000 0.252415 0.022065
0.072084 0.251225 0.022461
0.108949 0.249699 0.022492
0.138003 0.247440 0.023804
0.163485 0.243565 0.026337
0.184146 0.237186 0.034821
0.201755 0.230167 0.043854
0.216648 0.222873 0.051667
0.233371 0.219516 0.058869
0.264256 0.230350 0.076844
0.302495 0.247410 0.099825
0.351202 0.271550 0.125856
0.406287 0.298375 0.152255
0.462593 0.323949 0.176761
0.521416 0.347021 0.194186
0.600763 0.369299 0.182223
0.668025 0.383337 0.171481
0.726406 0.391760 0.162295
0.780240 0.396948 0.153964
0.832395 0.400519 0.145602
0.881865 0.402564 0.138155
0.927581 0.402716 0.132204
0.968444 0.401160 0.128573
1.000000 0.398016 0.128603
1.000000 0.393103 0.132876
1.000000 0.387213 0.141848
1.000000 0.380957 0.155032
1.000000 0.374426 0.170504
0.000000 0.298375 0.064820
0.000000 0.297978 0.059693
0.000000 0.298009 0.047303
0.000000 0.297429 0.004089
0.000000 0.296605 0.000000
0.040864 0.295506 0.000000
0.103822 0.293614 0.000000
0.140719 0.291264 0.000000
0.171481 0.287877 0.000000
0.196384 0.280369 0.000000
0.216190 0.270603 0.007507
0.232578 0.260594 0.020722
0.245975 0.250645 0.034974
0.265507 0.248631 0.043183
0.310033 0.269383 0.066773
0.360876 0.293858 0.092958
0.416114 0.319982 0.121004
0.471717 0.344915 0.149874
0.524254 0.366094 0.176577
0.574151 0.385901 0.206394
0.639551 0.405829 0.212009
0.703334 0.418860 0.204318
0.760250 0.427283 0.198367
0.814939 0.433570 0.193271
0.866850 0.438087 0.189609
0.914855 0.440681 0.188235
0.957794 0.441535 0.189792
0.994568 0.440864 0.194980
1.000000 0.438880 0.204379
1.000000 0.436042 0.218357
1.000000 0.433417 0.236423
1.000000 0.431830 0.257786
0.000000 0.359716 0.064393
0.000000 0.359228 0.055940
0.000000 0.359014 0.029603
0.000000 0.358312 0.000000
0.000000 0.357549 0.000000
0.000000 0.356451 0.000000
0.092103 0.354437 0.000000
0.142824 0.351537 0.000000
0.182223 0.347662 0.000000
0.215000 0.342290 0.000000
0.239689 0.329839 0.000000
0.259434 0.316838 0.000000
0.275090 0.303166 0.000000
0.287541 0.289952 0.000000
0.311376 0.289921 0.000000
0.367163 0.317693 0.027527
0.424262 0.344488 0.078767
0.479225 0.368109 0.113954
0.531304 0.388556 0.147005
0.581537 0.406806 0.177188
0.627802 0.424994 0.216800
0.674311 0.446082 0.261967
0.735775 0.459083 0.258457
0.793301 0.469032 0.256657
0.847929 0.476844 0.256718
0.898344 0.482918 0.259495
0.943481 0.486976 0.264897
0.982147 0.489509 0.273838
1.000000 0.490791 0.286473
1.000000 0.491341 0.302892
1.000000 0.492164 0.322881
1.000000 0.494545 0.346288
0.000000 0.428840 0.063172
0.000000 0.428382 0.046326
0.000000 0.427893 0.007874
0.000000 0.426856 0.000000
0.000000 0.425269 0.000000
0.000000 0.423346 0.000000
0.055634 0.420874 0.000000
0.138003 0.417395 0.000000
0.188357 0.412848 0.000000
0.229313 0.407752 0.000000
0.263157 0.398749 0.000000
0.289250 0.384894 0.000000
0.310307 0.370153 0.000000
0.327337 0.355108 0.000000
0.340398 0.339788 0.000000
0.368658 0.340917 0.000000
0.429023 0.369848 0.000000
0.485939 0.394049 0.053162
0.537621 0.413275 0.105684
0.587366 0.430396 0.143771
0.633753 0.445533 0.180697
0.675227 0.462348 0.234195
0.710933 0.487373 0.311040
0.764950 0.505333 0.330846
0.822812 0.517235 0.332921
0.876402 0.527123 0.337652
0.924468 0.534752 0.344793
0.965759 0.540826 0.355413
0.999481 0.545434 0.369177
1.000000 0.549187 0.386389
1.000000 0.552880 0.406653
1.000000 0.557702 0.429572
0.000000 0.496620 0.061341
0.000000 0.496284 0.032898
0.000000 0.496010 0.000000
0.000000 0.495094 0.000000
0.000000 0.493446 0.000000
0.000000 0.491493 0.000000
0.000000 0.488685 0.000000
0.122103 0.485054 0.000000
0.188357 0.480568 0.000000
0.238285 0.475257 0.000000
0.280919 0.469368 0.000000
0.314977 0.456916 0.000000
0.342687 0.442145 0.000000
0.365667 0.426673 0.000000
0.384405 0.410712 0.000000
0.399176 0.394324 0.000000
0.429511 0.394751 0.000000
0.488563 0.419837 0.000000
0.543084 0.440131 0.000000
0.592920 0.456458 0.095796
0.639490 0.470069 0.141665
0.681941 0.482826 0.190158
0.719448 0.500298 0.261723
0.752651 0.528038 0.350591
0.793790 0.556939 0.410559
0.851011 0.570794 0.415534
0.902556 0.582055 0.422827
0.946990 0.591150 0.432746
0.983429 0.598291 0.445380
1.000000 0.603937 0.460761
1.000000 0.609033 0.479011
1.000000 0.614588 0.499428
0.000000 0.555932 0.057923
0.000000 0.555169 0.016663
0.000000 0.543786 0.000000
0.000000 0.543114 0.000000
0.000000 0.541802 0.000000
0.000000 0.540215 0.000000
0.000000 0.538018 0.000000
0.083925 0.534905 0.000000
0.174807 0.531212 0.000000
0.234043 0.526513 0.000000
0.282841 0.521263 0.000000
0.325048 0.514488 0.000000
0.359289 0.501640 0.000000
0.388830 0.487953 0.000000
0.414191 0.473701 0.000000
0.435523 0.458808 0.000000
0.453101 0.443336 0.000000
0.484718 0.442878 0.000000
0.539727 0.462776 0.000000
0.592676 0.480446 0.000000
0.639918 0.493874 0.084749
0.683680 0.504845 0.142153
0.723476 0.516899 0.205875
0.759396 0.537011 0.294255
0.792050 0.567926 0.390845
0.822660 0.605188 0.477089
0.876921 0.622309 0.489265
0.925658 0.634913 0.498451
0.965667 0.644892 0.510155
0.996277 0.652583 0.524132
1.000000 0.658900 0.540612
1.000000 0.665156 0.559167
0.000000 0.607996 0.047517
0.000000 0.606348 0.003601
0.000000 0.604761 0.000000
0.000000 0.603052 0.000000
0.000000 0.601099 0.000000
0.000000 0.598871 0.000000
0.000000 0.596521 0.000000
0.000000 0.593500 0.000000
0.156039 0.589868 0.000000
0.227604 0.585626 0.000000
0.284184 0.580591 0.000000
0.332891 0.575128 0.000000
0.374914 0.566033 0.000000
0.410529 0.553613 0.000000
0.441810 0.540429 0.000000
0.469368 0.526696 0.000000
0.493202 0.512352 0.000000
0.513420 0.497475 0.000000
0.545037 0.494789 0.000000
0.595819 0.509331 0.000000
0.644373 0.522332 0.000000
0.688136 0.532097 0.076692
0.729152 0.541070 0.150240
0.767422 0.554467 0.234470
0.801968 0.577966 0.337194
0.833036 0.610651 0.435889
0.862028 0.646754 0.517937
0.902190 0.672084 0.555779
0.946288 0.684810 0.565881
0.980438 0.694453 0.578027
1.000000 0.701900 0.592401
1.000000 0.708461 0.608820
0.000000 0.659113 0.039429
0.000000 0.657862 0.000000
0.000000 0.656519 0.000000
0.000000 0.655116 0.000000
0.000000 0.653498 0.000000
0.000000 0.651881 0.000000
0.000000 0.649439 0.000000
0.000000 0.646601 0.000000
0.121370 0.643214 0.000000
0.213382 0.639155 0.000000
0.278141 0.634546 0.000000
0.332982 0.629389 0.000000
0.381811 0.623896 0.000000
0.423163 0.613336 0.000000
0.460060 0.601587 0.000000
0.492988 0.589105 0.000000
0.522454 0.576135 0.000000
0.548486 0.562585 0.000000
0.570916 0.548028 0.000000
0.602106 0.543481 0.000000
0.647272 0.551965 0.000000
0.691402 0.560693 0.000000
0.733242 0.568231 0.072969
0.773617 0.577356 0.167453
0.810758 0.593622 0.273198
0.843229 0.619959 0.384527
0.872251 0.652583 0.480323
0.898589 0.687129 0.558129
0.925505 0.717586 0.613397
0.963714 0.729763 0.624079
0.990814 0.738735 0.636927
1.000000 0.746120 0.651911
0.000000 0.705562 0.027832
0.000000 0.704524 0.000000
0.000000 0.703456 0.000000
0.000000 0.702205 0.000000
0.000000 0.700893 0.000000
0.000000 0.699580 0.000000
0.000000 0.697475 0.000000
0.000000 0.694850 0.000000
0.024353 0.691676 0.000000
0.190372 0.687984 0.000000
0.266239 0.683680 0.000000
0.326940 0.678950 0.000000
0.380224 0.673823 0.000000
0.427955 0.667109 0.000000
0.469490 0.656367 0.000000
0.506859 0.645106 0.000000
0.540856 0.632929 0.000000
0.571435 0.620233 0.000000
0.598627 0.606836 0.000000
0.622492 0.592676 0.000000
0.652064 0.585657 0.000000
0.692226 0.589166 0.000000
0.733059 0.594781 0.000000
0.774685 0.601862 0.076387
0.814450 0.612116 0.193790
0.849332 0.630701 0.315404
0.879149 0.658198 0.428290
0.905425 0.689662 0.519219
0.928405 0.721798 0.592493
0.947784 0.752407 0.651881
0.975250 0.767636 0.672999
0.996033 0.776913 0.687709
0.000000 0.745907 0.018189
0.000000 0.745388 0.000000
0.000000 0.744808 0.000000
0.000000 0.744289 0.000000
0.000000 0.743526 0.000000
0.000000 0.742641 0.000000
0.000000 0.740902 0.000000
0.000000 0.738338 0.000000
0.000000 0.735317 0.000000
0.156344 0.731624 0.000000
0.247471 0.727504 0.000000
0.315007 0.722957 0.000000
0.372900 0.718044 0.000000
0.424781 0.712917 0.000000
0.471015 0.704707 0.000000
0.512413 0.694331 0.000000
0.550256 0.683345 0.000000
0.584955 0.671839 0.000000
0.616571 0.659785 0.000000
0.645228 0.647242 0.000000
0.671138 0.634302 0.000000
0.700221 0.626062 0.000000
0.737758 0.626856 0.000000
0.778073 0.631403 0.000000
0.820066 0.638880 0.095918
0.857786 0.650813 0.237522
0.889128 0.671534 0.368597
0.915312 0.698878 0.476967
0.937530 0.728450 0.562463
0.955810 0.757290 0.629999
0.969146 0.785428 0.687495
0.983093 0.806607 0.725154
0.000000 0.789487 0.000214
0.000000 0.788998 0.000000
0.000000 0.788540 0.000000
0.000000 0.787961 0.000000
0.000000 0.787350 0.000000
0.000000 0.786770 0.000000
0.000000 0.785428 0.000000
0.000000 0.783169 0.000000
0.000000 0.780362 0.000000
0.102480 0.776944 0.000000
0.224277 0.773098 0.000000
0.300542 0.768856 0.000000
0.363622 0.764248 0.000000
0.419867 0.759243 0.000000
0.470954 0.754055 0.000000
0.515831 0.744198 0.000000
0.557061 0.733730 0.000000
0.594965 0.722744 0.000000
0.629969 0.711208 0.000000
0.662104 0.699397 0.000000
0.691615 0.687068 0.000000
0.718563 0.674495 0.000000
0.747555 0.665644 0.000000
0.784176 0.665064 0.000000
0.825040 0.669642 0.000000
0.865507 0.677180 0.136141
0.899229 0.690669 0.293767
0.925841 0.712428 0.425269
0.947356 0.738216 0.526421
0.964294 0.764645 0.604974
0.976318 0.790249 0.668421
0.982910 0.817258 0.726467
0.000000 0.829465 0.000000
0.000000 0.828977 0.000000
0.000000 0.828580 0.000000
0.000000 0.828305 0.000000
0.000000 0.828061 0.000000
0.000000 0.827787 0.000000
0.000000 0.827054 0.000000
0.000000 0.825193 0.000000
0.000000 0.822904 0.000000
0.000000 0.820035 0.000000
0.191928 0.816861 0.000000
0.281437 0.813107 0.000000
0.351110 0.809049 0.000000
0.411353 0.804685 0.000000
0.466438 0.800015 0.000000
0.516533 0.793698 0.000000
0.561425 0.784390 0.000000
0.603113 0.774380 0.000000
0.641566 0.763760 0.000000
0.677150 0.752560 0.000000
0.709987 0.740902 0.000000
0.740475 0.729000 0.000000
0.768856 0.717098 0.000000
0.798734 0.708278 0.000000
0.834257 0.706355 0.000000
0.869993 0.706752 0.000000
0.906920 0.714382 0.193179
0.935363 0.729244 0.355871
0.956664 0.750271 0.479957
0.972473 0.773587 0.573602
0.983215 0.796506 0.645930
0.988922 0.820706 0.708827
0.000000 0.870970 0.000000
0.000000 0.870512 0.000000
0.000000 0.870237 0.000000
0.000000 0.870024 0.000000
0.000000 0.869841 0.000000
0.000000 0.869657 0.000000
0.000000 0.869291 0.000000
0.000000 0.867521 0.000000
0.000000 0.865263 0.000000
0.000000 0.862577 0.000000
0.144778 0.859464 0.000000
0.256992 0.855863 0.000000
0.334600 0.851926 0.000000
0.399786 0.847684 0.000000
0.458076 0.843290 0.000000
0.511803 0.838621 0.000000
0.560632 0.831022 0.000000
0.605432 0.821897 0.000000
0.647028 0.812222 0.000000
0.685939 0.801999 0.000000
0.722164 0.791379 0.000000
0.756161 0.780514 0.000000
0.788052 0.769741 0.000000
0.818204 0.759121 0.000000
0.848142 0.749783 0.000000
0.881224 0.745418 0.000000
0.912078 0.742611 0.000000
0.943206 0.750149 0.260349
0.965026 0.764920 0.418067
0.980072 0.783810 0.532250
0.989593 0.803769 0.617609
0.994598 0.824796 0.686976
0.000000 0.908141 0.000000
0.000000 0.908019 0.000000
0.000000 0.908110 0.000000
0.000000 0.908171 0.000000
0.000000 0.908232 0.000000
0.000000 0.908293 0.000000
0.000000 0.908171 0.000000
0.000000 0.906920 0.000000
0.000000 0.904845 0.000000
0.000000 0.902342 0.000000
0.030213 0.899413 0.000000
0.224918 0.896086 0.000000
0.313176 0.892424 0.000000
0.384192 0.888457 0.000000
0.446326 0.884306 0.000000
0.503014 0.880003 0.000000
0.555840 0.875120 0.000000
0.603784 0.867033 0.000000
0.648585 0.858488 0.000000
0.690669 0.849454 0.000000
0.730220 0.840085 0.000000
0.767514 0.830411 0.000000
0.802701 0.821012 0.000000
0.836301 0.811582 0.000000
0.868437 0.802182 0.000000
0.897551 0.791714 0.000000
0.926818 0.783993 0.000000
0.951385 0.778347 0.116915
0.973999 0.784787 0.336431
0.988312 0.797940 0.480964
0.996460 0.813993 0.584741
1.000000 0.831601 0.663478
0.000000 0.942443 0.000000
0.000000 0.942412 0.000000
0.000000 0.942473 0.000000
0.000000 0.942809 0.000000
0.000000 0.942931 0.000000
0.000000 0.942840 0.000000
0.000000 0.942443 0.000000
0.000000 0.941283 0.000000
0.000000 0.938903 0.000000
0.000000 0.936126 0.000000
0.000000 0.932952 0.000000
0.180392 0.929503 0.000000
0.285191 0.925780 0.000000
0.362432 0.921874 0.000000
0.428473 0.917845 0.000000
0.487953 0.913695 0.000000
0.543145 0.909422 0.000000
0.594232 0.903685 0.000000
0.641627 0.896178 0.000000
0.686213 0.888334 0.000000
0.728389 0.880156 0.000000
0.768215 0.872007 0.000000
0.806241 0.863859 0.000000
0.842679 0.855680 0.000000
0.877775 0.847501 0.000000
0.911528 0.839384 0.000000
0.938842 0.827268 0.000000
0.963317 0.816129 0.000000
0.980743 0.808255 0.213107
0.994690 0.812985 0.405219
1.000000 0.824216 0.536706
1.000000 0.838407 0.631189
0.000000 0.969574 0.000000
0.000000 0.969604 0.000000
0.000000 0.969726 0.000000
0.000000 0.970062 0.000000
0.000000 0.970581 0.000000
0.000000 0.970764 0.000000
0.000000 0.970733 0.000000
0.000000 0.970245 0.000000
0.000000 0.968353 0.000000
0.000000 0.966125 0.000000
0.000000 0.963561 0.000000
0.111299 0.960723 0.000000
0.251408 0.957580 0.000000
0.337896 0.954223 0.000000
0.408667 0.950622 0.000000
