其他预设/【233】日式怀旧街道调色预设208款/1.3D LUT预设（视频调色-PR-AE-PS-FCPX-达芬奇用）/2.富士胶片风-日式城市街拍预设/JA – Chrome 5 (Classic Chrome).cube
# Created by Adobe Lightroom plugin Export LUT (1.17.0)
# www.johnrellis.com/lightroom/exportlut.htm
# Preset: JA – Chrome 5 (Classic Chrome)
# Color profile: /Library/Application Support/Adobe/Color/Profiles/Recommended/AdobeRGB1998.icc
LUT_3D_SIZE 32
0.084840 0.084779 0.084474
0.084840 0.084779 0.084474
0.084840 0.084779 0.084474
0.084840 0.084779 0.084474
0.096956 0.083528 0.084504
0.122683 0.080507 0.084718
0.144991 0.076692 0.084291
0.167666 0.072450 0.084230
0.190524 0.065980 0.084382
0.217075 0.054139 0.083803
0.254887 0.034180 0.081147
0.311589 0.015198 0.073915
0.387366 0.000000 0.058717
0.468666 0.017151 0.005035
0.539696 0.066529 0.000000
0.600580 0.096864 0.000000
0.653254 0.121401 0.000000
0.700099 0.144320 0.000000
0.741360 0.164767 0.000000
0.782101 0.183902 0.000000
0.823514 0.202182 0.000000
0.861448 0.219120 0.000000
0.895567 0.234073 0.000000
0.926085 0.246799 0.000000
0.953094 0.257572 0.000000
0.977081 0.267247 0.000000
0.998291 0.275608 0.000000
1.000000 0.282536 0.000000
1.000000 0.288396 0.000000
1.000000 0.293767 0.000000
1.000000 0.298283 0.000000
1.000000 0.301122 0.000000
0.084840 0.084779 0.084474
0.084840 0.084779 0.084474
0.084840 0.084779 0.084474
0.084840 0.084779 0.084474
0.097536 0.083742 0.084474
0.123201 0.080385 0.084413
0.145174 0.076967 0.084260
0.167666 0.072450 0.084230
0.190555 0.065980 0.084077
0.217014 0.056855 0.083742
0.255436 0.048829 0.080110
0.312139 0.038453 0.072511
0.387884 0.036103 0.053864
0.467536 0.060456 0.001801
0.538811 0.084779 0.000000
0.599542 0.109468 0.000000
0.652125 0.132113 0.000000
0.698970 0.152926 0.000000
0.740169 0.172000 0.000000
0.781033 0.190372 0.000000
0.821958 0.207889 0.000000
0.859586 0.223819 0.000000
0.893706 0.238132 0.000000
0.924285 0.250187 0.000000
0.951476 0.260777 0.000000
0.975677 0.270329 0.000000
0.997070 0.278233 0.000000
1.000000 0.285252 0.000000
1.000000 0.291142 0.000000
1.000000 0.296208 0.000000
1.000000 0.300572 0.000000
1.000000 0.303441 0.000000
0.084840 0.084779 0.084474
0.084840 0.084779 0.084474
0.084840 0.084779 0.084474
0.084840 0.084779 0.084474
0.098787 0.083467 0.084443
0.123659 0.080232 0.084413
0.145541 0.076844 0.084260
0.167666 0.072053 0.084260
0.190524 0.066407 0.084047
0.218051 0.064515 0.082033
0.256901 0.062959 0.078035
0.314092 0.062287 0.070253
0.389044 0.067659 0.049470
0.468208 0.084016 0.000000
0.538903 0.103639 0.000000
0.599573 0.125338 0.000000
0.652125 0.145480 0.000000
0.698695 0.164431 0.000000
0.740047 0.182101 0.000000
0.781064 0.199374 0.000000
0.821622 0.215702 0.000000
0.859037 0.230869 0.000000
0.893004 0.244022 0.000000
0.923583 0.255924 0.000000
0.950835 0.266239 0.000000
0.975036 0.274876 0.000000
0.996521 0.282658 0.000000
1.000000 0.289433 0.000000
1.000000 0.294865 0.000000
1.000000 0.299748 0.000000
1.000000 0.303838 0.000000
1.000000 0.306645 0.000000
0.084840 0.084779 0.084474
0.084840 0.084779 0.084474
0.084840 0.084779 0.084474
0.084840 0.084779 0.084474
0.101503 0.083589 0.084047
0.125643 0.081727 0.083894
0.147280 0.080171 0.083284
0.169772 0.079316 0.082368
0.193240 0.079713 0.080751
0.221317 0.080781 0.078340
0.260533 0.084413 0.074281
0.317876 0.090059 0.066224
0.392248 0.102022 0.039246
0.470924 0.118441 0.000000
0.540978 0.135622 0.000000
0.600977 0.153933 0.000000
0.653162 0.171054 0.000000
0.699397 0.187320 0.000000
0.740352 0.201572 0.000000
0.781521 0.217288 0.000000
0.821317 0.231937 0.000000
0.858213 0.244968 0.000000
0.892149 0.257298 0.000000
0.922820 0.268254 0.000000
0.950378 0.277470 0.000000
0.974853 0.285588 0.000000
0.996521 0.292699 0.000000
1.000000 0.298833 0.000000
1.000000 0.303838 0.000000
1.000000 0.307958 0.000000
1.000000 0.311437 0.000000
1.000000 0.313909 0.000000
0.082734 0.104250 0.082948
0.082582 0.105013 0.082856
0.082033 0.106081 0.082765
0.082460 0.107729 0.082582
0.103273 0.108003 0.081910
0.126436 0.106050 0.081849
0.148714 0.104707 0.080903
0.171206 0.103548 0.079683
0.194736 0.103731 0.078279
0.223148 0.106264 0.075898
0.263584 0.111696 0.071077
0.322362 0.122621 0.060426
0.397070 0.138491 0.020874
0.475257 0.157046 0.000000
0.544518 0.174258 0.000000
0.603998 0.190036 0.000000
0.655726 0.204318 0.000000
0.701717 0.218021 0.000000
0.742336 0.230167 0.000000
0.783993 0.243229 0.000000
0.822843 0.255619 0.000000
0.859159 0.266911 0.000000
0.892607 0.277623 0.000000
0.923064 0.286717 0.000000
0.950439 0.294957 0.000000
0.974823 0.301793 0.000000
0.996399 0.307836 0.000000
1.000000 0.312718 0.000000
1.000000 0.316716 0.000000
1.000000 0.320043 0.000000
1.000000 0.322728 0.000000
1.000000 0.325017 0.000000
0.079225 0.127840 0.080446
0.079103 0.128237 0.080385
0.079438 0.128603 0.080323
0.079011 0.130007 0.080446
0.100557 0.129458 0.079530
0.127321 0.129366 0.078798
0.149569 0.126894 0.078309
0.172793 0.129702 0.076783
0.197086 0.130922 0.074739
0.227054 0.134127 0.071748
0.269627 0.142550 0.065736
0.330907 0.157687 0.045960
0.406134 0.177981 0.000000
0.483528 0.198062 0.000000
0.550896 0.215061 0.000000
0.609216 0.229252 0.000000
0.660212 0.241886 0.000000
0.705379 0.253208 0.000000
0.747097 0.264103 0.000000
0.787686 0.274601 0.000000
0.825956 0.284794 0.000000
0.861875 0.294469 0.000000
0.907897 0.309514 0.000000
0.936614 0.316747 0.000000
0.961975 0.322728 0.000000
0.984375 0.327367 0.000000
1.000000 0.331304 0.000000
1.000000 0.334173 0.000000
1.000000 0.336645 0.000000
1.000000 0.338506 0.000000
1.000000 0.340093 0.000000
1.000000 0.341253 0.000000
0.075257 0.150393 0.077516
0.075135 0.150729 0.077455
0.075044 0.151217 0.077028
0.076387 0.152071 0.077180
0.100404 0.151431 0.076570
0.126864 0.150759 0.075593
0.152193 0.151949 0.074617
0.174838 0.149447 0.073548
0.200381 0.154116 0.070924
0.234836 0.164614 0.064912
0.283330 0.179538 0.050965
0.349706 0.200381 0.006287
0.426368 0.224582 0.000000
0.500755 0.245457 0.000000
0.564935 0.261448 0.000000
0.620478 0.274144 0.000000
0.669520 0.284581 0.000000
0.713527 0.293156 0.000000
0.756283 0.302770 0.000000
0.796445 0.311620 0.000000
0.834806 0.320592 0.000000
0.870939 0.328405 0.000000
0.904295 0.335912 0.000000
0.934264 0.341894 0.000000
0.960693 0.347021 0.000000
0.983551 0.350683 0.000000
1.000000 0.353521 0.000000
1.000000 0.355352 0.000000
1.000000 0.356420 0.000000
1.000000 0.357061 0.000000
1.000000 0.357610 0.000000
1.000000 0.357671 0.000000
0.070192 0.171725 0.073640
0.070069 0.172030 0.073579
0.069947 0.172305 0.073518
0.078798 0.172457 0.073243
0.101869 0.171939 0.072602
0.126925 0.170932 0.072053
0.151278 0.171695 0.070497
0.176608 0.173922 0.068421
0.200565 0.172702 0.066987
0.235294 0.184054 0.060212
0.286992 0.205783 0.030976
0.361120 0.239628 0.000000
0.440101 0.269688 0.000000
0.511955 0.291539 0.000000
0.573938 0.307103 0.000000
0.627619 0.317998 0.000000
0.675502 0.326940 0.000000
0.720729 0.335119 0.000000
0.761593 0.342260 0.000000
0.800381 0.348974 0.000000
0.837613 0.355627 0.000000
0.872862 0.361852 0.000000
0.905394 0.367041 0.000000
0.934783 0.371740 0.000000
0.960754 0.374945 0.000000
0.983398 0.377264 0.000000
1.000000 0.378607 0.000000
1.000000 0.379065 0.000000
1.000000 0.379004 0.000000
1.000000 0.378515 0.000000
1.000000 0.377752 0.000000
1.000000 0.376928 0.000000
0.063386 0.193606 0.068635
0.062623 0.193881 0.068971
0.069581 0.193942 0.068391
0.085176 0.193576 0.068025
0.106264 0.193271 0.067659
0.129458 0.192477 0.066712
0.153414 0.192630 0.065126
0.178317 0.196262 0.062287
0.206302 0.201236 0.057862
0.235172 0.204318 0.050172
0.288334 0.227909 0.011139
0.361700 0.264012 0.000000
0.445563 0.303807 0.000000
0.523339 0.337102 0.000000
0.585077 0.355077 0.000000
0.636805 0.364599 0.000000
0.685908 0.373053 0.000000
0.728847 0.378973 0.000000
0.767910 0.383368 0.000000
0.805356 0.387549 0.000000
0.841459 0.391821 0.000000
0.875731 0.396063 0.000000
0.907378 0.399512 0.000000
0.936034 0.402411 0.000000
0.961486 0.404456 0.000000
0.983673 0.405249 0.000000
1.000000 0.405737 0.000000
1.000000 0.405371 0.000000
1.000000 0.403845 0.000000
1.000000 0.402106 0.000000
1.000000 0.400244 0.000000
1.000000 0.398291 0.000000
0.061219 0.220279 0.064149
0.067964 0.220127 0.063600
0.075868 0.220218 0.063752
0.092134 0.220096 0.062745
0.112795 0.219974 0.061372
0.135378 0.219638 0.060578
0.159274 0.219150 0.058991
0.184695 0.223087 0.052247
0.214267 0.230869 0.040742
0.248783 0.240909 0.020630
0.286259 0.249638 0.000000
0.361944 0.288090 0.000000
0.444526 0.329320 0.000000
0.521538 0.363531 0.000000
0.588891 0.389929 0.000000
0.648951 0.411231 0.000000
0.696498 0.418891 0.000000
0.737362 0.422065 0.000000
0.775204 0.424353 0.000000
0.811429 0.426886 0.000000
0.846250 0.429328 0.000000
0.879118 0.431464 0.000000
0.909483 0.433173 0.000000
0.937102 0.434241 0.000000
0.961822 0.434791 0.000000
0.983581 0.434577 0.000000
1.000000 0.433661 0.000000
1.000000 0.432319 0.000000
1.000000 0.430488 0.000000
1.000000 0.427710 0.000000
1.000000 0.424689 0.000000
1.000000 0.421607 0.000000
0.058808 0.256107 0.062013
0.067536 0.256107 0.061799
0.077211 0.256260 0.060975
0.094728 0.256260 0.060304
0.117586 0.256138 0.058778
0.142123 0.256504 0.054841
0.168124 0.256809 0.049928
0.194736 0.257420 0.042847
0.227085 0.268254 0.024323
0.265721 0.282383 0.000000
0.311376 0.299596 0.000000
0.356817 0.312016 0.000000
0.444831 0.356359 0.000000
0.522820 0.392584 0.000000
0.590143 0.419226 0.000000
0.648554 0.439185 0.000000
0.700160 0.454841 0.000000
0.744930 0.466041 0.000000
0.781521 0.466468 0.000000
0.816739 0.467109 0.000000
0.850614 0.467994 0.000000
0.882536 0.468360 0.000000
0.912139 0.468635 0.000000
0.939055 0.468269 0.000000
0.963104 0.467384 0.000000
0.984314 0.465614 0.000000
1.000000 0.463264 0.000000
1.000000 0.460578 0.000000
1.000000 0.457649 0.000000
1.000000 0.454536 0.000000
1.000000 0.450507 0.000000
1.000000 0.446387 0.000000
0.039857 0.305669 0.046174
0.059937 0.305821 0.046357
0.073457 0.305943 0.044129
0.095918 0.306126 0.041749
0.122805 0.306584 0.036561
0.150942 0.306950 0.030182
0.180850 0.307683 0.019532
0.211185 0.308446 0.008423
0.244358 0.314214 0.000000
0.285679 0.330968 0.000000
0.334325 0.350774 0.000000
0.391669 0.374578 0.000000
0.461494 0.403693 0.000000
0.541070 0.435767 0.000000
0.605402 0.460121 0.000000
0.662013 0.478096 0.000000
0.711574 0.491646 0.000000
0.755917 0.502220 0.000000
0.796841 0.511589 0.000000
0.833585 0.516472 0.000000
0.865110 0.514458 0.000000
0.894774 0.512383 0.000000
0.922087 0.509972 0.000000
0.946929 0.507256 0.000000
0.969146 0.504082 0.000000
0.988891 0.500389 0.000000
1.000000 0.496223 0.000000
1.000000 0.491859 0.000000
1.000000 0.487495 0.000000
1.000000 0.483070 0.000000
1.000000 0.478462 0.000000
1.000000 0.473121 0.000000
0.000000 0.370855 0.000000
0.008148 0.370916 0.000000
0.055329 0.370764 0.000000
0.091493 0.370520 0.000000
0.125948 0.370214 0.000000
0.160372 0.370123 0.000000
0.194858 0.370123 0.000000
0.229252 0.370306 0.000000
0.265568 0.372290 0.000000
0.308415 0.386938 0.000000
0.359899 0.409155 0.000000
0.417029 0.432197 0.000000
0.478614 0.455299 0.000000
0.535637 0.470161 0.000000
0.601678 0.488197 0.000000
0.657984 0.506126 0.000000
0.707546 0.519066 0.000000
0.751614 0.528832 0.000000
0.792569 0.537346 0.000000
0.831296 0.545342 0.000000
0.867399 0.552575 0.000000
0.897673 0.552117 0.000000
0.924071 0.548058 0.000000
0.948150 0.543633 0.000000
0.969787 0.538842 0.000000
0.988983 0.533654 0.000000
1.000000 0.528069 0.000000
1.000000 0.522576 0.000000
1.000000 0.516930 0.000000
1.000000 0.511345 0.000000
1.000000 0.505791 0.000000
1.000000 0.500145 0.000000
0.000000 0.432044 0.000000
0.000000 0.431952 0.000000
0.000000 0.432013 0.000000
0.080140 0.432044 0.000000
0.124300 0.432380 0.000000
0.165805 0.432654 0.000000
0.204990 0.433234 0.000000
0.244114 0.434028 0.000000
0.283421 0.435035 0.000000
0.323217 0.436316 0.000000
0.371893 0.455360 0.000000
0.425330 0.475257 0.000000
0.482155 0.494942 0.000000
0.541863 0.513970 0.000000
0.597375 0.526299 0.000000
0.653285 0.534203 0.000000
0.702510 0.546502 0.000000
0.746670 0.555596 0.000000
0.787808 0.563409 0.000000
0.826688 0.570794 0.000000
0.863157 0.577386 0.000000
0.896513 0.583001 0.000000
0.926360 0.587243 0.000000
0.949859 0.581506 0.000000
0.970825 0.575097 0.000000
0.989502 0.568261 0.000000
1.000000 0.561364 0.000000
1.000000 0.554406 0.000000
1.000000 0.547539 0.000000
1.000000 0.540856 0.000000
1.000000 0.534203 0.000000
1.000000 0.527611 0.000000
0.000000 0.492805 0.000000
0.000000 0.492775 0.000000
0.000000 0.492500 0.000000
0.057465 0.492042 0.000000
0.119142 0.491493 0.000000
0.166201 0.491005 0.000000
0.209689 0.490425 0.000000
0.251499 0.489998 0.000000
0.292851 0.489906 0.000000
0.334569 0.489815 0.000000
0.377478 0.495247 0.000000
0.427710 0.512596 0.000000
0.481147 0.529992 0.000000
0.537041 0.546990 0.000000
0.594934 0.563226 0.000000
0.649287 0.574487 0.000000
0.696284 0.574792 0.000000
0.741695 0.582940 0.000000
0.782956 0.590326 0.000000
0.822141 0.596948 0.000000
0.858762 0.602899 0.000000
0.892485 0.607782 0.000000
0.922637 0.611353 0.000000
0.949310 0.613489 0.000000
0.971923 0.612329 0.000000
0.990051 0.603967 0.000000
1.000000 0.595605 0.000000
1.000000 0.587427 0.000000
1.000000 0.579339 0.000000
1.000000 0.571466 0.000000
1.000000 0.563806 0.000000
1.000000 0.556146 0.000000
0.000000 0.543389 0.000000
0.000000 0.543389 0.000000
0.000000 0.543236 0.000000
0.000000 0.542870 0.000000
0.108705 0.542138 0.000000
0.162539 0.541527 0.000000
0.210086 0.540673 0.000000
0.254154 0.540032 0.000000
0.297704 0.539269 0.000000
0.339910 0.538415 0.000000
0.382116 0.537469 0.000000
0.427588 0.546471 0.000000
0.477577 0.561456 0.000000
0.529717 0.576410 0.000000
0.583886 0.591089 0.000000
0.639429 0.605066 0.000000
0.693019 0.615717 0.000000
0.733333 0.611078 0.000000
0.777859 0.617487 0.000000
0.817685 0.623926 0.000000
0.854917 0.629511 0.000000
0.889067 0.633906 0.000000
0.919738 0.636835 0.000000
0.946746 0.638361 0.000000
0.970214 0.638453 0.000000
0.990387 0.637293 0.000000
1.000000 0.631098 0.000000
1.000000 0.621485 0.000000
1.000000 0.612055 0.000000
1.000000 0.602899 0.000000
1.000000 0.593896 0.000000
1.000000 0.585138 0.000000
0.000000 0.586084 0.000000
0.000000 0.586053 0.000000
0.000000 0.585748 0.000000
0.000000 0.585321 0.000000
0.094636 0.584558 0.000000
0.155917 0.583703 0.000000
0.205447 0.582757 0.000000
0.252018 0.581598 0.000000
0.296635 0.580438 0.000000
0.339818 0.579187 0.000000
0.382361 0.577996 0.000000
0.424506 0.576532 0.000000
0.471565 0.589441 0.000000
0.521263 0.603204 0.000000
0.572503 0.616724 0.000000
0.624903 0.629419 0.000000
0.678309 0.641749 0.000000
0.732052 0.653285 0.000000
0.768246 0.645777 0.000000
0.812436 0.650721 0.000000
0.850004 0.655879 0.000000
0.884550 0.659815 0.000000
0.915709 0.662226 0.000000
0.943145 0.663233 0.000000
0.967102 0.662562 0.000000
0.987701 0.660731 0.000000
1.000000 0.657954 0.000000
1.000000 0.654597 0.000000
1.000000 0.645167 0.000000
1.000000 0.634730 0.000000
1.000000 0.624659 0.000000
1.000000 0.614740 0.000000
0.000000 0.624659 0.000000
0.000000 0.624659 0.000000
0.000000 0.632959 0.000000
0.000000 0.632380 0.000000
0.076204 0.631525 0.000000
0.148898 0.630274 0.000000
0.202304 0.628931 0.000000
0.250767 0.627314 0.000000
0.296880 0.625696 0.000000
0.341131 0.624048 0.000000
0.384466 0.622309 0.000000
0.426978 0.620172 0.000000
0.470039 0.621607 0.000000
0.517174 0.633875 0.000000
0.565850 0.645960 0.000000
0.615961 0.657862 0.000000
0.667231 0.669612 0.000000
0.719600 0.681147 0.000000
0.772671 0.692439 0.000000
0.805875 0.683070 0.000000
0.848508 0.685786 0.000000
0.883024 0.688685 0.000000
0.914122 0.690211 0.000000
0.941497 0.690120 0.000000
0.965240 0.688441 0.000000
0.985687 0.685573 0.000000
1.000000 0.681666 0.000000
1.000000 0.677363 0.000000
1.000000 0.672694 0.000000
1.000000 0.667079 0.000000
1.000000 0.655818 0.000000
1.000000 0.644770 0.000000
0.000000 0.662318 0.000000
0.000000 0.663233 0.000000
0.000000 0.664149 0.000000
0.000000 0.664607 0.000000
0.035981 0.664515 0.000000
0.137057 0.663783 0.000000
0.194400 0.662623 0.000000
0.244419 0.661097 0.000000
0.291203 0.659632 0.000000
0.335851 0.657893 0.000000
0.379644 0.656001 0.000000
0.422339 0.653986 0.000000
0.464363 0.651575 0.000000
0.508049 0.657008 0.000000
0.554650 0.668452 0.000000
0.602747 0.679927 0.000000
0.652064 0.691310 0.000000
0.702296 0.702541 0.000000
0.753506 0.713649 0.000000
0.805264 0.724575 0.000000
0.836637 0.714565 0.000000
0.877897 0.715236 0.000000
0.909636 0.716396 0.000000
0.937591 0.715938 0.000000
0.961913 0.713710 0.000000
0.982788 0.710201 0.000000
1.000000 0.705653 0.000000
1.000000 0.700587 0.000000
1.000000 0.695186 0.000000
1.000000 0.689540 0.000000
1.000000 0.683680 0.000000
1.000000 0.675349 0.000000
0.000000 0.694911 0.000000
0.000000 0.695766 0.000000
0.000000 0.696498 0.000000
0.000000 0.696895 0.000000
0.000000 0.696803 0.000000
0.123507 0.696223 0.000000
0.185977 0.695064 0.000000
0.237064 0.693751 0.000000
0.284642 0.692287 0.000000
0.330053 0.690669 0.000000
0.374090 0.688960 0.000000
0.417090 0.687007 0.000000
0.459266 0.684718 0.000000
0.500603 0.682124 0.000000
0.545129 0.691524 0.000000
0.591485 0.702602 0.000000
0.638911 0.713558 0.000000
0.687404 0.724483 0.000000
0.736660 0.735225 0.000000
0.786587 0.745785 0.000000
0.836576 0.755886 0.000000
0.865995 0.745174 0.000000
0.905211 0.743160 0.000000
0.933715 0.742245 0.000000
0.958465 0.739528 0.000000
0.979767 0.735348 0.000000
0.998108 0.730098 0.000000
1.000000 0.724300 0.000000
1.000000 0.718166 0.000000
1.000000 0.711818 0.000000
1.000000 0.705226 0.000000
1.000000 0.698421 0.000000
0.000000 0.727199 0.000000
0.000000 0.727993 0.000000
0.000000 0.728664 0.000000
0.000000 0.729091 0.000000
0.000000 0.729000 0.000000
0.108858 0.728389 0.000000
0.175998 0.727352 0.000000
0.229770 0.726070 0.000000
0.278386 0.724636 0.000000
0.324132 0.723079 0.000000
0.368383 0.721492 0.000000
0.411719 0.719631 0.000000
0.454017 0.717433 0.000000
0.495460 0.715084 0.000000
0.537163 0.715053 0.000000
0.581994 0.725826 0.000000
0.628199 0.736721 0.000000
0.675257 0.747585 0.000000
0.723232 0.758297 0.000000
0.771633 0.768734 0.000000
0.820157 0.778744 0.000000
0.868498 0.788083 0.000000
0.895964 0.776394 0.000000
0.931853 0.771298 0.000000
0.957244 0.767697 0.000000
0.978698 0.762722 0.000000
0.997131 0.756619 0.000000
1.000000 0.749966 0.000000
1.000000 0.742977 0.000000
1.000000 0.735744 0.000000
1.000000 0.728359 0.000000
1.000000 0.720729 0.000000
0.000000 0.762966 0.000000
0.000000 0.763210 0.000000
0.000000 0.763424 0.000000
0.000000 0.763302 0.000000
0.000000 0.762936 0.000000
0.089631 0.762173 0.000000
0.166018 0.761166 0.000000
0.221836 0.760098 0.000000
0.271794 0.758907 0.000000
0.318853 0.757565 0.000000
0.363806 0.756191 0.000000
0.407752 0.754574 0.000000
0.450538 0.752590 0.000000
0.492348 0.750423 0.000000
0.533440 0.747890 0.000000
0.575555 0.751827 0.000000
0.620020 0.761929 0.000000
0.665492 0.772000 0.000000
0.711452 0.781827 0.000000
0.757809 0.791318 0.000000
0.804166 0.800320 0.000000
0.850340 0.808652 0.000000
0.895842 0.816220 0.000000
0.921141 0.803525 0.000000
0.952483 0.795193 0.000000
0.975311 0.788632 0.000000
0.994141 0.781949 0.000000
1.000000 0.774594 0.000000
1.000000 0.766964 0.000000
1.000000 0.759060 0.000000
1.000000 0.751003 0.000000
1.000000 0.742763 0.000000
0.000000 0.795102 0.000000
0.000000 0.795438 0.000000
0.000000 0.795682 0.000000
0.000000 0.795560 0.000000
0.000000 0.795193 0.000000
0.065187 0.794461 0.000000
0.154604 0.793515 0.000000
0.213169 0.792416 0.000000
0.264622 0.791226 0.000000
0.312474 0.789944 0.000000
0.358160 0.788602 0.000000
0.402380 0.787076 0.000000
0.445106 0.785306 0.000000
0.487251 0.783322 0.000000
0.528618 0.781155 0.000000
0.569421 0.778744 0.000000
0.612116 0.786099 0.000000
0.655940 0.795468 0.000000
0.700160 0.804593 0.000000
0.744808 0.813321 0.000000
0.789425 0.821530 0.000000
0.833768 0.829099 0.000000
0.877562 0.835935 0.000000
0.920409 0.841947 0.000000
0.943481 0.828214 0.000000
0.969848 0.816342 0.000000
0.990631 0.807095 0.000000
1.000000 0.799252 0.000000
1.000000 0.790951 0.000000
1.000000 0.782437 0.000000
1.000000 0.773861 0.000000
1.000000 0.765072 0.000000
0.000000 0.829892 0.000000
0.000000 0.830228 0.000000
0.000000 0.830350 0.000000
0.000000 0.830137 0.000000
0.000000 0.829648 0.000000
0.002075 0.828824 0.000000
0.143252 0.827726 0.000000
0.205631 0.826474 0.000000
0.258824 0.825010 0.000000
0.307042 0.823514 0.000000
0.352758 0.821927 0.000000
0.397040 0.820279 0.000000
0.440284 0.818387 0.000000
0.482490 0.816281 0.000000
0.523766 0.813901 0.000000
0.564416 0.811368 0.000000
0.604913 0.810178 0.000000
0.646784 0.818357 0.000000
0.689326 0.826474 0.000000
0.732235 0.834287 0.000000
0.775082 0.841611 0.000000
0.817563 0.848325 0.000000
0.859464 0.854185 0.000000
0.900450 0.859159 0.000000
0.940337 0.863249 0.000000
0.963714 0.850950 0.000000
0.985748 0.836118 0.000000
1.000000 0.824460 0.000000
1.000000 0.815549 0.000000
1.000000 0.806394 0.000000
1.000000 0.797208 0.000000
1.000000 0.787900 0.000000
0.000000 0.860655 0.000000
0.000000 0.861021 0.000000
0.000000 0.861143 0.000000
0.000000 0.860990 0.000000
0.000000 0.860472 0.000000
0.000000 0.859739 0.000000
0.131319 0.858824 0.000000
0.197848 0.857694 0.000000
0.251835 0.856535 0.000000
0.300908 0.855283 0.000000
0.347356 0.853941 0.000000
0.392004 0.852476 0.000000
0.435370 0.850889 0.000000
0.477852 0.849088 0.000000
0.519341 0.847013 0.000000
0.560296 0.844785 0.000000
0.600580 0.842435 0.000000
0.640925 0.844266 0.000000
0.681697 0.851133 0.000000
0.722835 0.857725 0.000000
0.763760 0.863798 0.000000
0.804410 0.869261 0.000000
0.844419 0.874022 0.000000
0.883574 0.877958 0.000000
0.921843 0.881102 0.000000
0.959045 0.883543 0.000000
0.981537 0.871580 0.000000
1.000000 0.854612 0.000000
1.000000 0.840818 0.000000
1.000000 0.831083 0.000000
1.000000 0.821317 0.000000
1.000000 0.811429 0.000000
0.000000 0.891417 0.000000
0.000000 0.891630 0.000000
0.000000 0.891600 0.000000
0.000000 0.891325 0.000000
0.000000 0.890745 0.000000
0.000000 0.890013 0.000000
0.122011 0.889067 0.000000
0.191104 0.887999 0.000000
0.246250 0.886900 0.000000
0.295415 0.885740 0.000000
0.341985 0.884489 0.000000
0.386969 0.883207 0.000000
0.430274 0.881804 0.000000
0.472694 0.880156 0.000000
0.514214 0.878264 0.000000
0.555016 0.876188 0.000000
0.595361 0.873960 0.000000
0.635187 0.871672 0.000000
0.674556 0.875334 0.000000
0.713832 0.880522 0.000000
0.752956 0.885313 0.000000
0.791806 0.889494 0.000000
0.830045 0.893034 0.000000
0.867552 0.895964 0.000000
0.904204 0.898222 0.000000
0.939971 0.899870 0.000000
0.974731 0.900969 0.000000
0.996735 0.889769 0.000000
1.000000 0.871092 0.000000
1.000000 0.855467 0.000000
1.000000 0.845151 0.000000
1.000000 0.834714 0.000000
0.000000 0.919707 0.000000
0.000000 0.919799 0.000000
0.000000 0.919768 0.000000
0.000000 0.919554 0.000000
0.000000 0.919158 0.000000
0.000000 0.918700 0.000000
0.119051 0.918242 0.000000
0.188449 0.917754 0.000000
0.243412 0.917266 0.000000
0.293095 0.916747 0.000000
0.339483 0.916106 0.000000
0.384283 0.915343 0.000000
0.427588 0.914397 0.000000
0.469978 0.913146 0.000000
0.511528 0.911559 0.000000
0.552209 0.909728 0.000000
0.592554 0.907622 0.000000
0.632197 0.905486 0.000000
0.671351 0.903777 0.000000
0.708919 0.907225 0.000000
0.746212 0.910307 0.000000
0.783230 0.912932 0.000000
0.819669 0.915038 0.000000
0.855436 0.916655 0.000000
0.890471 0.917784 0.000000
0.924651 0.918425 0.000000
0.957885 0.918639 0.000000
0.990143 0.918486 0.000000
1.000000 0.907988 0.000000
1.000000 0.887877 0.000000
1.000000 0.870359 0.000000
1.000000 0.859190 0.000000
0.000000 0.948760 0.000000
0.000000 0.948760 0.000000
0.000000 0.948638 0.000000
0.000000 0.948363 0.000000
0.000000 0.947906 0.000000
0.000000 0.947326 0.000000
0.129824 0.946685 0.000000
0.192996 0.945983 0.000000
0.245548 0.945190 0.000000
0.293065 0.944366 0.000000
0.338140 0.943389 0.000000
0.381750 0.942321 0.000000
0.424048 0.941070 0.000000
0.465553 0.939635 0.000000
0.506126 0.938018 0.000000
