其他预设/【233】日式怀旧街道调色预设208款/1.3D LUT预设（视频调色-PR-AE-PS-FCPX-达芬奇用）/2.富士胶片风-日式城市街拍预设/JA – Gritty Contrast 2 (Classic Chrome).cube
# Created by Adobe Lightroom plugin Export LUT (1.17.0)
# www.johnrellis.com/lightroom/exportlut.htm
# Preset: JA – Gritty Contrast 2 (Classic Chrome)
# Color profile: /Library/Application Support/Adobe/Color/Profiles/Recommended/AdobeRGB1998.icc
LUT_3D_SIZE 5
DOMAIN_MIN 0.000000 0.000000 0.000000
DOMAIN_MAX 0.903226 0.903226 0.903226
0.070192 0.076143 0.083955
0.183322 0.110567 0.139773
0.522484 0.114900 0.208377
0.785794 0.342504 0.398901
0.972961 0.614191 0.628321
0.092592 0.173678 0.112734
0.221469 0.187747 0.117342
0.594018 0.269200 0.207004
0.817838 0.410590 0.414496
0.975097 0.633356 0.630701
0.206149 0.451667 0.007691
0.337469 0.452888 0.000000
0.646815 0.496284 0.064149
0.897826 0.595727 0.444648
0.981720 0.702449 0.646357
0.327337 0.699672 0.000000
0.422431 0.695644 0.000000
0.665644 0.716335 0.000000
0.919402 0.722957 0.321324
0.985412 0.790555 0.659297
0.509331 0.936248 0.349981
0.565789 0.934081 0.344152
0.730465 0.926787 0.325231
0.927123 0.918029 0.434546
0.995850 0.854734 0.610590
0.098909 0.117739 0.245884
0.178836 0.127596 0.220798
0.468025 0.189425 0.276616
0.798062 0.368475 0.407172
0.974945 0.624964 0.633845
0.059022 0.190585 0.225742
0.192844 0.206088 0.223514
0.545129 0.292332 0.294377
0.826474 0.427771 0.419104
0.977142 0.644739 0.637690
0.046357 0.458595 0.228855
0.284428 0.450721 0.212528
0.628687 0.500969 0.206546
0.902190 0.604761 0.447883
0.982238 0.707332 0.649409
0.293431 0.704677 0.189029
0.402228 0.701289 0.157656
0.661707 0.722927 0.000000
0.919341 0.726345 0.314580
0.985626 0.792294 0.660273
0.485115 0.940459 0.362341
0.544640 0.938231 0.356603
0.713771 0.929137 0.332677
0.920989 0.919371 0.433845
0.996002 0.855772 0.608576
0.000000 0.181003 0.561395
0.248875 0.246769 0.546960
0.484108 0.252537 0.528191
0.739193 0.441810 0.556542
0.956176 0.664637 0.697749
0.000000 0.259281 0.548608
0.216983 0.282444 0.531304
0.484932 0.343694 0.518181
0.725612 0.487892 0.559747
0.961975 0.675410 0.695705
0.000000 0.479500 0.536065
0.215000 0.477546 0.521202
0.545037 0.541314 0.540795
0.794400 0.623468 0.606958
0.973724 0.726558 0.696925
0.239384 0.728725 0.543145
0.390692 0.719203 0.544396
0.592432 0.701778 0.528374
0.874907 0.764706 0.587152
0.985199 0.795499 0.674739
0.474128 0.946227 0.559594
0.543542 0.941863 0.564172
0.673335 0.937072 0.498329
0.891875 0.927062 0.435126
0.996307 0.857786 0.604456
0.298528 0.381537 0.791470
0.391791 0.425666 0.784756
0.584771 0.506676 0.770321
0.749783 0.514702 0.759579
0.958068 0.700099 0.807370
0.233494 0.394873 0.787472
0.390875 0.450660 0.778531
0.597467 0.544640 0.764065
0.752041 0.551263 0.756191
0.955535 0.728359 0.812985
0.258946 0.537224 0.782589
0.382818 0.554498 0.773800
0.584527 0.596033 0.749081
0.762325 0.646326 0.750271
0.948455 0.796201 0.827054
0.279698 0.723232 0.774014
0.397284 0.726711 0.767758
0.586328 0.734188 0.750698
0.808194 0.790890 0.772671
0.949493 0.872496 0.852934
0.440742 0.954314 0.800961
0.519341 0.950256 0.798550
0.701137 0.937957 0.795285
0.856596 0.927581 0.783505
0.963897 0.904936 0.807889
0.632715 0.662348 0.938994
0.635645 0.661677 0.939025
0.786831 0.765652 0.931456
0.851957 0.780270 0.929931
0.937011 0.795163 0.927489
0.619989 0.664637 0.939086
0.626184 0.664363 0.938964
0.781460 0.767147 0.931426
0.859098 0.798398 0.928740
0.937316 0.811307 0.926604
0.601526 0.698909 0.937621
0.602533 0.694057 0.937865
0.742519 0.757015 0.932433
0.876890 0.843565 0.925750
0.938262 0.852018 0.924437
0.584253 0.777188 0.933440
0.584771 0.774929 0.933562
0.693996 0.797391 0.930846
0.870115 0.866514 0.924285
0.939879 0.897337 0.922606
0.554589 0.889860 0.926360
0.554253 0.891020 0.926299
0.691890 0.902129 0.923949
0.870726 0.921080 0.921019
0.942321 0.933013 0.922667
