其他预设/【233】日式怀旧街道调色预设208款/1.3D LUT预设（视频调色-PR-AE-PS-FCPX-达芬奇用）/2.富士胶片风-日式城市街拍预设/JA – Static Pop 3 (Classic Chrome).cube
# Created by Adobe Lightroom plugin Export LUT (1.17.0)
# www.johnrellis.com/lightroom/exportlut.htm
# Preset: JA – Static Pop 3 (Classic Chrome)
# Color profile: /Library/Application Support/Adobe/Color/Profiles/Recommended/AdobeRGB1998.icc
LUT_3D_SIZE 8
DOMAIN_MIN 0.000000 0.000000 0.000000
DOMAIN_MAX 0.903226 0.903226 0.903226
0.074311 0.079377 0.084535
0.100252 0.074739 0.085359
0.232547 0.051392 0.079103
0.485115 0.000000 0.000000
0.715694 0.033631 0.000000
0.912749 0.076234 0.000000
1.000000 0.087861 0.000000
1.000000 0.099123 0.000000
0.073365 0.093935 0.084230
0.095552 0.096071 0.084047
0.221073 0.109957 0.075959
0.466011 0.138277 0.000000
0.698085 0.158236 0.000000
0.887694 0.166598 0.000000
1.000000 0.165743 0.000000
1.000000 0.163119 0.000000
0.046021 0.169711 0.076875
0.097047 0.174624 0.075685
0.195315 0.183322 0.067414
0.465888 0.278538 0.000000
0.699245 0.306279 0.000000
0.890806 0.308751 0.000000
1.000000 0.304631 0.000000
1.000000 0.288762 0.000000
0.000000 0.359716 0.032959
0.016480 0.361578 0.000000
0.256138 0.375647 0.000000
0.435096 0.396582 0.000000
0.707424 0.463386 0.000000
0.904295 0.465095 0.000000
1.000000 0.447181 0.000000
1.000000 0.418524 0.000000
0.000000 0.585870 0.000000
0.000000 0.586725 0.000000
0.258091 0.590356 0.000000
0.468360 0.588067 0.000000
0.628595 0.563287 0.000000
0.857328 0.594232 0.000000
1.000000 0.589075 0.000000
1.000000 0.550561 0.000000
0.000000 0.759152 0.000000
0.000000 0.769589 0.000000
0.197116 0.767941 0.000000
0.458900 0.767269 0.000000
0.650050 0.744594 0.000000
0.812863 0.718898 0.000000
1.000000 0.729519 0.000000
1.000000 0.687251 0.000000
0.000000 0.934783 0.000000
0.000000 0.937285 0.000000
0.085542 0.932097 0.000000
0.429633 0.927794 0.000000
0.644739 0.917754 0.000000
0.831052 0.898222 0.000000
0.990784 0.872709 0.000000
1.000000 0.819821 0.000000
0.000000 1.000000 0.117220
0.000000 1.000000 0.090120
0.141512 1.000000 0.219974
0.415656 1.000000 0.191958
0.604334 1.000000 0.031342
0.788907 1.000000 0.000000
0.960662 1.000000 0.000000
1.000000 0.970611 0.000000
0.075563 0.082460 0.096101
0.089693 0.076387 0.099947
0.201450 0.024231 0.094545
0.442603 0.000000 0.067140
0.681880 0.000000 0.000000
0.871977 0.000000 0.000000
1.000000 0.000000 0.000000
1.000000 0.000000 0.000000
0.073121 0.090272 0.098116
0.087892 0.093660 0.099794
0.196414 0.094636 0.094179
0.437354 0.103182 0.060090
0.674983 0.110353 0.000000
0.861143 0.111788 0.000000
1.000000 0.115724 0.000000
1.000000 0.131411 0.000000
0.031067 0.160739 0.110506
0.073274 0.167514 0.098756
0.185306 0.176059 0.088808
0.438575 0.250828 0.000000
0.670741 0.276249 0.000000
0.860624 0.278325 0.000000
1.000000 0.276280 0.000000
1.000000 0.268742 0.000000
0.000000 0.342321 0.133669
0.000000 0.348333 0.078126
0.231083 0.365209 0.000000
0.401465 0.367559 0.000000
0.663996 0.429633 0.000000
0.859678 0.433326 0.000000
1.000000 0.425147 0.000000
1.000000 0.403693 0.000000
0.000000 0.577600 0.136019
0.000000 0.578363 0.000000
0.218418 0.578637 0.000000
0.444251 0.571130 0.000000
0.604242 0.542992 0.000000
0.833066 0.574487 0.000000
1.000000 0.576135 0.000000
1.000000 0.541558 0.000000
0.000000 0.745815 0.115114
0.000000 0.747860 0.000000
0.135683 0.747768 0.000000
0.433631 0.750027 0.000000
0.633356 0.732815 0.000000
0.802243 0.710506 0.000000
1.000000 0.722652 0.000000
1.000000 0.681941 0.000000
0.000000 0.919738 0.111116
0.000000 0.918547 0.000000
0.000000 0.916625 0.000000
0.408545 0.916442 0.000000
0.631678 0.910735 0.000000
0.819425 0.889982 0.000000
0.978454 0.862181 0.000000
1.000000 0.813260 0.000000
0.000000 1.000000 0.177584
0.000000 1.000000 0.161532
0.100649 1.000000 0.255833
0.405432 1.000000 0.232975
0.605249 1.000000 0.180789
0.787076 1.000000 0.049317
0.957092 1.000000 0.000000
1.000000 0.970794 0.000000
0.071656 0.095735 0.152621
0.075563 0.092348 0.154055
0.165499 0.053590 0.179751
0.408515 0.000000 0.230747
0.670741 0.000000 0.151705
0.867979 0.000000 0.107973
1.000000 0.000000 0.018311
1.000000 0.000000 0.000000
0.078614 0.108034 0.148806
0.083528 0.107607 0.155520
0.163699 0.079408 0.178592
0.401251 0.000000 0.207279
0.660517 0.000000 0.134371
0.857267 0.000000 0.102205
1.000000 0.000000 0.000000
1.000000 0.000000 0.000000
0.000000 0.159457 0.171786
0.047791 0.162875 0.175021
0.153719 0.163699 0.174289
0.404944 0.166964 0.159762
0.661372 0.175387 0.135042
0.857450 0.178714 0.094392
1.000000 0.183536 0.000000
1.000000 0.197910 0.000000
0.000000 0.337133 0.245304
0.000000 0.344823 0.238407
0.102632 0.360998 0.171817
0.389899 0.362219 0.129213
0.661250 0.403876 0.133242
0.857298 0.398230 0.088991
1.000000 0.390387 0.000000
1.000000 0.374456 0.000000
0.000000 0.571160 0.302037
0.000000 0.574945 0.282322
0.000000 0.580835 0.174380
0.407935 0.580072 0.134127
0.602777 0.544915 0.000000
0.833433 0.564050 0.000000
1.000000 0.560571 0.000000
1.000000 0.528283 0.065248
0.000000 0.742916 0.307347
0.000000 0.745174 0.286290
0.000000 0.747463 0.192721
0.380163 0.744747 0.167788
0.608179 0.729335 0.068849
0.786801 0.700282 0.000000
0.997131 0.713130 0.000000
1.000000 0.678523 0.142947
0.000000 0.921416 0.314885
0.000000 0.921111 0.295750
0.000000 0.920226 0.228214
0.365332 0.915373 0.236423
0.606897 0.910124 0.174746
0.806302 0.890501 0.000000
0.977539 0.864439 0.000000
1.000000 0.815122 0.047974
0.000000 1.000000 0.318334
0.000000 1.000000 0.306126
0.000000 1.000000 0.295415
0.392859 1.000000 0.365301
0.593011 1.000000 0.330175
0.776577 1.000000 0.276799
0.949615 1.000000 0.198154
1.000000 0.971679 0.000000
0.000000 0.123751 0.313695
0.000000 0.124300 0.315404
0.153933 0.069123 0.327550
0.342779 0.000000 0.361975
0.612848 0.000000 0.409308
0.827237 0.000000 0.368078
1.000000 0.000000 0.308324
1.000000 0.000000 0.281590
0.000000 0.156130 0.317479
0.000000 0.152651 0.320928
0.145480 0.100771 0.334264
0.344030 0.000000 0.363561
0.612757 0.000000 0.400153
0.822873 0.000000 0.356725
1.000000 0.000000 0.292271
1.000000 0.000000 0.278264
0.000000 0.229313 0.330755
0.000000 0.228611 0.332860
0.152773 0.217044 0.338933
0.340917 0.109712 0.363104
0.613397 0.000000 0.371191
0.830961 0.000000 0.337926
1.000000 0.000000 0.317723
1.000000 0.000000 0.294072
0.000000 0.349920 0.373724
0.000000 0.350866 0.374395
0.000000 0.355749 0.378485
0.318273 0.334752 0.353521
0.604547 0.344213 0.351263
0.821256 0.346838 0.341405
1.000000 0.343664 0.321813
1.000000 0.341650 0.305821
0.000000 0.565362 0.449226
0.000000 0.568475 0.443977
0.000000 0.575586 0.422095
0.306371 0.570092 0.374823
0.577783 0.539178 0.308751
0.821805 0.560876 0.367681
1.000000 0.548974 0.348943
1.000000 0.519738 0.331731
0.000000 0.745937 0.469429
0.000000 0.754482 0.465736
0.000000 0.754879 0.436805
0.297520 0.750454 0.402106
0.581842 0.741970 0.374609
0.774533 0.700526 0.276616
0.990845 0.712001 0.333379
1.000000 0.681636 0.373754
0.000000 0.918669 0.478584
0.000000 0.920745 0.470954
0.000000 0.924315 0.446693
0.278660 0.924285 0.427741
0.580835 0.916747 0.422431
0.790005 0.898772 0.355718
0.969207 0.865446 0.250828
1.000000 0.816159 0.334417
0.000000 1.000000 0.469612
0.000000 1.000000 0.463416
0.000000 1.000000 0.446876
0.291478 1.000000 0.460212
0.574914 1.000000 0.484871
0.760067 1.000000 0.448341
0.935180 1.000000 0.388708
1.000000 0.973693 0.312047
0.000000 0.194827 0.530114
0.000000 0.195346 0.530999
0.078157 0.141176 0.532738
0.314580 0.000000 0.531823
0.554620 0.000000 0.564782
0.774075 0.000000 0.563317
0.982971 0.000000 0.540703
1.000000 0.000000 0.518090
0.000000 0.229465 0.531609
0.000000 0.238041 0.533410
0.074617 0.182742 0.539025
0.309117 0.000000 0.535027
0.553826 0.000000 0.564416
0.773953 0.000000 0.559533
0.982879 0.000000 0.538598
1.000000 0.000000 0.520043
0.000000 0.333867 0.534874
0.073884 0.337102 0.536309
0.171084 0.312200 0.543114
0.298375 0.206668 0.545617
0.547143 0.000000 0.560052
0.765225 0.000000 0.543206
0.977447 0.000000 0.531487
1.000000 0.199527 0.523827
0.000000 0.422797 0.555108
0.000000 0.422339 0.555535
0.184329 0.429847 0.561852
0.375525 0.432227 0.558404
0.534844 0.299901 0.554559
0.762112 0.314000 0.538994
0.976379 0.340246 0.536797
1.000000 0.331090 0.498360
0.000000 0.563012 0.588403
0.000000 0.564508 0.589563
0.000000 0.564996 0.589166
0.311620 0.557427 0.579767
0.495674 0.510613 0.531243
0.756252 0.524773 0.537865
0.976043 0.523217 0.527031
1.000000 0.507988 0.502983
0.000000 0.717647 0.601434
0.000000 0.720394 0.600122
0.000000 0.725307 0.591516
0.180697 0.727321 0.577417
0.492775 0.710292 0.548211
0.725307 0.681544 0.486671
0.972625 0.714687 0.546349
1.000000 0.679652 0.531304
0.000000 0.908965 0.624842
0.000000 0.909300 0.620294
0.000000 0.911711 0.607660
0.101717 0.913909 0.595514
0.492927 0.911131 0.573144
0.749935 0.898528 0.544976
0.943938 0.858274 0.453468
1.000000 0.815518 0.506523
0.000000 1.000000 0.607507
0.000000 1.000000 0.603723
0.000000 1.000000 0.589746
0.000000 1.000000 0.583734
0.491981 1.000000 0.588220
0.727932 1.000000 0.589868
0.909422 1.000000 0.537407
1.000000 0.975860 0.468238
0.045594 0.323827 0.699550
0.043519 0.323674 0.699397
0.115206 0.284550 0.697719
0.293370 0.185214 0.698207
0.482155 0.000000 0.695430
0.729427 0.000000 0.719020
0.946624 0.000000 0.717952
1.000000 0.000000 0.677211
0.079469 0.334997 0.693843
0.097749 0.343297 0.693019
0.151949 0.316320 0.695247
0.294163 0.224552 0.696223
0.476081 0.000000 0.692866
0.724239 0.000000 0.714961
0.943450 0.000000 0.714351
1.000000 0.000000 0.675990
0.250858 0.447242 0.694789
0.251743 0.448096 0.693660
0.281865 0.429053 0.700038
0.337530 0.359625 0.707973
0.474403 0.181491 0.700832
0.723018 0.000000 0.715145
0.943450 0.000000 0.710658
1.000000 0.000000 0.677333
0.211887 0.513725 0.705379
0.229770 0.516747 0.706691
0.369116 0.538293 0.712428
0.460975 0.540246 0.725246
0.507225 0.427131 0.718257
0.724758 0.282750 0.720760
0.947967 0.276280 0.712551
1.000000 0.360632 0.682582
0.000000 0.602472 0.727138
0.000000 0.604089 0.727749
0.254917 0.611261 0.730404
0.453315 0.624903 0.732906
0.580499 0.619562 0.723415
0.696956 0.489479 0.703365
0.939483 0.491218 0.698848
1.000000 0.535912 0.683833
0.000000 0.726192 0.744106
0.000000 0.729366 0.746639
0.000000 0.732448 0.748653
0.313237 0.734249 0.748959
0.518975 0.725093 0.738766
0.657069 0.663325 0.678706
0.941405 0.690730 0.697444
1.000000 0.677760 0.678920
0.000000 0.894194 0.767666
0.000000 0.897612 0.768246
0.000000 0.902892 0.766384
0.000000 0.909636 0.762325
0.428962 0.912963 0.749172
0.686152 0.898802 0.720302
0.914244 0.856596 0.638605
1.000000 0.833555 0.694911
0.000000 1.000000 0.743313
0.000000 1.000000 0.741390
0.000000 1.000000 0.732998
0.000000 1.000000 0.723140
0.377966 1.000000 0.715969
0.684047 1.000000 0.728969
0.882261 1.000000 0.708827
1.000000 0.977264 0.624598
0.318822 0.472572 0.843961
0.318853 0.472602 0.844022
0.313207 0.460700 0.844327
0.360998 0.384100 0.849790
0.479286 0.243595 0.854917
0.657496 0.000000 0.850919
0.906767 0.000000 0.871336
1.000000 0.000000 0.829252
0.318639 0.472389 0.843839
0.318639 0.472389 0.843839
0.325200 0.472572 0.844388
0.375067 0.411841 0.849882
0.482216 0.282200 0.854856
0.654902 0.000000 0.850675
0.905760 0.000000 0.870695
1.000000 0.000000 0.828367
0.379339 0.539727 0.842618
0.382788 0.543481 0.842252
0.394324 0.543084 0.844175
0.428717 0.500023 0.854429
0.502922 0.397375 0.857908
0.649317 0.074647 0.852262
0.905241 0.000000 0.871519
1.000000 0.000000 0.827695
0.462257 0.627497 0.842405
0.460060 0.627955 0.842130
0.478065 0.631464 0.843931
0.510918 0.614435 0.857816
0.548638 0.543297 0.863706
0.654688 0.374823 0.857877
0.902586 0.199100 0.872221
1.000000 0.239597 0.826444
0.394018 0.678279 0.857023
0.391791 0.679225 0.857023
0.417121 0.682582 0.857542
0.538903 0.696284 0.860838
0.632563 0.695766 0.871000
0.673945 0.577661 0.866514
0.895872 0.447059 0.870939
1.000000 0.465858 0.822995
0.258640 0.759121 0.872709
0.254917 0.760403 0.872770
0.287083 0.763363 0.873320
0.446540 0.768765 0.876616
0.617456 0.780423 0.881346
0.772824 0.795834 0.883360
0.883879 0.642756 0.867369
1.000000 0.679286 0.831174
0.000000 0.873960 0.887907
0.000000 0.875639 0.887999
0.000000 0.880125 0.888334
0.252293 0.884123 0.891142
0.494270 0.889525 0.895109
0.714778 0.892973 0.896727
0.844877 0.839750 0.844083
1.000000 0.861418 0.858976
0.000000 1.000000 0.887938
0.000000 1.000000 0.886931
0.000000 1.000000 0.883360
0.000000 1.000000 0.876432
0.285069 1.000000 0.867308
0.606561 1.000000 0.857755
0.878019 0.994263 0.883818
1.000000 0.981384 0.821714
0.500023 0.612665 0.955932
0.500053 0.612665 0.955962
0.499825 0.612543 0.955871
0.503899 0.571557 0.961944
0.550103 0.490181 0.971283
0.647761 0.337713 0.980865
0.818570 0.000000 0.989136
1.000000 0.000000 0.993988
0.500237 0.612818 0.956054
0.500298 0.612879 0.956054
0.500175 0.612787 0.956023
0.503868 0.573846 0.961913
0.555444 0.507256 0.970733
0.649866 0.365240 0.980316
0.817288 0.000000 0.988830
1.000000 0.000000 0.993744
0.510063 0.624598 0.956176
0.512139 0.627192 0.955993
0.518883 0.635981 0.955200
0.535302 0.621118 0.960479
0.575280 0.563500 0.969146
0.658076 0.447852 0.978943
0.813687 0.143282 0.988373
1.000000 0.000000 0.993469
0.557855 0.681971 0.952728
0.559533 0.683894 0.952544
0.565026 0.690394 0.951659
0.583917 0.690242 0.955261
0.615961 0.651331 0.966125
0.674159 0.559655 0.976745
0.808042 0.357366 0.987488
1.000000 0.167453 0.993103
0.617884 0.754360 0.946502
0.617975 0.754421 0.946563
0.618585 0.754208 0.946502
0.621912 0.752773 0.946227
0.682826 0.754055 0.958892
0.712123 0.692378 0.972503
0.803555 0.535241 0.985382
1.000000 0.427314 0.992340
0.565789 0.796353 0.956329
0.565698 0.796414 0.956329
0.565637 0.796445 0.956329
0.567346 0.795651 0.956298
0.675807 0.808652 0.955169
0.805295 0.839506 0.964050
0.830808 0.745357 0.980011
1.000000 0.633967 0.990661
0.488502 0.862181 0.966217
0.488075 0.862486 0.966247
0.486854 0.863401 0.966339
0.485389 0.864805 0.966552
0.579248 0.867735 0.966613
0.773983 0.889036 0.966613
0.921721 0.929259 0.973816
0.999237 0.847013 0.986450
0.358190 0.955261 0.975158
0.356634 0.956085 0.975189
0.351446 0.958984 0.975341
0.341131 0.964660 0.975738
0.414099 0.970581 0.976410
0.658961 0.973663 0.977905
0.885130 0.980011 0.981781
0.984253 0.982177 0.981872
