其他预设/【233】日式怀旧街道调色预设208款/1.3D LUT预设（视频调色-PR-AE-PS-FCPX-达芬奇用）/2.富士胶片风-日式城市街拍预设/JA – Warm Bright 1 (Classic Chrome).cube
# Created by Adobe Lightroom plugin Export LUT (1.17.0)
# www.johnrellis.com/lightroom/exportlut.htm
# Preset: JA – Warm Bright 1 (Classic Chrome)
# Color profile: /Library/Application Support/Adobe/Color/Profiles/Recommended/AdobeRGB1998.icc
LUT_3D_SIZE 5
DOMAIN_MIN 0.000000 0.000000 0.000000
DOMAIN_MAX 0.903226 0.903226 0.903226
0.112276 0.101625 0.094667
0.305364 0.075502 0.084108
0.685573 0.000000 0.000000
0.932677 0.000000 0.000000
1.000000 0.000000 0.000000
0.087098 0.289708 0.061280
0.315740 0.293492 0.000000
0.686366 0.296757 0.000000
0.933074 0.252323 0.000000
1.000000 0.152438 0.000000
0.000000 0.648890 0.000000
0.324010 0.650202 0.000000
0.688472 0.656336 0.000000
0.930510 0.567010 0.000000
1.000000 0.442969 0.000000
0.000000 0.887175 0.000000
0.236027 0.885954 0.000000
0.594385 0.879271 0.000000
0.887602 0.863737 0.000000
1.000000 0.725399 0.000000
0.000000 0.999420 0.000000
0.059297 0.996612 0.000000
0.462623 0.985595 0.000000
0.728603 0.966949 0.000000
0.955352 0.940917 0.000000
0.128511 0.112306 0.267155
0.304234 0.000000 0.263645
0.673213 0.000000 0.229953
0.926177 0.000000 0.145663
1.000000 0.000000 0.000000
0.096193 0.279454 0.265660
0.310765 0.283818 0.265843
0.686519 0.238773 0.207126
0.929442 0.184573 0.097230
1.000000 0.089754 0.000000
0.000000 0.638911 0.264988
0.250034 0.648280 0.197513
0.681941 0.649012 0.015747
0.928130 0.535607 0.000000
1.000000 0.427100 0.000000
0.000000 0.882689 0.192538
0.205539 0.883696 0.130068
0.581537 0.878325 0.000000
0.887205 0.863035 0.000000
1.000000 0.716213 0.000000
0.000000 0.995911 0.142550
0.149996 0.994507 0.000000
0.456794 0.985992 0.000000
0.720882 0.968048 0.000000
0.957519 0.940795 0.000000
0.171267 0.150759 0.613184
0.346288 0.076783 0.609277
0.647150 0.000000 0.587701
0.891295 0.000000 0.515496
1.000000 0.260868 0.481544
0.252110 0.366217 0.612390
0.354925 0.326085 0.611505
0.653468 0.204623 0.593347
0.892271 0.258549 0.525139
1.000000 0.403510 0.511101
0.129763 0.613275 0.599573
0.350622 0.616236 0.600244
0.664515 0.626612 0.601648
0.899046 0.596612 0.561669
1.000000 0.511315 0.464027
0.000000 0.863432 0.551598
0.290288 0.861936 0.550622
0.621210 0.861234 0.558404
0.884001 0.858061 0.507774
1.000000 0.711543 0.394110
0.188296 0.987976 0.485603
0.350744 0.983398 0.498390
0.581415 0.971466 0.518364
0.748775 0.960784 0.426581
0.957336 0.938750 0.194644
0.320653 0.305913 0.844388
0.398810 0.282109 0.843107
0.598199 0.120089 0.838682
0.864195 0.000000 0.820890
1.000000 0.216342 0.715389
0.407263 0.451392 0.841520
0.454627 0.430793 0.840665
0.609583 0.336095 0.836393
0.862394 0.215274 0.819059
1.000000 0.351202 0.719570
0.524651 0.666224 0.832731
0.593561 0.680323 0.832273
0.681880 0.652094 0.831296
0.858885 0.568994 0.815671
0.985779 0.606775 0.744106
0.400946 0.826200 0.824918
0.487068 0.826902 0.823941
0.676844 0.831327 0.823178
0.865476 0.841489 0.825284
0.965423 0.817838 0.794797
0.333349 0.975708 0.752865
0.429206 0.971740 0.753780
0.637690 0.958984 0.761624
0.841642 0.940276 0.800198
0.948486 0.931762 0.754543
0.597742 0.575891 0.939757
0.609339 0.562799 0.940307
0.654719 0.504906 0.942443
0.760739 0.323735 0.946807
0.964233 0.264714 0.941863
0.644434 0.640650 0.935973
0.652033 0.629053 0.936584
0.684688 0.579675 0.938933
0.771084 0.434821 0.943694
0.962188 0.373602 0.939788
0.750149 0.777493 0.926390
0.763607 0.779232 0.926452
0.770260 0.747982 0.929015
0.808438 0.662135 0.934112
0.955627 0.593500 0.933318
0.756374 0.842618 0.923247
0.779110 0.848264 0.922423
0.841459 0.866117 0.920104
0.879240 0.861906 0.921721
0.945220 0.819028 0.923278
0.669764 0.919493 0.923430
0.698665 0.920012 0.922942
0.784909 0.921965 0.921447
0.880522 0.924956 0.919707
0.940490 0.928008 0.919432
