其他预设/【233】日式怀旧街道调色预设208款/1.3D LUT预设（视频调色-PR-AE-PS-FCPX-达芬奇用）/2.富士胶片风-日式城市街拍预设/JA – Chrome 3 (Classic Chrome).cube
# Created by Adobe Lightroom plugin Export LUT (1.17.0)
# www.johnrellis.com/lightroom/exportlut.htm
# Preset: JA – Chrome 3 (Classic Chrome)
# Color profile: /Library/Application Support/Adobe/Color/Profiles/Recommended/AdobeRGB1998.icc
LUT_3D_SIZE 8
DOMAIN_MIN 0.000000 0.000000 0.000000
DOMAIN_MAX 0.903226 0.903226 0.903226
0.120058 0.117037 0.122683
0.136782 0.114321 0.123384
0.201236 0.102663 0.122683
0.436591 0.052644 0.107210
0.663081 0.083314 0.048615
0.813748 0.138399 0.000000
0.917937 0.156527 0.000000
0.988800 0.161318 0.000000
0.119753 0.134127 0.122377
0.138613 0.134676 0.122591
0.204868 0.137881 0.121004
0.439124 0.169467 0.097444
0.661128 0.200198 0.000000
0.807858 0.213077 0.000000
0.911955 0.216098 0.000000
0.985718 0.216770 0.000000
0.122896 0.198062 0.123537
0.149355 0.198276 0.122896
0.230503 0.218296 0.117647
0.482612 0.335637 0.026062
0.690242 0.379553 0.000000
0.823606 0.369055 0.000000
0.924346 0.355413 0.000000
0.991119 0.338293 0.000000
0.105684 0.399878 0.086915
0.174136 0.398230 0.084260
0.309789 0.403326 0.068330
0.520287 0.490974 0.000000
0.718959 0.536248 0.000000
0.847105 0.551781 0.000000
0.930724 0.516350 0.000000
0.990631 0.480262 0.000000
0.040040 0.595911 0.000000
0.169711 0.593927 0.000000
0.332494 0.589593 0.000000
0.497993 0.599878 0.000000
0.686152 0.650202 0.000000
0.827634 0.649622 0.000000
0.923644 0.647272 0.000000
0.986481 0.635370 0.049744
0.009583 0.718532 0.000000
0.164584 0.721828 0.000000
0.322026 0.716976 0.000000
0.477882 0.709346 0.000000
0.632563 0.724971 0.000000
0.798611 0.760555 0.000000
0.911711 0.748196 0.140139
0.974914 0.736843 0.259770
0.144137 0.822324 0.001984
0.203464 0.822232 0.001953
0.326299 0.817502 0.000000
0.464546 0.811185 0.000000
0.603449 0.801633 0.000000
0.743496 0.822385 0.090852
0.879088 0.842374 0.233738
0.959136 0.822141 0.360357
0.304570 0.908202 0.262364
0.327031 0.907378 0.260899
0.397253 0.905211 0.257420
0.498787 0.902495 0.255436
0.603601 0.892058 0.225040
0.724819 0.889647 0.241245
0.839475 0.899199 0.348669
0.937072 0.904265 0.431373
0.118868 0.119112 0.135622
0.135439 0.114015 0.137240
0.193088 0.111055 0.139193
0.413703 0.000000 0.127169
0.647425 0.000000 0.093874
0.797452 0.000000 0.021698
0.905669 0.074220 0.000000
0.982361 0.117525 0.000000
0.116701 0.131380 0.138277
0.136233 0.132662 0.139040
0.198917 0.133639 0.137392
0.424414 0.137606 0.122225
0.650233 0.146853 0.083650
0.796719 0.159396 0.000000
0.901762 0.171298 0.000000
0.979126 0.182925 0.000000
0.117647 0.193240 0.144167
0.139742 0.196201 0.141085
0.222080 0.211093 0.136690
0.469459 0.318212 0.091951
0.674800 0.347692 0.000000
0.809110 0.339483 0.000000
0.910185 0.328710 0.000000
0.983520 0.317754 0.000000
0.000000 0.390051 0.126467
0.124239 0.394232 0.111604
0.292515 0.400275 0.099397
0.495155 0.467018 0.000000
0.692317 0.511070 0.000000
0.826658 0.531334 0.000000
0.916472 0.497230 0.000000
0.983337 0.467750 0.000000
0.000000 0.594659 0.000000
0.091035 0.592645 0.000000
0.308293 0.586145 0.000000
0.481727 0.587335 0.000000
0.670741 0.635676 0.000000
0.816220 0.638941 0.000000
0.916320 0.642145 0.020752
0.981018 0.630945 0.162173
0.000000 0.714382 0.000000
0.102235 0.713466 0.000000
0.298924 0.708949 0.000000
0.464240 0.702693 0.000000
0.623743 0.718013 0.000000
0.793851 0.756466 0.001099
0.906828 0.746548 0.214786
0.970306 0.737881 0.305241
0.091798 0.815732 0.106874
0.178408 0.813504 0.115602
0.311559 0.809873 0.103395
0.454902 0.805478 0.084474
0.596826 0.797787 0.007050
0.738399 0.817411 0.156619
0.873777 0.837644 0.267765
0.954528 0.819364 0.378729
0.303532 0.904143 0.287541
0.327337 0.903868 0.287907
0.397223 0.902068 0.285588
0.498146 0.899687 0.284672
0.609857 0.894591 0.276341
0.726436 0.889799 0.279484
0.838529 0.897826 0.370214
0.935088 0.902739 0.445655
0.113008 0.124300 0.176974
0.130282 0.115541 0.186374
0.196719 0.106752 0.195834
0.399542 0.000000 0.259556
0.632715 0.000000 0.255009
0.793515 0.000000 0.185122
0.904601 0.000000 0.183169
0.982330 0.000000 0.179385
0.123323 0.136629 0.179751
0.135042 0.132509 0.187991
0.199741 0.125582 0.199252
0.405127 0.000000 0.248814
0.635401 0.000000 0.228855
0.792294 0.000000 0.184176
0.902098 0.000000 0.181552
0.980652 0.000000 0.180819
0.116884 0.189334 0.198001
0.133028 0.192721 0.201328
0.209293 0.203677 0.211643
0.450690 0.205814 0.199863
0.667048 0.222812 0.193637
0.803922 0.242649 0.193484
0.905913 0.263188 0.200504
0.979980 0.280461 0.207370
0.000000 0.392432 0.269596
0.000000 0.401984 0.260014
0.210361 0.426215 0.203128
0.488472 0.463111 0.194705
0.693477 0.500755 0.213596
0.819120 0.497536 0.236606
0.910979 0.481422 0.257115
0.977783 0.469123 0.274205
0.000000 0.593896 0.264256
0.000000 0.596887 0.243137
0.221439 0.601251 0.202060
0.459907 0.591577 0.185061
0.668452 0.635981 0.215213
0.811673 0.641871 0.276432
0.908446 0.657649 0.337194
0.970825 0.643183 0.369818
0.000000 0.716091 0.223392
0.000000 0.717250 0.206363
0.254307 0.714534 0.228305
0.442329 0.706233 0.212924
0.611749 0.710872 0.216800
0.784604 0.750515 0.295018
0.896422 0.751095 0.383886
0.961547 0.753811 0.443946
0.000000 0.819577 0.222660
0.000000 0.818509 0.221927
0.317693 0.811521 0.286442
0.452979 0.805570 0.274510
0.591211 0.797452 0.257206
0.735714 0.813321 0.309972
0.870817 0.837736 0.397314
0.949706 0.827146 0.481178
0.216800 0.907164 0.304906
0.274540 0.904936 0.321965
0.416693 0.898436 0.381231
0.511345 0.897368 0.382544
0.614771 0.892454 0.373724
0.726986 0.886595 0.364538
0.838834 0.896391 0.441810
0.933227 0.902922 0.509728
0.071778 0.120790 0.311101
0.134920 0.105928 0.335210
0.286992 0.000000 0.396674
0.418189 0.000000 0.399390
0.597345 0.000000 0.421912
0.765377 0.000000 0.408637
0.877958 0.000000 0.399634
0.958831 0.158968 0.420935
0.069123 0.131777 0.325811
0.123354 0.124758 0.342260
0.275212 0.053712 0.399847
0.425391 0.000000 0.406104
0.606256 0.000000 0.421637
0.765621 0.000000 0.404852
0.875486 0.000000 0.405493
0.960327 0.169284 0.408972
0.077455 0.219760 0.307439
0.103029 0.219333 0.314855
0.196811 0.192599 0.382483
0.439582 0.152865 0.419989
0.629938 0.151461 0.422339
0.772122 0.229831 0.424323
0.882841 0.297002 0.432868
0.962524 0.342443 0.433936
0.000000 0.379278 0.385718
0.000000 0.385504 0.391608
0.184085 0.406958 0.411200
0.455604 0.442908 0.442206
0.648829 0.452522 0.442603
0.781888 0.469947 0.450813
0.884855 0.489815 0.462623
0.959411 0.504112 0.470649
0.000000 0.596490 0.444709
0.000000 0.597620 0.438697
0.160678 0.602411 0.423529
0.455634 0.605676 0.436652
0.653254 0.628717 0.451057
0.796231 0.657221 0.491737
0.891569 0.669825 0.516350
0.955657 0.657588 0.522698
0.000000 0.719356 0.410834
0.000000 0.723049 0.409247
0.222721 0.721004 0.405890
0.463142 0.715969 0.438361
0.610163 0.705928 0.422065
0.776333 0.748043 0.478248
0.885283 0.762112 0.534356
0.950286 0.774350 0.572869
0.000000 0.818204 0.394171
0.000000 0.818021 0.396185
0.289220 0.815763 0.408148
0.482216 0.809354 0.451789
0.601862 0.802274 0.438575
0.734798 0.809018 0.454261
0.865415 0.836484 0.520134
0.941436 0.834592 0.584222
0.241550 0.907042 0.428138
0.282017 0.906279 0.432807
0.380285 0.903105 0.445014
0.528954 0.895354 0.492775
0.621790 0.890867 0.483864
0.726101 0.885466 0.473396
0.837278 0.893584 0.524254
0.929717 0.902556 0.588312
0.000000 0.099397 0.501579
0.141421 0.069612 0.515312
0.296757 0.000000 0.550072
0.490059 0.000000 0.594354
0.626184 0.000000 0.585016
0.741024 0.000000 0.554803
0.859281 0.000000 0.537377
0.945892 0.165591 0.539178
0.000000 0.116487 0.506126
0.102358 0.103395 0.517723
0.278172 0.000000 0.550072
0.480751 0.000000 0.593591
0.628443 0.000000 0.587274
0.741146 0.000000 0.555016
0.858701 0.000000 0.541527
0.944213 0.241245 0.546258
0.000000 0.239414 0.492042
0.000000 0.225101 0.505852
0.185763 0.179019 0.538445
0.446021 0.112795 0.590906
0.629694 0.100923 0.590265
0.733791 0.224521 0.558221
0.853513 0.298009 0.557763
0.938231 0.380865 0.565301
0.000000 0.375402 0.492561
0.000000 0.376013 0.496345
0.214725 0.386542 0.508812
0.432990 0.419745 0.566827
0.626368 0.440558 0.592737
0.741024 0.459510 0.581842
0.851804 0.486793 0.585962
0.934112 0.522179 0.595758
0.000000 0.548394 0.545647
0.000000 0.551476 0.548363
0.220005 0.561181 0.556542
0.456580 0.579614 0.571862
0.622309 0.607050 0.595361
0.757259 0.618433 0.600305
0.862577 0.633082 0.609003
0.938415 0.644068 0.615045
0.000000 0.709377 0.567956
0.000000 0.710048 0.568536
0.224338 0.708217 0.566278
0.443458 0.706386 0.567315
0.603021 0.707790 0.573541
0.757382 0.735195 0.597833
0.872221 0.768978 0.645319
0.938445 0.781033 0.666835
0.000000 0.813321 0.543542
0.060121 0.812100 0.543755
0.296086 0.808927 0.547112
0.456001 0.806058 0.553491
0.602747 0.802670 0.569726
0.718624 0.794614 0.553979
0.855375 0.830991 0.618280
0.931914 0.839506 0.670222
0.240940 0.900938 0.543297
0.277958 0.899931 0.544610
0.373510 0.896941 0.549248
0.490669 0.895781 0.559442
0.621820 0.888670 0.585016
0.718959 0.883574 0.573358
0.829252 0.887510 0.596979
0.923857 0.900114 0.659632
0.000000 0.063630 0.636500
0.133822 0.000000 0.643915
0.282231 0.000000 0.663050
0.451118 0.000000 0.696864
0.636011 0.000000 0.726284
0.760616 0.000000 0.709987
0.846891 0.000000 0.666499
0.929900 0.163668 0.651118
0.000000 0.094087 0.633509
0.079011 0.076692 0.639063
0.261082 0.000000 0.659022
0.438697 0.000000 0.693660
0.631647 0.000000 0.724788
0.758328 0.000000 0.708309
0.844144 0.000000 0.666682
0.928344 0.227420 0.653315
0.000000 0.194522 0.627558
0.000000 0.187228 0.632959
0.178683 0.169009 0.654170
0.404364 0.117220 0.690120
0.626947 0.067079 0.726436
0.755978 0.174960 0.708461
0.838529 0.301915 0.673945
0.926055 0.366735 0.663996
0.000000 0.380529 0.595300
0.000000 0.381720 0.602747
0.255741 0.396735 0.630060
0.422583 0.408667 0.671870
0.623621 0.440497 0.716884
0.753292 0.460426 0.711391
0.832792 0.487373 0.687343
0.923644 0.509575 0.682246
0.000000 0.509636 0.616663
0.000000 0.512108 0.618128
0.279332 0.523888 0.622766
0.453559 0.549950 0.631067
0.601526 0.586145 0.681697
0.742672 0.606683 0.706386
0.831815 0.612329 0.697047
0.918334 0.631373 0.699763
0.000000 0.660243 0.652338
0.073182 0.662715 0.654566
0.302098 0.668086 0.658778
0.465766 0.677882 0.666835
0.604669 0.693355 0.680049
0.737575 0.722927 0.706874
0.847990 0.740414 0.719631
0.923430 0.752865 0.728420
0.000000 0.807004 0.680110
0.167483 0.807279 0.681697
0.327581 0.806149 0.684535
0.469978 0.805722 0.687892
0.596735 0.804196 0.683833
0.719783 0.804471 0.686671
0.845457 0.826780 0.714504
0.924407 0.850401 0.759579
0.262638 0.897612 0.668605
0.295018 0.896605 0.668452
0.381445 0.893889 0.668330
0.488014 0.891356 0.668452
0.596399 0.888029 0.667506
0.714595 0.883024 0.678981
0.814328 0.878508 0.667872
0.917388 0.898100 0.736049
0.000000 0.004578 0.743618
0.089906 0.000000 0.748013
0.261143 0.000000 0.761044
0.414282 0.000000 0.783444
0.581933 0.000000 0.809171
0.738674 0.000000 0.819394
0.856321 0.000000 0.804776
0.924651 0.000000 0.757504
0.000000 0.062287 0.743587
0.010376 0.009674 0.747219
0.241794 0.000000 0.759792
0.402655 0.000000 0.781582
0.575158 0.000000 0.807980
0.737484 0.000000 0.819181
0.854887 0.000000 0.804044
0.922698 0.158877 0.758389
0.000000 0.182925 0.738766
0.000000 0.178164 0.742336
0.167941 0.158206 0.754879
0.370336 0.104463 0.776364
0.558251 0.000000 0.804807
0.738918 0.128359 0.818662
0.850736 0.239170 0.802792
0.917906 0.345647 0.763485
0.022644 0.390906 0.717861
0.144289 0.392950 0.721859
0.230655 0.375036 0.736843
0.395056 0.381781 0.759701
0.569665 0.399207 0.789975
0.747768 0.444373 0.816251
0.844480 0.460334 0.801114
0.911192 0.492988 0.770169
0.165194 0.510491 0.693294
0.212924 0.513268 0.693355
0.325811 0.524193 0.694545
0.456336 0.548211 0.723781
0.575860 0.560967 0.763973
0.736843 0.596094 0.804379
0.837858 0.606104 0.799588
0.903136 0.617517 0.777798
0.196445 0.629816 0.720516
0.239658 0.631403 0.720729
0.345129 0.636988 0.721645
0.461952 0.646082 0.723445
0.578424 0.659846 0.726802
0.712062 0.697841 0.775143
0.832731 0.723293 0.799985
0.901793 0.725154 0.789548
0.234379 0.759548 0.750149
0.271214 0.760159 0.750637
0.365850 0.762325 0.752132
0.476600 0.766476 0.755276
0.593500 0.773709 0.761166
0.711330 0.787289 0.773068
0.827207 0.815152 0.799527
0.910185 0.831846 0.813413
0.269718 0.888609 0.776516
0.300450 0.888243 0.776730
0.384405 0.887327 0.777768
0.488655 0.886107 0.779263
0.600031 0.885130 0.782467
0.704982 0.882658 0.776913
0.808865 0.880369 0.778378
0.909545 0.895476 0.810452
0.000000 0.068452 0.850065
0.000000 0.000000 0.852110
0.220951 0.000000 0.858762
0.382116 0.000000 0.869657
0.530114 0.000000 0.883055
0.687526 0.000000 0.895506
0.821500 0.000000 0.896208
0.932891 0.000000 0.885466
0.000000 0.060456 0.850828
0.000000 0.000000 0.852811
0.219211 0.000000 0.858915
0.371862 0.000000 0.868894
0.523308 0.000000 0.882383
0.683955 0.000000 0.895109
0.821225 0.000000 0.895781
0.931487 0.000000 0.884764
0.000000 0.191348 0.847837
0.000000 0.186069 0.849516
0.166781 0.163027 0.855253
0.346563 0.103853 0.865660
0.507286 0.000000 0.879515
0.677485 0.000000 0.892882
0.822965 0.159182 0.893706
0.926848 0.270665 0.882750
0.164767 0.405493 0.835019
0.173465 0.396216 0.837278
0.259281 0.384741 0.843931
0.392309 0.381537 0.854795
0.533501 0.375463 0.869566
0.686275 0.377478 0.885863
0.827695 0.439551 0.890288
0.920531 0.460609 0.880369
0.332525 0.560601 0.811429
0.350103 0.561517 0.813474
0.405035 0.563928 0.820676
0.465675 0.553552 0.834836
0.562615 0.549645 0.853300
0.694789 0.562066 0.873625
0.833005 0.602228 0.887419
0.913298 0.606348 0.877989
0.360540 0.654810 0.812100
0.376745 0.655573 0.811734
0.426856 0.658076 0.810483
0.498024 0.661311 0.808255
0.589624 0.670253 0.824063
0.693263 0.680385 0.854032
0.827298 0.717586 0.880552
0.906889 0.725216 0.876860
0.372290 0.752346 0.831327
0.387976 0.752743 0.831144
0.436103 0.753811 0.830594
0.508049 0.755612 0.829740
0.594232 0.758633 0.828367
0.686519 0.763607 0.826383
0.804623 0.793362 0.859068
0.901884 0.819333 0.877073
0.385962 0.856718 0.850278
0.400793 0.856840 0.850248
0.448402 0.857298 0.850340
0.521721 0.858335 0.850675
0.608881 0.860075 0.851408
0.702968 0.863096 0.853056
0.801694 0.869352 0.857877
0.898039 0.889647 0.877653
