其他预设/【233】日式怀旧街道调色预设208款/1.3D LUT预设（视频调色-PR-AE-PS-FCPX-达芬奇用）/2.富士胶片风-日式城市街拍预设/JA – Cine Night 3 (Classic Chrome).cube
# Created by Adobe Lightroom plugin Export LUT (1.17.0)
# www.johnrellis.com/lightroom/exportlut.htm
# Preset: JA – Cine Night 3 (Classic Chrome)
# Color profile: /Library/Application Support/Adobe/Color/Profiles/Recommended/AdobeRGB1998.icc
LUT_3D_SIZE 32
0.008881 0.025910 0.052979
0.012970 0.025238 0.052949
0.030213 0.023529 0.053529
0.059205 0.026123 0.054322
0.075654 0.033692 0.057038
0.094057 0.043244 0.062837
0.120424 0.046357 0.067567
0.157137 0.035248 0.072084
0.205692 0.000000 0.075685
0.264042 0.000000 0.077424
0.329992 0.000000 0.077882
0.399634 0.000000 0.077760
0.468879 0.000000 0.077577
0.534142 0.000000 0.078065
0.592706 0.000000 0.079957
0.645258 0.000000 0.082643
0.692287 0.000000 0.087343
0.736934 0.000000 0.094636
0.778225 0.000000 0.105135
0.814206 0.000000 0.116884
0.848020 0.000000 0.129335
0.880064 0.000000 0.142641
0.910216 0.000000 0.156405
0.938872 0.000000 0.170565
0.965881 0.000000 0.185153
0.991119 0.000000 0.201083
1.000000 0.000000 0.218265
1.000000 0.093111 0.237613
1.000000 0.171817 0.259648
1.000000 0.230106 0.284764
1.000000 0.282933 0.313542
1.000000 0.335241 0.346380
0.008576 0.028290 0.052827
0.013489 0.031006 0.052583
0.030488 0.032929 0.052125
0.059693 0.037720 0.052766
0.075288 0.045502 0.059144
0.093843 0.053010 0.063752
0.120485 0.054261 0.068818
0.156832 0.046082 0.072877
0.205020 0.008820 0.076112
0.262974 0.000000 0.077546
0.328252 0.000000 0.078340
0.397314 0.000000 0.078279
0.466133 0.000000 0.078187
0.531060 0.000000 0.078706
0.589654 0.000000 0.080354
0.642115 0.000000 0.083345
0.689265 0.000000 0.087739
0.734035 0.000000 0.094697
0.774624 0.000000 0.104524
0.810147 0.000000 0.115755
0.843717 0.000000 0.127962
0.875608 0.000000 0.140963
0.905852 0.000000 0.154421
0.934691 0.000000 0.168429
0.962005 0.000000 0.182895
0.987671 0.000000 0.198489
1.000000 0.000000 0.215640
1.000000 0.090425 0.235080
1.000000 0.169772 0.257023
1.000000 0.228061 0.282048
1.000000 0.280522 0.310491
1.000000 0.332341 0.343114
0.007019 0.046113 0.053407
0.013092 0.048188 0.053925
0.030121 0.050507 0.052613
0.058900 0.053376 0.054963
0.074983 0.058137 0.061219
0.093996 0.061616 0.065766
0.120729 0.061830 0.069947
0.157015 0.056611 0.073915
0.204990 0.023987 0.077058
0.262638 0.000000 0.078431
0.327703 0.000000 0.078889
0.396643 0.000000 0.078767
0.465126 0.000000 0.079042
0.530083 0.000000 0.079469
0.588434 0.000000 0.081025
0.640986 0.000000 0.083955
0.688045 0.000000 0.088228
0.732967 0.000000 0.095094
0.772976 0.000000 0.104799
0.808225 0.000000 0.115846
0.841703 0.000000 0.127718
0.873594 0.000000 0.140444
0.903838 0.000000 0.153964
0.932738 0.000000 0.167819
0.960143 0.000000 0.182223
0.985992 0.000000 0.197696
1.000000 0.000000 0.214755
1.000000 0.100221 0.234226
1.000000 0.174075 0.255924
1.000000 0.230777 0.280980
1.000000 0.281987 0.309361
1.000000 0.333074 0.341863
0.001404 0.067048 0.060731
0.011017 0.066835 0.062806
0.025696 0.066712 0.065217
0.054170 0.068666 0.065156
0.074189 0.070771 0.066468
0.094881 0.072755 0.069490
0.122347 0.073396 0.072969
0.159579 0.070069 0.076356
0.207767 0.054963 0.078614
0.265446 0.000000 0.079530
0.330083 0.000000 0.080140
0.398505 0.000000 0.080262
0.466438 0.000000 0.080323
0.530632 0.000000 0.080934
0.588678 0.000000 0.082277
0.640833 0.000000 0.085603
0.687648 0.000000 0.089723
0.732753 0.000000 0.096742
0.771450 0.000000 0.105531
0.805753 0.000000 0.116335
0.838590 0.000000 0.127932
0.870207 0.000000 0.140230
0.900664 0.000000 0.153475
0.930083 0.000000 0.167483
0.958343 0.000000 0.182071
0.985016 0.000000 0.198123
1.000000 0.000000 0.215610
1.000000 0.129763 0.235325
1.000000 0.191409 0.257206
1.000000 0.242557 0.282048
1.000000 0.290837 0.310185
1.000000 0.339117 0.341955
0.000000 0.079561 0.070527
0.009094 0.079683 0.072206
0.022400 0.079652 0.074220
0.047669 0.080049 0.077363
0.069154 0.083436 0.076753
0.093202 0.087953 0.076661
0.124300 0.089296 0.077607
0.162570 0.087068 0.079347
0.211154 0.078248 0.081025
0.268650 0.051911 0.082033
0.332952 0.000000 0.082368
0.400763 0.000000 0.082216
0.468147 0.000000 0.082338
0.531853 0.000000 0.083284
0.589715 0.000000 0.084596
0.641901 0.000000 0.087404
0.688869 0.000000 0.091890
0.734493 0.000000 0.098939
0.772335 0.000000 0.107973
0.805997 0.000000 0.118471
0.838193 0.000000 0.129732
0.869413 0.000000 0.141848
0.899596 0.000000 0.154757
0.929015 0.000000 0.168612
0.957305 0.000000 0.183413
0.984070 0.000000 0.199405
1.000000 0.096834 0.216831
1.000000 0.162600 0.236362
1.000000 0.213077 0.258183
1.000000 0.258824 0.282902
1.000000 0.303258 0.310826
1.000000 0.348974 0.342657
0.000000 0.093812 0.080751
0.003937 0.094240 0.081544
0.016968 0.094301 0.081758
0.041352 0.094667 0.084291
0.064942 0.097353 0.085542
0.087312 0.102602 0.085115
0.122835 0.108614 0.084169
0.166903 0.109346 0.083650
0.218448 0.103731 0.084230
0.276524 0.089418 0.084840
0.340826 0.057618 0.085328
0.407996 0.000000 0.085054
0.474495 0.000000 0.084993
0.537346 0.000000 0.086061
0.594354 0.000000 0.087434
0.645899 0.000000 0.090333
0.694392 0.000000 0.095491
0.738064 0.000000 0.102449
0.774899 0.000000 0.111696
0.808194 0.000000 0.121859
0.840238 0.000000 0.133242
0.871427 0.000000 0.145632
0.928313 0.000000 0.174258
0.955840 0.015595 0.189059
0.981292 0.117647 0.204471
1.000000 0.164157 0.221012
1.000000 0.203647 0.238956
1.000000 0.240238 0.258854
1.000000 0.276036 0.280888
1.000000 0.312413 0.305852
1.000000 0.350195 0.333745
1.000000 0.390051 0.365057
0.000000 0.113741 0.092378
0.000000 0.114443 0.090883
0.003571 0.115267 0.088533
0.030549 0.115938 0.090486
0.061372 0.117037 0.093599
0.084779 0.122957 0.093812
0.118837 0.130556 0.092744
0.171969 0.137972 0.090425
0.231083 0.136751 0.089845
0.298558 0.128511 0.088594
0.364263 0.111971 0.088655
0.431769 0.082673 0.088228
0.496681 0.000000 0.088777
0.556756 0.000000 0.089418
0.610834 0.000000 0.091402
0.659602 0.000000 0.094697
0.709163 0.000000 0.100374
0.750454 0.000000 0.108339
0.785885 0.000000 0.117952
0.819303 0.000000 0.129488
0.852506 0.000000 0.141970
0.885466 0.000000 0.156039
0.917693 0.076112 0.171267
0.948455 0.132204 0.187320
0.976654 0.173373 0.204288
1.000000 0.207767 0.221775
1.000000 0.239445 0.240299
1.000000 0.269902 0.260227
1.000000 0.300694 0.282261
1.000000 0.332677 0.306920
1.000000 0.366491 0.334417
1.000000 0.403326 0.365515
0.000000 0.136172 0.102327
0.000000 0.136934 0.100526
0.000000 0.138033 0.097627
0.009735 0.139376 0.096284
0.050690 0.140871 0.099092
0.078462 0.143496 0.102480
0.112062 0.152743 0.101656
0.159243 0.162325 0.100038
0.227695 0.171267 0.096345
0.296910 0.169894 0.094820
0.372412 0.162875 0.092683
0.441688 0.149020 0.091829
0.505455 0.130465 0.092103
0.564080 0.109407 0.092866
0.616815 0.085756 0.095216
0.668238 0.066957 0.099001
0.714443 0.056245 0.104799
0.753323 0.051759 0.112490
0.787320 0.064424 0.122316
0.819821 0.085603 0.133608
0.852262 0.112764 0.146029
0.884581 0.141665 0.159731
0.916289 0.171267 0.174624
0.946624 0.199741 0.190402
0.974578 0.226780 0.207065
0.999451 0.252628 0.224430
1.000000 0.277379 0.242710
1.000000 0.302495 0.262577
1.000000 0.328801 0.284550
1.000000 0.356573 0.309026
1.000000 0.386969 0.336584
1.000000 0.420508 0.367498
0.000000 0.164248 0.112886
0.000000 0.165194 0.110597
0.000000 0.166476 0.107942
0.000000 0.168856 0.102449
0.021088 0.170535 0.105440
0.070619 0.172641 0.108980
0.104311 0.178897 0.111330
0.151186 0.190982 0.109773
0.213169 0.202518 0.107027
0.294652 0.213321 0.101320
0.370520 0.212802 0.098878
0.447395 0.208316 0.097108
0.517571 0.200717 0.095918
0.574365 0.190860 0.097078
0.628168 0.184512 0.099519
0.678614 0.182010 0.103883
0.721401 0.180392 0.110079
0.758145 0.180545 0.118044
0.790585 0.182925 0.128237
0.822324 0.190494 0.139193
0.854032 0.203159 0.151431
0.885679 0.219425 0.164920
0.916716 0.238315 0.179660
0.946502 0.258366 0.195254
0.974029 0.278752 0.211948
0.998535 0.298222 0.229068
1.000000 0.318212 0.247288
1.000000 0.338689 0.267033
1.000000 0.360693 0.288823
1.000000 0.384466 0.313176
1.000000 0.411017 0.340307
1.000000 0.440986 0.370947
0.000000 0.198032 0.122835
0.000000 0.199008 0.120729
0.000000 0.200198 0.117769
0.000000 0.203220 0.110536
0.000000 0.205600 0.111177
0.051545 0.208164 0.114748
0.095918 0.210971 0.119509
0.142245 0.221714 0.119631
0.202792 0.236118 0.117128
0.277165 0.249790 0.112795
0.366888 0.262272 0.105501
0.444160 0.263096 0.102144
0.516960 0.262028 0.102327
0.586023 0.263188 0.101656
0.642084 0.262760 0.104311
0.689448 0.262089 0.109316
0.730098 0.261082 0.116121
0.765133 0.260624 0.124941
0.796475 0.261814 0.135439
0.827176 0.265904 0.146700
0.857633 0.273716 0.158724
0.887724 0.284459 0.171786
0.917296 0.297185 0.185733
0.945800 0.311376 0.200595
0.972473 0.326360 0.216648
0.996643 0.341741 0.233646
1.000000 0.357794 0.251774
1.000000 0.375097 0.271702
1.000000 0.393988 0.293950
1.000000 0.414771 0.318578
1.000000 0.438514 0.346258
1.000000 0.465644 0.377203
0.000000 0.235630 0.132540
0.000000 0.236728 0.130404
0.000000 0.238163 0.127443
0.000000 0.241276 0.121004
0.000000 0.244785 0.116548
0.000000 0.247868 0.120089
0.082765 0.251469 0.124849
0.132570 0.255802 0.129915
0.192752 0.271427 0.127687
0.265415 0.288182 0.123873
0.348486 0.303685 0.117800
0.441535 0.318395 0.109621
0.519066 0.324010 0.105959
0.587671 0.328985 0.108797
0.648768 0.333837 0.110719
0.698756 0.335546 0.115236
0.736873 0.332799 0.122988
0.770077 0.330419 0.132631
0.800412 0.329168 0.142916
0.830350 0.331151 0.154055
0.860105 0.336248 0.166262
0.889677 0.343816 0.179263
0.918822 0.353552 0.193393
0.946777 0.364385 0.208408
0.972869 0.375860 0.224308
0.996490 0.387640 0.241184
1.000000 0.400183 0.259007
1.000000 0.413886 0.278752
1.000000 0.429175 0.300542
1.000000 0.446540 0.325017
1.000000 0.466712 0.352361
1.000000 0.490700 0.383246
0.000000 0.278325 0.141817
0.000000 0.279362 0.139803
0.000000 0.280949 0.137026
0.000000 0.284031 0.130831
0.000000 0.288670 0.121767
0.000000 0.292058 0.125307
0.055055 0.296025 0.129915
0.123445 0.300206 0.135348
0.182986 0.309148 0.138674
0.254032 0.327031 0.135409
0.336645 0.346593 0.130251
0.428809 0.367895 0.123201
0.551751 0.414923 0.118288
0.620020 0.422889 0.115053
0.677699 0.428473 0.124086
0.726101 0.430274 0.133028
0.767025 0.429175 0.142794
0.797513 0.423438 0.153323
0.825650 0.418891 0.164401
0.853544 0.417426 0.175998
0.881163 0.418494 0.188022
0.908415 0.421881 0.201053
0.934905 0.426368 0.214572
0.960174 0.432441 0.229343
0.983673 0.439246 0.244968
1.000000 0.446845 0.261418
1.000000 0.455268 0.279118
1.000000 0.464759 0.298283
1.000000 0.475959 0.319524
1.000000 0.489387 0.343420
1.000000 0.505791 0.370123
1.000000 0.526177 0.400397
0.000000 0.331731 0.151888
0.000000 0.332769 0.150179
0.000000 0.333837 0.147341
0.000000 0.336553 0.141512
0.000000 0.340856 0.131411
0.000000 0.344030 0.131075
0.000000 0.347570 0.135653
0.109529 0.351720 0.141176
0.177066 0.356359 0.147707
0.249638 0.373968 0.148867
0.335210 0.399145 0.145785
0.429450 0.426062 0.140230
0.522698 0.452705 0.133364
0.609644 0.478096 0.128664
0.670802 0.485664 0.125460
0.719631 0.488106 0.139986
0.760678 0.486763 0.152499
0.796719 0.484016 0.163973
0.828031 0.480171 0.174838
0.855222 0.475959 0.186069
0.882200 0.474617 0.198306
0.908934 0.475257 0.210849
0.934813 0.477333 0.224308
0.959503 0.480629 0.238651
0.982452 0.484779 0.253941
1.000000 0.489631 0.270024
1.000000 0.495399 0.287480
1.000000 0.502373 0.306554
1.000000 0.510735 0.327611
1.000000 0.521538 0.351415
1.000000 0.535180 0.377966
1.000000 0.552819 0.408270
0.000000 0.378332 0.160678
0.000000 0.379431 0.158755
0.000000 0.380499 0.156191
0.000000 0.383124 0.151003
0.000000 0.386999 0.141817
0.000000 0.391333 0.136324
0.000000 0.395270 0.140871
0.084535 0.401709 0.146700
0.169375 0.408972 0.153536
0.241093 0.416846 0.161746
0.323125 0.440223 0.159884
0.412299 0.465858 0.156008
0.502922 0.492866 0.150820
0.586694 0.519005 0.144991
0.662257 0.541100 0.143893
0.713161 0.543328 0.143740
0.754025 0.540917 0.159152
0.789944 0.537407 0.173556
0.823941 0.534691 0.186343
0.856870 0.533623 0.198459
0.883787 0.530175 0.210391
0.910094 0.528588 0.223056
0.935546 0.528374 0.236362
0.959777 0.529381 0.250492
0.982177 0.531182 0.265629
1.000000 0.533593 0.281590
1.000000 0.536919 0.298802
1.000000 0.541344 0.317662
1.000000 0.547356 0.338628
1.000000 0.555535 0.362158
1.000000 0.566705 0.388861
1.000000 0.581689 0.419074
0.000000 0.428351 0.169162
0.000000 0.429694 0.167758
0.000000 0.430976 0.165560
0.000000 0.434089 0.160464
0.000000 0.438758 0.152621
0.000000 0.444862 0.142580
0.000000 0.449348 0.147250
0.007874 0.454658 0.152926
0.156863 0.460792 0.159640
0.235996 0.467903 0.167575
0.311742 0.479835 0.173556
0.396948 0.504051 0.171420
0.483528 0.529503 0.168154
0.566064 0.556237 0.163790
0.640986 0.580713 0.160159
0.704738 0.595972 0.163912
0.747890 0.593652 0.166659
0.784024 0.588769 0.180972
0.817868 0.585382 0.196567
0.850828 0.583490 0.210483
0.882963 0.582940 0.224033
0.911620 0.581292 0.236912
0.936431 0.578668 0.249943
0.960052 0.577386 0.264042
0.981994 0.576989 0.279088
1.000000 0.577508 0.295171
1.000000 0.578973 0.312779
1.000000 0.581750 0.332341
1.000000 0.585931 0.353887
1.000000 0.592401 0.378271
1.000000 0.601770 0.405707
1.000000 0.614923 0.436805
0.000000 0.483589 0.178744
0.000000 0.484993 0.177371
0.000000 0.486275 0.175387
0.000000 0.489052 0.170993
0.000000 0.493355 0.163790
0.000000 0.499275 0.154208
0.000000 0.504479 0.154208
0.000000 0.509606 0.160006
0.142306 0.515160 0.166964
0.230686 0.521233 0.174655
0.307408 0.527520 0.183688
0.385565 0.542962 0.187045
0.466987 0.565332 0.185122
0.545098 0.588861 0.182498
0.617945 0.612238 0.179873
0.683558 0.632136 0.178470
0.738338 0.641657 0.186801
0.777188 0.637690 0.191348
0.812192 0.633600 0.204379
0.845579 0.631708 0.221988
0.878264 0.631006 0.237736
0.909819 0.630854 0.253178
0.939422 0.630488 0.268376
0.962463 0.627131 0.282353
0.983673 0.624689 0.297459
1.000000 0.623072 0.313664
1.000000 0.622431 0.331182
1.000000 0.622889 0.350591
1.000000 0.624842 0.372259
1.000000 0.628748 0.396033
1.000000 0.635462 0.422766
1.000000 0.645838 0.453101
0.000000 0.533928 0.188022
0.000000 0.534783 0.186618
0.000000 0.535821 0.185000
0.000000 0.538201 0.180789
0.000000 0.541924 0.174716
0.000000 0.547082 0.166293
0.000000 0.552697 0.161288
0.000000 0.557000 0.167086
0.117342 0.561852 0.173709
0.219059 0.567193 0.181430
0.299992 0.572839 0.190280
0.373510 0.578668 0.200198
0.451179 0.598230 0.200870
0.525963 0.619409 0.200137
0.595666 0.640314 0.199802
0.660487 0.660334 0.199496
0.719387 0.676814 0.201175
0.768307 0.682948 0.212772
0.805539 0.679652 0.218051
0.839689 0.676234 0.229953
0.872251 0.674739 0.248905
0.903868 0.673884 0.266117
0.933715 0.672999 0.282780
0.961273 0.671901 0.299657
0.983795 0.668879 0.315496
1.000000 0.665431 0.331701
1.000000 0.662837 0.349310
1.000000 0.661463 0.368750
1.000000 0.661433 0.390265
1.000000 0.663447 0.414160
1.000000 0.668116 0.440772
1.000000 0.676509 0.471321
0.000000 0.582696 0.197910
0.000000 0.584070 0.196719
0.000000 0.606256 0.200107
0.000000 0.608301 0.196353
0.000000 0.611505 0.190951
0.000000 0.615564 0.183688
0.000000 0.620752 0.175051
0.000000 0.623743 0.180270
0.105043 0.627192 0.187167
0.222782 0.631037 0.195010
0.307805 0.635035 0.203983
0.382879 0.638911 0.214145
0.451789 0.645350 0.223362
0.521904 0.663203 0.224521
0.587243 0.680690 0.226230
0.648524 0.697658 0.228183
0.706416 0.714107 0.230961
0.759915 0.727687 0.235386
0.805264 0.732113 0.248997
0.840482 0.728237 0.255222
0.873259 0.724086 0.265415
0.904112 0.721553 0.285557
0.933257 0.719173 0.304051
0.959899 0.716426 0.321843
0.983368 0.712947 0.339178
1.000000 0.708949 0.356390
1.000000 0.703548 0.372229
1.000000 0.699428 0.390082
1.000000 0.697078 0.410376
1.000000 0.697017 0.433722
1.000000 0.699733 0.460090
1.000000 0.705867 0.490028
0.000000 0.635096 0.209567
0.000000 0.638514 0.209201
0.000000 0.642237 0.208438
0.000000 0.646571 0.206027
0.000000 0.651240 0.201816
0.000000 0.655695 0.195773
0.000000 0.660487 0.188449
0.000000 0.663935 0.189242
0.058412 0.666804 0.195987
0.207492 0.669764 0.203861
0.297215 0.672908 0.212680
0.373419 0.676020 0.222782
0.441138 0.678920 0.234012
0.504997 0.688289 0.241184
0.567987 0.703822 0.243748
0.626978 0.718990 0.247105
0.683131 0.734157 0.250797
0.737240 0.749447 0.255375
0.788205 0.762264 0.261875
0.831846 0.766354 0.277745
0.866026 0.762814 0.285252
0.898466 0.759121 0.294804
0.927855 0.756313 0.316686
0.954803 0.753170 0.336950
0.978546 0.749355 0.356054
0.998932 0.745052 0.374884
1.000000 0.740444 0.394079
1.000000 0.735378 0.412879
1.000000 0.731411 0.432868
1.000000 0.729610 0.455695
1.000000 0.730526 0.481544
1.000000 0.734798 0.511070
0.000000 0.676631 0.219760
0.000000 0.679683 0.219638
0.000000 0.682918 0.219242
0.000000 0.686580 0.217288
0.000000 0.690608 0.213718
0.000000 0.694423 0.208743
0.000000 0.698390 0.202853
0.000000 0.702174 0.199985
0.000000 0.704433 0.206638
0.193668 0.706813 0.214481
0.287785 0.709285 0.223423
0.365545 0.711727 0.233433
0.433448 0.713893 0.244388
0.493324 0.716213 0.256535
0.552728 0.727749 0.262119
0.609827 0.741573 0.266392
0.664271 0.755734 0.270939
0.716762 0.770016 0.276585
0.768338 0.784421 0.282902
0.817380 0.796262 0.291630
0.859342 0.799527 0.309880
0.892241 0.795773 0.318853
0.923186 0.791623 0.329564
0.950286 0.787778 0.351385
0.974060 0.783383 0.372747
0.994446 0.778500 0.393072
1.000000 0.773220 0.413367
1.000000 0.768093 0.434516
1.000000 0.763668 0.456611
1.000000 0.760281 0.478614
1.000000 0.759518 0.503716
1.000000 0.761929 0.532311
0.000000 0.715816 0.231022
0.000000 0.718471 0.231052
0.000000 0.721309 0.230808
0.000000 0.724544 0.229282
0.000000 0.727932 0.226383
0.000000 0.731075 0.222538
0.000000 0.734371 0.217929
0.000000 0.737942 0.213413
0.000000 0.739773 0.219181
0.181613 0.741421 0.226871
0.279881 0.743130 0.235477
0.358465 0.744839 0.245487
0.426398 0.746395 0.256352
0.486275 0.748196 0.268376
0.540490 0.751553 0.280552
0.596216 0.764920 0.285985
0.649805 0.778805 0.292271
0.701625 0.793027 0.299565
0.752346 0.807370 0.308202
0.802762 0.821561 0.318334
0.851194 0.832731 0.330663
0.891661 0.834806 0.352728
0.922454 0.830228 0.363989
0.950652 0.825132 0.377050
0.974273 0.819852 0.398901
0.993774 0.814298 0.422278
1.000000 0.808316 0.444892
1.000000 0.802518 0.467659
1.000000 0.797482 0.491157
1.000000 0.794003 0.516014
1.000000 0.792111 0.540795
1.000000 0.792660 0.567163
0.000000 0.760708 0.246677
0.000000 0.762081 0.246433
0.000000 0.763333 0.245914
0.000000 0.764981 0.244480
0.000000 0.766995 0.241978
0.000000 0.769162 0.238956
0.000000 0.771725 0.235721
0.000000 0.774746 0.232975
0.000000 0.777127 0.236179
0.181491 0.778683 0.243992
0.281285 0.780392 0.253117
0.360113 0.781949 0.263218
0.427588 0.783352 0.274144
0.486549 0.784909 0.286137
0.539544 0.786618 0.299138
0.590204 0.792874 0.310033
0.641596 0.805386 0.317174
0.691432 0.818082 0.325292
0.740017 0.830777 0.334600
0.788174 0.843107 0.344945
0.836362 0.854734 0.356786
0.882536 0.863218 0.370550
0.918547 0.862089 0.393072
0.945434 0.855528 0.404700
0.969848 0.848966 0.418158
0.989715 0.842252 0.438758
1.000000 0.835813 0.463600
1.000000 0.829435 0.488045
1.000000 0.823880 0.512779
1.000000 0.819547 0.537896
1.000000 0.816922 0.563867
1.000000 0.816220 0.590234
0.000000 0.795315 0.260075
0.000000 0.796567 0.260105
0.000000 0.797818 0.259800
0.000000 0.799344 0.258854
0.000000 0.801053 0.257084
0.000000 0.802792 0.254826
0.000000 0.804807 0.252628
0.000000 0.807156 0.250950
0.000000 0.809537 0.252415
0.179812 0.810666 0.260075
0.280339 0.811887 0.268894
0.358618 0.813077 0.278843
0.425269 0.814237 0.289647
0.484047 0.815579 0.301762
0.536614 0.817105 0.314672
0.584558 0.819028 0.328801
0.632990 0.828000 0.338933
0.681270 0.839689 0.348089
0.728389 0.851255 0.358373
0.774838 0.862577 0.369940
0.821134 0.873259 0.382849
0.867735 0.882994 0.397009
0.911772 0.889525 0.413062
0.943236 0.885954 0.437385
0.963684 0.875486 0.443275
0.984436 0.867979 0.457740
1.000000 0.860349 0.478065
1.000000 0.853452 0.504448
1.000000 0.847227 0.530266
1.000000 0.842069 0.555932
1.000000 0.838560 0.582025
1.000000 0.837003 0.608972
0.000000 0.835660 0.278508
0.000000 0.836912 0.278782
0.000000 0.837827 0.278721
0.000000 0.838773 0.277958
0.000000 0.839780 0.276707
0.000000 0.840818 0.275059
0.000000 0.841917 0.273655
0.000000 0.843229 0.273136
0.000000 0.844694 0.274113
0.192294 0.844968 0.280552
0.287724 0.845029 0.288701
0.363043 0.845274 0.297978
0.427680 0.845640 0.308415
0.484596 0.846067 0.319860
0.535576 0.846525 0.332006
0.582238 0.847227 0.345342
0.625483 0.848569 0.359564
0.671504 0.858549 0.368566
0.716823 0.868803 0.379095
0.761624 0.879057 0.391302
0.806088 0.888823 0.405005
0.850462 0.897673 0.419715
0.894560 0.905180 0.435431
0.935210 0.909422 0.452094
0.961242 0.903227 0.475898
0.979858 0.893736 0.487892
0.996216 0.885222 0.503471
1.000000 0.876646 0.522606
1.000000 0.869535 0.549065
1.000000 0.863554 0.575006
1.000000 0.859068 0.600855
1.000000 0.856565 0.627741
0.000000 0.867399 0.294255
0.000000 0.868498 0.294652
0.000000 0.869352 0.294713
0.000000 0.870176 0.294469
0.000000 0.870909 0.293645
0.000000 0.871702 0.292851
0.000000 0.872618 0.292576
0.000000 0.873625 0.293095
0.000000 0.874784 0.295384
0.206973 0.875486 0.301244
0.297887 0.875486 0.309606
0.371038 0.875669 0.319188
0.433753 0.875975 0.329900
0.489265 0.876310 0.341588
0.539452 0.876677 0.354192
0.585321 0.877195 0.367681
0.627893 0.877989 0.382391
0.669368 0.881743 0.396368
0.712612 0.890623 0.407599
0.755337 0.899382 0.420447
0.797543 0.907622 0.434577
0.839475 0.915038 0.449866
0.880949 0.921294 0.465980
0.921477 0.926360 0.482673
0.957977 0.928405 0.500389
0.978058 0.919890 0.524010
0.992035 0.909209 0.536065
1.000000 0.899962 0.552392
1.000000 0.891173 0.570825
1.000000 0.884428 0.597375
1.000000 0.879179 0.623438
1.000000 0.875853 0.650233
0.000000 0.900053 0.313390
0.000000 0.900816 0.313817
0.000000 0.901244 0.313909
0.000000 0.901579 0.313664
0.000000 0.901823 0.313146
0.000000 0.902098 0.312932
0.000000 0.902464 0.313207
0.000000 0.902922 0.314641
0.100832 0.903502 0.317845
0.227848 0.904082 0.323888
0.312322 0.903838 0.332311
0.381720 0.903838 0.342107
0.441871 0.903899 0.352941
0.495766 0.903990 0.364782
0.544305 0.904021 0.377386
0.588983 0.904112 0.390845
0.630549 0.904387 0.405493
0.669551 0.905028 0.421454
0.709316 0.910155 0.435157
0.749813 0.917449 0.448219
0.789853 0.924285 0.462654
0.829343 0.930358 0.478309
0.868254 0.935424 0.494697
0.906188 0.939422 0.511528
0.942626 0.942382 0.528374
0.974701 0.942565 0.545708
0.989227 0.932189 0.568139
0.999359 0.920836 0.579889
1.000000 0.911345 0.596155
1.000000 0.902831 0.614405
1.000000 0.896605 0.639979
1.000000 0.892515 0.667292
0.000000 0.929259 0.333074
0.000000 0.929747 0.333440
0.000000 0.930053 0.333654
0.000000 0.930327 0.333837
0.000000 0.930663 0.334051
0.000000 0.931182 0.335119
0.000000 0.932036 0.337163
0.000000 0.933043 0.340948
0.169497 0.934142 0.346960
0.269322 0.935302 0.355932
0.345617 0.935882 0.366552
0.409766 0.936309 0.377996
0.466346 0.936675 0.390387
0.517327 0.936858 0.403510
0.563806 0.936797 0.417273
0.606287 0.936553 0.431525
0.645930 0.936309 0.446754
0.683192 0.936278 0.463050
0.718776 0.936522 0.480934
0.756100 0.941497 0.494972
0.792966 0.946227 0.509819
0.829221 0.950256 0.525353
0.864591 0.953368 0.541070
0.898741 0.955596 0.557061
0.931304 0.956878 0.573083
0.962036 0.957336 0.589075
0.988434 0.955535 0.605524
0.997192 0.943755 0.625544
1.000000 0.932372 0.636439
1.000000 0.923064 0.651606
1.000000 0.915526 0.670741
1.000000 0.910643 0.696742
0.000000 0.963348 0.362829
0.000000 0.963592 0.363287
0.000000 0.963592 0.363531
0.000000 0.963500 0.363836
0.000000 0.963317 0.364691
0.000000 0.963104 0.366247
0.000000 0.962951 0.368933
0.121950 0.962799 0.373236
0.231235 0.962615 0.379889
0.311070 0.962341 0.389563
0.377356 0.961852 0.400519
0.433539 0.961242 0.411048
0.484535 0.960601 0.422583
0.531365 0.959899 0.434943
0.574731 0.959136 0.448219
