其他预设/【233】日式怀旧街道调色预设208款/1.3D LUT预设（视频调色-PR-AE-PS-FCPX-达芬奇用）/2.富士胶片风-日式城市街拍预设/JA – Cityscape Pop 1 (Classic Chrome).cube
# Created by Adobe Lightroom plugin Export LUT (1.17.0)
# www.johnrellis.com/lightroom/exportlut.htm
# Preset: JA – Cityscape Pop 1 (Classic Chrome)
# Color profile: /Library/Application Support/Adobe/Color/Profiles/Recommended/AdobeRGB1998.icc
LUT_3D_SIZE 32
0.112947 0.115755 0.117494
0.112947 0.115755 0.117494
0.113222 0.115724 0.117494
0.115267 0.115389 0.117464
0.121401 0.115236 0.117311
0.134279 0.115053 0.116945
0.155856 0.115053 0.116213
0.186465 0.115663 0.114900
0.224277 0.116579 0.112795
0.267674 0.119051 0.109651
0.315862 0.122530 0.105379
0.367437 0.127718 0.099092
0.420935 0.134463 0.090547
0.474800 0.143252 0.078859
0.527611 0.152438 0.062562
0.578302 0.162325 0.020264
0.627161 0.171969 0.000000
0.673610 0.181399 0.000000
0.720485 0.191836 0.000000
0.766690 0.201541 0.000000
0.807828 0.210056 0.000000
0.844144 0.217227 0.000000
0.875608 0.222904 0.000000
0.902831 0.227085 0.000000
0.926574 0.229679 0.000000
0.947662 0.231327 0.000000
0.966796 0.231724 0.000000
0.984192 0.231449 0.000000
1.000000 0.229953 0.000000
1.000000 0.227726 0.000000
1.000000 0.224338 0.000000
1.000000 0.220340 0.000000
0.112947 0.115755 0.117494
0.112947 0.115755 0.117494
0.113222 0.115724 0.117494
0.115206 0.115846 0.117433
0.121553 0.115877 0.117250
0.134371 0.116152 0.116854
0.155703 0.116640 0.116091
0.185885 0.117800 0.114748
0.223392 0.119692 0.112581
0.266545 0.122683 0.109621
0.314336 0.126345 0.105135
0.365423 0.132357 0.098817
0.418555 0.139406 0.090272
0.472297 0.148165 0.078584
0.524681 0.157198 0.062379
0.575494 0.166751 0.020050
0.624140 0.176852 0.000000
0.670710 0.185855 0.000000
0.717556 0.195590 0.000000
0.763119 0.205112 0.000000
0.804044 0.213260 0.000000
0.840452 0.219883 0.000000
0.872221 0.225559 0.000000
0.899870 0.229526 0.000000
0.924010 0.232212 0.000000
0.945464 0.233738 0.000000
0.964904 0.234195 0.000000
0.982635 0.233982 0.000000
0.998962 0.232517 0.000000
1.000000 0.230014 0.000000
1.000000 0.226749 0.000000
1.000000 0.222629 0.000000
0.112917 0.115999 0.117464
0.112917 0.115999 0.117464
0.113161 0.115938 0.117464
0.115389 0.116487 0.117372
0.121645 0.116945 0.117159
0.134401 0.117678 0.116732
0.155489 0.118868 0.115938
0.185489 0.120882 0.114473
0.222660 0.123476 0.112276
0.265660 0.127077 0.109255
0.313237 0.132113 0.104646
0.364172 0.138369 0.098268
0.417243 0.145876 0.089570
0.470863 0.154391 0.077790
0.523278 0.164004 0.061128
0.573907 0.172793 0.017395
0.622553 0.182620 0.000000
0.669093 0.191623 0.000000
0.716182 0.201175 0.000000
0.761227 0.210422 0.000000
0.802182 0.218235 0.000000
0.838651 0.224582 0.000000
0.870512 0.230014 0.000000
0.898344 0.233860 0.000000
0.922667 0.236332 0.000000
0.944305 0.237491 0.000000
0.963867 0.237949 0.000000
0.981781 0.237400 0.000000
0.998260 0.235752 0.000000
1.000000 0.233310 0.000000
1.000000 0.229740 0.000000
1.000000 0.225650 0.000000
0.112673 0.117556 0.117342
0.112947 0.117525 0.117342
0.113741 0.117403 0.117342
0.115480 0.117556 0.117281
0.122286 0.119234 0.116976
0.135042 0.121187 0.116426
0.156008 0.123995 0.115450
0.186069 0.127291 0.113893
0.222904 0.131502 0.111513
0.265721 0.136904 0.108248
0.312993 0.142855 0.103456
0.363622 0.150546 0.096742
0.416236 0.158572 0.087770
0.469429 0.167636 0.075502
0.521874 0.177005 0.057435
0.572351 0.186130 0.009094
0.620966 0.195041 0.000000
0.667292 0.203769 0.000000
0.714595 0.213046 0.000000
0.758602 0.221439 0.000000
0.799039 0.228580 0.000000
0.835386 0.234348 0.000000
0.867735 0.239139 0.000000
0.896117 0.242954 0.000000
0.921172 0.244999 0.000000
0.943420 0.246036 0.000000
0.963378 0.246067 0.000000
0.981476 0.245365 0.000000
0.998047 0.243442 0.000000
1.000000 0.240482 0.000000
1.000000 0.236912 0.000000
1.000000 0.232486 0.000000
0.112642 0.121401 0.117037
0.113680 0.121248 0.117006
0.114900 0.121279 0.117189
0.117403 0.121309 0.117128
0.121218 0.121523 0.117006
0.135500 0.125826 0.115999
0.156985 0.131075 0.114748
0.186496 0.136629 0.112947
0.222904 0.143069 0.110506
0.265141 0.149966 0.106783
0.312108 0.157961 0.101564
0.362341 0.166903 0.094453
0.414618 0.176181 0.084871
0.467811 0.185733 0.071656
0.520195 0.195285 0.048005
0.570977 0.204471 0.000000
0.619837 0.213046 0.000000
0.666987 0.221408 0.000000
0.714626 0.230625 0.000000
0.758022 0.237522 0.000000
0.797879 0.244205 0.000000
0.833951 0.249607 0.000000
0.866178 0.253544 0.000000
0.894774 0.256413 0.000000
0.920012 0.258091 0.000000
0.942443 0.258579 0.000000
0.962554 0.258244 0.000000
0.980743 0.256962 0.000000
0.997345 0.254490 0.000000
1.000000 0.251591 0.000000
1.000000 0.247440 0.000000
1.000000 0.242741 0.000000
0.113527 0.128939 0.116335
0.114748 0.128969 0.116518
0.116518 0.128908 0.116457
0.119966 0.128573 0.116396
0.125429 0.129488 0.116182
0.132876 0.129641 0.115938
0.156985 0.138460 0.114229
0.188174 0.147860 0.111849
0.224521 0.157412 0.108675
0.266484 0.166781 0.104433
0.313024 0.176608 0.098634
0.363012 0.186770 0.090822
0.415076 0.197360 0.080171
0.468116 0.207553 0.065278
0.520378 0.217258 0.029175
0.571099 0.226505 0.000000
0.620020 0.235325 0.000000
0.669001 0.243656 0.000000
0.715663 0.251865 0.000000
0.758694 0.258549 0.000000
0.798337 0.264591 0.000000
0.834562 0.268986 0.000000
0.886412 0.277775 0.000000
0.912291 0.279576 0.000000
0.934905 0.279484 0.000000
0.954894 0.278752 0.000000
0.972900 0.276921 0.000000
0.989288 0.274479 0.000000
1.000000 0.271275 0.000000
1.000000 0.267430 0.000000
1.000000 0.262516 0.000000
1.000000 0.257267 0.000000
0.115572 0.143435 0.115053
0.117342 0.143221 0.115023
0.119814 0.143069 0.114961
0.124819 0.142550 0.114870
0.132174 0.143191 0.114809
0.142519 0.145022 0.114260
0.154543 0.145357 0.113802
0.190494 0.159976 0.110292
0.231266 0.174228 0.105928
0.274357 0.187381 0.100526
0.321782 0.200809 0.093233
0.372320 0.212528 0.083772
0.424445 0.224308 0.070710
0.476997 0.234989 0.046662
0.528496 0.244846 0.000000
0.578088 0.253483 0.000000
0.626215 0.261692 0.000000
0.677577 0.270756 0.000000
0.723812 0.278447 0.000000
0.766995 0.284520 0.000000
0.807462 0.289952 0.000000
0.844541 0.294255 0.000000
0.877653 0.296818 0.000000
0.906371 0.298405 0.000000
0.931151 0.298497 0.000000
0.952361 0.296880 0.000000
0.970977 0.294774 0.000000
0.987701 0.291814 0.000000
1.000000 0.288182 0.000000
1.000000 0.283726 0.000000
1.000000 0.278660 0.000000
1.000000 0.272892 0.000000
0.119905 0.163333 0.112612
0.122347 0.163058 0.112581
0.125399 0.162692 0.112520
0.131472 0.161929 0.112642
0.140352 0.161776 0.112367
0.152316 0.163882 0.111666
0.167666 0.166964 0.110658
0.183261 0.167208 0.110140
0.227634 0.185977 0.104585
0.274144 0.203433 0.097597
0.322911 0.219791 0.088869
0.373388 0.235325 0.077241
0.425025 0.249027 0.061128
0.477363 0.260685 0.018677
0.528344 0.270878 0.000000
0.577844 0.279667 0.000000
0.628931 0.289036 0.000000
0.678553 0.297581 0.000000
0.723445 0.304143 0.000000
0.765682 0.309880 0.000000
0.805631 0.314611 0.000000
0.842313 0.318090 0.000000
0.875303 0.320348 0.000000
0.904051 0.320836 0.000000
0.928893 0.319890 0.000000
0.950317 0.317906 0.000000
0.969146 0.315221 0.000000
0.986084 0.311223 0.000000
1.000000 0.307195 0.000000
1.000000 0.302281 0.000000
1.000000 0.296696 0.000000
1.000000 0.290501 0.000000
0.126986 0.189944 0.108797
0.129946 0.189517 0.108766
0.133700 0.188998 0.108736
0.141024 0.188052 0.108614
0.151461 0.186770 0.108431
0.164706 0.188724 0.107790
0.181247 0.191806 0.106538
0.200961 0.195773 0.105043
0.219699 0.195468 0.103975
0.270603 0.217624 0.095705
0.321935 0.237583 0.084657
0.375586 0.256291 0.069520
0.427314 0.272313 0.040528
0.479500 0.287358 0.000000
0.530205 0.298619 0.000000
0.581079 0.308812 0.000000
0.632654 0.318547 0.000000
0.680537 0.326177 0.000000
0.724300 0.332128 0.000000
0.765927 0.337072 0.000000
0.805173 0.341070 0.000000
0.841489 0.343938 0.000000
0.874083 0.345159 0.000000
0.902647 0.345098 0.000000
0.927459 0.343725 0.000000
0.948913 0.340887 0.000000
0.967834 0.337377 0.000000
0.984863 0.332952 0.000000
1.000000 0.328038 0.000000
1.000000 0.322545 0.000000
1.000000 0.316442 0.000000
1.000000 0.309941 0.000000
0.135683 0.222202 0.102876
0.138766 0.221897 0.103059
0.143008 0.221500 0.102968
0.151736 0.220218 0.102876
0.163790 0.218662 0.102663
0.178378 0.218326 0.102266
0.196292 0.221347 0.100679
0.217044 0.225284 0.098512
0.240970 0.230167 0.095644
0.261845 0.228885 0.094453
0.317571 0.252964 0.081514
0.371954 0.274083 0.063844
0.428260 0.294133 0.013367
0.481025 0.310246 0.000000
0.533898 0.325353 0.000000
0.587091 0.339757 0.000000
0.637659 0.349310 0.000000
0.684443 0.356603 0.000000
0.727352 0.362158 0.000000
0.768002 0.366278 0.000000
0.806119 0.369299 0.000000
0.841184 0.371191 0.000000
0.872801 0.371466 0.000000
0.900725 0.370581 0.000000
0.925231 0.368170 0.000000
0.946777 0.364752 0.000000
0.965972 0.360510 0.000000
0.983307 0.355718 0.000000
0.999176 0.350195 0.000000
1.000000 0.344213 0.000000
1.000000 0.337804 0.000000
1.000000 0.330724 0.000000
0.145876 0.257908 0.094453
0.149355 0.257450 0.094423
0.154208 0.256962 0.094362
0.163638 0.255985 0.094423
0.177096 0.254185 0.094179
0.193027 0.252110 0.094057
0.211917 0.254612 0.092134
0.233921 0.258610 0.089570
0.258885 0.263554 0.085817
0.286748 0.269291 0.080934
0.309209 0.266545 0.079011
0.368414 0.291325 0.055970
0.424475 0.312779 0.000000
0.483467 0.333959 0.000000
0.539513 0.351629 0.000000
0.591058 0.365667 0.000000
0.640497 0.377844 0.000000
0.686427 0.386877 0.000000
0.728420 0.391760 0.000000
0.768429 0.395331 0.000000
0.806058 0.398047 0.000000
0.840726 0.399115 0.000000
0.872099 0.398871 0.000000
0.899870 0.397345 0.000000
0.924285 0.394324 0.000000
0.945708 0.390204 0.000000
0.964813 0.385199 0.000000
0.982116 0.379675 0.000000
0.998016 0.373510 0.000000
1.000000 0.366857 0.000000
1.000000 0.359930 0.000000
1.000000 0.352636 0.000000
0.158267 0.297307 0.081941
0.162051 0.297093 0.081819
0.167147 0.296452 0.081758
0.177371 0.295354 0.081514
0.191653 0.293584 0.081514
0.208957 0.291417 0.081331
0.228428 0.290898 0.079835
0.251316 0.294926 0.075929
0.277104 0.299870 0.070954
0.305791 0.305669 0.063722
0.336278 0.311284 0.051484
0.361181 0.308110 0.044495
0.442664 0.347295 0.000000
0.503960 0.370397 0.000000
0.562402 0.389654 0.000000
0.617762 0.405676 0.000000
0.665888 0.416785 0.000000
0.709407 0.425177 0.000000
0.749477 0.431708 0.000000
0.787167 0.434852 0.000000
0.821958 0.435370 0.000000
0.853849 0.434577 0.000000
0.882383 0.432410 0.000000
0.907836 0.428931 0.000000
0.930449 0.424414 0.000000
0.950591 0.419074 0.000000
0.968658 0.412879 0.000000
0.985077 0.406226 0.000000
1.000000 0.399176 0.000000
1.000000 0.391699 0.000000
1.000000 0.384070 0.000000
1.000000 0.375952 0.000000
0.174441 0.344335 0.056855
0.178317 0.343877 0.057557
0.183719 0.342931 0.057740
0.194125 0.341527 0.057465
0.209354 0.339208 0.057923
0.227451 0.336217 0.058228
0.247532 0.333043 0.057801
0.270756 0.335576 0.048493
0.297459 0.340337 0.031769
0.327123 0.346380 0.008576
0.361852 0.355291 0.000000
0.398444 0.363775 0.000000
0.430060 0.363134 0.000000
0.498512 0.390234 0.000000
0.557641 0.410986 0.000000
0.613367 0.428046 0.000000
0.665064 0.441566 0.000000
0.708980 0.450111 0.000000
0.748531 0.456062 0.000000
0.785763 0.461189 0.000000
0.820432 0.464729 0.000000
0.852049 0.463355 0.000000
0.880339 0.460578 0.000000
0.905760 0.456458 0.000000
0.928344 0.451453 0.000000
0.948486 0.445319 0.000000
0.966644 0.438727 0.000000
0.983246 0.431464 0.000000
0.998535 0.423804 0.000000
1.000000 0.415900 0.000000
1.000000 0.407782 0.000000
1.000000 0.399207 0.000000
0.189273 0.386664 0.000000
0.193668 0.386206 0.000000
0.198978 0.385351 0.000000
0.209628 0.383825 0.000000
0.225193 0.381476 0.000000
0.243626 0.378454 0.000000
0.264561 0.375311 0.000000
0.287572 0.373938 0.000000
0.315343 0.379706 0.000000
0.347173 0.387488 0.000000
0.382086 0.396429 0.000000
0.420508 0.406226 0.000000
0.456214 0.411933 0.000000
0.487953 0.409155 0.000000
0.552300 0.431891 0.000000
0.608392 0.449928 0.000000
0.659754 0.463722 0.000000
0.706050 0.473793 0.000000
0.747524 0.480842 0.000000
0.784421 0.485420 0.000000
0.818906 0.488808 0.000000
0.850553 0.490608 0.000000
0.878935 0.489387 0.000000
0.904265 0.484749 0.000000
0.926848 0.479133 0.000000
0.946990 0.472480 0.000000
0.965240 0.465248 0.000000
0.981842 0.457465 0.000000
0.997223 0.449226 0.000000
1.000000 0.440833 0.000000
1.000000 0.432136 0.000000
1.000000 0.423163 0.000000
0.205936 0.429877 0.000000
0.210056 0.429419 0.000000
0.215000 0.428626 0.000000
0.225834 0.427192 0.000000
0.241733 0.425025 0.000000
0.261204 0.423224 0.000000
0.283513 0.420966 0.000000
0.307347 0.418463 0.000000
0.334813 0.422187 0.000000
0.366308 0.428962 0.000000
0.400427 0.436927 0.000000
0.437751 0.445655 0.000000
0.477333 0.454841 0.000000
0.511254 0.457313 0.000000
0.542046 0.452186 0.000000
0.602441 0.470863 0.000000
0.654932 0.486091 0.000000
0.701228 0.496498 0.000000
0.743801 0.504265 0.000000
0.783536 0.510338 0.000000
0.817716 0.513268 0.000000
0.849088 0.514488 0.000000
0.877409 0.514214 0.000000
0.902739 0.512688 0.000000
0.925353 0.506950 0.000000
0.945678 0.499916 0.000000
0.964141 0.492195 0.000000
0.981018 0.483955 0.000000
0.996643 0.475349 0.000000
1.000000 0.466560 0.000000
1.000000 0.457404 0.000000
1.000000 0.447944 0.000000
0.224216 0.477424 0.000000
0.228550 0.477211 0.000000
0.233371 0.476753 0.000000
0.245029 0.475685 0.000000
0.260777 0.474098 0.000000
0.280827 0.471931 0.000000
0.303563 0.469459 0.000000
0.327977 0.466651 0.000000
0.354589 0.465858 0.000000
0.385321 0.471656 0.000000
0.418555 0.478187 0.000000
0.454383 0.485298 0.000000
0.491920 0.492744 0.000000
0.531182 0.500237 0.000000
0.561578 0.498390 0.000000
0.590875 0.491218 0.000000
0.647669 0.506218 0.000000
0.696010 0.518578 0.000000
0.739345 0.527031 0.000000
0.779904 0.533593 0.000000
0.816922 0.538201 0.000000
0.849210 0.539788 0.000000
0.877470 0.538964 0.000000
0.902708 0.536889 0.000000
0.925292 0.533593 0.000000
0.945586 0.528252 0.000000
0.963958 0.519829 0.000000
0.980804 0.511162 0.000000
0.996307 0.502007 0.000000
1.000000 0.492531 0.000000
1.000000 0.482887 0.000000
1.000000 0.472938 0.000000
0.242344 0.522148 0.000000
0.246098 0.521904 0.000000
0.251102 0.521263 0.000000
0.262181 0.520104 0.000000
0.278202 0.518212 0.000000
0.297368 0.515953 0.000000
0.320073 0.513237 0.000000
0.344854 0.510185 0.000000
0.371008 0.506645 0.000000
0.400153 0.509575 0.000000
0.432685 0.515465 0.000000
0.467292 0.521752 0.000000
0.503899 0.528588 0.000000
0.542046 0.535180 0.000000
0.581292 0.541894 0.000000
0.608759 0.536858 0.000000
0.637079 0.528313 0.000000
0.689204 0.539300 0.000000
0.734463 0.549462 0.000000
0.775235 0.556237 0.000000
0.812589 0.560937 0.000000
0.846464 0.563439 0.000000
0.876127 0.563256 0.000000
0.901396 0.560632 0.000000
0.924071 0.556878 0.000000
0.944396 0.552239 0.000000
0.962860 0.546807 0.000000
0.979767 0.538170 0.000000
0.995361 0.528527 0.000000
1.000000 0.518639 0.000000
1.000000 0.508446 0.000000
1.000000 0.498116 0.000000
0.259983 0.565240 0.000000
0.263890 0.565270 0.000000
0.274754 0.578637 0.000000
0.285679 0.577325 0.000000
0.301793 0.575250 0.000000
0.321447 0.572503 0.000000
0.344091 0.569146 0.000000
0.369055 0.565393 0.000000
0.395636 0.561395 0.000000
0.424018 0.559136 0.000000
0.455787 0.564050 0.000000
0.489784 0.569268 0.000000
0.525444 0.574731 0.000000
0.562554 0.580285 0.000000
0.600549 0.585595 0.000000
0.639216 0.590661 0.000000
0.663386 0.581689 0.000000
0.689754 0.570672 0.000000
0.736446 0.576837 0.000000
0.777707 0.583948 0.000000
0.814237 0.587854 0.000000
0.847501 0.589715 0.000000
0.877195 0.589227 0.000000
0.903349 0.586725 0.000000
0.925139 0.581842 0.000000
0.944762 0.576226 0.000000
0.962615 0.569940 0.000000
0.979095 0.563378 0.000000
0.994446 0.555261 0.000000
1.000000 0.544793 0.000000
1.000000 0.534173 0.000000
1.000000 0.523369 0.000000
0.278843 0.610803 0.000000
0.283330 0.612238 0.000000
0.289281 0.613611 0.000000
0.300389 0.614038 0.000000
0.315801 0.613581 0.000000
0.335668 0.611597 0.000000
0.358068 0.608789 0.000000
0.382849 0.605097 0.000000
0.409430 0.601282 0.000000
0.436866 0.597040 0.000000
0.467323 0.598779 0.000000
0.500206 0.603388 0.000000
0.534539 0.608057 0.000000
0.570245 0.612726 0.000000
0.606867 0.617212 0.000000
0.644190 0.621637 0.000000
0.682216 0.625940 0.000000
0.703212 0.613977 0.000000
0.728603 0.602136 0.000000
0.771572 0.605219 0.000000
0.809445 0.610193 0.000000
0.843290 0.612390 0.000000
0.873533 0.612207 0.000000
0.900267 0.609766 0.000000
0.923735 0.605524 0.000000
0.943847 0.599603 0.000000
0.961791 0.592920 0.000000
0.978271 0.585870 0.000000
0.993652 0.578515 0.000000
1.000000 0.571008 0.000000
1.000000 0.560143 0.000000
1.000000 0.548821 0.000000
0.295079 0.649134 0.000000
0.298863 0.650568 0.000000
0.304875 0.651728 0.000000
0.315190 0.652247 0.000000
0.330816 0.651514 0.000000
0.349523 0.649775 0.000000
0.371862 0.646967 0.000000
0.396185 0.643641 0.000000
0.422339 0.639979 0.000000
0.449928 0.635950 0.000000
0.478828 0.633295 0.000000
0.510643 0.637324 0.000000
0.543877 0.641321 0.000000
0.578271 0.645350 0.000000
0.613733 0.649256 0.000000
0.649928 0.653010 0.000000
0.686671 0.656794 0.000000
0.724117 0.660456 0.000000
0.742245 0.645686 0.000000
0.766567 0.633021 0.000000
0.805203 0.632776 0.000000
0.839536 0.635309 0.000000
0.870329 0.635370 0.000000
0.897368 0.632990 0.000000
0.921172 0.628717 0.000000
0.942290 0.622980 0.000000
0.960845 0.616144 0.000000
0.977325 0.608576 0.000000
0.992645 0.600702 0.000000
1.000000 0.592737 0.000000
1.000000 0.584497 0.000000
1.000000 0.574334 0.000000
0.310460 0.686122 0.000000
0.314672 0.687251 0.000000
0.319829 0.688472 0.000000
0.330022 0.688838 0.000000
0.344945 0.688258 0.000000
0.363287 0.686549 0.000000
0.384802 0.683925 0.000000
0.408545 0.680873 0.000000
0.434394 0.677302 0.000000
0.461707 0.673487 0.000000
0.490211 0.669215 0.000000
0.520287 0.670130 0.000000
0.552422 0.673548 0.000000
0.585870 0.677058 0.000000
0.620294 0.680568 0.000000
0.655695 0.684169 0.000000
0.691951 0.687892 0.000000
0.729000 0.691768 0.000000
0.766659 0.695766 0.000000
0.782773 0.679011 0.000000
0.806210 0.665583 0.000000
0.840879 0.661982 0.000000
0.871031 0.661524 0.000000
0.898405 0.659083 0.000000
0.922301 0.654566 0.000000
0.943450 0.648432 0.000000
0.962341 0.641260 0.000000
0.979370 0.633387 0.000000
0.994415 0.624872 0.000000
1.000000 0.616114 0.000000
1.000000 0.607263 0.000000
1.000000 0.598352 0.000000
0.328435 0.727535 0.000000
0.331914 0.727962 0.000000
0.336339 0.728084 0.000000
0.345861 0.727626 0.000000
0.360113 0.726406 0.000000
0.377539 0.724575 0.000000
0.398535 0.722103 0.000000
0.421942 0.719356 0.000000
0.447669 0.716274 0.000000
0.475166 0.712856 0.000000
0.503471 0.709255 0.000000
0.533043 0.706355 0.000000
0.564263 0.709285 0.000000
0.596612 0.712154 0.000000
0.629969 0.714992 0.000000
0.664210 0.717861 0.000000
0.699092 0.720699 0.000000
0.734737 0.723629 0.000000
0.770718 0.726680 0.000000
0.807248 0.729671 0.000000
0.819730 0.709499 0.000000
0.840482 0.693874 0.000000
0.869963 0.686275 0.000000
0.895537 0.682429 0.000000
0.919615 0.677760 0.000000
0.940978 0.671534 0.000000
0.960143 0.664179 0.000000
0.977539 0.656092 0.000000
0.993408 0.647486 0.000000
1.000000 0.638300 0.000000
1.000000 0.628992 0.000000
1.000000 0.619562 0.000000
0.342687 0.760830 0.000000
0.345800 0.761196 0.000000
0.350134 0.761410 0.000000
0.359472 0.760952 0.000000
0.372839 0.759884 0.000000
0.390143 0.758053 0.000000
0.410193 0.755764 0.000000
0.432715 0.753140 0.000000
0.457893 0.750149 0.000000
0.484688 0.746975 0.000000
0.512902 0.743435 0.000000
0.541955 0.739620 0.000000
0.571832 0.739742 0.000000
0.603143 0.742153 0.000000
0.635462 0.744503 0.000000
0.668666 0.746883 0.000000
0.702449 0.749264 0.000000
0.736904 0.751736 0.000000
0.771847 0.754208 0.000000
0.807187 0.756710 0.000000
0.840360 0.757046 0.000000
0.851987 0.736202 0.000000
0.870756 0.719265 0.000000
0.896208 0.708370 0.000000
0.915923 0.700221 0.000000
0.937591 0.694026 0.000000
0.957122 0.686610 0.000000
0.974792 0.678370 0.000000
0.990936 0.669581 0.000000
1.000000 0.660243 0.000000
1.000000 0.650568 0.000000
1.000000 0.640833 0.000000
0.357733 0.796078 0.000000
0.361059 0.796475 0.000000
0.365362 0.796506 0.000000
0.373632 0.795956 0.000000
0.386419 0.794675 0.000000
0.402747 0.792813 0.000000
0.422339 0.790463 0.000000
0.444373 0.787625 0.000000
0.468727 0.784421 0.000000
0.494881 0.781003 0.000000
0.522179 0.777310 0.000000
0.550652 0.773342 0.000000
0.579706 0.769863 0.000000
0.609552 0.771267 0.000000
0.640284 0.772549 0.000000
0.671656 0.773831 0.000000
0.703792 0.775143 0.000000
0.736690 0.776608 0.000000
0.770260 0.778378 0.000000
0.804196 0.780301 0.000000
0.838407 0.782315 0.000000
0.868254 0.780209 0.000000
0.878721 0.758511 0.000000
0.895232 0.739803 0.000000
0.916777 0.726162 0.000000
0.935454 0.717403 0.000000
0.954986 0.709834 0.000000
0.972656 0.701289 0.000000
0.988861 0.692134 0.000000
1.000000 0.682521 0.000000
1.000000 0.672541 0.000000
1.000000 0.662379 0.000000
0.369360 0.823606 0.000000
0.372503 0.823941 0.000000
0.376623 0.824033 0.000000
0.384527 0.823514 0.000000
0.396918 0.822354 0.000000
0.412604 0.820768 0.000000
0.431403 0.818692 0.000000
0.452766 0.816312 0.000000
0.476539 0.813626 0.000000
0.502190 0.810758 0.000000
0.529351 0.807523 0.000000
0.557610 0.804135 0.000000
0.586542 0.800443 0.000000
0.615656 0.799588 0.000000
0.645380 0.800534 0.000000
0.675776 0.801419 0.000000
0.706874 0.802274 0.000000
0.738705 0.803220 0.000000
0.770871 0.804318 0.000000
0.803403 0.805570 0.000000
0.835966 0.806821 0.000000
0.868742 0.808011 0.000000
0.895415 0.803159 0.000000
0.904692 0.780545 0.000000
0.919158 0.760281 0.000000
0.937530 0.744350 0.000000
0.953552 0.733700 0.000000
0.971283 0.725002 0.000000
0.987579 0.715602 0.000000
1.000000 0.705715 0.000000
1.000000 0.695460 0.000000
1.000000 0.684810 0.000000
0.380957 0.850034 0.000000
0.383551 0.850217 0.000000
0.387182 0.850095 0.000000
0.394995 0.849424 0.000000
0.406470 0.848264 0.000000
0.421241 0.846738 0.000000
0.439368 0.844816 0.000000
0.460090 0.842527 0.000000
0.483131 0.840116 0.000000
0.508019 0.837522 0.000000
0.534691 0.834653 0.000000
0.562432 0.831693 0.000000
0.590967 0.828458 0.000000
0.620233 0.825254 0.000000
0.648768 0.825742 0.000000
0.678035 0.826169 0.000000
0.708003 0.826505 0.000000
0.738491 0.826902 0.000000
0.768948 0.827512 0.000000
0.799924 0.828183 0.000000
0.831327 0.828855 0.000000
0.862882 0.829374 0.000000
0.894469 0.829709 0.000000
0.918212 0.822385 0.000000
0.926513 0.799100 0.000000
0.939239 0.777859 0.000000
0.955108 0.760220 0.000000
0.969177 0.748257 0.000000
0.985199 0.738521 0.000000
1.000000 0.728542 0.000000
1.000000 0.718135 0.000000
1.000000 0.707301 0.000000
0.390326 0.873014 0.000000
0.393042 0.873045 0.000000
0.396582 0.872892 0.000000
0.403815 0.872404 0.000000
0.414771 0.871550 0.000000
0.429358 0.870451 0.000000
0.446937 0.869261 0.000000
0.467201 0.867948 0.000000
0.490028 0.866484 0.000000
0.514794 0.864897 0.000000
0.541283 0.863066 0.000000
0.568902 0.860990 0.000000
0.597620 0.858579 0.000000
0.626825 0.855741 0.000000
0.655390 0.854612 0.000000
0.683772 0.854643 0.000000
0.712123 0.854612 0.000000
0.740810 0.854551 0.000000
0.770260 0.854520 0.000000
0.800259 0.854490 0.000000
0.830442 0.854429 0.000000
0.860868 0.854276 0.000000
0.891325 0.853880 0.000000
0.921721 0.853269 0.000000
0.942473 0.843503 0.000000
0.949737 0.819425 0.000000
0.960723 0.797147 0.000000
0.974029 0.778042 0.000000
0.986206 0.764675 0.000000
1.000000 0.753841 0.000000
1.000000 0.743099 0.000000
1.000000 0.731899 0.000000
0.401099 0.898009 0.000000
0.403357 0.897978 0.000000
0.406439 0.897765 0.000000
0.413489 0.897185 0.000000
0.423987 0.896300 0.000000
0.437690 0.895140 0.000000
0.454566 0.893797 0.000000
0.473915 0.892302 0.000000
0.495644 0.890623 0.000000
0.519493 0.888762 0.000000
0.544884 0.886687 0.000000
0.571649 0.884398 0.000000
0.599329 0.881834 0.000000
0.627008 0.879149 0.000000
0.655207 0.876219 0.000000
