其他预设/【233】日式怀旧街道调色预设208款/1.3D LUT预设（视频调色-PR-AE-PS-FCPX-达芬奇用）/2.富士胶片风-日式城市街拍预设/JA – Shaded Light 5 (Classic Chrome).cube
# Created by Adobe Lightroom plugin Export LUT (1.17.0)
# www.johnrellis.com/lightroom/exportlut.htm
# Preset: JA – Shaded Light 5 (Classic Chrome)
# Color profile: /Library/Application Support/Adobe/Color/Profiles/Recommended/AdobeRGB1998.icc
LUT_3D_SIZE 5
DOMAIN_MIN 0.000000 0.000000 0.000000
DOMAIN_MAX 0.903226 0.903226 0.903226
0.061799 0.074098 0.088899
0.194125 0.067506 0.087800
0.590600 0.084596 0.000000
0.920897 0.092775 0.000000
1.000000 0.153384 0.153353
0.000000 0.229801 0.108614
0.203769 0.238254 0.077394
0.678126 0.378271 0.000000
0.932189 0.347539 0.055390
1.000000 0.328771 0.191196
0.000000 0.731411 0.218357
0.178775 0.733883 0.000000
0.670710 0.745052 0.000000
0.940703 0.681910 0.169863
1.000000 0.628046 0.364141
0.000000 0.944060 0.385718
0.000000 0.945830 0.280095
0.509026 0.933562 0.155367
0.834379 0.909331 0.186404
1.000000 0.857725 0.442023
0.561608 1.000000 0.702785
0.554742 1.000000 0.675807
0.590570 1.000000 0.601526
0.753475 1.000000 0.520897
0.956573 1.000000 0.589532
0.035920 0.072724 0.240970
0.163485 0.085298 0.228336
0.515831 0.000000 0.306859
0.898985 0.000000 0.227787
1.000000 0.000000 0.274479
0.000000 0.227359 0.278508
0.203250 0.238193 0.280461
0.631434 0.231968 0.258732
0.912963 0.235538 0.257176
1.000000 0.281804 0.314794
0.000000 0.731777 0.451911
0.000000 0.740719 0.344305
0.655848 0.728695 0.228428
0.926177 0.687831 0.444129
1.000000 0.654505 0.521874
0.002136 0.938140 0.530144
0.320775 0.934813 0.537346
0.521141 0.930083 0.402197
0.834958 0.905913 0.392676
1.000000 0.871885 0.603357
0.598444 1.000000 0.745052
0.644587 1.000000 0.756649
0.674708 1.000000 0.711330
0.788663 1.000000 0.642298
0.961822 1.000000 0.676448
0.129305 0.000000 0.666621
0.265171 0.016663 0.612390
0.422919 0.055848 0.523217
0.764645 0.000000 0.610620
1.000000 0.000000 0.567651
0.000000 0.231907 0.757931
0.246189 0.218845 0.710842
0.492988 0.190768 0.589654
0.809445 0.000000 0.612512
1.000000 0.067597 0.569421
0.000000 0.725551 0.781582
0.351659 0.730007 0.777951
0.689998 0.726497 0.753994
0.867247 0.706691 0.734890
1.000000 0.709804 0.737575
0.519127 0.914214 0.790066
0.589105 0.908904 0.793515
0.720638 0.902770 0.794095
0.854673 0.896361 0.754726
1.000000 0.907530 0.823972
0.693080 1.000000 0.847013
0.715541 1.000000 0.848295
0.773251 1.000000 0.843748
0.840024 1.000000 0.802243
0.971984 1.000000 0.800504
0.267948 0.103639 0.896117
0.357946 0.109560 0.888518
0.538689 0.104829 0.853330
0.759030 0.000000 0.827237
0.947692 0.567224 0.864744
0.257664 0.287510 0.906645
0.356725 0.289891 0.898100
0.545708 0.276890 0.863157
0.764401 0.239384 0.830533
0.942718 0.601343 0.862303
0.528008 0.705898 0.931884
0.612360 0.727932 0.921874
0.693874 0.707424 0.888243
0.784817 0.618769 0.839872
0.965362 0.692531 0.865202
0.691768 0.893462 0.916289
0.723964 0.894438 0.915282
0.797177 0.898589 0.914549
0.871611 0.890318 0.901274
1.000000 0.880034 0.892180
0.789181 1.000000 0.941833
0.800504 1.000000 0.941344
0.836057 1.000000 0.938689
0.893095 1.000000 0.926452
0.982910 1.000000 0.902586
0.445502 0.368566 1.000000
0.498848 0.395819 0.999481
0.644800 0.486702 0.990021
0.797574 0.581231 0.974456
0.943267 0.637446 0.971038
0.485939 0.471778 1.000000
0.533501 0.491371 0.997162
0.662898 0.553582 0.987762
0.796384 0.610895 0.970153
0.940551 0.656580 0.968170
0.668421 0.739528 0.996155
0.674342 0.729671 0.994476
0.731258 0.726253 0.986816
0.815183 0.719326 0.970001
0.947997 0.738338 0.971191
0.757565 0.885801 0.998077
0.771206 0.886625 0.997620
0.817136 0.889921 0.997650
0.864256 0.866514 0.989990
0.977020 0.857145 0.989380
0.828061 0.982574 0.993835
0.838132 0.983032 0.993652
0.877745 0.986206 0.994324
0.939117 0.990814 0.994965
0.995392 0.996155 0.996551
