其他预设/【233】日式怀旧街道调色预设208款/1.3D LUT预设（视频调色-PR-AE-PS-FCPX-达芬奇用）/2.富士胶片风-日式城市街拍预设/JA – Night Pop 1 (Classic Chrome).cube
# Created by Adobe Lightroom plugin Export LUT (1.17.0)
# www.johnrellis.com/lightroom/exportlut.htm
# Preset: JA – Night Pop 1 (Classic Chrome)
# Color profile: /Library/Application Support/Adobe/Color/Profiles/Recommended/AdobeRGB1998.icc
LUT_3D_SIZE 32
0.073457 0.079805 0.085969
0.073457 0.079805 0.085969
0.073457 0.079805 0.085969
0.092103 0.076509 0.086336
0.122713 0.068330 0.087007
0.166079 0.038087 0.087709
0.223667 0.000000 0.082063
0.291966 0.000000 0.076783
0.369818 0.000000 0.067018
0.452949 0.000000 0.041047
0.536156 0.000000 0.000000
0.612055 0.000000 0.000000
0.679469 0.000000 0.000000
0.739528 0.000000 0.000000
0.791409 0.000000 0.000000
0.844053 0.000000 0.000000
0.901549 0.000000 0.000000
0.944976 0.000000 0.000000
0.978943 0.000000 0.000000
1.000000 0.000000 0.000000
1.000000 0.000000 0.000000
1.000000 0.000000 0.000000
1.000000 0.000000 0.000000
1.000000 0.000000 0.000000
1.000000 0.000000 0.000000
1.000000 0.000000 0.000000
1.000000 0.000000 0.000000
1.000000 0.000000 0.000000
1.000000 0.000000 0.000000
1.000000 0.000000 0.000000
1.000000 0.000000 0.000000
1.000000 0.000000 0.000000
0.073457 0.079805 0.085969
0.073457 0.079805 0.085969
0.073457 0.079805 0.085969
0.091463 0.076631 0.086061
0.121798 0.068635 0.086732
0.163882 0.041474 0.084291
0.219760 0.000000 0.081483
0.286595 0.000000 0.076112
0.363409 0.000000 0.066255
0.445960 0.000000 0.039216
0.528557 0.000000 0.000000
0.604700 0.000000 0.000000
0.672084 0.000000 0.000000
0.732479 0.000000 0.000000
0.784848 0.000000 0.000000
0.838041 0.000000 0.000000
0.893797 0.000000 0.000000
0.936919 0.000000 0.000000
0.971283 0.000000 0.000000
1.000000 0.000000 0.000000
1.000000 0.000000 0.000000
1.000000 0.000000 0.000000
1.000000 0.000000 0.000000
1.000000 0.000000 0.000000
1.000000 0.000000 0.000000
1.000000 0.000000 0.000000
1.000000 0.000000 0.000000
1.000000 0.000000 0.000000
1.000000 0.000000 0.000000
1.000000 0.000000 0.000000
1.000000 0.000000 0.000000
1.000000 0.000000 0.000000
0.073457 0.079805 0.085969
0.073457 0.079805 0.085969
0.073457 0.079805 0.085969
0.090791 0.076783 0.086061
0.120272 0.072389 0.085115
0.161105 0.064393 0.083619
0.215244 0.040375 0.080659
0.281224 0.000000 0.075074
0.357061 0.000000 0.064881
0.439216 0.000000 0.035157
0.521996 0.000000 0.000000
0.598779 0.000000 0.000000
0.666682 0.000000 0.000000
0.727565 0.000000 0.000000
0.780270 0.000000 0.000000
0.834745 0.000000 0.000000
0.889158 0.000000 0.000000
0.931945 0.000000 0.000000
0.966583 0.000000 0.000000
0.996490 0.000000 0.000000
1.000000 0.000000 0.000000
1.000000 0.000000 0.000000
1.000000 0.000000 0.000000
1.000000 0.000000 0.000000
1.000000 0.000000 0.000000
1.000000 0.000000 0.000000
1.000000 0.000000 0.000000
1.000000 0.000000 0.000000
1.000000 0.000000 0.000000
1.000000 0.000000 0.000000
1.000000 0.000000 0.000000
1.000000 0.000000 0.000000
0.072297 0.086549 0.085786
0.072084 0.087831 0.085664
0.071809 0.089387 0.085542
0.084230 0.088472 0.087922
0.110048 0.091249 0.089204
0.152590 0.089906 0.084932
0.210208 0.085847 0.078523
0.275242 0.080110 0.072145
0.350591 0.067750 0.060609
0.432105 0.036652 0.022766
0.514702 0.000000 0.000000
0.591730 0.000000 0.000000
0.659785 0.000000 0.000000
0.721004 0.000000 0.000000
0.774624 0.000000 0.000000
0.831022 0.000000 0.000000
0.883513 0.000000 0.000000
0.925536 0.000000 0.000000
0.959960 0.000000 0.000000
0.989929 0.000000 0.000000
1.000000 0.000000 0.000000
1.000000 0.000000 0.000000
1.000000 0.000000 0.000000
1.000000 0.000000 0.000000
1.000000 0.000000 0.000000
1.000000 0.000000 0.000000
1.000000 0.000000 0.000000
1.000000 0.000000 0.000000
1.000000 0.000000 0.000000
1.000000 0.000000 0.000000
1.000000 0.000000 0.000000
1.000000 0.000000 0.000000
0.069184 0.104250 0.084504
0.068971 0.105257 0.084382
0.068666 0.106538 0.084260
0.082338 0.106508 0.084535
0.100130 0.102052 0.091035
0.126986 0.108888 0.097108
0.178500 0.116213 0.091890
0.246403 0.122164 0.082246
0.325597 0.126284 0.067475
0.410803 0.128389 0.028351
0.497780 0.126680 0.000000
0.578759 0.121645 0.000000
0.649073 0.114504 0.000000
0.711452 0.104463 0.000000
0.766659 0.093538 0.000000
0.826535 0.081392 0.000000
0.878264 0.065675 0.000000
0.920684 0.030671 0.000000
0.955718 0.000000 0.000000
0.985992 0.000000 0.000000
1.000000 0.000000 0.000000
1.000000 0.000000 0.000000
1.000000 0.000000 0.000000
1.000000 0.000000 0.000000
1.000000 0.000000 0.000000
1.000000 0.000000 0.000000
1.000000 0.000000 0.000000
1.000000 0.000000 0.000000
1.000000 0.000000 0.000000
1.000000 0.000000 0.000000
1.000000 0.000000 0.000000
1.000000 0.000000 0.000000
0.064057 0.125277 0.082338
0.063661 0.126528 0.082185
0.063264 0.127749 0.082033
0.075471 0.128328 0.082307
0.102144 0.124605 0.085084
0.118929 0.118563 0.093843
0.155795 0.130983 0.099611
0.208438 0.145144 0.100679
0.287236 0.160952 0.087556
0.375097 0.174472 0.067353
0.465461 0.184604 0.007904
0.552117 0.189609 0.000000
0.628046 0.190066 0.000000
0.695552 0.185916 0.000000
0.757870 0.181369 0.000000
0.819883 0.176791 0.000000
0.872221 0.168978 0.000000
0.915862 0.159823 0.000000
0.952422 0.148379 0.000000
0.983764 0.136995 0.000000
1.000000 0.124178 0.000000
1.000000 0.109163 0.000000
1.000000 0.107271 0.000000
1.000000 0.087831 0.000000
1.000000 0.059998 0.000000
1.000000 0.000000 0.000000
1.000000 0.000000 0.000000
1.000000 0.000000 0.000000
1.000000 0.000000 0.000000
1.000000 0.000000 0.000000
1.000000 0.000000 0.000000
1.000000 0.000000 0.000000
0.044739 0.160922 0.077363
0.043366 0.161990 0.077485
0.041718 0.163485 0.077211
0.065522 0.164736 0.076967
0.104219 0.162844 0.077882
0.131533 0.153628 0.085573
0.149416 0.145663 0.095827
0.201114 0.166629 0.101289
0.261906 0.187350 0.106477
0.348669 0.212070 0.095216
0.446845 0.233219 0.066377
0.540337 0.247013 0.000000
0.620966 0.252934 0.000000
0.691249 0.252537 0.000000
0.763790 0.253147 0.000000
0.825315 0.249638 0.000000
0.877043 0.243259 0.000000
0.920348 0.234531 0.000000
0.957183 0.224857 0.000000
0.989868 0.214359 0.000000
1.000000 0.203769 0.000000
1.000000 0.192081 0.000000
1.000000 0.179538 0.000000
1.000000 0.164950 0.000000
1.000000 0.149966 0.000000
1.000000 0.133730 0.000000
1.000000 0.115938 0.000000
1.000000 0.093904 0.000000
1.000000 0.064546 0.000000
1.000000 0.087465 0.000000
1.000000 0.090272 0.000000
1.000000 0.000000 0.000000
0.000000 0.200839 0.068788
0.000000 0.201877 0.068482
0.000000 0.203281 0.068086
0.030030 0.204501 0.068147
0.099794 0.202792 0.068605
0.139132 0.197879 0.072145
0.163180 0.183688 0.083986
0.182132 0.174899 0.095888
0.243351 0.202182 0.100618
0.313359 0.228672 0.105776
0.394446 0.256168 0.110964
0.495277 0.281407 0.080598
0.585077 0.295537 0.003754
0.667506 0.303746 0.000000
0.744808 0.308537 0.000000
0.806271 0.306035 0.000000
0.858885 0.300450 0.000000
0.904051 0.292485 0.000000
0.943023 0.283360 0.000000
0.977722 0.273655 0.000000
1.000000 0.263554 0.000000
1.000000 0.252354 0.000000
1.000000 0.240574 0.000000
1.000000 0.227726 0.000000
1.000000 0.213840 0.000000
1.000000 0.199039 0.000000
1.000000 0.182773 0.000000
1.000000 0.165194 0.000000
1.000000 0.148348 0.000000
1.000000 0.130068 0.000000
1.000000 0.156344 0.000000
1.000000 0.127382 0.000000
0.000000 0.250523 0.045289
0.000000 0.251591 0.044160
0.000000 0.253117 0.042542
0.000000 0.254063 0.041291
0.093141 0.252171 0.043275
0.143771 0.249638 0.046387
0.179934 0.237949 0.063661
0.202335 0.221225 0.079316
0.222599 0.211398 0.094026
0.293614 0.244877 0.098085
0.371344 0.276005 0.103792
0.454231 0.305303 0.115938
0.546838 0.331792 0.110811
0.643549 0.351629 0.078828
0.722103 0.359289 0.000000
0.785641 0.358740 0.000000
0.840177 0.353948 0.000000
0.887755 0.346990 0.000000
0.929046 0.338384 0.000000
0.965942 0.328832 0.000000
0.998566 0.318944 0.000000
1.000000 0.307836 0.000000
1.000000 0.296086 0.000000
1.000000 0.283635 0.000000
1.000000 0.270176 0.000000
1.000000 0.255680 0.000000
1.000000 0.240909 0.000000
1.000000 0.225284 0.000000
1.000000 0.209201 0.000000
1.000000 0.192050 0.000000
1.000000 0.212741 0.000000
1.000000 0.185611 0.000000
0.000000 0.309056 0.000000
0.000000 0.309758 0.000000
0.000000 0.310796 0.000000
0.000000 0.311345 0.000000
0.079377 0.309392 0.000000
0.145327 0.306493 0.000000
0.194034 0.301366 0.000000
0.225986 0.283360 0.034241
0.247562 0.264317 0.069673
0.269566 0.253788 0.089418
0.347814 0.291234 0.093904
0.433478 0.327092 0.102632
0.526360 0.362890 0.122896
0.608392 0.389685 0.156466
0.691859 0.403937 0.138186
0.761654 0.408118 0.113344
0.820523 0.406287 0.083223
0.871946 0.400977 0.011810
0.916136 0.393469 0.000000
0.954925 0.384283 0.000000
0.988678 0.374090 0.000000
1.000000 0.363012 0.000000
1.000000 0.350744 0.000000
1.000000 0.337743 0.000000
1.000000 0.324010 0.000000
1.000000 0.309514 0.000000
1.000000 0.294682 0.000000
1.000000 0.279667 0.000000
1.000000 0.264164 0.000000
1.000000 0.248447 0.000000
1.000000 0.266056 0.000000
1.000000 0.239506 0.000000
0.000000 0.370611 0.000000
0.000000 0.371405 0.000000
0.000000 0.372412 0.000000
0.000000 0.372442 0.000000
0.041810 0.370733 0.000000
0.143130 0.368414 0.000000
0.202213 0.365637 0.000000
0.247135 0.354284 0.000000
0.278080 0.334508 0.000000
0.299565 0.313573 0.044068
0.326604 0.304936 0.080354
0.419928 0.352178 0.087587
0.509606 0.389105 0.105440
0.591333 0.416846 0.137819
0.662196 0.437751 0.179355
0.729091 0.451820 0.199588
0.792813 0.453864 0.181369
0.847929 0.451240 0.162356
0.895933 0.445411 0.142672
0.937865 0.437629 0.123171
0.974334 0.428382 0.103334
1.000000 0.418006 0.082033
1.000000 0.406531 0.052369
1.000000 0.393988 0.000000
1.000000 0.380468 0.000000
1.000000 0.366003 0.000000
1.000000 0.351202 0.000000
1.000000 0.336095 0.000000
1.000000 0.320958 0.000000
1.000000 0.305211 0.000000
1.000000 0.323430 0.000000
1.000000 0.293675 0.000000
0.000000 0.438605 0.000000
0.000000 0.439399 0.000000
0.000000 0.440223 0.000000
0.000000 0.440131 0.000000
0.000000 0.438331 0.000000
0.127596 0.436042 0.000000
0.203464 0.433387 0.000000
0.263188 0.430213 0.000000
0.304540 0.411200 0.000000
0.338781 0.393744 0.000000
0.368780 0.378882 0.000000
0.401404 0.371740 0.062562
0.544793 0.455634 0.090303
0.627436 0.483467 0.137514
0.698207 0.503014 0.190311
0.756954 0.517967 0.244785
0.806394 0.532006 0.298802
0.860136 0.532006 0.292607
0.907012 0.525231 0.276158
0.947173 0.516167 0.261875
0.981353 0.505272 0.248936
1.000000 0.493294 0.237552
1.000000 0.479927 0.225986
1.000000 0.466041 0.214817
1.000000 0.451362 0.202579
1.000000 0.436469 0.189578
1.000000 0.421027 0.174228
1.000000 0.405463 0.157321
1.000000 0.389960 0.138460
1.000000 0.374121 0.115877
1.000000 0.386572 0.148898
1.000000 0.353429 0.000000
0.000000 0.524834 0.000000
0.000000 0.525353 0.000000
0.000000 0.525109 0.000000
0.000000 0.523064 0.000000
0.000000 0.519493 0.000000
0.087739 0.515129 0.000000
0.196933 0.510826 0.000000
0.268528 0.506554 0.000000
0.332982 0.506279 0.000000
0.384253 0.495216 0.000000
0.427192 0.481514 0.000000
0.461982 0.465705 0.000000
0.500175 0.458534 0.011200
0.590295 0.495613 0.101228
0.668208 0.520684 0.157382
0.732998 0.537926 0.214389
0.786160 0.551049 0.270756
0.831601 0.564019 0.325017
0.875181 0.572137 0.354192
0.920287 0.566613 0.340887
0.958434 0.558679 0.329992
0.990661 0.548669 0.320195
1.000000 0.537194 0.311284
1.000000 0.524498 0.302617
1.000000 0.511162 0.293950
1.000000 0.497230 0.284764
1.000000 0.483131 0.275303
1.000000 0.468940 0.265537
1.000000 0.454963 0.255955
1.000000 0.441382 0.246921
1.000000 0.454505 0.271427
1.000000 0.419074 0.213107
0.000000 0.584161 0.000000
0.000000 0.584497 0.000000
0.000000 0.584131 0.000000
0.000000 0.582452 0.000000
0.000000 0.579126 0.000000
0.000000 0.576440 0.000000
0.174777 0.578180 0.000000
0.263951 0.579339 0.000000
0.338201 0.580682 0.000000
0.399298 0.571923 0.000000
0.449653 0.557580 0.000000
0.492439 0.541558 0.000000
0.526146 0.523033 0.000000
0.560418 0.510857 0.007202
0.638544 0.537682 0.121706
0.707729 0.557305 0.182284
0.764126 0.570092 0.240543
0.812375 0.581598 0.296788
0.854551 0.594141 0.351507
0.890898 0.608698 0.405127
0.932372 0.607416 0.403815
0.968475 0.600885 0.395880
0.998291 0.592035 0.388678
1.000000 0.581598 0.382177
1.000000 0.570214 0.376013
1.000000 0.558038 0.369512
1.000000 0.545647 0.363165
1.000000 0.533471 0.357397
1.000000 0.521721 0.352361
1.000000 0.510643 0.348455
1.000000 0.524376 0.371923
1.000000 0.488228 0.321538
0.000000 0.646845 0.000000
0.000000 0.648035 0.000000
0.000000 0.648035 0.000000
0.000000 0.648127 0.000000
0.000000 0.647242 0.000000
0.000000 0.645502 0.000000
0.134371 0.643671 0.000000
0.246952 0.641901 0.000000
0.329046 0.640711 0.000000
0.401007 0.639277 0.000000
0.458350 0.625269 0.000000
0.508049 0.609888 0.000000
0.549706 0.592309 0.000000
0.582208 0.571862 0.000000
0.613062 0.556268 0.050477
0.680934 0.575158 0.147066
0.742336 0.590112 0.209567
0.793149 0.600641 0.268315
0.838132 0.611749 0.325231
0.877379 0.624323 0.381231
0.910765 0.638788 0.435370
0.943511 0.646845 0.463355
0.976806 0.641291 0.457282
1.000000 0.633722 0.452338
1.000000 0.624781 0.448096
1.000000 0.615320 0.444648
1.000000 0.605707 0.441871
1.000000 0.596643 0.440406
1.000000 0.588434 0.440406
1.000000 0.581018 0.441627
1.000000 0.591302 0.458503
1.000000 0.556054 0.413855
0.000000 0.709926 0.000000
0.000000 0.710658 0.000000
0.000000 0.710628 0.000000
0.000000 0.710353 0.000000
0.000000 0.709468 0.000000
0.000000 0.707424 0.000000
0.000427 0.705348 0.000000
0.221225 0.703273 0.000000
0.315404 0.701015 0.000000
0.393256 0.698726 0.000000
0.460426 0.690822 0.000000
0.515404 0.674647 0.000000
0.562005 0.656092 0.000000
0.600061 0.635126 0.000000
0.628992 0.611688 0.000000
0.655787 0.593072 0.087068
0.715785 0.606531 0.172763
0.771847 0.619074 0.236942
0.820706 0.630121 0.297673
0.863859 0.642176 0.357397
0.900603 0.655634 0.415442
0.931182 0.670222 0.469825
0.955993 0.685603 0.518822
0.986053 0.682490 0.517784
1.000000 0.676509 0.515343
1.000000 0.669642 0.513848
1.000000 0.662440 0.513176
1.000000 0.655726 0.513848
1.000000 0.649622 0.515740
1.000000 0.644221 0.518669
1.000000 0.650874 0.529992
1.000000 0.618616 0.491859
0.000000 0.758389 0.009827
0.000000 0.758389 0.000000
0.000000 0.757961 0.000000
0.000000 0.757382 0.000000
0.000000 0.756405 0.000000
0.000000 0.754086 0.000000
0.000000 0.751431 0.000000
0.179416 0.748440 0.000000
0.289403 0.745480 0.000000
0.373419 0.742458 0.000000
0.447150 0.739345 0.000000
0.509117 0.726802 0.000000
0.561822 0.710262 0.000000
0.606561 0.691493 0.000000
0.643061 0.670344 0.000000
0.670527 0.646784 0.000000
0.695186 0.627192 0.119722
0.748196 0.636072 0.201602
0.801114 0.648066 0.267155
0.847318 0.659144 0.329442
0.887144 0.671077 0.390204
0.920439 0.684016 0.447883
0.947631 0.697749 0.500420
0.969726 0.712215 0.547570
0.992584 0.717708 0.567895
1.000000 0.713619 0.567773
1.000000 0.708949 0.568780
1.000000 0.704463 0.571160
1.000000 0.700496 0.574701
1.000000 0.697200 0.579431
1.000000 0.702876 0.589410
1.000000 0.673426 0.555993
0.000000 0.802090 0.013764
0.000000 0.802762 0.000000
0.000000 0.831540 0.000000
0.000000 0.830869 0.000000
0.000000 0.829557 0.000000
0.000000 0.826658 0.000000
0.000000 0.822690 0.000000
0.120394 0.818448 0.000000
0.268162 0.813993 0.000000
0.362860 0.809537 0.000000
0.442695 0.804837 0.000000
0.513176 0.797971 0.000000
0.571710 0.780850 0.000000
0.622278 0.761929 0.000000
0.664881 0.741146 0.000000
0.699580 0.718685 0.000000
0.726528 0.694850 0.063233
0.748928 0.673976 0.171267
0.794980 0.678553 0.250523
0.843259 0.688930 0.317296
0.883574 0.698329 0.379980
0.917632 0.708705 0.439765
0.945495 0.719844 0.494087
0.967864 0.731594 0.542351
0.985443 0.743709 0.585229
1.000000 0.755215 0.620600
1.000000 0.751431 0.620356
1.000000 0.747768 0.621881
1.000000 0.744900 0.625422
1.000000 0.743038 0.630701
1.000000 0.748318 0.640284
1.000000 0.721401 0.610224
0.000000 0.848386 0.002716
0.000000 0.851926 0.000000
0.000000 0.855344 0.000000
0.000000 0.858061 0.000000
0.000000 0.859403 0.000000
0.000000 0.858366 0.000000
0.000000 0.855161 0.000000
0.000000 0.851194 0.000000
0.226047 0.847044 0.000000
0.331701 0.842618 0.000000
0.416236 0.837949 0.000000
0.490272 0.832792 0.000000
0.554986 0.821653 0.000000
0.610132 0.804440 0.000000
0.657740 0.785397 0.000000
0.697932 0.764706 0.000000
0.730831 0.742672 0.000000
0.756802 0.719875 0.110231
0.778683 0.700008 0.201144
0.821836 0.704128 0.281743
0.867033 0.714168 0.349584
0.904753 0.723964 0.413642
0.935790 0.734188 0.472694
0.960662 0.744778 0.525048
0.980224 0.755673 0.571435
0.995636 0.767666 0.613458
1.000000 0.780880 0.651972
1.000000 0.784115 0.664790
1.000000 0.782986 0.668910
1.000000 0.782528 0.674647
1.000000 0.787320 0.683497
1.000000 0.763333 0.656916
0.000000 0.879728 0.000000
0.000000 0.882719 0.000000
0.000000 0.885679 0.000000
0.000000 0.887968 0.000000
0.000000 0.889189 0.000000
0.000000 0.888518 0.000000
0.000000 0.885588 0.000000
0.000000 0.881895 0.000000
0.171664 0.878019 0.000000
0.297795 0.873777 0.000000
0.388006 0.869383 0.000000
0.465339 0.864439 0.000000
0.534722 0.858549 0.000000
0.594568 0.844266 0.000000
0.646876 0.827268 0.000000
0.692226 0.808682 0.000000
0.730892 0.788754 0.000000
0.762936 0.767941 0.053864
0.788937 0.746700 0.149874
0.810605 0.728389 0.238682
0.850004 0.731472 0.318547
0.891508 0.740902 0.386847
0.925719 0.750301 0.450629
0.953124 0.759670 0.507347
0.974670 0.769192 0.557031
0.991547 0.779507 0.601678
1.000000 0.791257 0.642481
1.000000 0.804318 0.679622
1.000000 0.814725 0.705867
1.000000 0.815640 0.711910
1.000000 0.821134 0.721553
1.000000 0.799313 0.696834
0.000000 0.908415 0.000000
0.000000 0.910979 0.000000
0.000000 0.913573 0.000000
0.000000 0.915526 0.000000
0.000000 0.916594 0.000000
0.000000 0.916167 0.000000
0.000000 0.913573 0.000000
0.000000 0.910124 0.000000
0.080598 0.906310 0.000000
0.258244 0.902190 0.000000
0.357122 0.897795 0.000000
0.438087 0.892943 0.000000
0.509697 0.887358 0.000000
0.574487 0.879362 0.000000
0.631128 0.864683 0.000000
0.681666 0.848844 0.000000
0.726375 0.832242 0.000000
0.765591 0.815061 0.000000
0.799466 0.797665 0.131228
0.828000 0.780362 0.200076
0.850675 0.765042 0.291814
0.886473 0.767636 0.373358
0.922759 0.775906 0.441749
0.952178 0.784421 0.503410
0.974945 0.792782 0.556970
0.992462 0.801724 0.604425
1.000000 0.812009 0.647272
1.000000 0.823606 0.685695
1.000000 0.837034 0.721706
1.000000 0.852079 0.755856
1.000000 0.850797 0.756405
1.000000 0.830991 0.732998
0.000000 0.943908 0.000000
0.000000 0.945006 0.000000
0.000000 0.945769 0.000000
0.000000 0.946197 0.000000
0.000000 0.946105 0.000000
0.000000 0.945281 0.000000
0.000000 0.943084 0.000000
0.000000 0.940093 0.000000
0.000000 0.936919 0.000000
0.214054 0.933471 0.000000
0.326390 0.929717 0.000000
0.412787 0.925383 0.000000
0.487434 0.920287 0.000000
0.555016 0.914488 0.000000
0.616114 0.904051 0.000000
0.671015 0.890074 0.000000
0.720089 0.875334 0.000000
0.764065 0.859953 0.000000
0.802762 0.844175 0.110811
0.836271 0.828183 0.190372
0.864347 0.812436 0.257816
0.884398 0.796902 0.344091
0.913848 0.796506 0.421118
0.943755 0.801602 0.483375
0.968536 0.808225 0.540398
0.987762 0.815518 0.590997
1.000000 0.824277 0.636927
1.000000 0.834562 0.677943
1.000000 0.846616 0.715846
1.000000 0.860655 0.751888
1.000000 0.864286 0.763363
1.000000 0.857877 0.764706
0.000000 0.966094 0.000000
0.000000 0.967132 0.000000
0.000000 0.968017 0.000000
0.000000 0.968444 0.000000
0.000000 0.968353 0.000000
0.000000 0.967590 0.000000
0.000000 0.965728 0.000000
0.000000 0.962799 0.000000
0.000000 0.959625 0.000000
0.151247 0.956237 0.000000
0.288548 0.952605 0.000000
0.381170 0.948516 0.000000
0.458686 0.943786 0.000000
0.528405 0.938506 0.000000
0.592340 0.932738 0.000000
0.650752 0.920897 0.000000
0.703731 0.908232 0.000000
0.751858 0.895018 0.000000
0.795193 0.881407 0.058289
0.833707 0.867674 0.173159
0.867308 0.854154 0.252018
0.895750 0.840879 0.314275
0.914397 0.826535 0.398199
0.939269 0.824857 0.471290
0.959777 0.822599 0.518303
0.981201 0.828367 0.572656
0.997955 0.835569 0.622034
1.000000 0.844388 0.666133
1.000000 0.855009 0.706203
1.000000 0.868101 0.744747
1.000000 0.873655 0.761318
1.000000 0.866636 0.762844
0.000000 0.991821 0.000000
0.000000 0.992798 0.000000
0.000000 0.993378 0.000000
0.000000 0.993561 0.000000
0.000000 0.993133 0.000000
0.000000 0.992157 0.000000
0.000000 0.990387 0.000000
0.000000 0.987213 0.000000
0.000000 0.983642 0.000000
0.000000 0.979828 0.000000
0.246525 0.975616 0.000000
0.348394 0.971221 0.000000
0.429847 0.966339 0.000000
0.500999 0.960906 0.000000
0.565820 0.954833 0.000000
0.625940 0.946685 0.000000
0.681331 0.934752 0.000000
0.732082 0.922545 0.000000
0.778683 0.910307 0.000000
0.821103 0.898375 0.139864
0.859098 0.886687 0.236118
0.892180 0.875029 0.305760
0.919890 0.863279 0.363561
0.936034 0.848966 0.442664
0.956207 0.845090 0.508476
0.976349 0.845640 0.559380
0.994293 0.850675 0.611078
1.000000 0.857389 0.657252
1.000000 0.866300 0.699367
1.000000 0.877775 0.739498
1.000000 0.883543 0.759182
1.000000 0.875853 0.760861
0.000000 1.000000 0.000000
0.000000 1.000000 0.000000
0.000000 1.000000 0.000000
0.000000 1.000000 0.000000
0.000000 1.000000 0.000000
0.000000 1.000000 0.000000
0.000000 1.000000 0.000000
0.000000 1.000000 0.000000
0.000000 1.000000 0.000000
0.000000 0.998291 0.000000
0.193881 0.994751 0.000000
0.312291 0.990906 0.000000
0.398932 0.986694 0.000000
0.473030 0.981964 0.000000
0.539696 0.976654 0.000000
0.601251 0.970916 0.000000
0.659358 0.961944 0.000000
0.713313 0.951415 0.000000
0.763272 0.940764 0.000000
0.809171 0.930266 0.122347
0.850797 0.919860 0.233341
0.887816 0.909514 0.309667
0.919646 0.899229 0.372045
0.946197 0.889036 0.424811
0.959991 0.875242 0.497902
0.975860 0.870054 0.557702
0.991821 0.869169 0.603906
1.000000 0.874113 0.653010
1.000000 0.881559 0.697688
1.000000 0.891478 0.739712
1.000000 0.894011 0.756863
1.000000 0.885618 0.758724
0.000000 1.000000 0.000000
0.000000 1.000000 0.000000
0.000000 1.000000 0.000000
0.000000 1.000000 0.000000
0.000000 1.000000 0.000000
0.000000 1.000000 0.000000
0.000000 1.000000 0.000000
0.000000 1.000000 0.000000
0.000000 1.000000 0.000000
0.000000 1.000000 0.000000
0.115999 1.000000 0.000000
0.270420 1.000000 0.000000
0.365026 1.000000 0.000000
0.442695 0.999908 0.000000
0.511131 0.995117 0.000000
0.573968 0.989837 0.000000
0.632807 0.983978 0.000000
0.689265 0.974640 0.000000
0.741756 0.965148 0.000000
0.790524 0.955718 0.082185
0.835416 0.946288 0.222965
0.875792 0.936889 0.306981
0.911131 0.927672 0.374334
0.941344 0.918669 0.431098
0.966613 0.909911 0.478920
0.978241 0.896757 0.546532
0.990936 0.891112 0.601953
1.000000 0.889738 0.644312
1.000000 0.894835 0.690547
1.000000 0.902983 0.734707
1.000000 0.904997 0.754391
1.000000 0.895872 0.756466
0.000000 1.000000 0.000000
0.000000 1.000000 0.000000
0.000000 1.000000 0.000000
0.000000 1.000000 0.000000
0.000000 1.000000 0.000000
0.000000 1.000000 0.000000
0.000000 1.000000 0.000000
0.000000 1.000000 0.000000
0.000000 1.000000 0.000000
0.000000 1.000000 0.000000
0.000000 1.000000 0.000000
0.225956 1.000000 0.000000
0.332738 1.000000 0.000000
0.415229 1.000000 0.000000
0.486732 1.000000 0.000000
0.551385 1.000000 0.000000
0.611414 1.000000 0.000000
0.669001 1.000000 0.000000
0.724880 0.994385 0.000000
0.777279 0.985840 0.112856
0.825620 0.977234 0.248966
0.869230 0.968688 0.336675
0.907591 0.960327 0.406897
0.940551 0.952392 0.465003
0.968444 0.944884 0.514031
0.991730 0.938079 0.556939
1.000000 0.926482 0.619745
1.000000 0.920928 0.668513
1.000000 0.919097 0.704768
1.000000 0.924132 0.747494
1.000000 0.916625 0.751766
1.000000 0.906676 0.754025
0.000000 1.000000 0.000000
0.000000 1.000000 0.000000
0.000000 1.000000 0.000000
0.000000 1.000000 0.000000
0.000000 1.000000 0.000000
0.000000 1.000000 0.000000
0.000000 1.000000 0.000000
0.000000 1.000000 0.000000
0.000000 1.000000 0.000000
0.000000 1.000000 0.000000
0.000000 1.000000 0.000000
0.160189 1.000000 0.000000
0.290715 1.000000 0.000000
0.379858 1.000000 0.000000
0.454475 1.000000 0.000000
