其他预设/【233】日式怀旧街道调色预设208款/1.3D LUT预设（视频调色-PR-AE-PS-FCPX-达芬奇用）/2.富士胶片风-日式城市街拍预设/JA – Gritty Contrast 4 (Classic Chrome).cube
# Created by Adobe Lightroom plugin Export LUT (1.17.0)
# www.johnrellis.com/lightroom/exportlut.htm
# Preset: JA – Gritty Contrast 4 (Classic Chrome)
# Color profile: /Library/Application Support/Adobe/Color/Profiles/Recommended/AdobeRGB1998.icc
LUT_3D_SIZE 8
DOMAIN_MIN 0.000000 0.000000 0.000000
DOMAIN_MAX 0.903226 0.903226 0.903226
0.070192 0.076143 0.083955
0.121614 0.074647 0.094575
0.228367 0.002808 0.095430
0.419898 0.000000 0.079408
0.642847 0.000000 0.028016
0.774319 0.000000 0.000000
0.897673 0.000000 0.000000
1.000000 0.000000 0.005982
0.078035 0.111452 0.095186
0.118166 0.111604 0.100618
0.241093 0.110018 0.098604
0.454688 0.027039 0.067262
0.663630 0.000000 0.000000
0.786557 0.000000 0.000000
0.907225 0.000000 0.000000
1.000000 0.000000 0.001556
0.109865 0.180606 0.111147
0.139376 0.179171 0.111116
0.222904 0.190799 0.116426
0.471046 0.270115 0.116457
0.687404 0.257847 0.034821
0.805875 0.197482 0.000000
0.921538 0.083589 0.000000
1.000000 0.000000 0.000000
0.161593 0.288060 0.109529
0.188998 0.287785 0.108766
0.269505 0.299535 0.104524
0.441016 0.351202 0.100313
0.688167 0.433845 0.164645
0.815793 0.406653 0.164370
0.932067 0.359655 0.143771
1.000000 0.295109 0.147402
0.250156 0.467201 0.079133
0.278264 0.465980 0.077790
0.360113 0.465248 0.070192
0.497444 0.496101 0.000122
0.666041 0.515679 0.093751
0.815366 0.551690 0.273075
0.929137 0.583551 0.392401
1.000000 0.546929 0.400061
0.329473 0.621820 0.040497
0.352850 0.618219 0.034882
0.427039 0.612512 0.018830
0.538994 0.621180 0.000000
0.681361 0.638972 0.000000
0.800381 0.622766 0.207492
0.918639 0.677943 0.438025
0.972686 0.732296 0.587579
0.391852 0.737575 0.149813
0.411475 0.735958 0.149172
0.475319 0.732296 0.149386
0.570947 0.727687 0.151766
0.694789 0.743648 0.181735
0.834745 0.761074 0.226902
0.920592 0.743557 0.407874
0.970275 0.775967 0.582513
0.507225 0.869413 0.343420
0.522148 0.868833 0.344579
0.570886 0.866361 0.347875
0.647852 0.861326 0.352911
0.749538 0.865507 0.383825
0.855497 0.871550 0.427008
0.945129 0.863584 0.475074
0.974578 0.831632 0.590967
0.090669 0.099641 0.135378
0.108919 0.097993 0.133761
0.216464 0.082216 0.136294
0.416510 0.000000 0.112612
0.654597 0.000000 0.049683
0.785397 0.000000 0.000000
0.906462 0.000000 0.000000
1.000000 0.000000 0.007568
0.076661 0.117372 0.134279
0.115023 0.124666 0.136660
0.225223 0.124849 0.135866
0.442878 0.100649 0.109346
0.669856 0.000000 0.011475
0.794491 0.000000 0.000000
0.914336 0.000000 0.000000
1.000000 0.000000 0.005890
0.103975 0.189273 0.141878
0.140597 0.188357 0.147280
0.216617 0.195254 0.147829
0.463203 0.277195 0.150118
0.689601 0.281071 0.080842
0.810971 0.228733 0.000000
0.929534 0.131716 0.000000
1.000000 0.000000 0.000000
0.152560 0.299443 0.150027
0.185336 0.298192 0.151064
0.268864 0.305455 0.142428
0.444465 0.358556 0.128878
0.693996 0.443641 0.169558
0.823301 0.422889 0.181155
0.938048 0.373175 0.158724
1.000000 0.310857 0.164767
0.233310 0.475959 0.139223
0.266484 0.474861 0.135531
0.356054 0.469825 0.122316
0.501793 0.503746 0.083894
0.670283 0.521630 0.092988
0.818265 0.556878 0.275425
0.930785 0.592523 0.403937
1.000000 0.557366 0.412421
0.319310 0.627649 0.127199
0.346105 0.625757 0.122438
0.425879 0.619440 0.103212
0.542260 0.626246 0.060456
0.684230 0.643061 0.013855
0.801450 0.625360 0.207767
0.919554 0.680201 0.439582
0.972747 0.736019 0.592004
0.395331 0.742214 0.155215
0.415503 0.741543 0.155612
0.478737 0.737423 0.155367
0.573510 0.731746 0.156680
0.696651 0.746944 0.186130
0.837461 0.765255 0.231846
0.922271 0.746517 0.411383
0.970947 0.778256 0.585443
0.507988 0.872557 0.349248
0.522423 0.871672 0.349828
0.571008 0.869047 0.352941
0.647822 0.863828 0.357641
0.746242 0.864714 0.381415
0.853880 0.871763 0.426856
0.945556 0.865202 0.476783
0.974823 0.832609 0.592096
0.102846 0.128664 0.222385
0.130953 0.143069 0.224643
0.186893 0.145785 0.227298
0.356207 0.110658 0.262486
0.580926 0.000000 0.240696
0.747005 0.000000 0.179721
0.889220 0.000000 0.146456
1.000000 0.000000 0.004822
0.101167 0.144564 0.220554
0.133669 0.155306 0.220645
0.191135 0.166995 0.229282
0.372778 0.118227 0.258274
0.590082 0.000000 0.215213
0.756802 0.000000 0.184176
0.897215 0.000000 0.147066
1.000000 0.000000 0.000793
0.095796 0.196902 0.225956
0.129183 0.200443 0.226596
0.214054 0.227909 0.246159
0.411048 0.217716 0.235447
0.644434 0.201236 0.221012
0.783291 0.173770 0.198184
0.916838 0.114137 0.147829
1.000000 0.000000 0.000000
0.086030 0.326207 0.259770
0.134279 0.326970 0.255619
0.248905 0.331304 0.248631
0.416785 0.362219 0.260014
0.666804 0.461311 0.347845
0.800656 0.428016 0.309056
0.929595 0.384222 0.245090
1.000000 0.314855 0.168307
0.114809 0.504936 0.258579
0.170047 0.505089 0.248508
0.322942 0.496834 0.256870
0.474556 0.506676 0.249699
0.648554 0.528008 0.288731
0.800076 0.589502 0.420874
0.924041 0.613916 0.454658
1.000000 0.560540 0.416175
0.267094 0.641413 0.279911
0.303716 0.639338 0.281010
0.398352 0.632746 0.277226
0.518456 0.627039 0.261295
0.667597 0.646265 0.267948
0.791470 0.638361 0.333654
0.918029 0.688685 0.458381
0.972839 0.737972 0.594324
0.389593 0.747280 0.327733
0.410163 0.746334 0.327092
0.472175 0.742885 0.316991
0.564721 0.735561 0.292882
0.689387 0.749355 0.288243
0.833005 0.769223 0.273808
0.921172 0.748013 0.406989
0.970886 0.778775 0.584924
0.508324 0.876066 0.389776
0.519860 0.875975 0.383734
0.565118 0.874113 0.371466
0.640650 0.868467 0.364843
0.740475 0.867674 0.385809
0.849332 0.873960 0.430274
0.945739 0.869993 0.478523
0.974670 0.833585 0.590906
0.095827 0.165042 0.356695
0.140322 0.179751 0.360937
0.228611 0.202548 0.378668
0.339239 0.200565 0.391730
0.540307 0.250797 0.437751
0.727596 0.000000 0.404486
0.840757 0.000000 0.349554
0.994171 0.000000 0.282567
0.094911 0.179629 0.352270
0.142855 0.192294 0.353582
0.233738 0.223453 0.376532
0.342138 0.222324 0.392248
0.549432 0.257847 0.438300
0.726345 0.000000 0.397772
0.839689 0.000000 0.340154
0.996704 0.000000 0.287175
0.087800 0.239719 0.364294
0.130648 0.242130 0.363867
0.232761 0.262821 0.370764
0.361852 0.294285 0.402686
0.576318 0.276829 0.428046
0.716793 0.102693 0.363317
0.860197 0.000000 0.326268
1.000000 0.000000 0.304997
0.000000 0.339849 0.382727
0.099214 0.342748 0.383581
0.225925 0.360143 0.392981
0.422950 0.429175 0.440681
0.616846 0.413275 0.426734
0.755337 0.412818 0.426886
0.896178 0.393957 0.410224
1.000000 0.329534 0.350958
0.000000 0.542412 0.446235
0.027008 0.542412 0.443030
0.275517 0.542504 0.435187
0.456641 0.538048 0.437079
0.618524 0.558801 0.475441
0.775967 0.645686 0.575463
0.903136 0.636225 0.553460
0.990448 0.590448 0.506126
0.205386 0.661341 0.438453
0.256016 0.658442 0.438483
0.387213 0.653254 0.450050
0.513024 0.641962 0.458564
0.637903 0.648768 0.465553
0.763912 0.668635 0.523217
0.901884 0.735622 0.601556
0.969879 0.747616 0.625605
0.401068 0.759487 0.475441
0.429145 0.757504 0.481544
0.512657 0.750637 0.504509
0.575982 0.744106 0.486976
0.672511 0.744228 0.476173
0.803647 0.771115 0.494392
0.905425 0.772671 0.543816
0.969726 0.785519 0.602197
0.564263 0.876738 0.554009
0.573144 0.876127 0.551904
0.598901 0.875151 0.538323
0.650111 0.872557 0.515068
0.733211 0.867674 0.493629
0.838071 0.876371 0.491432
0.946014 0.879362 0.481514
0.974609 0.835416 0.590082
0.112673 0.221134 0.519158
0.164736 0.235019 0.522148
0.296391 0.293400 0.537316
0.397253 0.303471 0.553338
0.532769 0.319005 0.564874
0.670985 0.441718 0.580468
0.821958 0.395544 0.584222
0.969635 0.234073 0.543145
0.112490 0.234562 0.515221
0.165255 0.247013 0.516564
0.293309 0.302342 0.532708
0.403265 0.326085 0.551995
0.535821 0.343175 0.564843
0.671656 0.460395 0.582910
0.823758 0.398932 0.581872
0.968872 0.255131 0.541680
0.094911 0.291386 0.522148
0.149050 0.294102 0.520897
0.278630 0.324224 0.522362
0.426215 0.393256 0.549706
0.547814 0.416205 0.566583
0.676478 0.515038 0.592950
0.831724 0.406531 0.570733
0.967742 0.304875 0.532280
0.063935 0.385870 0.535882
0.141329 0.388373 0.535454
0.277897 0.402930 0.535210
0.439460 0.453681 0.541924
0.570306 0.509148 0.572717
0.696284 0.521660 0.585321
0.828824 0.422248 0.537377
0.975402 0.360510 0.504631
0.000000 0.513848 0.552911
0.126894 0.516045 0.552819
0.293309 0.526482 0.554528
0.462745 0.552331 0.563745
0.613031 0.603845 0.596582
0.732143 0.595087 0.588830
0.874723 0.594446 0.588067
0.981445 0.579492 0.573938
0.183993 0.681758 0.588739
0.249149 0.681544 0.589044
0.395972 0.680140 0.591913
0.531090 0.673915 0.593500
0.630701 0.668391 0.593103
0.748257 0.695338 0.624811
0.895171 0.775906 0.701289
0.964630 0.755367 0.678767
0.401617 0.780362 0.598230
0.430365 0.779019 0.600610
0.506279 0.774899 0.606317
0.590997 0.770077 0.610071
0.668635 0.760586 0.600824
0.778439 0.776547 0.607843
0.892393 0.798245 0.650355
0.955840 0.825498 0.714412
0.542596 0.892180 0.636103
0.557061 0.891478 0.637324
0.599451 0.889281 0.639277
0.661646 0.884031 0.640497
0.722896 0.879088 0.615503
0.817838 0.878111 0.607019
0.921630 0.885313 0.614435
0.968048 0.849271 0.644312
0.238407 0.318486 0.635126
0.273564 0.334020 0.635950
0.380713 0.392889 0.640803
0.485145 0.446845 0.649683
0.567407 0.468879 0.662806
0.665248 0.495155 0.670405
0.783352 0.580591 0.697841
0.920592 0.617151 0.741146
0.248814 0.332921 0.634668
0.282567 0.347936 0.635798
0.385138 0.403052 0.640314
0.495399 0.464057 0.649592
0.573602 0.484565 0.662776
0.667750 0.508751 0.670893
0.785183 0.589349 0.699672
0.922667 0.617365 0.740108
0.246464 0.369116 0.635859
0.275212 0.375433 0.634943
0.380194 0.418585 0.633143
0.516899 0.504021 0.644831
0.587274 0.523827 0.659571
0.673457 0.545403 0.670619
0.789731 0.614435 0.703792
0.928893 0.614130 0.733333
0.260380 0.437934 0.641810
0.292668 0.444282 0.640955
0.382452 0.466438 0.637415
0.498116 0.511894 0.633692
0.604334 0.571740 0.654902
0.682033 0.592859 0.670985
0.797879 0.650416 0.709865
0.940490 0.599817 0.712917
0.278386 0.527886 0.651698
0.311284 0.531823 0.650813
0.403326 0.546349 0.648219
0.509148 0.569818 0.645777
0.608209 0.604669 0.648920
0.700710 0.647395 0.680079
0.821866 0.654292 0.702876
0.953521 0.582361 0.668910
0.304143 0.636500 0.663844
0.337346 0.637934 0.663050
0.429480 0.644556 0.662257
0.533043 0.656306 0.663539
0.627680 0.675654 0.671748
0.736233 0.720027 0.703700
0.864378 0.714107 0.697810
0.962158 0.715694 0.698695
0.390997 0.788510 0.709010
0.418097 0.788144 0.709133
0.494118 0.789425 0.711238
0.583062 0.795651 0.715633
0.664790 0.796902 0.709926
0.752773 0.790951 0.697322
0.877501 0.823636 0.746609
0.940002 0.869902 0.821256
0.527794 0.905608 0.740139
0.542443 0.905028 0.740230
0.586236 0.903105 0.739498
0.646509 0.899962 0.735561
0.722713 0.895384 0.731899
0.797330 0.887999 0.716243
0.894560 0.890410 0.725673
0.949218 0.879667 0.769680
0.471626 0.506462 0.753017
0.488045 0.515892 0.753231
0.540673 0.547295 0.755032
0.616907 0.595178 0.760983
0.660914 0.602869 0.771054
0.719844 0.612299 0.785397
0.795682 0.622980 0.792111
0.901335 0.699336 0.824216
0.474037 0.511589 0.751553
0.489967 0.520623 0.751858
0.540887 0.550561 0.753811
0.616480 0.597589 0.760189
0.663478 0.609094 0.770596
0.721523 0.618341 0.785245
0.796811 0.628779 0.792447
0.901854 0.705348 0.824979
0.466438 0.523095 0.752255
0.484413 0.530938 0.750729
0.536767 0.557305 0.749233
0.610193 0.601526 0.755795
0.669825 0.627131 0.768032
0.726009 0.636591 0.783810
0.799985 0.646937 0.792874
0.903075 0.724056 0.826688
0.469642 0.558221 0.756893
0.483314 0.562249 0.755947
0.524376 0.574243 0.752163
0.594476 0.604059 0.748043
0.677089 0.652644 0.763638
0.732052 0.663813 0.781643
0.805814 0.676204 0.794339
0.905486 0.754238 0.830076
0.472908 0.609522 0.765011
0.486610 0.612390 0.764157
0.527550 0.620813 0.761196
0.582574 0.631617 0.756313
0.652827 0.653132 0.751980
0.738552 0.697108 0.778805
0.815488 0.716915 0.798032
0.909056 0.794095 0.836301
0.475532 0.677943 0.775784
0.489326 0.679713 0.775143
0.531243 0.685115 0.773129
0.587518 0.692134 0.770199
0.648280 0.698970 0.766964
0.726558 0.717830 0.765957
0.830442 0.771359 0.805081
0.922728 0.801480 0.829770
0.476753 0.765743 0.789029
0.490883 0.766659 0.788724
0.533928 0.769802 0.787961
0.591913 0.775174 0.787472
0.659541 0.783902 0.788632
0.747707 0.800931 0.795224
0.859129 0.843046 0.825742
0.938048 0.845304 0.827604
0.507408 0.907958 0.840635
0.521080 0.907836 0.840238
0.562951 0.907622 0.838682
0.626734 0.907866 0.836332
0.715206 0.907652 0.834958
0.806577 0.903380 0.833158
0.874937 0.897185 0.827512
0.934295 0.903899 0.860624
0.671687 0.686122 0.888121
0.678370 0.689845 0.888060
0.702510 0.703944 0.887968
0.745602 0.731136 0.887938
0.784512 0.750851 0.888914
0.812863 0.753567 0.891173
0.848661 0.757870 0.894072
0.896483 0.766964 0.893462
0.671321 0.687617 0.887968
0.677974 0.691310 0.887907
0.701869 0.705196 0.887846
0.744869 0.732113 0.887816
0.786557 0.754726 0.888762
0.814542 0.757473 0.891051
0.849943 0.761868 0.894011
0.897093 0.770871 0.893492
0.664057 0.690394 0.888518
0.672328 0.694240 0.887999
0.697871 0.707973 0.887449
0.740566 0.733974 0.887388
0.792599 0.767025 0.888121
0.819638 0.770016 0.890562
0.853849 0.774655 0.893675
0.898924 0.783200 0.893523
0.651392 0.699763 0.890806
0.657771 0.701778 0.890471
0.680415 0.709621 0.889189
0.729397 0.734768 0.887022
0.789609 0.773861 0.887510
0.827207 0.789395 0.889860
0.859800 0.794491 0.893217
0.902037 0.802579 0.893736
0.647089 0.725704 0.892790
0.652583 0.726864 0.892576
0.671839 0.731075 0.891875
0.704524 0.738705 0.890593
0.769467 0.769558 0.887266
0.835874 0.812894 0.889128
0.867216 0.819120 0.892882
0.906340 0.827909 0.894255
0.641047 0.762020 0.894957
0.646937 0.763027 0.894804
0.667323 0.766751 0.894255
0.701900 0.773434 0.893217
0.749416 0.784329 0.891417
0.817685 0.812467 0.887816
0.875456 0.846494 0.892119
0.911559 0.856565 0.895201
0.631128 0.809628 0.897093
0.637446 0.810452 0.896971
0.659236 0.813413 0.896544
0.697078 0.819028 0.895689
0.749386 0.828275 0.894316
0.809415 0.841276 0.892241
0.871275 0.861570 0.889006
0.917662 0.885679 0.897185
0.615137 0.870970 0.898772
0.622126 0.871580 0.898680
0.646326 0.873777 0.898344
0.689387 0.877897 0.897673
0.748714 0.884215 0.896727
0.815976 0.892454 0.895781
0.877745 0.901671 0.895720
0.926299 0.915099 0.902800
