其他预设/【233】日式怀旧街道调色预设208款/1.3D LUT预设（视频调色-PR-AE-PS-FCPX-达芬奇用）/2.富士胶片风-日式城市街拍预设/JA – Shaded Light 2 (Classic Chrome).cube
# Created by Adobe Lightroom plugin Export LUT (1.17.0)
# www.johnrellis.com/lightroom/exportlut.htm
# Preset: JA – Shaded Light 2 (Classic Chrome)
# Color profile: /Library/Application Support/Adobe/Color/Profiles/Recommended/AdobeRGB1998.icc
LUT_3D_SIZE 32
0.093874 0.090883 0.085451
0.093874 0.090883 0.085451
0.094545 0.090761 0.085451
0.099916 0.089815 0.085359
0.107240 0.088350 0.085237
0.114839 0.088563 0.084962
0.123537 0.088350 0.084657
0.134707 0.088197 0.084474
0.148470 0.087861 0.084108
0.165469 0.087160 0.083833
0.186221 0.086061 0.083497
0.210117 0.084504 0.082765
0.236667 0.082002 0.081910
0.266026 0.078767 0.080446
0.297765 0.074159 0.078279
0.331548 0.067597 0.075685
0.366430 0.059236 0.072084
0.401923 0.037873 0.067109
0.437018 0.008179 0.061372
0.472633 0.000000 0.050721
0.507683 0.000000 0.032563
0.541863 0.000000 0.013062
0.575860 0.000000 0.000000
0.609766 0.000000 0.000000
0.644984 0.000000 0.000000
0.683864 0.000000 0.000000
0.728267 0.000000 0.000000
0.780056 0.000000 0.000000
0.836820 0.000000 0.000000
0.894682 0.000000 0.000000
0.948669 0.000000 0.000000
0.993652 0.000000 0.000000
0.093874 0.090883 0.085451
0.093874 0.090883 0.085451
0.094545 0.090761 0.085451
0.100191 0.090059 0.085328
0.107332 0.089845 0.085115
0.114931 0.090028 0.084840
0.123842 0.089784 0.084810
0.135012 0.089631 0.084321
0.148898 0.089570 0.083925
0.166140 0.089082 0.083925
0.186954 0.087922 0.083284
0.210971 0.086580 0.082826
0.237613 0.084443 0.081605
0.267033 0.081544 0.080110
0.298955 0.077546 0.078187
0.332525 0.071870 0.075196
0.367529 0.064759 0.071504
0.402838 0.049744 0.066926
0.437995 0.023926 0.061036
0.473487 0.000000 0.050080
0.508476 0.000000 0.031800
0.542382 0.000000 0.011292
0.576257 0.000000 0.000000
0.610071 0.000000 0.000000
0.645350 0.000000 0.000000
0.684108 0.000000 0.000000
0.728664 0.000000 0.000000
0.780392 0.000000 0.000000
0.837003 0.000000 0.000000
0.894804 0.000000 0.000000
0.948730 0.000000 0.000000
0.993622 0.000000 0.000000
0.093812 0.091493 0.085389
0.093751 0.091798 0.085389
0.094667 0.092226 0.085328
0.100191 0.092409 0.085145
0.107607 0.092164 0.084901
0.115236 0.092042 0.084657
0.124361 0.091737 0.084596
0.135653 0.091829 0.084077
0.149447 0.091463 0.084047
0.166934 0.091188 0.083986
0.188052 0.090517 0.083284
0.212070 0.089174 0.082490
0.238926 0.087800 0.081514
0.268467 0.085206 0.079957
0.300328 0.082002 0.077943
0.334081 0.076722 0.074891
0.369085 0.070375 0.071168
0.404517 0.062104 0.065949
0.439551 0.043030 0.060426
0.474739 0.013855 0.048798
0.509636 0.000000 0.030121
0.543511 0.000000 0.009522
0.577173 0.000000 0.000000
0.610925 0.000000 0.000000
0.646204 0.000000 0.000000
0.684901 0.000000 0.000000
0.729458 0.000000 0.000000
0.781094 0.000000 0.000000
0.837705 0.000000 0.000000
0.895354 0.000000 0.000000
0.949035 0.000000 0.000000
0.993805 0.000000 0.000000
0.093690 0.096345 0.085542
0.093629 0.096620 0.085512
0.095186 0.096925 0.085451
0.100343 0.097719 0.084932
0.107851 0.097200 0.084443
0.115938 0.096712 0.084474
0.125277 0.096376 0.084138
0.136873 0.096071 0.084230
0.151247 0.096071 0.084108
0.168978 0.096223 0.083680
0.190341 0.095949 0.083223
0.214939 0.095705 0.082277
0.241947 0.094759 0.081209
0.271763 0.093141 0.079469
0.303838 0.090425 0.077363
0.337774 0.087160 0.074037
0.372717 0.082734 0.070100
0.407996 0.076265 0.064759
0.442847 0.068269 0.058350
0.477760 0.057130 0.044434
0.512291 0.030426 0.024964
0.545739 0.000000 0.006622
0.579400 0.000000 0.000000
0.612940 0.000000 0.000000
0.648127 0.000000 0.000000
0.687037 0.000000 0.000000
0.731624 0.000000 0.000000
0.783352 0.000000 0.000000
0.839750 0.000000 0.000000
0.896880 0.000000 0.000000
0.950072 0.000000 0.000000
0.994324 0.000000 0.000000
0.093355 0.102235 0.085573
0.093629 0.102449 0.085542
0.095888 0.102358 0.085481
0.099794 0.102510 0.085634
0.106844 0.104189 0.084657
0.115511 0.103883 0.084352
0.126009 0.103334 0.084291
0.138735 0.103273 0.084321
0.153750 0.103578 0.084138
0.172213 0.104158 0.083894
0.194064 0.104860 0.082948
0.219211 0.105226 0.081849
0.246769 0.105318 0.080873
0.276921 0.104921 0.078889
0.309422 0.103487 0.075868
0.343420 0.102022 0.072511
0.378332 0.099001 0.068238
0.413519 0.095338 0.062776
0.448341 0.090059 0.053407
0.482765 0.083558 0.037659
0.516716 0.076326 0.017884
0.549920 0.065888 0.000000
0.583062 0.047333 0.000000
0.616419 0.011872 0.000000
0.651453 0.000000 0.000000
0.690425 0.000000 0.000000
0.735042 0.000000 0.000000
0.786740 0.000000 0.000000
0.842679 0.000000 0.000000
0.899199 0.000000 0.000000
0.951659 0.000000 0.000000
0.995178 0.000000 0.000000
0.093080 0.108431 0.086366
0.093965 0.108797 0.086305
0.095827 0.108766 0.086549
0.099763 0.108919 0.086702
0.105409 0.109712 0.086427
0.114534 0.111727 0.085328
0.125704 0.112276 0.084840
0.139193 0.113008 0.084749
0.157107 0.114168 0.083955
0.176761 0.115328 0.083223
0.199466 0.117037 0.082643
0.225071 0.118257 0.081331
0.253422 0.119448 0.079713
0.284154 0.119936 0.077089
0.316960 0.120424 0.074220
0.351324 0.119966 0.070130
0.386267 0.118624 0.065309
0.421302 0.117006 0.058656
0.455573 0.113893 0.045899
0.489601 0.109590 0.027619
0.522759 0.104768 0.009003
0.555383 0.098695 0.000000
0.590326 0.092348 0.000000
0.623346 0.083375 0.000000
0.658503 0.072145 0.000000
0.697566 0.054108 0.000000
0.742672 0.007996 0.000000
0.794064 0.000000 0.000000
0.849363 0.000000 0.000000
0.904692 0.000000 0.000000
0.955596 0.000000 0.000000
0.997620 0.000000 0.000000
0.093660 0.115694 0.087861
0.094942 0.115755 0.087800
0.096162 0.116030 0.087739
0.099763 0.116213 0.087892
0.105379 0.116487 0.088258
0.113191 0.118379 0.087495
0.124453 0.121645 0.086091
0.138766 0.123842 0.085206
0.156741 0.126284 0.084260
0.179965 0.129610 0.083284
0.206943 0.132815 0.081483
0.233341 0.135164 0.079805
0.262425 0.137148 0.077729
0.293980 0.139101 0.074891
0.327245 0.140536 0.071107
0.361730 0.141451 0.066590
0.396765 0.141604 0.060426
0.431220 0.140352 0.050019
0.465095 0.138643 0.033570
0.498512 0.136416 0.014557
0.531060 0.133272 0.000000
0.563439 0.129458 0.000000
0.595758 0.125154 0.000000
0.628656 0.119478 0.000000
0.663874 0.113558 0.000000
0.703243 0.106661 0.000000
0.748470 0.097353 0.000000
0.799710 0.085359 0.000000
0.854185 0.068299 0.000000
0.908415 0.026642 0.000000
0.958068 0.000000 0.000000
0.998901 0.000000 0.000000
0.094545 0.124025 0.089387
0.095460 0.124544 0.089021
0.096681 0.124788 0.088960
0.100221 0.125154 0.089113
0.105776 0.125612 0.089418
0.113100 0.126192 0.089662
0.123110 0.130037 0.088258
0.137636 0.134859 0.086671
0.156069 0.139345 0.085145
0.179263 0.144045 0.083314
0.207553 0.149569 0.081300
0.240604 0.154940 0.077974
0.273136 0.158968 0.074556
0.305425 0.161807 0.070985
0.339055 0.164248 0.066682
0.373632 0.165682 0.060853
0.408515 0.166903 0.049775
0.442756 0.166842 0.033570
0.475837 0.166049 0.015534
0.508202 0.164248 0.000000
0.539788 0.161959 0.000000
0.571466 0.159304 0.000000
0.603113 0.155947 0.000000
0.635767 0.152743 0.000000
0.670832 0.148440 0.000000
0.710323 0.144411 0.000000
0.755764 0.140444 0.000000
0.806516 0.135470 0.000000
0.860075 0.128939 0.000000
0.912902 0.121218 0.000000
0.961028 0.112093 0.000000
1.000000 0.101808 0.000000
0.094636 0.134981 0.091035
0.095552 0.135439 0.090669
0.096742 0.136049 0.090272
0.100008 0.136416 0.090120
0.106111 0.137148 0.090394
0.113588 0.138003 0.090578
0.123140 0.140078 0.090517
0.136721 0.145663 0.088594
0.155520 0.152499 0.086061
0.178195 0.159304 0.083864
0.206577 0.166690 0.080751
0.239536 0.173831 0.076905
0.277317 0.181430 0.071778
0.319127 0.188785 0.064973
0.353338 0.191806 0.059388
0.388098 0.194278 0.047181
0.422583 0.195560 0.029084
0.456184 0.196078 0.011017
0.488167 0.195193 0.000000
0.519310 0.193759 0.000000
0.550164 0.192111 0.000000
0.580987 0.189731 0.000000
0.611902 0.187320 0.000000
0.644251 0.184970 0.000000
0.679530 0.182376 0.000000
0.719142 0.180117 0.000000
0.764614 0.178317 0.000000
0.814664 0.176303 0.000000
0.867002 0.173800 0.000000
0.918242 0.170321 0.000000
0.964446 0.165835 0.000000
1.000000 0.160769 0.000000
0.094453 0.148501 0.092683
0.095094 0.148959 0.092073
0.096254 0.149660 0.091646
0.099214 0.150515 0.090883
0.105959 0.151247 0.090852
0.114076 0.152590 0.091218
0.124086 0.154025 0.091432
0.137179 0.158175 0.090547
0.154818 0.165713 0.087892
0.177859 0.174868 0.084291
0.204837 0.183444 0.080903
0.238468 0.193393 0.075837
0.275883 0.202884 0.069856
0.317784 0.212222 0.061280
0.362737 0.220920 0.043854
0.404517 0.226291 0.019776
0.438636 0.227817 0.000336
0.471199 0.227726 0.000000
0.501915 0.226841 0.000000
0.531853 0.225162 0.000000
0.561822 0.223514 0.000000
0.591638 0.221256 0.000000
0.621942 0.219089 0.000000
0.654017 0.217227 0.000000
0.689326 0.215549 0.000000
0.729274 0.215000 0.000000
0.774685 0.214847 0.000000
0.824063 0.214878 0.000000
0.874876 0.214420 0.000000
0.924254 0.213199 0.000000
0.968383 0.210849 0.000000
1.000000 0.207492 0.000000
0.092897 0.164492 0.093996
0.093782 0.165133 0.093355
0.094911 0.165927 0.092927
0.097597 0.167300 0.091249
0.104677 0.168215 0.091157
0.113863 0.169711 0.091432
0.125154 0.171542 0.091524
0.138338 0.173648 0.091707
0.155032 0.180636 0.089387
0.177066 0.190341 0.085908
0.204562 0.201297 0.080873
0.235325 0.211551 0.075746
0.274296 0.224674 0.067292
0.316075 0.235996 0.056062
0.360784 0.246525 0.031037
0.407111 0.255558 0.000000
0.453193 0.262272 0.000000
0.487404 0.262882 0.000000
0.516655 0.261021 0.000000
0.545464 0.258824 0.000000
0.574487 0.256718 0.000000
0.603388 0.254215 0.000000
0.633478 0.252293 0.000000
0.665492 0.250675 0.000000
0.701045 0.250065 0.000000
0.741176 0.249912 0.000000
0.786313 0.251102 0.000000
0.834470 0.252293 0.000000
0.883574 0.253147 0.000000
0.930694 0.252964 0.000000
0.972473 0.251743 0.000000
1.000000 0.249210 0.000000
0.090425 0.183108 0.095308
0.091341 0.183688 0.094667
0.092195 0.184665 0.093690
0.094362 0.186313 0.091157
0.102174 0.187564 0.090974
0.112886 0.189151 0.090883
0.125277 0.191135 0.091127
0.139528 0.193606 0.091127
0.155581 0.196902 0.090791
0.176761 0.206912 0.087160
0.203250 0.218479 0.082185
0.235142 0.231785 0.074830
0.270787 0.244694 0.066346
0.315221 0.260807 0.048341
0.360174 0.273289 0.014832
0.406317 0.283940 0.000000
0.452338 0.292271 0.000000
0.495735 0.297429 0.000000
0.534081 0.298802 0.000000
0.561883 0.295598 0.000000
0.589715 0.292729 0.000000
0.617853 0.289799 0.000000
0.647547 0.287572 0.000000
0.679774 0.286259 0.000000
0.715572 0.285832 0.000000
0.756130 0.286870 0.000000
0.800504 0.288579 0.000000
0.847135 0.290501 0.000000
0.893980 0.291966 0.000000
0.938476 0.292515 0.000000
0.977386 0.291386 0.000000
1.000000 0.288975 0.000000
0.086549 0.203891 0.096345
0.087098 0.204532 0.095674
0.088380 0.205478 0.094392
0.091035 0.207553 0.092042
0.098390 0.208957 0.090455
0.110262 0.210605 0.090272
0.124269 0.212802 0.090364
0.139742 0.215396 0.090242
0.156954 0.218387 0.090089
0.176913 0.224674 0.088594
0.202518 0.236759 0.083314
0.233463 0.250645 0.075959
0.270146 0.266545 0.064607
0.310155 0.281651 0.043397
0.356939 0.298528 0.002625
0.403204 0.311040 0.000000
0.448951 0.320867 0.000000
0.492287 0.327184 0.000000
0.532616 0.330297 0.000000
0.571801 0.331884 0.000000
0.604242 0.330205 0.000000
0.632013 0.326726 0.000000
0.661646 0.324315 0.000000
0.694148 0.323003 0.000000
0.730495 0.323186 0.000000
0.770932 0.324681 0.000000
0.814328 0.326848 0.000000
0.859159 0.328893 0.000000
0.903685 0.330419 0.000000
0.945434 0.330846 0.000000
0.981720 0.329686 0.000000
1.000000 0.327245 0.000000
0.080873 0.226078 0.097536
0.081941 0.226719 0.096376
0.082826 0.227665 0.095369
0.085634 0.229801 0.092714
0.092195 0.231815 0.089296
0.106111 0.233585 0.089265
0.121859 0.235813 0.088991
0.139071 0.238621 0.088930
0.157595 0.241978 0.088808
0.177768 0.245914 0.088258
0.201816 0.255619 0.084688
0.231693 0.269810 0.077028
0.266606 0.285740 0.066346
0.307225 0.303471 0.039734
0.351141 0.320623 0.000000
0.399268 0.337682 0.000000
0.445289 0.348974 0.000000
0.488594 0.356573 0.000000
0.529046 0.360693 0.000000
0.568444 0.363256 0.000000
0.606989 0.364385 0.000000
0.646387 0.365637 0.000000
0.677485 0.363439 0.000000
0.710414 0.362280 0.000000
0.747097 0.362737 0.000000
0.787045 0.364263 0.000000
0.829038 0.366125 0.000000
0.871916 0.368170 0.000000
0.913787 0.369360 0.000000
0.952667 0.369451 0.000000
0.986114 0.367834 0.000000
1.000000 0.364965 0.000000
0.072206 0.249729 0.098573
0.073304 0.250401 0.097658
0.075166 0.251377 0.096376
0.078248 0.253544 0.093141
0.083680 0.256229 0.087282
0.100099 0.258061 0.087434
0.118044 0.260533 0.087190
0.137026 0.263371 0.086702
0.157076 0.266911 0.086336
0.178775 0.271000 0.086091
0.201419 0.275761 0.085634
0.230014 0.289372 0.078645
0.263554 0.305425 0.067811
0.302129 0.322972 0.045502
0.345830 0.341924 0.000000
0.392401 0.360204 0.000000
0.440833 0.376501 0.000000
0.484413 0.385443 0.000000
0.525292 0.390753 0.000000
0.564843 0.394171 0.000000
0.603510 0.396155 0.000000
0.643061 0.398108 0.000000
0.685542 0.401160 0.000000
0.728481 0.404211 0.000000
0.765164 0.404517 0.000000
0.804257 0.405768 0.000000
0.844572 0.407263 0.000000
0.885191 0.408667 0.000000
0.924254 0.409094 0.000000
0.959930 0.408331 0.000000
0.990631 0.405859 0.000000
1.000000 0.402258 0.000000
0.060212 0.274784 0.099336
0.061341 0.275547 0.098604
0.063233 0.276463 0.096834
0.067353 0.278691 0.093263
0.073243 0.281926 0.086854
0.091005 0.284092 0.084840
0.111971 0.286473 0.084504
0.133425 0.289494 0.084321
0.155489 0.293126 0.083680
0.178470 0.297337 0.083162
0.202609 0.302007 0.082704
0.228641 0.309422 0.080385
0.260624 0.325139 0.070436
0.297459 0.342473 0.050874
0.338659 0.360967 0.002594
0.384375 0.380468 0.000000
0.432349 0.398932 0.000000
0.479042 0.413275 0.000000
0.520928 0.420233 0.000000
0.560937 0.424750 0.000000
0.599878 0.427588 0.000000
0.639643 0.430426 0.000000
0.682307 0.434363 0.000000
0.729305 0.440131 0.000000
0.779843 0.446906 0.000000
0.822477 0.449500 0.000000
0.860777 0.450050 0.000000
0.898589 0.450355 0.000000
0.934539 0.449622 0.000000
0.966918 0.447456 0.000000
0.994842 0.443946 0.000000
1.000000 0.439490 0.000000
0.027832 0.300786 0.100282
0.030945 0.301549 0.099062
0.034913 0.302495 0.097749
0.045624 0.304723 0.093874
0.059358 0.308171 0.087037
0.077913 0.310765 0.081483
0.103334 0.313237 0.081270
0.128023 0.316228 0.080598
0.152468 0.319829 0.080354
0.176852 0.324010 0.079896
0.202396 0.328710 0.079072
0.228458 0.334173 0.078187
0.257939 0.344854 0.072786
0.293065 0.361791 0.057649
0.332128 0.379767 0.013001
0.375097 0.398596 0.000000
0.421485 0.417700 0.000000
0.469856 0.435645 0.000000
0.514549 0.447730 0.000000
0.556359 0.454719 0.000000
0.595819 0.458534 0.000000
0.635859 0.462074 0.000000
0.678676 0.466926 0.000000
0.725795 0.473915 0.000000
0.776638 0.481971 0.000000
0.828031 0.489326 0.000000
0.876677 0.494209 0.000000
0.911620 0.493050 0.000000
0.944274 0.490547 0.000000
0.973358 0.486885 0.000000
0.998718 0.482124 0.000000
1.000000 0.476783 0.000000
0.000000 0.327672 0.101381
0.000000 0.328405 0.099886
0.000000 0.330205 0.098268
0.000000 0.332341 0.094362
0.018494 0.335760 0.086885
0.055146 0.338964 0.077455
0.091615 0.341436 0.077028
0.120516 0.344427 0.076478
0.147829 0.347967 0.075990
0.174502 0.352209 0.075502
0.201144 0.357000 0.074647
0.228611 0.362158 0.074128
0.256718 0.367895 0.073457
0.289708 0.382269 0.062470
0.327031 0.399725 0.027100
0.367773 0.417853 0.000000
0.411872 0.436316 0.000000
0.458137 0.454292 0.000000
0.505974 0.471229 0.000000
0.549615 0.482155 0.000000
0.591669 0.489326 0.000000
0.632105 0.493782 0.000000
0.675319 0.499580 0.000000
0.722621 0.507500 0.000000
0.773678 0.516777 0.000000
0.825315 0.525414 0.000000
0.874479 0.531487 0.000000
0.918700 0.534264 0.000000
0.953338 0.532189 0.000000
0.979339 0.526635 0.000000
1.000000 0.520439 0.000000
1.000000 0.514031 0.000000
0.000000 0.355993 0.102266
0.000000 0.356786 0.100526
0.000000 0.357916 0.098573
0.000000 0.360052 0.094636
0.000000 0.363378 0.087037
0.000000 0.367346 0.072755
0.074769 0.369818 0.071778
0.110384 0.372839 0.071626
0.141299 0.376410 0.070832
0.170321 0.380560 0.070405
0.198642 0.385321 0.069886
0.227451 0.390448 0.069306
0.256657 0.396185 0.068544
0.286656 0.402838 0.067597
0.322454 0.419745 0.042786
0.361242 0.437171 0.000000
0.402716 0.454536 0.000000
0.446418 0.471778 0.000000
0.492470 0.488869 0.000000
0.540307 0.505425 0.000000
0.583398 0.515587 0.000000
0.627314 0.524498 0.000000
0.670863 0.531304 0.000000
0.718715 0.540398 0.000000
0.770077 0.551049 0.000000
0.822019 0.560845 0.000000
0.871611 0.568200 0.000000
0.916167 0.571740 0.000000
0.953674 0.571038 0.000000
0.983642 0.566400 0.000000
1.000000 0.559014 0.000000
1.000000 0.551537 0.000000
0.000000 0.385504 0.102937
0.000000 0.386389 0.101381
0.000000 0.387396 0.099458
0.000000 0.389502 0.094942
0.000000 0.392676 0.087037
0.000000 0.396948 0.073701
0.031861 0.399664 0.065431
0.095979 0.402625 0.065431
0.132753 0.406134 0.064210
0.164950 0.410163 0.063844
0.195407 0.414740 0.063813
0.225711 0.419806 0.063203
0.255955 0.425238 0.062959
0.286473 0.431159 0.063264
0.318853 0.440711 0.058503
0.355810 0.457160 0.015229
0.395209 0.473610 0.000000
0.436835 0.490150 0.000000
0.480690 0.506737 0.000000
0.526665 0.523125 0.000000
0.574395 0.539300 0.000000
0.617792 0.549920 0.000000
0.666011 0.562524 0.000000
0.714107 0.572808 0.000000
0.766201 0.584863 0.000000
0.818570 0.596002 0.000000
0.868528 0.604425 0.000000
0.913451 0.608881 0.000000
0.951171 0.608545 0.000000
0.981292 0.603967 0.000000
1.000000 0.597040 0.000000
1.000000 0.589105 0.000000
0.000000 0.416510 0.104036
0.000000 0.417365 0.102205
0.000000 0.418311 0.100343
0.000000 0.420294 0.095583
0.000000 0.423316 0.087373
0.000000 0.427466 0.073518
0.000000 0.430518 0.056733
0.075532 0.433448 0.056275
0.121370 0.436774 0.055940
0.157778 0.440681 0.055512
0.190951 0.444984 0.055024
0.222934 0.449744 0.055940
0.254276 0.454871 0.055909
0.285649 0.460273 0.058747
0.317235 0.465980 0.060121
0.351446 0.477821 0.043336
0.389197 0.493568 0.000000
0.429206 0.509606 0.000000
0.471077 0.525597 0.000000
0.515007 0.541650 0.000000
0.561181 0.558007 0.000000
0.610132 0.575067 0.000000
0.655787 0.587427 0.000000
0.710048 0.605341 0.000000
0.762509 0.618860 0.000000
0.815610 0.631525 0.000000
0.866026 0.640986 0.000000
0.911192 0.646082 0.000000
0.949065 0.646113 0.000000
0.979217 0.641596 0.000000
1.000000 0.634455 0.000000
1.000000 0.626276 0.000000
0.000000 0.449195 0.105013
0.000000 0.449866 0.103304
0.000000 0.450629 0.101472
0.000000 0.452461 0.096529
0.000000 0.455207 0.087831
0.000000 0.458930 0.073793
0.000000 0.462501 0.040162
0.024353 0.465126 0.040467
0.107088 0.468269 0.040711
0.149386 0.471778 0.041077
0.185519 0.475807 0.043275
0.219486 0.480140 0.046479
0.252293 0.484810 0.048798
0.284428 0.489845 0.052430
0.316564 0.495094 0.058198
0.348821 0.500725 0.062898
0.384894 0.514855 0.035523
0.423194 0.530175 0.000000
0.463416 0.545647 0.000000
0.505882 0.561486 0.000000
0.550622 0.578027 0.000000
0.598352 0.595544 0.000000
0.649409 0.614313 0.000000
0.697597 0.628748 0.000000
0.757778 0.651820 0.000000
0.811398 0.665919 0.000000
0.862455 0.676661 0.000000
0.908171 0.682582 0.000000
0.946258 0.683009 0.000000
0.976593 0.678553 0.000000
1.000000 0.671199 0.000000
1.000000 0.662715 0.029847
0.000000 0.481910 0.106996
0.000000 0.482429 0.105562
0.000000 0.483253 0.103029
0.000000 0.484840 0.098177
0.000000 0.487251 0.089784
0.000000 0.490486 0.075624
0.000000 0.494209 0.036316
0.000000 0.496773 0.025696
0.088106 0.499550 0.028046
0.138766 0.502831 0.030274
0.178988 0.506493 0.033387
0.215213 0.510552 0.037263
0.249302 0.514946 0.044251
0.282811 0.519707 0.050477
0.315679 0.524773 0.058228
0.348455 0.530022 0.064118
0.381872 0.537163 0.066590
0.418921 0.551873 0.040955
0.457984 0.567071 0.000000
0.499275 0.583124 0.000000
0.543175 0.600122 0.000000
0.590021 0.618311 0.000000
0.640345 0.637995 0.000000
0.694240 0.659113 0.000000
0.743954 0.674403 0.000000
0.806302 0.699214 0.000000
0.858366 0.711788 0.000000
0.904662 0.718715 0.000000
0.943206 0.719478 0.000000
0.973724 0.715053 0.000000
0.998077 0.707546 0.000000
1.000000 0.698573 0.084810
0.000000 0.515496 0.110231
0.000000 0.516014 0.108614
0.000000 0.516686 0.106172
0.000000 0.518059 0.101564
0.000000 0.520195 0.093324
0.000000 0.523095 0.079622
0.000000 0.526787 0.055390
0.000000 0.529351 0.015412
0.060304 0.532067 0.018250
0.126802 0.535027 0.022492
0.171542 0.538476 0.028534
0.210513 0.542199 0.034424
0.246464 0.546258 0.044312
0.280980 0.550683 0.054444
0.314977 0.555352 0.061707
0.348333 0.560418 0.068879
0.381781 0.565759 0.076295
0.416663 0.575525 0.075196
0.454963 0.590845 0.058808
0.495552 0.607263 0.010559
0.538811 0.624994 0.000000
0.585290 0.644068 0.000000
0.635004 0.664698 0.000000
0.687922 0.686213 0.000000
0.743221 0.708003 0.000000
0.793729 0.723537 0.000000
0.853025 0.745327 0.000000
0.901030 0.754604 0.000000
0.939940 0.755856 0.000000
0.970825 0.751339 0.000000
0.995209 0.743526 0.000000
1.000000 0.734035 0.114046
0.000000 0.550134 0.114199
0.000000 0.550591 0.112886
0.000000 0.551171 0.111025
0.000000 0.552422 0.105989
0.000000 0.554376 0.097902
0.000000 0.556939 0.085786
0.000000 0.560204 0.066377
0.000000 0.563134 0.010468
0.000000 0.565606 0.016449
0.113039 0.568475 0.022187
0.164279 0.571710 0.031983
0.205966 0.575341 0.042481
0.244114 0.579370 0.052552
0.280156 0.583703 0.061738
0.315190 0.588464 0.068574
0.349615 0.593591 0.076417
0.383948 0.599207 0.084474
0.418372 0.605219 0.093416
0.455604 0.618830 0.087495
0.496010 0.635981 0.072755
0.539086 0.654566 0.037140
0.585382 0.674769 0.000000
0.634516 0.695888 0.000000
0.685969 0.717372 0.000000
0.739376 0.738521 0.000000
0.793881 0.758785 0.000000
0.844572 0.773831 0.000000
0.895933 0.788266 0.000000
0.936706 0.792020 0.000000
0.967742 0.787533 0.000000
0.992218 0.779110 0.068544
1.000000 0.769039 0.139620
0.000000 0.587030 0.120394
0.000000 0.587457 0.118959
0.000000 0.587976 0.117006
0.000000 0.589105 0.112490
0.000000 0.590845 0.105257
0.000000 0.593225 0.094240
0.000000 0.596246 0.077394
0.000000 0.599512 0.016510
0.000000 0.602014 0.023621
0.096590 0.604913 0.033692
0.156863 0.608240 0.044160
0.202335 0.612085 0.055299
0.242802 0.616266 0.063905
0.280735 0.620966 0.070588
0.317174 0.626093 0.078492
0.353033 0.631708 0.086305
0.388708 0.637842 0.094697
0.424384 0.644526 0.103914
0.460639 0.652186 0.112886
0.500938 0.670436 0.102510
0.544182 0.690089 0.087922
0.590051 0.710628 0.063996
0.638025 0.731441 0.000000
0.687770 0.752102 0.000000
0.738796 0.771878 0.000000
0.790372 0.790372 0.000000
0.841978 0.807156 0.000000
0.889982 0.819364 0.000000
0.931701 0.825376 0.000000
0.964355 0.823026 0.000000
0.988861 0.814237 0.110750
1.000000 0.803616 0.164858
0.000000 0.628748 0.128725
0.000000 0.629114 0.127413
0.000000 0.629664 0.125582
0.000000 0.630823 0.121187
0.000000 0.632563 0.114687
0.000000 0.634943 0.104921
0.000000 0.638087 0.090181
0.000000 0.641810 0.061341
0.000000 0.644862 0.042054
0.076814 0.648219 0.053559
0.150057 0.652033 0.061402
0.200565 0.656397 0.067750
0.243809 0.661250 0.074800
0.284123 0.666651 0.082155
0.322789 0.672541 0.090547
0.360693 0.679011 0.098787
0.398260 0.686122 0.107698
0.435798 0.693721 0.117159
0.473640 0.701961 0.127413
0.512840 0.713893 0.132296
0.555535 0.733516 0.122255
0.600305 0.753323 0.109804
0.646571 0.772793 0.092958
0.694087 0.791501 0.069490
0.742184 0.808957 0.001099
0.790219 0.824735 0.000000
0.837797 0.838590 0.000000
0.884459 0.850187 0.000000
0.927489 0.857847 0.000000
0.960052 0.856138 0.067536
0.985657 0.849119 0.145388
1.000000 0.837919 0.192996
0.000000 0.680842 0.140169
0.000000 0.681239 0.138735
0.000000 0.681819 0.137209
0.000000 0.682948 0.133211
0.000000 0.684779 0.127108
0.000000 0.687282 0.117891
0.000000 0.690455 0.105898
0.000000 0.694484 0.087984
0.000000 0.698146 0.063050
0.030518 0.701961 0.068757
0.143282 0.706294 0.074861
0.199802 0.711147 0.081788
0.247410 0.716579 0.088655
0.290715 0.722499 0.096803
0.331945 0.728908 0.105104
